sluyters/QuantumLeap/src/datasets/gesture/HandGestureDataset_SHREC2017_csv/Gesture11/finger_2/subject_22_essai_1_skeletons_world.csv
Wrist_x,Wrist_y,Wrist_z,Palm_x,Palm_y,Palm_z,thumb_base_x,thumb_base_y,thumb_base_z,thumb_first_joint_x,thumb_first_joint_y,thumb_first_joint_z,thumb_second_joint_x,thumb_second_joint_y,thumb_second_joint_z,thumb_tip_x,thumb_tip_y,thumb_tip_z,index_base_x,index_base_y,index_base_z,index_first_joint_x,index_first_joint_y,index_first_joint_z,index_second_joint_x,index_second_joint_y,index_second_joint_z,index_tip_x,index_tip_y,index_tip_z,middle_base_x,middle_base_y,middle_base_z,middle_first_joint_x,middle_first_joint_y,middle_first_joint_z,middle_second_joint_x,middle_second_joint_y,middle_second_joint_z,middle_tip_x,middle_tip_y,middle_tip_z,ring_base_x,ring_base_y,ring_base_z,ring_first_joint_x,ring_first_joint_y,ring_first_joint_z,ring_second_joint_x,ring_second_joint_y,ring_second_joint_z,ring_tip_x,ring_tip_y,ring_tip_z,pinky_base_x,pinky_base_y,pinky_base_z,pinky_first_joint_x,pinky_first_joint_y,pinky_first_joint_z,pinky_second_joint_x,pinky_second_joint_y,pinky_second_joint_z,pinky_tip_x,pinky_tip_y,pinky_tip_z,
0.381577252,-0.173735962,0.332425,0.399409337,-0.133238781,0.333934,0.366065044,-0.156789662,0.329446,0.345420695,-0.120192011,0.322474,0.328435228,-0.089953459,0.316631,0.324178986,-0.0685190176,0.313925,0.387666143,-0.089094927,0.330973,0.385068406,-0.050053847,0.324199,0.38582423,-0.0311134728,0.320812,0.388452427,-0.012695058,0.317732,0.413568339,-0.0998699425,0.335233,0.421468209,-0.0597472846,0.329847,0.428266201,-0.0360916662,0.326705,0.434192694,-0.0186890833,0.32446,0.433720154,-0.112459246,0.338591,0.438335456,-0.0734793496,0.333379,0.446732642,-0.0533019617,0.330712,0.453459362,-0.0340148621,0.328287,0.455180133,-0.133754848,0.342232,0.464531557,-0.103038511,0.339916,0.474139263,-0.0889787224,0.338852,0.484573736,-0.0774838061,0.337913
0.382332683,-0.173119462,0.332066,0.399850292,-0.132925309,0.333744,0.366674319,-0.156186708,0.329104,0.345876415,-0.120024887,0.322518,0.328993857,-0.0899016723,0.316924,0.324647054,-0.0684483006,0.314144,0.387587667,-0.0890768913,0.330906,0.385181242,-0.0500685143,0.324294,0.386356878,-0.0309130872,0.320989,0.388923658,-0.0124623983,0.317983,0.413515291,-0.0998571323,0.33519,0.421658597,-0.0597742847,0.329996,0.428842271,-0.0360524212,0.326966,0.434829171,-0.0186289146,0.324803,0.433666354,-0.112445296,0.338549,0.438859402,-0.073554846,0.333561,0.447409311,-0.0533952756,0.331008,0.45447913,-0.0341788809,0.328688,0.455088361,-0.133727881,0.342163,0.465105583,-0.103045828,0.340063,0.474741226,-0.0889582373,0.339098,0.485189709,-0.0772773524,0.338247
0.393066527,-0.172742391,0.335753,0.408498592,-0.13247878,0.337967,0.374276275,-0.156425064,0.332494,0.35608659,-0.117237755,0.325388,0.339083238,-0.088556948,0.321753,0.328116266,-0.0680575295,0.316021,0.393050071,-0.0874415797,0.335062,0.392273766,-0.0486717007,0.328817,0.395478484,-0.0290859093,0.325695,0.396199235,-0.0116032898,0.322857,0.419674604,-0.0973498687,0.339873,0.429737444,-0.0573934267,0.335334,0.438541672,-0.0334657968,0.332686,0.443814744,-0.018019812,0.330795,0.440713232,-0.109174636,0.343613,0.446484662,-0.072012683,0.339539,0.457513817,-0.0528770627,0.337454,0.466452288,-0.0352038824,0.33556,0.463728143,-0.12951456,0.347576,0.474526459,-0.0991559482,0.346187,0.484962968,-0.0851816986,0.345548,0.495692534,-0.07717596,0.344985
0.394263747,-0.172001643,0.335819,0.40915176,-0.131824917,0.338072,0.375467554,-0.155749015,0.332582,0.355995759,-0.11720785,0.325305,0.339308765,-0.0886158478,0.321967,0.329225266,-0.0679235532,0.316628,0.393234243,-0.0874825522,0.335219,0.392581557,-0.04870989,0.329075,0.395852476,-0.029113415,0.326003,0.397120739,-0.0114286718,0.323211,0.419846241,-0.0973896825,0.340012,0.43002066,-0.0574312515,0.335555,0.438897582,-0.0334929568,0.332956,0.444475285,-0.0176128231,0.331099,0.440867142,-0.109212763,0.343733,0.446844965,-0.0720707956,0.339813,0.457992408,-0.0529323758,0.337807,0.467385987,-0.0351364309,0.335984,0.463848219,-0.129548096,0.347666,0.474775931,-0.0992080772,0.346369,0.485278747,-0.0852371637,0.345773,0.496320549,-0.0767682995,0.345247
0.393457972,-0.171186757,0.334471,0.407399803,-0.131380648,0.336557,0.374350346,-0.154928744,0.330937,0.355995542,-0.118539012,0.325453,0.335121012,-0.0901321106,0.320384,0.328864414,-0.0690902033,0.317226,0.390204391,-0.0889855051,0.33322,0.388589919,-0.050089043,0.326855,0.391031393,-0.0303603573,0.323672,0.393062854,-0.0122948504,0.320779,0.417184042,-0.0994570552,0.338353,0.426324924,-0.0594247053,0.333804,0.434883401,-0.0354594997,0.33115,0.440929761,-0.0181460429,0.329255,0.438405885,-0.111797112,0.342371,0.445038052,-0.0735528096,0.338267,0.454911063,-0.0537465014,0.336167,0.464002915,-0.0349939641,0.334258,0.46169535,-0.130207933,0.34668,0.471949072,-0.100263122,0.345529,0.483241897,-0.0883880796,0.345,0.494475399,-0.077955502,0.344534
0.391724856,-0.171775193,0.334449,0.403909488,-0.133905399,0.336522,0.372563876,-0.155531165,0.330852,0.350383396,-0.120837077,0.324311,0.332403359,-0.0917196974,0.319782,0.329639026,-0.0700132301,0.318411,0.388608889,-0.0908146747,0.333095,0.385427226,-0.0520225442,0.326459,0.388085288,-0.0322175927,0.323141,0.391009875,-0.0143542718,0.320124,0.415756122,-0.101341842,0.338306,0.423874327,-0.0611698459,0.333436,0.432096083,-0.0371881833,0.330595,0.437561279,-0.0196472595,0.328565,0.437117298,-0.113740964,0.34239,0.440764521,-0.0758029622,0.338096,0.45343339,-0.055474242,0.335898,0.462019776,-0.0360950672,0.333901,0.460258774,-0.134859838,0.346778,0.466844599,-0.104530084,0.345451,0.481178153,-0.0906283366,0.344842,0.492323922,-0.0797136118,0.344304
0.396364056,-0.172397954,0.33665,0.40840589,-0.132403504,0.338066,0.376785041,-0.156176215,0.332942,0.351329926,-0.121519223,0.325228,0.332885484,-0.0924871375,0.320558,0.327098455,-0.0723950277,0.318658,0.388937804,-0.0910319458,0.334104,0.384760546,-0.0520496167,0.326904,0.38682434,-0.032390668,0.323304,0.389701719,-0.0145240569,0.320032,0.416954742,-0.100141039,0.339286,0.424151358,-0.0608247269,0.333943,0.432073722,-0.0368709763,0.330827,0.437563776,-0.0193332142,0.328601,0.438602943,-0.109960264,0.343411,0.441770292,-0.07209113,0.338464,0.453064225,-0.0536343301,0.335933,0.460720066,-0.0352694415,0.333632,0.462844576,-0.130046265,0.347962,0.470818181,-0.100443473,0.34605,0.480993355,-0.091214902,0.345172,0.491369621,-0.0808682837,0.344397
0.39768375,-0.17272094,0.337014,0.406392403,-0.135535018,0.338763,0.379625176,-0.157290693,0.334771,0.352178632,-0.132135592,0.327644,0.333913955,-0.104829824,0.324888,0.329060413,-0.0810112671,0.324487,0.383067032,-0.100703181,0.336899,0.381507963,-0.0620064861,0.33093,0.382811044,-0.0423725655,0.327945,0.390342837,-0.0182525129,0.325232,0.411627772,-0.105969706,0.340269,0.414239412,-0.0681562543,0.335308,0.425142547,-0.0465647016,0.332415,0.433658229,-0.0300852981,0.330348,0.43636034,-0.114841646,0.342868,0.43935185,-0.0765039241,0.338229,0.44806274,-0.0554397074,0.335855,0.457836927,-0.0350489113,0.333697,0.457851647,-0.134955675,0.345586,0.462556288,-0.105306313,0.344116,0.475006038,-0.0922830508,0.343441,0.486278828,-0.0826396736,0.342845
0.398895858,-0.173913222,0.337791,0.402692889,-0.142341121,0.339471,0.379271117,-0.159870594,0.335324,0.34516662,-0.134239039,0.327315,0.328160331,-0.107188342,0.325751,0.326277474,-0.0867156577,0.325989,0.381454289,-0.102562951,0.337276,0.380828594,-0.0638354699,0.331086,0.382469626,-0.0442159224,0.327991,0.384184166,-0.0258266061,0.325177,0.405665243,-0.112511493,0.340918,0.414328726,-0.0725136358,0.335856,0.424970748,-0.0479705151,0.332903,0.432958249,-0.0310366871,0.330794,0.426718522,-0.122946224,0.34375,0.433498739,-0.0835615464,0.338815,0.44260009,-0.0640161966,0.33629,0.451441712,-0.0453775962,0.333995,0.450361043,-0.141731521,0.346749,0.461014658,-0.111186488,0.344773,0.472353667,-0.0994768843,0.343865,0.484511538,-0.0855705404,0.343064
0.398983324,-0.175128786,0.338187,0.401918176,-0.143143395,0.33968,0.378945349,-0.161524236,0.335685,0.345325856,-0.134300967,0.327466,0.328203649,-0.107202491,0.325794,0.325600392,-0.0874398447,0.326694,0.380829942,-0.103160849,0.337326,0.380451591,-0.0644222388,0.331008,0.382172998,-0.0448116538,0.32785,0.383941219,-0.0264279215,0.324978,0.40571998,-0.112526674,0.340964,0.414202894,-0.0724916133,0.335754,0.424465134,-0.0483897328,0.332715,0.432204632,-0.0313153699,0.330544,0.426794245,-0.122968042,0.343811,0.433395103,-0.0835415695,0.338734,0.442398722,-0.0639870715,0.336137,0.451145702,-0.0453478422,0.333776,0.450505211,-0.141776892,0.34686,0.460995938,-0.111181974,0.344759,0.472256138,-0.0994563447,0.343794,0.483996921,-0.0863809438,0.342942
0.394920463,-0.181049608,0.337747,0.398896669,-0.146912607,0.339415,0.373861665,-0.169726291,0.335024,0.343431677,-0.141970836,0.328096,0.327097125,-0.115317557,0.327432,0.323648963,-0.0912193651,0.328013,0.376760901,-0.111472492,0.336879,0.375877064,-0.0727883906,0.330249,0.377313262,-0.0533222473,0.326934,0.378996631,-0.0351330533,0.323921,0.403602773,-0.119711744,0.340851,0.41268189,-0.079089678,0.335517,0.418237663,-0.0548804896,0.332405,0.429337885,-0.0328197751,0.330183,0.425208948,-0.130218237,0.343955,0.431143178,-0.0913848901,0.339017,0.441103886,-0.0730258455,0.336491,0.450896392,-0.0553450521,0.334194,0.449581295,-0.149177472,0.347273,0.454931778,-0.118187933,0.344403,0.46519536,-0.107683138,0.343084,0.475011927,-0.0986607266,0.34192
0.394835839,-0.184677387,0.338818,0.398446216,-0.148070483,0.339414,0.373770692,-0.171766382,0.336001,0.343551822,-0.14312672,0.328634,0.326233076,-0.11642321,0.327216,0.321365522,-0.0968802059,0.327594,0.375880255,-0.110820444,0.336118,0.374207512,-0.0719758472,0.32883,0.375205915,-0.0525378752,0.325187,0.376378384,-0.0343357383,0.321874,0.403040442,-0.118455187,0.339927,0.412192612,-0.077726832,0.333806,0.418286425,-0.0534522998,0.330235,0.425539183,-0.0337978324,0.327685,0.424998008,-0.128616764,0.343004,0.43111111,-0.0890659838,0.337208,0.439797576,-0.0698340974,0.334242,0.448268869,-0.0482634861,0.331546,0.449939639,-0.144513371,0.346479,0.454374633,-0.117383086,0.343256,0.463958397,-0.108654929,0.341775,0.4731686,-0.100856706,0.340468
0.391959855,-0.191433202,0.340341,0.391519718,-0.159352987,0.339088,0.369577095,-0.180738033,0.337304,0.338356003,-0.151970429,0.329571,0.320167304,-0.124493921,0.326643,0.314655673,-0.104304124,0.325871,0.370627455,-0.116646353,0.334402,0.369403784,-0.0774740046,0.325948,0.370188475,-0.0578544702,0.32172,0.371482079,-0.0357936358,0.317878,0.396973203,-0.124502577,0.338008,0.404143842,-0.0837979902,0.330288,0.412901778,-0.0611082665,0.325784,0.420274258,-0.0447123029,0.322568,0.418132264,-0.134988406,0.341103,0.421415761,-0.0959085366,0.333741,0.430898669,-0.0790764268,0.329974,0.440367899,-0.0628353388,0.326549,0.441906889,-0.154368392,0.344922,0.449645913,-0.122734492,0.340503,0.459627632,-0.115238064,0.338473,0.468653987,-0.105255732,0.336682
0.381092971,-0.205933632,0.340244,0.386895839,-0.16937128,0.339206,0.362012933,-0.190385679,0.337276,0.33314988,-0.158934164,0.329538,0.316277416,-0.130473172,0.326395,0.313303079,-0.107198544,0.325792,0.368655849,-0.125856545,0.33474,0.363251367,-0.0864045679,0.325888,0.36323028,-0.0672519668,0.321462,0.363352335,-0.0493219392,0.317438,0.394724936,-0.13522769,0.338313,0.400450511,-0.0938041008,0.330194,0.405985897,-0.0697366045,0.325458,0.411662539,-0.0528328722,0.322075,0.415433961,-0.146900505,0.341359,0.418124823,-0.106111906,0.333548,0.425205527,-0.0870978886,0.329552,0.432223508,-0.0691059652,0.325919,0.438273455,-0.167589731,0.345083,0.442964052,-0.134067679,0.33965,0.451138795,-0.121722776,0.337154,0.462877558,-0.109180787,0.334951
0.377111527,-0.208652662,0.340231,0.377735139,-0.171747486,0.337618,0.354425614,-0.196064551,0.336927,0.324722304,-0.162009605,0.32867,0.307425374,-0.133533937,0.325277,0.302842626,-0.113413335,0.3249,0.35909802,-0.127255846,0.331777,0.352490973,-0.0874330693,0.321826,0.352632641,-0.0686603599,0.316851,0.35405858,-0.0519658362,0.312328,0.384722692,-0.136668752,0.335369,0.390257455,-0.095246456,0.326007,0.396795083,-0.0720606875,0.320545,0.402486649,-0.0553906221,0.316645,0.405077888,-0.148444128,0.338587,0.409468323,-0.107301339,0.329553,0.415002775,-0.0872409977,0.324932,0.422861677,-0.0682365991,0.32073,0.427586986,-0.169354534,0.342788,0.437037935,-0.136279358,0.336738,0.44584226,-0.124580285,0.333958,0.454293687,-0.111930793,0.331505
0.37158372,-0.215730857,0.342962,0.375482343,-0.174457338,0.338721,0.353094149,-0.1996949,0.339732,0.324863791,-0.170449036,0.335744,0.305942929,-0.140168715,0.328048,0.301864848,-0.116221573,0.325334,0.354722581,-0.131695755,0.332001,0.349035801,-0.0915233644,0.321167,0.34952638,-0.070122491,0.31575,0.349385447,-0.0526761452,0.310825,0.380118838,-0.140326317,0.335062,0.383494449,-0.0981645799,0.32427,0.387908288,-0.0742785359,0.317975,0.395189077,-0.055992243,0.313479,0.400073654,-0.151595291,0.338005,0.405344375,-0.108497871,0.327638,0.410465487,-0.0886932227,0.322334,0.416347408,-0.0745192273,0.317513,0.424238665,-0.170539656,0.34217,0.430184409,-0.138576405,0.3347,0.437760231,-0.126342403,0.331268,0.447577126,-0.114728728,0.32824
0.367570816,-0.221253468,0.346779,0.369558645,-0.17844636,0.340043,0.349597261,-0.205913121,0.34406,0.317360655,-0.175647933,0.337426,0.296281764,-0.14604276,0.329296,0.289360185,-0.125061689,0.326693,0.3454441,-0.134664972,0.332488,0.339356314,-0.0945023673,0.320102,0.336625817,-0.0744019854,0.31391,0.334175457,-0.055971959,0.30828,0.37015627,-0.14183529,0.334222,0.372645925,-0.0995680242,0.32126,0.376303808,-0.0761068215,0.313699,0.379739191,-0.0594806864,0.308298,0.389936935,-0.152043871,0.336321,0.393548975,-0.110631505,0.323795,0.398199092,-0.0912897251,0.317387,0.405694983,-0.0731492673,0.311561,0.412084112,-0.171520811,0.339941,0.419983928,-0.138066788,0.330477,0.426387393,-0.126384474,0.326129,0.432512852,-0.115682661,0.322292
0.361625652,-0.227665684,0.349613,0.356330042,-0.188034989,0.340853,0.339252729,-0.215039451,0.34696,0.30622452,-0.182912979,0.336824,0.284956832,-0.153288507,0.328648,0.276536341,-0.131084138,0.322578,0.335170081,-0.14209336,0.332166,0.325588923,-0.10097985,0.318351,0.32249014,-0.0820614842,0.311443,0.320006637,-0.0648085791,0.305163,0.359646252,-0.149194584,0.333273,0.359255034,-0.105950124,0.318402,0.360860279,-0.0823057272,0.309727,0.36267684,-0.0657094241,0.303531,0.379422688,-0.159461386,0.335057,0.378271027,-0.11631549,0.320403,0.380242391,-0.0965231165,0.312906,0.382439754,-0.0782618909,0.30609,0.401901718,-0.179250088,0.338663,0.406298537,-0.14429888,0.327132,0.410439335,-0.131261692,0.321834,0.414423341,-0.119428111,0.317159
0.34619698,-0.234054386,0.347339,0.344147688,-0.188462652,0.337986,0.327953094,-0.219569015,0.345251,0.294728284,-0.184291447,0.333887,0.274053285,-0.155087087,0.327117,0.266155488,-0.133203137,0.322289,0.321384338,-0.143145654,0.329686,0.312662313,-0.102603186,0.31565,0.308819319,-0.082730941,0.308632,0.306299207,-0.0658187992,0.302252,0.34523828,-0.149026153,0.329909,0.344870128,-0.106488213,0.314476,0.345265144,-0.0819807673,0.305474,0.346033091,-0.0646402074,0.299044,0.364719493,-0.158330208,0.331023,0.36410516,-0.115596954,0.315797,0.365762209,-0.0960331958,0.308007,0.367566472,-0.0777796781,0.300925,0.387337307,-0.177099679,0.333955,0.3914542,-0.142543026,0.321786,0.394920901,-0.129834253,0.316194,0.398360564,-0.12077352,0.311261
0.334793242,-0.236724057,0.346865,0.329355659,-0.191480622,0.336187,0.316595881,-0.222732838,0.345114,0.284525401,-0.189483576,0.337359,0.263287567,-0.160129443,0.329091,0.257421909,-0.140091401,0.328364,0.307192094,-0.146319261,0.327524,0.297804354,-0.105694275,0.312636,0.293374383,-0.0857290471,0.305192,0.289376179,-0.0673900868,0.298425,0.330597094,-0.151864932,0.326954,0.32960649,-0.108925011,0.310277,0.329682532,-0.0847909521,0.300548,0.329875158,-0.0672801785,0.2936,0.349669648,-0.160932656,0.327546,0.347124974,-0.117552334,0.311075,0.347237434,-0.0976677086,0.302648,0.347581643,-0.0791659999,0.294987,0.371663067,-0.179431035,0.3301,0.375349317,-0.144972814,0.31688,0.378154875,-0.13282848,0.310807,0.380979246,-0.121785355,0.305448
0.323090011,-0.240853422,0.34616,0.318178764,-0.194974129,0.333959,0.304820803,-0.226951364,0.344595,0.269038336,-0.194427096,0.33343,0.246661632,-0.167382865,0.328235,0.238043135,-0.147062112,0.325996,0.293997922,-0.149197797,0.32464,0.279902087,-0.108348186,0.309027,0.273592106,-0.0902440649,0.30122,0.268308338,-0.0755660424,0.294123,0.317019633,-0.154044833,0.323427,0.311898813,-0.110294199,0.305445,0.309329182,-0.0859716102,0.294955,0.307600509,-0.0683286185,0.287462,0.336141819,-0.162676311,0.323643,0.331784509,-0.119100545,0.305818,0.330310088,-0.0988749235,0.296698,0.329158428,-0.0801141152,0.288407,0.358905648,-0.181014098,0.326023,0.358484593,-0.14494543,0.311156,0.358893809,-0.13267721,0.304326,0.359422373,-0.122624999,0.298298
0.317063617,-0.241510592,0.344056,0.3084835,-0.197861713,0.332409,0.295121738,-0.231006084,0.343254,0.262863428,-0.197108729,0.333236,0.244058349,-0.168168994,0.327675,0.234801733,-0.146940532,0.323317,0.285472976,-0.153242,0.324411,0.27377597,-0.111175855,0.308994,0.270996961,-0.0910946912,0.301286,0.265932293,-0.0748651257,0.294278,0.307888397,-0.157409963,0.322356,0.303807845,-0.11402133,0.30469,0.301626427,-0.0890427623,0.294385,0.303633425,-0.0696339158,0.287025,0.326286239,-0.165413941,0.321823,0.322382222,-0.121515433,0.304343,0.321389948,-0.102420742,0.2954,0.320823932,-0.0873566003,0.28727,0.347829422,-0.182793418,0.323235,0.349744015,-0.148111363,0.309073,0.351178212,-0.135808914,0.302566,0.355195801,-0.123330078,0.296825
0.307331835,-0.244959697,0.342884,0.294792233,-0.198038032,0.330188,0.285426586,-0.234162982,0.342915,0.247667709,-0.201280575,0.332174,0.223639799,-0.175154863,0.326671,0.212400253,-0.154238788,0.321902,0.270225431,-0.154009752,0.322658,0.256911058,-0.113099401,0.306839,0.250301995,-0.0942698661,0.29893,0.244294049,-0.0768096566,0.29174,0.291704159,-0.156598263,0.319257,0.285992585,-0.11393575,0.300522,0.282733826,-0.0894142639,0.289594,0.280488156,-0.0716609412,0.281787,0.309639241,-0.163410749,0.317722,0.304774256,-0.119820466,0.299072,0.302465105,-0.0997285931,0.28953,0.300186573,-0.0847713492,0.280856,0.331278934,-0.179648939,0.318156,0.329844757,-0.145729119,0.302765,0.329098061,-0.13309884,0.295694,0.328676138,-0.121638504,0.289454
0.290069509,-0.250006499,0.340415,0.278590064,-0.204251663,0.326843,0.272188106,-0.238568236,0.34074,0.238031025,-0.209965392,0.333885,0.215839499,-0.184347851,0.33021,0.207086113,-0.164461702,0.328477,0.252169842,-0.161432407,0.319169,0.237601242,-0.119733322,0.302669,0.230121459,-0.100597858,0.294419,0.223253374,-0.0835232439,0.28692,0.27353149,-0.16264243,0.315156,0.265462844,-0.118496336,0.295571,0.260630006,-0.0944262689,0.284147,0.257258138,-0.0769454599,0.275987,0.291517093,-0.16836376,0.313205,0.285290912,-0.123828523,0.293587,0.282071231,-0.104563923,0.283551,0.279315168,-0.0866536949,0.274426,0.313430625,-0.183320847,0.31331,0.311539605,-0.152013807,0.297266,0.310888954,-0.137545127,0.289894,0.310477667,-0.124533935,0.28339
0.278724704,-0.256979022,0.341119,0.265393843,-0.209210009,0.326036,0.261391187,-0.246792923,0.342599,0.224145655,-0.215172927,0.332548,0.200726362,-0.189414544,0.327939,0.190329962,-0.168892797,0.324502,0.239176757,-0.166577274,0.318957,0.224097286,-0.123115084,0.301811,0.214988095,-0.107919236,0.293238,0.206601596,-0.093653602,0.285445,0.259098934,-0.166830018,0.313047,0.248220284,-0.122602625,0.292136,0.241483736,-0.0982276886,0.279939,0.23671493,-0.0805843234,0.271226,0.275971602,-0.171827873,0.309686,0.269795485,-0.12699534,0.291254,0.265664049,-0.109378568,0.281823,0.262097762,-0.0928093868,0.27325,0.29678631,-0.186045482,0.308415,0.291542172,-0.152379518,0.29093,0.288246732,-0.141250444,0.282897,0.285146499,-0.132482329,0.275809
0.266474614,-0.262075881,0.340397,0.252971265,-0.213800689,0.324192,0.249008036,-0.251666105,0.341751,0.211232571,-0.221169824,0.33154,0.186323988,-0.196255278,0.326491,0.175532398,-0.176281729,0.323615,0.226159181,-0.170745036,0.316281,0.208136273,-0.129024698,0.298901,0.198456471,-0.109944562,0.290211,0.189612217,-0.0924112942,0.282311,0.245944694,-0.170942133,0.310237,0.233346668,-0.126616549,0.288578,0.225085662,-0.103415548,0.275944,0.219219785,-0.0865231228,0.266919,0.26283064,-0.175952695,0.306878,0.254046475,-0.130417717,0.28729,0.247917649,-0.113731353,0.277268,0.242464558,-0.0980350579,0.268157,0.283869296,-0.190311624,0.305805,0.276863372,-0.156899933,0.287509,0.272660578,-0.145432946,0.279103,0.269085884,-0.135078909,0.271686
0.25348648,-0.268026089,0.339005,0.237720418,-0.220999505,0.322576,0.236137912,-0.258074986,0.340704,0.197919597,-0.228873455,0.330681,0.174101419,-0.204133485,0.32674,0.161851133,-0.183701039,0.322018,0.210042853,-0.178710504,0.314979,0.193963155,-0.136574147,0.297646,0.185024195,-0.117225641,0.288979,0.176684419,-0.0998212862,0.2811,0.229604883,-0.178030725,0.308429,0.216509172,-0.133849238,0.286285,0.208266624,-0.10940111,0.273368,0.202393511,-0.091759076,0.264141,0.246419206,-0.18234002,0.304675,0.238184848,-0.136908556,0.284718,0.23200999,-0.119438183,0.274508,0.226487171,-0.103073908,0.265226,0.267557269,-0.195901511,0.303182,0.260558428,-0.16210716,0.284589,0.256021175,-0.150900842,0.276046,0.252130213,-0.140795603,0.268508
0.242362786,-0.272512679,0.337027,0.233730282,-0.221878489,0.321096,0.225249413,-0.262821765,0.339017,0.195501708,-0.230086037,0.330814,0.172306041,-0.204931969,0.327,0.161188179,-0.184380574,0.322958,0.204372434,-0.181473146,0.314172,0.186670972,-0.139701687,0.296342,0.177364579,-0.119667123,0.287428,0.173211224,-0.100882864,0.280922,0.223614007,-0.181112938,0.307377,0.210729462,-0.137124232,0.285562,0.202057464,-0.113692003,0.272837,0.195875328,-0.0966666895,0.263748,0.240085126,-0.185656154,0.303371,0.231968124,-0.140637766,0.283491,0.225633283,-0.122902752,0.273319,0.222737575,-0.104457272,0.264073,0.260649035,-0.199444743,0.301498,0.253413456,-0.165219821,0.283186,0.248791792,-0.153252829,0.274772,0.247926504,-0.141326629,0.267348
0.23970909,-0.276508474,0.338459,0.222759088,-0.23018771,0.320717,0.218934972,-0.268628005,0.340114,0.18324813,-0.240107921,0.331475,0.158827659,-0.216423711,0.328106,0.146314907,-0.196675106,0.32433,0.195332921,-0.186916654,0.312279,0.174904085,-0.145949061,0.294245,0.163823056,-0.127045245,0.285229,0.153690256,-0.109712429,0.277031,0.214437176,-0.186597562,0.305438,0.198070302,-0.143063529,0.28275,0.187490419,-0.119625646,0.269515,0.179914251,-0.10263511,0.260062,0.230966189,-0.191278708,0.301576,0.218656696,-0.144691331,0.279773,0.209119534,-0.129355105,0.268617,0.200415125,-0.115005445,0.258476,0.251910284,-0.205447473,0.300188,0.241772453,-0.171953553,0.280729,0.235718464,-0.160366615,0.271789,0.230427627,-0.149950769,0.2639
0.231264905,-0.27974276,0.335293,0.212068484,-0.234512991,0.317,0.211548003,-0.274472559,0.338524,0.177862444,-0.245709883,0.329836,0.154641973,-0.222291087,0.327602,0.144726918,-0.200125428,0.324984,0.183014658,-0.193539146,0.310276,0.16312675,-0.152515235,0.293886,0.152232846,-0.133246801,0.285691,0.142285966,-0.115627495,0.278241,0.200360335,-0.190694813,0.301247,0.181511594,-0.14724672,0.277671,0.170165068,-0.122358554,0.263918,0.162048615,-0.104490708,0.254095,0.215784624,-0.193324644,0.295639,0.204797115,-0.146136724,0.273697,0.194060474,-0.132244122,0.26247,0.184191124,-0.119244054,0.252265,0.236050553,-0.205119423,0.292314,0.223338392,-0.173681791,0.27194,0.216176255,-0.162094392,0.262578,0.20987329,-0.151699313,0.254318
0.223940216,-0.285582829,0.334764,0.201798819,-0.238687906,0.315631,0.204302432,-0.280884883,0.338207,0.169689013,-0.250804112,0.330305,0.144486726,-0.226749335,0.325894,0.129093228,-0.207014976,0.318904,0.171916055,-0.198028505,0.308682,0.153715669,-0.153072308,0.289868,0.139151213,-0.142613266,0.280462,0.125501962,-0.13287034,0.27191,0.189141318,-0.194441071,0.299155,0.168125146,-0.152491704,0.274575,0.155518037,-0.128371326,0.260237,0.146479618,-0.111002962,0.249995,0.204501968,-0.196491557,0.29322,0.189633998,-0.152235084,0.269729,0.179602102,-0.134239989,0.257711,0.170437188,-0.117559944,0.246786,0.224812563,-0.207649183,0.289662,0.211313805,-0.175519021,0.268469,0.20245695,-0.167034472,0.258731,0.194600129,-0.159473306,0.250139
0.208618577,-0.293893467,0.333755,0.18947661,-0.245219889,0.31446,0.19133378,-0.284893887,0.336053,0.154201273,-0.257996407,0.33012,0.127593706,-0.236839259,0.326734,0.112247669,-0.217880768,0.321574,0.16078833,-0.202933134,0.30593,0.140283954,-0.159904104,0.28778,0.126485775,-0.144913807,0.278705,0.113663791,-0.130991137,0.270456,0.179274125,-0.201439343,0.297845,0.158885882,-0.159576634,0.274024,0.146945274,-0.134953568,0.260129,0.138390151,-0.117254522,0.250204,0.195407753,-0.20516013,0.293113,0.177161482,-0.163359158,0.269005,0.167817725,-0.141873522,0.256671,0.159803895,-0.122644233,0.246208,0.216115706,-0.218178933,0.290984,0.20317338,-0.185913039,0.270235,0.194633345,-0.177659592,0.260702,0.187047489,-0.170314867,0.25229
0.199013018,-0.301467111,0.334901,0.18499676,-0.252610411,0.31438,0.181226123,-0.2903472,0.335547,0.148812712,-0.263065581,0.3295,0.123334858,-0.241045979,0.326412,0.111208328,-0.220407993,0.322757,0.156365808,-0.207705289,0.302976,0.136473862,-0.165317832,0.287056,0.12176406,-0.152835452,0.279096,0.107946964,-0.141166321,0.271859,0.175480999,-0.208657152,0.296707,0.152716419,-0.167075317,0.2728,0.138846327,-0.143558386,0.258854,0.128871921,-0.126594235,0.248893,0.192297823,-0.214474956,0.293593,0.170169501,-0.173188574,0.269865,0.158809478,-0.151925218,0.257725,0.147498528,-0.134466565,0.246688,0.213941933,-0.230164123,0.293561,0.203209317,-0.188235057,0.272305,0.193955575,-0.180113299,0.262539,0.182118404,-0.178801854,0.253922
0.194973941,-0.303482342,0.335933,0.174701771,-0.253054605,0.314862,0.173505839,-0.293893469,0.336333,0.13857034,-0.26372845,0.330393,0.113075162,-0.241726569,0.327401,0.0992933805,-0.222343208,0.323153,0.145933063,-0.207672109,0.302811,0.126117059,-0.164799335,0.28614,0.11089695,-0.153475677,0.277805,0.096406526,-0.143821526,0.270227,0.165219794,-0.208766414,0.296717,0.142133783,-0.167431392,0.272403,0.128202727,-0.143782228,0.25822,0.118186044,-0.126739395,0.248089,0.182179175,-0.214737708,0.293802,0.159960079,-0.172946999,0.269761,0.148110677,-0.152347066,0.257462,0.136470853,-0.135161181,0.24628,0.204002145,-0.230678391,0.294096,0.19030212,-0.191067295,0.27268,0.17987661,-0.184068664,0.26284,0.169539838,-0.182491675,0.254158
0.196343996,-0.310948501,0.342089,0.17156665,-0.254618511,0.316468,0.172845203,-0.299098983,0.33927,0.134828238,-0.27325763,0.330458,0.108996478,-0.249498784,0.326081,0.0951839805,-0.228868825,0.320858,0.129940065,-0.206796623,0.297532,0.101431613,-0.211598837,0.272262,0.11617024,-0.234586109,0.285313,0.133163035,-0.254266182,0.300499,0.149193347,-0.204863834,0.294404,0.132239239,-0.160562124,0.281481,0.114115009,-0.150739409,0.273942,0.100259718,-0.14379642,0.268557,0.16775484,-0.208964878,0.294386,0.143086212,-0.164716152,0.265148,0.130544569,-0.142309667,0.25019,0.114580556,-0.13382889,0.236591,0.194402544,-0.224221786,0.298845,0.158220918,-0.220733994,0.27462,0.154341523,-0.225292749,0.26349,0.160638037,-0.235903111,0.266073
0.187275303,-0.308862649,0.336342,0.161452096,-0.251151739,0.311607,0.163362732,-0.29657369,0.333063,0.124706745,-0.270042862,0.32486,0.0986982523,-0.247351348,0.321073,0.0897373047,-0.227496156,0.317765,0.120214309,-0.203943147,0.292604,0.0907260138,-0.205906621,0.268961,0.104261084,-0.231133564,0.282494,0.120240473,-0.252699247,0.297231,0.139965803,-0.202131464,0.290307,0.123106404,-0.158652169,0.278309,0.105195009,-0.14926743,0.271311,0.0954473015,-0.142607972,0.266312,0.158931528,-0.206232642,0.290884,0.13494379,-0.162601347,0.262402,0.122733355,-0.140451683,0.24783,0.110435308,-0.132468889,0.234582,0.186004439,-0.221311918,0.295882,0.151022584,-0.214989989,0.271916,0.146669515,-0.220677834,0.260904,0.155914325,-0.233322528,0.263821
0.184182602,-0.307431653,0.333944,0.158589383,-0.249613136,0.309738,0.160801855,-0.295823693,0.331115,0.125118525,-0.270285446,0.325553,0.100982788,-0.249029584,0.323898,0.0873164147,-0.229895737,0.320195,0.118634148,-0.203032417,0.291632,0.0888302836,-0.205124567,0.268599,0.102509921,-0.230588372,0.282284,0.118607572,-0.252167116,0.29684,0.137884938,-0.200716498,0.288892,0.120836028,-0.15728029,0.27694,0.102544598,-0.147721733,0.269969,0.0884802155,-0.140940785,0.264989,0.156423556,-0.20436791,0.289052,0.132034731,-0.160712034,0.260972,0.119626583,-0.138557009,0.246606,0.103859655,-0.13026271,0.233546,0.182989344,-0.218864426,0.293473,0.147754579,-0.212597519,0.269994,0.143773233,-0.218595762,0.259206,0.149912332,-0.2309672,0.262339
0.180953075,-0.305011401,0.331302,0.152756858,-0.246446396,0.306903,0.15802274,-0.293609179,0.328726,0.123862107,-0.268177592,0.324634,0.100826537,-0.247981561,0.324455,0.0866965606,-0.229604328,0.321153,0.114534703,-0.199537089,0.289011,0.0783189369,-0.193680688,0.266059,0.0893641009,-0.220892018,0.279639,0.104054702,-0.24528891,0.294122,0.132949578,-0.196916697,0.285892,0.115915095,-0.154091517,0.274717,0.0969068706,-0.144735877,0.268198,0.0822473237,-0.138087567,0.263541,0.150873669,-0.200314544,0.285759,0.125289523,-0.156611146,0.257527,0.109107039,-0.133531117,0.243083,0.0958117877,-0.126120191,0.229951,0.176867946,-0.214547369,0.289872,0.1404794,-0.208208515,0.266407,0.136967244,-0.214285506,0.255626,0.143410757,-0.226627079,0.25869
0.179346339,-0.30424204,0.330409,0.151806618,-0.245422816,0.306207,0.15673834,-0.292923945,0.327953,0.123629353,-0.267543509,0.324568,0.101033259,-0.247670901,0.324876,0.0866229679,-0.2295384,0.321613,0.11404845,-0.198779492,0.288587,0.0787024304,-0.19341412,0.265829,0.0897739272,-0.22067993,0.279468,0.104455256,-0.245069051,0.293897,0.132302935,-0.196094095,0.285365,0.116429708,-0.153585955,0.275209,0.0963574319,-0.142516061,0.269285,0.0830814032,-0.136888011,0.265053,0.15009123,-0.199419742,0.285127,0.124381501,-0.155830006,0.257021,0.111321489,-0.133734016,0.242641,0.0947369348,-0.12543056,0.229568,0.175917193,-0.213537586,0.289084,0.139427156,-0.207321369,0.265781,0.135774943,-0.213623222,0.255074,0.142010463,-0.226413545,0.258215
0.175881656,-0.305080267,0.330787,0.147723072,-0.243077715,0.305516,0.155816567,-0.293526748,0.328672,0.120868835,-0.26601868,0.324756,0.098676903,-0.246217342,0.325172,0.0847267069,-0.22924749,0.321765,0.111142491,-0.196999496,0.287701,0.0772876852,-0.19333795,0.264623,0.0886813332,-0.21985189,0.277781,0.103653335,-0.243656666,0.292145,0.128768619,-0.193675753,0.283754,0.112864147,-0.152162283,0.275599,0.0930201277,-0.140400704,0.270841,0.081034657,-0.135220349,0.267443,0.146056663,-0.19652349,0.283027,0.118388091,-0.152207339,0.254076,0.105117736,-0.131901147,0.245553,0.0938304182,-0.12822882,0.237806,0.171397613,-0.210162982,0.2866,0.134343419,-0.203550558,0.262894,0.130643222,-0.209832698,0.252002,0.136500819,-0.222590282,0.254726
0.174802189,-0.304714156,0.330502,0.148043433,-0.243356496,0.305273,0.154681593,-0.293202231,0.328327,0.119679578,-0.265675781,0.324129,0.0971356337,-0.245760769,0.32422,0.0830500736,-0.228572923,0.320662,0.11027851,-0.196701065,0.287404,0.0767383575,-0.193516376,0.264302,0.0883874245,-0.219892211,0.27749,0.103527961,-0.243477593,0.291874,0.127951473,-0.193313348,0.283547,0.112618804,-0.151883311,0.275746,0.0933395716,-0.14055294,0.271196,0.0806756346,-0.134787646,0.267945,0.145281372,-0.196100759,0.282889,0.118697825,-0.151977857,0.25391,0.107025687,-0.132759735,0.245374,0.0930732935,-0.127563185,0.237614,0.170682548,-0.2096606,0.286536,0.133702537,-0.202964616,0.262822,0.130003831,-0.209328386,0.251927,0.135819249,-0.222228635,0.254667
0.176100321,-0.304253778,0.330327,0.147545976,-0.243262947,0.305054,0.153928251,-0.293226856,0.32814,0.119959053,-0.266116994,0.323581,0.0962164135,-0.245519271,0.323267,0.0824271796,-0.228270704,0.319473,0.109862503,-0.196754587,0.287144,0.0764954441,-0.193859742,0.26401,0.0882953767,-0.220145981,0.277181,0.103542814,-0.243609742,0.291572,0.127553269,-0.193298219,0.28329,0.113447635,-0.151926582,0.275455,0.0948725297,-0.141829147,0.270885,0.0803976113,-0.134484023,0.267621,0.144899996,-0.196032337,0.282638,0.118299967,-0.15181993,0.253616,0.107652885,-0.132989031,0.245152,0.0927498809,-0.127417206,0.237457,0.170333796,-0.209538408,0.286302,0.133431738,-0.202186211,0.262559,0.129526763,-0.208699921,0.251651,0.135145175,-0.221827258,0.254374
0.170428506,-0.298723389,0.324421,0.142359542,-0.236781449,0.300866,0.150477791,-0.28753445,0.322173,0.113748631,-0.256765971,0.317657,0.0908333767,-0.237189655,0.317841,0.0786769565,-0.224067206,0.315116,0.104286276,-0.189346087,0.283902,0.0758254083,-0.189212491,0.261647,0.0874774452,-0.216142941,0.275499,0.102505766,-0.240709761,0.289815,0.122442156,-0.184440655,0.280582,0.108669683,-0.144558159,0.274931,0.0905698349,-0.133550151,0.271635,0.0763747129,-0.125383512,0.269281,0.140179348,-0.185800952,0.280199,0.113923331,-0.141074632,0.252536,0.103487519,-0.12190066,0.245034,0.0891386334,-0.115386324,0.238215,0.166134736,-0.197375473,0.283874,0.130561944,-0.186891357,0.261016,0.126598165,-0.195103943,0.250513,0.132183318,-0.210197971,0.253902
0.159546844,-0.283578822,0.313352,0.13717871,-0.215988857,0.292954,0.139258676,-0.269761727,0.31123,0.109214038,-0.240006421,0.3083,0.0844188807,-0.221223566,0.307399,0.067198492,-0.203831314,0.30217,0.100726728,-0.175448999,0.278035,0.0696635281,-0.172736633,0.257629,0.0829216976,-0.199507315,0.272528,0.0988561854,-0.222384103,0.286533,0.118950806,-0.170084791,0.275387,0.105634286,-0.131824902,0.271487,0.0878179933,-0.120275999,0.269212,0.073755194,-0.111581211,0.267587,0.136677491,-0.170743792,0.275243,0.111443439,-0.12714602,0.250337,0.100920265,-0.107526513,0.243037,0.0865709023,-0.0999799048,0.236401,0.162440615,-0.18093987,0.278642,0.127901886,-0.170480783,0.257591,0.124601762,-0.179885948,0.247919,0.1309798,-0.196064954,0.252439
0.159451217,-0.249474014,0.308274,0.134921472,-0.193831977,0.288612,0.138148379,-0.242565769,0.305815,0.107064067,-0.220399929,0.303095,0.0813356635,-0.203819363,0.302586,0.0635525061,-0.187234315,0.297843,0.0968851825,-0.156772642,0.273696,0.0667505726,-0.152622959,0.253471,0.0808203231,-0.178265883,0.268616,0.0973886003,-0.200460582,0.282648,0.115214108,-0.149834779,0.27168,0.100654242,-0.113739761,0.269331,0.0827415597,-0.101507001,0.267961,0.0685311664,-0.0921611398,0.266982,0.133192244,-0.14889523,0.271982,0.107068136,-0.105679382,0.247724,0.0963079618,-0.08610544,0.241415,0.0822989969,-0.0775888307,0.235679,0.15959426,-0.156683533,0.275773,0.125724848,-0.14533826,0.254992,0.123436148,-0.155417683,0.245444,0.130682184,-0.171505306,0.250197
0.156844687,-0.237662571,0.303009,0.132694659,-0.176309434,0.284999,0.135449351,-0.231155015,0.300239,0.103981121,-0.203665004,0.298098,0.0780298187,-0.188180617,0.29783,0.0603148446,-0.171760566,0.293422,0.0944920534,-0.141687551,0.270667,0.0650853624,-0.13570277,0.251182,0.0793579745,-0.160739945,0.266787,0.0959773524,-0.182651682,0.28071,0.113294625,-0.13411233,0.26949,0.0989228981,-0.0995509489,0.268525,0.0814264101,-0.0861412932,0.267962,0.0674891057,-0.0757723158,0.267559,0.131648988,-0.132391961,0.270318,0.10620437,-0.0893398687,0.247498,0.0957983773,-0.0694661514,0.241985,0.0822849165,-0.0595746218,0.236973,0.158469476,-0.138820213,0.274432,0.12549092,-0.125987085,0.254478,0.123660514,-0.136752221,0.24531,0.131394365,-0.153089585,0.250572
0.153908522,-0.225166648,0.299941,0.130561685,-0.172295876,0.282832,0.132702823,-0.219582753,0.297641,0.101111714,-0.197139375,0.296367,0.0761355809,-0.182175109,0.297152,0.0598116858,-0.168609362,0.293261,0.0926888787,-0.135882134,0.269645,0.0626653916,-0.129164543,0.251016,0.0764764018,-0.154089694,0.266829,0.0943408616,-0.179246996,0.280498,0.111093618,-0.128052435,0.268098,0.0979852543,-0.0942075714,0.268243,0.0805550564,-0.0803037253,0.268328,0.0671629858,-0.0727483844,0.268389,0.128985379,-0.126040112,0.268531,0.104020872,-0.0830353505,0.246442,0.093834024,-0.0630674343,0.241314,0.0811425589,-0.0560389548,0.236652,0.155039882,-0.131982066,0.272028,0.121739504,-0.118420322,0.252805,0.119845131,-0.129496932,0.243972,0.129197513,-0.149269218,0.249546
0.112184173,-0.192236039,0.286756,0.114168298,-0.145177286,0.280435,0.0966782207,-0.18252887,0.288507,0.0818903492,-0.160101168,0.294487,0.0643815472,-0.139657588,0.298335,0.0528797843,-0.119958517,0.295386,0.0962185707,-0.108028334,0.278925,0.0775592704,-0.0709393931,0.269756,0.0648678488,-0.0538792513,0.265172,0.056001041,-0.0399385746,0.276638,0.115627581,-0.106992371,0.274979,0.0990573887,-0.0650491005,0.262975,0.0891237514,-0.0397169043,0.255972,0.0785408467,-0.0232690369,0.25097,0.131824907,-0.110471241,0.27236,0.124721099,-0.0738395574,0.261791,0.112062873,-0.0643465009,0.257072,0.106234788,-0.0730449949,0.252782,0.151157408,-0.12245421,0.270414,0.134583579,-0.086321915,0.259639,0.126300805,-0.0698389272,0.254688,0.118883789,-0.055012506,0.25032
0.115810289,-0.183366878,0.286433,0.116028104,-0.128107784,0.279313,0.100223665,-0.175654884,0.289977,0.0841648359,-0.143480362,0.29306,0.0681987031,-0.124182986,0.29825,0.0566265172,-0.104290927,0.295021,0.0939836705,-0.093428517,0.279649,0.0782579042,-0.0554983859,0.27079,0.0664579379,-0.0375714068,0.26636,0.0552983742,-0.0205749743,0.262332,0.113038336,-0.0898497492,0.273169,0.0998444327,-0.0469137043,0.260373,0.0896415863,-0.0219417165,0.252908,0.0802282531,-0.00455162379,0.247576,0.129054466,-0.0912106165,0.268542,0.117934205,-0.0483486172,0.255834,0.108062767,-0.0281976582,0.249333,0.097134855,-0.0108117682,0.243423,0.148567557,-0.100442666,0.264399,0.136215892,-0.064185111,0.253395,0.127394636,-0.0508766475,0.248339,0.11928166,-0.0384843837,0.243878
0.120801833,-0.17134288,0.2868,0.117522931,-0.125778165,0.281701,0.105213215,-0.165708538,0.291894,0.0854751803,-0.136221489,0.292993,0.0682285141,-0.115343864,0.29643,0.0596617698,-0.0964503659,0.296008,0.0966600952,-0.0901741872,0.285252,0.0832995323,-0.0528881059,0.278397,0.0729353378,-0.03438981,0.27497,0.0631182504,-0.017097637,0.271854,0.114727009,-0.0850555442,0.277301,0.105205335,-0.0420749301,0.266201,0.0921926084,-0.0192586308,0.259725,0.0825177657,-0.00325431426,0.2551,0.129880901,-0.0850581098,0.271262,0.120124486,-0.0423024815,0.259765,0.111809078,-0.0208912426,0.253883,0.101387921,-0.00259170732,0.248536,0.148303414,-0.0924746423,0.265124,0.13919369,-0.056000495,0.255421,0.131110005,-0.0421085397,0.250963,0.123669856,-0.0291480891,0.24703
0.121187425,-0.167112298,0.288344,0.118655315,-0.111728234,0.283333,0.106002324,-0.156797612,0.293107,0.0850788345,-0.124663068,0.294547,0.0682712683,-0.103792081,0.298205,0.0601259809,-0.0850668107,0.298068,0.0980774877,-0.077873276,0.286509,0.0888478715,-0.0403114681,0.279124,0.0775756772,-0.0223971648,0.275431,0.0667891101,-0.00518288459,0.272075,0.11692081,-0.0742913926,0.27901,0.114158273,-0.0329326939,0.268313,0.100789619,-0.0130730309,0.262074,0.0868653321,0.000259659498,0.257617,0.132508361,-0.0755764328,0.273333,0.127293541,-0.0342967733,0.262566,0.116737445,-0.0160453351,0.257057,0.104704045,-0.000361852347,0.25205,0.151063568,-0.0845066305,0.267602,0.143744092,-0.0478606837,0.257871,0.137128619,-0.0327694072,0.253401,0.1297972,-0.0208433519,0.249456
0.122921285,-0.158993238,0.289175,0.120736873,-0.109173852,0.284891,0.107282022,-0.1478857,0.294001,0.0879464989,-0.119777194,0.295441,0.0693220511,-0.101691776,0.298642,0.0610398014,-0.0832307452,0.298769,0.1010738,-0.0731129997,0.28858,0.0939791594,-0.0363701748,0.28174,0.0801434954,-0.0212783131,0.27832,0.0688451643,-0.00456384373,0.27521,0.119894678,-0.068957632,0.281193,0.119544123,-0.0302282097,0.271093,0.103788114,-0.0128918527,0.265201,0.0932302302,0.00184374414,0.260992,0.135551662,-0.0697356121,0.275537,0.134244003,-0.0307759175,0.265919,0.123870125,-0.0135564189,0.260999,0.111143963,0.00269293211,0.256526,0.154315051,-0.0780159833,0.269702,0.147860849,-0.0412281434,0.26053,0.141183689,-0.0263124504,0.256316,0.132652726,-0.0177674388,0.252598
0.124917266,-0.152898158,0.291559,0.123656643,-0.105134178,0.286807,0.109056554,-0.146585679,0.296094,0.089084718,-0.118292353,0.296931,0.0714435377,-0.0977369258,0.300335,0.0638471055,-0.0798743104,0.300915,0.102292499,-0.0716779592,0.289842,0.0939985909,-0.034479278,0.282633,0.0821537905,-0.0173927934,0.279029,0.0707036813,-0.00079327526,0.275752,0.121347463,-0.0678437443,0.282706,0.120988029,-0.0289492224,0.272393,0.107198106,-0.0111568333,0.266377,0.0950735803,0.002613979,0.26208,0.137211893,-0.0689107091,0.277303,0.140123022,-0.0279798653,0.265386,0.128734852,-0.0158549569,0.259288,0.116736314,-0.0223217002,0.253746,0.156241389,-0.0775796497,0.271845,0.149848541,-0.0406925557,0.262331,0.143297513,-0.0257191473,0.25796,0.136092865,-0.0138421395,0.254103
0.124885852,-0.155848009,0.291405,0.124166597,-0.105541511,0.287022,0.109437087,-0.145878697,0.296028,0.0898954822,-0.118126178,0.297435,0.0728994845,-0.0973559551,0.301112,0.0654635971,-0.0792095301,0.301633,0.103396497,-0.0718898847,0.290391,0.0961621882,-0.034921035,0.283384,0.0844364082,-0.0180730448,0.279881,0.0717944635,-0.00256333406,0.276696,0.122430108,-0.0683531941,0.28324,0.122568805,-0.0294698186,0.273079,0.108973962,-0.0116903524,0.267153,0.0969724339,0.00225186082,0.262919,0.138207927,-0.069657916,0.277788,0.137993689,-0.0300465478,0.267297,0.126665914,-0.0127410627,0.26193,0.113373133,0.00101958825,0.257051,0.156999684,-0.0785865059,0.272208,0.150804266,-0.0417792818,0.262973,0.144449375,-0.0266814478,0.25873,0.137838621,-0.0139973552,0.254987
0.125806158,-0.155956504,0.291947,0.124767682,-0.108505335,0.288368,0.110176316,-0.146173657,0.295828,0.091864186,-0.120300543,0.298233,0.0747457225,-0.098912716,0.301474,0.0664004172,-0.0795835209,0.301393,0.107040236,-0.0740824008,0.291256,0.101304172,-0.0375663177,0.28472,0.0901125087,-0.0208244368,0.281452,0.076349091,-0.00456818735,0.278481,0.126681986,-0.071589866,0.28528,0.127972254,-0.0325439288,0.275842,0.11512805,-0.0147706606,0.270337,0.105174393,-0.000841869359,0.266405,0.142925589,-0.0737645682,0.280715,0.151918236,-0.039033409,0.271809,0.146282116,-0.020093984,0.267252,0.135496046,-0.01368794,0.26311,0.162099182,-0.0837745853,0.276028,0.160808647,-0.0493798275,0.267379,0.15577245,-0.0339527142,0.263405,0.149508303,-0.0225785771,0.259898
0.126387884,-0.155941131,0.29216,0.12551111,-0.108947498,0.28854,0.110797726,-0.146542172,0.296044,0.0928748241,-0.120985791,0.298699,0.0755389225,-0.0992768538,0.301634,0.0669589238,-0.0798031679,0.30123,0.107603962,-0.0747307974,0.291407,0.101635519,-0.0381747799,0.284809,0.0905187779,-0.0212962397,0.28151,0.0773273967,-0.00501578004,0.278511,0.127296978,-0.0722850028,0.285416,0.128517441,-0.0331727607,0.275867,0.115748167,-0.0154131028,0.270297,0.105854206,-0.00151327371,0.266319,0.143571977,-0.0745030567,0.280843,0.152051258,-0.0390675872,0.272047,0.146443038,-0.0201160891,0.267546,0.135673713,-0.0137058882,0.263455,0.162768353,-0.0845671115,0.276153,0.160871195,-0.0493990343,0.267483,0.15582804,-0.0339648307,0.263499,0.149557775,-0.0225860483,0.259984
0.128375004,-0.160806108,0.295437,0.130629459,-0.113107113,0.288759,0.112232549,-0.150776368,0.297972,0.100021217,-0.129615577,0.299993,0.0806689526,-0.106419448,0.300687,0.0697946615,-0.0825015266,0.299474,0.110550009,-0.0812881262,0.288051,0.102559621,-0.0425698887,0.27816,0.09267501,-0.0250029789,0.273214,0.0829836681,-0.00845292379,0.268718,0.13127167,-0.0792644586,0.282995,0.127428219,-0.037095297,0.270622,0.11451078,-0.0222474451,0.263405,0.104130159,-0.0130619673,0.25825,0.148592169,-0.0819270834,0.279496,0.142612972,-0.0392403042,0.26692,0.134272372,-0.0202151942,0.260485,0.129494223,-0.00963979764,0.254636,0.16945119,-0.0926726306,0.276591,0.160751147,-0.055944147,0.265669,0.154370354,-0.0415328438,0.260651,0.14736808,-0.032058899,0.256223
0.144545488,-0.166239826,0.297372,0.144719626,-0.12053526,0.288588,0.127781885,-0.159381456,0.3012,0.109672839,-0.13430299,0.298459,0.0901550523,-0.113590754,0.300793,0.0794518172,-0.0943419,0.298713,0.12054203,-0.0858186762,0.288299,0.106484552,-0.047225967,0.278144,0.0941522556,-0.0307966533,0.273066,0.0826240104,-0.0116931051,0.268451,0.139351733,-0.0817144217,0.281009,0.129010584,-0.0381441469,0.267251,0.114369513,-0.0193792558,0.259225,0.106342286,-0.000496701128,0.253493,0.155336141,-0.0827027246,0.27588,0.146057882,-0.0395968257,0.261764,0.135469353,-0.0220919369,0.254542,0.124070471,-0.00353582487,0.247977,0.175184076,-0.0915500892,0.271444,0.166166052,-0.0558916066,0.258763,0.158760355,-0.0431727738,0.252936,0.152017256,-0.0312968174,0.247795
0.147904969,-0.167397046,0.297292,0.146178207,-0.121250031,0.288193,0.136346118,-0.162590984,0.301368,0.110671181,-0.135918932,0.29816,0.0903344655,-0.115796229,0.300362,0.078906488,-0.0968266368,0.298214,0.122045741,-0.0867403057,0.288035,0.106600529,-0.0479949204,0.277501,0.0949502909,-0.0304258231,0.272234,0.0834831959,-0.011941459,0.267446,0.140504702,-0.0823625028,0.280341,0.128705455,-0.0387445561,0.265974,0.115921522,-0.0165818388,0.257593,0.10637507,0.000245024952,0.251607,0.156215546,-0.0831285665,0.27491,0.144547742,-0.0401417202,0.260423,0.134094602,-0.021357751,0.253011,0.123437931,-0.00282259162,0.246272,0.175796803,-0.0917149765,0.270178,0.166902277,-0.0556090649,0.257185,0.158680197,-0.0448334391,0.251215,0.151166534,-0.0347599914,0.245948
0.155174769,-0.173728738,0.299784,0.151525364,-0.131290999,0.288159,0.137598201,-0.165857156,0.301867,0.114358209,-0.143553598,0.297921,0.093031379,-0.121546875,0.29826,0.0797902991,-0.100430405,0.296006,0.126670641,-0.0929423088,0.283911,0.111249208,-0.0531764832,0.270567,0.100032221,-0.0358077565,0.263895,0.0892922501,-0.019561884,0.25783,0.146604537,-0.0910735685,0.278127,0.134193885,-0.0473841778,0.261132,0.123665232,-0.0239367988,0.251219,0.114910091,-0.0078054191,0.244137,0.163521414,-0.0940458986,0.274521,0.150123434,-0.0510247319,0.257822,0.141344186,-0.0303987614,0.249279,0.133210077,-0.0108882181,0.241512,0.184478338,-0.105527863,0.272353,0.175245958,-0.0691261544,0.257635,0.168170641,-0.056796855,0.250873,0.161802715,-0.0453884979,0.244906
0.162928005,-0.185466017,0.299701,0.161048001,-0.140436386,0.287858,0.145768542,-0.177583888,0.302692,0.123246539,-0.152050935,0.295203,0.101636501,-0.129603615,0.294963,0.0927697654,-0.111353256,0.294823,0.135721601,-0.103559423,0.284657,0.118052389,-0.064372681,0.271273,0.10659926,-0.046771,0.264581,0.0958561931,-0.0301482394,0.258498,0.154478183,-0.100017071,0.277638,0.139204503,-0.0569030884,0.260585,0.126972762,-0.0344260886,0.250637,0.117962516,-0.0175693061,0.243531,0.170588901,-0.101618091,0.273038,0.157472615,-0.0592172009,0.255293,0.149048507,-0.038679554,0.246215,0.141285754,-0.0193320951,0.237961,0.190963345,-0.111505357,0.26975,0.182360613,-0.0777266168,0.254531,0.17648201,-0.0641498483,0.247538,0.171256228,-0.0516566157,0.241368
0.170458842,-0.192712092,0.2943,0.169015167,-0.148515367,0.283575,0.153738286,-0.185397978,0.297845,0.131845093,-0.159947853,0.291648,0.111043154,-0.13705683,0.29151,0.101928938,-0.118173597,0.290838,0.144952078,-0.111550082,0.281759,0.126487621,-0.0730530639,0.270573,0.118453213,-0.0543344417,0.267707,0.111020529,-0.0369721667,0.265102,0.163557793,-0.108114221,0.27432,0.149177048,-0.0652343026,0.2581,0.138071032,-0.0423414014,0.248638,0.129912739,-0.0251702871,0.241879,0.179356121,-0.109790759,0.269261,0.168839572,-0.0659349116,0.253006,0.159008028,-0.0492720277,0.244689,0.149798502,-0.0332020068,0.237129,0.199084526,-0.119729784,0.265246,0.190778316,-0.087192141,0.250764,0.187028136,-0.0715704203,0.24411,0.183760571,-0.0573677362,0.238239
0.182058862,-0.204217555,0.295906,0.18083671,-0.157542865,0.283548,0.164242237,-0.195452466,0.297975,0.14058376,-0.169135916,0.290648,0.118951458,-0.147860062,0.291306,0.10648583,-0.127928359,0.287101,0.155163269,-0.118488494,0.278844,0.13539334,-0.0809192221,0.264855,0.125329201,-0.0617223049,0.257861,0.116068706,-0.0439788353,0.251502,0.174778687,-0.11631541,0.272884,0.160455786,-0.0743057113,0.254902,0.14971396,-0.0529994763,0.244412,0.14185825,-0.0369718462,0.23692,0.191529135,-0.119117679,0.269205,0.180180815,-0.0758869411,0.251181,0.171587054,-0.0587650856,0.241959,0.163660423,-0.0423697993,0.233576,0.212586358,-0.130571765,0.267081,0.202038507,-0.100137527,0.251743,0.197241526,-0.0854749641,0.244696,0.193039988,-0.0721072502,0.238478
0.19316592,-0.214401632,0.297285,0.191104248,-0.166869484,0.283702,0.175129559,-0.204787451,0.298934,0.151746392,-0.175145051,0.290792,0.129472314,-0.149192409,0.286841,0.119501573,-0.128532278,0.283278,0.165609893,-0.126007343,0.277724,0.146364739,-0.0880913986,0.262954,0.136805365,-0.0688890325,0.255895,0.128027671,-0.0511720188,0.249477,0.185277452,-0.124840924,0.271981,0.171463992,-0.0836017576,0.252965,0.161415774,-0.0626629718,0.241872,0.154129011,-0.0469609026,0.233948,0.202052684,-0.128557127,0.268603,0.190438493,-0.0871108863,0.24952,0.183319082,-0.0679042262,0.239757,0.176860214,-0.0497898302,0.230881,0.223114205,-0.141253791,0.267043,0.214136404,-0.111881071,0.25079,0.210147539,-0.0977736844,0.243323,0.206713966,-0.0849356796,0.236734
0.20370983,-0.224176621,0.300334,0.199585778,-0.174757156,0.285878,0.183891218,-0.212791417,0.299485,0.156815409,-0.181019083,0.288518,0.133811941,-0.155464048,0.284251,0.121952942,-0.133962124,0.277429,0.170202571,-0.132039048,0.276143,0.15201415,-0.0928181283,0.259048,0.142461935,-0.0748778661,0.250501,0.133644691,-0.0581310258,0.242731,0.192496686,-0.13218393,0.273404,0.18053176,-0.0910608358,0.2534,0.173078627,-0.0683512092,0.241731,0.167781028,-0.0515687251,0.233396,0.211585372,-0.137067736,0.272587,0.200171811,-0.096949449,0.25283,0.194399852,-0.0759120123,0.242723,0.189199555,-0.0564206642,0.233534,0.235534911,-0.151246769,0.274157,0.228185944,-0.118439543,0.25735,0.224042506,-0.107479933,0.249628,0.220512483,-0.0974632917,0.242814
0.218742127,-0.23423874,0.303779,0.21644046,-0.18571519,0.287894,0.207474288,-0.228515521,0.30351,0.174185906,-0.193948483,0.291799,0.149027753,-0.168661012,0.286178,0.136745371,-0.147972616,0.281115,0.185580707,-0.143117952,0.278053,0.166733509,-0.103588457,0.259874,0.157296906,-0.083766523,0.250784,0.147823499,-0.0722641691,0.24252,0.206976867,-0.142246075,0.274185,0.192728823,-0.10096468,0.252909,0.183860391,-0.0787762769,0.240498,0.177543394,-0.0624126235,0.231633,0.225607682,-0.146404371,0.27258,0.213703013,-0.106593826,0.251288,0.207688527,-0.0858531761,0.240395,0.202209342,-0.0670715933,0.230492,0.249503621,-0.159928643,0.273484,0.242129415,-0.125140784,0.25564,0.236966519,-0.117611528,0.247442,0.232543591,-0.110788103,0.240208
0.229740111,-0.244159257,0.301263,0.227260847,-0.199113303,0.288174,0.2099273,-0.233277252,0.300698,0.183329554,-0.203269516,0.289311,0.160284378,-0.175991626,0.28353,0.150974372,-0.155432516,0.280459,0.198919195,-0.155654031,0.279623,0.182855379,-0.116210551,0.26374,0.174857326,-0.0963632744,0.255884,0.167568473,-0.0782060919,0.248742,0.221191194,-0.156260997,0.276879,0.212245292,-0.114084214,0.258128,0.206921042,-0.0905540354,0.247189,0.203099899,-0.0741161695,0.239376,0.240128285,-0.161557733,0.275922,0.233140949,-0.120986014,0.25722,0.229686441,-0.0998426479,0.247651,0.226630684,-0.080351515,0.238952,0.263659928,-0.176270379,0.277091,0.261974141,-0.14155086,0.261499,0.259879133,-0.133381879,0.254334,0.258305548,-0.125943343,0.248013
0.240097878,-0.257936855,0.302865,0.239079104,-0.210729339,0.289591,0.220388328,-0.246017458,0.302004,0.195957561,-0.213695805,0.291595,0.174263647,-0.186506855,0.28667,0.165385542,-0.165639965,0.283282,0.211576884,-0.166214575,0.280547,0.197380011,-0.128490784,0.264091,0.190258424,-0.109255128,0.255864,0.183767438,-0.0915148649,0.248384,0.233860119,-0.167857481,0.278137,0.225566851,-0.126543102,0.259235,0.220655761,-0.103517441,0.248208,0.217146675,-0.0875127854,0.240332,0.252822719,-0.17404041,0.277473,0.24741942,-0.132421381,0.258572,0.244711323,-0.111349975,0.248902,0.241786621,-0.0970562273,0.24011,0.276308445,-0.189884293,0.279017,0.275387244,-0.155942622,0.263329,0.273457434,-0.148322129,0.256121,0.272010079,-0.141568536,0.249762
0.268324301,-0.274207173,0.305534,0.259661516,-0.221850904,0.291545,0.248065889,-0.263031757,0.304204,0.216842991,-0.227834955,0.295048,0.193126392,-0.201780613,0.289775,0.182424,-0.181059949,0.28576,0.229231905,-0.177893597,0.281464,0.213024705,-0.138089033,0.264308,0.205136299,-0.119470855,0.25573,0.197945009,-0.102263783,0.247931,0.252018454,-0.178508577,0.279473,0.243187339,-0.136208352,0.259826,0.238403343,-0.113375683,0.248366,0.235122043,-0.0966810779,0.24018,0.271522526,-0.183889684,0.279224,0.262886099,-0.141726799,0.259807,0.258619825,-0.120367378,0.249872,0.255653477,-0.107011267,0.240841,0.295918341,-0.198786359,0.281376,0.29194725,-0.165303003,0.265102,0.290356859,-0.157765024,0.257625,0.289242434,-0.151368258,0.251027
0.273574678,-0.277577353,0.309157,0.26985607,-0.227878038,0.293716,0.253166985,-0.265321139,0.306925,0.225924478,-0.229213968,0.294475,0.20325803,-0.201238752,0.28779,0.194786549,-0.18042383,0.285053,0.24143288,-0.182777182,0.281599,0.22389119,-0.140690633,0.263641,0.215685309,-0.123055514,0.254662,0.208210598,-0.106700904,0.246499,0.26472964,-0.185722232,0.280391,0.255221108,-0.140338777,0.259681,0.250577678,-0.119193758,0.2476,0.247463328,-0.103681751,0.238971,0.284389816,-0.192931203,0.280932,0.27419848,-0.147378553,0.260468,0.270472301,-0.130755944,0.249998,0.267002988,-0.125208305,0.24048,0.30833692,-0.209752249,0.284255,0.30227015,-0.176349766,0.266586,0.300232918,-0.165698727,0.258468,0.298713362,-0.157637356,0.251305
0.274406661,-0.277590882,0.309526,0.271968741,-0.227748366,0.294285,0.25413484,-0.26424064,0.306714,0.225521057,-0.22727501,0.293606,0.2027087,-0.199270269,0.286637,0.194419938,-0.178582249,0.284141,0.248192522,-0.179844849,0.281537,0.229873225,-0.137385958,0.263639,0.221989128,-0.12247187,0.25469,0.211588928,-0.10800049,0.246555,0.271618694,-0.185271724,0.281132,0.258913608,-0.140970149,0.260649,0.254311298,-0.121083387,0.2487,0.25127748,-0.106412612,0.240166,0.291093912,-0.194495426,0.282315,0.278083799,-0.149172717,0.262116,0.274196155,-0.131814308,0.251781,0.272363125,-0.115056993,0.242386,0.312456721,-0.212486206,0.286351,0.305821215,-0.176715486,0.268501,0.30366248,-0.167861302,0.2603,0.302063974,-0.160674441,0.253064
0.278346662,-0.282828212,0.31319,0.281122425,-0.238937229,0.298271,0.257284448,-0.267709979,0.309009,0.230985025,-0.233374887,0.294408,0.209397049,-0.204315673,0.286928,0.202469258,-0.18353238,0.284842,0.256653562,-0.189519884,0.283943,0.239768272,-0.146289882,0.265371,0.232808819,-0.131179838,0.256085,0.226670446,-0.117873759,0.247643,0.281310997,-0.197216076,0.285397,0.273643803,-0.152976121,0.264935,0.270455829,-0.134525264,0.252999,0.26853152,-0.120899377,0.244473,0.30170382,-0.208336156,0.288078,0.293026597,-0.163596008,0.267832,0.290024114,-0.145541793,0.257473,0.287571664,-0.128741587,0.248057,0.325688729,-0.229811627,0.293801,0.320667686,-0.189982913,0.276503,0.319981216,-0.181428495,0.268556,0.319723092,-0.173753367,0.261543
0.281747147,-0.286162534,0.315318,0.285152505,-0.241181225,0.29978,0.262187259,-0.27074496,0.310548,0.237089414,-0.236799794,0.295092,0.214942736,-0.207938395,0.286935,0.204647061,-0.184983702,0.284142,0.26227924,-0.192763428,0.284319,0.244794406,-0.14959728,0.26499,0.237878232,-0.134881579,0.255326,0.228733449,-0.119660477,0.24654,0.287414354,-0.200502243,0.286371,0.279514105,-0.156596164,0.265302,0.276541579,-0.138717407,0.253012,0.27153165,-0.123151536,0.244233,0.308245416,-0.211656719,0.289607,0.299272372,-0.167205748,0.268715,0.296356029,-0.149543592,0.258026,0.290933066,-0.130991361,0.248308,0.332807726,-0.233149462,0.296083,0.327464876,-0.193473465,0.278291,0.326926403,-0.185333286,0.270116,0.324107954,-0.176359057,0.262903
0.287126333,-0.292709353,0.318,0.289873041,-0.251897285,0.302392,0.268581133,-0.279012741,0.313488,0.244015191,-0.247534568,0.300457,0.221364969,-0.217089753,0.289568,0.212750508,-0.195083804,0.283241,0.264476812,-0.20534679,0.287222,0.247558458,-0.160440466,0.268016,0.240496735,-0.144631271,0.258414,0.234456504,-0.126772349,0.249684,0.289684073,-0.21235009,0.288922,0.279873193,-0.165449415,0.267835,0.276131142,-0.146429422,0.255534,0.27568044,-0.129672376,0.246748,0.310465738,-0.222674708,0.291875,0.301131174,-0.174816719,0.271055,0.298666268,-0.157293207,0.260404,0.297174105,-0.146993701,0.25072,0.334693525,-0.242686764,0.298034,0.328580815,-0.20351248,0.28013,0.327710737,-0.193750265,0.271904,0.328116096,-0.183028349,0.264646
0.290394907,-0.29762681,0.319129,0.291874805,-0.253875459,0.303212,0.270873389,-0.28201343,0.314888,0.245899501,-0.249282683,0.301575,0.223190671,-0.21866046,0.29055,0.214641324,-0.196397218,0.28443,0.266603775,-0.206965108,0.288209,0.253626663,-0.163117705,0.268804,0.247652058,-0.146330026,0.259101,0.238507697,-0.130517412,0.250281,0.291442755,-0.213787518,0.289476,0.281569582,-0.166831183,0.268178,0.277762847,-0.148053441,0.255754,0.275358288,-0.134263239,0.246879,0.311919466,-0.224006973,0.292103,0.304003056,-0.176422859,0.273147,0.302516335,-0.158810045,0.263448,0.302054843,-0.148160353,0.254631,0.33583965,-0.243982138,0.297936,0.330679252,-0.205051013,0.280056,0.330135242,-0.195300625,0.27184,0.329948903,-0.18832762,0.264592
0.291341521,-0.298886226,0.319482,0.292495431,-0.254494633,0.303435,0.27189803,-0.283448384,0.315321,0.246395886,-0.249731701,0.301785,0.223777004,-0.219162034,0.290847,0.215307792,-0.19686804,0.284874,0.267239942,-0.20744799,0.288458,0.253804048,-0.163231789,0.268992,0.247802121,-0.146418693,0.259258,0.239898797,-0.130673942,0.25041,0.291956397,-0.214213491,0.289588,0.282034526,-0.167232393,0.268196,0.278187767,-0.148531837,0.255717,0.275758158,-0.134800937,0.246804,0.312333792,-0.224400685,0.292113,0.304955466,-0.176955401,0.27384,0.303832395,-0.159332596,0.264491,0.303750027,-0.148581206,0.255992,0.33616395,-0.244372059,0.297852,0.331310027,-0.205521251,0.279973,0.330869662,-0.195773816,0.271758,0.330766721,-0.188785351,0.264509
0.291958378,-0.299710706,0.319703,0.292838355,-0.25483267,0.30358,0.272558116,-0.28438057,0.315584,0.246664589,-0.249976974,0.301915,0.22411002,-0.219451779,0.291047,0.215657738,-0.197118721,0.285118,0.267584581,-0.207710053,0.288611,0.253912555,-0.163301574,0.269107,0.247894834,-0.146473475,0.259355,0.240608044,-0.130759762,0.250489,0.292235458,-0.214442815,0.289666,0.282279659,-0.167440518,0.268217,0.278408449,-0.148775429,0.255706,0.275960958,-0.135071244,0.246769,0.312561303,-0.224612149,0.292137,0.305438876,-0.177225872,0.274193,0.304489907,-0.159593545,0.265012,0.30458881,-0.148786978,0.256665,0.336345293,-0.244580943,0.297827,0.3316307,-0.205759643,0.279936,0.331235578,-0.196009606,0.271716,0.33116987,-0.189010904,0.264463
0.29189237,-0.299742059,0.319583,0.292653515,-0.254665544,0.303755,0.272526502,-0.284518899,0.315501,0.246636731,-0.250010035,0.302411,0.224489514,-0.219719742,0.292388,0.216292133,-0.197613006,0.286939,0.267498026,-0.207673606,0.289011,0.252694593,-0.162674728,0.2698,0.246508883,-0.146140852,0.260194,0.240230034,-0.129769971,0.251462,0.292201659,-0.21440573,0.290096,0.283392955,-0.168136766,0.268898,0.280626721,-0.148962077,0.256532,0.279830446,-0.128437982,0.2477,0.312561714,-0.224564723,0.292563,0.305456471,-0.177056526,0.274259,0.30449795,-0.159710732,0.264894,0.304461152,-0.149347353,0.256381,0.336354674,-0.244500569,0.298196,0.331697163,-0.205596011,0.280432,0.331342109,-0.196033299,0.27227,0.331316614,-0.189032251,0.265068
0.292252896,-0.300186398,0.319942,0.292667504,-0.254673561,0.304014,0.272635929,-0.284761237,0.315593,0.24673761,-0.250153145,0.302888,0.224917042,-0.220069237,0.293509,0.216800286,-0.198020388,0.288266,0.267058925,-0.207353202,0.288865,0.253176101,-0.162883803,0.270691,0.247475584,-0.146615175,0.261604,0.241802801,-0.13063085,0.253343,0.292064737,-0.214297068,0.290269,0.283706271,-0.168346579,0.268944,0.280965036,-0.148321266,0.256504,0.280101796,-0.128759808,0.247619,0.312734785,-0.224657212,0.293009,0.305594101,-0.177016744,0.274416,0.304605202,-0.15984226,0.264904,0.304452375,-0.149758207,0.256256,0.336962636,-0.244884248,0.298976,0.332108296,-0.205714129,0.281073,0.331665361,-0.196198289,0.272847,0.331561027,-0.189130075,0.265589
0.291477175,-0.299990633,0.319437,0.292161391,-0.254613722,0.303989,0.272058049,-0.284742351,0.315265,0.246339093,-0.250135921,0.303021,0.224660696,-0.219974626,0.295957,0.215941224,-0.196917562,0.288766,0.267101153,-0.207539399,0.289356,0.253372517,-0.162891132,0.271193,0.24781013,-0.146767652,0.262111,0.24284853,-0.131764268,0.253855,0.2920073,-0.214438553,0.290658,0.284673836,-0.168936617,0.26977,0.28357513,-0.146225814,0.257586,0.281774517,-0.129375108,0.248883,0.312522961,-0.224734457,0.293267,0.305406264,-0.177048472,0.274549,0.304430208,-0.159906011,0.264973,0.304271119,-0.149885736,0.256267,0.336453427,-0.244829276,0.298998,0.332018051,-0.205782288,0.28143,0.331804899,-0.19651534,0.273359,0.331903092,-0.189667799,0.266237
0.291132704,-0.300117171,0.319335,0.291851532,-0.25462977,0.304043,0.271770705,-0.284909741,0.315205,0.245970138,-0.250052117,0.303035,0.224512823,-0.219961991,0.29617,0.216037483,-0.197033795,0.28923,0.266978787,-0.207559583,0.289558,0.2534026,-0.162821285,0.271444,0.247962407,-0.146823563,0.262387,0.24311644,-0.131929486,0.254153,0.291860613,-0.214468755,0.290847,0.285098566,-0.169200575,0.270104,0.284014317,-0.146344324,0.258004,0.282461471,-0.129599105,0.249362,0.312330367,-0.224768224,0.293429,0.305272291,-0.177076304,0.274655,0.304327954,-0.159969058,0.26505,0.30418597,-0.150006386,0.256318,0.336170143,-0.244859691,0.299102,0.3319096,-0.205808072,0.281663,0.331797709,-0.196686963,0.273651,0.331982134,-0.18997002,0.266581
0.2889574,-0.298314618,0.316669,0.28985081,-0.253078231,0.302295,0.269771565,-0.283374127,0.312546,0.244518405,-0.248805014,0.301665,0.223266931,-0.21876014,0.294969,0.214992127,-0.196042076,0.288226,0.265577694,-0.206564166,0.288367,0.253787647,-0.162995111,0.273858,0.251626914,-0.149029201,0.266604,0.248041495,-0.134269905,0.260009,0.290586571,-0.213608845,0.289892,0.284771813,-0.168900791,0.270146,0.28284332,-0.148514424,0.258628,0.281200827,-0.13427817,0.250401,0.311089613,-0.223952141,0.292576,0.308134177,-0.178860449,0.277468,0.309472995,-0.162864478,0.269738,0.311560575,-0.153936238,0.26271,0.334809812,-0.243966074,0.298208,0.332439351,-0.206112099,0.282394,0.333289906,-0.197621113,0.275128,0.334370514,-0.191439199,0.268717
