sluyters/QuantumLeap/backend/src/datasets/dynamic/HandGestureDataset_SHREC2017_csv/Gesture12/finger_1/subject_11_essai_1_skeletons_world.csv
Wrist_x,Wrist_y,Wrist_z,Palm_x,Palm_y,Palm_z,thumb_base_x,thumb_base_y,thumb_base_z,thumb_first_joint_x,thumb_first_joint_y,thumb_first_joint_z,thumb_second_joint_x,thumb_second_joint_y,thumb_second_joint_z,thumb_tip_x,thumb_tip_y,thumb_tip_z,index_base_x,index_base_y,index_base_z,index_first_joint_x,index_first_joint_y,index_first_joint_z,index_second_joint_x,index_second_joint_y,index_second_joint_z,index_tip_x,index_tip_y,index_tip_z,middle_base_x,middle_base_y,middle_base_z,middle_first_joint_x,middle_first_joint_y,middle_first_joint_z,middle_second_joint_x,middle_second_joint_y,middle_second_joint_z,middle_tip_x,middle_tip_y,middle_tip_z,ring_base_x,ring_base_y,ring_base_z,ring_first_joint_x,ring_first_joint_y,ring_first_joint_z,ring_second_joint_x,ring_second_joint_y,ring_second_joint_z,ring_tip_x,ring_tip_y,ring_tip_z,pinky_base_x,pinky_base_y,pinky_base_z,pinky_first_joint_x,pinky_first_joint_y,pinky_first_joint_z,pinky_second_joint_x,pinky_second_joint_y,pinky_second_joint_z,pinky_tip_x,pinky_tip_y,pinky_tip_z,
0.37457292,-0.28216229,0.482016,0.37733648,-0.23738281,0.477216,0.35369517,-0.26688048,0.478122,0.35828253,-0.23608599,0.477142,0.35734576,-0.20517536,0.467828,0.36185238,-0.18636374,0.470753,0.35313443,-0.19305712,0.4693,0.34346167,-0.1507907,0.456121,0.35015876,-0.1334618,0.464837,0.3562578,-0.11611969,0.472761,0.37954182,-0.19889181,0.472894,0.37573369,-0.16756865,0.459789,0.3739056,-0.14778576,0.452145,0.37106911,-0.15356267,0.446685,0.40134546,-0.207592,0.476291,0.39394106,-0.17110778,0.462344,0.39302964,-0.1679247,0.455208,0.39134508,-0.18470954,0.448776,0.42705532,-0.22496585,0.481056,0.41293605,-0.19547206,0.466893,0.4064005,-0.18120175,0.460386,0.40065079,-0.16819694,0.454697
0.37122822,-0.27789397,0.478236,0.37458602,-0.23344394,0.473845,0.34990182,-0.26203591,0.473534,0.35084033,-0.22911252,0.467137,0.35006444,-0.1968011,0.451578,0.35431022,-0.17686405,0.449901,0.35012788,-0.18861586,0.465151,0.34125328,-0.14633809,0.451775,0.34878481,-0.129027,0.460877,0.35568449,-0.11164535,0.469151,0.3773231,-0.19519173,0.469891,0.37502479,-0.164054,0.457082,0.3741609,-0.14434903,0.44961,0.37180117,-0.1502176,0.444273,0.39976433,-0.20449634,0.474194,0.39352927,-0.16799435,0.460159,0.39319365,-0.16486669,0.452978,0.39142265,-0.18173881,0.446475,0.42616211,-0.22257718,0.479956,0.41320565,-0.19302902,0.465804,0.40724041,-0.17871518,0.459302,0.4020129,-0.16565851,0.453614
0.36935136,-0.27603377,0.47622,0.37293713,-0.23175492,0.47202,0.34798518,-0.26005991,0.47135,0.34923919,-0.22749178,0.465102,0.34703577,-0.19528586,0.447707,0.35258588,-0.1761687,0.447694,0.34854347,-0.18682716,0.46323,0.34012418,-0.14466591,0.449909,0.34780046,-0.12731714,0.458896,0.35484998,-0.10989653,0.467065,0.37588384,-0.19360836,0.468238,0.37527924,-0.15934999,0.455597,0.37559734,-0.13880189,0.448389,0.37405327,-0.14392321,0.44324,0.39842061,-0.20307436,0.472744,0.3934021,-0.16407373,0.458783,0.39379453,-0.16024597,0.451641,0.39106035,-0.17912021,0.44538,0.42488084,-0.22132624,0.478712,0.41254151,-0.1919707,0.46465,0.40687575,-0.17773801,0.458188,0.40192712,-0.16475007,0.45254
0.3685971,-0.27524182,0.475449,0.37230523,-0.23103046,0.471351,0.34722723,-0.25922218,0.470529,0.34869357,-0.22684744,0.464424,0.34631181,-0.19494092,0.446785,0.35200058,-0.17593136,0.446945,0.34796987,-0.18605011,0.46256,0.3398062,-0.14393428,0.449302,0.34729127,-0.12645588,0.457883,0.35417584,-0.10894278,0.465684,0.37536453,-0.19292002,0.467661,0.37486686,-0.15864578,0.455116,0.37520477,-0.13781493,0.447893,0.37373888,-0.14263144,0.442733,0.39792995,-0.20245596,0.472234,0.39287971,-0.16355145,0.458335,0.39331333,-0.15947453,0.451223,0.39087256,-0.17780808,0.444825,0.42439471,-0.22078154,0.478264,0.41237903,-0.19152044,0.464264,0.40687212,-0.17732726,0.457832,0.40206763,-0.16437058,0.452209
0.36599409,-0.27271403,0.473086,0.36869563,-0.22666498,0.467389,0.34438208,-0.25629169,0.467573,0.34661213,-0.22378031,0.461733,0.34338162,-0.19271193,0.443059,0.34917854,-0.17387507,0.443389,0.34394911,-0.17562485,0.456858,0.33747252,-0.13220917,0.442159,0.34300659,-0.11340066,0.445971,0.34598637,-0.10192636,0.451744,0.3711791,-0.18796501,0.46226,0.37572854,-0.13729711,0.44807,0.37344857,-0.13055005,0.439792,0.36598995,-0.14054528,0.43388,0.39385795,-0.19790162,0.467226,0.3874932,-0.15213164,0.45166,0.38645511,-0.15333642,0.443696,0.383785,-0.16935792,0.436456,0.42057408,-0.21681559,0.473978,0.41740724,-0.17947656,0.458506,0.41532064,-0.16915384,0.451398,0.41286686,-0.16383721,0.445126
0.36879138,-0.27399232,0.477351,0.36432025,-0.22265313,0.461583,0.34506222,-0.2556885,0.468956,0.34262761,-0.21803905,0.45774,0.33570179,-0.1877141,0.433907,0.33629435,-0.16690862,0.427467,0.3339609,-0.16795539,0.441178,0.32027334,-0.12288729,0.417485,0.32261569,-0.10413079,0.417397,0.32494933,-0.086624638,0.417318,0.36156052,-0.17631278,0.447385,0.35632073,-0.12790281,0.423226,0.34533216,-0.12331729,0.409133,0.33563425,-0.13164304,0.399066,0.38499164,-0.18754076,0.453935,0.36924901,-0.14307084,0.428603,0.36301516,-0.13897026,0.415643,0.35522069,-0.15580992,0.40386,0.41373327,-0.20879877,0.464187,0.40145792,-0.17194877,0.440083,0.39539852,-0.15942217,0.429008,0.38964781,-0.15127746,0.419236
0.37212246,-0.27369478,0.479828,0.3694927,-0.21069138,0.459864,0.34634123,-0.25315363,0.469106,0.34067808,-0.21535841,0.453842,0.3310341,-0.18384575,0.428591,0.32995088,-0.16254877,0.420266,0.3300679,-0.16160164,0.433911,0.31357139,-0.1156343,0.406477,0.31716185,-0.097281349,0.407847,0.32084083,-0.080383962,0.409093,0.35926284,-0.16543631,0.441887,0.34979914,-0.11949883,0.413682,0.33826589,-0.12907731,0.397229,0.33907475,-0.14925843,0.402799,0.38488786,-0.17479461,0.450276,0.36421516,-0.13668254,0.420525,0.35703949,-0.13535218,0.405303,0.34564063,-0.15194051,0.391466,0.41747994,-0.19419403,0.463369,0.39933983,-0.16864687,0.43553,0.39162527,-0.15548312,0.422738,0.38376846,-0.14786663,0.411452
0.37238328,-0.27201629,0.478832,0.36655622,-0.2123366,0.458172,0.34675962,-0.25177599,0.468217,0.33947623,-0.21421159,0.452646,0.32669179,-0.18209507,0.427574,0.32755361,-0.16197804,0.419266,0.32901777,-0.16026313,0.431925,0.3127696,-0.11349633,0.404017,0.31456259,-0.094521884,0.402698,0.31669348,-0.077623962,0.4015,0.35832137,-0.16496254,0.439568,0.34803749,-0.11880415,0.410728,0.33542109,-0.12797749,0.393905,0.33583057,-0.14794224,0.399238,0.38379394,-0.174486,0.447746,0.36248404,-0.1334807,0.417498,0.35470878,-0.13505213,0.402022,0.34313658,-0.15072066,0.387954,0.41627363,-0.19414051,0.460706,0.39712753,-0.16744062,0.432403,0.3889664,-0.15442416,0.419398,0.38183802,-0.14511343,0.407924
0.37381792,-0.27152562,0.479641,0.36867114,-0.21016741,0.457737,0.34794466,-0.2512373,0.468682,0.33954195,-0.21373564,0.452671,0.32852312,-0.18288981,0.427932,0.32583589,-0.16123527,0.417424,0.32864357,-0.15809467,0.430287,0.3118659,-0.11276551,0.401389,0.31518156,-0.094612689,0.40018,0.31635775,-0.07742787,0.399082,0.35782025,-0.16432307,0.438013,0.34785144,-0.11976796,0.408027,0.33421556,-0.1331291,0.390535,0.33264847,-0.14848033,0.395234,0.3833695,-0.17407618,0.446373,0.36130066,-0.13279758,0.415009,0.35413063,-0.13506724,0.398962,0.34172775,-0.150769,0.384374,0.41607886,-0.1940865,0.45975,0.39602437,-0.1675711,0.43048,0.388459,-0.15649677,0.417032,0.3806871,-0.14691115,0.405166
0.37616867,-0.27179713,0.481535,0.36915722,-0.20981294,0.45734,0.34973568,-0.25121476,0.469895,0.33917223,-0.21287976,0.451728,0.32859512,-0.18251979,0.426824,0.3242259,-0.16098427,0.412683,0.32752214,-0.15675336,0.42761,0.31211173,-0.11029832,0.396967,0.31616466,-0.091948211,0.397468,0.32021336,-0.07488807,0.397923,0.35681683,-0.16316043,0.435553,0.34736887,-0.12399964,0.403489,0.3294501,-0.13816628,0.384786,0.32694129,-0.1529997,0.388234,0.3826525,-0.17313712,0.4443,0.3635886,-0.13621796,0.410892,0.35445117,-0.14451705,0.3938,0.34143487,-0.15812068,0.378261,0.41605357,-0.19358216,0.458506,0.39564218,-0.16774799,0.427482,0.38681223,-0.15751737,0.413228,0.37740115,-0.14759675,0.40065
0.37143823,-0.26637307,0.474088,0.37011629,-0.21085377,0.457692,0.34722821,-0.24881479,0.465436,0.33951497,-0.21477077,0.451331,0.33276902,-0.18654093,0.43101,0.33105136,-0.16557633,0.421542,0.33670545,-0.16085256,0.436573,0.32485624,-0.11717501,0.412695,0.33011025,-0.09884874,0.414354,0.33327037,-0.081869103,0.415863,0.36537909,-0.16703048,0.442929,0.36128449,-0.13423546,0.418159,0.34713745,-0.15136122,0.40371,0.34688776,-0.1686102,0.411303,0.38989796,-0.17660497,0.449657,0.37631526,-0.1463091,0.423697,0.37105836,-0.15715571,0.410415,0.36454644,-0.1715858,0.402994,0.41945053,-0.19579525,0.460223,0.40679438,-0.17774741,0.435576,0.40036002,-0.16830242,0.424613,0.39407576,-0.15805906,0.41629
0.3729297,-0.26696367,0.474774,0.36653482,-0.2217417,0.451755,0.34638687,-0.24788966,0.463078,0.33216305,-0.22230869,0.441925,0.31816934,-0.19361045,0.415448,0.3147542,-0.17335047,0.401019,0.32641582,-0.16825772,0.422679,0.30881549,-0.12340986,0.392446,0.30924929,-0.10471781,0.388862,0.30979661,-0.086895655,0.385603,0.35609922,-0.17519467,0.431028,0.34404103,-0.12615227,0.400015,0.32840321,-0.13319371,0.381925,0.32884636,-0.15352596,0.385866,0.38200544,-0.18561682,0.440002,0.36251103,-0.13393704,0.407463,0.35446342,-0.13035555,0.390814,0.35554214,-0.15236585,0.39461,0.41498481,-0.20653583,0.454281,0.39328106,-0.16661411,0.424045,0.38674071,-0.15976778,0.410153,0.38007851,-0.15948235,0.397896
0.37510976,-0.27206833,0.475881,0.36649429,-0.22417829,0.449799,0.34943992,-0.25555827,0.462923,0.33244237,-0.22856764,0.440121,0.31912611,-0.2022399,0.413514,0.3142185,-0.18172757,0.397961,0.3260157,-0.17269147,0.417229,0.30698679,-0.12768347,0.384572,0.30834382,-0.10944224,0.381801,0.30976175,-0.091965511,0.379282,0.35626084,-0.18014234,0.426314,0.33974669,-0.14250376,0.392582,0.32486454,-0.15723369,0.372906,0.32296699,-0.17345649,0.374913,0.38280614,-0.19109045,0.436174,0.3575995,-0.13844253,0.400818,0.34961219,-0.13691822,0.382728,0.35016194,-0.15820037,0.384349,0.41681261,-0.21281726,0.451991,0.39291103,-0.17270791,0.419396,0.38567939,-0.16823379,0.404419,0.37804177,-0.17117952,0.391205
0.38032033,-0.27723392,0.475298,0.36817159,-0.22817549,0.448601,0.35313564,-0.26224129,0.462828,0.33126804,-0.22995005,0.438875,0.31855539,-0.21098172,0.412092,0.31098083,-0.19040259,0.395746,0.32610064,-0.17373514,0.416273,0.30595254,-0.12889608,0.383171,0.3066925,-0.11076779,0.380106,0.30753127,-0.093398094,0.37732,0.35577485,-0.18069133,0.424561,0.33942624,-0.1496864,0.390288,0.32330578,-0.16564131,0.370296,0.32148696,-0.18102309,0.372231,0.38185969,-0.19122225,0.433821,0.35588362,-0.13844433,0.398206,0.34492572,-0.14545211,0.379984,0.34698191,-0.16311555,0.381608,0.4153773,-0.21242103,0.449035,0.39091162,-0.18371412,0.416144,0.38097484,-0.17813464,0.401032,0.37267534,-0.18668491,0.387697
0.37970598,-0.283324,0.474955,0.36640294,-0.23167269,0.446673,0.35290923,-0.26473872,0.462963,0.32751265,-0.23738054,0.439241,0.31474146,-0.21615865,0.412973,0.31010631,-0.19346229,0.397484,0.32342419,-0.17942372,0.413978,0.30252395,-0.131743,0.379793,0.30315946,-0.11396896,0.377107,0.30389071,-0.096883374,0.374666,0.3523905,-0.1867006,0.421206,0.33406921,-0.14924105,0.385581,0.31698222,-0.16408412,0.364801,0.31474034,-0.17941574,0.366132,0.37793447,-0.1975796,0.429738,0.35163785,-0.15741485,0.39318,0.33900814,-0.16876973,0.374475,0.33905143,-0.18597362,0.375553,0.41091798,-0.21935431,0.444359,0.38331237,-0.18847755,0.410571,0.37188136,-0.18039749,0.395047,0.36469353,-0.18538168,0.381349
0.38604316,-0.27386953,0.481288,0.36805936,-0.22543188,0.445786,0.36043742,-0.26147597,0.469024,0.35544001,-0.2435149,0.445364,0.33082156,-0.22269721,0.421437,0.32727224,-0.20997189,0.404283,0.31877325,-0.17588256,0.408298,0.29457376,-0.12814011,0.369593,0.2952329,-0.11063099,0.366648,0.29652612,-0.1065374,0.363971,0.34731096,-0.17762791,0.413818,0.31432001,-0.18995248,0.372474,0.32224741,-0.21004013,0.38272,0.33669892,-0.21261076,0.400891,0.3741322,-0.18455556,0.421603,0.33401075,-0.15700688,0.380187,0.31835517,-0.16697239,0.358997,0.31854303,-0.18286522,0.355198,0.41097879,-0.20111174,0.436527,0.38230137,-0.19633752,0.398586,0.35845443,-0.2044895,0.381153,0.34831576,-0.20750608,0.377421
0.38621801,-0.2900688,0.475131,0.36917215,-0.23886001,0.440215,0.36733909,-0.27921637,0.462603,0.35074919,-0.25711133,0.440554,0.32530033,-0.23096007,0.415965,0.32533522,-0.21807401,0.40041,0.31514169,-0.18734243,0.402752,0.2928231,-0.14491185,0.365117,0.29468106,-0.12983286,0.362435,0.2966377,-0.11518973,0.359997,0.34387925,-0.19025283,0.408774,0.31213281,-0.1651012,0.367849,0.3227241,-0.19620286,0.378475,0.33754447,-0.21618364,0.396614,0.37072104,-0.19753602,0.41692,0.33185657,-0.16909187,0.375737,0.31770483,-0.17663831,0.354666,0.31904119,-0.19209736,0.35118,0.40777186,-0.21512577,0.432171,0.36643838,-0.19328816,0.394448,0.35565096,-0.2019935,0.377116,0.35756023,-0.20664209,0.37364
0.38993506,-0.29877409,0.468776,0.36480053,-0.24936953,0.437307,0.3615229,-0.28310063,0.45762,0.34820491,-0.26773052,0.436754,0.32347435,-0.23876382,0.412081,0.32512067,-0.22155183,0.398997,0.31565727,-0.19602325,0.403716,0.29638793,-0.15787279,0.368443,0.29421611,-0.14248526,0.359967,0.29245103,-0.12797068,0.352263,0.34378796,-0.19980428,0.408971,0.31117061,-0.1437706,0.370758,0.30298186,-0.12732989,0.359568,0.3132883,-0.13292849,0.369816,0.36959787,-0.20790659,0.41617,0.33585976,-0.18089081,0.377793,0.32331811,-0.19166139,0.358158,0.32545378,-0.20547012,0.357799,0.40456777,-0.22662748,0.429748,0.36748357,-0.20644169,0.394276,0.35824135,-0.21507718,0.377978,0.36061589,-0.22088354,0.376943
0.38943363,-0.31576697,0.471488,0.36462158,-0.26327838,0.437393,0.35934808,-0.29732264,0.458019,0.35008062,-0.28253116,0.435101,0.31728376,-0.24988425,0.409683,0.31543273,-0.23314412,0.396916,0.31299929,-0.20654029,0.399237,0.29383139,-0.1669671,0.362371,0.29621579,-0.15362558,0.358534,0.29874658,-0.14073464,0.355047,0.34268812,-0.21199982,0.406692,0.31604679,-0.19537942,0.366391,0.32140601,-0.22703022,0.377022,0.33234927,-0.24931333,0.394937,0.37002133,-0.22166856,0.415942,0.33563747,-0.19433596,0.374889,0.32159858,-0.20371787,0.353886,0.32026937,-0.21546188,0.350416,0.40715253,-0.24262159,0.432354,0.36896752,-0.21969248,0.394847,0.35876993,-0.22732144,0.377614,0.3585391,-0.23178143,0.374183
0.38691694,-0.32678071,0.467785,0.36298092,-0.27311153,0.433076,0.35681313,-0.30811403,0.45412,0.34894019,-0.29355355,0.430812,0.31592059,-0.26151962,0.405499,0.31159415,-0.24326748,0.389753,0.31018354,-0.21619302,0.394293,0.29041027,-0.17692362,0.356948,0.29224459,-0.16409573,0.352522,0.29426885,-0.15173749,0.348499,0.34000627,-0.22144109,0.401822,0.31326432,-0.20576042,0.361077,0.31847138,-0.2372246,0.370992,0.32954776,-0.2592217,0.388843,0.36755713,-0.23096534,0.411189,0.33288994,-0.20467243,0.369695,0.3189077,-0.21350494,0.348466,0.31707952,-0.22383597,0.344391,0.40513248,-0.2517923,0.427838,0.36675557,-0.22993389,0.389986,0.35655804,-0.23683969,0.372595,0.35580612,-0.24001515,0.368692
0.38803561,-0.3365462,0.465725,0.36296381,-0.28182419,0.432232,0.35737853,-0.31856254,0.451758,0.34828081,-0.30241427,0.428815,0.31093329,-0.27033581,0.403522,0.30391405,-0.25077107,0.388463,0.30871638,-0.22649259,0.393813,0.28976631,-0.18676277,0.357446,0.29117523,-0.17396634,0.352506,0.29279676,-0.16170325,0.348015,0.33893055,-0.23041795,0.402074,0.3158848,-0.21634799,0.362256,0.32395449,-0.24880101,0.372939,0.33517471,-0.27093845,0.390696,0.36684618,-0.23877714,0.411932,0.33452728,-0.21164928,0.371079,0.32295577,-0.21983327,0.350178,0.32067776,-0.22774541,0.346785,0.4049537,-0.25807502,0.428957,0.36868832,-0.23318038,0.391684,0.3594633,-0.23995921,0.374559,0.35916822,-0.24353445,0.371206
0.38715112,-0.3494414,0.464419,0.3620071,-0.297955,0.430611,0.35687827,-0.33149812,0.450777,0.34541213,-0.31803851,0.427339,0.30938315,-0.28415254,0.402186,0.30290969,-0.26468403,0.38692,0.31035562,-0.24000291,0.392413,0.29248732,-0.20055964,0.356,0.29435502,-0.18835081,0.350786,0.29643315,-0.17668967,0.346046,0.34027213,-0.24572416,0.40017,0.31570131,-0.23180747,0.360093,0.32168382,-0.26456517,0.370817,0.33221225,-0.28682701,0.38868,0.36771177,-0.25568786,0.409641,0.33262057,-0.21868618,0.368705,0.31929734,-0.22616331,0.34776,0.31836863,-0.23872669,0.34438,0.40484253,-0.27708882,0.426266,0.36838059,-0.25353046,0.388879,0.35830416,-0.25963962,0.371701,0.3575135,-0.26290496,0.368346
0.37995148,-0.36243234,0.461727,0.35846525,-0.30876637,0.428712,0.35076366,-0.34238128,0.447987,0.33992763,-0.32690463,0.424328,0.30550874,-0.29065429,0.398955,0.30040405,-0.27156518,0.384303,0.31196685,-0.24842908,0.390875,0.29415895,-0.21098206,0.353815,0.29553759,-0.19934186,0.347468,0.29718212,-0.18829969,0.341699,0.34183701,-0.2571105,0.398983,0.32014166,-0.23505114,0.359517,0.32287741,-0.26646338,0.370788,0.33254147,-0.28684987,0.388601,0.36870752,-0.2695213,0.408671,0.35135249,-0.23604027,0.368198,0.32779617,-0.24335645,0.347492,0.31571275,-0.25297552,0.344601,0.40416625,-0.29378436,0.42542,0.39440229,-0.27625489,0.38844,0.36741981,-0.27837354,0.371449,0.35061955,-0.28009566,0.368487
0.37966098,-0.36674332,0.461229,0.36095699,-0.31814975,0.428456,0.34825974,-0.35115235,0.445881,0.34492083,-0.33746914,0.41999,0.30955192,-0.30386606,0.393182,0.30580696,-0.2864332,0.379401,0.31218273,-0.2601327,0.38872,0.29378191,-0.22081128,0.350827,0.29519669,-0.20888429,0.344404,0.29687075,-0.19758991,0.338564,0.34347997,-0.26760226,0.398946,0.32648824,-0.23806887,0.359845,0.33511816,-0.27155478,0.369567,0.34361331,-0.29308891,0.386762,0.37152574,-0.27884402,0.410355,0.35457741,-0.24638393,0.36956,0.33465169,-0.25414626,0.348688,0.32306551,-0.26270873,0.344623,0.40835439,-0.30137533,0.429082,0.39870347,-0.28663678,0.392063,0.37487626,-0.29051526,0.375054,0.35780021,-0.29279214,0.371228
0.37822907,-0.37752652,0.461297,0.36206541,-0.32615329,0.427933,0.34984542,-0.36113562,0.445605,0.33146635,-0.3314665,0.421204,0.32068016,-0.30565767,0.394964,0.31421223,-0.28242357,0.379859,0.31525646,-0.26297446,0.387396,0.29448434,-0.21938662,0.349623,0.29838953,-0.21730583,0.344064,0.3009292,-0.21616353,0.339009,0.34621312,-0.27267692,0.39789,0.32831486,-0.25028062,0.358409,0.33652018,-0.28336515,0.367176,0.3452699,-0.30738423,0.384209,0.37383408,-0.28605984,0.409575,0.35461926,-0.26673172,0.368338,0.33437914,-0.2732541,0.347241,0.32204651,-0.28020756,0.342403,0.40998265,-0.31170705,0.428721,0.38148503,-0.29049411,0.391387,0.36931144,-0.28061714,0.374233,0.35876631,-0.28096561,0.359097
0.37732908,-0.38873495,0.459987,0.36929834,-0.33949491,0.432323,0.34996768,-0.36633434,0.446403,0.33925873,-0.33938277,0.422846,0.33347996,-0.31050205,0.405501,0.33376918,-0.28854502,0.39482,0.33199891,-0.26986235,0.397983,0.30475156,-0.25754779,0.362992,0.31561313,-0.27263665,0.37453,0.32567712,-0.28746953,0.385019,0.36211694,-0.28510014,0.407414,0.33466081,-0.27812434,0.372332,0.34275901,-0.31592916,0.387034,0.35148238,-0.34324698,0.404339,0.38859033,-0.30339484,0.417703,0.3617725,-0.29611123,0.380956,0.34303252,-0.304491,0.362156,0.33912002,-0.31610855,0.362561,0.42241369,-0.33570891,0.434282,0.38028417,-0.32067858,0.400534,0.36086003,-0.3138544,0.385029,0.33352568,-0.31161819,0.371347
0.37287926,-0.39887157,0.456048,0.36824222,-0.34880292,0.431207,0.34570143,-0.37219792,0.441721,0.33552193,-0.3461312,0.418275,0.32988413,-0.31777087,0.401226,0.32680368,-0.29335629,0.391492,0.33164905,-0.27915595,0.397659,0.30555436,-0.26792211,0.364055,0.31671168,-0.28416046,0.375957,0.32704495,-0.30014138,0.386777,0.36323965,-0.29583181,0.40884,0.33822905,-0.29107733,0.37628,0.34665961,-0.33020899,0.391504,0.35447513,-0.35714793,0.40806,0.39080979,-0.31524333,0.420312,0.36595175,-0.30971294,0.385402,0.34802793,-0.31880016,0.367542,0.34463876,-0.33099095,0.368755,0.42556325,-0.3487177,0.437817,0.39106022,-0.33300941,0.40582,0.36047724,-0.32941176,0.391119,0.34600965,-0.33430911,0.391485
0.36541935,-0.40293838,0.448834,0.36433944,-0.34698068,0.426421,0.33915614,-0.36875467,0.433885,0.33166173,-0.34288912,0.411721,0.32728114,-0.31493702,0.395026,0.32842181,-0.2937254,0.385508,0.32967347,-0.27829334,0.393575,0.31020421,-0.27633683,0.361265,0.32425905,-0.296982,0.373233,0.33765189,-0.317621,0.384114,0.3622527,-0.29631834,0.40624,0.3422364,-0.30148538,0.375946,0.3500485,-0.34223782,0.391308,0.35563535,-0.36713571,0.407087,0.39033871,-0.31665642,0.418712,0.37718723,-0.30419854,0.385484,0.34752846,-0.30936531,0.368485,0.33572955,-0.31224793,0.370207,0.42504935,-0.35080996,0.436992,0.40301946,-0.33841743,0.406615,0.38294379,-0.34498343,0.392657,0.37862758,-0.35036097,0.39348
0.35606131,-0.39686343,0.4372,0.3644479,-0.35374373,0.41887,0.33044376,-0.36672546,0.422337,0.33903636,-0.34789739,0.400237,0.35004368,-0.33029867,0.384451,0.35985422,-0.31382901,0.377886,0.33790402,-0.28437326,0.388648,0.31880839,-0.27904458,0.359151,0.33411903,-0.29885329,0.371905,0.34871886,-0.31855073,0.3835,0.36953925,-0.30629443,0.402364,0.35592646,-0.30647554,0.37588,0.35895264,-0.34615739,0.392279,0.35794119,-0.37029506,0.407006,0.39598059,-0.32959164,0.415329,0.38418851,-0.3192803,0.38539,0.35101548,-0.32173124,0.370073,0.34546396,-0.32535705,0.373344,0.42724196,-0.36675486,0.43352,0.40921953,-0.35502134,0.406128,0.38690421,-0.36092144,0.393542,0.38191453,-0.3658811,0.395645
0.34854302,-0.39765418,0.427308,0.36080375,-0.36127545,0.412781,0.32632362,-0.37640299,0.412786,0.33718596,-0.35546389,0.394528,0.34923306,-0.33558169,0.381843,0.35940937,-0.31605568,0.377732,0.33585255,-0.29339351,0.385336,0.32027105,-0.28927994,0.358683,0.33693039,-0.30999246,0.372106,0.35289358,-0.33055279,0.384309,0.36790072,-0.31574876,0.399699,0.35939425,-0.31841319,0.376846,0.36233961,-0.35909421,0.394123,0.36225391,-0.38644703,0.407812,0.39446204,-0.33920419,0.41285,0.38562419,-0.3332889,0.386163,0.35456893,-0.33747921,0.372509,0.34915414,-0.33972915,0.377214,0.42544899,-0.37616315,0.430638,0.41428777,-0.36387382,0.406181,0.39082028,-0.36156223,0.394944,0.37609254,-0.36780498,0.39823
0.33921822,-0.40260084,0.415928,0.35241401,-0.35795311,0.404861,0.3157981,-0.36992339,0.400207,0.3264691,-0.35158091,0.37985,0.33954403,-0.33117399,0.365278,0.35144191,-0.31604554,0.360671,0.32956533,-0.29419239,0.378018,0.32256202,-0.29464168,0.353477,0.34233011,-0.31659737,0.365535,0.36178449,-0.33857186,0.376497,0.36257543,-0.3151822,0.394895,0.3638233,-0.32749598,0.375752,0.36499859,-0.36756645,0.391397,0.3598337,-0.38752787,0.403232,0.387683,-0.34321525,0.409799,0.38901422,-0.34281245,0.385858,0.35871688,-0.34801857,0.373609,0.34628536,-0.34551068,0.377873,0.41709564,-0.38105495,0.429076,0.41629788,-0.37427103,0.407398,0.39700633,-0.37426606,0.397438,0.37970039,-0.37498048,0.4005
0.33851505,-0.40651127,0.415943,0.34734172,-0.36041425,0.399856,0.31527929,-0.37868184,0.400477,0.3304148,-0.35865777,0.387119,0.33541855,-0.34594242,0.363192,0.35194465,-0.33990592,0.359265,0.32346806,-0.29053664,0.370248,0.31052491,-0.28722829,0.342091,0.32557278,-0.31169871,0.354429,0.34165554,-0.33433547,0.365644,0.35649475,-0.31781442,0.385371,0.34837125,-0.31190858,0.361154,0.36750163,-0.34323136,0.377079,0.38409183,-0.37058563,0.390837,0.38336088,-0.34360224,0.399289,0.37536901,-0.3311106,0.371066,0.34692336,-0.33753598,0.356627,0.33351057,-0.33773989,0.359997,0.41461599,-0.3837514,0.418231,0.40895066,-0.36977639,0.392526,0.38002219,-0.36181384,0.380715,0.36413813,-0.36642382,0.382962
0.33511544,-0.40530565,0.412301,0.34786385,-0.36181764,0.400215,0.31256993,-0.37728145,0.397507,0.33394548,-0.36359246,0.391456,0.34137033,-0.35264568,0.368475,0.35919709,-0.34773432,0.36547,0.32762919,-0.29608205,0.373928,0.31648495,-0.29386919,0.348954,0.333103,-0.31878001,0.362145,0.35000984,-0.34241721,0.374138,0.36000908,-0.32108576,0.389333,0.35687555,-0.32092084,0.368952,0.35937582,-0.36275423,0.385977,0.35543824,-0.38295096,0.398693,0.3864629,-0.34663138,0.403119,0.37552103,-0.3494841,0.378458,0.3504543,-0.3585592,0.365841,0.33863423,-0.36826123,0.370884,0.41646173,-0.38580505,0.421252,0.40558284,-0.37770347,0.398723,0.38048596,-0.38210232,0.388372,0.37425029,-0.38580194,0.391984
0.33393489,-0.405478,0.411207,0.34842068,-0.35957873,0.400298,0.31140494,-0.37660821,0.396309,0.3324885,-0.36206199,0.389848,0.33946581,-0.35022275,0.366036,0.35651508,-0.34476487,0.362347,0.32787781,-0.29496184,0.374603,0.31772336,-0.29512427,0.350469,0.33451497,-0.3194094,0.363519,0.35131336,-0.34291912,0.375382,0.36015574,-0.31977882,0.390476,0.35871137,-0.32353448,0.371302,0.35900118,-0.36516256,0.388168,0.35494573,-0.38212016,0.400397,0.38638329,-0.34502238,0.404539,0.37792722,-0.3507283,0.380883,0.3532697,-0.36045323,0.36878,0.34144916,-0.37035702,0.373967,0.41761593,-0.38633397,0.422805,0.40813399,-0.3790488,0.401231,0.38337312,-0.38399516,0.391319,0.37719954,-0.38786322,0.395073
0.33436876,-0.41111045,0.414001,0.34864876,-0.36474143,0.402421,0.31242225,-0.37869227,0.399272,0.30413197,-0.35759117,0.378015,0.29992014,-0.34957637,0.351267,0.3039757,-0.34066405,0.337985,0.32879822,-0.29899601,0.376527,0.31927675,-0.29606058,0.351954,0.33756919,-0.31936096,0.36521,0.35523633,-0.34280438,0.377261,0.36119164,-0.32396467,0.391994,0.35874882,-0.32188207,0.372107,0.36316938,-0.36473672,0.389218,0.35948442,-0.38554861,0.401782,0.38769956,-0.34865188,0.405783,0.38496195,-0.34156958,0.381575,0.36083623,-0.35159484,0.36919,0.34741623,-0.36397121,0.374408,0.41607216,-0.38659495,0.423839,0.41017213,-0.37948939,0.401719,0.38565042,-0.38447829,0.391556,0.37794553,-0.38811236,0.395314
0.31577917,-0.38957907,0.392399,0.33674775,-0.35327304,0.389956,0.29766567,-0.36193341,0.381715,0.30598028,-0.34252523,0.370032,0.30708327,-0.31847907,0.342999,0.31717637,-0.31630729,0.334065,0.32682493,-0.29705553,0.374842,0.32451316,-0.29736099,0.359048,0.34131921,-0.31567575,0.375474,0.36008524,-0.33877324,0.390406,0.35622165,-0.32040447,0.387756,0.34908804,-0.33722884,0.376727,0.34971628,-0.37814021,0.397791,0.34658262,-0.39810673,0.410007,0.37944578,-0.34312532,0.398611,0.36734717,-0.35613208,0.383658,0.34182766,-0.36567291,0.376008,0.33248339,-0.38685417,0.386368,0.40212466,-0.37638374,0.411733,0.40503876,-0.37455235,0.397564,0.3830511,-0.38271672,0.391054,0.38060386,-0.39147327,0.398905
0.33343565,-0.41262822,0.415941,0.34795119,-0.36580701,0.404233,0.31281042,-0.38135374,0.402612,0.32782731,-0.36749345,0.398239,0.33581161,-0.35076693,0.376285,0.35334782,-0.35676786,0.373819,0.32921681,-0.30114272,0.380044,0.31851906,-0.29003543,0.355976,0.33627338,-0.31167055,0.370613,0.353268,-0.33312033,0.383919,0.35856428,-0.32519914,0.393691,0.34669593,-0.32897166,0.37347,0.34564837,-0.36871939,0.392265,0.34289276,-0.39255705,0.405479,0.3830036,-0.34943096,0.405994,0.36437296,-0.35393895,0.382041,0.33451388,-0.35879201,0.369785,0.32197578,-0.37576195,0.376249,0.40981313,-0.38614205,0.422328,0.40619525,-0.37635739,0.400197,0.38127891,-0.38098971,0.390028,0.37486271,-0.38696235,0.394708
0.33440031,-0.41708071,0.420821,0.33479774,-0.35570103,0.402748,0.30751863,-0.3806629,0.405977,0.31732666,-0.36099031,0.395957,0.32376694,-0.34709492,0.37178,0.34155162,-0.35204653,0.366488,0.31387636,-0.28894406,0.372709,0.29949277,-0.2819184,0.3434,0.31407349,-0.30521322,0.356205,0.32794017,-0.32868025,0.367846,0.34464218,-0.31203369,0.386474,0.32765064,-0.31826771,0.360232,0.32457336,-0.35435397,0.376698,0.32744867,-0.37683451,0.391358,0.36975412,-0.33594603,0.399455,0.34463635,-0.34133343,0.369732,0.31239031,-0.34257289,0.354525,0.30122813,-0.35554657,0.357896,0.39822672,-0.37296145,0.417623,0.38793936,-0.36274065,0.390426,0.36068566,-0.36465607,0.377929,0.35143198,-0.36709269,0.380115
0.33323811,-0.41612015,0.42108,0.33459892,-0.35543835,0.402339,0.30632344,-0.37962091,0.40608,0.31721893,-0.36076486,0.395656,0.32320968,-0.34649904,0.370995,0.33911201,-0.35057896,0.364995,0.31332412,-0.28825912,0.371689,0.2984359,-0.28077148,0.341848,0.31279383,-0.30381821,0.354413,0.32645062,-0.32703823,0.365836,0.3440015,-0.31139799,0.385463,0.32492902,-0.31842554,0.358608,0.32169241,-0.35419076,0.374769,0.32442168,-0.37392582,0.389556,0.36909186,-0.33539137,0.398514,0.3499432,-0.33668875,0.368204,0.31844373,-0.3395263,0.352697,0.30071831,-0.3534731,0.355708,0.39763175,-0.37258163,0.416872,0.39282891,-0.35803537,0.389164,0.36637762,-0.36081017,0.376433,0.3550448,-0.36629731,0.37833
0.31124817,-0.39317635,0.405417,0.32805931,-0.34706603,0.394747,0.28969708,-0.36026922,0.391333,0.29041513,-0.32854349,0.372109,0.28960935,-0.30035573,0.35321,0.29551113,-0.28158924,0.345973,0.31384482,-0.27945133,0.370235,0.30226195,-0.28330439,0.346603,0.31806868,-0.30737528,0.360521,0.3331143,-0.331598,0.373173,0.34378152,-0.30437544,0.38514,0.33775346,-0.31456976,0.36606,0.33415305,-0.35126314,0.38399,0.32943303,-0.37244935,0.39652,0.36812987,-0.33221506,0.398383,0.36649459,-0.3288431,0.375121,0.34478559,-0.33999502,0.363219,0.3380954,-0.34385153,0.369251,0.39472794,-0.36909776,0.41565,0.37601549,-0.36321228,0.394292,0.34853245,-0.36229994,0.38448,0.33836607,-0.36604865,0.38887
0.30950485,-0.3911988,0.404052,0.31655579,-0.33697443,0.393705,0.28696578,-0.35879886,0.389648,0.27757187,-0.32641749,0.370108,0.27166283,-0.29621639,0.351749,0.27285907,-0.27504676,0.344232,0.29123578,-0.27295858,0.368984,0.28050027,-0.27282448,0.345463,0.29582735,-0.29484398,0.359039,0.31055085,-0.31693603,0.37138,0.32439507,-0.29314208,0.384388,0.320783,-0.30160304,0.365688,0.32271598,-0.34149213,0.383204,0.32515121,-0.36843758,0.395466,0.35178851,-0.31453736,0.398013,0.35091878,-0.31035909,0.374956,0.33598604,-0.32393392,0.363159,0.33156289,-0.33221497,0.368954,0.38356573,-0.34853542,0.415674,0.36619924,-0.34563344,0.394566,0.34121418,-0.34961351,0.384868,0.3327467,-0.35626381,0.389092
0.30200327,-0.38240365,0.398778,0.30831308,-0.32904763,0.393456,0.27887176,-0.35208314,0.386385,0.26903133,-0.31747751,0.372229,0.26412803,-0.28849585,0.356978,0.26575856,-0.26770844,0.350546,0.2882181,-0.26942207,0.374392,0.27765353,-0.26982586,0.355558,0.29146818,-0.29069209,0.370808,0.30438701,-0.31141893,0.384671,0.32050388,-0.28947484,0.388663,0.3169772,-0.29843477,0.374812,0.31987984,-0.34014006,0.394424,0.31824853,-0.3638129,0.40559,0.34679763,-0.31043788,0.400897,0.34657244,-0.30702358,0.382822,0.33516936,-0.32446551,0.373574,0.33469457,-0.34109545,0.382111,0.37649135,-0.34328475,0.416108,0.35922941,-0.34048608,0.399298,0.33541669,-0.34568505,0.391575,0.32971764,-0.35520094,0.397987
0.30448987,-0.39090835,0.410342,0.30220733,-0.33784247,0.399389,0.27574377,-0.36021642,0.39918,0.28256713,-0.33903545,0.390839,0.26976809,-0.30681295,0.384357,0.26439625,-0.28889753,0.385759,0.27910297,-0.27706349,0.378425,0.26558845,-0.26982175,0.355997,0.27934912,-0.29017711,0.372329,0.29202998,-0.31117496,0.387176,0.309438,-0.29419162,0.389526,0.29863413,-0.29310569,0.369906,0.30398606,-0.33670621,0.390764,0.3060932,-0.36324187,0.404409,0.33458749,-0.31306754,0.399665,0.32453388,-0.30192215,0.377092,0.31254426,-0.31721483,0.365543,0.31482947,-0.33369558,0.373814,0.36388404,-0.34408147,0.413338,0.34242543,-0.33704952,0.392141,0.31626531,-0.33844116,0.382402,0.30988928,-0.34639992,0.388445
0.27808652,-0.36871885,0.390146,0.2827484,-0.32770946,0.38741,0.25458873,-0.34692131,0.382614,0.26019439,-0.32490287,0.374547,0.25047888,-0.29695856,0.372012,0.24760979,-0.28214015,0.376736,0.26732291,-0.27538248,0.376129,0.25911774,-0.2742549,0.361846,0.27323707,-0.29638391,0.380293,0.28612285,-0.31912038,0.397062,0.29550614,-0.29073255,0.384946,0.29033504,-0.296005,0.373565,0.29690367,-0.3421252,0.397053,0.29715756,-0.36695415,0.408542,0.31807667,-0.30741821,0.392453,0.31437263,-0.30302706,0.378472,0.30620041,-0.32222719,0.371319,0.3119279,-0.34247596,0.38365,0.34293719,-0.33439347,0.4017,0.32732141,-0.33345849,0.387963,0.30424468,-0.3377765,0.381651,0.30057908,-0.34863289,0.390949
0.28444462,-0.38683029,0.411011,0.28999738,-0.33133783,0.402603,0.25664355,-0.3556539,0.396792,0.27614033,-0.32930617,0.393387,0.29494519,-0.31286862,0.381603,0.31790603,-0.30782028,0.387711,0.26890075,-0.26826259,0.379312,0.26087514,-0.26397056,0.357336,0.27547697,-0.2809524,0.371007,0.283502,-0.30632207,0.383435,0.30025164,-0.2894438,0.395032,0.29928276,-0.29164868,0.378279,0.29852564,-0.3312292,0.395932,0.29538692,-0.36126374,0.407533,0.32589084,-0.31147892,0.40874,0.33335233,-0.29272357,0.387439,0.32076113,-0.30173477,0.376541,0.31062476,-0.32326777,0.382881,0.35523035,-0.34596124,0.426182,0.34625082,-0.3343948,0.406681,0.34241583,-0.32925089,0.397721,0.3326847,-0.34072376,0.402408
0.28243048,-0.3853473,0.410786,0.27894331,-0.32796926,0.402396,0.25443239,-0.35540944,0.396698,0.26444861,-0.32771762,0.393275,0.28009043,-0.30527839,0.381998,0.29950238,-0.29605663,0.388281,0.24728082,-0.26778668,0.379284,0.23898018,-0.26137449,0.357373,0.25187917,-0.27701984,0.371185,0.26128251,-0.29829558,0.383741,0.28026479,-0.28348514,0.394842,0.27879839,-0.2825887,0.378083,0.28402793,-0.32464617,0.395909,0.28460257,-0.35242859,0.407566,0.30823326,-0.30103793,0.408415,0.3100183,-0.27990098,0.38716,0.29965145,-0.29064405,0.376285,0.29410798,-0.31468576,0.382757,0.34218345,-0.33040558,0.425696,0.33021034,-0.31766014,0.406213,0.3248571,-0.31189963,0.397262,0.31616673,-0.32640287,0.402047
0.27548917,-0.38363742,0.411071,0.26883783,-0.32767123,0.402365,0.24715553,-0.35252673,0.395527,0.24648831,-0.32040644,0.383899,0.25539074,-0.29286726,0.365628,0.2677343,-0.28359568,0.355176,0.23772373,-0.26551317,0.377203,0.2292504,-0.25791618,0.354532,0.24061518,-0.27181036,0.36663,0.25231761,-0.29316338,0.377628,0.27132959,-0.28311635,0.394525,0.27769535,-0.25173002,0.37777,0.29200554,-0.27723286,0.392882,0.30088354,-0.30163418,0.404288,0.29982157,-0.30230754,0.40958,0.29947422,-0.29816964,0.387777,0.29997822,-0.29373529,0.376622,0.30676589,-0.32405078,0.381482,0.3343129,-0.33376212,0.42865,0.34187757,-0.30895612,0.408938,0.33733483,-0.30527073,0.399881,0.32978571,-0.31961851,0.403456
0.25288251,-0.37171467,0.401229,0.25541213,-0.32155912,0.396673,0.22771971,-0.34444309,0.387102,0.22565562,-0.30901427,0.371174,0.2278884,-0.27869129,0.355793,0.2387998,-0.26773952,0.343826,0.2296486,-0.26234323,0.375874,0.22807148,-0.24676943,0.356937,0.24146253,-0.26523892,0.370274,0.2540812,-0.29565481,0.382399,0.26221078,-0.28066133,0.392572,0.26914877,-0.25352503,0.379822,0.28555801,-0.28181838,0.3971,0.29120416,-0.31015973,0.407135,0.28937915,-0.30013636,0.406734,0.29350164,-0.28166984,0.388946,0.29035411,-0.28339427,0.379845,0.29041122,-0.3080743,0.386824,0.32145643,-0.33133322,0.424079,0.31953052,-0.31426996,0.40786,0.31907022,-0.30625026,0.400408,0.31286395,-0.31928407,0.405682
0.23917835,-0.36789722,0.39784,0.24367329,-0.32044099,0.395287,0.21521653,-0.34086486,0.384527,0.21442228,-0.30810867,0.370591,0.2171663,-0.27812037,0.355998,0.22853768,-0.26732228,0.344424,0.21993746,-0.26308786,0.376756,0.21918228,-0.24821415,0.359715,0.23208473,-0.2667999,0.373666,0.24136306,-0.29487244,0.385965,0.25188277,-0.28107145,0.392987,0.25962455,-0.25466261,0.382192,0.27546526,-0.28310862,0.400238,0.28023138,-0.31101697,0.409807,0.27835834,-0.30011013,0.406582,0.28341245,-0.28241807,0.390806,0.28071131,-0.28454186,0.382734,0.28090144,-0.30990169,0.390767,0.30929427,-0.33047471,0.422935,0.30813101,-0.3141135,0.408457,0.30800484,-0.30637752,0.401805,0.30191712,-0.31988983,0.407922
0.20138514,-0.32827601,0.373673,0.2287136,-0.30060898,0.384433,0.18583879,-0.30087332,0.364376,0.20557316,-0.27495961,0.356749,0.220998,-0.25303272,0.34427,0.2331123,-0.25281971,0.335337,0.22443358,-0.25477595,0.379217,0.23369521,-0.24422959,0.374875,0.24992796,-0.24922836,0.389556,0.24617422,-0.26553623,0.397134,0.25215324,-0.28017451,0.394122,0.27892894,-0.2646052,0.397277,0.29454157,-0.28437868,0.416256,0.29414794,-0.30303875,0.421072,0.27513744,-0.300064,0.405409,0.29569026,-0.27983756,0.403389,0.30374547,-0.2850252,0.402356,0.31519715,-0.31069476,0.414613,0.29434318,-0.33255235,0.416883,0.30590113,-0.31410925,0.414738,0.31188726,-0.3047697,0.413752,0.30701606,-0.31177241,0.423385
0.19865565,-0.24396584,0.404904,0.22322542,-0.25349959,0.382573,0.2118232,-0.22621115,0.39147,0.2010513,-0.21255975,0.368404,0.18080823,-0.1984338,0.341643,0.16672442,-0.19452284,0.323225,0.24819437,-0.23475781,0.351707,0.2178961,-0.20511499,0.320177,0.2220158,-0.20837107,0.333433,0.2169963,-0.20791407,0.35117,0.24245054,-0.26020845,0.362465,0.22695963,-0.2475286,0.356479,0.21708047,-0.24750928,0.380093,0.21731746,-0.25268815,0.39696,0.23488987,-0.2817235,0.37336,0.21660531,-0.25873895,0.340674,0.20436853,-0.2630444,0.355226,0.19679707,-0.27078167,0.374237,0.22053467,-0.30712953,0.389778,0.21114197,-0.28474518,0.359652,0.20107967,-0.28304798,0.370869,0.19688015,-0.28810467,0.38582
0.18803381,-0.24172223,0.393282,0.21660879,-0.25183682,0.37737,0.20179772,-0.22485839,0.384453,0.19865255,-0.20528944,0.36236,0.17783831,-0.18919791,0.335589,0.15918416,-0.19018232,0.317252,0.23656787,-0.23281144,0.356323,0.23448829,-0.21507286,0.331777,0.25517942,-0.22508651,0.34882,0.25499835,-0.23463786,0.365314,0.23337015,-0.258324,0.363042,0.23462521,-0.23555126,0.338711,0.2288205,-0.23958076,0.360315,0.22068514,-0.24627843,0.375746,0.23112662,-0.27860354,0.370025,0.23463841,-0.2594209,0.344366,0.23144535,-0.26953406,0.363036,0.21932141,-0.27939726,0.380855,0.21711761,-0.30226697,0.38081,0.22690738,-0.27212189,0.35646,0.22827317,-0.25411167,0.345271,0.22603331,-0.24276138,0.350983
0.17707643,-0.23584865,0.38117,0.19954185,-0.2493589,0.371399,0.18543737,-0.22241073,0.375552,0.18580406,-0.20287274,0.358268,0.16485242,-0.18659187,0.331132,0.14204056,-0.18667572,0.312955,0.22868343,-0.23382062,0.358224,0.23071959,-0.22020406,0.340053,0.25186244,-0.23137156,0.358953,0.2492421,-0.23973764,0.373673,0.22433757,-0.25631737,0.3626,0.2285808,-0.23919946,0.344435,0.22293484,-0.24460703,0.368333,0.21310349,-0.24882046,0.385403,0.21792537,-0.27537766,0.367094,0.2268529,-0.26175298,0.348066,0.22373108,-0.27329832,0.368756,0.20613574,-0.28005686,0.384705,0.20461523,-0.29846426,0.373959,0.21562708,-0.27075174,0.355307,0.21857449,-0.25475327,0.346738,0.21774464,-0.24524668,0.355095
0.16946348,-0.22770063,0.370873,0.20092559,-0.24211697,0.375741,0.18163426,-0.21685604,0.371983,0.18907312,-0.19710364,0.366836,0.17024022,-0.18351515,0.344527,0.14744018,-0.18504003,0.327686,0.24184084,-0.23840164,0.380153,0.25508339,-0.23409179,0.377452,0.27806397,-0.24521649,0.397961,0.27031969,-0.24932102,0.40722,0.23431422,-0.25878764,0.380125,0.24947069,-0.25159832,0.377513,0.24292102,-0.25627964,0.403368,0.23263679,-0.26637981,0.421835,0.22449465,-0.27468771,0.379657,0.24456066,-0.27268924,0.376907,0.24103575,-0.28416988,0.399343,0.21875148,-0.29201128,0.409417,0.20607855,-0.29152163,0.378313,0.22588375,-0.27422715,0.374001,0.23334953,-0.26239233,0.37202,0.23483459,-0.25454178,0.384959
0.15746034,-0.21889571,0.376799,0.1887802,-0.23526551,0.38181,0.17329423,-0.2044296,0.371945,0.17231274,-0.18821083,0.35951,0.14671642,-0.17414982,0.332784,0.12218979,-0.1742317,0.317281,0.22760986,-0.23142133,0.378713,0.2362368,-0.23180792,0.371999,0.24587653,-0.2386232,0.391109,0.24351359,-0.23542628,0.401392,0.21931287,-0.25441346,0.386322,0.24242673,-0.27127924,0.385562,0.27258667,-0.29829228,0.410037,0.28031595,-0.30771427,0.427515,0.20879082,-0.2723265,0.392129,0.23871467,-0.28042995,0.391768,0.26530994,-0.3027909,0.410667,0.27178888,-0.3165622,0.427007,0.1894899,-0.29107589,0.398118,0.203053,-0.28464517,0.391621,0.21010421,-0.2816079,0.388636,0.20975261,-0.27741004,0.400154
0.14819334,-0.2030759,0.374742,0.18100988,-0.22358527,0.381107,0.16660638,-0.19198263,0.371515,0.17354161,-0.1816671,0.361232,0.14993703,-0.17322849,0.334608,0.12528841,-0.1728853,0.31858,0.22181682,-0.22669841,0.380915,0.23929442,-0.23365558,0.376293,0.24897486,-0.24077714,0.395883,0.24567088,-0.23743103,0.405533,0.21092208,-0.24761358,0.386837,0.23712277,-0.27043511,0.387069,0.26566565,-0.29900827,0.409684,0.29040652,-0.32079986,0.425837,0.19821585,-0.26327808,0.391131,0.24445848,-0.30154616,0.422046,0.26822308,-0.3211851,0.437862,0.29202927,-0.3403859,0.452241,0.17636044,-0.27831659,0.395125,0.1924993,-0.2691971,0.390301,0.20081016,-0.26472639,0.388084,0.20347782,-0.25721233,0.400326
0.1477438,-0.20183347,0.376633,0.18126381,-0.22514047,0.382624,0.1663959,-0.19113098,0.373348,0.17337228,-0.18271467,0.362887,0.15050813,-0.17322631,0.33619,0.12577219,-0.17270547,0.320103,0.22212263,-0.22822712,0.382132,0.23944349,-0.23449262,0.377182,0.24889565,-0.24165907,0.396793,0.24539839,-0.23848075,0.40658,0.2110872,-0.24910288,0.38802,0.237173,-0.27179255,0.387845,0.26567207,-0.30039239,0.410314,0.29023242,-0.32221441,0.426362,0.19827638,-0.26473297,0.39232,0.24444811,-0.30293767,0.422844,0.26816949,-0.32254075,0.438461,0.29190268,-0.34171608,0.452659,0.17631737,-0.27973303,0.396382,0.19197377,-0.2704272,0.391222,0.20003908,-0.26587629,0.388851,0.20261378,-0.25832316,0.401025
0.14639479,-0.19734285,0.379923,0.1817033,-0.22508835,0.384684,0.16537814,-0.18726783,0.376405,0.17267079,-0.18203197,0.365309,0.15038006,-0.17076827,0.338388,0.1268478,-0.17092694,0.322141,0.22217678,-0.22744441,0.383135,0.23886286,-0.23323453,0.37708,0.24816933,-0.24037575,0.39673,0.24476762,-0.23751336,0.40697,0.21116066,-0.24830796,0.388971,0.23751765,-0.27052361,0.387474,0.26724997,-0.29817722,0.409497,0.29064128,-0.32031169,0.425227,0.19841943,-0.26400468,0.393341,0.24474154,-0.30201697,0.423847,0.26863036,-0.32018953,0.439455,0.29233507,-0.34059296,0.453644,0.17660812,-0.27924165,0.397685,0.19154709,-0.26907283,0.391406,0.19923668,-0.26413235,0.388521,0.20156691,-0.25643582,0.400445
0.14724141,-0.19861443,0.384144,0.18268897,-0.22562204,0.387661,0.16622325,-0.18815907,0.380228,0.1679031,-0.17701101,0.368323,0.14289131,-0.16420716,0.341207,0.11871686,-0.16355732,0.324892,0.22228535,-0.22425279,0.384838,0.23681149,-0.22827947,0.377566,0.24476611,-0.2351145,0.397183,0.24035524,-0.23263815,0.407889,0.21159599,-0.24530171,0.390828,0.24002829,-0.26733231,0.388054,0.27003135,-0.29526335,0.408816,0.29334067,-0.31513918,0.423647,0.19912694,-0.26124073,0.395438,0.24650917,-0.29838299,0.425589,0.27087455,-0.31745189,0.441015,0.29511492,-0.33609104,0.455039,0.17796094,-0.27859826,0.400267,0.1902503,-0.26563614,0.392809,0.19678196,-0.26015497,0.389383,0.19819463,-0.2522333,0.400996
0.14642435,-0.19795496,0.383561,0.18225263,-0.22485606,0.387389,0.1654127,-0.18750255,0.379835,0.16746803,-0.17730288,0.368229,0.14245748,-0.16460584,0.341155,0.11831122,-0.16403238,0.324813,0.22237929,-0.22389334,0.385001,0.23416514,-0.22555589,0.378092,0.23608735,-0.22934958,0.397749,0.22832083,-0.22569167,0.408328,0.21170515,-0.24492496,0.390837,0.24010374,-0.26665042,0.388353,0.27004055,-0.29432477,0.40928,0.29352458,-0.31430739,0.424229,0.19949945,-0.26212981,0.395292,0.24691916,-0.29764961,0.425296,0.27144872,-0.31655403,0.440646,0.29581996,-0.33503464,0.454602,0.17775879,-0.27875592,0.399888,0.189935,-0.26532797,0.392756,0.19628487,-0.2599094,0.389479,0.19849727,-0.2538221,0.401198
0.14611197,-0.19771532,0.383556,0.18232974,-0.22478766,0.387926,0.16515003,-0.18732599,0.380052,0.1678419,-0.17766099,0.368851,0.14293336,-0.16492339,0.341861,0.1185773,-0.16439227,0.325525,0.22301732,-0.22442823,0.386154,0.2345461,-0.22611316,0.379807,0.23730206,-0.2302277,0.399495,0.22947022,-0.22634161,0.409865,0.212294,-0.2454461,0.391861,0.2404766,-0.26712033,0.389917,0.26915871,-0.29279095,0.411578,0.29302416,-0.31694231,0.42705,0.19994684,-0.26236109,0.39616,0.24737823,-0.29781488,0.425733,0.27186069,-0.3165547,0.440864,0.29565403,-0.33631934,0.454619,0.17809514,-0.278742,0.400486,0.1904259,-0.26587733,0.393883,0.19683103,-0.26054094,0.390849,0.19803015,-0.25274887,0.402719
0.19722942,-0.23742051,0.449257,0.21598897,-0.24678564,0.420026,0.21320055,-0.22289043,0.437892,0.19398847,-0.20236114,0.411105,0.17160043,-0.18412448,0.385747,0.15351449,-0.17753175,0.367155,0.24267672,-0.23232422,0.387545,0.20871881,-0.20048566,0.352882,0.20727375,-0.20035473,0.365061,0.1980534,-0.20163284,0.383606,0.23058142,-0.25341222,0.393704,0.19712157,-0.21980605,0.357307,0.19408134,-0.21966522,0.372714,0.18643779,-0.21625467,0.390716,0.2185027,-0.27087777,0.401443,0.1801514,-0.22946577,0.364495,0.16054048,-0.20828799,0.345592,0.14847748,-0.19209022,0.346475,0.20024476,-0.29105007,0.415289,0.17642975,-0.251683,0.381086,0.16547192,-0.23356232,0.365371,0.16391589,-0.21662915,0.365336
0.19721948,-0.23725657,0.448955,0.21589288,-0.24658014,0.419869,0.21326099,-0.22285524,0.437866,0.19398808,-0.20231595,0.411378,0.17144337,-0.18396097,0.386051,0.15231395,-0.17748753,0.367422,0.2427711,-0.23231744,0.387829,0.21454303,-0.20218975,0.353421,0.21624661,-0.20272677,0.365074,0.20837322,-0.20380591,0.383672,0.23047473,-0.25322245,0.393678,0.19683132,-0.21949603,0.357418,0.18919136,-0.21553802,0.373049,0.18405106,-0.2142903,0.391071,0.21825077,-0.27051254,0.401148,0.17980425,-0.22907348,0.36443,0.16014243,-0.20787977,0.345644,0.14820299,-0.19182458,0.346744,0.19986848,-0.29045255,0.414656,0.17592161,-0.25103601,0.380624,0.16490261,-0.23289174,0.364988,0.16342557,-0.21607699,0.365119
0.19789566,-0.23741261,0.449253,0.21686949,-0.24682804,0.420372,0.21390069,-0.22293656,0.438116,0.19482041,-0.20254802,0.411597,0.17141433,-0.18444474,0.386104,0.1515843,-0.17827844,0.367451,0.24382813,-0.23252079,0.388399,0.21313898,-0.20195907,0.354082,0.21660295,-0.20327117,0.366517,0.20841205,-0.20447176,0.385026,0.23169304,-0.2535456,0.394367,0.19836852,-0.220158,0.358276,0.19280782,-0.21801251,0.374,0.18510837,-0.21465009,0.39199,0.21957385,-0.270936,0.401916,0.18133368,-0.2298048,0.36532,0.16176336,-0.20875579,0.346596,0.14975201,-0.19275569,0.34779,0.20125986,-0.29099143,0.415483,0.17911658,-0.25303813,0.381563,0.16659247,-0.23380369,0.365979,0.16507937,-0.21702107,0.366187
0.20036569,-0.23868071,0.451363,0.22833768,-0.25162421,0.430667,0.21478737,-0.22236436,0.437808,0.19456488,-0.20154704,0.410115,0.1704142,-0.18297173,0.383226,0.15084266,-0.17729701,0.365167,0.2610998,-0.23330562,0.400654,0.23995923,-0.22008968,0.370151,0.23650893,-0.2243392,0.383666,0.2286383,-0.22283187,0.401103,0.25552324,-0.25920497,0.412031,0.21999413,-0.2371852,0.383185,0.21284524,-0.24139405,0.400464,0.20320958,-0.24128356,0.416322,0.2481086,-0.28051079,0.423287,0.20850963,-0.26087114,0.391841,0.18775306,-0.25085156,0.375753,0.16693488,-0.24763461,0.379269,0.23402303,-0.30493594,0.43986,0.20716125,-0.27357998,0.410878,0.19395397,-0.25809764,0.397562,0.18671625,-0.25038599,0.399772
0.19892618,-0.23596032,0.447744,0.22809769,-0.24875863,0.428837,0.21402438,-0.22041436,0.436181,0.19532356,-0.20139532,0.410705,0.17185988,-0.18370668,0.384352,0.15327634,-0.17825739,0.36617,0.26140653,-0.23228102,0.402462,0.24806106,-0.21701406,0.374233,0.24961489,-0.22304647,0.38943,0.23867277,-0.2284567,0.406641,0.25448388,-0.25690265,0.411812,0.22175311,-0.23646866,0.384567,0.22363171,-0.24453462,0.403912,0.20820974,-0.24408824,0.419839,0.2459113,-0.27698479,0.421235,0.22312264,-0.25962242,0.391958,0.21180946,-0.25197736,0.37698,0.1993054,-0.24254196,0.382502,0.23037088,-0.29975869,0.435368,0.2053709,-0.2707593,0.408072,0.19333793,-0.25678928,0.39553,0.1853568,-0.25065326,0.399283
0.18486625,-0.21996655,0.414341,0.21220807,-0.23465345,0.403316,0.19772278,-0.20168351,0.403141,0.19871012,-0.18280572,0.379787,0.1754649,-0.16874001,0.352512,0.15151443,-0.16981699,0.335525,0.23994176,-0.21593895,0.382258,0.24012633,-0.20724559,0.359756,0.24809201,-0.21650985,0.376059,0.25000075,-0.22403355,0.391451,0.2369038,-0.24112901,0.393388,0.24109563,-0.23357902,0.373697,0.23749005,-0.23948726,0.39452,0.22959713,-0.24127641,0.408178,0.23311751,-0.26282453,0.403556,0.23358159,-0.25479771,0.380907,0.22263937,-0.24781917,0.36932,0.20683907,-0.24821877,0.377546,0.2204319,-0.28745233,0.417277,0.23266316,-0.26891167,0.396016,0.2389173,-0.26020175,0.386247,0.23718641,-0.24464821,0.384348
0.18325479,-0.21148092,0.398357,0.22672047,-0.23385694,0.405573,0.19899108,-0.19754169,0.394862,0.21255032,-0.18527402,0.384915,0.19142806,-0.17317449,0.361776,0.16761086,-0.1752649,0.346289,0.26437016,-0.22910516,0.405565,0.27853311,-0.23125572,0.401435,0.28932218,-0.24228372,0.420826,0.28728513,-0.24621193,0.430203,0.25601074,-0.25373555,0.41207,0.27636072,-0.25701961,0.411199,0.27473859,-0.26457599,0.43585,0.26272026,-0.26239307,0.443902,0.24954566,-0.27094976,0.416767,0.26493744,-0.27664676,0.41357,0.26030318,-0.27641379,0.411934,0.2471617,-0.28131759,0.42789,0.23247655,-0.29039018,0.421093,0.2563733,-0.28309754,0.416907,0.26871409,-0.27982498,0.415376,0.26773481,-0.26380769,0.414448
0.18282569,-0.20425026,0.390025,0.2206868,-0.22613803,0.394104,0.20335208,-0.19138419,0.388053,0.22120904,-0.17980693,0.378457,0.20433957,-0.16593158,0.351475,0.18089612,-0.1651289,0.334446,0.25587346,-0.22492326,0.394103,0.27219101,-0.22497272,0.388569,0.29141117,-0.23624586,0.408698,0.2935913,-0.23879568,0.418924,0.24693363,-0.24669471,0.397776,0.262729,-0.26673029,0.39505,0.2937598,-0.29423676,0.415506,0.32034803,-0.3115134,0.432291,0.23593081,-0.26221954,0.400428,0.25351078,-0.2629561,0.395201,0.24418916,-0.25407661,0.392527,0.23132546,-0.25567654,0.408567,0.21826927,-0.27711069,0.40287,0.24427247,-0.26961782,0.396589,0.2562252,-0.26588263,0.393702,0.26549755,-0.25866004,0.405933
0.18225712,-0.20143205,0.386481,0.21824999,-0.22369816,0.390672,0.20143659,-0.18841871,0.383479,0.21348661,-0.17693149,0.372771,0.19467736,-0.16236301,0.345745,0.17434528,-0.16219186,0.329149,0.25263226,-0.22208526,0.389429,0.27225325,-0.22525963,0.383278,0.28539789,-0.23359239,0.403135,0.27728928,-0.23410926,0.413496,0.24439662,-0.24321842,0.394446,0.26231529,-0.2634274,0.392145,0.29208025,-0.29018397,0.412258,0.31873998,-0.30930192,0.428922,0.23285704,-0.25959434,0.398193,0.25085851,-0.26165303,0.392518,0.25626915,-0.26319223,0.389615,0.25498914,-0.26311903,0.405313,0.21558589,-0.27571531,0.401902,0.23866036,-0.27699417,0.395327,0.22260143,-0.26857205,0.392306,0.21210337,-0.27140083,0.404291
0.190556,-0.19468416,0.380887,0.2323423,-0.22092689,0.387657,0.21947675,-0.18434271,0.37876,0.23417984,-0.17575749,0.369804,0.21569182,-0.16151174,0.343251,0.19132416,-0.1605646,0.326822,0.26527756,-0.22247646,0.389117,0.28442186,-0.22773764,0.385539,0.2984381,-0.23799789,0.405428,0.29259622,-0.2371981,0.414785,0.2559785,-0.24258905,0.393753,0.27647755,-0.26499355,0.394105,0.30485369,-0.292032,0.414201,0.332361,-0.31325492,0.43098,0.24537297,-0.2578199,0.396952,0.26762871,-0.2641663,0.394043,0.26656033,-0.25775917,0.392555,0.26645133,-0.25676416,0.409002,0.22736115,-0.27293463,0.399595,0.25593614,-0.26654608,0.395503,0.27014733,-0.26348507,0.393623,0.2815828,-0.25615811,0.406237
0.20571571,-0.19612965,0.382001,0.23990861,-0.22525186,0.394375,0.22492988,-0.18940911,0.387991,0.24794594,-0.18319807,0.39084,0.23508694,-0.16562247,0.368877,0.21262543,-0.16580555,0.3522,0.28523101,-0.23348499,0.409626,0.31464048,-0.23497065,0.416453,0.33508131,-0.24328596,0.436371,0.3298483,-0.2420983,0.441635,0.27434415,-0.25027835,0.405517,0.31774057,-0.29362276,0.438,0.34763958,-0.31951265,0.456948,0.37957591,-0.33811605,0.474323,0.26208513,-0.26211314,0.401005,0.29903856,-0.26502844,0.408028,0.31974407,-0.26551353,0.411621,0.33091822,-0.26229091,0.430631,0.2415802,-0.2722818,0.393695,0.27110189,-0.26204402,0.398035,0.28609831,-0.25663403,0.400029,0.29089583,-0.25306258,0.414653
0.20735322,-0.19585237,0.380037,0.24605091,-0.22558467,0.393553,0.22629834,-0.18951934,0.387175,0.25808582,-0.18478495,0.391446,0.25004126,-0.17293088,0.370852,0.2295197,-0.17408886,0.354529,0.28846346,-0.23421522,0.41097,0.32522024,-0.23522889,0.419634,0.33977464,-0.2435671,0.439254,0.33287825,-0.24192935,0.443674,0.28046103,-0.25047212,0.405724,0.32088726,-0.29455703,0.439781,0.35066769,-0.3208573,0.459648,0.38234045,-0.33860186,0.476402,0.26869991,-0.26185304,0.40017,0.31001802,-0.26512705,0.409013,0.33344879,-0.26608752,0.413537,0.34746501,-0.26325602,0.432759,0.24881691,-0.27144696,0.391453,0.28204993,-0.26149971,0.397396,0.29883628,-0.25620418,0.400126,0.30567023,-0.25200815,0.41493
0.21294237,-0.19698979,0.382938,0.26099764,-0.22778649,0.398104,0.23225373,-0.1915267,0.391342,0.27516679,-0.19104436,0.397788,0.27087057,-0.18167155,0.377907,0.25493624,-0.18179622,0.361831,0.30400541,-0.24079712,0.41815,0.34154033,-0.24117475,0.429169,0.36222953,-0.24633305,0.44834,0.35655631,-0.24219866,0.451651,0.29269398,-0.2555359,0.411759,0.33565109,-0.30016327,0.442234,0.36091404,-0.32644305,0.460011,0.39338802,-0.3442214,0.477164,0.28002973,-0.26529421,0.405114,0.32585391,-0.27065093,0.416345,0.35200068,-0.27297768,0.422092,0.36932994,-0.27014088,0.441543,0.25901393,-0.27228628,0.394848,0.29532002,-0.26261264,0.402922,0.3135895,-0.25738764,0.406632,0.32193248,-0.25186973,0.421643
0.22271255,-0.19460335,0.380384,0.2621021,-0.22501107,0.394448,0.24159882,-0.19160832,0.392163,0.28748143,-0.18748462,0.403006,0.29327236,-0.17719043,0.390324,0.27889658,-0.17759927,0.376795,0.30486669,-0.24106482,0.418114,0.34802519,-0.23684037,0.43142,0.3669155,-0.23779316,0.449169,0.36121169,-0.23127769,0.451009,0.29206399,-0.25257482,0.407113,0.33560446,-0.30108187,0.442099,0.36132095,-0.32983943,0.462508,0.39186059,-0.34523219,0.477086,0.28275837,-0.2591284,0.396772,0.3346704,-0.26082266,0.409702,0.36390915,-0.26126569,0.416317,0.38480992,-0.25540012,0.434952,0.26320342,-0.26229169,0.382354,0.30466752,-0.25036752,0.39179,0.32508529,-0.24417035,0.396126,0.33794098,-0.23612299,0.410457
0.22518293,-0.1942765,0.380575,0.26346965,-0.2250665,0.394476,0.24343916,-0.19147215,0.392155,0.28721115,-0.18780461,0.402664,0.29186921,-0.17696731,0.388705,0.27698704,-0.17712463,0.374555,0.30520946,-0.24111906,0.417789,0.3477661,-0.23670242,0.430779,0.36662625,-0.23780275,0.448647,0.36094934,-0.23148369,0.450658,0.29510848,-0.25266941,0.406994,0.33594962,-0.30137754,0.441943,0.36120466,-0.3302589,0.462329,0.39177828,-0.34541148,0.476891,0.2832065,-0.25945444,0.396838,0.33473133,-0.26091002,0.409458,0.36375409,-0.26122961,0.415915,0.38454391,-0.25545523,0.434572,0.26376779,-0.26285369,0.382664,0.30487302,-0.25072345,0.391822,0.32423866,-0.24336991,0.39603,0.33475795,-0.23536613,0.410376
0.25612221,-0.18518816,0.378124,0.27903989,-0.21944249,0.391967,0.27241078,-0.1810106,0.383843,0.31106491,-0.20106346,0.393854,0.34530955,-0.21768608,0.402159,0.36588137,-0.2329827,0.408971,0.31167813,-0.23347478,0.407777,0.35226032,-0.2391433,0.41551,0.38906944,-0.25127698,0.435349,0.41301349,-0.25479074,0.440222,0.29878611,-0.24848182,0.404431,0.34180326,-0.25630847,0.412087,0.35344364,-0.25211207,0.437035,0.3606369,-0.24667283,0.454855,0.28578798,-0.26068429,0.400413,0.32972868,-0.2663582,0.408565,0.35497936,-0.27058034,0.412735,0.37580143,-0.26729182,0.431978,0.26859768,-0.26779885,0.393442,0.30907765,-0.26266791,0.398864,0.32556565,-0.2528292,0.401355,0.3392344,-0.24068514,0.416198
0.24946384,-0.18699062,0.371551,0.28058865,-0.21964059,0.390791,0.26428009,-0.18130217,0.378775,0.3067368,-0.20103163,0.39726,0.34360114,-0.21397489,0.406647,0.37082167,-0.23335025,0.416424,0.31880519,-0.22729427,0.411843,0.36260152,-0.22566694,0.425053,0.39808484,-0.23057568,0.443976,0.39786355,-0.22416955,0.446324,0.31401626,-0.24520847,0.408116,0.36377498,-0.26683142,0.421856,0.39862925,-0.2722077,0.445817,0.39038964,-0.26507665,0.448613,0.30688915,-0.2580327,0.403291,0.36225197,-0.26279318,0.417394,0.39342447,-0.26495646,0.424609,0.41856023,-0.27372433,0.444619,0.29265589,-0.26943736,0.394492,0.33459597,-0.2556654,0.405372,0.35533554,-0.24841654,0.41037,0.38452103,-0.24799475,0.425926
0.25278667,-0.18903131,0.372262,0.29373897,-0.22076871,0.391271,0.26676426,-0.182545,0.379494,0.31498587,-0.20145738,0.396362,0.35446665,-0.21382756,0.406367,0.37929976,-0.22882359,0.415248,0.32904536,-0.22748633,0.412191,0.37371622,-0.22575719,0.425223,0.41012409,-0.23068371,0.444184,0.41057528,-0.22431672,0.446617,0.32436256,-0.2453713,0.408387,0.36945241,-0.2689285,0.421884,0.40949179,-0.27667066,0.446907,0.40714307,-0.27082396,0.45223,0.31737419,-0.25817986,0.403521,0.37343368,-0.2628064,0.417415,0.40497749,-0.26490342,0.424524,0.4312964,-0.27365784,0.444511,0.30339991,-0.26958762,0.394712,0.34588053,-0.25567865,0.405393,0.36687565,-0.24837477,0.410301,0.39666166,-0.2479406,0.425833
0.25830517,-0.18679071,0.369819,0.30055208,-0.21673574,0.390095,0.27228673,-0.18063312,0.377868,0.32449064,-0.19496933,0.394278,0.36382026,-0.20855436,0.407138,0.38853485,-0.22385661,0.416369,0.33367453,-0.22377111,0.412836,0.3824896,-0.22367201,0.427562,0.42019728,-0.2287899,0.446162,0.42228331,-0.22235329,0.447782,0.32908924,-0.24148816,0.408352,0.37194169,-0.26780402,0.423437,0.41236574,-0.27525422,0.447813,0.4096041,-0.26863926,0.451658,0.32241716,-0.25407708,0.40281,0.38151271,-0.26024508,0.418448,0.41453647,-0.26317965,0.426449,0.44386424,-0.27241959,0.446575,0.30927871,-0.26515169,0.393002,0.3547507,-0.25269747,0.405253,0.37715142,-0.24610331,0.410882,0.40798581,-0.24597052,0.426547
0.26999162,-0.18594858,0.365484,0.30929872,-0.21525372,0.387734,0.28098401,-0.17793928,0.373271,0.33357364,-0.19638773,0.392005,0.37076521,-0.21093794,0.402129,0.39586925,-0.22803206,0.411948,0.34258297,-0.22264269,0.411357,0.39344937,-0.22293486,0.427466,0.43160208,-0.22764478,0.445712,0.43353233,-0.22086697,0.446644,0.33909458,-0.24082753,0.407769,0.38488692,-0.26599265,0.424904,0.4273724,-0.27340205,0.44939,0.42589435,-0.26692022,0.453217,0.3331977,-0.25376805,0.402783,0.3946554,-0.26052438,0.420095,0.42906338,-0.26371987,0.428952,0.45977356,-0.27288751,0.449218,0.32074563,-0.26511995,0.393305,0.36817968,-0.25330763,0.407166,0.39158751,-0.24693473,0.413534,0.4231984,-0.24665161,0.429361
0.28548918,-0.18720663,0.367961,0.32815024,-0.21472422,0.391168,0.30422977,-0.17716747,0.374049,0.35098497,-0.19632774,0.391797,0.38601546,-0.21108632,0.399943,0.40992561,-0.22834293,0.409169,0.36139177,-0.21865875,0.413215,0.41323162,-0.22262297,0.428757,0.45265232,-0.22959829,0.446897,0.45544228,-0.22472551,0.448011,0.35845306,-0.2388016,0.412065,0.40441242,-0.2640698,0.429818,0.44847194,-0.27391737,0.454237,0.44746653,-0.268206,0.4577,0.35291332,-0.25354343,0.408998,0.41539787,-0.26414961,0.426109,0.45048934,-0.26957568,0.434863,0.48220259,-0.28147544,0.455002,0.34072517,-0.26733202,0.401614,0.3904444,-0.25895966,0.415463,0.41516734,-0.25424234,0.421826,0.44844987,-0.25552282,0.4376
0.28784961,-0.18674861,0.369728,0.32689991,-0.21382828,0.391903,0.29953623,-0.17796391,0.377209,0.34945377,-0.18979604,0.394569,0.38917334,-0.20039004,0.408542,0.41392798,-0.21299148,0.418347,0.36231906,-0.21923112,0.41509,0.416283,-0.22463113,0.430886,0.45840689,-0.2341867,0.449191,0.46627777,-0.23308707,0.45027,0.35715288,-0.23805655,0.41187,0.41164495,-0.24110801,0.42884,0.42940797,-0.24017645,0.451893,0.42701511,-0.229825,0.452991,0.34979601,-0.25155932,0.407195,0.39038072,-0.29167493,0.44682,0.41205324,-0.31278753,0.467164,0.43180377,-0.33204964,0.485684,0.33551106,-0.26371061,0.398093,0.38536638,-0.25730468,0.411719,0.40937422,-0.25230283,0.41798,0.43119724,-0.2490845,0.433793
0.29737725,-0.18734378,0.372565,0.33360147,-0.21555282,0.393698,0.30950057,-0.17820564,0.37972,0.36124661,-0.19190501,0.395756,0.40066946,-0.20226554,0.40919,0.42516412,-0.21523172,0.418208,0.37223226,-0.22063155,0.415829,0.42771622,-0.22686714,0.43051,0.46985412,-0.23578484,0.449082,0.47888505,-0.23505437,0.450709,0.36688308,-0.23936963,0.412728,0.42257229,-0.24252054,0.428482,0.44193528,-0.24196185,0.451872,0.44062288,-0.23196851,0.453515,0.35939545,-0.2528112,0.408246,0.40101061,-0.29337847,0.447164,0.42258065,-0.3143932,0.467345,0.4422456,-0.33357032,0.48573,0.34498659,-0.26489167,0.39954,0.39538912,-0.2598087,0.412058,0.41416308,-0.25204078,0.417809,0.44002829,-0.24947638,0.433533
0.29911194,-0.18784453,0.372773,0.33525665,-0.21585048,0.393959,0.3112185,-0.17860647,0.379811,0.36185711,-0.19262394,0.395838,0.4011579,-0.20280615,0.409099,0.42567095,-0.21570787,0.418132,0.37293013,-0.22074503,0.415971,0.42839845,-0.22720821,0.430598,0.47057919,-0.236282,0.449172,0.47962661,-0.23585087,0.450821,0.36767283,-0.23967397,0.413035,0.42341441,-0.24325123,0.428813,0.4428248,-0.24306912,0.452211,0.44151588,-0.23333971,0.453848,0.36025337,-0.25330316,0.408684,0.40210076,-0.29352689,0.447807,0.4237664,-0.31434563,0.468067,0.44351547,-0.33334046,0.486521,0.34591235,-0.26566764,0.400124,0.39633355,-0.26085515,0.412624,0.41810161,-0.25345498,0.418368,0.44113225,-0.24955344,0.434091
0.30623046,-0.18999455,0.374633,0.34918689,-0.21849406,0.394827,0.32079367,-0.18055705,0.381606,0.37392817,-0.19549837,0.396786,0.4136337,-0.20585225,0.410259,0.43816505,-0.21876453,0.419198,0.38345137,-0.22323243,0.416145,0.43893996,-0.22937125,0.429914,0.48208051,-0.23869474,0.448698,0.49221032,-0.2385551,0.450769,0.37816729,-0.24206341,0.413009,0.43402569,-0.24518645,0.427701,0.45503569,-0.24538089,0.451352,0.4548026,-0.23598103,0.453462,0.37084313,-0.25565617,0.408585,0.41274386,-0.29601825,0.447697,0.4344249,-0.31690004,0.467937,0.45418629,-0.33595236,0.486373,0.35682288,-0.26807793,0.4001,0.40716718,-0.26278916,0.411683,0.42888462,-0.25520743,0.417004,0.45362335,-0.24965463,0.432643
0.31912965,-0.19321941,0.378524,0.35003699,-0.21699111,0.39299,0.33273704,-0.18245237,0.381906,0.38531642,-0.19909911,0.398872,0.41009131,-0.19908728,0.401814,0.42606292,-0.21142201,0.405016,0.37457909,-0.21656621,0.406208,0.4220129,-0.21959611,0.412591,0.46511773,-0.23069584,0.43245,0.48097349,-0.2338335,0.437865,0.37206165,-0.23658982,0.406016,0.42189553,-0.23715091,0.413765,0.44653022,-0.24021827,0.438835,0.44811912,-0.23252043,0.443901,0.3677023,-0.25176767,0.404537,0.40882597,-0.29453095,0.445955,0.42618168,-0.3167732,0.467145,0.44361875,-0.33465431,0.486409,0.35836601,-0.26711849,0.40044,0.4028875,-0.25628784,0.405219,0.42404225,-0.25143126,0.407415,0.45726351,-0.25463026,0.422143
0.33245137,-0.19598983,0.382356,0.36426848,-0.21846198,0.396608,0.34481288,-0.18447912,0.385689,0.39736282,-0.20071634,0.402057,0.42082684,-0.20014409,0.403883,0.43955076,-0.21255328,0.407081,0.38601682,-0.2170529,0.40963,0.43357722,-0.22128943,0.415807,0.47735831,-0.23240507,0.435694,0.4938681,-0.23559161,0.441201,0.38364195,-0.23714817,0.40944,0.43383261,-0.23890192,0.416953,0.45244326,-0.24188467,0.442057,0.45431714,-0.23565362,0.447219,0.37967404,-0.25244291,0.407982,0.41796206,-0.29616537,0.449215,0.43755051,-0.31870677,0.470311,0.45621826,-0.33870203,0.48949,0.3713215,-0.26809084,0.403946,0.41502981,-0.25821175,0.408516,0.43636317,-0.25326403,0.410616,0.47008014,-0.25641298,0.425312
0.33679609,-0.19740005,0.377456,0.36419326,-0.22098682,0.396083,0.34427592,-0.18572308,0.3822,0.385334,-0.18291229,0.385112,0.39957663,-0.16516778,0.378096,0.41586026,-0.16253426,0.3739,0.38241253,-0.21951114,0.413599,0.4346181,-0.22556962,0.424344,0.47728098,-0.23615773,0.443545,0.49515186,-0.23881931,0.446976,0.38267407,-0.239574,0.412856,0.43923607,-0.2442888,0.425325,0.4696205,-0.25013944,0.449566,0.4723393,-0.24543733,0.452665,0.38114308,-0.25505844,0.410544,0.41373612,-0.29895768,0.452992,0.43250963,-0.32156079,0.474709,0.44956533,-0.34219839,0.494452,0.37428269,-0.27239126,0.404792,0.42110634,-0.26339912,0.413856,0.44465256,-0.25960702,0.418021,0.47916936,-0.2630481,0.433348
0.34299107,-0.20024265,0.376075,0.36794709,-0.22392782,0.396376,0.34918252,-0.18798306,0.380843,0.39113115,-0.1826083,0.384382,0.40790985,-0.16610034,0.380053,0.41860552,-0.16243116,0.373571,0.39062983,-0.22021544,0.414951,0.44471634,-0.22700683,0.427076,0.48477344,-0.23735795,0.445922,0.49711631,-0.2399297,0.448666,0.38933417,-0.24077349,0.414655,0.44928937,-0.24630977,0.428937,0.48001286,-0.25187086,0.452751,0.47854725,-0.2467225,0.45506,0.38811359,-0.25723512,0.412558,0.42278664,-0.30005914,0.454902,0.44314239,-0.32272182,0.476566,0.46261788,-0.34343692,0.496262,0.38228254,-0.27358991,0.406784,0.43175735,-0.26730145,0.417355,0.45610775,-0.26386368,0.422212,0.48759763,-0.26739843,0.437671
0.34642704,-0.20194103,0.377608,0.374634,-0.22470326,0.398307,0.35143821,-0.1890203,0.3815,0.39155614,-0.18260111,0.384148,0.41164942,-0.16667349,0.376388,0.41907547,-0.16316092,0.368308,0.39299921,-0.22058702,0.416013,0.44705857,-0.22574028,0.427813,0.48839503,-0.23663548,0.446498,0.49773536,-0.23979433,0.449306,0.39768162,-0.24170613,0.416945,0.45749523,-0.24622885,0.431491,0.48549366,-0.25376531,0.45514,0.4878822,-0.24966359,0.457302,0.39718348,-0.25823908,0.415822,0.4339438,-0.30076161,0.457972,0.45588686,-0.32269603,0.479537,0.47867108,-0.34264274,0.499141,0.39277488,-0.27549252,0.411126,0.4408379,-0.26474795,0.421661,0.46431387,-0.25915816,0.426501,0.49827333,-0.26036392,0.441853
0.36388441,-0.21019924,0.391819,0.3937797,-0.23111555,0.409359,0.37108677,-0.19701343,0.395673,0.40801296,-0.18507222,0.397132,0.4145382,-0.16876178,0.378955,0.40744387,-0.16946329,0.365122,0.418035,-0.23486317,0.42507,0.46607675,-0.23598333,0.43426,0.50571925,-0.24241134,0.453638,0.51474047,-0.24120265,0.457753,0.41665508,-0.25430786,0.425152,0.47095988,-0.25700241,0.436265,0.50018922,-0.26127189,0.46075,0.50630562,-0.25530412,0.464415,0.41315406,-0.26868461,0.423619,0.45280393,-0.31359314,0.463765,0.47309505,-0.3367645,0.484305,0.4997927,-0.35824212,0.502978,0.40472765,-0.28235094,0.418956,0.45072709,-0.27147106,0.426638,0.47009694,-0.26270664,0.430168,0.50342688,-0.26316913,0.445284
0.36285136,-0.20816261,0.392701,0.39311922,-0.23144097,0.409714,0.37263205,-0.19691253,0.396656,0.4082086,-0.18574647,0.398055,0.41470168,-0.16957514,0.379516,0.40698139,-0.16996878,0.365401,0.41726398,-0.23520709,0.42523,0.46491029,-0.23637374,0.434074,0.50405303,-0.24276384,0.453553,0.5102466,-0.24231128,0.457846,0.41544834,-0.25446718,0.425033,0.46910446,-0.2571049,0.435604,0.49573765,-0.25998436,0.460206,0.49797327,-0.25442959,0.464105,0.41163926,-0.26869193,0.423317,0.45083196,-0.31348466,0.463195,0.47088734,-0.33658985,0.483597,0.49734793,-0.35805525,0.502144,0.40192526,-0.28162579,0.418528,0.44853468,-0.27131746,0.425793,0.46871779,-0.26284038,0.429131,0.50096145,-0.26520913,0.444211
0.37762859,-0.2127103,0.401967,0.40774969,-0.23478984,0.415418,0.38634996,-0.19931183,0.405059,0.42542034,-0.19070135,0.404232,0.43197633,-0.17644503,0.384667,0.42396237,-0.17645899,0.369717,0.42826424,-0.23679708,0.42764,0.47304991,-0.23628189,0.433005,0.51486503,-0.24363771,0.452987,0.53087789,-0.24047427,0.458853,0.42656932,-0.25619397,0.42753,0.47879136,-0.2587798,0.434152,0.51080493,-0.26391343,0.459375,0.51844192,-0.25910428,0.464897,0.42321947,-0.27072909,0.426211,0.46238484,-0.31574233,0.466119,0.4824186,-0.33895578,0.486537,0.50543283,-0.36016232,0.505099,0.41570506,-0.28500169,0.422468,0.45848635,-0.27198552,0.426238,0.47796997,-0.26365271,0.42797,0.50612704,-0.26292823,0.442535
0.38587925,-0.21140173,0.405862,0.41209354,-0.236368,0.41818,0.39239607,-0.20096893,0.408462,0.4304082,-0.1926902,0.406683,0.43929802,-0.18052519,0.387217,0.4303542,-0.17869173,0.372241,0.43186882,-0.23805397,0.429077,0.47740429,-0.23933067,0.433184,0.51679618,-0.24555421,0.453277,0.5319759,-0.24261339,0.459684,0.42978403,-0.25752578,0.429271,0.47991936,-0.25965758,0.434606,0.5104656,-0.26464284,0.459974,0.51733081,-0.25990954,0.466007,0.42620156,-0.2721611,0.428306,0.46476542,-0.31708721,0.467835,0.48448993,-0.3402466,0.48806,0.51073028,-0.3620418,0.506445,0.41857073,-0.28661905,0.425163,0.46114487,-0.2750789,0.427735,0.48224336,-0.27063244,0.428917,0.51594848,-0.27255383,0.443267
0.38244636,-0.21095748,0.40206,0.41117846,-0.2360656,0.416704,0.39118001,-0.19980613,0.405466,0.43144185,-0.1937423,0.405407,0.4389191,-0.18120704,0.386883,0.43412292,-0.18067901,0.372493,0.43501614,-0.23980298,0.430061,0.48117121,-0.24201901,0.436602,0.51999362,-0.24805594,0.456437,0.52324806,-0.24274379,0.46178,0.43089377,-0.25849973,0.429889,0.48369162,-0.26233642,0.437831,0.51002868,-0.26743547,0.462872,0.50756356,-0.25994074,0.467859,0.42660516,-0.27277964,0.428411,0.46505611,-0.31771742,0.467901,0.48472085,-0.34088216,0.488105,0.51089302,-0.36276436,0.506472,0.41777901,-0.28649758,0.424287,0.46380135,-0.27901005,0.42923,0.48514862,-0.27312097,0.431501,0.51942409,-0.27529144,0.446253
0.37880329,-0.2081279,0.397354,0.41487927,-0.2379029,0.421023,0.391034,-0.19895199,0.404191,0.43672813,-0.19573388,0.411666,0.45838838,-0.18792033,0.404809,0.46111625,-0.19117606,0.397196,0.4476775,-0.24634665,0.44431,0.50618015,-0.25457551,0.460825,0.54594375,-0.2625209,0.478815,0.5546167,-0.25477164,0.479486,0.4417312,-0.26439915,0.442336,0.50782243,-0.2765591,0.460775,0.53357643,-0.27939023,0.483476,0.52807042,-0.27000861,0.483931,0.43126342,-0.27742398,0.438549,0.49638453,-0.29621087,0.456586,0.52283307,-0.3072328,0.476282,0.50363036,-0.30189219,0.476867,0.41456387,-0.28897978,0.430245,0.47211481,-0.28875813,0.444893,0.50006681,-0.28857937,0.451623,0.54184525,-0.29039039,0.467485
0.378668,-0.20744318,0.39656,0.41426963,-0.23749603,0.420904,0.3913589,-0.19857516,0.403717,0.43711134,-0.19586569,0.411836,0.46125256,-0.18904222,0.405944,0.46364537,-0.19202972,0.398938,0.4474602,-0.24565679,0.445014,0.50807428,-0.25681009,0.462348,0.54707416,-0.26410272,0.480132,0.55532807,-0.25652524,0.480396,0.44009443,-0.26370415,0.442824,0.50687238,-0.27901351,0.46209,0.52959018,-0.28138671,0.484526,0.51832984,-0.2704031,0.484599,0.43092859,-0.27714438,0.438799,0.49617891,-0.29694714,0.457697,0.52219288,-0.30776036,0.477166,0.50298503,-0.30196197,0.477312,0.41414669,-0.28831723,0.430104,0.47196315,-0.28952252,0.445538,0.49980698,-0.28855739,0.45263,0.53614341,-0.29266968,0.468541
0.37683406,-0.2073385,0.395376,0.41187145,-0.23702381,0.420376,0.3908078,-0.19800986,0.402786,0.436508,-0.19571802,0.411454,0.45926222,-0.18824925,0.405247,0.46238792,-0.19181365,0.398169,0.44627876,-0.24507082,0.445211,0.50794664,-0.2567665,0.463297,0.54659384,-0.26568854,0.480872,0.55365389,-0.25714309,0.480757,0.43825342,-0.26383244,0.442886,0.50484737,-0.27997501,0.462942,0.52478074,-0.28205991,0.485115,0.51699585,-0.27093985,0.484819,0.42806272,-0.27681401,0.43869,0.49448098,-0.29741309,0.458391,0.51995318,-0.30801711,0.477631,0.50190645,-0.30192292,0.477363,0.41319793,-0.28769976,0.429688,0.47134811,-0.28984696,0.44586,0.49975189,-0.28955793,0.45329,0.53645101,-0.2943845,0.469239
0.37901613,-0.20675431,0.397001,0.41148169,-0.23654409,0.423082,0.39154925,-0.19787147,0.403856,0.43184817,-0.19242819,0.412048,0.45279989,-0.18403553,0.404695,0.45596897,-0.18683486,0.397511,0.44419958,-0.24090601,0.447877,0.50480581,-0.25404943,0.466446,0.54757232,-0.26226329,0.483707,0.55386827,-0.25648287,0.483276,0.43694685,-0.25977568,0.446567,0.50365126,-0.27634445,0.4677,0.52389401,-0.27812231,0.489512,0.51330679,-0.27091369,0.488714,0.42792273,-0.27293982,0.443106,0.49433321,-0.29432618,0.463511,0.51821879,-0.30407241,0.482419,0.50107536,-0.30099975,0.481734,0.41187347,-0.28391866,0.434791,0.47407383,-0.28771588,0.451696,0.5023021,-0.28779855,0.459463,0.54024419,-0.29639106,0.475388
0.37663166,-0.2042012,0.394677,0.40547296,-0.23506895,0.424101,0.38242286,-0.19538706,0.401897,0.41464545,-0.18284254,0.410716,0.43525956,-0.16910178,0.403894,0.44162344,-0.17071874,0.398253,0.43155058,-0.24296345,0.451421,0.49495421,-0.24975298,0.47319,0.53078709,-0.25505516,0.489178,0.54447659,-0.25263907,0.486975,0.43188267,-0.26260166,0.450596,0.50294691,-0.26789606,0.475638,0.52999651,-0.26502032,0.495873,0.53149404,-0.25249042,0.493167,0.43050566,-0.27595584,0.447231,0.45076747,-0.31420165,0.47162,0.49286249,-0.3297169,0.490874,0.52715731,-0.33371454,0.508456,0.41991607,-0.29021706,0.438481,0.48169781,-0.28544239,0.458793,0.51113767,-0.28231807,0.468126,0.54676295,-0.28359878,0.484023
0.364975,-0.20414907,0.39674,0.38960465,-0.23454961,0.423462,0.37570272,-0.19653613,0.405309,0.40788908,-0.19020107,0.416071,0.43050679,-0.17686345,0.409762,0.43689403,-0.17800732,0.402877,0.42470717,-0.24216081,0.450835,0.4872243,-0.25067339,0.471323,0.52111641,-0.25511593,0.488236,0.52865741,-0.24885772,0.486909,0.4203169,-0.26093794,0.447524,0.48651317,-0.27039766,0.469813,0.51713422,-0.27519872,0.49113,0.49854419,-0.26992658,0.489758,0.41356611,-0.27412767,0.442358,0.44777275,-0.31565609,0.477759,0.4887053,-0.3316269,0.495872,0.52281265,-0.33834463,0.514263,0.39999219,-0.28537772,0.431939,0.45690227,-0.28142871,0.45034,0.48501441,-0.2788213,0.458795,0.5203051,-0.28115866,0.474831
0.35155576,-0.20567976,0.398565,0.38017785,-0.23505199,0.424369,0.36267421,-0.19714858,0.40674,0.39749801,-0.19049135,0.416706,0.42123598,-0.17769217,0.411682,0.42794099,-0.17909337,0.405335,0.41459284,-0.24207486,0.450675,0.47505745,-0.25000113,0.470059,0.50840859,-0.25463469,0.487315,0.51607001,-0.24867884,0.486559,0.41030497,-0.26098517,0.447605,0.47420666,-0.26979046,0.468758,0.50404892,-0.27485075,0.490509,0.48581074,-0.2698858,0.489684,0.40369387,-0.27435262,0.442721,0.43782447,-0.31584836,0.47805,0.47829888,-0.3317961,0.496125,0.51169813,-0.33854727,0.514571,0.39037389,-0.28593468,0.432782,0.44551066,-0.28128373,0.450108,0.47272653,-0.2783801,0.458069,0.5073992,-0.2807122,0.474077
0.34512835,-0.20485008,0.395953,0.36947077,-0.23585423,0.424023,0.3513191,-0.19698559,0.40503,0.38637932,-0.18602961,0.416817,0.4081178,-0.17116246,0.411951,0.41609934,-0.17369972,0.40617,0.40153705,-0.24365599,0.452872,0.46266807,-0.25072949,0.474936,0.49692589,-0.25551384,0.491312,0.50516386,-0.25005692,0.489147,0.39859018,-0.26239228,0.449298,0.46530721,-0.26886026,0.473252,0.49933988,-0.26888806,0.493889,0.48376159,-0.26022019,0.491702,0.39321856,-0.27553598,0.443793,0.42930727,-0.31745828,0.478561,0.46938675,-0.33109076,0.49635,0.50149637,-0.33605773,0.514886,0.38160487,-0.28671485,0.432755,0.43752836,-0.28069765,0.452715,0.46497146,-0.27705526,0.461886,0.49843884,-0.27799025,0.477935
0.33927886,-0.20777323,0.399256,0.36791888,-0.23719385,0.425626,0.34457288,-0.19927206,0.406742,0.37778586,-0.18777103,0.415791,0.39373174,-0.17304956,0.406511,0.39645449,-0.17646176,0.398372,0.39885992,-0.24269466,0.451403,0.4566029,-0.24890418,0.470715,0.49180416,-0.25465106,0.487855,0.50265251,-0.25043116,0.487082,0.39679455,-0.26238863,0.449371,0.46054569,-0.26822118,0.47098,0.4910499,-0.27059088,0.492619,0.47954628,-0.26148506,0.491595,0.39216314,-0.27654524,0.44529,0.4281535,-0.31711972,0.478777,0.46759382,-0.33055632,0.49591,0.49972088,-0.33629766,0.515015,0.37822639,-0.28957161,0.4362,0.43153272,-0.28307167,0.453696,0.45779625,-0.27924304,0.461734,0.49466097,-0.27923569,0.477714
0.32958173,-0.20837956,0.398093,0.35416826,-0.23728557,0.424989,0.33510457,-0.19957921,0.405774,0.36634048,-0.1874951,0.41518,0.37825676,-0.17385808,0.403541,0.37741921,-0.17838007,0.394311,0.38747046,-0.24248802,0.451337,0.44421737,-0.24959531,0.471254,0.47876999,-0.25577432,0.488204,0.49009671,-0.25188604,0.487117,0.38470301,-0.26224663,0.449207,0.44728005,-0.2691486,0.471457,0.47893989,-0.27072106,0.492856,0.4627312,-0.26277677,0.491525,0.37931226,-0.27644351,0.444998,0.41665428,-0.31668462,0.478846,0.45579621,-0.33048439,0.496164,0.4865189,-0.33655959,0.515177,0.36735414,-0.2892211,0.435672,0.42042835,-0.28311472,0.453765,0.44660486,-0.27945109,0.462078,0.47937623,-0.2808319,0.478074
0.32691912,-0.2421547,0.419073,0.36650004,-0.25548378,0.437011,0.33241618,-0.22741391,0.422681,0.35552145,-0.20909463,0.423988,0.37664274,-0.18735795,0.424833,0.39031938,-0.18157148,0.421322,0.39863162,-0.2441976,0.452655,0.43543137,-0.24321737,0.461983,0.47178664,-0.24934562,0.481267,0.47338494,-0.25127999,0.485289,0.40038331,-0.26552237,0.453164,0.44285337,-0.26380129,0.464657,0.46330974,-0.27296804,0.489036,0.45569408,-0.27440352,0.492531,0.40098669,-0.28250939,0.451945,0.44557085,-0.29902888,0.487188,0.4838518,-0.30394653,0.50522,0.50915839,-0.31442762,0.523657,0.39611487,-0.30315039,0.447586,0.4316525,-0.28406755,0.45551,0.44531645,-0.27583931,0.45915,0.47493082,-0.2750163,0.474265
0.31974999,-0.24153042,0.416849,0.35549038,-0.25604994,0.436273,0.32642941,-0.22756456,0.421845,0.34554263,-0.21083283,0.425407,0.36615667,-0.18882337,0.425996,0.3794834,-0.18295634,0.422252,0.38903054,-0.24591374,0.454602,0.42683924,-0.23935585,0.466187,0.4542995,-0.23974696,0.48523,0.44396387,-0.23547488,0.488266,0.39000586,-0.26667127,0.453764,0.43603411,-0.26461243,0.467147,0.45312963,-0.27501495,0.49119,0.44392547,-0.27606688,0.493896,0.39082142,-0.2847682,0.451302,0.43510995,-0.29912136,0.486566,0.47282547,-0.30407095,0.504608,0.49719784,-0.31486878,0.523186,0.38367638,-0.30246235,0.445242,0.42007228,-0.28437316,0.455137,0.43570561,-0.27545942,0.459683,0.46277682,-0.27312084,0.475106
0.31359014,-0.24017777,0.415525,0.34500068,-0.25336368,0.435831,0.31523689,-0.22624738,0.420589,0.33256039,-0.20588377,0.424762,0.34642304,-0.18252439,0.419711,0.35358291,-0.1793693,0.412983,0.37798507,-0.24518003,0.454788,0.41725383,-0.23764563,0.467144,0.44354929,-0.23796193,0.485997,0.43231941,-0.23354909,0.488653,0.38142542,-0.26617988,0.454116,0.4289736,-0.26203526,0.468467,0.44840541,-0.26764608,0.49228,0.43700684,-0.26563542,0.494563,0.38283243,-0.28161934,0.451709,0.42797552,-0.29348198,0.484182,0.46300066,-0.29822696,0.500796,0.4846109,-0.3104174,0.520075,0.37319076,-0.3002925,0.44557,0.40841289,-0.28343202,0.456287,0.42561601,-0.27430078,0.461211,0.45210944,-0.27190088,0.476707
0.30430891,-0.24054544,0.415498,0.34144706,-0.25378485,0.435787,0.30618499,-0.22560912,0.419998,0.323466,-0.20696957,0.4234,0.33737236,-0.18374061,0.418981,0.34921175,-0.18008275,0.412728,0.369628,-0.2444457,0.454015,0.40785487,-0.23661929,0.465929,0.43351327,-0.2371328,0.484764,0.42681378,-0.23324583,0.487588,0.37417897,-0.26587677,0.454056,0.42097722,-0.2614507,0.468271,0.4397703,-0.26773505,0.492082,0.43257611,-0.26600924,0.494414,0.37436829,-0.28280079,0.452237,0.42048343,-0.2919933,0.484071,0.45475667,-0.29626396,0.500358,0.48014869,-0.30948102,0.519674,0.36805126,-0.30131884,0.446792,0.40226863,-0.28410887,0.457228,0.41897213,-0.27482005,0.462023,0.44883592,-0.27231063,0.477445
0.29735685,-0.2416565,0.416045,0.33618439,-0.25513964,0.436056,0.30343734,-0.22684327,0.420242,0.32147071,-0.20725221,0.42314,0.33589693,-0.18420347,0.418856,0.34747915,-0.18071442,0.412665,0.36778947,-0.24462311,0.453728,0.40479852,-0.23643771,0.465188,0.42368265,-0.23732692,0.484068,0.42043182,-0.23250109,0.487088,0.37277657,-0.26619275,0.454076,0.41828738,-0.26133951,0.467929,0.4373962,-0.26759721,0.491804,0.42652508,-0.26629108,0.494287,0.37329858,-0.28330801,0.452535,0.41949349,-0.29177906,0.483913,0.45322199,-0.2957719,0.499966,0.47411645,-0.30841754,0.51933,0.36731193,-0.30217938,0.447461,0.40041867,-0.28461679,0.457509,0.41657453,-0.27516297,0.462125,0.44197814,-0.27255128,0.477485
0.29305804,-0.2413644,0.414598,0.32397243,-0.25596022,0.433909,0.29558538,-0.22822958,0.419588,0.30934685,-0.20647773,0.423172,0.3226376,-0.18426154,0.417245,0.32985057,-0.18257808,0.409688,0.35265723,-0.2479056,0.45216,0.38982468,-0.2361239,0.463648,0.41454444,-0.23692946,0.482715,0.41817421,-0.23224652,0.485798,0.35936675,-0.26752363,0.451299,0.40617887,-0.25627383,0.464557,0.43382914,-0.26440035,0.488629,0.43070282,-0.26264217,0.491388,0.36151916,-0.28303354,0.448826,0.4085824,-0.31403152,0.482144,0.44363385,-0.31662533,0.49919,0.4617878,-0.32055532,0.518429,0.36000975,-0.29971583,0.442774,0.39270869,-0.28134451,0.452565,0.40877963,-0.27161412,0.457063,0.43618653,-0.26905048,0.472476
0.29019685,-0.24107241,0.413567,0.3229959,-0.25625256,0.433646,0.29322727,-0.22850998,0.419367,0.31011963,-0.20727404,0.424182,0.32315324,-0.18590242,0.417594,0.32952381,-0.18504811,0.409565,0.3527286,-0.24947222,0.4534,0.39129945,-0.23854475,0.46614,0.41610064,-0.23929604,0.485037,0.41900317,-0.2338335,0.487558,0.35859914,-0.26865417,0.451726,0.40655122,-0.25830195,0.465998,0.43419243,-0.26493155,0.489834,0.42985067,-0.26318125,0.492154,0.36001529,-0.28366761,0.448514,0.4071665,-0.31558989,0.482563,0.44258853,-0.31864559,0.499983,0.46070853,-0.3224151,0.51901,0.35536774,-0.29983829,0.441471,0.3913865,-0.28164195,0.452344,0.40817926,-0.27220163,0.457339,0.43560401,-0.26956654,0.472894
0.28330436,-0.23918459,0.411054,0.31936621,-0.25402853,0.43152,0.28725734,-0.22741597,0.418199,0.30704147,-0.20256061,0.424735,0.32179584,-0.18506493,0.416862,0.32671189,-0.18457058,0.407775,0.34913105,-0.25020384,0.453226,0.38901171,-0.23923166,0.467356,0.41409321,-0.23783763,0.486065,0.41653758,-0.23321993,0.487964,0.35347411,-0.26816659,0.449948,0.39941482,-0.25645867,0.464979,0.42509383,-0.25871541,0.488534,0.4288468,-0.2577125,0.490491,0.35094644,-0.28132515,0.445382,0.39771805,-0.31712076,0.479703,0.43313884,-0.31986558,0.497263,0.45370051,-0.32193315,0.516066,0.34474841,-0.29502182,0.436687,0.38054127,-0.27577511,0.448604,0.39816272,-0.26571622,0.45408,0.42844467,-0.2656763,0.469748
0.27600397,-0.23579539,0.406574,0.31074082,-0.25060515,0.4283,0.27960552,-0.22437711,0.414172,0.30319204,-0.20149897,0.421735,0.31989886,-0.18446336,0.415726,0.32551743,-0.18487216,0.40778,0.33776834,-0.25070773,0.451359,0.37887681,-0.23773628,0.466883,0.40341037,-0.23563159,0.485273,0.40722951,-0.22883869,0.486493,0.34319577,-0.26776715,0.447863,0.39659358,-0.25582747,0.464377,0.42334132,-0.25702838,0.487527,0.42355077,-0.25094583,0.488819,0.3467267,-0.28019912,0.443001,0.39013747,-0.31757366,0.478397,0.42569617,-0.31957864,0.496507,0.44661421,-0.32080853,0.514885,0.34104949,-0.29318257,0.433754,0.37773133,-0.27401266,0.44704,0.39575339,-0.26395079,0.453144,0.42165886,-0.26014115,0.468929
0.27046005,-0.23272553,0.404199,0.30818737,-0.24995997,0.427065,0.27682982,-0.22301423,0.412747,0.29967339,-0.20127796,0.421946,0.314421,-0.18286338,0.41568,0.32071643,-0.18419649,0.407542,0.33711392,-0.25214588,0.452036,0.37913421,-0.23925846,0.469283,0.39773963,-0.23681983,0.487258,0.39198665,-0.23013501,0.487633,0.34193163,-0.26835731,0.447655,0.39386489,-0.2562615,0.46568,0.42232909,-0.25651155,0.488286,0.42214702,-0.2494147,0.488862,0.34248259,-0.280298,0.44196,0.38819977,-0.31788039,0.476772,0.42329234,-0.31940273,0.494583,0.44314112,-0.3198678,0.51295,0.33813092,-0.29164696,0.431551,0.37415765,-0.27192653,0.446391,0.38821266,-0.25947954,0.45321,0.40953641,-0.25341112,0.469085
0.26518618,-0.22857429,0.398129,0.30529732,-0.24850327,0.424511,0.27265057,-0.22038029,0.408562,0.29891742,-0.20126038,0.421579,0.31543515,-0.18309217,0.415478,0.32291297,-0.18412163,0.407567,0.33779397,-0.25367213,0.454049,0.38358978,-0.24221479,0.475835,0.38173055,-0.24143846,0.492431,0.36219877,-0.24829782,0.494116,0.34169867,-0.26896272,0.448267,0.39719757,-0.25886093,0.470753,0.41979775,-0.25642642,0.491595,0.4164138,-0.24770788,0.490003,0.34121447,-0.27983852,0.441098,0.38693139,-0.3175544,0.475765,0.42182152,-0.31882693,0.493501,0.43861875,-0.31881696,0.511393,0.33387575,-0.28942681,0.428386,0.37119853,-0.26973539,0.447556,0.3829301,-0.25510855,0.456363,0.39983743,-0.2467385,0.472348
0.26518721,-0.22885436,0.399438,0.30830985,-0.25149673,0.429585,0.27421443,-0.22217607,0.41239,0.30342231,-0.20487756,0.430569,0.3198951,-0.18623093,0.4257,0.32728703,-0.18790743,0.418775,0.34526132,-0.25980173,0.464651,0.39616943,-0.25023273,0.491975,0.39244996,-0.24821832,0.506259,0.37473421,-0.25689123,0.511217,0.34779342,-0.2741628,0.456731,0.40823713,-0.26627791,0.484421,0.42824018,-0.26201429,0.502303,0.42181608,-0.25196906,0.4979,0.3458303,-0.28391834,0.447459,0.39216559,-0.32221252,0.482481,0.42765576,-0.32353477,0.500399,0.44646026,-0.32289834,0.517929,0.33618572,-0.29157846,0.431667,0.37745227,-0.2741867,0.456072,0.39209465,-0.26121399,0.467285,0.40881953,-0.25228133,0.482959
