sluyters/QuantumLeap/backend/src/datasets/dynamic/HandGestureDataset_SHREC2017_csv/Gesture12/finger_1/subject_27_essai_4_skeletons_world.csv
Wrist_x,Wrist_y,Wrist_z,Palm_x,Palm_y,Palm_z,thumb_base_x,thumb_base_y,thumb_base_z,thumb_first_joint_x,thumb_first_joint_y,thumb_first_joint_z,thumb_second_joint_x,thumb_second_joint_y,thumb_second_joint_z,thumb_tip_x,thumb_tip_y,thumb_tip_z,index_base_x,index_base_y,index_base_z,index_first_joint_x,index_first_joint_y,index_first_joint_z,index_second_joint_x,index_second_joint_y,index_second_joint_z,index_tip_x,index_tip_y,index_tip_z,middle_base_x,middle_base_y,middle_base_z,middle_first_joint_x,middle_first_joint_y,middle_first_joint_z,middle_second_joint_x,middle_second_joint_y,middle_second_joint_z,middle_tip_x,middle_tip_y,middle_tip_z,ring_base_x,ring_base_y,ring_base_z,ring_first_joint_x,ring_first_joint_y,ring_first_joint_z,ring_second_joint_x,ring_second_joint_y,ring_second_joint_z,ring_tip_x,ring_tip_y,ring_tip_z,pinky_base_x,pinky_base_y,pinky_base_z,pinky_first_joint_x,pinky_first_joint_y,pinky_first_joint_z,pinky_second_joint_x,pinky_second_joint_y,pinky_second_joint_z,pinky_tip_x,pinky_tip_y,pinky_tip_z,
0.363882501,-0.276445069,0.452716,0.329648327,-0.216637388,0.417534,0.34802456,-0.26231993,0.453468,0.310560036,-0.245914343,0.438735,0.287552095,-0.251522811,0.427053,0.267839897,-0.241730194,0.412911,0.28683933,-0.164925661,0.394624,0.259146235,-0.123308302,0.379755,0.244957406,-0.101782536,0.37232,0.231833828,-0.081742513,0.365561,0.297173043,-0.166222505,0.384026,0.232150403,-0.147587442,0.343537,0.214061991,-0.161597191,0.319918,0.212469836,-0.174525114,0.314839,0.309846254,-0.173100922,0.379091,0.25212104,-0.146307225,0.347016,0.250069003,-0.171251104,0.35279,0.260595405,-0.200670003,0.368049,0.331943506,-0.191656351,0.379975,0.27491665,-0.194895687,0.351174,0.263312429,-0.193994772,0.337941,0.260040401,-0.19874253,0.334296
0.361308644,-0.273600878,0.449845,0.329974571,-0.216740479,0.418657,0.346670847,-0.260472471,0.452047,0.310560793,-0.243974587,0.440643,0.282613304,-0.237737288,0.427438,0.263982657,-0.224586308,0.415595,0.290593345,-0.16676741,0.400349,0.260755708,-0.123595651,0.382741,0.245595235,-0.101502083,0.373937,0.23166565,-0.0810878856,0.365951,0.300405588,-0.167707008,0.388955,0.236875213,-0.150797447,0.351828,0.217868,-0.166888529,0.330171,0.218664625,-0.182515437,0.328631,0.312272926,-0.174144891,0.382933,0.255934552,-0.150027494,0.353971,0.256506893,-0.176279477,0.360661,0.267142919,-0.205058666,0.375973,0.332701424,-0.191846546,0.381805,0.277332853,-0.196464151,0.355381,0.266815388,-0.196546951,0.343241,0.265750378,-0.202847639,0.342253
0.361084044,-0.272836044,0.449787,0.329639169,-0.216464402,0.418587,0.34650344,-0.259793595,0.452058,0.310722724,-0.243457271,0.440739,0.282733639,-0.237838515,0.42762,0.264352974,-0.22490136,0.416178,0.290399443,-0.166497782,0.400362,0.260729425,-0.123344088,0.383016,0.245649408,-0.101251963,0.374343,0.231789583,-0.0808339558,0.366474,0.300052486,-0.167347953,0.388874,0.236407028,-0.150602643,0.351783,0.217142826,-0.166654779,0.330146,0.217727968,-0.182462454,0.328545,0.311788335,-0.173718505,0.382776,0.255245328,-0.150379896,0.353874,0.256519874,-0.176524809,0.360871,0.26789572,-0.205204858,0.376158,0.332069156,-0.191357892,0.381562,0.276745846,-0.195975867,0.355191,0.266372831,-0.196206567,0.343075,0.265303666,-0.202350748,0.342049
0.360920466,-0.272286582,0.449742,0.329430866,-0.216294118,0.418536,0.346378415,-0.259303965,0.452059,0.310808656,-0.243202411,0.440794,0.282828849,-0.237918578,0.427764,0.264453334,-0.224986743,0.416336,0.290279699,-0.166334136,0.400365,0.260721179,-0.12319677,0.383192,0.245694652,-0.101107178,0.374606,0.23187989,-0.0806871569,0.366813,0.299833536,-0.167128627,0.388816,0.236121837,-0.150482927,0.351749,0.216774988,-0.166534012,0.330126,0.217162879,-0.182427112,0.328487,0.311486499,-0.173456591,0.382668,0.254825078,-0.150586952,0.353806,0.256511554,-0.176687642,0.360996,0.268411972,-0.205293821,0.376262,0.331674109,-0.1910557,0.381398,0.276382122,-0.195674729,0.355062,0.266096937,-0.19599472,0.342962,0.265004192,-0.202018163,0.341911
0.359506813,-0.271295055,0.44916,0.327452705,-0.215110789,0.417943,0.344804113,-0.258330406,0.451383,0.308904891,-0.241803615,0.439987,0.28110969,-0.237413194,0.426746,0.262735078,-0.224043733,0.41528,0.287956191,-0.164870647,0.399643,0.258865018,-0.121766413,0.381945,0.24434164,-0.100202897,0.373096,0.230574031,-0.0797392221,0.365064,0.298131492,-0.165832693,0.388213,0.235306405,-0.150212523,0.35108,0.218040918,-0.166220613,0.329419,0.218275362,-0.181949758,0.327835,0.309976216,-0.172131752,0.382166,0.253277479,-0.150760427,0.35321,0.256367428,-0.176794243,0.360973,0.268543262,-0.206525726,0.376351,0.33033489,-0.189712736,0.381014,0.275403568,-0.194200328,0.354597,0.264766477,-0.195203526,0.342459,0.263443329,-0.200930528,0.341442
0.3571698,-0.270361755,0.446599,0.325626516,-0.217326336,0.413335,0.342473293,-0.257398077,0.448739,0.305838031,-0.245988981,0.436254,0.276750992,-0.245728046,0.424229,0.261096505,-0.225174625,0.412986,0.282877169,-0.169152626,0.393538,0.257096383,-0.125283818,0.377462,0.242898126,-0.103562245,0.369424,0.230737924,-0.084295904,0.362846,0.292375246,-0.170032885,0.381656,0.227828413,-0.155186926,0.343196,0.210817283,-0.169904523,0.320761,0.209818677,-0.183907667,0.316933,0.304035839,-0.176558051,0.375456,0.246495279,-0.156772705,0.345508,0.246872649,-0.181502785,0.350549,0.259118369,-0.20665004,0.36509,0.324386995,-0.19463549,0.374513,0.269321387,-0.197122151,0.3474,0.256799983,-0.198970895,0.334943,0.252438265,-0.204684518,0.332303
0.358591134,-0.273056341,0.448731,0.324915253,-0.227931839,0.413782,0.343739383,-0.264251616,0.450202,0.304055879,-0.259283277,0.436185,0.273515785,-0.252690637,0.423823,0.254458031,-0.232974978,0.411561,0.280856557,-0.177716664,0.391968,0.253336504,-0.135147457,0.371296,0.239338435,-0.113241077,0.36096,0.230398664,-0.0920630186,0.354021,0.290834966,-0.179046011,0.380497,0.225512477,-0.168131073,0.340695,0.210453063,-0.180334251,0.317477,0.209407257,-0.191965627,0.311989,0.303056143,-0.186030054,0.374817,0.244864243,-0.165936024,0.343602,0.243642619,-0.189187454,0.345659,0.254640597,-0.217467234,0.359446,0.32436719,-0.20481297,0.374794,0.268809994,-0.206774002,0.346741,0.25596382,-0.207589193,0.333853,0.250662069,-0.212088201,0.329967
0.356482506,-0.283720522,0.447433,0.321694714,-0.240086089,0.413077,0.339543001,-0.276641428,0.449071,0.30396115,-0.26838934,0.435288,0.27384463,-0.26104453,0.422919,0.252629189,-0.239138305,0.41073,0.280568555,-0.187555342,0.391884,0.252460449,-0.144981524,0.370688,0.238186672,-0.123143651,0.36009,0.225062552,-0.102919289,0.350456,0.290335143,-0.18891286,0.380358,0.225082895,-0.177845662,0.340951,0.210300854,-0.189307795,0.317964,0.209804018,-0.201063761,0.313172,0.302354284,-0.195936491,0.374569,0.244229226,-0.175824683,0.343705,0.244071809,-0.199991936,0.347282,0.255433441,-0.228997237,0.361579,0.323372288,-0.214784176,0.374307,0.267977335,-0.216320107,0.346496,0.255372864,-0.216537486,0.333718,0.250574414,-0.221027059,0.330346
0.357542348,-0.29798894,0.452424,0.320148365,-0.2557222,0.414382,0.340175301,-0.287350339,0.452315,0.30336031,-0.28378196,0.432278,0.276774843,-0.282098623,0.42347,0.254385865,-0.263917748,0.407087,0.276085989,-0.202687085,0.38841,0.25051591,-0.160650276,0.366236,0.237539151,-0.139036404,0.355149,0.225610417,-0.118979955,0.345069,0.287275177,-0.208342848,0.378151,0.222507138,-0.190867487,0.336573,0.203058837,-0.199431106,0.31232,0.196845142,-0.20666895,0.302366,0.300528702,-0.218528383,0.373803,0.243930869,-0.194197836,0.340747,0.238326573,-0.215258859,0.340666,0.246598696,-0.242782876,0.353982,0.323019429,-0.240210485,0.375907,0.266143072,-0.239531701,0.346729,0.266488373,-0.238310239,0.345962,0.277206546,-0.243330846,0.355934
0.359821712,-0.309417401,0.458191,0.323514717,-0.271156092,0.418582,0.34182095,-0.292099467,0.455919,0.304962189,-0.293193867,0.433026,0.282952941,-0.299976743,0.425797,0.262615525,-0.286879647,0.408942,0.27917016,-0.219125949,0.388729,0.250122682,-0.177187214,0.361095,0.235474568,-0.155861481,0.347278,0.222071594,-0.136226777,0.334717,0.291880142,-0.229936688,0.38086,0.23640578,-0.196454926,0.337084,0.204405466,-0.202687352,0.311548,0.198778038,-0.20465951,0.301105,0.306159894,-0.243694955,0.378648,0.261616267,-0.202596544,0.342982,0.243490338,-0.216890924,0.338699,0.252865507,-0.239645401,0.350758,0.329351035,-0.268180689,0.383527,0.270017387,-0.262218008,0.352229,0.26828141,-0.258031964,0.351421,0.276315902,-0.262486772,0.362123
0.355950095,-0.332190482,0.453148,0.318612083,-0.285691958,0.414199,0.338567966,-0.315057434,0.451314,0.302141149,-0.309207285,0.429009,0.279783611,-0.317035266,0.419931,0.258768765,-0.304824149,0.402929,0.271533311,-0.233231006,0.385364,0.247243043,-0.195660855,0.358085,0.234821063,-0.176584497,0.344445,0.223433172,-0.158948615,0.332045,0.28324674,-0.241925352,0.377105,0.248414602,-0.195047664,0.345708,0.227677888,-0.167701788,0.327393,0.212798848,-0.148019252,0.31431,0.297285203,-0.254340004,0.374502,0.258243276,-0.221225092,0.338683,0.244593161,-0.239736292,0.340343,0.254305517,-0.261074744,0.35547,0.321225634,-0.278018518,0.378801,0.264122355,-0.273396216,0.347538,0.265456327,-0.273167571,0.3481,0.275434947,-0.281012629,0.35932
0.353786461,-0.334274969,0.449478,0.31868543,-0.293100976,0.411145,0.336629982,-0.31797729,0.448193,0.304210154,-0.322541374,0.429571,0.284701392,-0.335219842,0.421555,0.265518708,-0.327147166,0.406034,0.272383968,-0.242281,0.383444,0.242874501,-0.208723129,0.352683,0.227978957,-0.191684862,0.337302,0.214336501,-0.176009405,0.323319,0.284724387,-0.249817197,0.374638,0.24615874,-0.208879887,0.341699,0.223450634,-0.184703087,0.322485,0.207111018,-0.167266256,0.308761,0.299025945,-0.261123028,0.371517,0.247777071,-0.228835353,0.336662,0.238193561,-0.249718598,0.33912,0.253853998,-0.273344105,0.354176,0.322857625,-0.283241088,0.375101,0.277480511,-0.251131523,0.344254,0.253647812,-0.249509176,0.330082,0.239818639,-0.256728397,0.323969
0.356837553,-0.368115226,0.462287,0.325876457,-0.318279964,0.423037,0.334185605,-0.349875454,0.45593,0.303157557,-0.346118845,0.430448,0.278156333,-0.346140331,0.412163,0.259965706,-0.334234445,0.393368,0.276226695,-0.262385941,0.388108,0.24834148,-0.231783516,0.358462,0.234248748,-0.216248693,0.343639,0.221329014,-0.201958012,0.330163,0.296414081,-0.271480457,0.385657,0.26111381,-0.228356951,0.35157,0.238820694,-0.205630829,0.331687,0.221261642,-0.192124958,0.317484,0.316983106,-0.284560436,0.387869,0.264467353,-0.254933342,0.348275,0.258103581,-0.278909394,0.353693,0.273407042,-0.309532526,0.371846,0.347596855,-0.30962438,0.397814,0.316641018,-0.257559987,0.364174,0.295156891,-0.257613497,0.348718,0.28967687,-0.268353562,0.345134
0.343013063,-0.370425182,0.450691,0.320127667,-0.322613956,0.41543,0.329315806,-0.353586406,0.450678,0.290508621,-0.344884547,0.434866,0.263336639,-0.354010987,0.420549,0.243861982,-0.347271284,0.40513,0.295690692,-0.258818207,0.391472,0.250865884,-0.232669802,0.362598,0.227712478,-0.21687923,0.34816,0.206802193,-0.204053494,0.335036,0.302681125,-0.267435347,0.381849,0.2574361,-0.227376894,0.348347,0.228824399,-0.205665183,0.328804,0.206772303,-0.19169976,0.314845,0.310905315,-0.281221565,0.377725,0.253442846,-0.257174377,0.34485,0.247270726,-0.279792399,0.351476,0.260330125,-0.305195862,0.367398,0.32467492,-0.30939373,0.379566,0.263259293,-0.289134747,0.350063,0.24060174,-0.278584461,0.336508,0.229069426,-0.276219353,0.333201
0.347566068,-0.395872886,0.458976,0.336898963,-0.343926676,0.425569,0.338511407,-0.375533324,0.460326,0.315261215,-0.366734264,0.446732,0.297555774,-0.377929381,0.433615,0.286563567,-0.372933635,0.41994,0.315035266,-0.281349353,0.404645,0.257678493,-0.280530937,0.373445,0.229618851,-0.279731145,0.357845,0.21642531,-0.286139482,0.343663,0.322793059,-0.290245331,0.393753,0.252832357,-0.280270101,0.354646,0.216626074,-0.27936294,0.331834,0.214213421,-0.285144077,0.328514,0.331142105,-0.303946632,0.388385,0.269123983,-0.298025789,0.357576,0.253525643,-0.314969604,0.363398,0.257681627,-0.336825574,0.378666,0.344206066,-0.331329772,0.388433,0.283332118,-0.312168146,0.360569,0.256580722,-0.302227005,0.347767,0.242313623,-0.300414995,0.345434
0.355017258,-0.407509291,0.469112,0.342325725,-0.352691633,0.432519,0.345051994,-0.385667917,0.469289,0.324019129,-0.358783755,0.451683,0.306036237,-0.331209021,0.437129,0.297839362,-0.30928974,0.422266,0.321073868,-0.291191231,0.407903,0.257647191,-0.284346621,0.368301,0.23580464,-0.286909376,0.3485,0.220415099,-0.286392218,0.330538,0.329670899,-0.302555958,0.397669,0.260315153,-0.288680236,0.356173,0.227662414,-0.288014954,0.331967,0.224680958,-0.289167176,0.325279,0.33844741,-0.318153982,0.393185,0.276359313,-0.309565657,0.360148,0.260952848,-0.324758292,0.364179,0.264574393,-0.344103122,0.379129,0.351598326,-0.347490985,0.394858,0.290105174,-0.327137402,0.365381,0.262856938,-0.315811289,0.351837,0.246165585,-0.311617076,0.346991
0.349413649,-0.406837584,0.459489,0.336880275,-0.354732344,0.426167,0.34114511,-0.386926575,0.461567,0.318817169,-0.368030628,0.448217,0.303690848,-0.341590205,0.437027,0.295416707,-0.321274697,0.424207,0.317242065,-0.297766126,0.406248,0.252224835,-0.289655636,0.365914,0.232576736,-0.291703587,0.345747,0.226438641,-0.302450129,0.340419,0.323719189,-0.30789982,0.394432,0.271974193,-0.267559921,0.355892,0.241809476,-0.244038695,0.333411,0.218027919,-0.242215536,0.323757,0.330718322,-0.322216644,0.388293,0.270091376,-0.315611034,0.358256,0.262566984,-0.333442438,0.365036,0.27570465,-0.350322915,0.379873,0.341730408,-0.349488003,0.387431,0.282115232,-0.331343854,0.360245,0.258796794,-0.320264125,0.347754,0.246241481,-0.317945989,0.345099
0.350862774,-0.411481736,0.461755,0.337997784,-0.362477632,0.428261,0.342322164,-0.391233894,0.463546,0.322286494,-0.37165738,0.449807,0.305091801,-0.349696115,0.438203,0.296813845,-0.324816291,0.425218,0.318356265,-0.300863615,0.407851,0.253700962,-0.292864053,0.367383,0.236759324,-0.296251603,0.347149,0.230790906,-0.30453144,0.341912,0.325458187,-0.311152244,0.396362,0.274248369,-0.270704404,0.357513,0.241693902,-0.254157997,0.334852,0.221126468,-0.261648209,0.330215,0.332949931,-0.325636978,0.39051,0.272899806,-0.321875434,0.360108,0.266115517,-0.33964409,0.367035,0.278536774,-0.354164406,0.382077,0.344498226,-0.353184577,0.390014,0.28482551,-0.335113476,0.36252,0.261121028,-0.323962056,0.349888,0.248332711,-0.321727627,0.347245
0.350704583,-0.413588214,0.462614,0.337399689,-0.363954086,0.429025,0.342160028,-0.393240403,0.464323,0.321228473,-0.376100762,0.450348,0.302507463,-0.357377525,0.438208,0.296682787,-0.333139862,0.425875,0.317183206,-0.303977766,0.408444,0.252744228,-0.296174549,0.36791,0.23542819,-0.297182378,0.347643,0.231154593,-0.305322065,0.342372,0.324426277,-0.314522028,0.397035,0.27358303,-0.274915974,0.358075,0.240682559,-0.255536325,0.335348,0.217259804,-0.258815498,0.326735,0.331979846,-0.329126956,0.39126,0.271143635,-0.323697684,0.360738,0.264417129,-0.34097157,0.367638,0.278096114,-0.35559259,0.38272,0.343514515,-0.356639812,0.390871,0.284067565,-0.338628345,0.363279,0.260349659,-0.327090024,0.350602,0.247757557,-0.323234131,0.34792
0.349772788,-0.414122688,0.461743,0.336337142,-0.364223284,0.428377,0.341125235,-0.396096246,0.463931,0.320648131,-0.376951254,0.450153,0.301801421,-0.357656615,0.438312,0.293583924,-0.337601685,0.425169,0.316575117,-0.304614368,0.408571,0.251871314,-0.296777703,0.368225,0.234803401,-0.297836305,0.348051,0.23114731,-0.305838347,0.342538,0.323115531,-0.314806011,0.396599,0.26985032,-0.276591295,0.358121,0.236726882,-0.256961144,0.335676,0.211204022,-0.257592802,0.324422,0.328575321,-0.330094898,0.390336,0.267463918,-0.324760764,0.360402,0.260917515,-0.34135965,0.366958,0.276657804,-0.355288178,0.381664,0.339312391,-0.35723672,0.389338,0.27994819,-0.339119491,0.362249,0.256942798,-0.327410833,0.349803,0.246323473,-0.323035394,0.347037
0.347968534,-0.414213553,0.46094,0.332144805,-0.36523659,0.428264,0.339541153,-0.39653959,0.463667,0.31064691,-0.380177453,0.451496,0.290873224,-0.360859474,0.441293,0.28098645,-0.343508653,0.429159,0.307683368,-0.303874901,0.409629,0.244356318,-0.297067513,0.36977,0.228664162,-0.298882725,0.349841,0.230325691,-0.30778772,0.344611,0.314295843,-0.312827418,0.397143,0.262687269,-0.273315289,0.359274,0.229274228,-0.254358638,0.337183,0.208536472,-0.260025593,0.328812,0.321406784,-0.326156303,0.390384,0.264454544,-0.324087707,0.361284,0.258435815,-0.341583913,0.368061,0.273882943,-0.357206796,0.382518,0.332585783,-0.352254205,0.38868,0.276636091,-0.33773799,0.362266,0.254161434,-0.326897432,0.35013,0.243216904,-0.324746802,0.34766
0.344221418,-0.407914321,0.457381,0.325575556,-0.352332902,0.426329,0.337331868,-0.391914821,0.461058,0.309787886,-0.369032793,0.45091,0.290906756,-0.351036065,0.442576,0.281775621,-0.33214781,0.431476,0.307248767,-0.294289679,0.410035,0.244640865,-0.289154457,0.371336,0.227674628,-0.292540473,0.351987,0.224186284,-0.304276992,0.347691,0.313271656,-0.302629167,0.396756,0.262471451,-0.264706807,0.36054,0.229426732,-0.246676993,0.339414,0.206091468,-0.250882465,0.33116,0.319742331,-0.315206742,0.389168,0.261607872,-0.313461882,0.361742,0.256421417,-0.332285227,0.369358,0.269090241,-0.347941462,0.383475,0.329922522,-0.339955115,0.386198,0.272895496,-0.325504754,0.361121,0.251064209,-0.316305885,0.3496,0.239628778,-0.315579822,0.347952
0.345986406,-0.406973597,0.462319,0.324526735,-0.350077555,0.427992,0.338647958,-0.38373841,0.465858,0.303851644,-0.359651843,0.452002,0.281926629,-0.34070973,0.439321,0.269525911,-0.320807789,0.425282,0.304848245,-0.287939035,0.409292,0.237759056,-0.277078156,0.369282,0.221749114,-0.278871832,0.349278,0.214273768,-0.284955216,0.339443,0.307633316,-0.297997611,0.395298,0.237984266,-0.283782952,0.35817,0.205814254,-0.284205908,0.336512,0.202344502,-0.286054012,0.32845,0.311640807,-0.311809601,0.387474,0.250532481,-0.307536782,0.359364,0.232640284,-0.319971526,0.360417,0.228124608,-0.340505741,0.372189,0.319328033,-0.337672256,0.384846,0.261521403,-0.321235931,0.359643,0.236481779,-0.313534067,0.348064,0.218470395,-0.310809113,0.342481
0.333159988,-0.388980487,0.446942,0.314218619,-0.33718159,0.418223,0.332948815,-0.372297423,0.45487,0.306135448,-0.34590242,0.445376,0.282509615,-0.327236913,0.439548,0.266321636,-0.308546328,0.426368,0.310511697,-0.284713635,0.409051,0.241094188,-0.265797235,0.374524,0.226321238,-0.268931947,0.35726,0.218813951,-0.27418835,0.346784,0.298111372,-0.294233388,0.390872,0.23989703,-0.255368138,0.358958,0.201343024,-0.236194838,0.340342,0.175461692,-0.229462435,0.33143,0.289642136,-0.306699301,0.378997,0.247523747,-0.265481884,0.353611,0.216099183,-0.252882265,0.340622,0.190675646,-0.244576787,0.332683,0.28285915,-0.329174778,0.370612,0.233784434,-0.305706111,0.352481,0.214035563,-0.295936888,0.34415,0.200552616,-0.290096995,0.33884
0.333878384,-0.38380313,0.454188,0.316939131,-0.329278293,0.4227,0.339740065,-0.362128837,0.460161,0.30601095,-0.338864209,0.44944,0.277782739,-0.317928178,0.440344,0.2600589,-0.29995646,0.427806,0.310420508,-0.274773334,0.409101,0.239699224,-0.255297335,0.372609,0.224481987,-0.258113372,0.354363,0.216096537,-0.26244147,0.342479,0.299615959,-0.285693217,0.392712,0.240948379,-0.24620239,0.360353,0.202200923,-0.226982422,0.341476,0.17448055,-0.218339911,0.329256,0.292683398,-0.299704088,0.382609,0.231149866,-0.283655087,0.359616,0.205977683,-0.282843057,0.347851,0.190436107,-0.286211267,0.339813,0.288055813,-0.324702881,0.376802,0.236585538,-0.299649538,0.356169,0.215926311,-0.289150469,0.346689,0.201524646,-0.28230072,0.34005
0.370599563,-0.353578743,0.435905,0.330123006,-0.323795017,0.41873,0.371244932,-0.34140926,0.44651,0.358229696,-0.362784692,0.45992,0.347239763,-0.359850394,0.480186,0.33177382,-0.350729512,0.484739,0.302570333,-0.286647833,0.420881,0.250600401,-0.265894771,0.402346,0.224154374,-0.255421502,0.393079,0.196443595,-0.241693389,0.378171,0.290826109,-0.294971172,0.402372,0.232957838,-0.274910587,0.388102,0.216437235,-0.283918211,0.379777,0.201479073,-0.283560099,0.366505,0.285641341,-0.305086765,0.388982,0.234082921,-0.286665707,0.375355,0.217239451,-0.291535857,0.368383,0.198947466,-0.28924514,0.354855,0.287660128,-0.323445205,0.376668,0.247109105,-0.311195311,0.372538,0.22877432,-0.303018493,0.37064,0.215279615,-0.302062789,0.362344
0.343029857,-0.34384813,0.435313,0.303339396,-0.313682815,0.417296,0.346338307,-0.32710842,0.442279,0.332320845,-0.33401452,0.452288,0.329203311,-0.328721664,0.476587,0.3157905,-0.317052272,0.481164,0.279822475,-0.269994631,0.414135,0.22771154,-0.24812055,0.398154,0.201185051,-0.237052663,0.390163,0.17234316,-0.22122831,0.373316,0.264634195,-0.284388205,0.400136,0.211226248,-0.256040635,0.388148,0.199053461,-0.260619716,0.381155,0.203367652,-0.258720073,0.365441,0.256568356,-0.299534444,0.39055,0.209091701,-0.274366028,0.381479,0.202195369,-0.279096513,0.376837,0.190548081,-0.274300545,0.36163,0.254918321,-0.322608057,0.38281,0.218920313,-0.301846547,0.377962,0.203358845,-0.292805483,0.375735,0.192295326,-0.288531279,0.364922
0.336220582,-0.337071356,0.434965,0.292393307,-0.299525737,0.416171,0.332896171,-0.313555615,0.441624,0.316020432,-0.320133463,0.450903,0.312341301,-0.311028372,0.474254,0.298993845,-0.296679686,0.476942,0.270348083,-0.254606589,0.412082,0.216963066,-0.23272817,0.398286,0.190261714,-0.221786301,0.391388,0.162341222,-0.20719054,0.376669,0.255879108,-0.269233951,0.398271,0.200101965,-0.241717402,0.385333,0.190822312,-0.248812964,0.377786,0.19659855,-0.247555437,0.361915,0.248156106,-0.284738267,0.388923,0.20072713,-0.259415374,0.380032,0.195774239,-0.267856041,0.375483,0.185866435,-0.266444202,0.360431,0.24649066,-0.308445349,0.381606,0.210357131,-0.291033641,0.376002,0.194916183,-0.283493518,0.373427,0.185337844,-0.281015144,0.362477
0.324020493,-0.330538846,0.440497,0.278485834,-0.294255704,0.421715,0.318846674,-0.30962813,0.447552,0.302622153,-0.314439139,0.4572,0.30037589,-0.302918632,0.479891,0.288131634,-0.286914707,0.481934,0.259153271,-0.248823516,0.418151,0.207722675,-0.223478235,0.404152,0.181801439,-0.210723796,0.397153,0.154454708,-0.194478207,0.381762,0.243363846,-0.262865527,0.403827,0.18799263,-0.235085474,0.390851,0.18108179,-0.243103735,0.383281,0.188048694,-0.242820744,0.367688,0.234409171,-0.277962467,0.394056,0.189130808,-0.250049947,0.385459,0.183011432,-0.258456093,0.381061,0.172755403,-0.257620765,0.366386,0.231054882,-0.301336151,0.386244,0.195110148,-0.277376598,0.38068,0.180270449,-0.273024792,0.378123,0.173702099,-0.27336532,0.367402
0.315312653,-0.32237168,0.441881,0.27900356,-0.284549401,0.422499,0.319822695,-0.305522891,0.448922,0.303286042,-0.305461031,0.458203,0.300579315,-0.293200327,0.480216,0.287940317,-0.276719639,0.481614,0.259376385,-0.238560402,0.418511,0.207367007,-0.212581586,0.40346,0.181243885,-0.199544047,0.395935,0.154061452,-0.183656295,0.38079,0.243492209,-0.252533228,0.40404,0.187724723,-0.224442936,0.390294,0.180606976,-0.232924764,0.382276,0.187558739,-0.233246937,0.36673,0.234502564,-0.267634692,0.394213,0.188919822,-0.239501885,0.385029,0.182660357,-0.248221218,0.38033,0.172447977,-0.248124796,0.365734,0.231178113,-0.291144161,0.38645,0.194921537,-0.267081705,0.380312,0.179969143,-0.26282462,0.377491,0.173418901,-0.263683481,0.366803
0.33768575,-0.297398069,0.438286,0.292700834,-0.279648755,0.429861,0.337771114,-0.287267601,0.450377,0.343022947,-0.316405803,0.470038,0.336913153,-0.320280858,0.495199,0.322946634,-0.31763393,0.50461,0.261041108,-0.253492598,0.43989,0.209060817,-0.220391496,0.418212,0.183297648,-0.203960535,0.407373,0.160019639,-0.18909856,0.397519,0.248720325,-0.262389387,0.421838,0.197247219,-0.233249897,0.409179,0.181121368,-0.242735391,0.401794,0.186215917,-0.246611026,0.38833,0.243614695,-0.271690532,0.407881,0.204170693,-0.243269237,0.404051,0.190535188,-0.252554882,0.402091,0.180563383,-0.256997198,0.389794,0.246414933,-0.285746671,0.393264,0.24135967,-0.296206049,0.397369,0.23937054,-0.300685984,0.399256,0.244738535,-0.292227349,0.391545
0.337882671,-0.296457926,0.442886,0.289168129,-0.276727385,0.434363,0.336942082,-0.285384323,0.453914,0.338821732,-0.30770562,0.472657,0.333447891,-0.311593476,0.499156,0.319115507,-0.308916646,0.508353,0.255526052,-0.250540568,0.44294,0.205971448,-0.216344166,0.424265,0.18145553,-0.19940536,0.414928,0.159330186,-0.18410511,0.40644,0.244636966,-0.261418932,0.426246,0.19125751,-0.234795066,0.414264,0.177858216,-0.246220873,0.407274,0.186363306,-0.248753718,0.392855,0.240779822,-0.27212363,0.413417,0.197745699,-0.24967092,0.410767,0.190553063,-0.261352871,0.40941,0.1851137,-0.265175478,0.396399,0.245137389,-0.287391503,0.400129,0.243620475,-0.299307828,0.404156,0.241951088,-0.303699014,0.406006,0.247437336,-0.295531677,0.397563
0.338218788,-0.295085798,0.445585,0.290462955,-0.276653514,0.437495,0.336934222,-0.283674208,0.456302,0.339250866,-0.302339738,0.474994,0.334377494,-0.306006378,0.502077,0.320547142,-0.30705512,0.511359,0.256428961,-0.250578079,0.44596,0.206080906,-0.216478185,0.426425,0.181197768,-0.199600092,0.416657,0.158757896,-0.184363659,0.407778,0.245975644,-0.262150065,0.429789,0.192556491,-0.236622713,0.418573,0.179620914,-0.24806777,0.41203,0.186260803,-0.24947132,0.397315,0.242478732,-0.273341115,0.417345,0.199795594,-0.252206094,0.416166,0.193154862,-0.264153409,0.415562,0.187632282,-0.267863102,0.402483,0.247251405,-0.289005508,0.404421,0.244378122,-0.298639361,0.40882,0.243299656,-0.302783487,0.410841,0.249886556,-0.296820578,0.402216
0.338295715,-0.294241895,0.447393,0.290917522,-0.27650046,0.439407,0.334706284,-0.279473328,0.457935,0.339485477,-0.302082894,0.476523,0.334715893,-0.305584511,0.50382,0.320459372,-0.302880736,0.513215,0.255890708,-0.248684465,0.447716,0.205003198,-0.214739029,0.427458,0.180739219,-0.198809991,0.417329,0.158122086,-0.18347181,0.408121,0.24564051,-0.260839741,0.431802,0.192393245,-0.236310172,0.419816,0.179341726,-0.247318147,0.412824,0.185943982,-0.248517325,0.397878,0.242985868,-0.273657024,0.419557,0.199824333,-0.252137456,0.417737,0.193085808,-0.263727202,0.416806,0.18750056,-0.267140764,0.403427,0.247916505,-0.289647062,0.406846,0.244712451,-0.297210587,0.411328,0.243771178,-0.301019486,0.413387,0.24999168,-0.295321945,0.40466
0.338047393,-0.293450686,0.448099,0.291016609,-0.276245671,0.44014,0.334855993,-0.27912794,0.458708,0.339807751,-0.302161272,0.47737,0.335402516,-0.306578857,0.504546,0.321832753,-0.306581423,0.514304,0.25619913,-0.248726282,0.448554,0.205203803,-0.214633876,0.4281,0.18069462,-0.198526482,0.417872,0.158022866,-0.183174396,0.408574,0.245874458,-0.260890013,0.43256,0.191724072,-0.23700695,0.421616,0.180200815,-0.248282805,0.415232,0.187561087,-0.250045888,0.400427,0.243045889,-0.273497538,0.420247,0.19984922,-0.252845829,0.418984,0.193751885,-0.264694113,0.418338,0.188669566,-0.268215692,0.405122,0.247916126,-0.289470026,0.407451,0.244820876,-0.29721469,0.41196,0.243884261,-0.301007427,0.414031,0.25011409,-0.294941235,0.405346
0.340206061,-0.293162933,0.45034,0.291845327,-0.27390147,0.440186,0.336591767,-0.278237181,0.459971,0.340723885,-0.293378807,0.47665,0.33586669,-0.305907116,0.503607,0.32238584,-0.305750826,0.512312,0.259450117,-0.243772975,0.445835,0.208357816,-0.2086749,0.424603,0.183081863,-0.191289705,0.413987,0.157354872,-0.179572617,0.404337,0.250684004,-0.257663482,0.430515,0.193584502,-0.238513957,0.417556,0.181894362,-0.2482872,0.409997,0.186272383,-0.247165537,0.39469,0.248686072,-0.270482168,0.418994,0.201341769,-0.253757164,0.417631,0.197084635,-0.266219371,0.416933,0.192810798,-0.26919898,0.403515,0.255303958,-0.287578818,0.40753,0.250633389,-0.294297562,0.410045,0.248779815,-0.297153689,0.411201,0.249136097,-0.292140455,0.401861
0.342934493,-0.292846767,0.451503,0.307644965,-0.272774027,0.441191,0.339898226,-0.276477184,0.461074,0.351656611,-0.295194915,0.477619,0.350032226,-0.307400766,0.504545,0.336289413,-0.309374998,0.513172,0.270894,-0.245527589,0.446655,0.218730781,-0.209509034,0.423676,0.193039503,-0.191738453,0.412186,0.169928743,-0.175733328,0.401741,0.262124095,-0.259478543,0.43137,0.201355334,-0.238661805,0.413618,0.189858795,-0.246077475,0.403263,0.196744689,-0.244961888,0.387726,0.260117118,-0.272361666,0.419895,0.214533762,-0.256965381,0.41857,0.211121854,-0.268157648,0.417892,0.207745482,-0.270205931,0.404477,0.26671704,-0.289558551,0.408513,0.261154907,-0.296091866,0.410884,0.25893388,-0.298866064,0.411974,0.263518075,-0.292718768,0.402595
0.34474175,-0.292420069,0.452374,0.307162736,-0.271890353,0.441109,0.341540435,-0.275695073,0.461101,0.349573526,-0.292649374,0.47638,0.35045013,-0.307694505,0.503526,0.341233033,-0.314544595,0.517391,0.269726335,-0.24324741,0.444827,0.217067351,-0.207412613,0.420589,0.191085715,-0.189701937,0.408469,0.16768694,-0.173732924,0.397452,0.261482051,-0.257924602,0.43038,0.201721771,-0.238880428,0.41349,0.189794105,-0.246218141,0.403637,0.196355687,-0.243898304,0.38765,0.259929679,-0.271516848,0.419698,0.21419595,-0.256717047,0.418585,0.211192451,-0.26786021,0.418015,0.207583057,-0.269502502,0.40427,0.267115236,-0.28971467,0.409416,0.260226886,-0.295458257,0.410872,0.257440289,-0.297869767,0.411541,0.258996024,-0.291642237,0.401663
0.344866307,-0.291930139,0.451193,0.307284111,-0.272343251,0.43952,0.344376611,-0.278847752,0.459895,0.348676492,-0.292600037,0.474942,0.354321952,-0.312883344,0.501882,0.344724818,-0.318573346,0.515575,0.278106297,-0.241001158,0.442927,0.227804085,-0.200950825,0.420108,0.202685505,-0.181715161,0.408698,0.17931222,-0.17486948,0.398325,0.266877326,-0.256698248,0.428402,0.209886617,-0.235239182,0.410454,0.192410957,-0.238738257,0.399984,0.19531545,-0.23741227,0.38403,0.259976514,-0.270657357,0.417699,0.21246191,-0.256105155,0.399211,0.195991897,-0.256179268,0.389753,0.196639952,-0.249034691,0.37336,0.265903058,-0.289494897,0.407469,0.257540957,-0.293854182,0.408561,0.250924311,-0.295298723,0.409062,0.252891671,-0.291946935,0.39916
0.357077617,-0.288637467,0.450549,0.327976044,-0.272301585,0.437436,0.370104171,-0.274917257,0.458128,0.363355557,-0.2881682,0.471364,0.370135784,-0.308652097,0.498381,0.363618518,-0.318174335,0.511827,0.294926713,-0.23769161,0.438403,0.240551106,-0.200450412,0.406143,0.213591947,-0.181967879,0.390012,0.189236626,-0.165258272,0.375349,0.285087521,-0.254354707,0.424946,0.229942684,-0.228031341,0.402291,0.205940138,-0.22899503,0.389075,0.206368267,-0.225626278,0.372609,0.281919519,-0.269933939,0.415279,0.231760937,-0.254842721,0.396826,0.214573191,-0.254600018,0.387385,0.213785998,-0.246922771,0.370575,0.286658784,-0.290994536,0.406522,0.272401307,-0.291930806,0.406212,0.266559751,-0.292302023,0.406069,0.268152233,-0.287977338,0.395541
0.380858933,-0.288180197,0.449823,0.344411379,-0.270716402,0.430035,0.387974979,-0.272173314,0.458346,0.381681078,-0.287450405,0.475798,0.387948168,-0.309001263,0.499215,0.379425357,-0.319451869,0.508361,0.306660007,-0.240824743,0.427701,0.255098535,-0.202103576,0.398304,0.2294521,-0.182840638,0.383605,0.201444726,-0.176612747,0.370243,0.299013696,-0.255867945,0.41119,0.245954244,-0.248520661,0.396594,0.225532091,-0.25166482,0.38808,0.227047886,-0.244293852,0.373843,0.29774411,-0.26925797,0.399726,0.251396833,-0.253325327,0.391852,0.2362304,-0.257467882,0.387823,0.237654679,-0.256327841,0.375165,0.304739091,-0.286681629,0.390139,0.262993959,-0.273954178,0.383596,0.243928915,-0.268131444,0.38059,0.227007142,-0.264163966,0.377937
0.369361214,-0.334911538,0.45974,0.34079878,-0.280171416,0.428763,0.359497381,-0.321106748,0.464945,0.326548692,-0.297453963,0.453468,0.300345943,-0.290722918,0.443601,0.286703468,-0.284218856,0.431433,0.309364381,-0.227292125,0.414509,0.274925905,-0.183356417,0.393835,0.247735195,-0.182526883,0.383499,0.233852206,-0.196655948,0.374571,0.313735472,-0.22925549,0.399261,0.24805446,-0.231323052,0.364705,0.239409571,-0.235528171,0.344547,0.250378109,-0.230142994,0.340111,0.320630198,-0.236750797,0.390043,0.264534491,-0.241216173,0.364492,0.256512503,-0.246808419,0.351419,0.267827408,-0.244203927,0.348624,0.334463069,-0.255975812,0.385166,0.27988941,-0.25578855,0.361808,0.255954734,-0.255192871,0.351076,0.24448564,-0.257419125,0.341607
0.390760907,-0.334135284,0.458133,0.362466668,-0.280196627,0.427847,0.380812264,-0.320568511,0.463571,0.355495211,-0.304531952,0.454024,0.328857184,-0.270201413,0.445878,0.315259305,-0.240825503,0.434447,0.330991896,-0.227921352,0.414367,0.30915552,-0.183463736,0.390667,0.281589014,-0.18898395,0.378817,0.270312483,-0.202014556,0.371248,0.335602571,-0.229899953,0.399003,0.271061469,-0.215184346,0.364981,0.241632611,-0.225714299,0.345135,0.241132629,-0.236135328,0.341393,0.342668972,-0.237330977,0.389616,0.286696642,-0.24186847,0.364554,0.277095835,-0.247534311,0.351732,0.287983774,-0.245291544,0.349634,0.356637412,-0.25631536,0.384412,0.301472873,-0.256211416,0.361416,0.277246503,-0.255795533,0.350895,0.264679513,-0.257966167,0.341613
0.431616477,-0.331451568,0.471462,0.393297665,-0.295278961,0.440816,0.420062687,-0.319861603,0.477461,0.376016606,-0.306952423,0.458007,0.335589835,-0.277328914,0.438403,0.312243423,-0.248122554,0.419641,0.35170537,-0.255044609,0.427821,0.306755443,-0.276511882,0.40311,0.311033016,-0.276560757,0.390754,0.327027837,-0.287608772,0.39586,0.356626226,-0.26057625,0.411629,0.300660905,-0.231379905,0.379847,0.267742502,-0.242090801,0.361307,0.268899703,-0.252434058,0.358728,0.36477006,-0.269014778,0.401598,0.310901808,-0.252703639,0.376845,0.293106751,-0.262770336,0.36418,0.298109604,-0.264805853,0.358327,0.381282246,-0.285503713,0.395715,0.331108483,-0.289083785,0.376939,0.30967324,-0.28986494,0.368312,0.299189706,-0.282594765,0.360211
0.427137507,-0.334092845,0.468564,0.399570652,-0.290298243,0.431753,0.415831804,-0.316395068,0.469804,0.373306034,-0.294798092,0.443539,0.343946049,-0.293394672,0.432409,0.325123202,-0.292365192,0.41714,0.373180896,-0.231338276,0.408372,0.322797486,-0.199961779,0.385908,0.299029829,-0.211066846,0.374676,0.295634134,-0.229516182,0.377032,0.374978027,-0.244367065,0.396694,0.321348112,-0.202143249,0.359769,0.280156449,-0.206558373,0.338229,0.277607952,-0.217073472,0.336241,0.379436282,-0.260603235,0.391044,0.313020313,-0.24344742,0.361048,0.294821965,-0.248810875,0.345701,0.296027814,-0.247185689,0.33501,0.389712762,-0.289120042,0.391405,0.32490402,-0.272633515,0.36507,0.313706168,-0.263853753,0.352969,0.305683074,-0.25759676,0.344325
0.430863765,-0.336475374,0.466365,0.414199213,-0.287337426,0.429434,0.434234489,-0.324469533,0.467424,0.391155126,-0.300264492,0.448265,0.358178356,-0.294414872,0.435753,0.346469945,-0.302432641,0.423111,0.383987567,-0.225872616,0.405738,0.346001594,-0.199270566,0.387053,0.319225461,-0.207422713,0.37771,0.315460964,-0.223925685,0.382557,0.386718389,-0.234389667,0.394262,0.340454044,-0.190682738,0.367061,0.313391969,-0.165082009,0.351194,0.294022086,-0.146740101,0.33986,0.392530017,-0.247854731,0.388792,0.322831116,-0.23564014,0.357147,0.307769293,-0.242827256,0.340957,0.312111589,-0.245134185,0.333171,0.405392108,-0.275149303,0.389385,0.338015356,-0.261084072,0.361306,0.326840679,-0.257337945,0.348405,0.321414965,-0.257006052,0.34185
0.44487282,-0.342495772,0.462335,0.423125062,-0.286406777,0.425563,0.436014813,-0.32210831,0.462987,0.400984607,-0.29959601,0.445252,0.368598117,-0.293627224,0.432499,0.358045915,-0.302453324,0.420746,0.392583375,-0.224678694,0.401444,0.355192295,-0.197722718,0.382014,0.327451594,-0.205412153,0.372298,0.323249773,-0.221791915,0.377273,0.396221029,-0.233733103,0.390542,0.349969562,-0.189470665,0.362321,0.322942672,-0.163578857,0.345858,0.303613576,-0.145046874,0.334099,0.402758528,-0.247645295,0.385527,0.332169606,-0.232579723,0.353103,0.314537605,-0.239659596,0.336514,0.318735787,-0.243696482,0.3301,0.416386727,-0.27545706,0.386618,0.347107405,-0.260377677,0.357744,0.334369816,-0.256142257,0.344477,0.329082241,-0.256398707,0.338917
0.455836051,-0.343575426,0.461658,0.433561,-0.287532933,0.42513,0.446884936,-0.323152327,0.462424,0.412113182,-0.301071607,0.445295,0.380345963,-0.295378898,0.432885,0.370050908,-0.304288058,0.421188,0.402846852,-0.22596703,0.401327,0.365398514,-0.198840536,0.381475,0.337095414,-0.206342895,0.371549,0.332500676,-0.222520217,0.376268,0.406598071,-0.234994048,0.390343,0.360272915,-0.190692106,0.362012,0.333212272,-0.164787913,0.345486,0.313862422,-0.146251925,0.333681,0.413246364,-0.248865195,0.385234,0.342320395,-0.233821376,0.352949,0.32407277,-0.240854505,0.336431,0.328201031,-0.245100854,0.330377,0.427024605,-0.276588562,0.38617,0.356959301,-0.261444002,0.35738,0.343520767,-0.257135512,0.344152,0.338050184,-0.257529535,0.338855
0.466148938,-0.34365599,0.460896,0.443388224,-0.289523744,0.425409,0.459303461,-0.324146262,0.46322,0.426202794,-0.301027245,0.447319,0.39480132,-0.289861817,0.436955,0.38211406,-0.297100191,0.426774,0.416136527,-0.229783268,0.404341,0.379626566,-0.200660293,0.383948,0.349644992,-0.206767017,0.373751,0.342635027,-0.221072582,0.376639,0.416193895,-0.239105471,0.391612,0.371520185,-0.192796222,0.363088,0.345443614,-0.165748433,0.346449,0.3268085,-0.14641054,0.334564,0.419667224,-0.252906386,0.384954,0.349786219,-0.232310254,0.354937,0.327228731,-0.241531208,0.339579,0.326657408,-0.246720062,0.333045,0.42956246,-0.279880352,0.383897,0.358589664,-0.261932226,0.357073,0.348144777,-0.256199335,0.344748,0.340438724,-0.255917271,0.339119
0.467071112,-0.342859846,0.459036,0.443721274,-0.290095639,0.424267,0.461816954,-0.323831165,0.462234,0.427742925,-0.301218709,0.447099,0.397153907,-0.292087315,0.438187,0.385084282,-0.300918636,0.429153,0.419048494,-0.231281773,0.404824,0.380026785,-0.203403172,0.384685,0.350476836,-0.209459692,0.374616,0.343677055,-0.222886264,0.376703,0.417288809,-0.240500757,0.391153,0.372736936,-0.194246238,0.362974,0.346722674,-0.167213546,0.346536,0.328128044,-0.147877837,0.334795,0.419108511,-0.254067543,0.383642,0.350090365,-0.233528872,0.355069,0.327094523,-0.241946436,0.34045,0.32137508,-0.248351887,0.333561,0.42682923,-0.280466845,0.38146,0.359245724,-0.262998522,0.355902,0.345743024,-0.256923434,0.344159,0.339486575,-0.255318428,0.338286
0.462040904,-0.342392262,0.457434,0.442508412,-0.289993799,0.422874,0.461223504,-0.324102843,0.460808,0.425847018,-0.297483212,0.445534,0.396399029,-0.291271037,0.436749,0.385090164,-0.301140157,0.427873,0.418902304,-0.2310144,0.403803,0.377775741,-0.205549256,0.384241,0.350146699,-0.212586949,0.374459,0.345556354,-0.226090087,0.376772,0.416997465,-0.239840449,0.389959,0.373430044,-0.193749481,0.362395,0.347962214,-0.16675254,0.346316,0.329742616,-0.147410472,0.334831,0.418606026,-0.253149809,0.382284,0.349543029,-0.234147641,0.353965,0.326342931,-0.241767599,0.339476,0.322468093,-0.248386438,0.332721,0.425914323,-0.279390696,0.379871,0.357298364,-0.261121525,0.354517,0.344744229,-0.256145047,0.342868,0.338283756,-0.254736828,0.337095
0.462005316,-0.342744139,0.456462,0.441610731,-0.289977029,0.421854,0.46074454,-0.324484436,0.459818,0.425306476,-0.297321273,0.444508,0.394935521,-0.291197313,0.435676,0.382101,-0.302898432,0.426797,0.418309605,-0.23073646,0.402726,0.37687474,-0.205476278,0.383849,0.350014156,-0.213055643,0.374411,0.346214954,-0.227016799,0.377175,0.41642239,-0.23935505,0.388893,0.373613058,-0.193498488,0.361955,0.348565405,-0.166589181,0.346242,0.330633351,-0.147283225,0.335018,0.418022946,-0.252555903,0.381232,0.349219403,-0.238048724,0.352914,0.326281572,-0.243685894,0.338426,0.320724697,-0.250776393,0.331548,0.425279794,-0.278804804,0.378845,0.356722272,-0.260452847,0.353504,0.343916479,-0.255616235,0.341861,0.337167828,-0.254247664,0.335999
0.462001299,-0.343011706,0.455788,0.441067018,-0.289964132,0.421237,0.460464767,-0.32476732,0.459197,0.424612946,-0.296660923,0.443955,0.394197286,-0.291255266,0.435186,0.381857126,-0.302941589,0.426345,0.418096108,-0.230648057,0.402217,0.376529566,-0.205496994,0.38376,0.350082506,-0.213371843,0.374531,0.346666134,-0.227560524,0.377509,0.416159207,-0.239110918,0.38833,0.373712222,-0.193341994,0.36168,0.348864681,-0.166460304,0.346134,0.331069876,-0.147161808,0.335029,0.417693182,-0.252211635,0.380619,0.34857071,-0.23831782,0.352385,0.325982868,-0.243965914,0.33794,0.320846819,-0.251008017,0.331074,0.424824048,-0.278403865,0.378162,0.356402176,-0.260053729,0.352892,0.343457552,-0.255332765,0.341282,0.336585107,-0.254043044,0.335429
0.461982072,-0.343200514,0.455266,0.440668305,-0.289931898,0.420791,0.460251699,-0.324960444,0.45874,0.424196256,-0.296252669,0.443634,0.393809986,-0.291371198,0.434975,0.381824095,-0.303084136,0.42618,0.41798527,-0.230606489,0.401908,0.376285616,-0.20548928,0.383669,0.350073976,-0.2135314,0.37455,0.346841994,-0.227824679,0.377606,0.415986244,-0.238949607,0.387957,0.373748985,-0.193222338,0.361468,0.349017312,-0.16635169,0.346015,0.331303919,-0.147055037,0.334978,0.417445614,-0.251965348,0.380185,0.348173874,-0.238401634,0.352047,0.325804875,-0.244133919,0.33765,0.320957031,-0.251175625,0.330829,0.424449971,-0.278090506,0.377644,0.356169714,-0.259765817,0.352451,0.343137393,-0.255135966,0.340876,0.336204141,-0.253923562,0.335057
0.461139072,-0.34278742,0.454131,0.439862096,-0.289506858,0.419959,0.459520705,-0.324726262,0.457881,0.423323931,-0.295088461,0.44311,0.393508291,-0.290602198,0.434773,0.382748173,-0.301498447,0.426174,0.418021568,-0.230492839,0.401642,0.375978375,-0.205652251,0.383665,0.350156072,-0.213877582,0.374676,0.347092498,-0.228120625,0.377625,0.415699235,-0.238592187,0.387415,0.374003706,-0.192956507,0.361241,0.35035895,-0.166213408,0.345974,0.332078465,-0.146820964,0.335068,0.416820558,-0.251380745,0.379381,0.347753631,-0.237091723,0.351684,0.325639052,-0.244032115,0.337513,0.320734567,-0.251239653,0.330766,0.423317755,-0.277198168,0.37648,0.356888769,-0.258968942,0.351656,0.342171706,-0.254786008,0.340251,0.333178649,-0.253945677,0.334491
0.460873548,-0.342760585,0.453626,0.439536992,-0.289371992,0.419602,0.459243171,-0.324749607,0.457503,0.423153867,-0.29480252,0.442914,0.393344046,-0.290071495,0.43469,0.38250005,-0.300879857,0.426137,0.41816157,-0.230469828,0.401551,0.37581789,-0.205800558,0.383722,0.350254035,-0.214148459,0.374808,0.347356018,-0.228387411,0.377731,0.415688103,-0.238441477,0.387199,0.374348319,-0.192836299,0.361219,0.350857937,-0.166054363,0.346064,0.332762931,-0.146690375,0.335239,0.416648048,-0.251121281,0.379048,0.347700415,-0.237062659,0.351545,0.325577386,-0.244001951,0.337474,0.32064652,-0.251340799,0.330794,0.422888754,-0.27680433,0.375981,0.356726561,-0.258484488,0.351317,0.341777468,-0.254446821,0.339985,0.332743254,-0.253690468,0.334276
0.462418534,-0.343272534,0.453096,0.439192646,-0.28920683,0.419237,0.458931236,-0.324704611,0.457111,0.423034879,-0.294594106,0.442776,0.393287439,-0.28971117,0.434704,0.382395676,-0.300468323,0.426207,0.418267105,-0.230450104,0.401477,0.375701877,-0.205913978,0.383769,0.350334984,-0.214356038,0.374915,0.347528199,-0.228570669,0.377783,0.415636408,-0.238299658,0.386991,0.374603154,-0.192735887,0.361189,0.351239013,-0.16593809,0.346138,0.333310842,-0.146595104,0.335387,0.416428002,-0.250867835,0.378711,0.347640934,-0.237027494,0.351421,0.325543946,-0.243988908,0.337458,0.320622109,-0.251449347,0.330858,0.422410013,-0.276403176,0.375464,0.356508578,-0.258063898,0.350974,0.341417749,-0.254144681,0.339722,0.33337984,-0.253557127,0.334073
