sluyters/QuantumLeap/backend/src/datasets/dynamic/HandGestureDataset_SHREC2017_csv/Gesture12/finger_1/subject_10_essai_4_skeletons_world.csv
Wrist_x,Wrist_y,Wrist_z,Palm_x,Palm_y,Palm_z,thumb_base_x,thumb_base_y,thumb_base_z,thumb_first_joint_x,thumb_first_joint_y,thumb_first_joint_z,thumb_second_joint_x,thumb_second_joint_y,thumb_second_joint_z,thumb_tip_x,thumb_tip_y,thumb_tip_z,index_base_x,index_base_y,index_base_z,index_first_joint_x,index_first_joint_y,index_first_joint_z,index_second_joint_x,index_second_joint_y,index_second_joint_z,index_tip_x,index_tip_y,index_tip_z,middle_base_x,middle_base_y,middle_base_z,middle_first_joint_x,middle_first_joint_y,middle_first_joint_z,middle_second_joint_x,middle_second_joint_y,middle_second_joint_z,middle_tip_x,middle_tip_y,middle_tip_z,ring_base_x,ring_base_y,ring_base_z,ring_first_joint_x,ring_first_joint_y,ring_first_joint_z,ring_second_joint_x,ring_second_joint_y,ring_second_joint_z,ring_tip_x,ring_tip_y,ring_tip_z,pinky_base_x,pinky_base_y,pinky_base_z,pinky_first_joint_x,pinky_first_joint_y,pinky_first_joint_z,pinky_second_joint_x,pinky_second_joint_y,pinky_second_joint_z,pinky_tip_x,pinky_tip_y,pinky_tip_z,
0.46850005,-0.37932898,0.535927,0.45980044,-0.32273662,0.530134,0.44321412,-0.36048357,0.530398,0.40655776,-0.32491787,0.515245,0.37357122,-0.29775529,0.500575,0.35601854,-0.27603285,0.492147,0.42169091,-0.2723585,0.519019,0.41943438,-0.23212899,0.516381,0.41908032,-0.21218015,0.515062,0.41882374,-0.19385093,0.513928,0.44999641,-0.27414967,0.523969,0.44724823,-0.24255132,0.510152,0.44397618,-0.2602173,0.502092,0.44116879,-0.27708539,0.498788,0.47418634,-0.27933368,0.528519,0.47274314,-0.27956175,0.514256,0.46213861,-0.29700032,0.506959,0.46574285,-0.31259988,0.518724,0.50457107,-0.29247109,0.534799,0.49941566,-0.27670752,0.521403,0.49726154,-0.26922431,0.515249,0.49553798,-0.26250552,0.509871
0.46003715,-0.3613799,0.530571,0.45270068,-0.31035745,0.526246,0.4350859,-0.34571639,0.525071,0.39403494,-0.30621886,0.508393,0.36137384,-0.27767029,0.49362,0.3448747,-0.25647289,0.486813,0.42138216,-0.25762888,0.516244,0.42655677,-0.22083337,0.520381,0.42978103,-0.20259246,0.523217,0.43281983,-0.1858663,0.525856,0.44964337,-0.26311102,0.521643,0.45220947,-0.23314018,0.509226,0.4489176,-0.25272269,0.501983,0.45600128,-0.28197729,0.513887,0.47327927,-0.27122852,0.526442,0.47456949,-0.26869737,0.513315,0.46485736,-0.28640247,0.5066,0.46805262,-0.3042406,0.518707,0.50238169,-0.28952599,0.532792,0.49861009,-0.27025544,0.52039,0.49725137,-0.26194008,0.514692,0.49576516,-0.25840589,0.509664
0.45178714,-0.34853648,0.526206,0.4505191,-0.29869094,0.52371,0.42798929,-0.33172474,0.521076,0.3916462,-0.29411315,0.505311,0.3595707,-0.2660982,0.491157,0.34396153,-0.24566961,0.485524,0.42078059,-0.24731597,0.515507,0.42631496,-0.21070611,0.520086,0.42965864,-0.19249104,0.523068,0.43279925,-0.17577152,0.525831,0.4491348,-0.25283486,0.521053,0.45260036,-0.21976999,0.510431,0.45106384,-0.23829298,0.504235,0.46136903,-0.26363892,0.516654,0.47272188,-0.26088873,0.525822,0.47546072,-0.25859712,0.514279,0.46648519,-0.2768523,0.508374,0.47011267,-0.29507893,0.52099,0.50120361,-0.27707531,0.531856,0.49901059,-0.25993566,0.520808,0.49825516,-0.25170969,0.515731,0.49781189,-0.24428052,0.511327
0.43252966,-0.32894726,0.510104,0.44097512,-0.28982192,0.514077,0.41265641,-0.31258434,0.507461,0.37920175,-0.27848533,0.496709,0.35190639,-0.25246721,0.486028,0.33933753,-0.23312847,0.483543,0.42590372,-0.23682928,0.513705,0.42411943,-0.19653944,0.509409,0.42408902,-0.17648216,0.508053,0.42425419,-0.1580462,0.507021,0.4530569,-0.2457605,0.518305,0.46280746,-0.21909628,0.514274,0.4592974,-0.24093942,0.511923,0.47000882,-0.2674529,0.526205,0.47181799,-0.25760028,0.521764,0.47725819,-0.25833332,0.516478,0.4641767,-0.27546923,0.514592,0.46891061,-0.29203419,0.529628,0.49669724,-0.27424194,0.525255,0.50033028,-0.25933605,0.519468,0.50202767,-0.25266559,0.516809,0.50387321,-0.2466153,0.514622
0.43935295,-0.3302746,0.518449,0.44380121,-0.27982847,0.517792,0.41974161,-0.31105354,0.519585,0.39250379,-0.27858851,0.511846,0.36168106,-0.24971854,0.498481,0.34810111,-0.23016294,0.495436,0.42612113,-0.23280629,0.518722,0.42345485,-0.19166825,0.512071,0.42213747,-0.17089059,0.508746,0.42205561,-0.15475142,0.505723,0.4488531,-0.23656087,0.517094,0.4518231,-0.20541799,0.508972,0.45178393,-0.19679893,0.504234,0.4615453,-0.21628901,0.517752,0.46714297,-0.24292423,0.515808,0.46472564,-0.23748442,0.50868,0.47624049,-0.26524057,0.529278,0.47799535,-0.28857309,0.540895,0.48823575,-0.25662776,0.514384,0.49035616,-0.23948998,0.506817,0.48319262,-0.2376981,0.50334,0.47672172,-0.23611154,0.500273
0.44130183,-0.32472648,0.520901,0.43943384,-0.27263287,0.509685,0.42333164,-0.30927034,0.521226,0.39294669,-0.27684914,0.510372,0.3546458,-0.24485065,0.488067,0.33700074,-0.22626576,0.480416,0.4161256,-0.21966781,0.501867,0.40737513,-0.17647003,0.48768,0.40302887,-0.15525498,0.480586,0.41105069,-0.14427214,0.491092,0.43639598,-0.22159974,0.497748,0.42738558,-0.19062223,0.480101,0.42143477,-0.18086774,0.469807,0.42812861,-0.19846344,0.479913,0.45341552,-0.22675398,0.495282,0.44207784,-0.21734383,0.480242,0.45458109,-0.23938386,0.499314,0.4588101,-0.26508322,0.513006,0.47465129,-0.23962655,0.494074,0.46759663,-0.21917915,0.479533,0.45802626,-0.21468098,0.472851,0.44853543,-0.21153704,0.466956
0.44791557,-0.33032223,0.52512,0.44128121,-0.27356256,0.510232,0.42643312,-0.31037198,0.522774,0.39482196,-0.28258475,0.507854,0.3529946,-0.25255776,0.485811,0.33394201,-0.22989792,0.475235,0.41123322,-0.21958632,0.496405,0.39863142,-0.1786195,0.47775,0.39250093,-0.15710718,0.468422,0.40136666,-0.14277287,0.477115,0.43326115,-0.22189293,0.494387,0.42138939,-0.18661829,0.472854,0.41104967,-0.18363875,0.460294,0.41657193,-0.20351927,0.469093,0.45222145,-0.22755622,0.493952,0.43664427,-0.2206391,0.474769,0.44895096,-0.24441765,0.493282,0.45507942,-0.26670004,0.508424,0.47661714,-0.24146136,0.495714,0.46663498,-0.21988611,0.477795,0.45334822,-0.22022791,0.469561,0.440699,-0.21870791,0.462296
0.44757243,-0.33273751,0.522245,0.44357977,-0.28104018,0.504446,0.425195,-0.31252832,0.51857,0.39120114,-0.28743033,0.501559,0.34839748,-0.25723336,0.479932,0.32905955,-0.23148939,0.469394,0.40554438,-0.22672007,0.486835,0.39162062,-0.18342277,0.465404,0.38464177,-0.16192182,0.454689,0.3931059,-0.14804898,0.462379,0.42830783,-0.22848444,0.485503,0.41344574,-0.19441419,0.46115,0.40272464,-0.19014997,0.446945,0.40760766,-0.21018888,0.454552,0.44831111,-0.23382035,0.485873,0.43163128,-0.22080793,0.463936,0.44361855,-0.24544669,0.481733,0.44862814,-0.26840281,0.497701,0.47484973,-0.24759837,0.489033,0.46091182,-0.22376017,0.468853,0.44455243,-0.22384627,0.459581,0.43005437,-0.22396187,0.4514
0.45019777,-0.33822186,0.521938,0.44447357,-0.28962934,0.503785,0.42802591,-0.32529518,0.515809,0.38909151,-0.29204068,0.495626,0.34735552,-0.26101279,0.474414,0.33213696,-0.24154633,0.47132,0.40305351,-0.23202692,0.482866,0.38905021,-0.18829641,0.460511,0.38202556,-0.16659721,0.449334,0.38931553,-0.15233172,0.45518,0.42783753,-0.2355656,0.484465,0.41891192,-0.20729733,0.459314,0.40841468,-0.21633337,0.444642,0.41115312,-0.23767785,0.452001,0.44953314,-0.24247204,0.487275,0.43831991,-0.23141459,0.463746,0.45347159,-0.25635068,0.481414,0.46054354,-0.28354632,0.497973,0.47813873,-0.25829543,0.493383,0.46338908,-0.24870012,0.47202,0.45615258,-0.25888616,0.462205,0.45992418,-0.26664713,0.467353
0.4517431,-0.34943346,0.520563,0.44111409,-0.30780229,0.502263,0.42508139,-0.33792446,0.513391,0.38526617,-0.30905005,0.491907,0.34181675,-0.27645754,0.468603,0.32151486,-0.25551777,0.459839,0.40075826,-0.24759859,0.479942,0.38705668,-0.20461386,0.456844,0.38058172,-0.18398892,0.445295,0.38790459,-0.17145538,0.44984,0.42623519,-0.25287469,0.482788,0.41854981,-0.22608098,0.45734,0.40720459,-0.23568046,0.442495,0.40882061,-0.25679574,0.449678,0.44843062,-0.26128598,0.486637,0.43781972,-0.25014793,0.462469,0.45273693,-0.27638632,0.479977,0.45937928,-0.30378826,0.496729,0.47745565,-0.27907401,0.493998,0.4637027,-0.26332768,0.472174,0.45698441,-0.27325629,0.462147,0.46031223,-0.28298738,0.467092
0.44299965,-0.36545835,0.507996,0.43184229,-0.32055899,0.492683,0.41701002,-0.35518798,0.50091,0.37456478,-0.32100294,0.480133,0.33682905,-0.29053193,0.459842,0.31730839,-0.2692718,0.451638,0.39480268,-0.26084201,0.472659,0.38355492,-0.22293651,0.4515,0.37798518,-0.20376086,0.44092,0.38173334,-0.19056546,0.441451,0.42056275,-0.26687503,0.476388,0.41594043,-0.24889323,0.453598,0.40355255,-0.26318112,0.440304,0.40488687,-0.28359317,0.44862,0.44271106,-0.27583927,0.480716,0.43512265,-0.26784726,0.458691,0.45024544,-0.29652946,0.476861,0.45567484,-0.32331347,0.493013,0.47108421,-0.29412466,0.488189,0.4604053,-0.27584376,0.468198,0.45593881,-0.27462066,0.459012,0.46344424,-0.29222476,0.464797
0.4251322,-0.40141292,0.508237,0.42366518,-0.34817023,0.492501,0.40286574,-0.37918517,0.499788,0.3710583,-0.34320928,0.477174,0.33792641,-0.30897952,0.459219,0.32507856,-0.28771763,0.455186,0.39531869,-0.2847887,0.470473,0.38454957,-0.24379281,0.44824,0.37918318,-0.22322983,0.437123,0.38281717,-0.20913864,0.436714,0.42131742,-0.29425872,0.475756,0.4235088,-0.26883205,0.452423,0.4068525,-0.28400721,0.438812,0.40514394,-0.30323298,0.446719,0.44292161,-0.30611414,0.481397,0.43407732,-0.30853058,0.458423,0.43905046,-0.33908271,0.476194,0.44186589,-0.35331409,0.49257,0.46914534,-0.32787724,0.490492,0.46093974,-0.30085596,0.469809,0.45843486,-0.29692313,0.460306,0.46713465,-0.31400816,0.465692
0.42627872,-0.41277327,0.509771,0.42415447,-0.3683374,0.493119,0.40347192,-0.40002265,0.500571,0.37051591,-0.36333266,0.476945,0.33662389,-0.32823478,0.457842,0.32349753,-0.30661228,0.453523,0.39491272,-0.30331697,0.469488,0.38357744,-0.26325157,0.446169,0.37793633,-0.24313705,0.434509,0.3809828,-0.22971706,0.433184,0.42119144,-0.31314477,0.475398,0.42337334,-0.28838087,0.451167,0.40620328,-0.30299066,0.437032,0.40390521,-0.32185055,0.444448,0.44308798,-0.32539331,0.481633,0.43408612,-0.32799383,0.457662,0.43995294,-0.35985466,0.475049,0.44198091,-0.37649729,0.491675,0.46976699,-0.34780813,0.49157,0.46088052,-0.32157795,0.4701,0.4582559,-0.31727365,0.460236,0.46724972,-0.33443878,0.465206
0.45846732,-0.42100634,0.505427,0.43515299,-0.36332766,0.479513,0.43506148,-0.40580524,0.502601,0.39284411,-0.38324169,0.48627,0.35040872,-0.35580126,0.465637,0.32700016,-0.33441064,0.451541,0.39012034,-0.30464133,0.45701,0.3734206,-0.258365,0.431319,0.36502241,-0.23549887,0.418474,0.36294353,-0.23007847,0.416163,0.41033175,-0.30396689,0.451936,0.37632717,-0.31152572,0.419396,0.39161915,-0.34180619,0.436404,0.40873281,-0.34925646,0.453513,0.4289738,-0.30793637,0.449893,0.40031276,-0.31820771,0.423319,0.41199823,-0.34583713,0.437616,0.42796876,-0.35524715,0.454058,0.45499913,-0.32117357,0.451435,0.42067964,-0.32739992,0.427341,0.40856549,-0.33180425,0.41627,0.41388845,-0.33294048,0.418749
0.45180263,-0.42193584,0.501083,0.42576556,-0.36762955,0.47504,0.42843573,-0.40657946,0.498143,0.3833524,-0.38577669,0.481649,0.34522273,-0.36232838,0.464681,0.32710366,-0.33855402,0.455031,0.38093088,-0.30808428,0.4523,0.37304901,-0.2688383,0.437255,0.36915865,-0.24890607,0.429732,0.36245618,-0.24294712,0.422894,0.40097154,-0.30735332,0.447324,0.36820755,-0.31337514,0.414678,0.38579916,-0.34562039,0.431648,0.40340031,-0.35493062,0.448784,0.41948077,-0.31133497,0.445373,0.39593204,-0.27156283,0.431989,0.38379972,-0.25097925,0.425142,0.37286341,-0.23751482,0.418916,0.44539507,-0.32471484,0.447045,0.4127905,-0.33024926,0.422828,0.42519987,-0.34824887,0.433184,0.44121282,-0.3566966,0.445722
0.44836105,-0.43393139,0.5017,0.4253035,-0.38167588,0.476227,0.42475625,-0.41797226,0.498367,0.38196614,-0.39986553,0.481321,0.34337168,-0.37529832,0.463033,0.32267957,-0.35258539,0.452879,0.38146085,-0.32136722,0.453418,0.37402171,-0.28351342,0.43811,0.37037141,-0.26424248,0.430456,0.3656141,-0.25249585,0.423498,0.40203307,-0.32118534,0.449119,0.3706844,-0.32460442,0.417008,0.38829027,-0.35745019,0.434513,0.40522671,-0.36673097,0.451623,0.4208557,-0.32563391,0.447678,0.39831276,-0.28675504,0.434107,0.38668055,-0.26657058,0.427164,0.37628263,-0.25209367,0.420852,0.44691419,-0.33959534,0.449867,0.4157192,-0.34157338,0.425728,0.42828574,-0.36328137,0.43641,0.44428614,-0.37144541,0.449048
0.44634661,-0.44797853,0.5018,0.42504913,-0.39539882,0.476708,0.42240937,-0.43109765,0.497708,0.38401475,-0.41066979,0.479619,0.34865702,-0.38326584,0.461993,0.33085483,-0.35989947,0.453275,0.38176105,-0.33359074,0.453236,0.37258761,-0.29924755,0.43595,0.36809473,-0.28169915,0.427307,0.36402237,-0.26571434,0.41945,0.40317205,-0.33440756,0.450006,0.37283943,-0.33506573,0.41831,0.39010438,-0.36957041,0.436302,0.40652307,-0.37990443,0.453414,0.4226197,-0.33972201,0.449412,0.39955415,-0.3026154,0.433708,0.3876414,-0.28329159,0.425673,0.37684869,-0.26676733,0.418369,0.44927671,-0.35481075,0.452547,0.41910606,-0.35260341,0.428228,0.43144073,-0.37560581,0.439192,0.44691305,-0.38515833,0.452003
0.44400458,-0.45873977,0.500127,0.42376998,-0.40465422,0.47531,0.41999874,-0.44141877,0.495702,0.38440726,-0.42100493,0.477167,0.3495762,-0.3938316,0.458042,0.33185014,-0.37052893,0.448745,0.3802815,-0.34269925,0.451624,0.37101,-0.30901529,0.434293,0.36647006,-0.29180171,0.425627,0.36235639,-0.27613233,0.417749,0.40211982,-0.34391424,0.448899,0.37202065,-0.3454635,0.417491,0.38952909,-0.38013228,0.435733,0.40594064,-0.39017444,0.45282,0.42193913,-0.34955232,0.448699,0.39841029,-0.3126978,0.432528,0.38626126,-0.2935174,0.424255,0.37525217,-0.27718322,0.416734,0.44903081,-0.36501705,0.452259,0.41880177,-0.36337937,0.427922,0.43127767,-0.38655149,0.439034,0.44682429,-0.39595866,0.451908
0.44569422,-0.46492009,0.50186,0.42752539,-0.41485792,0.477077,0.42228765,-0.45233372,0.49775,0.38544474,-0.43401261,0.479643,0.34707926,-0.40547934,0.460169,0.32856713,-0.38209273,0.45124,0.38623433,-0.35218009,0.453806,0.38112233,-0.3177518,0.439027,0.37869959,-0.30012965,0.431638,0.3765823,-0.28384502,0.42492,0.40764637,-0.35409865,0.450702,0.37640167,-0.35487911,0.419288,0.39102602,-0.38967473,0.437467,0.40695673,-0.39996003,0.454536,0.42695417,-0.3603212,0.450187,0.40598205,-0.32289552,0.435445,0.39516438,-0.30356907,0.427902,0.38532364,-0.28702206,0.421045,0.45314482,-0.37648567,0.453368,0.42339641,-0.37193903,0.429196,0.43343263,-0.39584191,0.44028,0.44786023,-0.40652451,0.453084
0.4465041,-0.47208237,0.501288,0.42900097,-0.41672913,0.477279,0.42325426,-0.45495307,0.49744,0.386025,-0.43576382,0.479719,0.34743075,-0.40733491,0.460853,0.32890667,-0.38422206,0.452426,0.38796524,-0.35487668,0.4549,0.38323411,-0.32024593,0.440441,0.38100248,-0.30252067,0.433212,0.37905971,-0.28614216,0.42664,0.40939919,-0.35628295,0.451727,0.3799255,-0.35743074,0.420986,0.3950467,-0.39285289,0.439537,0.41048091,-0.40315706,0.45648,0.42866065,-0.36204891,0.451092,0.4081178,-0.32482646,0.436766,0.39752413,-0.30558966,0.429436,0.38793504,-0.2891085,0.422773,0.4547006,-0.37759111,0.454012,0.42637498,-0.37338718,0.430361,0.43686613,-0.39762863,0.441692,0.4509631,-0.40830238,0.454409
0.44736125,-0.47373768,0.501553,0.42962236,-0.41774072,0.477672,0.42404842,-0.45671952,0.497699,0.38627508,-0.43689235,0.479977,0.3477432,-0.40893506,0.461619,0.32864957,-0.38572207,0.452707,0.3882904,-0.35613144,0.455382,0.37881021,-0.32017348,0.435473,0.37228033,-0.30695243,0.425518,0.36697342,-0.29460147,0.416468,0.40983049,-0.3573388,0.452258,0.38140741,-0.36421175,0.421635,0.39747343,-0.39607569,0.44026,0.41149658,-0.40429907,0.457183,0.42918419,-0.36293528,0.451652,0.40751166,-0.32595429,0.436098,0.39682705,-0.308435,0.42814,0.38680296,-0.29241214,0.420906,0.45534816,-0.37826159,0.454587,0.42738879,-0.37427954,0.431,0.43804959,-0.39857908,0.442378,0.45208137,-0.40919184,0.455092
0.44513483,-0.47234418,0.499116,0.42837211,-0.41734671,0.476707,0.42280037,-0.45645822,0.496334,0.38587985,-0.43764906,0.480152,0.34665806,-0.41049732,0.461605,0.32789376,-0.3866004,0.452775,0.38896032,-0.357834,0.456828,0.37223596,-0.32112768,0.430657,0.36205668,-0.30837113,0.417572,0.35376608,-0.29634197,0.405677,0.40984883,-0.35826484,0.452859,0.38203503,-0.36622718,0.423468,0.39874224,-0.39883628,0.442584,0.41299647,-0.40651273,0.459216,0.42848915,-0.36311431,0.451438,0.40590605,-0.32712702,0.434754,0.39358421,-0.3103275,0.426218,0.38371324,-0.29224096,0.418458,0.45350067,-0.3773188,0.453181,0.42696069,-0.37454036,0.430873,0.43802383,-0.39914911,0.442606,0.4517141,-0.40942269,0.455006
0.4388359,-0.46601735,0.492061,0.42541202,-0.41461415,0.473629,0.41879393,-0.45257424,0.491672,0.38454475,-0.43710387,0.479076,0.34428534,-0.40935238,0.459525,0.32513655,-0.38727957,0.451171,0.39103594,-0.3600598,0.459637,0.37876646,-0.31968607,0.436444,0.37223092,-0.30199616,0.424847,0.37167015,-0.28349959,0.419651,0.41061171,-0.35913308,0.454014,0.38613203,-0.36335964,0.428101,0.40290102,-0.40097451,0.448375,0.41725769,-0.41093297,0.464112,0.42773032,-0.36258134,0.450904,0.40160762,-0.3230673,0.430572,0.3882666,-0.30408043,0.420169,0.37922304,-0.28803414,0.414049,0.4501445,-0.37452714,0.450036,0.42857541,-0.36665829,0.431041,0.43800526,-0.39212822,0.443609,0.45161288,-0.40726846,0.455168
0.44011825,-0.46778096,0.493219,0.42534484,-0.4151738,0.473909,0.41899603,-0.45374654,0.491776,0.38296349,-0.43714428,0.47764,0.34357681,-0.40926764,0.459476,0.32500049,-0.3877634,0.452125,0.3862462,-0.36186851,0.457964,0.37237334,-0.32520451,0.433975,0.36654514,-0.30735868,0.42198,0.36044591,-0.29032098,0.411083,0.40744852,-0.3594152,0.453359,0.38740204,-0.35707258,0.426713,0.40155104,-0.39875037,0.44696,0.41601438,-0.41011509,0.462954,0.42608667,-0.36215855,0.451159,0.39873988,-0.32182713,0.429578,0.38429935,-0.3031485,0.418536,0.37888025,-0.28829826,0.414494,0.44981524,-0.37436454,0.451504,0.42551563,-0.36836241,0.431217,0.44574356,-0.39226756,0.44379,0.46098447,-0.40372486,0.455805
0.4403373,-0.46825278,0.49339,0.42493674,-0.41513969,0.473872,0.41870522,-0.45408702,0.491487,0.38221722,-0.43571092,0.476697,0.3431417,-0.40898184,0.459261,0.32544208,-0.38702559,0.452358,0.38455511,-0.36117402,0.457203,0.37066298,-0.32440303,0.43302,0.36357778,-0.30775147,0.420929,0.35810555,-0.29255264,0.409936,0.40626752,-0.35889406,0.453101,0.38478243,-0.35932723,0.426307,0.40127881,-0.39829466,0.446606,0.41535361,-0.40983221,0.462669,0.42500152,-0.36122033,0.451332,0.3944943,-0.3193842,0.429325,0.38217495,-0.30081555,0.418066,0.37700171,-0.28818714,0.413856,0.44935395,-0.37315294,0.452221,0.42587583,-0.36671167,0.431764,0.44411108,-0.39274536,0.444319,0.46101935,-0.40348296,0.456387
0.43973172,-0.46817145,0.492643,0.42415565,-0.41509469,0.473504,0.41761553,-0.45391299,0.490294,0.38039864,-0.43405767,0.474924,0.34282383,-0.407608,0.458632,0.32513084,-0.38676274,0.452415,0.38137114,-0.36181338,0.456558,0.36811055,-0.32439625,0.432642,0.36234761,-0.30789869,0.420683,0.35606809,-0.29348034,0.409812,0.40286827,-0.35892316,0.453136,0.38510977,-0.35962651,0.426748,0.40192699,-0.39909185,0.447348,0.41557224,-0.41058382,0.463359,0.42183837,-0.36088257,0.451894,0.39350578,-0.31894721,0.429856,0.37807787,-0.29717611,0.418581,0.37342443,-0.2818692,0.416636,0.44705384,-0.37125378,0.45335,0.42665535,-0.36713862,0.433008,0.4455704,-0.39313683,0.44571,0.45880871,-0.40465966,0.457794
0.43835683,-0.46730575,0.491215,0.42265781,-0.41430623,0.472339,0.41610511,-0.45326433,0.488728,0.37743501,-0.43358418,0.473193,0.33988502,-0.40722652,0.4572,0.32358681,-0.38675594,0.451645,0.37978482,-0.36135962,0.455414,0.36689071,-0.32271194,0.431604,0.36131371,-0.30407294,0.4197,0.35667755,-0.28811817,0.408877,0.40141836,-0.35836102,0.45225,0.3849432,-0.35917954,0.426128,0.40215749,-0.39916125,0.446879,0.41490681,-0.41029948,0.462842,0.42046887,-0.36021987,0.451199,0.39114208,-0.31665958,0.429249,0.3829556,-0.29936293,0.426744,0.37841374,-0.28345052,0.424466,0.44573205,-0.37043832,0.452842,0.42804086,-0.35464664,0.432413,0.44490187,-0.38212136,0.445279,0.45712467,-0.40226999,0.457458
0.4338251,-0.4639487,0.486371,0.4149118,-0.41081539,0.467887,0.41191964,-0.45072567,0.484198,0.36728572,-0.42678895,0.469123,0.3303242,-0.40068614,0.45278,0.31816245,-0.38291445,0.448645,0.37032009,-0.35654844,0.45164,0.35776443,-0.31438676,0.427948,0.35181386,-0.29625933,0.416102,0.34948732,-0.28293729,0.405332,0.39176579,-0.35242686,0.448216,0.38073295,-0.35667409,0.42243,0.39807812,-0.39569656,0.443273,0.4093335,-0.40668906,0.459143,0.41057068,-0.35334215,0.44692,0.38176857,-0.30887008,0.42542,0.37643321,-0.29354963,0.424982,0.37402836,-0.28055792,0.424584,0.43543454,-0.36234599,0.448211,0.42157681,-0.35170632,0.42798,0.43828725,-0.37939477,0.441003,0.45107229,-0.39875185,0.453172
0.42908798,-0.45982216,0.481775,0.40764851,-0.4068228,0.466613,0.40723173,-0.44729381,0.479703,0.36156934,-0.42238744,0.465113,0.32543323,-0.40015067,0.454854,0.31211624,-0.38308272,0.451429,0.36524207,-0.35543259,0.452927,0.35421561,-0.31488461,0.432237,0.3489227,-0.29613511,0.421891,0.34426008,-0.2800041,0.412487,0.38776822,-0.35172822,0.450478,0.37667849,-0.35882204,0.427882,0.39475241,-0.39914888,0.449996,0.40942953,-0.41200956,0.467803,0.4073905,-0.35281481,0.449711,0.37930429,-0.30941937,0.430236,0.36987419,-0.29113888,0.42594,0.3611762,-0.27418416,0.422034,0.43296882,-0.36171767,0.451121,0.4184878,-0.35628924,0.433118,0.43566758,-0.38515986,0.44694,0.45121676,-0.40305665,0.458635
0.42285441,-0.45471061,0.476451,0.39795295,-0.40054923,0.461133,0.39482734,-0.4436525,0.475591,0.3508537,-0.4161835,0.46262,0.31708973,-0.3921859,0.451856,0.30191031,-0.3740829,0.445392,0.35967969,-0.35046462,0.448838,0.34546536,-0.30632932,0.427651,0.33954166,-0.28663311,0.417057,0.33710125,-0.27306727,0.407427,0.38072949,-0.34606614,0.444832,0.36444856,-0.34875785,0.421928,0.38198382,-0.38953448,0.443703,0.39600011,-0.40187637,0.459256,0.39904371,-0.34659561,0.442795,0.37175361,-0.303264,0.424216,0.36404562,-0.28559561,0.424625,0.36127357,-0.27334739,0.424997,0.42298836,-0.3548519,0.442725,0.40506945,-0.3470735,0.425232,0.42115722,-0.37541853,0.438748,0.43692466,-0.39413066,0.450146
0.40259205,-0.44362762,0.467567,0.38289361,-0.39218071,0.456747,0.37744179,-0.43255565,0.466399,0.3350952,-0.40446599,0.453598,0.30305572,-0.38211636,0.444459,0.28614922,-0.36241779,0.439034,0.3476797,-0.34318378,0.447366,0.34003163,-0.30336627,0.430458,0.33633852,-0.2847469,0.422003,0.33307591,-0.26858279,0.414318,0.37047034,-0.34060069,0.445233,0.36149177,-0.34776086,0.4268,0.37969307,-0.39028898,0.450088,0.39070147,-0.40235532,0.466723,0.3899626,-0.34241832,0.444368,0.36555495,-0.29958056,0.42854,0.35781956,-0.281401,0.426101,0.35065247,-0.26448049,0.423884,0.41469483,-0.35184929,0.444999,0.40214433,-0.3458057,0.43002,0.41907406,-0.37496618,0.444507,0.43085973,-0.3926357,0.455396
0.39416398,-0.43893,0.465537,0.37355186,-0.38249291,0.45308,0.36916981,-0.42691992,0.465562,0.32869814,-0.39808698,0.454136,0.29618955,-0.37531178,0.444991,0.27930989,-0.35570878,0.43989,0.33792509,-0.3335629,0.443981,0.32750033,-0.29184068,0.425184,0.32230289,-0.27230763,0.415786,0.31759505,-0.25532269,0.407243,0.3589688,-0.32945339,0.439823,0.34666643,-0.32703062,0.419606,0.3650194,-0.37060766,0.44215,0.3764915,-0.38590114,0.458254,0.37709575,-0.33010263,0.437427,0.35152438,-0.28700536,0.421344,0.34692597,-0.27167896,0.423419,0.34249639,-0.25708584,0.425306,0.40046252,-0.33828915,0.436492,0.38585281,-0.3305303,0.421076,0.40197589,-0.35860541,0.435126,0.41423637,-0.37645309,0.445999
0.38383404,-0.43162574,0.462075,0.3650783,-0.37748364,0.451873,0.3595585,-0.41918062,0.461975,0.31894273,-0.39124888,0.45069,0.2865865,-0.36758885,0.441132,0.2700574,-0.34783366,0.435828,0.33092607,-0.3290687,0.444273,0.32306076,-0.28713534,0.427623,0.31920494,-0.26736749,0.419299,0.31575595,-0.2500796,0.411731,0.35262291,-0.32550614,0.441017,0.34392719,-0.32156255,0.423048,0.36257733,-0.36614956,0.446307,0.37362422,-0.38325901,0.46292,0.37110572,-0.32652049,0.439177,0.34739095,-0.28333245,0.424587,0.34386136,-0.26803753,0.427768,0.34040878,-0.25344016,0.43066,0.39457509,-0.33497447,0.438557,0.38246178,-0.32570421,0.424427,0.3991704,-0.35356779,0.438936,0.41083134,-0.37192704,0.449535
0.37260428,-0.42158819,0.463157,0.35244718,-0.36202964,0.447257,0.3458638,-0.40348125,0.462404,0.30763515,-0.37738266,0.449518,0.27436934,-0.35375921,0.438691,0.25672304,-0.33346538,0.431563,0.31549211,-0.31129424,0.434667,0.30343404,-0.27001807,0.41292,0.2973032,-0.25079508,0.402046,0.2916731,-0.23415194,0.39216,0.33660764,-0.30788388,0.430335,0.32023662,-0.30613248,0.406858,0.33623448,-0.34712165,0.428375,0.34722094,-0.36005054,0.443744,0.35489836,-0.30918799,0.428079,0.32804937,-0.26573822,0.409176,0.32211533,-0.2496308,0.40937,0.31648136,-0.23434851,0.409547,0.37865361,-0.31831372,0.427837,0.36105978,-0.31115102,0.410064,0.37510406,-0.33830516,0.423417,0.38741843,-0.35549141,0.43485
0.36575023,-0.41588267,0.470075,0.34968166,-0.35977806,0.458656,0.34558397,-0.40515844,0.471075,0.2998589,-0.37768501,0.461123,0.26554397,-0.35903878,0.446626,0.2446951,-0.3387573,0.436373,0.31948844,-0.30879207,0.451527,0.30909831,-0.27254789,0.434064,0.30974821,-0.25887698,0.433466,0.31013686,-0.24671996,0.432923,0.34018156,-0.30678469,0.446503,0.32296953,-0.30868983,0.4272,0.34172669,-0.3534018,0.449791,0.36032137,-0.37657069,0.465927,0.357749,-0.3091333,0.443308,0.33975796,-0.31651068,0.425701,0.35224092,-0.3429526,0.444426,0.35973492,-0.37820195,0.461449,0.37989529,-0.31936067,0.441268,0.3610272,-0.3147838,0.42693,0.3766579,-0.34201813,0.441048,0.39095536,-0.35979914,0.451569
0.34049531,-0.39812395,0.469141,0.33586824,-0.34949497,0.462749,0.32001135,-0.38575366,0.469013,0.2813789,-0.36419728,0.458774,0.2462842,-0.34169038,0.441455,0.22633428,-0.32188727,0.433485,0.30788939,-0.29994975,0.457903,0.30348545,-0.26781175,0.444899,0.30437348,-0.25358596,0.442722,0.30529934,-0.24000417,0.440742,0.3309424,-0.29964193,0.455945,0.32400727,-0.30508622,0.441832,0.34032964,-0.35002105,0.465984,0.35025497,-0.37580196,0.483236,0.35000665,-0.30313842,0.45486,0.348138,-0.307717,0.441111,0.36923223,-0.33006626,0.461072,0.38698348,-0.36161847,0.474598,0.37316228,-0.31422115,0.454552,0.36189098,-0.31711711,0.442759,0.37499469,-0.34517784,0.457855,0.38515834,-0.3627778,0.46872
0.34178228,-0.39212448,0.466523,0.33078009,-0.33913148,0.458583,0.31996001,-0.38136863,0.466006,0.27918487,-0.36001117,0.45464,0.24281613,-0.33875525,0.439036,0.22266144,-0.32045089,0.431935,0.29308091,-0.29366118,0.452121,0.28375358,-0.26017426,0.437751,0.28211084,-0.24545659,0.435227,0.28061744,-0.23141915,0.432933,0.31605833,-0.28897016,0.450133,0.30891478,-0.29247215,0.434503,0.32926091,-0.33659283,0.458391,0.34192897,-0.36169357,0.475455,0.33579764,-0.28892592,0.449151,0.33068739,-0.2917597,0.433995,0.34955705,-0.31277186,0.453738,0.36501429,-0.34461828,0.467746,0.36114347,-0.29587024,0.449201,0.34725319,-0.29955642,0.436273,0.35831735,-0.32688643,0.451179,0.36681964,-0.34719145,0.461508
0.32910041,-0.37624186,0.455702,0.31105124,-0.32456347,0.449313,0.30112175,-0.36513998,0.458806,0.26151301,-0.34960509,0.453384,0.22413357,-0.33170979,0.442215,0.20440404,-0.31574186,0.43803,0.28033657,-0.28074286,0.448486,0.26918741,-0.24358046,0.434932,0.26713729,-0.22749397,0.433964,0.26520418,-0.21213254,0.433083,0.30075809,-0.27519175,0.442514,0.28752636,-0.27790122,0.428006,0.30550898,-0.32091563,0.451352,0.32003481,-0.34591949,0.468028,0.31799408,-0.27435508,0.438126,0.30652757,-0.27574186,0.422837,0.32046361,-0.29607766,0.442067,0.33446042,-0.32736879,0.455922,0.33967689,-0.28020305,0.433901,0.3228964,-0.28316303,0.423611,0.33362824,-0.31010192,0.43831,0.34276189,-0.329461,0.447631
0.31619711,-0.37445055,0.459249,0.30117067,-0.32546089,0.452023,0.29722651,-0.36622236,0.462884,0.25758606,-0.35037833,0.457192,0.22234583,-0.32974032,0.441903,0.20317579,-0.31298452,0.437015,0.27327126,-0.28055789,0.451242,0.26127057,-0.24194968,0.436982,0.25922885,-0.22569141,0.436604,0.25728908,-0.2101731,0.43626,0.29280325,-0.2762022,0.444334,0.27080248,-0.25233301,0.42895,0.2863567,-0.29206226,0.451848,0.29987352,-0.31509227,0.4646,0.30925349,-0.27635824,0.439243,0.28869427,-0.28240888,0.422874,0.29602359,-0.3050127,0.441719,0.30014906,-0.33677326,0.455858,0.32975325,-0.28343735,0.434315,0.31045898,-0.2837027,0.423791,0.32209861,-0.31044135,0.438222,0.33278596,-0.3298194,0.447522
0.30328272,-0.37482715,0.463822,0.28733943,-0.32240214,0.453285,0.27558094,-0.36152822,0.46597,0.23690303,-0.34761781,0.458438,0.198833,-0.32847146,0.444713,0.17919278,-0.31035367,0.438979,0.25987621,-0.272835,0.44823,0.24439398,-0.23939179,0.431364,0.23862036,-0.22409368,0.426692,0.23323108,-0.20961295,0.422446,0.27994358,-0.27049134,0.442071,0.25642303,-0.24822688,0.423531,0.2703746,-0.28873751,0.445999,0.28333931,-0.3125686,0.459758,0.29684296,-0.27247692,0.43787,0.27295273,-0.27614556,0.41881,0.27706953,-0.30745719,0.437316,0.28313538,-0.33582476,0.452404,0.31790781,-0.28211615,0.434502,0.29586061,-0.28289852,0.421254,0.3089502,-0.30892526,0.435341,0.32119213,-0.32865058,0.445765
0.31101819,-0.37327271,0.46389,0.28577172,-0.31128762,0.443464,0.28213676,-0.35799768,0.460126,0.23924977,-0.33445138,0.443878,0.20057912,-0.31635816,0.430059,0.17521868,-0.29849552,0.421416,0.23620301,-0.26334647,0.423818,0.2220486,-0.2204145,0.413848,0.214507,-0.20032553,0.408863,0.20746392,-0.18880301,0.404331,0.2593023,-0.25708375,0.421726,0.24092691,-0.25667723,0.394307,0.25872291,-0.29341351,0.414645,0.27158895,-0.30526448,0.431963,0.28017117,-0.25608587,0.421686,0.26377865,-0.25809366,0.395641,0.2769301,-0.28698576,0.412459,0.29055504,-0.30320765,0.430889,0.30864955,-0.26256334,0.424763,0.28760397,-0.26749368,0.403067,0.29590986,-0.29132754,0.415546,0.30704464,-0.30240365,0.428736
0.28968308,-0.3679912,0.461929,0.26681844,-0.31101767,0.443409,0.26728055,-0.35543515,0.459988,0.21893367,-0.33093448,0.445743,0.18185419,-0.31103374,0.432702,0.16072036,-0.29209114,0.423482,0.22426628,-0.26037666,0.427423,0.21200337,-0.21790594,0.418224,0.20524768,-0.19735516,0.413624,0.19728432,-0.18472947,0.409442,0.24654429,-0.25596543,0.4237,0.22304464,-0.2494441,0.397852,0.23739241,-0.2885791,0.418616,0.2506351,-0.30276422,0.434484,0.26626908,-0.25652231,0.42216,0.2483368,-0.26261511,0.397083,0.264568,-0.2920111,0.414226,0.28786203,-0.30541982,0.433075,0.29254952,-0.26494385,0.423168,0.26902506,-0.26523008,0.40336,0.27383595,-0.28757276,0.416183,0.28491299,-0.29661674,0.429258
0.28374816,-0.36276385,0.457409,0.26063037,-0.30719505,0.439393,0.26158214,-0.35193537,0.456568,0.21044784,-0.32844408,0.443369,0.17336511,-0.30963759,0.431223,0.15659547,-0.29204102,0.423514,0.21398201,-0.25724705,0.425144,0.20050789,-0.21495168,0.416285,0.19301292,-0.19447445,0.411856,0.18395091,-0.18172264,0.40783,0.23536693,-0.25142143,0.420219,0.21043093,-0.24752412,0.394735,0.22574925,-0.28597478,0.415376,0.24479413,-0.30029981,0.432001,0.25441685,-0.25079395,0.41765,0.23521829,-0.25618624,0.392556,0.25680806,-0.28708946,0.409577,0.26987681,-0.29738343,0.425052,0.28003128,-0.25775143,0.41736,0.25572331,-0.25815315,0.398364,0.26107727,-0.28066854,0.41115,0.27271862,-0.28979262,0.424035
0.27853548,-0.35966312,0.453934,0.25262918,-0.30498205,0.43693,0.25227858,-0.34849321,0.453245,0.20626365,-0.32691795,0.440913,0.16967513,-0.30824941,0.429374,0.14880472,-0.29009907,0.421205,0.21078977,-0.25641093,0.423612,0.19830354,-0.21477625,0.416096,0.19125703,-0.19454102,0.412339,0.18243406,-0.18185384,0.408923,0.23219483,-0.25079168,0.418835,0.20735915,-0.24687851,0.394295,0.22259659,-0.28575444,0.415333,0.23725045,-0.29955843,0.431875,0.25120197,-0.25029056,0.416303,0.23212606,-0.25578117,0.392122,0.25099619,-0.28622353,0.409474,0.26710159,-0.29789266,0.425248,0.27663752,-0.25732763,0.415904,0.25205694,-0.25279461,0.397541,0.25854923,-0.27846851,0.410589,0.26940042,-0.28858783,0.423074
0.2696669,-0.35541764,0.450563,0.24612928,-0.30358893,0.4346,0.24384344,-0.34585559,0.450228,0.19565906,-0.32144517,0.438714,0.16080565,-0.30144929,0.428512,0.14121066,-0.28213229,0.420442,0.20704729,-0.25434482,0.422485,0.19349996,-0.21258653,0.414456,0.18513513,-0.19380042,0.410441,0.17591798,-0.17989328,0.406791,0.23033438,-0.24968958,0.417613,0.20402956,-0.24601939,0.394033,0.21912168,-0.28523961,0.415389,0.2361189,-0.29953389,0.432214,0.24738309,-0.24980191,0.414917,0.22797196,-0.25379111,0.391592,0.24676046,-0.28486176,0.409204,0.2655081,-0.29761597,0.425215,0.27218454,-0.25762853,0.414163,0.25096906,-0.25173468,0.396558,0.25528535,-0.27588108,0.409825,0.26719469,-0.2877959,0.421837
0.2609367,-0.34602693,0.439385,0.24100655,-0.2976904,0.427841,0.23662056,-0.3369501,0.439901,0.19156758,-0.31582195,0.430516,0.15721593,-0.29892141,0.422077,0.13983816,-0.28314376,0.415726,0.20382804,-0.25015443,0.420022,0.1879134,-0.20815158,0.409286,0.17708574,-0.19205783,0.403919,0.17028471,-0.1778018,0.399909,0.22512085,-0.24629213,0.415557,0.1974142,-0.24793378,0.396183,0.21292249,-0.28727119,0.418884,0.23399336,-0.30177188,0.436508,0.24362505,-0.24698862,0.412832,0.21697758,-0.25466259,0.393499,0.2244193,-0.28883755,0.412226,0.23768542,-0.30891344,0.42925,0.26878183,-0.25500273,0.411368,0.24123759,-0.24951347,0.396724,0.25272074,-0.27571508,0.410895,0.26731883,-0.28888082,0.423841
0.26631621,-0.35454849,0.450319,0.24392394,-0.30170203,0.433879,0.24133212,-0.34453969,0.450029,0.1968632,-0.32301279,0.438193,0.16070013,-0.30464713,0.427244,0.13999954,-0.28621369,0.418965,0.20479788,-0.25221387,0.421469,0.19013956,-0.2103381,0.411951,0.17799955,-0.19388464,0.407192,0.17077178,-0.17981411,0.403979,0.22577982,-0.24745714,0.416383,0.19526701,-0.24612612,0.392344,0.21026971,-0.28426747,0.413484,0.22875411,-0.29630342,0.428585,0.24431588,-0.24765993,0.413552,0.21489831,-0.25275831,0.38974,0.2218959,-0.28596516,0.407171,0.23463575,-0.30504422,0.423017,0.26893721,-0.25555272,0.41271,0.24017147,-0.2486856,0.394859,0.251348,-0.27409837,0.407989,0.26413854,-0.28602294,0.419674
0.26883588,-0.35620068,0.450475,0.25084794,-0.303185,0.43363,0.24377665,-0.34486838,0.449676,0.20344159,-0.32495169,0.437532,0.16283317,-0.30666766,0.423684,0.14342796,-0.2882441,0.417327,0.21319062,-0.25284882,0.420292,0.18818779,-0.21358533,0.405239,0.17385912,-0.19203541,0.398903,0.16559814,-0.17554325,0.393144,0.23431246,-0.24855463,0.415704,0.20658768,-0.23887066,0.391327,0.21859304,-0.28083264,0.41247,0.23395366,-0.29578965,0.427572,0.25299525,-0.24915886,0.413315,0.22665085,-0.25256304,0.389339,0.23392358,-0.28635563,0.40678,0.24687208,-0.30545595,0.422635,0.27784481,-0.25759383,0.41306,0.25066299,-0.25015282,0.394733,0.2603317,-0.27462831,0.407844,0.2729833,-0.28821225,0.419377
0.27036961,-0.35739901,0.451581,0.25934086,-0.3018013,0.430232,0.25154055,-0.34739258,0.45125,0.21236179,-0.32683997,0.438584,0.17212195,-0.30388387,0.419838,0.14882567,-0.28388905,0.409862,0.22199387,-0.24772374,0.414174,0.19215955,-0.20964244,0.393192,0.17945207,-0.19295416,0.387645,0.16761481,-0.17739128,0.382604,0.24136456,-0.24349382,0.407513,0.21059078,-0.23128996,0.378908,0.2230615,-0.26871819,0.397603,0.23696689,-0.28458135,0.410956,0.25660217,-0.2448717,0.403789,0.2268702,-0.24442984,0.375316,0.23728664,-0.27299845,0.390704,0.24930615,-0.28811551,0.404693,0.28177353,-0.25357606,0.40264,0.25488191,-0.24134283,0.382141,0.26217728,-0.26510489,0.393701,0.274755,-0.27860465,0.405397
0.29065862,-0.35832751,0.452598,0.27917839,-0.30192843,0.430251,0.27918289,-0.34851115,0.451887,0.2343347,-0.32688319,0.438642,0.19346247,-0.3035806,0.419419,0.17007014,-0.28371995,0.406011,0.24185265,-0.24701557,0.41299,0.21207484,-0.20890932,0.391817,0.20114671,-0.19363659,0.389016,0.19462336,-0.17983309,0.386468,0.26112161,-0.24287061,0.40647,0.23053159,-0.2301143,0.376982,0.24365003,-0.26714482,0.395275,0.25706448,-0.28095152,0.408341,0.27837618,-0.24386162,0.402944,0.2488911,-0.2433279,0.3737,0.25583111,-0.27366962,0.388759,0.26930576,-0.28696232,0.402449,0.30191846,-0.25328825,0.402183,0.27445755,-0.24352644,0.380972,0.28269424,-0.26689104,0.392259,0.29578529,-0.2792976,0.404101
0.29844892,-0.3520507,0.436135,0.29806366,-0.30233228,0.422634,0.29154086,-0.34603973,0.440619,0.25306002,-0.33302612,0.435516,0.21123856,-0.31085369,0.415123,0.18708702,-0.28999969,0.40202,0.27272015,-0.25382797,0.418307,0.24541194,-0.2196035,0.406837,0.23392515,-0.204276,0.405229,0.2231542,-0.18989012,0.403768,0.28786975,-0.24864549,0.408265,0.25667375,-0.23479556,0.386803,0.27090631,-0.27353671,0.406785,0.28767154,-0.29379315,0.421057,0.30099673,-0.24836992,0.401113,0.27033472,-0.24440145,0.37823,0.28002286,-0.27668598,0.39462,0.29583625,-0.29699147,0.40952,0.31822861,-0.25554701,0.394701,0.29164463,-0.24352219,0.381076,0.30068473,-0.26793843,0.393662,0.31358772,-0.28474586,0.403337
0.31501323,-0.36558097,0.446264,0.30875819,-0.31207436,0.433874,0.29322923,-0.3474488,0.442193,0.25046564,-0.3261795,0.42605,0.21679196,-0.30625754,0.410007,0.19611392,-0.28781556,0.397779,0.28310577,-0.25605594,0.419736,0.26540883,-0.25729533,0.402076,0.27375127,-0.27596349,0.419977,0.28781471,-0.30689053,0.43625,0.30716157,-0.26054908,0.420688,0.28594703,-0.243825,0.400999,0.30023925,-0.28514196,0.424067,0.31251212,-0.3078462,0.438429,0.32774547,-0.26836253,0.422492,0.3059254,-0.27043346,0.404093,0.31368236,-0.30483953,0.423189,0.32408625,-0.33173698,0.440549,0.3535641,-0.28553312,0.426525,0.33004935,-0.27687343,0.409403,0.32860472,-0.29606168,0.423649,0.32809185,-0.31336336,0.435199
0.32855628,-0.36911209,0.44956,0.33393517,-0.31494071,0.435521,0.31688454,-0.34932295,0.44436,0.27523781,-0.32676094,0.426296,0.23860219,-0.306327,0.4101,0.21794025,-0.28782569,0.397793,0.3026861,-0.25546786,0.418772,0.28488044,-0.25568082,0.399553,0.29502969,-0.27406121,0.417082,0.31010519,-0.3046169,0.433018,0.32758196,-0.26048281,0.420581,0.3062083,-0.24274086,0.399216,0.32185811,-0.28362301,0.421808,0.33454664,-0.30658091,0.436627,0.34909585,-0.26882748,0.423224,0.32786115,-0.26593404,0.403056,0.33693373,-0.29913866,0.421748,0.3457437,-0.32618198,0.43736,0.37644384,-0.28685928,0.428506,0.35248301,-0.27724404,0.409951,0.35195231,-0.29620773,0.423858,0.35195867,-0.31378242,0.435781
0.35124169,-0.37011473,0.451841,0.34872586,-0.30954372,0.430487,0.33573068,-0.34808158,0.443892,0.29399814,-0.31889022,0.421094,0.25543458,-0.29057407,0.396442,0.23593653,-0.26879056,0.380824,0.30964742,-0.24575589,0.404963,0.29114787,-0.20676314,0.379392,0.30366636,-0.20171055,0.394915,0.31512803,-0.19530906,0.409027,0.33491916,-0.25088423,0.407763,0.31628372,-0.22994545,0.379554,0.33262388,-0.26760548,0.399571,0.34419728,-0.29141698,0.416058,0.35712528,-0.2595286,0.411824,0.33756612,-0.25302308,0.385178,0.34818702,-0.28325426,0.401738,0.35647699,-0.31106926,0.419114,0.38629335,-0.2783103,0.419905,0.37681785,-0.25883722,0.396031,0.38134773,-0.27481736,0.408188,0.38115347,-0.29274806,0.421304
0.37534168,-0.36820016,0.437149,0.37196367,-0.31599768,0.426311,0.35447684,-0.34952745,0.434221,0.3207368,-0.31963143,0.419136,0.28607674,-0.28811653,0.397964,0.26983971,-0.26453446,0.385037,0.34496549,-0.26007168,0.41473,0.33651438,-0.22130802,0.398636,0.34304861,-0.20821028,0.40319,0.34916754,-0.19527074,0.407331,0.36774577,-0.26496234,0.414776,0.36081263,-0.24197734,0.396701,0.38217107,-0.28045379,0.420146,0.39077604,-0.30564068,0.434044,0.38693413,-0.27279677,0.415707,0.37887349,-0.26476384,0.399036,0.39434101,-0.29480403,0.418457,0.39964708,-0.32300449,0.432946,0.41083166,-0.28940792,0.418468,0.41098989,-0.26921463,0.402747,0.42009906,-0.28397674,0.417269,0.41856995,-0.30071768,0.428433
0.44293661,-0.402001,0.496792,0.43346907,-0.34524171,0.473907,0.41727326,-0.37680307,0.486779,0.38764803,-0.35161837,0.46136,0.36163399,-0.32897481,0.44023,0.34819096,-0.30681032,0.428262,0.3948611,-0.27699322,0.444696,0.36791368,-0.27838637,0.417161,0.37941191,-0.29900964,0.431851,0.39267607,-0.3278783,0.445206,0.42266561,-0.28738544,0.449553,0.39936197,-0.2623996,0.419765,0.41344248,-0.28876161,0.438744,0.4218271,-0.31920315,0.455476,0.44716887,-0.30061008,0.455432,0.42194173,-0.27423166,0.426754,0.43477136,-0.30393318,0.442427,0.44895407,-0.33375294,0.460268,0.47889566,-0.32526387,0.465903,0.46137015,-0.30037209,0.440478,0.45116943,-0.29295186,0.428796,0.43637389,-0.29545808,0.418489
0.4429118,-0.39623765,0.494191,0.4425146,-0.33729442,0.473277,0.41574079,-0.36827048,0.481333,0.40962173,-0.32628555,0.467694,0.40397484,-0.29602828,0.454519,0.40648433,-0.27565622,0.444669,0.40736763,-0.26658248,0.441976,0.37867716,-0.26445777,0.413977,0.38986562,-0.2820873,0.428053,0.3958329,-0.30429347,0.440849,0.43844057,-0.28132927,0.45102,0.41996616,-0.25857422,0.422773,0.43443187,-0.29287345,0.441087,0.44375027,-0.32093996,0.457053,0.46521762,-0.29810558,0.460184,0.44420236,-0.27404636,0.431668,0.45824576,-0.30601399,0.446721,0.47270811,-0.33526055,0.464248,0.49872761,-0.32690363,0.474245,0.49417837,-0.2858403,0.44959,0.48593033,-0.28147421,0.438261,0.47304415,-0.2843447,0.428266
0.43673238,-0.37662407,0.472562,0.44453006,-0.32363411,0.45634,0.42348231,-0.35295907,0.463974,0.39533283,-0.32718128,0.44112,0.36243572,-0.2977391,0.41198,0.34646012,-0.27481722,0.393863,0.41158096,-0.25915147,0.433782,0.40473077,-0.22375227,0.41205,0.42889331,-0.21992793,0.428628,0.45187558,-0.21479701,0.443699,0.43957811,-0.26973584,0.439076,0.42580229,-0.22526271,0.41529,0.42414711,-0.20221061,0.407503,0.4391349,-0.21004906,0.419241,0.46376421,-0.28276153,0.444767,0.44761238,-0.26706933,0.421381,0.46631226,-0.30041939,0.439027,0.48158269,-0.32858882,0.455519,0.49435558,-0.30658922,0.453994,0.50538503,-0.2764957,0.436043,0.49595915,-0.27499269,0.427795,0.48250873,-0.27646886,0.420517
0.49050521,-0.38588836,0.484458,0.48679456,-0.33227746,0.468496,0.4693179,-0.36346428,0.479902,0.44028297,-0.33934151,0.461981,0.40433192,-0.31003144,0.435271,0.38605114,-0.28693461,0.418112,0.45800758,-0.27098755,0.451138,0.44768707,-0.23500788,0.430416,0.47162396,-0.23096043,0.447559,0.49415099,-0.22559702,0.463143,0.48174465,-0.27884018,0.451509,0.46338187,-0.23732874,0.42856,0.45274875,-0.21276801,0.415174,0.461397,-0.22101262,0.423517,0.50235074,-0.28956104,0.453127,0.48179629,-0.27349221,0.431953,0.5021316,-0.30728258,0.450264,0.51897512,-0.33554121,0.466129,0.5286294,-0.31053348,0.457488,0.53846533,-0.28052684,0.439762,0.52636298,-0.27837193,0.431618,0.5107291,-0.27929717,0.424432
0.48351419,-0.37613616,0.473141,0.4916563,-0.32749167,0.463596,0.46465225,-0.35538282,0.470449,0.45550622,-0.33920408,0.455882,0.42182536,-0.30458488,0.427652,0.4073006,-0.28129135,0.409804,0.47109481,-0.27043393,0.453257,0.47103388,-0.23561784,0.437968,0.47610518,-0.2200102,0.434738,0.48104665,-0.20528237,0.431801,0.49472895,-0.27893391,0.453438,0.48786715,-0.23157487,0.436579,0.47736972,-0.23560076,0.426744,0.48502269,-0.25917047,0.437513,0.51445439,-0.28980693,0.454373,0.50431477,-0.27827491,0.438764,0.52439577,-0.3131817,0.458405,0.5367217,-0.34015733,0.472554,0.53819727,-0.31013815,0.456942,0.52135406,-0.27018665,0.442119,0.51668661,-0.26655673,0.435308,0.51287266,-0.26762327,0.429298
0.53578002,-0.38352356,0.499255,0.52961922,-0.3299152,0.479996,0.51601776,-0.3614093,0.49552,0.49177756,-0.34779147,0.47828,0.45597748,-0.31963005,0.453656,0.43795875,-0.29908077,0.436241,0.50044785,-0.26771107,0.46124,0.48555261,-0.23189251,0.437778,0.48834742,-0.21830659,0.435083,0.49117641,-0.20534962,0.432633,0.52209508,-0.27545242,0.4595,0.48518048,-0.27232271,0.433891,0.49837709,-0.30828769,0.454771,0.51495447,-0.3228897,0.470588,0.54114974,-0.28621801,0.459652,0.51247637,-0.27441706,0.436703,0.53064944,-0.30693276,0.454045,0.54843334,-0.33304065,0.47024,0.56581717,-0.30742988,0.462779,0.53913792,-0.2654995,0.441745,0.52691843,-0.26165911,0.43208,0.51624054,-0.26278641,0.423553
0.52449605,-0.3761942,0.489036,0.52081229,-0.32449127,0.4702,0.51491687,-0.35867276,0.49259,0.50448316,-0.33910642,0.485845,0.48271245,-0.32592636,0.464781,0.46991395,-0.30838999,0.447429,0.51223999,-0.26872768,0.46081,0.50061129,-0.22697607,0.439157,0.50690491,-0.21114051,0.438811,0.5129175,-0.19606154,0.438496,0.52050632,-0.27350814,0.450155,0.47088068,-0.26653779,0.4273,0.48679974,-0.30112573,0.445173,0.50544656,-0.31431408,0.45905,0.52791932,-0.28167195,0.442938,0.48723708,-0.27674725,0.425163,0.50301039,-0.30706146,0.440157,0.52742056,-0.32105537,0.453324,0.53767854,-0.29942556,0.437264,0.48906429,-0.2875671,0.420317,0.46695721,-0.28212033,0.41253,0.4456954,-0.28068039,0.40566
0.52361624,-0.37829621,0.489785,0.52045495,-0.32679941,0.470209,0.51244012,-0.35838033,0.490788,0.49702958,-0.33532275,0.480142,0.47316788,-0.32100025,0.456554,0.46418494,-0.3072797,0.442148,0.50729718,-0.27213308,0.457107,0.49721945,-0.22948976,0.432632,0.50694273,-0.21588096,0.434616,0.51503222,-0.20309637,0.436419,0.51824616,-0.27983819,0.449375,0.46825676,-0.2663866,0.424917,0.48305485,-0.30109172,0.444067,0.50478426,-0.31561858,0.458925,0.52792706,-0.29049733,0.444624,0.47914908,-0.28360543,0.424514,0.48291813,-0.29788546,0.44052,0.48153495,-0.32462963,0.455035,0.54033003,-0.31134341,0.441987,0.54179163,-0.27280816,0.431907,0.53303629,-0.26201935,0.427276,0.51828587,-0.26418075,0.42319
0.52287505,-0.3791301,0.489878,0.52067306,-0.32816714,0.470481,0.51226792,-0.35895921,0.490896,0.49690871,-0.33544751,0.480279,0.47331809,-0.3212601,0.456599,0.46443781,-0.31064982,0.441347,0.50813376,-0.2724566,0.457529,0.49841654,-0.22987257,0.433128,0.50825181,-0.21624117,0.435055,0.51646134,-0.20343556,0.436807,0.51918029,-0.2802425,0.449839,0.46941817,-0.26722038,0.425529,0.48465252,-0.30189296,0.444771,0.50547985,-0.31679619,0.459605,0.5289035,-0.29095323,0.445106,0.4805273,-0.28404102,0.425118,0.4845524,-0.29832276,0.4412,0.48295622,-0.32384512,0.455695,0.54129136,-0.311833,0.442464,0.54305585,-0.27345621,0.432575,0.53456924,-0.26269292,0.428031,0.52058943,-0.26535389,0.424022
0.52404369,-0.38028116,0.491117,0.52131938,-0.32883866,0.4708,0.51310986,-0.35946618,0.491536,0.49662797,-0.33453493,0.480002,0.47284553,-0.31999248,0.456265,0.46486446,-0.3084703,0.442037,0.50753317,-0.27010134,0.456431,0.49684624,-0.22842979,0.43111,0.50661277,-0.21534014,0.433496,0.51428914,-0.20329258,0.435664,0.51911104,-0.27944622,0.449179,0.468309,-0.26611579,0.423921,0.48053444,-0.30137583,0.442967,0.49651096,-0.32319045,0.458082,0.52934363,-0.29042434,0.444884,0.47996127,-0.28281032,0.423907,0.48394272,-0.29692182,0.439821,0.48335539,-0.32015136,0.454649,0.54253535,-0.31175083,0.442901,0.54393128,-0.27318544,0.432707,0.53533122,-0.26232294,0.428023,0.52311578,-0.26602334,0.42389
0.52378684,-0.3801211,0.490745,0.52172666,-0.32910979,0.470821,0.51333827,-0.35943787,0.49144,0.49720488,-0.33429024,0.480326,0.4733953,-0.3195209,0.456631,0.4656138,-0.30797011,0.44263,0.50867162,-0.27055177,0.457081,0.49866054,-0.22875625,0.43227,0.50781267,-0.2155854,0.434382,0.51468096,-0.20362631,0.436302,0.52015251,-0.27941381,0.449617,0.46990794,-0.2677873,0.424769,0.48155013,-0.30267414,0.443891,0.49848773,-0.32488627,0.458881,0.53018404,-0.29022128,0.445114,0.48136511,-0.28283942,0.424572,0.48548212,-0.29694047,0.440551,0.48475185,-0.3200936,0.45523,0.5430618,-0.31129029,0.442825,0.54492728,-0.27303065,0.433079,0.53660144,-0.26225665,0.428601,0.52464286,-0.2660525,0.42465
0.52168296,-0.3773934,0.487891,0.51982647,-0.32518131,0.468041,0.51234762,-0.35761505,0.489658,0.4969866,-0.33365252,0.480144,0.47035782,-0.31408226,0.460098,0.45662528,-0.29998244,0.443752,0.50626592,-0.26473693,0.455687,0.49200991,-0.22111484,0.431153,0.50205668,-0.20663782,0.433812,0.51096802,-0.19277855,0.436229,0.51651578,-0.27052151,0.446916,0.46453886,-0.2645207,0.422529,0.47132797,-0.29819649,0.441062,0.49141882,-0.32062445,0.455701,0.5258868,-0.27965327,0.441332,0.47668994,-0.27298937,0.421602,0.47815156,-0.29351081,0.437115,0.47875806,-0.31680075,0.451279,0.53847008,-0.29883194,0.43775,0.53764719,-0.2586426,0.428429,0.52128177,-0.2552824,0.424146,0.51451713,-0.26196447,0.420367
0.52252572,-0.37814472,0.488565,0.51876547,-0.32641838,0.467997,0.51161446,-0.35759644,0.489197,0.49292466,-0.33447203,0.477968,0.46889154,-0.31516898,0.45746,0.45979603,-0.30213163,0.43981,0.4939602,-0.26562091,0.453707,0.48004859,-0.22106,0.429175,0.49113973,-0.20675755,0.432938,0.50066662,-0.1933045,0.436359,0.50771882,-0.27064694,0.446107,0.46155467,-0.26439916,0.420725,0.47044819,-0.29915151,0.439511,0.48936506,-0.32097525,0.454589,0.52312216,-0.2790002,0.441546,0.47828956,-0.27338931,0.420563,0.48015,-0.29349324,0.436268,0.47990156,-0.31673293,0.451015,0.53930192,-0.29921727,0.439287,0.53314703,-0.25926962,0.430746,0.52455926,-0.25606729,0.426822,0.51858846,-0.26399568,0.423359
0.52750276,-0.38189902,0.493346,0.52137883,-0.32836099,0.47079,0.51341931,-0.35928846,0.491309,0.49093429,-0.33449034,0.476161,0.46642502,-0.31378296,0.455383,0.45336729,-0.29678727,0.438244,0.49116069,-0.26505665,0.451729,0.47230013,-0.22387461,0.425788,0.48174792,-0.20872493,0.429362,0.49062645,-0.1955413,0.43261,0.50783062,-0.27200767,0.446787,0.46339028,-0.25469562,0.418928,0.47158108,-0.28355789,0.437805,0.47999731,-0.3115473,0.453807,0.52523978,-0.28178467,0.444576,0.47674446,-0.28046713,0.420555,0.48529472,-0.3078855,0.436297,0.50275657,-0.32522896,0.452285,0.54502319,-0.30392038,0.445405,0.53538955,-0.26104779,0.432744,0.52473469,-0.25580826,0.426926,0.51624446,-0.2627181,0.421793
0.52801744,-0.3828377,0.494401,0.51660279,-0.32860458,0.471587,0.51351401,-0.36024296,0.492277,0.48227426,-0.33861668,0.476996,0.45711186,-0.31548151,0.457485,0.44309015,-0.29887942,0.441183,0.48145264,-0.26589311,0.452229,0.46418134,-0.21992152,0.425064,0.47854671,-0.20740661,0.429469,0.48862742,-0.19421521,0.433474,0.49844457,-0.27220798,0.447309,0.45379981,-0.25494832,0.419218,0.46085625,-0.2838485,0.437981,0.46862729,-0.31181312,0.454031,0.51410696,-0.28201223,0.445138,0.46760351,-0.28056682,0.420901,0.47590043,-0.30672067,0.436549,0.49243145,-0.32506122,0.452587,0.53553419,-0.30248314,0.446055,0.52868728,-0.26103678,0.434608,0.51634358,-0.25725904,0.429348,0.50723772,-0.26637601,0.424708
0.52860087,-0.39062605,0.502948,0.50022637,-0.32938203,0.474525,0.49242749,-0.36311744,0.495887,0.46021192,-0.33554045,0.473753,0.43082634,-0.31068079,0.453017,0.41558088,-0.29090456,0.436852,0.46238288,-0.26013128,0.44492,0.48015683,-0.22736018,0.44854,0.48668391,-0.21161442,0.450351,0.49212157,-0.19718713,0.451996,0.48390153,-0.26954183,0.444276,0.43839768,-0.24894035,0.41044,0.44324071,-0.27562534,0.427004,0.45506463,-0.3045517,0.444443,0.50376281,-0.28222751,0.446084,0.45394038,-0.27656683,0.41539,0.45892408,-0.30066902,0.429162,0.47507638,-0.32009424,0.447058,0.53097991,-0.30682598,0.452576,0.51677413,-0.26182483,0.435963,0.50516216,-0.25685961,0.42833,0.49412999,-0.26463264,0.421595
0.51766163,-0.39252981,0.512805,0.49337159,-0.33213611,0.481739,0.49386146,-0.36619448,0.503981,0.46420429,-0.33990012,0.479581,0.43715655,-0.31396351,0.459546,0.42991694,-0.29194757,0.452973,0.45067036,-0.26320998,0.448009,0.45744817,-0.22976159,0.442173,0.46030065,-0.21320098,0.439256,0.46248232,-0.19832119,0.436603,0.47357882,-0.27386699,0.448678,0.42921769,-0.24949746,0.412447,0.43385604,-0.27963333,0.427315,0.4493531,-0.30583644,0.445087,0.49476525,-0.28747812,0.451785,0.44300991,-0.28656279,0.418545,0.44649598,-0.30605544,0.430898,0.46314563,-0.32111779,0.449255,0.52383575,-0.31284647,0.46022,0.50578725,-0.26640682,0.438191,0.49130939,-0.26302401,0.42807,0.47711935,-0.27021113,0.419139
0.51448911,-0.3956217,0.514251,0.48096878,-0.33826937,0.483444,0.48670026,-0.37228849,0.508576,0.45030236,-0.34628863,0.488361,0.42434417,-0.31892766,0.473116,0.41172571,-0.29496241,0.464534,0.4345868,-0.27149995,0.453816,0.45173881,-0.23859505,0.457266,0.46059388,-0.22143792,0.458991,0.46881237,-0.20541773,0.46056,0.45464055,-0.27616242,0.450659,0.41398938,-0.24479058,0.415395,0.41869049,-0.27595779,0.429955,0.43337173,-0.30111229,0.447281,0.47382905,-0.2849033,0.450597,0.42641528,-0.28616064,0.419372,0.43245676,-0.30786772,0.431531,0.449187,-0.32454197,0.448996,0.50148361,-0.30471545,0.455236,0.48514163,-0.2602996,0.439114,0.47351736,-0.25888966,0.431707,0.46410396,-0.26734083,0.425171
0.49682086,-0.39806666,0.511422,0.46520781,-0.33871351,0.482172,0.47360022,-0.37768907,0.506656,0.44268095,-0.34996297,0.494769,0.41616255,-0.32123197,0.478597,0.40316549,-0.29842809,0.465986,0.41818089,-0.27478636,0.454815,0.43254971,-0.2417815,0.459044,0.43996219,-0.22450327,0.461158,0.44683841,-0.20832975,0.46308,0.43737482,-0.27773512,0.451045,0.39585288,-0.24670651,0.41719,0.40094797,-0.27758438,0.432671,0.41571644,-0.30411238,0.449777,0.4559584,-0.28495346,0.450349,0.4107314,-0.28672989,0.420576,0.41788981,-0.31109866,0.433503,0.43519543,-0.32821139,0.45069,0.48309989,-0.30274496,0.454,0.46616218,-0.26017747,0.440978,0.45483835,-0.25665537,0.434996,0.44650858,-0.26319102,0.429717
0.47119165,-0.3896136,0.498753,0.44838004,-0.3365702,0.477752,0.45090927,-0.37170574,0.496585,0.42728326,-0.3517467,0.489917,0.40062227,-0.3218851,0.473753,0.38807351,-0.29723099,0.465334,0.41332587,-0.27737127,0.459667,0.42138953,-0.23935587,0.454617,0.41962628,-0.22592377,0.452093,0.41805129,-0.21311655,0.449798,0.43229856,-0.28094691,0.455403,0.41051178,-0.2259869,0.428759,0.39888652,-0.20936311,0.4211,0.40373918,-0.21714707,0.432646,0.44966617,-0.28830074,0.453622,0.41102262,-0.29435607,0.430494,0.42024795,-0.32116496,0.446944,0.43559212,-0.33698878,0.462855,0.47335331,-0.30543142,0.454724,0.45515659,-0.26216374,0.440164,0.44380637,-0.25299516,0.433475,0.43504948,-0.2587086,0.427572
0.47667604,-0.3972084,0.509877,0.45381403,-0.34299326,0.487029,0.44933023,-0.37884637,0.507034,0.4178349,-0.35431082,0.495166,0.38633745,-0.3279785,0.476551,0.3701864,-0.30522053,0.464853,0.41305519,-0.2849928,0.466751,0.41172981,-0.24390517,0.457271,0.40773568,-0.22937716,0.452531,0.40411579,-0.21568333,0.448222,0.43312861,-0.28838612,0.462715,0.4157333,-0.23431991,0.43438,0.39495376,-0.23443441,0.417852,0.39473692,-0.25417656,0.423008,0.45424043,-0.29431345,0.461273,0.43063669,-0.27301766,0.436551,0.43736203,-0.30323156,0.45237,0.44824974,-0.32462397,0.468672,0.4757998,-0.31184757,0.463059,0.46157833,-0.27002908,0.449909,0.45299241,-0.27087276,0.443866,0.44686442,-0.28127061,0.438535
0.46751941,-0.39885958,0.511672,0.44307404,-0.34497035,0.49031,0.44615189,-0.38076664,0.508623,0.39998111,-0.35423888,0.492133,0.36620069,-0.32890211,0.47484,0.34794909,-0.30754451,0.462197,0.40515831,-0.28594744,0.470865,0.39995882,-0.24410343,0.463655,0.39289186,-0.23502984,0.46005,0.38626239,-0.22640918,0.456773,0.42616545,-0.28851941,0.467576,0.4070897,-0.23566586,0.44039,0.38712635,-0.23814918,0.424532,0.38837169,-0.2587558,0.430467,0.44511161,-0.295022,0.466627,0.4226179,-0.2450362,0.442216,0.43356511,-0.26164418,0.457347,0.4476259,-0.29204358,0.474527,0.47061633,-0.31106609,0.46877,0.45422158,-0.26700729,0.452642,0.4449764,-0.2661537,0.445232,0.43756738,-0.274859,0.438694
0.45097647,-0.39746131,0.509284,0.42754925,-0.3422793,0.488362,0.42818265,-0.38018637,0.505573,0.38349116,-0.35316309,0.488221,0.34873751,-0.32851531,0.47034,0.32978237,-0.30672627,0.458776,0.38661865,-0.2842475,0.468417,0.37937207,-0.24261431,0.461647,0.37199163,-0.23374212,0.458262,0.36503767,-0.22529916,0.455185,0.40869127,-0.28579371,0.466096,0.38796497,-0.23264768,0.4391,0.36937516,-0.23538062,0.423353,0.37183938,-0.25636637,0.429547,0.42869324,-0.2914346,0.465907,0.40441172,-0.24140468,0.441509,0.41223034,-0.25607327,0.453374,0.4280931,-0.28701085,0.471656,0.45578166,-0.30643906,0.468885,0.4369259,-0.26215798,0.45221,0.42786313,-0.26119709,0.444548,0.42134783,-0.26981922,0.437788
0.44124693,-0.39619804,0.511373,0.41563145,-0.33875534,0.487332,0.417,-0.37903489,0.506503,0.37121428,-0.3524939,0.487402,0.33446391,-0.32835683,0.469296,0.31547313,-0.306585,0.459827,0.37195895,-0.28015758,0.463663,0.36537103,-0.24311868,0.46421,0.3614601,-0.22473734,0.464484,0.35750575,-0.20805987,0.464733,0.39449411,-0.28195817,0.461749,0.3656832,-0.23005457,0.43191,0.34742093,-0.23372796,0.414504,0.35084892,-0.25411243,0.419205,0.41498654,-0.28782504,0.462152,0.38341564,-0.24077129,0.435437,0.39181072,-0.25807283,0.447523,0.40997274,-0.28924437,0.465657,0.44288729,-0.30309511,0.466307,0.41765073,-0.25934981,0.445315,0.4071432,-0.25789228,0.435671,0.4002109,-0.26613679,0.42716
0.4331631,-0.3912876,0.504889,0.41219442,-0.33882538,0.486824,0.40994241,-0.37622065,0.501584,0.36655536,-0.35129359,0.485032,0.3272735,-0.32718391,0.468653,0.31207371,-0.30671177,0.460111,0.365957,-0.28590753,0.469479,0.35312658,-0.2426019,0.46007,0.34536595,-0.22462631,0.455366,0.33817823,-0.21945452,0.45109,0.38910163,-0.28487234,0.4676,0.36433545,-0.22979563,0.443106,0.35004877,-0.22846294,0.428819,0.35699838,-0.24996701,0.436304,0.40993397,-0.28819415,0.46754,0.37860383,-0.23797405,0.44564,0.3662278,-0.23386691,0.434435,0.37644624,-0.25500118,0.442684,0.43794471,-0.30001652,0.470233,0.40904716,-0.25826577,0.450061,0.40126568,-0.26081378,0.440793,0.40123681,-0.26935458,0.432615
0.42812239,-0.38838428,0.50011,0.4096047,-0.33724886,0.484339,0.4054737,-0.37424382,0.497658,0.36169015,-0.35008824,0.48249,0.32519858,-0.32497231,0.466235,0.30909103,-0.30481084,0.457772,0.36722406,-0.28506376,0.469734,0.35398606,-0.24249093,0.461296,0.34618624,-0.22814945,0.457077,0.33890483,-0.2204821,0.453242,0.39008709,-0.28381177,0.467556,0.36576839,-0.23010739,0.445234,0.35280943,-0.22920751,0.432213,0.36114242,-0.25119193,0.440652,0.41047666,-0.28689739,0.467061,0.38638457,-0.23554052,0.446697,0.37657358,-0.23457878,0.436279,0.38713718,-0.25781531,0.445377,0.43760049,-0.29832655,0.468887,0.4099622,-0.25802099,0.450407,0.40304064,-0.26029199,0.441916,0.39956451,-0.26846384,0.434423
0.42011697,-0.38594457,0.497418,0.39814193,-0.33436787,0.483463,0.39578716,-0.3710211,0.493228,0.34599136,-0.3429379,0.476052,0.31076635,-0.31839218,0.461464,0.29220429,-0.29763235,0.453576,0.35833139,-0.28009293,0.468029,0.34139336,-0.23874654,0.459998,0.3338857,-0.22989505,0.455982,0.3268196,-0.22148759,0.452332,0.38350697,-0.28061195,0.468611,0.36011814,-0.22770043,0.447503,0.34971253,-0.22709645,0.43519,0.36250773,-0.25196636,0.44432,0.40564128,-0.28515386,0.470239,0.37757594,-0.23616841,0.450607,0.37063201,-0.236724,0.440563,0.38578354,-0.25987416,0.450264,0.43450483,-0.29834534,0.474303,0.41078523,-0.256058,0.459284,0.40479236,-0.25249208,0.452384,0.4029761,-0.26093358,0.446295
0.413452,-0.38211929,0.491826,0.39340276,-0.33245809,0.480372,0.38700046,-0.36838825,0.487234,0.33963288,-0.33906348,0.469959,0.30557649,-0.31515881,0.456957,0.28810051,-0.29545632,0.450778,0.35013025,-0.28004697,0.466274,0.34247072,-0.24142627,0.464492,0.33533502,-0.22674862,0.463601,0.33071091,-0.21245996,0.462791,0.3762784,-0.27989837,0.468184,0.35316308,-0.22800741,0.449249,0.3441741,-0.22115719,0.438204,0.35472987,-0.24032692,0.448186,0.39924329,-0.28378573,0.470698,0.37131904,-0.23551811,0.452697,0.36505932,-0.23303016,0.443487,0.38282862,-0.25850361,0.453957,0.42918128,-0.29602374,0.47543,0.40445508,-0.25479126,0.461067,0.39932985,-0.2497611,0.454467,0.4018979,-0.25986118,0.448644
0.40725521,-0.37832711,0.486234,0.39039378,-0.3316267,0.478471,0.38185898,-0.36578719,0.482927,0.33703008,-0.33806968,0.467913,0.30344243,-0.31420541,0.45542,0.28649202,-0.29488043,0.449921,0.35041523,-0.2823588,0.468673,0.33527976,-0.24092434,0.461082,0.32534468,-0.22595298,0.457287,0.32170141,-0.21102479,0.453837,0.37635489,-0.28173471,0.470208,0.35338778,-0.23282881,0.454865,0.34481158,-0.22159843,0.445915,0.35374904,-0.22846925,0.457212,0.39889373,-0.2850573,0.472111,0.37511993,-0.2381285,0.457498,0.36743529,-0.22623076,0.450022,0.38045809,-0.24278304,0.461877,0.42781297,-0.29626491,0.475554,0.404053,-0.25509994,0.461624,0.39917836,-0.2501377,0.455224,0.39857299,-0.25795699,0.449576
0.40434521,-0.37698678,0.484274,0.38659527,-0.33086447,0.477164,0.37706949,-0.36453324,0.480972,0.33345444,-0.33718111,0.466092,0.30135931,-0.31288174,0.45321,0.28488053,-0.29407708,0.448474,0.34867384,-0.28185077,0.467852,0.33268995,-0.24149408,0.461283,0.32566425,-0.22394169,0.457998,0.32215737,-0.20660778,0.455012,0.37472357,-0.28121222,0.469598,0.3530538,-0.23278088,0.455825,0.34271373,-0.21511433,0.447791,0.34968861,-0.21193924,0.459612,0.39733162,-0.28447983,0.471619,0.37524609,-0.2375819,0.457578,0.36765754,-0.21986116,0.450394,0.37939691,-0.23034225,0.46246,0.42627859,-0.29554341,0.475103,0.40384297,-0.25442757,0.461595,0.39936259,-0.24996705,0.455388,0.39865942,-0.25807537,0.449912
0.39522781,-0.37045194,0.475125,0.38201036,-0.32630164,0.471698,0.37484675,-0.36110521,0.476292,0.33438746,-0.33982253,0.468613,0.29198643,-0.3195305,0.452563,0.2719402,-0.30238063,0.446957,0.34818406,-0.28343996,0.470621,0.33358309,-0.24185882,0.462765,0.32652602,-0.22116546,0.458837,0.32030797,-0.20295666,0.455266,0.36960969,-0.27838034,0.468032,0.34885183,-0.22993464,0.457558,0.33744828,-0.20731545,0.451449,0.34174966,-0.19803608,0.464188,0.38745422,-0.27569939,0.466182,0.37308127,-0.23389584,0.456118,0.36625237,-0.21852835,0.450969,0.37181016,-0.21078134,0.464332,0.41268815,-0.28104461,0.46451,0.39906346,-0.24218832,0.455589,0.39374104,-0.2301344,0.45149,0.38899283,-0.2192033,0.447873
