sluyters/QuantumLeap/backend/src/datasets/dynamic/HandGestureDataset_SHREC2017_csv/Gesture12/finger_1/subject_11_essai_5_skeletons_world.csv
Wrist_x,Wrist_y,Wrist_z,Palm_x,Palm_y,Palm_z,thumb_base_x,thumb_base_y,thumb_base_z,thumb_first_joint_x,thumb_first_joint_y,thumb_first_joint_z,thumb_second_joint_x,thumb_second_joint_y,thumb_second_joint_z,thumb_tip_x,thumb_tip_y,thumb_tip_z,index_base_x,index_base_y,index_base_z,index_first_joint_x,index_first_joint_y,index_first_joint_z,index_second_joint_x,index_second_joint_y,index_second_joint_z,index_tip_x,index_tip_y,index_tip_z,middle_base_x,middle_base_y,middle_base_z,middle_first_joint_x,middle_first_joint_y,middle_first_joint_z,middle_second_joint_x,middle_second_joint_y,middle_second_joint_z,middle_tip_x,middle_tip_y,middle_tip_z,ring_base_x,ring_base_y,ring_base_z,ring_first_joint_x,ring_first_joint_y,ring_first_joint_z,ring_second_joint_x,ring_second_joint_y,ring_second_joint_z,ring_tip_x,ring_tip_y,ring_tip_z,pinky_base_x,pinky_base_y,pinky_base_z,pinky_first_joint_x,pinky_first_joint_y,pinky_first_joint_z,pinky_second_joint_x,pinky_second_joint_y,pinky_second_joint_z,pinky_tip_x,pinky_tip_y,pinky_tip_z,
0.43383944,-0.27987848,0.570489,0.41602395,-0.23014998,0.556947,0.4057141,-0.26456861,0.561873,0.39869861,-0.22985363,0.548651,0.35938581,-0.19916838,0.524672,0.35597096,-0.17813328,0.517145,0.37019954,-0.17696817,0.536036,0.3520805,-0.12859811,0.51449,0.34387058,-0.10523465,0.503717,0.35119658,-0.088356965,0.512743,0.39772455,-0.17854633,0.541891,0.38372136,-0.13452011,0.519066,0.38374625,-0.13854188,0.505752,0.39550233,-0.16017136,0.515029,0.42164094,-0.1832783,0.547741,0.39600707,-0.1341737,0.5237,0.39695836,-0.13609908,0.511399,0.41290155,-0.15932524,0.52128,0.45272942,-0.19554055,0.556675,0.43688301,-0.17217925,0.533636,0.42906667,-0.16150705,0.52305,0.424872,-0.15374282,0.51371
0.43300783,-0.27983897,0.571111,0.41388564,-0.23059185,0.559485,0.40176222,-0.26250239,0.557971,0.39368812,-0.22762061,0.54386,0.35652054,-0.19710823,0.520333,0.35227305,-0.175599,0.511277,0.36140659,-0.17692601,0.534479,0.35360277,-0.12966508,0.514702,0.34642793,-0.10645135,0.504813,0.35155854,-0.089767842,0.512714,0.39191919,-0.18044917,0.546559,0.38762518,-0.13652781,0.525515,0.38954536,-0.13551887,0.513239,0.40079091,-0.16086738,0.521345,0.41845576,-0.18673904,0.557384,0.40500557,-0.14044545,0.532965,0.40556917,-0.13865055,0.520471,0.42428849,-0.16114836,0.528399,0.4528336,-0.20081155,0.571968,0.44343136,-0.19386681,0.549211,0.43190977,-0.20919367,0.538754,0.43262824,-0.22516939,0.544506
0.43319545,-0.2803205,0.572709,0.41163803,-0.23039239,0.560208,0.40163742,-0.26279096,0.559036,0.39296123,-0.2274363,0.543469,0.35603455,-0.19663541,0.519637,0.35107597,-0.17461294,0.509289,0.3608023,-0.1764426,0.533881,0.35133531,-0.12912681,0.513235,0.3455213,-0.10665362,0.502913,0.3506874,-0.089917919,0.510288,0.39154077,-0.18005354,0.54631,0.38528921,-0.1361621,0.524398,0.38771552,-0.13805383,0.511616,0.39940227,-0.15941127,0.519216,0.41832762,-0.18644483,0.557489,0.40652464,-0.14252007,0.532129,0.4104532,-0.14535807,0.519155,0.42677757,-0.16416261,0.526498,0.45312049,-0.2007039,0.572622,0.44319729,-0.19375647,0.54907,0.43160584,-0.20902862,0.538249,0.43213143,-0.22561333,0.54354
0.43519112,-0.28403648,0.5748,0.41054143,-0.24111643,0.560994,0.40312274,-0.26610946,0.56047,0.39220325,-0.23835261,0.544877,0.3588193,-0.20478468,0.5204,0.35473099,-0.18454577,0.511204,0.35991637,-0.18559292,0.532866,0.34692355,-0.13819685,0.509674,0.3418918,-0.11594814,0.498079,0.34894423,-0.10037187,0.502303,0.39086493,-0.18935698,0.545646,0.38244888,-0.14613335,0.522446,0.38769672,-0.14129386,0.508913,0.39859037,-0.16241261,0.515808,0.4179133,-0.19592956,0.557213,0.40405877,-0.1538107,0.530514,0.40911394,-0.15287637,0.516854,0.4245689,-0.1729304,0.523397,0.45318668,-0.21052286,0.572998,0.44245637,-0.20373456,0.548301,0.43066854,-0.21860462,0.536954,0.43087007,-0.23564238,0.541611
0.43213874,-0.28338306,0.571306,0.41318716,-0.24444847,0.563185,0.40124272,-0.26670884,0.557676,0.38933183,-0.24271244,0.536708,0.35265852,-0.21437605,0.514827,0.34776133,-0.19219743,0.504819,0.36663306,-0.19319941,0.540253,0.35892075,-0.149493,0.520553,0.35610327,-0.12842245,0.510703,0.36129589,-0.11194513,0.511806,0.39774558,-0.1944263,0.554157,0.39500185,-0.15552924,0.53681,0.40275778,-0.16156955,0.526691,0.41623589,-0.18374597,0.535266,0.42538482,-0.200912,0.566217,0.41743706,-0.16371288,0.544715,0.42479664,-0.16964268,0.533714,0.44154061,-0.19302218,0.541933,0.46074514,-0.21523313,0.581762,0.4558664,-0.21477354,0.561827,0.44536502,-0.23088475,0.552667,0.44557653,-0.2464957,0.558746
0.43072053,-0.29685851,0.575342,0.41553487,-0.25782561,0.564958,0.4000285,-0.280204,0.561743,0.38898146,-0.252761,0.536225,0.35518139,-0.22608707,0.51851,0.35166316,-0.20457006,0.510483,0.36669074,-0.20322317,0.540338,0.35765483,-0.15905003,0.518717,0.3548982,-0.13897432,0.507907,0.36029695,-0.12449048,0.50772,0.39800114,-0.20634566,0.553414,0.39270237,-0.16498824,0.533685,0.39930519,-0.17071947,0.522176,0.41238587,-0.19275634,0.530315,0.42516564,-0.21239943,0.564965,0.41494875,-0.17313988,0.541468,0.42123781,-0.1766091,0.529446,0.43855524,-0.19503683,0.537295,0.46016126,-0.22635229,0.580232,0.45309628,-0.22399837,0.558413,0.4419168,-0.23938052,0.548388,0.44296178,-0.25812179,0.554122
0.43194989,-0.30548928,0.577366,0.41398405,-0.26096726,0.563824,0.40046027,-0.29333902,0.563257,0.38976883,-0.26226746,0.536618,0.35431392,-0.23490796,0.516755,0.35108497,-0.21400923,0.509338,0.36379842,-0.20808233,0.536169,0.35457397,-0.16429613,0.512838,0.35037156,-0.1427144,0.501172,0.35568656,-0.1245133,0.502328,0.39517765,-0.21118578,0.548769,0.39056454,-0.17663774,0.525823,0.39374162,-0.17190878,0.512438,0.40748231,-0.19222674,0.519528,0.42246141,-0.21735667,0.560169,0.41168663,-0.17873271,0.533769,0.41467632,-0.18724194,0.520262,0.43012789,-0.20949397,0.527037,0.45770494,-0.23171273,0.575714,0.44750205,-0.23203936,0.551262,0.43506357,-0.24552123,0.540027,0.43608218,-0.26351695,0.544864
0.41244221,-0.30075558,0.555008,0.40056567,-0.25862839,0.54833,0.38379152,-0.2839774,0.542516,0.37082511,-0.24696958,0.518853,0.36812006,-0.21534116,0.50142,0.37057988,-0.19473987,0.497621,0.35866933,-0.20415163,0.527895,0.35365605,-0.16344056,0.509142,0.35145169,-0.14285162,0.499766,0.35620011,-0.12640145,0.500204,0.38964951,-0.20923697,0.540906,0.3991247,-0.18123212,0.52499,0.40818198,-0.17851457,0.515705,0.42286558,-0.19983154,0.525227,0.41607347,-0.21679243,0.552121,0.4267164,-0.19524354,0.532275,0.42992085,-0.1964283,0.522121,0.44621035,-0.2105178,0.531462,0.44819278,-0.23661257,0.56645,0.44640136,-0.23140735,0.547883,0.44017174,-0.24775388,0.539353,0.44112367,-0.26599879,0.546308
0.41099698,-0.31024334,0.555392,0.40273429,-0.27582138,0.548368,0.38037983,-0.29390154,0.540609,0.37305505,-0.2601326,0.514915,0.3666201,-0.22523001,0.491306,0.36619485,-0.20314784,0.483512,0.36121764,-0.21685698,0.524857,0.35509563,-0.17449781,0.503634,0.35211824,-0.15298886,0.493023,0.35907649,-0.13688705,0.496671,0.39318408,-0.22541208,0.54056,0.40485643,-0.19550687,0.52455,0.41545962,-0.19336307,0.515211,0.4290916,-0.21470191,0.523162,0.4203488,-0.23588428,0.554016,0.43325879,-0.21081889,0.533199,0.43725093,-0.21229503,0.522548,0.45322279,-0.22614646,0.52988,0.45432694,-0.25501262,0.571065,0.4564453,-0.25033028,0.551985,0.44783004,-0.26567477,0.543219,0.4511271,-0.28530879,0.548674
0.39939666,-0.31868926,0.537378,0.39518588,-0.28254906,0.536919,0.37130257,-0.29839317,0.523928,0.36661645,-0.26714429,0.501223,0.36213956,-0.23537074,0.480799,0.36206166,-0.21314997,0.47128,0.35686811,-0.22689871,0.52005,0.35736961,-0.18965758,0.504497,0.35786901,-0.17035822,0.49672,0.36905893,-0.15686669,0.504093,0.38925034,-0.2368562,0.536408,0.40908232,-0.21528445,0.527439,0.42328189,-0.21725126,0.522207,0.43673053,-0.24104351,0.531806,0.41655542,-0.24818135,0.549901,0.43400432,-0.22247396,0.535581,0.44387143,-0.20868176,0.528254,0.45944549,-0.22685543,0.537262,0.45028028,-0.26775841,0.566043,0.45822466,-0.26055083,0.552904,0.45388382,-0.27761692,0.546867,0.46019554,-0.29877488,0.553764
0.39755366,-0.34164097,0.530672,0.39422015,-0.3008107,0.533137,0.36964516,-0.32108845,0.517875,0.36509499,-0.28502061,0.49665,0.36007421,-0.25305426,0.475649,0.36005363,-0.23101927,0.466316,0.35813172,-0.24638913,0.519299,0.36054093,-0.21084294,0.506379,0.3620443,-0.1922935,0.499919,0.37373268,-0.17979795,0.507807,0.39065809,-0.25660473,0.535876,0.41307119,-0.23760187,0.530126,0.42895943,-0.24117812,0.526772,0.4430136,-0.2660573,0.536979,0.41792772,-0.26805415,0.549327,0.43786079,-0.24454341,0.538007,0.44913841,-0.23183519,0.532216,0.46530637,-0.24904806,0.541838,0.45127203,-0.28759875,0.564995,0.46156329,-0.28280614,0.554609,0.45825023,-0.3003069,0.549837,0.46503449,-0.3220631,0.557276
0.39828403,-0.35295337,0.533272,0.39264321,-0.31849918,0.531751,0.36872971,-0.3413675,0.519593,0.36511765,-0.30553248,0.496372,0.35862539,-0.27269028,0.473225,0.35824276,-0.25050503,0.463286,0.3551711,-0.26095421,0.513791,0.35727833,-0.22242266,0.497298,0.35854701,-0.20267584,0.489051,0.37140766,-0.19135492,0.495724,0.3878228,-0.27080959,0.530059,0.40665791,-0.25374671,0.519935,0.41910229,-0.24313278,0.514029,0.43470606,-0.26268475,0.523387,0.41529998,-0.28219047,0.543561,0.43170609,-0.25831997,0.528167,0.44103292,-0.24558213,0.520292,0.45626683,-0.26373689,0.529055,0.44907796,-0.30209998,0.559866,0.45568593,-0.30041745,0.545743,0.45123348,-0.31601295,0.539254,0.45767636,-0.33679837,0.545938
0.39256293,-0.36236541,0.5249,0.39091767,-0.32544557,0.525997,0.36443638,-0.34025781,0.510579,0.36578195,-0.30680969,0.487802,0.36466442,-0.27392624,0.466525,0.37204885,-0.25616735,0.45502,0.35508355,-0.26743099,0.509246,0.36154888,-0.23277504,0.494697,0.36514522,-0.21485477,0.487422,0.37859381,-0.2035256,0.493777,0.38727959,-0.27977197,0.527217,0.41390111,-0.27117936,0.520267,0.43125648,-0.26588484,0.516213,0.44586982,-0.28783833,0.52504,0.4142497,-0.29306055,0.541919,0.43676056,-0.27642162,0.529003,0.44942838,-0.26756583,0.522395,0.46349757,-0.28810852,0.530364,0.4472232,-0.31497464,0.559275,0.46062625,-0.31087104,0.547665,0.45602198,-0.32767761,0.542331,0.46110459,-0.34899359,0.5485
0.39131038,-0.36615849,0.523568,0.38772577,-0.33223315,0.523603,0.36405958,-0.34827644,0.508566,0.36359095,-0.31508478,0.484964,0.36151553,-0.28170559,0.462525,0.3683869,-0.26352936,0.450672,0.35188432,-0.27306669,0.505205,0.35788755,-0.23995495,0.489576,0.36127653,-0.22283267,0.481761,0.3744117,-0.21245928,0.487416,0.38441308,-0.28529299,0.523642,0.41024871,-0.27913553,0.515656,0.42711752,-0.2754415,0.510998,0.44070814,-0.29816994,0.519163,0.41165312,-0.2985777,0.538807,0.43360674,-0.2829346,0.524754,0.44595785,-0.27466218,0.517564,0.45935629,-0.29574519,0.524765,0.44490915,-0.32066369,0.55687,0.45788941,-0.31924694,0.544309,0.45323378,-0.3352282,0.538538,0.45809347,-0.35574923,0.544104
0.39246966,-0.38202593,0.522389,0.39082318,-0.34273244,0.518574,0.36409421,-0.35846704,0.506568,0.36332744,-0.32688074,0.481088,0.36359394,-0.29545198,0.456658,0.37190432,-0.28332286,0.442583,0.3534321,-0.28069013,0.496234,0.35575983,-0.24698293,0.477185,0.35724532,-0.22966613,0.467661,0.3691681,-0.219787,0.472257,0.3861727,-0.29259904,0.514332,0.40789955,-0.28980681,0.502137,0.42217878,-0.28839338,0.495023,0.43373705,-0.31234033,0.502351,0.41369213,-0.30582721,0.529513,0.43187072,-0.29334805,0.511555,0.44219197,-0.28689582,0.502366,0.45343939,-0.30980002,0.508723,0.44748143,-0.32824975,0.548153,0.45639821,-0.32851117,0.532008,0.44917494,-0.34266219,0.52459,0.45255447,-0.36221789,0.529416
0.39088111,-0.39527785,0.516998,0.38730547,-0.36072697,0.515836,0.36310229,-0.38178083,0.500839,0.35951015,-0.34306428,0.476123,0.36094403,-0.31198633,0.452328,0.37021796,-0.3001091,0.439845,0.35117706,-0.29975906,0.495105,0.35904731,-0.26889034,0.478206,0.36341403,-0.25300677,0.469756,0.37720121,-0.24445222,0.474057,0.3835037,-0.31235172,0.514545,0.41166263,-0.30554203,0.505573,0.42985864,-0.30150086,0.50034,0.44648077,-0.32395263,0.507256,0.41058542,-0.32602289,0.530627,0.43354044,-0.31729169,0.515313,0.44632219,-0.31333595,0.507478,0.46063068,-0.33511488,0.513207,0.44366597,-0.34872953,0.549955,0.45788974,-0.35043637,0.536437,0.45410059,-0.36626863,0.530226,0.45690925,-0.38605308,0.534661
0.39081262,-0.41560805,0.51703,0.38744878,-0.38088231,0.51555,0.36314768,-0.40211466,0.500752,0.35961279,-0.36338716,0.475849,0.36108468,-0.3321382,0.451928,0.37032016,-0.31970225,0.43938,0.35141751,-0.31922277,0.494429,0.35927122,-0.28914678,0.477235,0.36363297,-0.27369767,0.468638,0.37745871,-0.26613488,0.472817,0.38376833,-0.33200093,0.513904,0.41173231,-0.32658976,0.504603,0.42980134,-0.32346305,0.499177,0.4461666,-0.34664109,0.505968,0.41086329,-0.34585269,0.53004,0.43359269,-0.33826029,0.5144,0.44624089,-0.33495189,0.506397,0.46029108,-0.35772446,0.51199,0.44394291,-0.36883114,0.549478,0.45788665,-0.37173551,0.535672,0.45379017,-0.38718017,0.529328,0.45634652,-0.40683731,0.533652
0.39035033,-0.44342438,0.510169,0.38827875,-0.39959426,0.510576,0.36314818,-0.41960952,0.494534,0.36031879,-0.38087519,0.470717,0.36210077,-0.34919317,0.447393,0.37155955,-0.33650086,0.435345,0.35374414,-0.3386393,0.491685,0.36303064,-0.30937803,0.47624,0.36815761,-0.2943064,0.468518,0.38268518,-0.2874908,0.47331,0.38603045,-0.35188767,0.511028,0.41589913,-0.34799453,0.503724,0.4352427,-0.34578497,0.499463,0.45250989,-0.3700896,0.506891,0.41296705,-0.3660467,0.526911,0.43755405,-0.35969374,0.513218,0.45128442,-0.35705462,0.506212,0.46635229,-0.38106917,0.5125,0.44565565,-0.38923773,0.545775,0.46136186,-0.39345317,0.533707,0.45664732,-0.40891412,0.528162,0.4578465,-0.42772709,0.533058
0.39161789,-0.45020738,0.509151,0.38987629,-0.41198867,0.507517,0.36399287,-0.42622191,0.493438,0.36121668,-0.39436048,0.468788,0.36211601,-0.36225718,0.445163,0.3709006,-0.34828158,0.432044,0.35318151,-0.34947355,0.486972,0.35969915,-0.31960169,0.469758,0.36338646,-0.30427077,0.461151,0.37734021,-0.29822993,0.466073,0.38572243,-0.36231232,0.505699,0.41232954,-0.35770478,0.495994,0.42965594,-0.3551417,0.490333,0.44680197,-0.37999776,0.497784,0.41301922,-0.3762511,0.521232,0.43289727,-0.37655072,0.505445,0.44410521,-0.37762394,0.497368,0.4560791,-0.40478261,0.503769,0.44643274,-0.39941829,0.539974,0.45917945,-0.40307281,0.525896,0.4538228,-0.41753641,0.519428,0.45541133,-0.43624165,0.52435
0.38723297,-0.44780764,0.501458,0.38669264,-0.41035117,0.502482,0.36161847,-0.42985833,0.485644,0.36449342,-0.39003384,0.461997,0.36491257,-0.35383551,0.44057,0.37287424,-0.33777871,0.429054,0.35169356,-0.34935186,0.483841,0.36523336,-0.32315689,0.468915,0.37214194,-0.30858304,0.461452,0.38721239,-0.30165023,0.464799,0.38415385,-0.36293276,0.50362,0.40985039,-0.33555753,0.497147,0.43009084,-0.34056601,0.493371,0.44554377,-0.36506424,0.500508,0.41126469,-0.37733988,0.519814,0.43518142,-0.37973997,0.506777,0.45014847,-0.38565034,0.500106,0.46045398,-0.40969363,0.506019,0.44421099,-0.40079065,0.53896,0.46122606,-0.40565524,0.527572,0.45658042,-0.42116774,0.522339,0.45798793,-0.44025396,0.526973
0.38754155,-0.45266417,0.496034,0.38615385,-0.41335043,0.498536,0.36047161,-0.42895374,0.480665,0.36746215,-0.3898603,0.45787,0.36501426,-0.35165365,0.438233,0.36880003,-0.33164617,0.432561,0.35126409,-0.35684971,0.481568,0.36762993,-0.33017684,0.46803,0.37639135,-0.31647357,0.461261,0.39396852,-0.31107262,0.466035,0.38253748,-0.37080181,0.501317,0.41015126,-0.34363314,0.496463,0.43234496,-0.35396298,0.493632,0.44819582,-0.3793773,0.501141,0.40880047,-0.3854193,0.517374,0.43626126,-0.38268987,0.505892,0.45027347,-0.39150464,0.500017,0.46422087,-0.41561508,0.506326,0.44106545,-0.40892316,0.536142,0.46131749,-0.40770346,0.526163,0.45709005,-0.42386334,0.521578,0.45862207,-0.44215797,0.52655
0.39029258,-0.45915149,0.49415,0.39071477,-0.42608166,0.497042,0.36591353,-0.43999844,0.479413,0.36912382,-0.40171944,0.457102,0.37569632,-0.36891229,0.43396,0.38051329,-0.34741457,0.426255,0.35454022,-0.36605224,0.48115,0.36934325,-0.33940564,0.46806,0.37778294,-0.32634349,0.461515,0.39563851,-0.32217364,0.467101,0.38649041,-0.37986501,0.500258,0.41148716,-0.35450672,0.495608,0.43052107,-0.36434821,0.492896,0.44118253,-0.39191495,0.501142,0.41326418,-0.39436192,0.515758,0.44056648,-0.39224593,0.504674,0.45048262,-0.40559087,0.499003,0.45887478,-0.43623145,0.506189,0.44602456,-0.41772375,0.533805,0.46757477,-0.41309311,0.524064,0.47850396,-0.41106954,0.519589,0.49784332,-0.41695507,0.525226
0.39692209,-0.46668169,0.495937,0.39493319,-0.42650333,0.498175,0.36997808,-0.44376916,0.482198,0.37167142,-0.40342561,0.460229,0.37624836,-0.36892325,0.43643,0.3776802,-0.34338671,0.431899,0.36228113,-0.36670556,0.483008,0.37263164,-0.34186298,0.469592,0.38055042,-0.3296549,0.462884,0.39924467,-0.32737074,0.469788,0.39466854,-0.37922041,0.500663,0.41928689,-0.35851023,0.494886,0.43487695,-0.37669093,0.491516,0.44498014,-0.40534154,0.500875,0.4217805,-0.39268893,0.515018,0.44919735,-0.39410091,0.503323,0.46255009,-0.40727294,0.49734,0.47408134,-0.43612926,0.505916,0.45488105,-0.41490077,0.531795,0.46638781,-0.41051622,0.521242,0.47504358,-0.40833288,0.516393,0.49356384,-0.41515517,0.523047
0.39934908,-0.4682812,0.496819,0.39966513,-0.42642217,0.498473,0.37191803,-0.44501172,0.482754,0.37255812,-0.40340044,0.460352,0.37615302,-0.36811029,0.435995,0.38107227,-0.34728647,0.430028,0.36310963,-0.36642117,0.482461,0.3751841,-0.34264962,0.468455,0.38247911,-0.33132786,0.461452,0.39925355,-0.32755144,0.468046,0.39566915,-0.37908444,0.500311,0.42340464,-0.36375414,0.49394,0.43725472,-0.38427389,0.490223,0.44435387,-0.40818584,0.499286,0.42296309,-0.39271406,0.514872,0.44952899,-0.39137164,0.502547,0.46224491,-0.4048056,0.496241,0.47166543,-0.43266212,0.504476,0.45635312,-0.41519828,0.531979,0.46746825,-0.4103387,0.520885,0.47499658,-0.4085081,0.515788,0.49224172,-0.41592157,0.522172
0.39845773,-0.46642099,0.497588,0.39771505,-0.42634747,0.498655,0.37307663,-0.4457279,0.483493,0.37130294,-0.40314489,0.460853,0.37587992,-0.36839672,0.436073,0.38064013,-0.34727344,0.429332,0.36260671,-0.36554598,0.48216,0.37305141,-0.34094802,0.46765,0.38033169,-0.32894156,0.460396,0.39866504,-0.32705189,0.467011,0.39503632,-0.37810328,0.499843,0.42011304,-0.36037564,0.492792,0.4348132,-0.38222915,0.488679,0.44248505,-0.40772562,0.497728,0.42225567,-0.39167659,0.51431,0.44851232,-0.38749841,0.50139,0.46100158,-0.40049378,0.49478,0.4705023,-0.43007064,0.503025,0.45563564,-0.41415472,0.531391,0.4699353,-0.40646039,0.519729,0.47792199,-0.40020829,0.514371,0.49259878,-0.41123666,0.520745
0.39867799,-0.46657019,0.497308,0.39764738,-0.42601331,0.498652,0.37284555,-0.44539834,0.483134,0.37169229,-0.40468987,0.465279,0.37963307,-0.37253007,0.44212,0.3858151,-0.35188039,0.437187,0.3607843,-0.36559641,0.48227,0.37309331,-0.34102174,0.467971,0.38035308,-0.32909526,0.460821,0.3985309,-0.32719824,0.467321,0.39474715,-0.37799454,0.500147,0.42028349,-0.36102852,0.493443,0.43445618,-0.38264281,0.489532,0.44230526,-0.40879037,0.498498,0.4221101,-0.3916925,0.514752,0.44819184,-0.38777615,0.502102,0.46090613,-0.40071946,0.495629,0.47073806,-0.43008496,0.503757,0.45563803,-0.41430081,0.531958,0.46941505,-0.40715179,0.520572,0.47620174,-0.40338147,0.515341,0.49277293,-0.41261961,0.521637
0.39940315,-0.46642873,0.497119,0.39783362,-0.42391605,0.497325,0.37267799,-0.44435109,0.482107,0.37242849,-0.40169792,0.465058,0.37940343,-0.36948587,0.441824,0.38433968,-0.34967146,0.43625,0.35722181,-0.3626029,0.479047,0.36834765,-0.3363774,0.463561,0.37430718,-0.3228491,0.455817,0.39227672,-0.31927638,0.461443,0.38962682,-0.37402168,0.497555,0.41516285,-0.35597741,0.489775,0.42904888,-0.37603787,0.485238,0.43596278,-0.40290951,0.493385,0.41716009,-0.3876158,0.512766,0.44227238,-0.37866277,0.498887,0.45620113,-0.38916872,0.491785,0.46623592,-0.42145723,0.498958,0.44928025,-0.40780866,0.530859,0.46542402,-0.39633898,0.518468,0.47258074,-0.39333492,0.512774,0.49029802,-0.40396666,0.518325
0.3983869,-0.46344386,0.492183,0.39454286,-0.41972551,0.493039,0.37043071,-0.4406038,0.47821,0.37863116,-0.40529462,0.474534,0.38713706,-0.3740012,0.458669,0.39762205,-0.35604676,0.463832,0.3518547,-0.36047064,0.47653,0.35965487,-0.33307828,0.461879,0.36488275,-0.31940426,0.454554,0.38126192,-0.31610368,0.461321,0.38421784,-0.37023069,0.493989,0.40876249,-0.36536817,0.486656,0.41354972,-0.39077665,0.482379,0.41760474,-0.4170573,0.491546,0.41144384,-0.38228363,0.508289,0.43365494,-0.36865154,0.495173,0.44759026,-0.37914777,0.488462,0.45888014,-0.40872576,0.496863,0.4455703,-0.40280152,0.525201,0.45491992,-0.39761037,0.513324,0.45668916,-0.40525823,0.507867,0.45959911,-0.42975835,0.514351
0.39773494,-0.46138658,0.492898,0.39463092,-0.40844527,0.494762,0.37116438,-0.44035644,0.480841,0.36937825,-0.39446231,0.471615,0.37770847,-0.36526504,0.455963,0.38958573,-0.3483959,0.458227,0.3517939,-0.35293481,0.481377,0.35973164,-0.32874905,0.468245,0.36338964,-0.31643294,0.461679,0.37900203,-0.31489957,0.470305,0.38664392,-0.36211717,0.496835,0.40732398,-0.36012169,0.490251,0.4103082,-0.38648041,0.48641,0.41571203,-0.41360237,0.497195,0.41476814,-0.373239,0.509411,0.43355034,-0.36335003,0.497659,0.44427895,-0.37748528,0.491646,0.46058246,-0.40996535,0.502031,0.44987921,-0.3926001,0.524123,0.45307732,-0.39034085,0.513178,0.45204279,-0.39891434,0.508149,0.45488618,-0.42431493,0.516137
0.39457873,-0.45074993,0.486715,0.38895475,-0.40375691,0.49152,0.36413854,-0.42681403,0.475865,0.35798106,-0.38333404,0.465129,0.36661637,-0.35307671,0.449938,0.37219285,-0.33216694,0.445746,0.34796531,-0.34813728,0.48186,0.35612587,-0.3243987,0.471626,0.36080649,-0.31189847,0.466509,0.37688142,-0.30959938,0.476098,0.38069849,-0.35816313,0.496862,0.40347829,-0.35597728,0.493453,0.40793963,-0.38375358,0.491465,0.41401951,-0.41240226,0.503218,0.40830367,-0.36935144,0.508838,0.42937903,-0.35943544,0.500267,0.44331978,-0.37250393,0.495881,0.45945749,-0.40390492,0.507346,0.44238581,-0.38844547,0.522409,0.44756102,-0.3858259,0.514291,0.4474711,-0.39436116,0.510561,0.45093077,-0.42052954,0.519438
0.3909018,-0.43816674,0.484181,0.38473362,-0.39039007,0.4901,0.36014595,-0.41491556,0.473477,0.35494933,-0.37077897,0.460465,0.3605502,-0.33911417,0.441253,0.36452676,-0.32131239,0.435634,0.34768368,-0.33795484,0.48147,0.3565744,-0.31440414,0.47222,0.36164643,-0.30194232,0.467595,0.3777886,-0.29906052,0.477244,0.38056057,-0.34803215,0.496682,0.40436791,-0.34593031,0.494541,0.40945613,-0.37413243,0.493292,0.41561481,-0.40278217,0.505157,0.40822904,-0.35919097,0.508745,0.43027938,-0.34942691,0.501316,0.44478058,-0.36269357,0.497515,0.46101786,-0.39401426,0.509069,0.44225879,-0.37811189,0.522259,0.44836339,-0.37557408,0.515213,0.44871125,-0.38415007,0.511976,0.45224423,-0.41015932,0.520951
0.38953518,-0.43477422,0.487258,0.38556139,-0.38962166,0.491836,0.36190938,-0.41542698,0.4781,0.35781999,-0.37469068,0.467794,0.36103226,-0.34412282,0.452369,0.36942324,-0.32368776,0.444942,0.35039397,-0.33710626,0.484081,0.35595041,-0.31558618,0.474426,0.35534022,-0.30513625,0.469598,0.36895288,-0.30525479,0.480567,0.3823628,-0.34583883,0.496926,0.39823494,-0.34117382,0.493065,0.39926431,-0.36924791,0.490813,0.41051606,-0.39884009,0.503656,0.41148253,-0.35391583,0.507145,0.42643767,-0.34709417,0.498849,0.43483994,-0.36286255,0.494605,0.45561559,-0.39399531,0.5075,0.44508458,-0.37227473,0.518655,0.44384355,-0.37101211,0.510499,0.44151237,-0.38035966,0.506751,0.44511218,-0.40664581,0.516681
0.3891631,-0.42790998,0.488939,0.3861257,-0.37869246,0.493523,0.36185455,-0.40874717,0.480355,0.35886789,-0.36627309,0.473087,0.36527695,-0.33753025,0.458164,0.37164532,-0.31720294,0.452732,0.35254987,-0.32645028,0.486476,0.35512167,-0.3062363,0.477109,0.35684608,-0.29547767,0.472426,0.37069418,-0.29478671,0.48381,0.38482551,-0.3348711,0.498618,0.39898392,-0.33091096,0.494725,0.40016802,-0.35891152,0.492455,0.40798229,-0.38616732,0.505619,0.41190149,-0.34478834,0.508258,0.42517059,-0.33597037,0.500164,0.43550069,-0.35188159,0.496023,0.4527871,-0.3843884,0.509345,0.44497222,-0.36248074,0.519078,0.44330821,-0.3587501,0.511016,0.43884184,-0.36881109,0.507313,0.44203994,-0.39486653,0.517559
0.38233914,-0.42105595,0.487451,0.37170372,-0.37597793,0.492723,0.35475886,-0.40104325,0.48223,0.34771063,-0.36631785,0.477027,0.35094453,-0.33421032,0.458219,0.36355996,-0.31903863,0.460169,0.33918747,-0.32990191,0.490332,0.33456143,-0.31339607,0.483358,0.33225899,-0.30451357,0.479871,0.34168925,-0.30633525,0.493328,0.36920692,-0.3339669,0.498585,0.37112849,-0.32740879,0.495439,0.37674334,-0.35445015,0.493604,0.39062405,-0.38309854,0.508341,0.39462332,-0.34011437,0.504972,0.39202065,-0.33459387,0.498881,0.38779376,-0.35229576,0.495764,0.39654304,-0.38659375,0.511214,0.4261234,-0.35303074,0.511817,0.41685266,-0.3403748,0.505137,0.41824003,-0.3561736,0.502068,0.43282171,-0.38312996,0.513902
0.3346088,-0.3741391,0.451972,0.34415652,-0.34784329,0.468805,0.3141448,-0.36280945,0.452705,0.3083523,-0.32996186,0.453797,0.30500255,-0.30010642,0.452431,0.31177314,-0.28144058,0.453378,0.32754679,-0.31678982,0.482545,0.33116801,-0.3003284,0.488326,0.33295796,-0.29073793,0.491216,0.34322545,-0.29378943,0.507803,0.35491933,-0.32064503,0.48752,0.36614617,-0.31120397,0.497615,0.37378087,-0.34328439,0.503504,0.38862328,-0.37823077,0.521184,0.37704504,-0.32565,0.490329,0.38468812,-0.31478562,0.497984,0.38431921,-0.33379387,0.501901,0.39452253,-0.37127145,0.520795,0.40260008,-0.3352458,0.491233,0.40272687,-0.32640065,0.496807,0.40745245,-0.34412261,0.499368,0.42350955,-0.37385659,0.514079
0.37843112,-0.41601761,0.500857,0.35503604,-0.35972659,0.496655,0.34144603,-0.38999617,0.489847,0.32707893,-0.35581363,0.47683,0.3133797,-0.32422643,0.463077,0.30862373,-0.30089919,0.455939,0.30530694,-0.30935232,0.479929,0.30073956,-0.27626209,0.464895,0.29859963,-0.25904372,0.457378,0.30984513,-0.26102521,0.467263,0.33623024,-0.31125416,0.491983,0.33871506,-0.29446463,0.478616,0.34210428,-0.31591179,0.470818,0.35700894,-0.34673693,0.481589,0.36329749,-0.316023,0.502222,0.36526293,-0.30127575,0.48512,0.36545372,-0.31383346,0.47637,0.37187877,-0.34449644,0.48716,0.39856601,-0.32798885,0.515029,0.39309278,-0.32462837,0.49881,0.39256215,-0.33131872,0.491358,0.40451548,-0.35499277,0.499462
0.38593832,-0.4143773,0.518038,0.36017866,-0.36456473,0.504655,0.35398539,-0.40105066,0.506135,0.34271608,-0.37497921,0.49718,0.32236669,-0.3443183,0.477093,0.31393339,-0.32355744,0.470206,0.30150563,-0.31587223,0.479829,0.28428391,-0.27210911,0.458671,0.27564397,-0.25000696,0.448092,0.28035955,-0.24459451,0.453699,0.33238647,-0.31128172,0.489776,0.31763987,-0.28149941,0.466925,0.32106611,-0.29547968,0.453595,0.33597719,-0.3193171,0.461817,0.35837765,-0.31373551,0.498981,0.34897747,-0.28626979,0.473549,0.34883521,-0.28791304,0.460537,0.36089733,-0.31578881,0.468833,0.39072445,-0.32097603,0.511889,0.38296577,-0.31556092,0.487999,0.3773336,-0.31071515,0.477022,0.38661823,-0.32900947,0.482987
0.3936054,-0.42176516,0.530769,0.3634342,-0.36890575,0.51294,0.36023615,-0.40613454,0.517389,0.34480856,-0.37835113,0.500825,0.32292111,-0.34953247,0.476984,0.3130537,-0.32611942,0.468473,0.30200615,-0.31787742,0.48291,0.28327415,-0.27375536,0.460427,0.27250237,-0.25501399,0.449186,0.27876368,-0.24729393,0.456054,0.33102443,-0.31512874,0.493119,0.31206561,-0.28529282,0.465864,0.31188575,-0.29730781,0.449965,0.32421929,-0.32008365,0.456149,0.35746034,-0.31639328,0.502878,0.34641072,-0.28793166,0.473174,0.34060931,-0.29943909,0.457977,0.34929342,-0.32708001,0.464043,0.3937364,-0.32481225,0.517091,0.3592811,-0.29067149,0.489459,0.34798742,-0.27977631,0.476763,0.34578344,-0.28006771,0.465561
0.37745025,-0.40760637,0.514605,0.34185643,-0.35937638,0.50115,0.34182556,-0.39328712,0.503644,0.32584082,-0.36957846,0.488828,0.30385682,-0.3400542,0.464641,0.29586259,-0.32251412,0.458786,0.28774348,-0.31287683,0.477428,0.27168765,-0.2693038,0.458479,0.26381952,-0.24769971,0.449005,0.26454499,-0.23508214,0.453699,0.31578746,-0.31007984,0.486193,0.29023152,-0.26612716,0.463291,0.29180422,-0.27396005,0.449932,0.30556993,-0.29696532,0.458509,0.34089461,-0.31108361,0.49443,0.32237329,-0.26524095,0.469422,0.32061268,-0.26388975,0.456628,0.33432411,-0.28977232,0.465461,0.37452833,-0.31870867,0.506195,0.35991102,-0.2981018,0.482493,0.35326909,-0.28848972,0.471603,0.35264598,-0.29553214,0.461993
0.35632514,-0.41164525,0.535246,0.33322791,-0.35794396,0.51443,0.32507694,-0.39567303,0.521041,0.30684999,-0.36463561,0.496465,0.2831104,-0.33174006,0.467781,0.26721684,-0.30836323,0.454493,0.27868565,-0.29943608,0.481111,0.25458969,-0.25261193,0.451749,0.24405989,-0.23192006,0.437069,0.24027146,-0.21924128,0.432501,0.30798653,-0.30001978,0.49129,0.27800293,-0.24454765,0.461154,0.2754948,-0.24257062,0.443574,0.28664553,-0.25889907,0.448321,0.3340263,-0.30437206,0.501252,0.30911782,-0.25305436,0.469087,0.30689034,-0.25274591,0.45263,0.31864311,-0.27465925,0.457223,0.36875155,-0.3170389,0.516141,0.34913759,-0.30128966,0.486121,0.34015767,-0.29410039,0.472328,0.3417439,-0.29871947,0.460158
0.3410078,-0.4001916,0.522061,0.31106791,-0.34580711,0.50322,0.30994087,-0.38431854,0.507435,0.28654146,-0.35003103,0.483654,0.2639673,-0.3152203,0.454992,0.24807062,-0.29138234,0.441701,0.25664595,-0.28829665,0.470888,0.23415283,-0.24052328,0.443371,0.22471758,-0.21900989,0.429612,0.22146544,-0.20486321,0.42526,0.28582468,-0.28878655,0.482275,0.25671851,-0.23346228,0.454063,0.25709074,-0.22943487,0.437607,0.26979286,-0.24421078,0.442843,0.31169471,-0.29300061,0.49308,0.28862846,-0.24071181,0.463079,0.28916254,-0.23870149,0.447729,0.30271175,-0.25966558,0.452942,0.34613921,-0.30535511,0.508686,0.3305062,-0.28662694,0.480042,0.32339665,-0.2779937,0.466882,0.32692356,-0.28172809,0.455269
0.33153626,-0.36737642,0.509507,0.30493162,-0.32397368,0.501405,0.29935001,-0.35558946,0.495316,0.28351788,-0.32028774,0.481631,0.26655638,-0.28687379,0.465315,0.2582498,-0.26441754,0.459143,0.24673829,-0.27793882,0.477797,0.22892755,-0.23536418,0.457247,0.21993831,-0.21372027,0.446972,0.21747052,-0.19908389,0.449535,0.27606882,-0.27697935,0.492398,0.2798693,-0.25491422,0.475136,0.28938344,-0.26797373,0.465067,0.29898756,-0.29102152,0.473277,0.30239645,-0.27928681,0.505029,0.29004404,-0.23591582,0.48338,0.29766175,-0.24555491,0.472304,0.31536636,-0.26742463,0.480048,0.33792013,-0.28806852,0.521253,0.33608455,-0.28426743,0.501277,0.33556502,-0.28273192,0.492099,0.33721146,-0.29380845,0.484001
0.32521836,-0.3663648,0.508104,0.29368556,-0.32335921,0.500454,0.29345905,-0.35496201,0.494442,0.27283601,-0.32050387,0.481956,0.25643505,-0.28771348,0.466677,0.24819048,-0.26526929,0.460622,0.23631326,-0.277965,0.477842,0.21905068,-0.23614144,0.458757,0.21030828,-0.21479276,0.449215,0.20730183,-0.19993597,0.451459,0.26530875,-0.27672734,0.49195,0.26880747,-0.25489919,0.475108,0.27836577,-0.26809876,0.465284,0.28821216,-0.29141813,0.473922,0.29129787,-0.27879629,0.504142,0.27901235,-0.23575672,0.483054,0.28679006,-0.24553411,0.472264,0.30451201,-0.26769147,0.480527,0.32630834,-0.28725226,0.519776,0.32429555,-0.2836771,0.500236,0.32367498,-0.28224873,0.491258,0.33493416,-0.30193309,0.497385
0.30695574,-0.3571806,0.497611,0.27747748,-0.31487827,0.494054,0.27608591,-0.34626398,0.485289,0.25280183,-0.30613295,0.465567,0.2327488,-0.27356161,0.447671,0.222031,-0.25049905,0.438964,0.22318153,-0.27151161,0.476207,0.20699001,-0.23160149,0.46181,0.20141032,-0.21365706,0.454611,0.20540045,-0.20193745,0.457837,0.25255647,-0.27104596,0.490099,0.25850326,-0.25608607,0.47752,0.268992,-0.27158378,0.470182,0.27974418,-0.29585265,0.480303,0.27865992,-0.27355093,0.501799,0.26006622,-0.23368318,0.484844,0.27122388,-0.23576151,0.476169,0.29426426,-0.25480823,0.486044,0.3134258,-0.28216633,0.516255,0.30778657,-0.27660688,0.500394,0.31942073,-0.30498822,0.514822,0.32692599,-0.32062946,0.527174
0.30753909,-0.35510284,0.501037,0.27428657,-0.30862403,0.495623,0.27571006,-0.34443397,0.487242,0.25225611,-0.30553383,0.467781,0.22805565,-0.27289655,0.448806,0.22008101,-0.24898968,0.437226,0.21359452,-0.27114027,0.474551,0.19668837,-0.23107352,0.45931,0.18803138,-0.21040314,0.45169,0.18523581,-0.19641868,0.453192,0.24124341,-0.26764781,0.489603,0.24820691,-0.25335245,0.475185,0.26128744,-0.26743461,0.466775,0.27499681,-0.29124928,0.475667,0.26650546,-0.26743342,0.502401,0.24788947,-0.22885772,0.483312,0.26072338,-0.23302744,0.473546,0.28764625,-0.25157856,0.481966,0.30131822,-0.27241091,0.518433,0.29628902,-0.26784092,0.50081,0.30746928,-0.29552683,0.514278,0.31526285,-0.31598145,0.525702
0.29542158,-0.34643314,0.495261,0.25966573,-0.30529587,0.491943,0.26468484,-0.33746725,0.483348,0.24226341,-0.30099688,0.477526,0.23077888,-0.26964101,0.469624,0.22645225,-0.24878875,0.468454,0.20317711,-0.26627202,0.474781,0.186153,-0.22663527,0.460389,0.17739713,-0.20610851,0.453193,0.17181548,-0.18978909,0.453345,0.23112651,-0.2640154,0.488254,0.24063097,-0.25267478,0.475897,0.25256661,-0.26872086,0.468688,0.26321488,-0.29260676,0.479092,0.25618731,-0.26490608,0.499593,0.24034359,-0.22688683,0.483748,0.25486495,-0.23138106,0.475642,0.2825256,-0.25109765,0.486102,0.29001071,-0.27125785,0.513582,0.29213778,-0.26483272,0.497981,0.30742223,-0.29173047,0.512683,0.32227537,-0.3096799,0.523875
0.2924592,-0.34354277,0.49923,0.25431452,-0.30129288,0.487716,0.25493512,-0.33387672,0.484742,0.22190419,-0.30967403,0.470343,0.20209484,-0.27773694,0.444837,0.18545505,-0.25578446,0.431899,0.18825921,-0.2620353,0.46114,0.16739896,-0.2183802,0.439551,0.15706904,-0.19653553,0.428756,0.15103257,-0.18062276,0.428589,0.21402533,-0.25693066,0.474915,0.21819524,-0.24347217,0.45409,0.24251488,-0.27790208,0.473785,0.24882237,-0.29413635,0.4875,0.23798624,-0.25550472,0.487126,0.21603635,-0.21619853,0.462358,0.22738776,-0.22174236,0.449686,0.24772088,-0.23827585,0.456603,0.27179787,-0.25923381,0.503345,0.26769442,-0.25353224,0.480483,0.28522755,-0.27724537,0.493802,0.30246835,-0.30163498,0.507013
0.29178108,-0.34502745,0.502237,0.25358331,-0.3013479,0.488616,0.25510705,-0.33552121,0.487786,0.22140749,-0.31076021,0.472035,0.196016,-0.28078327,0.446999,0.17775407,-0.25982625,0.434541,0.18853007,-0.26032896,0.460478,0.16655744,-0.2161795,0.437762,0.15637201,-0.19521913,0.426403,0.15151332,-0.18135288,0.428685,0.21443911,-0.25527294,0.473472,0.20157322,-0.22425904,0.450471,0.22420398,-0.25048285,0.470215,0.24128898,-0.27649857,0.484732,0.23853581,-0.25400618,0.485202,0.21442195,-0.21477535,0.45862,0.2243062,-0.22077577,0.44502,0.24350389,-0.23774465,0.451513,0.27256876,-0.25816363,0.501152,0.26572716,-0.25259011,0.476586,0.28389554,-0.27555937,0.489912,0.30315045,-0.29814275,0.503725
0.290992,-0.34556701,0.503464,0.25334483,-0.30131236,0.489097,0.25512185,-0.33629114,0.489297,0.22132739,-0.31104522,0.472704,0.1963111,-0.28061263,0.447091,0.18120252,-0.25794782,0.433421,0.1890738,-0.25962183,0.460741,0.16643095,-0.21323452,0.437236,0.15646708,-0.19398797,0.425484,0.15233983,-0.18120733,0.428331,0.21499639,-0.25447112,0.473125,0.20191285,-0.22335774,0.449344,0.22459521,-0.24991474,0.46933,0.24166981,-0.27619944,0.484205,0.23907468,-0.25319742,0.48441,0.21872088,-0.21634095,0.457288,0.22774054,-0.22471091,0.443412,0.24363272,-0.24130413,0.44994,0.27460481,-0.25746394,0.499939,0.26532369,-0.25210168,0.474822,0.28368758,-0.27497364,0.488314,0.30225132,-0.29692775,0.502386
0.29029712,-0.34572796,0.503993,0.25319551,-0.30128372,0.489374,0.2550047,-0.33658753,0.489963,0.22123277,-0.31111153,0.472923,0.19640063,-0.28054254,0.447101,0.18094711,-0.25794546,0.433397,0.18939607,-0.25933702,0.460995,0.1664559,-0.21270445,0.437099,0.15656011,-0.19343202,0.425151,0.15273369,-0.18111171,0.4281,0.21535247,-0.25416191,0.473122,0.20207533,-0.22311184,0.449078,0.22479232,-0.24979936,0.469174,0.24187176,-0.27618508,0.484179,0.23944318,-0.25289817,0.484215,0.21854869,-0.21617064,0.456928,0.22751198,-0.2244854,0.442967,0.2442208,-0.24183951,0.449532,0.27463796,-0.25721932,0.499551,0.26529922,-0.25202598,0.474258,0.2837642,-0.27485614,0.487827,0.30195088,-0.29641212,0.50199
0.28979583,-0.34583746,0.504363,0.25310227,-0.30127214,0.489571,0.25491978,-0.33677616,0.490394,0.22118924,-0.31117007,0.473083,0.19646171,-0.28053069,0.447143,0.18080431,-0.25795918,0.433408,0.18958401,-0.25915845,0.461134,0.16646474,-0.21243496,0.437021,0.15662037,-0.19310481,0.424964,0.15297514,-0.18106051,0.427976,0.21556929,-0.25397997,0.473127,0.20213858,-0.22296899,0.448905,0.22486508,-0.24971292,0.469042,0.24195237,-0.27615451,0.484125,0.23967621,-0.25273111,0.484122,0.21844441,-0.21606751,0.45671,0.22736716,-0.22434249,0.442685,0.24447065,-0.24206348,0.449248,0.27466003,-0.25710217,0.499367,0.2653004,-0.25199565,0.473948,0.28381602,-0.27479136,0.487545,0.30177054,-0.2960776,0.501764
0.29358621,-0.34993983,0.507644,0.26108792,-0.30424225,0.491196,0.2603271,-0.33940126,0.491701,0.23465838,-0.31026474,0.474105,0.20602976,-0.27907133,0.448311,0.19013874,-0.25668034,0.435466,0.1989659,-0.25679742,0.459071,0.17273328,-0.21192667,0.430489,0.15979505,-0.19651742,0.432149,0.15479189,-0.18338061,0.433657,0.22924094,-0.25351527,0.472909,0.21736599,-0.21961394,0.447187,0.23956382,-0.24211162,0.465238,0.2575115,-0.26907355,0.480209,0.2561397,-0.2565396,0.48555,0.23283641,-0.21576355,0.456106,0.24119498,-0.2190295,0.441042,0.25836103,-0.23221443,0.445617,0.2911804,-0.26328312,0.502996,0.28035624,-0.25717134,0.476012,0.28995961,-0.28243031,0.488081,0.2999352,-0.29505455,0.502258
0.29394731,-0.34960829,0.50728,0.26707531,-0.30619863,0.494255,0.26280497,-0.34169567,0.495319,0.25071036,-0.31647027,0.484408,0.22512754,-0.28743315,0.461806,0.21182623,-0.26803612,0.454406,0.20803086,-0.26182067,0.469633,0.18045575,-0.22061479,0.446794,0.17618002,-0.20775138,0.451193,0.1701286,-0.20190471,0.455192,0.23472001,-0.25690579,0.479775,0.21446146,-0.22337252,0.457284,0.23236919,-0.25002609,0.479143,0.24971961,-0.27795872,0.49414,0.26170393,-0.25559365,0.489114,0.24665072,-0.22950881,0.463959,0.24543176,-0.23954715,0.451089,0.25570114,-0.26489794,0.459448,0.29617685,-0.26053672,0.502129,0.28251316,-0.26603246,0.478505,0.30325027,-0.29108676,0.493377,0.30822612,-0.29934635,0.509092
0.29928086,-0.34939262,0.507385,0.27668168,-0.30678481,0.494018,0.27065695,-0.34272762,0.496692,0.26216347,-0.31628656,0.485201,0.23291484,-0.28947807,0.462419,0.21340978,-0.27155425,0.456812,0.22021825,-0.2646302,0.47069,0.1905173,-0.21904737,0.446985,0.17866431,-0.20352406,0.449177,0.16624337,-0.18971202,0.45117,0.24624743,-0.25817454,0.479157,0.22072776,-0.2246481,0.456353,0.24516373,-0.25148158,0.478974,0.26493133,-0.27839302,0.494324,0.27024134,-0.25598908,0.487143,0.25606548,-0.22854781,0.462248,0.25586107,-0.23843587,0.449511,0.26688928,-0.26391942,0.458487,0.30367659,-0.25950441,0.498597,0.29129245,-0.26420514,0.475035,0.3092153,-0.28849707,0.490466,0.32195091,-0.29782095,0.506556
0.31394563,-0.35411036,0.514371,0.29098106,-0.30737997,0.497511,0.28764781,-0.3458529,0.502495,0.2761357,-0.3187201,0.487622,0.24453074,-0.29128806,0.465817,0.22552848,-0.27603689,0.461035,0.22921012,-0.26291584,0.470067,0.20070584,-0.21906441,0.444787,0.19383983,-0.20577948,0.446869,0.18883842,-0.19601606,0.448761,0.2556285,-0.25688738,0.478767,0.22738529,-0.22252778,0.452478,0.25237071,-0.25077062,0.473886,0.27434266,-0.27694057,0.490115,0.28006087,-0.25521833,0.48721,0.26468746,-0.22627701,0.458926,0.26366149,-0.23570629,0.444455,0.27354165,-0.25991725,0.451715,0.31428981,-0.25966416,0.499716,0.30052676,-0.26322244,0.473181,0.31784608,-0.28778445,0.487688,0.33139706,-0.29957223,0.50367
0.32442811,-0.3541469,0.514226,0.30187894,-0.30754607,0.497427,0.29749549,-0.34559107,0.502516,0.28725726,-0.31916068,0.487998,0.25561844,-0.29145618,0.465919,0.23675162,-0.27613463,0.461137,0.23978452,-0.26342849,0.470235,0.21042775,-0.22021609,0.444626,0.20266043,-0.20559316,0.447151,0.19208996,-0.19376684,0.449447,0.26612919,-0.25720771,0.478752,0.238291,-0.22276927,0.45253,0.26397876,-0.25093936,0.474047,0.2861372,-0.27719371,0.490286,0.29051907,-0.25537273,0.487042,0.27539275,-0.22642604,0.458881,0.27434981,-0.23573757,0.444473,0.28434365,-0.26002368,0.451843,0.32473445,-0.25959692,0.499354,0.31116675,-0.26308088,0.472911,0.32873593,-0.28767444,0.487499,0.34234117,-0.29947649,0.503527
0.33373465,-0.35376388,0.514291,0.31050769,-0.30599591,0.496891,0.30680325,-0.34468847,0.501984,0.29808619,-0.31722519,0.486786,0.26536927,-0.28997162,0.464418,0.24600586,-0.27502178,0.459458,0.24842654,-0.26042497,0.468508,0.21924257,-0.21712995,0.442361,0.21316584,-0.20485176,0.442669,0.20717977,-0.19276843,0.442949,0.27537219,-0.25488593,0.477548,0.24838623,-0.21977599,0.450722,0.27561272,-0.24897213,0.471767,0.29775618,-0.27529286,0.488076,0.30022018,-0.25367081,0.486313,0.28619244,-0.22450052,0.457404,0.28530107,-0.23463318,0.442614,0.29461984,-0.25846059,0.449458,0.33489916,-0.25875026,0.499279,0.3221306,-0.26272215,0.472228,0.33918849,-0.28707042,0.486465,0.352354,-0.29893379,0.502457
0.34566896,-0.35467573,0.516583,0.31881058,-0.30284173,0.49336,0.316545,-0.34354235,0.501867,0.3078363,-0.31521854,0.48446,0.27217035,-0.28559999,0.457649,0.25050605,-0.2683914,0.44835,0.25188756,-0.25412254,0.457574,0.22385531,-0.20687608,0.427692,0.21974893,-0.19417656,0.427902,0.21571838,-0.18172831,0.428093,0.27868285,-0.24897199,0.467541,0.25040848,-0.21291678,0.435131,0.27531842,-0.23942019,0.453085,0.29764292,-0.2658718,0.470445,0.30383442,-0.2481699,0.477513,0.27156552,-0.21568082,0.442999,0.27564157,-0.22319896,0.42534,0.29102335,-0.23504303,0.428595,0.33976124,-0.25397422,0.492762,0.321484,-0.2422285,0.460907,0.33002504,-0.26809813,0.472847,0.33967774,-0.28827278,0.488688
0.3736963,-0.35776927,0.526269,0.34393384,-0.306398,0.499829,0.35092981,-0.3474396,0.511624,0.33231431,-0.32267552,0.493247,0.30152162,-0.29492106,0.466312,0.28047306,-0.27670152,0.454861,0.27488325,-0.26087561,0.461677,0.24008203,-0.20908906,0.42922,0.23875756,-0.19948179,0.430969,0.23736419,-0.18988809,0.432559,0.30037628,-0.25353543,0.470434,0.27032,-0.21368494,0.43506,0.29646403,-0.23899165,0.451896,0.31983201,-0.26583104,0.469976,0.3245528,-0.25093258,0.479656,0.29149387,-0.21628706,0.442737,0.29506027,-0.22118117,0.423848,0.30704775,-0.23497118,0.425729,0.35949827,-0.25450425,0.494478,0.34751847,-0.24328524,0.460433,0.35511204,-0.267838,0.471549,0.36097109,-0.2896169,0.48784
0.38638307,-0.35476129,0.525293,0.35518434,-0.30599811,0.501418,0.35257975,-0.34487246,0.50846,0.34295251,-0.3166663,0.491847,0.31727204,-0.28464369,0.464123,0.30362749,-0.26400233,0.453782,0.28997567,-0.25740686,0.462536,0.25929406,-0.205006,0.433029,0.26084445,-0.19303282,0.432336,0.26238791,-0.1813541,0.431706,0.317718,-0.25286814,0.474875,0.27454785,-0.20094054,0.441982,0.29049026,-0.20668989,0.447223,0.31538943,-0.22852406,0.463623,0.34332741,-0.25262588,0.486848,0.3187188,-0.21998037,0.451096,0.32412979,-0.223796,0.432804,0.33539295,-0.23771423,0.434238,0.37910473,-0.25913066,0.504576,0.36809273,-0.26337043,0.471917,0.37284186,-0.28450539,0.482309,0.38190752,-0.30706732,0.497832
0.41343922,-0.35507847,0.527505,0.37834256,-0.30605717,0.504846,0.38049201,-0.34513361,0.511972,0.36363566,-0.31676332,0.495948,0.33723339,-0.28481183,0.46997,0.317152,-0.26355597,0.457405,0.31267597,-0.25788532,0.468488,0.2791025,-0.20571995,0.439957,0.28331848,-0.19561646,0.442583,0.28794703,-0.18641304,0.44497,0.34002312,-0.25291965,0.479655,0.30042396,-0.20255771,0.447807,0.30779736,-0.20187561,0.438991,0.32943519,-0.22089107,0.450074,0.36530956,-0.25234448,0.490571,0.34507673,-0.22233382,0.456194,0.35019638,-0.22504927,0.438605,0.36372247,-0.24063695,0.441522,0.40076298,-0.25844456,0.506863,0.38952556,-0.26124685,0.475255,0.39774126,-0.28531753,0.486822,0.40826444,-0.30845712,0.502431
0.41524232,-0.3555913,0.529018,0.38064078,-0.3070221,0.50607,0.38577697,-0.3488183,0.519083,0.37909459,-0.32565332,0.504837,0.33977701,-0.30082348,0.479594,0.31547818,-0.28439835,0.468882,0.3191149,-0.26239079,0.476368,0.28963613,-0.21000453,0.447487,0.2867904,-0.19825989,0.445508,0.28722187,-0.18774866,0.443709,0.34275971,-0.2541972,0.480559,0.30196005,-0.20395624,0.448697,0.28735866,-0.18689661,0.43011,0.28847973,-0.18154613,0.435356,0.36763275,-0.25230853,0.485758,0.34457571,-0.21990212,0.453692,0.34431993,-0.23007752,0.437287,0.35221162,-0.2482897,0.442985,0.39975709,-0.25583858,0.495281,0.38994285,-0.23035579,0.46506,0.40446005,-0.25562645,0.478866,0.41361728,-0.27800606,0.494856
0.43534127,-0.36537589,0.546572,0.41084493,-0.31294605,0.518538,0.41276669,-0.35107927,0.530071,0.39808558,-0.32670526,0.506582,0.36169155,-0.30165615,0.478607,0.33806387,-0.28486755,0.466718,0.34129977,-0.2645944,0.476892,0.30789082,-0.21156858,0.445683,0.30700026,-0.1997912,0.444361,0.30707079,-0.18997152,0.443159,0.37035504,-0.25987268,0.487372,0.33449269,-0.2106845,0.459149,0.31790834,-0.18690672,0.442686,0.30805729,-0.17242925,0.430927,0.39747746,-0.25940805,0.498132,0.37111875,-0.2220826,0.459345,0.3669318,-0.23116655,0.4395,0.37023107,-0.24666266,0.439356,0.4357342,-0.26563564,0.515018,0.38468145,-0.21829632,0.481838,0.37560651,-0.21088586,0.466593,0.38747856,-0.22268423,0.467773
0.45567788,-0.36470242,0.55025,0.42277718,-0.31538766,0.520804,0.41985019,-0.35333696,0.533198,0.41030834,-0.32919192,0.508938,0.37521354,-0.30364883,0.480972,0.35234465,-0.28608598,0.468924,0.35103736,-0.26432526,0.477404,0.31796198,-0.21110656,0.444877,0.32691396,-0.21655026,0.450911,0.33797444,-0.23543963,0.456397,0.38110202,-0.26082097,0.488068,0.34857779,-0.20937823,0.461329,0.33388159,-0.18551723,0.44573,0.32597765,-0.17299901,0.434589,0.40927686,-0.26142806,0.499089,0.36445026,-0.22590783,0.459106,0.36442401,-0.23157054,0.438649,0.37014268,-0.24463919,0.437346,0.44915536,-0.26912287,0.516489,0.39794511,-0.21921162,0.481795,0.38687845,-0.21121883,0.465854,0.39651133,-0.22300372,0.465878
0.46415011,-0.36943897,0.558551,0.43124394,-0.31715985,0.528415,0.42678611,-0.35574705,0.539693,0.41729313,-0.32689836,0.511719,0.38829523,-0.30010624,0.482873,0.36871895,-0.28006613,0.469184,0.36405943,-0.25655174,0.482272,0.33884643,-0.20871621,0.447362,0.34208229,-0.2087173,0.443613,0.35781002,-0.2322482,0.456498,0.39633112,-0.25647789,0.494913,0.36975224,-0.20296746,0.472574,0.36429958,-0.18825373,0.459543,0.36057032,-0.17742548,0.450235,0.42605247,-0.26018097,0.507612,0.39101438,-0.22878803,0.466685,0.38673447,-0.23521869,0.445746,0.39213063,-0.24801752,0.442394,0.46724207,-0.27208347,0.527113,0.43261498,-0.22141567,0.490132,0.42555824,-0.21883724,0.47314,0.42876121,-0.23300654,0.469911
0.46841797,-0.36964799,0.559443,0.44474315,-0.31479799,0.52914,0.43437308,-0.35447852,0.540525,0.42804231,-0.32690858,0.511735,0.39898407,-0.30011059,0.48288,0.37909688,-0.27986437,0.468846,0.37467091,-0.25682996,0.482795,0.34880425,-0.20866582,0.447254,0.35052959,-0.207558,0.441149,0.36556892,-0.23028744,0.452644,0.40716277,-0.25675669,0.495451,0.38022387,-0.20311821,0.472925,0.37495767,-0.18835287,0.459785,0.37137942,-0.17749011,0.450399,0.43709248,-0.26046955,0.508175,0.40202424,-0.22900129,0.46712,0.39747067,-0.23541341,0.446115,0.40240111,-0.24813581,0.442605,0.4785822,-0.27240195,0.52773,0.44364254,-0.22164787,0.490646,0.43655741,-0.21905324,0.473607,0.43962401,-0.23317712,0.470255
0.4750672,-0.36908106,0.558634,0.45894172,-0.3155553,0.530858,0.44629893,-0.35214722,0.538945,0.43909718,-0.32489469,0.50801,0.4062904,-0.29681249,0.478792,0.38632838,-0.27696043,0.465819,0.39608256,-0.25627616,0.485493,0.35535117,-0.20852643,0.448071,0.35810395,-0.20659273,0.438629,0.37889619,-0.22546044,0.448132,0.42807811,-0.2573127,0.499979,0.40722963,-0.20485399,0.482379,0.40615362,-0.18128216,0.472113,0.40558119,-0.1639459,0.464779,0.45682193,-0.26202816,0.514015,0.43511128,-0.22824837,0.474671,0.43119546,-0.23684471,0.454541,0.42793206,-0.24719051,0.451441,0.49556789,-0.27518313,0.534767,0.46093859,-0.23419504,0.499366,0.45469581,-0.22501736,0.483101,0.46485804,-0.23481595,0.480139
0.49777739,-0.36620383,0.561688,0.4786303,-0.30982483,0.545261,0.46981816,-0.34360371,0.543164,0.45309199,-0.30396611,0.522228,0.4449547,-0.26983191,0.50271,0.43687196,-0.24665953,0.494882,0.41489421,-0.2523289,0.509983,0.41997435,-0.24334811,0.48046,0.43636626,-0.2650583,0.491443,0.45340565,-0.28693103,0.507481,0.44870468,-0.25506181,0.526999,0.43294776,-0.20745538,0.503831,0.43046312,-0.1848801,0.490317,0.43442053,-0.17725624,0.480663,0.4789388,-0.26091645,0.542252,0.48217953,-0.24192095,0.512294,0.48102644,-0.24974374,0.496966,0.47696367,-0.27281552,0.498906,0.51947363,-0.27499425,0.562807,0.50951792,-0.25132325,0.535833,0.50523524,-0.24024206,0.523439,0.51005151,-0.24342839,0.512504
0.5058452,-0.35690534,0.555289,0.48650073,-0.30796961,0.541996,0.47145123,-0.34085191,0.538814,0.46326396,-0.30350628,0.521438,0.45446283,-0.26904825,0.50125,0.44779152,-0.24672482,0.495013,0.426665,-0.25314034,0.511623,0.43457366,-0.24567998,0.485064,0.45313204,-0.2687895,0.498361,0.47046088,-0.29095783,0.514603,0.45942513,-0.25516732,0.527217,0.4445043,-0.20786384,0.504823,0.44264603,-0.1854242,0.49176,0.44712402,-0.1779075,0.482429,0.48851237,-0.26034289,0.54106,0.49490239,-0.24282385,0.514206,0.49538608,-0.25150261,0.500466,0.49810356,-0.27591202,0.505245,0.52716145,-0.27336962,0.559482,0.51983534,-0.25094052,0.535017,0.51682784,-0.24039719,0.523777,0.52265262,-0.24407199,0.513859
0.52346122,-0.36066228,0.563148,0.50180911,-0.31145375,0.547655,0.48725126,-0.34398814,0.543615,0.47474637,-0.30825014,0.522064,0.45805695,-0.27474379,0.499109,0.45116526,-0.25144867,0.488543,0.43954433,-0.25759239,0.511851,0.44883172,-0.24964802,0.482783,0.47741572,-0.26485916,0.49216,0.49878635,-0.28703502,0.507376,0.47267081,-0.25899041,0.530431,0.45399772,-0.20722326,0.506599,0.45613006,-0.18699425,0.492698,0.46093546,-0.17714313,0.482768,0.50221083,-0.26360497,0.5469,0.50173669,-0.22962132,0.517721,0.50722167,-0.23537339,0.502792,0.51200395,-0.25557016,0.503535,0.54161789,-0.2759209,0.568768,0.53686096,-0.24935205,0.542752,0.53503819,-0.23689227,0.530799,0.53988115,-0.24054816,0.520253
0.54164606,-0.36484828,0.573742,0.51672541,-0.31524318,0.554726,0.50623645,-0.34977839,0.553376,0.4922699,-0.31510705,0.530193,0.47333708,-0.28284472,0.505483,0.46482515,-0.2598513,0.493691,0.45311179,-0.26214663,0.515211,0.45837904,-0.25057454,0.483431,0.48632541,-0.26479615,0.491622,0.50894569,-0.28640496,0.507434,0.48545705,-0.26219892,0.533584,0.46750487,-0.21118645,0.506408,0.46493533,-0.18680045,0.490555,0.46692638,-0.17346616,0.479232,0.51447156,-0.26573539,0.550152,0.51077375,-0.23029497,0.517869,0.51523797,-0.23382509,0.501353,0.51949314,-0.25267254,0.500237,0.5534786,-0.27681965,0.572649,0.54625936,-0.25561417,0.543911,0.54327918,-0.24575126,0.530707,0.54804317,-0.24818738,0.519056
0.52877118,-0.36496976,0.571246,0.50952128,-0.31459001,0.552029,0.49684283,-0.34749028,0.549521,0.49045394,-0.31547152,0.524882,0.47296633,-0.28373532,0.496618,0.46612318,-0.26237744,0.484999,0.4614272,-0.2596459,0.510691,0.45200685,-0.21071569,0.488303,0.4576729,-0.19147057,0.482837,0.47527792,-0.17883794,0.488938,0.49119944,-0.26282063,0.530665,0.47279399,-0.21342321,0.515028,0.47659431,-0.18946427,0.505906,0.48728171,-0.18058689,0.49939,0.51697593,-0.26903621,0.548564,0.51446832,-0.23309751,0.516422,0.52128388,-0.22987132,0.499978,0.52860303,-0.24503012,0.496206,0.55004686,-0.28340105,0.572675,0.55720758,-0.28521162,0.544452,0.56045033,-0.2860217,0.531484,0.56087165,-0.30049225,0.528288
0.5289757,-0.36553982,0.572349,0.50973693,-0.31526328,0.552545,0.49741385,-0.34813756,0.550492,0.490852,-0.31572756,0.525308,0.47334347,-0.28396157,0.497014,0.46736389,-0.26223966,0.484761,0.46134317,-0.25959862,0.510598,0.45282359,-0.21100836,0.48788,0.45853307,-0.19194314,0.481878,0.47624003,-0.17959429,0.487539,0.49107262,-0.26275278,0.530528,0.47222667,-0.21316712,0.51441,0.47574928,-0.18912834,0.505009,0.48621131,-0.1801902,0.498293,0.51685435,-0.26897295,0.548435,0.51387357,-0.23282804,0.515825,0.52041121,-0.2294865,0.499141,0.52728847,-0.24442077,0.494972,0.55001613,-0.28338522,0.572643,0.55676443,-0.28498479,0.544019,0.5597997,-0.28568966,0.530867,0.55988323,-0.2999627,0.527357
0.53004951,-0.36683419,0.574137,0.51015736,-0.31633948,0.553334,0.49859391,-0.34953985,0.552127,0.4914099,-0.31713814,0.52636,0.47360159,-0.28537526,0.497963,0.46862456,-0.26340651,0.484997,0.46053012,-0.26038601,0.510436,0.45168159,-0.21172412,0.487154,0.45806302,-0.19411688,0.480284,0.47650445,-0.18315246,0.485247,0.49024805,-0.26333436,0.530205,0.47065246,-0.21339178,0.51265,0.47300817,-0.18954221,0.502409,0.48294494,-0.18086067,0.495094,0.51611273,-0.26941588,0.548057,0.51034773,-0.23148466,0.514633,0.51724657,-0.22840393,0.497532,0.52402906,-0.24288517,0.492819,0.54955061,-0.28372069,0.572343,0.55545603,-0.2849905,0.543003,0.55807914,-0.28553212,0.529523,0.55774543,-0.29951223,0.525575
0.53052197,-0.36757335,0.575116,0.51046266,-0.31707218,0.553887,0.49925287,-0.3504123,0.553091,0.4917451,-0.3178815,0.526947,0.47378039,-0.28611432,0.498491,0.46930498,-0.26401799,0.485167,0.46038774,-0.26092947,0.510648,0.45131637,-0.21217862,0.487013,0.45744177,-0.19460945,0.479886,0.47607018,-0.18401122,0.484743,0.49006075,-0.26374627,0.530287,0.46984073,-0.21355454,0.512308,0.47230851,-0.19001506,0.501821,0.48225127,-0.18163962,0.49433,0.51592731,-0.26973434,0.548065,0.50959877,-0.23151925,0.514273,0.51593285,-0.22798109,0.496985,0.52284288,-0.24232299,0.492159,0.54944353,-0.28395358,0.572324,0.55495332,-0.28507087,0.542643,0.55738243,-0.28553654,0.529006,0.55697083,-0.29944411,0.524961
0.5308089,-0.36809144,0.575789,0.51069181,-0.31760232,0.554294,0.49969847,-0.35103222,0.55376,0.49200732,-0.31836771,0.527365,0.47394824,-0.28659516,0.498872,0.46975089,-0.2644061,0.485308,0.46036591,-0.26129202,0.510846,0.45116533,-0.21248361,0.487002,0.45716064,-0.19486832,0.479718,0.47586981,-0.18444723,0.484508,0.49000539,-0.26402436,0.530398,0.46936993,-0.21369432,0.512156,0.47193276,-0.19031631,0.501515,0.48188074,-0.18219083,0.493915,0.51586607,-0.26995178,0.548123,0.50916626,-0.2315723,0.5141,0.51518222,-0.22774398,0.496693,0.5221747,-0.24200584,0.491804,0.54942379,-0.28411644,0.572359,0.5546885,-0.285138,0.542463,0.55699627,-0.28555541,0.528726,0.55654154,-0.29942217,0.524626
0.53101392,-0.36848823,0.5763,0.51087359,-0.31800608,0.55461,0.50003398,-0.35150647,0.554268,0.49222434,-0.31871945,0.527689,0.4741008,-0.28694071,0.499169,0.47007343,-0.26467904,0.485428,0.46038095,-0.26155074,0.511011,0.45109547,-0.21270163,0.487028,0.45700893,-0.1950309,0.479635,0.47575936,-0.18471273,0.484377,0.48999234,-0.26422278,0.530498,0.46905097,-0.21380174,0.512066,0.47168516,-0.19051824,0.501314,0.48163107,-0.18258903,0.493634,0.51584716,-0.27010828,0.548185,0.50887484,-0.23161803,0.513994,0.51468454,-0.22758713,0.496501,0.5217278,-0.24179375,0.491566,0.54943049,-0.28423536,0.572403,0.55451907,-0.28518644,0.54235,0.55674164,-0.28556943,0.528542,0.55625366,-0.29940657,0.524401
0.53108866,-0.37222167,0.581,0.50517565,-0.32732963,0.562645,0.50112739,-0.3548337,0.558474,0.48820065,-0.32412552,0.531166,0.46902966,-0.29419816,0.505528,0.46492047,-0.27196235,0.492988,0.45833151,-0.26692109,0.520981,0.47017462,-0.25138448,0.490306,0.48746279,-0.26579214,0.491976,0.50546241,-0.28873548,0.504748,0.48894061,-0.27318715,0.542239,0.47682592,-0.21822742,0.521457,0.47954663,-0.19571197,0.509334,0.4888535,-0.18599094,0.500675,0.51522855,-0.28049567,0.56113,0.51797083,-0.24647114,0.530535,0.53057938,-0.23698941,0.514882,0.53889262,-0.25041094,0.508495,0.54878764,-0.29628321,0.586298,0.55695374,-0.30365186,0.559874,0.56034456,-0.30773443,0.547734,0.55680556,-0.320923,0.542603
0.5143443,-0.37747796,0.579955,0.50349488,-0.32967387,0.562695,0.48623399,-0.35933865,0.557426,0.4817047,-0.32726204,0.53059,0.46697453,-0.29609516,0.506058,0.46248201,-0.27430748,0.494332,0.46066316,-0.27137882,0.521865,0.47299817,-0.25218764,0.49222,0.48906877,-0.26709091,0.493156,0.50499097,-0.29346568,0.505229,0.49278483,-0.27924106,0.543508,0.48064469,-0.22775848,0.524154,0.48532842,-0.20175042,0.512864,0.49313902,-0.18982949,0.5048,0.518766,-0.28750813,0.562631,0.51982769,-0.24858618,0.533257,0.5295495,-0.24146898,0.518228,0.53875349,-0.25311336,0.511518,0.55097792,-0.3042836,0.587918,0.55774332,-0.31642429,0.562693,0.54686287,-0.32839851,0.551103,0.53381308,-0.33693859,0.545761
0.51325171,-0.37840231,0.580408,0.50285514,-0.33053099,0.56279,0.48534035,-0.36021311,0.557838,0.48174507,-0.32752564,0.530859,0.4640065,-0.29778509,0.505949,0.45755682,-0.27646182,0.494796,0.46060649,-0.27212159,0.521636,0.47249704,-0.25195258,0.491725,0.48825839,-0.26736563,0.492608,0.50316263,-0.29367496,0.504765,0.4920377,-0.27916083,0.543204,0.47932776,-0.22758259,0.523499,0.4839684,-0.20206145,0.512005,0.49199531,-0.18968665,0.503794,0.51801443,-0.28730028,0.562294,0.51852568,-0.2485403,0.532606,0.52779378,-0.24118159,0.517417,0.53719904,-0.25288856,0.510577,0.55030074,-0.30394276,0.587592,0.55686678,-0.31586833,0.562082,0.54543503,-0.32764401,0.550362,0.53178357,-0.33549095,0.544912
0.51280737,-0.37865887,0.580756,0.50275922,-0.33088538,0.56284,0.48504722,-0.36055759,0.55814,0.48153038,-0.32757646,0.530735,0.46288083,-0.29814229,0.505725,0.4536739,-0.27774742,0.49484,0.46165533,-0.27385609,0.521399,0.47256398,-0.2519028,0.4913,0.48764336,-0.26848998,0.492015,0.50077213,-0.29387745,0.504179,0.49226555,-0.27919199,0.542921,0.47805695,-0.22585626,0.523145,0.48307511,-0.20205696,0.511609,0.49131546,-0.1881123,0.50337,0.51820844,-0.28717189,0.561995,0.51822247,-0.24852537,0.532084,0.52604484,-0.24111799,0.51678,0.53692839,-0.2521838,0.509734,0.55045799,-0.30361215,0.587318,0.55673212,-0.31565877,0.561617,0.54421718,-0.32710313,0.549809,0.52937555,-0.33348236,0.544196
0.51277946,-0.37898896,0.581235,0.50286424,-0.33120501,0.563052,0.48511536,-0.36094567,0.558602,0.48149472,-0.32765061,0.530752,0.46070736,-0.29881295,0.5056,0.44923835,-0.27942656,0.495246,0.46188572,-0.2740206,0.521388,0.47262331,-0.25188316,0.491065,0.48727005,-0.2688639,0.491844,0.49963632,-0.29416891,0.504122,0.49243161,-0.27923715,0.542837,0.4776744,-0.22596726,0.522927,0.48248478,-0.20203099,0.511313,0.4908313,-0.18881355,0.503018,0.51832989,-0.28712124,0.561872,0.51796856,-0.24848182,0.531697,0.52562875,-0.24104139,0.516259,0.53607392,-0.25224907,0.509199,0.55054123,-0.30344945,0.587186,0.55651734,-0.31547048,0.561236,0.54339236,-0.32670256,0.549313,0.52802508,-0.33238734,0.543682
0.51265474,-0.37940346,0.581655,0.50356053,-0.33161775,0.564702,0.48524765,-0.36127819,0.560435,0.47124791,-0.32083596,0.537011,0.44527108,-0.28945273,0.518336,0.44588464,-0.26766755,0.507573,0.45227668,-0.26334831,0.525711,0.45583907,-0.25708422,0.495471,0.47719497,-0.2736779,0.501578,0.49639055,-0.3001687,0.515952,0.49003231,-0.27394993,0.545855,0.48182995,-0.2218931,0.527678,0.48338667,-0.19645383,0.517075,0.49629397,-0.19138688,0.509502,0.51934448,-0.2864367,0.563721,0.51952512,-0.24970744,0.533467,0.52409182,-0.24296283,0.517988,0.53250627,-0.26182373,0.515586,0.55247851,-0.30414654,0.587465,0.55469292,-0.31330414,0.560876,0.53960187,-0.32324909,0.54866,0.5311112,-0.33397469,0.546557
0.50989209,-0.37872047,0.580297,0.48519025,-0.32697249,0.561242,0.47387054,-0.35798215,0.561082,0.46209746,-0.32282455,0.53969,0.43042352,-0.28735229,0.51383,0.4286483,-0.2644634,0.501711,0.43606728,-0.26260488,0.52311,0.4298957,-0.21440639,0.498078,0.43578914,-0.19647781,0.492132,0.45725079,-0.19053996,0.500909,0.46828088,-0.26984245,0.540058,0.46438262,-0.22207599,0.523298,0.46570285,-0.19615688,0.513522,0.47372853,-0.18866755,0.506539,0.49613125,-0.27965781,0.555455,0.49410283,-0.24865426,0.523152,0.49628236,-0.23922051,0.506625,0.51183694,-0.25561911,0.507137,0.53183332,-0.29882363,0.576563,0.52844478,-0.30197631,0.547541,0.51485908,-0.31222371,0.534206,0.5104918,-0.32410669,0.534216
0.50601537,-0.37939295,0.58042,0.47601813,-0.32692996,0.561169,0.46493099,-0.35874177,0.561351,0.45350653,-0.32327557,0.540444,0.42207245,-0.28784386,0.514709,0.42044391,-0.26496522,0.502663,0.42716759,-0.26258329,0.523067,0.4210084,-0.21431729,0.497871,0.42662917,-0.19631852,0.491733,0.44767353,-0.19039122,0.500518,0.45911211,-0.26969705,0.539767,0.45482477,-0.22182475,0.522706,0.45584875,-0.19586352,0.512754,0.46356826,-0.18833456,0.505645,0.48673165,-0.27941614,0.554975,0.484421,-0.24835339,0.522519,0.48581163,-0.23708108,0.505914,0.50261505,-0.25166438,0.506563,0.52215293,-0.29847327,0.575887,0.51848946,-0.30150698,0.54669,0.50514368,-0.31167957,0.533275,0.50103784,-0.32360009,0.533381
0.50128858,-0.37621001,0.57601,0.47980334,-0.32582462,0.561302,0.46758075,-0.3572228,0.560479,0.44273235,-0.32096086,0.544133,0.41367067,-0.28700774,0.522498,0.41205102,-0.2648256,0.508843,0.43071685,-0.26532891,0.53101,0.42375545,-0.21836279,0.509304,0.42410191,-0.19857402,0.498451,0.44052341,-0.19163993,0.504404,0.46141023,-0.27052591,0.54495,0.44735597,-0.21636109,0.528826,0.45580049,-0.21640662,0.519421,0.45454372,-0.23150841,0.512703,0.4878365,-0.27850883,0.557541,0.47704657,-0.22295057,0.538287,0.48278117,-0.22131148,0.528436,0.49470369,-0.24418343,0.537193,0.5215639,-0.29514278,0.574675,0.5237235,-0.27110688,0.549113,0.52486143,-0.2611773,0.537368,0.525914,-0.2546331,0.527004
0.50604795,-0.37854962,0.580385,0.48033,-0.32551,0.561633,0.47100312,-0.35978444,0.564885,0.44430374,-0.32190444,0.544726,0.41310177,-0.28686594,0.520742,0.41105801,-0.26457469,0.506631,0.42900437,-0.26368206,0.528296,0.42245279,-0.21568845,0.503835,0.41890796,-0.19356617,0.491605,0.43141263,-0.17771288,0.494795,0.45851581,-0.26793875,0.540787,0.44551239,-0.2153798,0.512719,0.44851757,-0.20551322,0.496346,0.45098216,-0.20716896,0.484651,0.48421391,-0.27528107,0.552494,0.47876159,-0.23109286,0.522487,0.47927895,-0.21595601,0.507135,0.49813386,-0.23164811,0.511795,0.51842214,-0.28958523,0.569161,0.51697043,-0.2676734,0.540446,0.51657791,-0.25752416,0.527252,0.51635251,-0.25057819,0.515611
0.49820889,-0.37417048,0.573918,0.47690658,-0.3236696,0.561019,0.46532603,-0.35546321,0.55878,0.43696181,-0.31857726,0.539875,0.40262627,-0.28573843,0.516972,0.39921365,-0.26270833,0.503281,0.4268548,-0.26450423,0.53259,0.41248348,-0.21391642,0.511843,0.41208422,-0.19237284,0.501469,0.42031525,-0.17635002,0.502288,0.45356097,-0.26753151,0.546678,0.43923454,-0.21593511,0.52449,0.44662422,-0.20201267,0.511547,0.45435241,-0.20084744,0.502301,0.47875415,-0.27396415,0.559253,0.47233122,-0.22347167,0.535275,0.47998242,-0.21717577,0.523006,0.49674303,-0.23847874,0.529762,0.51142467,-0.28852666,0.576106,0.51512158,-0.27175423,0.552044,0.51269529,-0.28306173,0.540988,0.51060892,-0.29297704,0.545339
0.50074905,-0.37651293,0.578649,0.4765985,-0.32276548,0.56394,0.46550449,-0.35708908,0.56274,0.43294247,-0.31975666,0.546585,0.40197907,-0.2882406,0.527025,0.39746465,-0.26575209,0.514317,0.42284528,-0.26343782,0.533183,0.41574083,-0.21811015,0.525778,0.41943833,-0.19963742,0.522076,0.42398915,-0.18357238,0.51871,0.45330389,-0.26722315,0.547587,0.4412838,-0.21510361,0.523633,0.44501919,-0.19986952,0.50966,0.45039279,-0.19652838,0.499679,0.47993761,-0.27400655,0.560561,0.47039548,-0.22275806,0.5344,0.47537675,-0.21597067,0.521016,0.49011445,-0.23668639,0.526582,0.51469334,-0.28914689,0.57815,0.51381605,-0.27178816,0.552555,0.51098529,-0.28288666,0.540795,0.50928134,-0.29232824,0.544297
0.49029948,-0.37219771,0.576166,0.4624776,-0.31648269,0.563657,0.45651676,-0.35300508,0.561749,0.41374194,-0.31291237,0.540614,0.38745059,-0.2813776,0.518681,0.37556555,-0.25854733,0.507594,0.41546542,-0.2573468,0.53641,0.40529618,-0.21172013,0.526258,0.41067475,-0.19671316,0.521182,0.41907965,-0.18270425,0.516568,0.44549181,-0.26291227,0.549749,0.43980896,-0.21564264,0.527886,0.43732267,-0.18909789,0.515133,0.43729948,-0.17103981,0.506024,0.47142922,-0.27110118,0.561678,0.47363421,-0.22483115,0.539038,0.47807418,-0.21571197,0.527455,0.50068992,-0.21757428,0.535127,0.50475959,-0.28779954,0.577705,0.50315498,-0.2670505,0.55404,0.50361467,-0.27798049,0.543166,0.50876985,-0.29204658,0.548033
0.46584072,-0.35855858,0.568118,0.45071797,-0.3075542,0.558084,0.44018702,-0.34249031,0.560004,0.40287471,-0.3071265,0.546198,0.37674181,-0.27776309,0.525253,0.3635714,-0.25596709,0.516641,0.41088176,-0.25170807,0.540454,0.40132571,-0.2067085,0.530603,0.39699864,-0.18498097,0.525678,0.39406409,-0.16906046,0.5212,0.4400274,-0.25512008,0.54691,0.42909438,-0.20345429,0.527635,0.4242167,-0.18220928,0.516391,0.42085816,-0.16653831,0.50836,0.46508984,-0.26150239,0.552986,0.45781841,-0.20875921,0.53501,0.45480373,-0.18300206,0.525813,0.45494658,-0.17438008,0.520199,0.49686807,-0.27606177,0.56168,0.4874711,-0.22870059,0.541504,0.48379835,-0.20921708,0.532234,0.48034977,-0.20567098,0.524055
0.45791297,-0.35297651,0.560133,0.44809139,-0.30634196,0.555601,0.43558836,-0.33982849,0.55697,0.39954287,-0.30732744,0.543981,0.36718109,-0.28014042,0.52502,0.35285224,-0.25847677,0.514552,0.41484486,-0.25596958,0.548252,0.39948154,-0.21048803,0.537158,0.39393619,-0.19289663,0.531611,0.38884507,-0.17636504,0.526568,0.44100277,-0.25692379,0.550547,0.42895743,-0.20599086,0.537543,0.42425993,-0.1828687,0.529957,0.42094573,-0.16574695,0.524539,0.46312684,-0.2610663,0.55278,0.45174909,-0.20949738,0.539852,0.44751501,-0.18473953,0.533239,0.44368299,-0.16192245,0.527226,0.49061338,-0.27245245,0.556096,0.48030034,-0.22456404,0.543217,0.47728895,-0.20586201,0.5373,0.47515497,-0.20403452,0.532079
0.45404044,-0.35328421,0.566483,0.44013062,-0.30514991,0.559347,0.43018981,-0.33834739,0.561964,0.39477644,-0.30682649,0.550436,0.36656218,-0.27864074,0.531454,0.35319722,-0.25779001,0.517439,0.41162908,-0.25437536,0.548341,0.39033499,-0.20547812,0.534733,0.38352351,-0.18831701,0.527929,0.38141843,-0.17382177,0.521744,0.43823741,-0.25640711,0.551389,0.4230997,-0.20395756,0.537579,0.41844061,-0.17864819,0.529523,0.41773462,-0.16277068,0.523769,0.46071541,-0.26150534,0.554439,0.44175024,-0.20915287,0.538256,0.4377307,-0.19127399,0.529977,0.43449105,-0.17570628,0.52245,0.48858788,-0.2741568,0.559106,0.47298178,-0.22972118,0.543084,0.46796434,-0.20964754,0.535723,0.46954287,-0.20308787,0.529228
0.44143076,-0.35535054,0.569262,0.43563198,-0.31297422,0.56278,0.41875283,-0.33877893,0.564572,0.38507875,-0.30731652,0.549033,0.35917265,-0.27621456,0.530781,0.34802685,-0.25476688,0.52471,0.40684273,-0.25770627,0.552061,0.39117566,-0.21387934,0.537293,0.384129,-0.19032196,0.529909,0.37731948,-0.17225629,0.523197,0.43356718,-0.26238899,0.555549,0.42159624,-0.21089518,0.540216,0.41499364,-0.18338991,0.531271,0.41315124,-0.16188754,0.524882,0.45597897,-0.26969203,0.558911,0.44319975,-0.2174466,0.543337,0.43979182,-0.19339819,0.535368,0.43220026,-0.17149346,0.528124,0.48341764,-0.28509489,0.563857,0.47551778,-0.23460243,0.548803,0.4711789,-0.21476277,0.541887,0.46547191,-0.19993095,0.535784
0.44092891,-0.35540241,0.570019,0.43613514,-0.31192859,0.565619,0.4171735,-0.33852002,0.564301,0.3836298,-0.30536427,0.547996,0.35696936,-0.2751571,0.534629,0.34622541,-0.25715853,0.53334,0.40176012,-0.25602304,0.555233,0.38457304,-0.21026804,0.541582,0.37596765,-0.18732502,0.534757,0.36930531,-0.16743344,0.528552,0.42969428,-0.25984106,0.560711,0.41806667,-0.20904056,0.547348,0.41219434,-0.1800037,0.539552,0.40800086,-0.15906504,0.533984,0.45308522,-0.2663334,0.565552,0.44045516,-0.21569907,0.551682,0.43588631,-0.19148174,0.544585,0.43276971,-0.17058783,0.538133,0.48175625,-0.28050566,0.571959,0.47232036,-0.23429779,0.5588,0.46908142,-0.21405917,0.552754,0.46623976,-0.19604565,0.547419
0.42818173,-0.35342183,0.562854,0.42150805,-0.31078639,0.560702,0.40713345,-0.33772728,0.560432,0.37015047,-0.3046623,0.548292,0.34522179,-0.27497877,0.534277,0.34053701,-0.2552608,0.530407,0.40058079,-0.25740328,0.556077,0.3865799,-0.2126152,0.545824,0.3795598,-0.19047506,0.540698,0.37372743,-0.17063742,0.536037,0.42613731,-0.26081454,0.558293,0.41748283,-0.21090835,0.547659,0.41286887,-0.18238408,0.541456,0.40955896,-0.16231124,0.537025,0.44555728,-0.26989478,0.560279,0.43771044,-0.21728651,0.549499,0.4338535,-0.19300808,0.543984,0.43090535,-0.17165631,0.53897,0.47073085,-0.28452964,0.562957,0.46313506,-0.23862741,0.552031,0.45964483,-0.21754531,0.547011,0.45937706,-0.19663624,0.542614
0.43328054,-0.35137285,0.565896,0.42478558,-0.29717936,0.561599,0.41104053,-0.33588873,0.562415,0.37588433,-0.30088272,0.552611,0.34562446,-0.27455208,0.535822,0.33342628,-0.25386016,0.529431,0.39047751,-0.24719512,0.554025,0.37546145,-0.20204817,0.542064,0.36810584,-0.17995268,0.536084,0.36137426,-0.15959209,0.530647,0.41684746,-0.24782472,0.556785,0.40479533,-0.19745436,0.544094,0.39790411,-0.16824744,0.536691,0.39297198,-0.14719853,0.531403,0.43922453,-0.25165933,0.55938,0.4266825,-0.20085263,0.546736,0.42089226,-0.17589798,0.540267,0.41561878,-0.15292044,0.534386,0.46716762,-0.26262723,0.563095,0.45958888,-0.2171171,0.551768,0.45620651,-0.19626649,0.546563,0.45322711,-0.17778043,0.541971
