sluyters/QuantumLeap/backend/src/datasets/dynamic/HandGestureDataset_SHREC2017_csv/Gesture12/finger_1/subject_9_essai_2_skeletons_world.csv
Wrist_x,Wrist_y,Wrist_z,Palm_x,Palm_y,Palm_z,thumb_base_x,thumb_base_y,thumb_base_z,thumb_first_joint_x,thumb_first_joint_y,thumb_first_joint_z,thumb_second_joint_x,thumb_second_joint_y,thumb_second_joint_z,thumb_tip_x,thumb_tip_y,thumb_tip_z,index_base_x,index_base_y,index_base_z,index_first_joint_x,index_first_joint_y,index_first_joint_z,index_second_joint_x,index_second_joint_y,index_second_joint_z,index_tip_x,index_tip_y,index_tip_z,middle_base_x,middle_base_y,middle_base_z,middle_first_joint_x,middle_first_joint_y,middle_first_joint_z,middle_second_joint_x,middle_second_joint_y,middle_second_joint_z,middle_tip_x,middle_tip_y,middle_tip_z,ring_base_x,ring_base_y,ring_base_z,ring_first_joint_x,ring_first_joint_y,ring_first_joint_z,ring_second_joint_x,ring_second_joint_y,ring_second_joint_z,ring_tip_x,ring_tip_y,ring_tip_z,pinky_base_x,pinky_base_y,pinky_base_z,pinky_first_joint_x,pinky_first_joint_y,pinky_first_joint_z,pinky_second_joint_x,pinky_second_joint_y,pinky_second_joint_z,pinky_tip_x,pinky_tip_y,pinky_tip_z,
0.62358302,-0.3860848,0.627677,0.6084296,-0.32857246,0.606039,0.60373778,-0.36520576,0.626407,0.58077733,-0.33711039,0.60982,0.55265006,-0.30641451,0.595511,0.54052819,-0.28481956,0.586911,0.56888167,-0.26210085,0.585801,0.57017306,-0.21828755,0.586884,0.56876231,-0.19830205,0.587425,0.56684198,-0.1785303,0.587918,0.58927661,-0.26420439,0.580162,0.55816709,-0.21298925,0.549546,0.56487418,-0.23749782,0.569499,0.57864435,-0.26493347,0.588155,0.60840394,-0.27127388,0.577703,0.55754979,-0.27628868,0.550156,0.53256584,-0.29121186,0.536061,0.54106383,-0.30681649,0.543881,0.63492932,-0.28955267,0.578753,0.58828782,-0.24633442,0.552552,0.57232748,-0.25403501,0.540513,0.56595527,-0.26752423,0.530266
0.62471891,-0.38129209,0.628758,0.60885048,-0.32576007,0.606517,0.60343834,-0.36351568,0.626997,0.58042905,-0.33589942,0.60965,0.55383904,-0.30549677,0.596305,0.54453594,-0.28231317,0.589886,0.56883501,-0.26054245,0.585138,0.56842453,-0.21683158,0.585849,0.56675672,-0.19489998,0.586204,0.56435589,-0.17502517,0.586527,0.58942026,-0.2636063,0.579919,0.55681721,-0.21237286,0.548595,0.56371074,-0.23748609,0.568816,0.57777282,-0.26534652,0.58749,0.60866906,-0.27148378,0.577866,0.55676833,-0.276072,0.549517,0.53126879,-0.29069438,0.535012,0.53960128,-0.30568126,0.542492,0.6347899,-0.29208327,0.579503,0.61697844,-0.24126759,0.562276,0.60206728,-0.23119613,0.554361,0.58948103,-0.2395411,0.547377
0.62541835,-0.38103637,0.630409,0.60889348,-0.32533421,0.607228,0.60436622,-0.36310365,0.628734,0.58476455,-0.32930696,0.611421,0.56438347,-0.29696645,0.600601,0.55931424,-0.27279064,0.597639,0.56883119,-0.25960374,0.585151,0.56536841,-0.21456742,0.584241,0.56143374,-0.19116018,0.583787,0.56163038,-0.17337275,0.584635,0.58896436,-0.26282324,0.579506,0.55523681,-0.21145649,0.547349,0.56160951,-0.23648926,0.566907,0.57586591,-0.26468347,0.585646,0.60784684,-0.27085313,0.577199,0.55546882,-0.27515503,0.548197,0.52962824,-0.28956757,0.533359,0.53736016,-0.30400805,0.540258,0.63373283,-0.29139703,0.578708,0.61614966,-0.2402261,0.561841,0.60171527,-0.22957835,0.554092,0.58928517,-0.23715557,0.547254
0.62653263,-0.38065706,0.630882,0.60965346,-0.325147,0.607176,0.60559723,-0.36261063,0.629212,0.58765326,-0.33092358,0.611858,0.56697327,-0.30127113,0.598366,0.56123937,-0.2758636,0.597209,0.56999084,-0.25866178,0.584649,0.56706187,-0.21520328,0.584496,0.56556399,-0.19369524,0.58442,0.56204178,-0.17285411,0.584351,0.58911614,-0.26255508,0.578824,0.55482881,-0.20966967,0.546191,0.56044519,-0.23311489,0.564465,0.57419371,-0.26309766,0.583453,0.60780561,-0.27071473,0.576422,0.55480088,-0.27466514,0.547028,0.52870492,-0.28893828,0.531989,0.53610768,-0.3030529,0.538555,0.63347921,-0.29117517,0.577914,0.61537021,-0.23980444,0.56009,0.60012264,-0.22905673,0.551901,0.58700769,-0.23641357,0.544675
0.62705651,-0.38024897,0.630963,0.60979941,-0.3248309,0.606698,0.60652879,-0.36218271,0.62953,0.58622263,-0.33421244,0.612478,0.55969746,-0.30413169,0.599367,0.55561956,-0.27991807,0.596567,0.57096207,-0.2587652,0.583992,0.56958401,-0.21565239,0.584474,0.56775464,-0.19359327,0.584714,0.56440692,-0.17316186,0.584933,0.58872149,-0.26212189,0.577679,0.55253031,-0.2105359,0.544624,0.55768254,-0.23558563,0.563101,0.5715358,-0.26639801,0.581898,0.60688586,-0.2703209,0.574932,0.55281088,-0.27524423,0.545293,0.52670536,-0.28939325,0.530129,0.5341884,-0.30245966,0.536314,0.63197832,-0.29063701,0.57612,0.60007444,-0.23881039,0.549271,0.57794867,-0.23386453,0.536935,0.56167446,-0.24308293,0.52605
0.62371865,-0.37798134,0.627731,0.60366755,-0.3212974,0.600216,0.6015799,-0.3586832,0.624304,0.57528708,-0.33330818,0.604211,0.54176604,-0.29943786,0.58369,0.53337074,-0.27535497,0.577816,0.56293502,-0.25248597,0.572189,0.56125428,-0.21195263,0.575091,0.56117803,-0.19028521,0.576541,0.55832629,-0.17196417,0.57786,0.58262051,-0.25768101,0.567311,0.53954312,-0.20734285,0.530746,0.54458346,-0.2315136,0.549393,0.55875474,-0.26052511,0.568472,0.60149692,-0.26746075,0.566072,0.56862452,-0.23192011,0.532669,0.53519536,-0.24315028,0.515579,0.53378129,-0.26017418,0.519689,0.628289,-0.28923265,0.569626,0.58315747,-0.24402806,0.538513,0.5618905,-0.22314433,0.524218,0.54168049,-0.21027528,0.511605
0.62192572,-0.37629859,0.62679,0.59974157,-0.31677256,0.599009,0.59923272,-0.35414811,0.622647,0.57116368,-0.3173565,0.601528,0.54530224,-0.28786686,0.579212,0.53617909,-0.26290176,0.56907,0.56327592,-0.24178348,0.569845,0.55662597,-0.20396455,0.567225,0.55405047,-0.17900969,0.565915,0.55075466,-0.16229001,0.564724,0.58337751,-0.24855426,0.565784,0.53781672,-0.20324785,0.528768,0.54362748,-0.22781803,0.547452,0.55778463,-0.25680763,0.566706,0.60214526,-0.25965867,0.565246,0.55173193,-0.24031594,0.531158,0.51971975,-0.25219997,0.513718,0.52804803,-0.26089562,0.517664,0.62532537,-0.28569003,0.569671,0.57719482,-0.23871217,0.538003,0.55938989,-0.21685005,0.523453,0.53959995,-0.21063904,0.510614
0.6240697,-0.37815523,0.629647,0.60358544,-0.32256209,0.60055,0.60131174,-0.35772638,0.625092,0.57414735,-0.33147198,0.603352,0.54713113,-0.2974838,0.581821,0.53738047,-0.2710636,0.57486,0.5614186,-0.25140408,0.569731,0.55719843,-0.20863523,0.567275,0.55579563,-0.18907927,0.566046,0.55185738,-0.16735375,0.56493,0.58181903,-0.25737415,0.565751,0.54017306,-0.20928498,0.527477,0.54256369,-0.23169574,0.545243,0.55531538,-0.25805843,0.564665,0.60136884,-0.2678886,0.565412,0.55143502,-0.25004252,0.530113,0.51858609,-0.26096665,0.512053,0.52228876,-0.27062911,0.515061,0.62788404,-0.29154259,0.570311,0.58178795,-0.24569233,0.53764,0.56074897,-0.22562247,0.522629,0.53823035,-0.22106759,0.509383
0.63072433,-0.38219459,0.634886,0.60781197,-0.32400306,0.602095,0.60562659,-0.36044575,0.628219,0.57558402,-0.33451697,0.60356,0.54689565,-0.3072248,0.580984,0.53196645,-0.28124013,0.568888,0.55870685,-0.25629004,0.565422,0.55198051,-0.21426833,0.559988,0.54797111,-0.19300977,0.55727,0.5442675,-0.17313506,0.5548,0.58149231,-0.25922743,0.562879,0.53430987,-0.21363912,0.520927,0.53728124,-0.2401028,0.535959,0.54920558,-0.26881802,0.555853,0.60247599,-0.26919407,0.564094,0.54667545,-0.25815695,0.524882,0.51473596,-0.26880301,0.50482,0.51549018,-0.27648245,0.50493,0.63297869,-0.2932996,0.571494,0.57931963,-0.24893444,0.535639,0.55345191,-0.23171707,0.519166,0.53252532,-0.23106871,0.50463
0.63209845,-0.38339636,0.635151,0.61265512,-0.33048668,0.600718,0.60825174,-0.36224109,0.628019,0.57983662,-0.34409824,0.602824,0.54541322,-0.31566943,0.580128,0.52653934,-0.28918345,0.56626,0.55562798,-0.25657523,0.562045,0.54902666,-0.2145441,0.555613,0.5468605,-0.19559201,0.552397,0.54094429,-0.17416169,0.549473,0.5788911,-0.26111784,0.55954,0.52857322,-0.21744477,0.516171,0.53270335,-0.24763523,0.529584,0.54626818,-0.27697904,0.549482,0.60060781,-0.26984393,0.560952,0.542753,-0.26639227,0.520399,0.51098324,-0.27620333,0.499651,0.50979045,-0.28241403,0.498311,0.63524699,-0.2933655,0.568881,0.57741681,-0.25534256,0.531954,0.55036835,-0.23775535,0.514988,0.53012554,-0.23903471,0.500018
0.63470055,-0.39289394,0.627671,0.61061393,-0.343285,0.594289,0.6117336,-0.37626844,0.622569,0.58026952,-0.35490393,0.600176,0.54886416,-0.3265671,0.580944,0.53283269,-0.30066836,0.569909,0.55580841,-0.27047197,0.55909,0.54774317,-0.22855758,0.551201,0.54276901,-0.20776022,0.547257,0.53736263,-0.18928832,0.543671,0.57655962,-0.27409691,0.554368,0.52445219,-0.22973928,0.512441,0.52800098,-0.26064311,0.526285,0.54062982,-0.29028977,0.545796,0.59728453,-0.28298952,0.553849,0.53631816,-0.27830259,0.515353,0.50591666,-0.28764439,0.495658,0.50688022,-0.29373448,0.495176,0.62817287,-0.30458077,0.559317,0.56847301,-0.26636026,0.524038,0.54132799,-0.24906886,0.507829,0.52072228,-0.25057169,0.493526
0.63571329,-0.40602803,0.624972,0.60709283,-0.34485614,0.591252,0.60930692,-0.38513192,0.618989,0.57359208,-0.36044553,0.595351,0.54155782,-0.33356836,0.575107,0.52335959,-0.30748496,0.562159,0.54903988,-0.27497258,0.554646,0.54405489,-0.23382731,0.54707,0.54161975,-0.21238688,0.543281,0.53649538,-0.19014157,0.539837,0.57166357,-0.27851526,0.550926,0.52291492,-0.23469204,0.508449,0.52762562,-0.26620366,0.522286,0.53888461,-0.29228796,0.541995,0.59398483,-0.28734916,0.551266,0.53438675,-0.28838484,0.511936,0.50363006,-0.29704242,0.491813,0.5026833,-0.30253502,0.491096,0.62668085,-0.30631367,0.557806,0.56811086,-0.27532825,0.521853,0.54129578,-0.26005784,0.505334,0.52245108,-0.26310676,0.490759
0.636065,-0.41020012,0.624952,0.60606837,-0.3517386,0.590215,0.60894299,-0.38900657,0.618462,0.57239329,-0.36925342,0.594204,0.54142134,-0.34653245,0.572339,0.52223079,-0.32156206,0.557134,0.54695273,-0.28132831,0.552091,0.54344658,-0.24064424,0.545314,0.54176968,-0.21941255,0.541925,0.53937299,-0.19577251,0.538845,0.56975137,-0.28492579,0.548672,0.51835322,-0.24206209,0.505268,0.52199923,-0.27284014,0.518116,0.53500476,-0.30277721,0.537848,0.5924187,-0.29391542,0.549363,0.53135826,-0.29377941,0.509068,0.50003411,-0.30203461,0.488452,0.4956755,-0.31140154,0.486806,0.62609606,-0.31585592,0.5565,0.56557266,-0.28313076,0.519781,0.53798647,-0.26823214,0.50291,0.51894549,-0.27142322,0.488023
0.62852385,-0.42387971,0.620666,0.59786467,-0.368491,0.585221,0.59898262,-0.40035944,0.611548,0.56878761,-0.37125486,0.583751,0.54751057,-0.33978429,0.563726,0.53876463,-0.31363842,0.55464,0.53895602,-0.28960914,0.543162,0.5357748,-0.24988768,0.534996,0.53430784,-0.22913845,0.530913,0.53305357,-0.20971133,0.527202,0.56498122,-0.29658884,0.542831,0.51273788,-0.25628008,0.49818,0.51914232,-0.2896448,0.510801,0.53460338,-0.32137239,0.530914,0.59008339,-0.30852063,0.546136,0.52974632,-0.30578322,0.503694,0.49701752,-0.31173443,0.48198,0.48892019,-0.32241599,0.479581,0.6261223,-0.33422735,0.556475,0.57356608,-0.28065076,0.518071,0.55853863,-0.26099535,0.508547,0.54549141,-0.25764857,0.500143
0.62192612,-0.43955405,0.620475,0.59371953,-0.38384479,0.584078,0.59230562,-0.41426173,0.610407,0.56625692,-0.39009088,0.581477,0.54186262,-0.35744211,0.559563,0.53210324,-0.33124543,0.550326,0.53507926,-0.30305368,0.539997,0.53375911,-0.26283142,0.534176,0.5331501,-0.24192229,0.531266,0.53266199,-0.22235404,0.52862,0.56183781,-0.31187521,0.54055,0.50981566,-0.27389745,0.494984,0.51447791,-0.30751989,0.506511,0.52947426,-0.34020697,0.526612,0.58745029,-0.32538728,0.544678,0.52632178,-0.3235774,0.501103,0.49283346,-0.32744206,0.478809,0.48294992,-0.33680294,0.475358,0.62386425,-0.35302332,0.556158,0.57267038,-0.29892544,0.516883,0.55775844,-0.27893324,0.506515,0.54434594,-0.27722241,0.497368
0.6188266,-0.45570592,0.62094,0.59232896,-0.40052405,0.583564,0.58948983,-0.42946568,0.610484,0.56577152,-0.40957011,0.581206,0.53839599,-0.37565258,0.557529,0.52791176,-0.34936929,0.548132,0.53408854,-0.31815345,0.53815,0.53333206,-0.27759206,0.530425,0.5324472,-0.25759881,0.526563,0.53167021,-0.23896805,0.523052,0.56083703,-0.32815535,0.538865,0.51264076,-0.27961601,0.492526,0.51273136,-0.30680795,0.502774,0.52771179,-0.33944924,0.522753,0.58637529,-0.34270267,0.543225,0.52451575,-0.34113592,0.498878,0.49061724,-0.34328599,0.476189,0.47930299,-0.35144948,0.471666,0.62257233,-0.37163695,0.555157,0.58089146,-0.32186749,0.523022,0.56179811,-0.29928877,0.508257,0.54422431,-0.2961744,0.495229
0.61662002,-0.4722348,0.621845,0.58940686,-0.41639775,0.582936,0.58725635,-0.44496409,0.610727,0.56267654,-0.42794543,0.580963,0.53334458,-0.39359744,0.55675,0.52115529,-0.36647474,0.546079,0.53108824,-0.33243849,0.535364,0.52939675,-0.29240055,0.526344,0.52826637,-0.27244725,0.521834,0.52734133,-0.2537766,0.517733,0.55796063,-0.34371059,0.536404,0.51046506,-0.29590858,0.48895,0.50975019,-0.32561619,0.496835,0.52374874,-0.3584838,0.516476,0.58354855,-0.35934956,0.541186,0.52081568,-0.35809255,0.495703,0.48556889,-0.3593663,0.472432,0.47045635,-0.36809377,0.466001,0.61970789,-0.38960978,0.553892,0.57907898,-0.34000732,0.520822,0.56044447,-0.31746046,0.505627,0.54269408,-0.31462123,0.49222
0.60371852,-0.47367162,0.609474,0.58287565,-0.41875794,0.574498,0.57875018,-0.44843618,0.601697,0.55352235,-0.43315016,0.575661,0.52192396,-0.40276874,0.553089,0.51026455,-0.37826264,0.543806,0.53281218,-0.33984704,0.53454,0.52503381,-0.30128692,0.520734,0.52127933,-0.28133621,0.513831,0.51795351,-0.26276682,0.507556,0.55555384,-0.35114015,0.532669,0.50556536,-0.31282159,0.488708,0.50534276,-0.34618685,0.501661,0.51718066,-0.37868641,0.521629,0.57730772,-0.36645502,0.534659,0.52203484,-0.31769247,0.49335,0.49600358,-0.32403355,0.472215,0.49407303,-0.33917736,0.470357,0.60809969,-0.39559532,0.543367,0.56278885,-0.3486384,0.508802,0.54203244,-0.32726715,0.492921,0.5205614,-0.32539157,0.478909
0.60206056,-0.47676291,0.607708,0.5810736,-0.4267518,0.572934,0.57663605,-0.45081708,0.599275,0.55001443,-0.4411138,0.572331,0.52078746,-0.41715881,0.546914,0.50821799,-0.39449325,0.533866,0.53091675,-0.34661065,0.53232,0.52159542,-0.30918172,0.516474,0.51693917,-0.2900544,0.50855,0.51280124,-0.27226061,0.501347,0.55482035,-0.35841414,0.531347,0.50436709,-0.32152843,0.487371,0.50595294,-0.3563847,0.500674,0.51879573,-0.38966502,0.520756,0.57747118,-0.37421517,0.534055,0.52657623,-0.32609379,0.492448,0.49715629,-0.33349771,0.47116,0.49521469,-0.34818696,0.469451,0.60919816,-0.40406017,0.543571,0.55930806,-0.35558331,0.505817,0.53710137,-0.3339698,0.489028,0.5154807,-0.33199191,0.474215
0.56770197,-0.41201781,0.610219,0.57488305,-0.40737364,0.573808,0.57486891,-0.39055308,0.59246,0.54216081,-0.34710699,0.555245,0.5262505,-0.31074176,0.523521,0.51518666,-0.29260474,0.500852,0.58155287,-0.3693331,0.519981,0.52464948,-0.33544228,0.476202,0.50690535,-0.33486187,0.481596,0.49078724,-0.33433627,0.486499,0.58018574,-0.4002236,0.530262,0.51302234,-0.36037305,0.484466,0.49295274,-0.35463659,0.491475,0.50771078,-0.36598251,0.510241,0.57827774,-0.42705177,0.542399,0.50969844,-0.38820434,0.495614,0.47493912,-0.36836387,0.471677,0.45274889,-0.36017122,0.464184,0.5742301,-0.46070933,0.563296,0.51796862,-0.41731927,0.522113,0.47942349,-0.39740354,0.503191,0.46102803,-0.39201233,0.49677
0.5634561,-0.41948838,0.605757,0.57451409,-0.42809456,0.573691,0.57216245,-0.40214516,0.590345,0.54430351,-0.36532159,0.555121,0.53314907,-0.32903528,0.526539,0.52522387,-0.31055342,0.505617,0.58880481,-0.39429316,0.526577,0.53555356,-0.36174484,0.48613,0.52280157,-0.36559087,0.496778,0.51074223,-0.36901644,0.506457,0.58540915,-0.42459426,0.535343,0.52218222,-0.38581615,0.492809,0.50848711,-0.38458498,0.506498,0.52378764,-0.39686232,0.526181,0.58136696,-0.45053035,0.545794,0.51688575,-0.41309628,0.502512,0.4840913,-0.39396234,0.480368,0.46632678,-0.38964876,0.478352,0.57406443,-0.48240482,0.563919,0.5221457,-0.43749666,0.525282,0.48626434,-0.41353796,0.50753,0.47131754,-0.40774738,0.50524
0.55223302,-0.42545645,0.592082,0.56898327,-0.43643672,0.56594,0.55956842,-0.40167115,0.576383,0.53704582,-0.36851553,0.542061,0.51531411,-0.33380976,0.511453,0.5070009,-0.31583995,0.490625,0.58837803,-0.4111495,0.523563,0.53563051,-0.38390774,0.48672,0.5260107,-0.38619695,0.49991,0.51680133,-0.38812202,0.511901,0.58520999,-0.44210052,0.534676,0.5297609,-0.41230059,0.497605,0.52018682,-0.41017573,0.514631,0.53453584,-0.41881832,0.533385,0.58085879,-0.46768823,0.546461,0.52695279,-0.43385671,0.507601,0.48916008,-0.40268854,0.487718,0.47431195,-0.38588604,0.489089,0.5724023,-0.49754671,0.565076,0.52685716,-0.4605506,0.530272,0.49318719,-0.43661506,0.514282,0.4809519,-0.43005468,0.514656
0.55070437,-0.429108,0.589871,0.56770767,-0.44600475,0.564734,0.5596724,-0.41136402,0.574065,0.53487011,-0.37779544,0.539946,0.51260167,-0.34304513,0.508914,0.50270463,-0.32550096,0.487899,0.58776975,-0.42107277,0.523085,0.53556979,-0.39453374,0.486868,0.52622878,-0.39709275,0.500322,0.51725489,-0.39925256,0.512553,0.58506568,-0.45250287,0.53467,0.53049997,-0.42381035,0.498576,0.52129624,-0.42184977,0.515958,0.53547142,-0.43011991,0.53447,0.58098024,-0.47842004,0.546743,0.5277259,-0.44554437,0.508659,0.49029954,-0.41442733,0.489174,0.47588573,-0.39769377,0.490982,0.57264626,-0.5085172,0.565513,0.52767149,-0.47237439,0.531403,0.49428584,-0.44837912,0.51573,0.48240875,-0.44172442,0.516456
0.54636781,-0.43465425,0.583888,0.56345401,-0.4522212,0.56023,0.55412581,-0.41664623,0.567773,0.53040078,-0.38778173,0.533089,0.51054886,-0.35750523,0.502191,0.5080223,-0.34342839,0.483114,0.58415808,-0.42909569,0.519464,0.54891784,-0.41143791,0.484119,0.54583741,-0.40922676,0.497793,0.54137518,-0.40536529,0.510225,0.5817416,-0.46083928,0.531936,0.53052395,-0.4344984,0.497313,0.52207866,-0.43221786,0.515009,0.53486016,-0.43940264,0.533193,0.5777627,-0.48685676,0.54459,0.52659921,-0.4555087,0.507623,0.48954488,-0.42395028,0.48871,0.47572234,-0.40745293,0.491009,0.56933078,-0.51674784,0.563773,0.5314967,-0.48801749,0.530686,0.49586672,-0.46677144,0.515484,0.48587696,-0.46267779,0.516617
0.54525117,-0.44191838,0.580926,0.56336844,-0.45957969,0.556533,0.55441544,-0.42409012,0.565073,0.53204218,-0.394255,0.530881,0.5109714,-0.36245546,0.499539,0.50543143,-0.34401171,0.479408,0.58345111,-0.43754955,0.515468,0.54616719,-0.41752159,0.47974,0.54317996,-0.41454623,0.493393,0.5454223,-0.41168138,0.512946,0.57982563,-0.46875155,0.527362,0.52632524,-0.43891878,0.491999,0.51861648,-0.43622062,0.509647,0.53256677,-0.44449955,0.528207,0.57499101,-0.494246,0.539614,0.52192464,-0.45956781,0.502126,0.4847361,-0.42632995,0.482946,0.47075152,-0.40593114,0.485084,0.56584209,-0.52337365,0.558458,0.52636597,-0.49185226,0.524876,0.49068431,-0.46921798,0.509446,0.48056976,-0.46109097,0.510438
0.54658746,-0.45096659,0.580303,0.56378216,-0.46965247,0.55619,0.55651019,-0.43357403,0.564429,0.53202982,-0.40405594,0.530108,0.51077435,-0.37215079,0.498601,0.50724059,-0.35746431,0.479158,0.58403874,-0.44743942,0.515338,0.5469712,-0.42770386,0.479792,0.54407737,-0.42507675,0.493512,0.54746023,-0.42670327,0.51302,0.58056282,-0.47892491,0.527352,0.52736362,-0.44941496,0.492265,0.51973192,-0.4467762,0.510003,0.53361138,-0.45495505,0.528499,0.57581618,-0.50464724,0.539675,0.52298307,-0.47021485,0.50241,0.48587598,-0.43674497,0.483345,0.47275274,-0.41965115,0.485601,0.56671322,-0.53402088,0.558552,0.52744277,-0.50278253,0.525169,0.49180986,-0.4798437,0.509831,0.48226286,-0.47548068,0.510918
0.55231476,-0.45947033,0.581909,0.56865138,-0.47746326,0.558094,0.56341761,-0.44312716,0.566787,0.53987542,-0.41463224,0.532907,0.51953234,-0.38604301,0.501908,0.51483024,-0.37477992,0.48244,0.58861058,-0.46388618,0.518451,0.53547027,-0.4320146,0.483487,0.53725333,-0.44043204,0.497799,0.5366384,-0.44559354,0.517314,0.58108556,-0.49238162,0.529614,0.53143878,-0.46179426,0.49479,0.52619485,-0.45693471,0.51326,0.54150517,-0.46568238,0.532022,0.57337472,-0.51500198,0.541205,0.52150757,-0.47657754,0.504448,0.48790329,-0.43561269,0.485643,0.48556673,-0.42360663,0.488541,0.56155392,-0.53964658,0.559167,0.52834564,-0.50509361,0.526129,0.51299882,-0.49122765,0.51095,0.51329126,-0.475128,0.51251
0.54897566,-0.45857047,0.577014,0.56474275,-0.47772381,0.553879,0.55632981,-0.43974163,0.558056,0.53126461,-0.41344702,0.521159,0.50610646,-0.38393059,0.488394,0.49359075,-0.3715134,0.466992,0.5802582,-0.46523921,0.509967,0.52659064,-0.43928505,0.47382,0.52248612,-0.44420899,0.485028,0.5242433,-0.44555282,0.503769,0.57804816,-0.49686006,0.526212,0.52711881,-0.47241234,0.492496,0.5227391,-0.47539987,0.507154,0.52295651,-0.47843558,0.523951,0.57459029,-0.52208853,0.541918,0.52154866,-0.49317356,0.504666,0.48770951,-0.45087793,0.485607,0.48206681,-0.43303775,0.485711,0.56749659,-0.54981759,0.564594,0.52747707,-0.52487853,0.531703,0.49445283,-0.50267925,0.516591,0.4802975,-0.49234874,0.516153
0.54672753,-0.45750881,0.573061,0.56286764,-0.47757274,0.551097,0.5534512,-0.43855783,0.553423,0.52721109,-0.41253341,0.516053,0.5016428,-0.3888413,0.483092,0.48817979,-0.37859197,0.461902,0.57818547,-0.46579623,0.507333,0.52396779,-0.44539054,0.471814,0.51874899,-0.45042803,0.482459,0.52097768,-0.44661943,0.500727,0.57703373,-0.49770091,0.52483,0.52575977,-0.47915046,0.492467,0.52017737,-0.48248057,0.506447,0.52060836,-0.48123119,0.522542,0.57437919,-0.52298122,0.541449,0.52117741,-0.49620634,0.505099,0.48839139,-0.45392529,0.4865,0.48317226,-0.435215,0.486359,0.56814069,-0.55043779,0.564985,0.52803091,-0.52778711,0.533017,0.49568128,-0.50632605,0.518329,0.48110256,-0.49512648,0.517752
0.54619586,-0.45924789,0.569238,0.56264279,-0.48068201,0.548989,0.55377652,-0.44043702,0.549542,0.5260832,-0.4197468,0.512418,0.49674292,-0.39528237,0.479233,0.48138569,-0.38721135,0.45837,0.57998443,-0.47408187,0.506627,0.52687279,-0.45149332,0.472355,0.52250293,-0.45648767,0.483207,0.52295686,-0.45313592,0.501066,0.57789884,-0.50239173,0.524773,0.52843491,-0.48330983,0.494198,0.52329249,-0.48596426,0.50847,0.52246754,-0.48727721,0.524009,0.57513154,-0.52683655,0.541752,0.52277504,-0.50270468,0.506895,0.491697,-0.46038283,0.489061,0.48718058,-0.43967492,0.489496,0.5685977,-0.55204407,0.5654,0.52934184,-0.53286732,0.534774,0.49805995,-0.5120705,0.520702,0.48392939,-0.49904622,0.5206
0.54671126,-0.45969059,0.568458,0.56228345,-0.4805981,0.547787,0.55401962,-0.44090958,0.54856,0.52462591,-0.416295,0.511196,0.49591435,-0.39407598,0.478114,0.48043398,-0.38590343,0.457192,0.57779815,-0.47058207,0.504805,0.52399317,-0.44764226,0.470164,0.51906844,-0.45236133,0.480687,0.52116305,-0.45165531,0.49856,0.57656313,-0.5018394,0.523065,0.52674934,-0.48221597,0.492109,0.52126,-0.48411274,0.505962,0.52056699,-0.48287311,0.521509,0.57387042,-0.5262865,0.540182,0.52116522,-0.50160298,0.504931,0.4900419,-0.45901037,0.486895,0.48525276,-0.43822375,0.486941,0.56749686,-0.55151596,0.564067,0.52801272,-0.53195837,0.533129,0.49666813,-0.5093995,0.518914,0.48217157,-0.49768275,0.518515
0.54669272,-0.46013152,0.56802,0.56149621,-0.48075428,0.547224,0.55391656,-0.44147268,0.548183,0.52438854,-0.41614881,0.510876,0.49617653,-0.39061273,0.47776,0.48159549,-0.38164457,0.45679,0.57694103,-0.47229574,0.504212,0.52292897,-0.4474802,0.469496,0.51816524,-0.4523068,0.480081,0.52019875,-0.45174656,0.49801,0.5750975,-0.5018243,0.522354,0.52535227,-0.48183486,0.491251,0.51991874,-0.48365575,0.505181,0.51938019,-0.48277506,0.520804,0.57221163,-0.52616945,0.539385,0.51949034,-0.5012021,0.504031,0.48605386,-0.45812274,0.485943,0.48405474,-0.43986299,0.486016,0.56588262,-0.55130334,0.563194,0.52623153,-0.53132356,0.532151,0.49480347,-0.5100237,0.517888,0.48050758,-0.49706975,0.517505
0.54452249,-0.4578253,0.567254,0.55978248,-0.48009002,0.546257,0.55151577,-0.43963577,0.54787,0.52324094,-0.41548163,0.510814,0.49590655,-0.39237507,0.478046,0.48300304,-0.38200751,0.457332,0.57367103,-0.46881954,0.503646,0.5203738,-0.44569069,0.468911,0.51704258,-0.45180534,0.480045,0.51957876,-0.45186994,0.4982,0.57160702,-0.49968483,0.521146,0.52270945,-0.48001134,0.489711,0.51652963,-0.4811948,0.504321,0.51792015,-0.48156997,0.520278,0.56705215,-0.52547869,0.53767,0.5155059,-0.498897,0.502193,0.48156523,-0.45851857,0.484042,0.48072354,-0.4391106,0.484555,0.55982359,-0.55110177,0.560917,0.52159548,-0.52832577,0.529679,0.48995625,-0.50692245,0.515326,0.47759191,-0.49510057,0.515257
0.54436942,-0.45866205,0.56762,0.55600964,-0.47949919,0.545986,0.55122836,-0.44028677,0.548168,0.51847524,-0.41519589,0.510881,0.49643226,-0.39044128,0.478994,0.4853364,-0.38168056,0.45871,0.56867831,-0.46744794,0.502742,0.51726541,-0.44274574,0.467518,0.5126356,-0.44805825,0.478458,0.5150103,-0.44962479,0.496727,0.5664311,-0.4987552,0.520114,0.51742942,-0.47734539,0.48804,0.51055536,-0.47631902,0.502395,0.51239695,-0.47876977,0.518503,0.56290592,-0.52344063,0.536597,0.51178171,-0.49799206,0.500557,0.4782771,-0.45610667,0.482117,0.47439503,-0.43899994,0.482312,0.55570549,-0.55000008,0.559913,0.51568276,-0.52682152,0.528186,0.48259633,-0.50390646,0.513608,0.47470592,-0.49400995,0.513287
0.54642408,-0.46135296,0.569079,0.55457269,-0.47779513,0.546369,0.55148815,-0.44038375,0.548682,0.50986625,-0.40985848,0.510469,0.48529245,-0.38738723,0.478646,0.48047892,-0.38487119,0.459875,0.56431452,-0.46423136,0.501,0.50693511,-0.43567303,0.464745,0.49944485,-0.43783926,0.47421,0.5010404,-0.43830749,0.492297,0.56178082,-0.49427824,0.519209,0.5080623,-0.46895068,0.486314,0.4982907,-0.46398389,0.498807,0.49697092,-0.46174599,0.514627,0.55860328,-0.51851937,0.536489,0.50191273,-0.48829531,0.499426,0.46948142,-0.44591978,0.480465,0.46655627,-0.43188671,0.479115,0.55235371,-0.54421948,0.560937,0.51020957,-0.51964631,0.528486,0.47629425,-0.49439814,0.513577,0.47329376,-0.4913318,0.512098
0.54626643,-0.46119784,0.56831,0.5536634,-0.47670646,0.545891,0.55157283,-0.44094638,0.547962,0.50924299,-0.40935747,0.509845,0.48466587,-0.38688706,0.478028,0.47871755,-0.38328596,0.459162,0.56400003,-0.46376459,0.500835,0.5069962,-0.43572552,0.464801,0.4996418,-0.43801192,0.474397,0.5011951,-0.43844282,0.492449,0.56164016,-0.49415449,0.519079,0.50821901,-0.46909532,0.486464,0.49836099,-0.46258466,0.499126,0.49775742,-0.45924227,0.514898,0.55846792,-0.51839373,0.536359,0.50203734,-0.48841654,0.49955,0.46972766,-0.44615366,0.480717,0.4666588,-0.43110022,0.479548,0.55217351,-0.54404193,0.560754,0.51024046,-0.51967777,0.528518,0.47641388,-0.49452233,0.513706,0.47297741,-0.49088904,0.512368
0.54657345,-0.46218935,0.570269,0.55099189,-0.47281389,0.546634,0.55020687,-0.44068444,0.549875,0.5107988,-0.39927699,0.511469,0.48522868,-0.37118355,0.480163,0.47223605,-0.35993357,0.459701,0.55921191,-0.45509517,0.500474,0.50487096,-0.43281045,0.463559,0.49701731,-0.43464193,0.472819,0.49909082,-0.43527368,0.491085,0.55731717,-0.48617022,0.518369,0.50562772,-0.46572419,0.48454,0.49522387,-0.45797253,0.496758,0.49516848,-0.45472221,0.51283,0.55434389,-0.51076149,0.535484,0.49849061,-0.48621166,0.497635,0.45344784,-0.45244398,0.47827,0.44376218,-0.43555803,0.476534,0.55030602,-0.54127738,0.559908,0.50832038,-0.51663338,0.526759,0.47464674,-0.48822969,0.511529,0.46383185,-0.47624845,0.509739
0.53881046,-0.45066197,0.567603,0.5466668,-0.4580281,0.545755,0.54202373,-0.42680733,0.548104,0.50992177,-0.38857985,0.510908,0.48175688,-0.35950627,0.477996,0.46849099,-0.34793481,0.456981,0.56126364,-0.44663693,0.502265,0.50750352,-0.42200326,0.466871,0.50082691,-0.4249432,0.477711,0.50267646,-0.42587781,0.496009,0.5586396,-0.47728288,0.519626,0.50795448,-0.45473619,0.487344,0.49862251,-0.44686987,0.501572,0.49843815,-0.44322875,0.517714,0.55487131,-0.50132605,0.536121,0.49812395,-0.47703854,0.499888,0.45688541,-0.44614489,0.48135,0.44693671,-0.43085894,0.481409,0.54752398,-0.52696324,0.55949,0.50777943,-0.50327068,0.5276,0.47454366,-0.47929788,0.512948,0.4644697,-0.46975815,0.512521
0.53855566,-0.44869916,0.56863,0.54394113,-0.45584653,0.544847,0.54097046,-0.42393196,0.54804,0.50299897,-0.38346376,0.509633,0.47208326,-0.35327443,0.476215,0.45666065,-0.34094532,0.454774,0.5528934,-0.44218474,0.49831,0.49434787,-0.41429632,0.461247,0.48482811,-0.41452136,0.470181,0.48759683,-0.4152346,0.488375,0.55090703,-0.47301178,0.516404,0.49519847,-0.44692307,0.482494,0.48406754,-0.43466096,0.494301,0.48878351,-0.43362825,0.510274,0.5479396,-0.49724038,0.533698,0.48628792,-0.46920859,0.495714,0.4448133,-0.43682698,0.47628,0.43749055,-0.42226644,0.474227,0.54423629,-0.52453071,0.558358,0.49805814,-0.49658012,0.525131,0.46469767,-0.47144319,0.509865,0.45739489,-0.46307297,0.507839
0.53139615,-0.40622959,0.566409,0.53486905,-0.42819877,0.543688,0.53649932,-0.39069682,0.5449,0.48976009,-0.3610018,0.506079,0.46144974,-0.33908863,0.473111,0.45344863,-0.3379927,0.454184,0.54123442,-0.42460112,0.496902,0.48430885,-0.39518583,0.46046,0.48263391,-0.40272218,0.468108,0.48131201,-0.40411995,0.485544,0.53788726,-0.45272041,0.516515,0.48853064,-0.4269044,0.484063,0.48345232,-0.42430996,0.494278,0.4853418,-0.42450484,0.509223,0.53414405,-0.47415302,0.534951,0.48084967,-0.44070391,0.497895,0.45652957,-0.39890027,0.478936,0.45484548,-0.38115985,0.476018,0.52807797,-0.49573622,0.560762,0.50365563,-0.4856168,0.528561,0.47111508,-0.4606597,0.513766,0.45981596,-0.4476915,0.511144
0.51157637,-0.39088995,0.550257,0.51871232,-0.41459886,0.538516,0.52367984,-0.38019723,0.536082,0.50475562,-0.36547761,0.506039,0.46501359,-0.34619138,0.473012,0.42346434,-0.33475327,0.452336,0.54057696,-0.42048181,0.510466,0.51990847,-0.41009172,0.484905,0.54171436,-0.4306081,0.501718,0.54455473,-0.43454205,0.518521,0.53127044,-0.44482286,0.524474,0.52150629,-0.4416506,0.502136,0.5318579,-0.43593281,0.523932,0.53546301,-0.42941813,0.538854,0.52159877,-0.46287087,0.537188,0.5054924,-0.45064583,0.51137,0.48201629,-0.41400789,0.49816,0.48217055,-0.40398861,0.50612,0.50661826,-0.47987901,0.554273,0.50620283,-0.47813883,0.530863,0.47925452,-0.45827206,0.520107,0.47003437,-0.45242149,0.525733
0.49688138,-0.37797141,0.544866,0.50756762,-0.40225218,0.535809,0.51108064,-0.36807144,0.53239,0.49326398,-0.35221738,0.504878,0.4497351,-0.33069088,0.471091,0.40886983,-0.31996481,0.451389,0.53529104,-0.41183825,0.512221,0.51686583,-0.40205075,0.489614,0.53895842,-0.42180461,0.507629,0.53992793,-0.42423364,0.523746,0.52477297,-0.43543208,0.524978,0.51691341,-0.43235792,0.50549,0.52731278,-0.42666868,0.528797,0.5301113,-0.42019744,0.543161,0.51379658,-0.45256528,0.536393,0.49954579,-0.44068111,0.513656,0.47724757,-0.40573952,0.502023,0.47767311,-0.39660609,0.511827,0.49677127,-0.46798534,0.55146,0.49795135,-0.46631476,0.530592,0.47178412,-0.44756195,0.521004,0.46388477,-0.44360076,0.528049
0.50730528,-0.38777225,0.562183,0.512643,-0.41032246,0.546954,0.516253,-0.37385295,0.549027,0.49671748,-0.35808768,0.519022,0.45979165,-0.33526041,0.484935,0.41996311,-0.3262801,0.463933,0.52946154,-0.4166735,0.517192,0.50653419,-0.39504395,0.489469,0.52754756,-0.40934961,0.506681,0.5301529,-0.4110214,0.524497,0.518187,-0.43948399,0.528742,0.51075034,-0.4288439,0.502647,0.51725823,-0.42700408,0.524867,0.51751956,-0.42125629,0.541281,0.50703175,-0.45635549,0.539785,0.4875993,-0.43558263,0.51116,0.47067723,-0.41594101,0.496515,0.4626435,-0.40201062,0.50407,0.49059107,-0.47205854,0.55554,0.49462953,-0.46396603,0.529462,0.46694,-0.44331803,0.517481,0.45651693,-0.4382251,0.522697
0.51967604,-0.46362821,0.598834,0.5264997,-0.45632888,0.56255,0.52966817,-0.43960396,0.585386,0.49500059,-0.39581381,0.552357,0.46666437,-0.3575396,0.523467,0.44832397,-0.33612752,0.501347,0.53902181,-0.41609299,0.514287,0.4799658,-0.37023841,0.472651,0.47931345,-0.36886538,0.481225,0.48078551,-0.37024603,0.501079,0.53240164,-0.44637327,0.519156,0.46665527,-0.39392374,0.47321,0.45497895,-0.38799089,0.484122,0.45600266,-0.39247596,0.504166,0.52541867,-0.4687911,0.526825,0.45964737,-0.41291181,0.481547,0.42449447,-0.38479223,0.458381,0.40580373,-0.36874179,0.454011,0.51405619,-0.50159099,0.542447,0.46158177,-0.44390657,0.501985,0.43473161,-0.41413146,0.483394,0.41543664,-0.39975934,0.479232
0.51242851,-0.46113197,0.600948,0.52373324,-0.45301188,0.573879,0.51137905,-0.42996896,0.586661,0.48136224,-0.38610007,0.556185,0.45495493,-0.34653693,0.527844,0.43997121,-0.32365164,0.506533,0.54524738,-0.41489998,0.532491,0.5016313,-0.38290217,0.495771,0.51202297,-0.39152768,0.509461,0.51020911,-0.39342376,0.529421,0.5446391,-0.44690641,0.541507,0.49837417,-0.41472495,0.503532,0.49444523,-0.42028035,0.521132,0.49139905,-0.42413417,0.540393,0.54209721,-0.47468886,0.55166,0.49346845,-0.44616483,0.512589,0.44982334,-0.4244289,0.492599,0.44708583,-0.42242144,0.494336,0.53496816,-0.509523,0.568523,0.49597832,-0.46988185,0.533361,0.46853441,-0.4477933,0.517205,0.45351709,-0.4362655,0.517808
0.49701402,-0.45579114,0.600104,0.51233119,-0.45148023,0.5733,0.5051956,-0.4288256,0.585838,0.46991277,-0.38459851,0.555577,0.44357775,-0.34506923,0.527243,0.42877076,-0.32231911,0.506125,0.53466744,-0.41363345,0.532165,0.49121686,-0.38177884,0.495631,0.50101797,-0.39042275,0.509435,0.50440469,-0.39281449,0.529366,0.53218215,-0.44774889,0.541244,0.48778784,-0.41366933,0.503519,0.48334234,-0.41928006,0.521268,0.48562803,-0.42362779,0.540485,0.53116172,-0.47342571,0.551421,0.48265599,-0.44508005,0.512568,0.43977486,-0.42350529,0.492689,0.43755688,-0.42166797,0.494582,0.52369944,-0.50820295,0.568266,0.48486064,-0.46872634,0.533289,0.45763304,-0.44672684,0.517219,0.44744729,-0.43647421,0.517945
0.50518803,-0.4642054,0.61688,0.49298799,-0.43467005,0.576284,0.49677271,-0.42583482,0.601875,0.46999485,-0.38803465,0.568457,0.45151163,-0.35390044,0.539805,0.43836407,-0.33264029,0.517898,0.49283705,-0.37851813,0.522339,0.41674643,-0.33441656,0.478467,0.40012599,-0.32926642,0.480381,0.39595787,-0.33449242,0.498457,0.49056254,-0.40902494,0.527733,0.40588819,-0.36181917,0.479269,0.38182918,-0.35866907,0.481679,0.39413001,-0.37282072,0.499966,0.48867785,-0.43706187,0.53627,0.40480215,-0.39138094,0.488524,0.37187564,-0.37309044,0.464096,0.35277596,-0.36545521,0.453288,0.48623699,-0.47486033,0.553698,0.41601826,-0.42124615,0.511664,0.38402931,-0.4002676,0.49235,0.3764097,-0.39540634,0.483347
0.49481528,-0.45575046,0.615372,0.48293369,-0.42353255,0.574007,0.49356201,-0.42107389,0.601247,0.46142769,-0.37844093,0.569491,0.43810478,-0.34432286,0.542108,0.42511883,-0.3245027,0.520525,0.48059365,-0.36713148,0.520514,0.41728934,-0.32363889,0.477177,0.39504877,-0.3212531,0.477657,0.3916327,-0.33354278,0.494951,0.47630632,-0.39636557,0.524537,0.39031826,-0.34772218,0.475965,0.36638106,-0.34343159,0.476506,0.37971915,-0.35791412,0.494245,0.47311978,-0.42339908,0.532023,0.38837292,-0.37638418,0.484622,0.35832863,-0.3597889,0.460371,0.34057266,-0.35232064,0.448399,0.46985481,-0.46013634,0.548354,0.39934943,-0.40557902,0.506665,0.36945634,-0.3857113,0.48751,0.36286657,-0.38138467,0.477621
0.44583125,-0.41604536,0.57156,0.4552892,-0.39979711,0.536397,0.45873137,-0.39298272,0.563505,0.42774184,-0.34430871,0.539384,0.40156546,-0.30118349,0.516397,0.38415916,-0.27377722,0.49685,0.47671139,-0.35670999,0.495926,0.41783841,-0.3109195,0.458561,0.40784269,-0.31855969,0.468751,0.4250857,-0.33909668,0.487035,0.46521343,-0.38001366,0.494344,0.39782226,-0.32560327,0.450168,0.3865164,-0.33220708,0.462962,0.40584951,-0.35335427,0.482794,0.45464787,-0.40152984,0.49659,0.3871543,-0.34802321,0.454988,0.35226903,-0.32982027,0.433703,0.35528208,-0.33493943,0.431658,0.43998882,-0.4307065,0.505633,0.39081957,-0.36857513,0.46788,0.37143658,-0.34441451,0.450534,0.37256378,-0.34772152,0.448063
0.4790216,-0.43666227,0.575823,0.47164246,-0.39860874,0.540415,0.49029932,-0.41678221,0.576717,0.46271792,-0.38664165,0.553482,0.43473474,-0.38898679,0.543045,0.41627092,-0.37983667,0.524941,0.47604297,-0.33662232,0.511058,0.40661499,-0.30560222,0.482986,0.38653212,-0.30047542,0.484753,0.37592789,-0.30198864,0.496535,0.46040746,-0.35195354,0.498068,0.39416739,-0.30390824,0.458761,0.36972321,-0.30497014,0.460481,0.36957703,-0.31866183,0.47524,0.44846602,-0.36863615,0.490949,0.38275933,-0.32736978,0.457649,0.34508516,-0.30906979,0.440612,0.32389633,-0.30205944,0.433334,0.43607347,-0.39555142,0.489028,0.37479982,-0.34515523,0.458636,0.37883898,-0.34247515,0.459296,0.39598428,-0.35241434,0.470248
0.4702426,-0.43188362,0.575404,0.46015987,-0.39953459,0.541403,0.4831792,-0.41285732,0.577992,0.45201311,-0.38491115,0.555908,0.42367605,-0.38219115,0.546585,0.40466468,-0.36853802,0.528699,0.46489483,-0.33157165,0.515404,0.3979659,-0.30390001,0.49008,0.37680841,-0.29870541,0.49073,0.36477894,-0.29980897,0.500983,0.44775287,-0.34453042,0.500741,0.36699111,-0.30927141,0.463768,0.36577832,-0.32545972,0.464022,0.38205685,-0.3463895,0.477476,0.43471236,-0.35966244,0.492102,0.37336424,-0.31803773,0.461557,0.33919495,-0.30452663,0.44593,0.31876665,-0.2995181,0.43839,0.42128388,-0.38548968,0.488138,0.36235823,-0.33843453,0.460174,0.36719966,-0.33724914,0.459898,0.38466952,-0.34795355,0.469633
0.46889769,-0.43381114,0.585338,0.45261956,-0.39244547,0.55063,0.48286649,-0.41371627,0.587284,0.4452033,-0.380722,0.56762,0.41502203,-0.36454545,0.554401,0.39774743,-0.345573,0.536255,0.45844681,-0.33328423,0.523208,0.39370315,-0.30172265,0.498074,0.37068712,-0.29243887,0.495227,0.35831753,-0.29072882,0.504008,0.43834319,-0.34731675,0.509121,0.36046838,-0.30812665,0.472569,0.35631288,-0.31913527,0.468376,0.37298853,-0.33792398,0.480282,0.42300117,-0.36266189,0.501028,0.3606752,-0.31485891,0.470749,0.32703796,-0.30658464,0.455258,0.30293335,-0.30388776,0.444751,0.40715588,-0.38752365,0.497834,0.35360446,-0.33793895,0.470444,0.35783676,-0.33363881,0.467132,0.37603709,-0.34531915,0.475488
0.46488247,-0.43062831,0.589211,0.44641151,-0.38999916,0.554586,0.47767196,-0.40973437,0.591253,0.43856517,-0.37880036,0.571898,0.40883775,-0.36217071,0.558518,0.39220824,-0.34284199,0.540472,0.45255689,-0.32993507,0.527357,0.38819907,-0.29953674,0.502317,0.36517507,-0.29072154,0.499587,0.35248541,-0.28926809,0.508378,0.43325597,-0.34378756,0.513176,0.35585719,-0.3059756,0.476691,0.35173609,-0.31776571,0.472645,0.36821124,-0.33669746,0.484572,0.41846817,-0.35911798,0.504998,0.35658954,-0.31194824,0.47481,0.32303151,-0.30454909,0.459365,0.29895211,-0.30265933,0.448983,0.403071,-0.38420204,0.501688,0.34937824,-0.33576289,0.474363,0.35344519,-0.3319211,0.471154,0.37148899,-0.34357301,0.479527
0.46486574,-0.42516497,0.563305,0.44380349,-0.38158979,0.539423,0.47741651,-0.4071777,0.573008,0.44643399,-0.37466505,0.565362,0.42274267,-0.38492272,0.579051,0.39894555,-0.3747754,0.572248,0.42913055,-0.31880205,0.531138,0.3818759,-0.2892186,0.521381,0.35825293,-0.27432801,0.515607,0.33602578,-0.26013731,0.508586,0.40933536,-0.32667157,0.51086,0.36470731,-0.28497448,0.489058,0.33462228,-0.28719709,0.479053,0.33098171,-0.29987477,0.483003,0.39600298,-0.33744165,0.496579,0.34106967,-0.30762602,0.482287,0.32057432,-0.31279638,0.474975,0.30149043,-0.31507842,0.465847,0.38565157,-0.35781268,0.484139,0.33759704,-0.327151,0.470772,0.31639312,-0.31352319,0.464542,0.29728852,-0.30456082,0.459045
0.47204312,-0.42814477,0.567593,0.44821165,-0.38061475,0.545639,0.48055416,-0.40868886,0.578601,0.43786068,-0.38753637,0.565243,0.41717382,-0.38132423,0.574567,0.39172249,-0.36601678,0.563293,0.42371937,-0.32136242,0.540668,0.38198712,-0.28903781,0.533206,0.36128229,-0.27300085,0.529476,0.34075557,-0.25713796,0.523323,0.4086118,-0.32672652,0.519383,0.3498177,-0.29867612,0.499767,0.33008903,-0.3108796,0.492066,0.33419449,-0.32691622,0.496745,0.39942716,-0.33546936,0.504079,0.34111473,-0.32035846,0.492171,0.31919798,-0.32951147,0.486079,0.30353065,-0.33892139,0.478043,0.39448483,-0.35352811,0.490085,0.34389102,-0.33209628,0.478715,0.32236134,-0.32053871,0.473303,0.30321922,-0.31280699,0.468527
0.45357764,-0.42169076,0.57135,0.43447508,-0.37985049,0.548809,0.46528891,-0.40694416,0.582462,0.41955743,-0.38870204,0.569431,0.39923496,-0.39378265,0.581205,0.37896329,-0.37753146,0.572223,0.42624387,-0.32078664,0.543465,0.38299602,-0.28858185,0.534818,0.36157793,-0.27263245,0.530495,0.34170857,-0.257831,0.525766,0.41206463,-0.32128185,0.521852,0.35014202,-0.29683527,0.500745,0.33351558,-0.31225858,0.495941,0.33862563,-0.33008917,0.502068,0.4020218,-0.32851264,0.506337,0.34738502,-0.29955363,0.493086,0.32384572,-0.31064973,0.486306,0.31461961,-0.32465948,0.479899,0.39364407,-0.34606468,0.492202,0.34313547,-0.33185729,0.479427,0.31993926,-0.32257872,0.473557,0.30014309,-0.31593852,0.468378
0.46208099,-0.43046279,0.58244,0.444433,-0.38419157,0.55885,0.46725421,-0.41548947,0.591471,0.43572454,-0.40527658,0.592318,0.405118,-0.40051106,0.589273,0.3867848,-0.38607167,0.583109,0.43136084,-0.31815672,0.549968,0.38240008,-0.28951322,0.53536,0.35526707,-0.27719851,0.528055,0.33796241,-0.26927492,0.529959,0.42460767,-0.31941288,0.530638,0.35800876,-0.29791112,0.503988,0.34510999,-0.3230085,0.512422,0.3543309,-0.34601632,0.524709,0.42099089,-0.32582003,0.517106,0.35773435,-0.32259424,0.497741,0.35243586,-0.33190713,0.487833,0.36765721,-0.3399091,0.488826,0.42024146,-0.34322186,0.505495,0.36132947,-0.33209919,0.486561,0.35415828,-0.33041139,0.477862,0.35353401,-0.33388588,0.477812
0.46148644,-0.4313375,0.581176,0.44460346,-0.38290531,0.558231,0.46583408,-0.41556158,0.59039,0.43513523,-0.40525919,0.591831,0.40390844,-0.39962226,0.587349,0.3859036,-0.38544026,0.581474,0.43149104,-0.31825275,0.550134,0.38235358,-0.29016523,0.535979,0.35583624,-0.27764261,0.528901,0.33885138,-0.26998322,0.531353,0.4247285,-0.31950377,0.530789,0.35849748,-0.29831781,0.504676,0.34630178,-0.32407128,0.513812,0.35550583,-0.34747309,0.526126,0.42105195,-0.32586729,0.517181,0.3581512,-0.32297015,0.498321,0.353042,-0.33247796,0.488672,0.36874779,-0.34091737,0.490276,0.42013006,-0.34313088,0.505361,0.36152626,-0.33228006,0.486826,0.3544903,-0.33072115,0.47831,0.35421028,-0.33452457,0.478726
0.47858757,-0.44268024,0.596229,0.45158921,-0.38619155,0.567639,0.47784365,-0.42202068,0.602964,0.43783111,-0.40496669,0.595533,0.41091803,-0.40725841,0.596701,0.39085174,-0.39796364,0.586941,0.41479507,-0.32053805,0.551545,0.36787614,-0.28274966,0.532602,0.34463848,-0.26403723,0.52313,0.32574267,-0.24873587,0.517848,0.41059477,-0.32574606,0.533447,0.35020955,-0.29450127,0.50226,0.34018561,-0.31861209,0.505902,0.34943098,-0.34165136,0.518327,0.41036332,-0.33501386,0.521434,0.34549057,-0.3294482,0.497423,0.33736973,-0.33647191,0.485138,0.35259299,-0.33582254,0.481647,0.41593072,-0.35496967,0.512519,0.35878026,-0.35094378,0.489882,0.3537301,-0.34950639,0.479481,0.353979,-0.35181102,0.47601
0.47888164,-0.44334633,0.599888,0.45233019,-0.38708893,0.570299,0.47979013,-0.42322271,0.606359,0.44016688,-0.41012321,0.600738,0.4123512,-0.41867961,0.603905,0.39082369,-0.4109131,0.595331,0.41317054,-0.32178142,0.553011,0.36850137,-0.28251579,0.534135,0.34631064,-0.26301607,0.524697,0.32865508,-0.2471981,0.519961,0.40965158,-0.3266134,0.534912,0.349745,-0.2954953,0.503726,0.33519909,-0.31690463,0.503516,0.34628349,-0.33915537,0.514731,0.41016756,-0.33561213,0.523001,0.34574628,-0.33157044,0.49903,0.33807646,-0.33860347,0.486765,0.3514228,-0.33555613,0.480661,0.41695834,-0.35534,0.514385,0.3603911,-0.35292507,0.492045,0.35460951,-0.35172328,0.481781,0.35245276,-0.3527588,0.476364
0.48081592,-0.4415597,0.599951,0.45170742,-0.38648905,0.569849,0.47910528,-0.42222536,0.606006,0.43943902,-0.41012408,0.598986,0.41334335,-0.41552425,0.601827,0.39217061,-0.40677148,0.592602,0.4126123,-0.32130301,0.551594,0.36723714,-0.28232288,0.531963,0.34469084,-0.26295961,0.522148,0.32690852,-0.24742314,0.517384,0.40971445,-0.32632322,0.533849,0.34896531,-0.2973417,0.501964,0.3376572,-0.31813959,0.501919,0.34573348,-0.33877824,0.513438,0.41076728,-0.33550747,0.522281,0.3460548,-0.33121414,0.497534,0.3378449,-0.33787888,0.484873,0.35087614,-0.33461514,0.478674,0.41823751,-0.35551555,0.514163,0.36097126,-0.35280921,0.491148,0.35436476,-0.3513535,0.480574,0.35157462,-0.35232413,0.475076
0.48233222,-0.43984598,0.594992,0.45009624,-0.38812192,0.56558,0.47399084,-0.42036098,0.60157,0.43863688,-0.40892126,0.597279,0.41199181,-0.41695242,0.599608,0.39142614,-0.41010833,0.591423,0.41781625,-0.32493002,0.54858,0.37722046,-0.28650368,0.529803,0.3540113,-0.26679062,0.520414,0.33556329,-0.25197537,0.516176,0.41387327,-0.32616791,0.530406,0.35513318,-0.288738,0.499304,0.33861863,-0.31087166,0.499533,0.35449621,-0.33151742,0.510855,0.41095429,-0.33435409,0.518413,0.34815221,-0.3293762,0.494543,0.33670168,-0.33618379,0.48233,0.34969322,-0.33374715,0.476551,0.41710395,-0.35306124,0.509671,0.36034095,-0.34846153,0.487385,0.35301176,-0.34918567,0.477145,0.34905098,-0.35006201,0.471972
0.47871146,-0.43690694,0.589829,0.45644429,-0.39039117,0.561655,0.47231223,-0.42462163,0.596946,0.44492312,-0.40658437,0.593555,0.41819015,-0.4134737,0.593375,0.39409456,-0.40874178,0.585104,0.42789373,-0.32188364,0.546406,0.37741716,-0.2858879,0.52816,0.35401182,-0.26633327,0.519037,0.33667214,-0.25231188,0.516369,0.42231669,-0.32496718,0.527962,0.3609411,-0.28893837,0.497409,0.34834093,-0.31349439,0.500727,0.36629912,-0.33418843,0.51282,0.42148369,-0.33179917,0.515624,0.3565276,-0.32561486,0.492326,0.34554933,-0.33437555,0.480407,0.35892483,-0.33301939,0.476884,0.42588449,-0.35014644,0.506249,0.36627653,-0.34501865,0.484243,0.35819621,-0.34531894,0.474132,0.3552058,-0.34898614,0.470647
0.47566846,-0.44002467,0.585546,0.45458738,-0.38866392,0.55696,0.47281156,-0.42565871,0.592402,0.44226597,-0.4242447,0.58973,0.41046932,-0.423255,0.588023,0.38679281,-0.40365136,0.579861,0.42869179,-0.3256936,0.541025,0.38529116,-0.28725618,0.522342,0.36360557,-0.26805158,0.513,0.34799668,-0.25358647,0.510516,0.42333036,-0.3263235,0.522774,0.35492353,-0.32774971,0.491802,0.33126543,-0.34214922,0.494829,0.33689987,-0.36848508,0.506982,0.41958441,-0.33062023,0.510636,0.35586795,-0.33140575,0.486883,0.32789999,-0.33684069,0.47473,0.32196495,-0.34911616,0.470888,0.42357294,-0.34893953,0.501572,0.36297917,-0.34133688,0.479194,0.35858672,-0.33782926,0.468913,0.36872148,-0.33598335,0.465184
0.47898326,-0.44279236,0.581261,0.46379324,-0.39155583,0.553895,0.47876829,-0.42874689,0.588726,0.45135571,-0.4221779,0.586857,0.41969294,-0.42075731,0.584553,0.39517356,-0.40386254,0.576769,0.43814753,-0.32494352,0.539779,0.39555806,-0.28711595,0.522087,0.3742377,-0.26817751,0.513241,0.35958976,-0.25430473,0.511962,0.43256811,-0.32531976,0.521166,0.36452359,-0.32734785,0.491199,0.34207914,-0.34279434,0.495762,0.34792264,-0.3692497,0.508034,0.4307672,-0.33135677,0.508607,0.36547192,-0.33074073,0.485906,0.33759193,-0.3365292,0.474291,0.33228162,-0.34977304,0.471774,0.43373259,-0.34908023,0.498825,0.37225346,-0.33986708,0.477251,0.36704461,-0.33669527,0.467339,0.37770363,-0.33557094,0.464613
0.51223926,-0.43758905,0.568646,0.47964029,-0.38649049,0.542747,0.50954313,-0.42223466,0.5778,0.47423471,-0.42217858,0.579511,0.44598109,-0.43214283,0.583532,0.42265056,-0.42284939,0.57811,0.44879331,-0.32478907,0.532032,0.40295681,-0.29581222,0.518113,0.37980424,-0.28118299,0.511153,0.36067805,-0.26933983,0.507735,0.44093376,-0.32632153,0.511773,0.37754954,-0.33523268,0.485279,0.35370664,-0.34982037,0.484788,0.36128047,-0.37261491,0.494218,0.43781166,-0.3327674,0.497711,0.37671174,-0.34006335,0.478875,0.35268348,-0.34764424,0.469238,0.3488007,-0.35655278,0.464303,0.44022908,-0.34984467,0.485896,0.38301123,-0.34579569,0.467977,0.38716273,-0.34605015,0.467453,0.40621546,-0.34857398,0.473557
0.51499823,-0.43540971,0.565538,0.48912272,-0.3855811,0.541013,0.51296133,-0.42067982,0.575428,0.4834069,-0.42064527,0.576904,0.45532686,-0.43029351,0.580491,0.43211752,-0.42090576,0.574916,0.45989751,-0.32517462,0.532414,0.40781736,-0.29168048,0.510725,0.38194253,-0.27503372,0.49988,0.36257544,-0.26290128,0.49556,0.45171709,-0.32646232,0.511683,0.38837055,-0.33610882,0.486155,0.3661183,-0.35245208,0.487992,0.37401279,-0.37568901,0.497802,0.44821432,-0.33260574,0.497094,0.38744872,-0.34067321,0.479299,0.36339464,-0.34869852,0.470194,0.36056518,-0.35909154,0.467121,0.44995973,-0.34911346,0.484409,0.39266033,-0.34558657,0.467222,0.39781689,-0.34702396,0.46831,0.41723891,-0.34980734,0.474781
0.51567444,-0.43828287,0.565991,0.49156607,-0.38793885,0.541341,0.51430058,-0.42296525,0.575462,0.48397558,-0.41886847,0.576927,0.45552391,-0.42805152,0.57712,0.4336092,-0.41994726,0.571128,0.47548267,-0.32612871,0.532103,0.42327828,-0.29356428,0.510972,0.39735766,-0.277389,0.500407,0.37915189,-0.26643686,0.497689,0.4668004,-0.32744916,0.511861,0.3980606,-0.32890449,0.485431,0.38034915,-0.3498941,0.489536,0.38735601,-0.37507545,0.500385,0.46202303,-0.33393139,0.497687,0.39736366,-0.33139785,0.478859,0.36533241,-0.32987673,0.469226,0.35442394,-0.34346072,0.467423,0.46069203,-0.35145697,0.485513,0.40051319,-0.34116868,0.46729,0.40791079,-0.3470685,0.469904,0.42828926,-0.35429901,0.477331
0.52929357,-0.44862932,0.58032,0.51657222,-0.39910389,0.54864,0.5285815,-0.42883966,0.584775,0.50432495,-0.39471631,0.578663,0.48160991,-0.36492202,0.573443,0.47088103,-0.33819163,0.563574,0.50718818,-0.33122806,0.527001,0.44179261,-0.32555613,0.504334,0.42701072,-0.33616445,0.493001,0.43729669,-0.34174055,0.488983,0.49921366,-0.34276735,0.510753,0.41785895,-0.32678466,0.476123,0.40989055,-0.34561981,0.478355,0.43356375,-0.36219575,0.491582,0.49416162,-0.35713961,0.500575,0.42692574,-0.33305264,0.47273,0.39302169,-0.32078188,0.458484,0.36816222,-0.32213776,0.453013,0.49091116,-0.38286249,0.494379,0.42181175,-0.35742948,0.468567,0.4229781,-0.36486871,0.469703,0.43167848,-0.37784683,0.479229
0.52837668,-0.44788977,0.574328,0.52817114,-0.407104,0.545821,0.53352571,-0.42880219,0.580062,0.52080866,-0.41302151,0.57073,0.50595036,-0.39153532,0.563103,0.49794452,-0.37126401,0.551245,0.52411126,-0.33882752,0.528533,0.44809054,-0.32208927,0.491705,0.43195558,-0.32817575,0.473291,0.42786281,-0.34050521,0.468188,0.51872472,-0.3475157,0.511728,0.44826012,-0.31756006,0.479302,0.42607952,-0.32984673,0.486707,0.4276428,-0.35237102,0.500761,0.51522401,-0.35988765,0.500772,0.44984038,-0.33690316,0.475141,0.41671364,-0.32518203,0.462028,0.39490123,-0.33200023,0.460662,0.51270116,-0.3839668,0.493083,0.44477606,-0.35470617,0.468842,0.44256164,-0.35775342,0.473555,0.44777959,-0.36543087,0.483914
0.53423785,-0.45372482,0.563735,0.53949272,-0.41184227,0.537889,0.55380009,-0.44079784,0.572834,0.53874087,-0.41101033,0.564107,0.52498587,-0.38906351,0.557883,0.51523633,-0.36816393,0.544624,0.55029244,-0.35012995,0.527151,0.47258518,-0.32691823,0.493923,0.45379882,-0.3346962,0.477309,0.46018817,-0.33787681,0.469087,0.5353318,-0.3564774,0.50698,0.46427531,-0.32376405,0.480094,0.45155554,-0.34091197,0.481074,0.47222641,-0.35783632,0.491107,0.52339595,-0.3664388,0.492985,0.45435834,-0.34859999,0.473733,0.42034749,-0.3395689,0.463884,0.40194821,-0.3486737,0.459842,0.51001312,-0.38673268,0.481238,0.44829068,-0.35646304,0.462858,0.42853095,-0.34888139,0.462058,0.41726176,-0.34948113,0.468129
0.54863025,-0.46267413,0.565309,0.53913653,-0.41366011,0.539634,0.55315524,-0.44498135,0.573943,0.53051589,-0.42056964,0.572941,0.52284306,-0.38361997,0.571994,0.51628305,-0.35562007,0.564652,0.5213718,-0.34870926,0.528455,0.44995145,-0.330192,0.49455,0.43033106,-0.33737981,0.477598,0.43410943,-0.34137554,0.471564,0.51780671,-0.3530138,0.508928,0.44445874,-0.33518292,0.476669,0.44207235,-0.35966611,0.481178,0.46720128,-0.37396858,0.494263,0.51656542,-0.36176593,0.495446,0.45636293,-0.32574089,0.464128,0.42289366,-0.33126589,0.448106,0.42031664,-0.3409442,0.443033,0.51816366,-0.38154118,0.484271,0.45723783,-0.36957457,0.464584,0.44576814,-0.37262058,0.467621,0.45794981,-0.37823864,0.475728
0.559291,-0.47175571,0.572682,0.54422906,-0.41776328,0.541676,0.55811661,-0.45134442,0.577918,0.53608497,-0.41925052,0.568005,0.52322791,-0.38006246,0.562045,0.51337161,-0.34939056,0.54967,0.51949707,-0.34927826,0.521604,0.4801952,-0.30806172,0.500422,0.46050556,-0.28739595,0.489831,0.44730968,-0.2714418,0.485333,0.51939888,-0.35415742,0.504594,0.45155888,-0.32756842,0.471285,0.4403515,-0.35022133,0.472111,0.45941047,-0.36671129,0.48442,0.52293087,-0.36544254,0.493722,0.46881785,-0.3269357,0.464273,0.43466208,-0.33217532,0.449207,0.42322479,-0.34082031,0.442236,0.52873557,-0.3860307,0.486586,0.46605482,-0.37156546,0.462153,0.4507372,-0.37315897,0.462364,0.46250394,-0.37928088,0.471045
0.561642,-0.46937526,0.558818,0.55901788,-0.41928695,0.536953,0.57000835,-0.45678449,0.568237,0.55370061,-0.44187969,0.568416,0.53816857,-0.42662932,0.5685,0.52850038,-0.40783804,0.561891,0.54783739,-0.35574395,0.530048,0.51062768,-0.31692192,0.512604,0.49191265,-0.29735509,0.503882,0.48303299,-0.2842975,0.504521,0.54457593,-0.35687846,0.510804,0.4789089,-0.33738625,0.485533,0.46646245,-0.36287509,0.495972,0.46979723,-0.3906584,0.508391,0.54329111,-0.36318411,0.497171,0.48018733,-0.36233376,0.479066,0.44842654,-0.36174776,0.469802,0.43847436,-0.37813123,0.472487,0.54428573,-0.38046985,0.485125,0.49345449,-0.35545038,0.467175,0.46957245,-0.34470293,0.458928,0.44560519,-0.34262993,0.451651
0.59124782,-0.47273926,0.557798,0.57973679,-0.41996107,0.536435,0.59064628,-0.45729701,0.567527,0.57750831,-0.44408495,0.569786,0.56178798,-0.42294379,0.569586,0.55408852,-0.40210674,0.564921,0.56898317,-0.35700615,0.530354,0.53135143,-0.31783939,0.512368,0.51244531,-0.29812277,0.503375,0.50366473,-0.28490248,0.503663,0.56559872,-0.35799795,0.510886,0.5003219,-0.33891375,0.486217,0.48848398,-0.36448894,0.496698,0.48808238,-0.38877654,0.508912,0.56418128,-0.36414005,0.497017,0.5014477,-0.36375672,0.479554,0.46982662,-0.36342376,0.47062,0.45974836,-0.37997586,0.473503,0.56496736,-0.38113952,0.484603,0.51474462,-0.35655111,0.467204,0.49110374,-0.34599255,0.45921,0.46716133,-0.34408143,0.452156
0.59731958,-0.4725768,0.560679,0.59120258,-0.4190948,0.538525,0.59340883,-0.4545867,0.567511,0.58595284,-0.43464816,0.566928,0.57224368,-0.40695926,0.563903,0.56642779,-0.38264053,0.557708,0.57791009,-0.35401732,0.528097,0.54129233,-0.31375836,0.503184,0.52292656,-0.29348685,0.490727,0.5194798,-0.28218337,0.491985,0.57996497,-0.35899542,0.512031,0.51840982,-0.33766664,0.484591,0.51287472,-0.36900771,0.499449,0.51816044,-0.39698723,0.514039,0.58285594,-0.36834817,0.501042,0.51940072,-0.36577779,0.47984,0.48618913,-0.36651887,0.468992,0.47826665,-0.38340727,0.473839,0.58831042,-0.38894496,0.492158,0.54464716,-0.34558883,0.471373,0.52461199,-0.3265485,0.46205,0.50474519,-0.31351513,0.453824
0.63131339,-0.48117429,0.571614,0.61845824,-0.42759,0.549615,0.62237797,-0.46367732,0.577464,0.61700426,-0.44475127,0.576704,0.60652092,-0.41911379,0.573729,0.60232369,-0.39546368,0.567833,0.59609527,-0.36175674,0.538076,0.55798341,-0.32518202,0.511808,0.53885587,-0.30674435,0.498674,0.53693024,-0.29850743,0.501212,0.60265192,-0.36482925,0.523305,0.54632647,-0.3431464,0.495394,0.54451083,-0.37614325,0.511724,0.5515872,-0.40606175,0.526946,0.60972295,-0.37280881,0.513366,0.55221761,-0.37120297,0.491297,0.52085402,-0.37399549,0.480006,0.51282349,-0.39429812,0.485613,0.62097947,-0.39221916,0.505688,0.57299393,-0.35277818,0.48412,0.55110217,-0.3348212,0.47421,0.53066615,-0.336317,0.465467
0.61705763,-0.47836942,0.571023,0.61047488,-0.41584828,0.545412,0.60176067,-0.45577713,0.572953,0.5936837,-0.41368852,0.565011,0.57787492,-0.37373385,0.557732,0.5710691,-0.34578184,0.547992,0.58443681,-0.34524004,0.525804,0.56787589,-0.29293904,0.501085,0.54962313,-0.28131212,0.488726,0.54786249,-0.28520451,0.493164,0.59751782,-0.35237592,0.514784,0.53946368,-0.34472054,0.480534,0.54393681,-0.37872185,0.497441,0.56567778,-0.39401883,0.515472,0.60964166,-0.36368743,0.508297,0.57073539,-0.32441828,0.4783,0.542436,-0.3296292,0.462952,0.53920439,-0.35397037,0.466814,0.6263403,-0.38699258,0.505335,0.56887818,-0.37756752,0.478745,0.53797738,-0.37739874,0.466527,0.5302774,-0.38784375,0.46904
0.62884319,-0.47949402,0.575828,0.62497783,-0.42015372,0.549391,0.61649751,-0.45847097,0.578084,0.6098159,-0.41882218,0.570596,0.59324655,-0.37855645,0.562606,0.5858651,-0.34994193,0.552436,0.59694,-0.34871656,0.529483,0.57248532,-0.30244745,0.503884,0.55431571,-0.28396972,0.491084,0.55009074,-0.27367323,0.486868,0.60972777,-0.35481758,0.517774,0.55000147,-0.3445017,0.481053,0.5537749,-0.37827553,0.496725,0.57561101,-0.39415751,0.514927,0.62178147,-0.36539229,0.510803,0.56403575,-0.3408723,0.472647,0.53262876,-0.34749785,0.453125,0.5285121,-0.36938144,0.453771,0.63877508,-0.38807472,0.507422,0.57555077,-0.3760293,0.480636,0.5458305,-0.37052261,0.468328,0.53329293,-0.3758872,0.470214
0.63623083,-0.47755022,0.575406,0.6355922,-0.4199977,0.549187,0.62595126,-0.45812498,0.577425,0.62032987,-0.41836856,0.569978,0.60333067,-0.37793069,0.561676,0.5957786,-0.3492882,0.551404,0.60712218,-0.34850779,0.529166,0.58261416,-0.30219355,0.503461,0.56655732,-0.28500821,0.490609,0.56164253,-0.27394192,0.487346,0.62038293,-0.35485664,0.517831,0.56164521,-0.3451541,0.481964,0.56512033,-0.38017861,0.498134,0.58087736,-0.39692511,0.516184,0.63285179,-0.36563765,0.511146,0.57525024,-0.34120333,0.473106,0.54369076,-0.34789587,0.453644,0.53995095,-0.37007987,0.454629,0.65035431,-0.38856419,0.508062,0.58684578,-0.37647837,0.48121,0.55696628,-0.370953,0.468872,0.54482501,-0.37649554,0.470975
0.64755828,-0.48192933,0.575825,0.649014,-0.42800233,0.552477,0.63601884,-0.46298666,0.58014,0.63765634,-0.42836162,0.576697,0.62420871,-0.39027097,0.57043,0.61853112,-0.36198652,0.56175,0.62502324,-0.35848563,0.537836,0.60584455,-0.313214,0.514795,0.59632158,-0.29031425,0.503274,0.59842847,-0.27423913,0.50179,0.63609126,-0.36245151,0.524556,0.57632073,-0.3532174,0.490364,0.58339878,-0.39067485,0.506893,0.60561135,-0.41002395,0.524611,0.64656605,-0.37127553,0.51598,0.58903237,-0.34621422,0.47992,0.55888112,-0.35146208,0.46147,0.55375368,-0.37610907,0.463231,0.66143683,-0.3919542,0.51015,0.60391409,-0.38023677,0.486604,0.57575132,-0.37589165,0.475785,0.56516114,-0.38274878,0.478953
0.65214598,-0.4767515,0.571177,0.64928223,-0.42379217,0.549798,0.64011138,-0.45795436,0.575473,0.64135271,-0.42158535,0.573152,0.62955162,-0.38386361,0.567607,0.6260752,-0.35696729,0.559554,0.63053,-0.35351722,0.536828,0.61466379,-0.30822698,0.514508,0.60683,-0.28528811,0.503348,0.61076285,-0.26908709,0.50224,0.64286226,-0.35766689,0.524231,0.58916706,-0.34944807,0.491906,0.59818672,-0.38858024,0.510199,0.61894467,-0.40819693,0.527959,0.65407459,-0.36648406,0.516019,0.6018076,-0.3417361,0.480929,0.57362297,-0.34744581,0.462977,0.5740261,-0.37249261,0.466154,0.66928973,-0.3868497,0.510259,0.61635422,-0.37603826,0.487809,0.58999109,-0.37221245,0.477495,0.58200391,-0.38004232,0.481841
0.65047578,-0.47431961,0.567487,0.65439069,-0.42237248,0.549625,0.64183654,-0.45671688,0.57125,0.64347043,-0.42043653,0.569501,0.63573744,-0.38361593,0.565328,0.63536844,-0.35773293,0.558421,0.63874066,-0.3565602,0.539009,0.62561384,-0.31840685,0.518279,0.61927786,-0.29884432,0.507914,0.6249213,-0.28588915,0.507633,0.65290087,-0.36206133,0.528264,0.60492538,-0.35409566,0.499431,0.61958143,-0.39723531,0.520699,0.64027197,-0.42011918,0.538464,0.66523139,-0.37184028,0.521222,0.63998912,-0.34085501,0.49909,0.61303416,-0.35443808,0.487767,0.61844006,-0.37534031,0.496758,0.68093758,-0.39308867,0.516196,0.62984735,-0.38018977,0.49555,0.60122936,-0.37818736,0.486063,0.59401064,-0.38837759,0.492374
0.6549641,-0.47376162,0.564768,0.66520172,-0.42206141,0.548122,0.64462954,-0.45347675,0.567907,0.64905811,-0.41792191,0.565514,0.63861682,-0.3803984,0.559573,0.6308903,-0.3530899,0.550598,0.64762305,-0.35573464,0.537761,0.63667137,-0.31861512,0.518618,0.63146571,-0.29951095,0.509047,0.63814818,-0.28683642,0.509315,0.66329669,-0.36202706,0.528214,0.62088213,-0.35715002,0.503739,0.63748564,-0.40153571,0.526336,0.65746037,-0.42403197,0.543479,0.67683313,-0.37242027,0.522035,0.65412095,-0.34254122,0.501559,0.62801775,-0.35684767,0.491083,0.63481719,-0.37877215,0.5013,0.69379425,-0.39431165,0.517802,0.64319943,-0.38172572,0.497552,0.6153168,-0.37919338,0.488248,0.60770321,-0.39065809,0.495231
0.65848956,-0.47476987,0.565915,0.66582714,-0.4224928,0.548747,0.64772467,-0.45441508,0.56886,0.6493434,-0.418292,0.565932,0.63915679,-0.38098776,0.560319,0.63365247,-0.3542508,0.551744,0.64722439,-0.35564516,0.537693,0.63543801,-0.31817721,0.517958,0.62980102,-0.29892227,0.508091,0.63738969,-0.2867182,0.509142,0.66301454,-0.36192179,0.528216,0.61995407,-0.35676239,0.503208,0.63621613,-0.40101385,0.525631,0.65092505,-0.42362035,0.541753,0.67673305,-0.37234599,0.522147,0.65006842,-0.34696405,0.501119,0.62379919,-0.36162872,0.490361,0.6325665,-0.37974569,0.500313,0.69407259,-0.39436586,0.51814,0.64284133,-0.38153461,0.497418,0.61470109,-0.3788923,0.487897,0.60685919,-0.39024181,0.494672
0.66116165,-0.47550826,0.566662,0.66768067,-0.42335645,0.549409,0.65297654,-0.45579073,0.569903,0.65486909,-0.41962594,0.568344,0.65297663,-0.38323903,0.565695,0.654761,-0.35844692,0.559198,0.65092839,-0.35689231,0.538657,0.64189933,-0.31901244,0.517855,0.63654525,-0.29931279,0.507454,0.64650355,-0.28760615,0.509543,0.66608507,-0.3632203,0.528776,0.62239194,-0.35727657,0.503803,0.63784579,-0.40107947,0.525997,0.65213078,-0.4248046,0.541996,0.67918912,-0.37364935,0.522383,0.65676599,-0.34857185,0.501439,0.62943981,-0.36260092,0.490724,0.63389439,-0.38072526,0.500545,0.69501915,-0.39509002,0.51801,0.64413664,-0.38190627,0.497421,0.61658333,-0.37862114,0.487961,0.6091,-0.38909677,0.494652
0.6686934,-0.47785002,0.56949,0.6752323,-0.4269047,0.552009,0.66101596,-0.45840359,0.57297,0.6696373,-0.42467322,0.572611,0.6668026,-0.38892746,0.569269,0.66981851,-0.36497868,0.562482,0.6631951,-0.36122186,0.541361,0.64766162,-0.3272731,0.522412,0.64008122,-0.30978383,0.512938,0.64852083,-0.30059351,0.516436,0.67697677,-0.36820933,0.531103,0.62928822,-0.35927864,0.506013,0.6408058,-0.40232712,0.527921,0.65719741,-0.42745496,0.543873,0.68887731,-0.37918322,0.524423,0.65818042,-0.35563713,0.503566,0.629951,-0.36925139,0.492895,0.63850494,-0.38578444,0.502552,0.70165869,-0.3999182,0.519753,0.64932619,-0.38468948,0.499168,0.62207315,-0.37947876,0.48971,0.61179405,-0.38960281,0.496254
0.67154784,-0.47922987,0.571011,0.67722652,-0.42800064,0.553275,0.6635836,-0.45960349,0.574506,0.67053024,-0.42529732,0.573747,0.66699083,-0.38895935,0.570746,0.66942994,-0.36433757,0.564112,0.66404298,-0.36179668,0.542426,0.64818425,-0.32768031,0.523224,0.64043789,-0.31011654,0.513624,0.64830556,-0.30067479,0.516684,0.67769332,-0.36871374,0.532063,0.63011895,-0.3597599,0.506744,0.64161255,-0.40242005,0.528488,0.65583129,-0.42775968,0.544471,0.68950911,-0.37964254,0.525322,0.65855413,-0.35596161,0.504282,0.63022476,-0.36950019,0.493517,0.63875724,-0.38662463,0.503017,0.70313107,-0.40105076,0.520627,0.64970228,-0.3853958,0.499884,0.62135713,-0.38045222,0.490354,0.61162975,-0.39020796,0.496774
0.67417746,-0.48074283,0.572782,0.67824044,-0.42880282,0.554339,0.66537481,-0.46062758,0.575884,0.67013991,-0.42540446,0.574118,0.66586338,-0.38860384,0.570801,0.66496243,-0.36256505,0.563134,0.663185,-0.36166441,0.542384,0.64713005,-0.32445043,0.521864,0.65701176,-0.30931779,0.523507,0.66588929,-0.29682738,0.525,0.67712193,-0.36874169,0.532282,0.62883688,-0.35926533,0.506157,0.6404139,-0.40156273,0.527727,0.65491421,-0.42762841,0.543948,0.68836156,-0.37917272,0.525828,0.6571973,-0.35558257,0.503942,0.62836994,-0.36875571,0.492745,0.63666144,-0.38593285,0.501904,0.70403916,-0.40195115,0.521599,0.65012572,-0.3853553,0.500137,0.62088305,-0.38039961,0.490276,0.61091075,-0.39001208,0.496429
0.67543584,-0.48129458,0.573735,0.67779025,-0.42874307,0.554924,0.66696892,-0.46127477,0.577277,0.67149971,-0.42583368,0.575723,0.66852351,-0.38969482,0.572914,0.67103893,-0.36517388,0.566198,0.66444836,-0.36196936,0.54321,0.64995483,-0.32247389,0.522099,0.65912815,-0.30995587,0.524218,0.66778643,-0.29744193,0.526144,0.67729451,-0.36883523,0.532427,0.62818954,-0.35897419,0.506147,0.63906531,-0.40063249,0.527184,0.65289297,-0.42746138,0.543293,0.68783489,-0.37917865,0.52545,0.65593606,-0.35531305,0.503635,0.62523173,-0.36616404,0.492474,0.63156964,-0.38529536,0.501297,0.70238464,-0.40168895,0.520673,0.64753352,-0.38409585,0.499266,0.61819705,-0.37969931,0.489431,0.60774733,-0.38916527,0.495322
0.6771688,-0.48225345,0.575166,0.67953214,-0.42956783,0.555839,0.66845074,-0.46192672,0.578604,0.67222972,-0.42593431,0.576589,0.66966216,-0.3899416,0.573691,0.67226587,-0.36557167,0.566793,0.66511837,-0.36206839,0.543549,0.65031804,-0.32226903,0.521884,0.66042241,-0.31019285,0.524723,0.66980176,-0.29811648,0.527303,0.67772651,-0.36908894,0.532724,0.62756093,-0.35860588,0.505935,0.63797988,-0.39982329,0.526704,0.65243458,-0.42657934,0.542914,0.68878707,-0.3801698,0.525765,0.65528398,-0.35518914,0.503482,0.62356578,-0.36503355,0.492081,0.62528899,-0.38788012,0.500602,0.70265188,-0.40239273,0.521103,0.64740387,-0.38410789,0.499297,0.61757655,-0.379433,0.489279,0.60667109,-0.38855935,0.494933
0.67967019,-0.48309479,0.576201,0.68014285,-0.42993974,0.556476,0.66954767,-0.46239506,0.579588,0.67276144,-0.42602987,0.577205,0.67051615,-0.3901608,0.57429,0.67321571,-0.3659081,0.5673,0.6655711,-0.36213778,0.54378,0.65039876,-0.32211695,0.521696,0.66064714,-0.31011301,0.52464,0.67014509,-0.29813595,0.527317,0.67796998,-0.36923386,0.532887,0.62703273,-0.35829756,0.505719,0.63704685,-0.39913866,0.526256,0.65153579,-0.4261696,0.54253,0.68888169,-0.3803938,0.525911,0.65473532,-0.35504448,0.503292,0.62279432,-0.3648663,0.49172,0.62390541,-0.38765583,0.499996,0.70269549,-0.40281134,0.521301,0.64716044,-0.38403258,0.499211,0.61696902,-0.37914885,0.489061,0.60572395,-0.38801494,0.494525
0.68088022,-0.48258189,0.576465,0.67937691,-0.42943756,0.556879,0.66972956,-0.46193448,0.579893,0.67337953,-0.42597043,0.577716,0.67179281,-0.39054751,0.574915,0.67517381,-0.36700175,0.568062,0.66611026,-0.3618838,0.544353,0.65080126,-0.32170743,0.522306,0.66040286,-0.30942476,0.524799,0.66942773,-0.29736417,0.527065,0.67841216,-0.36905308,0.533455,0.62713583,-0.35803114,0.506428,0.63417244,-0.396067,0.52703,0.65123894,-0.42658207,0.543273,0.68886309,-0.37992141,0.526461,0.65534918,-0.35383685,0.503977,0.62205771,-0.36548655,0.492474,0.62793758,-0.38549783,0.500829,0.7025018,-0.40222775,0.521805,0.64708906,-0.38364834,0.499829,0.61560222,-0.37882653,0.489732,0.60419532,-0.38760574,0.495258
