sluyters/QuantumLeap/src/datasets/gesture/HandGestureDataset_SHREC2017_csv/Gesture6/finger_2/subject_11_essai_4_skeletons_world.csv
Wrist_x,Wrist_y,Wrist_z,Palm_x,Palm_y,Palm_z,thumb_base_x,thumb_base_y,thumb_base_z,thumb_first_joint_x,thumb_first_joint_y,thumb_first_joint_z,thumb_second_joint_x,thumb_second_joint_y,thumb_second_joint_z,thumb_tip_x,thumb_tip_y,thumb_tip_z,index_base_x,index_base_y,index_base_z,index_first_joint_x,index_first_joint_y,index_first_joint_z,index_second_joint_x,index_second_joint_y,index_second_joint_z,index_tip_x,index_tip_y,index_tip_z,middle_base_x,middle_base_y,middle_base_z,middle_first_joint_x,middle_first_joint_y,middle_first_joint_z,middle_second_joint_x,middle_second_joint_y,middle_second_joint_z,middle_tip_x,middle_tip_y,middle_tip_z,ring_base_x,ring_base_y,ring_base_z,ring_first_joint_x,ring_first_joint_y,ring_first_joint_z,ring_second_joint_x,ring_second_joint_y,ring_second_joint_z,ring_tip_x,ring_tip_y,ring_tip_z,pinky_base_x,pinky_base_y,pinky_base_z,pinky_first_joint_x,pinky_first_joint_y,pinky_first_joint_z,pinky_second_joint_x,pinky_second_joint_y,pinky_second_joint_z,pinky_tip_x,pinky_tip_y,pinky_tip_z,
0.46973372,-0.37504695,0.625121,0.46384508,-0.32569507,0.612551,0.44840896,-0.35937193,0.621554,0.41770509,-0.33057717,0.606513,0.3860617,-0.30367584,0.592552,0.37526556,-0.28443383,0.592374,0.43530394,-0.27472257,0.599253,0.42582482,-0.22898954,0.58955,0.42314386,-0.20823715,0.584698,0.4191928,-0.19127231,0.580287,0.45877958,-0.27688257,0.599441,0.4482603,-0.22715308,0.58198,0.44326759,-0.19831376,0.571795,0.44255021,-0.1799485,0.56452,0.47892906,-0.28246791,0.600552,0.46570037,-0.23285778,0.579921,0.45838184,-0.2096076,0.569365,0.45204711,-0.18700615,0.559769,0.50206704,-0.29558188,0.603679,0.4942372,-0.26007085,0.584371,0.48975647,-0.24337626,0.5755,0.48585618,-0.22841842,0.567672
0.46895936,-0.3744408,0.622835,0.46611246,-0.32702099,0.61147,0.44799711,-0.35904279,0.619744,0.41919887,-0.33308789,0.605441,0.38685632,-0.30568744,0.589028,0.37324127,-0.28552872,0.586365,0.43727843,-0.27715139,0.599612,0.42593846,-0.23078052,0.588881,0.42134111,-0.2098685,0.583516,0.41698542,-0.19140762,0.578638,0.46079974,-0.2802764,0.599617,0.45183552,-0.22964086,0.585004,0.44679017,-0.20121923,0.57648,0.44215992,-0.18004181,0.570391,0.48155273,-0.28329966,0.600486,0.46721423,-0.2337021,0.581094,0.46047838,-0.20881514,0.571172,0.45584373,-0.18731307,0.563367,0.50621085,-0.29661701,0.603153,0.49638027,-0.25903632,0.584934,0.49377438,-0.23858402,0.576563,0.48863962,-0.22740386,0.569177
0.46535263,-0.37213221,0.616548,0.46609133,-0.33166864,0.607612,0.44646218,-0.35852627,0.615405,0.41772863,-0.33584991,0.60385,0.38565024,-0.30687969,0.586578,0.37406401,-0.28836793,0.585107,0.43753076,-0.28502004,0.599876,0.42739172,-0.23936456,0.587912,0.42232051,-0.21646858,0.581931,0.41576601,-0.19140498,0.576493,0.45852129,-0.28404782,0.598293,0.45041533,-0.23269614,0.581981,0.44465751,-0.20730172,0.572465,0.44087303,-0.18243391,0.565668,0.478115,-0.28815678,0.597671,0.46816778,-0.23714585,0.580877,0.46408312,-0.21097507,0.572284,0.4618602,-0.1902747,0.568718,0.50307875,-0.299473,0.598215,0.49556261,-0.25788101,0.582599,0.49425487,-0.23767323,0.575424,0.48917417,-0.22796323,0.569093
0.46533022,-0.37251041,0.615666,0.46254455,-0.32687422,0.607423,0.44634241,-0.35875101,0.615218,0.41642949,-0.330952,0.604636,0.38439919,-0.30295687,0.58831,0.37256949,-0.28517299,0.585118,0.43741508,-0.27676889,0.60103,0.42709726,-0.23445491,0.586605,0.42108813,-0.21130216,0.579392,0.41452404,-0.18955302,0.572835,0.45939926,-0.28032715,0.598826,0.45060851,-0.22887549,0.58255,0.44578975,-0.20310343,0.573056,0.44261251,-0.18458755,0.566274,0.47803932,-0.28580771,0.597641,0.47099442,-0.23468526,0.581517,0.46633638,-0.21093555,0.573267,0.46097507,-0.19094632,0.565767,0.50082302,-0.29822388,0.597419,0.49606775,-0.25769816,0.582541,0.4949686,-0.2377828,0.575705,0.49246262,-0.22319228,0.569673
0.46521276,-0.37284201,0.614396,0.46251273,-0.32601154,0.605927,0.44589845,-0.35881184,0.613556,0.4150823,-0.33234722,0.602448,0.38329699,-0.30417233,0.585837,0.37199234,-0.2850364,0.584237,0.43586836,-0.27670853,0.598892,0.42558205,-0.23339669,0.583901,0.42138865,-0.20988826,0.576406,0.41423712,-0.18947058,0.569991,0.45824158,-0.27953367,0.597095,0.44954716,-0.22910698,0.580467,0.44409197,-0.20225369,0.570768,0.43992052,-0.18267271,0.563839,0.47720184,-0.28388129,0.596263,0.468301,-0.23439498,0.579845,0.46318453,-0.20949533,0.571445,0.45858455,-0.18819779,0.563809,0.50004385,-0.2959844,0.596492,0.49504127,-0.25565981,0.581448,0.49420888,-0.23700358,0.574536,0.49187744,-0.22178879,0.568437
0.46523228,-0.37388733,0.614855,0.46168671,-0.32677529,0.605894,0.44545215,-0.35920552,0.613305,0.41370624,-0.33061916,0.601237,0.38190393,-0.30332889,0.584193,0.37026481,-0.2839874,0.582015,0.43511516,-0.27555771,0.597634,0.42491998,-0.23067389,0.582077,0.42027384,-0.2081125,0.574299,0.41557236,-0.18827439,0.569417,0.45782797,-0.2779512,0.596548,0.44880093,-0.22763833,0.57942,0.4432436,-0.20163063,0.569429,0.43906389,-0.1820587,0.562293,0.47685165,-0.28398684,0.596339,0.4680738,-0.23440787,0.579383,0.46251139,-0.21060092,0.570708,0.45913656,-0.1895849,0.562821,0.50021088,-0.29660869,0.59738,0.49549061,-0.25676501,0.581658,0.49283419,-0.23855732,0.574434,0.48939402,-0.22597695,0.56806
0.46410399,-0.37333376,0.613113,0.46099101,-0.32628756,0.604498,0.44444945,-0.35856673,0.611643,0.4124519,-0.3299899,0.599724,0.38056433,-0.30289431,0.581839,0.36770106,-0.28387525,0.578449,0.43496438,-0.27510703,0.596581,0.4254618,-0.2304309,0.58136,0.42039966,-0.20756376,0.57375,0.41507642,-0.18603451,0.566831,0.45763268,-0.27762453,0.595512,0.44836854,-0.22834246,0.57879,0.44297136,-0.20138427,0.569036,0.43942101,-0.18240694,0.562068,0.47753778,-0.28415248,0.59529,0.46714383,-0.23495421,0.578781,0.46221542,-0.2100899,0.570334,0.45758113,-0.18800912,0.562656,0.50077864,-0.29779173,0.596267,0.49465242,-0.25642087,0.580738,0.49170054,-0.23901681,0.573603,0.48820905,-0.22791403,0.567307
0.46506645,-0.37486115,0.613633,0.46162097,-0.32806891,0.603743,0.44477465,-0.35958923,0.611475,0.41179723,-0.33138758,0.598526,0.38129088,-0.30334422,0.582586,0.36794757,-0.28389814,0.57835,0.43364971,-0.2788562,0.594077,0.4217313,-0.23255815,0.577592,0.41695359,-0.21444449,0.569349,0.4116395,-0.19583912,0.561855,0.45642475,-0.2796864,0.593429,0.44604913,-0.23332419,0.57533,0.44036977,-0.20798327,0.564773,0.43599244,-0.18604014,0.557231,0.47557108,-0.28499628,0.59365,0.46670233,-0.2353621,0.575637,0.46289503,-0.20981255,0.56642,0.46008644,-0.19931433,0.558042,0.50001779,-0.29775355,0.595337,0.49433306,-0.26183338,0.578569,0.49052119,-0.24191929,0.570864,0.4858851,-0.22801594,0.564066
0.47005341,-0.37828768,0.619039,0.46148605,-0.32669714,0.603561,0.44796891,-0.36174607,0.614778,0.412385,-0.33117024,0.598547,0.38101706,-0.30083986,0.576793,0.36663389,-0.27965322,0.568695,0.42970988,-0.27116283,0.587343,0.41524086,-0.22319749,0.565863,0.41022226,-0.20101141,0.555123,0.40310997,-0.18812255,0.54536,0.45249834,-0.276386,0.587418,0.44208271,-0.22887693,0.563663,0.43500994,-0.20618993,0.549805,0.43006985,-0.1905247,0.539907,0.47241593,-0.28239811,0.588661,0.46234083,-0.23261057,0.565055,0.4592072,-0.21664979,0.552978,0.45492471,-0.20170182,0.541998,0.49755741,-0.29706819,0.592368,0.48909217,-0.2668556,0.570329,0.48490805,-0.25164068,0.560203,0.48116795,-0.2392985,0.551269
0.4691418,-0.37899415,0.619935,0.45630581,-0.32392742,0.597439,0.44738098,-0.36208385,0.615631,0.41189388,-0.32935902,0.59881,0.38004901,-0.30081327,0.578071,0.36498039,-0.27904969,0.56868,0.42520612,-0.26667005,0.576197,0.4128657,-0.21644283,0.549185,0.40417226,-0.19795473,0.535679,0.39582184,-0.18318591,0.523402,0.44794092,-0.27272438,0.573979,0.43035673,-0.22720925,0.543932,0.41896029,-0.20643948,0.526405,0.41067289,-0.19234436,0.513886,0.46555999,-0.28143621,0.57387,0.45138638,-0.2345944,0.543805,0.44123603,-0.22283469,0.528424,0.43207489,-0.21201133,0.51444,0.48742542,-0.29892027,0.57698,0.46970515,-0.27196681,0.549671,0.46164156,-0.25939675,0.537124,0.45410671,-0.2495781,0.526053
0.43943329,-0.38284264,0.627549,0.44435283,-0.33509171,0.601007,0.42473977,-0.35757447,0.61969,0.39998101,-0.32258018,0.598275,0.37618646,-0.28929712,0.576329,0.36761332,-0.26541703,0.563889,0.42919758,-0.27227391,0.572517,0.43561173,-0.22862595,0.560638,0.43445179,-0.2131076,0.554699,0.43352436,-0.19851863,0.5493,0.44845142,-0.28668033,0.573328,0.44233212,-0.2351244,0.538953,0.43046949,-0.21794063,0.518901,0.42094796,-0.20732884,0.504578,0.46410306,-0.30208573,0.57602,0.45038591,-0.26686179,0.54212,0.43505874,-0.26093072,0.524776,0.42110761,-0.25558878,0.509009,0.48239597,-0.32724343,0.583044,0.4631544,-0.30561215,0.551666,0.4539055,-0.29607741,0.537249,0.44459829,-0.28873807,0.524529
0.46778907,-0.38659756,0.634909,0.4516662,-0.33717518,0.605453,0.44776257,-0.36535321,0.626785,0.4134445,-0.32697164,0.605413,0.38900487,-0.29567914,0.585168,0.37493914,-0.27061705,0.570578,0.43238016,-0.27371312,0.574572,0.44723462,-0.23455596,0.567833,0.45333344,-0.21501431,0.564464,0.4585464,-0.19743442,0.561401,0.45154265,-0.28725347,0.574735,0.44060164,-0.23603907,0.537882,0.42655898,-0.21854292,0.516385,0.41021891,-0.21477553,0.501029,0.46741308,-0.30203897,0.577116,0.4484255,-0.26826605,0.540827,0.43190089,-0.26141358,0.522261,0.41686134,-0.25521799,0.505382,0.489729,-0.32540739,0.58419,0.4624776,-0.30631174,0.550975,0.45120866,-0.29717784,0.535713,0.44069494,-0.2896553,0.522248
0.44910056,-0.38631102,0.635877,0.4515759,-0.33730162,0.605515,0.43241182,-0.35916316,0.62479,0.40195133,-0.3208127,0.599515,0.37927807,-0.28416701,0.576487,0.36802958,-0.26194333,0.561716,0.43742791,-0.27232139,0.570338,0.44357499,-0.23467308,0.553255,0.44685469,-0.21553395,0.544714,0.44880847,-0.19968947,0.536949,0.45487627,-0.28826427,0.573851,0.44946392,-0.24420459,0.535707,0.43394054,-0.23273769,0.513457,0.42034788,-0.22772903,0.497564,0.47208379,-0.30512964,0.579058,0.44846074,-0.27962341,0.541288,0.43148171,-0.27366584,0.521964,0.41603448,-0.26829579,0.504396,0.49114783,-0.33608241,0.589623,0.46471539,-0.3188818,0.554571,0.45222697,-0.31121353,0.538466,0.44121695,-0.30446171,0.524256
0.4559707,-0.3867665,0.63751,0.4566148,-0.33595121,0.604564,0.44200834,-0.3617157,0.624103,0.40853833,-0.32391443,0.596317,0.38268965,-0.29030538,0.572002,0.37145606,-0.26833494,0.555912,0.43752415,-0.27454705,0.564699,0.43860162,-0.23614396,0.542166,0.43848496,-0.21854692,0.5309,0.43822103,-0.20300434,0.520658,0.45962014,-0.29167815,0.570206,0.45024523,-0.24543788,0.529727,0.42841936,-0.24437487,0.506115,0.41283265,-0.24359615,0.489249,0.47786236,-0.30925889,0.577251,0.45042518,-0.28645742,0.536671,0.43239389,-0.28305579,0.515908,0.41600094,-0.27999074,0.497034,0.4996667,-0.3368623,0.590374,0.46545042,-0.3253214,0.553047,0.44972272,-0.32004469,0.535897,0.43584066,-0.31540369,0.520764
0.45728366,-0.38926942,0.639279,0.45913573,-0.34934025,0.605425,0.4437381,-0.3640891,0.625217,0.41061076,-0.32953048,0.596785,0.38796216,-0.29795352,0.572196,0.3788208,-0.27578881,0.556821,0.4370647,-0.2841558,0.564106,0.4377983,-0.24568777,0.541173,0.43749963,-0.22811566,0.529707,0.43706373,-0.21262103,0.519283,0.4595484,-0.301569,0.570117,0.44953381,-0.25479922,0.52889,0.42603142,-0.25506157,0.50484,0.40865535,-0.25587842,0.487662,0.47819017,-0.31945778,0.577647,0.45002484,-0.29625137,0.536194,0.43162031,-0.29260734,0.514985,0.41488778,-0.28930872,0.495704,0.50060023,-0.34757093,0.591477,0.46580558,-0.33567364,0.553469,0.4498142,-0.33022634,0.536006,0.43570173,-0.32543153,0.520598
0.44675117,-0.38462695,0.63137,0.44626785,-0.334845,0.596894,0.43203546,-0.35725582,0.618781,0.39926554,-0.32272139,0.591967,0.375097,-0.2917333,0.567431,0.36446441,-0.26928904,0.549753,0.4330627,-0.27251883,0.556951,0.43483383,-0.24146002,0.536589,0.43528751,-0.22159774,0.526407,0.43571408,-0.20629076,0.517152,0.45202135,-0.29560906,0.560939,0.44658987,-0.25415066,0.519349,0.41336308,-0.25270926,0.495088,0.38981913,-0.25152022,0.477759,0.4659156,-0.31459191,0.566852,0.44090492,-0.29392916,0.525539,0.41489245,-0.29005705,0.504403,0.39129131,-0.28649169,0.485188,0.48213984,-0.34521171,0.578847,0.44459,-0.31890823,0.540994,0.42732558,-0.30681556,0.523602,0.40611731,-0.309512,0.508257
0.44106066,-0.37950264,0.624071,0.44219427,-0.33326762,0.589385,0.42711797,-0.35247285,0.61202,0.39690312,-0.31833661,0.585829,0.37323701,-0.28758723,0.561784,0.36299429,-0.26538303,0.544531,0.43035654,-0.26873429,0.549957,0.43127114,-0.23370208,0.528198,0.43515483,-0.21415624,0.517318,0.43244659,-0.19975779,0.507428,0.4469804,-0.28846825,0.553211,0.42787959,-0.25175546,0.51153,0.41597095,-0.23148847,0.487216,0.39316902,-0.23018201,0.469849,0.46051774,-0.30813288,0.558535,0.436722,-0.27897715,0.517242,0.40760779,-0.27777944,0.496116,0.38101627,-0.2804238,0.47691,0.47626982,-0.33813984,0.569862,0.44300183,-0.31049216,0.532107,0.42695324,-0.29857864,0.51476,0.40134691,-0.30196688,0.499454
0.434209,-0.37435245,0.617159,0.43813636,-0.3255582,0.581349,0.41658149,-0.34348965,0.603357,0.38915152,-0.30352707,0.575358,0.36236832,-0.28016967,0.550358,0.35033288,-0.2584802,0.532026,0.42521896,-0.26030421,0.538965,0.42553697,-0.22728521,0.514273,0.42479289,-0.21097899,0.501927,0.42428454,-0.19596355,0.490704,0.44272063,-0.2812194,0.544003,0.4213146,-0.24789615,0.501322,0.40180929,-0.23820013,0.476425,0.37587341,-0.23883984,0.458642,0.45705223,-0.30191279,0.55088,0.42917904,-0.27665006,0.508348,0.39703319,-0.27869748,0.486588,0.3670818,-0.27638653,0.466806,0.47381189,-0.33322634,0.564216,0.43052107,-0.31312682,0.525315,0.41021982,-0.30401775,0.507442,0.38991689,-0.30033237,0.491671
0.43062409,-0.36996144,0.612819,0.43328987,-0.3243892,0.576842,0.41481307,-0.34095612,0.599415,0.38689127,-0.30615189,0.57186,0.36015882,-0.27903233,0.547194,0.3510141,-0.25768128,0.529441,0.4196151,-0.26617076,0.534832,0.42493455,-0.22835716,0.511973,0.42522769,-0.21263497,0.500543,0.4251919,-0.19856146,0.490153,0.43536507,-0.28789093,0.539321,0.42110702,-0.25350329,0.49655,0.40129218,-0.24227753,0.4716,0.37371741,-0.23922289,0.453778,0.44810812,-0.30877267,0.545761,0.42434031,-0.27894393,0.503375,0.39336611,-0.27821026,0.481689,0.36160548,-0.27918565,0.461975,0.4627761,-0.33937948,0.5586,0.42495565,-0.31603751,0.519749,0.40604184,-0.30364367,0.501898,0.38651662,-0.2989619,0.486148
0.42601093,-0.36782949,0.609987,0.42730661,-0.32712393,0.574302,0.41108672,-0.33866431,0.596425,0.38162735,-0.30631319,0.568667,0.35771824,-0.27791787,0.543778,0.34680971,-0.2569948,0.525645,0.41736666,-0.26608882,0.532304,0.42455131,-0.23037189,0.509399,0.42444355,-0.21571539,0.497947,0.42274067,-0.2037981,0.487536,0.43313794,-0.28800244,0.537086,0.41996149,-0.25347657,0.494512,0.40086596,-0.24205592,0.469677,0.37549174,-0.24178057,0.451938,0.44584681,-0.30904762,0.543744,0.42251584,-0.28138687,0.501358,0.39287177,-0.28022404,0.479672,0.36081328,-0.27933503,0.459957,0.46036835,-0.33985994,0.556801,0.42362006,-0.31616263,0.518033,0.40549713,-0.30657684,0.500221,0.38609872,-0.29916964,0.484504
0.4202527,-0.36483821,0.605894,0.42412033,-0.32594722,0.570552,0.40784491,-0.33503282,0.591988,0.37714959,-0.30591431,0.563831,0.35395732,-0.27650038,0.538574,0.34344636,-0.25543936,0.52052,0.41424824,-0.26482436,0.528372,0.42226343,-0.22991802,0.506174,0.42298328,-0.21538133,0.495074,0.42198753,-0.20364962,0.484984,0.43043696,-0.28693348,0.533694,0.41798721,-0.25249156,0.491348,0.39869281,-0.24169956,0.466647,0.37304589,-0.24181772,0.449003,0.44346533,-0.30815101,0.540769,0.41990516,-0.28129346,0.498475,0.39045949,-0.28182305,0.476836,0.35898064,-0.28167221,0.457164,0.45830744,-0.33918255,0.554273,0.42215018,-0.31562938,0.515562,0.40434596,-0.30606999,0.497776,0.38519307,-0.29884526,0.482082
0.41674986,-0.36211139,0.600551,0.42118742,-0.32312045,0.565026,0.40376008,-0.33155865,0.585868,0.37419418,-0.30466912,0.556934,0.34999902,-0.27658961,0.531316,0.33965492,-0.25485589,0.513437,0.40967141,-0.26177519,0.521759,0.42033961,-0.22800872,0.502599,0.42144106,-0.2123884,0.493018,0.42204276,-0.1963697,0.484309,0.42702866,-0.28390813,0.527978,0.41405071,-0.2501866,0.485473,0.39284503,-0.2417638,0.460679,0.36627357,-0.24339132,0.442968,0.44503484,-0.30290581,0.535805,0.41832287,-0.277253,0.493118,0.38919572,-0.27682583,0.471278,0.35614826,-0.27863183,0.451424,0.46267373,-0.33411147,0.550229,0.43083158,-0.30815411,0.511219,0.41520356,-0.29750293,0.493296,0.39908512,-0.29110045,0.477482
0.4126966,-0.35824731,0.594034,0.42183799,-0.31868545,0.558596,0.3990332,-0.32808951,0.578823,0.3724659,-0.30126218,0.549362,0.3469443,-0.27575061,0.523366,0.3353281,-0.26206229,0.504391,0.40610957,-0.25455797,0.51474,0.4178751,-0.21676695,0.495365,0.41843676,-0.20559333,0.485677,0.41921173,-0.19641103,0.47687,0.42701901,-0.27298679,0.521638,0.41030482,-0.24029422,0.4792,0.38838605,-0.233611,0.454444,0.36209498,-0.23683913,0.436761,0.44387098,-0.29353378,0.530018,0.41920646,-0.26740188,0.487231,0.388244,-0.27194706,0.465339,0.35798885,-0.27489953,0.445438,0.46378986,-0.32450526,0.545087,0.42796179,-0.3030355,0.505998,0.41182182,-0.29294437,0.488038,0.39538315,-0.28705691,0.472191
0.41186469,-0.35757741,0.592582,0.41855473,-0.31792974,0.557221,0.39757152,-0.32717988,0.576661,0.37238141,-0.30009502,0.546525,0.3483259,-0.27576673,0.520139,0.3420873,-0.26006848,0.501361,0.40368141,-0.25068911,0.512543,0.41617855,-0.21496145,0.495019,0.41811372,-0.20291155,0.486258,0.41918438,-0.19370565,0.478292,0.42476855,-0.27189279,0.520343,0.4085782,-0.23946161,0.477992,0.38229723,-0.23893774,0.453287,0.35522057,-0.24204827,0.435641,0.44211936,-0.29278977,0.529459,0.41740951,-0.26698875,0.486357,0.38740199,-0.27085672,0.464305,0.35537074,-0.2735876,0.444258,0.46258322,-0.32423662,0.545392,0.42791436,-0.30243898,0.506208,0.41167304,-0.29267284,0.488205,0.39520808,-0.28711051,0.47232
0.41198014,-0.35750454,0.591709,0.41982127,-0.31596426,0.556244,0.39706764,-0.32713366,0.575383,0.37228352,-0.30215751,0.544896,0.34958166,-0.27681935,0.518366,0.34022427,-0.26196612,0.499481,0.39932581,-0.24811454,0.510993,0.40538119,-0.20683916,0.493622,0.40583453,-0.19379058,0.484936,0.40652984,-0.18157753,0.47704,0.42183409,-0.26844082,0.519257,0.40349652,-0.23167933,0.476864,0.37675107,-0.23683351,0.452135,0.35253588,-0.24080588,0.434471,0.44073392,-0.28555046,0.528762,0.41546419,-0.25908,0.485468,0.38835445,-0.26598706,0.463318,0.35833943,-0.27118782,0.443182,0.46463097,-0.31597439,0.545174,0.43044415,-0.29360617,0.505885,0.41403665,-0.28484809,0.487833,0.39606061,-0.28445146,0.471905
0.41275079,-0.35670271,0.591234,0.42067687,-0.30989013,0.555582,0.39701965,-0.32664286,0.574596,0.37158997,-0.30029941,0.543862,0.34745465,-0.27591554,0.517197,0.33912439,-0.26198943,0.498172,0.3936556,-0.23920111,0.509815,0.39772017,-0.19772357,0.490822,0.39689596,-0.18460917,0.481326,0.3963933,-0.1723532,0.472693,0.41886895,-0.25684065,0.518401,0.40059739,-0.22344964,0.47591,0.37361896,-0.22863898,0.451123,0.34872601,-0.23661184,0.433418,0.44009639,-0.27511178,0.528185,0.41474058,-0.25026053,0.484694,0.38939778,-0.25599493,0.462443,0.36148256,-0.26531745,0.442215,0.4661155,-0.30404892,0.544956,0.42955603,-0.29135736,0.505548,0.4127316,-0.28374345,0.487441,0.39535247,-0.2839774,0.471465
0.41327838,-0.35680826,0.590967,0.42004925,-0.31159411,0.555348,0.39714972,-0.32678364,0.574285,0.37151234,-0.30046752,0.543509,0.34835571,-0.27678415,0.516815,0.33868821,-0.26240431,0.497811,0.39232935,-0.24040775,0.509549,0.39700269,-0.1982108,0.492056,0.39637506,-0.18545395,0.48331,0.39605395,-0.17349834,0.475359,0.41776302,-0.2578607,0.5182,0.39980683,-0.22395752,0.475738,0.37338166,-0.23078337,0.450969,0.34892412,-0.23743125,0.433276,0.43921427,-0.27600089,0.528036,0.41411971,-0.2506903,0.484551,0.38829829,-0.25872215,0.462302,0.36134402,-0.26471997,0.442077,0.46557119,-0.30482164,0.544864,0.42902677,-0.29095123,0.505467,0.41208399,-0.28371105,0.487365,0.39522846,-0.28339138,0.471393
0.41026891,-0.35472211,0.586753,0.40897453,-0.30368686,0.55237,0.39283834,-0.32514354,0.569132,0.36724352,-0.29851976,0.537481,0.34797832,-0.28071682,0.510099,0.34275865,-0.2683135,0.490894,0.38117568,-0.23565698,0.50629,0.38823558,-0.19295684,0.49277,0.39056699,-0.1802601,0.48601,0.39512557,-0.17179524,0.479865,0.40783174,-0.25296195,0.516512,0.39308898,-0.22287481,0.475117,0.37157532,-0.22928229,0.450969,0.34784699,-0.23602815,0.433722,0.43017279,-0.2710403,0.527546,0.41238262,-0.24997089,0.484541,0.385643,-0.25737635,0.462538,0.36045684,-0.26408402,0.442536,0.45739053,-0.29993291,0.545619,0.42626638,-0.28401162,0.506773,0.41223563,-0.28113898,0.488924,0.39749299,-0.2802378,0.473176
0.41075114,-0.35535732,0.58682,0.40884046,-0.30367602,0.552684,0.39247545,-0.3255417,0.569447,0.36364122,-0.30146508,0.537968,0.33953498,-0.28069926,0.510626,0.33372689,-0.26221209,0.491932,0.37976448,-0.23555206,0.507085,0.38058319,-0.19120741,0.495734,0.38186001,-0.17549664,0.490058,0.38325484,-0.16065241,0.484898,0.40666877,-0.25215157,0.517084,0.39020584,-0.21863198,0.475827,0.36813834,-0.22788825,0.451761,0.34731662,-0.23452751,0.434571,0.42929078,-0.26969554,0.527916,0.4083738,-0.24618598,0.485112,0.38346023,-0.25494925,0.463212,0.36028959,-0.2617786,0.443304,0.45699726,-0.29804493,0.545714,0.42614715,-0.28148523,0.506994,0.41150146,-0.27592788,0.489205,0.39771926,-0.27444531,0.473508
0.40954857,-0.35350692,0.582902,0.4077379,-0.30207662,0.550316,0.39043748,-0.32447875,0.566096,0.3614467,-0.30119032,0.535016,0.33730523,-0.281231,0.507526,0.32846542,-0.2668657,0.488335,0.37533192,-0.2340759,0.506513,0.3711237,-0.1883738,0.495577,0.37053894,-0.17169759,0.490109,0.37015098,-0.15593967,0.485138,0.40317178,-0.24878185,0.516331,0.38621425,-0.2095537,0.476206,0.36672002,-0.21565051,0.4528,0.34667983,-0.22426331,0.436082,0.42625792,-0.26206735,0.526896,0.4053785,-0.23533349,0.48521,0.38279378,-0.24636071,0.463882,0.3596997,-0.24974179,0.444493,0.4568394,-0.28802182,0.544154,0.42667367,-0.27019027,0.506302,0.41269378,-0.26430328,0.488911,0.40012955,-0.26270779,0.473565
0.41176824,-0.35372571,0.583144,0.40709132,-0.30019185,0.548712,0.39081526,-0.32481558,0.565748,0.36092626,-0.30111102,0.534274,0.3366007,-0.28152872,0.50697,0.32726328,-0.26712511,0.487788,0.36884682,-0.23028516,0.502876,0.36554062,-0.18486246,0.490264,0.36430373,-0.16918511,0.483957,0.36126837,-0.16070706,0.478224,0.39783206,-0.24295131,0.512804,0.37678434,-0.20977142,0.471328,0.35589339,-0.21852851,0.447134,0.33957825,-0.22543147,0.429852,0.42211311,-0.25462258,0.5236,0.39657905,-0.23818823,0.480615,0.3735795,-0.24910755,0.458623,0.35347412,-0.24981579,0.43863,0.45490703,-0.27928515,0.541397,0.42273249,-0.2623868,0.502529,0.40854628,-0.25951346,0.484671,0.39558646,-0.25794479,0.468913
0.41785172,-0.3532368,0.584289,0.41442199,-0.29023791,0.548814,0.39277176,-0.32526997,0.567338,0.36654682,-0.29786795,0.536322,0.33829193,-0.28232526,0.509472,0.32814149,-0.26821073,0.490308,0.36809539,-0.22637,0.502786,0.35708773,-0.17729497,0.48672,0.35022713,-0.16671843,0.478687,0.34391567,-0.17016005,0.471384,0.39856264,-0.23462135,0.511817,0.37421501,-0.20741861,0.469498,0.35219269,-0.21644378,0.444812,0.33296709,-0.22336323,0.427179,0.42435493,-0.24761573,0.521955,0.39410242,-0.23540863,0.478478,0.37112831,-0.24615923,0.456234,0.35087243,-0.24471473,0.436012,0.45794043,-0.27110032,0.53912,0.42054332,-0.25874409,0.499771,0.40454545,-0.25381454,0.481691,0.39053222,-0.25291952,0.465738
0.42191604,-0.35090914,0.583983,0.41315024,-0.28922621,0.548116,0.39333953,-0.32505593,0.567153,0.36552027,-0.30011459,0.536286,0.33827485,-0.28299132,0.509593,0.32661105,-0.26975853,0.490442,0.36064687,-0.22406469,0.501961,0.34305414,-0.17811967,0.4864,0.33474159,-0.16617661,0.478619,0.32872686,-0.16701674,0.471546,0.39043786,-0.23158594,0.510711,0.36269831,-0.20195304,0.468095,0.34285485,-0.21182693,0.443235,0.33005276,-0.22135557,0.425478,0.41707397,-0.24197653,0.520648,0.38618725,-0.22765563,0.476986,0.36811608,-0.24135844,0.454648,0.3496426,-0.24112804,0.43434,0.45258092,-0.26246483,0.53763,0.41517141,-0.24878711,0.498111,0.39841514,-0.24484727,0.479953,0.38580982,-0.24779828,0.463932
0.42308603,-0.35223501,0.585747,0.40521126,-0.290273,0.551128,0.39479175,-0.32609592,0.568326,0.36363438,-0.30290626,0.536847,0.33749343,-0.28528252,0.509613,0.32574835,-0.26995938,0.490505,0.34778406,-0.22829312,0.505126,0.33371231,-0.18407002,0.494547,0.32858609,-0.16960569,0.489257,0.32385146,-0.1558534,0.484449,0.3781972,-0.23247621,0.515023,0.35417286,-0.20140729,0.473412,0.33951841,-0.20705269,0.449138,0.32606725,-0.21662646,0.4318,0.40571403,-0.24008588,0.525808,0.37913777,-0.22219708,0.482707,0.36529489,-0.23361129,0.460656,0.35113767,-0.23853994,0.440608,0.44301573,-0.25724097,0.54362,0.40596172,-0.23257631,0.504659,0.38892686,-0.22123209,0.486758,0.3738892,-0.21121485,0.470962
0.42657851,-0.35236051,0.587448,0.40460795,-0.29252394,0.553544,0.3961943,-0.32752293,0.569851,0.36407722,-0.3074559,0.538181,0.33697274,-0.28808486,0.510802,0.32482724,-0.27109933,0.491786,0.33971331,-0.23394095,0.507833,0.32794491,-0.19008006,0.499402,0.3249365,-0.17454902,0.495187,0.32529795,-0.15893198,0.491355,0.36986984,-0.23523107,0.518185,0.34626696,-0.20091559,0.477148,0.33490039,-0.20390407,0.45321,0.32683405,-0.21639696,0.436111,0.39753976,-0.24041277,0.52929,0.37350139,-0.21940331,0.486576,0.36316464,-0.22987077,0.464722,0.35033098,-0.23618996,0.444855,0.43578989,-0.25461226,0.54738,0.40005248,-0.22905813,0.508775,0.38362001,-0.21729837,0.491037,0.36911434,-0.20691148,0.475387
0.42226471,-0.34905039,0.582254,0.39458591,-0.28993275,0.556549,0.39307298,-0.32602437,0.565795,0.35348232,-0.30710756,0.536053,0.33080639,-0.28901444,0.508149,0.32014585,-0.27128033,0.489565,0.33156694,-0.23693151,0.51805,0.31788781,-0.1912326,0.505608,0.3143515,-0.17484113,0.499387,0.31115244,-0.15936179,0.493732,0.36203496,-0.23565585,0.529742,0.34477359,-0.20927293,0.495541,0.33944794,-0.2131117,0.475591,0.33429284,-0.22514228,0.461341,0.38997654,-0.23839471,0.541323,0.37487968,-0.2253489,0.504594,0.37137419,-0.23651279,0.485802,0.36569297,-0.24573712,0.470274,0.42852454,-0.24908392,0.558799,0.40695447,-0.24540441,0.525303,0.39099989,-0.25619992,0.509914,0.37666617,-0.2610657,0.498024
0.42468172,-0.34628733,0.58055,0.39373354,-0.28934081,0.554877,0.39263758,-0.32615702,0.565082,0.35718771,-0.30795153,0.535498,0.33028316,-0.28950663,0.508502,0.31831407,-0.27185995,0.490096,0.33055168,-0.23844788,0.517621,0.31244341,-0.19865818,0.512869,0.30820574,-0.18369494,0.510492,0.30420276,-0.16933164,0.508332,0.35988965,-0.23590307,0.528103,0.34196541,-0.20950229,0.493845,0.33687236,-0.21273293,0.473861,0.33244776,-0.22447182,0.459587,0.38692217,-0.23754061,0.538687,0.37211377,-0.22476309,0.502303,0.36900661,-0.2356115,0.483689,0.3759514,-0.25294935,0.484961,0.42446821,-0.2467743,0.554971,0.40331732,-0.24365105,0.521631,0.38788471,-0.25427856,0.506314,0.38291649,-0.26581762,0.506678
0.42235972,-0.34638358,0.580798,0.39308049,-0.29047086,0.556958,0.39218553,-0.32613912,0.564125,0.35609964,-0.30712473,0.533678,0.32886143,-0.28844337,0.506072,0.31750713,-0.27087368,0.487891,0.32942172,-0.2412683,0.519517,0.30057957,-0.20141195,0.51011,0.2907917,-0.18479537,0.505406,0.28160118,-0.16907382,0.50113,0.35983019,-0.2390886,0.532096,0.34565013,-0.212745,0.499649,0.34194272,-0.21562564,0.480721,0.34070585,-0.22824679,0.467202,0.38771435,-0.24088074,0.544265,0.37621687,-0.22807728,0.508898,0.37400153,-0.23869076,0.490804,0.38073783,-0.25636732,0.491852,0.42609741,-0.25007252,0.562171,0.40502839,-0.25954869,0.529952,0.39101427,-0.26646932,0.515148,0.38892963,-0.27858171,0.515408
0.42128533,-0.34352141,0.577974,0.38561847,-0.28813672,0.554417,0.38915656,-0.3270597,0.562647,0.35665426,-0.306394,0.533415,0.3287538,-0.28875759,0.506639,0.31763967,-0.27138816,0.488437,0.32372305,-0.23634764,0.518834,0.28969909,-0.19988333,0.508186,0.27935367,-0.18873612,0.502861,0.27223046,-0.18111436,0.498021,0.35504607,-0.23653863,0.529848,0.34193404,-0.21334206,0.497529,0.33678204,-0.2156264,0.478676,0.33550241,-0.22727559,0.46521,0.38193339,-0.23834298,0.540709,0.37167055,-0.22788743,0.50598,0.37116361,-0.23754204,0.488212,0.37944133,-0.25550273,0.490478,0.41873149,-0.24757177,0.557017,0.39198365,-0.25123259,0.525159,0.39072703,-0.27082878,0.53614,0.3971442,-0.28145414,0.55161
0.41907488,-0.34188874,0.578169,0.37305781,-0.28820268,0.553503,0.37985505,-0.32735041,0.563794,0.34532545,-0.30898363,0.535339,0.31324568,-0.2901584,0.510251,0.30008515,-0.27291085,0.49218,0.31154733,-0.23910937,0.518308,0.27811886,-0.2051953,0.511723,0.27060567,-0.19789542,0.508431,0.26341533,-0.19088294,0.505438,0.33986744,-0.2357732,0.527778,0.3234526,-0.21398201,0.494395,0.31781675,-0.21324059,0.474922,0.3152652,-0.22472986,0.461012,0.36595009,-0.236705,0.537452,0.35308777,-0.22819138,0.502233,0.3534236,-0.2363012,0.484213,0.36418818,-0.25287738,0.486689,0.40217671,-0.2449601,0.55251,0.38506583,-0.23759095,0.520063,0.38539149,-0.26110319,0.53137,0.39221695,-0.27714102,0.547174
0.41641534,-0.34070845,0.578321,0.37219033,-0.28803449,0.553271,0.3776873,-0.32752683,0.563703,0.34432271,-0.3086408,0.534977,0.31212616,-0.28965091,0.509787,0.30007505,-0.27252773,0.491544,0.31031801,-0.23863709,0.517504,0.27726614,-0.20503032,0.511556,0.26985682,-0.19776569,0.508582,0.26275071,-0.1907734,0.505879,0.33871095,-0.2353877,0.527145,0.3219535,-0.21324585,0.493417,0.31611761,-0.21227952,0.473742,0.313482,-0.22365137,0.459689,0.36488761,-0.23640043,0.53699,0.35165708,-0.22750176,0.501387,0.35184002,-0.23544114,0.483171,0.36239775,-0.25187235,0.485318,0.40128987,-0.24477585,0.552305,0.38386492,-0.23707632,0.519546,0.38402312,-0.2604653,0.530612,0.38911761,-0.2744698,0.546432
0.40691614,-0.33790852,0.576184,0.36455709,-0.28863946,0.555643,0.37468793,-0.32682985,0.562121,0.34405909,-0.30881868,0.534454,0.312775,-0.2909672,0.510305,0.30171003,-0.27411144,0.492532,0.3014308,-0.24542697,0.523756,0.26163498,-0.21158551,0.510428,0.25493944,-0.20396101,0.503763,0.24868361,-0.19677874,0.497705,0.32884882,-0.23992793,0.534222,0.31873969,-0.22240161,0.504684,0.31526571,-0.21656921,0.487453,0.3201186,-0.22793882,0.475146,0.35432636,-0.23878732,0.544401,0.34887856,-0.23852171,0.512486,0.34065806,-0.25097859,0.496157,0.33850435,-0.25468091,0.500463,0.39010224,-0.24401723,0.559464,0.37578147,-0.23621825,0.529985,0.38403008,-0.26177594,0.542362,0.3953354,-0.27968261,0.557536
0.39331043,-0.32621608,0.558475,0.35514503,-0.28137273,0.545684,0.36218912,-0.31831956,0.548567,0.33836874,-0.30353449,0.526287,0.31135008,-0.28955544,0.507623,0.30202529,-0.27406422,0.492072,0.29162265,-0.24710714,0.524408,0.24886431,-0.21668532,0.503755,0.23332087,-0.20592584,0.493428,0.21883185,-0.19592769,0.484041,0.31589849,-0.23801683,0.532344,0.3001262,-0.22484164,0.510375,0.29241399,-0.21867838,0.49756,0.2956245,-0.22338313,0.488406,0.33889497,-0.2333179,0.53985,0.33157134,-0.23448573,0.515958,0.33183832,-0.2489377,0.503734,0.33763301,-0.25581698,0.512973,0.37187991,-0.23324128,0.550619,0.35421805,-0.2287923,0.527945,0.37499758,-0.25314274,0.543389,0.39007786,-0.26534204,0.557358
0.40070544,-0.33177851,0.569793,0.35617315,-0.28267823,0.549191,0.3715201,-0.32503727,0.560574,0.3452916,-0.30989508,0.537958,0.31271405,-0.29135678,0.510748,0.30144164,-0.27383697,0.491725,0.290167,-0.2482469,0.523232,0.24406911,-0.2219874,0.495715,0.22574098,-0.21066096,0.481956,0.20886053,-0.20026654,0.469448,0.31174534,-0.2371633,0.527706,0.28726477,-0.22189878,0.498362,0.27557215,-0.21399782,0.481245,0.27453876,-0.2149638,0.469018,0.33277336,-0.23106408,0.532959,0.31266297,-0.22157294,0.503243,0.31387269,-0.23491351,0.488039,0.32386853,-0.24555395,0.494803,0.36411756,-0.22961611,0.542174,0.33740256,-0.22247034,0.514073,0.35856544,-0.24482271,0.528391,0.37851445,-0.25800198,0.543833
0.39947108,-0.33049495,0.568784,0.35315361,-0.28199469,0.549009,0.37061319,-0.32475965,0.560181,0.34334144,-0.30947884,0.538346,0.311154,-0.29210315,0.51113,0.301127,-0.27418988,0.49212,0.28877427,-0.25230004,0.524393,0.243819,-0.22962184,0.49781,0.22227037,-0.21758755,0.484519,0.20294327,-0.20682611,0.472436,0.30914615,-0.24017757,0.528385,0.27746246,-0.22062546,0.499882,0.26190096,-0.21018279,0.483255,0.2576982,-0.20855502,0.471379,0.3292633,-0.23305192,0.533178,0.31078617,-0.22300063,0.504422,0.31304042,-0.23631141,0.489709,0.32381553,-0.24663815,0.497036,0.35970232,-0.23006229,0.541726,0.33517495,-0.22359633,0.514431,0.35697508,-0.24581176,0.529086,0.37705041,-0.25824659,0.544375
0.40079769,-0.33131695,0.571141,0.35362981,-0.28320481,0.550364,0.37104795,-0.32550101,0.561451,0.34428891,-0.31000488,0.538289,0.31295408,-0.29142107,0.51081,0.30724902,-0.27404753,0.491914,0.28715739,-0.25459913,0.523699,0.24786364,-0.23466938,0.495754,0.22789216,-0.22420416,0.481782,0.20952044,-0.21462623,0.46908,0.30746069,-0.24247289,0.528695,0.27712387,-0.2214001,0.499133,0.26105553,-0.21090456,0.481888,0.25567772,-0.20934464,0.46957,0.32771192,-0.23523988,0.534391,0.30725924,-0.22500446,0.504291,0.31173201,-0.23664229,0.488891,0.32218458,-0.2461688,0.495405,0.36024373,-0.23146204,0.544158,0.3311804,-0.22365507,0.515761,0.35316663,-0.24511278,0.529921,0.37431995,-0.25777083,0.545406
0.39895946,-0.32956825,0.568904,0.35226732,-0.2830275,0.549074,0.36978624,-0.32477071,0.560033,0.34325899,-0.30927875,0.53789,0.31184447,-0.29112783,0.510491,0.30278866,-0.27293091,0.491567,0.28677355,-0.25606263,0.524091,0.24066026,-0.23479926,0.49729,0.21799015,-0.22282405,0.48389,0.20263097,-0.21767753,0.484594,0.30636932,-0.24331585,0.528394,0.27604,-0.22199977,0.499805,0.26081991,-0.2123395,0.483128,0.25641306,-0.21181993,0.471216,0.32597968,-0.23551322,0.533448,0.30421705,-0.2255301,0.504504,0.30959704,-0.23735381,0.489696,0.32229579,-0.24696868,0.496908,0.35607846,-0.23143569,0.542314,0.32187185,-0.21785314,0.514877,0.34408554,-0.23821727,0.529463,0.36823625,-0.2545975,0.544775
0.39742674,-0.32836586,0.568906,0.35111188,-0.28282763,0.548649,0.36778133,-0.32423784,0.559559,0.34108073,-0.30785727,0.536836,0.3116387,-0.28983891,0.509327,0.30058433,-0.27188025,0.490458,0.28270641,-0.25841324,0.522776,0.23799517,-0.23572526,0.495387,0.21388151,-0.22686383,0.481692,0.20016326,-0.21980136,0.482149,0.30143712,-0.24486309,0.527523,0.2703318,-0.22266333,0.498481,0.25735686,-0.21507452,0.481539,0.25611213,-0.21713964,0.469438,0.32048346,-0.23622844,0.532974,0.29359941,-0.21958414,0.503451,0.29948496,-0.23060204,0.488346,0.31772358,-0.24560862,0.495208,0.34704432,-0.2297489,0.542375,0.32003038,-0.21821905,0.514463,0.3424817,-0.23808547,0.528836,0.36637043,-0.25371151,0.544233
0.39695054,-0.32742106,0.569573,0.35065363,-0.2829561,0.548624,0.36724781,-0.32451621,0.560213,0.34179784,-0.30824086,0.537402,0.31208439,-0.28999582,0.510011,0.30095827,-0.27178205,0.491157,0.28064589,-0.26053399,0.522244,0.23498714,-0.24249271,0.494415,0.21176494,-0.23247417,0.480501,0.19696277,-0.22598639,0.48079,0.2982033,-0.2460061,0.526777,0.26641053,-0.22435618,0.497096,0.25428995,-0.21761517,0.479782,0.25445436,-0.21797013,0.467415,0.31642768,-0.23644679,0.532105,0.29009126,-0.21857699,0.502049,0.29584675,-0.22840178,0.486672,0.31132413,-0.24228224,0.493237,0.34544409,-0.22971776,0.541458,0.31643669,-0.21902702,0.513066,0.34065829,-0.23767918,0.527263,0.36452495,-0.25270012,0.542761
0.39803935,-0.32557034,0.571944,0.34897009,-0.28341153,0.550018,0.36820902,-0.32474467,0.562174,0.34204961,-0.30847302,0.538809,0.31240423,-0.2912057,0.511577,0.30106284,-0.27317503,0.492644,0.27987598,-0.26014307,0.522441,0.23547021,-0.24270174,0.493735,0.21316304,-0.23359436,0.479382,0.20082509,-0.23410106,0.478825,0.29647578,-0.2443514,0.527152,0.26482167,-0.22720911,0.496529,0.25259494,-0.22148917,0.478665,0.25292672,-0.22391806,0.465906,0.31165776,-0.23372465,0.532701,0.28640878,-0.21933649,0.501693,0.29187563,-0.22700792,0.485828,0.31029189,-0.24141098,0.491819,0.33995797,-0.22576474,0.542457,0.31568405,-0.22006008,0.513247,0.33976926,-0.23792744,0.527091,0.36405374,-0.25231816,0.54274
0.39868717,-0.32527425,0.57297,0.34872742,-0.28322761,0.549864,0.36885379,-0.32477455,0.563431,0.34312632,-0.30855092,0.540225,0.30488779,-0.29159834,0.51444,0.28739138,-0.27280965,0.495223,0.27883973,-0.26035297,0.521737,0.23403213,-0.24285175,0.492472,0.21161763,-0.23374635,0.47784,0.19746398,-0.2329507,0.479988,0.29440346,-0.24551433,0.525768,0.2630961,-0.22737269,0.494107,0.25081341,-0.22377382,0.475638,0.251021,-0.22377935,0.462446,0.30970326,-0.23408263,0.530848,0.2739424,-0.21420279,0.499088,0.27290706,-0.21629816,0.482839,0.2932883,-0.23250039,0.488378,0.33747815,-0.22567724,0.540216,0.31220353,-0.2205987,0.510303,0.33615997,-0.23725284,0.523865,0.36152867,-0.25083836,0.539652
0.39894462,-0.32357593,0.573215,0.34832448,-0.28304415,0.550057,0.36928008,-0.32418503,0.563811,0.34280812,-0.30781305,0.540754,0.30527805,-0.2916335,0.514925,0.28909378,-0.27253926,0.495716,0.27861731,-0.2608352,0.522058,0.23381077,-0.24345172,0.492856,0.21139267,-0.23444822,0.478255,0.19714974,-0.23368358,0.480264,0.29268822,-0.24524229,0.525905,0.26234237,-0.22761403,0.494216,0.24946434,-0.22320432,0.47573,0.24988423,-0.2237204,0.462527,0.30930637,-0.23440065,0.530838,0.27380777,-0.21415307,0.499113,0.27281515,-0.21620527,0.482882,0.29324283,-0.23233836,0.488443,0.33685472,-0.2257702,0.540038,0.31168073,-0.22089249,0.510143,0.33563626,-0.23739986,0.523717,0.36000051,-0.25008886,0.539502
0.3989313,-0.32259429,0.573504,0.34565428,-0.28206764,0.550211,0.36949153,-0.32402258,0.564133,0.34226066,-0.30792302,0.541104,0.30670142,-0.29259515,0.515129,0.28991273,-0.27246161,0.495938,0.27621634,-0.2625963,0.522157,0.23166098,-0.24525449,0.492896,0.20947029,-0.23664432,0.478266,0.19684916,-0.23577613,0.479831,0.29119261,-0.24647221,0.525918,0.26202431,-0.23163046,0.494112,0.25108578,-0.22710633,0.475558,0.25194269,-0.22799016,0.462306,0.30751484,-0.23537375,0.53079,0.27250013,-0.21450546,0.498984,0.2715235,-0.21650832,0.482712,0.2919888,-0.23250782,0.48822,0.33474583,-0.22635504,0.539938,0.30991384,-0.22186269,0.509966,0.33331968,-0.23824145,0.523506,0.35920903,-0.25003613,0.539304
0.3987056,-0.32178731,0.574565,0.3393883,-0.28024735,0.550472,0.36923824,-0.32370852,0.564863,0.34007842,-0.30630815,0.541398,0.30623714,-0.29230346,0.51471,0.28961278,-0.27301638,0.495734,0.26842713,-0.25981231,0.521443,0.23092003,-0.24318344,0.491477,0.21000315,-0.23324239,0.476494,0.19630389,-0.23381981,0.479565,0.28324913,-0.24365929,0.525345,0.26088956,-0.23167382,0.492779,0.2499972,-0.22712103,0.473782,0.25083566,-0.22779715,0.460212,0.29951679,-0.23251749,0.530393,0.2707611,-0.214329,0.497821,0.26964039,-0.21610202,0.481156,0.28991203,-0.23167272,0.486172,0.32680645,-0.223446,0.539867,0.30792975,-0.22212504,0.509239,0.33102359,-0.23810833,0.522464,0.35799791,-0.2495751,0.538371
0.39461465,-0.3180409,0.574215,0.33909556,-0.28256828,0.559491,0.36019781,-0.32235427,0.570949,0.31802066,-0.30570965,0.564248,0.28518093,-0.29269052,0.559562,0.26429261,-0.27862509,0.554911,0.27836525,-0.26192609,0.545034,0.24816299,-0.25161164,0.525511,0.22832849,-0.24608888,0.51575,0.21622492,-0.24883807,0.521334,0.29344568,-0.24512928,0.544136,0.27557292,-0.24294379,0.521304,0.28215523,-0.25076812,0.507986,0.28896574,-0.25747836,0.498473,0.30827864,-0.23623588,0.54452,0.28424394,-0.22518546,0.5227,0.2865348,-0.22998649,0.511536,0.31140952,-0.24889165,0.522173,0.33391835,-0.22698606,0.547097,0.31429889,-0.2288913,0.52569,0.34021924,-0.24624767,0.542005,0.36910574,-0.25749654,0.555865
0.39456888,-0.31969147,0.574232,0.33909641,-0.28265444,0.560087,0.36218859,-0.3232195,0.571042,0.31938501,-0.30594161,0.564743,0.28618203,-0.29426083,0.56047,0.26515656,-0.28107282,0.55597,0.28000663,-0.26250889,0.546134,0.24887084,-0.25226268,0.527066,0.22983041,-0.2469018,0.517531,0.22048468,-0.25351417,0.527555,0.2951369,-0.24576721,0.545335,0.27685004,-0.24287862,0.523057,0.2849087,-0.25200065,0.510062,0.29241816,-0.2589707,0.500779,0.31077616,-0.23442148,0.545757,0.28555647,-0.22610367,0.524503,0.28798147,-0.23112346,0.513629,0.31318889,-0.25008288,0.524537,0.33630096,-0.22754556,0.548295,0.31507675,-0.22927284,0.527328,0.34412046,-0.24679673,0.543777,0.36995297,-0.25782591,0.557535
0.39437639,-0.32058914,0.57683,0.34337077,-0.28516379,0.563318,0.36261741,-0.32516148,0.574008,0.32049292,-0.30581534,0.565705,0.2889982,-0.29493533,0.564354,0.26924293,-0.28232248,0.5603,0.28885412,-0.26052834,0.550268,0.2617173,-0.25048375,0.531335,0.24756556,-0.24542501,0.521869,0.24286455,-0.24959693,0.532011,0.3054658,-0.24537566,0.549228,0.28106021,-0.24203234,0.527625,0.28904679,-0.25374082,0.515024,0.29639994,-0.2613847,0.506023,0.32202878,-0.23555433,0.549403,0.29224161,-0.22669203,0.528906,0.29367307,-0.23266528,0.518419,0.3169379,-0.25251618,0.529642,0.34488345,-0.23016633,0.551556,0.3220299,-0.2305345,0.531216,0.34899707,-0.24844995,0.547799,0.37235793,-0.2594888,0.561388
0.37612521,-0.31991731,0.572546,0.33860633,-0.28216125,0.561426,0.35048695,-0.32165023,0.568862,0.30780943,-0.29766208,0.563412,0.2771296,-0.27535883,0.553642,0.26060389,-0.25767585,0.549714,0.28488535,-0.2500621,0.549006,0.26205652,-0.24804731,0.531492,0.24925695,-0.24461066,0.522734,0.24593091,-0.25035765,0.533619,0.30471074,-0.23811516,0.549828,0.28310968,-0.23085148,0.530286,0.29040767,-0.24552399,0.518886,0.29584884,-0.25987565,0.510743,0.32332863,-0.23372829,0.551353,0.30287128,-0.2236459,0.532175,0.30084245,-0.23261493,0.522363,0.32036222,-0.25476374,0.534344,0.34925169,-0.22972208,0.554768,0.32732668,-0.22749377,0.535712,0.35285614,-0.24897405,0.55276,0.37534196,-0.26133076,0.566076
0.3772428,-0.31873607,0.572768,0.33838045,-0.28139107,0.561782,0.34890009,-0.32091046,0.568952,0.30878848,-0.29634203,0.56371,0.27878691,-0.27409811,0.554921,0.26259816,-0.25636905,0.551215,0.28524549,-0.24949557,0.549294,0.26274896,-0.24519047,0.531767,0.25004051,-0.24410301,0.523004,0.24710399,-0.25033744,0.533895,0.30510925,-0.23753172,0.550324,0.28362505,-0.23055641,0.530883,0.2919583,-0.2456872,0.519542,0.29925417,-0.25886889,0.511442,0.32394367,-0.2304474,0.55201,0.30340106,-0.22328007,0.532857,0.30199308,-0.23208505,0.523058,0.32134872,-0.25495175,0.535058,0.35079713,-0.22843149,0.555597,0.32611541,-0.22499168,0.536578,0.35329076,-0.2447404,0.55364,0.37589288,-0.2612054,0.566949
0.37385505,-0.31664063,0.569083,0.33668276,-0.27618125,0.559395,0.3450435,-0.31715827,0.563988,0.30871628,-0.28609059,0.555526,0.2832576,-0.26028796,0.544929,0.2704519,-0.2395101,0.539059,0.29100984,-0.24173937,0.546251,0.2730297,-0.23191815,0.528651,0.27271383,-0.23533304,0.51985,0.28701225,-0.25113073,0.530734,0.31326877,-0.23226882,0.549291,0.29321141,-0.22269595,0.530874,0.30095554,-0.23988992,0.520131,0.31481537,-0.26398147,0.531237,0.33386899,-0.22727185,0.552532,0.31425692,-0.21734894,0.533667,0.31415873,-0.22616049,0.524016,0.33025489,-0.2525839,0.536119,0.36281749,-0.2267789,0.557781,0.338416,-0.22132967,0.539162,0.36497847,-0.24209758,0.556272,0.38402039,-0.25836418,0.569459
0.37755862,-0.31491836,0.56657,0.35545147,-0.2770773,0.559285,0.35717216,-0.31873026,0.565044,0.33826587,-0.29624919,0.564529,0.31442297,-0.27634886,0.558693,0.30008888,-0.25784225,0.554037,0.3056381,-0.24811588,0.552244,0.27912178,-0.23411806,0.538888,0.28673355,-0.2469968,0.53221,0.30498342,-0.26378844,0.544666,0.32554362,-0.23654,0.551688,0.30514829,-0.22985365,0.536284,0.3140385,-0.24667606,0.527298,0.33267389,-0.26840041,0.539536,0.34423528,-0.22989066,0.551786,0.31775401,-0.212035,0.53701,0.32639507,-0.22840564,0.529449,0.34712963,-0.24648348,0.543139,0.3708504,-0.22749166,0.552952,0.34750082,-0.22596078,0.537733,0.3738834,-0.24516581,0.555439,0.39867447,-0.25875012,0.56766
0.38043761,-0.31637004,0.56969,0.35729327,-0.27606359,0.560458,0.35919123,-0.31906212,0.5667,0.3340783,-0.30569697,0.552824,0.30162936,-0.29592844,0.534839,0.27818965,-0.28355436,0.524561,0.30549411,-0.24530536,0.550233,0.27896063,-0.22916645,0.534476,0.28449611,-0.24395893,0.526597,0.30208357,-0.26045987,0.538193,0.3261334,-0.23441206,0.550831,0.30869177,-0.23140869,0.533237,0.3129199,-0.24628874,0.522974,0.33092084,-0.26809429,0.53447,0.34560522,-0.22836592,0.552028,0.31736431,-0.21680683,0.534777,0.33244107,-0.22898763,0.525951,0.35394322,-0.24225891,0.538726,0.37345092,-0.22682009,0.55478,0.35659205,-0.21241467,0.537426,0.36368172,-0.24044959,0.554812,0.37571132,-0.25774,0.567661
0.39441359,-0.32533067,0.584011,0.37568889,-0.28533271,0.56765,0.37196026,-0.32520769,0.580969,0.34740485,-0.31645147,0.56617,0.31629123,-0.30598598,0.547563,0.28858559,-0.29045131,0.534813,0.32300991,-0.24814555,0.552309,0.2892698,-0.23062962,0.531987,0.29341179,-0.24380447,0.521825,0.31129832,-0.25813929,0.531074,0.34309052,-0.23882215,0.550587,0.3131884,-0.22591028,0.526311,0.30902061,-0.24280236,0.512151,0.32261884,-0.26269022,0.520836,0.3621731,-0.2344556,0.550418,0.32642704,-0.21933504,0.527619,0.31040704,-0.21512341,0.515955,0.31424505,-0.22700754,0.525947,0.38972197,-0.23560788,0.552573,0.35841866,-0.21613162,0.530162,0.3694234,-0.24022514,0.546045,0.39099678,-0.25788216,0.560091
0.40059027,-0.33016768,0.588452,0.3773309,-0.28742367,0.570131,0.37647783,-0.32757802,0.585069,0.34962161,-0.32024622,0.569673,0.31862451,-0.31082463,0.551356,0.29588345,-0.29741738,0.539214,0.32340409,-0.24927423,0.552983,0.28863469,-0.23097454,0.530819,0.29223775,-0.24367031,0.519737,0.30953161,-0.2575078,0.52806,0.34336345,-0.23984205,0.551025,0.31234579,-0.22616209,0.524895,0.30788733,-0.2421857,0.509653,0.32059283,-0.2621285,0.517454,0.36243235,-0.23545777,0.550812,0.32563327,-0.21966475,0.526336,0.30925162,-0.21789769,0.513814,0.31452439,-0.22870197,0.522877,0.39016206,-0.23671561,0.553197,0.35783522,-0.21664468,0.529299,0.36909496,-0.23994422,0.54464,0.38944808,-0.25884854,0.558999
0.42120452,-0.33964299,0.597528,0.39392204,-0.29126362,0.57601,0.39414884,-0.33373015,0.593004,0.36668651,-0.32554256,0.575948,0.33457575,-0.31769366,0.56076,0.30611286,-0.3053714,0.549313,0.33718335,-0.25121664,0.55519,0.30093056,-0.23151568,0.529766,0.3033733,-0.24333562,0.517053,0.31944619,-0.25627991,0.52374,0.35743779,-0.24193047,0.55357,0.32490995,-0.22692959,0.524314,0.31992609,-0.24224291,0.507248,0.33124066,-0.26352699,0.513529,0.37695338,-0.23776935,0.553878,0.33855837,-0.22070838,0.526325,0.32282163,-0.21720597,0.512228,0.32853809,-0.23041926,0.519617,0.40563666,-0.23950052,0.557343,0.37171661,-0.21831439,0.530768,0.38358443,-0.24064175,0.544349,0.40190321,-0.26219617,0.559658
0.41976504,-0.33799143,0.592314,0.39490505,-0.29024264,0.573012,0.39249444,-0.33108785,0.587146,0.3604561,-0.31587124,0.569432,0.32626105,-0.30152021,0.556217,0.30422358,-0.28532537,0.546012,0.34606057,-0.24567702,0.552968,0.3195506,-0.22506327,0.527995,0.32087615,-0.23842237,0.515509,0.3336065,-0.25371308,0.522908,0.36890889,-0.23940601,0.552883,0.33959248,-0.19687988,0.525381,0.33214339,-0.20859087,0.509339,0.34224206,-0.22993075,0.516675,0.38991405,-0.23790487,0.554286,0.36089922,-0.216568,0.527375,0.34876507,-0.20973523,0.513606,0.35725266,-0.21975618,0.521829,0.41922475,-0.24308524,0.558734,0.39018478,-0.22257444,0.533273,0.40216823,-0.23992166,0.547616,0.42009466,-0.26404058,0.562886
0.4231628,-0.34130514,0.594926,0.39988109,-0.29535316,0.575232,0.39903263,-0.3340926,0.58623,0.3610035,-0.31857032,0.564299,0.33137498,-0.29956775,0.543977,0.30977788,-0.28203756,0.532304,0.34522013,-0.25351447,0.55056,0.32310077,-0.22788084,0.524156,0.32589711,-0.23947513,0.510953,0.33356066,-0.25314814,0.517623,0.37049643,-0.24826239,0.554694,0.34820613,-0.20712897,0.526542,0.33759524,-0.18856903,0.510121,0.34801106,-0.2016133,0.516976,0.39351163,-0.24757434,0.559597,0.37223581,-0.20425953,0.531689,0.36765301,-0.20185957,0.517411,0.37986287,-0.22389409,0.524994,0.42518165,-0.25364436,0.568265,0.4026229,-0.23088814,0.54099,0.41913235,-0.24568169,0.555646,0.43884597,-0.26915959,0.570928
0.42816425,-0.34606473,0.597637,0.39888155,-0.29839442,0.571798,0.39987743,-0.33641365,0.586633,0.35810726,-0.3154691,0.56159,0.3256827,-0.29458553,0.537953,0.30373328,-0.27594517,0.525088,0.34009836,-0.24895849,0.539927,0.32857308,-0.20508897,0.529874,0.32792273,-0.20238412,0.524847,0.33945784,-0.21221006,0.538125,0.36551672,-0.24471523,0.54485,0.33882336,-0.20238656,0.510578,0.32555688,-0.18270986,0.490585,0.3334674,-0.19212261,0.494066,0.38895856,-0.24503105,0.550873,0.36231303,-0.19949344,0.517006,0.35344155,-0.18798637,0.499679,0.36372577,-0.20174855,0.503561,0.42181231,-0.25265745,0.561757,0.39477727,-0.2248378,0.529508,0.4086198,-0.23162222,0.541852,0.42918858,-0.25379557,0.557989
0.42724131,-0.35447011,0.590607,0.40911978,-0.31526644,0.574257,0.39680636,-0.34155545,0.579099,0.36019938,-0.31820901,0.554578,0.32985647,-0.2902118,0.532864,0.31523558,-0.26866492,0.520443,0.36033462,-0.26161612,0.548488,0.33708035,-0.21281483,0.527238,0.33284935,-0.20577649,0.516612,0.34084148,-0.20640772,0.525061,0.38944661,-0.26319593,0.557205,0.36959087,-0.21827837,0.531694,0.35798026,-0.19161594,0.516813,0.35301999,-0.18069165,0.506183,0.4151165,-0.26822023,0.565625,0.39478522,-0.21618897,0.540121,0.38439069,-0.18976281,0.527072,0.37997099,-0.17960768,0.51521,0.44889373,-0.28138473,0.577994,0.42772051,-0.23040678,0.554099,0.42426851,-0.22490221,0.54312,0.43355441,-0.22640528,0.548903
0.42590327,-0.35978901,0.587945,0.40929559,-0.31451425,0.572419,0.39650209,-0.3429264,0.5778,0.36129921,-0.31839443,0.554823,0.33174731,-0.29117873,0.532581,0.31749864,-0.26997972,0.519353,0.36655168,-0.26144761,0.548915,0.34299074,-0.2126832,0.525143,0.33579367,-0.20069564,0.513257,0.33971769,-0.20068639,0.520872,0.39501768,-0.26352228,0.556228,0.37336768,-0.21402414,0.531579,0.36050722,-0.19066623,0.517201,0.3551623,-0.17180214,0.506931,0.41981205,-0.26893968,0.56343,0.39498361,-0.21505933,0.538416,0.3882336,-0.19435167,0.525618,0.37994784,-0.17739648,0.513984,0.45184727,-0.28249707,0.574231,0.42811589,-0.23455942,0.549435,0.42235622,-0.22482218,0.538042,0.42977379,-0.22350567,0.543918
0.42872665,-0.36477792,0.586443,0.42081809,-0.31595315,0.571859,0.40134733,-0.34995132,0.577345,0.37325677,-0.32044172,0.555634,0.34200977,-0.29377701,0.535292,0.32420345,-0.27291858,0.52227,0.37724717,-0.26368033,0.550312,0.35460513,-0.21531175,0.527906,0.34732595,-0.20258449,0.516703,0.35332948,-0.1982107,0.525091,0.40517953,-0.26518895,0.55665,0.38285345,-0.21514136,0.53299,0.37048226,-0.18712881,0.519189,0.36162845,-0.16696335,0.509331,0.42950198,-0.27010665,0.562977,0.40684846,-0.21710336,0.53913,0.39828755,-0.19614119,0.526929,0.39177847,-0.18067642,0.515838,0.46092639,-0.28299617,0.572603,0.43637034,-0.2361191,0.54884,0.42880654,-0.22204193,0.537922,0.43503795,-0.21582895,0.544411
0.43233119,-0.36514546,0.585826,0.43244442,-0.31901324,0.574403,0.41356738,-0.35160114,0.577781,0.38223944,-0.32218577,0.557728,0.34711775,-0.29596709,0.539978,0.33204708,-0.27578949,0.530033,0.39202713,-0.26742816,0.556394,0.37251816,-0.22268785,0.54482,0.36530936,-0.20316167,0.539033,0.37138183,-0.19241507,0.551851,0.41998716,-0.26940259,0.56249,0.40091416,-0.21801195,0.546953,0.39301885,-0.19229505,0.537889,0.38782165,-0.17451398,0.531415,0.44407093,-0.27463217,0.568378,0.42162804,-0.22383162,0.546946,0.411397,-0.19958472,0.53598,0.40126795,-0.18156393,0.526012,0.47471114,-0.28773806,0.577025,0.44760252,-0.23884836,0.55599,0.44032591,-0.22324446,0.546325,0.44697395,-0.21556646,0.553983
0.43200886,-0.36375558,0.582897,0.4324518,-0.31981556,0.575466,0.41313859,-0.35077468,0.576025,0.38251315,-0.32254545,0.557975,0.34840272,-0.29629502,0.540588,0.33358774,-0.27646641,0.531621,0.3959502,-0.27020612,0.561729,0.37470884,-0.22362646,0.547031,0.36732744,-0.20366158,0.539682,0.37323458,-0.19210427,0.551307,0.42380623,-0.27229816,0.567715,0.40551537,-0.22047433,0.551296,0.39708388,-0.19291321,0.541718,0.39206425,-0.17444804,0.534877,0.4474461,-0.27749492,0.573208,0.42762842,-0.2264089,0.556371,0.42055728,-0.20244751,0.547757,0.41512406,-0.18171381,0.539926,0.47687155,-0.29026873,0.580811,0.45724311,-0.24373927,0.565215,0.45546067,-0.23058245,0.558049,0.46755084,-0.22650733,0.567626
0.42912235,-0.35836062,0.583089,0.4235278,-0.3152282,0.574916,0.40172093,-0.34411403,0.573856,0.37266502,-0.30845904,0.55315,0.34658238,-0.28087981,0.538458,0.33477662,-0.26117413,0.533346,0.38832733,-0.25916095,0.557742,0.37469096,-0.21613925,0.540478,0.36801172,-0.19472672,0.531845,0.37428678,-0.18096497,0.541888,0.41805119,-0.26458114,0.566391,0.40318027,-0.21612152,0.549063,0.39655145,-0.18839236,0.538955,0.39158417,-0.16884616,0.531735,0.44329709,-0.27258442,0.574131,0.43040345,-0.22067468,0.556857,0.42429996,-0.19485064,0.548019,0.41875236,-0.17135508,0.539985,0.47258634,-0.28890724,0.584514,0.4676662,-0.24671164,0.576557,0.46864522,-0.22580083,0.572901,0.46844725,-0.20879809,0.569676
0.42622569,-0.35571192,0.579155,0.42224546,-0.3128602,0.572741,0.40072314,-0.34258146,0.572047,0.37336234,-0.30959333,0.553941,0.34848194,-0.28394742,0.539698,0.33696889,-0.26508779,0.53555,0.39045712,-0.26041753,0.559434,0.37677068,-0.21310612,0.544344,0.37246357,-0.1966261,0.536799,0.38093117,-0.1853161,0.548124,0.41860811,-0.26454418,0.566051,0.40558441,-0.21363978,0.550632,0.39957698,-0.18879661,0.541637,0.39561822,-0.16962596,0.535212,0.4421928,-0.2713601,0.571984,0.43113268,-0.2203983,0.556768,0.42669507,-0.19559839,0.548984,0.42666858,-0.17651102,0.541906,0.46959248,-0.28618456,0.579965,0.4672207,-0.24485047,0.574944,0.47117838,-0.22601494,0.572636,0.47447079,-0.21402641,0.570727
0.43531117,-0.36414518,0.58639,0.43416084,-0.31894252,0.576686,0.41285686,-0.34850384,0.578068,0.3827889,-0.32082082,0.55802,0.35454435,-0.29186786,0.539945,0.33573476,-0.2741286,0.532925,0.3952016,-0.26755842,0.559552,0.37676095,-0.21444312,0.541861,0.37069559,-0.19650425,0.533016,0.37826579,-0.18548416,0.543234,0.42371639,-0.27021318,0.566566,0.40453223,-0.21513481,0.547754,0.39662663,-0.18761205,0.53678,0.39030635,-0.16929046,0.528942,0.4486916,-0.27494277,0.573077,0.43003191,-0.21992403,0.554394,0.42511636,-0.19629457,0.544836,0.41787778,-0.17736084,0.536147,0.47968607,-0.28851509,0.582218,0.46386113,-0.2389447,0.565379,0.46079221,-0.22084581,0.557643,0.45867787,-0.20608126,0.550816
0.43697086,-0.36445068,0.587041,0.43488992,-0.31841317,0.577129,0.41432254,-0.34881361,0.578753,0.38337959,-0.32034019,0.558703,0.35477352,-0.29205652,0.540294,0.33658079,-0.27407879,0.533318,0.39583112,-0.26692219,0.559889,0.37744239,-0.21527521,0.542024,0.37117466,-0.19716095,0.533092,0.37865251,-0.1864019,0.543265,0.42426729,-0.26955614,0.566791,0.40501542,-0.215255,0.547775,0.39693426,-0.18788317,0.536682,0.39054798,-0.16932262,0.528759,0.44912333,-0.27436596,0.573227,0.43032829,-0.22011962,0.554302,0.42494657,-0.19680585,0.54462,0.41798318,-0.1771566,0.535818,0.47999277,-0.28795988,0.582308,0.46458594,-0.2390251,0.565166,0.46115311,-0.22095639,0.557289,0.45853552,-0.20574325,0.55034
0.4376249,-0.3644935,0.586932,0.43467802,-0.31814683,0.576961,0.41497077,-0.34905043,0.578968,0.38408616,-0.32023128,0.559258,0.35478828,-0.29147771,0.540208,0.33983308,-0.27141446,0.534542,0.39530993,-0.26579546,0.56008,0.37943363,-0.21702842,0.542449,0.37317456,-0.19814825,0.533634,0.38130567,-0.1881277,0.543963,0.42337741,-0.26852218,0.566562,0.40459527,-0.21584708,0.547514,0.39750406,-0.1887845,0.536403,0.39072859,-0.16933308,0.528466,0.44731256,-0.27431685,0.572656,0.43416656,-0.22596438,0.553725,0.42536028,-0.19880173,0.544039,0.41983726,-0.17639589,0.535233,0.47839387,-0.28838057,0.581341,0.4652402,-0.23985053,0.56404,0.46130278,-0.22194325,0.556091,0.45767219,-0.20627787,0.549077
0.44030984,-0.36526769,0.588103,0.43479275,-0.31816326,0.577197,0.4161892,-0.34984842,0.580155,0.38502209,-0.32058711,0.560298,0.35501212,-0.29145911,0.540454,0.34008178,-0.27133902,0.534226,0.39575269,-0.26631558,0.559675,0.37884678,-0.21648074,0.541111,0.37254446,-0.19758287,0.53183,0.38062441,-0.18737613,0.541858,0.42295228,-0.26815529,0.565824,0.40645108,-0.21594065,0.545856,0.39810304,-0.18872316,0.534207,0.3922085,-0.16872712,0.525887,0.44669481,-0.27387093,0.571716,0.4343398,-0.22589291,0.551866,0.42772801,-0.20100595,0.54171,0.42173143,-0.17817838,0.532478,0.47748419,-0.28783233,0.580294,0.46469102,-0.24192389,0.561832,0.46067598,-0.22369058,0.553349,0.45587145,-0.20568699,0.545865
0.43967858,-0.36373372,0.58495,0.43299351,-0.31682391,0.574267,0.41590336,-0.34952809,0.579438,0.38510353,-0.31884183,0.562378,0.35567491,-0.29145502,0.543206,0.34097016,-0.27116632,0.535046,0.40338335,-0.26481426,0.559908,0.38798393,-0.21938663,0.546872,0.38260326,-0.20770936,0.540353,0.3907441,-0.20351483,0.552913,0.42943515,-0.26874043,0.563122,0.41485865,-0.21974584,0.543703,0.40635752,-0.19082172,0.532375,0.39835507,-0.17012453,0.524284,0.45147868,-0.27557807,0.566578,0.43892546,-0.22569852,0.547267,0.42963543,-0.20020975,0.537387,0.4241999,-0.17731644,0.528405,0.47885,-0.29062247,0.572224,0.46201841,-0.24070613,0.553718,0.45756578,-0.22334005,0.545216,0.4550972,-0.21306647,0.537714
0.43705873,-0.36053314,0.58011,0.43606248,-0.315278,0.574362,0.41513663,-0.34719611,0.576712,0.38915967,-0.31000287,0.562933,0.36157058,-0.279771,0.54654,0.35070527,-0.26048723,0.543124,0.41464973,-0.26223282,0.566102,0.40435008,-0.215681,0.552915,0.40030417,-0.19898903,0.546322,0.4102416,-0.18963165,0.558841,0.43993304,-0.26659053,0.568365,0.43014293,-0.21561921,0.554108,0.42543057,-0.18947025,0.545792,0.42215028,-0.17066508,0.539852,0.46092328,-0.27355911,0.570663,0.45459442,-0.22281074,0.556597,0.45132292,-0.19713586,0.5494,0.4489604,-0.17506382,0.542858,0.48629638,-0.28833128,0.574222,0.47034399,-0.24264194,0.559329,0.46905006,-0.2363661,0.552486,0.46689988,-0.23225064,0.546448
