sluyters/QuantumLeap/src/datasets/gesture/HandGestureDataset_SHREC2017_csv/Gesture6/finger_2/subject_26_essai_3_skeletons_world.csv
Wrist_x,Wrist_y,Wrist_z,Palm_x,Palm_y,Palm_z,thumb_base_x,thumb_base_y,thumb_base_z,thumb_first_joint_x,thumb_first_joint_y,thumb_first_joint_z,thumb_second_joint_x,thumb_second_joint_y,thumb_second_joint_z,thumb_tip_x,thumb_tip_y,thumb_tip_z,index_base_x,index_base_y,index_base_z,index_first_joint_x,index_first_joint_y,index_first_joint_z,index_second_joint_x,index_second_joint_y,index_second_joint_z,index_tip_x,index_tip_y,index_tip_z,middle_base_x,middle_base_y,middle_base_z,middle_first_joint_x,middle_first_joint_y,middle_first_joint_z,middle_second_joint_x,middle_second_joint_y,middle_second_joint_z,middle_tip_x,middle_tip_y,middle_tip_z,ring_base_x,ring_base_y,ring_base_z,ring_first_joint_x,ring_first_joint_y,ring_first_joint_z,ring_second_joint_x,ring_second_joint_y,ring_second_joint_z,ring_tip_x,ring_tip_y,ring_tip_z,pinky_base_x,pinky_base_y,pinky_base_z,pinky_first_joint_x,pinky_first_joint_y,pinky_first_joint_z,pinky_second_joint_x,pinky_second_joint_y,pinky_second_joint_z,pinky_tip_x,pinky_tip_y,pinky_tip_z,
0.383609816,-0.2812254,0.467286,0.364762107,-0.227472331,0.44683,0.363093611,-0.264259971,0.466458,0.319339534,-0.241293654,0.454527,0.276318293,-0.222180741,0.437163,0.256689707,-0.203606669,0.430408,0.313693955,-0.169134228,0.428739,0.299271955,-0.127415848,0.419967,0.289377014,-0.112776524,0.415581,0.297140579,-0.119326066,0.428544,0.330125787,-0.162944518,0.42168,0.293611968,-0.115211051,0.392162,0.302414861,-0.117656816,0.411824,0.31511687,-0.139721006,0.428673,0.345186494,-0.160733357,0.417117,0.314897633,-0.117442132,0.389161,0.320644706,-0.115009197,0.402003,0.333280866,-0.136792002,0.421091,0.366824386,-0.163977894,0.414159,0.350861048,-0.141374043,0.391361,0.352329387,-0.159958466,0.403916,0.354553378,-0.178129184,0.416809
0.387534959,-0.282942179,0.470938,0.365830081,-0.226237853,0.450487,0.364998544,-0.265752441,0.468461,0.318172081,-0.245732391,0.453855,0.271681495,-0.229206282,0.434809,0.245322631,-0.211205732,0.421797,0.310962137,-0.171883826,0.430427,0.294002816,-0.130038717,0.422658,0.283523725,-0.116221524,0.418774,0.287818035,-0.125162799,0.432235,0.32875909,-0.16562859,0.425342,0.294296016,-0.117742464,0.398013,0.29440769,-0.12057222,0.411956,0.312252503,-0.141838353,0.429996,0.345209836,-0.163331089,0.422402,0.3116781,-0.118139764,0.395658,0.297488591,-0.1070631,0.381976,0.304116586,-0.12468359,0.388738,0.368949236,-0.166474028,0.4214,0.350379604,-0.143262156,0.399673,0.355742425,-0.162652679,0.412533,0.359602346,-0.181738068,0.425166
0.379453273,-0.276863393,0.460698,0.363758924,-0.229330114,0.449202,0.363019862,-0.265131589,0.466076,0.321742623,-0.254041298,0.463893,0.275492017,-0.234249966,0.443231,0.248681415,-0.21540665,0.429209,0.321731078,-0.179076437,0.44602,0.301408193,-0.134102265,0.431199,0.28806928,-0.119723488,0.423789,0.287154825,-0.113070135,0.43322,0.334122044,-0.171559168,0.435067,0.317094861,-0.123825602,0.418766,0.301444285,-0.111806161,0.409257,0.301633093,-0.106967293,0.418786,0.346549368,-0.167412738,0.426758,0.323504631,-0.121874866,0.403451,0.312946102,-0.0993347932,0.391527,0.313658097,-0.098660597,0.399034,0.364110242,-0.171243462,0.418169,0.349262929,-0.143928719,0.399092,0.341587263,-0.13217313,0.390327,0.341478165,-0.140579353,0.396297
0.381273723,-0.277532594,0.462654,0.364009287,-0.230100845,0.450559,0.364452842,-0.266453025,0.468175,0.322822835,-0.261825575,0.466296,0.275653749,-0.245330309,0.444618,0.246912803,-0.227556133,0.430091,0.320997782,-0.180847593,0.447047,0.30112846,-0.135039753,0.431912,0.287087219,-0.120947884,0.424345,0.283884601,-0.113895291,0.4334,0.334663517,-0.172769723,0.435687,0.313459924,-0.123722128,0.417028,0.292893659,-0.109475976,0.406143,0.294723309,-0.10422814,0.414534,0.347113736,-0.170811917,0.427079,0.325081146,-0.123161875,0.403095,0.312685403,-0.100360774,0.390824,0.313179241,-0.0973105858,0.397811,0.363860108,-0.172318014,0.418205,0.346463611,-0.146292429,0.398795,0.33572958,-0.135744194,0.389876,0.339346662,-0.137352896,0.395509
0.381697446,-0.277606512,0.463334,0.359585166,-0.229575628,0.450583,0.362957098,-0.267119056,0.468439,0.320761243,-0.262317491,0.465884,0.273192027,-0.246066883,0.44386,0.24398512,-0.228238206,0.428797,0.321524783,-0.179749259,0.446025,0.301036516,-0.135034929,0.431705,0.286923336,-0.121075963,0.424546,0.283555893,-0.113454001,0.433942,0.334492369,-0.172879956,0.434905,0.313671222,-0.124045858,0.417934,0.294720625,-0.104297407,0.408035,0.292824132,-0.0931489442,0.417079,0.347105946,-0.171074503,0.426533,0.32434458,-0.123403091,0.402,0.312024786,-0.100348688,0.389448,0.312408399,-0.0959417312,0.396275,0.364018806,-0.173208759,0.418026,0.344392095,-0.14863414,0.398484,0.335026087,-0.137193469,0.389506,0.338342498,-0.136347461,0.395086
0.383181728,-0.278443674,0.465466,0.359018559,-0.230048156,0.450993,0.363593071,-0.268035821,0.470058,0.320058708,-0.262713482,0.466772,0.270988509,-0.247036364,0.445623,0.243519966,-0.228705318,0.430628,0.320137254,-0.178972691,0.444383,0.300379779,-0.134482483,0.430943,0.286220602,-0.120829515,0.424223,0.28250391,-0.113044047,0.433743,0.333045168,-0.172432365,0.433198,0.310346133,-0.122634447,0.415062,0.291279733,-0.105387357,0.404483,0.28841524,-0.0927374261,0.412927,0.345438558,-0.17081578,0.424879,0.32101647,-0.124399576,0.398727,0.308343165,-0.100728971,0.385347,0.307703012,-0.095092667,0.391302,0.362235916,-0.174482572,0.416648,0.339040977,-0.152408862,0.396617,0.328187298,-0.142643012,0.387413,0.329244826,-0.139479397,0.39252
0.383908615,-0.278194853,0.466125,0.359035809,-0.23000833,0.451512,0.364882168,-0.2678451,0.470382,0.319288903,-0.262470532,0.466518,0.270590212,-0.247518008,0.44586,0.241124588,-0.230073401,0.431308,0.318859329,-0.179255599,0.444384,0.300195244,-0.134476721,0.431196,0.285339525,-0.120589299,0.424601,0.282673132,-0.112899563,0.434624,0.332281748,-0.171979962,0.433544,0.306049227,-0.121459057,0.417266,0.287914444,-0.101441816,0.40777,0.28943672,-0.0924653863,0.417131,0.344654957,-0.167979022,0.425517,0.31460464,-0.12005308,0.399329,0.300716034,-0.0983546809,0.38593,0.302393057,-0.0961092505,0.392028,0.361546259,-0.16976626,0.417655,0.33576223,-0.147540269,0.397845,0.324593058,-0.137924524,0.388743,0.327881355,-0.13729316,0.393995
0.385017452,-0.277667732,0.467119,0.35955255,-0.22970061,0.452554,0.365329666,-0.267911762,0.471155,0.319937796,-0.262887617,0.466897,0.271367166,-0.249435263,0.445492,0.24124597,-0.232797932,0.431198,0.314143447,-0.178531914,0.445203,0.294438244,-0.136559165,0.436869,0.281209604,-0.121686441,0.432701,0.278423546,-0.112452167,0.444437,0.325264759,-0.168449174,0.434647,0.297929441,-0.11992761,0.417211,0.279302836,-0.0984359966,0.40704,0.280865461,-0.0894066191,0.416303,0.337796833,-0.163054401,0.426849,0.307260307,-0.119816151,0.400785,0.291572289,-0.0974768778,0.38745,0.290061879,-0.097927013,0.393742,0.356033291,-0.162069307,0.419259,0.330658781,-0.145976143,0.399577,0.318772375,-0.138358715,0.390534,0.322894304,-0.135681886,0.395927
0.384987063,-0.277146422,0.468089,0.357589053,-0.222551697,0.453175,0.363757243,-0.267277892,0.470672,0.320013058,-0.26208015,0.46394,0.271339088,-0.255164179,0.439746,0.238350504,-0.241714291,0.423674,0.30813672,-0.177262432,0.443795,0.282775196,-0.138827249,0.437191,0.268916003,-0.126326656,0.43389,0.265044297,-0.118538096,0.446639,0.32012505,-0.165521837,0.434839,0.290780107,-0.119160257,0.419637,0.272316143,-0.0997093882,0.41077,0.27019991,-0.0919884569,0.421375,0.333710565,-0.158967215,0.428378,0.301902016,-0.117910085,0.402475,0.285503752,-0.0965672615,0.389223,0.289144065,-0.0996332265,0.396224,0.353698858,-0.156416,0.422444,0.328064303,-0.14057615,0.403629,0.316017902,-0.133057144,0.394985,0.315960681,-0.130716614,0.400984
0.382991854,-0.274696453,0.466048,0.354805617,-0.218487526,0.452261,0.361616272,-0.265527032,0.468622,0.317555632,-0.260912362,0.461799,0.269024407,-0.251469946,0.437881,0.237330863,-0.237939124,0.423462,0.30287773,-0.176909716,0.443812,0.275845062,-0.140829627,0.437958,0.261574815,-0.128632111,0.43503,0.257038765,-0.121234913,0.448237,0.314692339,-0.164678346,0.43531,0.28264645,-0.119272954,0.4195,0.263733792,-0.102151025,0.410278,0.262094147,-0.0979761823,0.420881,0.328327193,-0.157069886,0.429154,0.295788704,-0.114657169,0.404453,0.279037401,-0.0927043417,0.391815,0.280058577,-0.0948658194,0.399577,0.348553014,-0.153051891,0.423447,0.323449088,-0.137117358,0.405713,0.311608202,-0.129518425,0.397564,0.314998394,-0.12934913,0.404117
0.388551519,-0.259818042,0.465361,0.353767264,-0.216248759,0.451314,0.360657467,-0.260668572,0.465075,0.32560526,-0.258716013,0.453631,0.275796857,-0.253632662,0.425793,0.241912741,-0.243925768,0.408748,0.29000469,-0.181914398,0.439229,0.258312734,-0.15177129,0.43405,0.243710295,-0.140972041,0.431461,0.238658211,-0.135689372,0.445856,0.304840443,-0.166607195,0.434044,0.266257699,-0.126762598,0.419881,0.246525303,-0.109070982,0.411619,0.244150217,-0.102860571,0.423698,0.319250982,-0.156299235,0.430633,0.283716638,-0.11557774,0.40691,0.265398158,-0.0944960603,0.394773,0.269619399,-0.09558407,0.403793,0.341415413,-0.148367072,0.428267,0.318391787,-0.131533498,0.41009,0.307561469,-0.123488415,0.401738,0.308809246,-0.120474202,0.408878
0.392049996,-0.253218878,0.465697,0.35278445,-0.213602547,0.451876,0.362652651,-0.252900858,0.462947,0.330405608,-0.254384622,0.447743,0.283762946,-0.250277281,0.417344,0.25259614,-0.241203137,0.397885,0.283918581,-0.185865721,0.437032,0.241015482,-0.161229723,0.426341,0.226003609,-0.153993703,0.420995,0.220838096,-0.153485596,0.434133,0.299190788,-0.169629684,0.434882,0.258873928,-0.136203739,0.424944,0.237861363,-0.119192059,0.419146,0.232992265,-0.112153557,0.432948,0.314282243,-0.158290509,0.433953,0.27101433,-0.118422162,0.412411,0.256296747,-0.105605609,0.401389,0.255139576,-0.0983710286,0.411614,0.337790287,-0.148662646,0.434552,0.31106829,-0.127080536,0.416344,0.298467419,-0.116769735,0.407978,0.297762158,-0.111401524,0.415397
0.388282506,-0.23867649,0.453236,0.347799113,-0.209147169,0.4448,0.363109711,-0.243034658,0.453267,0.329195462,-0.252857229,0.442393,0.289804245,-0.251454984,0.412098,0.256035979,-0.245896093,0.393634,0.284978617,-0.195514826,0.437783,0.240958234,-0.179469746,0.430157,0.22435451,-0.175889926,0.426343,0.217089342,-0.17968372,0.440429,0.295224453,-0.175754197,0.434427,0.25511842,-0.153121474,0.42945,0.234425141,-0.145147075,0.426548,0.227456014,-0.144692524,0.441596,0.306328887,-0.160840986,0.432178,0.270000624,-0.128426414,0.421472,0.258982105,-0.123481673,0.415994,0.260178107,-0.124367752,0.430411,0.325339352,-0.145575681,0.430517,0.29176086,-0.120679648,0.416886,0.275877974,-0.108844517,0.410623,0.280828345,-0.113163003,0.419717
0.389029318,-0.229160095,0.45006,0.347369681,-0.20634076,0.444671,0.36683842,-0.238020365,0.452252,0.349747636,-0.247602012,0.444811,0.306048944,-0.249800826,0.414513,0.273355304,-0.247236922,0.397799,0.286802857,-0.200113782,0.442787,0.237670736,-0.19828754,0.433917,0.22312946,-0.201895971,0.429483,0.217901118,-0.213979011,0.443042,0.291250116,-0.181383017,0.438046,0.240517232,-0.165493808,0.428326,0.211924679,-0.16117014,0.422656,0.20487265,-0.168530678,0.436256,0.298873511,-0.164860865,0.434475,0.25323534,-0.142336245,0.423547,0.235451168,-0.140198272,0.417957,0.228623177,-0.144653807,0.43203,0.313872539,-0.146733454,0.430839,0.273608443,-0.129398805,0.41994,0.254687316,-0.121256612,0.414932,0.256267369,-0.126590638,0.424759
0.390882228,-0.21880103,0.447659,0.345262059,-0.204388407,0.442425,0.367954474,-0.230250433,0.446598,0.348232036,-0.235966672,0.434334,0.309708973,-0.234322885,0.401912,0.278362548,-0.231788116,0.38284,0.281467858,-0.212966137,0.436783,0.233705392,-0.21554986,0.425389,0.222008907,-0.21614362,0.419692,0.220226177,-0.226520434,0.432916,0.285892664,-0.190929237,0.435991,0.232342546,-0.183208254,0.423479,0.205779571,-0.180017304,0.41618,0.20376893,-0.186459865,0.429381,0.292409849,-0.173125226,0.435658,0.241690234,-0.161379062,0.422833,0.225511112,-0.157334443,0.416271,0.220228988,-0.160986994,0.430128,0.306222512,-0.152392179,0.435907,0.264429937,-0.136999306,0.424852,0.247280624,-0.130518453,0.419773,0.24652762,-0.131147433,0.429896
0.398051082,-0.215111022,0.455385,0.348686635,-0.20591962,0.447061,0.376626795,-0.229391692,0.454084,0.349023521,-0.24636942,0.441268,0.322090695,-0.243625208,0.409876,0.294298899,-0.241731641,0.390524,0.283676652,-0.21491797,0.438536,0.237412935,-0.22065795,0.425115,0.217962192,-0.224521267,0.418405,0.208674857,-0.238480122,0.430726,0.286581552,-0.192847023,0.43681,0.237061796,-0.187195174,0.429662,0.217052384,-0.192029735,0.425492,0.229779493,-0.203619718,0.440093,0.291987583,-0.174918442,0.435895,0.239127011,-0.162268701,0.420658,0.219496281,-0.163619532,0.412863,0.212135562,-0.171404422,0.425692,0.304800185,-0.153868452,0.435825,0.258311738,-0.140249042,0.422152,0.242287085,-0.136731386,0.415869,0.235947791,-0.138387318,0.425088
0.397590039,-0.211549369,0.453153,0.347117306,-0.204454167,0.444483,0.376572082,-0.22653248,0.451013,0.359992456,-0.245426921,0.436956,0.333300404,-0.241052457,0.404918,0.306356296,-0.239918988,0.384452,0.288573751,-0.22287182,0.434664,0.243218848,-0.233661037,0.420382,0.224543281,-0.23946501,0.413241,0.224063918,-0.254726568,0.425327,0.288062616,-0.201185848,0.433806,0.234372855,-0.202819595,0.420845,0.208370108,-0.20671965,0.413284,0.201417539,-0.219467734,0.426253,0.290637092,-0.1829855,0.433625,0.23877088,-0.173146408,0.419307,0.224966157,-0.173875697,0.411981,0.222293021,-0.183337267,0.425243,0.300086511,-0.160482446,0.434484,0.254004747,-0.150433065,0.420682,0.237626418,-0.148092555,0.41434,0.222780604,-0.146025445,0.408745
0.394775431,-0.20225116,0.447565,0.344983447,-0.201645221,0.441158,0.379521646,-0.218922362,0.446982,0.368125185,-0.238995487,0.435341,0.344641594,-0.234075716,0.403449,0.319182017,-0.233598038,0.38212,0.294822863,-0.227995442,0.435097,0.25575404,-0.24705482,0.423391,0.237113248,-0.256901109,0.417537,0.243837845,-0.272791594,0.430503,0.290041569,-0.206549029,0.433269,0.237831961,-0.215558477,0.419076,0.214069834,-0.223309282,0.410796,0.205540881,-0.239598692,0.423316,0.288872739,-0.188086005,0.432153,0.23692702,-0.186449235,0.41904,0.21896019,-0.190269408,0.412331,0.211799879,-0.203486482,0.425981,0.293375768,-0.164312049,0.431603,0.247013896,-0.15706999,0.42005,0.234156552,-0.157589856,0.414742,0.222417947,-0.158149652,0.410058
0.395796572,-0.183006622,0.446483,0.349000567,-0.189941329,0.440115,0.385270527,-0.205379484,0.446019,0.378648403,-0.222055171,0.434547,0.354933601,-0.227344736,0.40312,0.333109957,-0.228766883,0.382963,0.303720203,-0.229509123,0.434214,0.266051575,-0.251204054,0.422644,0.255827572,-0.259598167,0.416859,0.257113772,-0.279678481,0.429833,0.291897241,-0.207302314,0.432256,0.246574652,-0.225392698,0.418154,0.222644387,-0.235775849,0.409927,0.214564583,-0.254523327,0.422437,0.2887262,-0.188839552,0.431031,0.238410205,-0.196193721,0.417286,0.221181151,-0.20060767,0.410253,0.214952762,-0.21500601,0.423633,0.290531625,-0.164626819,0.430345,0.245800978,-0.16716339,0.418751,0.225858606,-0.168019469,0.413424,0.220495923,-0.16873153,0.408724
0.39872305,-0.181196337,0.449628,0.352502887,-0.190421879,0.441998,0.390347706,-0.198660985,0.448424,0.385267874,-0.215311644,0.435784,0.361067682,-0.221199758,0.404289,0.337317187,-0.227356665,0.385221,0.306407369,-0.229697862,0.434153,0.267082416,-0.250392982,0.420997,0.256647579,-0.257420142,0.414418,0.257994365,-0.276259,0.42686,0.297276003,-0.208514318,0.432581,0.252166185,-0.227941975,0.424144,0.229175073,-0.239687144,0.419223,0.212954285,-0.24824614,0.415707,0.292369381,-0.189980514,0.431751,0.243693166,-0.197472077,0.4171,0.222634146,-0.20017159,0.409604,0.215958186,-0.213451403,0.422676,0.292433366,-0.165068735,0.431698,0.248621582,-0.166256648,0.419366,0.228477901,-0.166677397,0.4137,0.222335318,-0.163161136,0.408701
0.399379531,-0.17405025,0.452393,0.353076263,-0.189421441,0.444223,0.390939164,-0.197268495,0.45063,0.384631147,-0.21436272,0.437154,0.362477111,-0.215490673,0.405193,0.342447674,-0.21594005,0.384356,0.304326554,-0.227430887,0.435246,0.269882857,-0.249305302,0.421594,0.260522106,-0.256458288,0.414767,0.26315074,-0.275401808,0.427022,0.293855764,-0.207030846,0.434127,0.251090488,-0.226433844,0.42318,0.228524463,-0.237812724,0.416795,0.215293794,-0.244752974,0.412234,0.290523827,-0.187446354,0.4337,0.239171652,-0.195367989,0.418599,0.223125721,-0.200269111,0.410873,0.216843868,-0.214167478,0.423766,0.290552564,-0.164692817,0.434201,0.243470948,-0.162346954,0.421604,0.23147094,-0.164788347,0.415816,0.222401633,-0.164127815,0.410709
0.401109281,-0.174220523,0.455896,0.354259094,-0.189414914,0.446471,0.392678105,-0.197443655,0.45384,0.38123032,-0.208523847,0.439865,0.357048286,-0.211889159,0.408017,0.33540358,-0.212839722,0.388281,0.305660814,-0.227403203,0.43609,0.270119015,-0.248880011,0.421471,0.258499872,-0.256752716,0.414162,0.263585716,-0.274512901,0.426012,0.297793726,-0.207495048,0.434824,0.25168863,-0.226375369,0.423716,0.229211756,-0.237837204,0.417237,0.213988202,-0.246095387,0.412609,0.292212089,-0.188190517,0.434353,0.239737122,-0.195094549,0.418801,0.222552523,-0.199741948,0.410845,0.215644192,-0.213530821,0.423557,0.293274986,-0.164956209,0.434955,0.24582855,-0.160829192,0.421396,0.230758087,-0.16376629,0.415166,0.218754853,-0.161392449,0.409669
0.399309763,-0.169082937,0.455138,0.353057233,-0.182424045,0.446843,0.390791994,-0.189978997,0.453641,0.383259128,-0.207749068,0.440543,0.360818183,-0.211140269,0.409439,0.341869484,-0.215292913,0.389543,0.311727992,-0.221663917,0.438079,0.272822646,-0.246426344,0.424298,0.264961889,-0.250718289,0.417407,0.26645894,-0.274893009,0.429593,0.29875378,-0.204766812,0.436592,0.253755869,-0.225537711,0.424856,0.231265043,-0.237171691,0.41801,0.216821529,-0.245342803,0.413121,0.292751262,-0.185959424,0.435871,0.241238566,-0.193935815,0.42004,0.223442594,-0.199598103,0.411941,0.216572966,-0.213490184,0.424538,0.291290457,-0.162084207,0.436032,0.246715463,-0.161472711,0.42379,0.225942173,-0.161280676,0.418165,0.208722043,-0.161871495,0.413202
0.398542111,-0.169341582,0.454731,0.352152044,-0.183061146,0.446708,0.391330317,-0.192923823,0.453223,0.382661046,-0.2060045,0.440126,0.359943971,-0.210274547,0.408674,0.340577733,-0.215384997,0.389278,0.308530515,-0.224708021,0.438159,0.272123504,-0.247210531,0.42458,0.263216193,-0.251454012,0.41779,0.266316881,-0.274091495,0.430065,0.298401124,-0.204315729,0.436793,0.253180372,-0.224479331,0.425182,0.231129755,-0.236791603,0.41841,0.217522856,-0.244556756,0.413572,0.292500881,-0.185755391,0.436155,0.241046592,-0.194801085,0.420684,0.222820098,-0.199151291,0.412768,0.215664623,-0.212020332,0.425513,0.290044754,-0.160978828,0.436382,0.246648144,-0.161370746,0.424474,0.225851888,-0.160711576,0.419004,0.208547698,-0.161004723,0.414176
0.39858277,-0.168883749,0.456036,0.35104351,-0.180409144,0.44821,0.389888909,-0.189139069,0.454821,0.382068923,-0.207123465,0.442189,0.361206293,-0.211008624,0.410934,0.340154126,-0.213969483,0.391242,0.306339038,-0.223294016,0.440184,0.269859788,-0.246435287,0.427073,0.26393103,-0.253121152,0.420518,0.267945453,-0.275244245,0.432908,0.29437395,-0.203024767,0.438544,0.251043978,-0.223978595,0.426178,0.231198818,-0.236688861,0.418964,0.21766357,-0.244464707,0.413811,0.291014769,-0.184675008,0.437669,0.238889773,-0.191359528,0.422089,0.223287188,-0.198742122,0.414117,0.217102678,-0.213812475,0.426752,0.288846707,-0.160100135,0.437584,0.244678754,-0.161373539,0.425628,0.225068524,-0.160903555,0.420135,0.207837272,-0.161273682,0.415288
0.397998533,-0.168495605,0.456396,0.35030857,-0.180832388,0.448465,0.389460236,-0.189230349,0.45536,0.381409668,-0.205620408,0.442982,0.359904774,-0.211537726,0.411815,0.339763243,-0.214329068,0.391924,0.305625072,-0.223374023,0.440564,0.269009642,-0.246501905,0.427567,0.261695343,-0.253451671,0.421069,0.266779937,-0.273183103,0.433465,0.294249622,-0.202873657,0.438669,0.246401804,-0.221238922,0.426837,0.229552318,-0.234290852,0.419934,0.218051298,-0.244358254,0.415004,0.290188657,-0.184421434,0.43759,0.238392351,-0.19150728,0.422109,0.221096662,-0.19648036,0.414188,0.215186964,-0.211515455,0.426845,0.288049175,-0.159724794,0.437274,0.24324241,-0.160077332,0.424911,0.225069259,-0.160342483,0.419231,0.211954429,-0.161419776,0.414219
0.397694008,-0.168257281,0.456847,0.350018121,-0.181163565,0.44881,0.389175519,-0.189305939,0.45577,0.381331256,-0.205471523,0.44333,0.359716974,-0.21167873,0.412232,0.339494952,-0.214564582,0.392371,0.305282451,-0.223425069,0.440776,0.268510118,-0.246467168,0.427696,0.261210552,-0.253370002,0.421156,0.266339284,-0.2728563,0.433494,0.294978888,-0.202679732,0.438893,0.246785276,-0.221326497,0.426967,0.229093253,-0.233878163,0.42001,0.217890349,-0.243770981,0.41504,0.28899955,-0.184299686,0.437832,0.238201568,-0.191682642,0.422312,0.220890757,-0.196519692,0.414371,0.214903375,-0.21138019,0.426911,0.287875994,-0.159668865,0.437551,0.242953856,-0.160035808,0.425088,0.225431333,-0.160263355,0.419362,0.212228055,-0.161155002,0.414309
0.397364713,-0.168030457,0.457109,0.349782469,-0.181362522,0.448986,0.388910424,-0.189337534,0.456017,0.381294294,-0.205387527,0.443551,0.359578288,-0.211764986,0.412495,0.339273158,-0.21471405,0.392656,0.305048063,-0.223434795,0.440862,0.268166303,-0.246405746,0.427703,0.260867577,-0.253270385,0.421124,0.265973531,-0.272570511,0.433431,0.294785351,-0.202646317,0.438963,0.248196604,-0.221829758,0.427092,0.228877783,-0.233691803,0.420166,0.217844895,-0.243403221,0.41522,0.288847051,-0.184238624,0.437894,0.23801089,-0.192635973,0.42261,0.221001856,-0.197560551,0.41479,0.215209282,-0.212411325,0.427416,0.287680419,-0.159587152,0.437614,0.24268175,-0.159955482,0.425066,0.225592716,-0.160153384,0.4193,0.212330933,-0.160917302,0.414213
0.394898896,-0.165663189,0.457665,0.346952321,-0.182146727,0.449329,0.388328146,-0.189519771,0.456607,0.380028596,-0.205915405,0.444177,0.359053855,-0.212422513,0.413263,0.338622517,-0.215407373,0.39342,0.302696068,-0.223747226,0.441066,0.265561114,-0.246504733,0.427752,0.258743789,-0.253062817,0.421095,0.265454113,-0.272292474,0.433329,0.288212367,-0.204138867,0.439043,0.246897584,-0.222046318,0.426383,0.222271275,-0.236450135,0.418998,0.216571839,-0.242634862,0.413723,0.282019707,-0.185791467,0.437884,0.231204061,-0.194720387,0.421879,0.219429244,-0.196925642,0.413691,0.215083881,-0.211997909,0.426027,0.279855785,-0.160993106,0.437523,0.234361269,-0.161293377,0.424821,0.22488926,-0.160242572,0.418985,0.211994824,-0.160904945,0.413836
0.394206885,-0.165783842,0.458119,0.34600417,-0.182476801,0.449498,0.387845409,-0.18973371,0.457225,0.375480589,-0.206780637,0.44502,0.354713751,-0.214668927,0.414593,0.336507799,-0.216745614,0.394547,0.298708748,-0.225635229,0.441191,0.262162346,-0.248656019,0.427871,0.259144915,-0.253673763,0.421211,0.266249081,-0.273187646,0.43339,0.28775089,-0.204986693,0.438859,0.242879026,-0.225338621,0.425595,0.221926858,-0.23740894,0.417857,0.21555859,-0.244508432,0.41233,0.28121109,-0.186631213,0.437464,0.23048158,-0.195816886,0.421179,0.21580921,-0.200125691,0.412848,0.213986341,-0.211758837,0.425045,0.278610151,-0.161803335,0.436853,0.233073691,-0.162397045,0.423806,0.220621737,-0.161659588,0.417812,0.21165964,-0.161218403,0.412523
0.392902749,-0.165364745,0.458612,0.345487158,-0.182797729,0.449828,0.386784984,-0.189360078,0.457756,0.375335467,-0.207194496,0.445599,0.354412652,-0.215302208,0.415351,0.336267196,-0.217458529,0.39535,0.298827468,-0.226021446,0.44143,0.262321583,-0.249087149,0.42799,0.258908412,-0.254030619,0.42127,0.265658232,-0.272552789,0.43339,0.287721895,-0.205358132,0.438988,0.242926015,-0.225826916,0.42567,0.22203662,-0.237967474,0.4179,0.214682619,-0.244640955,0.412351,0.281063156,-0.186991549,0.437513,0.230300214,-0.196231993,0.421054,0.215637525,-0.200564957,0.412633,0.213284656,-0.21170346,0.424751,0.27831977,-0.162145439,0.436825,0.232716661,-0.162813879,0.423598,0.220252322,-0.162233116,0.417521,0.211182031,-0.161532883,0.412158
0.391218999,-0.164686439,0.458554,0.340595786,-0.183578478,0.44963,0.384082763,-0.189260785,0.457729,0.374594654,-0.207248635,0.445612,0.352231716,-0.215958399,0.415687,0.333560668,-0.21927606,0.396232,0.29813893,-0.226008906,0.441153,0.261649491,-0.249088868,0.427636,0.257640903,-0.254148034,0.420877,0.263841851,-0.271842385,0.432952,0.286929006,-0.205318775,0.438618,0.242137442,-0.225808607,0.425203,0.221251563,-0.237959435,0.417378,0.213516881,-0.244445891,0.411789,0.280187719,-0.186933911,0.437074,0.229443192,-0.196213021,0.420553,0.216407691,-0.199706179,0.412101,0.214230737,-0.212703629,0.424176,0.277350778,-0.162069896,0.436322,0.231816224,-0.162892369,0.422899,0.219343554,-0.163271176,0.416731,0.209831887,-0.161483255,0.411289
