sluyters/QuantumLeap/backend/src/datasets/dynamic/HandGestureDataset_SHREC2017_csv/Gesture9/finger_1/subject_23_essai_4_skeletons_world.csv
Wrist_x,Wrist_y,Wrist_z,Palm_x,Palm_y,Palm_z,thumb_base_x,thumb_base_y,thumb_base_z,thumb_first_joint_x,thumb_first_joint_y,thumb_first_joint_z,thumb_second_joint_x,thumb_second_joint_y,thumb_second_joint_z,thumb_tip_x,thumb_tip_y,thumb_tip_z,index_base_x,index_base_y,index_base_z,index_first_joint_x,index_first_joint_y,index_first_joint_z,index_second_joint_x,index_second_joint_y,index_second_joint_z,index_tip_x,index_tip_y,index_tip_z,middle_base_x,middle_base_y,middle_base_z,middle_first_joint_x,middle_first_joint_y,middle_first_joint_z,middle_second_joint_x,middle_second_joint_y,middle_second_joint_z,middle_tip_x,middle_tip_y,middle_tip_z,ring_base_x,ring_base_y,ring_base_z,ring_first_joint_x,ring_first_joint_y,ring_first_joint_z,ring_second_joint_x,ring_second_joint_y,ring_second_joint_z,ring_tip_x,ring_tip_y,ring_tip_z,pinky_base_x,pinky_base_y,pinky_base_z,pinky_first_joint_x,pinky_first_joint_y,pinky_first_joint_z,pinky_second_joint_x,pinky_second_joint_y,pinky_second_joint_z,pinky_tip_x,pinky_tip_y,pinky_tip_z,
0.287781572,-0.277865594,0.351686,0.22697093,-0.263496998,0.313237,0.281312904,-0.290108466,0.350004,0.263407532,-0.293357538,0.331025,0.247284082,-0.300348919,0.314374,0.225209666,-0.299274528,0.301458,0.208268646,-0.280857169,0.300466,0.213957084,-0.252387551,0.264954,0.233101234,-0.247579839,0.270178,0.246133046,-0.249478076,0.286278,0.202758434,-0.256938985,0.297272,0.160678931,-0.252480925,0.264721,0.149081987,-0.248976517,0.245732,0.142184171,-0.246249282,0.23217,0.206408293,-0.242373661,0.299053,0.166945896,-0.245261704,0.272208,0.153126462,-0.250208585,0.258473,0.142982555,-0.250720866,0.247919,0.216143856,-0.225575357,0.308316,0.222125263,-0.21698506,0.280256,0.23783511,-0.225256103,0.283703,0.246148913,-0.231163192,0.294916
0.282672401,-0.275538363,0.347917,0.222905541,-0.259495465,0.308045,0.276287084,-0.288693276,0.344845,0.257378044,-0.288493012,0.323199,0.24027521,-0.291408456,0.304779,0.217693685,-0.28999768,0.290014,0.20203018,-0.274635349,0.292924,0.164047248,-0.252193333,0.257233,0.147220895,-0.241614746,0.240717,0.13958487,-0.245640531,0.238919,0.198329962,-0.253929791,0.291489,0.174759519,-0.237513908,0.252358,0.180875542,-0.213209858,0.229531,0.180030969,-0.200743692,0.223451,0.204689729,-0.238177441,0.294885,0.159111969,-0.23281715,0.265307,0.146153502,-0.231425559,0.250174,0.134259504,-0.230508927,0.236417,0.21770859,-0.224308729,0.306224,0.220922925,-0.213916447,0.277127,0.23453153,-0.221418545,0.279472,0.243215685,-0.228042925,0.290622
0.276825282,-0.273008652,0.342974,0.211953155,-0.252227458,0.30229,0.266963869,-0.285307673,0.33862,0.246398547,-0.283068938,0.315498,0.231526883,-0.282066436,0.294437,0.208910799,-0.279517497,0.278834,0.190280695,-0.263467825,0.285134,0.200362353,-0.233003907,0.249702,0.220246871,-0.236636268,0.252308,0.242772784,-0.243307292,0.26733,0.191231592,-0.242046448,0.285397,0.155459509,-0.219066496,0.246054,0.134729449,-0.205694753,0.223104,0.12379989,-0.202512943,0.213412,0.197740794,-0.227164264,0.290285,0.153389867,-0.218355136,0.258818,0.141724776,-0.214848584,0.242719,0.131067353,-0.211912929,0.228084,0.214490942,-0.21500161,0.303449,0.220277939,-0.2072808,0.273733,0.231253681,-0.214514834,0.275051,0.239395226,-0.22441951,0.286021
0.273334976,-0.271793898,0.340744,0.211478066,-0.248137525,0.300608,0.262487531,-0.282210715,0.335113,0.242503733,-0.277195148,0.311658,0.223482211,-0.27278622,0.289284,0.202903264,-0.268284133,0.272776,0.188195449,-0.254695336,0.281793,0.197708921,-0.228266396,0.246257,0.217633218,-0.232655607,0.249168,0.240245325,-0.239781242,0.264354,0.191808049,-0.235218144,0.283942,0.156535729,-0.212511763,0.244692,0.136092518,-0.19931287,0.221796,0.124446679,-0.199025309,0.212481,0.200461887,-0.221700371,0.290323,0.155406827,-0.211728554,0.258341,0.143480557,-0.208249151,0.241978,0.131543951,-0.208164396,0.227102,0.219568736,-0.210832699,0.305053,0.222466135,-0.203918786,0.275024,0.233102578,-0.212302052,0.276561,0.241288909,-0.224393785,0.287726
0.264001707,-0.258105863,0.327235,0.202233063,-0.229449325,0.290846,0.256859723,-0.262466113,0.326644,0.23312077,-0.273399342,0.309618,0.225680909,-0.276634803,0.293162,0.208571266,-0.275480927,0.279805,0.175089221,-0.240524577,0.280177,0.181487212,-0.234499689,0.250189,0.205202793,-0.240696915,0.257215,0.233981097,-0.251575674,0.271856,0.176783772,-0.220796696,0.275737,0.170229429,-0.217913451,0.239271,0.16590023,-0.215440212,0.218,0.178870068,-0.216447153,0.214899,0.185349717,-0.206484327,0.276255,0.149173248,-0.19240916,0.240852,0.132731768,-0.188308166,0.226383,0.117623129,-0.185099207,0.213482,0.207193712,-0.193529197,0.283714,0.206406831,-0.198346488,0.256913,0.219737219,-0.205006416,0.261608,0.229127298,-0.206815049,0.272861
0.26890943,-0.266512126,0.335765,0.207545498,-0.231692766,0.297643,0.261144907,-0.273791554,0.331772,0.224377425,-0.273944371,0.309801,0.211853229,-0.272802402,0.289782,0.193962528,-0.267096453,0.274176,0.174829498,-0.233574871,0.281691,0.177873919,-0.223838796,0.247969,0.200609592,-0.231144115,0.253882,0.230783515,-0.246453346,0.269552,0.182689071,-0.215421204,0.281815,0.180821212,-0.207597287,0.24334,0.178580107,-0.201956007,0.220896,0.18930845,-0.20038767,0.216526,0.196423777,-0.203592801,0.286294,0.161844,-0.181722613,0.25011,0.146603344,-0.17351904,0.235623,0.132637464,-0.166329147,0.222681,0.224189655,-0.195505094,0.298514,0.219988961,-0.199018942,0.269448,0.231292614,-0.21143251,0.273284,0.241799172,-0.214992447,0.285001
0.266972368,-0.255807096,0.330868,0.203946537,-0.215605939,0.293164,0.254348049,-0.262488521,0.326885,0.220491249,-0.263599935,0.304709,0.209158416,-0.265826648,0.284109,0.204448132,-0.255578517,0.267761,0.169766957,-0.219463955,0.277339,0.172273319,-0.212440027,0.243799,0.194873147,-0.220095363,0.250105,0.225125307,-0.23701016,0.26586,0.17913779,-0.202058132,0.277509,0.178108814,-0.196769052,0.239273,0.176082143,-0.192323818,0.216969,0.18615441,-0.194270945,0.212967,0.194019245,-0.190923624,0.281979,0.158621836,-0.166353267,0.246245,0.142538831,-0.156058957,0.23134,0.128130816,-0.147137049,0.218075,0.222878317,-0.18382032,0.29411,0.214081194,-0.190703093,0.265179,0.220702153,-0.202883811,0.26932,0.227509949,-0.20852442,0.281107
0.266393151,-0.253525622,0.329967,0.20758646,-0.214620463,0.295133,0.253531823,-0.260055986,0.326126,0.240838378,-0.249726012,0.30508,0.208830053,-0.251302427,0.287346,0.183685346,-0.247431076,0.276994,0.175563354,-0.215869756,0.280284,0.175961053,-0.214146653,0.248208,0.200556883,-0.224216112,0.256766,0.230154069,-0.238829808,0.272843,0.186466653,-0.198524793,0.280669,0.171537682,-0.19252084,0.244261,0.175393947,-0.184353225,0.223023,0.178906014,-0.180103686,0.221238,0.202191163,-0.187590102,0.284987,0.16569991,-0.158283545,0.2512,0.149382028,-0.145594219,0.236769,0.135283314,-0.134864795,0.224005,0.231141842,-0.181015787,0.296405,0.225604635,-0.187374686,0.268602,0.238725788,-0.198793363,0.274494,0.249129738,-0.203681285,0.286563
0.266400424,-0.248716365,0.330077,0.209739461,-0.210367896,0.295739,0.252364929,-0.25751847,0.324946,0.237950682,-0.240023162,0.30046,0.211133526,-0.245241229,0.287693,0.187304018,-0.247834229,0.280729,0.174836514,-0.213224969,0.279199,0.17693352,-0.203677305,0.246414,0.201584432,-0.213156073,0.254977,0.23137414,-0.227638367,0.271336,0.186560816,-0.196608854,0.281481,0.173329925,-0.18402388,0.245213,0.177562591,-0.176563206,0.224057,0.18065403,-0.173917137,0.222344,0.202949877,-0.18621089,0.287306,0.166789274,-0.151597175,0.254337,0.151485585,-0.137769012,0.240888,0.138259116,-0.125712789,0.228873,0.231061806,-0.177069074,0.300317,0.227358392,-0.181267577,0.272258,0.240819142,-0.193023131,0.278166,0.251582905,-0.202703203,0.290333
0.267106926,-0.247743885,0.330842,0.210379156,-0.209317532,0.296409,0.252840719,-0.254764582,0.325692,0.238094548,-0.238598581,0.301172,0.210623763,-0.243358297,0.288224,0.187698199,-0.24249969,0.280781,0.175689076,-0.210763837,0.279817,0.178825819,-0.202702404,0.24697,0.203261533,-0.211634435,0.255466,0.232736806,-0.225582121,0.271822,0.187027098,-0.193465216,0.282112,0.175638467,-0.183992738,0.245779,0.179349903,-0.176134702,0.224584,0.181763902,-0.173127087,0.222802,0.203016654,-0.182643674,0.287959,0.167445168,-0.150813141,0.254688,0.152178108,-0.137082857,0.241352,0.138946951,-0.125078575,0.229386,0.232090941,-0.176331128,0.301012,0.228350631,-0.18062752,0.272907,0.241796402,-0.192338784,0.278763,0.251759237,-0.198351908,0.290925
0.267622639,-0.24433591,0.331572,0.212486047,-0.197961603,0.297876,0.251669168,-0.250467203,0.325204,0.238832254,-0.227780126,0.299318,0.212800108,-0.232361168,0.28763,0.189580193,-0.229755485,0.278937,0.176811615,-0.199469897,0.279759,0.180361116,-0.190696816,0.246468,0.204234607,-0.199434265,0.254893,0.233204784,-0.213358584,0.271396,0.19004201,-0.183272472,0.283885,0.180077092,-0.172467022,0.247962,0.183262547,-0.166929524,0.227007,0.18465605,-0.165231665,0.225299,0.207429623,-0.173532482,0.291157,0.172425404,-0.138691489,0.259095,0.157025264,-0.122824849,0.246643,0.143145484,-0.108368133,0.235901,0.237765734,-0.168795572,0.305667,0.23325496,-0.171146048,0.277524,0.246489541,-0.183630583,0.283343,0.255969353,-0.190600712,0.295504
0.250474866,-0.230091334,0.308505,0.211066917,-0.188355301,0.281708,0.233979667,-0.235397234,0.299428,0.21495372,-0.221039138,0.271881,0.179592592,-0.216354192,0.260472,0.153944425,-0.204872273,0.250064,0.17066643,-0.178382953,0.26162,0.164005515,-0.162860741,0.230677,0.18709614,-0.177179275,0.240594,0.201144482,-0.190034299,0.256766,0.191211091,-0.168884273,0.270581,0.156558891,-0.126381313,0.242858,0.136663614,-0.102120973,0.226686,0.141216427,-0.10046457,0.22829,0.213977045,-0.16601276,0.281046,0.174709204,-0.128777383,0.252579,0.160379253,-0.113454813,0.243795,0.148153696,-0.0996212934,0.23581,0.249615237,-0.171170608,0.297825,0.232465854,-0.168526808,0.272458,0.241804243,-0.188302152,0.279532,0.251558681,-0.209866511,0.291203
0.245328021,-0.218488157,0.28552,0.205820113,-0.180016816,0.273302,0.22452126,-0.219698415,0.276246,0.200472489,-0.192550884,0.252736,0.162566137,-0.18336097,0.238167,0.143699963,-0.179579564,0.237043,0.168612726,-0.168792385,0.256876,0.166087576,-0.150903527,0.235408,0.191696449,-0.169649555,0.248749,0.204600694,-0.185701278,0.26255,0.190128678,-0.164758514,0.268229,0.165814664,-0.123965357,0.250999,0.15108849,-0.101223036,0.240949,0.148378355,-0.0911498652,0.23377,0.213086132,-0.162600429,0.278991,0.178839273,-0.129258743,0.258262,0.165828547,-0.110666116,0.248228,0.151948794,-0.0982258422,0.239105,0.247002641,-0.16677825,0.293348,0.236976935,-0.157165553,0.276235,0.247117359,-0.177936387,0.286148,0.257142747,-0.197989358,0.296014
0.240064756,-0.218431477,0.286622,0.209094577,-0.180893657,0.276337,0.225419167,-0.220157962,0.277386,0.201159583,-0.19391951,0.254588,0.163291953,-0.18148567,0.238759,0.144682418,-0.176426159,0.237556,0.171999147,-0.169608698,0.260486,0.168504379,-0.152767945,0.240399,0.194082471,-0.172409983,0.253985,0.207330743,-0.188452498,0.267339,0.195155411,-0.163648882,0.272067,0.170568973,-0.124876833,0.2556,0.156036572,-0.101829012,0.245995,0.153072673,-0.0917761889,0.239134,0.218848624,-0.162535267,0.282796,0.183450336,-0.128422493,0.263563,0.170963491,-0.111650222,0.257083,0.159969805,-0.0985718327,0.251192,0.253464819,-0.167892824,0.296749,0.242595551,-0.160547219,0.280836,0.251636556,-0.181681798,0.290967,0.260062501,-0.201625727,0.300496
0.24116448,-0.215941263,0.284028,0.211178067,-0.178555824,0.277193,0.223542643,-0.217028051,0.274778,0.204091875,-0.178331488,0.253228,0.169449806,-0.160051564,0.238155,0.154875439,-0.156970875,0.241674,0.173677779,-0.169396882,0.262253,0.171434542,-0.15470632,0.244635,0.190128652,-0.179037526,0.258459,0.199738045,-0.196791119,0.270934,0.197440712,-0.164033027,0.274355,0.177819527,-0.125538904,0.262465,0.165372836,-0.102807384,0.25553,0.160638538,-0.086039717,0.250576,0.221322849,-0.163207884,0.285117,0.190195419,-0.129217525,0.269652,0.179367159,-0.111129289,0.26174,0.169985045,-0.095917121,0.254547,0.255531396,-0.168593434,0.298454,0.246445065,-0.161448135,0.284718,0.255398352,-0.182703713,0.295088,0.262886308,-0.202303227,0.303944
0.241625598,-0.21520857,0.283609,0.211989055,-0.178478706,0.278081,0.223271868,-0.215807506,0.274247,0.203238867,-0.176053273,0.253086,0.170555116,-0.152266211,0.238162,0.157184053,-0.148281139,0.242405,0.175151665,-0.168070371,0.263338,0.172807658,-0.155412149,0.246616,0.191211689,-0.180056798,0.260389,0.199716367,-0.196573633,0.27249,0.198694632,-0.164250132,0.275785,0.179214636,-0.125738207,0.26426,0.167026088,-0.102905284,0.257537,0.161827036,-0.0864044856,0.252735,0.222754142,-0.163615313,0.286683,0.190717931,-0.129365466,0.27114,0.177491149,-0.11244102,0.263188,0.167155077,-0.0972495628,0.255959,0.256945746,-0.169103977,0.299925,0.248598585,-0.161824328,0.287018,0.257394664,-0.183091685,0.297373,0.26443174,-0.202469375,0.30593
0.244048213,-0.213390781,0.282766,0.213913784,-0.17590833,0.280346,0.223285256,-0.212304073,0.273642,0.200250535,-0.165335986,0.253936,0.169891404,-0.1453342,0.241827,0.157951881,-0.14308458,0.248186,0.176740161,-0.162207262,0.26678,0.174820305,-0.148499957,0.252477,0.193096978,-0.174445407,0.266506,0.200655613,-0.190266359,0.277755,0.201286853,-0.157949087,0.279341,0.182508517,-0.120184443,0.270138,0.171226615,-0.0972755349,0.26477,0.165369036,-0.0814977864,0.260935,0.225306537,-0.157723133,0.289975,0.192957765,-0.124504652,0.277005,0.182977566,-0.107997072,0.27037,0.176593541,-0.0979477272,0.264337,0.258787377,-0.163241662,0.302335,0.251085554,-0.153410512,0.291488,0.259553422,-0.174092658,0.302088,0.266496454,-0.197199013,0.310015
0.242363427,-0.208551435,0.280322,0.212191564,-0.169119054,0.280396,0.220159163,-0.205340148,0.271081,0.196670122,-0.158349408,0.252283,0.16794479,-0.135250226,0.239331,0.156531557,-0.130884669,0.245053,0.176074169,-0.160520357,0.267338,0.173944439,-0.142948761,0.254854,0.192036822,-0.168489826,0.2687,0.20043276,-0.188147779,0.279158,0.201011612,-0.156757933,0.280427,0.183279436,-0.119191902,0.272949,0.17149242,-0.0940220192,0.268586,0.167113008,-0.0803639379,0.26547,0.225157428,-0.156730198,0.291211,0.194092137,-0.124061768,0.280243,0.1835465,-0.105196635,0.274632,0.181028881,-0.0936825699,0.269531,0.258403713,-0.162131336,0.303266,0.250462451,-0.149044361,0.294076,0.258869429,-0.169144459,0.30458,0.265802976,-0.190629221,0.311887
0.240460623,-0.206138391,0.279044,0.211688718,-0.168516025,0.280716,0.218457895,-0.203010044,0.270305,0.196079591,-0.157788684,0.252666,0.16973216,-0.137076594,0.243437,0.156135396,-0.131236769,0.24595,0.175686216,-0.158524105,0.268799,0.175651684,-0.143012989,0.257783,0.193675759,-0.16882813,0.272026,0.200496803,-0.185743449,0.282063,0.20126529,-0.156584996,0.28141,0.184301714,-0.117583184,0.275379,0.175248287,-0.0948654608,0.27186,0.170128197,-0.0785327184,0.269347,0.225015025,-0.156655055,0.291615,0.226199522,-0.135235983,0.282122,0.230068614,-0.150571716,0.277265,0.238198816,-0.171209846,0.286726,0.257353952,-0.162005982,0.30272,0.251526958,-0.151829525,0.294663,0.259941109,-0.172214922,0.305492,0.265040005,-0.19026441,0.312528
0.239066655,-0.203711342,0.280951,0.212176465,-0.167272925,0.283056,0.217565357,-0.198444063,0.272408,0.197327742,-0.158381062,0.255145,0.170832414,-0.13682527,0.245245,0.157365551,-0.130388565,0.247622,0.177287907,-0.158755595,0.271533,0.17644709,-0.142071421,0.260948,0.194081589,-0.167832475,0.275344,0.201938704,-0.186346867,0.285272,0.202218709,-0.155499188,0.28393,0.186368749,-0.11700302,0.278289,0.177380857,-0.0950555169,0.274999,0.172160848,-0.0786264998,0.272648,0.225947725,-0.155799004,0.293909,0.22743169,-0.135139645,0.284839,0.231418668,-0.150785077,0.280199,0.239992111,-0.171491665,0.289896,0.258738188,-0.162128731,0.304681,0.251636325,-0.150603899,0.29694,0.2597799,-0.170769311,0.307892,0.264649398,-0.188675953,0.314863
0.239290309,-0.198375582,0.282387,0.213931013,-0.167184859,0.285821,0.217948948,-0.197803755,0.274031,0.197039708,-0.156130232,0.257524,0.172176614,-0.13270248,0.246929,0.159382104,-0.124080646,0.248514,0.179041616,-0.155986204,0.274923,0.177636226,-0.141747879,0.265457,0.195204526,-0.16742829,0.279925,0.203383856,-0.185707737,0.289441,0.204263967,-0.152759188,0.287247,0.188660388,-0.115720406,0.282853,0.180413902,-0.0934682222,0.28029,0.175806009,-0.0782906208,0.278459,0.228066225,-0.152988057,0.297014,0.229041608,-0.133875149,0.289114,0.233643636,-0.149688897,0.285072,0.244208391,-0.172911037,0.295135,0.259933041,-0.158367213,0.307296,0.252506558,-0.148737878,0.300489,0.260121226,-0.168818326,0.311518,0.26650578,-0.188981195,0.31819
0.240436466,-0.198870752,0.285023,0.213801199,-0.164274423,0.28778,0.217543083,-0.196282104,0.27623,0.197310454,-0.156036227,0.259003,0.173635403,-0.128376027,0.246525,0.161493773,-0.117261334,0.246721,0.178567946,-0.153870126,0.276081,0.177217159,-0.140933855,0.265871,0.193761362,-0.16467381,0.279987,0.203087236,-0.184938471,0.289655,0.204140507,-0.150874544,0.288925,0.188262902,-0.113649895,0.283933,0.179841334,-0.0913342638,0.281021,0.174824797,-0.0761876402,0.278941,0.228322649,-0.151329794,0.299198,0.229421481,-0.133619529,0.290593,0.23365337,-0.149374247,0.28619,0.243166335,-0.17057371,0.295778,0.260754118,-0.157072778,0.310175,0.253558958,-0.148945474,0.302854,0.259872919,-0.167056288,0.313607,0.265155436,-0.186370901,0.320352
0.238421767,-0.196983835,0.28408,0.213024805,-0.16193282,0.288648,0.215567399,-0.19422976,0.275241,0.195797643,-0.153435028,0.258763,0.174387911,-0.12374028,0.244091,0.164171296,-0.110564495,0.243795,0.177806918,-0.151612363,0.277374,0.177995812,-0.138175454,0.268546,0.194993853,-0.164566828,0.282451,0.203124933,-0.183605627,0.291489,0.203801233,-0.14932352,0.290545,0.190389006,-0.112086107,0.287297,0.183691236,-0.0870530149,0.285403,0.177764822,-0.0728104732,0.284049,0.229001881,-0.151169682,0.30088,0.232285588,-0.134790136,0.293783,0.236979409,-0.151322099,0.290152,0.245867642,-0.172177153,0.299961,0.261157073,-0.157301263,0.311583,0.254780108,-0.148142353,0.305512,0.26152518,-0.167513939,0.316136,0.265000362,-0.184820032,0.322392
0.258623176,-0.218212756,0.329248,0.223402039,-0.169082712,0.308654,0.228160554,-0.213794175,0.318762,0.223813042,-0.190290113,0.307481,0.208402342,-0.163154298,0.287456,0.200615989,-0.144721861,0.280695,0.183588819,-0.153272451,0.288249,0.174427579,-0.130223846,0.260517,0.187646294,-0.153177233,0.271075,0.199082939,-0.177700291,0.286236,0.209541646,-0.150106474,0.300103,0.193241195,-0.108144871,0.295473,0.186951423,-0.0868492715,0.292771,0.181258041,-0.0694471145,0.290942,0.235244657,-0.152450921,0.312242,0.228119768,-0.127951417,0.28496,0.242217993,-0.152605992,0.296165,0.254503456,-0.176454655,0.311658,0.268541092,-0.161820199,0.329721,0.257484293,-0.163727868,0.307568,0.261418988,-0.18118935,0.315238,0.264898519,-0.200032367,0.326009
0.256687464,-0.21886674,0.331158,0.223833006,-0.16920879,0.310442,0.229511148,-0.215417377,0.32185,0.226214085,-0.191949928,0.310559,0.210644793,-0.164693393,0.290498,0.20334028,-0.147338999,0.285897,0.185109855,-0.151972665,0.29167,0.182853764,-0.149859497,0.264431,0.191737405,-0.171981816,0.27613,0.196231491,-0.182575511,0.291066,0.210382499,-0.147938744,0.30184,0.195349178,-0.107982154,0.297248,0.187613727,-0.0841088128,0.294569,0.182568289,-0.0685516292,0.292656,0.235409183,-0.151669187,0.312603,0.22981999,-0.129286834,0.285582,0.245272734,-0.154608332,0.297977,0.254687529,-0.176950334,0.31384,0.269910772,-0.162608275,0.328566,0.256621533,-0.163289376,0.306445,0.261254139,-0.181122097,0.314971,0.264939822,-0.200129991,0.326063
0.255418912,-0.218913277,0.331679,0.22347718,-0.168892772,0.310653,0.229287632,-0.215341318,0.321943,0.225530901,-0.191238333,0.309661,0.210952627,-0.163632294,0.288935,0.204160733,-0.146146745,0.284104,0.184707879,-0.151370633,0.291191,0.180243658,-0.14545298,0.263532,0.190945867,-0.169312263,0.274751,0.198305797,-0.181749333,0.290314,0.210397422,-0.147755778,0.301923,0.195921468,-0.108022423,0.297984,0.188382111,-0.0842399449,0.295687,0.182903206,-0.0668689429,0.294046,0.235202124,-0.150192988,0.313185,0.230436059,-0.129805584,0.285806,0.244315144,-0.154725779,0.2977,0.253991244,-0.176742904,0.313506,0.270428145,-0.162961141,0.329766,0.257321921,-0.163735039,0.307423,0.261099348,-0.18157586,0.315583,0.264294021,-0.199837076,0.32661
0.256206273,-0.218453769,0.330531,0.222381333,-0.167579463,0.311133,0.2278287,-0.213872581,0.320645,0.224771205,-0.189901523,0.308473,0.210379599,-0.161874737,0.286952,0.203864545,-0.144437841,0.282151,0.185105531,-0.150796653,0.2919,0.182937237,-0.147773432,0.265233,0.191837496,-0.170151514,0.276722,0.19637522,-0.181439607,0.291493,0.211214582,-0.147595245,0.303079,0.196927126,-0.107680211,0.299096,0.190107846,-0.0832387623,0.296773,0.18430388,-0.0663817681,0.295114,0.236221358,-0.150310729,0.314522,0.234303357,-0.132865533,0.288263,0.247130905,-0.158221404,0.300447,0.255146221,-0.17784511,0.315917,0.26997433,-0.162493527,0.330998,0.259044997,-0.164434167,0.309561,0.262771659,-0.182557787,0.317954,0.265560258,-0.200443839,0.328752
0.255026054,-0.218044777,0.330542,0.22261917,-0.167429426,0.311588,0.227540325,-0.213542563,0.320691,0.224862231,-0.189562844,0.308511,0.211002229,-0.161568865,0.287085,0.203256722,-0.143119507,0.280396,0.185469326,-0.150552406,0.292523,0.183584806,-0.148226281,0.266166,0.192340467,-0.170621991,0.277792,0.193924543,-0.179119195,0.288362,0.211666167,-0.147469964,0.303717,0.197347366,-0.107374676,0.299485,0.190516844,-0.0828993954,0.297016,0.184829287,-0.065977345,0.295252,0.236681821,-0.150283841,0.315123,0.235180303,-0.133526287,0.289195,0.248070862,-0.159103445,0.301525,0.255664754,-0.178536833,0.31692,0.270330006,-0.162570198,0.331472,0.25961762,-0.164558981,0.310293,0.263294866,-0.182812594,0.318797,0.265924269,-0.200508749,0.329548
0.251983635,-0.217160413,0.331288,0.222459464,-0.166938462,0.312004,0.227474695,-0.213374695,0.321466,0.224373321,-0.18872458,0.308212,0.210956163,-0.160063388,0.286269,0.202760102,-0.142109956,0.279712,0.184780188,-0.147604483,0.292891,0.182242265,-0.146364785,0.26633,0.19160744,-0.169336461,0.277907,0.193414656,-0.178573926,0.288432,0.211094678,-0.144962892,0.303997,0.197707356,-0.105088363,0.300491,0.191192217,-0.0825071457,0.298447,0.186538799,-0.0650459341,0.296986,0.236473903,-0.149728148,0.315367,0.233170874,-0.13217626,0.28921,0.247446746,-0.15771658,0.301486,0.255539997,-0.178523156,0.316953,0.270130231,-0.162122765,0.33174,0.259276016,-0.163964896,0.310374,0.262966267,-0.182172116,0.318835,0.265650624,-0.199949876,0.329636
0.251413494,-0.216813034,0.331484,0.222216262,-0.166490328,0.312121,0.227168772,-0.213011486,0.321656,0.224143195,-0.188226067,0.308162,0.21082071,-0.159573447,0.286232,0.202677646,-0.141580471,0.279599,0.184435632,-0.147210049,0.292978,0.182735631,-0.146702484,0.266361,0.191234792,-0.169006891,0.277913,0.193032825,-0.178171733,0.288416,0.210754462,-0.144550342,0.30408,0.197249277,-0.104661417,0.300521,0.191028505,-0.0819781645,0.298444,0.186564969,-0.0644797952,0.296961,0.236262644,-0.149291167,0.315458,0.233196429,-0.132112437,0.289241,0.247283836,-0.157695786,0.301491,0.25516092,-0.178295344,0.316971,0.269923328,-0.161764359,0.331853,0.259039493,-0.163545106,0.310441,0.262747693,-0.181725582,0.318882,0.265448554,-0.199545439,0.329691
0.250012533,-0.215581068,0.330398,0.221293595,-0.16497943,0.311456,0.226025646,-0.211734424,0.320598,0.222759068,-0.184452227,0.30831,0.210381531,-0.156326032,0.287215,0.204117863,-0.138910323,0.280098,0.182797068,-0.144778194,0.292468,0.180354308,-0.143712126,0.266144,0.189079566,-0.166765652,0.277823,0.191504867,-0.176136711,0.288441,0.210180366,-0.143592219,0.303591,0.197032932,-0.103767238,0.300309,0.191151524,-0.079814112,0.298394,0.187188657,-0.0622418493,0.297027,0.235218538,-0.146884989,0.314937,0.233519011,-0.131681449,0.289034,0.247142662,-0.157395449,0.301419,0.254935993,-0.178054585,0.316826,0.268890005,-0.160268314,0.331218,0.257872843,-0.161332014,0.31005,0.261515188,-0.17954418,0.318594,0.265512065,-0.197754755,0.329357
0.249452001,-0.215078648,0.330267,0.221008995,-0.164417563,0.311332,0.225618397,-0.211192751,0.320458,0.22244834,-0.183804856,0.308106,0.210107969,-0.155634238,0.287265,0.203980247,-0.138105463,0.280131,0.182653745,-0.144280942,0.292334,0.181035612,-0.14434204,0.266011,0.188689338,-0.166252545,0.277684,0.191024546,-0.1753738,0.288296,0.209940237,-0.143050863,0.303471,0.196871153,-0.103161404,0.300141,0.191010077,-0.0791732768,0.298199,0.187007781,-0.0615811455,0.296811,0.235021221,-0.146383838,0.314826,0.233341508,-0.131358394,0.288926,0.2472605,-0.157288808,0.301304,0.25443267,-0.17761262,0.316707,0.268729057,-0.159815672,0.331116,0.257633528,-0.16083717,0.309952,0.261304061,-0.179008416,0.318491,0.264713492,-0.198270838,0.329251
0.248067285,-0.214869698,0.331288,0.220951712,-0.164102236,0.311467,0.226065949,-0.21148271,0.321446,0.222550804,-0.183654666,0.308384,0.210365237,-0.155530287,0.287872,0.204243818,-0.137774047,0.280652,0.182523001,-0.143947224,0.292182,0.180324803,-0.143631156,0.265258,0.187834743,-0.165398196,0.276687,0.189943156,-0.174151672,0.287077,0.209666117,-0.142594192,0.303237,0.196752941,-0.102727082,0.300017,0.190959167,-0.0787360832,0.298138,0.186966373,-0.0611381597,0.296796,0.23479085,-0.145970002,0.314627,0.232960019,-0.130693052,0.288077,0.246343999,-0.156530778,0.300196,0.253332426,-0.176810974,0.315758,0.268675239,-0.159515594,0.331122,0.257102609,-0.160258889,0.309449,0.260637611,-0.178272301,0.317789,0.264096785,-0.197555391,0.32865
0.247564232,-0.214330569,0.331381,0.220714961,-0.163707922,0.311306,0.225490898,-0.210792522,0.321522,0.222537894,-0.183487184,0.308457,0.210334155,-0.155310569,0.288,0.204412245,-0.137504275,0.281003,0.182339254,-0.143648677,0.291926,0.179889541,-0.143181472,0.264826,0.187367775,-0.164919388,0.276173,0.189348955,-0.173434735,0.286489,0.209397306,-0.14220882,0.30297,0.196620358,-0.10237834,0.299857,0.190888799,-0.0783947501,0.298042,0.186910251,-0.060797629,0.296745,0.234545141,-0.145614324,0.31438,0.232549312,-0.130606422,0.287642,0.245654969,-0.15643838,0.299674,0.252597407,-0.176618931,0.315278,0.268355941,-0.158791826,0.330947,0.256750409,-0.159854002,0.309127,0.260251433,-0.177798195,0.317401,0.263394403,-0.196614727,0.328288
0.246664999,-0.213307507,0.331008,0.219396139,-0.161760861,0.310372,0.225103667,-0.21017975,0.321995,0.223007237,-0.183459439,0.310797,0.210515667,-0.154972794,0.290468,0.207491074,-0.138487456,0.286672,0.182166488,-0.143253471,0.292039,0.173103171,-0.141855627,0.265009,0.18619785,-0.164401328,0.276983,0.18808407,-0.171311156,0.287869,0.207899506,-0.140248153,0.301804,0.195814595,-0.100614796,0.299234,0.190518842,-0.0766632202,0.297734,0.187035559,-0.0602929026,0.296761,0.232443832,-0.143308809,0.312224,0.217814471,-0.120849535,0.285361,0.239721482,-0.143538538,0.298044,0.25610713,-0.163628309,0.313958,0.265919582,-0.157023916,0.327788,0.25304364,-0.157139626,0.305752,0.256982906,-0.175159199,0.314486,0.260557679,-0.194427106,0.325629
0.246218046,-0.212675239,0.331243,0.219215726,-0.161428006,0.310328,0.22464297,-0.209493383,0.322365,0.222869189,-0.183596443,0.311429,0.210417378,-0.155247614,0.291245,0.207814319,-0.138640407,0.287518,0.1820292,-0.142951262,0.292111,0.173079656,-0.141836357,0.264973,0.185451803,-0.164310886,0.276986,0.187626101,-0.171059683,0.287907,0.207715322,-0.139906585,0.301644,0.195873051,-0.100267752,0.299157,0.190634572,-0.0763174875,0.297706,0.187129775,-0.0598865604,0.296764,0.232240339,-0.142948238,0.311905,0.217456486,-0.120650915,0.284892,0.239375626,-0.143331449,0.297614,0.255818359,-0.163443812,0.313604,0.265659726,-0.156609058,0.327344,0.252316015,-0.156871204,0.30517,0.256170981,-0.174925001,0.313929,0.259769566,-0.193713969,0.32513
0.24567352,-0.211743277,0.331183,0.218520885,-0.160004586,0.310283,0.223965078,-0.20843879,0.322225,0.222117368,-0.183000074,0.310815,0.20996533,-0.155371307,0.289305,0.207658275,-0.138731317,0.28477,0.181535007,-0.14155407,0.291956,0.176503525,-0.141632234,0.264783,0.184928659,-0.164033225,0.276734,0.188036555,-0.172050473,0.287598,0.207527888,-0.138703744,0.301605,0.195710877,-0.0986300401,0.298433,0.190228869,-0.0745410416,0.296583,0.186125649,-0.0578380821,0.295261,0.232264097,-0.142544774,0.311959,0.217647016,-0.120135769,0.284928,0.239456985,-0.142856899,0.297585,0.255311881,-0.162331203,0.313556,0.265556,-0.155435319,0.327501,0.252261955,-0.156742161,0.305323,0.255961926,-0.174828412,0.314035,0.259384363,-0.193200438,0.325219
0.245350111,-0.211001211,0.331422,0.218425166,-0.15964063,0.310284,0.223576196,-0.207653062,0.322501,0.221899627,-0.182837921,0.310838,0.209965288,-0.155316555,0.28923,0.208002338,-0.138005298,0.284547,0.181395995,-0.14118568,0.291945,0.176048998,-0.141415288,0.264638,0.184544104,-0.163831664,0.276556,0.18774671,-0.171896487,0.287391,0.207381342,-0.13830692,0.301507,0.195612149,-0.0981914886,0.298288,0.190131256,-0.0740850912,0.29641,0.186047259,-0.0573533005,0.295083,0.232145216,-0.142136982,0.311817,0.217500109,-0.119744585,0.284629,0.239240355,-0.142467177,0.297251,0.25484761,-0.161643252,0.313271,0.265490316,-0.155037674,0.327353,0.251889348,-0.15643416,0.305047,0.255477852,-0.174534713,0.313731,0.258711668,-0.192472168,0.324949
0.245197097,-0.210470616,0.331563,0.218228497,-0.158987993,0.310204,0.223402096,-0.207109478,0.322736,0.22192088,-0.182868856,0.311123,0.210010092,-0.155130712,0.289572,0.209064572,-0.137826178,0.284843,0.181289549,-0.140900564,0.291939,0.175705762,-0.141254633,0.26454,0.184284211,-0.163709604,0.276476,0.187289909,-0.171461238,0.287327,0.207201507,-0.137954494,0.301335,0.195488655,-0.0978268996,0.298104,0.190019166,-0.0737161326,0.296219,0.185990595,-0.0565160242,0.294873,0.231949591,-0.141438745,0.311534,0.217239486,-0.119415308,0.284224,0.238959279,-0.142143977,0.296863,0.254438733,-0.161148964,0.312939,0.265344076,-0.154358715,0.326988,0.251274168,-0.155880869,0.304573,0.254734753,-0.17401703,0.313266,0.258016646,-0.191858646,0.324526
0.245080107,-0.209793843,0.331805,0.218183897,-0.158208645,0.310261,0.223379461,-0.206506237,0.323202,0.226242942,-0.186026893,0.319538,0.223063614,-0.154710142,0.30013,0.221664663,-0.142021383,0.295619,0.180910746,-0.139084595,0.292264,0.175949282,-0.141152974,0.26487,0.18452437,-0.163633107,0.276933,0.18719423,-0.170817463,0.2879,0.206941124,-0.136140769,0.301316,0.195536556,-0.0956785689,0.297667,0.190229176,-0.0714600738,0.295538,0.186220518,-0.0554667205,0.294536,0.231814563,-0.140558492,0.311253,0.217427173,-0.11886964,0.283893,0.239237356,-0.141628269,0.296664,0.254528972,-0.160521544,0.312813,0.265046726,-0.153425082,0.326448,0.250686572,-0.155068915,0.303965,0.25411282,-0.173264264,0.312751,0.257433442,-0.19100612,0.32407
0.245722733,-0.209976177,0.332931,0.21813911,-0.157779113,0.310289,0.223971118,-0.206685042,0.324344,0.227781103,-0.186702773,0.321437,0.225554327,-0.15666434,0.303136,0.224578413,-0.14264862,0.299157,0.181305147,-0.140063573,0.292017,0.175095121,-0.140424346,0.263925,0.183448126,-0.162614701,0.275688,0.186013992,-0.169501096,0.286381,0.206917098,-0.136913508,0.300887,0.19555471,-0.0968944292,0.297943,0.190431051,-0.0728256547,0.296225,0.186811695,-0.0550932197,0.294998,0.231488764,-0.139940683,0.3108,0.216783557,-0.118174524,0.282673,0.2383258,-0.140658803,0.295123,0.2535922,-0.159514871,0.311454,0.264858069,-0.152890282,0.326176,0.24989716,-0.154378574,0.303088,0.253070547,-0.172444408,0.311627,0.256514004,-0.190108775,0.323064
0.245927142,-0.209782998,0.333464,0.218212449,-0.157435109,0.310485,0.224230715,-0.206556304,0.325006,0.228873386,-0.187155748,0.322773,0.227170795,-0.157862956,0.305193,0.226506176,-0.143046673,0.301493,0.181425494,-0.139758862,0.292304,0.174965112,-0.140276688,0.26407,0.183296302,-0.162416116,0.27583,0.185912654,-0.169169497,0.286521,0.206937259,-0.136516751,0.300944,0.195611782,-0.0964558303,0.297945,0.190577222,-0.0723743316,0.296195,0.187078976,-0.0546212601,0.294946,0.231429568,-0.139484797,0.310705,0.216784692,-0.11791884,0.282391,0.238342254,-0.140347831,0.294837,0.253545851,-0.159175219,0.311242,0.264727853,-0.152389713,0.325976,0.249531031,-0.153950575,0.302724,0.252640617,-0.172042513,0.311256,0.256142486,-0.189619039,0.322747
0.245811127,-0.209331987,0.33356,0.218216286,-0.156998291,0.310508,0.224130053,-0.206105957,0.325167,0.229213677,-0.187236004,0.322605,0.226983968,-0.157909872,0.304851,0.225095323,-0.142586989,0.301012,0.181467364,-0.13932749,0.292401,0.174773105,-0.140105381,0.264158,0.183060752,-0.162190361,0.275947,0.185756941,-0.168780096,0.286664,0.206983762,-0.136073766,0.300936,0.195677266,-0.0959002192,0.297766,0.190652424,-0.0717736026,0.295916,0.187185446,-0.0539828328,0.294595,0.231472662,-0.139035551,0.31062,0.217125281,-0.118083013,0.282281,0.238662753,-0.140563598,0.294756,0.253693307,-0.159241373,0.311183,0.264746912,-0.151939235,0.325818,0.249371006,-0.153689518,0.302538,0.252366618,-0.171845969,0.311089,0.255864617,-0.189221419,0.322598
0.246061951,-0.209193066,0.334154,0.218384538,-0.156679281,0.310765,0.224420682,-0.206015049,0.325896,0.227155171,-0.185209276,0.320077,0.225369974,-0.156892511,0.302629,0.225192491,-0.141569755,0.299951,0.181671185,-0.139019769,0.292759,0.174668856,-0.140004404,0.264379,0.182892111,-0.162023905,0.276165,0.185647872,-0.168433027,0.286879,0.207116988,-0.135687216,0.301054,0.195821093,-0.0953825844,0.297706,0.190802576,-0.0712005324,0.295753,0.187364797,-0.0533644817,0.294358,0.231548674,-0.1386056,0.310579,0.217292881,-0.118157342,0.282057,0.238785545,-0.140657471,0.294527,0.253720565,-0.159237395,0.311025,0.264767725,-0.151489406,0.325662,0.249104662,-0.153362984,0.302223,0.251966415,-0.171563507,0.310766,0.255491499,-0.188754254,0.322328
0.246058082,-0.2088684,0.334134,0.218482558,-0.15641084,0.310773,0.224370092,-0.20563743,0.325752,0.226837207,-0.184416204,0.319363,0.224460773,-0.156329685,0.301372,0.223990938,-0.140599927,0.298419,0.181709652,-0.138689178,0.292597,0.174878769,-0.13968383,0.264164,0.182935568,-0.161621086,0.275866,0.185513476,-0.167940448,0.286503,0.207251657,-0.135428739,0.301073,0.195828385,-0.0950372209,0.29754,0.190784659,-0.0708166209,0.295479,0.187349409,-0.0529562754,0.294007,0.231756635,-0.138402958,0.310743,0.217902848,-0.118236049,0.282192,0.23928795,-0.140744847,0.294574,0.253881609,-0.159037268,0.31105,0.265038957,-0.151346961,0.325983,0.249584535,-0.153264283,0.302536,0.252355382,-0.171461513,0.311017,0.255808184,-0.188449397,0.322557
0.246414646,-0.208634724,0.334354,0.218886625,-0.156231892,0.310972,0.224688997,-0.205370806,0.325852,0.22688818,-0.183789972,0.318968,0.223974986,-0.15594082,0.300485,0.223225004,-0.139879422,0.297248,0.182050447,-0.138470813,0.29262,0.175412093,-0.139380757,0.264104,0.183314724,-0.161247758,0.275707,0.185699397,-0.167535411,0.286255,0.207669362,-0.135257975,0.301262,0.196135919,-0.0948137857,0.297622,0.190993115,-0.0705776421,0.295498,0.187485084,-0.0527315235,0.293981,0.232236935,-0.138269787,0.311073,0.218474512,-0.117910068,0.282461,0.239801662,-0.140359736,0.294741,0.254195968,-0.158532419,0.3112,0.265577438,-0.151252871,0.326475,0.250325745,-0.153209194,0.302995,0.252981195,-0.17137584,0.311401,0.256326612,-0.188161188,0.322924
0.246770743,-0.208648115,0.334525,0.219287959,-0.156256671,0.311127,0.225043933,-0.205371883,0.325976,0.227242995,-0.183522375,0.31911,0.224250675,-0.156094919,0.300679,0.223596219,-0.13936871,0.297517,0.182447829,-0.138470184,0.292704,0.175947719,-0.139256294,0.264152,0.183679621,-0.161016002,0.275713,0.185879515,-0.167036664,0.286223,0.208087782,-0.135283013,0.301412,0.196591895,-0.0948684211,0.297857,0.191423788,-0.0706481504,0.295783,0.187894859,-0.0528339072,0.294302,0.232662623,-0.138316886,0.311278,0.218925427,-0.117702831,0.282637,0.240257268,-0.140093014,0.294873,0.254628131,-0.158331735,0.311326,0.265994063,-0.151323436,0.326744,0.250887391,-0.153257487,0.303249,0.253489982,-0.171390928,0.311623,0.256756904,-0.188080075,0.323139
0.247142971,-0.208675214,0.334718,0.219688621,-0.156280957,0.311281,0.225418848,-0.20539123,0.326129,0.227661624,-0.18330689,0.319342,0.224621891,-0.156323877,0.30104,0.224126341,-0.138958759,0.297998,0.182848471,-0.138471898,0.292793,0.176480078,-0.139129178,0.264195,0.184040776,-0.16078161,0.275714,0.186056141,-0.166535588,0.286186,0.208497988,-0.135302655,0.30155,0.197050661,-0.0949243378,0.298096,0.191862684,-0.0707217582,0.296081,0.18831577,-0.0529394279,0.294641,0.233071069,-0.138353773,0.31146,0.219349793,-0.117481644,0.282779,0.240684953,-0.139810349,0.294971,0.255036466,-0.158116401,0.311423,0.266387004,-0.151380605,0.326984,0.251414859,-0.153285126,0.303462,0.253964206,-0.171383025,0.311803,0.257157374,-0.187977753,0.323317
