sluyters/QuantumLeap/backend/src/datasets/dynamic/HandGestureDataset_SHREC2017_csv/Gesture9/finger_1/subject_17_essai_1_skeletons_world.csv
Wrist_x,Wrist_y,Wrist_z,Palm_x,Palm_y,Palm_z,thumb_base_x,thumb_base_y,thumb_base_z,thumb_first_joint_x,thumb_first_joint_y,thumb_first_joint_z,thumb_second_joint_x,thumb_second_joint_y,thumb_second_joint_z,thumb_tip_x,thumb_tip_y,thumb_tip_z,index_base_x,index_base_y,index_base_z,index_first_joint_x,index_first_joint_y,index_first_joint_z,index_second_joint_x,index_second_joint_y,index_second_joint_z,index_tip_x,index_tip_y,index_tip_z,middle_base_x,middle_base_y,middle_base_z,middle_first_joint_x,middle_first_joint_y,middle_first_joint_z,middle_second_joint_x,middle_second_joint_y,middle_second_joint_z,middle_tip_x,middle_tip_y,middle_tip_z,ring_base_x,ring_base_y,ring_base_z,ring_first_joint_x,ring_first_joint_y,ring_first_joint_z,ring_second_joint_x,ring_second_joint_y,ring_second_joint_z,ring_tip_x,ring_tip_y,ring_tip_z,pinky_base_x,pinky_base_y,pinky_base_z,pinky_first_joint_x,pinky_first_joint_y,pinky_first_joint_z,pinky_second_joint_x,pinky_second_joint_y,pinky_second_joint_z,pinky_tip_x,pinky_tip_y,pinky_tip_z,
0.51957217,-0.45918663,0.628135,0.49731338,-0.39552381,0.605186,0.49009179,-0.44184858,0.618666,0.44063573,-0.41324056,0.598176,0.39806406,-0.39434649,0.582888,0.37818238,-0.38027225,0.579536,0.44365192,-0.33574268,0.576868,0.43478867,-0.29415184,0.57541,0.43137678,-0.27406879,0.576024,0.42839507,-0.25584762,0.576754,0.47152349,-0.33510312,0.581021,0.45352544,-0.33132119,0.549099,0.4394781,-0.34548948,0.530477,0.44408006,-0.36506786,0.535717,0.49673809,-0.33896654,0.586293,0.47908875,-0.33762197,0.555404,0.46429363,-0.35028732,0.5396,0.46417666,-0.36246782,0.545062,0.53099894,-0.351879,0.596004,0.50664372,-0.35164271,0.568989,0.49491307,-0.36080943,0.556577,0.49731364,-0.37454722,0.559874
0.49239633,-0.42606537,0.592433,0.47564875,-0.36672575,0.577087,0.46652272,-0.40949354,0.584758,0.41814954,-0.3834932,0.56945,0.37902657,-0.36746477,0.55712,0.36162604,-0.35525327,0.556591,0.42932068,-0.31434906,0.556487,0.41882739,-0.27152726,0.551434,0.41512256,-0.25121683,0.55081,0.41212314,-0.2329623,0.550735,0.45685225,-0.31424001,0.560929,0.44460541,-0.29931732,0.536386,0.43954518,-0.31780594,0.522069,0.445977,-0.33120107,0.530854,0.48109271,-0.31812715,0.565824,0.47177089,-0.31762357,0.541586,0.46015489,-0.33294069,0.529185,0.46305453,-0.34674262,0.538305,0.51282939,-0.33024055,0.573942,0.49577999,-0.3315826,0.552361,0.48620054,-0.34234622,0.542445,0.49064364,-0.35779847,0.548482
0.50289522,-0.42429183,0.60269,0.48140959,-0.36078268,0.583124,0.47341165,-0.40529173,0.593755,0.42426669,-0.37903621,0.577892,0.38379464,-0.36199194,0.564637,0.36667696,-0.3497728,0.564808,0.43110342,-0.30487722,0.557913,0.42361715,-0.26312799,0.556308,0.42084414,-0.24280408,0.556699,0.41842881,-0.22431997,0.557209,0.45923193,-0.30504799,0.562523,0.44285277,-0.28784158,0.533877,0.43550724,-0.30549039,0.517167,0.4405308,-0.31778641,0.524037,0.48427252,-0.30939156,0.567897,0.47081733,-0.30693846,0.539785,0.45719446,-0.32150134,0.525403,0.45852371,-0.3340651,0.532495,0.51756562,-0.32250396,0.577219,0.49688656,-0.32223757,0.552485,0.48580193,-0.33253144,0.54112,0.48887188,-0.34712514,0.545641
0.50132369,-0.41410504,0.599457,0.48063646,-0.35513397,0.579704,0.47281745,-0.3945853,0.590182,0.42481908,-0.36719621,0.572616,0.38502187,-0.34934378,0.559417,0.36780447,-0.33626316,0.559028,0.43153136,-0.29563574,0.553936,0.42414421,-0.25419285,0.552847,0.42144054,-0.23398712,0.553512,0.41825743,-0.21969823,0.555077,0.45994931,-0.29582106,0.558905,0.44429487,-0.28097386,0.530011,0.43652611,-0.29851962,0.513155,0.43901348,-0.3125206,0.519863,0.48529648,-0.30017417,0.564591,0.46955439,-0.30282564,0.536165,0.45557531,-0.31706379,0.521621,0.4566755,-0.32875532,0.528517,0.51907023,-0.31330317,0.57431,0.4983969,-0.31261105,0.549344,0.48723622,-0.32309629,0.537874,0.4902382,-0.33772591,0.542255
0.49815587,-0.40433687,0.596592,0.4745554,-0.34249781,0.575402,0.47053322,-0.39004699,0.589368,0.42162541,-0.35805537,0.576177,0.38433392,-0.3400518,0.565977,0.36757554,-0.32468927,0.564155,0.4268976,-0.28605033,0.55114,0.41967363,-0.24220126,0.545994,0.41728967,-0.22103505,0.545007,0.4152604,-0.20179959,0.544297,0.45340543,-0.28641584,0.553089,0.43103382,-0.27464662,0.523141,0.4209954,-0.29210716,0.505671,0.42675629,-0.30194287,0.512084,0.47765818,-0.29341507,0.556405,0.45668737,-0.29495386,0.528019,0.44124379,-0.30856808,0.513497,0.44392143,-0.31793828,0.520396,0.50853509,-0.30440847,0.563531,0.48215497,-0.30578698,0.538411,0.4698737,-0.31578451,0.52687,0.47275779,-0.32959477,0.531199
0.49388731,-0.393598,0.592779,0.47271034,-0.32996903,0.573092,0.46402823,-0.37399589,0.585546,0.41568077,-0.3466315,0.568604,0.38158416,-0.32881806,0.561135,0.37300642,-0.31822772,0.567183,0.42654844,-0.27369071,0.549905,0.42068416,-0.23130528,0.547422,0.41891134,-0.21075812,0.547688,0.41743185,-0.19208149,0.548111,0.45339599,-0.27463386,0.552363,0.4325452,-0.26750115,0.523801,0.42263938,-0.28550187,0.507139,0.42878736,-0.29508874,0.514236,0.47722507,-0.27960674,0.555977,0.45763752,-0.27982927,0.528688,0.44305863,-0.29520355,0.514727,0.4464741,-0.30758467,0.522285,0.50873505,-0.29347519,0.563229,0.48223557,-0.29544125,0.539029,0.47062021,-0.30608466,0.52791,0.4743454,-0.32040203,0.532739
0.48616663,-0.38072302,0.586206,0.47032469,-0.31842673,0.568287,0.4605059,-0.36105891,0.580704,0.41498954,-0.33213326,0.564005,0.37931608,-0.31184623,0.554417,0.36790753,-0.29871259,0.557001,0.42765199,-0.2634704,0.548522,0.4205177,-0.22038609,0.544244,0.41713207,-0.19901544,0.542357,0.41421978,-0.18517137,0.542396,0.45316122,-0.26403486,0.549418,0.43349734,-0.25653132,0.522825,0.42414573,-0.27591237,0.507312,0.4312291,-0.28755201,0.515362,0.47563556,-0.26861831,0.551603,0.4574831,-0.26826453,0.52646,0.44493969,-0.28474491,0.513595,0.45008096,-0.29896083,0.522251,0.50513127,-0.28185289,0.556895,0.47534504,-0.2839841,0.534483,0.48057552,-0.30517775,0.54852,0.48901342,-0.31965904,0.561851
0.5126482,-0.35635624,0.598885,0.48354044,-0.30256169,0.575228,0.48664977,-0.34591253,0.595449,0.43829818,-0.32471743,0.578784,0.39676511,-0.30607702,0.563301,0.37440061,-0.2881749,0.555072,0.43167069,-0.25273897,0.553882,0.42286465,-0.20831346,0.546567,0.41934037,-0.18650652,0.544048,0.41607276,-0.16661036,0.541758,0.45329081,-0.24771101,0.550318,0.42385186,-0.24428024,0.517657,0.41468895,-0.26136634,0.498605,0.42253022,-0.27148318,0.503352,0.47347694,-0.24770623,0.549296,0.44742187,-0.23717216,0.519108,0.43243163,-0.2524841,0.503663,0.43627578,-0.26432401,0.509026,0.50204666,-0.25547844,0.551649,0.46831651,-0.26277661,0.526816,0.47414866,-0.28439679,0.538981,0.48335496,-0.30225223,0.552438
0.51108369,-0.34626253,0.593857,0.48553872,-0.28780519,0.572996,0.48444383,-0.33625155,0.589569,0.43990789,-0.30995206,0.571956,0.39807226,-0.29132296,0.556399,0.3757831,-0.27459106,0.549076,0.43302018,-0.24073967,0.552612,0.42390998,-0.19632613,0.545417,0.42044446,-0.17465355,0.543218,0.41741933,-0.15505768,0.541219,0.45611578,-0.23510209,0.55103,0.43438993,-0.22468044,0.521278,0.42444012,-0.24387481,0.503922,0.43024472,-0.25449284,0.510417,0.47740244,-0.23444866,0.551414,0.45874485,-0.22823526,0.523264,0.44591577,-0.24487369,0.508861,0.44955728,-0.25807044,0.515863,0.50704458,-0.2411372,0.555012,0.48246697,-0.24473125,0.531351,0.49211074,-0.2680707,0.544583,0.50313226,-0.28491032,0.55804
0.51050736,-0.34231911,0.592294,0.4848215,-0.2852181,0.571378,0.48455283,-0.32662516,0.58673,0.44134526,-0.30135108,0.566894,0.40110675,-0.27991461,0.552277,0.37853664,-0.26074876,0.542519,0.43342874,-0.23347489,0.549372,0.42755993,-0.1908451,0.546176,0.42533436,-0.16973052,0.545496,0.42340868,-0.15046164,0.545015,0.45630371,-0.23206024,0.549354,0.43384978,-0.22173863,0.519851,0.42337787,-0.24115099,0.50264,0.42946893,-0.25233493,0.509267,0.47868237,-0.23248916,0.551029,0.4594168,-0.22633942,0.52359,0.4465059,-0.24322294,0.509552,0.45063638,-0.25711152,0.516836,0.5096823,-0.24055525,0.556167,0.48325265,-0.24339289,0.531899,0.49288879,-0.26686512,0.545154,0.5043828,-0.28420269,0.558835
0.50616105,-0.33035492,0.585755,0.48333461,-0.27209214,0.567106,0.47986533,-0.31984425,0.581381,0.43224735,-0.29167631,0.565322,0.39075102,-0.27307601,0.549335,0.36912584,-0.25658557,0.542522,0.43642736,-0.22185256,0.548213,0.42680193,-0.17853727,0.542842,0.42292223,-0.15721909,0.541352,0.41940028,-0.13762956,0.539998,0.46048211,-0.21912225,0.547469,0.43728866,-0.18578457,0.520222,0.42767039,-0.20484161,0.504328,0.43539498,-0.22371873,0.512035,0.48210212,-0.22087434,0.548363,0.46473382,-0.21653641,0.523152,0.45234324,-0.2342061,0.510253,0.45722272,-0.24929992,0.518711,0.51127925,-0.23047958,0.552233,0.48612597,-0.23308651,0.529857,0.49680969,-0.2568242,0.543725,0.50841056,-0.27424079,0.556977
0.50382001,-0.32643623,0.58496,0.48368326,-0.26861903,0.568082,0.47540072,-0.30634618,0.579231,0.42796286,-0.27841344,0.561234,0.38732769,-0.25725794,0.543905,0.36599083,-0.23932032,0.536181,0.4409638,-0.21166356,0.548789,0.43325817,-0.17046644,0.547684,0.43048849,-0.15025756,0.548509,0.42808392,-0.1318428,0.549422,0.46677925,-0.21219206,0.550311,0.44987755,-0.18244346,0.524658,0.44141404,-0.2022872,0.509693,0.44837263,-0.22161026,0.518174,0.48935441,-0.2166035,0.552928,0.47588923,-0.21474538,0.528533,0.46224755,-0.23236147,0.516052,0.46394861,-0.25070178,0.525122,0.51793873,-0.23121206,0.558574,0.49851297,-0.2248155,0.536724,0.50388918,-0.24698842,0.550981,0.51312533,-0.2570235,0.564199
0.50250441,-0.31708321,0.586465,0.48629607,-0.26241195,0.570044,0.47555944,-0.30256061,0.579499,0.43024853,-0.2702154,0.560333,0.38939888,-0.24788124,0.541653,0.36860472,-0.22972332,0.534039,0.44604749,-0.20513305,0.549545,0.44000223,-0.1639157,0.549,0.4378951,-0.14356896,0.549884,0.43608112,-0.12500622,0.550833,0.47315735,-0.20700523,0.552753,0.45840533,-0.17733565,0.527371,0.44945554,-0.19750201,0.512565,0.45324636,-0.21986568,0.521089,0.49672025,-0.21251364,0.556719,0.48404887,-0.21063876,0.532035,0.46956796,-0.22826803,0.519406,0.46961346,-0.24768526,0.528354,0.52705147,-0.22654194,0.563898,0.50764525,-0.22183725,0.541865,0.51242998,-0.2437489,0.556081,0.51948027,-0.25655488,0.569347
0.50172352,-0.31474509,0.586608,0.48723626,-0.25791442,0.570192,0.47452639,-0.29624162,0.580114,0.42980615,-0.26419402,0.561557,0.39139995,-0.24033672,0.544945,0.3727606,-0.22177642,0.538605,0.44678166,-0.20365856,0.550283,0.44017578,-0.16146005,0.547695,0.43766198,-0.14055077,0.547397,0.43547184,-0.12146738,0.54726,0.47340772,-0.20572835,0.552907,0.45728596,-0.16787676,0.52757,0.447688,-0.18573472,0.512791,0.45418568,-0.2069735,0.521376,0.49650271,-0.21139456,0.556393,0.4831855,-0.20906063,0.531961,0.46839148,-0.22664284,0.519461,0.47032464,-0.24340497,0.52854,0.52616436,-0.22559843,0.563001,0.50623893,-0.22038297,0.541148,0.51087279,-0.24219901,0.555426,0.51887622,-0.25458113,0.568653
0.51059512,-0.30256642,0.594445,0.49587423,-0.24164629,0.575159,0.4878559,-0.27942032,0.586998,0.43993737,-0.25702326,0.567543,0.39784537,-0.23721254,0.549714,0.3749342,-0.22143407,0.541212,0.44848425,-0.18878657,0.551994,0.43807603,-0.1483671,0.551588,0.43350345,-0.12828739,0.552209,0.42941956,-0.1099692,0.552896,0.47535984,-0.18873249,0.554851,0.45769968,-0.1559245,0.526619,0.44709582,-0.17450532,0.510151,0.4526079,-0.19515314,0.517392,0.499206,-0.19268656,0.55876,0.48200818,-0.19629989,0.531649,0.46685299,-0.21283799,0.517778,0.46753216,-0.23088861,0.525448,0.53078787,-0.20494394,0.566302,0.51253688,-0.19568432,0.542271,0.51647797,-0.21699714,0.555822,0.52430357,-0.22866671,0.569534
0.51664198,-0.29435224,0.600085,0.4911556,-0.23819388,0.571804,0.48829465,-0.2786978,0.591439,0.43561375,-0.25341865,0.571272,0.39311014,-0.23364598,0.554212,0.37278604,-0.21734096,0.54783,0.43923215,-0.17887348,0.540655,0.43248569,-0.14033148,0.544725,0.42902699,-0.1207214,0.54676,0.42596274,-0.10591014,0.548611,0.46440514,-0.18228431,0.542024,0.43861976,-0.14957528,0.505532,0.42328405,-0.16655733,0.484245,0.4246998,-0.18326753,0.486808,0.48726214,-0.18678122,0.545435,0.46245383,-0.18084364,0.511283,0.46859903,-0.20796274,0.526293,0.48100787,-0.2205506,0.546079,0.51865119,-0.20003948,0.553742,0.49388011,-0.18827803,0.523966,0.49646285,-0.20834843,0.534615,0.50610525,-0.22037706,0.549223
0.51466353,-0.29251334,0.599395,0.49080714,-0.23679252,0.571843,0.48715783,-0.2767778,0.591358,0.43690393,-0.24750965,0.570736,0.39676106,-0.22615617,0.555195,0.37778886,-0.2090951,0.549244,0.4412801,-0.17807195,0.541977,0.43408003,-0.13901897,0.544935,0.43040974,-0.11919692,0.546415,0.42703055,-0.10100389,0.547759,0.46602062,-0.17949152,0.542831,0.44081086,-0.14948673,0.507082,0.42558479,-0.16706387,0.486228,0.42716189,-0.18355437,0.489262,0.48804508,-0.18594355,0.545761,0.46790833,-0.17425363,0.512453,0.47430081,-0.2019169,0.527871,0.48374586,-0.21900132,0.54748,0.51852551,-0.19942831,0.553387,0.49436018,-0.1878266,0.524258,0.49746915,-0.20809478,0.535227,0.50711892,-0.22011079,0.549733
0.511838,-0.28964773,0.59865,0.48578221,-0.22713574,0.572326,0.48332481,-0.27147129,0.591625,0.43276504,-0.24187826,0.57174,0.39026912,-0.22017736,0.553388,0.3731287,-0.20553562,0.546568,0.44110949,-0.17033422,0.544604,0.4339354,-0.13154175,0.548303,0.43025361,-0.11177205,0.550153,0.42685108,-0.093581072,0.551835,0.46504371,-0.17247354,0.544608,0.43984203,-0.14556599,0.509874,0.42419236,-0.16353275,0.489612,0.42900683,-0.1830884,0.493325,0.48640309,-0.17831424,0.546739,0.46435326,-0.16632001,0.514866,0.47078175,-0.19402142,0.530908,0.48193851,-0.21052374,0.550186,0.51511119,-0.19300148,0.553232,0.49959607,-0.17338122,0.525212,0.49896623,-0.19034068,0.536673,0.5039729,-0.20402554,0.550978
0.51140313,-0.28823139,0.599701,0.48763195,-0.22679503,0.573489,0.48303,-0.2695346,0.592222,0.4340161,-0.24031232,0.572238,0.39190094,-0.21818293,0.553935,0.37125077,-0.20022117,0.545764,0.44352865,-0.1694823,0.545284,0.44011346,-0.12929554,0.549228,0.43738588,-0.10930745,0.5512,0.43130353,-0.092331183,0.552993,0.46787675,-0.17227419,0.545888,0.44434282,-0.14695362,0.511287,0.42735481,-0.16371087,0.491103,0.43045166,-0.18271218,0.494898,0.48952574,-0.17864899,0.548504,0.46765216,-0.16682942,0.516432,0.47370337,-0.19439303,0.532524,0.48461782,-0.2107676,0.551903,0.51845643,-0.19397348,0.555556,0.50940957,-0.17186535,0.527402,0.50948379,-0.18760655,0.5389,0.50940679,-0.20336547,0.553268
0.50826889,-0.28442296,0.599298,0.48814981,-0.22590425,0.574026,0.48273976,-0.26787769,0.592495,0.4354046,-0.23773849,0.573022,0.39337312,-0.21516179,0.554441,0.37142025,-0.19872373,0.545515,0.44644784,-0.16801156,0.547339,0.44043413,-0.12877758,0.550756,0.43734519,-0.10878659,0.552464,0.43251174,-0.091576291,0.554017,0.46933025,-0.17177245,0.547416,0.44751952,-0.14431996,0.513691,0.4316712,-0.16257849,0.494018,0.43266193,-0.18027484,0.498338,0.49050589,-0.17804132,0.549521,0.47112011,-0.16569354,0.518499,0.47731795,-0.1932567,0.535036,0.48686878,-0.21041503,0.554168,0.51867559,-0.1931582,0.555826,0.5099791,-0.1703627,0.528489,0.51054717,-0.186166,0.54034,0.51364396,-0.20051589,0.554555
0.50822853,-0.2835458,0.599754,0.48863195,-0.2255623,0.574557,0.48313678,-0.26710031,0.593402,0.43595841,-0.23767728,0.573785,0.39334988,-0.21483483,0.554469,0.371529,-0.19798858,0.545426,0.44717411,-0.16801425,0.548483,0.4408337,-0.12869016,0.551632,0.43758609,-0.10867616,0.553207,0.43320093,-0.091216882,0.554638,0.46992504,-0.17147271,0.548026,0.44791516,-0.14393746,0.514289,0.43215722,-0.1621786,0.494609,0.43339169,-0.17986915,0.49893,0.49068927,-0.17762668,0.549686,0.47077879,-0.16500629,0.518228,0.47702478,-0.19254202,0.534747,0.48689403,-0.20976234,0.554048,0.51830934,-0.19257499,0.555451,0.50974224,-0.16971979,0.528409,0.51075698,-0.18563248,0.540667,0.51390138,-0.20005031,0.554937
0.50964285,-0.28372449,0.602655,0.49033615,-0.22579287,0.577248,0.48330288,-0.26340522,0.596823,0.43451638,-0.23152604,0.579214,0.39706938,-0.20909499,0.565611,0.37933496,-0.19182003,0.559706,0.44918368,-0.16726797,0.551667,0.44192415,-0.12804536,0.55425,0.43823625,-0.10818708,0.555541,0.43562806,-0.090194966,0.556715,0.47195166,-0.17013869,0.550495,0.44994754,-0.14229011,0.51646,0.43401786,-0.16024705,0.496606,0.43556868,-0.17871479,0.500741,0.49246038,-0.17722803,0.551584,0.47013972,-0.17019748,0.519628,0.47602428,-0.19761134,0.535977,0.48737968,-0.2110576,0.555412,0.518983,-0.19272878,0.556704,0.51091129,-0.17030653,0.529675,0.51160695,-0.18564564,0.541946,0.51417732,-0.19985111,0.556216
0.50915381,-0.28299382,0.603002,0.49046509,-0.22548143,0.577858,0.48335901,-0.26301122,0.597592,0.43517954,-0.2318794,0.580098,0.39703849,-0.20907872,0.565567,0.37925837,-0.1917813,0.559593,0.45017554,-0.16715829,0.55299,0.44263387,-0.12797481,0.555389,0.43881406,-0.10817562,0.556589,0.43603238,-0.090101156,0.55768,0.47255933,-0.17009732,0.551382,0.45108105,-0.14201179,0.517536,0.43514359,-0.15993297,0.497793,0.43662786,-0.17854108,0.502024,0.49262847,-0.17711269,0.552091,0.46958742,-0.17104119,0.519854,0.47552931,-0.1984288,0.53625,0.48726165,-0.2117273,0.555816,0.51866883,-0.19254798,0.55672,0.51117331,-0.17051194,0.529979,0.51181076,-0.18554248,0.542389,0.51399909,-0.19959784,0.556612
0.5084218,-0.2822303,0.602855,0.49037496,-0.22517519,0.578079,0.4832212,-0.26263263,0.597922,0.43557038,-0.23208765,0.580619,0.39674084,-0.20892198,0.565143,0.37881784,-0.19155853,0.558943,0.45100268,-0.16717778,0.554069,0.44320033,-0.12797302,0.556249,0.43925633,-0.10819234,0.557339,0.43630725,-0.090039769,0.55833,0.47298877,-0.17009568,0.55199,0.45197963,-0.14191287,0.518432,0.43612587,-0.15985589,0.498856,0.43763966,-0.17854849,0.503231,0.49260948,-0.17698878,0.552282,0.46941719,-0.17150005,0.520083,0.4754441,-0.19890341,0.536568,0.4872235,-0.21222405,0.556156,0.51810006,-0.19229112,0.556361,0.51113616,-0.17057804,0.529962,0.51179832,-0.18542008,0.542527,0.5137087,-0.19936242,0.55669
0.50684182,-0.28102089,0.601561,0.48916302,-0.22383661,0.57732,0.48267226,-0.26219303,0.597764,0.43606791,-0.23224493,0.581037,0.39791846,-0.20933318,0.566453,0.38019992,-0.1919726,0.560211,0.45055787,-0.16643369,0.555106,0.44340517,-0.12801182,0.558865,0.43501874,-0.10901983,0.560745,0.43654683,-0.090078554,0.562454,0.4720952,-0.1697857,0.551796,0.441038,-0.13421697,0.518609,0.42491165,-0.14687321,0.49925,0.42859829,-0.16708668,0.503724,0.49047668,-0.17568834,0.551031,0.46293716,-0.15527168,0.519819,0.46922399,-0.18247504,0.536357,0.48146185,-0.2010271,0.555566,0.51476396,-0.19011932,0.553775,0.50329448,-0.16382062,0.527631,0.50239382,-0.17749816,0.540088,0.50806586,-0.19593784,0.55412
0.50599722,-0.27945912,0.601946,0.48888561,-0.22363119,0.577453,0.48238608,-0.26192769,0.597815,0.43599912,-0.23214349,0.580798,0.39821279,-0.20936295,0.566652,0.38097912,-0.19219577,0.560898,0.44953358,-0.16639569,0.554642,0.44240949,-0.12810845,0.558669,0.43497064,-0.10900777,0.560683,0.43550324,-0.090211149,0.562514,0.4714627,-0.16956638,0.551663,0.44075141,-0.13412976,0.518272,0.4245227,-0.14673877,0.498793,0.42814053,-0.16690822,0.503186,0.49015306,-0.17547144,0.551191,0.46343143,-0.15543746,0.520374,0.46969728,-0.18265909,0.536898,0.48178857,-0.20116351,0.555943,0.51491892,-0.18994465,0.554321,0.50363597,-0.16393177,0.527989,0.50265056,-0.17758886,0.540364,0.50746159,-0.19532526,0.55443
0.503703,-0.27803178,0.600035,0.48985191,-0.22704909,0.576078,0.48157741,-0.26209201,0.596576,0.44015329,-0.24135866,0.579804,0.40225322,-0.21741681,0.56489,0.38609044,-0.19996956,0.560769,0.45195359,-0.17129628,0.554485,0.44429565,-0.13203723,0.557419,0.43892249,-0.11764723,0.558886,0.4370379,-0.093690223,0.56022,0.47235784,-0.17333306,0.55085,0.44198472,-0.1349734,0.517899,0.42589177,-0.14637422,0.498677,0.42963365,-0.16677209,0.503247,0.49071985,-0.18022259,0.549796,0.46941091,-0.1624987,0.517976,0.47583668,-0.18981086,0.534522,0.4853821,-0.21086328,0.553981,0.51531363,-0.19396951,0.552154,0.50746133,-0.17080745,0.526282,0.50818784,-0.18460586,0.539012,0.50939354,-0.19938954,0.553054
0.50430771,-0.27857746,0.600861,0.49060169,-0.22776673,0.576905,0.48245557,-0.2626983,0.59771,0.44134929,-0.24110186,0.581048,0.40226685,-0.21778937,0.565155,0.38549568,-0.20010044,0.560291,0.45272677,-0.17255285,0.555697,0.44396129,-0.13759775,0.559045,0.43974166,-0.11811056,0.560719,0.43864934,-0.095037865,0.562242,0.47333196,-0.17414,0.55168,0.44331511,-0.13565042,0.518697,0.42725909,-0.14644617,0.499457,0.43095559,-0.1669355,0.503953,0.49151453,-0.18139533,0.550311,0.46947906,-0.15482784,0.518286,0.4765118,-0.18075945,0.534732,0.48528147,-0.20549769,0.554234,0.51567313,-0.19513827,0.552296,0.50738489,-0.17036549,0.52639,0.50797119,-0.18494702,0.539102,0.50962016,-0.19906333,0.553148
0.50489436,-0.27931441,0.60166,0.49099283,-0.22879712,0.577715,0.48351119,-0.26370405,0.599149,0.44252604,-0.24320708,0.583775,0.40343806,-0.21971665,0.567844,0.3866435,-0.20234966,0.56308,0.4536353,-0.17393819,0.557307,0.4445455,-0.13785746,0.560005,0.4400325,-0.11827021,0.561354,0.43752537,-0.096674651,0.562581,0.47360215,-0.17518389,0.5525,0.44436273,-0.13613315,0.519467,0.42831431,-0.14656911,0.500198,0.43187911,-0.16708319,0.504527,0.49097411,-0.18261113,0.55048,0.46989562,-0.15322755,0.518112,0.47691219,-0.17865619,0.534333,0.48509499,-0.20377339,0.553883,0.51455947,-0.19593716,0.551691,0.50446154,-0.17346693,0.525626,0.50364263,-0.18755427,0.538085,0.50495033,-0.20235165,0.55209
0.50733458,-0.28027191,0.603078,0.49288532,-0.2298834,0.578732,0.4883638,-0.26886987,0.599963,0.45098466,-0.24862676,0.58324,0.40737472,-0.22782999,0.560858,0.38347166,-0.20970458,0.550091,0.45299865,-0.17678043,0.557287,0.44528455,-0.13856615,0.561266,0.44130309,-0.11901013,0.563256,0.43760628,-0.10095844,0.565064,0.47365425,-0.17370565,0.553097,0.44590527,-0.13790365,0.519733,0.42813508,-0.14766987,0.500271,0.43423971,-0.17094289,0.504515,0.49067107,-0.1773055,0.551617,0.46973688,-0.15310012,0.518976,0.47787199,-0.17897058,0.535189,0.48865072,-0.20439325,0.554846,0.51431575,-0.18924606,0.553528,0.49580908,-0.17499091,0.528419,0.49499511,-0.19220154,0.540264,0.50116299,-0.20598357,0.553694
0.51928865,-0.2873398,0.608774,0.50148408,-0.2306388,0.581993,0.49587379,-0.27289694,0.605504,0.45545327,-0.25391326,0.588572,0.40932356,-0.23989185,0.566662,0.38407691,-0.22427273,0.556521,0.45382199,-0.17778242,0.558598,0.44532056,-0.13901926,0.561466,0.44096005,-0.11923899,0.5629,0.43692932,-0.10101483,0.564204,0.47389887,-0.17725543,0.553793,0.44249524,-0.14473688,0.51813,0.42559508,-0.15852309,0.497327,0.42870519,-0.17413695,0.500017,0.49090884,-0.17747832,0.552004,0.46401728,-0.1559898,0.517026,0.47323598,-0.18336981,0.53186,0.48676114,-0.20315292,0.551909,0.51594572,-0.18919077,0.553916,0.49476129,-0.17445564,0.527524,0.4932988,-0.1915877,0.538307,0.49877656,-0.20597973,0.551776
0.52165663,-0.28860923,0.609815,0.49950649,-0.23356481,0.583969,0.49825749,-0.27466413,0.606907,0.45564732,-0.26712678,0.593608,0.40850267,-0.25220618,0.572676,0.38333981,-0.23823416,0.563617,0.45508808,-0.18351816,0.561697,0.44836369,-0.14886108,0.566466,0.44512078,-0.13027976,0.568851,0.44220593,-0.10432997,0.571018,0.47631068,-0.1794558,0.556754,0.44557572,-0.16200959,0.521941,0.42840106,-0.18157307,0.501633,0.43108071,-0.19451597,0.504846,0.49446822,-0.18292864,0.554775,0.46753719,-0.17141444,0.520543,0.47440416,-0.19871827,0.53581,0.48826615,-0.21330652,0.555731,0.5185344,-0.19396567,0.556321,0.49744065,-0.17653342,0.530607,0.4963572,-0.19394798,0.541736,0.50162656,-0.20829593,0.555101
0.5319606,-0.29351468,0.612569,0.50538085,-0.24963791,0.586253,0.50750642,-0.28763376,0.610112,0.45812256,-0.27710444,0.595388,0.41286351,-0.26104937,0.576371,0.38579374,-0.2421765,0.565557,0.45782691,-0.19770564,0.5642,0.45343706,-0.1613205,0.570983,0.45120932,-0.14299794,0.574375,0.44916464,-0.12626673,0.577458,0.47740337,-0.19430625,0.558542,0.44760239,-0.17273377,0.523261,0.43036,-0.19174287,0.50268,0.43269495,-0.2044302,0.505425,0.4955192,-0.19561614,0.556013,0.46659511,-0.17900226,0.521118,0.47704843,-0.20716999,0.535887,0.49259393,-0.22745464,0.555878,0.5212045,-0.20486728,0.556978,0.49606926,-0.19153842,0.531283,0.49478901,-0.20937854,0.542063,0.5005347,-0.22403163,0.555286
0.5403214,-0.3140503,0.61661,0.5120879,-0.26510942,0.589393,0.51978914,-0.31088965,0.614488,0.47133836,-0.293741,0.599238,0.42685915,-0.27678701,0.581598,0.40103386,-0.2600496,0.570794,0.45953393,-0.21613271,0.567108,0.45237322,-0.17787725,0.570909,0.44868457,-0.15844887,0.57281,0.44529106,-0.140635,0.574537,0.47828418,-0.20987692,0.560736,0.44652441,-0.19050578,0.524615,0.43156905,-0.20867891,0.503545,0.43446513,-0.21904496,0.505522,0.49614671,-0.2088638,0.557691,0.46652841,-0.18928889,0.521787,0.4775371,-0.21738013,0.535774,0.49373496,-0.23840447,0.555859,0.52228502,-0.2153542,0.55818,0.49900523,-0.20450756,0.532246,0.49860841,-0.22287275,0.542455,0.50437699,-0.23709482,0.555542
0.54986533,-0.32965268,0.622349,0.51692981,-0.27928396,0.59336,0.52452345,-0.31955221,0.619815,0.47603553,-0.30726385,0.604052,0.43195855,-0.28930335,0.587129,0.40621023,-0.27184794,0.57598,0.46398594,-0.22831119,0.569283,0.45521883,-0.18930729,0.57116,0.45064251,-0.1694949,0.572098,0.44643579,-0.15130727,0.572951,0.48277776,-0.22267612,0.562836,0.44930193,-0.20432053,0.525139,0.43261001,-0.22154793,0.503148,0.43432029,-0.23050343,0.503951,0.50072027,-0.2222731,0.559874,0.46943279,-0.20369611,0.52248,0.47873347,-0.23169378,0.535379,0.49487319,-0.25219853,0.555631,0.52703245,-0.22969139,0.560727,0.50505884,-0.21731669,0.533714,0.50375262,-0.23516146,0.543083,0.50861552,-0.24964596,0.556222
0.54172459,-0.3380134,0.616768,0.51696889,-0.29025687,0.596693,0.51948944,-0.32816778,0.616894,0.47181155,-0.31742025,0.607663,0.43108621,-0.30396515,0.594784,0.40712709,-0.28829509,0.58675,0.47539343,-0.24035349,0.582351,0.46113854,-0.19991601,0.579856,0.45457542,-0.18001457,0.579409,0.44987313,-0.15744759,0.579003,0.4944602,-0.23635958,0.575554,0.46730477,-0.23292764,0.546111,0.45560002,-0.25208118,0.528936,0.46244114,-0.26152768,0.534791,0.51173509,-0.23713614,0.571583,0.48468688,-0.22495825,0.541757,0.49887675,-0.25597667,0.55886,0.51531994,-0.2766464,0.577736,0.53546149,-0.24562778,0.569897,0.51492247,-0.23590248,0.549006,0.51709671,-0.25664186,0.561687,0.52292338,-0.27165073,0.573958
0.53967265,-0.34917997,0.618258,0.51753078,-0.30138419,0.598207,0.51754144,-0.33835797,0.61809,0.4723297,-0.32893794,0.60876,0.4310085,-0.31532476,0.595112,0.40720651,-0.29991073,0.587429,0.47519611,-0.25150165,0.583518,0.46121828,-0.21151029,0.581934,0.45473387,-0.19179598,0.581888,0.44891298,-0.17388861,0.581949,0.4945512,-0.24736058,0.577093,0.46755564,-0.24430107,0.547688,0.45622001,-0.26299137,0.530536,0.46324671,-0.27223493,0.536507,0.51212288,-0.24802783,0.573426,0.48523798,-0.23625553,0.543755,0.49980515,-0.26768899,0.561009,0.5163741,-0.28834007,0.579883,0.53629603,-0.25641932,0.572097,0.51560422,-0.24699107,0.551048,0.51801853,-0.26811935,0.563828,0.52402877,-0.28319944,0.576191
0.54124917,-0.36183112,0.621664,0.519472,-0.31409116,0.601358,0.51991431,-0.35089766,0.62215,0.47504958,-0.34053068,0.613492,0.43449419,-0.32712569,0.600186,0.41032658,-0.31092378,0.591701,0.47961887,-0.26315441,0.587298,0.46611331,-0.22421179,0.587324,0.4597678,-0.20498469,0.587878,0.45406681,-0.18753407,0.588469,0.49797536,-0.25975821,0.579978,0.46758992,-0.24709511,0.550295,0.45285157,-0.26766502,0.532981,0.46110183,-0.28051416,0.538563,0.51466888,-0.26106371,0.575595,0.48310843,-0.25174411,0.545379,0.49686035,-0.28331565,0.56218,0.51502847,-0.30347245,0.581092,0.53764995,-0.27028999,0.573455,0.51328874,-0.26182545,0.552651,0.51553536,-0.28319059,0.565126,0.52433594,-0.29557767,0.577285
0.5401516,-0.37691156,0.627924,0.51708747,-0.32850163,0.607487,0.52038749,-0.36504741,0.629318,0.47057874,-0.35754364,0.619298,0.43166428,-0.34514572,0.610131,0.40965045,-0.3293612,0.604007,0.48147196,-0.27576238,0.594458,0.46627215,-0.23417454,0.590059,0.45915582,-0.21361316,0.588476,0.4527521,-0.19492182,0.587134,0.49836647,-0.27327701,0.585968,0.46070844,-0.25588522,0.556143,0.445487,-0.27339947,0.538745,0.45414443,-0.29017994,0.54387,0.51369987,-0.27539327,0.580633,0.47700381,-0.27918258,0.553111,0.48651518,-0.3080069,0.569493,0.50161272,-0.33012834,0.587968,0.53476243,-0.28573718,0.577384,0.49432199,-0.28594497,0.557071,0.49373123,-0.30353133,0.569151,0.4988526,-0.31735146,0.580984
0.5314372,-0.38732763,0.626656,0.51372363,-0.3378911,0.606339,0.51111689,-0.37327853,0.626318,0.46539635,-0.3659191,0.618953,0.4269983,-0.35058394,0.609203,0.41133636,-0.33405212,0.607784,0.47856801,-0.28292274,0.591248,0.46612337,-0.24277165,0.590162,0.46011612,-0.22278351,0.589902,0.45470265,-0.20460966,0.589738,0.49748616,-0.28232927,0.584947,0.46311468,-0.26505393,0.555291,0.44760105,-0.28258552,0.537992,0.4555051,-0.29976908,0.543864,0.51435227,-0.28603311,0.581403,0.48020854,-0.28881236,0.554182,0.49003437,-0.31834768,0.571526,0.50424037,-0.34117683,0.590207,0.53695919,-0.29834815,0.580261,0.4973178,-0.29685934,0.558967,0.49707217,-0.31498366,0.571696,0.50245687,-0.32922803,0.584126
0.53675359,-0.3939076,0.631022,0.51746539,-0.34312718,0.609045,0.51521513,-0.38450375,0.630195,0.47321498,-0.373893,0.619984,0.4313672,-0.35879737,0.606016,0.40890506,-0.34261998,0.599242,0.47790415,-0.29312943,0.592149,0.4667482,-0.25489141,0.594186,0.46111124,-0.2357484,0.595205,0.45601075,-0.21834109,0.596171,0.49684414,-0.29096765,0.585905,0.45946173,-0.27783644,0.554657,0.44393761,-0.29489202,0.53643,0.45214156,-0.31056775,0.541458,0.51421819,-0.29341691,0.582542,0.47808626,-0.29816405,0.553334,0.48762077,-0.32859972,0.570015,0.50167902,-0.35301973,0.588473,0.53836931,-0.30173972,0.581865,0.49700581,-0.30623553,0.559379,0.49655589,-0.3241901,0.571602,0.50313071,-0.33314348,0.584256
0.53974391,-0.4065547,0.635661,0.51780859,-0.36145419,0.612996,0.52023648,-0.3973561,0.635322,0.47329028,-0.38493062,0.624609,0.43443055,-0.36938405,0.61369,0.41316772,-0.34912936,0.60632,0.47810802,-0.30700234,0.596207,0.46731597,-0.26973764,0.599532,0.46190428,-0.25105915,0.601195,0.45699675,-0.23406299,0.602735,0.49596256,-0.30513742,0.589131,0.45489272,-0.28647703,0.557201,0.43764247,-0.30177166,0.538575,0.44581415,-0.31908091,0.542988,0.5124368,-0.30787089,0.585139,0.47699855,-0.31650776,0.560046,0.48790326,-0.34356886,0.57637,0.50511724,-0.35967722,0.594199,0.53542536,-0.31918091,0.583819,0.49770579,-0.3176255,0.561255,0.49763052,-0.3353099,0.573031,0.50488648,-0.34804944,0.585539
0.5369394,-0.4122765,0.634265,0.51545061,-0.36198817,0.613254,0.51647216,-0.39897212,0.634254,0.46806562,-0.39495972,0.628107,0.4290656,-0.38428313,0.619193,0.40704044,-0.36953662,0.613847,0.477888,-0.30792316,0.598065,0.468237,-0.27092221,0.602108,0.46339911,-0.25238315,0.60413,0.45902612,-0.23552388,0.606011,0.49588358,-0.30628633,0.591129,0.45659805,-0.28910499,0.560778,0.43982394,-0.30466681,0.543073,0.44845406,-0.32299332,0.548409,0.51229896,-0.30916326,0.587119,0.47822531,-0.31735872,0.563616,0.48907243,-0.34573647,0.580693,0.50344087,-0.367105,0.598145,0.5348819,-0.32055833,0.585528,0.49890691,-0.31803112,0.564042,0.50054391,-0.33728983,0.576401,0.50853948,-0.35097125,0.588755
0.53949991,-0.41449054,0.635281,0.51787672,-0.36377645,0.614731,0.51811752,-0.40551682,0.636033,0.48045775,-0.40083915,0.62894,0.43944942,-0.38940792,0.617353,0.41696137,-0.37577791,0.612256,0.47785471,-0.31560997,0.600822,0.46233089,-0.27979824,0.603757,0.45452002,-0.26179067,0.605224,0.44740856,-0.24537107,0.606581,0.49664723,-0.30850187,0.593091,0.45524373,-0.29196191,0.563164,0.43841081,-0.30588698,0.545707,0.44896741,-0.32525604,0.551033,0.51259144,-0.31027015,0.588391,0.47947931,-0.3180005,0.565549,0.49097665,-0.34686189,0.582494,0.50482884,-0.3684397,0.598789,0.53480761,-0.32026307,0.585911,0.50026854,-0.31817752,0.565136,0.50179199,-0.33796459,0.577417,0.50923087,-0.35210026,0.589491
0.54067843,-0.42143925,0.637429,0.52034026,-0.37005136,0.616368,0.52003337,-0.4091748,0.637782,0.47907938,-0.40891886,0.632838,0.44118568,-0.39868617,0.625126,0.42127754,-0.38384079,0.621232,0.4766988,-0.32245797,0.601596,0.46350688,-0.28770316,0.606734,0.45687467,-0.27026705,0.609303,0.45098367,-0.25091833,0.611639,0.49433116,-0.31801853,0.594191,0.45523877,-0.29331508,0.56378,0.4381977,-0.3063017,0.546041,0.44827063,-0.32610014,0.551207,0.51080675,-0.31855982,0.5898,0.47959844,-0.3184091,0.565678,0.49111169,-0.34768716,0.582514,0.50522692,-0.36958931,0.59898,0.53449271,-0.32467235,0.587765,0.50336424,-0.32019155,0.566472,0.50339618,-0.33954536,0.578687,0.51046719,-0.35376115,0.590918
0.54070662,-0.42370514,0.637616,0.51664699,-0.37639187,0.617008,0.5234591,-0.41756235,0.640008,0.47952821,-0.41229737,0.634956,0.44242134,-0.40224277,0.628423,0.42045992,-0.38874227,0.623798,0.47097693,-0.33132563,0.605092,0.45869417,-0.29579939,0.609865,0.4525042,-0.27792118,0.612251,0.4468595,-0.26160824,0.614434,0.48620035,-0.32436042,0.595308,0.44568286,-0.29839131,0.56534,0.42595797,-0.30734036,0.547859,0.43241397,-0.32901005,0.552393,0.50081911,-0.32274584,0.588921,0.46847332,-0.28514814,0.558472,0.47264601,-0.30600901,0.57136,0.48369932,-0.33754791,0.590502,0.52225266,-0.32854934,0.584451,0.50074539,-0.31896418,0.564702,0.50085967,-0.33863824,0.576255,0.50684036,-0.35257172,0.587685
0.54116059,-0.43642335,0.640467,0.51001393,-0.38999333,0.617806,0.51922254,-0.43079246,0.642996,0.47481668,-0.42506123,0.638278,0.43533843,-0.41029429,0.627593,0.41257375,-0.39433851,0.620699,0.46834937,-0.3408362,0.604577,0.45686582,-0.30623943,0.610547,0.45104584,-0.28875675,0.613532,0.44570953,-0.27275718,0.616245,0.4834311,-0.33396474,0.593944,0.44819466,-0.28158012,0.562089,0.4282748,-0.28399975,0.543507,0.43184668,-0.30452507,0.546518,0.49768742,-0.3325284,0.587025,0.46320572,-0.29343068,0.554164,0.46421449,-0.29950397,0.561031,0.47574584,-0.32819838,0.579905,0.51836563,-0.33867516,0.582233,0.504246,-0.29577171,0.554531,0.51063923,-0.31169384,0.565858,0.51971521,-0.32880626,0.58
0.53641611,-0.44272712,0.640923,0.51010597,-0.39240487,0.619886,0.51379736,-0.43758023,0.643655,0.47286153,-0.42478136,0.638786,0.43389877,-0.40835517,0.627948,0.41429089,-0.39121152,0.622015,0.47051775,-0.34316928,0.608082,0.45750298,-0.30775226,0.612527,0.45096116,-0.28996377,0.61475,0.44499416,-0.27374641,0.616771,0.4860815,-0.33686305,0.597734,0.4526545,-0.28336997,0.567383,0.43346903,-0.28010968,0.549678,0.43669502,-0.3003393,0.553736,0.50053546,-0.33585781,0.59092,0.46744361,-0.2971317,0.559419,0.4496527,-0.29016046,0.543302,0.44909977,-0.30878724,0.546862,0.52105943,-0.34244785,0.586006,0.50873823,-0.30014133,0.559814,0.51399524,-0.31507142,0.56978,0.52297232,-0.33290049,0.584107
0.52507548,-0.4423599,0.633061,0.50747027,-0.39186041,0.61777,0.50499185,-0.43220816,0.634471,0.46567045,-0.42375112,0.633879,0.42464219,-0.41053775,0.622315,0.41296678,-0.39630403,0.625266,0.47047692,-0.34385656,0.608477,0.45779144,-0.30872949,0.613521,0.45140099,-0.29105669,0.616043,0.44556426,-0.27492794,0.618336,0.48905761,-0.33969801,0.601669,0.46186982,-0.28847499,0.577369,0.44997856,-0.25940658,0.563193,0.43879728,-0.25394983,0.553068,0.50573592,-0.34023895,0.597303,0.487021,-0.29191705,0.572475,0.47624177,-0.27314067,0.559772,0.48241854,-0.27054683,0.568061,0.52823154,-0.34829275,0.594428,0.52295368,-0.30705606,0.574509,0.51591802,-0.30144954,0.565357,0.51876744,-0.31486714,0.571983
0.51991852,-0.43946478,0.627738,0.50541603,-0.39129276,0.615797,0.49958876,-0.42896975,0.628587,0.46131649,-0.42637322,0.630082,0.42492105,-0.4166231,0.623181,0.41279486,-0.4052267,0.629121,0.47010924,-0.34423287,0.608226,0.45716789,-0.30906343,0.613088,0.45065053,-0.2913715,0.61552,0.44469774,-0.27522565,0.61773,0.490212,-0.34114717,0.603223,0.46784383,-0.29018151,0.582505,0.45662261,-0.26257841,0.57042,0.44847449,-0.24305209,0.561788,0.50798134,-0.34243843,0.600072,0.49402812,-0.29164828,0.579163,0.48570679,-0.27025397,0.568466,0.49397507,-0.26809346,0.578894,0.53098756,-0.35222038,0.598132,0.53036358,-0.31085404,0.581882,0.52969945,-0.29625487,0.574416,0.53666062,-0.3045561,0.582632
0.52106555,-0.43654792,0.626247,0.50657878,-0.39208462,0.61658,0.49949231,-0.42902015,0.62787,0.46372748,-0.42732788,0.631401,0.4289602,-0.41913514,0.626263,0.41591942,-0.41225212,0.632677,0.47328958,-0.34639084,0.611603,0.4575159,-0.30995037,0.613549,0.44906524,-0.2922993,0.614523,0.44172928,-0.27571632,0.615408,0.49334108,-0.34309514,0.60639,0.475206,-0.29137822,0.587912,0.46373249,-0.26380584,0.577133,0.4547666,-0.24530861,0.569434,0.5108913,-0.34413088,0.602883,0.49969668,-0.29314958,0.583972,0.49192176,-0.27365654,0.574297,0.50136001,-0.26894337,0.585568,0.53368202,-0.35236916,0.600179,0.53576044,-0.31178931,0.585705,0.53431519,-0.2993803,0.579055,0.54635477,-0.29790882,0.587879
0.52003712,-0.43999721,0.626681,0.50806455,-0.39348363,0.617864,0.50058796,-0.43038092,0.628679,0.46823743,-0.43015868,0.633123,0.43408617,-0.42328016,0.629981,0.4174137,-0.41482065,0.634175,0.47570637,-0.34924249,0.613966,0.45650841,-0.31171626,0.612734,0.44669232,-0.29385871,0.612118,0.43839879,-0.27599277,0.611898,0.49551546,-0.34533345,0.60857,0.48046522,-0.29436986,0.593535,0.46980079,-0.2677695,0.584765,0.46213677,-0.24847735,0.578501,0.51293683,-0.34624114,0.604843,0.50258384,-0.29485708,0.586496,0.49648292,-0.27470943,0.577109,0.5071853,-0.26531376,0.588606,0.53537397,-0.35428612,0.601752,0.53825405,-0.3131949,0.587845,0.53708517,-0.30090142,0.581455,0.54985247,-0.29851687,0.590454
0.52118644,-0.44099718,0.626964,0.51322999,-0.39808477,0.620424,0.50218953,-0.43194422,0.629594,0.47176235,-0.43374681,0.63463,0.43741067,-0.42657613,0.631248,0.41995399,-0.41799919,0.634897,0.48252002,-0.35592874,0.618959,0.45722584,-0.31688249,0.612083,0.4445693,-0.29734269,0.608645,0.43305737,-0.27956918,0.605519,0.50262991,-0.35157867,0.613535,0.48485641,-0.29830019,0.598722,0.4740354,-0.27195408,0.590081,0.46631932,-0.25160705,0.583909,0.51997849,-0.35164543,0.6096,0.50990586,-0.30123091,0.593808,0.50369008,-0.27910712,0.585729,0.49812414,-0.25987685,0.578384,0.54167461,-0.35761024,0.605921,0.5439961,-0.31659305,0.593726,0.54317845,-0.30451687,0.588123,0.55580825,-0.30182227,0.597641
0.52216061,-0.44184121,0.627323,0.51413868,-0.39896388,0.620868,0.50307412,-0.43284004,0.629894,0.47239142,-0.43400611,0.634589,0.43859729,-0.42725728,0.632004,0.42155842,-0.41896918,0.635922,0.48321902,-0.35675324,0.619392,0.4562947,-0.31864836,0.609991,0.44241266,-0.29898868,0.605291,0.42976199,-0.28128156,0.601018,0.50341062,-0.35238478,0.614069,0.4853922,-0.29928103,0.599355,0.47446022,-0.27269324,0.590772,0.46670775,-0.25232876,0.584642,0.52043324,-0.35149277,0.610211,0.50953683,-0.3015186,0.594568,0.50419164,-0.27965125,0.586564,0.49863662,-0.25987617,0.579288,0.54265988,-0.35849579,0.60661,0.54444691,-0.31732809,0.594538,0.54366192,-0.30480242,0.588991,0.5561957,-0.30213599,0.598556
0.52296621,-0.44253833,0.62766,0.51473143,-0.39952813,0.621192,0.50371296,-0.43349442,0.630066,0.47259486,-0.43403394,0.63442,0.43908383,-0.42749379,0.632228,0.42245422,-0.41948464,0.636436,0.48348696,-0.35710521,0.619504,0.4561841,-0.31880701,0.609961,0.44220902,-0.29918357,0.605189,0.4294612,-0.28156117,0.600851,0.50383704,-0.35281312,0.61438,0.4856717,-0.2998432,0.599683,0.47466663,-0.27305914,0.59111,0.46686465,-0.25271975,0.584986,0.52105411,-0.35212794,0.610687,0.51007071,-0.30217855,0.595124,0.50457506,-0.28002352,0.587161,0.49902319,-0.25991723,0.579922,0.5434833,-0.35918062,0.607283,0.54497265,-0.31791801,0.595304,0.5442181,-0.30512293,0.5898,0.55671255,-0.30247869,0.599411
0.52290174,-0.44418113,0.628712,0.5075569,-0.40676586,0.622817,0.5023221,-0.43490544,0.629787,0.45878615,-0.43649597,0.631664,0.42451473,-0.4282146,0.628243,0.41564464,-0.42044969,0.635594,0.47828629,-0.36080917,0.61989,0.45510165,-0.31864266,0.609364,0.44122536,-0.29875482,0.6041,0.42858649,-0.280981,0.599315,0.50028857,-0.35915115,0.616608,0.48344915,-0.30831552,0.602436,0.47620389,-0.27603884,0.594169,0.46879692,-0.25521223,0.588264,0.51891817,-0.36143238,0.614385,0.50795933,-0.31218841,0.60011,0.50235235,-0.28701342,0.592807,0.50224871,-0.26234362,0.586167,0.54204336,-0.370929,0.612637,0.54325694,-0.32967432,0.601986,0.54357367,-0.3155132,0.597093,0.56153514,-0.30709934,0.607242
0.52192408,-0.44585251,0.628895,0.50769626,-0.40687754,0.622988,0.50154976,-0.43555166,0.629766,0.45866559,-0.43638126,0.631498,0.42437756,-0.42807623,0.62804,0.4139798,-0.42053026,0.634946,0.47821839,-0.36075795,0.619802,0.45457629,-0.31863026,0.609171,0.4409343,-0.29869997,0.603856,0.42851261,-0.2809285,0.599024,0.50041757,-0.35924377,0.616767,0.4836281,-0.30842965,0.602659,0.47589474,-0.27672084,0.59443,0.4686547,-0.25576235,0.588551,0.51922561,-0.36164652,0.614749,0.50837663,-0.31244488,0.600603,0.5028252,-0.28728359,0.593365,0.50176728,-0.26298427,0.586786,0.5425813,-0.37129713,0.613245,0.54384533,-0.33003138,0.602638,0.54418453,-0.31586777,0.597764,0.56130392,-0.30807482,0.607936
0.52267052,-0.44748359,0.629249,0.51365161,-0.40480716,0.623082,0.50247385,-0.43758482,0.630459,0.468261,-0.43933368,0.631916,0.4355331,-0.43356537,0.630767,0.42555104,-0.42401993,0.639239,0.47878634,-0.36231822,0.620131,0.45046452,-0.32521775,0.609821,0.43602443,-0.30535386,0.604666,0.4238924,-0.29196223,0.59998,0.50055674,-0.35972513,0.616593,0.48335271,-0.30848074,0.601812,0.47479818,-0.27670445,0.59319,0.4674133,-0.25554015,0.587032,0.51913559,-0.36124719,0.614182,0.50778195,-0.31153693,0.599267,0.50499288,-0.28435366,0.591636,0.49965537,-0.26213086,0.584698,0.54247059,-0.36986204,0.612256,0.54443301,-0.32880898,0.601492,0.54970483,-0.30871129,0.596547,0.56141191,-0.30731819,0.606652
0.52279089,-0.44826613,0.628628,0.51331347,-0.40507744,0.622707,0.50251495,-0.43853228,0.629813,0.46791865,-0.43901248,0.631454,0.43558765,-0.43361967,0.630846,0.42488373,-0.42478106,0.638905,0.47876815,-0.36287016,0.619904,0.45040026,-0.32517135,0.609734,0.43601217,-0.30534527,0.604649,0.4239249,-0.29198462,0.600026,0.5006037,-0.35994968,0.616478,0.48365225,-0.3087853,0.601933,0.47493051,-0.27722556,0.593448,0.4676729,-0.25602325,0.587388,0.51929481,-0.36118952,0.61414,0.50823505,-0.31154366,0.599485,0.50503406,-0.28470614,0.591987,0.499827,-0.26240161,0.585171,0.54285889,-0.36944661,0.612262,0.54553138,-0.32868206,0.601806,0.55009005,-0.30924634,0.597002,0.56216219,-0.30769599,0.607207
0.52283445,-0.44953382,0.628385,0.51043091,-0.4082585,0.622727,0.50207018,-0.43946147,0.628986,0.46542923,-0.43944908,0.629809,0.43500359,-0.43527891,0.631587,0.42313329,-0.43014007,0.639804,0.47864361,-0.36531505,0.619387,0.45020834,-0.32523641,0.608902,0.4360183,-0.3052428,0.60366,0.42382849,-0.291543,0.598894,0.50079881,-0.3609245,0.616773,0.48424607,-0.30971015,0.602609,0.47459238,-0.27996144,0.594347,0.46830601,-0.25739802,0.588445,0.52006163,-0.36252924,0.615082,0.51003247,-0.31308519,0.600923,0.5061088,-0.28807723,0.593679,0.50246043,-0.26379029,0.587093,0.54437405,-0.3712327,0.613932,0.54830879,-0.33092244,0.604274,0.55276474,-0.31344097,0.599836,0.55190848,-0.302583,0.595921
0.52215972,-0.45057258,0.627844,0.51021404,-0.40856697,0.622368,0.50143687,-0.44057999,0.628489,0.4644353,-0.43990605,0.629327,0.4344936,-0.43589318,0.631643,0.42298782,-0.43069901,0.640015,0.47841322,-0.36556088,0.619216,0.45036953,-0.32545466,0.608834,0.43636618,-0.30543295,0.603643,0.42420238,-0.29161275,0.598925,0.50063356,-0.36136215,0.616606,0.48429021,-0.31010186,0.602622,0.47476057,-0.28033108,0.594464,0.46846146,-0.25781792,0.588637,0.51989051,-0.36294823,0.614903,0.51038901,-0.31359743,0.600888,0.50673275,-0.28882706,0.593718,0.5027619,-0.26439793,0.5872,0.54420109,-0.37161909,0.613711,0.54861932,-0.3314888,0.604218,0.55288255,-0.31421962,0.599856,0.55214393,-0.3031109,0.596007
