sluyters/QuantumLeap/backend/src/datasets/dynamic/HandGestureDataset_SHREC2017_csv/Gesture9/finger_1/subject_28_essai_8_skeletons_world.csv
Wrist_x,Wrist_y,Wrist_z,Palm_x,Palm_y,Palm_z,thumb_base_x,thumb_base_y,thumb_base_z,thumb_first_joint_x,thumb_first_joint_y,thumb_first_joint_z,thumb_second_joint_x,thumb_second_joint_y,thumb_second_joint_z,thumb_tip_x,thumb_tip_y,thumb_tip_z,index_base_x,index_base_y,index_base_z,index_first_joint_x,index_first_joint_y,index_first_joint_z,index_second_joint_x,index_second_joint_y,index_second_joint_z,index_tip_x,index_tip_y,index_tip_z,middle_base_x,middle_base_y,middle_base_z,middle_first_joint_x,middle_first_joint_y,middle_first_joint_z,middle_second_joint_x,middle_second_joint_y,middle_second_joint_z,middle_tip_x,middle_tip_y,middle_tip_z,ring_base_x,ring_base_y,ring_base_z,ring_first_joint_x,ring_first_joint_y,ring_first_joint_z,ring_second_joint_x,ring_second_joint_y,ring_second_joint_z,ring_tip_x,ring_tip_y,ring_tip_z,pinky_base_x,pinky_base_y,pinky_base_z,pinky_first_joint_x,pinky_first_joint_y,pinky_first_joint_z,pinky_second_joint_x,pinky_second_joint_y,pinky_second_joint_z,pinky_tip_x,pinky_tip_y,pinky_tip_z,
0.378050343,-0.376695822,0.485599,0.354622853,-0.332553632,0.468651,0.348306461,-0.370378091,0.478011,0.315997825,-0.35436743,0.455879,0.289290449,-0.3368896,0.435654,0.274725232,-0.319369966,0.421329,0.307948372,-0.28607679,0.448402,0.288634534,-0.280040282,0.425318,0.282219626,-0.288349733,0.413777,0.290193621,-0.311644339,0.420649,0.336168812,-0.285728463,0.453565,0.309475497,-0.249062388,0.430064,0.303982346,-0.261740394,0.416355,0.314178817,-0.283012128,0.42345,0.362038524,-0.290487089,0.459483,0.345618578,-0.295219043,0.43592,0.339001385,-0.308187687,0.423865,0.347651682,-0.332498353,0.431207,0.397195922,-0.303162735,0.46932,0.373224419,-0.277971792,0.448379,0.368348328,-0.286471495,0.438758,0.36422468,-0.294315011,0.430268
0.375801044,-0.387687931,0.485643,0.354572912,-0.342827741,0.468585,0.348249628,-0.38033814,0.477982,0.315904942,-0.364862845,0.455745,0.289148345,-0.347494088,0.43544,0.274592215,-0.330066608,0.421125,0.307792476,-0.295851985,0.448175,0.288403121,-0.290087806,0.424977,0.281629869,-0.297630708,0.413378,0.289192775,-0.320999722,0.420188,0.33604726,-0.295694306,0.453401,0.310006041,-0.262685376,0.429798,0.304992182,-0.276399705,0.416029,0.315166916,-0.297137845,0.423069,0.361958155,-0.300643266,0.459381,0.345448909,-0.305634506,0.435706,0.338674866,-0.318062493,0.423593,0.347345889,-0.343646618,0.430871,0.396820789,-0.315730694,0.46931,0.373142846,-0.288545146,0.448281,0.368231634,-0.296994168,0.438619,0.364076541,-0.304764873,0.430093
0.369465559,-0.386119052,0.480711,0.349208339,-0.339699523,0.465316,0.341402608,-0.377298935,0.472883,0.310605108,-0.36212695,0.450834,0.287635902,-0.349975422,0.428427,0.279711736,-0.336483843,0.41126,0.304841868,-0.292261359,0.445717,0.287067737,-0.280918479,0.423492,0.280300617,-0.28815733,0.41238,0.288155668,-0.307506628,0.41963,0.333670632,-0.293445808,0.451612,0.310980125,-0.261868852,0.429442,0.306082825,-0.276553077,0.41651,0.315719394,-0.297458107,0.424088,0.359721666,-0.299436472,0.45798,0.343390598,-0.304657668,0.435444,0.331705944,-0.311390599,0.423914,0.334574949,-0.337730525,0.431698,0.394108884,-0.315611548,0.468073,0.372098618,-0.288570917,0.448024,0.367740327,-0.297228227,0.438812,0.364063464,-0.305264479,0.430684
0.365644514,-0.383024406,0.477698,0.3480028,-0.328348911,0.4637,0.338794352,-0.370333596,0.470116,0.309128915,-0.350087161,0.448671,0.285720565,-0.337596936,0.425493,0.277644504,-0.324101116,0.40811,0.304528339,-0.282174801,0.445281,0.287919129,-0.271679757,0.424121,0.281449971,-0.279310487,0.413541,0.288642915,-0.302083929,0.421291,0.3334049,-0.283252493,0.451241,0.311270858,-0.250572749,0.430323,0.306667724,-0.265307853,0.41812,0.316698889,-0.286821967,0.426221,0.35939089,-0.289038392,0.457524,0.345690415,-0.283562713,0.436132,0.335081281,-0.291861654,0.425187,0.338323603,-0.318248572,0.433514,0.393481112,-0.304760479,0.467276,0.37229011,-0.278290466,0.448175,0.368298382,-0.287299681,0.439399,0.364948419,-0.295688006,0.431655
0.363623915,-0.378345654,0.477043,0.349468486,-0.326165353,0.46478,0.337001573,-0.367354633,0.470179,0.30997712,-0.342596185,0.449962,0.284816001,-0.329168058,0.427226,0.277963834,-0.312833206,0.41038,0.309002707,-0.276603325,0.448359,0.292793267,-0.270235404,0.428784,0.285915543,-0.27059779,0.418997,0.290820546,-0.288238817,0.427507,0.336635449,-0.281854056,0.453865,0.318578167,-0.253342833,0.434552,0.313724489,-0.269997427,0.423286,0.322160888,-0.290602591,0.432107,0.361933938,-0.289668303,0.459604,0.350426362,-0.282289604,0.439832,0.34147775,-0.287357894,0.429716,0.342537413,-0.317307268,0.43884,0.394941185,-0.305669822,0.468421,0.37514992,-0.278685499,0.45063,0.371409787,-0.287842071,0.442456,0.368515638,-0.294497044,0.435244
0.365128692,-0.372660608,0.476928,0.352438186,-0.316388098,0.465528,0.338595147,-0.358956673,0.470385,0.308360338,-0.335182711,0.450745,0.286415113,-0.320417257,0.429389,0.279697806,-0.303880118,0.41294,0.310842468,-0.271087783,0.450052,0.295431941,-0.259075712,0.43125,0.287861693,-0.261866155,0.421849,0.292999453,-0.279182949,0.43071,0.340529297,-0.272079758,0.45538,0.32284615,-0.243179399,0.436869,0.314868437,-0.259247133,0.426071,0.325211187,-0.281514134,0.435229,0.365532766,-0.276939189,0.460889,0.351061969,-0.271717079,0.441912,0.341875367,-0.276882174,0.432203,0.344823869,-0.303244411,0.441696,0.397142922,-0.296250099,0.469286,0.377825848,-0.266375901,0.452143,0.374919457,-0.275490641,0.444266,0.372191479,-0.282731552,0.437316
0.378894317,-0.369121533,0.482883,0.352924439,-0.316027769,0.469785,0.350427487,-0.357463213,0.474172,0.322513541,-0.323157449,0.451717,0.291325204,-0.295677173,0.434508,0.272058042,-0.275911959,0.427175,0.302019093,-0.273783061,0.450466,0.286095252,-0.263358734,0.429235,0.283988813,-0.270919403,0.41862,0.290192524,-0.299881894,0.426124,0.330620594,-0.269990219,0.458126,0.314854398,-0.251792939,0.437927,0.314292221,-0.260089216,0.426144,0.323432506,-0.285060413,0.434219,0.357284128,-0.271331693,0.465722,0.344263679,-0.265955935,0.444513,0.340848973,-0.275854772,0.433663,0.346473929,-0.300402861,0.441806,0.394077495,-0.28111999,0.476847,0.371835424,-0.256036914,0.458018,0.371608841,-0.264840598,0.449367,0.37137915,-0.272549653,0.441733
0.390727946,-0.363459,0.485459,0.365959186,-0.30803369,0.470665,0.360675717,-0.354805303,0.475582,0.339748427,-0.32117939,0.45818,0.313167434,-0.297393838,0.445447,0.29483578,-0.277756927,0.437861,0.310208958,-0.273152131,0.448794,0.314943805,-0.27213219,0.432213,0.321168818,-0.278200116,0.423923,0.33844114,-0.293751318,0.432316,0.337608909,-0.266664683,0.457496,0.308970245,-0.226572741,0.435734,0.311088736,-0.227832508,0.42304,0.327207622,-0.246762454,0.430207,0.363902676,-0.265935716,0.466116,0.361013272,-0.264561536,0.443161,0.359964651,-0.264193534,0.431417,0.374427126,-0.284752379,0.438512,0.40064833,-0.272983355,0.47873,0.377646521,-0.250757644,0.458537,0.378761569,-0.250507418,0.449259,0.383170476,-0.254372997,0.441073
0.376702823,-0.347165514,0.471292,0.346849251,-0.289975047,0.453747,0.342223197,-0.338387626,0.460288,0.333395615,-0.303508831,0.447779,0.297631504,-0.272677638,0.424761,0.279816158,-0.251370806,0.414863,0.297749072,-0.248277574,0.428723,0.276177513,-0.206592071,0.403596,0.266510672,-0.186933348,0.391033,0.263331518,-0.172675566,0.387882,0.326179341,-0.246239472,0.438129,0.300040205,-0.198878573,0.413915,0.302186882,-0.200729697,0.39979,0.314600696,-0.219124928,0.405646,0.351937933,-0.249319413,0.447599,0.351682808,-0.247593695,0.422169,0.351892644,-0.246989961,0.409159,0.357803572,-0.269248769,0.41481,0.386305351,-0.262308687,0.46168,0.378497357,-0.264724955,0.439509,0.387603675,-0.284447329,0.450858,0.397510415,-0.303446581,0.463062
0.374044423,-0.336063083,0.473627,0.349897674,-0.279043898,0.45481,0.346603317,-0.327549424,0.462952,0.33510062,-0.291986816,0.448331,0.296849822,-0.261808804,0.424764,0.278778874,-0.240338335,0.414431,0.299542772,-0.238032792,0.429428,0.277699054,-0.193379938,0.403906,0.267436209,-0.171833975,0.391144,0.266493985,-0.157294708,0.391861,0.327151951,-0.234903202,0.438062,0.299360318,-0.187301783,0.412746,0.301594231,-0.188360251,0.397979,0.313734481,-0.20640233,0.403519,0.352382932,-0.237136482,0.447021,0.352038337,-0.23626561,0.420788,0.351861718,-0.237883828,0.407366,0.359526432,-0.26389649,0.412757,0.38639904,-0.248226346,0.460727,0.378340369,-0.250439575,0.437838,0.386909121,-0.270328246,0.449119,0.396543358,-0.289560516,0.461549
0.37464959,-0.331040138,0.472809,0.35407097,-0.277465485,0.459163,0.349810093,-0.318100609,0.463799,0.339894301,-0.283640572,0.454102,0.30282488,-0.253197856,0.432835,0.288095971,-0.231503709,0.424541,0.307992931,-0.233359274,0.439118,0.28856669,-0.188959598,0.41795,0.279458112,-0.167391288,0.407366,0.279749149,-0.152540677,0.410302,0.335450073,-0.231103047,0.447016,0.31043903,-0.184189352,0.426312,0.313653874,-0.184079414,0.414234,0.327530154,-0.202981156,0.422047,0.360153562,-0.233845685,0.454861,0.361783941,-0.231216685,0.433116,0.36287533,-0.232111964,0.421991,0.372656058,-0.255613202,0.429838,0.39286636,-0.245150442,0.466373,0.386453714,-0.24564094,0.447117,0.396618506,-0.267124305,0.459715,0.406006803,-0.286718136,0.471377
0.363064963,-0.323864187,0.484155,0.349987593,-0.277233871,0.477197,0.338573577,-0.31510471,0.479341,0.339297466,-0.288539391,0.472028,0.31773634,-0.257026388,0.456852,0.308112021,-0.23740893,0.455025,0.311190676,-0.238278183,0.466694,0.304546955,-0.197233957,0.453168,0.301245768,-0.176415041,0.446405,0.304436903,-0.160561627,0.449378,0.338548059,-0.236798526,0.471004,0.337212839,-0.239056325,0.457458,0.332082045,-0.258459662,0.449556,0.339598554,-0.278933654,0.460562,0.362372493,-0.239993374,0.475237,0.365729512,-0.241071478,0.461866,0.368063579,-0.241979279,0.455025,0.387784377,-0.266351964,0.466754,0.392577275,-0.251551981,0.481378,0.387300691,-0.252924982,0.467766,0.407841155,-0.273508552,0.482063,0.424194817,-0.295102568,0.492398
0.366253232,-0.321583815,0.486146,0.35435353,-0.276079513,0.480804,0.34151719,-0.312552299,0.480674,0.344154904,-0.282362634,0.473688,0.317053568,-0.25356996,0.456162,0.305206759,-0.233023714,0.451805,0.317760234,-0.234223263,0.470448,0.310706576,-0.19165309,0.458256,0.307650202,-0.170863381,0.452159,0.310628423,-0.154648845,0.455034,0.345617609,-0.233386086,0.476048,0.349890692,-0.23658961,0.464797,0.344881001,-0.256982209,0.458234,0.349280961,-0.281330089,0.469775,0.3696856,-0.237025707,0.481184,0.374163015,-0.239333885,0.468831,0.375626957,-0.243587696,0.462511,0.392789366,-0.269047053,0.474454,0.399854086,-0.248913268,0.488098,0.396380848,-0.251011207,0.47525,0.414048023,-0.275612115,0.489507,0.428899126,-0.293616959,0.499557
0.367714149,-0.32252944,0.488509,0.352013891,-0.272904948,0.476236,0.341848365,-0.311618155,0.480894,0.343321827,-0.281664133,0.472101,0.313221479,-0.246521354,0.449149,0.297523976,-0.225172626,0.438808,0.312477022,-0.228090005,0.458838,0.298956713,-0.182977022,0.438937,0.29272694,-0.161380779,0.428987,0.298894843,-0.147789093,0.437231,0.34021372,-0.228811724,0.465311,0.343685467,-0.229995088,0.447816,0.35514108,-0.264037747,0.469162,0.362219231,-0.285831254,0.48219,0.364527501,-0.233987834,0.471847,0.362260203,-0.232445002,0.451729,0.361515952,-0.232084336,0.441436,0.371667477,-0.25597146,0.450277,0.396871879,-0.250731689,0.481595,0.386792413,-0.247304058,0.463583,0.396116785,-0.272608831,0.476751,0.403970767,-0.293387178,0.488196
0.3662021,-0.321036393,0.48671,0.352121695,-0.272320249,0.475693,0.341001735,-0.31023319,0.479581,0.343470927,-0.281781469,0.47216,0.314029054,-0.246774376,0.449717,0.298831032,-0.225178024,0.439931,0.31391416,-0.228400058,0.459698,0.300670051,-0.183553511,0.440795,0.294614905,-0.162026565,0.431344,0.3006067,-0.148299045,0.439532,0.341428482,-0.22932382,0.465887,0.344961003,-0.23084868,0.449478,0.357352378,-0.265486823,0.471189,0.363791567,-0.286965436,0.483939,0.365363949,-0.234613414,0.472066,0.363949306,-0.233768109,0.453113,0.363665775,-0.233730321,0.443416,0.373205084,-0.257726517,0.452808,0.396529063,-0.250515108,0.481179,0.3872817,-0.24839845,0.464113,0.396772339,-0.273059985,0.47754,0.404431672,-0.293721914,0.488753
0.364761684,-0.321262632,0.48638,0.352627912,-0.272984481,0.476166,0.340703894,-0.310624276,0.480355,0.34530844,-0.283545329,0.473761,0.314951653,-0.248377914,0.451293,0.301377683,-0.226528486,0.443808,0.318380352,-0.229388225,0.462091,0.304223282,-0.184586516,0.444406,0.298180991,-0.163152041,0.435563,0.304246772,-0.149522639,0.44422,0.344987214,-0.231233167,0.467075,0.347520716,-0.230684739,0.451137,0.36161837,-0.266639682,0.473304,0.366624437,-0.288582078,0.486027,0.36771936,-0.237252606,0.472183,0.367351156,-0.23581304,0.454342,0.367637922,-0.235340914,0.445215,0.375661407,-0.2587192,0.45523,0.396944385,-0.25692638,0.479908,0.388582298,-0.256759445,0.463686,0.398155819,-0.280192143,0.477447,0.404651885,-0.296034617,0.488492
0.364274471,-0.32182839,0.486789,0.352933231,-0.273402208,0.476438,0.340650395,-0.31101811,0.481077,0.346556722,-0.284724086,0.474919,0.315636506,-0.249444362,0.452427,0.302189245,-0.22779473,0.445352,0.31934968,-0.229698474,0.462681,0.304793973,-0.184838151,0.4451,0.298753365,-0.163443115,0.436309,0.304982416,-0.149934719,0.445181,0.345648712,-0.231740531,0.467224,0.348110026,-0.230140961,0.451067,0.362267743,-0.266304155,0.473293,0.367453402,-0.288862453,0.486114,0.368031586,-0.237927296,0.471983,0.367855358,-0.235828918,0.454187,0.368248102,-0.234997459,0.445081,0.375909264,-0.258421821,0.455159,0.396462998,-0.256614797,0.479326,0.388100432,-0.256441047,0.463111,0.39771634,-0.27988287,0.47692,0.404445979,-0.296959951,0.48798
0.363953196,-0.322256244,0.487117,0.353149535,-0.273699161,0.47663,0.340601809,-0.31129044,0.481579,0.347406637,-0.285524823,0.475714,0.316107645,-0.250167305,0.453204,0.302744028,-0.228650011,0.446402,0.319918,-0.229874709,0.463015,0.305093545,-0.184963249,0.445454,0.299039459,-0.163586438,0.436673,0.305357571,-0.150149362,0.445661,0.346032721,-0.232036318,0.467296,0.348413341,-0.229781622,0.45096,0.362596834,-0.266057085,0.473206,0.367952416,-0.289006073,0.486098,0.368210018,-0.23832603,0.471852,0.368111385,-0.235808797,0.454037,0.368548912,-0.234749998,0.444922,0.376009073,-0.258156639,0.455015,0.396178467,-0.256430632,0.478982,0.387786171,-0.256233396,0.462736,0.39741696,-0.279672189,0.476561,0.404295177,-0.29749458,0.48764
0.367807004,-0.324094413,0.485434,0.353410614,-0.272952693,0.4745,0.341135964,-0.311463112,0.481439,0.345825867,-0.286232098,0.475254,0.307201149,-0.25322156,0.453455,0.300572961,-0.230167541,0.44605,0.322097373,-0.230270883,0.4626,0.305272933,-0.185596623,0.445751,0.299642441,-0.164221256,0.437327,0.304849619,-0.150572548,0.445358,0.346839454,-0.23215414,0.464768,0.347386381,-0.226060625,0.447618,0.362158558,-0.262813809,0.470042,0.367776189,-0.287357873,0.483285,0.372747277,-0.238753148,0.46763,0.36660819,-0.235319911,0.450249,0.363376757,-0.235765117,0.441356,0.371734135,-0.259419306,0.451733,0.399812728,-0.253334569,0.47286,0.383756521,-0.252994693,0.456849,0.393316569,-0.276260958,0.470836,0.399941612,-0.294228674,0.481894
