sluyters/QuantumLeap/backend/src/datasets/dynamic/HandGestureDataset_SHREC2017_csv/Gesture9/finger_1/subject_25_essai_3_skeletons_world.csv
Wrist_x,Wrist_y,Wrist_z,Palm_x,Palm_y,Palm_z,thumb_base_x,thumb_base_y,thumb_base_z,thumb_first_joint_x,thumb_first_joint_y,thumb_first_joint_z,thumb_second_joint_x,thumb_second_joint_y,thumb_second_joint_z,thumb_tip_x,thumb_tip_y,thumb_tip_z,index_base_x,index_base_y,index_base_z,index_first_joint_x,index_first_joint_y,index_first_joint_z,index_second_joint_x,index_second_joint_y,index_second_joint_z,index_tip_x,index_tip_y,index_tip_z,middle_base_x,middle_base_y,middle_base_z,middle_first_joint_x,middle_first_joint_y,middle_first_joint_z,middle_second_joint_x,middle_second_joint_y,middle_second_joint_z,middle_tip_x,middle_tip_y,middle_tip_z,ring_base_x,ring_base_y,ring_base_z,ring_first_joint_x,ring_first_joint_y,ring_first_joint_z,ring_second_joint_x,ring_second_joint_y,ring_second_joint_z,ring_tip_x,ring_tip_y,ring_tip_z,pinky_base_x,pinky_base_y,pinky_base_z,pinky_first_joint_x,pinky_first_joint_y,pinky_first_joint_z,pinky_second_joint_x,pinky_second_joint_y,pinky_second_joint_z,pinky_tip_x,pinky_tip_y,pinky_tip_z,
0.516162558,-0.456328559,0.620353,0.488690295,-0.407415445,0.600853,0.488128927,-0.445796887,0.613771,0.470542358,-0.424065054,0.599878,0.454108616,-0.399235398,0.586273,0.448762653,-0.377494479,0.578418,0.435886823,-0.360014681,0.579361,0.415549409,-0.336579954,0.55556,0.408181144,-0.348217828,0.543659,0.414967471,-0.370402262,0.550305,0.461910622,-0.356178489,0.581764,0.435036487,-0.330554514,0.555301,0.430398521,-0.344875916,0.539864,0.441753499,-0.366459477,0.546543,0.48608275,-0.357606408,0.585494,0.467220799,-0.336280321,0.559907,0.457740097,-0.337922522,0.546816,0.448263848,-0.350648414,0.534915,0.519574192,-0.367764768,0.593053,0.496240672,-0.364123026,0.569754,0.485476786,-0.362609073,0.559049,0.470089477,-0.369657172,0.549818
0.516532371,-0.461755567,0.620639,0.488657762,-0.417651431,0.600813,0.488564908,-0.456581503,0.61407,0.470228599,-0.434358614,0.599478,0.453166741,-0.409131884,0.585057,0.447522431,-0.3889944,0.576887,0.435702495,-0.369825221,0.579116,0.415224784,-0.346507975,0.555126,0.40778547,-0.357984718,0.543132,0.414484867,-0.380187243,0.549665,0.461624788,-0.365992208,0.581404,0.434534312,-0.340453924,0.55466,0.429756747,-0.354525638,0.539059,0.440994535,-0.376098471,0.545604,0.485730742,-0.367461913,0.58507,0.466677565,-0.34627897,0.559256,0.457117418,-0.344340548,0.54605,0.447717453,-0.352980039,0.534043,0.519181699,-0.377734435,0.592605,0.495680636,-0.374165923,0.569111,0.48484025,-0.372691151,0.558316,0.469412324,-0.379575475,0.549026
0.522616448,-0.47595242,0.630616,0.490833955,-0.423021968,0.605838,0.493145188,-0.464459446,0.622431,0.476085792,-0.445450971,0.609015,0.463012532,-0.422149888,0.590514,0.461792955,-0.405794489,0.584409,0.434309611,-0.375759469,0.578753,0.413486148,-0.356357899,0.550788,0.405408932,-0.366732554,0.536806,0.410644103,-0.386632305,0.540969,0.460984759,-0.373106547,0.581582,0.432063207,-0.347375216,0.55037,0.425348728,-0.35996863,0.532162,0.434313832,-0.379747837,0.536286,0.485756564,-0.375598979,0.586137,0.46338305,-0.360010982,0.556021,0.454292758,-0.363691948,0.540614,0.446924728,-0.372937992,0.526607,0.520010938,-0.387124804,0.595523,0.498044652,-0.386627528,0.568491,0.487966666,-0.386550705,0.556071,0.472783092,-0.391904321,0.545112
0.503975025,-0.460767105,0.609554,0.478263127,-0.41336183,0.591125,0.477232437,-0.451206243,0.60361,0.464295056,-0.435417319,0.594082,0.453139332,-0.414114601,0.575835,0.455921851,-0.401590119,0.573353,0.428514806,-0.370841393,0.571162,0.411489048,-0.354874759,0.548435,0.405376002,-0.366949465,0.537071,0.412916506,-0.38901716,0.544263,0.454149164,-0.367675818,0.573084,0.429691394,-0.34571388,0.547658,0.425620209,-0.360471775,0.532826,0.437077373,-0.382444083,0.540017,0.477531012,-0.36933787,0.576322,0.459663481,-0.357364251,0.551841,0.453028549,-0.363596442,0.539316,0.448013098,-0.375102429,0.528115,0.509119514,-0.379103232,0.583127,0.493128872,-0.379580781,0.560726,0.484995412,-0.381114094,0.550434,0.471815969,-0.388415102,0.542118
0.523458918,-0.478234587,0.631782,0.492567097,-0.424813605,0.60661,0.493544553,-0.466276151,0.622742,0.478676506,-0.447044236,0.601374,0.463759206,-0.425776964,0.576294,0.457895817,-0.407628553,0.561508,0.441428668,-0.377054215,0.578177,0.419805511,-0.357252447,0.549435,0.411517392,-0.367234299,0.535064,0.411409152,-0.385648563,0.538792,0.468834272,-0.374741532,0.581968,0.439257671,-0.348901832,0.550309,0.432462252,-0.361196332,0.531842,0.436170585,-0.379783237,0.535638,0.494378033,-0.377515229,0.58735,0.471273679,-0.361593907,0.556533,0.462222779,-0.366461306,0.540766,0.450543416,-0.375515734,0.526432,0.529816796,-0.389408012,0.597773,0.5116136,-0.384956404,0.570217,0.500637157,-0.386439491,0.557555,0.481337689,-0.391809101,0.547413
0.521279764,-0.472479646,0.627474,0.493154029,-0.420803436,0.602489,0.493399736,-0.465064924,0.621035,0.469870988,-0.440455165,0.600073,0.456366494,-0.42309453,0.575293,0.451566102,-0.403563709,0.564711,0.436504252,-0.369724588,0.577469,0.412643979,-0.356891218,0.550565,0.405282175,-0.367595689,0.537113,0.413380446,-0.387694495,0.541631,0.461059936,-0.365140969,0.578029,0.43246874,-0.35599925,0.546943,0.416571804,-0.355427324,0.528809,0.425469364,-0.37665664,0.533008,0.484419086,-0.36621369,0.580735,0.459917202,-0.35828321,0.55142,0.449112678,-0.37024649,0.536422,0.439738162,-0.381350739,0.52395,0.520402459,-0.378071246,0.58798,0.488530825,-0.379928353,0.561497,0.473837964,-0.380893929,0.54933,0.456759328,-0.386261714,0.538794
0.510601821,-0.477396017,0.628951,0.487367265,-0.42205695,0.603149,0.478716292,-0.460792297,0.61443,0.446284941,-0.424913328,0.590002,0.427494939,-0.396920765,0.569326,0.414295564,-0.371864229,0.55596,0.440674853,-0.364811971,0.567366,0.4181685,-0.332258143,0.535196,0.413468142,-0.339091555,0.519112,0.416951397,-0.352713887,0.519915,0.472128028,-0.370877499,0.57789,0.462163116,-0.349176657,0.545468,0.456900209,-0.351463648,0.526556,0.460480449,-0.371155968,0.528213,0.497538347,-0.379553783,0.588871,0.485791412,-0.364914399,0.555346,0.480416069,-0.369348405,0.538194,0.4729893,-0.377512074,0.522601,0.534040249,-0.400748897,0.605983,0.516458858,-0.408978135,0.576701,0.506667088,-0.413033534,0.563247,0.50886874,-0.425004162,0.563523
0.504851107,-0.472050508,0.625405,0.48663449,-0.412277518,0.600396,0.468233028,-0.451643238,0.611945,0.461366586,-0.43172972,0.587434,0.440753043,-0.404862185,0.560257,0.431380795,-0.383650333,0.550439,0.438960692,-0.355826356,0.566491,0.420340284,-0.322655631,0.535308,0.412033148,-0.330779252,0.519717,0.413096612,-0.346086984,0.521488,0.470471563,-0.362287485,0.575914,0.461009339,-0.337811866,0.544135,0.452777332,-0.341754966,0.525596,0.453112571,-0.362036868,0.528111,0.497840999,-0.372201992,0.585918,0.482585723,-0.363920724,0.553311,0.472754211,-0.360377028,0.536629,0.465033344,-0.369481558,0.521463,0.53292631,-0.39214267,0.601753,0.511918803,-0.402112855,0.573122,0.503492781,-0.403277243,0.559967,0.507251447,-0.412907461,0.560982
0.48460371,-0.45080175,0.611876,0.478041542,-0.391731621,0.590627,0.456324807,-0.431476973,0.597989,0.445297369,-0.397630072,0.572591,0.432729472,-0.370077347,0.551138,0.428009134,-0.348044505,0.537403,0.432643823,-0.331965389,0.558721,0.41424805,-0.302744292,0.52962,0.40814103,-0.2984113,0.515069,0.416341807,-0.317033042,0.517859,0.464960659,-0.340769025,0.569825,0.459416854,-0.323645799,0.541353,0.450996082,-0.331869865,0.524745,0.450220204,-0.352405227,0.528566,0.492752527,-0.352793471,0.580875,0.482487281,-0.3508491,0.550834,0.477448746,-0.350082987,0.535464,0.468305219,-0.36074488,0.521491,0.527509227,-0.375753347,0.597328,0.511701885,-0.383378229,0.570958,0.502717875,-0.384960434,0.558843,0.506597403,-0.396417704,0.560829
0.542776547,-0.427131792,0.585921,0.493616062,-0.394457169,0.566542,0.514539216,-0.425198759,0.566304,0.482578649,-0.396330821,0.537969,0.451035255,-0.374945099,0.513296,0.427759268,-0.359936079,0.499819,0.425618352,-0.370179625,0.528662,0.395823019,-0.332036711,0.510029,0.381204809,-0.312868161,0.500712,0.375279749,-0.296384902,0.492242,0.445855446,-0.362687469,0.547572,0.395826306,-0.33399013,0.532319,0.403352927,-0.319477457,0.523422,0.42663435,-0.327146684,0.529107,0.466962543,-0.359185241,0.564879,0.471079496,-0.327087852,0.535383,0.474328131,-0.330888845,0.520292,0.475304719,-0.343089989,0.518421,0.499907901,-0.3600881,0.588388,0.503007669,-0.337777996,0.563473,0.504343266,-0.342644683,0.552025,0.502768422,-0.355024171,0.550364
0.545519926,-0.395912804,0.593695,0.486671962,-0.370098291,0.56961,0.519425355,-0.396286941,0.572828,0.488590874,-0.360802117,0.545294,0.457018469,-0.329395893,0.517071,0.432555746,-0.311213351,0.501364,0.415581595,-0.352980205,0.526969,0.399045127,-0.311573418,0.497121,0.390759003,-0.290924716,0.482197,0.396813408,-0.280445987,0.46863,0.430165448,-0.345120096,0.546032,0.402563506,-0.305879629,0.517234,0.408409451,-0.284927442,0.500434,0.422591545,-0.283621552,0.496255,0.447324567,-0.340689177,0.563888,0.39551918,-0.308104797,0.535966,0.401565097,-0.29157347,0.52168,0.418971902,-0.293956902,0.520068,0.476980637,-0.339267142,0.588809,0.480425753,-0.318468402,0.56153,0.48544728,-0.315430405,0.548996,0.494028017,-0.320843102,0.544293
0.534253302,-0.38728994,0.581808,0.492342653,-0.354846895,0.565371,0.51073123,-0.383529116,0.560378,0.4849864,-0.344324392,0.532698,0.461771113,-0.310417064,0.507781,0.443705396,-0.289662438,0.494796,0.438111588,-0.32426307,0.527189,0.415368346,-0.278979179,0.505431,0.408567078,-0.256123561,0.494552,0.402371221,-0.235447096,0.484662,0.451330509,-0.323512347,0.549281,0.441902323,-0.277488225,0.529101,0.436464485,-0.2503482,0.51733,0.449593909,-0.239619255,0.512464,0.465975317,-0.325727905,0.568942,0.413532863,-0.296926768,0.544083,0.412843284,-0.273553366,0.531364,0.418696642,-0.256439966,0.52806,0.490053016,-0.333547634,0.594744,0.507168202,-0.310033299,0.574115,0.503784059,-0.314142683,0.564636,0.503268984,-0.318977513,0.559345
0.532533949,-0.358475895,0.574111,0.488298948,-0.329567989,0.560608,0.509521042,-0.35095934,0.552913,0.480311825,-0.312228966,0.527127,0.453032297,-0.279038153,0.502962,0.431771319,-0.263805452,0.491687,0.429355666,-0.300586381,0.5247,0.409411104,-0.25533761,0.500689,0.411319913,-0.234678833,0.488683,0.417977391,-0.220788124,0.477769,0.44485183,-0.301176082,0.54739,0.423661231,-0.256679278,0.530316,0.429127712,-0.231391928,0.520357,0.443885324,-0.225018492,0.515779,0.461596506,-0.304226478,0.56728,0.411522279,-0.276249531,0.544443,0.4133722,-0.253717088,0.532759,0.420203286,-0.236298158,0.528717,0.488546487,-0.312518772,0.592874,0.505259265,-0.286948502,0.574675,0.50513156,-0.291369425,0.566314,0.505096283,-0.296653626,0.561257
0.536072106,-0.335713287,0.590071,0.490132517,-0.306967325,0.569789,0.516845671,-0.331042486,0.568488,0.487168285,-0.294088209,0.540091,0.457545368,-0.269877865,0.513815,0.435290238,-0.261387565,0.500994,0.434736117,-0.281685117,0.528813,0.410974689,-0.236103533,0.502153,0.411609029,-0.21497641,0.488823,0.417108876,-0.200736071,0.476705,0.444856364,-0.27863658,0.549934,0.418695001,-0.231757818,0.526498,0.423731876,-0.206417333,0.512828,0.436410272,-0.200676894,0.506145,0.457326189,-0.278664694,0.569142,0.402901718,-0.251105681,0.540626,0.406285032,-0.229209852,0.526037,0.415517132,-0.213008368,0.520929,0.479550019,-0.283390357,0.595035,0.494227611,-0.258738634,0.572106,0.495352351,-0.263232578,0.561571,0.496816931,-0.268650718,0.554873
0.527478299,-0.293224388,0.580907,0.474858851,-0.272201426,0.564706,0.503083898,-0.291190968,0.559822,0.467605896,-0.253394593,0.535824,0.43488894,-0.225262292,0.514232,0.412935386,-0.209407893,0.504753,0.409078237,-0.255531131,0.527117,0.411575972,-0.214825483,0.500143,0.412936377,-0.195043609,0.486663,0.417373337,-0.179988294,0.47441,0.423605374,-0.251708504,0.548846,0.423567747,-0.207425558,0.527886,0.423685748,-0.181294556,0.51566,0.440155631,-0.175698418,0.512843,0.440253269,-0.250335358,0.568187,0.394249381,-0.219657753,0.542125,0.402052367,-0.200929045,0.528792,0.414575111,-0.186921498,0.52413,0.468407944,-0.252018313,0.593573,0.47823746,-0.223996648,0.572123,0.482552747,-0.227500612,0.562268,0.490106919,-0.232294675,0.558586
0.527051527,-0.287832619,0.580437,0.474765511,-0.261866924,0.564595,0.502713654,-0.285845051,0.55941,0.465466943,-0.242154906,0.533373,0.43166511,-0.213624866,0.51042,0.410871335,-0.198418726,0.50223,0.409238107,-0.245432867,0.527323,0.411930649,-0.204981778,0.500574,0.413397116,-0.185328138,0.487206,0.417939911,-0.170463812,0.475054,0.42379138,-0.241566913,0.549087,0.423992208,-0.19728586,0.528415,0.424257608,-0.171131602,0.516356,0.440940945,-0.165653769,0.513758,0.440436906,-0.240143369,0.568424,0.394574452,-0.209476421,0.542572,0.402473586,-0.190930088,0.529346,0.415071845,-0.176933011,0.524758,0.468546042,-0.241743167,0.593748,0.478555937,-0.213783026,0.572504,0.482961263,-0.217651239,0.562744,0.490676356,-0.22270832,0.559235
0.521359417,-0.270345128,0.570894,0.474339404,-0.240881515,0.559203,0.495939012,-0.268372609,0.550599,0.466802589,-0.218906364,0.520884,0.438701244,-0.186432027,0.495427,0.416357976,-0.170479927,0.48318,0.406887219,-0.223700539,0.52566,0.413701054,-0.186622339,0.501751,0.417059385,-0.168365772,0.489799,0.423084806,-0.15451135,0.478934,0.425725187,-0.219864226,0.547757,0.409593306,-0.175919447,0.530646,0.40014417,-0.14947946,0.520695,0.393407638,-0.130196357,0.513645,0.445711632,-0.218515976,0.566997,0.397976279,-0.188840123,0.54434,0.406463683,-0.171405905,0.532748,0.420457647,-0.158131483,0.53036,0.477412436,-0.22030897,0.591531,0.485605209,-0.196649461,0.572932,0.488056318,-0.20792235,0.564387,0.490354536,-0.220829995,0.562554
0.518863487,-0.250096393,0.581071,0.469100247,-0.222347538,0.562364,0.495057715,-0.247248041,0.559923,0.4674508,-0.208647779,0.528035,0.44324215,-0.176889818,0.500793,0.422924136,-0.15751044,0.485286,0.405759423,-0.200173625,0.523003,0.408940587,-0.162304484,0.494195,0.410145044,-0.143775886,0.479791,0.414213885,-0.130101425,0.466697,0.420469196,-0.195233178,0.544051,0.401078278,-0.14913812,0.520594,0.390353183,-0.12202987,0.507691,0.382684281,-0.102414659,0.498475,0.43703926,-0.193570559,0.563058,0.40958266,-0.151442608,0.534828,0.413976308,-0.132010084,0.520385,0.427818831,-0.120364973,0.515142,0.464665301,-0.19605866,0.588458,0.474835502,-0.174537319,0.565122,0.478307652,-0.182311532,0.554401,0.479386093,-0.194821368,0.550351
0.520881029,-0.249781703,0.583603,0.471701836,-0.220061396,0.563957,0.496783006,-0.247242853,0.562845,0.469243039,-0.208448405,0.53051,0.444928561,-0.176568371,0.502823,0.425069804,-0.156736047,0.487307,0.409887245,-0.193219866,0.524453,0.409856898,-0.155466741,0.494749,0.410689946,-0.140932463,0.479896,0.414932463,-0.128574598,0.466394,0.4263499,-0.186637011,0.544724,0.402189062,-0.140129218,0.519862,0.390638729,-0.112927782,0.506509,0.382377799,-0.0932935837,0.496971,0.444195316,-0.183916498,0.563175,0.413272185,-0.141470981,0.533851,0.414092883,-0.121502611,0.518848,0.428059205,-0.115510591,0.514608,0.473011429,-0.185720994,0.588075,0.482206772,-0.168843671,0.563622,0.484612606,-0.175237598,0.552388,0.492435089,-0.182917532,0.54903
0.52205331,-0.246498843,0.585007,0.471428386,-0.206301297,0.562123,0.497041251,-0.24368411,0.56346,0.470987303,-0.194964594,0.531566,0.450918123,-0.162217376,0.507133,0.431493086,-0.140683323,0.490847,0.405963854,-0.181343951,0.519433,0.40483174,-0.143692821,0.488683,0.405502409,-0.12637987,0.473308,0.409631046,-0.115557445,0.45933,0.422433321,-0.174835494,0.53972,0.39726558,-0.128294638,0.513498,0.384622305,-0.101033837,0.498708,0.375585388,-0.0814548236,0.488143,0.440488265,-0.172241302,0.558475,0.408700924,-0.129753961,0.527946,0.408888469,-0.109863864,0.512327,0.419440505,-0.0982491852,0.503435,0.469941268,-0.174305754,0.584258,0.478414119,-0.157296702,0.559189,0.48047436,-0.163618019,0.547671,0.485145833,-0.170109729,0.540903
0.5223704,-0.23898224,0.585543,0.471682499,-0.196250519,0.562426,0.496951563,-0.231202052,0.564001,0.471473737,-0.185175441,0.532115,0.451242664,-0.152446207,0.507498,0.431668902,-0.130967757,0.491047,0.406084213,-0.171368268,0.519587,0.404868191,-0.133837098,0.488727,0.405492984,-0.116604385,0.473297,0.409577538,-0.105909851,0.45927,0.422492022,-0.164771375,0.539795,0.39719131,-0.118153395,0.513402,0.384536698,-0.090858923,0.498597,0.375492289,-0.0712556105,0.488022,0.440513505,-0.162110278,0.558507,0.412015876,-0.118975514,0.527844,0.413540793,-0.099898167,0.512156,0.424618599,-0.0894617924,0.503112,0.469956551,-0.164101303,0.584277,0.478336264,-0.14705377,0.559098,0.48035066,-0.153455326,0.54753,0.484916222,-0.15993381,0.540647
0.522725155,-0.230851907,0.585649,0.472203307,-0.194761058,0.562999,0.497208002,-0.228262806,0.564113,0.471248356,-0.183341326,0.532072,0.451004539,-0.150818587,0.507843,0.431902231,-0.128990352,0.49154,0.406452651,-0.170333104,0.520484,0.401021473,-0.129472277,0.48973,0.399935254,-0.111049419,0.474353,0.403152578,-0.09886024,0.460374,0.423039545,-0.163747142,0.540827,0.397364997,-0.117281154,0.514642,0.384592284,-0.0900717387,0.500098,0.375460666,-0.070513917,0.489709,0.441207713,-0.161047398,0.559607,0.412286715,-0.118046253,0.52909,0.41365755,-0.0988795123,0.513476,0.425138284,-0.088381403,0.505018,0.470826889,-0.162914627,0.585382,0.478989986,-0.145679367,0.560284,0.481066536,-0.152022764,0.548753,0.486046969,-0.158561001,0.542301
0.521657891,-0.227843669,0.58466,0.471613944,-0.192573666,0.562584,0.496536773,-0.221496125,0.563084,0.472966245,-0.175662674,0.531502,0.451621374,-0.146530333,0.507488,0.432986251,-0.124528234,0.491235,0.406671635,-0.16626536,0.520405,0.403132177,-0.122976028,0.490296,0.402474467,-0.104121338,0.475242,0.406033724,-0.0916092018,0.461557,0.422699982,-0.160166311,0.540972,0.397388929,-0.113573028,0.51564,0.384698637,-0.0831049896,0.501189,0.375313063,-0.0664754675,0.490867,0.440371942,-0.157838074,0.559885,0.411934415,-0.114581469,0.530105,0.413524351,-0.0951046676,0.514868,0.424498029,-0.0841804635,0.50592,0.469338793,-0.160082664,0.585724,0.478379031,-0.14204181,0.561341,0.48113254,-0.148109659,0.550139,0.486152792,-0.154212491,0.543351
0.522494746,-0.223713773,0.587747,0.470333687,-0.187499071,0.565234,0.497266539,-0.220953584,0.566192,0.468579123,-0.175315245,0.534311,0.452472927,-0.144556968,0.51016,0.43435884,-0.123919221,0.493668,0.402554816,-0.160179341,0.522786,0.39926734,-0.121450618,0.492228,0.401460105,-0.104008266,0.476949,0.405055371,-0.0919663828,0.463059,0.419368562,-0.153705443,0.543195,0.395366522,-0.107029167,0.517265,0.384540401,-0.0814946516,0.502563,0.375624749,-0.0617047647,0.492062,0.437619272,-0.151191095,0.562016,0.410245494,-0.10795945,0.531721,0.413288685,-0.0909281444,0.516221,0.424690211,-0.0804448709,0.507538,0.467141913,-0.153447582,0.587818,0.477262818,-0.13861811,0.562943,0.479706585,-0.144864877,0.551514,0.484765521,-0.151199865,0.544905
0.521804315,-0.222798357,0.58784,0.469992241,-0.187188459,0.56563,0.496425101,-0.219973295,0.566286,0.468860961,-0.175262866,0.534388,0.448796634,-0.143936125,0.509635,0.433411153,-0.123100482,0.493284,0.402924832,-0.16056983,0.523387,0.399289356,-0.121598155,0.492963,0.398888461,-0.103531529,0.477751,0.404420022,-0.0919423189,0.463922,0.420007541,-0.154287213,0.543887,0.395592342,-0.107566513,0.518167,0.385097312,-0.0812806164,0.503557,0.377056113,-0.0615407339,0.493122,0.438497554,-0.151913699,0.562757,0.410640937,-0.108582812,0.532626,0.413361071,-0.0907432178,0.517211,0.424950383,-0.0803576999,0.508758,0.468839352,-0.155998019,0.588566,0.477687128,-0.138481207,0.56382,0.480011067,-0.144816061,0.552451,0.4850774,-0.151265521,0.546015
0.521143491,-0.222441957,0.588028,0.469430831,-0.187374682,0.565903,0.495686175,-0.219581534,0.566498,0.467247429,-0.177291176,0.534453,0.4416222,-0.149602146,0.507219,0.430547074,-0.128341906,0.492042,0.402593695,-0.161171612,0.523748,0.398746196,-0.122090016,0.493246,0.398242827,-0.103966766,0.477994,0.403466232,-0.0922146518,0.464129,0.41973491,-0.154948179,0.544243,0.395065226,-0.108194346,0.51844,0.384900895,-0.0815193616,0.504007,0.377367213,-0.0618267449,0.493699,0.438279139,-0.152618734,0.563102,0.411943828,-0.109998425,0.532888,0.413747815,-0.0909177901,0.517431,0.425576451,-0.0805533431,0.509339,0.468665804,-0.156154015,0.588883,0.477245004,-0.138693407,0.564029,0.47943295,-0.145040704,0.552609,0.484647654,-0.151587517,0.546434
0.520695495,-0.222088428,0.588498,0.467810332,-0.186733676,0.56655,0.495168762,-0.219199663,0.56697,0.466560429,-0.177599175,0.534933,0.440993985,-0.148982459,0.507555,0.43058049,-0.124400045,0.493325,0.40244818,-0.161288235,0.524519,0.398618424,-0.122171225,0.494109,0.398133008,-0.104023936,0.478903,0.40179436,-0.0922779499,0.46508,0.41965805,-0.155100665,0.545065,0.394991227,-0.108339744,0.519397,0.384370008,-0.0809765385,0.505051,0.377781503,-0.0618392902,0.494804,0.438252462,-0.152794599,0.563948,0.411947979,-0.109207758,0.533846,0.414326454,-0.090913232,0.518444,0.426233798,-0.0805340928,0.510462,0.468213237,-0.155242707,0.589731,0.476545388,-0.13824418,0.564967,0.478516017,-0.144779132,0.553589,0.484729328,-0.151716776,0.547497
0.519804912,-0.221604781,0.588338,0.467199428,-0.186595271,0.566516,0.494232826,-0.218692814,0.566814,0.464557256,-0.178256555,0.534779,0.440307585,-0.148601394,0.507429,0.429842111,-0.124455452,0.493237,0.401856783,-0.161173784,0.524575,0.398040447,-0.122045783,0.494227,0.396768546,-0.103866373,0.479052,0.401252142,-0.0921319953,0.465258,0.419108081,-0.155010878,0.545154,0.394452531,-0.108257159,0.519579,0.383955292,-0.0808948032,0.505299,0.377556451,-0.0616984339,0.495099,0.437732771,-0.152720847,0.564054,0.41179053,-0.109094153,0.534026,0.413783265,-0.0902995487,0.518663,0.426157861,-0.0803662306,0.510769,0.467719942,-0.155180245,0.589836,0.476066156,-0.138154776,0.565132,0.478066803,-0.144684785,0.553782,0.483185766,-0.151416578,0.547756
0.519135996,-0.221488175,0.588397,0.466669886,-0.186662967,0.566475,0.493516456,-0.218535127,0.566871,0.464161183,-0.178460087,0.534831,0.440756114,-0.148299413,0.5076,0.431143193,-0.12426022,0.493609,0.401292469,-0.161095092,0.524463,0.397523843,-0.122009395,0.494062,0.397064913,-0.103879322,0.478861,0.400743636,-0.0921532811,0.465042,0.41857501,-0.154943038,0.545014,0.393969493,-0.108152332,0.519361,0.3835502,-0.0807848431,0.505007,0.377213493,-0.0615451661,0.494755,0.437225551,-0.152674905,0.5639,0.411939105,-0.109895576,0.533809,0.41374306,-0.0908913799,0.518414,0.425527856,-0.0802671871,0.510458,0.467243298,-0.155182089,0.589682,0.475550356,-0.138200847,0.564926,0.477490722,-0.144755687,0.553552,0.483501211,-0.151654059,0.547479
0.518590203,-0.221390302,0.588432,0.466305815,-0.186717038,0.566463,0.492937715,-0.218406475,0.56691,0.463695602,-0.17894778,0.534847,0.440451147,-0.148718382,0.507498,0.429918989,-0.126732084,0.493318,0.400920774,-0.161051489,0.524424,0.397184579,-0.121992506,0.493981,0.396735821,-0.103880023,0.47876,0.400410954,-0.0921754777,0.464923,0.418226542,-0.154906529,0.544956,0.393655489,-0.108085971,0.519246,0.383307691,-0.0807161973,0.50486,0.377022668,-0.0614411648,0.494584,0.436895105,-0.152653201,0.563831,0.411745904,-0.110032139,0.533692,0.413440878,-0.0910062129,0.518272,0.425143596,-0.0802095351,0.510331,0.466930624,-0.15519258,0.589607,0.475204906,-0.138240404,0.564806,0.476953359,-0.145037828,0.553411,0.481742726,-0.152121164,0.547348
0.517892823,-0.220639977,0.588947,0.466175101,-0.18681464,0.566627,0.492167982,-0.217587783,0.567411,0.463835532,-0.179447807,0.535378,0.440718806,-0.149157543,0.507973,0.429627156,-0.126200491,0.493718,0.400595586,-0.16100011,0.524334,0.39679173,-0.12193731,0.493748,0.396421712,-0.103928683,0.478455,0.401089877,-0.0924089806,0.464552,0.417861291,-0.154840647,0.544777,0.393181508,-0.107970713,0.518845,0.382797375,-0.0805955661,0.504317,0.376484824,-0.0612968991,0.49394,0.436516221,-0.15259109,0.56361,0.411359618,-0.1100752,0.533295,0.412905469,-0.0910293985,0.517785,0.424259781,-0.0800543311,0.50953,0.466571252,-0.155158939,0.589393,0.474731365,-0.138207581,0.564461,0.476292912,-0.145170672,0.553006,0.480677413,-0.15243389,0.546709
0.516682318,-0.220083018,0.588933,0.465673577,-0.186867783,0.566204,0.491087712,-0.217022291,0.567394,0.464222443,-0.180240691,0.535381,0.444617688,-0.151481428,0.508636,0.429275444,-0.1276738,0.49263,0.40011048,-0.161132419,0.523631,0.396188852,-0.122012269,0.49286,0.396392262,-0.104330147,0.477475,0.400770388,-0.0927808152,0.463488,0.416739567,-0.155017252,0.543954,0.391377195,-0.108188537,0.517736,0.381870186,-0.080970785,0.502895,0.375223044,-0.0612998957,0.492295,0.434704013,-0.152776736,0.562724,0.410427419,-0.111662125,0.532184,0.411493183,-0.0922798282,0.516559,0.422810332,-0.0799388819,0.507994,0.464139927,-0.155139178,0.588501,0.472662684,-0.138250892,0.563392,0.474041031,-0.145444631,0.551856,0.478588471,-0.152713801,0.545326
