sluyters/QuantumLeap/backend/src/datasets/dynamic/HandGestureDataset_SHREC2017_csv/Gesture9/finger_1/subject_2_essai_2_skeletons_world.csv
Wrist_x,Wrist_y,Wrist_z,Palm_x,Palm_y,Palm_z,thumb_base_x,thumb_base_y,thumb_base_z,thumb_first_joint_x,thumb_first_joint_y,thumb_first_joint_z,thumb_second_joint_x,thumb_second_joint_y,thumb_second_joint_z,thumb_tip_x,thumb_tip_y,thumb_tip_z,index_base_x,index_base_y,index_base_z,index_first_joint_x,index_first_joint_y,index_first_joint_z,index_second_joint_x,index_second_joint_y,index_second_joint_z,index_tip_x,index_tip_y,index_tip_z,middle_base_x,middle_base_y,middle_base_z,middle_first_joint_x,middle_first_joint_y,middle_first_joint_z,middle_second_joint_x,middle_second_joint_y,middle_second_joint_z,middle_tip_x,middle_tip_y,middle_tip_z,ring_base_x,ring_base_y,ring_base_z,ring_first_joint_x,ring_first_joint_y,ring_first_joint_z,ring_second_joint_x,ring_second_joint_y,ring_second_joint_z,ring_tip_x,ring_tip_y,ring_tip_z,pinky_base_x,pinky_base_y,pinky_base_z,pinky_first_joint_x,pinky_first_joint_y,pinky_first_joint_z,pinky_second_joint_x,pinky_second_joint_y,pinky_second_joint_z,pinky_tip_x,pinky_tip_y,pinky_tip_z,
0.28668331,-0.35716671,0.399814,0.28163641,-0.32483268,0.410112,0.26651168,-0.34143492,0.388426,0.23894548,-0.31098006,0.377563,0.22075029,-0.28177409,0.36803,0.21199004,-0.26319257,0.364686,0.24943819,-0.29048356,0.399808,0.26953732,-0.2635235,0.398629,0.28015346,-0.24933286,0.398039,0.30096521,-0.25994795,0.406605,0.27851632,-0.30379359,0.417177,0.2885812,-0.26517764,0.420185,0.30876926,-0.27557046,0.42194,0.33054785,-0.28905591,0.431537,0.30034567,-0.31524277,0.430445,0.32278099,-0.28979276,0.427797,0.33506101,-0.27599556,0.426442,0.36018316,-0.28947227,0.435258,0.32781871,-0.33610273,0.44396,0.3435391,-0.33104593,0.441752,0.34610942,-0.33628889,0.440738,0.35357027,-0.34855854,0.447551
0.28473962,-0.35943259,0.40127,0.28129434,-0.32546004,0.410902,0.26145588,-0.34443117,0.389895,0.23339702,-0.31330591,0.382394,0.2163524,-0.28438894,0.374414,0.21544993,-0.26692426,0.370578,0.25134454,-0.28925891,0.400309,0.27834608,-0.26315537,0.40057,0.29347358,-0.26687033,0.4007,0.30644234,-0.2896249,0.40994,0.28005976,-0.3012259,0.417511,0.30544017,-0.27241947,0.41979,0.32457074,-0.28472211,0.421118,0.33649777,-0.30956214,0.430761,0.30376192,-0.315994,0.430709,0.33124203,-0.2952881,0.427415,0.34560365,-0.30211485,0.425729,0.35679402,-0.32805189,0.434616,0.32819217,-0.33822422,0.444259,0.34487992,-0.33303009,0.441448,0.34814224,-0.34312005,0.440157,0.35423268,-0.35875061,0.447005
0.2838877,-0.35985416,0.401691,0.28156517,-0.32539278,0.411352,0.26428714,-0.34343195,0.390362,0.23414462,-0.3125182,0.382661,0.21638556,-0.28326092,0.374205,0.21607688,-0.26641647,0.37115,0.25405471,-0.28716612,0.400833,0.27910058,-0.26231764,0.400677,0.29397682,-0.26584033,0.400599,0.30682203,-0.28846614,0.409759,0.28084347,-0.30127736,0.417981,0.30580252,-0.27099696,0.420276,0.32511054,-0.28241939,0.421614,0.33752269,-0.3069574,0.431304,0.30424492,-0.31610486,0.431132,0.33247535,-0.29479735,0.427869,0.34704352,-0.30095396,0.426199,0.35913565,-0.32646835,0.435142,0.32923957,-0.33866357,0.444622,0.34631049,-0.33351681,0.441831,0.34820177,-0.34350924,0.440549,0.35256709,-0.3602869,0.447438
0.28456703,-0.35923708,0.403272,0.28296346,-0.31438009,0.411749,0.26479603,-0.3363956,0.392301,0.23495612,-0.30388202,0.38422,0.21432697,-0.27709521,0.377411,0.21329149,-0.25721907,0.37499,0.25627022,-0.2766084,0.401157,0.28208593,-0.25213986,0.402172,0.29739077,-0.25563708,0.402679,0.31110217,-0.27849581,0.412944,0.28319678,-0.29019696,0.417565,0.30575872,-0.25794739,0.418482,0.32456862,-0.26747671,0.419017,0.33773823,-0.29135054,0.429078,0.30771776,-0.30561146,0.430224,0.33642829,-0.28522271,0.430174,0.3526511,-0.29149092,0.430148,0.36721046,-0.31744292,0.440884,0.33108768,-0.32802115,0.443355,0.34802391,-0.3215218,0.43948,0.34539207,-0.33218262,0.4377,0.35135262,-0.35051228,0.444913
0.28682502,-0.35513571,0.40538,0.28274062,-0.31299607,0.412109,0.26906195,-0.33228949,0.39373,0.23355979,-0.30257169,0.383624,0.2122235,-0.27409928,0.374523,0.21188844,-0.2536826,0.370901,0.25513757,-0.27370465,0.399816,0.28655211,-0.2579305,0.400605,0.29547563,-0.26750665,0.401,0.30704532,-0.29154917,0.410979,0.28023008,-0.28555726,0.416727,0.31250509,-0.26458634,0.415985,0.32792289,-0.27929742,0.415553,0.33374066,-0.30309297,0.424946,0.30392717,-0.30352062,0.429977,0.33556239,-0.28374397,0.429682,0.35226004,-0.2900008,0.429531,0.3668918,-0.31575594,0.439956,0.32993017,-0.32770259,0.444092,0.34698368,-0.31868307,0.438755,0.34857315,-0.32095477,0.436303,0.35686393,-0.33277368,0.442921
0.28664649,-0.34281107,0.399145,0.27672399,-0.30300293,0.405514,0.26602134,-0.3249966,0.387471,0.23184631,-0.29106595,0.377377,0.20741607,-0.26636267,0.367768,0.20829965,-0.24809674,0.365143,0.2466562,-0.26258309,0.393022,0.26564957,-0.23035955,0.396939,0.28334736,-0.22941854,0.398898,0.2994634,-0.25055193,0.409877,0.272809,-0.27650266,0.409883,0.2654202,-0.24455211,0.421248,0.2767182,-0.22545773,0.427877,0.29652351,-0.22065297,0.438992,0.29375754,-0.28829059,0.423129,0.33062543,-0.27356544,0.430164,0.35319422,-0.28091501,0.433763,0.37334233,-0.30822741,0.446491,0.31953986,-0.3102378,0.437302,0.33764178,-0.30052199,0.431656,0.34229687,-0.30446311,0.429061,0.3521391,-0.31645357,0.435652
0.27855678,-0.3396789,0.394178,0.27202329,-0.29644604,0.401832,0.25602895,-0.32081504,0.382663,0.23000159,-0.28722768,0.374452,0.20904688,-0.25749142,0.365879,0.20679535,-0.2405345,0.363499,0.24327043,-0.26017816,0.390143,0.26321015,-0.2287408,0.395109,0.28078964,-0.22672256,0.397593,0.29678753,-0.24687803,0.408695,0.26905991,-0.272372,0.407083,0.26225371,-0.24449622,0.420354,0.27863117,-0.23190283,0.428096,0.2965821,-0.22263616,0.43912,0.2907157,-0.28590763,0.420265,0.3282052,-0.2725391,0.428815,0.35173064,-0.2801609,0.433189,0.37287004,-0.30742175,0.446173,0.31652087,-0.30758477,0.43414,0.33611007,-0.29769482,0.429594,0.34085072,-0.30260414,0.427505,0.35134688,-0.31510364,0.434251
0.27891681,-0.33423127,0.39776,0.27044043,-0.28497559,0.403446,0.25715164,-0.31527434,0.384957,0.22961947,-0.27530356,0.373877,0.20294165,-0.25639454,0.368952,0.19740039,-0.23774396,0.367802,0.23861531,-0.24869545,0.389147,0.26468141,-0.22285253,0.392831,0.28140574,-0.22564703,0.394672,0.29526387,-0.24413922,0.404452,0.26533118,-0.26003386,0.407346,0.26611129,-0.22189179,0.412152,0.2666971,-0.199471,0.415184,0.27197003,-0.18364818,0.417349,0.28812002,-0.27300235,0.421763,0.30850039,-0.24180857,0.421566,0.32772777,-0.24105094,0.421466,0.35051221,-0.25909855,0.430779,0.31583834,-0.29428457,0.437405,0.33451604,-0.28489316,0.431328,0.34039916,-0.29134825,0.428536,0.35222936,-0.30342282,0.434068
0.27937185,-0.33684942,0.399719,0.27051832,-0.28756118,0.404037,0.25697602,-0.31699379,0.385383,0.22976749,-0.27571146,0.367918,0.20664296,-0.25963083,0.36555,0.19565622,-0.23820454,0.364103,0.2393016,-0.24907587,0.387082,0.26953011,-0.22772388,0.384207,0.28417694,-0.21580925,0.382769,0.30321437,-0.2269313,0.38874,0.26610683,-0.26132754,0.406999,0.26636759,-0.22350444,0.41268,0.26661365,-0.20117736,0.416187,0.2692157,-0.18522834,0.418691,0.28891255,-0.27524752,0.422969,0.3191025,-0.27449468,0.414627,0.31711196,-0.29282574,0.410359,0.32208331,-0.31652539,0.415189,0.31650433,-0.29799285,0.440639,0.33537037,-0.29357772,0.433825,0.34388149,-0.29180657,0.430695,0.35287763,-0.30258542,0.434471
0.27764589,-0.32934161,0.399504,0.2690824,-0.28160627,0.402712,0.25470614,-0.31033167,0.384667,0.22962548,-0.26679493,0.369456,0.20273781,-0.2466859,0.362764,0.19581249,-0.23401717,0.365423,0.23864312,-0.23923414,0.384584,0.26663699,-0.21604033,0.381672,0.28115309,-0.20406987,0.380215,0.29964397,-0.21440717,0.385669,0.26466077,-0.25153614,0.404913,0.2630064,-0.21297113,0.409308,0.26223409,-0.19039954,0.412215,0.26169833,-0.17416798,0.414339,0.28666812,-0.2656457,0.421334,0.31497678,-0.26206581,0.412017,0.31356819,-0.2801843,0.40725,0.31784354,-0.30278398,0.411238,0.31306877,-0.28884235,0.439716,0.33402358,-0.28367104,0.432129,0.34282119,-0.27867385,0.428643,0.34978657,-0.28841567,0.43178
0.27711647,-0.32419986,0.403561,0.26731841,-0.2746868,0.402292,0.25480086,-0.30469153,0.387905,0.22703618,-0.26300684,0.367266,0.20145417,-0.24407011,0.362202,0.19125666,-0.22533411,0.358777,0.23620094,-0.23078449,0.38102,0.26334223,-0.21142744,0.376201,0.27736906,-0.19984597,0.373792,0.29500063,-0.21081443,0.37866,0.26275184,-0.24139297,0.401422,0.26034307,-0.20011921,0.40131,0.25918847,-0.17593803,0.401658,0.25838893,-0.15852493,0.40196,0.28526846,-0.25444445,0.418355,0.31069631,-0.25565587,0.404912,0.30589739,-0.27197339,0.398035,0.30843584,-0.29339716,0.400749,0.3123617,-0.27700228,0.438104,0.32911515,-0.27232261,0.426909,0.33740984,-0.27223401,0.421766,0.34308042,-0.28203427,0.423869
0.27117207,-0.31303073,0.400701,0.26409049,-0.2659939,0.399568,0.25017412,-0.29636851,0.384401,0.22713733,-0.25267567,0.365365,0.19955867,-0.22920279,0.35414,0.19087884,-0.21081099,0.351502,0.23520633,-0.2217743,0.377507,0.26457694,-0.20044561,0.371917,0.27958233,-0.18960452,0.369121,0.29645786,-0.20025782,0.372203,0.25970713,-0.23344941,0.398791,0.25843564,-0.19201682,0.398535,0.25782794,-0.16773999,0.398601,0.2569633,-0.15384235,0.398863,0.28044989,-0.24736925,0.416436,0.30884132,-0.24616541,0.403425,0.30392392,-0.26273048,0.396768,0.30497901,-0.28627972,0.397933,0.30536362,-0.27090042,0.436984,0.32581078,-0.26587523,0.426389,0.3358445,-0.26360233,0.421522,0.34172971,-0.27644666,0.422499
0.26158202,-0.30140245,0.393097,0.25983953,-0.25868847,0.396951,0.24081489,-0.2821647,0.378468,0.21413369,-0.24268677,0.364629,0.19883492,-0.21160811,0.352786,0.19239944,-0.1931255,0.351613,0.23414681,-0.21428591,0.379396,0.26225982,-0.18907377,0.375817,0.27869934,-0.18176391,0.374027,0.29466799,-0.19433524,0.379428,0.26002094,-0.23144181,0.399595,0.25977722,-0.19368136,0.408729,0.26106148,-0.17262364,0.414057,0.26198498,-0.15749651,0.417886,0.28040832,-0.24603907,0.415844,0.31127761,-0.24774351,0.407113,0.3085977,-0.2660191,0.402646,0.31206218,-0.29128456,0.406968,0.30392336,-0.26978601,0.433916,0.32701793,-0.26560085,0.426819,0.33829086,-0.26406774,0.423558,0.34586014,-0.27811857,0.426953
0.25704308,-0.29335637,0.391204,0.25735632,-0.24536877,0.395788,0.23543332,-0.27232424,0.376884,0.21335967,-0.23170978,0.363311,0.19853959,-0.20119865,0.352262,0.19247276,-0.1830744,0.351747,0.23388884,-0.20408352,0.378978,0.26286065,-0.17940297,0.376678,0.27981778,-0.1722246,0.375528,0.29635013,-0.1847174,0.381594,0.2593815,-0.21860487,0.398933,0.25989607,-0.18372999,0.408916,0.26149148,-0.16282245,0.414739,0.2626351,-0.14776919,0.418923,0.28013303,-0.23449128,0.414907,0.31066858,-0.23655345,0.406826,0.30880542,-0.25504307,0.402692,0.31280427,-0.27800758,0.40752,0.30366358,-0.25965405,0.432536,0.32724456,-0.25403762,0.425962,0.33862773,-0.25216595,0.422941,0.34672844,-0.26436736,0.426722
0.25214372,-0.28314919,0.387923,0.25432743,-0.23419505,0.392899,0.23338789,-0.26021407,0.373216,0.2118867,-0.22019241,0.358941,0.19754109,-0.18967115,0.347481,0.19138013,-0.17144131,0.346761,0.23151595,-0.19304392,0.375758,0.26153207,-0.16868163,0.374149,0.27920233,-0.16167241,0.373345,0.29588416,-0.17354408,0.378667,0.25601021,-0.20758871,0.396313,0.25524635,-0.17205934,0.405408,0.25614563,-0.15076281,0.410714,0.25678719,-0.13543017,0.414524,0.27597514,-0.22347417,0.412743,0.30826606,-0.22563494,0.405179,0.30707554,-0.2441822,0.401309,0.31081258,-0.26625715,0.40527,0.2986523,-0.24858074,0.430828,0.3242098,-0.24305897,0.424846,0.33650789,-0.24121701,0.422098,0.34491826,-0.25271997,0.425257
0.23996239,-0.25983718,0.376051,0.24657852,-0.22121626,0.388772,0.21901169,-0.23525377,0.363824,0.20118398,-0.19947934,0.353172,0.18984636,-0.17192738,0.349642,0.18872699,-0.15497958,0.352808,0.22975989,-0.18140287,0.378475,0.26228596,-0.16124486,0.376732,0.27982915,-0.15369214,0.375861,0.29722515,-0.16332971,0.381962,0.25406545,-0.19885451,0.397499,0.25998463,-0.1701125,0.415698,0.26411126,-0.15280039,0.426314,0.2670511,-0.14030755,0.433909,0.27302446,-0.21653021,0.411887,0.31133092,-0.21212335,0.411748,0.31816641,-0.23198277,0.411678,0.32805184,-0.25569887,0.418776,0.29428523,-0.24430813,0.426273,0.32436389,-0.2451013,0.426614,0.33063432,-0.26196229,0.42677,0.32849824,-0.27769661,0.432392
0.23370398,-0.25156315,0.368782,0.2424504,-0.2168536,0.384654,0.21501589,-0.22821088,0.357032,0.19869524,-0.19060517,0.348256,0.18807116,-0.16313416,0.345434,0.18781336,-0.15078547,0.350943,0.22712205,-0.17813023,0.37644,0.26059069,-0.15630006,0.377592,0.27945962,-0.1488984,0.378168,0.29831811,-0.16065817,0.38402,0.25049139,-0.1961681,0.395544,0.25221948,-0.16753158,0.414535,0.25528872,-0.15134927,0.425612,0.25746885,-0.13970429,0.43353,0.26560401,-0.21280111,0.40968,0.30994991,-0.21344586,0.4129,0.31394352,-0.23553372,0.414547,0.32589836,-0.25843441,0.421469,0.28393542,-0.23916528,0.423229,0.31822803,-0.24204394,0.426636,0.3274884,-0.25821819,0.428201,0.32727995,-0.27658631,0.433767
0.2312505,-0.24345116,0.368877,0.2394855,-0.20341169,0.382718,0.21486171,-0.22434051,0.355798,0.22035739,-0.1828083,0.345912,0.2049395,-0.15645924,0.33996,0.19494073,-0.14636289,0.346578,0.22145234,-0.16460786,0.371813,0.25375378,-0.14164112,0.372086,0.272032,-0.13353163,0.372223,0.28981052,-0.14012209,0.376092,0.24449439,-0.18082482,0.392215,0.24588469,-0.14826269,0.406107,0.24664722,-0.12894973,0.414231,0.26281319,-0.11779001,0.420033,0.26274878,-0.19752144,0.407624,0.30366013,-0.20062853,0.409174,0.31014615,-0.22141779,0.409968,0.31665486,-0.24366254,0.414525,0.28253018,-0.22250324,0.422994,0.31578518,-0.22588259,0.425204,0.32418552,-0.24178036,0.426219,0.3225912,-0.25803001,0.430016
0.23237571,-0.23530624,0.365427,0.2416972,-0.20132201,0.382646,0.21999902,-0.21416334,0.3531,0.22906171,-0.17593248,0.343312,0.21487825,-0.14948945,0.337368,0.20358374,-0.13837892,0.341544,0.22868427,-0.16099222,0.37429,0.26258068,-0.13874847,0.377675,0.28214393,-0.13102184,0.379368,0.30138654,-0.13671991,0.382561,0.24664599,-0.1799297,0.39446,0.24646073,-0.14763943,0.40911,0.24628304,-0.12842237,0.417698,0.26276675,-0.11728112,0.423831,0.26307315,-0.19671938,0.409336,0.30832968,-0.2007967,0.414821,0.31869911,-0.21952521,0.417627,0.32433628,-0.24444172,0.421654,0.28070441,-0.22141285,0.423507,0.31843543,-0.2255827,0.429321,0.32876045,-0.24219026,0.431992,0.32690195,-0.25854073,0.435476
0.23257187,-0.22444738,0.360288,0.24077701,-0.18670149,0.377629,0.22232585,-0.20368842,0.347853,0.22691395,-0.16468224,0.340093,0.21342415,-0.13873581,0.335085,0.20306575,-0.12800211,0.340675,0.22556521,-0.14876121,0.369185,0.26031832,-0.12752674,0.374421,0.2804118,-0.12013107,0.377039,0.29903807,-0.12533163,0.37958,0.24430968,-0.16574148,0.389526,0.24625752,-0.13237515,0.403098,0.24732473,-0.1125362,0.411004,0.26480181,-0.10258394,0.416652,0.25921103,-0.18279767,0.404532,0.30565859,-0.1859206,0.410599,0.31570539,-0.20697923,0.413704,0.32263136,-0.22754552,0.416611,0.27545185,-0.20767182,0.418831,0.31505064,-0.21063324,0.425295,0.32610381,-0.22676624,0.428265,0.32370177,-0.24258582,0.430933
0.23543516,-0.21639428,0.360176,0.24072983,-0.17673012,0.377555,0.22225938,-0.1937878,0.347749,0.22693397,-0.15509526,0.340123,0.21347001,-0.12902149,0.335157,0.20307231,-0.1179812,0.340686,0.22553833,-0.13870946,0.369141,0.26039688,-0.11753591,0.374534,0.28055385,-0.11010043,0.37723,0.2991783,-0.11506262,0.379758,0.24428021,-0.15570662,0.389479,0.24624714,-0.12224573,0.403081,0.24732413,-0.10235117,0.411003,0.26480816,-0.092268211,0.416662,0.25917642,-0.17278378,0.404478,0.30569159,-0.17306675,0.41061,0.31708173,-0.19334732,0.413747,0.32527151,-0.2133098,0.416609,0.27540647,-0.19769358,0.418762,0.3150462,-0.2002302,0.425289,0.32612132,-0.21624228,0.428288,0.32369501,-0.2320299,0.430924
0.23579271,-0.20689685,0.360723,0.24087647,-0.16689693,0.377785,0.22253932,-0.18417974,0.348187,0.22638085,-0.14513914,0.339294,0.20925803,-0.12088797,0.333886,0.20005926,-0.11484429,0.340108,0.22550045,-0.12865382,0.369079,0.26038367,-0.10750116,0.374515,0.28055534,-0.10000946,0.377232,0.29920981,-0.10474588,0.379798,0.24428773,-0.14569624,0.389491,0.24610663,-0.11205795,0.402851,0.24709847,-0.092082306,0.410628,0.26450374,-0.081855818,0.416183,0.2592437,-0.16283655,0.404583,0.30551887,-0.16268991,0.410378,0.31677135,-0.18269192,0.413342,0.32489752,-0.20242739,0.41613,0.27558207,-0.18786926,0.419029,0.31502694,-0.18981852,0.425263,0.32599873,-0.20562879,0.428127,0.3235275,-0.22136442,0.430701
0.23437196,-0.19877362,0.358675,0.23945991,-0.16535207,0.376073,0.22126336,-0.18102295,0.346261,0.22491336,-0.14334981,0.337209,0.20807779,-0.11921981,0.332153,0.19613127,-0.11014579,0.338253,0.22430721,-0.12719327,0.367684,0.25920885,-0.10610185,0.373244,0.27940256,-0.098628219,0.376024,0.29817161,-0.10332839,0.378677,0.24289588,-0.14429087,0.38801,0.24471225,-0.11077751,0.401613,0.24570844,-0.090866723,0.409547,0.26317432,-0.080660538,0.415214,0.25768256,-0.16145223,0.402997,0.30422421,-0.16134517,0.409117,0.3166244,-0.18089965,0.412248,0.3264832,-0.20007858,0.415188,0.2738161,-0.18646283,0.417264,0.31352373,-0.18840437,0.423772,0.32463633,-0.20423763,0.426762,0.32227018,-0.22005302,0.429455
0.23361268,-0.19122555,0.357639,0.2382208,-0.15398333,0.37464,0.22045975,-0.17334248,0.345074,0.22428361,-0.13251286,0.33638,0.20719134,-0.1079623,0.330889,0.19541076,-0.098602443,0.337296,0.22285773,-0.11555474,0.365869,0.25787444,-0.094613618,0.371743,0.27814891,-0.087127564,0.37468,0.29691069,-0.091515953,0.377273,0.24136374,-0.13278617,0.386305,0.24276214,-0.099137177,0.399462,0.24351496,-0.079194182,0.407125,0.26080323,-0.068864337,0.412599,0.25612835,-0.15007835,0.401422,0.30244071,-0.14947471,0.407198,0.31570811,-0.16821108,0.410153,0.32695076,-0.18641178,0.412825,0.27231893,-0.17528512,0.415909,0.3119149,-0.17653248,0.422138,0.32297205,-0.19212873,0.425,0.3204726,-0.20782915,0.427489
0.2492107,-0.15682928,0.365219,0.25141373,-0.13153251,0.379249,0.22642398,-0.14246978,0.355478,0.22201594,-0.10956788,0.352808,0.20061389,-0.09569553,0.355795,0.20078657,-0.083160135,0.362853,0.2235522,-0.10275085,0.372841,0.23271588,-0.070730817,0.384818,0.23736327,-0.054394096,0.390806,0.24905636,-0.038714275,0.39625,0.25314967,-0.11512756,0.388876,0.28432637,-0.094894968,0.395464,0.30500735,-0.08103371,0.399306,0.31620523,-0.090327182,0.402051,0.27758043,-0.12783384,0.400668,0.30563335,-0.10718498,0.401834,0.31265356,-0.12228078,0.402431,0.31239367,-0.14571242,0.412924,0.30588657,-0.14697976,0.411835,0.31083456,-0.11430515,0.412834,0.32176849,-0.10576563,0.413293,0.33382705,-0.11438258,0.421409
0.24481971,-0.14897284,0.358784,0.24987926,-0.12044445,0.37669,0.22422674,-0.13598864,0.352007,0.22155335,-0.099116516,0.351843,0.20042335,-0.085249337,0.355116,0.20036798,-0.072552035,0.36164,0.22568939,-0.093393646,0.375985,0.23093531,-0.059779125,0.381232,0.23888975,-0.044061167,0.392551,0.25373399,-0.028302924,0.402841,0.25348088,-0.10492346,0.388975,0.28733444,-0.08468004,0.399194,0.30985186,-0.070528148,0.405154,0.32940812,-0.081661587,0.418412,0.27590447,-0.11670608,0.39787,0.30715857,-0.096658624,0.403418,0.31586673,-0.11219437,0.406257,0.3174746,-0.13650341,0.419423,0.30105277,-0.13432059,0.405022,0.30873367,-0.10315083,0.409538,0.32087076,-0.094818237,0.411613,0.33447875,-0.10351276,0.421753
0.24451879,-0.1470941,0.358343,0.24956961,-0.12042892,0.376507,0.22403174,-0.13424793,0.35175,0.22120296,-0.099160706,0.351659,0.20001167,-0.08542866,0.354957,0.19997138,-0.072800915,0.36167,0.22545509,-0.093604543,0.376163,0.22983377,-0.060548778,0.381508,0.23743362,-0.045207447,0.393069,0.25200851,-0.029308997,0.403579,0.25316218,-0.10499331,0.388968,0.2870779,-0.084660492,0.399441,0.30963881,-0.07042639,0.40555,0.32933651,-0.081533115,0.418923,0.27550275,-0.1166409,0.397685,0.30686287,-0.096528433,0.403532,0.31578071,-0.11207261,0.406524,0.31759484,-0.13647947,0.419832,0.30053523,-0.13406192,0.404587,0.30820543,-0.10296735,0.409348,0.32038036,-0.094607717,0.411536,0.33410518,-0.10329135,0.421785
0.2445611,-0.14372769,0.358405,0.24886576,-0.11094424,0.376742,0.22401205,-0.12756306,0.351775,0.22072015,-0.089466796,0.351858,0.19919067,-0.076086784,0.355123,0.19858323,-0.063597325,0.361431,0.2242881,-0.08462861,0.37643,0.22757185,-0.052549643,0.382237,0.23424038,-0.037515209,0.393501,0.24813671,-0.021053318,0.403741,0.25196399,-0.095952512,0.389323,0.28606569,-0.07407679,0.399992,0.30871239,-0.058833963,0.406215,0.328684,-0.068828388,0.419553,0.27434365,-0.10747914,0.398095,0.30586011,-0.085962077,0.404102,0.31525713,-0.10081459,0.407175,0.31727869,-0.12504343,0.420435,0.29953895,-0.12464388,0.40503,0.30667116,-0.093813686,0.409946,0.31889113,-0.084929525,0.412205,0.33278935,-0.092876155,0.422423
0.24397771,-0.13853803,0.358275,0.24786669,-0.1107562,0.376416,0.22321239,-0.12569431,0.351367,0.21932963,-0.089164607,0.351255,0.198011,-0.07591127,0.354772,0.19764902,-0.063516797,0.361388,0.22307022,-0.084394942,0.375646,0.22831742,-0.05069786,0.380918,0.23838448,-0.031827813,0.39122,0.24970597,-0.018504866,0.400585,0.25102382,-0.095776868,0.388863,0.28449856,-0.072642216,0.399358,0.30669605,-0.056574459,0.40548,0.32663045,-0.065702956,0.41863,0.27365993,-0.10736556,0.39792,0.30472246,-0.085637909,0.403664,0.31389076,-0.10041551,0.406603,0.31574196,-0.12460633,0.419629,0.2991876,-0.12463351,0.405218,0.30624999,-0.093706492,0.40994,0.31831199,-0.084736743,0.412109,0.33197311,-0.092607507,0.422154
0.2438035,-0.13730885,0.358456,0.24761078,-0.11032081,0.376425,0.22288609,-0.12441165,0.351364,0.22004723,-0.088726456,0.351336,0.19914672,-0.074747829,0.354795,0.19918586,-0.062264455,0.361336,0.22263337,-0.083903699,0.375332,0.22859633,-0.049681765,0.380523,0.23937263,-0.030796343,0.391473,0.25447553,-0.020330678,0.401428,0.25073893,-0.095326599,0.388754,0.28393636,-0.071709272,0.39909,0.30593743,-0.055333973,0.405119,0.32580853,-0.064130233,0.418145,0.27352473,-0.10696007,0.397997,0.30421905,-0.084314953,0.403528,0.31356559,-0.098575612,0.406357,0.31558805,-0.12276712,0.419229,0.29926126,-0.12430284,0.40554,0.30622724,-0.093303259,0.410096,0.31820577,-0.084278009,0.41219,0.33174355,-0.09209079,0.422119
0.24367441,-0.13058776,0.35926,0.24910779,-0.10014598,0.377549,0.22281328,-0.11774145,0.352333,0.22402936,-0.078569081,0.353656,0.20479875,-0.062887386,0.357534,0.20602655,-0.050220991,0.363702,0.22518106,-0.073664872,0.376821,0.23392801,-0.038594985,0.382475,0.24328682,-0.021261492,0.393074,0.25879802,-0.0052818575,0.402708,0.25325789,-0.085374315,0.390097,0.28651386,-0.060365251,0.400757,0.30854175,-0.043047296,0.406975,0.32821721,-0.050622603,0.420102,0.27588762,-0.097224092,0.399187,0.30654568,-0.072548254,0.405072,0.31602935,-0.085510677,0.408082,0.31830728,-0.10946297,0.421075,0.30120427,-0.11478292,0.406499,0.30935166,-0.084100883,0.411355,0.32141793,-0.074873559,0.413585,0.33470634,-0.082217919,0.42361
0.2435171,-0.12868205,0.359156,0.24929684,-0.099631463,0.377624,0.22276394,-0.11585079,0.352352,0.22408107,-0.078027035,0.353724,0.2048989,-0.062401023,0.357607,0.20633458,-0.049810095,0.364054,0.22556208,-0.073264661,0.377142,0.23438978,-0.038213614,0.382883,0.24379823,-0.02087728,0.393534,0.25929935,-0.0048397886,0.403217,0.25362066,-0.084936132,0.390295,0.28596334,-0.055035943,0.401133,0.30702826,-0.034915088,0.407455,0.32770047,-0.039018248,0.42066,0.27620883,-0.096742981,0.399267,0.30689048,-0.07197614,0.405358,0.31639351,-0.084904598,0.408474,0.31875396,-0.10889756,0.421563,0.30142908,-0.11423,0.406411,0.30974369,-0.083609114,0.411436,0.32182167,-0.074343058,0.413745,0.33512638,-0.08164617,0.423843
0.24715639,-0.1237397,0.364427,0.24846926,-0.098698049,0.377287,0.22600402,-0.10811767,0.35788,0.21734451,-0.073465338,0.35965,0.19941663,-0.052097699,0.355455,0.20617401,-0.037578003,0.357085,0.2190675,-0.077749888,0.374561,0.23176033,-0.039710747,0.378279,0.24084057,-0.022644396,0.386989,0.25359678,-0.0077048952,0.394908,0.2495602,-0.084964671,0.38611,0.2631199,-0.047445871,0.390939,0.27298778,-0.02319401,0.393756,0.29032334,-0.012818275,0.40715,0.27188887,-0.095633988,0.394327,0.27517452,-0.056368158,0.39517,0.28072849,-0.035337535,0.395602,0.30188736,-0.026304642,0.409095,0.29773983,-0.11157522,0.401572,0.3045055,-0.072725426,0.401702,0.31020472,-0.056666266,0.401762,0.32480618,-0.044815168,0.412017
0.31323478,-0.13416945,0.390318,0.28365203,-0.10392468,0.390331,0.28928233,-0.12665859,0.376046,0.25992473,-0.094624662,0.360111,0.22480888,-0.08836291,0.3494,0.21178451,-0.0729036,0.347838,0.23912014,-0.08056717,0.371478,0.20324744,-0.048568044,0.357014,0.21880675,-0.036189091,0.361746,0.23888662,-0.036512125,0.366048,0.26377439,-0.083602091,0.39034,0.25037224,-0.04078826,0.383517,0.26505445,-0.02491102,0.379538,0.28529813,-0.022565665,0.385817,0.28702081,-0.089066622,0.405875,0.25136673,-0.054491079,0.393416,0.25585052,-0.034751268,0.387042,0.27798186,-0.033046218,0.392173,0.31897086,-0.10051938,0.42379,0.3323267,-0.075637259,0.41315,0.33798419,-0.087719852,0.408262,0.34253141,-0.10393466,0.412153
0.25367262,-0.13068892,0.371853,0.25873836,-0.096270439,0.376775,0.22877445,-0.11652018,0.359623,0.24189881,-0.089059538,0.361487,0.22098949,-0.066343076,0.358468,0.20814151,-0.05150483,0.361953,0.22655432,-0.06460023,0.362882,0.23947332,-0.045062245,0.352908,0.25174042,-0.066024775,0.364532,0.25218393,-0.082831871,0.375099,0.2573024,-0.07161845,0.380153,0.27936172,-0.059987731,0.377686,0.29021876,-0.089124735,0.392764,0.28479054,-0.10216188,0.398389,0.28327018,-0.081130607,0.393882,0.27057119,-0.041147782,0.386044,0.2766687,-0.024063887,0.382035,0.29416741,-0.027881037,0.390004,0.31412703,-0.098689256,0.408862,0.32779528,-0.088367407,0.40203,0.33249985,-0.10351879,0.39889,0.3335867,-0.11476833,0.40496
0.28694392,-0.14009475,0.399339,0.2760015,-0.1007539,0.398024,0.26326106,-0.13010436,0.390078,0.25149815,-0.093287986,0.375945,0.22106263,-0.067337796,0.358806,0.20667948,-0.054506006,0.361163,0.24096458,-0.072730659,0.38518,0.23387055,-0.036045653,0.377179,0.23849767,-0.019133916,0.386345,0.25245293,-0.0058976822,0.394678,0.26874535,-0.074825805,0.397122,0.24458132,-0.044544497,0.387921,0.25319441,-0.021112908,0.39866,0.27189228,-0.016002582,0.413228,0.29314234,-0.080180315,0.407091,0.28923432,-0.039180802,0.394449,0.29788438,-0.02987512,0.387981,0.32083375,-0.038117277,0.398129,0.32405581,-0.092707815,0.418816,0.32499601,-0.056386635,0.407083,0.32810139,-0.058921372,0.401692,0.3397172,-0.068270983,0.409177
0.28836305,-0.13896778,0.398227,0.27865948,-0.10081027,0.400078,0.26462632,-0.129498,0.388999,0.25087871,-0.09310463,0.374651,0.22373038,-0.068086103,0.362479,0.21245939,-0.053758925,0.363547,0.24356066,-0.071614471,0.388736,0.23964402,-0.035962671,0.384605,0.24511282,-0.018606182,0.394773,0.25843789,-0.0050695281,0.404017,0.2721936,-0.075306123,0.401347,0.27204936,-0.029695308,0.395526,0.28296387,-0.018717584,0.39213,0.29964356,-0.023884217,0.403005,0.29721013,-0.080754402,0.411548,0.29654483,-0.039781281,0.402686,0.30676609,-0.029911113,0.398151,0.33089124,-0.037406682,0.409112,0.32805719,-0.093575749,0.422992,0.33143609,-0.057371239,0.413728,0.33531217,-0.061299,0.409472,0.34669032,-0.072331739,0.417397
0.29543476,-0.14257526,0.406981,0.2797988,-0.10186378,0.401155,0.26977974,-0.13249186,0.395665,0.25389835,-0.09514608,0.379152,0.22324962,-0.068825942,0.361567,0.21111199,-0.053813777,0.36041,0.24073992,-0.073025538,0.383517,0.23214885,-0.035819632,0.371978,0.23702838,-0.019154321,0.38121,0.24917524,-0.0048972777,0.389603,0.26975377,-0.075674181,0.397157,0.26413495,-0.031226543,0.383807,0.27093259,-0.019843906,0.376019,0.28564443,-0.024049953,0.384178,0.29556185,-0.081618825,0.40898,0.29199278,-0.044801854,0.391876,0.29800124,-0.035121875,0.383125,0.31679495,-0.03798915,0.390851,0.32879782,-0.095164074,0.423625,0.31489606,-0.058116163,0.408195,0.31914321,-0.055100669,0.401105,0.32945808,-0.068503467,0.406726
0.29407482,-0.14418386,0.407849,0.2794416,-0.10251475,0.400675,0.26925865,-0.13399989,0.397635,0.24952321,-0.10142478,0.385023,0.22692662,-0.070333397,0.368234,0.21333823,-0.054122927,0.363664,0.24202738,-0.072768255,0.383873,0.23210337,-0.035668177,0.37029,0.23820514,-0.018774037,0.379174,0.24785288,-0.0042193415,0.38725,0.27470071,-0.07697764,0.395753,0.28092327,-0.063983422,0.381029,0.27423394,-0.086612185,0.372441,0.27315309,-0.10591136,0.380973,0.29997505,-0.085451466,0.406261,0.28629081,-0.03910424,0.388386,0.29113544,-0.028620471,0.37924,0.30897823,-0.037245115,0.38755,0.33090186,-0.10270532,0.419625,0.31225923,-0.068348904,0.408826,0.3137701,-0.05516408,0.403864,0.3278321,-0.059674922,0.412043
0.29040075,-0.15041869,0.409502,0.27979857,-0.11548999,0.400948,0.26589019,-0.13904999,0.399383,0.25057991,-0.11223713,0.386355,0.22659655,-0.081812046,0.370072,0.21448254,-0.0586575,0.365626,0.245433,-0.081069181,0.383635,0.23444561,-0.043991366,0.368419,0.23839652,-0.026547555,0.377026,0.24732909,-0.0070160426,0.38485,0.27465186,-0.086242776,0.395079,0.27901731,-0.077679322,0.379061,0.2715347,-0.098765095,0.369718,0.27118694,-0.11553436,0.37797,0.29975369,-0.09478387,0.405367,0.28697094,-0.047043986,0.386394,0.28674138,-0.035614148,0.376687,0.30569588,-0.037680101,0.384743,0.33058946,-0.11224854,0.418718,0.31170296,-0.074432312,0.405283,0.31331215,-0.06345192,0.39911,0.32595013,-0.072381155,0.406526
0.28390799,-0.1580604,0.404178,0.28075575,-0.1250531,0.400671,0.26056988,-0.1512375,0.394861,0.24923506,-0.12135208,0.382916,0.22480909,-0.090543124,0.365392,0.2157621,-0.070817677,0.359932,0.24884492,-0.091008025,0.386745,0.24097721,-0.053683303,0.376846,0.24543687,-0.036242552,0.383928,0.25360307,-0.019269441,0.390366,0.27826259,-0.096553002,0.398265,0.28643683,-0.08887179,0.386962,0.28079337,-0.11101954,0.380369,0.28125427,-0.12861547,0.390181,0.30311645,-0.10531591,0.408107,0.28354503,-0.06223815,0.393595,0.27387124,-0.037753369,0.38617,0.28274348,-0.025275554,0.387479,0.3328656,-0.12282833,0.420067,0.31565642,-0.083435255,0.406656,0.31797448,-0.073986255,0.400494,0.33156471,-0.083376527,0.407608
0.28455912,-0.1683699,0.404733,0.2807221,-0.13509294,0.400666,0.26117906,-0.1611567,0.395116,0.2488393,-0.13137027,0.382071,0.22431907,-0.10031811,0.364259,0.21507418,-0.077273003,0.355851,0.24841761,-0.10063632,0.386085,0.24033758,-0.062953411,0.375894,0.24508674,-0.045776353,0.383432,0.25359177,-0.02929357,0.390285,0.27794063,-0.1063509,0.397876,0.28597623,-0.099282708,0.386055,0.28013985,-0.12121482,0.379159,0.28034618,-0.13860384,0.388697,0.3029379,-0.11528657,0.407998,0.28617931,-0.070457054,0.39291,0.27765564,-0.04789274,0.38519,0.28085698,-0.03450915,0.380533,0.33295175,-0.1330669,0.420378,0.31542664,-0.093395977,0.406493,0.31766094,-0.084136241,0.400114,0.33108798,-0.093857336,0.406982
0.28488738,-0.17850898,0.404828,0.28077324,-0.14516381,0.400739,0.26128676,-0.17138382,0.395253,0.24928153,-0.14192989,0.38275,0.22475692,-0.11063845,0.36497,0.21550806,-0.090663336,0.359149,0.24849289,-0.11049498,0.386202,0.24046993,-0.072458283,0.376101,0.24518773,-0.055449042,0.38359,0.25366585,-0.03939859,0.390399,0.27798114,-0.11626657,0.397934,0.28600215,-0.10988479,0.38609,0.28015611,-0.13174905,0.379181,0.28037431,-0.14908615,0.388736,0.30294607,-0.12526777,0.408009,0.28618441,-0.080324007,0.392917,0.27765924,-0.057699183,0.385195,0.27911737,-0.044345921,0.378176,0.33292007,-0.1431547,0.420338,0.31538861,-0.10332732,0.406444,0.31761807,-0.094274551,0.40006,0.33105869,-0.10437434,0.406946
0.28487331,-0.18876294,0.404808,0.28084611,-0.15525036,0.400843,0.26123124,-0.18152177,0.395169,0.2492444,-0.15223339,0.382693,0.22476615,-0.12076797,0.364985,0.21554706,-0.10071611,0.359214,0.24854243,-0.12034714,0.386279,0.24057478,-0.081964214,0.376265,0.24529959,-0.065132569,0.383765,0.2537854,-0.049518356,0.390583,0.27811247,-0.12622636,0.398122,0.28623105,-0.12057429,0.386399,0.28043687,-0.14241882,0.379561,0.28064189,-0.15970681,0.389107,0.30314506,-0.1353347,0.408277,0.28643861,-0.090269811,0.393266,0.27794109,-0.067573526,0.385586,0.27943326,-0.054457992,0.378604,0.33318857,-0.15337876,0.420677,0.3157153,-0.11338725,0.406865,0.31798248,-0.10454401,0.400519,0.33353718,-0.11524502,0.407393
0.28356903,-0.19785694,0.403508,0.2799536,-0.16251991,0.398551,0.26006104,-0.19020591,0.394282,0.24795878,-0.16017109,0.382174,0.22429149,-0.1283684,0.365011,0.21581378,-0.10446344,0.359584,0.24862924,-0.12683142,0.384077,0.24172207,-0.087871339,0.373324,0.24731105,-0.071164071,0.38094,0.25603613,-0.056050323,0.387863,0.2779937,-0.1330395,0.39515,0.28347286,-0.1285276,0.382468,0.27606807,-0.15010353,0.37507,0.27637225,-0.16696328,0.384623,0.30276144,-0.14248914,0.404771,0.28658177,-0.097036008,0.389082,0.27834865,-0.074184261,0.381055,0.27917131,-0.061521962,0.373758,0.33233336,-0.16106211,0.416727,0.3153244,-0.12052483,0.402244,0.31688281,-0.11209367,0.39559,0.32967218,-0.12322123,0.4025
0.28321467,-0.207619,0.40356,0.27993112,-0.17256197,0.398519,0.25953212,-0.19937776,0.394369,0.24792699,-0.17050817,0.382125,0.22395537,-0.13832843,0.364464,0.2152175,-0.11785897,0.358516,0.24861176,-0.1366452,0.38405,0.24162171,-0.097286664,0.373169,0.24726431,-0.080797672,0.380868,0.25603877,-0.066157173,0.387867,0.27792968,-0.14290768,0.395059,0.28334538,-0.13905791,0.382296,0.27590615,-0.16051305,0.37485,0.27621273,-0.17729527,0.384401,0.30266046,-0.15242335,0.404636,0.28643962,-0.10684446,0.388889,0.27818575,-0.083930697,0.380832,0.27898458,-0.071517565,0.373508,0.33219619,-0.17110817,0.416555,0.31514567,-0.13039607,0.402016,0.31667855,-0.12216992,0.395335,0.32946414,-0.1336773,0.402246
0.28285015,-0.20948608,0.40318,0.27936767,-0.1715558,0.398006,0.25920971,-0.20042563,0.393922,0.249365,-0.16992859,0.381755,0.22595516,-0.13718388,0.363204,0.21745277,-0.11637958,0.356675,0.24781766,-0.13572044,0.383389,0.24055818,-0.096288771,0.37236,0.24602288,-0.079727631,0.379951,0.25463196,-0.065054956,0.386851,0.27716872,-0.14185102,0.394456,0.28248636,-0.13810599,0.381569,0.27511315,-0.1595681,0.374052,0.27544351,-0.17626045,0.38354,0.30195982,-0.15126523,0.404093,0.2854648,-0.10570562,0.388211,0.27707236,-0.082793417,0.380086,0.27778004,-0.070415719,0.372699,0.33161876,-0.16984668,0.416105,0.31484617,-0.12923075,0.401455,0.31654066,-0.12175282,0.394724,0.32928289,-0.13381391,0.401579
0.28598568,-0.21895179,0.40827,0.28008684,-0.17648037,0.398753,0.2607495,-0.20777003,0.396497,0.2526088,-0.17905358,0.383132,0.22965271,-0.14560476,0.364398,0.2217368,-0.12463178,0.357995,0.24545095,-0.14190418,0.378811,0.25121561,-0.10744585,0.385627,0.25499681,-0.089213735,0.389035,0.25847962,-0.067939974,0.392133,0.27626549,-0.14915434,0.392223,0.27830638,-0.14566472,0.375447,0.26877605,-0.16573719,0.365661,0.26737314,-0.18077161,0.372695,0.30272051,-0.15972359,0.404229,0.28290307,-0.11263162,0.383939,0.27314228,-0.089322508,0.373558,0.27222421,-0.077153798,0.36412,0.33501852,-0.1801653,0.419728,0.31531643,-0.13798722,0.401513,0.31547116,-0.12980739,0.393144,0.32670077,-0.1367173,0.397815
0.28633806,-0.2261669,0.40858,0.28007297,-0.18975233,0.398835,0.26041493,-0.21806496,0.395771,0.25250559,-0.18897107,0.382487,0.22952375,-0.15552025,0.363778,0.22456819,-0.1335824,0.355368,0.24367421,-0.15095725,0.377419,0.24988378,-0.11668387,0.384032,0.25471599,-0.098383314,0.387338,0.26035551,-0.081450649,0.390344,0.275401,-0.15825651,0.392149,0.27746757,-0.15558717,0.375315,0.26878156,-0.17561944,0.365495,0.26730876,-0.19033784,0.371735,0.30285154,-0.16891888,0.405264,0.28398163,-0.12170656,0.385966,0.27500106,-0.098303356,0.376092,0.27455675,-0.086745483,0.367116,0.3366448,-0.18960603,0.422081,0.31838898,-0.14723062,0.403635,0.31003276,-0.12806306,0.39516,0.31362098,-0.11929047,0.387682
0.2793972,-0.21333002,0.397399,0.28166171,-0.16796315,0.387753,0.2590929,-0.19692694,0.386129,0.24005881,-0.15624032,0.370457,0.21803748,-0.13089029,0.363117,0.21712332,-0.11337916,0.362443,0.24944902,-0.12854227,0.368417,0.24937503,-0.10675677,0.347659,0.25677501,-0.12774425,0.361913,0.26317816,-0.14872897,0.374871,0.27973328,-0.13914572,0.381135,0.28384395,-0.12547611,0.364185,0.27410863,-0.14414988,0.354298,0.27197475,-0.16108386,0.361621,0.30551673,-0.15216892,0.392582,0.3086191,-0.13167842,0.372337,0.30907683,-0.1277091,0.361979,0.29954078,-0.14123685,0.352562,0.3368565,-0.175067,0.407459,0.33185305,-0.15339101,0.389204,0.32626101,-0.14781984,0.380816,0.31216826,-0.15524694,0.373415
0.27006777,-0.20963037,0.383264,0.27505236,-0.17514222,0.381377,0.24980411,-0.19427773,0.372013,0.23271003,-0.16004163,0.358523,0.21222072,-0.13799368,0.355386,0.21334689,-0.11856414,0.356564,0.24485132,-0.13799052,0.36564,0.25465986,-0.10311438,0.359905,0.27400223,-0.096313005,0.374422,0.28721238,-0.10236756,0.387619,0.27546191,-0.14951916,0.380082,0.28260029,-0.10834098,0.370526,0.28811559,-0.10343554,0.364951,0.29405796,-0.11940602,0.37387,0.30117442,-0.16287915,0.392168,0.31286235,-0.12441761,0.383057,0.31965988,-0.11449239,0.378396,0.31695684,-0.12127287,0.374158,0.3317286,-0.18534231,0.406435,0.32268414,-0.14410302,0.394032,0.32319424,-0.12746205,0.388334,0.32722762,-0.1188879,0.383305
0.27677979,-0.21508989,0.392518,0.28492264,-0.17685774,0.393616,0.25336804,-0.1978826,0.381671,0.22958893,-0.16147252,0.364988,0.21207221,-0.13606385,0.357469,0.21256441,-0.11589849,0.358212,0.26172215,-0.13901809,0.37979,0.28108727,-0.12607425,0.369637,0.28829877,-0.15026479,0.383834,0.28243557,-0.16549021,0.393513,0.28760358,-0.15480136,0.39437,0.31389992,-0.14594419,0.387697,0.30408637,-0.16816082,0.383804,0.29826987,-0.18145031,0.393441,0.31166322,-0.1708625,0.406268,0.31632586,-0.13012901,0.404063,0.33129609,-0.1229618,0.402935,0.3389976,-0.13539567,0.40191,0.33675224,-0.19638953,0.419801,0.35133059,-0.17783623,0.409781,0.34864995,-0.19208514,0.405177,0.34650849,-0.20648614,0.412041
0.2679609,-0.20868804,0.380169,0.27892554,-0.18080918,0.391582,0.24863706,-0.19439721,0.374569,0.22764158,-0.16085934,0.363855,0.20972594,-0.13450359,0.359797,0.21447301,-0.11701393,0.361826,0.26090958,-0.15001419,0.389439,0.27476713,-0.11283565,0.387647,0.28691319,-0.10302041,0.386752,0.3080703,-0.10881058,0.399302,0.28706475,-0.16373777,0.399412,0.31098043,-0.12916491,0.402717,0.32209863,-0.13071407,0.404645,0.32803901,-0.15008245,0.418426,0.30750226,-0.17777591,0.406475,0.32269724,-0.13935538,0.406346,0.33706563,-0.13542799,0.40628,0.34327209,-0.14900329,0.40622,0.32936143,-0.19889538,0.412642,0.34846735,-0.18616745,0.411736,0.35276484,-0.20277331,0.411319,0.3555232,-0.21546191,0.421956
0.26999869,-0.21925313,0.385324,0.26933906,-0.19244257,0.387282,0.24864029,-0.20541144,0.377166,0.2238308,-0.17249853,0.360117,0.20392002,-0.14348317,0.350596,0.20538962,-0.12379497,0.34753,0.25121935,-0.15341067,0.377403,0.25940482,-0.11509895,0.366825,0.26964305,-0.10547665,0.361536,0.28955209,-0.11309505,0.371647,0.27498312,-0.16828636,0.388625,0.29330328,-0.13189597,0.382553,0.30858641,-0.1281353,0.379011,0.32371232,-0.14331768,0.390407,0.29366938,-0.18393967,0.39767,0.30901493,-0.14801871,0.388227,0.32167509,-0.138507,0.383395,0.33236395,-0.14120946,0.379002,0.31398356,-0.20812307,0.407764,0.33015903,-0.20267638,0.398756,0.34206696,-0.22689208,0.412516,0.34057384,-0.23858227,0.421021
0.25942126,-0.22679902,0.37711,0.26485073,-0.19841928,0.380397,0.23891994,-0.21310736,0.368888,0.22012392,-0.17897717,0.35228,0.2032522,-0.14899864,0.34305,0.2032603,-0.12965368,0.341365,0.24477064,-0.16024425,0.371048,0.24110647,-0.13130109,0.38093,0.24857513,-0.11411283,0.385871,0.27083972,-0.11155611,0.400475,0.2693282,-0.17422637,0.382652,0.28959467,-0.13908039,0.377912,0.30542749,-0.13248078,0.375147,0.32045403,-0.14399997,0.386717,0.28884294,-0.18916934,0.391879,0.3078346,-0.15440865,0.385941,0.32192814,-0.1470639,0.382903,0.33121179,-0.1532422,0.380141,0.31039879,-0.21253437,0.40195,0.32755135,-0.20641458,0.393977,0.34065881,-0.23073847,0.407603,0.33766999,-0.23891907,0.415693
0.25282199,-0.23167216,0.373325,0.25595169,-0.20454998,0.379601,0.23517603,-0.21379795,0.364779,0.21407702,-0.1819571,0.352133,0.20098952,-0.1504486,0.343448,0.20127681,-0.13179841,0.343144,0.23627386,-0.16718321,0.3712,0.23592045,-0.13717294,0.381027,0.24921212,-0.12289336,0.38594,0.27077283,-0.11342766,0.3998,0.25964064,-0.18314423,0.383908,0.28273254,-0.1497697,0.382148,0.3019668,-0.13932488,0.381122,0.32519813,-0.14651566,0.392868,0.27830954,-0.19931539,0.393742,0.30491365,-0.17120302,0.392361,0.31562246,-0.18461374,0.391655,0.32056304,-0.20993995,0.404631,0.29911407,-0.22345356,0.403995,0.33096138,-0.2075681,0.403138,0.34862732,-0.21303508,0.416444,0.3549376,-0.21608204,0.421905
0.24990094,-0.23845467,0.369462,0.25500243,-0.21485035,0.377613,0.23288186,-0.22119118,0.361844,0.21313132,-0.19297202,0.349769,0.1993522,-0.1634515,0.343052,0.20004254,-0.14624796,0.345529,0.23650436,-0.17828692,0.371302,0.23856749,-0.15441053,0.38508,0.25623911,-0.14417,0.391968,0.27861205,-0.13683351,0.406306,0.25912547,-0.19355323,0.383206,0.28311133,-0.16060013,0.383272,0.30341738,-0.15052787,0.383311,0.32735344,-0.15426101,0.395777,0.27703427,-0.20908773,0.392189,0.30515646,-0.18179141,0.393145,0.31720778,-0.19586053,0.393634,0.32280182,-0.22213622,0.407564,0.2967262,-0.23231862,0.401135,0.32918194,-0.21664547,0.401719,0.34790758,-0.22336589,0.415351,0.35325465,-0.22881544,0.420431
0.25021842,-0.24120469,0.37026,0.25471223,-0.21389062,0.376815,0.23257902,-0.22319604,0.361552,0.2135217,-0.19277551,0.35016,0.2001661,-0.1634406,0.343988,0.20054884,-0.14591251,0.345855,0.23502441,-0.17625887,0.368329,0.26222227,-0.14844663,0.36858,0.27603197,-0.14766486,0.368705,0.2925048,-0.1600565,0.381041,0.25823815,-0.1919927,0.381313,0.28208214,-0.15932812,0.37985,0.30176359,-0.15003625,0.378996,0.32422087,-0.15904651,0.390672,0.27678975,-0.2080429,0.391346,0.30431847,-0.18046768,0.39147,0.31584399,-0.1944265,0.391533,0.32085243,-0.2202215,0.4048,0.29746321,-0.2321254,0.401781,0.32750621,-0.21499355,0.399413,0.34390217,-0.22364779,0.4125,0.34983211,-0.22858504,0.418407
0.24258273,-0.24092349,0.360513,0.25405293,-0.2177269,0.376353,0.22587538,-0.22669653,0.351872,0.21066965,-0.19792655,0.34539,0.19944608,-0.17012999,0.342177,0.20025353,-0.14948481,0.344946,0.23739741,-0.1854325,0.372232,0.27192178,-0.1625157,0.381161,0.29031548,-0.15655072,0.385625,0.31572046,-0.16400681,0.398088,0.26177952,-0.20236553,0.387221,0.29701399,-0.17667574,0.39572,0.3230651,-0.17489193,0.400678,0.34635636,-0.18742044,0.412653,0.28071063,-0.21906607,0.39797,0.31705756,-0.19681849,0.406942,0.33338762,-0.21357268,0.411533,0.33778592,-0.24065147,0.424846,0.30064373,-0.24316074,0.407619,0.3352271,-0.22983221,0.410215,0.34099082,-0.24097682,0.421079,0.32968223,-0.25068795,0.424379
0.24299048,-0.24287003,0.361135,0.25419356,-0.21731866,0.376688,0.22622699,-0.22821821,0.352572,0.21097912,-0.19793298,0.346397,0.19938729,-0.16999557,0.342909,0.20019876,-0.14914757,0.345131,0.23679173,-0.18502723,0.372536,0.25429947,-0.1510363,0.374926,0.27105763,-0.14235241,0.376121,0.29544393,-0.14480778,0.386823,0.26116956,-0.20171645,0.387358,0.29713029,-0.17692395,0.395927,0.32132508,-0.17580264,0.400925,0.3461795,-0.18909579,0.413095,0.28047814,-0.21620637,0.397998,0.31570294,-0.19538536,0.406339,0.3323142,-0.20462354,0.410606,0.34726593,-0.23320245,0.423919,0.300651,-0.24009486,0.407572,0.33443649,-0.22829778,0.409903,0.34041759,-0.23950584,0.420943,0.32933315,-0.24943515,0.424403
0.24371532,-0.24791546,0.360468,0.25418112,-0.22518225,0.376278,0.22711135,-0.23426769,0.351407,0.21373542,-0.20630742,0.344296,0.20063541,-0.17857834,0.340141,0.20088663,-0.16198915,0.343404,0.23536657,-0.19378416,0.371589,0.25349159,-0.16054278,0.37506,0.27106945,-0.1518643,0.376795,0.29590272,-0.14962665,0.387238,0.25914291,-0.21008956,0.387125,0.29557578,-0.18580058,0.396176,0.32305021,-0.17963854,0.401455,0.34696353,-0.1900899,0.413186,0.27799536,-0.22624819,0.398327,0.32074727,-0.21017902,0.412428,0.34276795,-0.22647075,0.419642,0.35491028,-0.25555589,0.434079,0.29857886,-0.24965436,0.408505,0.33416756,-0.23241219,0.411094,0.34053737,-0.24356319,0.421524,0.32949948,-0.25186934,0.424657
0.24150706,-0.24850595,0.358253,0.25114111,-0.22846739,0.373446,0.22704679,-0.23824012,0.354055,0.20693348,-0.20916251,0.346418,0.19741199,-0.17825454,0.339151,0.19675018,-0.16121127,0.341551,0.23580618,-0.19643378,0.374898,0.24026673,-0.16618618,0.379904,0.24821867,-0.14987909,0.382407,0.2699059,-0.14718318,0.3968,0.25737608,-0.20916759,0.38387,0.29562939,-0.19304025,0.393889,0.32010036,-0.18139659,0.399733,0.34823542,-0.17700628,0.415168,0.27389174,-0.22224724,0.389729,0.3110268,-0.20463522,0.400161,0.33081644,-0.19358949,0.405498,0.36081265,-0.20996249,0.422593,0.29443938,-0.24297719,0.393849,0.33537471,-0.23244081,0.404717,0.34767041,-0.24307109,0.418887,0.3377973,-0.25144284,0.420556
0.23836163,-0.25252304,0.35577,0.24948078,-0.22911628,0.372392,0.22387751,-0.2383862,0.352025,0.20698967,-0.21033904,0.347922,0.19690812,-0.17894084,0.340032,0.19649109,-0.16158265,0.341878,0.23416745,-0.19892746,0.375102,0.2435933,-0.16796486,0.382816,0.25346236,-0.152214,0.386673,0.27542158,-0.15174814,0.401723,0.2575504,-0.21063977,0.383797,0.28708473,-0.18399576,0.395215,0.30987116,-0.17727706,0.401876,0.33619597,-0.1786342,0.417547,0.27576557,-0.22501955,0.389282,0.31097285,-0.20563137,0.402137,0.3322357,-0.19799071,0.408714,0.36306559,-0.21141654,0.426386,0.29385347,-0.24468725,0.392726,0.33697853,-0.23605847,0.406237,0.34895644,-0.24607812,0.420209,0.33809908,-0.25351474,0.420871
0.23021208,-0.26036257,0.353472,0.24486874,-0.2423552,0.371903,0.21502261,-0.24563113,0.349826,0.20164126,-0.21741719,0.344835,0.19172937,-0.18647191,0.337885,0.19325269,-0.16832807,0.33852,0.2355943,-0.21005367,0.375576,0.24265545,-0.17958291,0.383701,0.25837393,-0.17142789,0.387764,0.27714105,-0.1857122,0.402507,0.25827856,-0.22546031,0.384548,0.2920602,-0.19863245,0.397951,0.31754468,-0.19316315,0.40577,0.35060563,-0.19400986,0.421559,0.27484382,-0.24048672,0.39008,0.30895175,-0.21759575,0.402217,0.3308581,-0.21155648,0.408426,0.36229244,-0.21290472,0.425417,0.29050483,-0.26192026,0.393263,0.3329416,-0.25280438,0.406786,0.34528005,-0.2653774,0.420445,0.33367011,-0.27438701,0.420981
0.23778516,-0.25333643,0.358694,0.25102049,-0.23456343,0.378021,0.22147283,-0.2390462,0.354802,0.22713634,-0.21062543,0.363055,0.24004488,-0.1898394,0.372663,0.25023367,-0.17975348,0.380955,0.24140128,-0.20600071,0.381783,0.27178029,-0.18859434,0.388173,0.28862735,-0.18211298,0.391368,0.31333525,-0.18316165,0.405223,0.26358402,-0.22690496,0.391282,0.30247302,-0.20499235,0.402805,0.3247236,-0.20289082,0.409527,0.3498563,-0.20712078,0.424436,0.28050961,-0.24314772,0.397157,0.31702024,-0.22737247,0.405012,0.33551088,-0.23027547,0.409031,0.35882275,-0.24867767,0.424319,0.29650186,-0.26559979,0.400581,0.33417791,-0.25272021,0.40676,0.34520299,-0.26243001,0.420509,0.33469122,-0.26746214,0.4247
0.23479593,-0.25990097,0.359181,0.24950296,-0.24672022,0.37886,0.216047,-0.24657675,0.355424,0.22754925,-0.22120067,0.363715,0.2403167,-0.20024214,0.373085,0.25068691,-0.19019384,0.381645,0.2421474,-0.21638957,0.382963,0.27277521,-0.19972201,0.389594,0.28976455,-0.19370572,0.39291,0.31455233,-0.19552443,0.406797,0.265076,-0.23488819,0.392362,0.30356411,-0.21622258,0.404258,0.32525478,-0.21668664,0.411197,0.34928538,-0.22421915,0.426169,0.28186064,-0.25192797,0.39812,0.31807616,-0.23878395,0.406361,0.33761965,-0.23979449,0.410577,0.3619396,-0.25234639,0.42594,0.29766153,-0.2749111,0.401347,0.33634395,-0.26350712,0.407862,0.34626771,-0.26871511,0.421806,0.33753789,-0.27929183,0.427084
0.22929166,-0.26364002,0.357795,0.24908617,-0.25464362,0.378147,0.21546588,-0.24971895,0.354468,0.22744978,-0.22982601,0.363556,0.24019947,-0.20886216,0.372903,0.2509306,-0.19904661,0.382016,0.24225046,-0.22483427,0.383126,0.27303566,-0.20885679,0.389966,0.29011559,-0.20326214,0.393386,0.31496834,-0.20577114,0.407335,0.26490575,-0.24312385,0.39211,0.30391028,-0.22546075,0.404719,0.32661825,-0.22530694,0.412074,0.35101255,-0.22823336,0.42724,0.28139195,-0.25994588,0.397458,0.31819044,-0.24799426,0.406507,0.33807932,-0.24975039,0.411136,0.36436904,-0.26599046,0.426744,0.29673297,-0.28258874,0.400095,0.33534654,-0.2710565,0.407292,0.34363644,-0.28005388,0.421215,0.33285179,-0.28929212,0.425517
0.23606646,-0.23926061,0.332346,0.25131921,-0.24029022,0.35498,0.22253454,-0.23287112,0.333575,0.1990959,-0.22566077,0.337308,0.18563961,-0.19919263,0.335182,0.19142796,-0.18187706,0.335852,0.23246569,-0.23648438,0.367033,0.23955862,-0.20766488,0.380179,0.25174167,-0.2027968,0.386752,0.26990935,-0.22036439,0.403348,0.25646593,-0.24050232,0.37051,0.27063711,-0.21103041,0.385823,0.28219104,-0.20822482,0.394757,0.2953493,-0.22911178,0.411423,0.27536738,-0.24373141,0.371091,0.2952249,-0.21867462,0.384412,0.30628332,-0.23233208,0.391227,0.31872097,-0.26457779,0.408969,0.29611914,-0.24739216,0.367835,0.30406203,-0.22141869,0.378351,0.30888302,-0.23156883,0.392896,0.30577955,-0.24641828,0.394835
0.24189954,-0.23381089,0.322089,0.2549591,-0.24443409,0.356999,0.22468981,-0.23293546,0.32407,0.20379994,-0.23377408,0.33345,0.18767669,-0.21436369,0.336436,0.1906829,-0.19840351,0.340017,0.2392966,-0.25443201,0.375702,0.25834654,-0.23443057,0.404213,0.27176549,-0.22135021,0.418468,0.29251178,-0.2331321,0.434657,0.2643999,-0.25639899,0.380951,0.28647686,-0.23466774,0.41106,0.3065886,-0.23778076,0.428623,0.3240694,-0.25723129,0.444424,0.28382233,-0.25666711,0.381755,0.3133495,-0.23825895,0.412492,0.33594739,-0.23259937,0.428217,0.36515843,-0.24377753,0.445889,0.30370834,-0.25397175,0.376626,0.31614023,-0.23558563,0.398916,0.3206823,-0.24208187,0.408915,0.31487448,-0.25359763,0.404948
0.24231955,-0.23592051,0.320496,0.25666447,-0.25635475,0.356342,0.22789718,-0.23800671,0.321901,0.20373944,-0.24361684,0.333351,0.18773917,-0.22437939,0.336548,0.19072608,-0.20835408,0.340094,0.23866731,-0.26340454,0.374714,0.25614064,-0.24478654,0.404799,0.26796838,-0.23397325,0.419841,0.29063904,-0.23791959,0.435527,0.26438949,-0.26599905,0.380936,0.28791531,-0.24641932,0.413124,0.30893331,-0.251304,0.431901,0.32617457,-0.27151376,0.447311,0.28433755,-0.26672182,0.382448,0.31529876,-0.2504459,0.415058,0.33871285,-0.24603389,0.431742,0.36754338,-0.25635171,0.448935,0.30529605,-0.26510399,0.377972,0.31882202,-0.24657879,0.401174,0.3218027,-0.25309172,0.410187,0.3194303,-0.26232063,0.405515
0.27009945,-0.27219856,0.354765,0.26473166,-0.2556509,0.372512,0.24751722,-0.26385294,0.347055,0.22222905,-0.25057792,0.347947,0.19269235,-0.22822458,0.340498,0.19135807,-0.21019152,0.340711,0.23196789,-0.22951235,0.3705,0.23776994,-0.19642442,0.376984,0.24074639,-0.178707,0.380257,0.24594746,-0.16315992,0.386029,0.25807449,-0.23833621,0.384689,0.28295258,-0.20951847,0.399377,0.31294832,-0.22943235,0.416064,0.31261267,-0.24850703,0.415989,0.27805549,-0.24858635,0.394586,0.32167337,-0.2413309,0.412828,0.34502946,-0.23534257,0.422161,0.37237175,-0.25827983,0.43842,0.30146087,-0.26201969,0.402922,0.32389718,-0.24810198,0.40726,0.34585065,-0.24467361,0.418381,0.34273133,-0.25176733,0.421167
