sluyters/QuantumLeap/src/datasets/gesture/HandGestureDataset_SHREC2017_csv/Gesture10/finger_1/subject_10_essai_1_skeletons_world.csv
Wrist_x,Wrist_y,Wrist_z,Palm_x,Palm_y,Palm_z,thumb_base_x,thumb_base_y,thumb_base_z,thumb_first_joint_x,thumb_first_joint_y,thumb_first_joint_z,thumb_second_joint_x,thumb_second_joint_y,thumb_second_joint_z,thumb_tip_x,thumb_tip_y,thumb_tip_z,index_base_x,index_base_y,index_base_z,index_first_joint_x,index_first_joint_y,index_first_joint_z,index_second_joint_x,index_second_joint_y,index_second_joint_z,index_tip_x,index_tip_y,index_tip_z,middle_base_x,middle_base_y,middle_base_z,middle_first_joint_x,middle_first_joint_y,middle_first_joint_z,middle_second_joint_x,middle_second_joint_y,middle_second_joint_z,middle_tip_x,middle_tip_y,middle_tip_z,ring_base_x,ring_base_y,ring_base_z,ring_first_joint_x,ring_first_joint_y,ring_first_joint_z,ring_second_joint_x,ring_second_joint_y,ring_second_joint_z,ring_tip_x,ring_tip_y,ring_tip_z,pinky_base_x,pinky_base_y,pinky_base_z,pinky_first_joint_x,pinky_first_joint_y,pinky_first_joint_z,pinky_second_joint_x,pinky_second_joint_y,pinky_second_joint_z,pinky_tip_x,pinky_tip_y,pinky_tip_z,
0.388019,-0.34055836,0.4472,0.3860064,-0.28551698,0.443092,0.3693201,-0.32435716,0.448473,0.3373652,-0.29168646,0.440212,0.3057999,-0.26516757,0.427829,0.29079283,-0.24438889,0.421032,0.3641305,-0.24018813,0.441875,0.36130617,-0.19702858,0.431467,0.36717903,-0.17928802,0.434713,0.37273362,-0.16263095,0.437664,0.38501254,-0.24109144,0.438966,0.38278261,-0.21702772,0.426923,0.40801512,-0.25587696,0.451368,0.41372925,-0.28198298,0.463398,0.40196319,-0.24519738,0.436894,0.40678849,-0.21996201,0.424777,0.42245845,-0.24988828,0.44489,0.42318049,-0.27677379,0.457818,0.42195801,-0.25629849,0.435033,0.41828961,-0.25044956,0.425283,0.42625872,-0.27407721,0.440627,0.43053181,-0.28982316,0.450981
0.39253052,-0.33028996,0.453661,0.38390301,-0.27444446,0.44144,0.37401659,-0.31753134,0.454092,0.33928554,-0.28419554,0.443474,0.30442,-0.25555046,0.427132,0.28819721,-0.23417871,0.418936,0.35601659,-0.22618001,0.433663,0.34744975,-0.18110276,0.417185,0.35489013,-0.16470595,0.422812,0.3618808,-0.14907057,0.427927,0.37512626,-0.22595961,0.429168,0.36511218,-0.19771746,0.40904,0.38879701,-0.23360824,0.43162,0.39960732,-0.25698562,0.445989,0.39112759,-0.22938605,0.426423,0.38763839,-0.20005326,0.406395,0.40216665,-0.22764229,0.424953,0.40852056,-0.25209963,0.440455,0.41116904,-0.24016984,0.424949,0.40290873,-0.22919064,0.409839,0.40803364,-0.25119182,0.423927,0.41279454,-0.26358425,0.434708
0.39277571,-0.32777018,0.455506,0.38273329,-0.27188601,0.441721,0.37351332,-0.31436044,0.454947,0.33842113,-0.28100584,0.44276,0.30340808,-0.25160092,0.424735,0.28742999,-0.22981351,0.414789,0.35273077,-0.21970419,0.431653,0.34428151,-0.17706282,0.413699,0.35134696,-0.16075486,0.418337,0.35812471,-0.14554557,0.422554,0.3723513,-0.22017079,0.427878,0.36268265,-0.1966246,0.406327,0.38564032,-0.23297636,0.428664,0.39635532,-0.25552722,0.443471,0.38969991,-0.22664484,0.425848,0.38523395,-0.20073934,0.404731,0.3968673,-0.23164851,0.423103,0.40497209,-0.25226008,0.438969,0.41051987,-0.2381231,0.425449,0.40444145,-0.22204382,0.408936,0.40963543,-0.2434514,0.422826,0.41261094,-0.25994778,0.434023
0.39363795,-0.32114292,0.459115,0.38087242,-0.25896627,0.442604,0.37061372,-0.30157468,0.455737,0.3340971,-0.26343504,0.439387,0.30282006,-0.23455145,0.421709,0.28673438,-0.21245653,0.413669,0.34936997,-0.20621854,0.427188,0.34374205,-0.16602715,0.405794,0.34769651,-0.14951029,0.402905,0.35156632,-0.13383742,0.400279,0.37089622,-0.20889311,0.426023,0.35958426,-0.18491243,0.402208,0.38080165,-0.22068037,0.424149,0.39121581,-0.24272101,0.43965,0.38922479,-0.21483767,0.426353,0.38308338,-0.19186586,0.403954,0.39544486,-0.22034811,0.422044,0.40200616,-0.24244528,0.438316,0.41253422,-0.2289757,0.429153,0.40458465,-0.21212238,0.409745,0.4096025,-0.23294753,0.423267,0.41403109,-0.24716718,0.435341
0.39202812,-0.31575928,0.460845,0.38081698,-0.2580653,0.442997,0.37006766,-0.29902298,0.456299,0.33208172,-0.26158537,0.438253,0.30037926,-0.23278597,0.420019,0.28376592,-0.21045497,0.411284,0.34829494,-0.20380831,0.425225,0.34250911,-0.16632525,0.402755,0.34315485,-0.15106062,0.393316,0.34267579,-0.13542884,0.384735,0.37049384,-0.20735754,0.425073,0.35837776,-0.19247831,0.400157,0.3793628,-0.2285013,0.421723,0.38996056,-0.24809564,0.437505,0.38945411,-0.21407125,0.42634,0.38346366,-0.19158775,0.40324,0.39627256,-0.22187594,0.42104,0.40146368,-0.24203733,0.437479,0.41364235,-0.22924492,0.430448,0.40482517,-0.21225463,0.409761,0.40954151,-0.23295387,0.422998,0.41411596,-0.24725519,0.435412
0.39764618,-0.31681686,0.466956,0.38209013,-0.25662226,0.442477,0.37272889,-0.29448095,0.459251,0.33836592,-0.25907619,0.440104,0.30145592,-0.23187758,0.419489,0.28359789,-0.20858548,0.408626,0.34793895,-0.19860294,0.416282,0.33749578,-0.16652195,0.388476,0.33241788,-0.15027018,0.374573,0.32790005,-0.13535132,0.361934,0.37178759,-0.20256391,0.417894,0.35546653,-0.20007138,0.387242,0.36468835,-0.23298176,0.406072,0.37779717,-0.24719777,0.423069,0.39240753,-0.20975737,0.421131,0.38366679,-0.19668724,0.393309,0.38753921,-0.22613773,0.408888,0.39438365,-0.2446652,0.426346,0.41899392,-0.22571224,0.428543,0.40123574,-0.21903897,0.402846,0.40331235,-0.23857024,0.414209,0.40740485,-0.247268,0.427659
0.40012188,-0.31772245,0.470524,0.38299384,-0.25707806,0.442945,0.37487397,-0.29559385,0.462067,0.33557269,-0.26132007,0.44032,0.30200538,-0.2320055,0.419699,0.28403433,-0.20848695,0.408003,0.34630206,-0.19877304,0.41371,0.33527973,-0.16932848,0.383483,0.32962843,-0.15375896,0.36837,0.32457219,-0.13950787,0.35463,0.36998117,-0.20319193,0.415249,0.35060864,-0.20386957,0.381878,0.35555228,-0.23488972,0.399054,0.3701919,-0.24712313,0.416517,0.39058038,-0.21083661,0.418668,0.37960325,-0.20168518,0.388332,0.38413597,-0.22879179,0.402551,0.38952957,-0.2443909,0.420481,0.41740122,-0.22748859,0.426749,0.4000783,-0.22491745,0.399116,0.39934443,-0.24318907,0.409394,0.40308974,-0.25218484,0.423105
0.4043762,-0.32295746,0.474386,0.38431043,-0.26322348,0.443903,0.37744635,-0.30060528,0.464454,0.33453944,-0.27301311,0.438695,0.29790696,-0.24405331,0.41788,0.2812274,-0.22431027,0.407879,0.34547756,-0.20723339,0.410865,0.33102218,-0.17506722,0.378408,0.32626145,-0.16096685,0.364803,0.3220831,-0.14798981,0.352435,0.36966491,-0.21113804,0.413291,0.35112445,-0.21096249,0.377639,0.35654354,-0.24073849,0.39291,0.36537185,-0.2530069,0.410599,0.39076076,-0.21838793,0.417667,0.37957122,-0.20999382,0.385514,0.38428682,-0.23693334,0.39818,0.38629463,-0.25244102,0.416222,0.41823396,-0.23256588,0.427306,0.40053016,-0.21802915,0.398192,0.40959963,-0.24055394,0.407678,0.41840751,-0.25427019,0.421603
0.40467976,-0.32314665,0.474966,0.38468566,-0.26546902,0.443919,0.3786712,-0.30378222,0.465075,0.33477212,-0.2732531,0.439373,0.29804262,-0.246648,0.418254,0.28033279,-0.22440122,0.407211,0.34537455,-0.20860776,0.41055,0.33036938,-0.17677968,0.377659,0.32528634,-0.16286639,0.363805,0.32080863,-0.15007077,0.35121,0.36942224,-0.21250068,0.412741,0.34982207,-0.21263541,0.376579,0.35477069,-0.24192691,0.391475,0.36303278,-0.25294393,0.40923,0.39041895,-0.21974168,0.416967,0.37823945,-0.21170219,0.384276,0.3824122,-0.23839398,0.396629,0.38549864,-0.25473909,0.414764,0.41793573,-0.23593359,0.426511,0.39967967,-0.22187496,0.397048,0.4080606,-0.24209473,0.406303,0.41695741,-0.25562949,0.420262
0.40585811,-0.3277121,0.476386,0.38491112,-0.27425585,0.444118,0.37855596,-0.30796022,0.465554,0.33341184,-0.28192575,0.439302,0.2911452,-0.25379841,0.415618,0.27844867,-0.23211468,0.407075,0.34580169,-0.21594901,0.408752,0.32991971,-0.18660926,0.374874,0.32433549,-0.17311827,0.360493,0.31939215,-0.1607327,0.347418,0.36990576,-0.22170828,0.411713,0.34877892,-0.22358607,0.37472,0.35248666,-0.25224061,0.388609,0.36059167,-0.26342844,0.40635,0.3908002,-0.23054198,0.416668,0.37765143,-0.22355234,0.383454,0.38102675,-0.25003369,0.39499,0.38630062,-0.26663768,0.413011,0.41794513,-0.24877329,0.427256,0.40033164,-0.23292152,0.396947,0.40690553,-0.25390768,0.405526,0.415496,-0.26767955,0.419519
0.39965432,-0.32999224,0.46858,0.38481083,-0.27687658,0.441888,0.37362776,-0.31274371,0.457162,0.32912493,-0.2873878,0.43291,0.28597955,-0.25643358,0.408273,0.26690442,-0.23635727,0.400686,0.3474764,-0.21778341,0.409588,0.33129923,-0.1775088,0.378968,0.32702077,-0.16720364,0.364359,0.32477362,-0.16300919,0.351079,0.37253765,-0.22426047,0.415083,0.36517123,-0.22812183,0.383337,0.37659815,-0.26376646,0.400346,0.38006911,-0.28255001,0.417169,0.39258737,-0.23394149,0.421688,0.39207313,-0.22481174,0.394057,0.40632021,-0.25298929,0.408202,0.41175106,-0.26781472,0.42501,0.41908804,-0.25244981,0.433421,0.40822173,-0.24700542,0.405996,0.42090438,-0.26768822,0.41633,0.42837335,-0.28845219,0.429989
0.39320181,-0.34137581,0.460413,0.37956343,-0.28851064,0.436836,0.36938645,-0.32143793,0.449915,0.32155203,-0.29429144,0.42733,0.28080933,-0.26507844,0.405703,0.26265109,-0.24599899,0.399756,0.3414461,-0.22675375,0.407794,0.33222867,-0.20014086,0.379849,0.327829,-0.18667055,0.365876,0.32397514,-0.17431181,0.353174,0.36593816,-0.23304044,0.413158,0.36049356,-0.23428251,0.384113,0.37725032,-0.27198811,0.402773,0.38293943,-0.29279064,0.419136,0.38702648,-0.24233736,0.419413,0.38643028,-0.23259217,0.394216,0.40276996,-0.26240912,0.409717,0.40898327,-0.27832791,0.426083,0.41424071,-0.26121048,0.430274,0.40355507,-0.25322749,0.40464,0.41821913,-0.27543781,0.415961,0.42812743,-0.29239715,0.429372
0.38746722,-0.34962162,0.455501,0.37429844,-0.29652372,0.43339,0.36351664,-0.32960996,0.445775,0.31795904,-0.30348486,0.42478,0.27725147,-0.27438255,0.405124,0.26197268,-0.25806594,0.403463,0.33703833,-0.23555029,0.406302,0.32801194,-0.20831625,0.379538,0.3237176,-0.19450458,0.366156,0.31996551,-0.18181404,0.353991,0.36127754,-0.24135521,0.411186,0.35744354,-0.24261573,0.383338,0.37660011,-0.2814611,0.402788,0.38317781,-0.30285052,0.418966,0.38208375,-0.25023304,0.41693,0.38210418,-0.24078682,0.392685,0.39927597,-0.27135269,0.408827,0.40553603,-0.28736598,0.425065,0.40884259,-0.26855137,0.426973,0.39942865,-0.26039014,0.402677,0.41566871,-0.28355071,0.414592,0.42710411,-0.3048861,0.427763
0.38299339,-0.35140112,0.451189,0.36982414,-0.30328139,0.428724,0.35821915,-0.33695352,0.441195,0.31283984,-0.31011236,0.419587,0.27170483,-0.27971329,0.397271,0.25454677,-0.26103087,0.392411,0.33348518,-0.24254969,0.401064,0.32386335,-0.21393969,0.373797,0.31925279,-0.19944794,0.360163,0.31476647,-0.18233928,0.347769,0.3576141,-0.24799846,0.406164,0.35439333,-0.25167221,0.37805,0.37224359,-0.29074054,0.397291,0.37836042,-0.31138565,0.413499,0.37821538,-0.25660408,0.412114,0.37927114,-0.25360471,0.387691,0.3941772,-0.28321526,0.403664,0.39948819,-0.29683753,0.419907,0.40452316,-0.2745892,0.422453,0.39601527,-0.26870464,0.398138,0.41232671,-0.29252766,0.409975,0.42360138,-0.31379321,0.423122
0.37857088,-0.3581872,0.448099,0.36765353,-0.30550634,0.426882,0.3536378,-0.3425567,0.436735,0.30878668,-0.30865662,0.413757,0.27181405,-0.28126054,0.397144,0.25708283,-0.26439753,0.395443,0.33235213,-0.24874033,0.398373,0.32274027,-0.21449334,0.37125,0.31839029,-0.19915372,0.357688,0.31455916,-0.18508426,0.345359,0.35694412,-0.25479203,0.405575,0.35804922,-0.26077795,0.379138,0.37409634,-0.30010644,0.398246,0.37753731,-0.32028492,0.413807,0.37776855,-0.26384027,0.413157,0.38417916,-0.26301591,0.39092,0.39834454,-0.29349806,0.406817,0.40081747,-0.30696633,0.422147,0.40398992,-0.2822102,0.42525,0.39818062,-0.26153868,0.4012,0.41512454,-0.28459935,0.412836,0.42546617,-0.30413897,0.425812
0.38082638,-0.36891498,0.451115,0.36968761,-0.31852001,0.427974,0.35610518,-0.35268047,0.438923,0.31223502,-0.32390668,0.414802,0.27307577,-0.29491591,0.395732,0.25886417,-0.27896996,0.395232,0.33119174,-0.25735618,0.39713,0.32151473,-0.22884688,0.368595,0.31685198,-0.21446693,0.354327,0.31273627,-0.20130802,0.341357,0.35671618,-0.26293034,0.404734,0.35637198,-0.26113399,0.376685,0.37362981,-0.30003601,0.394766,0.382516,-0.32577515,0.410588,0.37860162,-0.27170875,0.412798,0.38248051,-0.27216128,0.389206,0.39686879,-0.30199216,0.404266,0.40056194,-0.31531108,0.419808,0.40657937,-0.29000181,0.425743,0.39822829,-0.27130115,0.399994,0.41427282,-0.29451208,0.410881,0.42551583,-0.31490035,0.424165
0.38187319,-0.37890384,0.452393,0.36705119,-0.32957561,0.428391,0.35688368,-0.36374535,0.439291,0.31039411,-0.33458424,0.413084,0.2708503,-0.30454937,0.392721,0.25525496,-0.28756391,0.390554,0.32538429,-0.26756228,0.395835,0.3162741,-0.24000144,0.366416,0.31188334,-0.22613678,0.351706,0.30800697,-0.21347468,0.338334,0.35134919,-0.27250137,0.404286,0.35302802,-0.2719405,0.375732,0.37456508,-0.31087268,0.392999,0.38178614,-0.33429782,0.408748,0.37382336,-0.28087573,0.413114,0.37914892,-0.28126244,0.389322,0.39438027,-0.31023858,0.403725,0.39803288,-0.32340261,0.419086,0.40292205,-0.29889851,0.427092,0.39546136,-0.28147295,0.401257,0.41179627,-0.30436402,0.411723,0.42325562,-0.32367169,0.424874
0.38042305,-0.38621701,0.45062,0.36484004,-0.33166456,0.426338,0.35360262,-0.37162137,0.436751,0.3063081,-0.34037181,0.409824,0.26723764,-0.31139768,0.389029,0.25025015,-0.2931889,0.384666,0.32330466,-0.27395064,0.392641,0.31467151,-0.24684042,0.362737,0.3105177,-0.23322072,0.347784,0.30685614,-0.22079504,0.334191,0.34946558,-0.27873363,0.401953,0.35249933,-0.27920236,0.373434,0.37220485,-0.31767975,0.390097,0.37874056,-0.3403559,0.405643,0.37203847,-0.28696675,0.411511,0.37868264,-0.28940978,0.388017,0.39240626,-0.3172739,0.401937,0.39549616,-0.33016699,0.416984,0.40110544,-0.30476834,0.426396,0.39495899,-0.289166,0.400455,0.41027525,-0.311838,0.410542,0.4215464,-0.33111605,0.423583
0.37982707,-0.39568662,0.451391,0.36400191,-0.34436089,0.425594,0.35285761,-0.3755031,0.436117,0.30561941,-0.35088999,0.408053,0.26431139,-0.32074659,0.385537,0.24763087,-0.30340099,0.382158,0.32223772,-0.28273348,0.389126,0.31457328,-0.25810013,0.357892,0.31089108,-0.24576748,0.342275,0.30764894,-0.234545,0.328078,0.34890614,-0.28748194,0.399687,0.35233209,-0.28847566,0.370305,0.36860939,-0.32519614,0.385316,0.37439275,-0.3470806,0.400656,0.37194017,-0.29572403,0.41039,0.37909475,-0.30010736,0.386495,0.39028384,-0.32589262,0.399075,0.39278169,-0.33833671,0.413749,0.40159325,-0.31359677,0.426857,0.39628282,-0.30002234,0.400047,0.40946718,-0.32184632,0.409081,0.42038611,-0.34111892,0.42202
0.37778637,-0.40258796,0.449564,0.36321225,-0.35358539,0.422701,0.35106329,-0.38796467,0.433468,0.30456394,-0.36074631,0.404394,0.26276687,-0.33054021,0.381129,0.2454195,-0.31276457,0.376888,0.32055708,-0.2920565,0.38449,0.31312135,-0.26876709,0.352457,0.30953697,-0.25712994,0.336441,0.30637195,-0.2465558,0.321881,0.347507,-0.29645138,0.395724,0.35096279,-0.29798291,0.365708,0.36573471,-0.33350164,0.379532,0.37110521,-0.3546638,0.394728,0.37083711,-0.30443464,0.407064,0.3781806,-0.30961219,0.382799,0.38803648,-0.33396002,0.394411,0.39001286,-0.34551266,0.408849,0.40093456,-0.32204718,0.424442,0.39585389,-0.30953519,0.397093,0.40819578,-0.33070028,0.405379,0.41877984,-0.34949623,0.418218
0.37592906,-0.41042898,0.447219,0.3620377,-0.3625761,0.420882,0.35011934,-0.39732848,0.431338,0.30319376,-0.3660828,0.401434,0.26534539,-0.33747951,0.381354,0.24691062,-0.3155977,0.376683,0.32030833,-0.30123216,0.383295,0.31399783,-0.27946625,0.35212,0.31102726,-0.26860924,0.336533,0.3084565,-0.25875718,0.322363,0.34723503,-0.30564361,0.394433,0.34772167,-0.31383221,0.364819,0.34938794,-0.34183793,0.379062,0.34951944,-0.34787803,0.394244,0.37046682,-0.31363272,0.405653,0.3779557,-0.31989142,0.381726,0.38806154,-0.34456181,0.393682,0.38997904,-0.35585654,0.40812,0.40029864,-0.33122699,0.422811,0.39604574,-0.32015163,0.39632,0.4085833,-0.34176634,0.404968,0.41894841,-0.36043966,0.417645
0.373629,-0.41755101,0.444217,0.36254618,-0.37353474,0.420685,0.34820913,-0.40545222,0.429357,0.30215974,-0.37612072,0.400616,0.26584189,-0.35011798,0.3824,0.24942658,-0.33153931,0.37778,0.32418566,-0.31771836,0.386271,0.32021867,-0.30280835,0.358103,0.31920229,-0.29605042,0.344638,0.31867897,-0.29011589,0.332484,0.35157421,-0.32123308,0.397053,0.35268937,-0.33448042,0.369715,0.3552276,-0.3622617,0.385839,0.35578487,-0.3667162,0.401209,0.37486109,-0.3281814,0.407762,0.38309813,-0.33961896,0.385808,0.39403533,-0.36436358,0.399307,0.39667514,-0.3741953,0.41448,0.40408394,-0.34394423,0.423905,0.40071424,-0.33787515,0.39897,0.41374788,-0.36034752,0.408781,0.42365159,-0.37790641,0.42136
0.3649173,-0.41689509,0.434214,0.35532059,-0.37655489,0.412496,0.3401901,-0.40575735,0.419691,0.29544735,-0.37795623,0.39205,0.26039194,-0.35338779,0.375202,0.24462904,-0.33550993,0.371092,0.31902129,-0.32631536,0.379733,0.31233683,-0.30635402,0.353282,0.31051067,-0.29759422,0.34119,0.31309209,-0.28910933,0.330435,0.34596869,-0.32835194,0.390685,0.34937945,-0.34330164,0.365014,0.35221371,-0.36981913,0.381921,0.34948234,-0.37115494,0.393998,0.36873973,-0.33381455,0.401393,0.37906263,-0.34735387,0.381019,0.38991526,-0.37087495,0.395164,0.39250304,-0.38055263,0.410231,0.39702219,-0.34728001,0.417268,0.39613216,-0.34471437,0.39377,0.40880024,-0.36673478,0.404111,0.4183975,-0.38396474,0.41639
0.36527102,-0.42899481,0.435507,0.35517733,-0.38170308,0.412814,0.34126356,-0.41366306,0.421994,0.29219436,-0.38862843,0.394848,0.25477073,-0.36028254,0.376704,0.24505777,-0.34307773,0.377151,0.31900469,-0.32693258,0.380638,0.31697106,-0.31366403,0.35426,0.31764612,-0.30811358,0.341927,0.31878114,-0.3033589,0.330825,0.34509997,-0.32948899,0.390024,0.34629824,-0.34261936,0.362932,0.34960429,-0.37735099,0.38035,0.34788229,-0.37555558,0.392792,0.36715745,-0.33566363,0.399518,0.37359268,-0.35301205,0.377356,0.38360241,-0.3786312,0.391898,0.3867181,-0.39288992,0.405117,0.3954191,-0.35641769,0.414096,0.39478623,-0.36114923,0.393213,0.4078791,-0.38209289,0.404379,0.41668774,-0.39556781,0.416058
0.36287954,-0.43027911,0.432858,0.35124839,-0.38549175,0.409543,0.33722542,-0.41841948,0.417745,0.28880521,-0.3906874,0.389243,0.25146307,-0.3647043,0.372254,0.23394592,-0.34596809,0.367153,0.31107772,-0.33008987,0.374965,0.31013071,-0.31756288,0.347601,0.31070158,-0.31213217,0.334551,0.31166134,-0.30746179,0.322761,0.33991548,-0.33058012,0.38613,0.34144718,-0.34320393,0.359127,0.34523017,-0.37486305,0.375092,0.34184762,-0.37799676,0.386495,0.36345672,-0.33860815,0.397137,0.37110259,-0.35294578,0.375609,0.38037005,-0.37782756,0.388982,0.38229764,-0.39124302,0.40114,0.39310388,-0.35599907,0.413601,0.39128865,-0.35709807,0.390773,0.40419537,-0.37714862,0.400761,0.41238777,-0.38218397,0.412864
0.35918088,-0.43560916,0.429202,0.34795962,-0.39334398,0.406541,0.33332327,-0.42336982,0.414124,0.28560682,-0.39460622,0.385524,0.24984428,-0.36922472,0.369915,0.23389055,-0.34878809,0.366781,0.3101217,-0.33585592,0.372448,0.30995022,-0.32425059,0.345784,0.310949,-0.31933479,0.333088,0.31253065,-0.31185069,0.322746,0.33750989,-0.3397701,0.383783,0.34030092,-0.35343589,0.35742,0.34425749,-0.38520894,0.373595,0.34061233,-0.38836735,0.385149,0.36075406,-0.3471464,0.394879,0.36927378,-0.36250906,0.37399,0.3785832,-0.38818167,0.387539,0.38011713,-0.40187893,0.399857,0.38986228,-0.36358832,0.411353,0.39098675,-0.36140862,0.390103,0.40396364,-0.38185969,0.400361,0.41074972,-0.39222804,0.411818
0.35655469,-0.44075164,0.426709,0.34665573,-0.3928553,0.404903,0.33152146,-0.42356666,0.411985,0.28551357,-0.39432849,0.383326,0.24972035,-0.3682566,0.36635,0.23264549,-0.34913903,0.360115,0.30968883,-0.33633849,0.371832,0.31041091,-0.32569131,0.346152,0.31187743,-0.32125386,0.333909,0.31370824,-0.31753184,0.322846,0.33693874,-0.34010031,0.383004,0.34038974,-0.35445332,0.357337,0.34482407,-0.38682433,0.37405,0.34147218,-0.39033379,0.385987,0.3599982,-0.34729761,0.3939,0.36944447,-0.35842764,0.373599,0.38111894,-0.388928,0.387587,0.38386542,-0.4046595,0.400304,0.38875461,-0.36341672,0.410012,0.38886263,-0.36409157,0.388456,0.40288599,-0.38520916,0.398942,0.40909973,-0.39202129,0.410594
0.35935878,-0.44362936,0.428174,0.34604079,-0.39301038,0.403917,0.33589231,-0.4319721,0.416388,0.29407677,-0.40702907,0.389774,0.25614648,-0.3810059,0.374761,0.24302359,-0.36779469,0.377011,0.30012041,-0.34206844,0.372817,0.29929569,-0.33313053,0.347132,0.30026385,-0.33002617,0.335253,0.30166576,-0.32765295,0.324551,0.32721044,-0.34195745,0.379556,0.32405223,-0.32550424,0.35027,0.34416171,-0.36980851,0.368153,0.35085842,-0.38937769,0.38436,0.35278004,-0.34278184,0.386995,0.35165959,-0.35891696,0.362002,0.36753125,-0.38001251,0.376886,0.37377278,-0.39167442,0.390416,0.38189934,-0.35845332,0.399362,0.3795489,-0.37335932,0.381238,0.39553158,-0.39051488,0.393312,0.40443826,-0.38934743,0.40567
0.35936148,-0.44445989,0.427033,0.34525365,-0.39507144,0.402631,0.33679561,-0.4366349,0.416779,0.29511358,-0.41094175,0.391255,0.25529672,-0.38155557,0.373453,0.24136133,-0.36666766,0.374144,0.30094582,-0.34454828,0.373331,0.29983773,-0.33492397,0.347214,0.30067484,-0.33149303,0.335151,0.30195185,-0.32881684,0.324288,0.32638263,-0.34293423,0.378126,0.32265096,-0.32548335,0.34821,0.34306936,-0.37042298,0.366619,0.35005879,-0.39061139,0.383219,0.34856144,-0.34580454,0.383977,0.34782116,-0.3571885,0.357807,0.3627965,-0.3807274,0.373092,0.37081625,-0.39166736,0.386988,0.37781365,-0.3597913,0.394479,0.38081803,-0.3771836,0.3823,0.39790867,-0.39872914,0.395415,0.40660604,-0.40003068,0.406987
0.36342883,-0.45114895,0.430141,0.34770493,-0.39970248,0.404255,0.33907806,-0.43991218,0.418723,0.29691626,-0.41478044,0.391908,0.25577231,-0.38196254,0.372676,0.24115357,-0.36587834,0.372176,0.30241049,-0.34666938,0.372504,0.30292498,-0.34403258,0.345578,0.30381655,-0.34396271,0.33329,0.30760527,-0.34726138,0.324864,0.32850915,-0.34615163,0.37826,0.32442936,-0.32757495,0.34728,0.34367423,-0.37163971,0.364655,0.34965649,-0.39010279,0.381315,0.35134126,-0.35003904,0.385017,0.35000359,-0.36081665,0.358168,0.36328599,-0.38293831,0.372618,0.36979676,-0.39095582,0.385754,0.381262,-0.36262239,0.396811,0.38283857,-0.38112571,0.382676,0.39877117,-0.39905836,0.395061,0.40675633,-0.40289397,0.405989
0.36583052,-0.45579805,0.431329,0.34881565,-0.40245326,0.404202,0.33976887,-0.4411335,0.418948,0.30527299,-0.41875955,0.390412,0.26309232,-0.38388034,0.364625,0.24424735,-0.36207386,0.357119,0.30183945,-0.34558727,0.370414,0.30136929,-0.34259023,0.342837,0.30043741,-0.3471432,0.329048,0.31235173,-0.36963505,0.332072,0.32849308,-0.34589081,0.376959,0.3234601,-0.32467593,0.345121,0.34419713,-0.3681628,0.36152,0.34833026,-0.38759175,0.378185,0.35190031,-0.35050846,0.384463,0.35115147,-0.36191506,0.357071,0.36429738,-0.38460443,0.370731,0.37356306,-0.4012723,0.38315,0.38268971,-0.36409152,0.397325,0.38458519,-0.38302501,0.382372,0.39954029,-0.4001802,0.394143,0.40594888,-0.40248976,0.40453
0.36639779,-0.45661122,0.431388,0.34911683,-0.40276555,0.404146,0.34019026,-0.44191232,0.41902,0.30533242,-0.41884107,0.390488,0.26311974,-0.38392034,0.364663,0.2441475,-0.36192584,0.356973,0.30230617,-0.34590834,0.370295,0.30145152,-0.3427917,0.342609,0.30017993,-0.34684569,0.328766,0.31203286,-0.3692577,0.331733,0.32890243,-0.34620014,0.376789,0.32371737,-0.32397779,0.344837,0.3443488,-0.36737958,0.361188,0.34897835,-0.38769445,0.377879,0.35224527,-0.35080837,0.384258,0.35104439,-0.3620449,0.356747,0.36445335,-0.38519946,0.370367,0.3731721,-0.40085233,0.382749,0.38293702,-0.36438227,0.397097,0.38458666,-0.38329382,0.382167,0.39948181,-0.40041568,0.393926,0.40604594,-0.40278323,0.404301
0.355105,-0.44261514,0.41765,0.3412016,-0.39361341,0.394746,0.33061377,-0.42964078,0.406899,0.29760309,-0.40823833,0.380603,0.25771178,-0.37602954,0.357168,0.24078936,-0.35694771,0.352063,0.29901097,-0.34201155,0.365849,0.30046972,-0.34172903,0.341333,0.30046206,-0.3471717,0.329075,0.31449257,-0.3721685,0.334348,0.32482975,-0.3418413,0.371745,0.322715,-0.32240402,0.343436,0.34560022,-0.36824008,0.362254,0.35008212,-0.38850767,0.3784,0.3471764,-0.34573441,0.378385,0.34847389,-0.359513,0.354028,0.3640214,-0.3849578,0.369667,0.37427772,-0.40203997,0.383883,0.37598809,-0.35780267,0.389606,0.38211161,-0.38095986,0.379605,0.39853005,-0.3996083,0.392908,0.40658866,-0.40343992,0.404646
0.36611989,-0.45647691,0.430003,0.34862852,-0.40182418,0.40236,0.33969971,-0.44145994,0.417506,0.30476979,-0.41726281,0.388805,0.26315768,-0.38242286,0.362738,0.24399665,-0.35976144,0.353984,0.30844868,-0.3465148,0.368079,0.30128422,-0.34175672,0.340099,0.29935507,-0.34420929,0.326109,0.31133494,-0.36560552,0.328848,0.33516793,-0.34823571,0.374601,0.33028082,-0.32395515,0.342315,0.34416914,-0.36473012,0.358416,0.35053251,-0.3873742,0.375149,0.35842102,-0.35402471,0.382125,0.35032082,-0.36171352,0.354317,0.36389056,-0.38570506,0.367731,0.37127697,-0.39919592,0.379926,0.3886522,-0.36902186,0.395087,0.38248071,-0.38169987,0.378386,0.39688621,-0.39871681,0.38986,0.40391858,-0.40168724,0.399984
0.36584925,-0.45545615,0.42897,0.34919874,-0.40169392,0.402553,0.34041243,-0.44171158,0.417893,0.3071444,-0.41864754,0.390902,0.27116847,-0.38608701,0.366241,0.25156964,-0.36212432,0.354794,0.30341931,-0.3460611,0.370863,0.29753358,-0.33433808,0.3433,0.29497674,-0.33396219,0.329519,0.30698635,-0.35074255,0.333063,0.33099582,-0.34657306,0.376024,0.31848817,-0.32214075,0.34443,0.33875704,-0.36588303,0.361691,0.35138113,-0.38929745,0.378536,0.35339593,-0.35063299,0.382333,0.34831565,-0.35986555,0.354738,0.36448003,-0.38623244,0.369084,0.37410583,-0.40269327,0.382126,0.38266229,-0.36340187,0.393673,0.38643968,-0.38582536,0.382772,0.40232001,-0.4039725,0.395446,0.410917,-0.40832066,0.40663
0.36617473,-0.4553778,0.428051,0.34819526,-0.39940411,0.402377,0.34132397,-0.44267063,0.41835,0.30871608,-0.41984668,0.393052,0.27258003,-0.38728604,0.369463,0.2544296,-0.36522283,0.360121,0.30319096,-0.34443319,0.372896,0.29797519,-0.33422241,0.34539,0.29154219,-0.33009201,0.331636,0.30613972,-0.34987665,0.335632,0.3295528,-0.34548492,0.376593,0.31698677,-0.3209268,0.345305,0.33878674,-0.36565201,0.363296,0.3514651,-0.3898804,0.380262,0.35104989,-0.34853765,0.38164,0.34374728,-0.35423796,0.353874,0.36098737,-0.38542697,0.368798,0.37422364,-0.40323946,0.382366,0.37988503,-0.36055383,0.391374,0.38475099,-0.38472204,0.382871,0.40162101,-0.40347679,0.396212,0.4124606,-0.41028042,0.407984
0.36696375,-0.4553107,0.427306,0.34904763,-0.40031908,0.40277,0.34249626,-0.44344504,0.418829,0.31144608,-0.4189561,0.395119,0.2734667,-0.38583403,0.373547,0.25653395,-0.36734421,0.364165,0.3048795,-0.34498219,0.375579,0.29791179,-0.33343829,0.348586,0.29077667,-0.3263399,0.33509,0.30425855,-0.34595477,0.339659,0.32933546,-0.34379114,0.378129,0.31369109,-0.3175508,0.347604,0.33719964,-0.36330173,0.366335,0.34996834,-0.38714269,0.383256,0.3514422,-0.34840254,0.382143,0.34373084,-0.35348123,0.354725,0.36230331,-0.38463771,0.370238,0.37525471,-0.40354467,0.384342,0.3785337,-0.35895358,0.390485,0.38242318,-0.38204262,0.381098,0.39987287,-0.40139748,0.394823,0.41112386,-0.4085943,0.406934
0.36559387,-0.45268909,0.424558,0.35149563,-0.39786353,0.40379,0.34270259,-0.44262242,0.418163,0.319436,-0.41453396,0.397411,0.28024548,-0.3887988,0.380949,0.26532205,-0.37200268,0.379197,0.30866749,-0.34355817,0.381741,0.30027635,-0.33007816,0.357356,0.29670886,-0.32651002,0.345163,0.30898585,-0.34185882,0.351463,0.33260913,-0.34148393,0.382934,0.315815,-0.31278105,0.355547,0.34252773,-0.35960676,0.37604,0.35697329,-0.38839957,0.392379,0.35306849,-0.34056483,0.385536,0.34725598,-0.3487148,0.36058,0.36969527,-0.38128702,0.37752,0.3857662,-0.40850039,0.392921,0.38090744,-0.35098421,0.391654,0.38239203,-0.37304541,0.382416,0.40333736,-0.39440397,0.396967,0.41394349,-0.40758548,0.409806
0.36711975,-0.45285908,0.42509,0.35244778,-0.39764403,0.404719,0.34498177,-0.44376919,0.419956,0.30552117,-0.41362207,0.400882,0.26338089,-0.38893842,0.380384,0.24594959,-0.37097072,0.376635,0.31060878,-0.34491637,0.384502,0.30224068,-0.32974557,0.360022,0.29834317,-0.32047919,0.347782,0.31068123,-0.33261059,0.354133,0.33300998,-0.33919448,0.384261,0.31696433,-0.31409445,0.357005,0.34389216,-0.36113581,0.377636,0.35823819,-0.38845725,0.393971,0.35300256,-0.34031207,0.385653,0.34697809,-0.34834879,0.360378,0.36950135,-0.38119461,0.377408,0.38588794,-0.4072255,0.39289,0.37943139,-0.34934715,0.390277,0.37925456,-0.36969858,0.379433,0.40023603,-0.39138503,0.394049,0.41314908,-0.40444816,0.406946
0.37723653,-0.45613277,0.431705,0.35622457,-0.38471317,0.404875,0.35182958,-0.44364084,0.424775,0.31207556,-0.40992833,0.402939,0.26557428,-0.38317182,0.380824,0.24507959,-0.3639293,0.373911,0.30481932,-0.32995736,0.378041,0.29117096,-0.3074716,0.348449,0.28464136,-0.29740667,0.333652,0.2934666,-0.30470779,0.336845,0.32691645,-0.32490409,0.377931,0.30400753,-0.29350217,0.344937,0.32975831,-0.33511573,0.362523,0.34618406,-0.36037912,0.379977,0.34709356,-0.3253261,0.379934,0.33688869,-0.32598509,0.349438,0.35843158,-0.35547226,0.363967,0.37420485,-0.37651558,0.377174,0.37528704,-0.33427975,0.386225,0.37326972,-0.34968744,0.372363,0.3937533,-0.36969065,0.385563,0.40780367,-0.3793474,0.39721
0.38368129,-0.45023718,0.432428,0.35779833,-0.38297942,0.406618,0.35648331,-0.43747916,0.424332,0.31268893,-0.40115651,0.401024,0.27123339,-0.37634653,0.383603,0.249151,-0.36124637,0.376758,0.30531508,-0.32922629,0.379033,0.29268121,-0.30252425,0.350757,0.28770552,-0.29231321,0.336619,0.28381962,-0.28425434,0.323766,0.32704225,-0.32118699,0.380698,0.30962086,-0.28937238,0.348884,0.33988696,-0.32940538,0.367034,0.35612796,-0.35521157,0.384239,0.34717409,-0.32043666,0.384082,0.34365229,-0.32097552,0.355211,0.36621003,-0.35470183,0.370232,0.38036251,-0.38148278,0.383889,0.37535949,-0.32779934,0.391864,0.38202257,-0.34295243,0.380734,0.40222122,-0.36148176,0.394199,0.4100754,-0.36528372,0.40608
0.38675401,-0.43829378,0.428575,0.35928791,-0.37684694,0.406483,0.36085416,-0.42875976,0.422132,0.31706952,-0.39326282,0.4012,0.2794528,-0.37061817,0.389217,0.26149954,-0.35483632,0.386564,0.30975199,-0.32359304,0.383475,0.29793079,-0.29499244,0.357903,0.29327873,-0.28286294,0.345118,0.28973473,-0.27296307,0.333494,0.3305142,-0.32049158,0.384298,0.31406921,-0.28155449,0.355646,0.34683013,-0.32115381,0.375593,0.36381019,-0.34848729,0.392218,0.34984104,-0.31913887,0.386699,0.34886058,-0.31371973,0.360469,0.37425866,-0.34886665,0.376955,0.390736,-0.37740971,0.391942,0.37665605,-0.32548297,0.392771,0.38449825,-0.33390243,0.382415,0.40660679,-0.35448906,0.396728,0.41447137,-0.36455756,0.409357
0.38064617,-0.42896897,0.420376,0.35991351,-0.37122404,0.405886,0.35918754,-0.42010964,0.416886,0.31426664,-0.39113235,0.400633,0.27481258,-0.36505034,0.38318,0.2575196,-0.35080151,0.381449,0.3153755,-0.3211022,0.391707,0.31152929,-0.28691676,0.372094,0.3097886,-0.26954644,0.362287,0.30832843,-0.25357084,0.353372,0.3361471,-0.3188319,0.391335,0.32404389,-0.27625815,0.369539,0.35953987,-0.31476884,0.392148,0.37565534,-0.34373555,0.407128,0.35405978,-0.31722643,0.392159,0.3574636,-0.30926994,0.371857,0.38589991,-0.3459629,0.390509,0.40527591,-0.37974736,0.407465,0.37827681,-0.32264399,0.395252,0.38687565,-0.32697611,0.387154,0.41082216,-0.35084265,0.402558,0.42172223,-0.364294,0.41615
0.37735116,-0.41837772,0.413509,0.35952548,-0.36558292,0.406017,0.35748048,-0.41135664,0.412198,0.3122916,-0.3825422,0.400026,0.27405489,-0.35919141,0.386302,0.25587058,-0.34787714,0.382478,0.32032406,-0.32373237,0.399296,0.31763364,-0.28427736,0.385606,0.31719,-0.26606194,0.378984,0.31688802,-0.24923291,0.372964,0.34013174,-0.31774334,0.398493,0.33012559,-0.27432817,0.383386,0.36718161,-0.30947158,0.407557,0.38309253,-0.33818419,0.420609,0.35726335,-0.31652691,0.398417,0.36458197,-0.30548645,0.384127,0.39543547,-0.34111253,0.404052,0.41793128,-0.37725963,0.422166,0.3798338,-0.3216771,0.39942,0.3901757,-0.32070594,0.394257,0.4158705,-0.34562611,0.410102,0.42814727,-0.3641157,0.424082
0.3770786,-0.41642408,0.412906,0.35991418,-0.36161362,0.406932,0.35755468,-0.40738189,0.41263,0.31268472,-0.38142995,0.402061,0.27649203,-0.35579877,0.391392,0.2599378,-0.34678407,0.391289,0.32214716,-0.32048915,0.402526,0.32123534,-0.28483157,0.389955,0.32093739,-0.26656154,0.38367,0.32076757,-0.24966797,0.377956,0.34151084,-0.31500993,0.400932,0.33370231,-0.27495253,0.387206,0.37024297,-0.309264,0.411561,0.38624071,-0.33813332,0.42417,0.35819198,-0.3140578,0.400087,0.3667856,-0.30606621,0.386825,0.39720111,-0.34182599,0.406887,0.41957146,-0.37840187,0.425126,0.38061296,-0.32105151,0.399956,0.3904469,-0.32007346,0.394556,0.41617257,-0.34536825,0.410403,0.42798504,-0.35976412,0.424385
0.37290318,-0.4005546,0.405268,0.35912145,-0.34971954,0.406181,0.35304774,-0.39480559,0.40702,0.31133916,-0.36691471,0.400372,0.27695176,-0.34479967,0.391042,0.26294653,-0.33550499,0.395269,0.32654797,-0.3147336,0.408973,0.32927779,-0.27895772,0.402508,0.33078201,-0.26052807,0.399276,0.33223637,-0.24343543,0.396338,0.34579735,-0.31035726,0.407099,0.34214386,-0.2704807,0.40024,0.37896847,-0.29936166,0.425265,0.39432256,-0.32654333,0.435602,0.36198001,-0.3097242,0.405485,0.37504956,-0.29916319,0.398452,0.40636918,-0.33230334,0.419055,0.43028946,-0.36930517,0.437785,0.38254742,-0.31427833,0.403437,0.39472153,-0.31098284,0.401121,0.4210982,-0.33630402,0.416854,0.43352886,-0.35306172,0.430735
0.37259064,-0.39753205,0.405161,0.35940987,-0.34834361,0.406751,0.35261252,-0.38882993,0.407506,0.31177868,-0.36647172,0.401947,0.27672089,-0.3444665,0.392232,0.26263785,-0.33450807,0.396023,0.328231,-0.31407248,0.410737,0.33095342,-0.27813863,0.404752,0.33244335,-0.25963581,0.40176,0.33387771,-0.24248151,0.39904,0.34724058,-0.30956919,0.408347,0.34481674,-0.27090672,0.402109,0.38124295,-0.3004748,0.427109,0.39639908,-0.32757515,0.437212,0.36312963,-0.30878259,0.406257,0.37566045,-0.29787473,0.399637,0.40629039,-0.33086546,0.420209,0.42977572,-0.36782883,0.438911,0.38316711,-0.31306517,0.403544,0.3939921,-0.30872098,0.400918,0.4203142,-0.33401974,0.416585,0.43303644,-0.35096326,0.430408
0.36900405,-0.38294246,0.401351,0.35840885,-0.33630247,0.406147,0.3503571,-0.37770713,0.404823,0.31061057,-0.35434572,0.401599,0.27723342,-0.33544608,0.394715,0.26318166,-0.32508048,0.398362,0.33046789,-0.30510268,0.413711,0.33389062,-0.2684809,0.410582,0.33682401,-0.25053436,0.410405,0.33955992,-0.23381811,0.410244,0.34939483,-0.30078831,0.410965,0.35013124,-0.26433236,0.407974,0.38621631,-0.29313448,0.432992,0.40048491,-0.31915946,0.441926,0.36497329,-0.29991128,0.40833,0.37906348,-0.28908598,0.404589,0.40821277,-0.32266408,0.425166,0.43089943,-0.36408913,0.443874,0.38414962,-0.30363912,0.404504,0.39487608,-0.29813548,0.403034,0.42110167,-0.3228438,0.418463,0.43406708,-0.34000405,0.432077
0.39317086,-0.40266703,0.445562,0.3767933,-0.35337509,0.432985,0.37540718,-0.39853627,0.446394,0.34314975,-0.38464651,0.436304,0.29929476,-0.35606184,0.410137,0.27532122,-0.33519862,0.399405,0.34184866,-0.31373306,0.42546,0.32967273,-0.2641312,0.406293,0.33382394,-0.24766869,0.407724,0.33821004,-0.23267595,0.409025,0.35892959,-0.30628595,0.420355,0.34366004,-0.25330229,0.399835,0.37685098,-0.27935221,0.422153,0.3950468,-0.31197249,0.436581,0.37366735,-0.30395985,0.417136,0.37586304,-0.27598337,0.396562,0.39893344,-0.31224691,0.414894,0.41408484,-0.34421651,0.430525,0.39246249,-0.3043031,0.415149,0.39314762,-0.3089358,0.402063,0.41179197,-0.33244594,0.417164,0.42251207,-0.35841394,0.430488
0.38652574,-0.39831093,0.430216,0.36896666,-0.34568837,0.42469,0.36334051,-0.38676656,0.433516,0.32683768,-0.37243702,0.427868,0.28322711,-0.34338229,0.403386,0.26154998,-0.32463163,0.396267,0.341961,-0.30553127,0.425019,0.33541372,-0.25854442,0.411813,0.34072496,-0.2419534,0.413144,0.3456817,-0.22634141,0.414354,0.35899839,-0.30151348,0.41914,0.34935477,-0.25550998,0.405407,0.38334421,-0.28366417,0.428953,0.39919185,-0.31420051,0.441311,0.37216448,-0.29849143,0.414735,0.37743508,-0.30103232,0.400161,0.39253358,-0.33608205,0.419486,0.39852887,-0.36059613,0.43309,0.38812816,-0.30095966,0.410312,0.39066033,-0.30441731,0.399763,0.40859904,-0.32566448,0.415091,0.42093688,-0.35431003,0.428616
0.38455811,-0.39756785,0.427737,0.36802763,-0.34384978,0.423477,0.36156943,-0.38444382,0.431703,0.3268084,-0.3698286,0.427203,0.28311054,-0.34150483,0.40357,0.26234544,-0.32373377,0.397712,0.3430902,-0.3047407,0.42549,0.3377146,-0.25843941,0.413319,0.34322625,-0.24171659,0.415378,0.34855178,-0.22615501,0.41725,0.35934724,-0.29816349,0.419198,0.35128437,-0.25533996,0.406689,0.38523723,-0.28390272,0.430281,0.40038259,-0.31381582,0.442212,0.37225182,-0.29731175,0.414353,0.37852756,-0.29592047,0.400778,0.39677592,-0.3307822,0.420133,0.40114531,-0.35891643,0.433346,0.38763236,-0.29991425,0.409224,0.39063047,-0.29586627,0.398786,0.41106034,-0.31718653,0.414048,0.42462426,-0.34322115,0.427514
0.37798396,-0.38942243,0.421271,0.36551359,-0.33813412,0.420069,0.36058397,-0.38279117,0.425868,0.32666281,-0.35677298,0.422769,0.28588428,-0.3291633,0.403823,0.26925221,-0.31510267,0.403262,0.34372525,-0.3006482,0.424944,0.33958873,-0.25601681,0.415553,0.34431134,-0.23683244,0.419113,0.3514229,-0.2242522,0.42235,0.36007033,-0.29436914,0.418861,0.35625043,-0.24891204,0.409423,0.39054746,-0.27607599,0.433427,0.40389992,-0.30781748,0.444375,0.37325629,-0.28973561,0.41395,0.38403944,-0.28927671,0.403263,0.40105522,-0.32504597,0.422956,0.40617722,-0.35451821,0.435139,0.38845199,-0.29308289,0.408296,0.39157834,-0.29514622,0.399646,0.41205574,-0.31560222,0.414926,0.42558767,-0.34153059,0.428408
0.38159146,-0.39053453,0.427856,0.36942327,-0.33530291,0.424147,0.36184586,-0.37992961,0.43173,0.32945954,-0.35808044,0.427184,0.2877203,-0.32857887,0.406234,0.26954055,-0.31236989,0.403187,0.34405549,-0.29735655,0.426423,0.33724822,-0.25128278,0.414804,0.34364504,-0.23527814,0.418872,0.34955708,-0.22015451,0.422571,0.36039097,-0.29097121,0.420422,0.35457145,-0.24701945,0.408482,0.38869511,-0.27433128,0.432242,0.40306457,-0.30209051,0.444019,0.37354756,-0.28913206,0.415774,0.38101611,-0.28539207,0.402811,0.39986321,-0.32241827,0.422308,0.40748203,-0.34947517,0.435332,0.3894252,-0.29290861,0.410798,0.39128899,-0.285731,0.401001,0.41246686,-0.30455237,0.416323,0.42680313,-0.3300557,0.429843
0.37913762,-0.38645689,0.428297,0.36870681,-0.33494754,0.425113,0.36073251,-0.37816817,0.431644,0.32699919,-0.3534723,0.426427,0.28730383,-0.32384202,0.405936,0.26905198,-0.3065159,0.402026,0.34261875,-0.29460664,0.427091,0.33640866,-0.24921109,0.416117,0.34366125,-0.23377547,0.421028,0.35111378,-0.22048557,0.425492,0.36073585,-0.29090122,0.421914,0.35896093,-0.25037145,0.41056,0.38992479,-0.28662072,0.434628,0.40356397,-0.31602158,0.44629,0.37448071,-0.28986796,0.417903,0.38331751,-0.28404071,0.405729,0.39655622,-0.31898752,0.425493,0.39788984,-0.33660687,0.438304,0.39098956,-0.29457003,0.413607,0.39389354,-0.28942628,0.405102,0.41509066,-0.30915123,0.420572,0.43026735,-0.33780886,0.434222
0.37823532,-0.38513873,0.430479,0.36939884,-0.33527341,0.426886,0.36185526,-0.37860278,0.433864,0.32817959,-0.35438518,0.428636,0.28769682,-0.32382186,0.406827,0.26861248,-0.30555996,0.401702,0.34354697,-0.29455906,0.428634,0.33688526,-0.24890946,0.417256,0.34361983,-0.2326087,0.422618,0.35228888,-0.22053774,0.427493,0.36046589,-0.28953365,0.423277,0.35927738,-0.24984804,0.4115,0.39108382,-0.28668214,0.435469,0.40444419,-0.31438528,0.447252,0.37407116,-0.28877098,0.419149,0.38278099,-0.28616625,0.406532,0.39586469,-0.32074827,0.426211,0.39727254,-0.33732903,0.439168,0.39144746,-0.29478482,0.414774,0.39398517,-0.28964429,0.40584,0.41507031,-0.3095694,0.42128,0.43027175,-0.3374713,0.434905
0.37851379,-0.38503286,0.431388,0.36944402,-0.3351047,0.427474,0.3619987,-0.37821671,0.434653,0.32769526,-0.35462185,0.429203,0.28701876,-0.32455591,0.407653,0.26771515,-0.30638814,0.402447,0.34366705,-0.29416455,0.428857,0.33675743,-0.24837548,0.417202,0.34427484,-0.23312393,0.422456,0.35194337,-0.21980336,0.427232,0.3606318,-0.28929788,0.423544,0.36088215,-0.2509945,0.411451,0.39149179,-0.28695806,0.435393,0.40384399,-0.31583128,0.447281,0.37428579,-0.28867812,0.419477,0.38287612,-0.28779458,0.406584,0.39556601,-0.32133953,0.426242,0.39702735,-0.3375441,0.439301,0.39155996,-0.29474114,0.415222,0.3942427,-0.28874264,0.406184,0.41664491,-0.30603946,0.421632,0.43025359,-0.33388996,0.435263
0.37846856,-0.38468321,0.431798,0.36943432,-0.33495607,0.42782,0.36196279,-0.37777672,0.435073,0.3274688,-0.35483311,0.429627,0.28656144,-0.32493849,0.408076,0.26717628,-0.3068825,0.402891,0.34388353,-0.29405155,0.429171,0.33690959,-0.24822443,0.417453,0.34443782,-0.23297136,0.42271,0.35206832,-0.21953657,0.427489,0.36083417,-0.28923898,0.423825,0.36146894,-0.25136454,0.411667,0.39201003,-0.28732138,0.435591,0.40388119,-0.31593083,0.447498,0.37447096,-0.28866586,0.419737,0.38283051,-0.28782739,0.406773,0.39556396,-0.32175435,0.426416,0.39702302,-0.3377518,0.439498,0.39158253,-0.29467258,0.415465,0.39436193,-0.28817633,0.406354,0.41644881,-0.30536498,0.421796,0.43055289,-0.33304362,0.435422
0.37833198,-0.38430114,0.432012,0.36942296,-0.33484588,0.428062,0.36187261,-0.37736949,0.435325,0.32733945,-0.35499736,0.429938,0.28624428,-0.3251792,0.40834,0.26680772,-0.30720051,0.403172,0.34410687,-0.29404374,0.429479,0.3371375,-0.24821691,0.417777,0.34465211,-0.23294117,0.423009,0.35223374,-0.2193936,0.427765,0.36103948,-0.28925607,0.424095,0.36199262,-0.25170331,0.411961,0.39252358,-0.28768543,0.435878,0.40378942,-0.31519004,0.447774,0.3746503,-0.28870079,0.419973,0.38311563,-0.28751619,0.40702,0.3956885,-0.32210558,0.426656,0.39712412,-0.33796465,0.439731,0.39161606,-0.29463671,0.415657,0.39448382,-0.28782996,0.406511,0.41641921,-0.30507847,0.421947,0.43079103,-0.33250901,0.435567
0.37655697,-0.38184908,0.430826,0.36807316,-0.33312506,0.427728,0.35987323,-0.3729371,0.434238,0.32564354,-0.35286558,0.429129,0.28695135,-0.32132058,0.407255,0.26776041,-0.30234435,0.401432,0.34372816,-0.29293299,0.429847,0.33770017,-0.24784952,0.418939,0.34546838,-0.23274749,0.424677,0.35330715,-0.2191092,0.429894,0.36119889,-0.2890772,0.424617,0.36248945,-0.25332418,0.413345,0.39109618,-0.2889516,0.437408,0.40317724,-0.31607641,0.449039,0.37500603,-0.28865387,0.420555,0.37874117,-0.27452593,0.408441,0.39365207,-0.30973546,0.4282,0.39698973,-0.32908694,0.440985,0.39148997,-0.29405881,0.416186,0.39037758,-0.28306009,0.407658,0.41646346,-0.30677872,0.423119,0.43180913,-0.33288976,0.436761
0.37627577,-0.38049132,0.43118,0.36796322,-0.33283502,0.427884,0.35985838,-0.37280351,0.434727,0.32588062,-0.35277564,0.429778,0.2869779,-0.32103096,0.407831,0.26750641,-0.30160703,0.401451,0.34357191,-0.2926108,0.430037,0.3376556,-0.2475355,0.418901,0.34523065,-0.2323249,0.424532,0.35282924,-0.21855666,0.429651,0.36094997,-0.2886484,0.424575,0.36220346,-0.25321566,0.413087,0.38997608,-0.28919819,0.437062,0.40153241,-0.31580824,0.448743,0.37469014,-0.28817019,0.420338,0.37829051,-0.27419927,0.407955,0.39313449,-0.30932822,0.427637,0.39655312,-0.32872501,0.4405,0.39112382,-0.29352555,0.41579,0.38962586,-0.28251502,0.406873,0.41516416,-0.30610416,0.422295,0.43083956,-0.33184028,0.435903
0.37579068,-0.37911152,0.43135,0.36791438,-0.33264261,0.428048,0.35968221,-0.37252642,0.43492,0.32585974,-0.35249279,0.430003,0.28690389,-0.32075646,0.408049,0.26742771,-0.3012477,0.401573,0.34349077,-0.29240015,0.430224,0.33778617,-0.24742001,0.419076,0.34526517,-0.23215115,0.424685,0.35272232,-0.21829128,0.429784,0.36091788,-0.28844434,0.424732,0.36269353,-0.25288849,0.413235,0.38871778,-0.29034864,0.4372,0.40095501,-0.31601711,0.448881,0.37471266,-0.28800045,0.42047,0.37839622,-0.27427589,0.408069,0.39323194,-0.30940489,0.427743,0.39665215,-0.3288071,0.44061,0.39122657,-0.29340167,0.415894,0.38968523,-0.28255807,0.406935,0.41485428,-0.30608769,0.422352,0.4307969,-0.33157325,0.435955
0.37592054,-0.37942074,0.432479,0.36846193,-0.33331544,0.428924,0.35990874,-0.37284397,0.436365,0.32599431,-0.35347503,0.431861,0.28394372,-0.32599229,0.410312,0.26478728,-0.30890873,0.40595,0.34400225,-0.29316919,0.43132,0.33838349,-0.24848279,0.419845,0.3452238,-0.23250326,0.425094,0.35230343,-0.21837454,0.429865,0.36116043,-0.28887156,0.425354,0.36147121,-0.25512245,0.413569,0.38539515,-0.29659618,0.43736,0.39543313,-0.31839753,0.44909,0.37473088,-0.28821177,0.420722,0.37750057,-0.27401921,0.407912,0.39263412,-0.30892511,0.427435,0.39717022,-0.33128968,0.440406,0.39101073,-0.29337614,0.415743,0.3884384,-0.28243412,0.406065,0.41197,-0.30715751,0.421394,0.42950253,-0.33072945,0.43492
0.37525426,-0.37918486,0.432515,0.3680427,-0.33308512,0.429121,0.35924002,-0.37246968,0.436543,0.32596036,-0.35384218,0.432267,0.28366254,-0.32593086,0.41092,0.26463989,-0.30893875,0.406719,0.34409641,-0.2935161,0.431802,0.33840803,-0.24848271,0.420444,0.345475,-0.23297704,0.425772,0.35218427,-0.21838444,0.430615,0.36099554,-0.28875718,0.425713,0.3615115,-0.25616552,0.414079,0.38582693,-0.29692847,0.43785,0.39533331,-0.31957185,0.44952,0.37457575,-0.28817031,0.420967,0.37737206,-0.27416167,0.408259,0.39274699,-0.30900826,0.427764,0.39733671,-0.3316659,0.440687,0.39085843,-0.29340348,0.41583,0.38820355,-0.28273195,0.406079,0.4116298,-0.30717225,0.421384,0.42899794,-0.33033814,0.434888
0.37220029,-0.37605461,0.429131,0.37045859,-0.33523155,0.432205,0.35557112,-0.36865789,0.432409,0.32344122,-0.35141998,0.429275,0.28386215,-0.32633488,0.411887,0.26780423,-0.31276913,0.412254,0.34890293,-0.29770051,0.438356,0.34873239,-0.25613055,0.433558,0.35454001,-0.23920455,0.437385,0.3602071,-0.22351428,0.441058,0.36879065,-0.29503606,0.435292,0.37555724,-0.26682227,0.430489,0.40132874,-0.30885854,0.455442,0.40862912,-0.33118507,0.465013,0.38464225,-0.29590466,0.432531,0.39440513,-0.28670065,0.427025,0.41077828,-0.3231911,0.447547,0.41535307,-0.34612239,0.461282,0.40300542,-0.30242371,0.428805,0.40714565,-0.2968557,0.426075,0.43068199,-0.32132488,0.4416,0.44893918,-0.34515693,0.455299
