sluyters/QuantumLeap/src/datasets/gesture/HandGestureDataset_SHREC2017_csv/Gesture10/finger_1/subject_25_essai_4_skeletons_world.csv
Wrist_x,Wrist_y,Wrist_z,Palm_x,Palm_y,Palm_z,thumb_base_x,thumb_base_y,thumb_base_z,thumb_first_joint_x,thumb_first_joint_y,thumb_first_joint_z,thumb_second_joint_x,thumb_second_joint_y,thumb_second_joint_z,thumb_tip_x,thumb_tip_y,thumb_tip_z,index_base_x,index_base_y,index_base_z,index_first_joint_x,index_first_joint_y,index_first_joint_z,index_second_joint_x,index_second_joint_y,index_second_joint_z,index_tip_x,index_tip_y,index_tip_z,middle_base_x,middle_base_y,middle_base_z,middle_first_joint_x,middle_first_joint_y,middle_first_joint_z,middle_second_joint_x,middle_second_joint_y,middle_second_joint_z,middle_tip_x,middle_tip_y,middle_tip_z,ring_base_x,ring_base_y,ring_base_z,ring_first_joint_x,ring_first_joint_y,ring_first_joint_z,ring_second_joint_x,ring_second_joint_y,ring_second_joint_z,ring_tip_x,ring_tip_y,ring_tip_z,pinky_base_x,pinky_base_y,pinky_base_z,pinky_first_joint_x,pinky_first_joint_y,pinky_first_joint_z,pinky_second_joint_x,pinky_second_joint_y,pinky_second_joint_z,pinky_tip_x,pinky_tip_y,pinky_tip_z,
0.429272904,-0.272809648,0.51962,0.408329054,-0.219474829,0.497192,0.401990031,-0.258746629,0.511789,0.385597639,-0.230598259,0.489864,0.358592431,-0.199900112,0.463679,0.34145043,-0.178053747,0.453105,0.361185831,-0.168195941,0.47198,0.33823707,-0.12755061,0.447378,0.326922487,-0.108029144,0.435077,0.327439583,-0.0934245261,0.438346,0.387488065,-0.168375347,0.47473,0.368158472,-0.127185763,0.446954,0.356372504,-0.135239861,0.430751,0.346434954,-0.148323953,0.419178,0.411166302,-0.172772279,0.478899,0.396947616,-0.14849544,0.452372,0.384344569,-0.157754596,0.438801,0.369107648,-0.170387519,0.426463,0.442952817,-0.185944643,0.487316,0.420456083,-0.17627442,0.463669,0.407847336,-0.174592326,0.452804,0.402902878,-0.181053772,0.443218
0.430136411,-0.270213339,0.521854,0.408425311,-0.215958423,0.497091,0.401425976,-0.254674881,0.511976,0.385318613,-0.227427887,0.487478,0.358414208,-0.197238259,0.460625,0.343744384,-0.174822704,0.448799,0.36011642,-0.158726038,0.467713,0.335337718,-0.122751349,0.440678,0.326273471,-0.100446277,0.427161,0.324828617,-0.0889687685,0.430655,0.388036463,-0.160621483,0.472291,0.367319094,-0.129266275,0.442376,0.353125538,-0.13681043,0.424925,0.341748285,-0.149199838,0.41246,0.411871273,-0.169536816,0.478163,0.395166251,-0.145807273,0.449157,0.380821016,-0.15480465,0.434317,0.364201248,-0.166841283,0.420826,0.445700467,-0.184169247,0.488955,0.41395719,-0.18380402,0.463385,0.39207186,-0.187708446,0.451636,0.391773804,-0.190707352,0.453837
0.426234488,-0.26509757,0.516988,0.405313492,-0.208498106,0.492342,0.398535866,-0.250078588,0.508089,0.385449928,-0.22264422,0.484707,0.358155757,-0.193297099,0.458337,0.342872092,-0.172696227,0.446796,0.357921432,-0.15566929,0.464271,0.335988341,-0.116674552,0.437662,0.325027284,-0.0972853706,0.424358,0.325862712,-0.082460746,0.426391,0.384805316,-0.157096727,0.46766,0.363602059,-0.127099361,0.437954,0.34990496,-0.136290834,0.420625,0.339118467,-0.148756605,0.408247,0.409033255,-0.162574497,0.472542,0.392511985,-0.140694883,0.444069,0.377287595,-0.151868019,0.429501,0.360868749,-0.163883693,0.416257,0.44150856,-0.177155762,0.482148,0.40872058,-0.17787922,0.456945,0.40698109,-0.192949375,0.467607,0.415758516,-0.200565046,0.480612
0.426837967,-0.264981809,0.518173,0.404704919,-0.210566969,0.491494,0.399452382,-0.24970137,0.509495,0.387172939,-0.220268519,0.486197,0.360733807,-0.187049849,0.461923,0.347672648,-0.165094215,0.453189,0.357506464,-0.154806874,0.462302,0.33468256,-0.115645829,0.434635,0.323277821,-0.0962240755,0.420801,0.32417688,-0.0815021121,0.422917,0.383634593,-0.15640288,0.464776,0.360744051,-0.127014234,0.433499,0.345190265,-0.14086012,0.415255,0.334022515,-0.150377298,0.402223,0.407280739,-0.1620653,0.469077,0.389443666,-0.139631477,0.439433,0.373577783,-0.149597424,0.424266,0.355997398,-0.161716433,0.410478,0.439407643,-0.178572019,0.478313,0.404349622,-0.17916887,0.452116,0.401958738,-0.193437406,0.4622,0.411510424,-0.199441518,0.475331
0.422801111,-0.268974055,0.517048,0.401921474,-0.216309299,0.487701,0.398822745,-0.250754609,0.508775,0.38510967,-0.227456869,0.485819,0.360292663,-0.196647183,0.462066,0.347017951,-0.174753528,0.451938,0.356265116,-0.162060999,0.457183,0.33279594,-0.122742439,0.428508,0.321067781,-0.103259325,0.41417,0.321156008,-0.0886274008,0.415022,0.381411996,-0.164268755,0.45831,0.355829006,-0.136365087,0.425069,0.338573805,-0.147477224,0.405678,0.325734423,-0.158838723,0.391827,0.404232286,-0.170527245,0.46173,0.386373522,-0.142996148,0.430682,0.367626608,-0.149873119,0.414797,0.348243917,-0.15935762,0.400356,0.43518142,-0.186262278,0.470341,0.398197265,-0.187343033,0.442958,0.394390978,-0.201264755,0.452129,0.403949168,-0.210105147,0.465323
0.429534786,-0.268971923,0.519601,0.406796564,-0.220943078,0.488691,0.403789478,-0.259771548,0.510928,0.394735559,-0.239762725,0.494066,0.36828255,-0.21215387,0.471641,0.350919602,-0.189447673,0.458803,0.355748421,-0.173031232,0.456597,0.331269647,-0.132303456,0.426512,0.31901956,-0.112630209,0.411469,0.319206596,-0.0984367518,0.412418,0.381029691,-0.172646942,0.457734,0.353562533,-0.144735786,0.423273,0.336658574,-0.156680377,0.403171,0.324297028,-0.167387931,0.388812,0.40455776,-0.176636914,0.461295,0.383854556,-0.150725971,0.428736,0.367328108,-0.161206148,0.412078,0.350754373,-0.169561361,0.396934,0.436247135,-0.18783369,0.470316,0.399941889,-0.195815478,0.442047,0.396344806,-0.210760097,0.450558,0.401557158,-0.220599981,0.463808
0.431388494,-0.270865795,0.520335,0.408966757,-0.225029252,0.487774,0.405258378,-0.261404301,0.510803,0.394276382,-0.241383647,0.492977,0.365853683,-0.213647994,0.470629,0.344110605,-0.189884056,0.4566,0.353631991,-0.173421058,0.453472,0.328336593,-0.135870307,0.421983,0.315543457,-0.116657609,0.406238,0.314645118,-0.102833842,0.405757,0.379342588,-0.173064328,0.455165,0.350286089,-0.144921433,0.419378,0.333895693,-0.157048987,0.398502,0.321910341,-0.167253392,0.383591,0.403333785,-0.177113546,0.459324,0.381249522,-0.150742735,0.425418,0.364855211,-0.161375524,0.40807,0.347359783,-0.171019855,0.3923,0.436883665,-0.190040186,0.469308,0.39949169,-0.196417677,0.439981,0.395468764,-0.21119395,0.447694,0.400519035,-0.221290654,0.461006
0.443471541,-0.284395489,0.523497,0.413495011,-0.239376627,0.488455,0.414274823,-0.271217753,0.513934,0.399477066,-0.258943209,0.493548,0.367835893,-0.233413595,0.47154,0.346134154,-0.211254169,0.457482,0.354203477,-0.18973757,0.452409,0.325730971,-0.151793824,0.419829,0.311531664,-0.133166535,0.403539,0.308766928,-0.120296741,0.401915,0.37936442,-0.187643901,0.45336,0.347002683,-0.161873348,0.415881,0.331915614,-0.174200857,0.394018,0.321017237,-0.182935806,0.378401,0.403230801,-0.190230039,0.45712,0.378269155,-0.165683536,0.421626,0.362655884,-0.176638694,0.403466,0.346029682,-0.184481349,0.386958,0.437274681,-0.201334001,0.467019,0.400352469,-0.209658359,0.436651,0.396127184,-0.224314632,0.443056,0.401338287,-0.234078609,0.456228
0.446332072,-0.300361924,0.523536,0.411711583,-0.256575556,0.488186,0.417580337,-0.288800049,0.514739,0.396912432,-0.280749156,0.493631,0.35782386,-0.255576209,0.472031,0.334013226,-0.233953366,0.458509,0.354093525,-0.208131097,0.452887,0.325646529,-0.172090093,0.419988,0.311434763,-0.154162352,0.403538,0.305871614,-0.141321668,0.398149,0.378619508,-0.2060808,0.452783,0.343306053,-0.175615658,0.415258,0.329170231,-0.188176441,0.393368,0.31857996,-0.191547821,0.377733,0.401757592,-0.208623256,0.455699,0.375506163,-0.184736767,0.42,0.360178726,-0.195799931,0.401735,0.344327796,-0.202150232,0.385131,0.434585163,-0.219469267,0.464649,0.397800542,-0.228894571,0.434467,0.393333486,-0.243360517,0.440689,0.397998064,-0.252612047,0.453724
0.452710312,-0.318994834,0.530565,0.416805225,-0.277297069,0.492011,0.424315846,-0.315495563,0.520074,0.404304003,-0.300663962,0.497276,0.366419703,-0.278660544,0.475629,0.340746633,-0.257344708,0.460471,0.353926269,-0.232413176,0.452392,0.330911947,-0.199383682,0.427146,0.319374305,-0.182677351,0.414524,0.308864431,-0.167361806,0.403049,0.379149961,-0.229633819,0.4534,0.34216085,-0.195592928,0.413664,0.326904031,-0.206121409,0.390484,0.32528375,-0.214517248,0.385631,0.403375618,-0.231331245,0.457505,0.374554768,-0.205189693,0.419607,0.359483364,-0.214683994,0.400217,0.343571371,-0.219108816,0.38259,0.438325511,-0.240748378,0.468358,0.402044458,-0.251386959,0.43649,0.396596728,-0.265850396,0.440383,0.400239803,-0.274209911,0.453108
0.454565306,-0.336017045,0.530583,0.41687215,-0.297781519,0.49209,0.424474126,-0.336169273,0.520268,0.40455198,-0.321876933,0.497581,0.366725547,-0.299800325,0.476026,0.341157331,-0.278178559,0.461026,0.354192266,-0.252589641,0.452732,0.331097876,-0.219726134,0.427386,0.319519152,-0.203117566,0.414712,0.308973249,-0.187902041,0.403191,0.379267034,-0.24983303,0.45354,0.342328761,-0.215733777,0.413867,0.327104954,-0.225490426,0.390724,0.325544395,-0.233172655,0.38594,0.403347404,-0.251575841,0.457473,0.374625286,-0.225538881,0.419686,0.359606421,-0.234325744,0.400354,0.343740198,-0.237498626,0.382778,0.438098093,-0.261088045,0.468115,0.401896163,-0.271057801,0.436329,0.396503969,-0.285598375,0.44028,0.400142638,-0.293987288,0.452998
0.454871158,-0.351788833,0.53094,0.417069535,-0.308147317,0.492323,0.4248274,-0.341592329,0.520701,0.404748735,-0.332552858,0.497823,0.366993643,-0.310480746,0.476374,0.34134603,-0.288599968,0.461281,0.354381593,-0.262730931,0.452974,0.329927298,-0.229028741,0.425875,0.317966099,-0.214512772,0.412326,0.307262733,-0.202796878,0.400008,0.379356511,-0.259958498,0.453647,0.342376735,-0.22578784,0.413925,0.327130069,-0.235129662,0.390754,0.325470166,-0.242359139,0.385852,0.403354458,-0.261710813,0.457481,0.374601185,-0.235679002,0.419659,0.359565103,-0.244081807,0.400308,0.343684521,-0.246599761,0.382716,0.438013864,-0.271268168,0.468025,0.401812344,-0.280880978,0.436238,0.396323855,-0.295369234,0.44008,0.399929757,-0.303747579,0.452757
0.464013059,-0.405089219,0.532408,0.424423068,-0.34015321,0.496169,0.432817313,-0.390243737,0.523251,0.41342132,-0.362136117,0.504265,0.372271937,-0.331923313,0.485659,0.347086897,-0.308662394,0.471969,0.361182472,-0.281163284,0.459809,0.333494702,-0.284786685,0.427141,0.321455361,-0.286986926,0.410807,0.320723505,-0.283559691,0.408476,0.385513232,-0.27856954,0.459876,0.355283122,-0.281712289,0.42172,0.341558386,-0.286707037,0.399463,0.342640003,-0.298444133,0.396659,0.409219226,-0.28149444,0.463008,0.379442759,-0.285788683,0.427804,0.363927261,-0.286483893,0.409793,0.361243289,-0.279111495,0.407174,0.444229101,-0.29448575,0.472354,0.40605782,-0.296802759,0.441708,0.405346481,-0.312219896,0.447365,0.412954876,-0.329078648,0.460344
0.439057571,-0.389787634,0.499207,0.410401837,-0.348542344,0.482268,0.42613321,-0.39463939,0.504303,0.401415551,-0.399795426,0.500041,0.368239272,-0.386061349,0.497091,0.350025026,-0.378455149,0.49035,0.368641754,-0.308861204,0.477012,0.337525494,-0.318314551,0.454721,0.341896515,-0.324236164,0.443575,0.358302874,-0.32558449,0.447981,0.378436597,-0.298752362,0.465304,0.342992283,-0.311623749,0.441967,0.346924075,-0.318578321,0.428354,0.36118662,-0.333961103,0.433342,0.389460528,-0.294567598,0.457106,0.358572751,-0.312368121,0.442127,0.359560528,-0.320392552,0.434463,0.375718607,-0.319714626,0.441994,0.408052144,-0.297406458,0.450062,0.370625108,-0.308615787,0.435537,0.353483475,-0.313720145,0.428864,0.347015682,-0.32631098,0.43376
0.433664651,-0.399309571,0.490027,0.398471606,-0.356087775,0.472979,0.417118045,-0.394166061,0.4953,0.392289599,-0.394202649,0.491308,0.37044779,-0.392715825,0.48308,0.363419465,-0.384383418,0.470338,0.356358244,-0.317612461,0.467871,0.331408353,-0.334095969,0.453086,0.329268945,-0.346571619,0.445693,0.337207323,-0.368829739,0.452193,0.365383735,-0.307714723,0.455906,0.329551996,-0.32097958,0.436141,0.329412164,-0.334115182,0.424612,0.340882523,-0.353456789,0.430436,0.375861204,-0.303606824,0.447507,0.346273916,-0.323284335,0.432604,0.366962951,-0.346557476,0.446915,0.387957885,-0.348124726,0.459456,0.393943583,-0.306341296,0.440242,0.357406845,-0.318563915,0.425781,0.340725427,-0.324080222,0.419137,0.335280645,-0.33852645,0.423942
0.425691227,-0.409520934,0.483424,0.398512383,-0.371736827,0.471467,0.413453367,-0.414249249,0.492519,0.393250517,-0.41624973,0.494756,0.372929835,-0.416148701,0.48873,0.362566381,-0.408937521,0.477167,0.366915472,-0.335373214,0.474639,0.336959571,-0.350911051,0.459219,0.345387946,-0.356294352,0.451508,0.362159856,-0.354294478,0.457091,0.37242146,-0.325611519,0.459492,0.339474134,-0.34607143,0.445415,0.338054636,-0.363644616,0.437203,0.35268729,-0.381176624,0.443825,0.379299195,-0.321478076,0.448041,0.35079857,-0.344769539,0.439293,0.371052555,-0.370116536,0.452926,0.393132349,-0.372869612,0.463882,0.391774661,-0.323854352,0.436378,0.358683277,-0.339006972,0.42704,0.343423295,-0.346017984,0.422749,0.339098065,-0.362021662,0.428401
0.430220518,-0.432017912,0.489163,0.405831502,-0.390941504,0.47637,0.417697139,-0.433120238,0.496,0.395015784,-0.430464203,0.494602,0.373252008,-0.427045771,0.486134,0.361227366,-0.417486056,0.47325,0.374100912,-0.349879231,0.476142,0.342236084,-0.362673315,0.459781,0.365996279,-0.386464348,0.473287,0.390409924,-0.392461447,0.487098,0.381549982,-0.342551131,0.463559,0.345667077,-0.359571495,0.447721,0.340656237,-0.376788484,0.438483,0.355143711,-0.395859787,0.445846,0.390028782,-0.340638095,0.454289,0.356885307,-0.359936904,0.443164,0.37601611,-0.385957865,0.458317,0.390842506,-0.407061308,0.468862,0.404375949,-0.346127902,0.445333,0.366275528,-0.355752431,0.433995,0.350492845,-0.361803534,0.428786,0.350109189,-0.374909669,0.434847
0.432568282,-0.447271443,0.491012,0.407467276,-0.40185043,0.477246,0.419354571,-0.43949058,0.497438,0.396550695,-0.441822566,0.495354,0.3751493,-0.439216708,0.487342,0.363318424,-0.430057074,0.474698,0.374723949,-0.359562437,0.475834,0.343475335,-0.373139974,0.460263,0.365636736,-0.399264612,0.473739,0.390614993,-0.409058297,0.486611,0.38234174,-0.352490284,0.463459,0.345758712,-0.368928091,0.446688,0.340306612,-0.385463464,0.436906,0.354519635,-0.404270804,0.443957,0.391044353,-0.35087333,0.454443,0.357174278,-0.369658124,0.442402,0.376197621,-0.395661145,0.457426,0.391282181,-0.417055455,0.468291,0.405822058,-0.356881118,0.445937,0.367038556,-0.365856505,0.433841,0.351467694,-0.371450149,0.428283,0.352206529,-0.383623895,0.434083
0.429230204,-0.455104398,0.486851,0.405221604,-0.413087463,0.477085,0.418362794,-0.449400724,0.495368,0.395481537,-0.454830521,0.496781,0.373619535,-0.453340202,0.491883,0.360792565,-0.444310741,0.480947,0.377135416,-0.375084354,0.481039,0.346876312,-0.390666752,0.469371,0.369320278,-0.417586423,0.482952,0.394289854,-0.427060093,0.494484,0.381827602,-0.365840576,0.467304,0.34643527,-0.384399635,0.454592,0.343129622,-0.403389907,0.447176,0.359046175,-0.424152806,0.455249,0.387926938,-0.362239572,0.456829,0.355628257,-0.383421697,0.44891,0.376166693,-0.410786461,0.464047,0.391317294,-0.431902832,0.473291,0.399292938,-0.365543473,0.445977,0.362829513,-0.376808139,0.437311,0.349198746,-0.383986939,0.433329,0.351766234,-0.39772551,0.44003
0.430285455,-0.467202243,0.487508,0.410017262,-0.424104044,0.47891,0.420013691,-0.461392323,0.496101,0.398887412,-0.464415912,0.497721,0.376980027,-0.461244122,0.491498,0.364389216,-0.451456337,0.479846,0.384109366,-0.38557836,0.483763,0.354695194,-0.401758054,0.473642,0.376973761,-0.429812186,0.48763,0.401728297,-0.439944337,0.499109,0.389510269,-0.377165005,0.4703,0.354401964,-0.395660803,0.458536,0.350452157,-0.415256717,0.451674,0.3661021,-0.43702795,0.460268,0.395959859,-0.374244223,0.45995,0.363867839,-0.395254083,0.452819,0.383837508,-0.423490193,0.468354,0.397985529,-0.444844195,0.477439,0.407276826,-0.378332239,0.449063,0.370875265,-0.388985857,0.441055,0.35682333,-0.395941644,0.437375,0.359049489,-0.409973165,0.444471
0.432132843,-0.478645921,0.488927,0.410707317,-0.434954569,0.479716,0.42179413,-0.472289815,0.497354,0.399644761,-0.475951025,0.498666,0.377999372,-0.473551954,0.492827,0.365553358,-0.464148889,0.481379,0.384249904,-0.395598499,0.48394,0.354451812,-0.411633405,0.473317,0.376645978,-0.439941407,0.487206,0.401351608,-0.450115579,0.498641,0.389670114,-0.387296882,0.470493,0.354119856,-0.40558193,0.458171,0.349916013,-0.424803969,0.450983,0.36538464,-0.446477844,0.459366,0.396181965,-0.384531847,0.460208,0.363659717,-0.405409658,0.45256,0.383537554,-0.433700927,0.467988,0.397819646,-0.455235274,0.47724,0.407666813,-0.38892648,0.449493,0.370873584,-0.399221152,0.441053,0.356660164,-0.405844901,0.437175,0.358752213,-0.419697026,0.444103
0.432416204,-0.488829005,0.488815,0.411737315,-0.444968697,0.479683,0.422111178,-0.482301625,0.497247,0.400519112,-0.486223019,0.498572,0.378871585,-0.483962301,0.492603,0.366445414,-0.474639657,0.481084,0.385579755,-0.405218909,0.483966,0.355794718,-0.421490831,0.473489,0.377941802,-0.450247934,0.487407,0.402635392,-0.460604849,0.498835,0.391049238,-0.39712986,0.470537,0.355423347,-0.415536931,0.458278,0.351062879,-0.434756222,0.451127,0.366462418,-0.456651691,0.459546,0.397575073,-0.394564325,0.460261,0.364980093,-0.415596401,0.452666,0.384767716,-0.444127592,0.468121,0.39892476,-0.46573936,0.477362,0.409023543,-0.399237925,0.449545,0.372154791,-0.409368335,0.441148,0.357853572,-0.415789891,0.43729,0.359884329,-0.429629672,0.444245
0.431919851,-0.498761291,0.488462,0.410736026,-0.454557115,0.479254,0.421667321,-0.491934832,0.496846,0.399214096,-0.495940329,0.49809,0.377675731,-0.493903951,0.492165,0.364195285,-0.483619262,0.48067,0.384971015,-0.41420029,0.483424,0.355135315,-0.430617489,0.473126,0.377092972,-0.459835111,0.487065,0.40177515,-0.470489834,0.498542,0.390481461,-0.406393998,0.470032,0.353150223,-0.416737467,0.457691,0.343175232,-0.437958807,0.450491,0.356215215,-0.462195891,0.458897,0.397005145,-0.404096518,0.459792,0.364124955,-0.425004629,0.452111,0.383692962,-0.45376495,0.467573,0.397679416,-0.475510358,0.476851,0.408385455,-0.409154038,0.449131,0.371314928,-0.418871199,0.440662,0.35687455,-0.424984739,0.436771,0.358773836,-0.438750493,0.443712
0.431171612,-0.500063059,0.487122,0.411852982,-0.455233021,0.479251,0.420869383,-0.493322573,0.495433,0.399210063,-0.495168837,0.49668,0.377901563,-0.491916345,0.490633,0.365341539,-0.478865247,0.479903,0.386910422,-0.415625488,0.484249,0.359107638,-0.433549431,0.476502,0.379917837,-0.46467173,0.491034,0.402974478,-0.477504074,0.500677,0.392955541,-0.407700473,0.471368,0.355432539,-0.418885147,0.460049,0.348908039,-0.43895055,0.453446,0.363218011,-0.463334914,0.4625,0.399823369,-0.405248001,0.461436,0.367682797,-0.426175448,0.45454,0.387572544,-0.456079628,0.470545,0.4013647,-0.478347908,0.479724,0.411423298,-0.410025099,0.450929,0.374928572,-0.420048503,0.443118,0.360603525,-0.426682453,0.439528,0.362754457,-0.441371144,0.44695
0.430868645,-0.50108491,0.486533,0.412409844,-0.455752161,0.479267,0.420799046,-0.494511045,0.495005,0.398627342,-0.494664133,0.496556,0.376886219,-0.491003225,0.490182,0.363343106,-0.479675439,0.478491,0.388291955,-0.416538443,0.484881,0.36087339,-0.434700658,0.477893,0.381112311,-0.466412355,0.492526,0.403505335,-0.479976438,0.501427,0.39426991,-0.408482559,0.47199,0.356669293,-0.419916013,0.461226,0.349912665,-0.440348728,0.454947,0.364106438,-0.465315835,0.464201,0.401016235,-0.405896867,0.461997,0.369095214,-0.426840066,0.455614,0.38899675,-0.457114678,0.471714,0.402586434,-0.479489495,0.480723,0.412353786,-0.410475532,0.451326,0.376102568,-0.420570368,0.443943,0.361612242,-0.427330574,0.440551,0.363201218,-0.442529145,0.448133
0.430714534,-0.501729292,0.486211,0.412684561,-0.4560077,0.479271,0.420768406,-0.49523687,0.494762,0.39831621,-0.494386717,0.496468,0.37644777,-0.490635627,0.490044,0.362814343,-0.479286418,0.478333,0.388991938,-0.41700505,0.485209,0.361700573,-0.435208391,0.478514,0.381652393,-0.467213231,0.493198,0.403721546,-0.481157721,0.501741,0.394942606,-0.408889902,0.47232,0.357349581,-0.420461458,0.461852,0.350437687,-0.441090115,0.455747,0.364550339,-0.466393577,0.46511,0.40163362,-0.406242804,0.462302,0.369833322,-0.427208775,0.45619,0.389746021,-0.457675216,0.472343,0.403232506,-0.480101804,0.481264,0.412842062,-0.410723913,0.45155,0.376722359,-0.420867722,0.444394,0.36215337,-0.427697297,0.441107,0.363464981,-0.443158994,0.448776
