sluyters/QuantumLeap/src/datasets/gesture/HandGestureDataset_SHREC2017_csv/Gesture10/finger_1/subject_17_essai_3_skeletons_world.csv
Wrist_x,Wrist_y,Wrist_z,Palm_x,Palm_y,Palm_z,thumb_base_x,thumb_base_y,thumb_base_z,thumb_first_joint_x,thumb_first_joint_y,thumb_first_joint_z,thumb_second_joint_x,thumb_second_joint_y,thumb_second_joint_z,thumb_tip_x,thumb_tip_y,thumb_tip_z,index_base_x,index_base_y,index_base_z,index_first_joint_x,index_first_joint_y,index_first_joint_z,index_second_joint_x,index_second_joint_y,index_second_joint_z,index_tip_x,index_tip_y,index_tip_z,middle_base_x,middle_base_y,middle_base_z,middle_first_joint_x,middle_first_joint_y,middle_first_joint_z,middle_second_joint_x,middle_second_joint_y,middle_second_joint_z,middle_tip_x,middle_tip_y,middle_tip_z,ring_base_x,ring_base_y,ring_base_z,ring_first_joint_x,ring_first_joint_y,ring_first_joint_z,ring_second_joint_x,ring_second_joint_y,ring_second_joint_z,ring_tip_x,ring_tip_y,ring_tip_z,pinky_base_x,pinky_base_y,pinky_base_z,pinky_first_joint_x,pinky_first_joint_y,pinky_first_joint_z,pinky_second_joint_x,pinky_second_joint_y,pinky_second_joint_z,pinky_tip_x,pinky_tip_y,pinky_tip_z,
0.54819543,-0.41794026,0.53981,0.51924441,-0.36247594,0.520743,0.51980382,-0.40834685,0.534259,0.48780501,-0.38046415,0.520421,0.46362746,-0.35842631,0.508495,0.44564049,-0.3364474,0.499918,0.46200466,-0.31325743,0.499656,0.44763411,-0.31070981,0.475945,0.47461486,-0.3391429,0.492888,0.4983156,-0.36653466,0.508291,0.48907745,-0.30817633,0.501143,0.48019885,-0.2685983,0.50514,0.47439809,-0.24598304,0.508018,0.47118916,-0.23850095,0.510075,0.51479381,-0.30921227,0.504331,0.49859601,-0.30693744,0.478842,0.51900744,-0.34223753,0.497075,0.533572,-0.36459235,0.514651,0.55110496,-0.3198958,0.511533,0.52228718,-0.32178717,0.488294,0.52881517,-0.34559289,0.501844,0.53389384,-0.37002538,0.515277
0.54698502,-0.41680136,0.538272,0.51682095,-0.36003748,0.517029,0.51854855,-0.40723337,0.532735,0.48687964,-0.379727,0.519222,0.46293514,-0.35771675,0.507343,0.44500203,-0.3354942,0.498528,0.45900459,-0.31003626,0.494369,0.44228652,-0.30829774,0.468624,0.46812674,-0.33620209,0.484902,0.49144028,-0.36127088,0.4997,0.48574391,-0.30515626,0.495192,0.47644187,-0.26677041,0.500193,0.47093233,-0.24413822,0.503109,0.47105776,-0.23561765,0.505193,0.5112815,-0.30649517,0.49806,0.49270512,-0.31318585,0.47097,0.51060382,-0.34775273,0.488515,0.5242309,-0.36186781,0.506903,0.54755116,-0.31776865,0.505282,0.51657237,-0.32017003,0.480682,0.52290521,-0.34375368,0.493668,0.52617049,-0.36475831,0.507361
0.54228673,-0.41175833,0.531834,0.5105801,-0.35536721,0.508355,0.51203838,-0.40099938,0.523884,0.48154926,-0.37601386,0.506491,0.45682979,-0.35422411,0.492636,0.43745613,-0.32987187,0.486694,0.44963896,-0.30670313,0.480958,0.4339881,-0.30590397,0.45373,0.45943924,-0.33233944,0.469077,0.47807654,-0.35247086,0.483029,0.47842219,-0.30216699,0.48422,0.46432965,-0.26254744,0.485936,0.45603615,-0.23924833,0.486937,0.45554632,-0.2296839,0.487652,0.5046112,-0.30309872,0.489325,0.48379775,-0.30678895,0.459355,0.50120929,-0.34023159,0.475826,0.51542617,-0.35619022,0.494528,0.54404847,-0.31559931,0.499569,0.51150714,-0.31801523,0.472711,0.51677273,-0.34176104,0.484826,0.52025854,-0.35918308,0.498976
0.54292574,-0.41156288,0.530178,0.5113122,-0.35746356,0.50286,0.51362962,-0.40251856,0.523676,0.48407342,-0.38398989,0.504162,0.4515036,-0.36198622,0.490435,0.42830976,-0.33964262,0.480504,0.44849838,-0.30942658,0.474516,0.43222961,-0.3116895,0.443689,0.45605806,-0.33286192,0.457595,0.47788456,-0.3522921,0.470236,0.47451682,-0.30313268,0.474781,0.45633345,-0.26173901,0.470625,0.4456053,-0.23725962,0.4682,0.4435766,-0.23129673,0.466468,0.50022535,-0.30356084,0.477814,0.4778236,-0.30734274,0.4459,0.49473198,-0.3403644,0.460917,0.51014567,-0.36011971,0.479803,0.53814805,-0.31420326,0.486339,0.50407669,-0.31727419,0.457751,0.50950153,-0.3405951,0.468693,0.51363999,-0.35687509,0.482997
0.52640193,-0.39989446,0.511696,0.49719815,-0.35227328,0.484191,0.50494951,-0.39905575,0.506309,0.46793618,-0.38113704,0.485569,0.42258694,-0.35412438,0.468035,0.40296807,-0.3378149,0.465191,0.43950104,-0.31031343,0.457141,0.40756031,-0.2541803,0.42584,0.40768844,-0.23664373,0.426982,0.41612592,-0.23328594,0.42802,0.46174025,-0.30052904,0.455918,0.4372933,-0.257267,0.44751,0.4242738,-0.23252646,0.442605,0.42538981,-0.22571531,0.439102,0.48341858,-0.29813728,0.457745,0.47334339,-0.30319172,0.426336,0.49270401,-0.33616032,0.44124,0.50367362,-0.35733725,0.459878,0.51482914,-0.30272906,0.464896,0.49244204,-0.30890818,0.436667,0.50137139,-0.33248473,0.447524,0.50895276,-0.35626037,0.461669
0.52419235,-0.40319972,0.501879,0.48930344,-0.36114871,0.472699,0.49810873,-0.40588303,0.492775,0.44938015,-0.38125393,0.467412,0.40617362,-0.35593644,0.450266,0.38611661,-0.3396687,0.447019,0.42558234,-0.3131581,0.439647,0.40983386,-0.26794781,0.4254,0.4019621,-0.24537886,0.418277,0.40579736,-0.23822706,0.411802,0.44939252,-0.30391872,0.442704,0.4234691,-0.26072583,0.429682,0.4094467,-0.23579948,0.422086,0.41253456,-0.22986262,0.416661,0.47269057,-0.3020607,0.448227,0.46798762,-0.30449147,0.416014,0.4894267,-0.33681541,0.429948,0.49983851,-0.36003505,0.448521,0.50691668,-0.30980689,0.46,0.49192716,-0.31256532,0.429405,0.49954882,-0.33097773,0.439379,0.51068878,-0.34789965,0.454014
0.50834152,-0.42552494,0.482937,0.47879272,-0.37339685,0.464025,0.48222863,-0.42059983,0.477485,0.4465828,-0.39542262,0.465517,0.4089495,-0.36712162,0.446992,0.38707651,-0.34542547,0.438805,0.42461783,-0.32959048,0.443179,0.40603869,-0.28143,0.423515,0.40275931,-0.26583288,0.413683,0.40406455,-0.26846134,0.404745,0.44880467,-0.32123178,0.444585,0.42043475,-0.27153139,0.425383,0.42321883,-0.27159863,0.414182,0.42421041,-0.28274698,0.406182,0.47143232,-0.31959336,0.447691,0.47075412,-0.32708789,0.423385,0.48591508,-0.35821645,0.441727,0.49183736,-0.36705876,0.458869,0.50302698,-0.32677293,0.454768,0.49379307,-0.33353422,0.431665,0.50991041,-0.35580826,0.44526,0.52336275,-0.37259372,0.458662
0.52470383,-0.44221998,0.496708,0.48648291,-0.38725205,0.471769,0.49323961,-0.43350532,0.486774,0.45355106,-0.41022655,0.47018,0.41757579,-0.38326447,0.451498,0.39272329,-0.3598745,0.440331,0.41930804,-0.33530503,0.440756,0.41877842,-0.33243533,0.413414,0.44164055,-0.3551339,0.427904,0.45080606,-0.36525804,0.444482,0.44643536,-0.32920859,0.446135,0.42147839,-0.2864482,0.432074,0.42807332,-0.2887652,0.423872,0.4327678,-0.3007654,0.418013,0.47278776,-0.32983152,0.453133,0.47101593,-0.32924984,0.425522,0.48644854,-0.36060913,0.441203,0.49604633,-0.3808831,0.458617,0.51110225,-0.34055708,0.465854,0.50109421,-0.33996265,0.438803,0.51732326,-0.36034955,0.450496,0.53086966,-0.37430043,0.46455
0.5163171,-0.44701443,0.484394,0.48007457,-0.40157293,0.463638,0.48821392,-0.45120515,0.475037,0.4505439,-0.42340523,0.459947,0.41100438,-0.39749276,0.44488,0.38700298,-0.37838358,0.438318,0.41458523,-0.35275562,0.436426,0.41789419,-0.34849659,0.412705,0.44392532,-0.37359131,0.428641,0.45259152,-0.38505821,0.444368,0.44123279,-0.34599927,0.442302,0.41768614,-0.30503275,0.425786,0.41260715,-0.2887045,0.416152,0.41865616,-0.29230499,0.40927,0.46701383,-0.34585674,0.449279,0.46860695,-0.34439359,0.42548,0.49120914,-0.38069591,0.442719,0.49929872,-0.39965179,0.459216,0.50433731,-0.35524064,0.461212,0.49827639,-0.35469845,0.437197,0.519544,-0.37619941,0.450097,0.53170126,-0.38708671,0.463551
0.49865544,-0.44964734,0.466399,0.46601358,-0.40256059,0.453034,0.46672207,-0.43965048,0.45656,0.46230792,-0.41841091,0.456835,0.44412332,-0.37765347,0.438538,0.44045218,-0.3564957,0.437996,0.40672103,-0.3492758,0.430613,0.39835124,-0.34453773,0.407916,0.41832587,-0.37972986,0.424843,0.42863558,-0.39875164,0.440562,0.43538615,-0.34945555,0.439296,0.41903748,-0.31448791,0.417775,0.40962756,-0.29363113,0.40522,0.4115341,-0.29552579,0.396253,0.46430614,-0.35364753,0.447823,0.46289504,-0.34739503,0.424742,0.49241175,-0.38295324,0.44303,0.50378596,-0.40455178,0.459655,0.50446465,-0.36774177,0.460217,0.49813128,-0.36369968,0.439452,0.52460491,-0.3876882,0.45313,0.53702624,-0.39507959,0.465742
0.49213096,-0.45888866,0.463188,0.46005385,-0.40765146,0.448674,0.45759599,-0.44495911,0.451078,0.45673655,-0.42350286,0.449228,0.43998388,-0.38327807,0.428906,0.4372704,-0.36264898,0.427649,0.39767469,-0.35361026,0.422494,0.39448808,-0.34947579,0.397793,0.41240779,-0.38329162,0.413461,0.42055696,-0.40087426,0.429468,0.43009336,-0.35410067,0.433755,0.41859034,-0.32201692,0.411114,0.41220676,-0.30289417,0.397906,0.4154812,-0.30602691,0.388472,0.46013785,-0.35960141,0.444521,0.46167706,-0.35561867,0.419652,0.48964562,-0.39210461,0.4366,0.50158894,-0.41455456,0.453413,0.50137136,-0.37533317,0.459741,0.49796155,-0.37354361,0.437685,0.52134836,-0.39592802,0.45031,0.53428629,-0.40821754,0.462969
0.4917855,-0.46389668,0.463432,0.4594576,-0.41791565,0.448743,0.45659638,-0.45472621,0.451084,0.45538426,-0.43379585,0.448506,0.43767721,-0.3930816,0.427711,0.43437471,-0.37243424,0.426229,0.39616093,-0.36358236,0.42213,0.3924536,-0.3562234,0.397187,0.41143448,-0.3907364,0.412698,0.42037041,-0.41004335,0.428737,0.42868279,-0.3640399,0.433644,0.41656834,-0.33210158,0.410842,0.4098091,-0.31309379,0.397541,0.41308093,-0.31618679,0.38804,0.45891184,-0.36953031,0.444638,0.46024223,-0.36545463,0.419544,0.48831844,-0.40211208,0.436325,0.50051493,-0.42460933,0.453161,0.50053128,-0.38528646,0.460154,0.49700682,-0.3835374,0.437932,0.52044498,-0.4058206,0.450426,0.53349217,-0.41803473,0.463091
0.4923624,-0.47340939,0.46471,0.46024261,-0.42081014,0.448275,0.45857847,-0.4645037,0.452519,0.45695403,-0.44165468,0.448373,0.43905119,-0.40164819,0.426928,0.43529968,-0.38069674,0.42445,0.39762874,-0.3684039,0.420586,0.39191012,-0.3624187,0.394509,0.41019368,-0.39677858,0.409891,0.41880871,-0.41154698,0.426326,0.43003731,-0.36866989,0.431382,0.41621396,-0.33780354,0.40694,0.40845554,-0.31951084,0.392683,0.41046994,-0.3230551,0.382499,0.46027288,-0.37416149,0.441964,0.45919312,-0.37149505,0.415529,0.48645004,-0.40832271,0.432163,0.49778946,-0.42564277,0.449482,0.50207077,-0.39021434,0.457319,0.49626158,-0.38959422,0.433913,0.51931167,-0.41169565,0.446264,0.53102136,-0.41904453,0.45929
0.50484899,-0.48933505,0.471768,0.47295442,-0.43919569,0.453808,0.47387605,-0.48194469,0.460913,0.43737883,-0.45873256,0.446664,0.40991665,-0.42933098,0.427291,0.38996183,-0.40554269,0.417477,0.40310556,-0.38740441,0.426718,0.39477331,-0.36808035,0.40031,0.4157297,-0.40325797,0.416107,0.4273438,-0.42400995,0.432839,0.4324926,-0.38310698,0.435347,0.4191155,-0.35601122,0.409518,0.41168308,-0.34007462,0.394452,0.41221306,-0.34464023,0.38369,0.46098969,-0.38484655,0.444301,0.45903542,-0.37470607,0.417176,0.48882049,-0.41159422,0.434239,0.50390972,-0.43466989,0.452008,0.50230832,-0.39641663,0.458034,0.494788,-0.39007228,0.43388,0.51987448,-0.41214325,0.446535,0.53466566,-0.42431149,0.459943
0.50890786,-0.49452788,0.470074,0.47256213,-0.44068905,0.452695,0.47982383,-0.48893844,0.459496,0.43758918,-0.46101878,0.446035,0.41031599,-0.43226005,0.42723,0.39137402,-0.4083299,0.417006,0.40309531,-0.38982865,0.426384,0.39214899,-0.37129076,0.40052,0.41573334,-0.40693826,0.416542,0.4294404,-0.42946486,0.433149,0.43224187,-0.38519723,0.43483,0.41901227,-0.35855736,0.409545,0.41166937,-0.34288362,0.394795,0.41250628,-0.34762726,0.384259,0.46051746,-0.38660667,0.443574,0.45703923,-0.3786036,0.417013,0.48935175,-0.41536022,0.434318,0.50647799,-0.4391453,0.451956,0.5015309,-0.39768316,0.456955,0.4929452,-0.39221107,0.433258,0.51979654,-0.41325703,0.44611,0.53482376,-0.42532955,0.459433
0.51039959,-0.49665278,0.469887,0.47237947,-0.44186861,0.452154,0.4803269,-0.490745,0.459468,0.43769816,-0.46482354,0.44589,0.40938056,-0.43619937,0.427381,0.3912708,-0.41051463,0.417655,0.40296387,-0.39318806,0.425791,0.39159114,-0.37450594,0.399778,0.41541053,-0.41032021,0.415803,0.42903232,-0.43061962,0.43247,0.43175904,-0.38810781,0.433927,0.41780588,-0.36120394,0.408325,0.41002115,-0.34538736,0.393391,0.41089087,-0.34788975,0.382724,0.45981338,-0.38918801,0.442452,0.45594163,-0.38094412,0.415682,0.48850981,-0.41779498,0.432987,0.5054632,-0.43962882,0.450709,0.50071283,-0.39993452,0.455642,0.49176649,-0.39428383,0.431747,0.5187076,-0.41428041,0.444593,0.53364623,-0.42537353,0.457984
0.51129787,-0.49793161,0.469776,0.47244678,-0.44240466,0.451871,0.48054846,-0.49154635,0.459436,0.43763817,-0.46501427,0.445949,0.4091595,-0.43643367,0.427522,0.39163028,-0.41114949,0.41748,0.40305491,-0.39306684,0.425484,0.39162588,-0.37452101,0.3994,0.41534623,-0.41037081,0.415425,0.42897103,-0.43112148,0.43212,0.43178176,-0.38795755,0.433467,0.41773976,-0.36111996,0.407713,0.40990282,-0.34534808,0.392689,0.41045368,-0.34822055,0.381958,0.45977464,-0.38904255,0.441885,0.45574214,-0.38093826,0.415014,0.48820336,-0.41785428,0.432317,0.50517654,-0.44001285,0.45008,0.50059279,-0.39983945,0.45498,0.49147929,-0.39427607,0.43099,0.51878623,-0.4161975,0.443832,0.53336619,-0.42570047,0.457255
0.51194394,-0.49794064,0.469262,0.47270748,-0.44229242,0.451655,0.48071668,-0.49114055,0.458914,0.43754853,-0.46431201,0.445517,0.40880423,-0.43591257,0.427289,0.39185675,-0.41105521,0.417054,0.40323066,-0.3929074,0.425475,0.39156487,-0.37310954,0.399586,0.41535916,-0.40892083,0.415664,0.42934872,-0.43147604,0.432302,0.43177894,-0.38654296,0.433557,0.41782626,-0.35984479,0.408074,0.41004283,-0.34414715,0.393209,0.410726,-0.34881154,0.382591,0.45982585,-0.38764585,0.442025,0.45589955,-0.37963274,0.415381,0.48846427,-0.41652021,0.432742,0.5059386,-0.44034079,0.450436,0.50067715,-0.3983967,0.455125,0.49193913,-0.391975,0.431331,0.51872303,-0.41400233,0.444223,0.53423904,-0.42608346,0.457596
0.50195976,-0.48843195,0.459846,0.47505724,-0.44436638,0.453961,0.47508742,-0.48553361,0.453744,0.43587636,-0.46060762,0.444432,0.41364257,-0.43488226,0.433523,0.39985931,-0.41693879,0.424948,0.41841565,-0.4059722,0.441815,0.41938654,-0.39902001,0.427911,0.45551421,-0.43020559,0.446837,0.4719556,-0.44897467,0.459884,0.44612157,-0.39890923,0.447912,0.44353491,-0.37974048,0.43381,0.44337273,-0.36597205,0.426041,0.45017738,-0.37957564,0.420491,0.47190491,-0.39750331,0.453539,0.48081513,-0.39983777,0.438263,0.51699031,-0.43889615,0.458627,0.53175872,-0.46199142,0.474311,0.50750518,-0.40372046,0.461183,0.50940918,-0.40578348,0.446758,0.5396725,-0.4306468,0.462168,0.55395653,-0.44182628,0.474372
0.50125255,-0.48789737,0.459001,0.47474402,-0.44407454,0.453766,0.47364414,-0.48420009,0.452511,0.43450649,-0.460223,0.443683,0.40648215,-0.43731521,0.434092,0.39731488,-0.41627864,0.424564,0.41808264,-0.40541033,0.441597,0.41797699,-0.39763717,0.426615,0.44462681,-0.43777225,0.445379,0.4557971,-0.45796122,0.459535,0.44650122,-0.39908212,0.448385,0.44425215,-0.38009967,0.434859,0.44373119,-0.36936793,0.426969,0.45045902,-0.37930944,0.421333,0.47285635,-0.39821338,0.454514,0.48160685,-0.3997868,0.439524,0.51806467,-0.43982559,0.45979,0.53290753,-0.46300997,0.475403,0.5090708,-0.40498046,0.462625,0.51124583,-0.40723203,0.44856,0.54159437,-0.43216935,0.463909,0.55578106,-0.44333173,0.475937
0.49429907,-0.48045556,0.453855,0.472708,-0.44057883,0.452144,0.46812032,-0.4779761,0.448905,0.42932865,-0.45118778,0.443662,0.40700194,-0.42877273,0.437745,0.39615395,-0.40794254,0.433307,0.41991911,-0.40237558,0.444531,0.42002014,-0.38848258,0.43335,0.44859562,-0.42853906,0.452649,0.45719548,-0.45083674,0.464771,0.44780262,-0.39690053,0.450385,0.44732077,-0.37375377,0.440675,0.44811067,-0.36187526,0.435011,0.45562798,-0.37181202,0.430965,0.47342532,-0.39701449,0.45538,0.48510672,-0.38873517,0.444702,0.52040487,-0.43030368,0.465562,0.53266001,-0.45648899,0.478793,0.50780544,-0.40350003,0.461526,0.51028129,-0.39612915,0.450512,0.54024293,-0.42234368,0.466357,0.55497279,-0.44034037,0.476377
0.49714555,-0.48211626,0.455101,0.47108475,-0.42929828,0.455607,0.46732682,-0.47315629,0.450652,0.43395972,-0.44591112,0.44945,0.4132383,-0.42397577,0.440955,0.39708038,-0.4064209,0.435526,0.42242565,-0.39418907,0.450262,0.42951571,-0.39955273,0.440734,0.45395587,-0.43612892,0.460129,0.46639409,-0.45944423,0.474817,0.45002087,-0.38748684,0.456128,0.45340812,-0.37165104,0.448459,0.45689824,-0.36307891,0.443985,0.46831449,-0.37524738,0.440789,0.47508042,-0.38587423,0.460906,0.4898638,-0.38732094,0.45313,0.52878797,-0.42741783,0.474156,0.54169672,-0.44905831,0.486001,0.51034573,-0.39440893,0.466392,0.51497817,-0.39325678,0.457191,0.54711663,-0.4181277,0.473173,0.56028448,-0.42919852,0.483556
0.49235715,-0.46213347,0.453969,0.47087198,-0.4180606,0.457596,0.46436076,-0.45676397,0.449052,0.42790743,-0.429931,0.448148,0.4108043,-0.40600888,0.441959,0.39774057,-0.38623405,0.439889,0.42343178,-0.38310448,0.453932,0.43347537,-0.38350026,0.446486,0.4566232,-0.42223931,0.465569,0.46618478,-0.44191779,0.481343,0.45278184,-0.37965488,0.461324,0.46079604,-0.36058532,0.456786,0.46703436,-0.3496865,0.454138,0.47746763,-0.35860409,0.452247,0.47881229,-0.38054825,0.467036,0.49603936,-0.37818929,0.460968,0.53374336,-0.41761549,0.481631,0.54481126,-0.4410367,0.492548,0.51272142,-0.38826367,0.473045,0.52194608,-0.38779034,0.466096,0.55333984,-0.41362242,0.481888,0.56613355,-0.43030025,0.490457
0.48899961,-0.45046238,0.452961,0.47345159,-0.40898427,0.459828,0.46098976,-0.44383898,0.447789,0.42935534,-0.4175488,0.448047,0.4133039,-0.3917567,0.442538,0.40134056,-0.37248056,0.44166,0.4277631,-0.3759157,0.458208,0.44136957,-0.37315738,0.453132,0.46449725,-0.41129139,0.471765,0.47274735,-0.43222138,0.486611,0.4577934,-0.37407149,0.466887,0.46979096,-0.35259185,0.465595,0.47843398,-0.33987777,0.464841,0.49097031,-0.34737348,0.464303,0.48412259,-0.37594861,0.473324,0.50557864,-0.37075917,0.470324,0.54345121,-0.40835887,0.490534,0.55275029,-0.43223109,0.499819,0.51791074,-0.384208,0.479589,0.53079326,-0.38116997,0.475126,0.56199221,-0.40664859,0.490617,0.57187049,-0.41953239,0.498686
0.49328101,-0.44000632,0.455659,0.48053187,-0.40088854,0.465777,0.4661269,-0.43404053,0.451286,0.43706435,-0.40929123,0.454647,0.42160596,-0.38362323,0.450654,0.41038088,-0.36529463,0.451007,0.43756801,-0.37132768,0.467563,0.45313336,-0.36767812,0.465511,0.47658302,-0.40506019,0.483963,0.48482149,-0.42654079,0.498179,0.46758746,-0.36961373,0.476177,0.48159742,-0.34772421,0.478316,0.49135766,-0.33445622,0.479564,0.50510116,-0.34129843,0.480456,0.49363681,-0.3712507,0.482227,0.5170921,-0.36494652,0.482232,0.55510387,-0.40094384,0.502236,0.56387531,-0.42470152,0.510267,0.52658602,-0.3786071,0.487446,0.54153962,-0.37482468,0.485804,0.57312105,-0.39977713,0.501211,0.5824941,-0.41271604,0.508307
0.49592581,-0.42789545,0.457205,0.48501254,-0.38997668,0.46813,0.46835339,-0.41989539,0.451482,0.45684468,-0.37638913,0.448602,0.42547734,-0.3667571,0.449108,0.41635851,-0.37449647,0.462396,0.44400774,-0.35666271,0.468771,0.46133847,-0.32854942,0.47334,0.47058543,-0.31334171,0.47571,0.47930549,-0.29875567,0.477865,0.47425245,-0.35881447,0.479359,0.49272232,-0.33163452,0.483384,0.50645915,-0.31591544,0.485732,0.52526607,-0.32309955,0.487409,0.50015853,-0.36365769,0.48695,0.52910007,-0.35319578,0.488049,0.56145622,-0.38857964,0.507246,0.56436825,-0.41451108,0.515027,0.53236519,-0.37474483,0.493823,0.54893466,-0.3627111,0.492545,0.57872616,-0.38859073,0.507309,0.58544871,-0.40522288,0.513483
0.49400267,-0.42319831,0.45643,0.48062607,-0.38329207,0.46396,0.46802449,-0.40882245,0.451205,0.4557496,-0.36877927,0.448631,0.42345306,-0.35786002,0.447955,0.41647281,-0.37063799,0.462846,0.44153727,-0.34275785,0.462757,0.45546455,-0.30967902,0.463471,0.46274085,-0.29234628,0.463828,0.47220018,-0.27894848,0.464153,0.46983978,-0.34582557,0.4717,0.46674424,-0.30459279,0.471093,0.47581549,-0.28574583,0.47074,0.48981931,-0.28376618,0.470487,0.49404557,-0.35170935,0.478286,0.51733927,-0.34298048,0.474899,0.54814171,-0.37916015,0.494933,0.55100892,-0.4049979,0.504304,0.52331005,-0.36611886,0.484604,0.53784266,-0.35341203,0.480659,0.56685056,-0.38011495,0.496067,0.57382913,-0.39741037,0.50343
0.54603476,-0.44991722,0.526976,0.52006647,-0.39950032,0.507794,0.52199997,-0.44541442,0.520538,0.50160823,-0.42025646,0.506776,0.46228778,-0.38746609,0.482737,0.44163926,-0.36822044,0.476253,0.47057058,-0.3567385,0.485484,0.45142875,-0.30666407,0.461012,0.45262373,-0.28856555,0.461667,0.4552324,-0.27276254,0.462264,0.49352725,-0.34853913,0.488076,0.47614683,-0.30738536,0.477859,0.47042143,-0.28042666,0.471899,0.47113838,-0.26707829,0.467642,0.5146908,-0.34700556,0.492187,0.51877238,-0.3243825,0.468179,0.54821089,-0.35909079,0.486384,0.56124621,-0.38868768,0.503351,0.54376448,-0.35414142,0.500486,0.54140257,-0.35025397,0.47685,0.56230596,-0.37537663,0.490288,0.57473516,-0.40092008,0.503818
0.54643552,-0.44815423,0.526898,0.52029002,-0.39728082,0.51046,0.51898456,-0.44065628,0.519431,0.49681386,-0.41333574,0.509652,0.46407056,-0.38244148,0.489204,0.44579034,-0.35914593,0.479103,0.46044294,-0.34423312,0.488838,0.45020187,-0.33258533,0.465958,0.47351572,-0.34752303,0.483213,0.49566975,-0.36148143,0.498899,0.48864626,-0.34058351,0.493564,0.46440093,-0.29307831,0.469387,0.4520407,-0.26800188,0.455283,0.44527876,-0.25138629,0.445209,0.51496885,-0.34267239,0.499149,0.50825429,-0.32537156,0.478582,0.53980515,-0.35851935,0.497369,0.55819357,-0.38648727,0.51318,0.55205166,-0.35710055,0.508669,0.53746915,-0.34685667,0.486478,0.56237428,-0.37274177,0.500331,0.58455566,-0.40187021,0.513512
0.54736506,-0.44784931,0.530234,0.52177118,-0.39334435,0.515903,0.51755077,-0.43501983,0.521836,0.49155116,-0.40251714,0.51133,0.46135606,-0.37197958,0.4952,0.44119441,-0.34992237,0.487584,0.47088829,-0.33938266,0.494625,0.48351952,-0.34064974,0.476644,0.51174675,-0.37053603,0.494218,0.52183249,-0.38828329,0.510195,0.49786376,-0.33794824,0.501172,0.47743655,-0.28867606,0.478839,0.48195824,-0.26936707,0.482272,0.48523065,-0.25476215,0.484725,0.52212789,-0.34187148,0.508039,0.53339343,-0.3245441,0.490269,0.56482618,-0.35659679,0.509274,0.57481233,-0.38632506,0.524041,0.5544252,-0.35540824,0.518671,0.55235352,-0.34796819,0.49762,0.57681418,-0.36923191,0.511607,0.59323763,-0.39891857,0.524439
0.54497708,-0.43938121,0.529433,0.52189451,-0.37870255,0.517868,0.51610197,-0.42448727,0.520981,0.48893873,-0.39042249,0.509036,0.45570259,-0.36186756,0.492973,0.43468665,-0.34227475,0.486532,0.47295678,-0.33031322,0.498546,0.48931112,-0.32991071,0.483317,0.51748029,-0.36075377,0.501273,0.5270521,-0.38095783,0.517596,0.49975288,-0.32926411,0.505981,0.48159984,-0.28081563,0.486235,0.48652053,-0.26104467,0.490355,0.49006642,-0.24610573,0.493298,0.5238251,-0.33329543,0.513294,0.53951335,-0.31868173,0.4985,0.57243496,-0.3496879,0.51792,0.58208847,-0.37910336,0.531651,0.5558163,-0.34657106,0.523942,0.55597938,-0.34253047,0.504794,0.58142464,-0.36209527,0.519115,0.59667422,-0.38684671,0.531407
0.54156601,-0.42158107,0.526419,0.52237316,-0.36855749,0.517284,0.51582598,-0.41201881,0.519337,0.490492,-0.38038086,0.508354,0.4581052,-0.35043786,0.48961,0.43952283,-0.32770183,0.479982,0.47510308,-0.32185588,0.501501,0.49026491,-0.32125033,0.488074,0.52023219,-0.35210569,0.506675,0.53260343,-0.37350802,0.523585,0.50238146,-0.32086559,0.507895,0.4840818,-0.27311002,0.490563,0.48927036,-0.25362802,0.496547,0.49294917,-0.23885215,0.500821,0.52668439,-0.32475514,0.5141,0.54099552,-0.31309178,0.501015,0.57449285,-0.34433533,0.52112,0.58515324,-0.37713026,0.534435,0.55863637,-0.3375826,0.523012,0.55860741,-0.33469649,0.505965,0.5843307,-0.35486053,0.520895,0.60054103,-0.37890763,0.532683
0.54417974,-0.41898766,0.529078,0.5253387,-0.36699528,0.52105,0.51785738,-0.40423025,0.521566,0.49312657,-0.3738679,0.510543,0.46089145,-0.34407355,0.491218,0.44063009,-0.32443903,0.480403,0.47761104,-0.31720467,0.505522,0.49552101,-0.31672994,0.4934,0.52568718,-0.34701108,0.511984,0.5377714,-0.37279692,0.528877,0.50499709,-0.31631107,0.512797,0.48782583,-0.26923247,0.49649,0.49218276,-0.24910251,0.501625,0.4963063,-0.23743091,0.505293,0.52933745,-0.3201768,0.519614,0.54652669,-0.30873653,0.50801,0.58074514,-0.33924544,0.528101,0.59086202,-0.36755568,0.540813,0.56120491,-0.33277589,0.529039,0.56336602,-0.32991396,0.51266,0.58945102,-0.35049911,0.527566,0.60610053,-0.37859699,0.53911
0.5520555,-0.41584444,0.536069,0.52966786,-0.36408349,0.526717,0.52490202,-0.40601604,0.528063,0.49985956,-0.37567148,0.520758,0.46897388,-0.34745801,0.504467,0.44797586,-0.32767476,0.497259,0.48009891,-0.31861377,0.509589,0.4968822,-0.3158572,0.496363,0.5269313,-0.3457847,0.514688,0.53865749,-0.36728285,0.531348,0.50732917,-0.31707423,0.517105,0.48310144,-0.26754051,0.499494,0.48780828,-0.24856066,0.505386,0.49528333,-0.23499687,0.509595,0.53182006,-0.32045969,0.524257,0.54817526,-0.30850471,0.511547,0.58220412,-0.3383724,0.531364,0.59289081,-0.36705933,0.544413,0.56197853,-0.32911718,0.534314,0.56551194,-0.32958825,0.516854,0.59112569,-0.35000395,0.531516,0.60703417,-0.37356237,0.543346
0.5603953,-0.41239128,0.541343,0.53655355,-0.36240556,0.53183,0.5333304,-0.40394952,0.533737,0.50530636,-0.376594,0.524767,0.47270127,-0.34880138,0.508431,0.45130833,-0.32978706,0.501679,0.48427422,-0.31965517,0.515098,0.49922386,-0.31410196,0.501527,0.53029901,-0.34342866,0.519953,0.54338002,-0.36541515,0.536704,0.51086113,-0.31633067,0.522052,0.48607916,-0.2687174,0.504317,0.48970374,-0.2499475,0.510641,0.49219284,-0.23564689,0.515158,0.53614298,-0.31568808,0.528758,0.5486614,-0.30169254,0.515609,0.58302898,-0.329901,0.53553,0.59605454,-0.36297139,0.548797,0.56991609,-0.32499743,0.538324,0.56879679,-0.32133937,0.520859,0.59408225,-0.34090156,0.53562,0.61186898,-0.36409273,0.54749
0.55789778,-0.40687575,0.53808,0.5389682,-0.35756849,0.533184,0.5352948,-0.39816001,0.533897,0.5049585,-0.36838411,0.528153,0.46955616,-0.34411024,0.515928,0.45030478,-0.32513139,0.510315,0.49038904,-0.31594151,0.524228,0.50630493,-0.30890815,0.513833,0.53836065,-0.3384959,0.53336,0.55963132,-0.36904083,0.551113,0.51523354,-0.31185633,0.528153,0.49564175,-0.2663838,0.515201,0.49910771,-0.24712226,0.522622,0.50144923,-0.23251866,0.527923,0.53848155,-0.31511893,0.531888,0.5537055,-0.30307381,0.521577,0.59007999,-0.33137005,0.542657,0.60378805,-0.36000831,0.555243,0.5681836,-0.32265049,0.537144,0.57101184,-0.31584399,0.524042,0.5990462,-0.33552542,0.539891,0.61834561,-0.35698198,0.550648
0.55793992,-0.40122824,0.538226,0.53613923,-0.35321934,0.534833,0.53249107,-0.38959431,0.535019,0.50061572,-0.36230964,0.531022,0.46993432,-0.33474208,0.518894,0.45125791,-0.31548775,0.513817,0.48856441,-0.31274265,0.52823,0.50456034,-0.3045589,0.518964,0.53756547,-0.3335662,0.538714,0.56557879,-0.36568174,0.556669,0.51318818,-0.30945187,0.531346,0.49828124,-0.26653329,0.519977,0.50211345,-0.24697964,0.527479,0.50473154,-0.23217935,0.532838,0.53757966,-0.31246324,0.534261,0.55542576,-0.30451,0.525,0.59217453,-0.33307944,0.546312,0.6057887,-0.36136309,0.558566,0.5664987,-0.32064895,0.538284,0.57108941,-0.31537546,0.526603,0.59945554,-0.33627497,0.542688,0.61796245,-0.35732649,0.553036
0.55161819,-0.39691891,0.536289,0.52999517,-0.34974152,0.534408,0.52622933,-0.38608637,0.532298,0.49679176,-0.35982682,0.529437,0.4640882,-0.33178878,0.518736,0.44828075,-0.31506351,0.514553,0.48668099,-0.3109738,0.527905,0.5048431,-0.30498896,0.520498,0.53546638,-0.33437019,0.540211,0.56089209,-0.36225999,0.558133,0.51280768,-0.3087346,0.532475,0.49670233,-0.26381283,0.522474,0.49861339,-0.24246845,0.531171,0.50446452,-0.2296628,0.537383,0.53582064,-0.31093953,0.536431,0.55720576,-0.30572924,0.529306,0.59510394,-0.33336218,0.55059,0.60992469,-0.36255702,0.561969,0.56568145,-0.32061021,0.541394,0.56446792,-0.31036794,0.530555,0.57883583,-0.33132532,0.546591,0.5810241,-0.3509057,0.556623
0.55306774,-0.39847612,0.540232,0.53133547,-0.35117289,0.537021,0.52707378,-0.38790179,0.535849,0.4979691,-0.36191776,0.532287,0.46768302,-0.33471202,0.520339,0.44942528,-0.31605522,0.515836,0.48802728,-0.31113126,0.52904,0.50495882,-0.30535437,0.520436,0.53442741,-0.33486437,0.540032,0.55847744,-0.36232956,0.557847,0.51421609,-0.30887421,0.53372,0.49597154,-0.26306658,0.522375,0.49856829,-0.24236496,0.531214,0.5034094,-0.22900803,0.537528,0.5372712,-0.31120407,0.537904,0.55844522,-0.30670753,0.529558,0.59590859,-0.33456464,0.550716,0.61039811,-0.36263737,0.562539,0.56714401,-0.32125687,0.543376,0.56988544,-0.32186346,0.531433,0.59188003,-0.34817376,0.547344,0.60171578,-0.36769157,0.557716
0.55226428,-0.39542685,0.542105,0.53227583,-0.35112149,0.538699,0.52512712,-0.38696471,0.538501,0.49792472,-0.36233194,0.534995,0.46702284,-0.33557099,0.522859,0.4484582,-0.31738816,0.518542,0.48949804,-0.3102594,0.531576,0.50658474,-0.30638048,0.522455,0.53594614,-0.33603698,0.542157,0.55977731,-0.36342344,0.560069,0.51489982,-0.30740554,0.535198,0.49441893,-0.26134114,0.523761,0.49424463,-0.2407991,0.534634,0.50328607,-0.22881151,0.542399,0.53712678,-0.30932782,0.538531,0.55658473,-0.30529594,0.529494,0.59461612,-0.33256333,0.550759,0.61059384,-0.36068886,0.562904,0.56570965,-0.31900976,0.543045,0.57072402,-0.31806741,0.531217,0.59221999,-0.34523933,0.547247,0.60328827,-0.36485526,0.557625
0.55218669,-0.39504294,0.543387,0.53340088,-0.35112567,0.54038,0.52852309,-0.38855129,0.540259,0.49974878,-0.36400602,0.53876,0.46964003,-0.33786441,0.526403,0.45117265,-0.31800192,0.519728,0.49180131,-0.31091931,0.534162,0.50345091,-0.30223667,0.525256,0.53492738,-0.3346705,0.545038,0.55951969,-0.36378295,0.563022,0.51722349,-0.30671461,0.53729,0.49354714,-0.2596489,0.526306,0.49658746,-0.24170924,0.537582,0.50353182,-0.22905058,0.545636,0.53883656,-0.3065208,0.540175,0.55697837,-0.30586836,0.531288,0.59508496,-0.33296252,0.552635,0.61205673,-0.36142312,0.564751,0.56696565,-0.31547963,0.544093,0.5716573,-0.31853312,0.532719,0.5934784,-0.34523221,0.548838,0.60470403,-0.36493887,0.55909
0.55442848,-0.39661227,0.546982,0.53377389,-0.35090014,0.542771,0.52827874,-0.3886249,0.543798,0.50062905,-0.36385693,0.541774,0.46994593,-0.33739148,0.528616,0.4517371,-0.31791888,0.520866,0.49198384,-0.30891515,0.535598,0.50252806,-0.30108018,0.525495,0.53210968,-0.33094233,0.545191,0.55717115,-0.35872812,0.563096,0.51706205,-0.30518125,0.538442,0.49214589,-0.25915395,0.526287,0.49615181,-0.24174597,0.538647,0.50143047,-0.22849616,0.547476,0.53901348,-0.30645255,0.541217,0.55505856,-0.3043482,0.53105,0.59206376,-0.32975119,0.552302,0.61148046,-0.36092655,0.564898,0.56722842,-0.31549225,0.545226,0.56881119,-0.31563706,0.532961,0.59231813,-0.34295889,0.548997,0.60416405,-0.36436256,0.559531
0.55306894,-0.39552839,0.546679,0.53362425,-0.35051998,0.54326,0.52731908,-0.3877714,0.543652,0.50020856,-0.36368794,0.542265,0.46997034,-0.33736807,0.529437,0.4516148,-0.31802521,0.522585,0.49231385,-0.30929772,0.536869,0.50325342,-0.30158799,0.527507,0.53302251,-0.33150198,0.547274,0.55829655,-0.35938628,0.565243,0.5174846,-0.30550611,0.539746,0.48934042,-0.25962164,0.528379,0.49355217,-0.24312739,0.541927,0.49907544,-0.23036995,0.551604,0.53945202,-0.30668789,0.542468,0.55559518,-0.30413366,0.533071,0.5919181,-0.32997156,0.5544,0.61062346,-0.35880667,0.566715,0.56755799,-0.31554525,0.546269,0.56996804,-0.31641858,0.534632,0.59318754,-0.34344598,0.550739,0.60494663,-0.36321283,0.561079
0.55364974,-0.39593696,0.548061,0.53389388,-0.35058918,0.543985,0.52808634,-0.38832745,0.545102,0.50070131,-0.36434944,0.54349,0.4703555,-0.33789965,0.530548,0.45199069,-0.3183343,0.523575,0.49208805,-0.30941474,0.537202,0.50206416,-0.30129565,0.527148,0.53182866,-0.33115042,0.546875,0.55714682,-0.35899822,0.564808,0.5170563,-0.3054189,0.539796,0.48821283,-0.2596811,0.527805,0.49261161,-0.24355507,0.54182,0.49817612,-0.2309849,0.551831,0.53891992,-0.30646905,0.542352,0.55397773,-0.30349609,0.532199,0.58908913,-0.32854718,0.553482,0.60910284,-0.35822865,0.566085,0.56703447,-0.31523568,0.546079,0.56885405,-0.3160493,0.533993,0.59181376,-0.34286006,0.550064,0.60390321,-0.36382151,0.560549
0.55385759,-0.39608012,0.548913,0.53999982,-0.35451685,0.550548,0.52879381,-0.38884129,0.546345,0.50019535,-0.36418327,0.543401,0.47169975,-0.33903588,0.532517,0.45523736,-0.32065447,0.527755,0.50202585,-0.31583957,0.548445,0.51766361,-0.3109177,0.544077,0.54804078,-0.34148732,0.564058,0.5738803,-0.36999843,0.582223,0.52864011,-0.31237427,0.552228,0.50461442,-0.26874475,0.545869,0.50426614,-0.24977274,0.555112,0.50653941,-0.23538565,0.561715,0.55137749,-0.31361044,0.555175,0.57314338,-0.31416726,0.551081,0.60914365,-0.3399665,0.572643,0.6266282,-0.36875272,0.58291,0.57952085,-0.32216471,0.558318,0.58619157,-0.32586536,0.550567,0.60949407,-0.35324697,0.56691,0.6239377,-0.37585292,0.579523
0.56316966,-0.40304632,0.5605,0.54439517,-0.35733826,0.555297,0.53604359,-0.39416718,0.554251,0.501776,-0.36547889,0.545448,0.47233587,-0.3396151,0.533559,0.45468831,-0.32029378,0.527444,0.49720836,-0.31293343,0.543461,0.50738322,-0.3049136,0.533632,0.53671692,-0.33458969,0.552738,0.56164722,-0.36225381,0.570107,0.5262277,-0.31102918,0.549949,0.51693039,-0.27551259,0.559396,0.51290178,-0.25432795,0.564907,0.51262802,-0.23853237,0.568843,0.55182276,-0.31390458,0.555828,0.56801179,-0.31147579,0.54648,0.60307234,-0.33671752,0.567125,0.62217362,-0.36628553,0.579148,0.58488573,-0.325138,0.563641,0.58499602,-0.32533822,0.549668,0.60721133,-0.35202658,0.565081,0.61981341,-0.37333988,0.575974
0.56444642,-0.40414777,0.563354,0.54563068,-0.35809777,0.556772,0.53702639,-0.39506527,0.556797,0.50257931,-0.36617278,0.546569,0.47279872,-0.3400395,0.534325,0.45498524,-0.32052381,0.528049,0.49708196,-0.31294737,0.543532,0.50600585,-0.30420741,0.53244,0.53517237,-0.33373967,0.551386,0.55996536,-0.36127053,0.56861,0.52611026,-0.31102004,0.550007,0.51720099,-0.27579597,0.559825,0.51331259,-0.25471695,0.565552,0.51312279,-0.23897431,0.569643,0.55185699,-0.31395471,0.556016,0.56658848,-0.31078621,0.54536,0.60156649,-0.33596952,0.565835,0.62097338,-0.36569449,0.578317,0.58538074,-0.32540635,0.564234,0.58428078,-0.32504727,0.54917,0.60627153,-0.3515587,0.564427,0.61922249,-0.3729617,0.575644
0.56606178,-0.40511393,0.565829,0.54632467,-0.35824357,0.558071,0.53836407,-0.39591188,0.559012,0.50330847,-0.36678874,0.547555,0.47336031,-0.34051471,0.535149,0.4555979,-0.32088025,0.529151,0.49702641,-0.31298512,0.543634,0.50490238,-0.30363498,0.531471,0.53390988,-0.33303687,0.550264,0.55856762,-0.36044472,0.567348,0.52606084,-0.31103775,0.550096,0.51741135,-0.27600757,0.56015,0.51360801,-0.25499591,0.566015,0.51346663,-0.23928573,0.570204,0.55193688,-0.31402404,0.556216,0.5654418,-0.31022783,0.54445,0.60032798,-0.33534402,0.56476,0.61999148,-0.36520605,0.577625,0.58585144,-0.32566269,0.564778,0.58371412,-0.32524321,0.548791,0.60552131,-0.35118347,0.5639,0.61875646,-0.37266322,0.575386
0.56672969,-0.40507478,0.566864,0.54638887,-0.35787535,0.558602,0.53880266,-0.3958322,0.55995,0.50353139,-0.36701902,0.547952,0.47356856,-0.34072161,0.535536,0.45552294,-0.32086446,0.529889,0.49694215,-0.31299026,0.543672,0.50435576,-0.30337702,0.531045,0.53329579,-0.33271951,0.54977,0.55790081,-0.36007348,0.566793,0.52596567,-0.31101899,0.550109,0.51752592,-0.27614326,0.560347,0.51379023,-0.25518569,0.566319,0.51368853,-0.23950265,0.570585,0.55188569,-0.31401397,0.55626,0.56482395,-0.30994536,0.54401,0.5997121,-0.3350496,0.564248,0.61942904,-0.36494664,0.577279,0.58595486,-0.32571592,0.56495,0.5833518,-0.32507563,0.548574,0.60507338,-0.35097152,0.56362,0.61820327,-0.37176941,0.575217
0.56747166,-0.40554282,0.568044,0.54668698,-0.35804769,0.559332,0.5394042,-0.39628424,0.561041,0.50389995,-0.36747269,0.549038,0.47409695,-0.3410881,0.536542,0.45609943,-0.32092154,0.530632,0.49677406,-0.31297423,0.543958,0.50412264,-0.30329336,0.530919,0.53300375,-0.33258983,0.54958,0.55756044,-0.35990104,0.566545,0.52581897,-0.3109264,0.550376,0.51768313,-0.27628518,0.560574,0.51390158,-0.25531824,0.566522,0.51376183,-0.23962508,0.570771,0.55180905,-0.31388266,0.556559,0.56406884,-0.30971713,0.54388,0.59944486,-0.33493886,0.564049,0.6185197,-0.36475061,0.577227,0.58605122,-0.32558468,0.565367,0.58286965,-0.32492252,0.548643,0.60442139,-0.3507808,0.56363,0.61760597,-0.37162811,0.575326
0.56730566,-0.40569536,0.568485,0.54635174,-0.35805391,0.559668,0.53905613,-0.39631053,0.561397,0.50383845,-0.3673943,0.549647,0.47063818,-0.33995814,0.540793,0.45560108,-0.32127457,0.532024,0.49614867,-0.31280298,0.544108,0.50341061,-0.30332436,0.531001,0.53218371,-0.33260333,0.549632,0.55666436,-0.35988587,0.566568,0.52533106,-0.31084761,0.550604,0.51777813,-0.27640629,0.56098,0.5142588,-0.25542927,0.567032,0.51441187,-0.23982612,0.571356,0.55146069,-0.31388227,0.55686,0.56139048,-0.30855131,0.542458,0.59311531,-0.3290326,0.562505,0.61701949,-0.3633959,0.576328,0.58592073,-0.32569332,0.565775,0.5824363,-0.32475738,0.548952,0.60387355,-0.3506391,0.563908,0.61699429,-0.37126243,0.575628
0.56643614,-0.40533268,0.567913,0.54580823,-0.35797797,0.559499,0.53835096,-0.39608937,0.561053,0.50325234,-0.36704506,0.54934,0.47315887,-0.34106968,0.537738,0.45537586,-0.32146773,0.532556,0.49603523,-0.31308509,0.544527,0.50359006,-0.30410421,0.531723,0.53240266,-0.33345979,0.550447,0.55693201,-0.36079433,0.56747,0.52511737,-0.31103744,0.550849,0.51760068,-0.27683805,0.561495,0.5142606,-0.25594119,0.567706,0.51462027,-0.24045515,0.572142,0.55112838,-0.31397191,0.556921,0.56244626,-0.30934683,0.543793,0.59821859,-0.33410624,0.563993,0.61775219,-0.36375084,0.577364,0.58538319,-0.32561912,0.565547,0.58208009,-0.32475011,0.549078,0.60358185,-0.35070795,0.564125,0.61657418,-0.37108431,0.575755
0.56580835,-0.4052126,0.567583,0.54542925,-0.3580093,0.559412,0.53795799,-0.39612435,0.561007,0.50336327,-0.36715775,0.549688,0.47320072,-0.34142685,0.538565,0.45550674,-0.32207022,0.533704,0.49612393,-0.31339171,0.544985,0.50387578,-0.30486531,0.5323,0.53269027,-0.33431239,0.551115,0.55722146,-0.3617026,0.56822,0.52499133,-0.31121276,0.551013,0.51743436,-0.2769671,0.561568,0.51423812,-0.25599498,0.567724,0.51481036,-0.24056797,0.572122,0.55078844,-0.31402797,0.556819,0.56252642,-0.30972484,0.544268,0.59838403,-0.33433209,0.56459,0.61800013,-0.36389327,0.577776,0.58472925,-0.32550611,0.565088,0.58154256,-0.32469142,0.548877,0.60308029,-0.35073001,0.564013,0.61593959,-0.37087,0.575586
