sluyters/QuantumLeap/src/datasets/gesture/HandGestureDataset_SHREC2017_csv/Gesture10/finger_1/subject_6_essai_3_skeletons_world.csv
Wrist_x,Wrist_y,Wrist_z,Palm_x,Palm_y,Palm_z,thumb_base_x,thumb_base_y,thumb_base_z,thumb_first_joint_x,thumb_first_joint_y,thumb_first_joint_z,thumb_second_joint_x,thumb_second_joint_y,thumb_second_joint_z,thumb_tip_x,thumb_tip_y,thumb_tip_z,index_base_x,index_base_y,index_base_z,index_first_joint_x,index_first_joint_y,index_first_joint_z,index_second_joint_x,index_second_joint_y,index_second_joint_z,index_tip_x,index_tip_y,index_tip_z,middle_base_x,middle_base_y,middle_base_z,middle_first_joint_x,middle_first_joint_y,middle_first_joint_z,middle_second_joint_x,middle_second_joint_y,middle_second_joint_z,middle_tip_x,middle_tip_y,middle_tip_z,ring_base_x,ring_base_y,ring_base_z,ring_first_joint_x,ring_first_joint_y,ring_first_joint_z,ring_second_joint_x,ring_second_joint_y,ring_second_joint_z,ring_tip_x,ring_tip_y,ring_tip_z,pinky_base_x,pinky_base_y,pinky_base_z,pinky_first_joint_x,pinky_first_joint_y,pinky_first_joint_z,pinky_second_joint_x,pinky_second_joint_y,pinky_second_joint_z,pinky_tip_x,pinky_tip_y,pinky_tip_z,
0.55377362,-0.36826696,0.539929,0.54730906,-0.32119506,0.533612,0.52873704,-0.35127377,0.535649,0.50035985,-0.31659852,0.520254,0.47071405,-0.28211857,0.500124,0.4572487,-0.25924451,0.492639,0.51565288,-0.26391393,0.523472,0.5042607,-0.22361464,0.510641,0.49933965,-0.204694,0.504226,0.4954668,-0.18847622,0.498394,0.54004342,-0.27031139,0.526513,0.53265843,-0.22420574,0.513222,0.53290902,-0.2154372,0.505468,0.53067522,-0.22290053,0.49993,0.56356793,-0.27654317,0.529502,0.55388689,-0.23481581,0.515918,0.55242772,-0.22832802,0.508968,0.55160165,-0.2325644,0.50265,0.59396682,-0.29307136,0.533985,0.57841964,-0.2554363,0.520914,0.5770889,-0.25296271,0.514909,0.57608479,-0.25079498,0.50961
0.55839895,-0.37134056,0.544639,0.54919607,-0.32226773,0.534282,0.53271195,-0.35378643,0.538514,0.51234849,-0.32835767,0.521333,0.47902929,-0.29686014,0.493865,0.46627297,-0.27562322,0.48307,0.51731682,-0.27008254,0.518754,0.50137735,-0.22640868,0.502507,0.49619354,-0.2070219,0.494384,0.49761681,-0.18946259,0.494355,0.54416937,-0.27255147,0.522645,0.52547645,-0.22231551,0.506252,0.52809214,-0.21670749,0.49669,0.52666334,-0.22641361,0.48986,0.56323251,-0.27632385,0.526643,0.5466018,-0.23345216,0.509307,0.54642124,-0.23004395,0.500437,0.54811234,-0.23376524,0.492373,0.59324332,-0.2914882,0.53292,0.59070222,-0.25878257,0.517642,0.59170465,-0.25262413,0.510623,0.59284533,-0.24711428,0.504429
0.56274468,-0.37397162,0.547529,0.55394705,-0.32682439,0.534402,0.5340658,-0.35497963,0.538332,0.50957649,-0.32818539,0.51618,0.48042362,-0.29994616,0.487387,0.46530811,-0.27608946,0.477987,0.51288217,-0.26927826,0.512957,0.49327855,-0.22464419,0.493355,0.48808241,-0.20773771,0.483554,0.49285449,-0.19247862,0.485948,0.54177617,-0.27290021,0.51965,0.52639735,-0.22624116,0.4999,0.5285257,-0.22645013,0.488379,0.52287464,-0.23870751,0.480149,0.56539129,-0.2785661,0.526166,0.5584749,-0.24076037,0.506368,0.55777346,-0.22446327,0.496238,0.55956296,-0.2282925,0.48703,0.59656813,-0.29423066,0.535848,0.58777965,-0.25592672,0.51817,0.58920618,-0.24990642,0.510049,0.58973795,-0.24762293,0.502882
0.56711018,-0.37713705,0.550367,0.55861041,-0.33223941,0.536137,0.53804111,-0.35817577,0.540749,0.53902315,-0.33270294,0.517961,0.50331971,-0.29667998,0.493601,0.48845791,-0.27850309,0.490384,0.51658264,-0.27330877,0.513324,0.49817631,-0.23013093,0.492828,0.48837025,-0.20839578,0.48258,0.49242953,-0.19332646,0.484679,0.54848604,-0.27951043,0.520147,0.53178298,-0.23287088,0.499416,0.53001814,-0.23835426,0.487322,0.52211158,-0.25081808,0.478684,0.57412785,-0.28704875,0.526855,0.54706911,-0.24016821,0.50524,0.54505884,-0.23654199,0.494181,0.54269071,-0.24669817,0.484128,0.60649521,-0.30322034,0.536926,0.58998977,-0.26039558,0.517363,0.58831168,-0.25249067,0.508375,0.58601047,-0.25063513,0.500444
0.56834969,-0.37927786,0.552603,0.55790095,-0.33314317,0.535288,0.53773074,-0.35886928,0.540503,0.52809429,-0.33146871,0.514597,0.50343309,-0.29460908,0.48682,0.49636248,-0.27236676,0.479258,0.51296812,-0.27258128,0.507041,0.49255409,-0.22826982,0.483507,0.48372498,-0.2077811,0.47174,0.48766568,-0.19350268,0.476513,0.54470025,-0.27850878,0.515831,0.53768668,-0.24872801,0.492328,0.5294064,-0.2637712,0.478618,0.51445502,-0.27171751,0.468825,0.5720853,-0.28724063,0.524396,0.54165709,-0.23848107,0.500766,0.53795552,-0.2321168,0.488676,0.53490351,-0.24015203,0.477686,0.60697847,-0.30509784,0.537129,0.58297345,-0.26353151,0.514974,0.58034125,-0.26063342,0.504795,0.57554152,-0.2683415,0.495813
0.57300209,-0.38415219,0.558708,0.5581929,-0.33445522,0.536304,0.54399373,-0.36449079,0.546784,0.51499828,-0.3306359,0.520434,0.49857518,-0.29716268,0.49598,0.49022361,-0.27342137,0.486439,0.5081268,-0.26989325,0.50434,0.48589442,-0.22451512,0.478012,0.47819775,-0.2054839,0.464849,0.48662973,-0.19454137,0.46869,0.538862,-0.27619689,0.511129,0.52402351,-0.25045298,0.483383,0.50781222,-0.26467352,0.467199,0.507137,-0.27911559,0.4716,0.56506712,-0.28462077,0.518438,0.54181908,-0.25238126,0.4903,0.53408611,-0.25987979,0.475904,0.52149767,-0.26994172,0.462817,0.59939752,-0.30397755,0.530419,0.58157988,-0.26090845,0.505888,0.57656623,-0.25027623,0.494617,0.5692132,-0.25438957,0.484672
0.57439007,-0.38585746,0.55591,0.55414068,-0.33315021,0.530467,0.54495137,-0.36720442,0.544531,0.51708017,-0.33372663,0.518543,0.49952159,-0.30580761,0.492833,0.49055726,-0.28327024,0.479366,0.50177514,-0.26869225,0.496823,0.48026811,-0.22336241,0.468881,0.47445694,-0.21067001,0.45491,0.4836458,-0.20431627,0.458152,0.5328742,-0.27526802,0.501877,0.51370982,-0.24982672,0.471743,0.4961187,-0.26347049,0.454165,0.49365491,-0.27324138,0.457465,0.55961703,-0.28237407,0.507992,0.52953142,-0.24545254,0.478133,0.52003953,-0.25326341,0.462856,0.50596483,-0.2614993,0.448968,0.59557204,-0.29888548,0.518995,0.57521899,-0.25600935,0.492738,0.56820724,-0.24752587,0.480675,0.55878216,-0.25297087,0.47003
0.57626758,-0.38768965,0.555952,0.555464,-0.33456798,0.527994,0.54571528,-0.36793541,0.544054,0.51935818,-0.33643873,0.51737,0.49742958,-0.31253283,0.491388,0.4873643,-0.29135023,0.475962,0.49876798,-0.27162096,0.491768,0.47921001,-0.22864412,0.462238,0.46819072,-0.20808675,0.447473,0.4760054,-0.19921885,0.449537,0.52831703,-0.27476489,0.496577,0.50739315,-0.25456621,0.464446,0.48811635,-0.26750789,0.445703,0.48555815,-0.27375692,0.447756,0.55508637,-0.28151399,0.502683,0.5242566,-0.24878541,0.471041,0.51302853,-0.25814139,0.454852,0.51566237,-0.26863174,0.456986,0.59152918,-0.29765569,0.514044,0.56791712,-0.25415846,0.486094,0.55963553,-0.25285431,0.473253,0.54791426,-0.26008363,0.461921
0.5783303,-0.3894575,0.553463,0.55804583,-0.3387858,0.524477,0.54909246,-0.37200771,0.540794,0.53574911,-0.34710961,0.513223,0.4933483,-0.31734669,0.495158,0.4776042,-0.30208311,0.494802,0.49638783,-0.27753852,0.486511,0.47649097,-0.23791643,0.456405,0.46670404,-0.21904797,0.441353,0.46896516,-0.20684491,0.438105,0.52552628,-0.27703383,0.491906,0.50576406,-0.26211416,0.458927,0.48458742,-0.2740696,0.43969,0.48138216,-0.28300285,0.44108,0.55308863,-0.28330782,0.498574,0.51154028,-0.23719453,0.465977,0.50135236,-0.24011141,0.449299,0.50819904,-0.26093956,0.450673,0.59091916,-0.29891837,0.510755,0.56321112,-0.25512565,0.481937,0.55362407,-0.25950629,0.468697,0.54261136,-0.26643692,0.457014
0.57661124,-0.38999358,0.551924,0.55358818,-0.34057823,0.517323,0.5480657,-0.37416976,0.536752,0.53040472,-0.35316356,0.506636,0.48956368,-0.32247189,0.486409,0.47158011,-0.30418454,0.482586,0.48525037,-0.27582824,0.471941,0.4772237,-0.23906679,0.45496,0.47474904,-0.22367372,0.446469,0.47266842,-0.20939292,0.43875,0.51662383,-0.27936654,0.478442,0.48783878,-0.26156474,0.441281,0.46813752,-0.27133574,0.419604,0.46301495,-0.27765906,0.417188,0.54558445,-0.28662276,0.486451,0.50303667,-0.23846686,0.452186,0.49059752,-0.24149362,0.434655,0.49536306,-0.25839154,0.434566,0.58589723,-0.30376265,0.501049,0.55351351,-0.25817786,0.468987,0.54190859,-0.26032176,0.454256,0.52819172,-0.26628594,0.441258
0.58145745,-0.39566892,0.548434,0.55252774,-0.345543,0.514238,0.54942851,-0.38096232,0.533788,0.5298791,-0.35999079,0.504186,0.49060067,-0.33004391,0.48495,0.47385781,-0.31175079,0.481686,0.48697654,-0.2821544,0.469815,0.4773845,-0.24796453,0.448516,0.47299884,-0.23228249,0.437867,0.46917085,-0.21798725,0.428185,0.51804364,-0.28630313,0.475811,0.4880497,-0.26937522,0.438941,0.46693985,-0.27880215,0.417433,0.46204838,-0.28381252,0.415444,0.54666082,-0.29400365,0.483375,0.50661714,-0.2453207,0.448745,0.49276048,-0.24934982,0.431028,0.49501148,-0.2659606,0.43059,0.58633667,-0.31154161,0.497383,0.55667724,-0.26544797,0.465749,0.54441666,-0.26741676,0.451214,0.52894836,-0.2732125,0.43839
0.58556702,-0.40282506,0.547474,0.55330161,-0.34987999,0.511308,0.5488115,-0.38192155,0.531656,0.53217855,-0.36514421,0.501063,0.49088236,-0.33631252,0.48015,0.47222246,-0.31792867,0.475454,0.48467063,-0.28662712,0.463921,0.47256443,-0.253323,0.440272,0.46699219,-0.23825965,0.428448,0.46208712,-0.22457934,0.417698,0.5165784,-0.29016353,0.470667,0.48602889,-0.27578823,0.432481,0.46429997,-0.28378538,0.410206,0.45720263,-0.28592387,0.406488,0.54390242,-0.29429102,0.478998,0.50409901,-0.25308921,0.441209,0.48883013,-0.25861684,0.421875,0.4860484,-0.27076951,0.417657,0.5849471,-0.31175652,0.494209,0.5539691,-0.26592024,0.461571,0.54387322,-0.27144419,0.446575,0.52539472,-0.27334998,0.433344
0.57886161,-0.39988742,0.540307,0.54890185,-0.35042764,0.503699,0.54389358,-0.38206009,0.525159,0.52870511,-0.36931398,0.495308,0.49294927,-0.34403199,0.47967,0.4699496,-0.31903375,0.471641,0.48267917,-0.28834312,0.456796,0.47032212,-0.2524453,0.435012,0.46989096,-0.23965836,0.42412,0.46234564,-0.22426826,0.414217,0.51367801,-0.29269981,0.462563,0.48233423,-0.27961883,0.424107,0.45733175,-0.28572491,0.401674,0.44832887,-0.28221309,0.397885,0.54224441,-0.30044919,0.470123,0.49919913,-0.25646321,0.432365,0.48295822,-0.26203443,0.413046,0.48008756,-0.27387744,0.40884,0.58184721,-0.31776709,0.48448,0.55051923,-0.27254631,0.451693,0.53731459,-0.2751128,0.436628,0.52067931,-0.27983255,0.423336
0.57733935,-0.40038946,0.538279,0.54697352,-0.35112863,0.501585,0.54312976,-0.38491398,0.522428,0.52721156,-0.37371758,0.491885,0.49104007,-0.35040513,0.475303,0.4622401,-0.32526343,0.460313,0.47923395,-0.28913845,0.453751,0.46979259,-0.25521479,0.431367,0.46572865,-0.24017481,0.420176,0.46220193,-0.2263259,0.410001,0.51082937,-0.29315607,0.460351,0.48098196,-0.28042459,0.421839,0.45636085,-0.28613167,0.399373,0.44736929,-0.28445534,0.395254,0.53991394,-0.30058728,0.468603,0.4974464,-0.25819723,0.430557,0.48303414,-0.26699764,0.411091,0.47839396,-0.27470158,0.406455,0.58017531,-0.31745751,0.483797,0.54891903,-0.27424002,0.450727,0.53600166,-0.28048857,0.435533,0.51926134,-0.28159229,0.422126
0.57898569,-0.40789526,0.538042,0.54708327,-0.3641788,0.500705,0.54364412,-0.38992281,0.521548,0.52634347,-0.38280007,0.490514,0.48983459,-0.35855878,0.472606,0.46139576,-0.33296022,0.457375,0.47861749,-0.29910272,0.451584,0.46855191,-0.26458052,0.428051,0.46426122,-0.2491749,0.416285,0.46118844,-0.23846783,0.405588,0.51037255,-0.30298323,0.458749,0.48274749,-0.29086803,0.41988,0.45750144,-0.29535764,0.397207,0.44661949,-0.29244648,0.39229,0.53949411,-0.31031689,0.467515,0.49810317,-0.26903502,0.428985,0.4830706,-0.2745295,0.409272,0.47813584,-0.28376517,0.403726,0.57966817,-0.32708551,0.483416,0.54831891,-0.28547664,0.450021,0.53584659,-0.28906895,0.434678,0.5189999,-0.29218209,0.42114
0.56904781,-0.41352121,0.528364,0.5394735,-0.36300209,0.49387,0.5331453,-0.39796348,0.511901,0.51579345,-0.37394976,0.480503,0.50071342,-0.34634748,0.45331,0.4961489,-0.32572415,0.43591,0.47378813,-0.29650928,0.446983,0.46578435,-0.26735709,0.422519,0.46202003,-0.25250876,0.410287,0.45633794,-0.2369139,0.399168,0.50633086,-0.30172107,0.455107,0.47875979,-0.27037437,0.418033,0.45865213,-0.27901357,0.396406,0.45258728,-0.28811561,0.393535,0.53592024,-0.31017125,0.464444,0.50052568,-0.27565022,0.427285,0.48559688,-0.28222197,0.408273,0.48178749,-0.29250569,0.404837,0.5761975,-0.33149024,0.480609,0.54671978,-0.29301719,0.448287,0.53431859,-0.2974953,0.433436,0.51747222,-0.29544247,0.420332
0.55476475,-0.4193133,0.515789,0.53326932,-0.35859471,0.4858,0.51966432,-0.39369873,0.499048,0.51063893,-0.35791595,0.479986,0.49785865,-0.32317656,0.452707,0.49092781,-0.29638167,0.43765,0.47069237,-0.27912654,0.442054,0.45324392,-0.26031711,0.40909,0.44623589,-0.25310197,0.392608,0.43784969,-0.24521484,0.377624,0.50493729,-0.28812673,0.4521,0.487887,-0.28453734,0.418294,0.45972505,-0.29262906,0.398574,0.45383544,-0.29926305,0.398038,0.5358487,-0.30550862,0.462672,0.51738805,-0.28361087,0.427984,0.49901598,-0.29185279,0.410237,0.49397816,-0.30472487,0.409126,0.57601387,-0.32828019,0.479648,0.55195163,-0.30310379,0.449414,0.54081379,-0.30925617,0.435522,0.52527189,-0.30992082,0.423265
0.54683326,-0.41815573,0.508393,0.53418262,-0.3696889,0.486632,0.51554541,-0.39417658,0.494979,0.50615687,-0.36548507,0.475773,0.50672753,-0.34045497,0.457706,0.50923407,-0.31914784,0.448733,0.48644433,-0.29634306,0.453335,0.47445885,-0.2828974,0.426083,0.47925281,-0.28242014,0.421657,0.48424072,-0.28214597,0.417634,0.51585517,-0.30653892,0.46218,0.50725696,-0.30625089,0.434901,0.48466336,-0.31528846,0.418989,0.48322429,-0.33086727,0.423168,0.54561695,-0.31814914,0.471131,0.5353474,-0.30400264,0.44284,0.52106825,-0.31502511,0.428366,0.52207311,-0.33220866,0.432395,0.58427436,-0.34362224,0.484974,0.56479694,-0.32080943,0.459873,0.55673067,-0.32884613,0.44834,0.54510803,-0.33172459,0.439249
0.54002124,-0.42276338,0.502206,0.53044728,-0.37751356,0.483809,0.50972274,-0.40221647,0.48942,0.49980716,-0.37263524,0.470487,0.49635048,-0.34644025,0.449178,0.5047585,-0.33068274,0.444509,0.48646251,-0.30645469,0.453883,0.47690364,-0.29475627,0.428868,0.49323004,-0.30169206,0.434604,0.50913861,-0.30831804,0.439818,0.5195753,-0.31730682,0.463136,0.51092203,-0.31906909,0.438695,0.49237431,-0.33305295,0.424438,0.49027648,-0.34579081,0.429951,0.54809201,-0.33042003,0.472165,0.53811964,-0.31434316,0.446398,0.52753701,-0.32618144,0.433215,0.529585,-0.33995032,0.438624,0.58421617,-0.35418942,0.485609,0.56732046,-0.33310409,0.462647,0.56050019,-0.34176346,0.452097,0.56456066,-0.3541319,0.455638
0.53915581,-0.429773,0.501877,0.5293638,-0.37809496,0.483308,0.50764481,-0.4031077,0.487881,0.49716452,-0.37275532,0.468971,0.49239963,-0.35002114,0.445948,0.50023068,-0.32989661,0.440512,0.4834372,-0.30632576,0.451763,0.47238953,-0.2947433,0.426058,0.49700575,-0.30750551,0.439543,0.52072841,-0.31958508,0.451802,0.5182241,-0.31806641,0.462443,0.5086685,-0.32033945,0.437856,0.48993242,-0.33412941,0.423514,0.48745803,-0.34616075,0.428509,0.54826474,-0.33193378,0.472658,0.53683015,-0.31529981,0.44635,0.52528047,-0.32692954,0.432891,0.52661345,-0.33934151,0.437614,0.58636712,-0.35666778,0.48754,0.56830869,-0.33469056,0.464244,0.56140808,-0.34329913,0.453541,0.56515119,-0.35552946,0.456596
0.54061788,-0.43301644,0.503008,0.52910049,-0.37954344,0.48214,0.50849753,-0.40902654,0.488445,0.49540703,-0.3758504,0.467499,0.49161657,-0.35625642,0.443767,0.49283326,-0.33319461,0.433155,0.48436761,-0.3116287,0.448121,0.4665916,-0.2955897,0.420815,0.4892996,-0.30824884,0.433669,0.51111056,-0.32025842,0.445355,0.51905411,-0.32371445,0.458691,0.50591699,-0.32730749,0.43216,0.48309394,-0.33913677,0.416684,0.4778632,-0.34508921,0.420722,0.54906561,-0.33791026,0.468992,0.53555504,-0.32153698,0.440907,0.52112872,-0.33223061,0.426538,0.51918914,-0.33968605,0.430255,0.58722409,-0.3631026,0.484314,0.58416402,-0.32957872,0.459525,0.57182949,-0.33507558,0.448136,0.55989766,-0.3473972,0.450416
0.53648924,-0.43138514,0.499152,0.52670676,-0.37810844,0.479089,0.50411641,-0.40331391,0.483807,0.49495022,-0.36884486,0.462788,0.49357049,-0.34220144,0.445364,0.4954276,-0.32085297,0.434987,0.48580714,-0.30482587,0.444732,0.47390751,-0.29884052,0.417538,0.49852169,-0.31519807,0.430023,0.5223254,-0.33108272,0.441374,0.5187301,-0.32083607,0.456545,0.50632427,-0.32616493,0.430728,0.483162,-0.33810354,0.415668,0.47829669,-0.34984347,0.419604,0.54929636,-0.33645489,0.467806,0.54790139,-0.30683619,0.440034,0.5287921,-0.31672015,0.425825,0.51754861,-0.33249863,0.429315,0.58789324,-0.36342224,0.484154,0.5864117,-0.3322755,0.459737,0.57267531,-0.33817703,0.448518,0.56163966,-0.3506668,0.450662
0.53778107,-0.43333459,0.500147,0.52836079,-0.37945447,0.479865,0.50558479,-0.40506543,0.484802,0.49867691,-0.37213893,0.463138,0.49540082,-0.34368063,0.446827,0.49738946,-0.32520035,0.436727,0.48693791,-0.30620991,0.44534,0.47459752,-0.30049861,0.418018,0.49902071,-0.31719665,0.430476,0.52262059,-0.33342919,0.441801,0.52038213,-0.32126617,0.457075,0.50802601,-0.32637332,0.431072,0.48458353,-0.33825445,0.415903,0.47965499,-0.35086134,0.419772,0.55077898,-0.33699596,0.468291,0.5424486,-0.32406767,0.440366,0.52494964,-0.33403497,0.426079,0.51878272,-0.33976143,0.429506,0.58913815,-0.36412377,0.484615,0.58407632,-0.33918918,0.460065,0.57226265,-0.34376512,0.448785,0.56177652,-0.35335855,0.450877
0.53794879,-0.43669724,0.499385,0.53103005,-0.38340035,0.479626,0.50602582,-0.40836789,0.484157,0.50315657,-0.37910133,0.462474,0.50100129,-0.35041493,0.445851,0.5009116,-0.32898002,0.43804,0.48581976,-0.30990794,0.445648,0.4760486,-0.30439352,0.418682,0.50073895,-0.32146919,0.43128,0.52437668,-0.3360887,0.442733,0.52129329,-0.32344339,0.457424,0.51156443,-0.32807261,0.43186,0.48963256,-0.34092645,0.416948,0.48259225,-0.35342806,0.421033,0.55182965,-0.3388514,0.468632,0.54397404,-0.32594755,0.441106,0.52726361,-0.33611245,0.427023,0.52143776,-0.34347039,0.430675,0.59018734,-0.36525519,0.484872,0.58538296,-0.34062415,0.460657,0.57308165,-0.34788924,0.449531,0.56763403,-0.35814455,0.451796
0.5406751,-0.43956816,0.50068,0.53623763,-0.3900976,0.480409,0.50783856,-0.41140502,0.484163,0.50231135,-0.38274718,0.458991,0.49722611,-0.35378961,0.440245,0.49972962,-0.32983247,0.430661,0.48690406,-0.31370456,0.444451,0.47599751,-0.31424555,0.416645,0.50056177,-0.33372838,0.428266,0.52433835,-0.35281312,0.43883,0.52375069,-0.32765175,0.45763,0.5140782,-0.33186948,0.431724,0.49217511,-0.34419271,0.416613,0.48742879,-0.35873541,0.419871,0.5556385,-0.34350471,0.470032,0.54593225,-0.32894343,0.441793,0.5297275,-0.338738,0.427345,0.5226341,-0.34416381,0.429982,0.59558863,-0.36971542,0.487769,0.58880917,-0.3431552,0.463097,0.57666979,-0.35035621,0.451761,0.5710994,-0.36247302,0.453295
0.54081773,-0.44017646,0.499887,0.53629711,-0.39047073,0.480109,0.50818829,-0.41224249,0.483534,0.50239634,-0.38273179,0.458921,0.49752088,-0.35386709,0.440277,0.499717,-0.33083493,0.430146,0.48733884,-0.31462608,0.444733,0.47697669,-0.31477274,0.417283,0.50185736,-0.3344222,0.429082,0.52594202,-0.35366885,0.439808,0.52411915,-0.32837734,0.457884,0.51529776,-0.33292462,0.432388,0.4938584,-0.34549944,0.417515,0.48942771,-0.36029478,0.421009,0.55591539,-0.34403873,0.470226,0.54692478,-0.32976425,0.442374,0.53109568,-0.33969745,0.428125,0.52444703,-0.34557463,0.431016,0.595833,-0.37021873,0.487817,0.58955394,-0.34772917,0.463465,0.57625995,-0.35865846,0.452276,0.57234127,-0.36581728,0.454003
0.54162925,-0.44166096,0.500205,0.53641026,-0.39153929,0.480409,0.50923148,-0.41425102,0.48355,0.50221092,-0.38342281,0.458782,0.49709201,-0.35421401,0.439501,0.49916202,-0.33334746,0.427805,0.48752346,-0.31676012,0.444649,0.47730894,-0.31558096,0.41707,0.50217245,-0.33519852,0.42863,0.52625661,-0.35441683,0.439139,0.52441448,-0.33046788,0.458165,0.51654086,-0.33321451,0.432684,0.49669175,-0.34670879,0.41782,0.49101351,-0.36089454,0.421136,0.55632349,-0.34528039,0.470807,0.54811612,-0.33196104,0.442869,0.53307061,-0.34194169,0.428575,0.52749592,-0.35018095,0.43124,0.59687352,-0.37263965,0.48876,0.5904717,-0.3490627,0.464373,0.57859605,-0.35675113,0.453168,0.57311578,-0.36718826,0.454735
0.54229928,-0.44286674,0.500478,0.53671598,-0.39235419,0.480802,0.5096367,-0.41526711,0.483555,0.50213303,-0.38377932,0.458726,0.49707833,-0.35452967,0.439291,0.49943092,-0.33388182,0.427482,0.48776172,-0.31725965,0.444805,0.47848905,-0.31920018,0.417195,0.50353472,-0.33989709,0.428545,0.52778787,-0.36019544,0.438863,0.52495533,-0.33125258,0.458692,0.51786712,-0.33376235,0.433347,0.49867869,-0.34729363,0.418563,0.49446176,-0.36294609,0.421752,0.55713109,-0.34637528,0.471632,0.54926038,-0.33312462,0.443715,0.5345179,-0.34322799,0.429432,0.52893197,-0.35207793,0.431926,0.59793992,-0.37395301,0.489921,0.59147925,-0.35276689,0.465591,0.57909442,-0.36070841,0.454413,0.57303174,-0.37148213,0.455861
0.54199435,-0.44394664,0.499652,0.53516339,-0.39093396,0.480649,0.50843396,-0.41442404,0.482757,0.50227047,-0.38393343,0.458247,0.50193457,-0.35776648,0.436003,0.5063503,-0.33887793,0.423244,0.48779899,-0.31659038,0.445205,0.47834856,-0.31811059,0.418008,0.50378078,-0.34108511,0.429434,0.52804495,-0.36180364,0.439821,0.5252703,-0.33087242,0.459294,0.51929976,-0.33448662,0.434531,0.49976707,-0.34781852,0.420085,0.49578904,-0.36379072,0.423475,0.55754298,-0.34692613,0.472347,0.55022151,-0.33340608,0.444916,0.53566491,-0.34381343,0.430881,0.53092022,-0.35392448,0.433568,0.59824555,-0.37375405,0.490674,0.59236936,-0.35375299,0.466769,0.58014362,-0.36193324,0.455786,0.57499583,-0.37168461,0.45739
0.54203049,-0.44546647,0.499226,0.53530012,-0.39234949,0.480418,0.50858772,-0.4159118,0.482292,0.50212993,-0.38440398,0.457996,0.50118136,-0.35888372,0.435243,0.50557751,-0.34019785,0.422049,0.48717725,-0.31762339,0.445078,0.47789955,-0.32044832,0.417985,0.5022612,-0.34298875,0.429391,0.52633619,-0.36438627,0.43976,0.52463288,-0.33181287,0.459283,0.5178508,-0.33681556,0.434696,0.49785006,-0.35010241,0.420354,0.49573665,-0.36474879,0.423772,0.55686488,-0.34777125,0.472417,0.55014662,-0.33453219,0.445117,0.53595196,-0.34445588,0.431149,0.53255635,-0.35818691,0.433855,0.5978327,-0.37479927,0.490811,0.59165392,-0.35487346,0.467028,0.58040298,-0.36238795,0.456101,0.57507223,-0.37401098,0.457724
0.54116403,-0.44589749,0.498135,0.53418936,-0.3920544,0.479799,0.50796163,-0.41646659,0.481324,0.50177985,-0.38454895,0.457589,0.50067731,-0.35907451,0.43477,0.50520121,-0.34055661,0.421552,0.48668565,-0.31771324,0.444974,0.47768797,-0.32092221,0.418212,0.50220308,-0.34350139,0.429753,0.52640825,-0.36504588,0.440244,0.52412234,-0.33190553,0.459194,0.51779489,-0.33757818,0.435005,0.49829646,-0.35113018,0.420895,0.49630382,-0.36591595,0.424514,0.5562859,-0.34783646,0.472303,0.55009567,-0.33495114,0.44537,0.53646552,-0.3451308,0.43159,0.5334131,-0.35931625,0.434507,0.59709665,-0.37480191,0.4906,0.59128468,-0.3551814,0.467124,0.58060978,-0.36271318,0.456338,0.57588981,-0.37501012,0.458123
0.54070545,-0.44618566,0.497084,0.5331742,-0.39150726,0.478881,0.50750267,-0.41704564,0.480315,0.50108352,-0.38417138,0.456588,0.49984443,-0.35861464,0.433083,0.50393994,-0.34002769,0.419306,0.48587348,-0.3173302,0.444211,0.47701249,-0.32075237,0.417546,0.50159719,-0.34382296,0.42913,0.52562975,-0.36614624,0.439661,0.52343458,-0.33094493,0.458425,0.51875873,-0.33360915,0.434348,0.50172086,-0.34772823,0.420303,0.49714618,-0.36611727,0.423982,0.55563759,-0.34693648,0.47152,0.54934292,-0.33416254,0.444692,0.53588919,-0.34495325,0.430966,0.53205004,-0.35662209,0.433948,0.59613809,-0.37429787,0.489779,0.59155136,-0.35218224,0.466391,0.58199063,-0.35661371,0.455645,0.57725729,-0.37134143,0.457479
0.54026705,-0.44663384,0.496164,0.53241147,-0.39110562,0.478191,0.50711318,-0.4177545,0.479486,0.50085618,-0.38411853,0.456096,0.49983811,-0.35869261,0.432499,0.5039192,-0.34020639,0.418573,0.48545221,-0.31716974,0.44381,0.47681306,-0.32082164,0.417318,0.5015164,-0.34425918,0.428991,0.52550494,-0.36715325,0.439602,0.52296502,-0.33078449,0.457994,0.51929625,-0.33408877,0.434108,0.50207886,-0.34774797,0.420174,0.49782093,-0.36623167,0.423968,0.55510905,-0.34671534,0.471046,0.54907928,-0.33417127,0.444404,0.53580901,-0.34505648,0.430773,0.53213965,-0.35688683,0.43388,0.59549146,-0.37397,0.489221,0.59115412,-0.35182763,0.465985,0.58240214,-0.35746397,0.455309,0.57826987,-0.37263463,0.457237
0.54141222,-0.44833735,0.497424,0.5325419,-0.39200021,0.478532,0.50766122,-0.41906858,0.480175,0.50088031,-0.3850827,0.455545,0.49958803,-0.35936528,0.431353,0.50442566,-0.34227253,0.415518,0.48413283,-0.31654678,0.442739,0.47381146,-0.32024825,0.415481,0.49768608,-0.3440203,0.426605,0.52023728,-0.37091877,0.436717,0.52191284,-0.33091296,0.457302,0.51712925,-0.3341122,0.432685,0.50193979,-0.34666942,0.418324,0.50102738,-0.36588099,0.421519,0.55442272,-0.34701105,0.470736,0.54707689,-0.34448077,0.443309,0.53067052,-0.35396476,0.429276,0.52923311,-0.35909717,0.431708,0.59464946,-0.3749738,0.489502,0.58901445,-0.3554021,0.465652,0.57844814,-0.36238375,0.454694,0.57384876,-0.3743872,0.45612
0.54060757,-0.44835881,0.497272,0.53168545,-0.39196754,0.478189,0.5069169,-0.4191234,0.47998,0.501029,-0.38536308,0.45555,0.49990226,-0.35975494,0.431286,0.50470068,-0.34293355,0.41544,0.48330186,-0.31648435,0.442198,0.47292157,-0.31989305,0.41481,0.49656414,-0.34387619,0.425884,0.5185548,-0.37072878,0.435952,0.52099192,-0.33081617,0.456746,0.51640299,-0.33348869,0.431969,0.50121627,-0.3460975,0.417515,0.50056095,-0.3655476,0.420633,0.55342366,-0.34688827,0.470184,0.54621551,-0.34393838,0.442611,0.52971617,-0.3533282,0.428504,0.52732606,-0.35876323,0.430856,0.59393572,-0.37462319,0.488979,0.58834923,-0.35550384,0.465007,0.57784367,-0.36237849,0.453993,0.5730674,-0.37449424,0.455357
0.53812678,-0.44668823,0.49563,0.53003225,-0.39108858,0.477175,0.50500194,-0.41792909,0.478754,0.50198706,-0.38588153,0.456443,0.50297712,-0.36156322,0.432298,0.50800331,-0.34486452,0.417811,0.48242567,-0.31653014,0.442178,0.47322026,-0.32012498,0.41532,0.49713138,-0.34460031,0.426797,0.51909302,-0.3716281,0.437231,0.51983754,-0.33059906,0.456436,0.51448461,-0.33523145,0.432151,0.49389999,-0.35019986,0.417985,0.49450127,-0.36564799,0.421532,0.55194243,-0.34640368,0.469586,0.54584269,-0.33381803,0.442553,0.53320295,-0.34472382,0.428721,0.52975913,-0.3568754,0.431559,0.592275,-0.37349792,0.487948,0.58705377,-0.35654013,0.464394,0.57696689,-0.36309196,0.453571,0.5724291,-0.37611891,0.455296
0.536351,-0.4447985,0.494171,0.52879059,-0.38974337,0.476323,0.50399341,-0.4167223,0.478052,0.50332484,-0.37946866,0.459359,0.5044541,-0.35660359,0.436947,0.50807361,-0.34195137,0.421587,0.48166784,-0.31265268,0.442726,0.47223587,-0.31213658,0.416525,0.49648653,-0.3366688,0.428659,0.52436916,-0.36412602,0.43969,0.51853244,-0.3262256,0.456266,0.51685386,-0.33195035,0.432427,0.5017376,-0.3461447,0.418521,0.49951943,-0.3661491,0.422678,0.55016427,-0.34159148,0.46878,0.54327975,-0.32385128,0.442362,0.53154265,-0.33525781,0.428846,0.52907098,-0.35343732,0.432402,0.58989774,-0.36809808,0.486295,0.58604291,-0.35100703,0.463178,0.57749633,-0.35778587,0.452556,0.57341679,-0.37455474,0.454806
0.53526655,-0.44353436,0.493593,0.52858434,-0.38851391,0.476324,0.50349794,-0.41591724,0.47804,0.50403527,-0.37964845,0.46065,0.5084437,-0.35564357,0.44072,0.5155318,-0.34185786,0.428537,0.48232974,-0.31002354,0.44387,0.47406906,-0.3126727,0.418248,0.49879162,-0.33764516,0.430845,0.52541187,-0.36559178,0.442296,0.51897007,-0.32541274,0.456918,0.51739259,-0.33196739,0.433536,0.50136635,-0.34553173,0.419896,0.50231416,-0.36679582,0.424517,0.55001536,-0.34059994,0.468982,0.54412814,-0.32406753,0.443128,0.53251466,-0.3357779,0.4299,0.53053786,-0.35254634,0.433996,0.58890199,-0.36683372,0.485878,0.58482754,-0.35451141,0.463182,0.57528194,-0.36222249,0.452754,0.57205794,-0.37600629,0.455402
0.5397407,-0.44591287,0.498417,0.52698335,-0.37487285,0.479217,0.50392326,-0.41052142,0.479998,0.50211694,-0.37454949,0.458966,0.50317969,-0.3498055,0.4334,0.50861415,-0.33461348,0.418679,0.481551,-0.30287405,0.441749,0.47089629,-0.30896896,0.413923,0.49740897,-0.33220508,0.423882,0.5160016,-0.36109989,0.432936,0.51867559,-0.31614,0.457642,0.51419586,-0.32692979,0.432961,0.50042323,-0.34372925,0.418564,0.49623066,-0.36094924,0.420849,0.55026704,-0.3311173,0.472194,0.54636478,-0.32352974,0.444338,0.53448603,-0.33380429,0.430086,0.52833595,-0.34681508,0.431418,0.58954327,-0.35686697,0.492335,0.5918185,-0.35236068,0.468287,0.58134207,-0.36131743,0.457238,0.57674728,-0.3764244,0.457875
0.53050898,-0.43664042,0.490332,0.52169293,-0.37080299,0.4752,0.49652754,-0.40304408,0.473426,0.50212275,-0.36971581,0.458818,0.50571207,-0.34267467,0.435616,0.51682615,-0.33034895,0.425825,0.48032885,-0.3016332,0.442736,0.4757539,-0.29949596,0.417927,0.50298678,-0.3175544,0.429448,0.52084004,-0.34797099,0.443841,0.51694111,-0.31458541,0.458195,0.51861736,-0.31931722,0.436884,0.50244471,-0.3349142,0.424452,0.49656714,-0.34862392,0.428756,0.54783485,-0.32914403,0.472079,0.54708533,-0.3148896,0.447478,0.53870654,-0.32695196,0.434892,0.53807898,-0.34666086,0.438412,0.58575703,-0.35406596,0.490828,0.5843009,-0.34295626,0.469444,0.57584298,-0.35153445,0.459619,0.5752072,-0.37163646,0.461916
0.52712718,-0.42476216,0.491656,0.52026769,-0.36768174,0.47573,0.49422671,-0.39424059,0.474315,0.49596122,-0.36278873,0.454849,0.49725815,-0.33730254,0.429213,0.50013057,-0.323331,0.413799,0.47740199,-0.29661581,0.442118,0.47377653,-0.29636797,0.416663,0.50014519,-0.31422744,0.427776,0.51757154,-0.34454411,0.44226,0.51428207,-0.31016715,0.457833,0.51949041,-0.30607344,0.435876,0.50348368,-0.32156168,0.423068,0.49666724,-0.33087598,0.426902,0.54552261,-0.32531304,0.471988,0.5460142,-0.31300948,0.446715,0.53663653,-0.32495044,0.433785,0.53412633,-0.34076163,0.436781,0.58409898,-0.3511381,0.491178,0.5837444,-0.34177148,0.46926,0.57449564,-0.35020496,0.45919,0.56953847,-0.36375918,0.461094
0.52239387,-0.41535419,0.489216,0.51718342,-0.35337543,0.473949,0.48919978,-0.38274799,0.471992,0.49257429,-0.3490132,0.452995,0.49326224,-0.32461545,0.426648,0.49748278,-0.30985766,0.410876,0.47618618,-0.28315782,0.440991,0.47244462,-0.28344105,0.415991,0.49855899,-0.30077469,0.427208,0.51533167,-0.33037997,0.441555,0.51318662,-0.29703826,0.456794,0.51974685,-0.28594896,0.435415,0.50940881,-0.30231183,0.422943,0.50551238,-0.31745363,0.426998,0.54440328,-0.31240258,0.47097,0.54523628,-0.30065982,0.446211,0.53563603,-0.31313825,0.433543,0.53305802,-0.32920975,0.436764,0.58268689,-0.33837557,0.490089,0.58257563,-0.32944371,0.468612,0.57311018,-0.33806537,0.458745,0.56804198,-0.35167361,0.460825
0.54028467,-0.40731435,0.50645,0.52525493,-0.34710402,0.481885,0.50658649,-0.38313679,0.487731,0.50533825,-0.35538718,0.469496,0.49581248,-0.33005516,0.440592,0.50350987,-0.31640752,0.430064,0.47266996,-0.28406367,0.439904,0.46258326,-0.26942006,0.408825,0.48554762,-0.28337681,0.416636,0.50762577,-0.31313588,0.432498,0.5084666,-0.29371279,0.454282,0.50280823,-0.2695915,0.425046,0.49058388,-0.28174934,0.407992,0.48409041,-0.29397238,0.408474,0.53812812,-0.30097761,0.468001,0.53086885,-0.28396932,0.436335,0.5179826,-0.29343515,0.420134,0.51137486,-0.30663149,0.419695,0.57863658,-0.31892144,0.487933,0.57328755,-0.31692505,0.460575,0.57097491,-0.31609288,0.448004,0.56823341,-0.32940496,0.447241
0.54483133,-0.40662022,0.511312,0.52738826,-0.34853614,0.485571,0.51100928,-0.38395729,0.492764,0.50655228,-0.35623212,0.472402,0.49719143,-0.33090943,0.44366,0.50450625,-0.3169295,0.432803,0.47152223,-0.28644077,0.44289,0.463075,-0.26967117,0.411209,0.48496045,-0.28294048,0.418205,0.50712847,-0.31269924,0.434195,0.50711362,-0.29236598,0.456646,0.50205763,-0.26912661,0.426407,0.48923583,-0.28086239,0.408768,0.48252123,-0.29291651,0.408953,0.53821515,-0.30103368,0.469944,0.52993103,-0.28337281,0.437521,0.51667858,-0.2925611,0.420932,0.50990058,-0.3056186,0.420237,0.57837682,-0.31875695,0.489547,0.57213339,-0.31616163,0.461502,0.56938298,-0.31503805,0.448617,0.56638255,-0.32814107,0.44764
0.53751317,-0.39657144,0.528635,0.52457929,-0.34702589,0.4989,0.50824687,-0.3735366,0.513764,0.50009948,-0.3592829,0.485717,0.46993159,-0.32920415,0.460225,0.45672931,-0.30753069,0.451426,0.47834144,-0.28160082,0.45765,0.46577742,-0.2637545,0.425672,0.45664907,-0.26194551,0.409684,0.45334517,-0.27883272,0.409759,0.50971557,-0.29187161,0.465487,0.49690748,-0.25312202,0.431834,0.47553648,-0.2625569,0.412202,0.46729696,-0.27547335,0.412583,0.53893876,-0.30337889,0.474222,0.50181935,-0.31606504,0.440301,0.46760555,-0.30977767,0.422946,0.45539233,-0.31508701,0.423019,0.57163528,-0.32623685,0.488974,0.55346676,-0.28932079,0.459181,0.54417177,-0.28789172,0.445492,0.54285339,-0.30189628,0.444941
0.53770085,-0.39153402,0.528823,0.52101449,-0.33445457,0.49551,0.50665676,-0.36727657,0.512153,0.49486496,-0.3449116,0.480487,0.46258478,-0.31409182,0.458331,0.44842119,-0.2927625,0.451612,0.46962099,-0.26659655,0.449283,0.45406345,-0.24712358,0.414963,0.44341518,-0.24438497,0.397803,0.43736543,-0.258992,0.39525,0.50160579,-0.27719253,0.458075,0.48532827,-0.23726995,0.421827,0.46228421,-0.24548058,0.400682,0.45135932,-0.25654673,0.39843,0.52970279,-0.28991785,0.467872,0.49478799,-0.29793097,0.431283,0.48985254,-0.31443865,0.43978,0.49970328,-0.32050947,0.457949,0.56625502,-0.3127889,0.48441,0.55506636,-0.26995348,0.455659,0.54505063,-0.27201592,0.442448,0.53805921,-0.28406065,0.441437
0.5409994,-0.38813039,0.527354,0.52656556,-0.33434591,0.49839,0.51403053,-0.3679553,0.5161,0.49646243,-0.34147941,0.490132,0.46438854,-0.3132171,0.469087,0.45054408,-0.29322399,0.457973,0.47620837,-0.26993562,0.462179,0.45857058,-0.22378031,0.432011,0.44701959,-0.22141737,0.416927,0.44598942,-0.23813942,0.418613,0.50475114,-0.27554649,0.465844,0.48365805,-0.23609875,0.433026,0.46377326,-0.24444557,0.413883,0.46070652,-0.25993388,0.415561,0.53032345,-0.28410199,0.471087,0.49741933,-0.29487826,0.439137,0.50097189,-0.31542596,0.452019,0.513497,-0.32526467,0.470066,0.56450112,-0.30188675,0.481565,0.55083022,-0.25856707,0.454649,0.54040874,-0.26030696,0.442281,0.53755498,-0.27430216,0.443849
0.55461115,-0.376243,0.531689,0.53184636,-0.31311951,0.50216,0.52478742,-0.34592347,0.520863,0.50606039,-0.34087111,0.495392,0.46487994,-0.31241799,0.470128,0.44716836,-0.28977014,0.460039,0.47861969,-0.24995066,0.466037,0.46124391,-0.20626904,0.435813,0.4492736,-0.20366986,0.4207,0.44784771,-0.22008276,0.42224,0.50638959,-0.25507392,0.468979,0.48439742,-0.21794297,0.435797,0.46429155,-0.22569343,0.416442,0.46117564,-0.24161593,0.417891,0.53138677,-0.26329872,0.47367,0.49961047,-0.21219016,0.441345,0.51196127,-0.225239,0.448691,0.5324796,-0.25405999,0.466825,0.56505516,-0.2808444,0.483574,0.53349156,-0.235289,0.456352,0.52198809,-0.22734012,0.443845,0.52700216,-0.23557027,0.44536
0.55269603,-0.36303722,0.536723,0.53278842,-0.30540667,0.508883,0.5224898,-0.34061695,0.5235,0.50046322,-0.32221412,0.49536,0.46422408,-0.28988193,0.469666,0.45129684,-0.2679893,0.462009,0.48748249,-0.23912302,0.47112,0.46460309,-0.19878839,0.440866,0.45323218,-0.19341507,0.425739,0.45543036,-0.2094937,0.427329,0.51745106,-0.24869901,0.477598,0.49743419,-0.21037514,0.445454,0.48248764,-0.21176376,0.426703,0.48209227,-0.22952308,0.428493,0.5435704,-0.2605519,0.485069,0.5107999,-0.2074757,0.452935,0.51612109,-0.21429769,0.452817,0.53527279,-0.24060418,0.46863,0.57720835,-0.28233079,0.498038,0.54973309,-0.23526937,0.470767,0.54001644,-0.23412698,0.458237,0.54223093,-0.2484011,0.459739
0.56297418,-0.38167143,0.528166,0.55115096,-0.3284622,0.516465,0.53482229,-0.36582542,0.520333,0.50255224,-0.33214195,0.500764,0.4743499,-0.32645256,0.503493,0.4727279,-0.32934097,0.517867,0.49774718,-0.27481196,0.4978,0.48362573,-0.23074686,0.481366,0.4827987,-0.21663892,0.473149,0.50080461,-0.21661046,0.482188,0.52520273,-0.27440376,0.503317,0.5109594,-0.22861428,0.485139,0.5117327,-0.21577255,0.474536,0.53192213,-0.22126014,0.483463,0.5495985,-0.27766401,0.508756,0.50871279,-0.23481761,0.489691,0.51799884,-0.23027118,0.489289,0.5474564,-0.2408002,0.504841,0.58229789,-0.28844691,0.516946,0.57167525,-0.26560984,0.499366,0.57412846,-0.27136927,0.491288,0.59064073,-0.28711418,0.497752
0.56853141,-0.3807179,0.537472,0.55418428,-0.32979248,0.522432,0.5416235,-0.36787591,0.526903,0.50406313,-0.33182509,0.50296,0.47131003,-0.3178278,0.501261,0.46680363,-0.31625785,0.513973,0.50149153,-0.27381469,0.497824,0.48169479,-0.22837315,0.479305,0.47939544,-0.20845123,0.470046,0.49888288,-0.20576783,0.477669,0.52951093,-0.27422684,0.505532,0.53269093,-0.23645191,0.486181,0.53437625,-0.24935696,0.474893,0.53936618,-0.26926948,0.482707,0.55425371,-0.27829343,0.51303,0.53752269,-0.23749284,0.492657,0.54325303,-0.24230145,0.482234,0.55796075,-0.2629822,0.490276,0.58709161,-0.29025395,0.52416,0.56246841,-0.25315082,0.503764,0.55427258,-0.23791742,0.494393,0.55250611,-0.22663922,0.490967
0.56674583,-0.38032971,0.537662,0.5505294,-0.33045768,0.52714,0.53638779,-0.36218903,0.525117,0.49817711,-0.32802636,0.505175,0.46960329,-0.32192201,0.507948,0.46633648,-0.32553654,0.523296,0.50606232,-0.27616998,0.503596,0.48714492,-0.2310349,0.486057,0.48407225,-0.21079292,0.477288,0.49174188,-0.20157809,0.473199,0.52982204,-0.27779544,0.515317,0.51340325,-0.23106078,0.497791,0.51747527,-0.21160113,0.487568,0.54191821,-0.21860748,0.495233,0.55233272,-0.2840644,0.525769,0.56574211,-0.26009391,0.510007,0.57333664,-0.24745176,0.501943,0.60124684,-0.26215182,0.510682,0.58105846,-0.29828922,0.539758,0.58501684,-0.29962242,0.521862,0.56946254,-0.30915603,0.513639,0.56959625,-0.32494283,0.518835
0.53752755,-0.37532983,0.522171,0.529418,-0.32991068,0.52199,0.51227889,-0.36310064,0.521421,0.48193019,-0.32782074,0.518752,0.45455562,-0.29274922,0.499877,0.45846092,-0.27673415,0.501224,0.5031205,-0.28112162,0.520927,0.50104874,-0.24305335,0.51409,0.50082626,-0.22561289,0.510671,0.5009946,-0.21055876,0.507563,0.52825374,-0.28410944,0.521786,0.52932609,-0.24308726,0.514463,0.5308497,-0.2205948,0.510191,0.53206539,-0.20408971,0.50714,0.54919908,-0.28965373,0.522506,0.55238623,-0.25056879,0.515399,0.5541857,-0.23012108,0.511763,0.55591741,-0.21121983,0.508458,0.57473692,-0.30225545,0.52339,0.57685008,-0.27137423,0.515517,0.57800365,-0.25673959,0.5119,0.5791435,-0.24390282,0.508709
0.53301347,-0.3780458,0.530071,0.52588618,-0.3262717,0.528868,0.51162196,-0.35914657,0.531629,0.49141303,-0.32566412,0.531335,0.46864436,-0.29313274,0.515049,0.46154781,-0.27125962,0.510584,0.5078498,-0.2763737,0.529854,0.50541157,-0.23894649,0.52302,0.50424021,-0.21983948,0.519603,0.50298553,-0.20372444,0.516497,0.53011647,-0.27911292,0.527518,0.53094918,-0.23670253,0.51971,0.53105348,-0.21504162,0.515156,0.53124542,-0.19908537,0.511903,0.55030581,-0.28432162,0.525688,0.55133791,-0.24353443,0.517813,0.55271746,-0.22465146,0.513784,0.55593125,-0.20946535,0.510121,0.56984249,-0.29745343,0.523685,0.57547999,-0.26194228,0.516466,0.57591017,-0.24787389,0.513149,0.57629137,-0.23571317,0.510223
0.54496987,-0.37514617,0.53895,0.53281549,-0.32760282,0.535265,0.51487993,-0.35764583,0.540647,0.49616565,-0.32804558,0.537269,0.47050996,-0.29587183,0.519108,0.4598282,-0.2743785,0.507255,0.51154042,-0.27687784,0.534502,0.50688538,-0.23839169,0.525383,0.50459576,-0.2188389,0.520824,0.50210871,-0.20283858,0.516679,0.53301606,-0.27848107,0.531124,0.52823408,-0.2321284,0.521003,0.52508484,-0.21055629,0.515099,0.52654635,-0.19669469,0.510882,0.5502737,-0.28013267,0.528629,0.54989348,-0.23814589,0.518282,0.54974542,-0.21650461,0.512989,0.54936425,-0.19819648,0.508176,0.57212068,-0.29160845,0.526194,0.57613515,-0.25892249,0.517435,0.57578659,-0.24200647,0.513411,0.57745359,-0.23179697,0.50986
0.54150653,-0.37942071,0.545594,0.53526953,-0.32972977,0.53888,0.51821456,-0.36062118,0.545537,0.49452312,-0.32972029,0.538664,0.46796866,-0.29833818,0.520755,0.45698062,-0.27594963,0.509773,0.51025509,-0.27629419,0.533622,0.50099315,-0.23531858,0.522094,0.49697048,-0.21585701,0.516331,0.49457526,-0.19999429,0.511091,0.53264234,-0.27866082,0.531336,0.52314904,-0.23594395,0.518465,0.51960987,-0.21472997,0.510956,0.51735141,-0.20005633,0.505593,0.55140417,-0.28409607,0.529972,0.54802752,-0.2409735,0.517046,0.54609874,-0.22232044,0.510432,0.54496016,-0.20457093,0.50442,0.5743898,-0.29728554,0.529327,0.56785376,-0.26617856,0.517844,0.56619843,-0.25128251,0.512568,0.56817745,-0.23632047,0.507912
0.53604507,-0.37621923,0.547381,0.53560903,-0.33023427,0.540971,0.51735575,-0.36011456,0.54736,0.49099314,-0.32376079,0.543023,0.46830646,-0.2939885,0.525397,0.46074428,-0.27154684,0.513595,0.51218968,-0.27528742,0.535991,0.5037799,-0.23542527,0.524993,0.49971763,-0.21664105,0.519494,0.49712716,-0.20083201,0.514494,0.53498609,-0.27950957,0.533768,0.53057113,-0.23430738,0.521163,0.52730181,-0.21130389,0.51381,0.52496562,-0.19500631,0.508557,0.55363826,-0.28558111,0.532431,0.55064924,-0.2423646,0.519965,0.54921343,-0.22118389,0.513588,0.54803123,-0.20267389,0.50779,0.57557045,-0.30109463,0.531775,0.5750448,-0.26451789,0.520713,0.57628,-0.24703405,0.515631,0.57616335,-0.23275095,0.511146
0.53675427,-0.3768828,0.545985,0.53303467,-0.32793266,0.540172,0.51476762,-0.35820494,0.545859,0.49027263,-0.32309606,0.541986,0.46779896,-0.2931181,0.524266,0.45978551,-0.27074228,0.513977,0.51108898,-0.27423392,0.535524,0.50325399,-0.23478646,0.524796,0.49941813,-0.21633527,0.519431,0.49685346,-0.20050875,0.514555,0.53371926,-0.2778303,0.53364,0.52958925,-0.23245086,0.521471,0.5268315,-0.20930542,0.514372,0.52578053,-0.19419435,0.509301,0.55246648,-0.28423741,0.532537,0.54960634,-0.24132321,0.520582,0.54733448,-0.22129052,0.514466,0.5472924,-0.20187626,0.508905,0.57496998,-0.2984909,0.532071,0.57453126,-0.26177193,0.521448,0.57439546,-0.24560312,0.516568,0.57432365,-0.23120707,0.512261
0.53427421,-0.37529848,0.548009,0.5317365,-0.32806714,0.541368,0.51515431,-0.35856251,0.547375,0.48972982,-0.32346274,0.540219,0.46521493,-0.2919538,0.522422,0.455989,-0.26934035,0.514557,0.50950106,-0.27193143,0.535459,0.50097167,-0.23366335,0.524035,0.49657604,-0.21518054,0.518324,0.49259691,-0.19810677,0.513131,0.53301115,-0.27682906,0.533907,0.52711524,-0.23313823,0.52096,0.52439359,-0.20866046,0.513407,0.52394449,-0.19329455,0.508012,0.55214715,-0.28363468,0.533141,0.5478516,-0.24130198,0.520462,0.54541026,-0.22058769,0.513975,0.54459898,-0.20229009,0.508077,0.57308499,-0.2978119,0.533197,0.5741997,-0.26043274,0.521893,0.57148735,-0.24592496,0.516699,0.5730413,-0.23089451,0.512116
0.53295731,-0.37453521,0.547462,0.53093232,-0.32750038,0.541,0.51407742,-0.35787627,0.547022,0.48913639,-0.32337822,0.539253,0.46386256,-0.29133366,0.521432,0.45475792,-0.26890183,0.51425,0.50893471,-0.27180807,0.535466,0.50068103,-0.23362415,0.524234,0.49639525,-0.21496855,0.518619,0.49251612,-0.19774707,0.513514,0.5322704,-0.27649364,0.533739,0.52694158,-0.23293624,0.520962,0.52432485,-0.2086599,0.513509,0.52378503,-0.19308727,0.508185,0.55122732,-0.28323717,0.532815,0.54725667,-0.24083027,0.52031,0.54492493,-0.22023936,0.513912,0.54410746,-0.20206357,0.508096,0.57224392,-0.29741565,0.532658,0.5729406,-0.26022124,0.521505,0.57081841,-0.24538504,0.516381,0.57208192,-0.23063039,0.511859
0.5347121,-0.37471586,0.545604,0.53299413,-0.32790196,0.540464,0.51463772,-0.35767931,0.546575,0.49650964,-0.32997406,0.540055,0.46375437,-0.29833128,0.519751,0.45313808,-0.27698044,0.512024,0.50942858,-0.27348007,0.537686,0.50092037,-0.23548243,0.529213,0.49828485,-0.21941138,0.524976,0.50004208,-0.20163837,0.521125,0.53118233,-0.27597923,0.534689,0.52642191,-0.23205713,0.523015,0.51906038,-0.20587617,0.516205,0.52269769,-0.19310336,0.511341,0.54917539,-0.28144892,0.532619,0.54262468,-0.234095,0.521137,0.54068123,-0.21519014,0.515263,0.54326553,-0.20079676,0.509923,0.57200321,-0.28873567,0.530903,0.57027843,-0.25340687,0.520967,0.56955476,-0.2369504,0.516403,0.57017181,-0.22877468,0.512375
0.53518176,-0.37420301,0.545408,0.53330248,-0.32765181,0.540436,0.51535685,-0.35772347,0.546529,0.49651688,-0.33004897,0.540084,0.46370681,-0.29835287,0.5201,0.45287928,-0.2771768,0.51303,0.5093883,-0.27411392,0.53797,0.50177414,-0.23588379,0.530115,0.49943428,-0.21991751,0.526187,0.50094874,-0.20256657,0.522616,0.53112864,-0.27596426,0.534849,0.52576481,-0.23169439,0.523296,0.51941432,-0.20601655,0.516557,0.52192579,-0.19298049,0.511743,0.54915642,-0.28089396,0.532664,0.54276628,-0.23415609,0.521273,0.54087221,-0.21526615,0.515445,0.54264902,-0.20024152,0.510147,0.57187715,-0.28867204,0.530786,0.57032112,-0.25342584,0.521006,0.56967498,-0.23700042,0.516512,0.57017939,-0.22786719,0.512547
0.53489874,-0.37306519,0.546325,0.53420611,-0.32785486,0.541079,0.5166758,-0.35827452,0.54728,0.49683305,-0.33030593,0.540442,0.46402754,-0.29858532,0.520661,0.45306758,-0.27746946,0.513893,0.50939836,-0.27455774,0.538199,0.50230042,-0.23613119,0.530671,0.50011767,-0.22021843,0.526907,0.50137515,-0.20317595,0.523485,0.53131929,-0.27607193,0.535184,0.52529266,-0.23144249,0.523386,0.51936002,-0.20599502,0.516503,0.52097976,-0.19273893,0.511587,0.54956948,-0.28074112,0.533107,0.54296412,-0.23424144,0.521463,0.54093517,-0.21529121,0.515505,0.54201876,-0.19979094,0.510089,0.57253757,-0.28900543,0.531399,0.57076223,-0.25362187,0.521409,0.57001248,-0.23714082,0.516818,0.57030245,-0.22730785,0.512768
0.53514263,-0.37209846,0.546284,0.53381024,-0.32682445,0.540858,0.51639322,-0.35728404,0.546822,0.49618628,-0.32949698,0.540337,0.46546661,-0.29266278,0.523253,0.45458076,-0.27295767,0.515599,0.50847804,-0.27404002,0.537324,0.5028619,-0.23594988,0.531309,0.50138636,-0.22002442,0.528302,0.50232285,-0.20384553,0.525567,0.53084847,-0.27556549,0.53476,0.5227297,-0.22956437,0.522816,0.52147998,-0.20702807,0.515849,0.51999992,-0.19210016,0.510872,0.54930545,-0.27979828,0.533068,0.54275735,-0.23383482,0.521332,0.54068733,-0.21499035,0.515327,0.54135094,-0.19933011,0.509869,0.57303301,-0.28903514,0.531844,0.57095197,-0.25349532,0.52166,0.57005855,-0.23695101,0.51698,0.56992028,-0.22613421,0.512852
