sluyters/QuantumLeap/src/datasets/gesture/HandGestureDataset_SHREC2017_csv/Gesture10/finger_1/subject_10_essai_3_skeletons_world.csv
Wrist_x,Wrist_y,Wrist_z,Palm_x,Palm_y,Palm_z,thumb_base_x,thumb_base_y,thumb_base_z,thumb_first_joint_x,thumb_first_joint_y,thumb_first_joint_z,thumb_second_joint_x,thumb_second_joint_y,thumb_second_joint_z,thumb_tip_x,thumb_tip_y,thumb_tip_z,index_base_x,index_base_y,index_base_z,index_first_joint_x,index_first_joint_y,index_first_joint_z,index_second_joint_x,index_second_joint_y,index_second_joint_z,index_tip_x,index_tip_y,index_tip_z,middle_base_x,middle_base_y,middle_base_z,middle_first_joint_x,middle_first_joint_y,middle_first_joint_z,middle_second_joint_x,middle_second_joint_y,middle_second_joint_z,middle_tip_x,middle_tip_y,middle_tip_z,ring_base_x,ring_base_y,ring_base_z,ring_first_joint_x,ring_first_joint_y,ring_first_joint_z,ring_second_joint_x,ring_second_joint_y,ring_second_joint_z,ring_tip_x,ring_tip_y,ring_tip_z,pinky_base_x,pinky_base_y,pinky_base_z,pinky_first_joint_x,pinky_first_joint_y,pinky_first_joint_z,pinky_second_joint_x,pinky_second_joint_y,pinky_second_joint_z,pinky_tip_x,pinky_tip_y,pinky_tip_z,
0.42172749,-0.36498327,0.487918,0.41914397,-0.31513632,0.485659,0.40098899,-0.35061241,0.487705,0.36977779,-0.31505457,0.482039,0.33766699,-0.29029119,0.469619,0.32439977,-0.27196519,0.466831,0.39585091,-0.2625297,0.483736,0.39524756,-0.2244914,0.488939,0.39492847,-0.20532278,0.491541,0.39641839,-0.19316873,0.496713,0.41678796,-0.26666322,0.483211,0.40884622,-0.21526252,0.473104,0.40432895,-0.19117716,0.467209,0.4022651,-0.19049552,0.462998,0.43629644,-0.27007898,0.482943,0.42947582,-0.2229569,0.473369,0.42743026,-0.20911768,0.468471,0.42585671,-0.21192917,0.464018,0.4602801,-0.28009847,0.482938,0.4503312,-0.23797544,0.473329,0.44795493,-0.23377751,0.468915,0.44513828,-0.22514851,0.465019
0.42781002,-0.36745576,0.49711,0.42134098,-0.31254696,0.488759,0.4041448,-0.34351153,0.4933,0.36405279,-0.30565848,0.477917,0.33480244,-0.27907917,0.466041,0.32186461,-0.25848813,0.462048,0.39402199,-0.2526754,0.477954,0.39336174,-0.21579361,0.484502,0.39296371,-0.19685439,0.487776,0.39232751,-0.18295659,0.490753,0.41744613,-0.26079763,0.479712,0.40755987,-0.20616968,0.462986,0.40155764,-0.19329703,0.45323,0.39570129,-0.20135266,0.446261,0.43829119,-0.26808215,0.481764,0.41733254,-0.22003359,0.465731,0.41574175,-0.20986458,0.457527,0.41161192,-0.21356879,0.45007,0.46313231,-0.28208648,0.485377,0.44815589,-0.23701592,0.469818,0.44411595,-0.23189375,0.462669,0.44037271,-0.22601959,0.456361
0.42790451,-0.36686506,0.498345,0.4207348,-0.31118984,0.488578,0.40389728,-0.34244489,0.494617,0.36595045,-0.30610229,0.478898,0.3350313,-0.27775107,0.464079,0.32160214,-0.25656857,0.459099,0.39351292,-0.25165759,0.476831,0.39276052,-0.2147636,0.483254,0.39231997,-0.19582378,0.486466,0.39158155,-0.18087263,0.489386,0.41770496,-0.2572503,0.477996,0.40559937,-0.20442216,0.46015,0.39898713,-0.19201004,0.44974,0.39265812,-0.20026331,0.442304,0.43703708,-0.26622777,0.479664,0.41769953,-0.21687404,0.462611,0.41291139,-0.20771849,0.453887,0.40834075,-0.21113766,0.445955,0.46139149,-0.28079908,0.483016,0.44766849,-0.23739324,0.466538,0.44297434,-0.23304724,0.458968,0.43892688,-0.22934858,0.452288
0.42074515,-0.35799716,0.504093,0.41976013,-0.30907152,0.492,0.39992524,-0.33784134,0.499058,0.36423742,-0.29923433,0.481355,0.33656392,-0.26739477,0.463494,0.32460717,-0.24334677,0.455335,0.39375409,-0.25041453,0.476942,0.39268775,-0.21092421,0.480604,0.39199179,-0.19128336,0.482435,0.38994917,-0.17435698,0.484099,0.41840757,-0.25732724,0.478898,0.40587812,-0.20338247,0.458392,0.40123487,-0.19883963,0.446429,0.39099883,-0.21117908,0.437885,0.43735987,-0.26759818,0.481386,0.41977893,-0.21562719,0.461866,0.41545008,-0.21340518,0.45188,0.40747751,-0.22733196,0.442801,0.46328775,-0.28561076,0.48604,0.45250255,-0.24567891,0.467489,0.4454899,-0.22960712,0.458966,0.44467072,-0.21209214,0.451445
0.42175704,-0.35858754,0.504157,0.41916429,-0.30826389,0.491686,0.39901012,-0.33655968,0.499118,0.36657732,-0.29775372,0.481361,0.34401824,-0.26369376,0.464819,0.33443721,-0.24003339,0.458199,0.394806,-0.24844675,0.476345,0.39405223,-0.20699646,0.477455,0.3933782,-0.18670065,0.478009,0.39275987,-0.16800543,0.478514,0.41864514,-0.25667042,0.478174,0.41075905,-0.20232505,0.457311,0.40220497,-0.19828643,0.445141,0.39165993,-0.21051305,0.436448,0.4383941,-0.26671896,0.480585,0.4235858,-0.21534524,0.460784,0.41650179,-0.21437159,0.450653,0.40809015,-0.22857019,0.441443,0.4635189,-0.28420111,0.4852,0.45333524,-0.24537844,0.466399,0.44914075,-0.2284833,0.457761,0.44547274,-0.21397494,0.450139
0.42619117,-0.36213167,0.501078,0.42172682,-0.30712513,0.489214,0.39944576,-0.33572503,0.496202,0.37696316,-0.29516343,0.478733,0.35187062,-0.26300573,0.462264,0.34252271,-0.23987214,0.456326,0.40521435,-0.24599971,0.474521,0.40440244,-0.20619554,0.47638,0.40405858,-0.18602195,0.47731,0.40373327,-0.16742357,0.478156,0.42923846,-0.2547509,0.47636,0.42064275,-0.20144007,0.456099,0.41261445,-0.19784863,0.444279,0.40223845,-0.21031243,0.435837,0.44898733,-0.26536012,0.478736,0.43385183,-0.21488159,0.459475,0.42715933,-0.21533435,0.449621,0.41875608,-0.23009764,0.440663,0.47242758,-0.28461805,0.483224,0.46428544,-0.24247655,0.465096,0.46081603,-0.22550696,0.456767,0.45784599,-0.21136867,0.449417
0.42690739,-0.36059443,0.502138,0.42480911,-0.30607227,0.48956,0.40077758,-0.33544942,0.496769,0.37738869,-0.29525173,0.478581,0.35212938,-0.26311424,0.462061,0.3426422,-0.23997095,0.456079,0.40486873,-0.24558295,0.473737,0.40432572,-0.20606456,0.476155,0.40411415,-0.18599861,0.477364,0.40103766,-0.16751435,0.478463,0.4292373,-0.25441358,0.475932,0.41996744,-0.20086987,0.454909,0.41125177,-0.19845948,0.442646,0.4004607,-0.2111856,0.433886,0.4493578,-0.26512993,0.478652,0.43325344,-0.21425082,0.458588,0.42620475,-0.21450569,0.448323,0.41754166,-0.22904181,0.438991,0.47339926,-0.2846067,0.48365,0.4644646,-0.2420511,0.46488,0.46063746,-0.22492087,0.456256,0.4573532,-0.2106548,0.448647
0.42961633,-0.35682213,0.510412,0.42918441,-0.29089032,0.4912,0.41155507,-0.33148032,0.503922,0.37623948,-0.28493434,0.483608,0.34596589,-0.25336452,0.468279,0.33199592,-0.22961642,0.459371,0.39989148,-0.22790171,0.469124,0.39197995,-0.18783472,0.45708,0.38806944,-0.16715643,0.451059,0.38452274,-0.14807356,0.445584,0.42331707,-0.23557475,0.470384,0.41286142,-0.18656902,0.443049,0.39523728,-0.1926648,0.427103,0.393436,-0.21144601,0.434373,0.44336018,-0.24562296,0.472816,0.42320861,-0.21414735,0.447351,0.40981635,-0.22813663,0.434322,0.41517994,-0.24747149,0.442115,0.46872645,-0.26499484,0.478396,0.45390745,-0.23148398,0.454724,0.44719594,-0.21585121,0.443848,0.44004685,-0.20555858,0.434252
0.43158746,-0.33335688,0.504645,0.4307766,-0.27429079,0.485464,0.41541306,-0.30437362,0.500368,0.37883517,-0.27504282,0.48298,0.34477942,-0.24984878,0.46606,0.33014109,-0.22689546,0.457439,0.4050652,-0.21287162,0.46612,0.38721577,-0.17401461,0.442766,0.38344772,-0.15622869,0.436921,0.38008185,-0.13937883,0.431608,0.42638514,-0.22024033,0.464683,0.41046104,-0.1865573,0.437872,0.38583104,-0.20218592,0.422232,0.38533359,-0.2223334,0.42958,0.44443543,-0.22995608,0.464894,0.42199664,-0.22180615,0.44078,0.39742526,-0.23398217,0.428442,0.39966797,-0.24420242,0.436576,0.46692085,-0.24867279,0.467819,0.44997568,-0.23070403,0.445158,0.4423281,-0.22230375,0.434746,0.43344817,-0.21748553,0.425559
0.43440245,-0.33158406,0.504699,0.43167416,-0.27460458,0.482698,0.41837923,-0.30504085,0.500092,0.38103132,-0.27563767,0.482245,0.34713058,-0.24814509,0.465207,0.32996719,-0.22591723,0.455051,0.40891531,-0.21389804,0.460873,0.38805704,-0.17625733,0.435669,0.3826085,-0.15910512,0.428621,0.37769104,-0.14290025,0.422214,0.42920045,-0.22214539,0.45886,0.40841778,-0.19021585,0.429515,0.38020853,-0.20495197,0.412397,0.3768168,-0.2198994,0.418365,0.44653266,-0.2326394,0.458802,0.42256389,-0.22017276,0.432589,0.39222388,-0.23008632,0.419178,0.39531189,-0.23946605,0.425946,0.46837032,-0.25238414,0.461799,0.44670926,-0.23593958,0.43734,0.436826,-0.22831778,0.426103,0.42574558,-0.22409991,0.416187
0.43238382,-0.3291959,0.502847,0.43019343,-0.27369271,0.48094,0.41547483,-0.30306345,0.497689,0.37497397,-0.27224722,0.479827,0.34082193,-0.24468227,0.463423,0.32307616,-0.22103332,0.452229,0.40753552,-0.21135498,0.45851,0.3877167,-0.17406671,0.433071,0.38368509,-0.15741758,0.426842,0.3800941,-0.14160959,0.42118,0.42815037,-0.22057225,0.457204,0.40781544,-0.1896037,0.427795,0.38006286,-0.20467371,0.41064,0.37830907,-0.22307,0.416678,0.44561392,-0.23184373,0.457721,0.42644772,-0.21467827,0.43122,0.39994595,-0.22648321,0.417661,0.39651036,-0.24003178,0.424434,0.46735777,-0.25249198,0.46139,0.44671144,-0.23553215,0.436717,0.43701054,-0.22796518,0.425381,0.42619557,-0.2235899,0.415379
0.43976583,-0.32797718,0.508442,0.43201406,-0.27389548,0.482156,0.4162947,-0.30280551,0.497834,0.3740801,-0.2715712,0.475943,0.33226123,-0.24541387,0.45322,0.31119607,-0.22291836,0.440172,0.39905126,-0.20863682,0.449839,0.37968508,-0.17199795,0.418646,0.37306089,-0.15468678,0.406289,0.36795003,-0.13890615,0.395899,0.42488333,-0.21844673,0.453677,0.41053245,-0.19675039,0.41963,0.38247052,-0.21223921,0.399769,0.37685052,-0.22777007,0.403232,0.44674446,-0.23111781,0.458745,0.42698446,-0.22713306,0.426164,0.39921957,-0.23737841,0.409495,0.39088398,-0.24487614,0.413034,0.47477262,-0.24890655,0.468455,0.4455723,-0.24919306,0.438982,0.45089669,-0.27012161,0.450309,0.46324848,-0.27802397,0.465074
0.43784146,-0.33016744,0.507707,0.4302185,-0.27304912,0.480118,0.41243997,-0.30430908,0.495057,0.36812777,-0.27229693,0.470652,0.32838139,-0.24577303,0.450086,0.30775947,-0.22341715,0.437916,0.39355784,-0.20752107,0.444342,0.37457549,-0.18148634,0.4114,0.36836284,-0.1688446,0.397957,0.36343611,-0.15735213,0.386288,0.42093224,-0.21696173,0.450225,0.40755483,-0.20243362,0.414638,0.37943862,-0.21729693,0.393879,0.37214901,-0.23160302,0.396141,0.44466237,-0.23000158,0.45707,0.42318667,-0.23172732,0.422663,0.39635125,-0.24170984,0.40506,0.38529701,-0.24533983,0.40722,0.47202878,-0.24945528,0.469083,0.45051966,-0.22715241,0.438193,0.4631412,-0.25051012,0.448287,0.47584269,-0.26825908,0.463234
0.43542488,-0.32893771,0.505188,0.42508912,-0.27317213,0.4749,0.40856669,-0.30245123,0.490516,0.35897266,-0.28007869,0.464515,0.3174714,-0.25393324,0.443604,0.29682759,-0.23137575,0.43247,0.38596557,-0.21213027,0.434664,0.36532236,-0.18137919,0.399073,0.36090324,-0.16700373,0.388717,0.3580739,-0.15605488,0.379303,0.41368273,-0.22146701,0.442084,0.40155027,-0.20943884,0.404332,0.37068552,-0.22205518,0.38231,0.36090816,-0.23382603,0.382513,0.43729091,-0.2328786,0.450388,0.41795406,-0.23553842,0.413375,0.39013241,-0.24425911,0.394437,0.3757417,-0.24985078,0.394254,0.46938362,-0.25405138,0.464519,0.44252887,-0.23302121,0.431574,0.45650283,-0.25619615,0.44028,0.46903441,-0.27304179,0.45525
0.43271403,-0.33477514,0.50438,0.42175429,-0.28673825,0.473433,0.4028246,-0.31501312,0.488846,0.35515672,-0.28810139,0.462,0.31334881,-0.26162027,0.440217,0.2910717,-0.23898523,0.42669,0.38275089,-0.22122917,0.431659,0.36172426,-0.1920646,0.395314,0.35460198,-0.17906543,0.380686,0.34872172,-0.16728421,0.36783,0.4111232,-0.23097193,0.439903,0.39818806,-0.22089856,0.401481,0.36636899,-0.23206659,0.379068,0.35563838,-0.24231926,0.378497,0.43528376,-0.24269768,0.448934,0.41461319,-0.24662697,0.411128,0.38593775,-0.2543337,0.391785,0.37066761,-0.25808702,0.390737,0.4657337,-0.26389295,0.464023,0.43990301,-0.24481494,0.430533,0.45323653,-0.2676582,0.438322,0.46543135,-0.28387015,0.453218
0.41532806,-0.33159043,0.487331,0.40921772,-0.28824711,0.46009,0.38863197,-0.30976304,0.472841,0.34356095,-0.2891221,0.446871,0.30570841,-0.2649376,0.429035,0.28687612,-0.2431989,0.419354,0.37504346,-0.22514209,0.422319,0.35617842,-0.198348,0.388541,0.34829566,-0.1855936,0.373164,0.34206464,-0.17428498,0.360015,0.40269131,-0.23525962,0.430576,0.39198131,-0.22761028,0.395192,0.36201694,-0.23882149,0.374551,0.35360535,-0.25022139,0.376329,0.42595762,-0.24711664,0.439348,0.40748056,-0.25239043,0.404378,0.38065469,-0.2603826,0.386486,0.36802522,-0.2655075,0.387907,0.45475195,-0.2681092,0.453612,0.43468806,-0.25081168,0.42244,0.44690172,-0.27441126,0.432258,0.45866896,-0.29054376,0.447035
0.42266703,-0.34115311,0.496545,0.41449664,-0.29587711,0.466579,0.39519798,-0.32420211,0.478619,0.34589365,-0.29820748,0.449541,0.30496779,-0.27067081,0.427491,0.28808491,-0.24738058,0.420982,0.37538329,-0.23733224,0.422599,0.35738167,-0.20615799,0.386125,0.35137949,-0.19211647,0.370977,0.34623032,-0.17928433,0.357338,0.40460783,-0.2454311,0.434111,0.40412646,-0.2391718,0.40017,0.37600539,-0.25087843,0.380371,0.3638576,-0.25930103,0.379852,0.4307511,-0.25320165,0.44576,0.43504908,-0.24081651,0.414544,0.4157311,-0.25282798,0.398574,0.39948241,-0.26132132,0.398295,0.4625812,-0.27449389,0.463836,0.44369661,-0.25555939,0.430584,0.43750372,-0.25898708,0.415305,0.43639478,-0.27146046,0.412983
0.41928123,-0.34919371,0.492687,0.41097619,-0.30741446,0.462618,0.39225018,-0.33172217,0.47412,0.34480079,-0.30862032,0.44238,0.30313459,-0.28138731,0.416587,0.28361835,-0.25995006,0.405901,0.37117167,-0.24586079,0.417779,0.35314871,-0.21530024,0.380871,0.34710459,-0.20166514,0.365471,0.34186839,-0.18920564,0.351552,0.40083722,-0.2534094,0.43004,0.40160917,-0.24767436,0.396386,0.37415677,-0.25875586,0.376754,0.36161371,-0.26643034,0.375748,0.42598517,-0.26320811,0.442311,0.43177433,-0.24812299,0.410598,0.41280779,-0.25979194,0.394373,0.39593139,-0.26754258,0.393346,0.45745273,-0.28182582,0.461145,0.4421818,-0.26325553,0.427824,0.43583888,-0.26677275,0.412514,0.43447045,-0.27850473,0.409716
0.42030805,-0.3590604,0.497399,0.40669855,-0.31802698,0.466086,0.39110654,-0.34205183,0.477837,0.34330313,-0.32230068,0.444163,0.30285313,-0.29452,0.41801,0.28353663,-0.2714715,0.405153,0.36680696,-0.25898888,0.419115,0.35035739,-0.23079408,0.380964,0.3455371,-0.21880882,0.365438,0.34136673,-0.20785583,0.351324,0.39811716,-0.26786899,0.43216,0.39222722,-0.25951845,0.3939,0.36339506,-0.26836821,0.371582,0.3488009,-0.27262895,0.367913,0.42461114,-0.27853742,0.445168,0.39698556,-0.29304084,0.406124,0.36123139,-0.28332787,0.386149,0.34317263,-0.28379496,0.381408,0.45751797,-0.29776193,0.465053,0.44696384,-0.27769804,0.431121,0.43893242,-0.28143284,0.41553,0.43215472,-0.29295004,0.411419
0.41429653,-0.3648827,0.494754,0.402094,-0.32679855,0.462365,0.38269646,-0.34689911,0.474452,0.3387372,-0.33204123,0.440201,0.29773341,-0.30329688,0.413314,0.27849504,-0.27992217,0.400232,0.36283266,-0.26954176,0.413696,0.34315309,-0.24380663,0.374596,0.33576075,-0.2325981,0.357598,0.32936502,-0.222524,0.342327,0.39402676,-0.27793019,0.427273,0.38907283,-0.27073521,0.388464,0.35887628,-0.27720281,0.365825,0.34228152,-0.27861686,0.360593,0.42035923,-0.28809823,0.440796,0.3923071,-0.30221908,0.401108,0.35580614,-0.29033908,0.380803,0.33589435,-0.2882941,0.374374,0.45297336,-0.30653552,0.461446,0.44274994,-0.28808004,0.427132,0.43467358,-0.29216718,0.411367,0.42654214,-0.30200625,0.406005
0.40985931,-0.38222535,0.477704,0.39980443,-0.33045405,0.450997,0.38119471,-0.36151296,0.459106,0.33343182,-0.34039441,0.426981,0.28991095,-0.31175891,0.406167,0.27208006,-0.29516804,0.401631,0.35783012,-0.26711281,0.408594,0.34640969,-0.25285531,0.373739,0.34181516,-0.24580889,0.356961,0.33810714,-0.23967214,0.34198,0.38890832,-0.27482521,0.422061,0.38165948,-0.28582408,0.387532,0.35165136,-0.28959118,0.367389,0.33872108,-0.28476337,0.366906,0.41507083,-0.28449658,0.435082,0.41843212,-0.30171814,0.411062,0.3997858,-0.30340834,0.398773,0.38966083,-0.29598863,0.400884,0.44732207,-0.3024576,0.454341,0.43898605,-0.30246032,0.423008,0.43258527,-0.3063399,0.408612,0.43000941,-0.32049926,0.406991
0.40954357,-0.38719618,0.477336,0.39801816,-0.33936632,0.448982,0.38147535,-0.3670237,0.459444,0.33458991,-0.35202451,0.428464,0.29035421,-0.32234469,0.406788,0.27247907,-0.30573736,0.40222,0.35522781,-0.2766773,0.40623,0.34405635,-0.26147061,0.3712,0.33961849,-0.25466465,0.354667,0.33588163,-0.24863659,0.339729,0.38509339,-0.282856,0.418261,0.37692729,-0.29237293,0.382727,0.34649129,-0.29460288,0.361998,0.33372759,-0.28944898,0.361497,0.4105928,-0.29168897,0.430219,0.41123842,-0.30680258,0.403995,0.41588058,-0.32575328,0.414827,0.41795684,-0.32755702,0.429995,0.44284266,-0.30945772,0.44844,0.43183788,-0.30783461,0.41612,0.42481251,-0.3110741,0.40127,0.42217503,-0.32483306,0.399576
0.40710416,-0.39610349,0.474276,0.39678134,-0.34958085,0.446378,0.3790264,-0.37562778,0.456287,0.33118754,-0.35859014,0.425155,0.29150058,-0.33014556,0.409102,0.27465903,-0.31077647,0.405443,0.35466523,-0.2864878,0.403844,0.34334279,-0.27253785,0.368815,0.33815001,-0.26588377,0.351569,0.33363866,-0.25996135,0.335934,0.38496893,-0.2933802,0.416152,0.37529343,-0.30387613,0.380584,0.3448804,-0.30544764,0.359836,0.33221733,-0.30011258,0.359353,0.41078257,-0.30278217,0.428304,0.41118461,-0.31876398,0.402649,0.41664361,-0.33984121,0.413549,0.41867086,-0.34300504,0.428489,0.44328476,-0.32120631,0.446694,0.42947581,-0.30630695,0.414641,0.42089152,-0.31032752,0.399915,0.4123998,-0.31196866,0.398318
0.40493202,-0.39904471,0.472507,0.3955719,-0.35238844,0.445308,0.37672139,-0.38326237,0.454003,0.32924924,-0.36354912,0.422353,0.2899122,-0.33469907,0.406049,0.27431497,-0.31588377,0.404248,0.35549689,-0.29304468,0.402658,0.34618817,-0.27986009,0.368028,0.34194824,-0.27354804,0.350914,0.3382943,-0.26793027,0.335387,0.38587953,-0.30065335,0.41584,0.37731759,-0.31171771,0.380846,0.34630338,-0.31279063,0.360433,0.33278052,-0.3037186,0.359817,0.41159492,-0.3105923,0.42866,0.41372007,-0.32782046,0.404241,0.41786181,-0.34839593,0.41482,0.41903805,-0.34725006,0.429214,0.44365731,-0.3295541,0.447749,0.43104105,-0.31495438,0.416113,0.42051482,-0.31950796,0.401577,0.413812,-0.31677998,0.399864
0.4102582,-0.41344441,0.477714,0.4004271,-0.3678446,0.448811,0.38251487,-0.39254022,0.460369,0.3361605,-0.37745258,0.428917,0.29379463,-0.34652679,0.408638,0.27726302,-0.32967462,0.404754,0.35619655,-0.30159033,0.406325,0.34229103,-0.29480742,0.371092,0.33580677,-0.29186157,0.35382,0.3300949,-0.28972781,0.338118,0.38686378,-0.30960163,0.417496,0.37381921,-0.32096556,0.38251,0.34748855,-0.32316865,0.362101,0.33743939,-0.31879967,0.362019,0.41318126,-0.32006144,0.428786,0.40780773,-0.33639521,0.40149,0.4145288,-0.35758238,0.412625,0.41920142,-0.36077114,0.428184,0.44663038,-0.34004298,0.446287,0.43040114,-0.32486691,0.413681,0.41728948,-0.32951336,0.3987,0.41068174,-0.33040639,0.397142
0.41071221,-0.42118098,0.476591,0.39945176,-0.37077214,0.44707,0.3837113,-0.40417681,0.459691,0.3365629,-0.38728846,0.428598,0.2938988,-0.35656443,0.40877,0.27586463,-0.33891101,0.403412,0.35459285,-0.30928208,0.404674,0.34070153,-0.30469225,0.369782,0.33415338,-0.30281465,0.352611,0.32839844,-0.30178199,0.337001,0.38489932,-0.31643953,0.415085,0.37227507,-0.3292268,0.381025,0.34710371,-0.33093212,0.361156,0.33778029,-0.3263169,0.361457,0.41100106,-0.32622435,0.425795,0.40426567,-0.34220116,0.397469,0.41152983,-0.36296575,0.408724,0.41653392,-0.36213859,0.424871,0.44437521,-0.3454427,0.442689,0.42705782,-0.33100945,0.409774,0.41393905,-0.33494643,0.39465,0.40711329,-0.33118558,0.393111
0.41154889,-0.42975878,0.476017,0.39781728,-0.38331204,0.446779,0.38264219,-0.4121937,0.458641,0.33473396,-0.39590191,0.427066,0.29177528,-0.36528038,0.406646,0.27291058,-0.34707779,0.400065,0.35310043,-0.31783785,0.404009,0.34116358,-0.31370422,0.369366,0.33556328,-0.31202446,0.352289,0.33065978,-0.3111432,0.336764,0.38347845,-0.32492035,0.415102,0.37293298,-0.33801909,0.381573,0.34789106,-0.33919087,0.362015,0.33786746,-0.33413466,0.362219,0.40956536,-0.33461937,0.426352,0.40491083,-0.35104075,0.39874,0.41140707,-0.37118147,0.409711,0.41674944,-0.37045714,0.42545,0.44279015,-0.35368191,0.443852,0.42714292,-0.33976985,0.411051,0.41415219,-0.34321238,0.39598,0.40811792,-0.3396945,0.394279
0.41036739,-0.43699745,0.472973,0.39835428,-0.39230778,0.443335,0.38152894,-0.42063074,0.456098,0.33571004,-0.40592234,0.424981,0.29205365,-0.3744244,0.404382,0.27380549,-0.35721482,0.399184,0.35211768,-0.32592312,0.400883,0.33915628,-0.32122241,0.366234,0.33315261,-0.319389,0.349247,0.32871593,-0.3142159,0.334699,0.3822686,-0.33259689,0.411223,0.37060379,-0.34466048,0.377034,0.34568623,-0.34498856,0.357091,0.33611298,-0.33983023,0.35734,0.4082887,-0.34204289,0.421883,0.40245079,-0.35738811,0.393415,0.40994645,-0.37807139,0.40464,0.41516686,-0.38149914,0.420711,0.4416797,-0.36096437,0.438734,0.42469431,-0.34630726,0.405755,0.41188096,-0.34937304,0.390602,0.40558482,-0.34918771,0.389031
0.40229397,-0.4382141,0.463473,0.39101346,-0.38904679,0.435082,0.37486659,-0.41760576,0.447983,0.33037072,-0.400926,0.419762,0.29136422,-0.37157469,0.40403,0.27633162,-0.35289618,0.402521,0.34804497,-0.32401647,0.395242,0.33509366,-0.3199368,0.36163,0.32885354,-0.31820637,0.344878,0.32339232,-0.31730616,0.329649,0.37795913,-0.33417728,0.404322,0.36648018,-0.30124111,0.368124,0.36008512,-0.30114254,0.347008,0.36813984,-0.3221704,0.347824,0.40281332,-0.34422979,0.413855,0.39502431,-0.35357215,0.385511,0.40561518,-0.38255039,0.398232,0.41208552,-0.38893261,0.414768,0.43439314,-0.36378069,0.429187,0.4174232,-0.34928141,0.397137,0.40401252,-0.35263797,0.382411,0.39882187,-0.35355502,0.382001
0.40109713,-0.4395253,0.461522,0.39000809,-0.39336959,0.433281,0.37400174,-0.42291067,0.445511,0.32702975,-0.40527758,0.417268,0.29089557,-0.37594018,0.404164,0.27677092,-0.36009562,0.403318,0.3470208,-0.32753309,0.392914,0.33228588,-0.32708123,0.358563,0.32543521,-0.32615949,0.341855,0.32060464,-0.32252443,0.327583,0.37673906,-0.33531658,0.402684,0.36496519,-0.30680513,0.366455,0.35866987,-0.30177653,0.345322,0.36764541,-0.32178905,0.345897,0.40222738,-0.3455779,0.412773,0.39547791,-0.35938957,0.385011,0.40521065,-0.38423277,0.397452,0.41173864,-0.39011452,0.413889,0.43462046,-0.36528723,0.428748,0.41738514,-0.3516252,0.396694,0.40396493,-0.35471921,0.381967,0.39865927,-0.35504903,0.381369
0.40296578,-0.44539737,0.461134,0.39033008,-0.39377307,0.432521,0.37454478,-0.42397122,0.44496,0.32870031,-0.40534636,0.416694,0.29128075,-0.37738264,0.403192,0.27789122,-0.35990574,0.402918,0.34630332,-0.33096402,0.391682,0.33127435,-0.32777166,0.357017,0.32401916,-0.32651926,0.339826,0.31759226,-0.32595944,0.324198,0.37629561,-0.3379386,0.401521,0.36345907,-0.30717037,0.364978,0.35714387,-0.30135898,0.343661,0.36675342,-0.32019933,0.343966,0.40165035,-0.3457921,0.411694,0.39495208,-0.36271428,0.383683,0.4042794,-0.38520454,0.395864,0.41057606,-0.38866711,0.412403,0.43441121,-0.3650329,0.427821,0.41724419,-0.35535557,0.395526,0.40422023,-0.35803713,0.380688,0.39942195,-0.35862673,0.379872
0.4035573,-0.44602576,0.460993,0.3907078,-0.39419338,0.432382,0.37507407,-0.42483756,0.444872,0.32933851,-0.40547123,0.416608,0.29195545,-0.37757156,0.403167,0.2787836,-0.36024621,0.403206,0.34631453,-0.33147202,0.391609,0.33138994,-0.32844827,0.35699,0.3241836,-0.32727784,0.339818,0.31780574,-0.32678995,0.324208,0.37627823,-0.33818687,0.401384,0.36330889,-0.307589,0.364839,0.35709861,-0.30175652,0.343521,0.36722326,-0.32020149,0.343856,0.40170287,-0.34619285,0.411504,0.39489271,-0.3630634,0.38345,0.40417876,-0.38504085,0.395669,0.41056476,-0.38848459,0.412234,0.43452039,-0.36508538,0.427568,0.41720656,-0.35581099,0.395282,0.40436134,-0.35848296,0.380448,0.39980896,-0.35939181,0.379658
0.40451274,-0.44748966,0.461321,0.39086433,-0.39511439,0.432382,0.37565913,-0.42628884,0.445007,0.33087972,-0.4072796,0.415792,0.29258455,-0.38340444,0.399792,0.27993698,-0.36216856,0.401617,0.34506728,-0.3331399,0.391131,0.33018293,-0.33064881,0.356102,0.32179136,-0.33341929,0.338588,0.31779516,-0.33062289,0.324194,0.37531999,-0.3385926,0.401028,0.36171631,-0.30760838,0.36421,0.35552922,-0.3025294,0.342734,0.36569668,-0.31934228,0.342798,0.40135306,-0.34779998,0.411272,0.3942613,-0.36322577,0.383042,0.40378263,-0.38527796,0.394989,0.41060105,-0.38997023,0.411474,0.43435694,-0.3654236,0.42753,0.41669439,-0.35878677,0.395025,0.40405445,-0.3608277,0.380091,0.39973822,-0.36137302,0.379082
0.4046632,-0.44799081,0.460921,0.39067884,-0.39547387,0.432026,0.37573239,-0.4269814,0.444673,0.33045587,-0.40792578,0.415866,0.29101679,-0.38317063,0.40031,0.2789326,-0.36339807,0.401536,0.34440458,-0.33348597,0.390887,0.32978118,-0.33144116,0.355969,0.32183631,-0.33358811,0.33851,0.31722616,-0.33140211,0.32375,0.37469992,-0.33882397,0.400719,0.36092059,-0.30777676,0.363936,0.35475157,-0.30252214,0.342479,0.36528564,-0.31932134,0.342602,0.40073789,-0.34785197,0.410907,0.39381285,-0.36329027,0.382667,0.40370869,-0.38561275,0.39468,0.41066007,-0.39073682,0.411197,0.4338801,-0.36535608,0.427092,0.41601753,-0.3594546,0.394622,0.40316488,-0.36090517,0.379703,0.39822471,-0.3592476,0.378744
0.40478047,-0.44837152,0.460626,0.39055841,-0.39574294,0.431785,0.37579875,-0.42751396,0.444436,0.33014153,-0.40823967,0.415835,0.29048303,-0.38307642,0.400465,0.27822272,-0.36399796,0.401334,0.34402122,-0.33370785,0.390757,0.32958525,-0.33196225,0.355938,0.32189418,-0.33368887,0.338529,0.31695881,-0.3319453,0.323559,0.37430789,-0.33899788,0.400536,0.36043203,-0.30792537,0.363796,0.3542896,-0.30256606,0.342364,0.36508099,-0.31938512,0.342546,0.40034069,-0.34789801,0.410677,0.39354165,-0.36335891,0.382444,0.40370664,-0.38588137,0.39452,0.4107502,-0.39129661,0.411063,0.43355861,-0.36532415,0.426798,0.41559855,-0.35984413,0.394368,0.40262981,-0.36094861,0.379468,0.39775505,-0.35893436,0.378558
0.40486764,-0.44866316,0.460392,0.39046784,-0.39594465,0.431604,0.37585069,-0.42792856,0.444252,0.32991187,-0.40842407,0.415789,0.29020238,-0.3830108,0.400523,0.27772279,-0.36436325,0.401161,0.34376966,-0.33385985,0.390675,0.32947928,-0.3323347,0.355944,0.32196162,-0.33377921,0.338579,0.31682699,-0.3323556,0.323479,0.37403407,-0.33912795,0.400412,0.36010168,-0.30804776,0.363715,0.35398636,-0.30262069,0.342308,0.36496871,-0.31946962,0.342543,0.40005915,-0.34793292,0.410515,0.3933585,-0.36341774,0.382295,0.40372708,-0.38609436,0.394427,0.41083641,-0.39171749,0.410989,0.43332309,-0.36530499,0.426583,0.41531118,-0.36009677,0.394191,0.40227,-0.36097402,0.379308,0.39743776,-0.35872682,0.378442
0.40507115,-0.44933013,0.460362,0.39092897,-0.39754596,0.431816,0.37612439,-0.42999709,0.444084,0.32940161,-0.4105334,0.415585,0.28876059,-0.38330051,0.400105,0.27556705,-0.36693338,0.399891,0.34268876,-0.33569443,0.390898,0.32880229,-0.33460316,0.356276,0.32206152,-0.33432905,0.339086,0.31678082,-0.33290131,0.323757,0.37313076,-0.34138865,0.400888,0.35879596,-0.3101928,0.364409,0.3528669,-0.30434172,0.343129,0.36558855,-0.32058678,0.343409,0.40039884,-0.3488983,0.41118,0.39429559,-0.3653675,0.383326,0.40469112,-0.38739416,0.395458,0.41159942,-0.3927685,0.411873,0.43400606,-0.36636152,0.42744,0.41288712,-0.3746918,0.395168,0.39822326,-0.37001948,0.38034,0.39615933,-0.36312563,0.379497
0.40413735,-0.44925858,0.458596,0.38971248,-0.39611381,0.430888,0.37496589,-0.42890899,0.442523,0.32849431,-0.40990947,0.414458,0.2884137,-0.38391464,0.399678,0.27454104,-0.36830865,0.400053,0.3421956,-0.33593547,0.390837,0.32907384,-0.33514763,0.356816,0.32343703,-0.33375915,0.340158,0.31795901,-0.33429534,0.325014,0.37263265,-0.34140031,0.400868,0.35900108,-0.31081623,0.365108,0.35376799,-0.30407925,0.344249,0.3481943,-0.29927744,0.329351,0.39931883,-0.34920706,0.411133,0.39482734,-0.36531366,0.383978,0.4058213,-0.38828237,0.396578,0.41246625,-0.39300177,0.413063,0.43348464,-0.36602735,0.427244,0.41263829,-0.37410747,0.395494,0.39822745,-0.36909112,0.380906,0.39407449,-0.36274108,0.38047
0.40298222,-0.44707561,0.456043,0.38857136,-0.39446124,0.429235,0.37418138,-0.42775734,0.44064,0.32747446,-0.40599285,0.413227,0.28785312,-0.38209641,0.39801,0.27420587,-0.36692741,0.398763,0.3386309,-0.33009321,0.390667,0.32958822,-0.32712537,0.358046,0.32363565,-0.32640078,0.341735,0.31967841,-0.32878704,0.326907,0.36860574,-0.33362339,0.40019,0.35392026,-0.30142795,0.365197,0.34903516,-0.29484268,0.344784,0.34754813,-0.29851905,0.330203,0.39477266,-0.34032391,0.409973,0.39314086,-0.35551075,0.383209,0.40677093,-0.37911912,0.396579,0.41211856,-0.38921501,0.413085,0.42883921,-0.35566605,0.425382,0.41413344,-0.36257949,0.394282,0.39816373,-0.35998524,0.379992,0.39712102,-0.3592784,0.380191
0.40742921,-0.45045311,0.45964,0.38827697,-0.38749141,0.427561,0.3772114,-0.43018316,0.443114,0.33028031,-0.40505648,0.415271,0.28708847,-0.37621922,0.396434,0.27220077,-0.35843296,0.394158,0.33296321,-0.31841707,0.38374,0.31570529,-0.31025269,0.346677,0.30712051,-0.30623723,0.328146,0.29952067,-0.30304233,0.3113,0.3622051,-0.32482497,0.392804,0.3413523,-0.2846771,0.353366,0.33227365,-0.27461693,0.330361,0.32626802,-0.27409727,0.313928,0.38834054,-0.33181704,0.402592,0.38156136,-0.3394412,0.371379,0.39285608,-0.36075134,0.381665,0.39972209,-0.36934463,0.398378,0.42328395,-0.34813635,0.418743,0.40473713,-0.35118665,0.38448,0.39011403,-0.35009033,0.368737,0.3841514,-0.34609414,0.366325
0.40951324,-0.44983035,0.460805,0.39437258,-0.38732091,0.433736,0.38252713,-0.43311224,0.448373,0.33678651,-0.40615261,0.42168,0.29288713,-0.37834202,0.403398,0.27393825,-0.36054286,0.397755,0.3446386,-0.32840983,0.398611,0.33555185,-0.32971962,0.369295,0.32847962,-0.32935272,0.355579,0.32204789,-0.32831008,0.343109,0.3709507,-0.32597828,0.404409,0.36427861,-0.3159284,0.370943,0.34653937,-0.32340505,0.351421,0.34484706,-0.33042688,0.354457,0.39507581,-0.3297614,0.411145,0.39145682,-0.34647298,0.381869,0.40600231,-0.36722013,0.396515,0.41574725,-0.37775981,0.414425,0.42681895,-0.34162592,0.422956,0.40109229,-0.35028789,0.392431,0.38738396,-0.3548073,0.378406,0.37814312,-0.36644394,0.379617
0.40740019,-0.44474759,0.457203,0.39169222,-0.37897528,0.430407,0.38152761,-0.4215104,0.443444,0.33300863,-0.39492784,0.416236,0.29316521,-0.37222228,0.403122,0.27639534,-0.35535172,0.401245,0.34040502,-0.3196819,0.393858,0.32971367,-0.31605489,0.365119,0.34895883,-0.34360403,0.378384,0.37085758,-0.3756973,0.395023,0.36936802,-0.32163173,0.401375,0.36184044,-0.31320379,0.368654,0.34534103,-0.3204119,0.349567,0.34424853,-0.32898996,0.352462,0.39480071,-0.32703784,0.409505,0.39051479,-0.34221752,0.381473,0.40554316,-0.36545409,0.395727,0.41432347,-0.37139097,0.413455,0.42823137,-0.34083123,0.422942,0.40138055,-0.34893333,0.392207,0.38715846,-0.35317945,0.378085,0.37743484,-0.36433269,0.378961
0.41242436,-0.43343505,0.4572,0.39376151,-0.37512856,0.432804,0.38357565,-0.41731168,0.44488,0.33445271,-0.38689787,0.419612,0.29683426,-0.36673439,0.410027,0.28031264,-0.35257235,0.407006,0.3413916,-0.31125856,0.399782,0.3282759,-0.30688419,0.371499,0.34993776,-0.33622393,0.386043,0.37344643,-0.36698383,0.403013,0.36992428,-0.31292046,0.406372,0.36023614,-0.30120745,0.374955,0.34706197,-0.31143712,0.356628,0.34949766,-0.32482411,0.360878,0.39506695,-0.31812197,0.413567,0.3916057,-0.33255873,0.387003,0.40985859,-0.35899561,0.402675,0.42006724,-0.36687006,0.42072,0.42827182,-0.33174746,0.425552,0.40222407,-0.33936378,0.396641,0.38851723,-0.34381251,0.383357,0.38058966,-0.35703787,0.385556
0.4125032,-0.42782898,0.459145,0.38967655,-0.36271484,0.435419,0.38185227,-0.40366786,0.447089,0.33334929,-0.38091711,0.421173,0.29741624,-0.3582516,0.412123,0.28520187,-0.34320288,0.414446,0.34231761,-0.30249747,0.403214,0.32703155,-0.28479027,0.373467,0.34332527,-0.31829371,0.388197,0.3555557,-0.33856811,0.40582,0.371201,-0.3063029,0.409715,0.3566309,-0.29179441,0.377558,0.34369141,-0.3043056,0.3588,0.34544684,-0.31828509,0.36306,0.39640113,-0.31319025,0.416786,0.38936914,-0.32995667,0.390744,0.40683473,-0.35724289,0.406725,0.42105265,-0.36743888,0.424807,0.43020837,-0.33137656,0.42853,0.40012711,-0.33683879,0.400104,0.3751347,-0.3374441,0.387043,0.3666521,-0.34480161,0.389549
0.41277761,-0.41955227,0.463316,0.39206983,-0.35523439,0.440001,0.38031361,-0.39495652,0.450793,0.33477988,-0.37189711,0.424163,0.29905773,-0.34963774,0.415387,0.28770371,-0.33569924,0.419026,0.34447233,-0.29399632,0.407526,0.32959517,-0.27459463,0.377969,0.34593138,-0.30751957,0.392627,0.35801339,-0.32834146,0.410147,0.3738367,-0.29830813,0.41474,0.3598691,-0.28198352,0.382922,0.347477,-0.29530034,0.364362,0.3493264,-0.31015312,0.368649,0.39946115,-0.30564379,0.422369,0.39373747,-0.32195447,0.3971,0.41123492,-0.34975081,0.413037,0.4219872,-0.35755192,0.430937,0.43274968,-0.32176086,0.434721,0.40438567,-0.32921122,0.406415,0.37961816,-0.33075765,0.39341,0.37110962,-0.33875496,0.395898
0.41157877,-0.41064192,0.46624,0.39318487,-0.34577606,0.442442,0.38139701,-0.38597838,0.453322,0.3361677,-0.36293398,0.426062,0.29954957,-0.34066936,0.416293,0.28792575,-0.32702075,0.419962,0.34487341,-0.2850411,0.409129,0.33030324,-0.26566659,0.379169,0.34663361,-0.29782029,0.393531,0.35858788,-0.31833086,0.411091,0.37437689,-0.28905181,0.416659,0.36075506,-0.27267952,0.384385,0.34844915,-0.28603743,0.365559,0.34992332,-0.30051765,0.369502,0.400144,-0.29612299,0.424582,0.3950085,-0.31228204,0.399089,0.41332054,-0.34127013,0.41472,0.42328397,-0.35494439,0.431574,0.43366416,-0.31189291,0.437354,0.40570572,-0.31950777,0.408644,0.38092587,-0.32142627,0.395453,0.37214226,-0.32932144,0.397651
0.39854937,-0.38190703,0.452622,0.38537848,-0.32823779,0.434015,0.37092332,-0.36495006,0.441048,0.32850358,-0.34330285,0.415657,0.29584618,-0.3261636,0.410844,0.28519324,-0.3145506,0.416387,0.34202055,-0.27285944,0.406163,0.33186158,-0.25565392,0.380181,0.35127193,-0.28836568,0.396248,0.36271818,-0.30856213,0.412918,0.37100216,-0.27605718,0.413854,0.36399628,-0.29103812,0.386433,0.34447712,-0.29586648,0.372693,0.34408703,-0.29484419,0.380965,0.39595316,-0.28217941,0.421534,0.39695702,-0.30052518,0.400687,0.4173177,-0.33282698,0.418163,0.42749511,-0.34528819,0.435995,0.42774399,-0.29623535,0.433291,0.4123714,-0.30728509,0.408244,0.39970673,-0.31106726,0.396735,0.40279976,-0.32431851,0.400929
0.41108649,-0.38312694,0.466671,0.39261651,-0.32445338,0.442296,0.38018813,-0.3637318,0.451855,0.33340956,-0.34237062,0.423269,0.29747544,-0.3239608,0.415459,0.28481095,-0.31268404,0.417467,0.3415033,-0.26302682,0.406237,0.32548576,-0.24163679,0.374241,0.34218493,-0.27157402,0.387391,0.35500187,-0.29244716,0.40527,0.37242864,-0.26747054,0.415888,0.35995779,-0.27868305,0.383065,0.36919893,-0.30783251,0.400127,0.37687955,-0.31341058,0.417702,0.3995706,-0.27490177,0.425598,0.39290746,-0.2880153,0.397195,0.41020791,-0.31754097,0.41149,0.42023996,-0.32961419,0.428769,0.43504493,-0.2911582,0.440583,0.41490011,-0.29949627,0.411082,0.40031015,-0.30232949,0.397527,0.40058161,-0.31341655,0.398792
0.41148863,-0.37971528,0.468827,0.39599418,-0.31751465,0.446716,0.37987295,-0.35401195,0.453017,0.33409971,-0.33002082,0.423609,0.29901757,-0.31004198,0.415196,0.28604302,-0.29539767,0.417169,0.35036618,-0.2551612,0.411104,0.33857798,-0.2334634,0.379534,0.35403303,-0.26296542,0.392417,0.36456137,-0.28383075,0.410021,0.38224853,-0.26208038,0.42276,0.37285174,-0.27468834,0.392079,0.38035166,-0.30612212,0.4089,0.38506598,-0.31699027,0.425813,0.40973839,-0.27147611,0.433955,0.40294082,-0.28397514,0.404658,0.41784588,-0.31340479,0.418596,0.42671855,-0.33048672,0.435993,0.4447436,-0.28992425,0.450396,0.42706232,-0.29868945,0.422181,0.41139185,-0.30270412,0.409217,0.41143834,-0.31849849,0.410659
0.41472479,-0.37365015,0.475166,0.39820236,-0.31078023,0.455053,0.38274426,-0.34760501,0.459816,0.33195666,-0.32539999,0.433964,0.29661363,-0.31427813,0.427369,0.27795901,-0.30043519,0.425473,0.35144702,-0.24987397,0.421476,0.33992543,-0.22361407,0.391393,0.35647735,-0.25252008,0.404926,0.3675478,-0.2762766,0.422203,0.38361665,-0.25611073,0.433262,0.3750998,-0.26941294,0.40444,0.38226358,-0.29922286,0.422111,0.39404123,-0.32471642,0.438083,0.41146475,-0.26489492,0.444421,0.40204478,-0.2757627,0.414244,0.41571729,-0.30737134,0.428743,0.42365381,-0.32361674,0.446774,0.44707415,-0.2825396,0.460539,0.43316571,-0.2873313,0.433711,0.42402493,-0.29269938,0.421385,0.42330258,-0.29241818,0.423587
0.41764004,-0.36728694,0.48184,0.40303528,-0.3043316,0.463157,0.38641849,-0.34109442,0.466918,0.3366525,-0.31841015,0.441485,0.2996425,-0.30621846,0.43235,0.28099469,-0.29328722,0.430976,0.35727161,-0.24365117,0.431155,0.34735383,-0.21597051,0.402204,0.36470632,-0.24421687,0.416225,0.37549992,-0.26851461,0.433251,0.38917354,-0.24974305,0.442915,0.38322521,-0.26182741,0.415435,0.39133457,-0.2931765,0.43374,0.39912393,-0.31672068,0.44967,0.41670939,-0.25840008,0.453947,0.40977847,-0.26813734,0.42499,0.42456304,-0.30007433,0.440012,0.43211219,-0.31716456,0.457706,0.4518197,-0.27587157,0.469716,0.44019721,-0.2799788,0.443915,0.43386783,-0.28761708,0.432061,0.43489057,-0.29093232,0.434829
0.42509957,-0.36924365,0.486013,0.421567,-0.31486803,0.472644,0.4007273,-0.3494001,0.478902,0.36405138,-0.32811615,0.459718,0.32940961,-0.31432181,0.449021,0.30793352,-0.29814486,0.441201,0.37844968,-0.25919426,0.454108,0.36092843,-0.25161229,0.433207,0.38132201,-0.28318898,0.451488,0.39763663,-0.29947936,0.468553,0.40567194,-0.26137419,0.45816,0.38944635,-0.25804828,0.436118,0.40956415,-0.29958092,0.459688,0.42178852,-0.31970898,0.475059,0.42962632,-0.26673217,0.462464,0.41457741,-0.2634041,0.44088,0.42755014,-0.29747454,0.460391,0.43771209,-0.3208597,0.4769,0.460998,-0.28017208,0.469464,0.4390167,-0.27741342,0.449283,0.42407983,-0.28821602,0.44001,0.42831614,-0.298111,0.446827
0.43361657,-0.36887598,0.494468,0.41844238,-0.3061301,0.474584,0.40679363,-0.35121074,0.485714,0.36094433,-0.3186738,0.466314,0.32396196,-0.30129102,0.453118,0.3026996,-0.28419811,0.445495,0.37389408,-0.2451607,0.449243,0.34142271,-0.20339861,0.423209,0.35677214,-0.21794427,0.439876,0.37727989,-0.24486935,0.456808,0.40004754,-0.24885746,0.453039,0.37441347,-0.20571541,0.424714,0.39594325,-0.23537347,0.44617,0.41231876,-0.26403058,0.463151,0.42329556,-0.25569124,0.457607,0.40427913,-0.22840539,0.430428,0.41874239,-0.25998046,0.448204,0.43190867,-0.28456725,0.46628,0.45430018,-0.2713747,0.465829,0.42980364,-0.25684357,0.440858,0.41392855,-0.26651295,0.429385,0.41657238,-0.27578807,0.433985
0.42324522,-0.35843079,0.486722,0.42124651,-0.3007695,0.480017,0.40414286,-0.34053505,0.485593,0.36548271,-0.31769338,0.479067,0.32613085,-0.30039079,0.464148,0.30396714,-0.28406123,0.45593,0.3969255,-0.24832317,0.473701,0.3768321,-0.21456736,0.461349,0.36903274,-0.20789636,0.455174,0.38018731,-0.22295102,0.46765,0.41946447,-0.25136681,0.472752,0.40537385,-0.21548323,0.458151,0.4267787,-0.24589494,0.483547,0.43846586,-0.27418085,0.4968,0.4384002,-0.25719329,0.472458,0.42819076,-0.23582358,0.459225,0.4446268,-0.2692582,0.480322,0.45631669,-0.2975781,0.494093,0.4615051,-0.27310373,0.473041,0.44429805,-0.25881372,0.459738,0.43402695,-0.27266486,0.453625,0.4437897,-0.29023011,0.463062
0.42483206,-0.35785774,0.488917,0.42267387,-0.30213268,0.482364,0.40554057,-0.33971622,0.487831,0.36645775,-0.31844458,0.481124,0.32789272,-0.30142293,0.467474,0.30611331,-0.28514068,0.459909,0.39843969,-0.24985616,0.476215,0.37863315,-0.21745046,0.463994,0.37112422,-0.21171681,0.457884,0.38262032,-0.22768435,0.470409,0.42094593,-0.25279589,0.475264,0.40659431,-0.21588814,0.460819,0.42777941,-0.24538522,0.486241,0.43948401,-0.27368731,0.499445,0.4398739,-0.25852887,0.474958,0.42934242,-0.2358581,0.461867,0.44573994,-0.26890584,0.482985,0.45621674,-0.29374552,0.496707,0.46336602,-0.27357147,0.475507,0.44552925,-0.25885186,0.462325,0.43540425,-0.27277045,0.456269,0.44467349,-0.28681132,0.465748
0.44160376,-0.36494551,0.50699,0.43146088,-0.30612726,0.493073,0.41971762,-0.34497835,0.503301,0.37992079,-0.31868313,0.48989,0.34121284,-0.29816564,0.474377,0.32045843,-0.28057263,0.466381,0.39495332,-0.2495689,0.478319,0.37326854,-0.21126613,0.458849,0.36235925,-0.19177887,0.449114,0.3678563,-0.19905357,0.458775,0.4175674,-0.25036925,0.477993,0.39648604,-0.2058416,0.456059,0.414827,-0.22620137,0.479854,0.42767071,-0.25430046,0.495258,0.43746721,-0.25453966,0.478736,0.41383493,-0.20550737,0.458665,0.43115739,-0.21731736,0.47844,0.44778867,-0.24454248,0.494444,0.46370232,-0.26645321,0.481562,0.44276849,-0.24299244,0.462403,0.43105314,-0.25415042,0.4536,0.43741048,-0.26980291,0.460811
0.43135011,-0.36437938,0.494862,0.4232047,-0.31674549,0.49243,0.40915824,-0.3391825,0.492737,0.36506384,-0.31855371,0.483037,0.33688417,-0.29911063,0.478872,0.32134341,-0.28104653,0.471555,0.39827848,-0.26602782,0.48804,0.38741625,-0.2221729,0.478072,0.38070366,-0.20246095,0.473088,0.37404814,-0.18327306,0.468557,0.42333298,-0.26961408,0.489792,0.41254621,-0.21983063,0.479134,0.40702429,-0.19641689,0.472916,0.41857818,-0.18597482,0.486493,0.4442571,-0.27574642,0.491411,0.43175069,-0.22850506,0.481088,0.42743697,-0.21319961,0.475807,0.44066834,-0.20671241,0.490059,0.46967088,-0.28928635,0.493681,0.46111167,-0.24794796,0.484044,0.45882847,-0.23410502,0.479617,0.47072719,-0.24101309,0.490246
0.42711503,-0.35831324,0.493879,0.42160903,-0.31478737,0.494276,0.40761657,-0.34180485,0.494725,0.36917992,-0.31903075,0.493732,0.33851667,-0.29678692,0.485036,0.32315287,-0.28006742,0.479675,0.39773847,-0.26480972,0.495604,0.38888195,-0.22254583,0.489015,0.38442546,-0.20110329,0.485721,0.38242144,-0.18756029,0.482726,0.42055733,-0.26659153,0.494708,0.41165329,-0.21842018,0.487438,0.40596025,-0.1918197,0.483197,0.40273365,-0.17280465,0.481211,0.43942216,-0.27111286,0.493941,0.43297667,-0.22530009,0.48704,0.42933403,-0.2045774,0.483509,0.44247896,-0.19234875,0.498869,0.46194633,-0.2824382,0.492972,0.46044735,-0.24283708,0.486756,0.4596118,-0.22782186,0.4839,0.47176847,-0.22635383,0.495514
0.42518457,-0.35384103,0.494977,0.41993866,-0.3036876,0.498495,0.4053396,-0.3391705,0.496419,0.36709201,-0.3132334,0.496233,0.33558376,-0.29443688,0.489636,0.32093028,-0.27901866,0.489606,0.40016837,-0.25863991,0.502864,0.39240395,-0.21626247,0.499202,0.38854458,-0.19527089,0.49737,0.38603653,-0.18338546,0.495705,0.42368516,-0.26004154,0.502332,0.41782705,-0.21532547,0.50006,0.41541211,-0.19031728,0.498735,0.41365183,-0.17180267,0.497788,0.44283374,-0.26411548,0.501639,0.43779975,-0.22051955,0.497784,0.43647538,-0.19947708,0.495811,0.45151265,-0.18797132,0.512022,0.46522333,-0.27458996,0.500324,0.46593766,-0.23631018,0.497444,0.46738762,-0.21989642,0.496121,0.46872209,-0.20509229,0.494954
0.42313418,-0.35124999,0.493835,0.42021811,-0.30261148,0.499293,0.40376508,-0.33505776,0.496176,0.36808888,-0.3128663,0.49774,0.33636749,-0.29406336,0.491172,0.32142083,-0.27857724,0.490856,0.40185778,-0.2590743,0.50621,0.39498744,-0.21761801,0.504507,0.39153534,-0.19696209,0.503656,0.38612598,-0.1772916,0.502881,0.42514148,-0.25998627,0.505265,0.4193012,-0.21526383,0.50334,0.41664449,-0.18987694,0.502217,0.4147041,-0.1711354,0.501414,0.44400701,-0.26358879,0.504095,0.44090899,-0.22031249,0.50223,0.43896792,-0.19585165,0.501276,0.43793332,-0.1753087,0.500409,0.46586911,-0.27335733,0.501941,0.46899077,-0.23631337,0.501748,0.46962344,-0.21722935,0.50166,0.47299144,-0.20496088,0.501582
0.42447543,-0.34809544,0.496509,0.42234569,-0.30294294,0.501523,0.40646439,-0.33506178,0.49805,0.36911562,-0.31256775,0.498364,0.33745739,-0.29388554,0.492067,0.32205799,-0.27811949,0.491138,0.40214887,-0.25887804,0.507137,0.39491528,-0.21730975,0.505203,0.39145136,-0.19658193,0.504237,0.38691633,-0.17686526,0.503358,0.42611685,-0.25989807,0.507011,0.41897975,-0.21386986,0.505931,0.41583015,-0.18775996,0.5053,0.41354147,-0.16872164,0.50485,0.4448753,-0.26207955,0.506545,0.44032949,-0.21819706,0.504203,0.43847266,-0.19577843,0.503005,0.43677656,-0.17517898,0.501916,0.46776265,-0.27170626,0.505292,0.47082205,-0.23522708,0.506283,0.47289459,-0.21835353,0.506738,0.47473494,-0.20333968,0.507139
0.42389925,-0.34977415,0.500127,0.42257378,-0.30459683,0.503992,0.40222866,-0.33477115,0.50211,0.36262084,-0.31194893,0.499146,0.33317185,-0.2936506,0.496142,0.32105589,-0.2778425,0.49201,0.40155657,-0.25930396,0.509292,0.39395724,-0.2174193,0.506785,0.3902947,-0.19653745,0.505531,0.38694678,-0.17740947,0.504392,0.42475716,-0.25993065,0.508223,0.41896417,-0.21468269,0.506903,0.41596361,-0.18835548,0.506132,0.41387247,-0.16921137,0.505582,0.4429376,-0.26433903,0.507064,0.44009993,-0.21987795,0.505452,0.43867811,-0.19761155,0.504627,0.43738021,-0.17720255,0.503877,0.46205707,-0.27576635,0.505143,0.47113015,-0.23859432,0.505947,0.47170282,-0.21960039,0.506317,0.47380087,-0.20460875,0.506643
0.4223036,-0.34796488,0.503871,0.4189812,-0.30342419,0.506775,0.40371218,-0.33367716,0.506012,0.36518933,-0.3121735,0.50297,0.33290007,-0.29257329,0.49606,0.31870066,-0.27680184,0.493511,0.39693512,-0.25567455,0.511554,0.38729518,-0.21431268,0.50943,0.38250121,-0.19376301,0.508368,0.37790435,-0.17585752,0.507403,0.41975498,-0.25558114,0.509958,0.4135623,-0.21041471,0.509212,0.40991754,-0.18384911,0.508776,0.41086873,-0.16650522,0.508465,0.43849334,-0.25845482,0.508435,0.43753775,-0.21553811,0.50809,0.43888548,-0.19533314,0.507913,0.43820845,-0.17713259,0.507753,0.46073476,-0.2675634,0.506213,0.46779212,-0.23271567,0.506669,0.47014194,-0.21597956,0.506879,0.47348754,-0.20351221,0.507064
0.4244847,-0.34826043,0.50231,0.42228503,-0.30417598,0.505814,0.40305588,-0.33467723,0.504782,0.36751009,-0.31344283,0.501846,0.33455981,-0.29365665,0.49393,0.31984399,-0.27773777,0.492722,0.39786178,-0.25882692,0.511446,0.39088432,-0.21798335,0.510915,0.38495486,-0.19703309,0.51065,0.38405624,-0.17943877,0.510408,0.42050665,-0.2587409,0.509654,0.41434649,-0.21338254,0.511368,0.4113337,-0.18754849,0.512369,0.40916366,-0.16897684,0.513083,0.43802398,-0.2594852,0.507926,0.43901794,-0.21921127,0.507979,0.43837249,-0.19738149,0.508006,0.43919211,-0.1775534,0.50803,0.46016058,-0.26795696,0.505376,0.46296159,-0.23064817,0.504679,0.46453004,-0.21360182,0.504358,0.4674144,-0.19930052,0.504076
0.42192479,-0.34718494,0.50437,0.41903386,-0.30328299,0.506857,0.40283728,-0.33338993,0.506082,0.36483238,-0.31274247,0.502428,0.3326586,-0.29410278,0.496038,0.31694577,-0.27843637,0.494921,0.39662969,-0.258405,0.510804,0.38969138,-0.21841854,0.512974,0.38671887,-0.19884397,0.514059,0.38388078,-0.18276681,0.515046,0.41877402,-0.2573495,0.509581,0.41451403,-0.21409515,0.512352,0.411987,-0.1886453,0.513969,0.41016998,-0.17039018,0.515123,0.43782753,-0.26006944,0.508395,0.43779791,-0.21883187,0.510083,0.43810122,-0.1973726,0.510946,0.44015632,-0.17878991,0.511732,0.46060024,-0.2690181,0.506632,0.46315976,-0.23129431,0.505246,0.46467189,-0.21405714,0.504609,0.46710552,-0.19930842,0.504048
0.42163285,-0.34693229,0.504588,0.41871302,-0.30315138,0.506804,0.40223516,-0.33316235,0.505964,0.36406086,-0.31260307,0.501948,0.33202088,-0.29433959,0.495874,0.31637818,-0.2789476,0.495047,0.39567167,-0.25800928,0.510137,0.38952023,-0.21871196,0.513243,0.38687132,-0.19937711,0.514797,0.38422888,-0.18305287,0.516209,0.41819708,-0.25731746,0.509229,0.41434853,-0.21432359,0.512537,0.41207049,-0.18908274,0.514466,0.41043519,-0.17099779,0.515844,0.43746436,-0.26020436,0.508322,0.43741834,-0.21925876,0.510317,0.43785182,-0.19783245,0.511339,0.44001341,-0.17900844,0.512267,0.4605189,-0.26937301,0.506929,0.46304468,-0.23151062,0.505296,0.46456926,-0.21420477,0.504546,0.46678375,-0.19925496,0.503884
0.42127288,-0.34687403,0.504379,0.42032536,-0.30433863,0.506369,0.40235375,-0.33470549,0.505692,0.36384737,-0.31430409,0.501827,0.33051725,-0.30112944,0.495332,0.31571956,-0.28248188,0.495781,0.39485731,-0.25908346,0.509455,0.38912102,-0.22037151,0.513051,0.3867168,-0.20116457,0.514848,0.38446529,-0.18277163,0.516482,0.41822519,-0.25916189,0.508546,0.41371195,-0.21600456,0.512618,0.41158207,-0.19109319,0.514993,0.41081407,-0.1721304,0.516689,0.43746072,-0.26221077,0.507654,0.43954393,-0.22240601,0.512129,0.44193188,-0.20110343,0.514419,0.44476052,-0.1817324,0.516501,0.46050335,-0.27092259,0.506311,0.46449356,-0.23378077,0.506078,0.4671663,-0.21680834,0.505971,0.4699269,-0.20209803,0.505876
0.42030039,-0.34582919,0.504388,0.41760825,-0.30466593,0.505858,0.40083178,-0.3334188,0.505122,0.36124747,-0.31860893,0.501054,0.32693204,-0.30036644,0.492609,0.31238144,-0.28342777,0.493783,0.39257097,-0.258864,0.50785,0.38749831,-0.22033064,0.511187,0.38496913,-0.20110337,0.512855,0.38266303,-0.18274855,0.514372,0.4177715,-0.26154034,0.507467,0.41283384,-0.21739872,0.510881,0.41058261,-0.19213992,0.512873,0.40955268,-0.17342441,0.515376,0.43735403,-0.26520565,0.507045,0.43786041,-0.22356727,0.508396,0.43835012,-0.20208635,0.509088,0.43904254,-0.17986129,0.509716,0.46073907,-0.27538056,0.506337,0.46402463,-0.23748769,0.504466,0.46550885,-0.22026235,0.503606,0.46985711,-0.20669472,0.502848
