sluyters/QuantumLeap/backend/src/datasets/dynamic/HandGestureDataset_SHREC2017_csv/Gesture2/finger_1/subject_25_essai_1_skeletons_world.csv
Wrist_x,Wrist_y,Wrist_z,Palm_x,Palm_y,Palm_z,thumb_base_x,thumb_base_y,thumb_base_z,thumb_first_joint_x,thumb_first_joint_y,thumb_first_joint_z,thumb_second_joint_x,thumb_second_joint_y,thumb_second_joint_z,thumb_tip_x,thumb_tip_y,thumb_tip_z,index_base_x,index_base_y,index_base_z,index_first_joint_x,index_first_joint_y,index_first_joint_z,index_second_joint_x,index_second_joint_y,index_second_joint_z,index_tip_x,index_tip_y,index_tip_z,middle_base_x,middle_base_y,middle_base_z,middle_first_joint_x,middle_first_joint_y,middle_first_joint_z,middle_second_joint_x,middle_second_joint_y,middle_second_joint_z,middle_tip_x,middle_tip_y,middle_tip_z,ring_base_x,ring_base_y,ring_base_z,ring_first_joint_x,ring_first_joint_y,ring_first_joint_z,ring_second_joint_x,ring_second_joint_y,ring_second_joint_z,ring_tip_x,ring_tip_y,ring_tip_z,pinky_base_x,pinky_base_y,pinky_base_z,pinky_first_joint_x,pinky_first_joint_y,pinky_first_joint_z,pinky_second_joint_x,pinky_second_joint_y,pinky_second_joint_z,pinky_tip_x,pinky_tip_y,pinky_tip_z,r
0.38385416,-0.301349616,0.45239,0.366238216,-0.250706995,0.432634,0.358939628,-0.289873916,0.447009,0.34236075,-0.266710633,0.426483,0.306856369,-0.233244259,0.402589,0.294705547,-0.214514941,0.395715,0.324186334,-0.205713867,0.413157,0.308806645,-0.163535112,0.39977,0.302472857,-0.152023324,0.393076,0.297656581,-0.139904243,0.386991,0.350763617,-0.206029376,0.414934,0.328493967,-0.156957637,0.389078,0.318440822,-0.15208469,0.373994,0.311337129,-0.162311773,0.363221,0.374600804,-0.211560863,0.418471,0.341364246,-0.171475924,0.394172,0.335279139,-0.178471094,0.381739,0.331120012,-0.189342496,0.370437,0.405783184,-0.227337609,0.426191,0.385074012,-0.211313807,0.404626,0.374427436,-0.208680274,0.394717,0.365960645,-0.204726723,0.385975
0.388593186,-0.305916806,0.457962,0.366823019,-0.25152837,0.433983,0.361873033,-0.293164541,0.450677,0.352838204,-0.266228956,0.441605,0.331660785,-0.230273759,0.421142,0.331019531,-0.208816177,0.41453,0.318011126,-0.204901691,0.409361,0.309311471,-0.164276171,0.400685,0.305244611,-0.151354015,0.396347,0.300907226,-0.138554831,0.392403,0.345231607,-0.204951102,0.412499,0.312037135,-0.169150128,0.382825,0.299801033,-0.180323663,0.365516,0.306430315,-0.197010328,0.369848,0.370672595,-0.210472474,0.4176,0.336154114,-0.169883831,0.389453,0.328033718,-0.176120789,0.375053,0.337843197,-0.194778909,0.37957,0.405581383,-0.226852384,0.427907,0.381520888,-0.212828484,0.403302,0.370070088,-0.207390248,0.391997,0.359980273,-0.202927664,0.382022
0.389255509,-0.307230535,0.458963,0.366935075,-0.251921485,0.43461,0.362982679,-0.294930755,0.452264,0.355239969,-0.268041174,0.444611,0.335167644,-0.232708588,0.425595,0.334862114,-0.211240183,0.419342,0.318409704,-0.205051765,0.410516,0.309919995,-0.164937661,0.40166,0.305694799,-0.151672055,0.397232,0.301184205,-0.138583918,0.393206,0.344882134,-0.204704028,0.412791,0.312092562,-0.169180174,0.382893,0.299749359,-0.180292583,0.365453,0.306305207,-0.196929893,0.369697,0.369701756,-0.209927278,0.417221,0.335295089,-0.169963562,0.389108,0.327061515,-0.176353836,0.374725,0.336816483,-0.194984666,0.379224,0.40394726,-0.226010372,0.426818,0.379834329,-0.212145825,0.402198,0.368134344,-0.206876306,0.390886,0.357814229,-0.20248279,0.380905
0.390645807,-0.309366228,0.46102,0.367913648,-0.252883727,0.436214,0.365236641,-0.297883704,0.455449,0.355258242,-0.269170584,0.446743,0.326334004,-0.234244398,0.430351,0.318239638,-0.209811916,0.420498,0.320115235,-0.20624359,0.413305,0.310562916,-0.166311373,0.403297,0.305470832,-0.153295049,0.398294,0.300262183,-0.139825439,0.393745,0.345356399,-0.205078412,0.413989,0.310330808,-0.162779164,0.383908,0.297240595,-0.172350017,0.36636,0.303995996,-0.189622509,0.370503,0.369104363,-0.209665308,0.417157,0.335122429,-0.182060705,0.389317,0.328210831,-0.192810137,0.375073,0.337677359,-0.208428428,0.379602,0.402098859,-0.225035596,0.425373,0.378187555,-0.211224904,0.400903,0.366449768,-0.20603556,0.38966,0.35608933,-0.201663923,0.379739
0.390178351,-0.310290996,0.461185,0.367750641,-0.253004189,0.436377,0.364841274,-0.298793504,0.455696,0.354628853,-0.269253607,0.44701,0.32653647,-0.234389729,0.430618,0.318478035,-0.209969089,0.420813,0.320019227,-0.206243982,0.413574,0.310547201,-0.166631261,0.403595,0.305345614,-0.153387161,0.398605,0.300041233,-0.139828437,0.394069,0.345140906,-0.205012393,0.414151,0.310472269,-0.162853365,0.384083,0.297389069,-0.172436108,0.366543,0.304150249,-0.189718727,0.370691,0.368809398,-0.209549331,0.417231,0.335221421,-0.182114483,0.389432,0.328330714,-0.192880563,0.37521,0.337810793,-0.208510788,0.379752,0.401750266,-0.224880253,0.425344,0.377904415,-0.211065999,0.400903,0.366107945,-0.205914238,0.389673,0.355693065,-0.201544737,0.379765
0.390003887,-0.311065811,0.46153,0.367264023,-0.253605841,0.436616,0.364597665,-0.299428422,0.456088,0.354367484,-0.269391804,0.447317,0.326735902,-0.234532882,0.430881,0.318674807,-0.210098819,0.421073,0.319981642,-0.20626422,0.413806,0.310539696,-0.166882667,0.403833,0.305248394,-0.15345886,0.398847,0.299876995,-0.139831378,0.394314,0.345010653,-0.204979275,0.414295,0.310525619,-0.16288135,0.384149,0.297406107,-0.172445987,0.366564,0.304127276,-0.189704397,0.370663,0.36862354,-0.209480611,0.417312,0.335252409,-0.182131318,0.389468,0.328341214,-0.192886732,0.375222,0.337784106,-0.208494316,0.379722,0.401548885,-0.224795973,0.425374,0.377691522,-0.210946552,0.400892,0.365827459,-0.205807223,0.389644,0.355349151,-0.201425214,0.379719
0.387863294,-0.308651802,0.458873,0.365099488,-0.25186728,0.43538,0.363399211,-0.2979154,0.454616,0.35122514,-0.268521947,0.446553,0.325071445,-0.234815895,0.429721,0.317634884,-0.21144919,0.420369,0.319614109,-0.205457531,0.415011,0.297999733,-0.16284065,0.388744,0.296749686,-0.148207895,0.384771,0.292311745,-0.137999213,0.381159,0.343651062,-0.203611756,0.414331,0.311530123,-0.162556588,0.38557,0.299143765,-0.172860464,0.368793,0.306463351,-0.190582811,0.373625,0.366286073,-0.207572634,0.416237,0.33538779,-0.181268602,0.389976,0.329185102,-0.19268763,0.376539,0.339428635,-0.208920041,0.381895,0.39780522,-0.222096153,0.422749,0.374818325,-0.209724383,0.399493,0.363176376,-0.205206615,0.388808,0.35287046,-0.201255032,0.37938
0.373396122,-0.296618105,0.441977,0.35546756,-0.245022716,0.425293,0.351006761,-0.287346242,0.43948,0.341746405,-0.261409528,0.435289,0.317154582,-0.233192915,0.422805,0.313484485,-0.214314513,0.416792,0.315005957,-0.198974497,0.411512,0.299955898,-0.162630875,0.390668,0.296294524,-0.148161827,0.385763,0.292876287,-0.134869066,0.381304,0.33913825,-0.197208954,0.410345,0.314583073,-0.162238213,0.387645,0.304516268,-0.175479919,0.374403,0.314598649,-0.197641129,0.382228,0.361048021,-0.200808122,0.411135,0.335788804,-0.177948921,0.390525,0.331956167,-0.191885721,0.37998,0.345238558,-0.212118189,0.388467,0.390312228,-0.216867936,0.415105,0.371796637,-0.20808615,0.396413,0.362099098,-0.204494137,0.387825,0.35580746,-0.202162167,0.380808
0.377750182,-0.299035117,0.449007,0.354382127,-0.237313294,0.426876,0.350984401,-0.280616392,0.44439,0.336164595,-0.25185261,0.432739,0.310504898,-0.223001471,0.416728,0.305872138,-0.20623622,0.407042,0.312075393,-0.187508138,0.406896,0.296391719,-0.152669037,0.38157,0.292762649,-0.137711212,0.374438,0.288800135,-0.1273521,0.370678,0.338016278,-0.188267032,0.407048,0.311521947,-0.153800679,0.379334,0.297615875,-0.170580108,0.363167,0.304180251,-0.187669198,0.368615,0.360632745,-0.196904393,0.409496,0.332249902,-0.173085854,0.383956,0.325570735,-0.186341744,0.370889,0.334840627,-0.203145228,0.376812,0.391971135,-0.212555383,0.416387,0.368799009,-0.205660506,0.393745,0.358119215,-0.202575952,0.383342,0.348589533,-0.199816749,0.374832
0.372851887,-0.288430233,0.447635,0.351062607,-0.230704488,0.423466,0.347062144,-0.274970129,0.442709,0.333690203,-0.249020735,0.429571,0.307984567,-0.219980201,0.412785,0.304086688,-0.201431888,0.402209,0.30857295,-0.183825037,0.401798,0.292348512,-0.14892542,0.374862,0.288205543,-0.133874982,0.366584,0.284538356,-0.119686193,0.359058,0.334286271,-0.184778374,0.401812,0.307220457,-0.150208933,0.372367,0.293600573,-0.16485891,0.355191,0.297671359,-0.182305865,0.359678,0.357712789,-0.190922319,0.40436,0.329137817,-0.167961681,0.377269,0.321086965,-0.181325885,0.363408,0.328455806,-0.197620358,0.368343,0.388837886,-0.207577398,0.41174,0.364635435,-0.20154418,0.387857,0.353490033,-0.198865657,0.376884,0.343599741,-0.196695369,0.367687
0.365496498,-0.280110713,0.441479,0.339179833,-0.218709462,0.407542,0.33928046,-0.263600848,0.434907,0.322701619,-0.234291267,0.416093,0.294238148,-0.202732821,0.394405,0.290693953,-0.188807632,0.381756,0.295238637,-0.164319849,0.377567,0.272840265,-0.128645151,0.34357,0.268263381,-0.11437067,0.335105,0.264201217,-0.100885361,0.32741,0.319898824,-0.167994183,0.377137,0.286679454,-0.132886395,0.339911,0.26574616,-0.145410281,0.318196,0.2647042,-0.157410782,0.317065,0.343021454,-0.17666672,0.380345,0.307373001,-0.152649222,0.346336,0.293086788,-0.164210953,0.328935,0.294726158,-0.175327471,0.328083,0.374879589,-0.196885083,0.390278,0.342566251,-0.189550093,0.360926,0.327068912,-0.188601471,0.34744,0.313070096,-0.189056436,0.33554
0.351790493,-0.265283613,0.430693,0.329145646,-0.207175315,0.395015,0.327961524,-0.246136741,0.425072,0.310397079,-0.220091671,0.405801,0.286492195,-0.189186434,0.385558,0.283162463,-0.178195944,0.37171,0.290384384,-0.149944218,0.36518,0.265392435,-0.115670903,0.33068,0.260337238,-0.1017807,0.322837,0.255269369,-0.0930221285,0.315706,0.311909436,-0.158007015,0.363049,0.277867057,-0.123616393,0.324881,0.250597785,-0.135241244,0.302617,0.248761487,-0.147506907,0.300166,0.331919344,-0.170169448,0.365039,0.293735654,-0.145819474,0.330655,0.274472391,-0.157023456,0.313063,0.273680099,-0.167272413,0.310976,0.359166413,-0.194222931,0.373877,0.321401616,-0.185797774,0.344229,0.303090374,-0.184046152,0.330607,0.286484787,-0.183646652,0.318587
0.341001408,-0.255893885,0.419043,0.322473106,-0.199513503,0.388492,0.319114436,-0.238129925,0.415133,0.306548842,-0.216459129,0.400296,0.284185894,-0.187113862,0.38221,0.284392719,-0.174579432,0.372307,0.288118668,-0.148204664,0.364121,0.265986037,-0.114943957,0.332722,0.259482656,-0.100233158,0.322837,0.253630802,-0.0863751673,0.313851,0.309407977,-0.155107418,0.361119,0.279305675,-0.122421975,0.326827,0.254873521,-0.135725146,0.306823,0.253995991,-0.14838456,0.307792,0.328665634,-0.166013054,0.361854,0.29449287,-0.143673909,0.330845,0.277519728,-0.156088053,0.314979,0.279841813,-0.168294023,0.316409,0.354348766,-0.184552762,0.368298,0.322053448,-0.178848163,0.341591,0.306920477,-0.176901143,0.32932,0.293383564,-0.175618553,0.318492
0.340750149,-0.252628719,0.421946,0.319439979,-0.194385825,0.386795,0.315730874,-0.232331375,0.414718,0.302207286,-0.211954738,0.394832,0.275993724,-0.181643679,0.372892,0.272795272,-0.167158077,0.35868,0.275663931,-0.138796087,0.355198,0.253416879,-0.107724377,0.320415,0.248029916,-0.0938057542,0.311568,0.244138496,-0.0821484968,0.303525,0.300230899,-0.145157671,0.355301,0.269237136,-0.115015148,0.317114,0.244581859,-0.129099746,0.294838,0.241340868,-0.140125053,0.292815,0.322964548,-0.155893742,0.359076,0.296396526,-0.122863176,0.32405,0.275227647,-0.133295308,0.30613,0.2699012,-0.14579735,0.304304,0.353749963,-0.178236277,0.369889,0.318235706,-0.172395564,0.339778,0.302826698,-0.172527055,0.325944,0.288189803,-0.170565817,0.313737
0.336269482,-0.247167321,0.419528,0.317121072,-0.192068281,0.384526,0.313431001,-0.229835068,0.41236,0.30066316,-0.209267032,0.392744,0.275115124,-0.178874776,0.37089,0.272852508,-0.165665493,0.356612,0.274166118,-0.137310227,0.353102,0.25126634,-0.106175796,0.318471,0.245521672,-0.0922662454,0.309207,0.24123316,-0.0804557334,0.300786,0.298559567,-0.143850357,0.353166,0.267063531,-0.106684159,0.315091,0.242624755,-0.118969328,0.292881,0.239735344,-0.136129833,0.29097,0.321138742,-0.154708936,0.356892,0.294550313,-0.121558414,0.321979,0.273200861,-0.13189987,0.304116,0.267948222,-0.144495002,0.302411,0.351708142,-0.177150461,0.367622,0.316014271,-0.174504697,0.337595,0.295979541,-0.174815306,0.323799,0.28256929,-0.175345996,0.311626
0.337039193,-0.24693417,0.42073,0.317164925,-0.191534339,0.384957,0.313834377,-0.229512208,0.413306,0.300551742,-0.207314301,0.392991,0.271711628,-0.172778761,0.370976,0.267498524,-0.159842124,0.354759,0.273695499,-0.136758866,0.352713,0.249119607,-0.104358432,0.317738,0.24299841,-0.0904866775,0.308074,0.239283925,-0.0794136522,0.299288,0.298171071,-0.143406691,0.352906,0.265785229,-0.106176413,0.314269,0.24107245,-0.118322575,0.291731,0.237313921,-0.1328647,0.289229,0.320925639,-0.154395475,0.35682,0.293202041,-0.122387714,0.321364,0.27146823,-0.132842168,0.303224,0.265896206,-0.144603752,0.300891,0.351878584,-0.177078788,0.367909,0.312919672,-0.17928719,0.337479,0.293973763,-0.180923114,0.323498,0.277336675,-0.181249773,0.311162
0.336658461,-0.245438735,0.420861,0.315510104,-0.188587212,0.384399,0.313307956,-0.228142715,0.413376,0.300625736,-0.204874026,0.392782,0.270600167,-0.1714551,0.370918,0.265475695,-0.154009548,0.355101,0.272352808,-0.135473039,0.35164,0.247342621,-0.103084016,0.316348,0.240315969,-0.0889610621,0.305677,0.233982512,-0.0756813976,0.295976,0.296773982,-0.142094446,0.35173,0.264056569,-0.106975742,0.312639,0.239324427,-0.117744294,0.289836,0.235135576,-0.131224683,0.286786,0.319507167,-0.153037101,0.355632,0.28562649,-0.127517277,0.319795,0.26682117,-0.137050274,0.30146,0.263398245,-0.144583038,0.298566,0.350497473,-0.175615534,0.366832,0.309504745,-0.177038005,0.336121,0.28919487,-0.179645994,0.322011,0.274467904,-0.180081629,0.30956
0.335740101,-0.243898305,0.420147,0.314721839,-0.187599561,0.383799,0.312335379,-0.226728708,0.41264,0.300266531,-0.204119116,0.392251,0.269863461,-0.170782159,0.370396,0.264478646,-0.153026032,0.354819,0.271614474,-0.134734191,0.351084,0.24654612,-0.102431112,0.31586,0.239279744,-0.0882584099,0.304967,0.232723639,-0.0749445047,0.295064,0.296111442,-0.141390758,0.351233,0.263586634,-0.106452979,0.31221,0.238910862,-0.117681503,0.289446,0.234786496,-0.130776318,0.286488,0.318883139,-0.152330711,0.355172,0.285255831,-0.127351797,0.31938,0.266070073,-0.13764791,0.301067,0.262866483,-0.145093084,0.298264,0.34986796,-0.174837808,0.366394,0.308604087,-0.176782321,0.335716,0.288562469,-0.179003974,0.321621,0.273415918,-0.179745689,0.309184
0.333816789,-0.241713763,0.418247,0.312199615,-0.184998043,0.381669,0.309769161,-0.223457618,0.410555,0.297917534,-0.202755336,0.390092,0.268638416,-0.172034489,0.368526,0.266870192,-0.16056924,0.353354,0.267627231,-0.130801097,0.348568,0.241752416,-0.0986342482,0.313267,0.234057073,-0.0844669128,0.302391,0.228050484,-0.0721308138,0.292504,0.292397218,-0.137545201,0.348898,0.26028358,-0.103407623,0.309694,0.236035296,-0.116123726,0.286825,0.231668168,-0.127890624,0.283672,0.315397233,-0.148474991,0.353009,0.281824026,-0.126745285,0.317004,0.2618888,-0.138457145,0.298583,0.259866645,-0.144185758,0.295561,0.346630733,-0.170795825,0.364473,0.304350456,-0.174752429,0.333642,0.285203799,-0.176172725,0.319476,0.269081042,-0.178170032,0.306977
0.333242531,-0.240683545,0.417923,0.311497815,-0.184209119,0.381258,0.309140148,-0.222516019,0.410198,0.296982905,-0.202275222,0.389477,0.267954279,-0.171839155,0.367855,0.265758768,-0.159886838,0.352616,0.266834524,-0.130181241,0.348059,0.240788935,-0.0979815214,0.312731,0.23306145,-0.0838139663,0.301929,0.226975912,-0.0713877848,0.292108,0.291601573,-0.136908829,0.348408,0.259308875,-0.102752563,0.309144,0.235077069,-0.115557546,0.286239,0.230715295,-0.127241872,0.283013,0.314631686,-0.147834229,0.352544,0.280701487,-0.126706711,0.31648,0.260809518,-0.138401696,0.298028,0.258870144,-0.144167274,0.294928,0.345952099,-0.170171978,0.364054,0.303537497,-0.174102591,0.333179,0.284334519,-0.175508208,0.318993,0.268120819,-0.177402897,0.306476
0.332113653,-0.239619378,0.41714,0.309037816,-0.18187805,0.380407,0.308140088,-0.221768901,0.409656,0.295959457,-0.201584442,0.389303,0.267183436,-0.170781037,0.367891,0.262876044,-0.154667917,0.353016,0.263854075,-0.129045513,0.347478,0.239573593,-0.0979939718,0.311872,0.232374506,-0.0841260617,0.301455,0.228094161,-0.0727362969,0.291986,0.288401246,-0.135366841,0.347496,0.255071971,-0.101281043,0.308234,0.230867453,-0.114390888,0.285332,0.229273678,-0.126820576,0.282061,0.311302176,-0.145963962,0.351366,0.275190086,-0.120735117,0.315397,0.25621085,-0.132651314,0.296993,0.25690216,-0.14382041,0.293875,0.342581627,-0.167934529,0.36258,0.300236882,-0.171971663,0.331771,0.28107136,-0.173426029,0.317616,0.265632155,-0.175589226,0.305126
0.331416363,-0.23799587,0.417185,0.308458337,-0.181774981,0.380373,0.307647405,-0.221392435,0.409631,0.295448621,-0.201418955,0.389225,0.26678462,-0.170754894,0.367776,0.262399394,-0.15453564,0.352874,0.263058368,-0.129165493,0.347303,0.239002185,-0.0980990865,0.311609,0.23192758,-0.0843376895,0.301153,0.227541541,-0.072727839,0.291647,0.28767511,-0.135400166,0.347391,0.254229352,-0.101590473,0.308067,0.230170875,-0.114736648,0.285128,0.228553705,-0.126703325,0.281789,0.310655764,-0.145928923,0.351327,0.275089746,-0.120691095,0.315282,0.256078859,-0.132582977,0.29684,0.256255802,-0.143475619,0.293644,0.342068082,-0.167827504,0.362632,0.299813959,-0.171885561,0.331769,0.280688626,-0.173347609,0.317589,0.265155063,-0.175366499,0.305077
0.330659344,-0.236631972,0.417243,0.308035687,-0.181696221,0.380338,0.306661253,-0.220099634,0.409545,0.294907345,-0.201186965,0.388958,0.266270126,-0.170597511,0.367393,0.261766315,-0.154274155,0.352397,0.262449046,-0.129172192,0.347023,0.238463124,-0.0981201301,0.31125,0.231487413,-0.0844445528,0.30078,0.227009797,-0.072692467,0.291261,0.28719435,-0.135398654,0.347273,0.253640332,-0.101742258,0.307865,0.229649122,-0.114891281,0.284876,0.227892723,-0.126555709,0.281452,0.310312738,-0.145928836,0.351354,0.275006857,-0.120654739,0.315187,0.255942556,-0.132512406,0.296682,0.255683874,-0.143168705,0.293385,0.341928658,-0.167846047,0.362842,0.299672544,-0.171898262,0.331892,0.280546759,-0.173354726,0.317672,0.264886252,-0.175255053,0.305125
0.33077403,-0.236233164,0.417898,0.309460373,-0.183239418,0.381047,0.306652805,-0.219698514,0.410121,0.295432702,-0.201686299,0.389364,0.266410506,-0.170761909,0.367634,0.261858603,-0.154372398,0.352675,0.264137725,-0.130076778,0.347662,0.238901568,-0.0985292792,0.311942,0.232109603,-0.0852160631,0.30102,0.226046981,-0.0726893408,0.291092,0.288938095,-0.136446546,0.34803,0.254063321,-0.102238885,0.308639,0.230099646,-0.115386081,0.285661,0.228283212,-0.126935856,0.282277,0.312084453,-0.147093608,0.352201,0.275774487,-0.121074543,0.316018,0.256663819,-0.132896225,0.297505,0.256177061,-0.143459074,0.294239,0.343698991,-0.169146553,0.363785,0.301406915,-0.173094742,0.332824,0.282262076,-0.174506123,0.318599,0.265445047,-0.175650046,0.306047
0.339466881,-0.242064199,0.42886,0.317867975,-0.188147469,0.392135,0.313912578,-0.224944749,0.420016,0.302106963,-0.207052828,0.398492,0.27300449,-0.174188121,0.375442,0.265878488,-0.156887439,0.358044,0.266685601,-0.137897518,0.35744,0.243195901,-0.104302926,0.321491,0.238529194,-0.09033767,0.312831,0.237474298,-0.0776620668,0.304959,0.292858844,-0.141481327,0.359232,0.257269917,-0.115354013,0.319748,0.236542069,-0.129096304,0.296715,0.234449869,-0.13739559,0.293323,0.31782509,-0.15002779,0.364562,0.283499565,-0.122447813,0.327899,0.266465028,-0.136001925,0.309142,0.264799917,-0.148289261,0.305748,0.352758444,-0.170098513,0.377469,0.311730757,-0.175957909,0.34618,0.29312708,-0.17826551,0.331805,0.278730391,-0.184058838,0.31912
