sluyters/QuantumLeap/backend/src/datasets/dynamic/HandGestureDataset_SHREC2017_csv/Gesture2/finger_1/subject_11_essai_2_skeletons_world.csv
Wrist_x,Wrist_y,Wrist_z,Palm_x,Palm_y,Palm_z,thumb_base_x,thumb_base_y,thumb_base_z,thumb_first_joint_x,thumb_first_joint_y,thumb_first_joint_z,thumb_second_joint_x,thumb_second_joint_y,thumb_second_joint_z,thumb_tip_x,thumb_tip_y,thumb_tip_z,index_base_x,index_base_y,index_base_z,index_first_joint_x,index_first_joint_y,index_first_joint_z,index_second_joint_x,index_second_joint_y,index_second_joint_z,index_tip_x,index_tip_y,index_tip_z,middle_base_x,middle_base_y,middle_base_z,middle_first_joint_x,middle_first_joint_y,middle_first_joint_z,middle_second_joint_x,middle_second_joint_y,middle_second_joint_z,middle_tip_x,middle_tip_y,middle_tip_z,ring_base_x,ring_base_y,ring_base_z,ring_first_joint_x,ring_first_joint_y,ring_first_joint_z,ring_second_joint_x,ring_second_joint_y,ring_second_joint_z,ring_tip_x,ring_tip_y,ring_tip_z,pinky_base_x,pinky_base_y,pinky_base_z,pinky_first_joint_x,pinky_first_joint_y,pinky_first_joint_z,pinky_second_joint_x,pinky_second_joint_y,pinky_second_joint_z,pinky_tip_x,pinky_tip_y,pinky_tip_z,r
0.45981649,-0.35546129,0.596577,0.44851039,-0.30134122,0.591855,0.43653235,-0.34408238,0.594671,0.42422863,-0.30529546,0.583126,0.39235999,-0.27490455,0.562928,0.38186776,-0.25805437,0.562165,0.41399185,-0.25711381,0.586171,0.42176759,-0.22851776,0.604481,0.42528017,-0.21338803,0.613636,0.42804077,-0.19879972,0.621959,0.43796925,-0.25469196,0.586996,0.41658356,-0.207923,0.574545,0.4106869,-0.20749664,0.567283,0.40942077,-0.21774447,0.562095,0.45877144,-0.25590735,0.588055,0.43031695,-0.21191111,0.57569,0.42293169,-0.21131131,0.569364,0.42517561,-0.22081032,0.563613,0.48553045,-0.26359619,0.590018,0.46388206,-0.22325444,0.577239,0.46131375,-0.22440228,0.571367,0.45810872,-0.22647762,0.566187
0.46123921,-0.3553028,0.598621,0.44903231,-0.30173951,0.5926,0.43784533,-0.34389508,0.596639,0.42469192,-0.3047691,0.584772,0.39426562,-0.27263988,0.566146,0.38513105,-0.25592336,0.566547,0.41360107,-0.25696861,0.58591,0.42061554,-0.22771843,0.603698,0.42390971,-0.21252086,0.612592,0.42657248,-0.1980267,0.620677,0.43736607,-0.25439312,0.586407,0.41511603,-0.20718043,0.57272,0.40845267,-0.2067502,0.564736,0.40686091,-0.21725518,0.559033,0.45805362,-0.25553066,0.587299,0.42885894,-0.21117263,0.573868,0.42140288,-0.20960103,0.566996,0.42260588,-0.21837102,0.560749,0.48482322,-0.26321118,0.589259,0.46227101,-0.22231148,0.575511,0.45947699,-0.2263682,0.569194,0.45423804,-0.23627332,0.56362
0.45945458,-0.35330688,0.596644,0.44836926,-0.30407807,0.59207,0.43666052,-0.34244993,0.595395,0.4237312,-0.30451277,0.584645,0.39462213,-0.27179204,0.565921,0.3867135,-0.2545632,0.566321,0.41355642,-0.25838569,0.587307,0.41985338,-0.22839908,0.603988,0.42284947,-0.21295595,0.612328,0.42532799,-0.19967502,0.61991,0.43703281,-0.25545015,0.587366,0.41594201,-0.2089873,0.575184,0.40448224,-0.20263616,0.568079,0.4064044,-0.21543733,0.563003,0.45738731,-0.25624183,0.587781,0.42975114,-0.21219693,0.575918,0.42253868,-0.20862209,0.569848,0.42282905,-0.21562746,0.56433,0.48358394,-0.26340126,0.588958,0.46253303,-0.22348863,0.576576,0.45771173,-0.23041571,0.570887,0.45460664,-0.23807124,0.565868
0.45458355,-0.34992059,0.590577,0.44651712,-0.31024422,0.588375,0.43369757,-0.34070737,0.591652,0.42018482,-0.31135783,0.584109,0.39303336,-0.27574239,0.564194,0.38640578,-0.25787673,0.563302,0.40886631,-0.27031471,0.588163,0.41106989,-0.23607181,0.600017,0.41210103,-0.21848609,0.605944,0.41625142,-0.20158151,0.611333,0.43270692,-0.2635144,0.58611,0.4064004,-0.22040392,0.576674,0.39269167,-0.19476695,0.571169,0.38340668,-0.18580495,0.567238,0.45127949,-0.26296088,0.584598,0.42846457,-0.21797378,0.576016,0.42224899,-0.21060802,0.571625,0.41888236,-0.21583331,0.567633,0.47244752,-0.26687556,0.583134,0.45486065,-0.22642699,0.57355,0.44857181,-0.23614685,0.569146,0.44366886,-0.2472562,0.56526
0.45422079,-0.35002644,0.590477,0.44500233,-0.30983277,0.588307,0.43238369,-0.34024023,0.590275,0.42082172,-0.31428741,0.589521,0.39618253,-0.27847366,0.569382,0.38895352,-0.25967203,0.567255,0.40693568,-0.26945964,0.586532,0.40949335,-0.2354985,0.59903,0.41069424,-0.21800767,0.60528,0.41172702,-0.20180517,0.610961,0.4292003,-0.26447727,0.586075,0.40534284,-0.22018094,0.576383,0.39148598,-0.19448486,0.570729,0.38212188,-0.18558917,0.56669,0.44867534,-0.26341353,0.585873,0.42851907,-0.21943116,0.576535,0.42128787,-0.21181874,0.571757,0.41554526,-0.22021843,0.567414,0.4740079,-0.26807931,0.585959,0.46004819,-0.2238481,0.575795,0.45047129,-0.23127252,0.571126,0.44486001,-0.24415562,0.567005
0.45522303,-0.34972642,0.590781,0.44431642,-0.30933953,0.588347,0.43315093,-0.34054294,0.590607,0.42138811,-0.31491917,0.590639,0.39743461,-0.2794587,0.571172,0.39052372,-0.26061721,0.569408,0.40659343,-0.2693739,0.586422,0.40890715,-0.23527244,0.598612,0.40998663,-0.21772152,0.604707,0.41091114,-0.20147106,0.610249,0.42877126,-0.26433651,0.585844,0.40472428,-0.21996219,0.575908,0.39076064,-0.19423018,0.570111,0.38133188,-0.18534156,0.565971,0.44818558,-0.26323925,0.585564,0.42796462,-0.21895271,0.576033,0.42029363,-0.21172468,0.571157,0.41512153,-0.22093441,0.566724,0.47347214,-0.26788397,0.585597,0.45926213,-0.22368407,0.575254,0.44970198,-0.22956116,0.570501,0.44338914,-0.23647502,0.566308
0.4552144,-0.34957741,0.591162,0.44185724,-0.30898775,0.588429,0.43312791,-0.34078501,0.591083,0.42170929,-0.31545211,0.59159,0.39826475,-0.28026358,0.572634,0.39124464,-0.26110704,0.571103,0.4063494,-0.26933281,0.58641,0.40838625,-0.23506608,0.59821,0.40922539,-0.2174084,0.604111,0.40986395,-0.20103213,0.609475,0.42834397,-0.2641984,0.585617,0.40407259,-0.21974941,0.575417,0.38998561,-0.19398992,0.569467,0.38041206,-0.18511239,0.565217,0.44761621,-0.26303373,0.585184,0.42731014,-0.21853694,0.575472,0.41758119,-0.21140691,0.570504,0.41427353,-0.22116781,0.565986,0.47275803,-0.26761876,0.58508,0.45847306,-0.22329438,0.574562,0.44891153,-0.22787038,0.56973,0.44159625,-0.23059244,0.565466
0.46502097,-0.35808835,0.605742,0.4457004,-0.31022204,0.592413,0.43656127,-0.34409071,0.597478,0.42170361,-0.31498967,0.591638,0.39830113,-0.27940682,0.573063,0.39095934,-0.25995228,0.571676,0.40093363,-0.25697977,0.572792,0.40091675,-0.21992066,0.578559,0.40168829,-0.20052821,0.581443,0.40240319,-0.18251824,0.584065,0.42572895,-0.26046651,0.578702,0.41273968,-0.22257181,0.55727,0.40432454,-0.20068639,0.544768,0.39896938,-0.20355482,0.535837,0.45001315,-0.2628656,0.584637,0.4176532,-0.21359627,0.562142,0.40914333,-0.20284491,0.550633,0.40755742,-0.21005028,0.54017,0.4852489,-0.27331076,0.593669,0.45147217,-0.23361934,0.572294,0.44277716,-0.22294592,0.562473,0.43729171,-0.21573041,0.553807
0.46403989,-0.35851612,0.606887,0.44339364,-0.31107829,0.592866,0.43511607,-0.34361954,0.597684,0.4209094,-0.31396475,0.590337,0.39633426,-0.27891154,0.57082,0.38916665,-0.25863137,0.568952,0.39929396,-0.25472016,0.571593,0.39277867,-0.21430611,0.564185,0.38982318,-0.19404891,0.560481,0.38712841,-0.17522644,0.557114,0.42606406,-0.25872431,0.578443,0.41252077,-0.21704505,0.556288,0.40391259,-0.19283552,0.543364,0.40106619,-0.19298504,0.534133,0.44999354,-0.2631542,0.585208,0.43176348,-0.21673036,0.562504,0.4213858,-0.19251964,0.550888,0.41765233,-0.18653196,0.540329,0.48456936,-0.27772047,0.595327,0.45971022,-0.24382111,0.573165,0.4509608,-0.23006055,0.562982,0.44612783,-0.22268817,0.553997
0.46515323,-0.36024358,0.609971,0.44301875,-0.30924296,0.591524,0.43606503,-0.34483731,0.600386,0.420495,-0.31308476,0.588667,0.39295991,-0.27840399,0.567196,0.38628242,-0.25654157,0.562762,0.39705108,-0.25169307,0.566666,0.38080242,-0.20732117,0.542756,0.37807762,-0.18871476,0.539476,0.3755872,-0.1712577,0.536494,0.42407229,-0.2549723,0.572547,0.40662155,-0.21717516,0.546302,0.39614512,-0.19461977,0.530992,0.39056052,-0.19667536,0.520057,0.44850535,-0.26060911,0.578869,0.42793463,-0.21406765,0.552275,0.41606014,-0.19054587,0.538669,0.4108163,-0.18683413,0.5263,0.48075768,-0.27463173,0.589126,0.45643665,-0.24309793,0.563773,0.4472376,-0.23367548,0.552124,0.43912649,-0.22524568,0.541845
0.46362936,-0.36099734,0.60922,0.43821009,-0.30731565,0.585353,0.43500195,-0.34563111,0.600022,0.41868823,-0.31959226,0.583234,0.3882575,-0.28635063,0.559801,0.37970645,-0.26512579,0.551378,0.39302332,-0.24921431,0.557168,0.37220766,-0.20618285,0.528645,0.37165928,-0.1894756,0.529084,0.37089754,-0.17123805,0.529483,0.42053952,-0.25339402,0.560801,0.39762016,-0.21974491,0.529837,0.38425592,-0.19977884,0.511775,0.37697657,-0.20401121,0.498873,0.44398651,-0.25912012,0.565708,0.41713518,-0.21614297,0.534917,0.4033856,-0.19404052,0.519162,0.39508824,-0.19305498,0.504841,0.47513995,-0.27362699,0.5751,0.44391106,-0.24699235,0.54635,0.43222992,-0.24020002,0.533141,0.4219016,-0.2341885,0.521485
0.45763438,-0.35904392,0.603198,0.43485106,-0.30667033,0.580485,0.43031922,-0.3442078,0.595198,0.4175787,-0.32464107,0.577087,0.3839788,-0.29146537,0.552579,0.37668437,-0.27070072,0.542691,0.39232572,-0.25212316,0.554597,0.37089557,-0.20594057,0.527088,0.37016943,-0.18881117,0.527402,0.3694526,-0.17111546,0.527688,0.41815267,-0.25676369,0.557119,0.39528123,-0.20965158,0.52732,0.3830863,-0.18449689,0.511133,0.37711422,-0.18397781,0.49957,0.44069608,-0.26287526,0.561021,0.41592071,-0.22550163,0.531676,0.40322367,-0.20608164,0.516663,0.39576659,-0.20860969,0.503014,0.4701312,-0.27768241,0.569047,0.44073867,-0.2456468,0.541481,0.42830375,-0.2319297,0.528816,0.42061643,-0.23423384,0.517641
0.45781312,-0.36206007,0.605207,0.43225412,-0.31408352,0.577942,0.42978841,-0.34622155,0.595958,0.41580352,-0.33234898,0.575641,0.38227307,-0.30101613,0.551265,0.37358621,-0.28092724,0.539502,0.38732014,-0.25804265,0.547307,0.36298263,-0.21106399,0.516119,0.35931494,-0.19365845,0.512487,0.35594088,-0.17725794,0.509186,0.41313886,-0.26078743,0.549894,0.38722429,-0.21487957,0.516076,0.37233694,-0.19162302,0.496349,0.36257721,-0.18821291,0.482259,0.43598317,-0.26705124,0.554214,0.40789988,-0.23292975,0.521082,0.39351038,-0.21527905,0.504131,0.38406561,-0.2194581,0.488721,0.46624812,-0.28214614,0.563418,0.43455897,-0.25452684,0.532591,0.41992188,-0.24168377,0.518428,0.41240701,-0.24704296,0.505931
0.45674525,-0.36336431,0.605309,0.43079243,-0.31698362,0.574256,0.42791264,-0.34637394,0.594546,0.41562706,-0.33321538,0.573,0.3845603,-0.30584842,0.549032,0.37335371,-0.28257232,0.536117,0.38463792,-0.25990578,0.539081,0.35893623,-0.21393082,0.504864,0.35432416,-0.19718795,0.499123,0.35011214,-0.18146577,0.493903,0.41090123,-0.26282247,0.542312,0.38369323,-0.21974967,0.505237,0.36782065,-0.19466284,0.48361,0.35787754,-0.19472738,0.468162,0.43427725,-0.26924626,0.547468,0.40506758,-0.23784214,0.511047,0.3901205,-0.22166498,0.492413,0.37982274,-0.22679842,0.475473,0.46548318,-0.2845496,0.558229,0.43305216,-0.25993634,0.52468,0.41810289,-0.2485463,0.509265,0.40990834,-0.25463319,0.495664
0.45278046,-0.36272566,0.602019,0.42855705,-0.31744912,0.572151,0.42481064,-0.34590354,0.591862,0.41211042,-0.33931072,0.569402,0.3775268,-0.31077843,0.54626,0.37091618,-0.2943065,0.536997,0.38209204,-0.26357502,0.538561,0.35564421,-0.22123107,0.505304,0.34667723,-0.20384534,0.494561,0.33849307,-0.18774028,0.484796,0.40851406,-0.26678071,0.541425,0.38307772,-0.22475032,0.505397,0.36824573,-0.20014386,0.48438,0.35868398,-0.19815914,0.469369,0.43177161,-0.27330257,0.546184,0.40191546,-0.24476638,0.510765,0.38661787,-0.23003485,0.492644,0.37661379,-0.23657451,0.47617,0.46311773,-0.28596985,0.556297,0.42951686,-0.26764512,0.523629,0.41441605,-0.25808615,0.508693,0.40656412,-0.26539707,0.495515
0.45092515,-0.36344801,0.600901,0.42417562,-0.31704611,0.564645,0.42033397,-0.347624,0.587198,0.41283703,-0.34117717,0.559792,0.3785539,-0.31664933,0.535949,0.36841131,-0.29934485,0.520673,0.37468148,-0.26571741,0.522164,0.34596765,-0.22609799,0.483943,0.33672751,-0.21082754,0.471506,0.3283197,-0.19673091,0.4602,0.40212492,-0.26771611,0.527348,0.37479595,-0.22887973,0.486152,0.35884275,-0.20627098,0.46212,0.34959982,-0.20820892,0.444955,0.42665364,-0.27321699,0.534529,0.39611687,-0.24848819,0.493646,0.38050263,-0.2358211,0.47273,0.37055864,-0.24205181,0.453714,0.45769671,-0.28570456,0.54847,0.42724975,-0.27071118,0.511386,0.41239785,-0.26322714,0.494348,0.40470393,-0.27014219,0.479314
0.44778423,-0.37092339,0.600445,0.42562977,-0.33078639,0.56413,0.41898219,-0.3562156,0.586759,0.41043534,-0.35085993,0.559379,0.37498376,-0.32538569,0.535391,0.36419826,-0.30805377,0.520537,0.37429902,-0.27542651,0.521631,0.34556088,-0.23574497,0.483374,0.33616119,-0.22050245,0.470713,0.3276077,-0.20644799,0.459202,0.40168646,-0.27740756,0.526773,0.37432259,-0.23854782,0.485538,0.35834889,-0.21592687,0.461484,0.34908755,-0.21778008,0.444303,0.42617153,-0.28290856,0.533925,0.39561374,-0.25821782,0.493019,0.3799883,-0.24557381,0.472091,0.37002859,-0.25161398,0.453065,0.45902648,-0.296765,0.547839,0.42670586,-0.28051097,0.510735,0.41184726,-0.27307209,0.493688,0.40413991,-0.27982419,0.478646
0.44708532,-0.37197142,0.599947,0.42352903,-0.329635,0.563193,0.41789097,-0.35576596,0.585987,0.40871945,-0.35017758,0.558389,0.37382293,-0.32500039,0.534457,0.36303654,-0.30772385,0.519444,0.37212512,-0.2738385,0.520043,0.34251129,-0.23587814,0.481479,0.33251491,-0.22078651,0.468725,0.32346407,-0.20710039,0.457131,0.39963677,-0.27605906,0.525383,0.37239447,-0.23730814,0.483845,0.35648948,-0.21475828,0.459615,0.34712478,-0.21665479,0.442307,0.42423036,-0.28177105,0.532733,0.39448929,-0.26016778,0.491483,0.37996175,-0.25357555,0.470379,0.36988408,-0.26083113,0.451193,0.45722659,-0.29590919,0.546949,0.42491164,-0.2798179,0.509591,0.41005682,-0.27245443,0.492427,0.40221694,-0.27921589,0.477282
0.44424796,-0.37697214,0.597156,0.42140787,-0.33757621,0.561187,0.41521327,-0.36595263,0.582733,0.40557014,-0.35575444,0.554593,0.3708536,-0.3292432,0.529815,0.36157595,-0.30843011,0.517091,0.37126338,-0.28062308,0.518014,0.34169313,-0.24399778,0.479709,0.33166026,-0.22901245,0.467242,0.32126436,-0.21189971,0.455909,0.39932456,-0.28395173,0.524185,0.37337449,-0.24508584,0.483167,0.35822261,-0.22245676,0.459239,0.34813738,-0.22052321,0.442148,0.42427839,-0.29058363,0.532154,0.39599535,-0.2716941,0.491126,0.3815426,-0.26204368,0.470135,0.37122733,-0.26910095,0.451052,0.45749223,-0.30584418,0.546988,0.42490576,-0.27894821,0.509849,0.41018685,-0.26299318,0.492786,0.402117,-0.26852895,0.47773
0.44436664,-0.37919747,0.597583,0.42162544,-0.33768611,0.561506,0.41510992,-0.36757264,0.582936,0.40556003,-0.35563925,0.554594,0.37078931,-0.32904049,0.529749,0.3617326,-0.30944463,0.517201,0.37119745,-0.2804423,0.517978,0.34182605,-0.24495731,0.479554,0.33125472,-0.23010673,0.466125,0.32173047,-0.21690835,0.453917,0.39943508,-0.28390463,0.524392,0.37341335,-0.24489566,0.483301,0.35821885,-0.22218788,0.459331,0.34795392,-0.22030959,0.442209,0.42456016,-0.2906587,0.532571,0.39676638,-0.2741527,0.491398,0.38341989,-0.26929091,0.470333,0.37299523,-0.27681206,0.451182,0.45801137,-0.30608957,0.547668,0.42525165,-0.27864205,0.510434,0.41028872,-0.26328979,0.493327,0.40207988,-0.26835411,0.478232
0.45101013,-0.38049927,0.603921,0.42824741,-0.33276477,0.567612,0.42200595,-0.36906682,0.589398,0.40968885,-0.35096875,0.5612,0.37589327,-0.32644486,0.536905,0.36440993,-0.31126025,0.521546,0.36969818,-0.2821491,0.524075,0.34503615,-0.2487772,0.485629,0.33346591,-0.23508206,0.470445,0.32331216,-0.22000192,0.456641,0.40020667,-0.27976692,0.530259,0.37096266,-0.2470424,0.48901,0.35514704,-0.22690654,0.464947,0.35076661,-0.22679431,0.44776,0.42718768,-0.28472759,0.538267,0.40149207,-0.29363532,0.49702,0.38073269,-0.29353843,0.475916,0.37226212,-0.29129465,0.471302,0.46186036,-0.29815068,0.553197,0.42909272,-0.27380382,0.515891,0.41403743,-0.265817,0.49875,0.40591219,-0.27129365,0.483626
0.45354427,-0.38202031,0.605864,0.42881956,-0.33658701,0.568877,0.4247213,-0.37061484,0.5916,0.41075288,-0.3521461,0.563739,0.37878334,-0.32865799,0.539705,0.3668344,-0.31276609,0.523992,0.37005762,-0.28306873,0.525186,0.34433229,-0.25062073,0.486449,0.33347096,-0.23637445,0.471374,0.32364172,-0.22353221,0.45767,0.39806179,-0.28215342,0.530828,0.37065885,-0.24766299,0.489132,0.35503563,-0.22944476,0.46481,0.34568721,-0.23564859,0.447437,0.42522155,-0.28488556,0.538444,0.40097894,-0.29401679,0.496953,0.38013216,-0.29370706,0.475725,0.37132863,-0.29108887,0.47068,0.46115106,-0.29761035,0.55301,0.42891715,-0.28145971,0.515486,0.41382869,-0.27546384,0.498246,0.40600976,-0.28249634,0.483034
0.45467667,-0.38334626,0.605772,0.42935206,-0.33523399,0.568654,0.42557932,-0.37072581,0.591598,0.41039006,-0.35193647,0.563845,0.3795183,-0.32902077,0.539889,0.36813875,-0.31340222,0.523952,0.3700115,-0.2829427,0.524984,0.34442366,-0.24999739,0.486205,0.33328394,-0.2366171,0.471235,0.32362379,-0.22391941,0.457626,0.39791835,-0.28203604,0.530471,0.37052416,-0.24759254,0.488692,0.3550093,-0.2300424,0.464322,0.34572657,-0.23536833,0.446914,0.42558907,-0.28486639,0.53797,0.4008347,-0.29291283,0.496451,0.38004697,-0.29319839,0.475209,0.37120338,-0.29112867,0.470098,0.46050543,-0.29711363,0.552417,0.4281785,-0.28122214,0.514864,0.41296873,-0.27509451,0.49761,0.40509428,-0.2821826,0.482386
0.45472296,-0.38371908,0.604492,0.42869392,-0.33555661,0.567778,0.4254244,-0.37008641,0.590439,0.40936288,-0.35114554,0.562745,0.37915123,-0.32856103,0.538643,0.36822387,-0.31299809,0.522994,0.37193714,-0.2832405,0.524541,0.3441706,-0.24961241,0.485988,0.33333614,-0.23496049,0.471019,0.3235296,-0.22174061,0.457411,0.39787946,-0.28203834,0.530009,0.37052906,-0.24640323,0.488495,0.35504939,-0.22514115,0.464279,0.34936815,-0.22471203,0.446981,0.42508612,-0.28484066,0.537461,0.40098763,-0.29272793,0.496193,0.38041011,-0.29376323,0.475079,0.3719539,-0.29303358,0.470389,0.46003785,-0.29683097,0.551791,0.42782352,-0.28128834,0.514426,0.41273556,-0.27527179,0.497259,0.4048723,-0.28246637,0.482111
0.45650522,-0.38519232,0.605154,0.42875789,-0.33554503,0.567847,0.4262604,-0.37061855,0.591125,0.40883144,-0.3513893,0.563543,0.37936247,-0.33074933,0.539535,0.36956338,-0.31419104,0.524457,0.36943047,-0.28304296,0.524224,0.34331651,-0.2493583,0.48539,0.33316463,-0.23510114,0.471335,0.32397485,-0.22219725,0.458559,0.39715984,-0.28209063,0.529468,0.36940495,-0.24557734,0.487572,0.3538402,-0.22763009,0.463133,0.34432013,-0.23004296,0.445676,0.42339315,-0.28480872,0.536784,0.4000144,-0.29233909,0.495232,0.38005931,-0.29509377,0.473973,0.37230764,-0.30083571,0.46877,0.45909061,-0.29650686,0.551041,0.42663598,-0.2814884,0.513451,0.41149617,-0.27512746,0.49618,0.40354981,-0.28228667,0.480941
0.45674008,-0.38569272,0.604381,0.42813311,-0.3350069,0.567007,0.42610716,-0.37126005,0.590093,0.40941474,-0.35221861,0.564747,0.38034661,-0.33164111,0.540801,0.37050653,-0.31503512,0.525453,0.36836366,-0.28262072,0.523014,0.34216197,-0.24879333,0.484213,0.33299484,-0.23517767,0.471514,0.32469599,-0.22280586,0.45997,0.39626997,-0.28183346,0.52856,0.36839922,-0.24485657,0.486617,0.3528363,-0.22698416,0.462151,0.34331095,-0.22954962,0.444675,0.42260952,-0.28468561,0.536128,0.3993478,-0.29144609,0.494439,0.38021557,-0.29605551,0.473109,0.37277649,-0.30493086,0.467701,0.45856082,-0.29638023,0.550695,0.42603523,-0.28150586,0.513019,0.41085905,-0.27518944,0.495708,0.40288159,-0.28235039,0.480434
0.45644445,-0.38454751,0.602911,0.42818149,-0.3330598,0.566144,0.42569863,-0.37047122,0.58869,0.4088134,-0.35164935,0.564102,0.38051029,-0.33021227,0.539768,0.36858877,-0.31335552,0.522925,0.36810425,-0.28233422,0.522663,0.34192774,-0.24273669,0.484316,0.3328247,-0.225395,0.473093,0.32574813,-0.21415153,0.462891,0.39607981,-0.28160471,0.528322,0.36853721,-0.24448225,0.48677,0.35298953,-0.22512243,0.462532,0.34550381,-0.22866152,0.445219,0.42236831,-0.28452069,0.535935,0.40002945,-0.2901779,0.494572,0.38096143,-0.29584248,0.47341,0.37369592,-0.30324289,0.468582,0.45788331,-0.29583344,0.550464,0.42595879,-0.27608247,0.513038,0.41070928,-0.26453288,0.495843,0.40246648,-0.26979455,0.48067
0.44892751,-0.37772112,0.591647,0.42164743,-0.32444608,0.558544,0.41868388,-0.36397603,0.578008,0.4083676,-0.33660123,0.559281,0.38986466,-0.30874479,0.535726,0.38281185,-0.28676723,0.520345,0.3638237,-0.26038276,0.518358,0.34073008,-0.22791285,0.482451,0.33207785,-0.21365548,0.46853,0.32431446,-0.20098482,0.455876,0.39203989,-0.26141575,0.52449,0.36401414,-0.21621163,0.485571,0.35223779,-0.22185144,0.462869,0.3428608,-0.23106435,0.446653,0.41773597,-0.26648876,0.532198,0.37856361,-0.22118524,0.493142,0.36932461,-0.22394701,0.47316,0.37384688,-0.23446907,0.471377,0.45301721,-0.28061736,0.546292,0.42295985,-0.26958051,0.510725,0.4094543,-0.26327724,0.494383,0.40220611,-0.26929473,0.479965
0.45155163,-0.37464975,0.591614,0.4276115,-0.31099557,0.563287,0.42118544,-0.35838623,0.580026,0.40784746,-0.32777286,0.558906,0.3900169,-0.30758141,0.537249,0.37637747,-0.28581445,0.526493,0.37341417,-0.25427012,0.529002,0.35118252,-0.22432154,0.496638,0.34640089,-0.21309179,0.489396,0.34207027,-0.20251062,0.482813,0.40142032,-0.25461266,0.534146,0.3815094,-0.23732393,0.499162,0.36979488,-0.24749308,0.478755,0.35936751,-0.25703332,0.46514,0.4267056,-0.25890676,0.540657,0.40093901,-0.24427965,0.505612,0.39320105,-0.25021974,0.487682,0.40238954,-0.26983964,0.489609,0.46097752,-0.27169425,0.552617,0.43196778,-0.27570663,0.520321,0.42050612,-0.27922718,0.505482,0.41019099,-0.28896211,0.49239
0.45330801,-0.35390777,0.589849,0.4280561,-0.29090978,0.563043,0.42441752,-0.3298151,0.578418,0.40654233,-0.3063273,0.557283,0.38745421,-0.28344952,0.535216,0.37412477,-0.26302759,0.522858,0.37220816,-0.23591744,0.530022,0.35153207,-0.19634146,0.499204,0.3518621,-0.18198234,0.498917,0.35219337,-0.16807114,0.498655,0.40015919,-0.23508159,0.535468,0.37848043,-0.22149928,0.501762,0.36887318,-0.2303787,0.4821,0.37320689,-0.24901515,0.484797,0.4255422,-0.23833308,0.542104,0.40310686,-0.22589059,0.508165,0.39563295,-0.22998825,0.490801,0.4056663,-0.25070545,0.493568,0.46020031,-0.24977027,0.553985,0.43860267,-0.24887361,0.522649,0.42873865,-0.24863709,0.508252,0.40924137,-0.25741683,0.495548
0.45260343,-0.35063414,0.590259,0.42733371,-0.29110672,0.564678,0.42233133,-0.32941288,0.578443,0.40506128,-0.30492407,0.55678,0.38625657,-0.28102894,0.533895,0.3734494,-0.26045463,0.521675,0.37233793,-0.2359826,0.532039,0.35326538,-0.19605303,0.502059,0.35357325,-0.18102632,0.501008,0.35391197,-0.16654918,0.500053,0.40081243,-0.23555251,0.538362,0.38313665,-0.21328047,0.505662,0.37497512,-0.21875899,0.486587,0.37927055,-0.23891069,0.489756,0.42652197,-0.23911726,0.545622,0.4068514,-0.22774471,0.512352,0.40057562,-0.23233131,0.49533,0.410788,-0.25319524,0.49852,0.46135644,-0.25088706,0.558059,0.43955907,-0.25114632,0.527357,0.42959274,-0.25145543,0.513251,0.41022006,-0.26041474,0.500966
0.45093337,-0.34821603,0.588907,0.42676394,-0.29036904,0.564271,0.42083222,-0.32832997,0.577595,0.40310159,-0.3034264,0.555479,0.3839828,-0.27922381,0.53229,0.37137205,-0.25854922,0.520101,0.37295629,-0.23370556,0.532922,0.35539961,-0.19298195,0.503938,0.35796405,-0.17492877,0.504017,0.35844484,-0.16285425,0.504089,0.40172975,-0.23482508,0.538928,0.38431703,-0.21191663,0.507075,0.37529097,-0.21727473,0.488495,0.37946417,-0.23789323,0.492239,0.42721631,-0.2387095,0.54585,0.40783366,-0.22737185,0.51348,0.40153473,-0.23213288,0.496919,0.41191386,-0.25356792,0.500761,0.46157193,-0.25086197,0.557746,0.4397455,-0.25035609,0.527791,0.42798042,-0.24982458,0.514173,0.41038372,-0.25926786,0.502157
0.44882793,-0.34799895,0.588507,0.42698735,-0.29265187,0.566423,0.41863866,-0.32901444,0.577358,0.40460232,-0.30834727,0.556154,0.37083388,-0.28211056,0.532013,0.35489283,-0.26323232,0.525193,0.37533122,-0.23850897,0.53707,0.35757955,-0.19254402,0.50902,0.35395378,-0.17426542,0.506877,0.35297067,-0.15736263,0.504928,0.40429307,-0.23902816,0.543705,0.38819625,-0.21099216,0.514089,0.37708711,-0.21265113,0.496813,0.38301039,-0.23708718,0.501697,0.43072962,-0.24461916,0.550941,0.41451588,-0.22875976,0.520481,0.40040263,-0.24162676,0.504896,0.39861028,-0.25490819,0.509904,0.46287214,-0.26127487,0.562826,0.43574356,-0.27180208,0.534562,0.42339151,-0.28019473,0.521576,0.4245195,-0.29466304,0.524813
0.45107552,-0.35067119,0.592921,0.42494376,-0.29317377,0.566551,0.41967502,-0.33125435,0.580441,0.40495578,-0.30697843,0.557957,0.37084849,-0.27953979,0.532074,0.35329756,-0.25828606,0.521192,0.37149732,-0.23467035,0.532535,0.34891978,-0.18786252,0.501038,0.34923955,-0.16854564,0.501766,0.35070744,-0.15429805,0.502429,0.40036908,-0.23606448,0.539425,0.37984546,-0.20484707,0.506013,0.36878289,-0.20723485,0.486522,0.37112886,-0.22700757,0.489119,0.42533925,-0.24221003,0.547214,0.40843492,-0.21299688,0.513094,0.3923831,-0.22653401,0.495637,0.38923315,-0.24532314,0.498151,0.4597597,-0.25853189,0.560398,0.43020251,-0.26053621,0.529015,0.41667981,-0.26987666,0.514595,0.41675211,-0.28695315,0.515866
0.44794378,-0.34891612,0.589834,0.42299904,-0.29261644,0.564914,0.41716746,-0.33032824,0.578142,0.40426481,-0.30660446,0.557215,0.37092185,-0.27604878,0.531951,0.35407858,-0.25374461,0.519843,0.37018058,-0.23561423,0.532895,0.34798435,-0.18692211,0.502667,0.34832546,-0.16905649,0.502979,0.34973161,-0.15385791,0.503263,0.39861079,-0.23684564,0.539279,0.37617823,-0.19771434,0.507155,0.36550712,-0.19617935,0.488415,0.36928531,-0.21573219,0.491924,0.42408389,-0.24183987,0.546536,0.40656706,-0.20675585,0.513789,0.39205658,-0.21973299,0.497035,0.39059444,-0.24021629,0.500585,0.4577814,-0.25708182,0.558871,0.42889381,-0.26018995,0.528621,0.41609552,-0.26983859,0.514723,0.41702907,-0.28652781,0.516799
0.44968137,-0.35132896,0.593716,0.42110725,-0.2949196,0.566706,0.41686247,-0.3313016,0.579485,0.40255816,-0.30427181,0.557298,0.36869063,-0.2698431,0.532308,0.35263136,-0.25061986,0.518411,0.36584826,-0.23299604,0.530066,0.36219934,-0.19143116,0.527467,0.36171125,-0.17134105,0.526168,0.36145986,-0.15318433,0.524986,0.39585509,-0.23588718,0.538921,0.37423762,-0.19726078,0.504925,0.36286689,-0.19589108,0.485095,0.36487845,-0.21455092,0.486722,0.4229068,-0.24237305,0.548379,0.40521762,-0.20459742,0.51309,0.38964753,-0.21634099,0.495035,0.38582639,-0.23350203,0.496301,0.45948013,-0.2580912,0.563636,0.42887271,-0.25945352,0.531426,0.41641655,-0.26984645,0.516627,0.41538837,-0.28412432,0.516965
0.446132,-0.34930807,0.590095,0.42002898,-0.29442119,0.566128,0.41506173,-0.3307211,0.578185,0.40061038,-0.30332665,0.558706,0.36532266,-0.268885,0.535553,0.3524222,-0.24642584,0.522815,0.3679476,-0.2343948,0.534505,0.36857676,-0.19640256,0.539989,0.36973035,-0.17690825,0.54273,0.3707476,-0.1587639,0.545223,0.39697676,-0.23680371,0.541472,0.37141167,-0.19755942,0.510156,0.35796998,-0.19575057,0.491889,0.36091308,-0.21516812,0.495749,0.42274089,-0.24252092,0.549132,0.40214608,-0.19655174,0.516963,0.38710447,-0.2052177,0.500505,0.38655302,-0.2260355,0.504375,0.45734194,-0.25710486,0.561801,0.42247919,-0.25471366,0.532093,0.41342063,-0.26761417,0.518443,0.41612281,-0.28494493,0.520787
0.44752024,-0.34999346,0.591809,0.42326036,-0.29378142,0.567794,0.41663379,-0.33171549,0.580284,0.40499025,-0.29951336,0.562112,0.36937958,-0.26846301,0.53887,0.35469857,-0.24619361,0.526091,0.36854852,-0.23418199,0.536616,0.3704809,-0.19702749,0.543213,0.37138361,-0.17778265,0.546511,0.37215812,-0.15985799,0.54951,0.39669295,-0.23588948,0.543089,0.37246685,-0.19780124,0.511756,0.35917571,-0.19668837,0.493479,0.36276613,-0.21624184,0.497437,0.422155,-0.2411547,0.550345,0.4025059,-0.19629687,0.518318,0.3878109,-0.20578235,0.501931,0.38807278,-0.22644535,0.505957,0.46037406,-0.25160645,0.562545,0.42640997,-0.2419072,0.532918,0.41603694,-0.25509237,0.519306,0.41855192,-0.27305733,0.521761
0.44682506,-0.34818109,0.591519,0.4238545,-0.29339988,0.56748,0.41680602,-0.33179313,0.580451,0.40654055,-0.30029274,0.564275,0.3733966,-0.26731825,0.542187,0.35696033,-0.24551199,0.530546,0.3690061,-0.2344258,0.536854,0.37040944,-0.19727056,0.543295,0.37098422,-0.17804943,0.546515,0.3714216,-0.16016809,0.549442,0.39743159,-0.23602829,0.542752,0.37203401,-0.1979675,0.511434,0.35859786,-0.19585395,0.493166,0.36237018,-0.21496018,0.497243,0.42281595,-0.24127851,0.549537,0.40167957,-0.19620719,0.517706,0.38711087,-0.20598831,0.50142,0.38778537,-0.22663563,0.505633,0.45725502,-0.25394067,0.561181,0.42521099,-0.24203388,0.53168,0.4149182,-0.25520585,0.518126,0.41756804,-0.27322309,0.520715
0.44694192,-0.34954196,0.59341,0.4223399,-0.2944134,0.568991,0.41719386,-0.33313615,0.582851,0.40220118,-0.2997169,0.56791,0.36894706,-0.26744611,0.547703,0.35423025,-0.24535606,0.538561,0.36955334,-0.23510352,0.53873,0.36478217,-0.19825892,0.545371,0.36302895,-0.17955466,0.548691,0.36126765,-0.16206268,0.55171,0.39684233,-0.23578206,0.543871,0.37150105,-0.19841185,0.512273,0.35782916,-0.19581494,0.493841,0.36163471,-0.2146914,0.497878,0.42152936,-0.24024436,0.550065,0.40019987,-0.19554314,0.518209,0.38638578,-0.20562377,0.501911,0.38723403,-0.22636892,0.506156,0.45533734,-0.25240859,0.561063,0.42374166,-0.24104811,0.531487,0.41337768,-0.25431901,0.517898,0.41596762,-0.27245853,0.520496
0.44588831,-0.34970289,0.593121,0.421943,-0.2940556,0.568836,0.41611933,-0.3330633,0.582626,0.40236407,-0.29983828,0.56814,0.36917272,-0.26760969,0.548038,0.35450715,-0.24554785,0.538982,0.3691211,-0.23502664,0.538748,0.36481026,-0.19827419,0.545413,0.36306534,-0.17957266,0.548746,0.36131086,-0.16208207,0.551776,0.39642121,-0.23560936,0.543854,0.3708918,-0.19852426,0.512378,0.3572012,-0.19570052,0.494017,0.36109678,-0.21447308,0.498129,0.42107217,-0.23998327,0.550009,0.39958089,-0.19529927,0.518279,0.3858272,-0.20533932,0.502045,0.38682957,-0.22616585,0.506374,0.4547582,-0.25213969,0.560941,0.42307038,-0.24059127,0.53147,0.41272216,-0.25394621,0.517929,0.41533122,-0.27218394,0.520594
