sluyters/QuantumLeap/backend/src/datasets/dynamic/HandGestureDataset_SHREC2017_csv/Gesture2/finger_1/subject_10_essai_3_skeletons_world.csv
Wrist_x,Wrist_y,Wrist_z,Palm_x,Palm_y,Palm_z,thumb_base_x,thumb_base_y,thumb_base_z,thumb_first_joint_x,thumb_first_joint_y,thumb_first_joint_z,thumb_second_joint_x,thumb_second_joint_y,thumb_second_joint_z,thumb_tip_x,thumb_tip_y,thumb_tip_z,index_base_x,index_base_y,index_base_z,index_first_joint_x,index_first_joint_y,index_first_joint_z,index_second_joint_x,index_second_joint_y,index_second_joint_z,index_tip_x,index_tip_y,index_tip_z,middle_base_x,middle_base_y,middle_base_z,middle_first_joint_x,middle_first_joint_y,middle_first_joint_z,middle_second_joint_x,middle_second_joint_y,middle_second_joint_z,middle_tip_x,middle_tip_y,middle_tip_z,ring_base_x,ring_base_y,ring_base_z,ring_first_joint_x,ring_first_joint_y,ring_first_joint_z,ring_second_joint_x,ring_second_joint_y,ring_second_joint_z,ring_tip_x,ring_tip_y,ring_tip_z,pinky_base_x,pinky_base_y,pinky_base_z,pinky_first_joint_x,pinky_first_joint_y,pinky_first_joint_z,pinky_second_joint_x,pinky_second_joint_y,pinky_second_joint_z,pinky_tip_x,pinky_tip_y,pinky_tip_z,r
0.42418988,-0.3641647,0.467064,0.41495092,-0.30752955,0.456559,0.39911663,-0.34340972,0.460846,0.37740298,-0.30213607,0.44147,0.34696481,-0.26589126,0.419638,0.33160474,-0.24086948,0.410053,0.38160718,-0.24954217,0.4414,0.37482184,-0.20428768,0.423975,0.37204742,-0.18302651,0.415262,0.3699058,-0.1644853,0.407342,0.4080786,-0.25405438,0.445601,0.40566152,-0.22991668,0.426941,0.40200072,-0.24353124,0.416056,0.40973943,-0.26802384,0.426301,0.43068736,-0.26148178,0.449882,0.42742743,-0.25545626,0.431476,0.4109418,-0.27002999,0.422059,0.41191638,-0.28657146,0.432539,0.45925245,-0.27741661,0.45651,0.44781902,-0.25221416,0.439328,0.44693478,-0.26081232,0.431433,0.45628514,-0.27824275,0.43876
0.42571655,-0.36350242,0.468342,0.41643018,-0.30689163,0.457037,0.40082283,-0.3429502,0.462148,0.37878539,-0.30289999,0.442655,0.34701246,-0.2663694,0.421098,0.33179715,-0.24140056,0.411658,0.38235639,-0.24935113,0.441337,0.37533016,-0.20386363,0.423266,0.37242017,-0.18253078,0.41423,0.37014514,-0.16395065,0.406016,0.40856015,-0.25386152,0.445244,0.40561535,-0.22960964,0.425837,0.40134588,-0.24306578,0.414517,0.40867756,-0.26731434,0.424513,0.43095614,-0.26132114,0.449346,0.42711926,-0.25523112,0.430357,0.41013436,-0.26949663,0.420642,0.41080459,-0.28572517,0.430897,0.45930537,-0.27735595,0.455878,0.44667032,-0.25526571,0.438181,0.44522745,-0.2641126,0.430049,0.45394053,-0.28323672,0.437193
0.42565468,-0.35754028,0.466937,0.41944034,-0.30283025,0.457141,0.40204016,-0.33847517,0.462043,0.38206848,-0.29749216,0.444433,0.34801817,-0.26399551,0.422476,0.33269545,-0.23989069,0.412265,0.38576524,-0.24827578,0.444122,0.37760764,-0.20075559,0.42765,0.37392409,-0.17944802,0.419414,0.37246109,-0.16353744,0.411927,0.4115875,-0.24876274,0.446923,0.40638719,-0.22344776,0.429115,0.40273351,-0.23669047,0.418728,0.41237042,-0.26570301,0.429413,0.43360556,-0.25483746,0.449995,0.42961255,-0.24480694,0.432787,0.41511015,-0.26045621,0.423983,0.41807612,-0.27922796,0.435045,0.46165845,-0.26904586,0.455084,0.44888842,-0.25286732,0.438829,0.44817801,-0.26250397,0.43136,0.45787698,-0.27940877,0.439112
0.42995258,-0.35653485,0.471779,0.42256377,-0.29773427,0.460223,0.40784278,-0.33765362,0.467186,0.37931584,-0.2922069,0.449658,0.3516418,-0.25717119,0.430655,0.33876361,-0.23211858,0.421115,0.38580587,-0.24105082,0.446325,0.37784045,-0.19584102,0.428712,0.37378489,-0.17370212,0.419905,0.38541456,-0.16022651,0.429007,0.41169247,-0.24688046,0.448169,0.40468609,-0.22320944,0.428777,0.3999315,-0.23607502,0.417465,0.40879728,-0.26043766,0.427605,0.4330663,-0.25294054,0.450591,0.42287427,-0.24856139,0.43225,0.40760243,-0.263505,0.422866,0.41335239,-0.2788106,0.433465,0.46040214,-0.26726241,0.455167,0.44528369,-0.24888658,0.437888,0.44566042,-0.25884918,0.429949,0.45552764,-0.27477877,0.43732
0.43204727,-0.35333502,0.473087,0.42051566,-0.29423312,0.460903,0.4079685,-0.33612983,0.468081,0.37788426,-0.29226672,0.449925,0.34825507,-0.25721894,0.429166,0.33385472,-0.23206326,0.41886,0.38570496,-0.23955833,0.446047,0.37742322,-0.19402325,0.427783,0.37318908,-0.17175311,0.418651,0.38502952,-0.15827333,0.427852,0.41064007,-0.24317419,0.448193,0.40511286,-0.2150266,0.428152,0.4006859,-0.22827861,0.416461,0.40809786,-0.2572375,0.426339,0.43198682,-0.24988866,0.450914,0.42531985,-0.24674997,0.431895,0.41020348,-0.26145125,0.422165,0.41209675,-0.28218019,0.432468,0.45911632,-0.26501861,0.455936,0.44656219,-0.24881503,0.4381,0.44502063,-0.25698702,0.429905,0.45564444,-0.27396421,0.437051
0.43298169,-0.35310806,0.475876,0.41892271,-0.2918118,0.459766,0.40524328,-0.32708298,0.469397,0.37112316,-0.2869783,0.448786,0.34188084,-0.25486626,0.426261,0.32989231,-0.22998713,0.41583,0.38422291,-0.22950146,0.440295,0.37158005,-0.18529742,0.418599,0.36523671,-0.16331493,0.407752,0.37110584,-0.14805425,0.410787,0.40779828,-0.23736631,0.44296,0.40174126,-0.19730855,0.419098,0.38705227,-0.21008476,0.405179,0.38898425,-0.23101751,0.41345,0.43175452,-0.24437715,0.446416,0.41987261,-0.23856321,0.423799,0.39956234,-0.25042436,0.412227,0.39859796,-0.26825856,0.420843,0.4581029,-0.26331043,0.452889,0.44174875,-0.24852454,0.432039,0.43714357,-0.25950594,0.422458,0.44574302,-0.27179309,0.428304
0.43023405,-0.34659422,0.475959,0.41856791,-0.29139373,0.459877,0.40480302,-0.32603836,0.470759,0.37048805,-0.28898185,0.451788,0.33716992,-0.26033605,0.433395,0.32185437,-0.23642304,0.422098,0.3868697,-0.23146574,0.442008,0.37634487,-0.19370045,0.420839,0.37553667,-0.17619491,0.415727,0.37525659,-0.15977516,0.411406,0.41131162,-0.23736068,0.4431,0.40217637,-0.21031307,0.419486,0.38333192,-0.22703062,0.405712,0.38501413,-0.24574666,0.414129,0.43354158,-0.24850027,0.44526,0.41432645,-0.25277624,0.423293,0.42103211,-0.28411938,0.441821,0.43457449,-0.29896935,0.46038,0.4579694,-0.26386609,0.450189,0.436226,-0.26353062,0.429845,0.42854322,-0.27462412,0.420498,0.43928463,-0.28799746,0.426547
0.4283729,-0.34466197,0.479444,0.41564932,-0.28770148,0.45916,0.40003054,-0.32102385,0.469163,0.35822689,-0.2818045,0.445964,0.3253031,-0.25108658,0.424238,0.3118869,-0.22882878,0.4129,0.37939269,-0.22543306,0.43202,0.36584693,-0.19318139,0.405647,0.36223593,-0.17819165,0.395725,0.35932866,-0.1642537,0.386891,0.40767431,-0.23518239,0.438002,0.399076,-0.21836112,0.409977,0.37995996,-0.23476977,0.393629,0.38069875,-0.24795296,0.399565,0.43193075,-0.24643788,0.444513,0.410785,-0.25545967,0.417079,0.41792745,-0.28643013,0.433606,0.42411201,-0.30605862,0.45152,0.46213879,-0.26624865,0.455229,0.45164051,-0.25315495,0.430548,0.43253894,-0.26135688,0.419209,0.4271125,-0.26804297,0.423021
0.43280421,-0.35029747,0.48633,0.41930315,-0.29472843,0.461719,0.40380059,-0.32647159,0.4733,0.35760434,-0.29196232,0.446109,0.32441433,-0.26040046,0.42381,0.3123582,-0.2340485,0.413378,0.37659393,-0.23252001,0.428102,0.35701067,-0.21521613,0.397539,0.37266015,-0.24266205,0.410888,0.38747372,-0.26657829,0.428281,0.40617893,-0.24274669,0.436046,0.39266786,-0.22552314,0.403961,0.37167349,-0.23958753,0.385244,0.36912309,-0.25380026,0.388519,0.43163995,-0.25538536,0.444512,0.40747684,-0.26162853,0.412893,0.41276953,-0.29141232,0.427125,0.41846596,-0.31056583,0.445578,0.4638442,-0.27849697,0.458184,0.45132807,-0.2632574,0.430173,0.42982571,-0.27011898,0.417303,0.42603599,-0.27891173,0.418941
0.43319652,-0.35638969,0.483807,0.41878842,-0.30724096,0.46017,0.4044828,-0.33625693,0.470766,0.35616225,-0.30110669,0.44431,0.32307016,-0.26957415,0.422054,0.30632109,-0.24434907,0.409184,0.37582948,-0.24197797,0.427233,0.35653021,-0.2250812,0.397004,0.37238987,-0.2531398,0.41059,0.38717064,-0.27714509,0.427946,0.40568336,-0.2524904,0.435514,0.39298183,-0.23605108,0.404284,0.37246654,-0.25016882,0.386066,0.36828011,-0.26342217,0.389749,0.43131854,-0.2653442,0.444181,0.40780645,-0.27209359,0.413227,0.41335226,-0.30248028,0.427728,0.41888106,-0.32157625,0.44602,0.46360633,-0.28866657,0.457949,0.45168584,-0.27398755,0.430514,0.43044886,-0.28073579,0.417908,0.42695937,-0.28455163,0.419849
0.43612007,-0.36180541,0.485782,0.41755054,-0.30952542,0.460504,0.40580929,-0.34314787,0.471381,0.3555795,-0.30843058,0.442863,0.32104328,-0.27748879,0.41968,0.30316674,-0.25306369,0.40632,0.37026257,-0.24801849,0.424718,0.35618609,-0.23181725,0.393497,0.3770883,-0.253199,0.405946,0.39722208,-0.28292521,0.423239,0.40248539,-0.25357608,0.434136,0.39213382,-0.24488667,0.401459,0.37348979,-0.25841071,0.382396,0.36718123,-0.27026736,0.384817,0.42897753,-0.26552676,0.443867,0.4173387,-0.26046217,0.412961,0.43152437,-0.2886817,0.42631,0.44079268,-0.3018806,0.444123,0.46290264,-0.28796344,0.459141,0.44433859,-0.28251561,0.430447,0.43179681,-0.28146355,0.417264,0.42429539,-0.29387535,0.41816
0.43664763,-0.36401108,0.488371,0.41452356,-0.3116503,0.459348,0.3998624,-0.34692198,0.471667,0.35523039,-0.30964158,0.442287,0.32014467,-0.27833153,0.418621,0.30204959,-0.25374892,0.404878,0.36433229,-0.24991249,0.418049,0.35608043,-0.24833899,0.387205,0.36893189,-0.2717824,0.397021,0.38163607,-0.2910783,0.413114,0.39569142,-0.25437291,0.429072,0.38596251,-0.25081893,0.393319,0.36798053,-0.26204842,0.372464,0.3623831,-0.27273319,0.371921,0.42322449,-0.26486156,0.440417,0.40723092,-0.24109713,0.404867,0.42518102,-0.26872194,0.415137,0.44093332,-0.29434206,0.433595,0.45924556,-0.28577761,0.458159,0.44313169,-0.28105424,0.426992,0.43006193,-0.28222773,0.412672,0.42043115,-0.29257569,0.411183
0.43288095,-0.36433993,0.487126,0.41397689,-0.31206264,0.458649,0.39939278,-0.3474466,0.470483,0.3547576,-0.3092661,0.441364,0.32000326,-0.27788459,0.417938,0.30224012,-0.25336784,0.40442,0.36427276,-0.24977181,0.417816,0.35617283,-0.24821386,0.387023,0.36921059,-0.27180607,0.397071,0.38193033,-0.29115438,0.413236,0.39557418,-0.25493136,0.428945,0.38651097,-0.25101018,0.393646,0.36828301,-0.26227015,0.373055,0.36249476,-0.27238518,0.372819,0.42304735,-0.26515216,0.440333,0.40743068,-0.24108774,0.404878,0.42564282,-0.26886496,0.415398,0.44141141,-0.29453075,0.433917,0.45886875,-0.28565088,0.458046,0.44419117,-0.28143343,0.427189,0.43083865,-0.28333373,0.413012,0.42444634,-0.29659135,0.411756
0.43079195,-0.36601724,0.486496,0.41410538,-0.3123735,0.458288,0.39962196,-0.34789161,0.470047,0.35530176,-0.30913451,0.441278,0.32070485,-0.27753295,0.417844,0.30312695,-0.2529415,0.404128,0.36534549,-0.24973362,0.417885,0.35806852,-0.24887835,0.388043,0.37124734,-0.2727487,0.398383,0.38362374,-0.29194519,0.414289,0.39621838,-0.25525837,0.428863,0.3875881,-0.25126871,0.39377,0.36907594,-0.26256513,0.3733,0.3632589,-0.2725733,0.373314,0.42426708,-0.26484918,0.440106,0.41327221,-0.24763459,0.406008,0.43004398,-0.275924,0.416858,0.44286007,-0.29663232,0.434961,0.45981384,-0.28617972,0.457607,0.44635147,-0.28219354,0.426919,0.43151426,-0.28550838,0.41282,0.42382244,-0.29691254,0.411765
0.42824838,-0.36746909,0.484962,0.41348711,-0.31207039,0.45716,0.39891323,-0.34748478,0.468677,0.35503476,-0.30860075,0.44041,0.32066968,-0.27700068,0.417118,0.30327705,-0.25243595,0.403364,0.36546384,-0.24944262,0.417248,0.35897717,-0.24928829,0.388302,0.37204432,-0.27309984,0.398939,0.38369651,-0.29130707,0.414611,0.39644794,-0.25598981,0.428159,0.38783229,-0.25211392,0.393396,0.36840213,-0.26290373,0.373118,0.36220887,-0.27150416,0.373423,0.42385502,-0.2647011,0.439315,0.41339794,-0.24783324,0.405592,0.43043511,-0.27637443,0.416729,0.44312122,-0.29746337,0.434796,0.45913859,-0.28569636,0.456653,0.44628423,-0.28215951,0.426213,0.43096587,-0.28566921,0.412227,0.42279572,-0.29701495,0.411401
0.42803028,-0.36767957,0.484252,0.41317389,-0.31304901,0.455994,0.39867757,-0.34763743,0.46797,0.35500377,-0.30862014,0.439942,0.32076404,-0.27701101,0.416705,0.30333045,-0.25232475,0.40306,0.36472515,-0.24898271,0.415763,0.36150423,-0.25149553,0.388732,0.37284121,-0.27431658,0.399337,0.383623,-0.29175908,0.41424,0.39553194,-0.25548294,0.426518,0.38814135,-0.25534646,0.391368,0.36602002,-0.26206416,0.370864,0.35924618,-0.26944798,0.370955,0.42243751,-0.26513086,0.437582,0.41189684,-0.24657179,0.403881,0.42941319,-0.27502333,0.414876,0.44237179,-0.29726229,0.432877,0.45769773,-0.28493232,0.454877,0.44475508,-0.28155347,0.424179,0.4286828,-0.28505333,0.410075,0.41967098,-0.2959476,0.409091
0.42639153,-0.36684921,0.482716,0.41199729,-0.31134201,0.455031,0.39695607,-0.34638163,0.4662,0.35380114,-0.30742834,0.438074,0.32009718,-0.27453831,0.415879,0.30309748,-0.24887306,0.404211,0.36633134,-0.24807859,0.414916,0.36126676,-0.25184952,0.386774,0.37131997,-0.27340981,0.397303,0.38202865,-0.29070938,0.412615,0.3959243,-0.25516152,0.426151,0.38904541,-0.25587483,0.391512,0.36630475,-0.26290281,0.371305,0.3591955,-0.26973282,0.371523,0.42302315,-0.26527546,0.437566,0.41288295,-0.24705655,0.403743,0.43005027,-0.27564986,0.414714,0.44419073,-0.30063076,0.432755,0.4582143,-0.28545427,0.455192,0.44590121,-0.28239172,0.424795,0.42954935,-0.28611853,0.410829,0.42014258,-0.29692399,0.40992
0.42290263,-0.36421029,0.478962,0.41018607,-0.3105247,0.452499,0.39376944,-0.34361875,0.462563,0.35219064,-0.30385512,0.435414,0.31822418,-0.2681868,0.415427,0.30197163,-0.24329577,0.404618,0.36839787,-0.24433932,0.4134,0.36193704,-0.25147448,0.386436,0.37193126,-0.27365447,0.397452,0.38202687,-0.29051746,0.412493,0.3970343,-0.25433909,0.424895,0.38925841,-0.25177689,0.3913,0.36707951,-0.26159493,0.371702,0.35712536,-0.26369917,0.372543,0.42316895,-0.26477477,0.436427,0.41345392,-0.24689099,0.403289,0.43057095,-0.27585382,0.414749,0.44291963,-0.2984822,0.432708,0.457331,-0.28493762,0.454014,0.4459808,-0.28231175,0.424336,0.42966589,-0.28631177,0.410701,0.42040671,-0.2973254,0.410265
0.42261527,-0.36529293,0.478201,0.40977611,-0.30930125,0.452209,0.39300845,-0.34279545,0.46171,0.35172149,-0.30182208,0.43472,0.3180213,-0.2674196,0.414679,0.30198367,-0.24264111,0.40428,0.3687454,-0.24363655,0.41333,0.3649128,-0.2513529,0.386904,0.37283097,-0.27392854,0.397986,0.38247266,-0.29049199,0.412841,0.39798367,-0.25350389,0.425095,0.39180101,-0.25074098,0.391921,0.36829131,-0.26196627,0.37257,0.36038506,-0.26865848,0.373555,0.42469804,-0.26442028,0.436814,0.41782472,-0.24771841,0.404053,0.43175934,-0.27625796,0.415574,0.44371401,-0.29890728,0.433405,0.45810672,-0.28534303,0.454553,0.44724236,-0.28284149,0.425144,0.4306358,-0.28698665,0.411632,0.4210449,-0.29783777,0.411296
0.40468318,-0.35005739,0.457492,0.39675773,-0.29975691,0.437404,0.37760951,-0.32985005,0.443032,0.33928905,-0.29063478,0.419136,0.30755617,-0.25869321,0.400489,0.2925084,-0.23497489,0.391556,0.36172573,-0.23854281,0.405237,0.36151846,-0.24847589,0.383092,0.3721133,-0.27310095,0.396889,0.38153533,-0.2894978,0.411726,0.39029422,-0.24806378,0.41645,0.38886528,-0.24836256,0.388443,0.36808564,-0.2614691,0.372106,0.36329461,-0.27046826,0.376491,0.41578478,-0.25903144,0.427251,0.41250476,-0.24414192,0.398757,0.42948668,-0.27455074,0.41316,0.44072039,-0.29680565,0.43042,0.44649805,-0.27805383,0.443032,0.43954232,-0.27776674,0.417525,0.42453666,-0.28294394,0.405805,0.41750773,-0.29538262,0.408155
0.41989547,-0.36318492,0.475027,0.40876199,-0.30850743,0.450332,0.39111687,-0.34143688,0.458919,0.35065868,-0.29970441,0.432972,0.31756527,-0.26532651,0.413046,0.30120257,-0.24121238,0.4029,0.36872492,-0.24251282,0.41285,0.36637724,-0.25109479,0.387976,0.37607585,-0.27529355,0.399731,0.38423557,-0.29135255,0.414243,0.39963821,-0.25181522,0.424571,0.39468596,-0.25048677,0.392503,0.37019794,-0.26187151,0.373796,0.36223508,-0.26519578,0.375556,0.42471305,-0.26409056,0.436152,0.41873581,-0.24717945,0.404572,0.43370112,-0.27670599,0.416786,0.44526841,-0.29969612,0.434418,0.45749027,-0.28471604,0.453536,0.44765131,-0.28253603,0.424941,0.43086015,-0.28698676,0.411803,0.42130739,-0.29791935,0.412073
0.41913141,-0.36241937,0.474467,0.40875472,-0.30791878,0.449962,0.39066693,-0.3405577,0.458469,0.35035737,-0.29907459,0.432529,0.31726052,-0.26482241,0.41286,0.30119043,-0.24082068,0.403079,0.36876457,-0.24219508,0.412751,0.36705624,-0.24884289,0.388087,0.3771193,-0.27420473,0.399977,0.38515574,-0.29151934,0.414459,0.39962731,-0.25147544,0.4244,0.39360569,-0.25045923,0.39249,0.37040022,-0.26153725,0.373876,0.36212453,-0.26578711,0.375779,0.42472582,-0.2637401,0.435906,0.41884416,-0.24700286,0.404554,0.43414612,-0.27672788,0.416912,0.44609661,-0.30046938,0.434509,0.45775024,-0.28463866,0.453174,0.44811912,-0.28253946,0.424707,0.43077355,-0.28711407,0.411627,0.42070002,-0.29781124,0.412012
0.41691518,-0.36040836,0.472536,0.4082131,-0.30637206,0.449172,0.39058214,-0.33985673,0.458617,0.34977759,-0.29603517,0.432614,0.31564621,-0.26160144,0.41376,0.30115687,-0.23938819,0.403889,0.37191293,-0.24211859,0.415342,0.36866167,-0.22334427,0.38847,0.36722003,-0.22754833,0.375034,0.38025849,-0.24602828,0.378739,0.40051946,-0.25075767,0.424799,0.39913594,-0.25287598,0.396678,0.37705044,-0.26567095,0.380275,0.37042586,-0.27161288,0.384488,0.42454908,-0.2619154,0.434412,0.42613198,-0.2709373,0.411334,0.44140644,-0.30200002,0.425844,0.44729441,-0.32083745,0.440959,0.45426869,-0.28222118,0.449264,0.44546971,-0.28069888,0.421807,0.42825125,-0.28558077,0.409192,0.41900356,-0.29691666,0.410878
0.41718177,-0.36014797,0.474368,0.40819891,-0.30433909,0.450034,0.38990705,-0.33791062,0.459981,0.34966617,-0.29324917,0.43489,0.31700559,-0.26123409,0.413274,0.30192898,-0.23802597,0.403846,0.37066367,-0.24272879,0.414937,0.36579594,-0.22255666,0.387128,0.36351858,-0.22635695,0.373224,0.37505962,-0.24442945,0.376282,0.39917695,-0.25125717,0.42465,0.39779341,-0.25214874,0.395751,0.37506457,-0.26413123,0.378893,0.3672464,-0.26762405,0.382521,0.42385778,-0.26180605,0.43455,0.42279405,-0.27045697,0.410838,0.43808313,-0.30103876,0.424815,0.44483076,-0.31976992,0.439974,0.45368518,-0.28037115,0.449885,0.44380748,-0.28144907,0.421756,0.42744618,-0.28559471,0.408832,0.41716587,-0.29609216,0.41003
0.41701196,-0.35949323,0.475735,0.40816751,-0.30418295,0.450834,0.39007461,-0.33764133,0.461064,0.35020053,-0.29335539,0.435552,0.31839292,-0.25958244,0.41589,0.30335939,-0.23679904,0.406001,0.37008538,-0.24323491,0.414981,0.36452549,-0.22268935,0.386454,0.36167839,-0.22633881,0.37219,0.37239264,-0.24421629,0.374802,0.39957715,-0.25090145,0.424859,0.39722267,-0.25211314,0.395516,0.37407222,-0.26380183,0.378399,0.3665903,-0.26798869,0.381667,0.42409718,-0.2620198,0.434938,0.41822649,-0.27694681,0.41087,0.42984341,-0.30409491,0.424512,0.44137767,-0.3180252,0.439681,0.45440924,-0.28033653,0.45057,0.44304216,-0.28260884,0.422051,0.42701163,-0.28622422,0.408948,0.41612571,-0.29581695,0.409848
0.414579,-0.35718784,0.474849,0.40446196,-0.30029107,0.450303,0.38826062,-0.33589148,0.459848,0.34911993,-0.28754174,0.437027,0.32038904,-0.2515039,0.419397,0.309535,-0.22739715,0.412942,0.36990256,-0.24120758,0.414295,0.36301921,-0.22126425,0.385285,0.35868477,-0.22484193,0.370779,0.37025419,-0.24248072,0.373144,0.39945754,-0.2501098,0.424698,0.39537717,-0.25599785,0.395856,0.37024403,-0.26460901,0.379031,0.36553865,-0.26724083,0.382331,0.42435961,-0.26150526,0.435182,0.41913467,-0.27741326,0.411736,0.42944574,-0.30429365,0.425273,0.43376278,-0.31372688,0.440148,0.45464394,-0.28065467,0.451242,0.4415255,-0.28301619,0.422882,0.42728932,-0.28708513,0.409851,0.41633847,-0.29614769,0.410713
0.40987525,-0.3530254,0.4705,0.40497923,-0.30079949,0.451654,0.38764779,-0.33490219,0.460118,0.35161108,-0.28921054,0.439321,0.32351748,-0.25378865,0.423678,0.31211325,-0.23021882,0.417739,0.3732252,-0.23790429,0.425411,0.36733155,-0.21145564,0.402138,0.36353831,-0.22369551,0.390502,0.36686954,-0.24211804,0.397113,0.39947272,-0.24654322,0.431995,0.39958706,-0.24845332,0.407169,0.37970163,-0.26402692,0.392688,0.37802764,-0.27653519,0.399664,0.42459305,-0.26061766,0.438889,0.42452929,-0.27260959,0.417944,0.43684233,-0.3020628,0.435051,0.44184127,-0.31735085,0.450633,0.44999809,-0.27810594,0.449848,0.44138011,-0.27412585,0.426025,0.42794451,-0.2797465,0.41508,0.4208688,-0.29288544,0.419271
0.4050826,-0.34893137,0.46598,0.40256213,-0.29905371,0.449428,0.38495547,-0.33223968,0.458016,0.34859738,-0.28765504,0.43758,0.32081045,-0.25303089,0.422532,0.31023673,-0.23030254,0.417846,0.37452802,-0.23824197,0.427808,0.36717932,-0.20129224,0.405267,0.36411937,-0.18291875,0.393996,0.36176252,-0.18461622,0.38375,0.39933695,-0.24622674,0.432163,0.39641888,-0.24432358,0.408959,0.37865336,-0.26171932,0.395424,0.37856684,-0.27337527,0.403633,0.42161718,-0.25863129,0.437043,0.4193847,-0.26823095,0.416901,0.43638971,-0.30155932,0.435102,0.44412872,-0.31982748,0.451568,0.4474342,-0.27667073,0.445272,0.43861586,-0.27151059,0.423627,0.42563732,-0.27746832,0.413682,0.42008043,-0.29174049,0.419114
0.40854329,-0.35121109,0.469963,0.40793306,-0.30330547,0.453867,0.38942155,-0.33557656,0.463693,0.35908643,-0.30036999,0.448605,0.32688998,-0.2672434,0.430533,0.31269455,-0.24193907,0.42085,0.37429102,-0.24567968,0.434666,0.3677979,-0.20314933,0.413129,0.36972185,-0.18434559,0.408024,0.37323561,-0.18281015,0.403384,0.40224852,-0.24914105,0.437077,0.39887354,-0.2466631,0.413902,0.38108603,-0.26418011,0.400383,0.38167222,-0.27617281,0.408861,0.42178187,-0.25770302,0.440323,0.41845359,-0.26799117,0.41961,0.43790404,-0.30301805,0.438128,0.44551027,-0.32083181,0.454638,0.44641763,-0.27511809,0.446544,0.44102327,-0.27156541,0.426062,0.43296718,-0.2715759,0.416652,0.42845256,-0.28608545,0.422663
0.40955096,-0.35138066,0.47123,0.40787619,-0.3026994,0.456656,0.38975609,-0.33539287,0.46452,0.35935109,-0.30022135,0.449233,0.32724094,-0.26675474,0.431137,0.31551173,-0.24539732,0.427298,0.37611151,-0.24716643,0.437993,0.37139735,-0.20368195,0.417725,0.3772577,-0.183924,0.41698,0.38514824,-0.16985385,0.416304,0.40152143,-0.25106942,0.441454,0.4028472,-0.24678882,0.419949,0.38751548,-0.26243628,0.407405,0.38818403,-0.27978165,0.416478,0.42273002,-0.25804362,0.445443,0.42280676,-0.26962613,0.426586,0.44363121,-0.30570005,0.445392,0.45078353,-0.32481195,0.460519,0.44871482,-0.27335685,0.452325,0.44585943,-0.27115414,0.432884,0.44030019,-0.27365273,0.423951,0.43721196,-0.28883557,0.43038
0.40768918,-0.34992626,0.469482,0.40762352,-0.30280532,0.456514,0.38854506,-0.33442097,0.463792,0.35771091,-0.29871742,0.446512,0.32828525,-0.26669117,0.432928,0.31583571,-0.24116271,0.427901,0.37803986,-0.24787453,0.440255,0.37460858,-0.20291407,0.42139,0.38017704,-0.18427433,0.419783,0.38636433,-0.16828948,0.418321,0.40272074,-0.25206155,0.442986,0.40551353,-0.2430264,0.422885,0.39155241,-0.26236008,0.41116,0.39154576,-0.2803027,0.420889,0.42315012,-0.25921176,0.44625,0.42450246,-0.26970317,0.428458,0.44513681,-0.30486798,0.447687,0.45289436,-0.32626885,0.462553,0.44883815,-0.27611367,0.452033,0.4468036,-0.27125255,0.434103,0.44218953,-0.27112843,0.425865,0.4403232,-0.28883396,0.432947
0.40824545,-0.35054676,0.470517,0.40837448,-0.30355823,0.457515,0.3890571,-0.33491673,0.465102,0.35724933,-0.29832811,0.446295,0.32870007,-0.26656981,0.433683,0.31689397,-0.24227866,0.429555,0.37916288,-0.24833274,0.441571,0.375927,-0.20326932,0.42271,0.38193101,-0.18477079,0.42158,0.38821394,-0.16840609,0.420554,0.40350335,-0.25267188,0.443953,0.40613341,-0.2426462,0.42375,0.39247461,-0.2620392,0.411965,0.39253449,-0.28000539,0.421688,0.42362486,-0.25995642,0.446932,0.4248994,-0.26945467,0.428939,0.44587332,-0.30460254,0.448184,0.4535521,-0.32669679,0.463137,0.44853424,-0.27678399,0.45238,0.44710543,-0.27119857,0.434547,0.44274747,-0.27106819,0.426354,0.44112227,-0.28833013,0.433485
0.41033631,-0.35192046,0.47269,0.41010041,-0.30473955,0.459599,0.39108196,-0.33651705,0.467786,0.36020543,-0.30152536,0.451649,0.32415812,-0.27025458,0.4351,0.31476106,-0.24927731,0.43161,0.38099913,-0.24959915,0.444223,0.3776002,-0.2035996,0.42541,0.38344224,-0.18487011,0.424305,0.38907173,-0.16745334,0.423462,0.40434374,-0.25324829,0.445944,0.40639933,-0.24035966,0.425529,0.39409956,-0.25987306,0.413621,0.3945924,-0.27740191,0.42331,0.42463971,-0.26040043,0.448385,0.42540504,-0.26754937,0.429996,0.44771242,-0.30175958,0.449252,0.45498638,-0.32684223,0.46437,0.44859907,-0.27557968,0.45321,0.44292616,-0.27079301,0.434895,0.43442803,-0.27140841,0.42648,0.4355826,-0.28987828,0.43343
0.41030488,-0.35185726,0.471657,0.4101321,-0.30451334,0.459768,0.3909328,-0.33634204,0.467123,0.35974087,-0.30149904,0.451549,0.32487262,-0.2707286,0.436337,0.31496603,-0.25062541,0.433859,0.38146127,-0.24981049,0.445705,0.37910292,-0.20446042,0.427974,0.38477622,-0.18554348,0.426785,0.39048747,-0.16808574,0.426136,0.40523853,-0.25366645,0.447366,0.40568774,-0.23251663,0.428111,0.39712534,-0.25204767,0.416879,0.39962316,-0.2742039,0.427028,0.42483024,-0.26052789,0.449665,0.42623422,-0.26453141,0.432321,0.44993449,-0.29929193,0.451826,0.45722078,-0.32730327,0.466621,0.44849658,-0.27555939,0.454142,0.44122694,-0.27136071,0.436673,0.43616372,-0.27214194,0.428647,0.4339156,-0.28742892,0.435942
0.41135562,-0.35271397,0.471882,0.41011727,-0.30426176,0.46013,0.3916291,-0.3368646,0.467467,0.35992546,-0.30191248,0.452125,0.32536284,-0.27109657,0.437088,0.31506424,-0.25129571,0.434977,0.38169213,-0.24998044,0.446312,0.37929594,-0.20459482,0.428714,0.38501286,-0.18567571,0.427649,0.39079193,-0.16823061,0.427147,0.40543434,-0.25369426,0.447872,0.40627621,-0.2328539,0.428732,0.39778074,-0.25246363,0.417567,0.40050725,-0.27383797,0.427767,0.42500015,-0.26043499,0.450076,0.42655821,-0.26463372,0.432807,0.45030303,-0.29940701,0.452342,0.4578004,-0.32705081,0.467119,0.44864338,-0.2753149,0.454421,0.44148751,-0.27140883,0.437085,0.43648808,-0.27222748,0.42912,0.43429536,-0.28755693,0.436468
0.41293641,-0.35448417,0.473312,0.41110803,-0.3056078,0.462191,0.39407909,-0.33946249,0.470556,0.35423204,-0.30508915,0.457126,0.31979807,-0.27211546,0.440275,0.31411998,-0.25364081,0.439059,0.38326018,-0.25182906,0.450874,0.38095355,-0.20604667,0.434052,0.38828411,-0.18853863,0.436772,0.39915857,-0.17222909,0.439245,0.40563107,-0.25445315,0.450591,0.40701944,-0.23990896,0.431759,0.39820938,-0.26003778,0.420773,0.40216151,-0.27951547,0.431143,0.42442658,-0.26026452,0.45123,0.42756609,-0.2681477,0.43368,0.45071199,-0.30331174,0.453314,0.45867735,-0.32753759,0.468245,0.44618082,-0.27772035,0.453623,0.44186179,-0.27126376,0.437716,0.43770106,-0.27227826,0.430407,0.43970689,-0.28827923,0.438289
0.41417377,-0.35592939,0.474447,0.41193242,-0.30737653,0.464439,0.39519534,-0.34109868,0.472041,0.35529226,-0.30743408,0.458328,0.32128775,-0.27431107,0.441587,0.31363774,-0.25451651,0.439792,0.38157636,-0.25492233,0.454345,0.38024895,-0.20901448,0.438461,0.38779422,-0.19091862,0.439095,0.39723443,-0.17309179,0.439671,0.40377595,-0.25832825,0.453998,0.40658596,-0.2410327,0.436248,0.40338017,-0.26031152,0.425894,0.40686997,-0.28279029,0.436668,0.42188844,-0.26474181,0.454497,0.42931839,-0.26877147,0.437922,0.45476752,-0.30526697,0.457756,0.46290628,-0.33044216,0.472372,0.44357272,-0.27910062,0.456561,0.44485527,-0.27344544,0.441537,0.44106823,-0.27452519,0.434634,0.43989952,-0.29051302,0.442847
0.41733293,-0.35885572,0.477174,0.41240919,-0.3119953,0.466312,0.39828457,-0.34465693,0.475244,0.3642901,-0.32000168,0.462691,0.32832304,-0.28650615,0.444517,0.31609722,-0.26665603,0.442102,0.38128208,-0.26522284,0.456198,0.37625488,-0.21780665,0.439696,0.38487925,-0.20085901,0.44316,0.39538173,-0.18144985,0.446309,0.40345537,-0.2629479,0.45498,0.40546394,-0.24201483,0.436263,0.3985171,-0.26153864,0.425344,0.40459334,-0.28384273,0.435741,0.42148154,-0.26797057,0.45483,0.42435845,-0.27106682,0.437099,0.45257423,-0.30709379,0.456719,0.46193819,-0.33131099,0.471716,0.4466317,-0.27991256,0.456247,0.43902903,-0.27850687,0.440686,0.43902642,-0.27504657,0.433537,0.43807256,-0.29038885,0.441501
0.41745263,-0.36005849,0.47743,0.41230609,-0.31297693,0.466441,0.39820276,-0.34582664,0.475457,0.36440898,-0.32010612,0.462842,0.32873297,-0.28686386,0.445072,0.31623592,-0.26677304,0.442296,0.38127122,-0.26521528,0.456185,0.37615476,-0.21774869,0.439579,0.38479414,-0.20081459,0.443062,0.39448781,-0.18253536,0.446229,0.40345893,-0.26387292,0.454978,0.40478055,-0.24243172,0.436138,0.39777597,-0.26182266,0.425148,0.40389494,-0.28369293,0.435499,0.42164197,-0.26860709,0.454846,0.42387665,-0.27166473,0.437007,0.4519971,-0.3070779,0.456603,0.46218367,-0.33153745,0.471635,0.44634895,-0.28023321,0.456304,0.43897424,-0.27847211,0.440631,0.43840607,-0.2754737,0.433429,0.437572,-0.29083062,0.441349
0.42236381,-0.36576463,0.483394,0.41160877,-0.31666648,0.468255,0.39839952,-0.34753409,0.476271,0.35935655,-0.31680999,0.45802,0.32757882,-0.28681555,0.445025,0.31469287,-0.26649071,0.441854,0.37423017,-0.26104324,0.448679,0.38270124,-0.22265735,0.449174,0.38898897,-0.20446129,0.449422,0.39487143,-0.18741643,0.449647,0.40044128,-0.26448707,0.452462,0.39781344,-0.23983241,0.430483,0.39019553,-0.25734611,0.417662,0.39501772,-0.27738007,0.426491,0.42286521,-0.27024923,0.456762,0.42164395,-0.27431222,0.437568,0.43275335,-0.30950373,0.456203,0.43694647,-0.33126903,0.471398,0.4511697,-0.28554019,0.464094,0.44148053,-0.28040448,0.443621,0.43778384,-0.2779237,0.434214,0.43606205,-0.29047506,0.440203
0.42484149,-0.36853721,0.485895,0.41329415,-0.31955084,0.469688,0.4005455,-0.35056985,0.478812,0.35826587,-0.32084925,0.459873,0.32268398,-0.29422086,0.444582,0.30795764,-0.27465854,0.44099,0.37412198,-0.26223546,0.449401,0.3804643,-0.22572007,0.452203,0.38792927,-0.2091284,0.453604,0.39498272,-0.19330857,0.454877,0.40005421,-0.26518811,0.452782,0.39408545,-0.24270602,0.429695,0.3841141,-0.26285239,0.416228,0.38956247,-0.2780427,0.424635,0.42234871,-0.27160936,0.456834,0.41676023,-0.27465035,0.4365,0.43094559,-0.30904141,0.454912,0.4357396,-0.33106789,0.470477,0.4508552,-0.28574467,0.464028,0.44024303,-0.28000888,0.4429,0.43469204,-0.2778785,0.433193,0.43399481,-0.29051413,0.438901
