sluyters/QuantumLeap/backend/src/datasets/dynamic/HandGestureDataset_SHREC2017_csv/Gesture2/finger_1/subject_13_essai_5_skeletons_world.csv
Wrist_x,Wrist_y,Wrist_z,Palm_x,Palm_y,Palm_z,thumb_base_x,thumb_base_y,thumb_base_z,thumb_first_joint_x,thumb_first_joint_y,thumb_first_joint_z,thumb_second_joint_x,thumb_second_joint_y,thumb_second_joint_z,thumb_tip_x,thumb_tip_y,thumb_tip_z,index_base_x,index_base_y,index_base_z,index_first_joint_x,index_first_joint_y,index_first_joint_z,index_second_joint_x,index_second_joint_y,index_second_joint_z,index_tip_x,index_tip_y,index_tip_z,middle_base_x,middle_base_y,middle_base_z,middle_first_joint_x,middle_first_joint_y,middle_first_joint_z,middle_second_joint_x,middle_second_joint_y,middle_second_joint_z,middle_tip_x,middle_tip_y,middle_tip_z,ring_base_x,ring_base_y,ring_base_z,ring_first_joint_x,ring_first_joint_y,ring_first_joint_z,ring_second_joint_x,ring_second_joint_y,ring_second_joint_z,ring_tip_x,ring_tip_y,ring_tip_z,pinky_base_x,pinky_base_y,pinky_base_z,pinky_first_joint_x,pinky_first_joint_y,pinky_first_joint_z,pinky_second_joint_x,pinky_second_joint_y,pinky_second_joint_z,pinky_tip_x,pinky_tip_y,pinky_tip_z,r
0.5352931,-0.37472476,0.522364,0.52876241,-0.3261642,0.52295,0.50584653,-0.35552044,0.516491,0.48832047,-0.31563558,0.512045,0.46829947,-0.28810536,0.509095,0.45867775,-0.27038838,0.509433,0.48957798,-0.27333624,0.516252,0.50381433,-0.26689213,0.510331,0.53260739,-0.29917958,0.530399,0.55941281,-0.33006142,0.548642,0.52065822,-0.27772317,0.523641,0.52142655,-0.24160957,0.537242,0.53199399,-0.21838288,0.545176,0.53889696,-0.20128334,0.550984,0.54709321,-0.28432106,0.529676,0.55465964,-0.27438508,0.518925,0.54651171,-0.2954613,0.513424,0.55074856,-0.31819702,0.528206,0.58024228,-0.29814709,0.536798,0.57621241,-0.29081052,0.525945,0.57483048,-0.30727174,0.520958,0.58683011,-0.32982779,0.531986
0.53427202,-0.3730373,0.522279,0.52864636,-0.32581292,0.522713,0.50574641,-0.35477126,0.51607,0.48752501,-0.3151273,0.511262,0.46755155,-0.28698528,0.508026,0.4577549,-0.26952559,0.508641,0.48889049,-0.27288585,0.515481,0.50318873,-0.26640068,0.509431,0.53171825,-0.29865143,0.529387,0.55826855,-0.32949177,0.547528,0.52020922,-0.27739393,0.523224,0.52102013,-0.24171067,0.537242,0.53190313,-0.21886134,0.545419,0.53917036,-0.20196503,0.551259,0.54687508,-0.28409445,0.529562,0.55450576,-0.27430367,0.518516,0.54640928,-0.29530535,0.512865,0.55053796,-0.31817682,0.527463,0.5803689,-0.29804952,0.537068,0.57656823,-0.29071605,0.525986,0.57496601,-0.30686547,0.520895,0.58664099,-0.3296008,0.531786
0.5349169,-0.37184578,0.523169,0.52691642,-0.32393255,0.52207,0.50398433,-0.35118647,0.514686,0.4806483,-0.30772633,0.508565,0.46050997,-0.27750215,0.504423,0.45474102,-0.2635885,0.505456,0.48239993,-0.26470417,0.510812,0.48864327,-0.24793642,0.497125,0.51686196,-0.27823974,0.515878,0.54328072,-0.30742887,0.532925,0.51517538,-0.27052088,0.520774,0.51910475,-0.24055021,0.537489,0.53333529,-0.21919689,0.547239,0.54213632,-0.20278563,0.554269,0.54319998,-0.27836857,0.529052,0.55030884,-0.27153155,0.515611,0.54241963,-0.29215933,0.508735,0.54516409,-0.31453002,0.5219,0.5808137,-0.29673618,0.539096,0.57729205,-0.28808225,0.526109,0.57490386,-0.30361886,0.520142,0.58467766,-0.32774972,0.529947
0.53466254,-0.36979866,0.523007,0.52660207,-0.32323751,0.521964,0.50360731,-0.3502839,0.514312,0.48016251,-0.30741531,0.508051,0.45993299,-0.27715446,0.503791,0.4538889,-0.26209101,0.504738,0.48209679,-0.26453783,0.510491,0.48825108,-0.24773743,0.496726,0.51633796,-0.27795766,0.515355,0.54263338,-0.30706256,0.53229,0.51513482,-0.27049958,0.520733,0.51861357,-0.23975156,0.537466,0.53307737,-0.21890917,0.547226,0.54208262,-0.20255753,0.554198,0.54339095,-0.27846644,0.529238,0.55067194,-0.27119566,0.515759,0.54283032,-0.29171983,0.508863,0.54549963,-0.31431726,0.52191,0.58075288,-0.29625777,0.539544,0.57780237,-0.28800216,0.526553,0.57536861,-0.30321159,0.520585,0.58512055,-0.3274625,0.530306
0.53407158,-0.36780996,0.522399,0.52601157,-0.32249831,0.521533,0.50300043,-0.34845911,0.513676,0.47973064,-0.30713879,0.507594,0.45958241,-0.27694321,0.503407,0.45339438,-0.26113574,0.504341,0.48179458,-0.264372,0.510171,0.48805351,-0.24763718,0.496525,0.51609951,-0.27782929,0.515117,0.54235609,-0.30690565,0.532018,0.5149162,-0.27038478,0.520512,0.51820759,-0.23922078,0.537337,0.53282112,-0.21866744,0.547152,0.54206017,-0.20239284,0.554163,0.54323284,-0.27838541,0.529084,0.55082264,-0.27088341,0.515756,0.54310646,-0.29139593,0.508938,0.54583963,-0.31419679,0.521993,0.58032012,-0.29576826,0.539445,0.57774558,-0.28830341,0.5266,0.5754786,-0.30287762,0.520698,0.58529246,-0.32715661,0.53043
0.53417481,-0.3663141,0.522123,0.52558112,-0.32207777,0.521213,0.50283528,-0.34697291,0.513119,0.48090686,-0.30811559,0.50685,0.45852052,-0.27677851,0.502318,0.45104618,-0.26007675,0.503101,0.48128196,-0.26415737,0.509471,0.48808857,-0.24792957,0.495636,0.51582801,-0.27816226,0.514071,0.54177626,-0.30724642,0.530831,0.51459839,-0.2704017,0.520139,0.51636723,-0.23704426,0.536588,0.53187882,-0.21814403,0.546183,0.54121862,-0.20189359,0.553036,0.54401371,-0.2801138,0.528984,0.55174326,-0.27088077,0.515501,0.54337106,-0.29108784,0.508602,0.54589468,-0.3141293,0.521481,0.58021174,-0.29583621,0.539677,0.57794312,-0.28948102,0.526729,0.57532083,-0.30461043,0.52078,0.58538836,-0.32706699,0.530383
0.533203,-0.36538989,0.521429,0.52521927,-0.32200239,0.521026,0.50221532,-0.34627946,0.512673,0.48076748,-0.30890597,0.506338,0.45804951,-0.27712223,0.501931,0.45143791,-0.26050323,0.50315,0.48256419,-0.26707091,0.510001,0.48966332,-0.24929654,0.496684,0.51867067,-0.2827084,0.515196,0.54262137,-0.31408246,0.532026,0.51593902,-0.27328627,0.520551,0.51769205,-0.23888861,0.537053,0.53244792,-0.21843786,0.546679,0.542048,-0.20222648,0.553554,0.54444247,-0.28144001,0.52926,0.55286749,-0.27157368,0.516343,0.54512939,-0.29185917,0.509734,0.54898045,-0.31614465,0.522828,0.58037746,-0.29724565,0.539719,0.57884772,-0.28992896,0.52726,0.57631878,-0.30518046,0.521537,0.58655258,-0.32789274,0.531312
0.53191169,-0.36449455,0.520302,0.52411674,-0.32131386,0.520209,0.50109832,-0.34536308,0.511535,0.47982209,-0.30844892,0.505517,0.4572282,-0.27704402,0.501117,0.44982215,-0.25960875,0.502073,0.48197263,-0.26672312,0.509424,0.48968149,-0.24968384,0.496335,0.5180601,-0.2828982,0.514798,0.54208535,-0.31379838,0.531583,0.51540026,-0.27305363,0.5201,0.51723223,-0.2387535,0.536623,0.53188403,-0.21855109,0.546262,0.54212044,-0.20250237,0.553146,0.54391813,-0.28129231,0.52889,0.55295076,-0.2717274,0.516254,0.54562747,-0.2919891,0.509788,0.54957032,-0.31665112,0.522914,0.57980682,-0.2971767,0.5394,0.5792007,-0.28982723,0.527206,0.57679472,-0.30496679,0.521603,0.58673565,-0.32804473,0.531411
0.53357075,-0.36461923,0.521331,0.52445702,-0.32069281,0.520197,0.5018144,-0.34493815,0.511632,0.4790567,-0.3080175,0.505085,0.45650376,-0.27702981,0.500516,0.44922319,-0.2594591,0.501656,0.47983489,-0.26364232,0.507423,0.48919595,-0.249984,0.493047,0.52193419,-0.27859043,0.511088,0.53751508,-0.30648658,0.527489,0.51367692,-0.27036897,0.518858,0.51481384,-0.2330804,0.532547,0.5260154,-0.21291558,0.540533,0.53532254,-0.19734277,0.546237,0.54262319,-0.27898399,0.528351,0.55152637,-0.27034733,0.51439,0.54507461,-0.28917846,0.507247,0.54720098,-0.31480144,0.519657,0.57958715,-0.29422853,0.53985,0.57893535,-0.2874732,0.526562,0.57592107,-0.30315185,0.520457,0.58521895,-0.32651491,0.529713
0.53493397,-0.36445024,0.522319,0.52447073,-0.31918724,0.520567,0.50296701,-0.34466683,0.512405,0.47782728,-0.30661423,0.505138,0.45597523,-0.27666301,0.500266,0.44806118,-0.257388,0.500874,0.47973869,-0.2622336,0.507028,0.48882567,-0.249292,0.492073,0.51841026,-0.27821717,0.510063,0.53594073,-0.3052989,0.526418,0.51360378,-0.26881254,0.518501,0.51439687,-0.22817082,0.529743,0.52567936,-0.20548947,0.536301,0.53302061,-0.19385532,0.542916,0.542641,-0.27731864,0.528071,0.5511672,-0.26730626,0.51346,0.55066743,-0.27902582,0.505984,0.55145279,-0.31236382,0.518179,0.5794753,-0.293651,0.539751,0.57836388,-0.28543124,0.52589,0.57494378,-0.30026195,0.519521,0.58431912,-0.32515038,0.528602
0.5348704,-0.36374186,0.522407,0.52460246,-0.31877238,0.520549,0.50290551,-0.34388309,0.512406,0.47762197,-0.30628458,0.505028,0.45554203,-0.27636436,0.500047,0.44771416,-0.25694576,0.500535,0.47968949,-0.26172501,0.506817,0.4888889,-0.24898981,0.491737,0.51848,-0.27794303,0.509686,0.53514589,-0.30462173,0.526004,0.51356565,-0.26834803,0.518357,0.51423378,-0.22765952,0.529588,0.52585508,-0.20515361,0.536139,0.5333907,-0.1927776,0.542506,0.54261714,-0.27689453,0.52799,0.55119478,-0.26682083,0.513248,0.55036488,-0.27887251,0.505706,0.55207373,-0.31107733,0.517831,0.57948103,-0.29328206,0.53976,0.57840946,-0.28499996,0.525791,0.57483179,-0.29979114,0.519372,0.58434977,-0.32443021,0.528399
0.53349832,-0.36241782,0.521796,0.52325147,-0.31672379,0.519725,0.50156442,-0.34243128,0.511677,0.47488369,-0.30303966,0.504325,0.45185331,-0.27299081,0.49845,0.44648061,-0.25455139,0.499227,0.4783807,-0.2578985,0.505675,0.48402829,-0.24628097,0.490372,0.51108952,-0.27447611,0.508274,0.53241638,-0.30081382,0.524548,0.51204609,-0.26475687,0.517281,0.50779445,-0.21832236,0.520645,0.51702283,-0.19506849,0.522607,0.52702344,-0.18167068,0.524009,0.54087666,-0.2735156,0.526985,0.54963952,-0.26536765,0.512003,0.54853319,-0.27759295,0.504338,0.5526633,-0.30848334,0.516358,0.57740687,-0.29017756,0.538872,0.57689903,-0.2836129,0.524696,0.57324805,-0.29883226,0.518183,0.58302883,-0.32307648,0.527127
0.53880734,-0.36561572,0.526806,0.52125415,-0.31460828,0.516856,0.5022249,-0.34244207,0.512014,0.47199766,-0.30340829,0.498189,0.44371882,-0.26866665,0.484339,0.43283765,-0.24537135,0.483453,0.46894839,-0.24838698,0.490681,0.47187537,-0.23650967,0.467248,0.50079824,-0.26260997,0.482491,0.51002988,-0.28801082,0.497827,0.50495932,-0.2558638,0.505119,0.4978452,-0.20831893,0.503237,0.50818334,-0.189368,0.50214,0.5161985,-0.17480939,0.501356,0.53631204,-0.26554705,0.517743,0.53876738,-0.25840493,0.494033,0.53388168,-0.26942775,0.481902,0.53139968,-0.29351082,0.4893,0.57356469,-0.28556077,0.534253,0.56586849,-0.27668918,0.512711,0.55671467,-0.29115484,0.502813,0.56224271,-0.31167797,0.508142
0.5415127,-0.36781617,0.529349,0.52165802,-0.31618593,0.517292,0.50398503,-0.34388011,0.51354,0.47144974,-0.30322076,0.495406,0.44233088,-0.26966298,0.481789,0.42937015,-0.24790795,0.477537,0.46684925,-0.25271076,0.488156,0.46872889,-0.24271266,0.462742,0.49567526,-0.269155,0.477215,0.50463264,-0.29091782,0.493025,0.50313835,-0.26119662,0.503069,0.49810129,-0.21456347,0.502979,0.51131129,-0.19855087,0.502926,0.52155187,-0.18614257,0.502888,0.53486645,-0.27180708,0.516241,0.53560971,-0.26268083,0.490364,0.52802339,-0.27483853,0.477124,0.53147085,-0.29726303,0.483275,0.57293074,-0.28916827,0.53371,0.56773547,-0.28400146,0.510333,0.55406527,-0.29387755,0.499592,0.55806953,-0.31305098,0.503944
0.54002473,-0.36633118,0.527279,0.51845876,-0.31138492,0.510188,0.50136338,-0.34173664,0.510043,0.46873146,-0.3019391,0.488815,0.44035301,-0.26729906,0.471074,0.42472794,-0.2439128,0.463796,0.45852258,-0.24333767,0.475212,0.45708423,-0.23454216,0.445621,0.48167409,-0.26124595,0.458831,0.493344,-0.28360902,0.475786,0.49434281,-0.24923733,0.49003,0.48294007,-0.19839288,0.473921,0.48604257,-0.17717138,0.464524,0.48937883,-0.1623283,0.457812,0.52602071,-0.25788396,0.503501,0.52345656,-0.25337974,0.472856,0.50830903,-0.26541125,0.457177,0.50807189,-0.28923782,0.460961,0.56798569,-0.2757863,0.522053,0.55586409,-0.27256921,0.494523,0.53784139,-0.28245268,0.481874,0.53860665,-0.30272457,0.484336
0.53295234,-0.36157426,0.51914,0.52115592,-0.31603283,0.502437,0.49792594,-0.33969654,0.5045,0.47130537,-0.30642336,0.482282,0.44353476,-0.2727675,0.467887,0.42928595,-0.24919546,0.461303,0.46156097,-0.24909694,0.470949,0.45965875,-0.24110481,0.442821,0.48693891,-0.26952768,0.458207,0.50158868,-0.29248532,0.475453,0.49530536,-0.25425519,0.482736,0.48053445,-0.20589243,0.456147,0.47386169,-0.17924526,0.440637,0.4833953,-0.16471427,0.442506,0.52509395,-0.2623154,0.493685,0.5211799,-0.25852814,0.46417,0.50778202,-0.27281722,0.449068,0.5078233,-0.2976411,0.455051,0.56453397,-0.27951746,0.509169,0.55059103,-0.27660132,0.482248,0.53446937,-0.28886463,0.469879,0.53722679,-0.30885009,0.473958
0.52808072,-0.35850131,0.511736,0.51302529,-0.31375096,0.492131,0.50045309,-0.34758316,0.494355,0.46640433,-0.31176227,0.469827,0.43615441,-0.27881548,0.451391,0.41957816,-0.25465371,0.442084,0.45183026,-0.25093686,0.454928,0.44965063,-0.24627849,0.423551,0.47426001,-0.27318759,0.436487,0.48781691,-0.29353622,0.454037,0.48681842,-0.25538479,0.469005,0.47264652,-0.21056494,0.439729,0.46662391,-0.18624949,0.422652,0.48050495,-0.17510267,0.426374,0.51784358,-0.26290003,0.482056,0.5137365,-0.26336687,0.449247,0.49855511,-0.2771237,0.432462,0.49460298,-0.29841838,0.435429,0.55907537,-0.27953926,0.500468,0.54574795,-0.28128439,0.47098,0.52800273,-0.29261672,0.457431,0.52815166,-0.31100325,0.459215
0.52118285,-0.36255981,0.501745,0.49957326,-0.31759546,0.485414,0.48682079,-0.34081708,0.486699,0.44798084,-0.30705401,0.462121,0.41913864,-0.27291975,0.444294,0.40420897,-0.24801333,0.434977,0.44874997,-0.24932461,0.453732,0.44997884,-0.2469222,0.425653,0.47686631,-0.27561559,0.440772,0.48997772,-0.29706268,0.457892,0.48195652,-0.25478991,0.466152,0.47724685,-0.2168868,0.439962,0.47629175,-0.19352575,0.424685,0.48812369,-0.18096994,0.424332,0.50890197,-0.26567369,0.477593,0.50225981,-0.23107849,0.448247,0.50120926,-0.24183724,0.433232,0.50752347,-0.26489266,0.439028,0.54627681,-0.28513098,0.493611,0.5338844,-0.28386651,0.466908,0.52242709,-0.29119778,0.454639,0.52910037,-0.30795033,0.458595
0.51168291,-0.35088343,0.4959,0.49037665,-0.30983183,0.473707,0.48091297,-0.34014362,0.478459,0.44389247,-0.30212372,0.450431,0.41443749,-0.26802416,0.429947,0.39510118,-0.24305988,0.419572,0.43462722,-0.23857569,0.434325,0.43158294,-0.23814428,0.401206,0.45305331,-0.26537698,0.413781,0.46372415,-0.28432344,0.431873,0.46808936,-0.24478735,0.44753,0.46293973,-0.21002507,0.415688,0.46121532,-0.19056321,0.397114,0.46840648,-0.17950557,0.390519,0.49750099,-0.25392334,0.460057,0.48849832,-0.22368724,0.425111,0.48023054,-0.23564174,0.407231,0.47679595,-0.25049668,0.40931,0.53622307,-0.27276548,0.478218,0.52041627,-0.27426339,0.446792,0.50584354,-0.28267647,0.432353,0.50453804,-0.29515546,0.433403
0.50838789,-0.35375576,0.488398,0.48426881,-0.30410543,0.460058,0.47623369,-0.3377154,0.472183,0.45038867,-0.30874713,0.444035,0.41897947,-0.27781145,0.424526,0.39730214,-0.25342354,0.413652,0.42439597,-0.24055532,0.417166,0.42160119,-0.24794571,0.387268,0.43759752,-0.26922187,0.399545,0.45427536,-0.28843413,0.416248,0.45577935,-0.24214008,0.426631,0.43987943,-0.21200966,0.388909,0.4311181,-0.1942505,0.366905,0.42758069,-0.19374755,0.351187,0.48398371,-0.24748338,0.436541,0.46006045,-0.21494145,0.397283,0.44809285,-0.19814865,0.377197,0.44238472,-0.19296242,0.358938,0.52226172,-0.26177975,0.452464,0.49992082,-0.26606299,0.416988,0.47831555,-0.27386933,0.400689,0.47601139,-0.2894688,0.400268
0.50100301,-0.35769319,0.478341,0.47887668,-0.31689659,0.449195,0.47097705,-0.34587518,0.46156,0.43483638,-0.31715474,0.432551,0.40072593,-0.28573823,0.411819,0.38008682,-0.26140367,0.401483,0.41662259,-0.24992941,0.404955,0.41117139,-0.2604667,0.374599,0.42322823,-0.27820563,0.386213,0.44065024,-0.29833465,0.402963,0.44865639,-0.25269996,0.414816,0.43667249,-0.22627552,0.376391,0.43025589,-0.21080245,0.353976,0.42660503,-0.20419565,0.337966,0.47720852,-0.25897053,0.425113,0.45405118,-0.23051287,0.385062,0.44286726,-0.21652981,0.364572,0.43436138,-0.20675795,0.345944,0.51545432,-0.27427943,0.441613,0.48915479,-0.28330055,0.405517,0.46501977,-0.28687456,0.388933,0.46027464,-0.29897458,0.387896
0.49395072,-0.3596276,0.469809,0.47012714,-0.3138043,0.438993,0.46208204,-0.35034879,0.451991,0.42851156,-0.32089741,0.421508,0.39250218,-0.29078288,0.399033,0.37017792,-0.26647812,0.387393,0.40767677,-0.25271711,0.392126,0.40189977,-0.26359708,0.3608,0.41211533,-0.27874287,0.37096,0.42877293,-0.29702304,0.387409,0.44013322,-0.25464535,0.402644,0.42831963,-0.23265761,0.362821,0.42196266,-0.21988533,0.339591,0.41809729,-0.21499633,0.322998,0.46918189,-0.26015628,0.413607,0.44653566,-0.23621765,0.372028,0.43547355,-0.22437741,0.350754,0.42702619,-0.21665602,0.331415,0.50826172,-0.27443947,0.431144,0.48141167,-0.28439036,0.393858,0.45600321,-0.28542664,0.376727,0.44681651,-0.29169311,0.374386
0.48605659,-0.36335881,0.457163,0.46027015,-0.31514912,0.424439,0.4506064,-0.34449567,0.439067,0.41654308,-0.32304043,0.407115,0.38039925,-0.29596574,0.38229,0.35524515,-0.27066281,0.366892,0.39176984,-0.2495039,0.375679,0.38369441,-0.258934,0.342188,0.39341827,-0.27274969,0.351113,0.41155821,-0.29142874,0.367894,0.42425246,-0.25061435,0.385841,0.4081816,-0.23563617,0.344426,0.39925304,-0.22707952,0.320268,0.39359757,-0.22481489,0.303011,0.45360548,-0.25550167,0.396654,0.43158902,-0.23816428,0.3537,0.42061959,-0.22940646,0.331724,0.40999157,-0.23481136,0.311746,0.49358804,-0.26915121,0.414286,0.46631696,-0.27881804,0.375854,0.44110851,-0.27649947,0.358196,0.429936,-0.28103323,0.354757
0.48130188,-0.36224881,0.451159,0.45651446,-0.31918234,0.417001,0.44809126,-0.34831202,0.43344,0.42942592,-0.32734032,0.400096,0.38823723,-0.30241898,0.382739,0.36434363,-0.2838594,0.376389,0.38915785,-0.25539653,0.367534,0.37802382,-0.26557411,0.333049,0.38587016,-0.27640566,0.341414,0.40359912,-0.29373016,0.358363,0.42094302,-0.2561641,0.376711,0.40594685,-0.24027566,0.334095,0.39749734,-0.23112719,0.309236,0.39163816,-0.2246631,0.291479,0.44965123,-0.26069392,0.386821,0.42499939,-0.24386971,0.343068,0.41262889,-0.23537894,0.320683,0.40157005,-0.22775046,0.300333,0.48873811,-0.27373726,0.403821,0.45850434,-0.28342652,0.364655,0.43061903,-0.27691518,0.34666,0.42036864,-0.27641593,0.342662
0.48200616,-0.36891102,0.449249,0.45494677,-0.32851899,0.415569,0.44865008,-0.36001404,0.431291,0.42684354,-0.33591468,0.39769,0.38571349,-0.31088729,0.380251,0.36255381,-0.29275622,0.37454,0.38774325,-0.26458394,0.366198,0.377168,-0.27480518,0.332295,0.38515926,-0.2854678,0.340785,0.40268912,-0.30266699,0.357555,0.41997087,-0.26578546,0.375841,0.40538184,-0.25024607,0.33363,0.3972017,-0.24132625,0.309006,0.3915562,-0.23504182,0.291418,0.44904445,-0.27064716,0.386299,0.42463146,-0.25406992,0.342771,0.41239471,-0.24572336,0.320501,0.40146576,-0.23823939,0.300255,0.48852631,-0.28405506,0.403646,0.45856595,-0.29356476,0.364704,0.4308066,-0.28626894,0.346811,0.42173319,-0.28883964,0.342942
0.48481448,-0.38226654,0.449618,0.45724299,-0.33260528,0.417268,0.44888683,-0.36394463,0.431509,0.41477716,-0.33944972,0.397704,0.38713261,-0.31398946,0.38074,0.36468241,-0.29056101,0.366392,0.39108658,-0.26686479,0.368798,0.38106448,-0.27795923,0.335817,0.39083554,-0.29152647,0.34495,0.40803624,-0.30913553,0.361614,0.42434986,-0.26937477,0.379112,0.41087301,-0.2612906,0.33801,0.40306231,-0.25613061,0.314116,0.39770667,-0.25258492,0.297049,0.45420415,-0.27534672,0.390021,0.43833603,-0.27243912,0.347311,0.40553264,-0.27412182,0.32546,0.38665352,-0.26849982,0.32213,0.49539249,-0.29341846,0.407714,0.46656437,-0.27753716,0.369493,0.4536885,-0.28141513,0.351932,0.4469544,-0.28151892,0.348678
0.48580839,-0.39039695,0.449295,0.45764393,-0.33788409,0.41606,0.44843233,-0.3706538,0.429807,0.41273758,-0.34815424,0.396233,0.37474616,-0.32039691,0.370351,0.35032612,-0.29555522,0.355933,0.38965444,-0.27407646,0.365183,0.37886972,-0.28227862,0.330193,0.3872941,-0.2953488,0.337381,0.4044115,-0.31312374,0.35406,0.42381987,-0.27677906,0.376858,0.41046268,-0.2682509,0.335258,0.40290415,-0.26342983,0.310992,0.39764016,-0.26007508,0.293658,0.45461576,-0.28295612,0.388954,0.43876443,-0.2780753,0.345338,0.40599752,-0.27813705,0.323023,0.38289919,-0.26757505,0.31779,0.49613922,-0.29595514,0.408191,0.46898417,-0.28393271,0.369422,0.45634028,-0.28650013,0.351609,0.4460285,-0.28222757,0.346932
0.4868304,-0.39287448,0.450368,0.45810672,-0.33989921,0.41684,0.44932148,-0.37321726,0.430668,0.41311774,-0.3482741,0.397448,0.37664838,-0.32046642,0.371488,0.35284149,-0.29550333,0.35692,0.38924195,-0.27546369,0.365465,0.37767547,-0.28321058,0.329788,0.38539773,-0.29547365,0.33651,0.40245361,-0.31298408,0.353274,0.42348599,-0.27812413,0.377293,0.41009697,-0.27006373,0.335511,0.40246478,-0.2654827,0.311138,0.39711804,-0.2622816,0.293729,0.45434636,-0.28423888,0.389537,0.43834526,-0.27970683,0.345703,0.4062958,-0.28003003,0.323276,0.38446237,-0.27306523,0.317597,0.49638458,-0.29765223,0.408993,0.4677819,-0.28147702,0.370078,0.45520858,-0.28458404,0.352198,0.44620535,-0.28300874,0.347184
0.48824752,-0.39518916,0.45098,0.45932985,-0.34412419,0.417243,0.45123188,-0.37843459,0.431439,0.41281345,-0.34996782,0.398901,0.37555978,-0.3235725,0.372664,0.35364676,-0.29810186,0.357689,0.38872191,-0.27888117,0.365894,0.37678169,-0.28641279,0.329986,0.38492036,-0.29832795,0.336762,0.40291734,-0.31469037,0.353639,0.42283512,-0.28115024,0.37745,0.40866059,-0.27340862,0.335462,0.40054551,-0.26900252,0.310969,0.39483884,-0.26591966,0.293474,0.4541865,-0.28572281,0.389485,0.4370868,-0.28267647,0.345547,0.40622451,-0.2832057,0.323067,0.38514547,-0.2774763,0.317414,0.49599523,-0.30052206,0.408724,0.46690804,-0.28373077,0.369691,0.4549515,-0.28655998,0.351757,0.44590719,-0.28378261,0.346755
0.49028727,-0.39689324,0.452648,0.46100403,-0.34501054,0.418645,0.45306068,-0.37798211,0.433385,0.41296145,-0.35103269,0.400174,0.37332518,-0.32579338,0.372564,0.35041641,-0.30198719,0.355792,0.39118036,-0.2789714,0.367419,0.38102568,-0.28941156,0.33331,0.38972356,-0.30188072,0.340336,0.40714103,-0.31838783,0.356603,0.42486948,-0.28089869,0.378539,0.40978357,-0.2751018,0.336276,0.40062928,-0.2729366,0.311624,0.39434566,-0.27042568,0.294014,0.45530823,-0.28640692,0.390235,0.4387522,-0.28191484,0.346182,0.4084924,-0.28395376,0.323643,0.38812573,-0.27958268,0.318092,0.49666532,-0.3007341,0.409108,0.4725483,-0.30423668,0.369929,0.45867966,-0.30527961,0.351927,0.45652359,-0.30988483,0.346991
0.49077902,-0.39732911,0.452948,0.46133966,-0.34512548,0.418947,0.45346788,-0.3785199,0.43362,0.41236733,-0.35122786,0.400431,0.37348471,-0.32674477,0.372538,0.35075806,-0.30343457,0.355257,0.3913797,-0.27939794,0.367641,0.38096994,-0.2895801,0.333342,0.38977601,-0.30210146,0.340286,0.40748527,-0.31906509,0.356594,0.42520674,-0.28133015,0.378841,0.40990008,-0.27600243,0.336594,0.40060451,-0.27397382,0.31195,0.3942079,-0.27173706,0.294347,0.45577324,-0.28682077,0.390604,0.43912547,-0.28243448,0.346539,0.40877712,-0.28323431,0.323994,0.38884734,-0.27994103,0.318375,0.49728893,-0.3010879,0.409555,0.47039527,-0.30259791,0.370378,0.45861505,-0.30547143,0.352377,0.45574447,-0.3089434,0.34739
0.49050007,-0.39703261,0.452599,0.46066494,-0.34348947,0.418659,0.45309352,-0.37835535,0.433131,0.41155755,-0.3506977,0.400024,0.3743034,-0.32556676,0.372203,0.3509999,-0.30307565,0.354515,0.39080617,-0.27932147,0.367232,0.38108656,-0.28860322,0.333072,0.38973653,-0.30108672,0.339899,0.40735173,-0.31892824,0.356107,0.42475438,-0.2811797,0.378625,0.40973908,-0.27600959,0.336459,0.40117524,-0.27268888,0.311862,0.39510085,-0.27035055,0.294293,0.45543008,-0.28658355,0.390542,0.43861755,-0.28352305,0.34649,0.4088377,-0.28419999,0.323952,0.3883054,-0.27940874,0.318228,0.49711332,-0.29916732,0.409668,0.47276242,-0.30496431,0.370527,0.45783418,-0.30430651,0.352543,0.45365109,-0.30574657,0.347481
0.48896543,-0.39277143,0.451573,0.45749979,-0.33754361,0.416627,0.45200619,-0.37471446,0.432478,0.40978038,-0.34390545,0.401114,0.3764078,-0.32460276,0.372894,0.35365748,-0.3035403,0.354207,0.3881384,-0.27732248,0.364838,0.37640006,-0.28535175,0.32923,0.38491239,-0.29744136,0.335727,0.40313089,-0.31539744,0.352373,0.42121794,-0.27798348,0.375409,0.40597437,-0.26731913,0.332384,0.39727604,-0.2607722,0.307287,0.38663724,-0.2668052,0.28936,0.45085731,-0.28055396,0.386724,0.43273378,-0.28107718,0.342139,0.40261582,-0.2803539,0.319329,0.38138446,-0.27334675,0.313218,0.49166261,-0.29204686,0.405277,0.46523178,-0.29918605,0.365628,0.45530083,-0.31166872,0.370366,0.45970817,-0.31491128,0.386157
0.4876231,-0.39224,0.450138,0.45730798,-0.33275864,0.417117,0.45088826,-0.37388661,0.431434,0.41441918,-0.3463605,0.400194,0.37642717,-0.32550085,0.373123,0.35203584,-0.30293856,0.356164,0.39014673,-0.27573921,0.367372,0.38012421,-0.28475979,0.332607,0.39061151,-0.29852361,0.340758,0.40916397,-0.31850356,0.357733,0.42280719,-0.27010757,0.378167,0.40576236,-0.25204996,0.336589,0.38406335,-0.25885404,0.312335,0.37124529,-0.25976506,0.309026,0.45311205,-0.27537886,0.389523,0.43800947,-0.28222309,0.346211,0.40845431,-0.2828612,0.324052,0.3878767,-0.27587565,0.319753,0.49333055,-0.28698353,0.407847,0.4671484,-0.29561971,0.369202,0.46162756,-0.30939303,0.375464,0.4660826,-0.31641473,0.391492
0.49069713,-0.37963109,0.453795,0.45906558,-0.32226167,0.41855,0.45559504,-0.36619666,0.436865,0.42105396,-0.3439959,0.406157,0.38355532,-0.32649393,0.379562,0.35645407,-0.3044782,0.361079,0.39087983,-0.26793864,0.369162,0.37425827,-0.28030379,0.333236,0.38755966,-0.29233299,0.341376,0.40907517,-0.31333513,0.358804,0.42180073,-0.26717473,0.376978,0.40390082,-0.26789729,0.333466,0.36798955,-0.263286,0.308084,0.35348707,-0.25319815,0.304289,0.44951421,-0.27165927,0.386049,0.42930429,-0.27749182,0.342657,0.40114829,-0.27395822,0.320456,0.38260376,-0.2664467,0.316178,0.48840265,-0.28100658,0.401966,0.4518028,-0.2925042,0.362374,0.45672835,-0.31398467,0.368609,0.47153469,-0.33813356,0.38496
0.49575657,-0.37420012,0.456833,0.46156378,-0.31999406,0.419209,0.46072914,-0.35551526,0.440771,0.42433049,-0.33801421,0.410603,0.38527729,-0.32138704,0.384499,0.35885603,-0.30234891,0.365069,0.39002961,-0.26535631,0.368944,0.37068576,-0.27571647,0.330568,0.38234092,-0.28769575,0.337136,0.40407465,-0.30461715,0.354904,0.42042713,-0.26328067,0.374831,0.39605296,-0.26337349,0.329812,0.36212159,-0.25774791,0.303551,0.34652326,-0.24637283,0.298193,0.4483774,-0.26508504,0.382494,0.42412186,-0.27358108,0.339462,0.39625961,-0.26963075,0.317446,0.37974906,-0.25884098,0.312,0.48721908,-0.27411355,0.397072,0.4454361,-0.28650736,0.356627,0.44930775,-0.30825101,0.361497,0.46303143,-0.33004307,0.37762
0.49443003,-0.36377192,0.456269,0.46028528,-0.30720988,0.421411,0.45923403,-0.35088619,0.440355,0.42226812,-0.32734617,0.411107,0.38554176,-0.31010337,0.385479,0.35818444,-0.28798915,0.367274,0.39215119,-0.25275133,0.37358,0.37698909,-0.26491738,0.337408,0.39131164,-0.27999838,0.346386,0.41287248,-0.29770218,0.364246,0.42287043,-0.25079078,0.380296,0.4047611,-0.25150351,0.337304,0.37092019,-0.24917,0.312225,0.35750192,-0.24154403,0.309253,0.45081462,-0.25268001,0.388433,0.43194855,-0.26186274,0.34795,0.40626225,-0.2617094,0.327237,0.39256872,-0.2552007,0.324595,0.48912641,-0.26179699,0.403179,0.45129128,-0.27546819,0.363997,0.46119703,-0.30095123,0.371026,0.47280465,-0.32189343,0.387542
0.50254884,-0.37336416,0.461555,0.47371887,-0.32029059,0.436613,0.47102856,-0.36144979,0.44813,0.47417315,-0.33682093,0.435009,0.42903038,-0.31363824,0.415173,0.396201,-0.29595691,0.403547,0.39973791,-0.26476442,0.399896,0.40090137,-0.26933333,0.371873,0.42973363,-0.29327497,0.386648,0.45717716,-0.3157838,0.403609,0.42875031,-0.25965364,0.407192,0.4162171,-0.24264382,0.372628,0.4041818,-0.2532258,0.352465,0.40220627,-0.26001723,0.356078,0.45575716,-0.2591189,0.415064,0.45220843,-0.25692489,0.383454,0.44355425,-0.2659676,0.367282,0.44284878,-0.27404405,0.372084,0.49403119,-0.26571102,0.428062,0.47532975,-0.27364518,0.395511,0.49874561,-0.3009605,0.407856,0.5176261,-0.32840297,0.424098
0.50195168,-0.36013955,0.457484,0.47213617,-0.2985784,0.435727,0.46769892,-0.3421804,0.445538,0.47493632,-0.31550394,0.43632,0.43260354,-0.294455,0.419173,0.40087662,-0.27812952,0.408774,0.40278955,-0.246654,0.403412,0.4067863,-0.25269141,0.377896,0.43734694,-0.27737584,0.394111,0.46443268,-0.29938784,0.410658,0.43121802,-0.24095126,0.410064,0.42233212,-0.22518298,0.378723,0.4126252,-0.23863773,0.360441,0.41273385,-0.24756016,0.365976,0.45742954,-0.23978696,0.417167,0.45665119,-0.23838474,0.387904,0.44956477,-0.24948576,0.372933,0.45104036,-0.25967026,0.379604,0.49412849,-0.24532283,0.428787,0.4785177,-0.25475832,0.398855,0.50357963,-0.28175849,0.412565,0.52195647,-0.30854214,0.428415
0.49694504,-0.35260628,0.45661,0.47570026,-0.29811847,0.451338,0.46428582,-0.33620365,0.444252,0.43789357,-0.29806092,0.43671,0.40440521,-0.27253869,0.426138,0.39509588,-0.24893698,0.417802,0.42626874,-0.24375504,0.431947,0.43519531,-0.20855218,0.418796,0.44305092,-0.19447889,0.41222,0.46875662,-0.1883294,0.422322,0.45781936,-0.24651312,0.44512,0.47616281,-0.22281264,0.430413,0.47779081,-0.24518259,0.421834,0.47975909,-0.26571869,0.432032,0.48504756,-0.25201742,0.456352,0.50366644,-0.2410645,0.437641,0.49840006,-0.25987724,0.428068,0.49631487,-0.28107854,0.438097,0.51995165,-0.26490866,0.470525,0.52365564,-0.26614441,0.453228,0.54787691,-0.28808726,0.468013,0.55750022,-0.31392822,0.479833
0.50199331,-0.34888794,0.466973,0.48470822,-0.30256881,0.471715,0.46920912,-0.33182049,0.460345,0.44601478,-0.29803006,0.461581,0.42004794,-0.27335292,0.458067,0.41756337,-0.25058608,0.452458,0.45165466,-0.25212722,0.46748,0.46828565,-0.21692486,0.464281,0.47796031,-0.19904767,0.462681,0.48864448,-0.18423231,0.461227,0.48173707,-0.25711426,0.477308,0.50516635,-0.22999352,0.47348,0.51413271,-0.25476163,0.471247,0.52257785,-0.28068451,0.485653,0.50673361,-0.2641028,0.485038,0.53146676,-0.26535487,0.477771,0.52403013,-0.28836221,0.474053,0.53087529,-0.31842915,0.488937,0.53703134,-0.27802999,0.493585,0.54577709,-0.2775306,0.486093,0.57197979,-0.29217112,0.502982,0.57595693,-0.31443429,0.512167
0.51265148,-0.35691464,0.486305,0.49729533,-0.30798982,0.484705,0.4830231,-0.33821066,0.481425,0.4635409,-0.30607281,0.479592,0.43342028,-0.28312562,0.475327,0.42402114,-0.25753538,0.465717,0.45926514,-0.25663096,0.477441,0.46451587,-0.21471212,0.468729,0.46988936,-0.19599927,0.464374,0.47546889,-0.17904086,0.460414,0.48504975,-0.2594484,0.482818,0.47311606,-0.20982327,0.472237,0.47579349,-0.1855548,0.466065,0.50278819,-0.18425482,0.47991,0.50689278,-0.26476785,0.487362,0.52336529,-0.25926073,0.475162,0.51425089,-0.27965859,0.468921,0.52400326,-0.31224701,0.483719,0.53443817,-0.27689455,0.493018,0.53538705,-0.27024786,0.480693,0.56153067,-0.28335641,0.498666,0.56858457,-0.30571969,0.509973
0.50860886,-0.3515553,0.483776,0.50229204,-0.30960835,0.491423,0.48476889,-0.33653227,0.484167,0.46827629,-0.30387049,0.491893,0.44173563,-0.28082791,0.490014,0.44062283,-0.25895142,0.488324,0.47205197,-0.26675301,0.49813,0.48101129,-0.22673653,0.498573,0.48767765,-0.20752933,0.498795,0.49426806,-0.1898006,0.498997,0.49623619,-0.26884634,0.500443,0.4897213,-0.22461256,0.500423,0.49417662,-0.19992553,0.500411,0.52013918,-0.19522297,0.517188,0.51621696,-0.27290697,0.501774,0.53820946,-0.26125006,0.500643,0.53718991,-0.28387165,0.500065,0.55176643,-0.31747379,0.51829,0.54052312,-0.28226106,0.50226,0.54572421,-0.27053106,0.499556,0.569232,-0.27811924,0.518283,0.57289972,-0.29640669,0.526495
0.50613843,-0.34585316,0.486437,0.50507915,-0.30913441,0.500108,0.48419339,-0.32786923,0.48844,0.46798175,-0.29890146,0.498018,0.4414717,-0.28200419,0.499408,0.44025366,-0.26218143,0.501246,0.47720668,-0.27167023,0.51369,0.4912056,-0.23416602,0.52053,0.50072734,-0.21548257,0.523951,0.50997156,-0.19807489,0.52706,0.5010224,-0.27458345,0.516234,0.4960264,-0.23644628,0.523062,0.50180677,-0.21201955,0.527044,0.52127367,-0.20194346,0.53877,0.52035617,-0.27888818,0.517302,0.55060707,-0.2618458,0.522613,0.55572401,-0.283971,0.52533,0.5733189,-0.31793854,0.544744,0.54322977,-0.28768462,0.516606,0.55617221,-0.27419644,0.519722,0.57984627,-0.27865071,0.538084,0.58237562,-0.29414188,0.544108
0.52071467,-0.35456165,0.504783,0.50876932,-0.31749705,0.514227,0.49520003,-0.33774941,0.505968,0.48258078,-0.31458047,0.514061,0.45628722,-0.28861883,0.509714,0.44595449,-0.26697516,0.507875,0.48653738,-0.27617743,0.523367,0.49034925,-0.23570303,0.524714,0.49629316,-0.21577263,0.525387,0.50324361,-0.1978054,0.525999,0.50900575,-0.2786726,0.525367,0.51404929,-0.23513253,0.52742,0.5334763,-0.23823414,0.528617,0.55691877,-0.2655588,0.545824,0.52522008,-0.28227538,0.526304,0.55793489,-0.2608222,0.527252,0.56135703,-0.28255282,0.527737,0.57931408,-0.31527067,0.546445,0.54517162,-0.29203296,0.52606,0.56789654,-0.28977681,0.525198,0.60065431,-0.29915529,0.543905,0.61797607,-0.31884056,0.551462
0.52614936,-0.35450734,0.515475,0.5216452,-0.30798908,0.525905,0.50081129,-0.33419721,0.522599,0.48164144,-0.30935748,0.528532,0.46142535,-0.28494714,0.52922,0.45168981,-0.26761732,0.530828,0.50766189,-0.27178647,0.543102,0.51356959,-0.2315997,0.547552,0.51664197,-0.21142161,0.549778,0.5194887,-0.19296977,0.551801,0.52804659,-0.26898694,0.538206,0.5367006,-0.25800189,0.541793,0.54302058,-0.28785839,0.543886,0.55974415,-0.31207786,0.561171,0.54433301,-0.26912288,0.533397,0.55500978,-0.2582885,0.538718,0.55641898,-0.2837018,0.541441,0.57353785,-0.3136552,0.561101,0.56299726,-0.27397853,0.52615,0.55869791,-0.26981391,0.528963,0.57378603,-0.29926393,0.54754,0.58447755,-0.31898433,0.557831
0.53101855,-0.35657804,0.52223,0.51841458,-0.30608167,0.522648,0.50595837,-0.33763192,0.52797,0.48554082,-0.31186204,0.532811,0.45958041,-0.28380782,0.527104,0.44778751,-0.26530529,0.526242,0.49541486,-0.26522978,0.53,0.49339174,-0.22250029,0.526039,0.49247215,-0.20153078,0.524058,0.49167473,-0.18263796,0.522257,0.51326597,-0.26145769,0.523141,0.51203365,-0.24614403,0.516892,0.54215296,-0.28739846,0.543017,0.55206971,-0.30779908,0.553477,0.52807538,-0.26108497,0.517466,0.52913938,-0.24624902,0.513607,0.52578537,-0.26808261,0.511632,0.54036757,-0.29551511,0.52865,0.5463893,-0.26589639,0.510629,0.53328752,-0.25754239,0.504905,0.54808334,-0.28585843,0.523013,0.55746504,-0.30424199,0.53205
0.52403612,-0.34816135,0.520398,0.51668142,-0.30553353,0.521642,0.50378253,-0.33669308,0.526816,0.48465594,-0.31134261,0.532767,0.45956185,-0.28337929,0.527689,0.44833543,-0.26545762,0.527478,0.49565323,-0.26538403,0.530497,0.49414198,-0.22341172,0.528091,0.49361793,-0.20282539,0.526887,0.49320455,-0.18421137,0.525793,0.51300728,-0.26157629,0.52311,0.51265309,-0.24661255,0.517638,0.54259396,-0.28774927,0.543617,0.55213935,-0.30811992,0.553751,0.52728117,-0.26113294,0.51694,0.52961079,-0.24708498,0.514256,0.52700066,-0.26902272,0.512883,0.54181801,-0.29711286,0.530124,0.54472129,-0.26576848,0.509392,0.53282733,-0.2576389,0.504689,0.54786804,-0.2860979,0.522734,0.55720452,-0.30341607,0.531386
0.52325732,-0.3479117,0.520895,0.51670753,-0.30578717,0.52204,0.50398755,-0.33708775,0.527591,0.48503812,-0.31161262,0.533652,0.45985746,-0.28335279,0.528332,0.44877579,-0.26563226,0.528292,0.496152,-0.2656644,0.531152,0.49443522,-0.22383064,0.52903,0.49387666,-0.20334506,0.527969,0.49344199,-0.18480386,0.527004,0.51316774,-0.26178337,0.52339,0.5116318,-0.24620647,0.516667,0.54132133,-0.28713279,0.542421,0.55122597,-0.30775117,0.552937,0.52712902,-0.26127796,0.516917,0.52962031,-0.24739787,0.514361,0.52714013,-0.26925449,0.513053,0.54190013,-0.29756178,0.530232,0.54415573,-0.26583443,0.509024,0.53242522,-0.25760384,0.504418,0.54752187,-0.28609245,0.522367,0.55696178,-0.30294393,0.530948
0.52287681,-0.34783717,0.521363,0.516828,-0.30600157,0.522385,0.50428531,-0.33744192,0.52824,0.48541219,-0.3118677,0.534343,0.46009049,-0.28337097,0.528782,0.44908624,-0.26576437,0.528835,0.4965212,-0.26587011,0.53162,0.4946499,-0.22409963,0.529635,0.49405361,-0.20366609,0.528642,0.49359223,-0.18516283,0.52774,0.51329727,-0.26192464,0.523592,0.51063359,-0.24577711,0.515695,0.54012241,-0.28653186,0.541267,0.55038141,-0.30736414,0.552151,0.52704464,-0.26136839,0.51691,0.52959306,-0.24757028,0.514392,0.52717135,-0.26936691,0.513104,0.54187192,-0.29778907,0.530221,0.54379601,-0.26586381,0.508784,0.53212767,-0.25755549,0.504202,0.5472399,-0.28605013,0.522076,0.55674622,-0.30262338,0.530619
