sluyters/QuantumLeap/backend/src/datasets/dynamic/HandGestureDataset_SHREC2017_csv/Gesture2/finger_1/subject_21_essai_2_skeletons_world.csv
Wrist_x,Wrist_y,Wrist_z,Palm_x,Palm_y,Palm_z,thumb_base_x,thumb_base_y,thumb_base_z,thumb_first_joint_x,thumb_first_joint_y,thumb_first_joint_z,thumb_second_joint_x,thumb_second_joint_y,thumb_second_joint_z,thumb_tip_x,thumb_tip_y,thumb_tip_z,index_base_x,index_base_y,index_base_z,index_first_joint_x,index_first_joint_y,index_first_joint_z,index_second_joint_x,index_second_joint_y,index_second_joint_z,index_tip_x,index_tip_y,index_tip_z,middle_base_x,middle_base_y,middle_base_z,middle_first_joint_x,middle_first_joint_y,middle_first_joint_z,middle_second_joint_x,middle_second_joint_y,middle_second_joint_z,middle_tip_x,middle_tip_y,middle_tip_z,ring_base_x,ring_base_y,ring_base_z,ring_first_joint_x,ring_first_joint_y,ring_first_joint_z,ring_second_joint_x,ring_second_joint_y,ring_second_joint_z,ring_tip_x,ring_tip_y,ring_tip_z,pinky_base_x,pinky_base_y,pinky_base_z,pinky_first_joint_x,pinky_first_joint_y,pinky_first_joint_z,pinky_second_joint_x,pinky_second_joint_y,pinky_second_joint_z,pinky_tip_x,pinky_tip_y,pinky_tip_z,r
0.370842432,-0.288038363,0.449225,0.37073105,-0.239531347,0.440372,0.345870588,-0.269611174,0.440512,0.351248716,-0.23700059,0.435023,0.341773544,-0.200620607,0.414718,0.337801123,-0.179395165,0.410196,0.34459615,-0.190050618,0.423999,0.344387865,-0.153470527,0.41079,0.354671631,-0.144582157,0.416058,0.368666434,-0.152079552,0.43066,0.373383301,-0.198019969,0.43217,0.369056739,-0.164090808,0.417499,0.364168037,-0.175900425,0.408941,0.369164547,-0.194783345,0.417321,0.397770448,-0.208249142,0.439601,0.397140482,-0.177084012,0.423557,0.389515543,-0.185551607,0.415349,0.387261002,-0.203866718,0.423762,0.427747907,-0.227366567,0.449692,0.422724284,-0.196695291,0.436112,0.418644571,-0.201437665,0.429873,0.415076723,-0.205747943,0.424367
0.369529628,-0.285931595,0.446113,0.374205504,-0.236814268,0.435751,0.34468653,-0.267279579,0.437305,0.362836999,-0.233024159,0.430027,0.340597802,-0.196498748,0.410531,0.336108799,-0.178477794,0.410259,0.346654017,-0.184728213,0.418321,0.340254415,-0.150594636,0.403638,0.352446892,-0.14505331,0.411764,0.368296643,-0.149168067,0.426791,0.375116195,-0.193666299,0.42615,0.372495281,-0.16305753,0.410242,0.365116865,-0.176719649,0.400961,0.364992113,-0.192713887,0.40897,0.395659522,-0.205025887,0.43342,0.400097493,-0.172384763,0.416326,0.391426586,-0.179095436,0.40758,0.387735726,-0.200111152,0.415637,0.42535476,-0.224580961,0.443542,0.425306569,-0.193361663,0.429111,0.420451426,-0.197175535,0.42248,0.411757059,-0.201435723,0.416629
0.359977717,-0.277644906,0.432993,0.373142987,-0.233074633,0.428695,0.341595227,-0.25905873,0.426857,0.362662149,-0.230815014,0.417545,0.355769596,-0.19683513,0.404783,0.357830621,-0.178735907,0.409281,0.349856729,-0.18478317,0.418367,0.349767677,-0.147905551,0.408298,0.358658768,-0.14602879,0.410208,0.378295196,-0.148412723,0.424236,0.376508221,-0.193638507,0.424712,0.387796158,-0.167568022,0.413947,0.383728247,-0.18351051,0.407667,0.386532255,-0.202127301,0.417715,0.398382597,-0.204328696,0.430277,0.411887721,-0.17753276,0.418589,0.407155124,-0.186418177,0.41261,0.408184982,-0.206697719,0.422996,0.424158953,-0.223406967,0.437491,0.429173118,-0.196821213,0.427035,0.427371239,-0.201997392,0.422232,0.42546909,-0.207268673,0.417993
0.358530529,-0.275779994,0.430117,0.373205416,-0.232198206,0.427685,0.341637074,-0.257163151,0.424556,0.354759224,-0.225483478,0.409734,0.349339997,-0.193050939,0.399546,0.352727983,-0.175771292,0.405858,0.354681484,-0.183694505,0.419234,0.356522451,-0.144153468,0.410377,0.359477769,-0.143125008,0.405948,0.375904774,-0.147459631,0.41673,0.380906953,-0.193303264,0.425432,0.392984942,-0.166794016,0.416266,0.387875064,-0.184643257,0.410919,0.390828182,-0.203563117,0.421471,0.402035562,-0.20454997,0.430726,0.417121573,-0.179297762,0.420501,0.411340801,-0.190612348,0.41527,0.411376879,-0.209550202,0.426174,0.425141191,-0.22332884,0.437346,0.433626721,-0.198313287,0.428088,0.430986234,-0.205913391,0.423835,0.429836653,-0.2116882,0.421949
0.36806327,-0.273407055,0.425837,0.372780712,-0.224176529,0.412118,0.348615962,-0.254888434,0.415456,0.350533645,-0.223483247,0.404375,0.333701724,-0.189447803,0.379348,0.329964083,-0.167719922,0.373236,0.334825338,-0.173616092,0.39064,0.329160231,-0.133860066,0.372215,0.328898855,-0.119368233,0.363003,0.34272025,-0.110474658,0.369636,0.363657949,-0.179269288,0.399407,0.364281955,-0.153504732,0.380734,0.356395707,-0.168035996,0.369841,0.353318948,-0.18279005,0.376533,0.388434156,-0.187759278,0.407716,0.383986901,-0.189258598,0.387815,0.390975381,-0.214361665,0.40275,0.394395799,-0.225372669,0.416753,0.419656129,-0.205043201,0.419563,0.418951112,-0.186857152,0.402994,0.409915537,-0.194849983,0.395381,0.410261417,-0.205125003,0.399569
0.371744241,-0.278325588,0.432209,0.373838334,-0.228221936,0.413537,0.353575681,-0.259842334,0.419348,0.351965931,-0.232371145,0.403109,0.333611437,-0.196225663,0.377643,0.327913565,-0.170450471,0.371115,0.333447125,-0.176941973,0.385887,0.326364561,-0.140538319,0.363181,0.323669013,-0.124558721,0.351829,0.330544945,-0.114568094,0.350903,0.363322961,-0.184358109,0.396237,0.353961899,-0.147305154,0.37363,0.351989926,-0.148079582,0.360443,0.358881971,-0.164010055,0.364866,0.389143295,-0.194501868,0.406244,0.372747911,-0.156053287,0.382287,0.370500127,-0.15204643,0.37003,0.383800614,-0.163181995,0.374108,0.421906228,-0.214162013,0.420827,0.418220755,-0.197949945,0.40122,0.406410757,-0.205921951,0.392211,0.406748954,-0.21837946,0.39464
0.366360143,-0.273571891,0.425999,0.367790771,-0.217488124,0.402155,0.343849576,-0.25233769,0.411822,0.345197531,-0.220919915,0.390755,0.327684834,-0.188029432,0.363478,0.320004637,-0.165321459,0.353318,0.32806482,-0.162269177,0.369648,0.317908174,-0.126303392,0.343164,0.313568761,-0.110567014,0.329921,0.317546271,-0.100020754,0.325588,0.357974514,-0.170168812,0.380062,0.346497504,-0.131153615,0.353517,0.339017528,-0.139196265,0.338032,0.342866847,-0.155032806,0.340252,0.383736962,-0.180746269,0.390534,0.365600818,-0.142770942,0.362934,0.360882947,-0.142895334,0.348813,0.370561043,-0.155539481,0.35057,0.416233346,-0.2009382,0.406428,0.410299098,-0.189463669,0.384028,0.395143387,-0.196847963,0.373737,0.389101855,-0.207767768,0.374527
0.365578605,-0.265579056,0.415097,0.362227245,-0.203388498,0.388532,0.344910813,-0.243033073,0.402267,0.346163991,-0.214274703,0.383085,0.324646445,-0.182821183,0.356822,0.313502679,-0.160883955,0.345882,0.322395126,-0.14841935,0.356018,0.310099995,-0.117040693,0.328447,0.304058728,-0.102662943,0.314661,0.303078971,-0.0911514562,0.306619,0.351378184,-0.156589058,0.363919,0.340429896,-0.121603082,0.335333,0.326188764,-0.130125101,0.318658,0.326710833,-0.145282014,0.32043,0.37658665,-0.167403722,0.37254,0.355383492,-0.123197084,0.349592,0.349457591,-0.121685924,0.337851,0.359043952,-0.136379538,0.343305,0.408708108,-0.187911965,0.386644,0.38503261,-0.188561389,0.363153,0.3654131,-0.19094737,0.35236,0.355029623,-0.19473878,0.35292
0.365183086,-0.251277801,0.40765,0.350601837,-0.19385535,0.375254,0.341509792,-0.227579704,0.395881,0.336317456,-0.203896768,0.375973,0.316528778,-0.175571547,0.351535,0.306248101,-0.154432202,0.338766,0.309257284,-0.135641294,0.340442,0.295621853,-0.105963173,0.309868,0.288310545,-0.092764181,0.294581,0.290124921,-0.0831492092,0.289085,0.335909795,-0.143866895,0.345238,0.319724951,-0.107545778,0.312656,0.298377048,-0.115570167,0.293649,0.293845099,-0.128992584,0.29308,0.359669819,-0.154806593,0.351769,0.332427725,-0.135966707,0.320149,0.317691706,-0.138167877,0.303972,0.316283958,-0.154660888,0.303276,0.390939393,-0.175630317,0.364259,0.364568727,-0.174852063,0.338483,0.34013976,-0.175922538,0.32664,0.328744105,-0.178388125,0.325609
0.360638929,-0.245431489,0.401278,0.346613419,-0.186492378,0.369069,0.336113593,-0.222027269,0.388913,0.33823722,-0.199085243,0.3721,0.326859852,-0.173488813,0.348132,0.317664574,-0.149892926,0.333323,0.30347267,-0.130879616,0.333629,0.289616436,-0.101495502,0.302995,0.282253728,-0.0884073909,0.287679,0.285762799,-0.0793087335,0.283867,0.330774373,-0.138953727,0.339226,0.3140763,-0.103850852,0.306731,0.29286355,-0.112864957,0.287776,0.288674961,-0.126381834,0.287145,0.355152662,-0.149790115,0.346402,0.328651441,-0.132749889,0.314644,0.314384554,-0.135537142,0.298395,0.313082527,-0.151781838,0.297566,0.387283137,-0.170554685,0.359626,0.35958681,-0.170151063,0.333788,0.336239346,-0.17224886,0.321917,0.325930365,-0.175342554,0.320805
0.358874007,-0.238074541,0.39775,0.342646624,-0.182906966,0.364505,0.332039827,-0.217662909,0.384346,0.332193529,-0.194769032,0.364589,0.318930905,-0.169041952,0.339497,0.310554795,-0.146670446,0.326372,0.299424554,-0.126106393,0.327125,0.283529243,-0.0992411485,0.29542,0.274860449,-0.0861085504,0.279568,0.276464387,-0.0754244447,0.274145,0.327465542,-0.134092507,0.333703,0.308917264,-0.0988435804,0.300502,0.288994625,-0.10885554,0.281135,0.283119631,-0.122721669,0.279619,0.35238466,-0.144809515,0.341768,0.32764966,-0.128511157,0.309098,0.3137215,-0.133153587,0.292384,0.311040332,-0.148497549,0.290534,0.385076852,-0.16533351,0.356197,0.355664046,-0.167956913,0.329748,0.332278721,-0.169919425,0.317597,0.320888388,-0.172736921,0.315792
0.354986604,-0.229459521,0.391827,0.33843093,-0.17585109,0.357495,0.328641414,-0.209511437,0.378977,0.329241612,-0.189090724,0.359345,0.314714554,-0.16563994,0.33498,0.305055635,-0.143290734,0.320934,0.296576388,-0.120762405,0.320131,0.276975513,-0.0951689755,0.287864,0.267173657,-0.0826074052,0.271731,0.264432989,-0.0728574243,0.263186,0.323557717,-0.128699725,0.325685,0.304431659,-0.0920819002,0.291806,0.282472035,-0.103728977,0.272044,0.27562383,-0.117903302,0.270101,0.350681646,-0.137533915,0.332994,0.323110182,-0.122698178,0.299984,0.306720452,-0.129487183,0.283095,0.299090555,-0.143659735,0.280882,0.38262082,-0.15785116,0.34669,0.346556544,-0.161812986,0.319941,0.323909418,-0.163682257,0.307652,0.311523298,-0.167577624,0.305579
0.342742805,-0.22081806,0.378271,0.327042818,-0.166313128,0.342909,0.316041283,-0.199266318,0.363929,0.307497317,-0.179492342,0.338203,0.292070866,-0.157067051,0.312276,0.282288922,-0.135516385,0.297397,0.283132117,-0.111808948,0.303042,0.261066293,-0.0875912078,0.269698,0.250056923,-0.0757710082,0.253025,0.244783759,-0.0662773362,0.24254,0.311553926,-0.120119372,0.310145,0.291915668,-0.0859274792,0.275639,0.271653934,-0.0970700125,0.255511,0.2616418,-0.109602397,0.252379,0.336652411,-0.130982274,0.318811,0.312563466,-0.116710646,0.284811,0.296657283,-0.124835014,0.267415,0.28706539,-0.136783145,0.263808,0.369351159,-0.151414252,0.334262,0.334863082,-0.155829622,0.306901,0.311954681,-0.158960946,0.294329,0.298487268,-0.161174908,0.291319
0.338723304,-0.215624397,0.373923,0.321104825,-0.162351863,0.337944,0.311195683,-0.194002555,0.35913,0.300725594,-0.17569916,0.332193,0.285222972,-0.154530549,0.306287,0.274645007,-0.133364428,0.290632,0.276311309,-0.108873613,0.297131,0.253798775,-0.0859069015,0.263354,0.241497005,-0.0756943715,0.246466,0.237676425,-0.0660410398,0.236414,0.304995894,-0.116909582,0.304608,0.285001103,-0.0838787455,0.269767,0.264526501,-0.0952996948,0.249443,0.256645595,-0.10763045,0.24569,0.33038479,-0.127487169,0.313632,0.3058204,-0.114532282,0.279227,0.289629273,-0.122798701,0.261625,0.282592432,-0.135223976,0.257326,0.363531543,-0.147464918,0.329597,0.330260492,-0.152886266,0.301983,0.3076462,-0.155682604,0.289296,0.29415274,-0.159469006,0.285816
0.330928721,-0.208174435,0.3668,0.31388351,-0.15827311,0.331398,0.301831227,-0.18786798,0.351198,0.294528033,-0.171839473,0.325073,0.27804274,-0.150744717,0.298798,0.266526519,-0.129889018,0.282933,0.268551205,-0.106676998,0.289935,0.245566614,-0.0840332727,0.256053,0.234100591,-0.0728792073,0.239112,0.22753516,-0.0637968164,0.227553,0.298100906,-0.114017368,0.298598,0.279654229,-0.081367726,0.264176,0.260708052,-0.0933439386,0.244096,0.251957117,-0.104805664,0.240268,0.324027999,-0.12380836,0.308551,0.30133237,-0.112039387,0.274211,0.284226327,-0.121005007,0.256642,0.274853051,-0.130763826,0.252158,0.357446495,-0.142410714,0.32553,0.3259982,-0.150610618,0.298046,0.303553008,-0.153427662,0.285418,0.289789365,-0.156728913,0.281834
0.328986537,-0.206453938,0.365504,0.312236578,-0.157226054,0.330193,0.299822902,-0.186440134,0.349708,0.29323476,-0.170964989,0.323508,0.276375659,-0.149893414,0.297118,0.264513816,-0.129143957,0.281247,0.267343587,-0.106572522,0.288544,0.244178531,-0.0836091169,0.254627,0.232621906,-0.0722494858,0.237668,0.226035612,-0.0629914271,0.226157,0.297023873,-0.113754395,0.297476,0.278980219,-0.0808609827,0.263135,0.26050475,-0.0928103191,0.243102,0.251340653,-0.10411691,0.23921,0.323009062,-0.123366334,0.307644,0.300886387,-0.111485393,0.273306,0.2832806,-0.120850103,0.255737,0.27368399,-0.129816469,0.251163,0.356404703,-0.141657561,0.324864,0.325316699,-0.150143726,0.297403,0.302896322,-0.153003513,0.284786,0.288945656,-0.156084321,0.281143
0.323600231,-0.201616733,0.361136,0.306234075,-0.153639368,0.325965,0.294427271,-0.183152756,0.34496,0.279966889,-0.16435931,0.316722,0.258909457,-0.141775687,0.28952,0.245135495,-0.120612458,0.271717,0.262291058,-0.105225539,0.283928,0.239071964,-0.081927356,0.249936,0.2274908,-0.0703086018,0.23294,0.220443903,-0.0606813638,0.220964,0.292085737,-0.111976055,0.293377,0.275104562,-0.0788776611,0.25918,0.257643779,-0.0908561495,0.239232,0.24727679,-0.102046454,0.235173,0.31802495,-0.121109243,0.303959,0.295820176,-0.10247084,0.269616,0.278594833,-0.116227863,0.252045,0.269037789,-0.124755079,0.247247,0.351133326,-0.138585071,0.321649,0.321373526,-0.147720511,0.29423,0.29893044,-0.150617544,0.281632,0.284643784,-0.153027595,0.277846
0.283784637,-0.177099843,0.328769,0.279160991,-0.130332769,0.301079,0.253724455,-0.154334969,0.310382,0.240923798,-0.127710869,0.280849,0.226983183,-0.10166722,0.256096,0.226380678,-0.0861194368,0.239778,0.246814456,-0.0779012229,0.260932,0.234323126,-0.0657801434,0.229719,0.22829538,-0.0596839838,0.214113,0.226200797,-0.0548945638,0.202809,0.27877698,-0.0893464963,0.275424,0.261066817,-0.106246253,0.24672,0.23187716,-0.116078599,0.229976,0.221626532,-0.12600952,0.227932,0.3054326,-0.102425814,0.289559,0.295698269,-0.102552451,0.259819,0.271084717,-0.112865953,0.244603,0.26163888,-0.119148425,0.241762,0.337287055,-0.124694601,0.310352,0.313943767,-0.136597207,0.286074,0.2930825,-0.138672845,0.27492,0.283237822,-0.142185465,0.272417
0.285115289,-0.177892853,0.331359,0.279166339,-0.13004504,0.301189,0.256287889,-0.155646119,0.313424,0.262917044,-0.142517084,0.29236,0.260253837,-0.126668513,0.26463,0.270440599,-0.125019182,0.253406,0.244231838,-0.0767511166,0.260064,0.22539127,-0.0647392527,0.227729,0.217004546,-0.0591644117,0.211562,0.215265845,-0.0555719472,0.202289,0.275666395,-0.087798333,0.273235,0.254965188,-0.104082405,0.242644,0.226104672,-0.113099974,0.224798,0.216468566,-0.122543822,0.222103,0.302169349,-0.100636201,0.286481,0.276506485,-0.114220939,0.254442,0.256672685,-0.123001859,0.23805,0.239756939,-0.130141301,0.234364,0.33440746,-0.122811799,0.306587,0.31329801,-0.130855346,0.281155,0.29332777,-0.134006983,0.26947,0.280715629,-0.139335987,0.266537
0.281110019,-0.175684074,0.32898,0.278252673,-0.129566251,0.299886,0.254619251,-0.154729138,0.310821,0.253588374,-0.139636772,0.28182,0.250785693,-0.130463084,0.254099,0.254863459,-0.128036532,0.238569,0.24283261,-0.0763202485,0.259151,0.225080098,-0.0649547889,0.227285,0.216950216,-0.0595180783,0.211352,0.216420761,-0.0563119993,0.203187,0.275178409,-0.0874324549,0.272931,0.254923847,-0.104393943,0.243154,0.226816167,-0.11364013,0.225784,0.217699957,-0.12329171,0.22337,0.302481468,-0.100364665,0.286592,0.27718145,-0.11483336,0.255138,0.257697211,-0.123862111,0.239046,0.241055248,-0.131201225,0.235601,0.335634016,-0.122713992,0.307029,0.314499082,-0.131517331,0.282089,0.294606598,-0.134792771,0.27063,0.283302884,-0.140246668,0.267882
0.281460145,-0.175849133,0.32889,0.278299239,-0.129561244,0.299777,0.254812102,-0.154894569,0.310775,0.253463958,-0.140296117,0.281626,0.250175751,-0.130145781,0.253481,0.251264353,-0.126228438,0.2352,0.242499753,-0.0762200902,0.259086,0.225057608,-0.0650501142,0.227219,0.216935271,-0.0596370119,0.211285,0.216282826,-0.056423558,0.202995,0.274959198,-0.0872569239,0.272804,0.254471461,-0.104373987,0.242999,0.226504195,-0.113576114,0.225613,0.217565677,-0.123241025,0.223234,0.302393885,-0.100146704,0.286416,0.276953368,-0.114850069,0.254953,0.257475936,-0.123878772,0.238856,0.240914769,-0.131243039,0.235453,0.335757806,-0.122483533,0.306799,0.314279344,-0.131478868,0.281844,0.294337649,-0.134736914,0.270378,0.28365646,-0.140233748,0.267657
0.28406721,-0.176970357,0.329999,0.278909789,-0.12979574,0.300189,0.256160469,-0.155674244,0.31195,0.254478903,-0.141264232,0.282428,0.251116538,-0.130781756,0.254088,0.251841744,-0.126398358,0.235404,0.242397324,-0.0765733513,0.259145,0.224904247,-0.0655886195,0.226957,0.216656033,-0.0601815773,0.210862,0.215113001,-0.0567947076,0.201701,0.274713685,-0.0872590207,0.272568,0.253772883,-0.104432856,0.242259,0.225466631,-0.113091563,0.224578,0.216275232,-0.122261685,0.221944,0.302084791,-0.0998606137,0.285993,0.276428637,-0.114771682,0.254146,0.256765006,-0.123753961,0.237852,0.240034884,-0.130821611,0.234207,0.335504627,-0.121864557,0.306258,0.313735045,-0.130951105,0.280993,0.293661429,-0.134154601,0.269385,0.283113714,-0.139614375,0.266488
0.284185277,-0.176829661,0.329955,0.278895765,-0.129756016,0.30001,0.256372755,-0.155776651,0.311896,0.254149839,-0.141324563,0.281868,0.250712557,-0.130644247,0.253507,0.252050036,-0.126443018,0.235431,0.24203373,-0.0767164431,0.258869,0.224629216,-0.0658589751,0.226615,0.216365096,-0.0604744038,0.210488,0.214598678,-0.0570651555,0.201101,0.27440218,-0.087213603,0.272264,0.253411103,-0.104514414,0.241865,0.225019892,-0.112891204,0.224132,0.215746528,-0.121798377,0.221424,0.301842994,-0.0996578436,0.285677,0.276214273,-0.114766,0.253755,0.256525026,-0.12376801,0.237424,0.239754193,-0.130703155,0.233703,0.335389402,-0.121470979,0.305946,0.313567847,-0.130701683,0.280626,0.293475643,-0.133906458,0.268992,0.283105099,-0.1393761,0.266042
0.284184766,-0.176668029,0.329818,0.278824253,-0.129699041,0.299816,0.256425269,-0.155789591,0.311737,0.254262333,-0.141548988,0.281863,0.250811625,-0.130739549,0.253504,0.252146859,-0.126455732,0.235421,0.241718904,-0.0768013628,0.258613,0.224389368,-0.066022655,0.22633,0.216119023,-0.0606549884,0.210188,0.214337857,-0.0572668813,0.200778,0.274151618,-0.0871722685,0.272019,0.253157304,-0.104574398,0.241588,0.224724452,-0.112759887,0.223837,0.215397688,-0.121484532,0.221082,0.30166265,-0.0995104029,0.285444,0.276068507,-0.114760885,0.253492,0.2563702,-0.123779524,0.237144,0.239571374,-0.130626403,0.233372,0.335321377,-0.121194757,0.305736,0.313472452,-0.130542322,0.280396,0.293376561,-0.133752542,0.268753,0.283145324,-0.139228733,0.265767
0.284217863,-0.176562761,0.32975,0.278791534,-0.129666036,0.299693,0.256496867,-0.155818864,0.311657,0.254308924,-0.141690461,0.281822,0.250842011,-0.13078447,0.253466,0.25217029,-0.126443604,0.235376,0.241502399,-0.0768713396,0.258442,0.224222581,-0.0661408581,0.226131,0.215944576,-0.0607842787,0.209975,0.214121303,-0.0574027486,0.200519,0.273973504,-0.0871444172,0.271845,0.25296772,-0.104619633,0.241381,0.224497094,-0.112658455,0.22361,0.215128786,-0.121245507,0.220818,0.301530332,-0.0994007215,0.285272,0.275948798,-0.114750701,0.25329,0.256240951,-0.123778573,0.236927,0.239420283,-0.130560357,0.233116,0.335266583,-0.12098609,0.305575,0.313383251,-0.130419833,0.280213,0.293282378,-0.133632047,0.268561,0.283161978,-0.139111526,0.265548
0.285217869,-0.176955355,0.330942,0.279194905,-0.129893595,0.300204,0.257552337,-0.156330821,0.312959,0.246804861,-0.135875377,0.284761,0.245252345,-0.132033186,0.256746,0.245583755,-0.13173941,0.239881,0.241500373,-0.0771515895,0.258666,0.223921239,-0.0662875653,0.22606,0.215456315,-0.0610438068,0.209757,0.212880429,-0.0577474199,0.199652,0.273712535,-0.0872753299,0.271724,0.252451538,-0.104116537,0.240765,0.223767841,-0.112000909,0.222705,0.214225112,-0.120373836,0.219686,0.301096728,-0.099403714,0.284923,0.275337314,-0.114440616,0.252578,0.255462778,-0.123338275,0.23603,0.238500525,-0.129998469,0.23201,0.33473184,-0.120831851,0.305056,0.312444271,-0.130088006,0.279397,0.292273343,-0.133208845,0.267607,0.28216982,-0.138589028,0.264442
0.272542216,-0.168859777,0.316833,0.269014398,-0.12518793,0.289317,0.246825111,-0.149720777,0.299939,0.238982814,-0.131569045,0.275736,0.236464198,-0.127302031,0.247546,0.235458637,-0.126307956,0.229991,0.234310707,-0.0750729353,0.251141,0.218121083,-0.0647491382,0.220381,0.210370696,-0.0599045606,0.205001,0.207512062,-0.056804888,0.194841,0.265645753,-0.0848694127,0.263823,0.246354953,-0.101375487,0.234854,0.219136926,-0.109454373,0.217956,0.212017194,-0.118846407,0.21726,0.292096758,-0.0965458144,0.276454,0.268319452,-0.111481431,0.246026,0.249577909,-0.120448133,0.230458,0.235502433,-0.128318026,0.228932,0.324210586,-0.117063877,0.295443,0.30316833,-0.12627041,0.27112,0.283929891,-0.129433775,0.259945,0.275971737,-0.135517381,0.258496
0.28500888,-0.176189886,0.330866,0.278876267,-0.129763239,0.299893,0.257658554,-0.156156405,0.31291,0.246880265,-0.135916889,0.284848,0.245332585,-0.132076384,0.25683,0.24558785,-0.131741607,0.239885,0.240445218,-0.0773590971,0.258242,0.223079197,-0.0663671305,0.225535,0.214496782,-0.0613256608,0.209181,0.212166148,-0.0584992325,0.199394,0.272823459,-0.0872883788,0.271196,0.251695241,-0.103481518,0.240071,0.223182212,-0.111239767,0.221914,0.213742589,-0.119384743,0.218803,0.300420146,-0.0992535144,0.284327,0.27478304,-0.114132283,0.251859,0.254883446,-0.122968685,0.235247,0.237906919,-0.129590775,0.231139,0.334412554,-0.120480997,0.304414,0.311577648,-0.129809503,0.278655,0.291459577,-0.132888977,0.26682,0.282313821,-0.138293184,0.263591
0.273711283,-0.168921041,0.317514,0.269293611,-0.125347544,0.28954,0.247698272,-0.150037463,0.300647,0.239676181,-0.13195077,0.276536,0.237253221,-0.127726806,0.248372,0.236138422,-0.126672616,0.230655,0.23367535,-0.075555943,0.251111,0.217591605,-0.0650886159,0.220128,0.209686014,-0.0604476018,0.204636,0.207166372,-0.057857299,0.194858,0.265141098,-0.0850615224,0.263621,0.245888598,-0.100938272,0.234317,0.218635115,-0.108760364,0.217222,0.211475949,-0.117796502,0.216361,0.291785153,-0.0964980103,0.276148,0.2679938,-0.111342624,0.245457,0.249157115,-0.12025094,0.229754,0.235009747,-0.128023805,0.22807,0.324258227,-0.116730039,0.295079,0.302598788,-0.126068971,0.270545,0.283332381,-0.129177608,0.259273,0.276156785,-0.135264169,0.25771
0.285796388,-0.176067429,0.331481,0.279030433,-0.129911154,0.300065,0.25832306,-0.156333789,0.313529,0.247301485,-0.136148787,0.285334,0.245776768,-0.132315513,0.257295,0.245928766,-0.131924486,0.240218,0.240073459,-0.0779730179,0.258145,0.222476496,-0.0668509287,0.22524,0.213755261,-0.0620544161,0.208788,0.211183028,-0.0596430272,0.198839,0.272420844,-0.0876417468,0.270958,0.251592082,-0.103053749,0.239539,0.222854283,-0.110579049,0.221212,0.21312602,-0.118325451,0.217875,0.300036748,-0.0993694057,0.284008,0.2746005,-0.114052486,0.25131,0.254631424,-0.122866395,0.234581,0.237510798,-0.129328362,0.230247,0.334136655,-0.120272559,0.304066,0.311143577,-0.129597537,0.278131,0.291035089,-0.132643801,0.266215,0.281802501,-0.137967452,0.262826
0.274938917,-0.169239711,0.318762,0.2699171,-0.125811846,0.29025,0.24879954,-0.150530355,0.301872,0.240499942,-0.132434837,0.277401,0.238109207,-0.128175323,0.249254,0.237109342,-0.127029309,0.231411,0.233773731,-0.0763066007,0.251459,0.21734791,-0.0655466188,0.2202,0.209243516,-0.0610604535,0.20457,0.206413489,-0.0587845795,0.194582,0.265209373,-0.0856543721,0.263833,0.245963487,-0.100838885,0.234147,0.218362963,-0.108156083,0.21683,0.210858564,-0.116525985,0.215732,0.291875772,-0.0969458295,0.27629,0.268236117,-0.111421152,0.245286,0.249262558,-0.120267671,0.229423,0.234931971,-0.127896122,0.227501,0.32446597,-0.116980017,0.295219,0.302474365,-0.126267684,0.270442,0.283205561,-0.129278705,0.259057,0.275950032,-0.135244284,0.257324
0.286597426,-0.176456044,0.332318,0.279637311,-0.13050778,0.300762,0.25911559,-0.156764294,0.314435,0.248173377,-0.136682817,0.286189,0.246564846,-0.132717949,0.258095,0.246885508,-0.132144609,0.240809,0.240551001,-0.0787144899,0.258841,0.222774592,-0.0672115741,0.225887,0.213947967,-0.0625308268,0.209411,0.211191348,-0.0604028815,0.199389,0.272868102,-0.0883964919,0.271524,0.252012234,-0.10328816,0.239991,0.223043781,-0.110284882,0.221597,0.213167906,-0.117382565,0.218254,0.300479769,-0.100125483,0.284479,0.27533952,-0.114350975,0.25171,0.255348454,-0.123134433,0.234945,0.238254227,-0.129676571,0.230616,0.334600681,-0.121008485,0.304444,0.311205106,-0.130330351,0.278444,0.291177032,-0.133247032,0.266498,0.282033064,-0.138488344,0.26311
0.286833248,-0.176579206,0.332672,0.279902424,-0.130797116,0.301044,0.259384379,-0.156867921,0.314804,0.248535291,-0.136887888,0.286517,0.246896013,-0.132943618,0.258396,0.247212015,-0.132320907,0.24101,0.240872136,-0.079065639,0.259098,0.222948939,-0.0675959207,0.226116,0.214045294,-0.0629313555,0.209625,0.211214758,-0.0608275812,0.199592,0.273169022,-0.0888253406,0.271741,0.252228014,-0.103492651,0.240156,0.223092674,-0.110181417,0.221732,0.213114842,-0.116990132,0.218366,0.300762045,-0.100608965,0.284668,0.275706647,-0.114618342,0.251863,0.255653977,-0.123371838,0.235079,0.238515587,-0.129903332,0.230729,0.33485421,-0.121536849,0.30461,0.311197206,-0.130870483,0.27858,0.291169283,-0.133698681,0.26662,0.282017381,-0.138867895,0.263216
0.287058833,-0.176696083,0.333014,0.280164712,-0.131084991,0.301323,0.259644153,-0.156966183,0.315162,0.248862758,-0.137072717,0.286825,0.247204188,-0.133146466,0.258683,0.247511056,-0.132482157,0.24121,0.241195114,-0.0794172215,0.259357,0.223128282,-0.0679814512,0.22635,0.214150944,-0.0633339022,0.209847,0.211237384,-0.0612514564,0.199794,0.273472902,-0.0892550081,0.271961,0.252453307,-0.103701192,0.24033,0.223153746,-0.110084116,0.221879,0.213077912,-0.116607705,0.218494,0.301048498,-0.101093667,0.284861,0.276082763,-0.114889571,0.252024,0.255971701,-0.123615254,0.235224,0.238793686,-0.130139348,0.230858,0.335113228,-0.122067032,0.304781,0.31119841,-0.131413857,0.278724,0.291172671,-0.134154816,0.266752,0.282016879,-0.139254282,0.263336
