sluyters/QuantumLeap/backend/src/datasets/gesture/HandGestureDataset_SHREC2017_csv/Gesture14/finger_2/subject_24_essai_3_skeletons_world.csv
Wrist_x,Wrist_y,Wrist_z,Palm_x,Palm_y,Palm_z,thumb_base_x,thumb_base_y,thumb_base_z,thumb_first_joint_x,thumb_first_joint_y,thumb_first_joint_z,thumb_second_joint_x,thumb_second_joint_y,thumb_second_joint_z,thumb_tip_x,thumb_tip_y,thumb_tip_z,index_base_x,index_base_y,index_base_z,index_first_joint_x,index_first_joint_y,index_first_joint_z,index_second_joint_x,index_second_joint_y,index_second_joint_z,index_tip_x,index_tip_y,index_tip_z,middle_base_x,middle_base_y,middle_base_z,middle_first_joint_x,middle_first_joint_y,middle_first_joint_z,middle_second_joint_x,middle_second_joint_y,middle_second_joint_z,middle_tip_x,middle_tip_y,middle_tip_z,ring_base_x,ring_base_y,ring_base_z,ring_first_joint_x,ring_first_joint_y,ring_first_joint_z,ring_second_joint_x,ring_second_joint_y,ring_second_joint_z,ring_tip_x,ring_tip_y,ring_tip_z,pinky_base_x,pinky_base_y,pinky_base_z,pinky_first_joint_x,pinky_first_joint_y,pinky_first_joint_z,pinky_second_joint_x,pinky_second_joint_y,pinky_second_joint_z,pinky_tip_x,pinky_tip_y,pinky_tip_z,
0.421280966,-0.397714543,0.57924,0.431967211,-0.352919193,0.57232,0.402180175,-0.376571208,0.572461,0.378657546,-0.342020062,0.554532,0.357088364,-0.311447918,0.533283,0.348940687,-0.28953569,0.521547,0.414471618,-0.300380445,0.559388,0.406484226,-0.268822183,0.544654,0.402746733,-0.256996624,0.537288,0.399417228,-0.246600433,0.530591,0.441340677,-0.312778477,0.565916,0.448257714,-0.271026777,0.552337,0.447174966,-0.261664473,0.544416,0.4595466,-0.262201435,0.554408,0.462934545,-0.326903026,0.571896,0.475109688,-0.29106553,0.56379,0.475796636,-0.286853403,0.559643,0.466696464,-0.296915971,0.555872,0.487239125,-0.350768557,0.580027,0.506339736,-0.327822552,0.572455,0.507789185,-0.325395263,0.568976,0.508319111,-0.336783501,0.577521
0.419108591,-0.388057636,0.575206,0.443359193,-0.346816688,0.574183,0.404745316,-0.368818535,0.572145,0.392605056,-0.330662199,0.559799,0.373160098,-0.300279927,0.538243,0.366218688,-0.276812412,0.526553,0.44145984,-0.303822033,0.569669,0.43489072,-0.281972985,0.56084,0.431614874,-0.270527509,0.556426,0.428641923,-0.259786534,0.552413,0.463833117,-0.316853454,0.573236,0.47173839,-0.28189324,0.565014,0.47664998,-0.260870882,0.560217,0.480304534,-0.245550149,0.556791,0.480917608,-0.330725783,0.576262,0.497839713,-0.297778343,0.568879,0.503337839,-0.281564523,0.565102,0.505746555,-0.268034605,0.561668,0.498279651,-0.352949623,0.579984,0.517899793,-0.328875045,0.575248,0.526448507,-0.317297119,0.573072,0.527647598,-0.309436343,0.571152
0.427470629,-0.379073483,0.57478,0.457880748,-0.34202165,0.573674,0.41482341,-0.359266667,0.571643,0.405521302,-0.32922768,0.559189,0.382754937,-0.299019892,0.536462,0.374121707,-0.275688252,0.524523,0.454845288,-0.298060015,0.569012,0.446111254,-0.278529269,0.560084,0.441692901,-0.268286219,0.55562,0.437643056,-0.25866517,0.551562,0.477696663,-0.310860644,0.572651,0.488324452,-0.274072282,0.564345,0.49284609,-0.253182501,0.5595,0.495898175,-0.238148582,0.55604,0.495244637,-0.324661953,0.575744,0.512504418,-0.291324628,0.568631,0.520428505,-0.274168779,0.564991,0.52287534,-0.26081368,0.561683,0.513248259,-0.347001218,0.579556,0.533140591,-0.324739268,0.575577,0.541242376,-0.313019088,0.573748,0.547819301,-0.302654079,0.572135
0.45043567,-0.382999447,0.586708,0.475741004,-0.343090082,0.583211,0.437758347,-0.363069608,0.584113,0.438700727,-0.337316447,0.571695,0.420270614,-0.301555229,0.548653,0.420487858,-0.281646905,0.545695,0.471788456,-0.294615941,0.577724,0.471872332,-0.258582687,0.567625,0.470547237,-0.242697707,0.562575,0.469412871,-0.227928686,0.557985,0.493831565,-0.308095998,0.579974,0.505464764,-0.269057127,0.569643,0.509075192,-0.249383993,0.563617,0.51183799,-0.234986927,0.559313,0.510587928,-0.322745126,0.582132,0.524816924,-0.287023783,0.572432,0.530318189,-0.270418745,0.56747,0.533851126,-0.25695563,0.562958,0.527486707,-0.346409188,0.585225,0.545624622,-0.320622865,0.580551,0.553828606,-0.308907881,0.578403,0.561105365,-0.298536409,0.576508
0.465105149,-0.380158033,0.596292,0.482928748,-0.331792262,0.588235,0.451438708,-0.359197047,0.59265,0.435720673,-0.31605312,0.577988,0.419062601,-0.284640229,0.561129,0.414682358,-0.263136356,0.551877,0.475391,-0.280962097,0.578549,0.474144722,-0.246536279,0.565044,0.473640195,-0.228986342,0.558291,0.472472003,-0.214280328,0.552152,0.497592249,-0.294265822,0.580773,0.506516755,-0.255325093,0.566393,0.509638799,-0.235056354,0.558004,0.51124623,-0.221335272,0.552013,0.514789596,-0.308932834,0.583307,0.52588601,-0.272183327,0.56987,0.531462267,-0.253511196,0.562995,0.535083541,-0.238271368,0.556745,0.532881237,-0.33300744,0.587563,0.545532821,-0.304052539,0.576882,0.549765122,-0.292781792,0.571974,0.553212263,-0.283174553,0.567644
0.459015125,-0.37981915,0.596058,0.471587249,-0.328476723,0.586921,0.445817933,-0.348802321,0.590711,0.424604735,-0.311143892,0.573859,0.41147773,-0.280988727,0.559853,0.409675681,-0.259910764,0.554585,0.464215162,-0.276500603,0.574401,0.460008721,-0.241742751,0.55913,0.456819271,-0.227577847,0.551494,0.4536817,-0.215394852,0.544553,0.487221212,-0.291736052,0.578459,0.49394562,-0.250790504,0.562897,0.496965506,-0.228897727,0.553819,0.498654724,-0.214218985,0.547334,0.504943735,-0.307929293,0.582598,0.520146903,-0.273150706,0.571795,0.527324667,-0.257066497,0.566268,0.536708804,-0.241228527,0.561244,0.523384988,-0.333623574,0.588911,0.538146677,-0.306224862,0.578744,0.548320859,-0.294000039,0.574072,0.553123586,-0.283906248,0.56995
0.452832449,-0.37480724,0.606122,0.457400667,-0.331533864,0.593371,0.42958525,-0.35278793,0.601047,0.411833018,-0.31909129,0.583773,0.394586903,-0.28634667,0.568247,0.390712936,-0.264579401,0.561108,0.447819572,-0.278335415,0.578915,0.437288399,-0.247606003,0.561646,0.432068187,-0.231884482,0.553012,0.427351403,-0.217363854,0.545163,0.469595461,-0.292310351,0.581562,0.482620093,-0.25491034,0.574311,0.484662706,-0.238214832,0.570081,0.486295049,-0.225831734,0.56706,0.486720424,-0.307729827,0.584855,0.499651696,-0.272565075,0.569832,0.496043486,-0.263605285,0.562145,0.492870537,-0.255279456,0.555157,0.505195114,-0.333063705,0.590746,0.513794606,-0.301997287,0.576173,0.516665647,-0.288736314,0.569477,0.518364942,-0.277850856,0.563569
0.435710836,-0.378899462,0.609461,0.438562003,-0.33624263,0.594681,0.412691069,-0.358819176,0.604887,0.390764368,-0.327210676,0.587834,0.381637609,-0.300129163,0.58603,0.375611885,-0.279318655,0.578025,0.430148051,-0.28278095,0.579578,0.410588852,-0.256486622,0.561446,0.400699952,-0.243026816,0.55238,0.391640107,-0.230589376,0.544139,0.450009757,-0.296080634,0.580993,0.465477242,-0.259558775,0.568945,0.462026227,-0.245042525,0.561917,0.459630849,-0.234331073,0.556897,0.465702228,-0.311081474,0.58345,0.479216101,-0.275607431,0.569087,0.474973247,-0.263753866,0.561739,0.46992619,-0.253961987,0.555058,0.482712591,-0.336216283,0.588678,0.489739799,-0.303008617,0.572985,0.491513205,-0.288384652,0.565775,0.491915965,-0.276186021,0.559414
0.412972216,-0.379962451,0.602101,0.417238689,-0.340287865,0.596202,0.393537249,-0.367649725,0.603371,0.372558086,-0.342211196,0.595172,0.365730798,-0.323786539,0.605268,0.360704675,-0.306272314,0.604875,0.408980283,-0.293939552,0.594085,0.391515353,-0.271540172,0.585122,0.382509246,-0.259852827,0.580728,0.374176656,-0.248932972,0.57684,0.427669159,-0.300716122,0.590739,0.441306757,-0.262499219,0.584694,0.437566669,-0.248163769,0.581168,0.434855546,-0.237459706,0.578649,0.442277973,-0.310107072,0.588501,0.457169842,-0.27492801,0.58327,0.454416033,-0.264118729,0.580593,0.450880267,-0.255336445,0.57816,0.457958766,-0.328141939,0.586801,0.464867432,-0.295133148,0.577789,0.466678012,-0.280523733,0.573649,0.46722624,-0.268355501,0.569996
0.439547663,-0.414532644,0.614798,0.428855643,-0.368458302,0.607697,0.423014704,-0.406473707,0.617632,0.394205955,-0.381845498,0.611251,0.368313863,-0.359507148,0.60422,0.356388594,-0.341652362,0.600924,0.401618668,-0.330227421,0.606799,0.375308455,-0.298703536,0.598279,0.36137315,-0.284181395,0.594019,0.34813377,-0.272287401,0.590147,0.419022533,-0.32627988,0.601124,0.402374865,-0.28358679,0.590835,0.390392133,-0.26064483,0.584834,0.381592722,-0.244308592,0.580547,0.434512399,-0.327010108,0.597073,0.430603901,-0.285844611,0.589787,0.423170398,-0.268173595,0.586059,0.416317998,-0.251792084,0.582669,0.454773441,-0.335198581,0.593433,0.449800589,-0.299962711,0.586043,0.447513177,-0.283902159,0.582648,0.445493067,-0.269798959,0.579652
0.433535957,-0.404076913,0.603267,0.425402917,-0.364369675,0.603081,0.413915999,-0.399134767,0.606068,0.384675573,-0.375691631,0.601027,0.356183806,-0.356172311,0.596967,0.344829496,-0.340818175,0.597108,0.401967823,-0.330422168,0.606501,0.377580906,-0.301871609,0.602081,0.364818513,-0.289041922,0.599871,0.352748556,-0.277863977,0.597862,0.420883055,-0.32625131,0.602909,0.403381717,-0.28545877,0.596507,0.390408407,-0.26519674,0.592772,0.384342057,-0.249562303,0.590104,0.437189698,-0.326389483,0.599969,0.420246778,-0.287770914,0.596211,0.410217943,-0.270124385,0.594288,0.401011121,-0.253908154,0.592541,0.458050306,-0.329448072,0.596539,0.464046509,-0.30751388,0.607983,0.466811416,-0.297529461,0.613242,0.469255444,-0.288766012,0.617882
0.430079216,-0.40681139,0.605281,0.428636625,-0.366284997,0.607618,0.415269246,-0.400442912,0.609414,0.388218328,-0.377819158,0.60667,0.36300429,-0.351491242,0.600309,0.354127869,-0.337414509,0.599263,0.41377044,-0.332268376,0.614312,0.387174135,-0.307420982,0.61241,0.378266666,-0.293229272,0.611459,0.36239627,-0.284306095,0.610594,0.428459242,-0.328424615,0.609783,0.422680102,-0.288402733,0.605892,0.408672969,-0.285666589,0.603622,0.398592085,-0.285506163,0.602,0.4433447,-0.32753985,0.60585,0.432899324,-0.289966576,0.602914,0.423088934,-0.273217383,0.601412,0.409258315,-0.259355424,0.600046,0.461074926,-0.335023509,0.600854,0.467007836,-0.308961777,0.609245,0.469154847,-0.297838456,0.613101,0.470955132,-0.288030477,0.616502
0.435205478,-0.40709332,0.606207,0.450425607,-0.36522682,0.608585,0.434777333,-0.398964623,0.609883,0.411122109,-0.374874701,0.606556,0.383967004,-0.348106626,0.595359,0.373737003,-0.329883232,0.5933,0.434575809,-0.332494464,0.61473,0.411400889,-0.306580937,0.612522,0.399450997,-0.293209632,0.611418,0.388064357,-0.285250582,0.610414,0.452085081,-0.328421124,0.610788,0.443715794,-0.28884305,0.606817,0.430249015,-0.286082599,0.604501,0.42058507,-0.285907389,0.602846,0.466748565,-0.328494943,0.607337,0.454807092,-0.290655786,0.604347,0.445155734,-0.273856139,0.602818,0.432286781,-0.261054922,0.601427,0.484329774,-0.3350253,0.6029,0.490381083,-0.309940706,0.60958,0.492320231,-0.297997141,0.61265,0.493850445,-0.287405143,0.615358
0.465908412,-0.379941255,0.605672,0.469603753,-0.343428481,0.60359,0.456697894,-0.377716236,0.61325,0.43708526,-0.354280541,0.614335,0.415102078,-0.328582182,0.608354,0.40739077,-0.309460003,0.606472,0.46733255,-0.307259679,0.611848,0.444807624,-0.279890141,0.609985,0.433242917,-0.265826522,0.609054,0.420455,-0.257591532,0.608207,0.476330829,-0.304475119,0.601661,0.473455515,-0.26275109,0.595121,0.45424759,-0.259418639,0.591306,0.440175106,-0.25888913,0.588581,0.48339258,-0.305898767,0.593458,0.476461238,-0.266486545,0.589283,0.466996615,-0.248971742,0.587147,0.45508358,-0.236885156,0.585206,0.49093839,-0.314479889,0.584135,0.50210435,-0.286802743,0.586838,0.506105261,-0.273620363,0.588081,0.509383406,-0.261918622,0.589177
0.461108411,-0.36651233,0.602649,0.49081746,-0.329045099,0.604042,0.45785762,-0.352685502,0.608815,0.451079921,-0.324568737,0.608583,0.434098657,-0.295365333,0.598008,0.430027345,-0.273562472,0.591981,0.506454645,-0.295240415,0.61271,0.50901105,-0.263224704,0.611765,0.495467088,-0.262041319,0.611292,0.482299276,-0.271187594,0.610863,0.516431964,-0.300361821,0.605333,0.491858104,-0.2832676,0.601213,0.476773343,-0.301934692,0.59881,0.490829019,-0.319794736,0.611366,0.522553201,-0.307470625,0.599139,0.523088047,-0.269794216,0.597101,0.521716314,-0.250708211,0.596058,0.51706034,-0.23552959,0.59511,0.525694736,-0.32117314,0.591631,0.537945289,-0.291830476,0.589922,0.544276248,-0.278817734,0.589944,0.550264327,-0.267551167,0.590403
0.496754326,-0.354418429,0.61406,0.511794783,-0.31308328,0.604691,0.484967304,-0.33513825,0.612942,0.47011692,-0.300261334,0.606218,0.457612847,-0.270698123,0.6006,0.454274196,-0.249758223,0.595645,0.506230944,-0.263400903,0.597358,0.499017306,-0.23121379,0.584647,0.495569591,-0.214652623,0.578398,0.492545953,-0.199298046,0.572795,0.525505283,-0.275117486,0.595997,0.530336795,-0.23308717,0.581322,0.528433231,-0.215582618,0.572761,0.542282013,-0.208523793,0.582835,0.540203393,-0.288394518,0.595694,0.548421329,-0.251340024,0.581055,0.554554868,-0.233157516,0.575547,0.560212639,-0.216514255,0.57054,0.555320521,-0.310642121,0.596817,0.566339254,-0.281435478,0.585169,0.570859621,-0.268689751,0.579816,0.574905342,-0.257385452,0.575094
0.488831687,-0.363973806,0.621316,0.503270196,-0.320760169,0.608353,0.477412611,-0.34368266,0.617629,0.464033912,-0.303674153,0.610517,0.455152657,-0.273524734,0.605392,0.455665672,-0.252020322,0.600133,0.498646449,-0.268932026,0.595502,0.490672677,-0.235281862,0.578996,0.487880312,-0.214981544,0.570743,0.483787973,-0.199156431,0.56324,0.517959972,-0.28358,0.596324,0.523194491,-0.242005572,0.577809,0.52025212,-0.223912213,0.56701,0.533474674,-0.216914581,0.575696,0.532727348,-0.299303981,0.598131,0.541415688,-0.262974627,0.580609,0.54699916,-0.245500915,0.573358,0.551861691,-0.229745836,0.566767,0.547897919,-0.324531836,0.602305,0.559480185,-0.296245562,0.588433,0.564025506,-0.283831326,0.582059,0.56806208,-0.27285643,0.576436
0.481990491,-0.367275507,0.623282,0.494214086,-0.323589404,0.610374,0.473488885,-0.348398198,0.622527,0.467311352,-0.316348287,0.623715,0.458527363,-0.287366062,0.61926,0.459828678,-0.267584505,0.617059,0.490874,-0.273809837,0.60126,0.479986802,-0.241781518,0.586074,0.474567472,-0.225363899,0.578481,0.469656773,-0.210183252,0.571579,0.507472853,-0.285209961,0.598394,0.512248889,-0.244096695,0.580531,0.499782007,-0.234707373,0.57011,0.504181783,-0.23570478,0.578846,0.520133915,-0.298320624,0.597162,0.522637931,-0.260638864,0.57976,0.523222543,-0.241688465,0.570856,0.522701812,-0.225086574,0.562762,0.532129028,-0.322560384,0.59775,0.547853289,-0.294277215,0.585819,0.552819474,-0.282306063,0.580338,0.557264355,-0.271684663,0.575501
0.477386347,-0.393332194,0.618739,0.485754802,-0.34763041,0.614005,0.47075029,-0.38427226,0.626355,0.467500905,-0.357304019,0.634903,0.454537276,-0.337707302,0.634495,0.450129234,-0.318649363,0.632848,0.476203735,-0.310149813,0.620631,0.451729496,-0.313042203,0.617292,0.437936759,-0.315587479,0.615943,0.425072659,-0.319925916,0.614762,0.488702899,-0.306767243,0.609612,0.482323754,-0.264991285,0.600941,0.465572707,-0.254644144,0.595883,0.4622283,-0.258725893,0.606067,0.497118758,-0.309103442,0.600956,0.487104034,-0.272570654,0.589639,0.481646231,-0.253609453,0.583849,0.47572538,-0.236681565,0.578585,0.506764001,-0.318964653,0.591518,0.5109182,-0.285710895,0.581947,0.50604547,-0.273248031,0.577549,0.499039755,-0.264727142,0.573669
0.467534284,-0.397279816,0.625347,0.464159121,-0.350758271,0.619081,0.452004247,-0.385520223,0.632948,0.427494868,-0.362892863,0.63341,0.399498539,-0.345820348,0.626068,0.382766415,-0.328722942,0.618015,0.460252789,-0.310519565,0.62472,0.432867744,-0.312071912,0.620518,0.419003921,-0.315583577,0.618742,0.406121008,-0.319406538,0.617254,0.469586585,-0.309623429,0.613267,0.453392399,-0.269065113,0.603371,0.434074485,-0.26058874,0.597598,0.429612505,-0.260270477,0.607204,0.476926599,-0.312785962,0.604386,0.466230734,-0.275380656,0.591652,0.460196959,-0.256131531,0.585137,0.453837461,-0.23884944,0.579214,0.484888411,-0.323679373,0.594926,0.489778046,-0.291413387,0.590953,0.481477861,-0.282935272,0.589128,0.473651918,-0.276015172,0.587517
0.446602298,-0.404449199,0.617679,0.442986133,-0.359365146,0.619873,0.430371108,-0.402579928,0.627754,0.408429934,-0.382912281,0.633257,0.383004804,-0.369167118,0.633877,0.371544787,-0.354915958,0.635048,0.435432636,-0.327483393,0.633983,0.408892563,-0.31317705,0.636721,0.394787814,-0.305793032,0.638089,0.382961007,-0.29879835,0.639776,0.444428472,-0.321572389,0.621909,0.437814722,-0.281670772,0.619868,0.42012477,-0.277658182,0.618678,0.415237928,-0.280274895,0.63041,0.451835537,-0.320284237,0.611779,0.432827967,-0.288989631,0.613084,0.420001444,-0.276236494,0.613752,0.407991393,-0.264299224,0.614359,0.460464502,-0.325314555,0.599512,0.466359318,-0.292838106,0.594404,0.460402869,-0.281240258,0.592057,0.450016846,-0.280592931,0.589986
0.459134234,-0.411026824,0.633171,0.448591944,-0.363601205,0.627367,0.441518564,-0.401677162,0.638564,0.410241047,-0.383470627,0.635913,0.382385241,-0.366243964,0.63184,0.369594301,-0.350354966,0.630391,0.433081427,-0.325902019,0.63051,0.402526598,-0.306251489,0.624732,0.386741412,-0.296395067,0.621844,0.37208473,-0.287290487,0.619217,0.445161215,-0.321675865,0.621982,0.4324457,-0.27819211,0.611637,0.412716819,-0.26975075,0.605603,0.410299105,-0.266258238,0.616022,0.45570753,-0.32213141,0.615468,0.447892035,-0.286393503,0.615175,0.435852166,-0.274036028,0.615026,0.424146225,-0.264101085,0.614889,0.469142888,-0.329984129,0.608721,0.471103466,-0.294693375,0.598374,0.466869879,-0.280902767,0.59362,0.452868501,-0.279179108,0.589425
0.471797814,-0.396105117,0.624468,0.470891155,-0.354258773,0.625433,0.458865798,-0.386691494,0.630572,0.432254099,-0.374963028,0.630157,0.411720684,-0.353791123,0.627467,0.412629512,-0.343566577,0.637216,0.465069821,-0.32026933,0.63375,0.442572372,-0.297105171,0.632494,0.430754294,-0.285407622,0.631866,0.419671693,-0.274615666,0.631296,0.478650485,-0.316866936,0.626328,0.463355812,-0.278437104,0.621826,0.454330265,-0.255705164,0.619199,0.447835764,-0.239321765,0.617323,0.489593427,-0.317575223,0.620134,0.508855624,-0.290984453,0.635159,0.518732351,-0.277282859,0.642847,0.527722199,-0.264771376,0.649835,0.501926921,-0.324949415,0.612694,0.511024109,-0.293604009,0.607365,0.50814173,-0.280321305,0.604917,0.499104267,-0.276972697,0.602757
0.45066247,-0.396801181,0.619161,0.469231926,-0.355732428,0.623567,0.441811457,-0.388316963,0.625652,0.43620174,-0.36404458,0.626512,0.420254609,-0.33857119,0.622834,0.424469467,-0.330304795,0.632782,0.46733873,-0.325339016,0.634549,0.475881,-0.28975483,0.631406,0.478544666,-0.271835088,0.629834,0.479994413,-0.255554359,0.628405,0.483273546,-0.326198192,0.627656,0.486140374,-0.286306796,0.626214,0.486695608,-0.262925416,0.625373,0.486683112,-0.246150079,0.624772,0.495229283,-0.330198404,0.621597,0.492485763,-0.292861952,0.62198,0.490264698,-0.273767131,0.622175,0.48780307,-0.256391047,0.622353,0.50710406,-0.340966935,0.613772,0.509912715,-0.313321081,0.612352,0.504944435,-0.306299913,0.611699,0.501241641,-0.312797073,0.611123
0.510579894,-0.383097924,0.622947,0.507848674,-0.338912877,0.62021,0.491392319,-0.372877418,0.623578,0.471479859,-0.340715469,0.615228,0.454791828,-0.324991088,0.621258,0.452398065,-0.317199618,0.631039,0.482558521,-0.299529141,0.619277,0.476793605,-0.272639484,0.610801,0.47314002,-0.262228189,0.606563,0.467511088,-0.267513999,0.60271,0.505328327,-0.29908476,0.617671,0.512993926,-0.264974052,0.627185,0.517433149,-0.244532391,0.632734,0.520622539,-0.229794462,0.636721,0.524391213,-0.302422048,0.616588,0.530871399,-0.27262924,0.626594,0.534437853,-0.256765485,0.631713,0.537761868,-0.242850939,0.636367,0.547496325,-0.313133479,0.615746,0.534253101,-0.293427715,0.607463,0.528755906,-0.285779726,0.603658,0.524125978,-0.278916261,0.601685
0.513545623,-0.377927954,0.616033,0.524473766,-0.333717628,0.614009,0.505246913,-0.365578385,0.617677,0.489556013,-0.334258472,0.610757,0.47856605,-0.324297332,0.623556,0.473627679,-0.314670637,0.628834,0.504893436,-0.292531203,0.614805,0.500301372,-0.253705151,0.607475,0.4980047,-0.23430919,0.60381,0.495982303,-0.216771336,0.600478,0.526559719,-0.294228047,0.61213,0.529921766,-0.253522441,0.603381,0.528009839,-0.229148887,0.598278,0.528463564,-0.21170851,0.594633,0.544113884,-0.299289713,0.610104,0.550525884,-0.265665243,0.612489,0.555446735,-0.249634262,0.61371,0.55959773,-0.24271352,0.614819,0.564407189,-0.311892877,0.608041,0.553943686,-0.292162072,0.600593,0.54906036,-0.282756702,0.597171,0.545320748,-0.275624623,0.594151
0.524391006,-0.35672888,0.619476,0.535129448,-0.314339175,0.615727,0.507667726,-0.339596966,0.617354,0.487588595,-0.306048154,0.610594,0.477346371,-0.281965132,0.613565,0.475217973,-0.263869843,0.614678,0.52082043,-0.266910956,0.610676,0.515152919,-0.228658572,0.600824,0.51251981,-0.209941812,0.595897,0.510175474,-0.192816623,0.591419,0.544893197,-0.275584318,0.612248,0.546475739,-0.232968359,0.601813,0.547955743,-0.209676513,0.595726,0.549090165,-0.19280815,0.591378,0.563923888,-0.286398037,0.613868,0.571660499,-0.248353752,0.605116,0.576271301,-0.230609424,0.600639,0.579891874,-0.217130715,0.596568,0.584861579,-0.305845583,0.616367,0.596188747,-0.275763155,0.609582,0.601373038,-0.261972517,0.606465,0.606125714,-0.249987256,0.603714
0.520070552,-0.356178033,0.620147,0.525975625,-0.312947609,0.616342,0.503264637,-0.339015983,0.617945,0.482478638,-0.30841418,0.617741,0.472796756,-0.288096034,0.623614,0.47093811,-0.270774327,0.625889,0.511581493,-0.266209219,0.611157,0.502229946,-0.228817692,0.601126,0.497892416,-0.218693687,0.59611,0.49394694,-0.209256196,0.591551,0.535714465,-0.274523379,0.612812,0.535843953,-0.231788881,0.602284,0.535386647,-0.208641743,0.596144,0.535121066,-0.191849221,0.591757,0.554957349,-0.285065225,0.614506,0.561937814,-0.247131407,0.607398,0.565113929,-0.228708333,0.603761,0.567384463,-0.213542991,0.600455,0.576342992,-0.304284871,0.6171,0.585414053,-0.272836165,0.609752,0.589543768,-0.258457867,0.606376,0.593165464,-0.245844612,0.603396
0.515605393,-0.373995714,0.62876,0.511197856,-0.330283287,0.621925,0.490356186,-0.365965586,0.624213,0.47506879,-0.33066549,0.62477,0.462050879,-0.305955139,0.625497,0.457664542,-0.286995899,0.624627,0.486503333,-0.282619302,0.611861,0.471698845,-0.286783117,0.5985,0.486859315,-0.312157911,0.615498,0.498000321,-0.333898174,0.627561,0.512872792,-0.288927493,0.615582,0.512315077,-0.245579459,0.602865,0.5115442,-0.220873891,0.595446,0.510798223,-0.203481032,0.590147,0.534860078,-0.298121193,0.619241,0.541369473,-0.259252744,0.607577,0.540592487,-0.246072777,0.60161,0.532030201,-0.249889029,0.596185,0.558174449,-0.316985302,0.624626,0.565027643,-0.282481676,0.614173,0.564011625,-0.273140929,0.609371,0.557560656,-0.276675875,0.605133
0.490181961,-0.403206511,0.646161,0.495834598,-0.346016039,0.628768,0.475426791,-0.377105646,0.63788,0.455750514,-0.34033148,0.625756,0.441274224,-0.312240252,0.621992,0.437796164,-0.292489087,0.62011,0.466779659,-0.290942119,0.607314,0.446942626,-0.278721916,0.585433,0.460029703,-0.304052033,0.600339,0.473231671,-0.325713504,0.614929,0.493606812,-0.300059557,0.612627,0.509683225,-0.265331095,0.623246,0.518977579,-0.247867826,0.62944,0.525709789,-0.233762612,0.633865,0.516388978,-0.311985325,0.618517,0.512425066,-0.277134814,0.596863,0.50912379,-0.261304089,0.585784,0.503579175,-0.250983369,0.575713,0.544307477,-0.334265625,0.628195,0.556637333,-0.306785094,0.612975,0.551297634,-0.303683191,0.605983,0.536994122,-0.307652299,0.599813
0.479342309,-0.402310345,0.639854,0.470561066,-0.351111077,0.630789,0.45967661,-0.393653118,0.640865,0.430539283,-0.361716993,0.632034,0.420636181,-0.353699875,0.642467,0.410773661,-0.336900768,0.642037,0.442908539,-0.309619575,0.626335,0.434403104,-0.269677412,0.611908,0.430150115,-0.249718017,0.604695,0.433118349,-0.249689856,0.614184,0.463346185,-0.307798657,0.622376,0.451229581,-0.267442924,0.615641,0.444100919,-0.243586704,0.611712,0.438980937,-0.226398659,0.608906,0.48093734,-0.310334902,0.619909,0.471965552,-0.274187454,0.604928,0.465640585,-0.259254062,0.597263,0.456997053,-0.25444813,0.590296,0.503101203,-0.320703579,0.618436,0.49659538,-0.285913979,0.606607,0.493606169,-0.269921622,0.601171,0.490970264,-0.255807305,0.596376
0.483871869,-0.40694354,0.646836,0.467668943,-0.360932895,0.638472,0.464953486,-0.399416027,0.649208,0.43124233,-0.380180054,0.644944,0.406997827,-0.364200143,0.644994,0.393633215,-0.34858423,0.643503,0.436917028,-0.324265237,0.63618,0.408295002,-0.293814732,0.626282,0.393853203,-0.278436958,0.621334,0.389955114,-0.271184706,0.632012,0.455362488,-0.318443669,0.630711,0.436774939,-0.275271752,0.615964,0.431389223,-0.253330769,0.615129,0.427471338,-0.237338272,0.614533,0.471810959,-0.317594133,0.626939,0.455559873,-0.282922137,0.612352,0.444836744,-0.272339211,0.604888,0.433821353,-0.273948066,0.598104,0.493532848,-0.323816791,0.623821,0.482851036,-0.28739679,0.612281,0.485060163,-0.274923019,0.616002,0.486998504,-0.263692205,0.619286
0.492301323,-0.39757348,0.648151,0.486074479,-0.345679107,0.644015,0.475856653,-0.387016686,0.649649,0.444880096,-0.365616185,0.646648,0.420131344,-0.35269881,0.648074,0.405389852,-0.33847767,0.646747,0.462382081,-0.310997894,0.643292,0.433430041,-0.297297841,0.635552,0.418426038,-0.290223017,0.631682,0.414343345,-0.290585347,0.643522,0.479628063,-0.305902511,0.640177,0.456106518,-0.269241555,0.629975,0.441777644,-0.248015076,0.624023,0.430430971,-0.237577013,0.619773,0.494888243,-0.30535194,0.637974,0.468737204,-0.271237366,0.629139,0.454887149,-0.254188277,0.624618,0.441564037,-0.239935088,0.620509,0.514675795,-0.311600044,0.636035,0.512644779,-0.284809081,0.639652,0.514508219,-0.274201014,0.644768,0.516153967,-0.264845918,0.649283
0.51068262,-0.377720034,0.63748,0.516377041,-0.339693053,0.64509,0.504242,-0.373308181,0.64855,0.479140752,-0.357828952,0.656617,0.459392554,-0.343025002,0.661657,0.449745478,-0.32866808,0.66423,0.518330772,-0.316849226,0.663882,0.497841068,-0.304210122,0.670708,0.486762754,-0.297377399,0.674121,0.483945811,-0.295594207,0.688271,0.526864272,-0.307635906,0.652152,0.500510021,-0.303551676,0.655072,0.484065506,-0.301053141,0.657051,0.478400021,-0.315773577,0.658816,0.533097396,-0.303013414,0.641834,0.521060523,-0.271149727,0.64558,0.514702262,-0.254276797,0.647589,0.508817779,-0.238594331,0.649497,0.53895751,-0.303068799,0.628491,0.550679628,-0.276598354,0.631112,0.542586949,-0.271006496,0.632317,0.536429019,-0.278894272,0.633379
0.523656815,-0.372265754,0.638498,0.545431839,-0.335794735,0.642913,0.529633736,-0.36913101,0.652883,0.517481777,-0.350835341,0.665619,0.507450747,-0.33474245,0.67597,0.503472029,-0.319557481,0.680539,0.563856817,-0.312360748,0.663871,0.544040668,-0.295990459,0.671934,0.532923941,-0.289747453,0.675966,0.528687771,-0.288984153,0.688081,0.564036893,-0.30384923,0.64701,0.532700004,-0.29433967,0.648896,0.513412452,-0.288474953,0.649997,0.51033827,-0.305377293,0.660291,0.562550918,-0.299828061,0.632746,0.555149881,-0.26593472,0.636416,0.551399365,-0.248141852,0.638523,0.548220019,-0.231768194,0.640826,0.557805385,-0.300592464,0.615266,0.576679424,-0.275914672,0.617063,0.567450538,-0.268684719,0.617888,0.558001524,-0.27508934,0.618617
0.528543204,-0.363184594,0.633882,0.546771401,-0.318900673,0.634057,0.521300164,-0.352757992,0.639992,0.50277542,-0.321114342,0.639426,0.478700281,-0.293458829,0.631256,0.46672572,-0.277435664,0.620548,0.549144163,-0.284870248,0.641884,0.533699228,-0.254542294,0.639434,0.525755523,-0.238893763,0.638209,0.529722489,-0.229273912,0.651011,0.561964321,-0.285085909,0.634219,0.552890156,-0.245580075,0.626807,0.547559456,-0.221999833,0.622483,0.556624118,-0.209759224,0.634078,0.57143833,-0.28849746,0.627895,0.561950946,-0.250888356,0.625001,0.557053337,-0.231413049,0.623521,0.551127564,-0.214524506,0.622175,0.580467083,-0.298541656,0.620425,0.594382372,-0.276060053,0.630529,0.600763311,-0.265805324,0.635171,0.605591961,-0.255820617,0.639267
0.537636325,-0.353454358,0.63758,0.547210818,-0.302714089,0.62854,0.521208169,-0.337351187,0.6341,0.497906107,-0.301417398,0.628114,0.476812212,-0.276131987,0.62269,0.467687772,-0.25645499,0.61871,0.526991857,-0.253332726,0.618418,0.514288709,-0.214689999,0.604364,0.507933381,-0.195200622,0.597337,0.515925476,-0.182244705,0.607156,0.551511134,-0.261156055,0.620134,0.559736152,-0.224129308,0.619929,0.565814981,-0.201931405,0.619809,0.570315536,-0.186242074,0.619724,0.571472644,-0.271520914,0.622334,0.586972052,-0.238619074,0.625396,0.595544173,-0.221093294,0.626963,0.603661011,-0.204822462,0.628387,0.594533502,-0.290934917,0.62635,0.607009425,-0.261968624,0.621933,0.613253858,-0.248645711,0.619903,0.618787891,-0.236853849,0.618112
0.53890394,-0.352535561,0.636058,0.547959558,-0.305334307,0.629226,0.522392925,-0.337031118,0.633543,0.497860972,-0.306949696,0.625049,0.475807392,-0.282198353,0.619317,0.467657019,-0.260265452,0.618476,0.527793653,-0.260140917,0.621723,0.523006295,-0.222376904,0.617927,0.521013647,-0.203433432,0.616029,0.51920066,-0.186124268,0.614304,0.55290826,-0.26434258,0.622876,0.549950971,-0.223028502,0.60977,0.549640126,-0.198895304,0.602126,0.549977107,-0.183200031,0.596665,0.572332458,-0.273887278,0.624421,0.584918469,-0.238650535,0.623645,0.591671856,-0.220292647,0.623248,0.598637643,-0.20372683,0.622888,0.594460829,-0.292117701,0.627318,0.608138304,-0.263495943,0.624512,0.614685774,-0.250323533,0.623223,0.620658431,-0.238690119,0.622085
0.543357721,-0.368210149,0.647158,0.54387846,-0.330890987,0.639518,0.526139887,-0.35810849,0.645075,0.493870268,-0.329121684,0.632922,0.465609211,-0.302748033,0.62201,0.455311818,-0.285615653,0.62089,0.520394987,-0.28118857,0.63205,0.502805261,-0.244236271,0.622692,0.503756664,-0.237010745,0.618012,0.504794297,-0.230247224,0.613759,0.543626176,-0.285622783,0.632417,0.554710319,-0.252493624,0.639057,0.564881824,-0.231588068,0.64293,0.572252822,-0.216309347,0.645697,0.562730701,-0.293116177,0.633387,0.554437014,-0.249715779,0.62029,0.549884509,-0.233767224,0.61359,0.551188976,-0.235242799,0.607499,0.585461633,-0.308928871,0.635734,0.578058884,-0.28642262,0.623479,0.574722371,-0.275804497,0.617848,0.571815767,-0.266278437,0.61288
0.526414729,-0.38458881,0.652631,0.513290077,-0.338955099,0.640563,0.498565296,-0.372305522,0.642753,0.459188305,-0.340427038,0.620512,0.428794997,-0.317598777,0.610291,0.415085411,-0.302098343,0.608683,0.476426296,-0.290130274,0.620446,0.472075575,-0.254001241,0.617068,0.48138029,-0.248177218,0.615378,0.486244293,-0.258916047,0.613843,0.503046358,-0.296054955,0.629347,0.49618938,-0.25473611,0.623635,0.507668837,-0.24746665,0.620303,0.51288017,-0.258393612,0.617923,0.527766929,-0.303046949,0.637726,0.539933764,-0.277418204,0.625337,0.547479865,-0.26299438,0.618999,0.55455506,-0.24968854,0.613236,0.554575643,-0.322998817,0.649492,0.54984423,-0.29784185,0.632331,0.54776691,-0.286121018,0.624446,0.545988979,-0.275687691,0.617489
0.514192678,-0.377803654,0.639906,0.493970066,-0.335890381,0.635586,0.485568559,-0.371841409,0.637741,0.4468704,-0.354895037,0.629723,0.422021295,-0.346003585,0.632846,0.411054257,-0.337619184,0.638058,0.45617667,-0.299760059,0.630117,0.430554049,-0.26607888,0.6226,0.418165485,-0.249355009,0.618842,0.410294633,-0.23724894,0.615425,0.480926149,-0.295863245,0.631571,0.461313615,-0.253470214,0.620652,0.451747764,-0.231025554,0.614282,0.446507665,-0.217983792,0.609732,0.502537622,-0.296372591,0.633146,0.492481323,-0.258125598,0.629234,0.489400799,-0.240362858,0.627232,0.488466421,-0.227261585,0.625413,0.530322007,-0.303726895,0.635681,0.53990235,-0.275835124,0.639835,0.544684868,-0.262617817,0.641743,0.548914778,-0.250913017,0.643427
0.508732342,-0.375205731,0.633676,0.494096835,-0.336865233,0.633798,0.486995661,-0.369149138,0.63289,0.453949691,-0.362769129,0.634653,0.426153629,-0.352479684,0.634392,0.410843824,-0.339248524,0.636302,0.459445392,-0.303393072,0.632885,0.433794577,-0.270503271,0.626222,0.424366745,-0.261581614,0.62289,0.414903747,-0.250588311,0.619861,0.483895005,-0.298937443,0.633913,0.465930865,-0.258456681,0.62704,0.454941331,-0.238264283,0.623031,0.447115357,-0.221988459,0.620167,0.505029223,-0.298813631,0.634748,0.489212368,-0.262649641,0.629659,0.480536136,-0.243347848,0.627055,0.472835913,-0.225982417,0.624689,0.531727923,-0.305114255,0.635711,0.536958855,-0.275679291,0.637884,0.53685283,-0.262485353,0.638883,0.542926152,-0.250355434,0.641023
0.512557421,-0.373087903,0.632449,0.507916482,-0.33504244,0.634739,0.490098225,-0.37005127,0.635067,0.468221027,-0.359008414,0.640738,0.43945213,-0.346691473,0.638506,0.42414591,-0.334364144,0.638316,0.477074796,-0.302394739,0.639499,0.454415583,-0.271349216,0.636475,0.444431893,-0.25984461,0.634963,0.435075297,-0.249044005,0.633588,0.498686214,-0.29631748,0.636871,0.482299448,-0.257203517,0.632566,0.472264691,-0.23499115,0.630054,0.465024198,-0.21893474,0.62826,0.517257954,-0.294785548,0.634508,0.501650867,-0.257282707,0.630498,0.491967344,-0.239524738,0.628446,0.487049588,-0.223356041,0.626581,0.540962599,-0.301863523,0.631366,0.545509457,-0.270036606,0.634928,0.547797958,-0.256506561,0.636565,0.548889473,-0.247519924,0.64016
0.51400224,-0.377832143,0.635024,0.52408689,-0.345296827,0.637776,0.495039008,-0.372190918,0.635306,0.48273818,-0.357205601,0.643243,0.456280214,-0.333935851,0.636111,0.446786507,-0.317715967,0.636585,0.502451771,-0.306007821,0.639878,0.513743145,-0.2733356,0.644842,0.519402723,-0.256933698,0.647324,0.524639166,-0.241562515,0.649581,0.527064422,-0.307508251,0.640338,0.521204128,-0.266050452,0.635966,0.51794369,-0.241950873,0.633416,0.515670892,-0.224706838,0.631594,0.547124985,-0.312301859,0.640475,0.544130119,-0.280675834,0.64854,0.542597385,-0.264494035,0.652666,0.541220708,-0.249558518,0.656417,0.570315308,-0.324412901,0.640202,0.558490956,-0.292895579,0.635126,0.557587727,-0.288045601,0.632794,0.569362301,-0.301485114,0.642603
0.514373203,-0.381291843,0.636063,0.534436846,-0.347357516,0.638401,0.500199714,-0.371693366,0.636276,0.491154839,-0.346858109,0.642419,0.471347632,-0.319579696,0.636235,0.466550846,-0.301385876,0.636542,0.524203531,-0.303531313,0.640152,0.544672398,-0.273837646,0.644931,0.554933912,-0.25893748,0.64732,0.564532272,-0.244924767,0.649492,0.54766261,-0.310947519,0.640576,0.552211787,-0.269962295,0.635825,0.555050409,-0.246145487,0.633053,0.557161661,-0.229109212,0.631073,0.565806611,-0.320499161,0.640721,0.572838904,-0.287906486,0.648814,0.576437135,-0.271229319,0.652955,0.579801497,-0.255840456,0.656719,0.58498872,-0.337993982,0.640522,0.580663287,-0.305577362,0.63516,0.580886173,-0.300745378,0.632696,0.590639241,-0.314630983,0.642432
0.521270174,-0.365126774,0.630236,0.538583046,-0.323388402,0.634653,0.51004544,-0.347690333,0.630993,0.48568302,-0.312321814,0.627574,0.468978603,-0.284911423,0.622634,0.465620772,-0.264223624,0.61811,0.529572464,-0.278738859,0.638412,0.527693048,-0.241499887,0.636004,0.526920608,-0.222794081,0.6348,0.52621925,-0.205688058,0.633705,0.550834719,-0.287833548,0.638764,0.560959108,-0.247377847,0.635961,0.56588215,-0.224032088,0.634325,0.568275964,-0.210850973,0.636557,0.56873627,-0.296472045,0.638669,0.580748913,-0.267563455,0.649573,0.586220526,-0.252350784,0.655152,0.591860167,-0.237171089,0.660224,0.587917222,-0.315316139,0.637858,0.585778176,-0.285193239,0.634008,0.587287766,-0.27915487,0.632239,0.597478327,-0.291696039,0.642356
0.542230477,-0.348844742,0.630161,0.552088985,-0.308512808,0.632157,0.525912414,-0.335539578,0.630702,0.500494322,-0.308976495,0.627088,0.478275156,-0.285545303,0.622698,0.467502214,-0.266834218,0.620647,0.537083308,-0.266173703,0.634109,0.527507274,-0.228570549,0.629506,0.523137236,-0.209765428,0.627205,0.523699639,-0.191002926,0.625113,0.561304789,-0.270773334,0.634018,0.565199835,-0.230488179,0.632216,0.568258021,-0.206919954,0.631164,0.570467035,-0.189950673,0.630414,0.57981153,-0.278433896,0.633769,0.585295659,-0.243484698,0.634676,0.590522311,-0.22591583,0.63514,0.595407466,-0.209450562,0.635562,0.599929543,-0.293805342,0.63316,0.621352581,-0.268471033,0.63973,0.630780791,-0.257627115,0.642749,0.63920669,-0.248094319,0.645518
0.537974836,-0.35261054,0.625096,0.551660347,-0.309162182,0.630423,0.526220029,-0.336520136,0.626788,0.501945357,-0.314957946,0.625444,0.481539804,-0.293820199,0.624882,0.472924167,-0.275280241,0.62668,0.533593089,-0.273062534,0.635945,0.525664577,-0.239592691,0.63429,0.524228042,-0.221943579,0.633463,0.522910335,-0.205631184,0.632711,0.557495773,-0.274948315,0.635388,0.560751605,-0.235965471,0.633482,0.563662777,-0.212685937,0.63237,0.565789465,-0.195776393,0.631575,0.578527205,-0.278809678,0.634466,0.586214596,-0.245967065,0.636922,0.591843291,-0.228218758,0.638179,0.597430835,-0.21198523,0.639322,0.599198406,-0.291817278,0.632538,0.618479925,-0.267845781,0.638398,0.627705262,-0.257012366,0.641478,0.63590733,-0.24747871,0.644259
0.537570093,-0.35052746,0.620679,0.534230533,-0.322195133,0.630174,0.514808426,-0.353022866,0.621925,0.486796216,-0.329467875,0.61886,0.461711453,-0.309052663,0.615209,0.451297132,-0.294321014,0.616532,0.512634681,-0.293422437,0.63778,0.503255336,-0.264800007,0.639455,0.504480511,-0.256430721,0.640292,0.505621769,-0.248400461,0.641053,0.537786318,-0.292351698,0.639023,0.538479474,-0.254211723,0.64132,0.539528939,-0.231364937,0.64266,0.540403584,-0.214830092,0.643617,0.5583821,-0.294526833,0.639218,0.5692965,-0.262531967,0.647531,0.574880058,-0.246175536,0.651785,0.580400084,-0.230334916,0.655651,0.582438814,-0.302648231,0.637947,0.59943942,-0.280640181,0.649285,0.607523483,-0.270664466,0.654792,0.614657971,-0.261860137,0.659652
0.518037498,-0.3830098,0.637741,0.521961003,-0.343924576,0.636273,0.499203308,-0.373314533,0.635888,0.467521378,-0.350593679,0.62483,0.437628048,-0.332646975,0.618907,0.42556267,-0.320071275,0.620724,0.489617567,-0.305013812,0.633001,0.473474339,-0.277461141,0.633558,0.474444989,-0.26926219,0.633837,0.475362813,-0.261416102,0.63409,0.515077283,-0.305133786,0.634905,0.512152746,-0.262364981,0.627007,0.509530569,-0.242470593,0.6224,0.508957169,-0.227781817,0.619109,0.53662597,-0.308747617,0.636601,0.53981476,-0.278283847,0.646106,0.539582941,-0.262176052,0.65097,0.539512044,-0.247147471,0.655391,0.56323768,-0.31943662,0.638828,0.569713445,-0.289392814,0.640738,0.572860635,-0.275683386,0.64181,0.575672823,-0.2636015,0.642795
0.509828989,-0.384092229,0.630983,0.496645522,-0.351435642,0.63277,0.482030454,-0.378464864,0.631383,0.445350526,-0.364310341,0.625306,0.419218013,-0.349655895,0.624643,0.408539611,-0.339202658,0.63003,0.469633613,-0.318078343,0.63441,0.448945781,-0.286827332,0.629557,0.438786674,-0.27174804,0.627131,0.429683083,-0.258410388,0.624925,0.493188365,-0.31501456,0.634435,0.478752957,-0.274599157,0.629231,0.469943986,-0.25174433,0.626195,0.46358417,-0.23532981,0.624026,0.513175549,-0.315835104,0.6343,0.502597035,-0.27941038,0.63415,0.497175933,-0.260744412,0.634073,0.492242587,-0.243757686,0.634003,0.53779253,-0.323012805,0.633858,0.541530654,-0.29068311,0.631335,0.543223552,-0.275959959,0.630176,0.546346431,-0.263830062,0.63105
0.494391607,-0.388899751,0.626328,0.492358258,-0.349072699,0.629012,0.474934362,-0.381214851,0.627147,0.441138787,-0.361416615,0.621841,0.416724161,-0.348595825,0.623659,0.407245667,-0.339212936,0.629066,0.46735484,-0.315818226,0.631752,0.447801217,-0.285257051,0.627746,0.438106892,-0.27040867,0.625744,0.429374561,-0.25725646,0.623923,0.490579625,-0.31312144,0.631513,0.477563974,-0.273112354,0.627179,0.46936141,-0.250986745,0.624651,0.463384191,-0.235269075,0.622845,0.510140883,-0.314212595,0.631083,0.497887452,-0.275888463,0.626965,0.492755576,-0.260627996,0.624858,0.487045906,-0.246624488,0.622943,0.53395148,-0.321648241,0.630152,0.538506634,-0.289739996,0.628119,0.540578765,-0.275181862,0.627185,0.54436557,-0.263342413,0.628635
0.491937535,-0.388926737,0.625244,0.492999162,-0.349109208,0.627859,0.474803223,-0.381155942,0.62792,0.445923136,-0.35562133,0.6249,0.428367797,-0.341079997,0.630696,0.424782625,-0.331446526,0.638485,0.481729528,-0.313938046,0.632899,0.467708374,-0.280358475,0.630117,0.460452069,-0.264097772,0.628726,0.453716945,-0.249751481,0.627462,0.502805163,-0.314347569,0.630296,0.498100889,-0.273403845,0.626287,0.492129484,-0.254550401,0.623948,0.487523865,-0.241791759,0.622277,0.519793993,-0.318066174,0.627926,0.511124923,-0.279485216,0.62462,0.505976142,-0.260814191,0.622928,0.500955379,-0.244976316,0.621391,0.53908261,-0.328708993,0.624723,0.544502492,-0.296535648,0.621544,0.546962551,-0.281868335,0.620084,0.551917961,-0.270358511,0.621952
0.500157698,-0.384067228,0.624412,0.50583454,-0.342839348,0.627558,0.484997191,-0.376161908,0.628755,0.458725621,-0.349830833,0.627617,0.438530099,-0.332145563,0.629506,0.433810213,-0.320963894,0.636239,0.49168976,-0.307706423,0.63504,0.493308232,-0.283640069,0.650098,0.493800585,-0.270535252,0.657627,0.494207712,-0.25849371,0.664472,0.511620919,-0.305356855,0.63049,0.509666597,-0.264669145,0.627045,0.511304715,-0.245017074,0.63009,0.513037547,-0.229159306,0.632264,0.527490881,-0.309572354,0.62647,0.521214148,-0.271802353,0.624046,0.517354841,-0.253120702,0.622807,0.513283635,-0.237266061,0.621679,0.545396334,-0.317792566,0.621241,0.561962916,-0.293306846,0.623816,0.568492266,-0.28036524,0.624999,0.571129957,-0.27030182,0.626042
0.521754915,-0.366934155,0.624272,0.528081115,-0.331340541,0.625179,0.507491741,-0.362382421,0.627227,0.478791203,-0.33574159,0.625271,0.461306754,-0.318896392,0.629967,0.457332868,-0.307259755,0.636726,0.515133287,-0.292218285,0.629485,0.518370804,-0.262072905,0.639683,0.519963382,-0.246821308,0.644782,0.520899102,-0.232131042,0.649418,0.535787705,-0.29431267,0.626023,0.538476439,-0.25321297,0.619893,0.54004061,-0.229047048,0.616317,0.540685,-0.211986035,0.613762,0.552221061,-0.299501979,0.623095,0.544060041,-0.260842899,0.618855,0.539862109,-0.242115436,0.616685,0.536089282,-0.226333756,0.614713,0.570536201,-0.311980931,0.619505,0.58476595,-0.28602206,0.620427,0.590812913,-0.272835942,0.62085,0.594353705,-0.263142628,0.621224
0.528391455,-0.358053824,0.61597,0.542928432,-0.321872218,0.61821,0.51542229,-0.344241029,0.616731,0.490433267,-0.318641436,0.610276,0.473309757,-0.296319756,0.611013,0.4675406,-0.278825613,0.611915,0.527957952,-0.279789473,0.620594,0.525067397,-0.241608287,0.616287,0.523623151,-0.222492002,0.614134,0.522309851,-0.205098123,0.612176,0.551455383,-0.284822579,0.620297,0.557573543,-0.245629421,0.615497,0.562717066,-0.223732689,0.612697,0.566537505,-0.208135443,0.610697,0.570002558,-0.292410209,0.619857,0.587649178,-0.262166434,0.623608,0.597280377,-0.246111569,0.625528,0.606447941,-0.23487744,0.627272,0.590461281,-0.307617219,0.618986,0.614541102,-0.286996578,0.624346,0.626401899,-0.277940295,0.627646,0.63692831,-0.269976694,0.630619
0.529658345,-0.359299954,0.617781,0.54157516,-0.320005999,0.615982,0.516458675,-0.345039444,0.618649,0.497867497,-0.314710474,0.620379,0.476591985,-0.289273643,0.612756,0.470448758,-0.270288196,0.611407,0.533481319,-0.274000156,0.615934,0.529151683,-0.235818309,0.609,0.526996929,-0.216516026,0.605533,0.525043961,-0.198841514,0.602381,0.554805102,-0.281580087,0.614304,0.566651915,-0.243055237,0.61083,0.573552776,-0.220347879,0.608804,0.578543187,-0.203976055,0.607357,0.571293787,-0.291387243,0.613119,0.588785214,-0.257688016,0.61191,0.597701624,-0.240505899,0.611292,0.605953625,-0.224541242,0.61073,0.588717805,-0.30943732,0.612009,0.609025244,-0.28519156,0.612688,0.619508227,-0.274645239,0.614191,0.628761264,-0.26533517,0.615517
0.517174594,-0.366868811,0.619387,0.523190745,-0.322131241,0.617213,0.497462845,-0.351317275,0.619662,0.473591693,-0.316018062,0.614317,0.454896785,-0.290315443,0.610273,0.450753149,-0.273564878,0.612324,0.512342732,-0.275211972,0.616176,0.507505057,-0.23662477,0.608531,0.50507746,-0.217217767,0.604708,0.502873275,-0.199474067,0.601233,0.534411236,-0.282507455,0.615184,0.545780757,-0.243673422,0.611125,0.55226514,-0.220821006,0.608758,0.560051165,-0.205633354,0.607066,0.551666025,-0.292150683,0.614558,0.56828315,-0.257939968,0.612414,0.576730518,-0.240531779,0.611317,0.584348499,-0.224395833,0.61032,0.567912728,-0.309713286,0.614164,0.587664316,-0.284175181,0.611827,0.598065822,-0.273521465,0.613319,0.607251869,-0.264111565,0.614636
0.493460439,-0.381370646,0.617717,0.496570957,-0.337193308,0.614106,0.476758653,-0.373152065,0.620539,0.455941122,-0.346766511,0.614796,0.427227387,-0.320037141,0.603835,0.41775124,-0.303029314,0.603358,0.478688355,-0.298719406,0.615371,0.472197172,-0.259523196,0.606784,0.464913264,-0.256190048,0.60249,0.458140265,-0.253102454,0.598586,0.49858892,-0.298213652,0.610736,0.49246728,-0.256055174,0.600419,0.488912714,-0.231188122,0.5944,0.486382851,-0.213296313,0.590102,0.51505023,-0.301580569,0.607236,0.513914452,-0.260602389,0.596801,0.511669383,-0.241404211,0.591463,0.507690121,-0.227437474,0.586609,0.534622633,-0.312489024,0.603688,0.549379044,-0.285074078,0.605976,0.55603875,-0.272158295,0.607027,0.562067593,-0.263407299,0.61213
0.485743107,-0.380729721,0.611126,0.488344373,-0.347140669,0.615253,0.470763609,-0.375923986,0.616714,0.451339869,-0.363963424,0.616278,0.421275912,-0.339155826,0.605575,0.410425219,-0.322905062,0.605318,0.472222217,-0.320375166,0.624935,0.472133731,-0.283574005,0.621778,0.463583735,-0.280965345,0.6202,0.455498925,-0.278513524,0.618765,0.490199271,-0.314522112,0.619104,0.490881664,-0.276861504,0.618952,0.486583617,-0.254544565,0.618863,0.482771002,-0.241086786,0.618799,0.505224249,-0.313077599,0.613945,0.512308957,-0.278846911,0.614885,0.511772154,-0.260343574,0.615366,0.509862787,-0.239156096,0.615803,0.523290799,-0.317596254,0.607221,0.535045293,-0.287738643,0.603844,0.539441537,-0.27355891,0.602293,0.543333473,-0.261016204,0.600924
0.491724375,-0.38645685,0.618148,0.486768059,-0.347231421,0.614868,0.473174456,-0.378985853,0.619349,0.43841226,-0.367236115,0.614648,0.40984179,-0.353542347,0.611773,0.394072456,-0.339765773,0.609996,0.454452551,-0.310874829,0.614296,0.430360703,-0.277627176,0.606845,0.418406,-0.26249552,0.603119,0.407384397,-0.248517239,0.599733,0.476304555,-0.30718347,0.611806,0.461242398,-0.265761153,0.604852,0.451889397,-0.24275753,0.600796,0.445151152,-0.22613312,0.597898,0.495156577,-0.307919855,0.610043,0.489622599,-0.270322596,0.608918,0.48279049,-0.25277555,0.608343,0.482459491,-0.234631748,0.60782,0.521638049,-0.316974796,0.608487,0.525145595,-0.284634754,0.607604,0.527854789,-0.270216933,0.607198,0.530252879,-0.257456616,0.606839
0.493858384,-0.384969253,0.613516,0.492913336,-0.345294901,0.615566,0.475718308,-0.379055417,0.61449,0.446257372,-0.361587991,0.608967,0.416560969,-0.348269969,0.603746,0.401067869,-0.334577333,0.602289,0.466270465,-0.315434599,0.6181,0.442631169,-0.281922125,0.613795,0.431602954,-0.266744674,0.611642,0.417821781,-0.252682169,0.609685,0.488810938,-0.31164565,0.61748,0.473192458,-0.269656696,0.612616,0.464038085,-0.247479635,0.609779,0.45500746,-0.23085259,0.607753,0.508081867,-0.311958564,0.61679,0.504418775,-0.275671114,0.618469,0.501197398,-0.257840065,0.619328,0.498052008,-0.24199514,0.620108,0.533385173,-0.315490757,0.615655,0.540632603,-0.287013374,0.618789,0.543918228,-0.273434087,0.620229,0.546820559,-0.261432481,0.6215
0.494441758,-0.385689054,0.613372,0.503019048,-0.34859176,0.614599,0.4748853,-0.375425973,0.612674,0.476444635,-0.350078317,0.603645,0.454900315,-0.320325727,0.594002,0.452962827,-0.307900537,0.602049,0.483186703,-0.307088043,0.614498,0.472955828,-0.277669543,0.608572,0.469360962,-0.289439136,0.60561,0.480956022,-0.311813812,0.618199,0.507806341,-0.310347267,0.615744,0.502712964,-0.268402046,0.609854,0.499458375,-0.244142581,0.606418,0.497108621,-0.22683608,0.603964,0.527987378,-0.316672509,0.616662,0.529850883,-0.279698782,0.618079,0.530804852,-0.260753141,0.618804,0.531672306,-0.243512875,0.619463,0.551355916,-0.330841223,0.617549,0.555739164,-0.297979814,0.612863,0.557666484,-0.282934176,0.610709,0.55913939,-0.269958281,0.608809
0.548654868,-0.387696598,0.623362,0.536084146,-0.341668376,0.616807,0.523613528,-0.376873803,0.61875,0.511932767,-0.345955473,0.60332,0.482359437,-0.318542678,0.590826,0.474523288,-0.307290538,0.596772,0.497404558,-0.300619028,0.606812,0.477704586,-0.270095263,0.593564,0.475880933,-0.279899967,0.586939,0.489127535,-0.299770876,0.597014,0.524515719,-0.299726815,0.610688,0.516211302,-0.262422824,0.612553,0.511290273,-0.240454775,0.61364,0.506713534,-0.227677967,0.614417,0.548357569,-0.302853952,0.61445,0.539225013,-0.266019835,0.614152,0.536027558,-0.244149731,0.614,0.532260296,-0.230956221,0.616104,0.577324624,-0.313404924,0.619914,0.570938064,-0.277362765,0.609754,0.567242264,-0.260906536,0.605086,0.5640598,-0.246832475,0.600968
0.53143805,-0.358862345,0.613685,0.540864009,-0.315092143,0.6092,0.513867534,-0.342537207,0.611612,0.492319461,-0.307510254,0.600157,0.478114479,-0.285513757,0.60299,0.471382381,-0.265516469,0.598538,0.528483364,-0.266768393,0.603728,0.519669877,-0.22778074,0.593361,0.515263935,-0.208121014,0.588177,0.511259089,-0.190148045,0.583464,0.549568237,-0.275817943,0.605014,0.553368489,-0.231559841,0.59395,0.553728337,-0.206585842,0.587496,0.553991861,-0.188724279,0.582886,0.572182911,-0.284230656,0.606463,0.58500851,-0.247778045,0.602311,0.591558136,-0.229151417,0.600186,0.601081157,-0.218135929,0.603834,0.593967178,-0.302790975,0.608878,0.613958457,-0.278436568,0.607167,0.623556469,-0.267241859,0.606381,0.632032103,-0.257356347,0.605687
0.53218392,-0.344095087,0.601098,0.55239575,-0.299788175,0.603306,0.522287688,-0.322202242,0.601307,0.494961845,-0.294216354,0.595842,0.477255453,-0.271280374,0.595099,0.468816768,-0.251772281,0.59168,0.542172418,-0.258610319,0.60498,0.539078213,-0.223220963,0.600267,0.537549537,-0.204994746,0.597911,0.536170657,-0.188099998,0.595769,0.565667845,-0.265741968,0.605372,0.576401059,-0.227749922,0.600588,0.58133647,-0.206925657,0.597798,0.585040297,-0.191587328,0.595805,0.58406437,-0.274856269,0.605501,0.601091659,-0.241377544,0.604332,0.609900199,-0.223618933,0.603734,0.61786465,-0.207209642,0.60319,0.603922289,-0.291596713,0.605304,0.627367032,-0.272241268,0.607927,0.640312379,-0.264427654,0.611331,0.652020899,-0.25766076,0.614614
0.531882441,-0.343886209,0.599734,0.543790015,-0.30917377,0.602409,0.516491752,-0.328838563,0.600052,0.493621949,-0.29901758,0.594119,0.47854155,-0.273865313,0.595901,0.472580059,-0.2599582,0.59743,0.537725102,-0.266031577,0.604516,0.536440875,-0.229628415,0.600209,0.535830379,-0.211004803,0.598056,0.535878347,-0.191019799,0.596098,0.561229898,-0.273378402,0.604909,0.572733122,-0.23458678,0.600567,0.580541012,-0.209414935,0.598033,0.584936532,-0.193577999,0.596224,0.57958517,-0.28264946,0.605,0.595205643,-0.248059399,0.600931,0.603195822,-0.230128953,0.598849,0.610581664,-0.21362282,0.596957,0.599350172,-0.299523019,0.604683,0.623217955,-0.279767125,0.60754,0.634077951,-0.270796064,0.608852,0.644544304,-0.261466918,0.610011
0.542140664,-0.360381419,0.617166,0.537099274,-0.318490191,0.60735,0.520433533,-0.346854021,0.61512,0.490728157,-0.319344903,0.607604,0.471267965,-0.295204508,0.604974,0.464942832,-0.278026121,0.605746,0.514007279,-0.270572734,0.598509,0.517920687,-0.238000229,0.600832,0.519465878,-0.225094328,0.601994,0.520847643,-0.213479591,0.60305,0.537250096,-0.275564509,0.59817,0.532787939,-0.235703591,0.582434,0.529008388,-0.216300405,0.573254,0.525425084,-0.205357456,0.566697,0.556583172,-0.283673431,0.598746,0.567101341,-0.246943127,0.593344,0.572042943,-0.229440532,0.590581,0.576547239,-0.21353751,0.588069,0.579718661,-0.300614948,0.600973,0.592928571,-0.272311907,0.593199,0.598405195,-0.260570662,0.589627,0.603373787,-0.250059844,0.586476
0.506143416,-0.386868589,0.615743,0.512867478,-0.33645129,0.612962,0.489879657,-0.375188492,0.617429,0.473876582,-0.343869441,0.615544,0.449218999,-0.317266688,0.607069,0.439957851,-0.298520739,0.604858,0.489442378,-0.29611526,0.613316,0.486029718,-0.258518357,0.606002,0.48171067,-0.252678305,0.602345,0.477727866,-0.247194003,0.599021,0.511292885,-0.295626467,0.610361,0.501263311,-0.254199753,0.60146,0.495552371,-0.246443317,0.596268,0.491422603,-0.240701212,0.592559,0.529473649,-0.299007965,0.608171,0.531181275,-0.258648572,0.598412,0.531642941,-0.238897869,0.59342,0.531733483,-0.221734487,0.588881,0.551267385,-0.309888646,0.606032,0.570066449,-0.284022406,0.605337,0.578942253,-0.27228769,0.605289,0.58685121,-0.261975816,0.605331
0.509055952,-0.38708468,0.617966,0.505591957,-0.3403287,0.615015,0.490197855,-0.377939843,0.619067,0.464458241,-0.354855142,0.617595,0.437711786,-0.334999569,0.612399,0.426312293,-0.319782814,0.612683,0.476787894,-0.302471154,0.614522,0.454849395,-0.266854667,0.606968,0.445162819,-0.251937488,0.603191,0.442926928,-0.251547346,0.599758,0.49933573,-0.29975311,0.612253,0.484647896,-0.256677523,0.603014,0.476627237,-0.23279506,0.597624,0.470869643,-0.215564489,0.593775,0.518390275,-0.301293644,0.610643,0.515293645,-0.262556957,0.607973,0.514131331,-0.242804971,0.606606,0.513502941,-0.225676456,0.605364,0.54175908,-0.309912082,0.609213,0.546755905,-0.277170791,0.602755,0.549356353,-0.265205753,0.599788,0.551755939,-0.254437706,0.59717
0.505124239,-0.389497777,0.620192,0.49449181,-0.346073827,0.617915,0.482574556,-0.381139249,0.620309,0.445983674,-0.358150264,0.618121,0.419913258,-0.341230527,0.615858,0.40943378,-0.327880953,0.618083,0.465435353,-0.304057689,0.616611,0.444563067,-0.269282494,0.608948,0.434077298,-0.252922656,0.605117,0.424429667,-0.237830705,0.601634,0.488082773,-0.30617377,0.615785,0.479671021,-0.262275022,0.611074,0.47396706,-0.238489462,0.608326,0.469871786,-0.22136634,0.606363,0.507941373,-0.307827834,0.615303,0.50070886,-0.266881082,0.609785,0.496887133,-0.246463515,0.607171,0.493412297,-0.227901841,0.604794,0.532700931,-0.316560725,0.615095,0.539116854,-0.286027825,0.613951,0.546139328,-0.273305658,0.613426,0.549899701,-0.260992525,0.612962
0.507741806,-0.389241571,0.622405,0.494852962,-0.345225053,0.617998,0.486190643,-0.380168894,0.623309,0.451941238,-0.358306333,0.61695,0.426536009,-0.339844332,0.614294,0.417836275,-0.326139941,0.617445,0.475581443,-0.304125461,0.616326,0.454077578,-0.268485592,0.607984,0.443832541,-0.252693532,0.603812,0.432375119,-0.237991336,0.60002,0.494940596,-0.304928974,0.613873,0.485055243,-0.259997718,0.605161,0.477885673,-0.235642361,0.600079,0.472748636,-0.218132032,0.596449,0.513406861,-0.308835042,0.612238,0.510117087,-0.271490116,0.612347,0.508214706,-0.252323351,0.612402,0.503098855,-0.232848556,0.612453,0.535806261,-0.320500393,0.611008,0.540317649,-0.287822007,0.611565,0.543960422,-0.273905514,0.61182,0.547173154,-0.261636245,0.612046
0.490456926,-0.380996425,0.621081,0.515207104,-0.347962308,0.62482,0.482791042,-0.374073843,0.627744,0.462987789,-0.346656551,0.628657,0.445657468,-0.318774368,0.623865,0.444329176,-0.300337506,0.623593,0.534590953,-0.327818235,0.635613,0.520953531,-0.306463498,0.636458,0.511654813,-0.315395868,0.636881,0.502868058,-0.323817229,0.637265,0.545296202,-0.329119112,0.628319,0.527128278,-0.303928206,0.626345,0.515954223,-0.288388092,0.625193,0.50393323,-0.293802712,0.624371,0.551882487,-0.332253166,0.621989,0.558437405,-0.294948794,0.617719,0.561870341,-0.275593251,0.615534,0.565039828,-0.257833864,0.613548,0.555333906,-0.339847599,0.613948,0.563982565,-0.30852521,0.611406,0.567925445,-0.294217901,0.610238,0.572205869,-0.282040735,0.610079
0.47988882,-0.358601502,0.60759,0.521966679,-0.331881959,0.619661,0.484895741,-0.34332459,0.617485,0.472357542,-0.319665633,0.625613,0.457775729,-0.296313978,0.626564,0.453223066,-0.279783104,0.620903,0.54392943,-0.310265146,0.63985,0.547823242,-0.287045068,0.648462,0.55005189,-0.274544617,0.653266,0.552136125,-0.262543375,0.657808,0.555498045,-0.314140206,0.630959,0.561022261,-0.284553386,0.637314,0.564442045,-0.26586115,0.641249,0.566964348,-0.251790635,0.644152,0.562123382,-0.319060221,0.622589,0.590926104,-0.293140163,0.625341,0.601002275,-0.27647792,0.626748,0.610350051,-0.260960843,0.628028,0.564561247,-0.328066975,0.610832,0.584005356,-0.307374719,0.618067,0.590809956,-0.294901073,0.621391,0.589341806,-0.287725109,0.624324
0.525255541,-0.355777824,0.612134,0.538065039,-0.311311813,0.613026,0.508680855,-0.333394339,0.615713,0.491404013,-0.304853303,0.61359,0.469362953,-0.275773855,0.603675,0.465518195,-0.25813655,0.604899,0.538355171,-0.268139161,0.618111,0.538440573,-0.230514132,0.614594,0.538491231,-0.211605418,0.612835,0.53824821,-0.195328189,0.611236,0.55643139,-0.276344573,0.613861,0.570985027,-0.239099797,0.614119,0.579518568,-0.217257794,0.614269,0.585633859,-0.201603859,0.614376,0.56846786,-0.287734113,0.610285,0.579062486,-0.250319004,0.604704,0.587073835,-0.230424831,0.603398,0.593403686,-0.213465469,0.602211,0.583262142,-0.303568008,0.605935,0.606984921,-0.282525311,0.612598,0.618488726,-0.272589381,0.61566,0.62865949,-0.263793835,0.618361
0.527608432,-0.351817044,0.607168,0.549493675,-0.311916465,0.607647,0.513428873,-0.336167394,0.607819,0.49896512,-0.307288924,0.60819,0.480106782,-0.278340626,0.599719,0.477222101,-0.262447611,0.603054,0.541214937,-0.268451675,0.608774,0.53858719,-0.231029611,0.603255,0.537293119,-0.212022051,0.600496,0.536127581,-0.194563564,0.597987,0.563364948,-0.276403959,0.608096,0.57553772,-0.237953059,0.605899,0.58272864,-0.215298056,0.604617,0.584314691,-0.198858707,0.604324,0.580489316,-0.286298332,0.607496,0.592076566,-0.253291534,0.606291,0.598989117,-0.234786742,0.605675,0.605368646,-0.217801886,0.605114,0.595844094,-0.307665299,0.606714,0.615844906,-0.283254943,0.609981,0.625008091,-0.272080141,0.611482,0.63307938,-0.262240855,0.612806
0.53748386,-0.362012028,0.614627,0.543560201,-0.318152444,0.609565,0.520574374,-0.346727933,0.613937,0.499077798,-0.324131138,0.610515,0.479205708,-0.300976536,0.608602,0.46773951,-0.279850475,0.60549,0.520391639,-0.274741064,0.605461,0.529521074,-0.245093219,0.615543,0.532270834,-0.231605653,0.620584,0.536482164,-0.219826432,0.625167,0.543725282,-0.278748332,0.604819,0.542552535,-0.236388433,0.593305,0.541274737,-0.214972059,0.586588,0.540186126,-0.201065906,0.581791,0.56338865,-0.285153757,0.60473,0.573087233,-0.248114905,0.599408,0.578051011,-0.229824343,0.596685,0.58113382,-0.214330679,0.59421,0.585282623,-0.301271763,0.605422,0.602317132,-0.273197398,0.604459,0.610300045,-0.260719199,0.604016,0.61719781,-0.250528882,0.603626
0.535205421,-0.398900572,0.614062,0.527604811,-0.354055229,0.609659,0.515886213,-0.39050436,0.614838,0.491094867,-0.366381789,0.613887,0.463631673,-0.340486171,0.604214,0.453296445,-0.322331865,0.60202,0.498665966,-0.314922492,0.607825,0.478294316,-0.279032399,0.601372,0.468157743,-0.261194315,0.598145,0.465034257,-0.252029342,0.595212,0.520530955,-0.312582412,0.605532,0.514206145,-0.269659656,0.594592,0.511865086,-0.246839695,0.58821,0.510858063,-0.232153261,0.583652,0.538934417,-0.314461663,0.604027,0.543767818,-0.27873749,0.606979,0.547067531,-0.26027716,0.608489,0.551676663,-0.244736566,0.609862,0.559431503,-0.323661303,0.602947,0.55238894,-0.326849602,0.593679,0.561956469,-0.348506284,0.607597,0.567283808,-0.363666803,0.616256
0.537857006,-0.40393701,0.616546,0.525499955,-0.363058749,0.612505,0.519591101,-0.39783801,0.619511,0.488692366,-0.380428898,0.615635,0.459999853,-0.360168224,0.609486,0.447536605,-0.344694864,0.608904,0.493950355,-0.32890484,0.613662,0.470482032,-0.294913127,0.607012,0.458756451,-0.277930913,0.603688,0.451899782,-0.271913564,0.600665,0.513628321,-0.322279166,0.608717,0.499277967,-0.278800764,0.598315,0.490652745,-0.258463486,0.592246,0.484480865,-0.244930673,0.587912,0.530887458,-0.320569512,0.604997,0.534612207,-0.286600489,0.610268,0.536367089,-0.268750029,0.612965,0.537489865,-0.255773861,0.615416,0.554483897,-0.324133691,0.601254,0.548589959,-0.292651471,0.592808,0.5464661,-0.277460062,0.588928,0.554584564,-0.279804169,0.597588
0.50404262,-0.394604167,0.62492,0.493235873,-0.355074059,0.61701,0.486101897,-0.38775361,0.624743,0.453242696,-0.379033481,0.620413,0.425730111,-0.36788571,0.620099,0.412588945,-0.357278946,0.622874,0.455269747,-0.31857161,0.611736,0.427514444,-0.284879868,0.600331,0.413607669,-0.268044113,0.594629,0.400923473,-0.252679292,0.589445,0.477312877,-0.312670176,0.609601,0.470369323,-0.278770978,0.616558,0.466298192,-0.258932528,0.620617,0.463380654,-0.244733595,0.623516,0.496957979,-0.311708202,0.608531,0.489767616,-0.275617636,0.609192,0.485975186,-0.257251856,0.609531,0.482465239,-0.240275528,0.609838,0.52485759,-0.31609029,0.608517,0.521464196,-0.282792023,0.598675,0.520801379,-0.267644677,0.594153,0.520188945,-0.254859014,0.590163
0.503024113,-0.397125669,0.622787,0.483389321,-0.357815864,0.618987,0.483366405,-0.390356917,0.624144,0.444857081,-0.381584122,0.621352,0.41621667,-0.369360762,0.619265,0.401246103,-0.357238556,0.6195,0.447841787,-0.32539844,0.618272,0.419870334,-0.294797021,0.610313,0.405764129,-0.279352808,0.606334,0.393133674,-0.2670349,0.602716,0.468582735,-0.318043513,0.615427,0.4518647,-0.279929211,0.612706,0.442062362,-0.257571231,0.611118,0.435038886,-0.241544798,0.609985,0.487152074,-0.31562773,0.613415,0.475542879,-0.277486329,0.610305,0.469596334,-0.25794404,0.608714,0.464135037,-0.240173022,0.607267,0.511740673,-0.319459796,0.611644,0.512708965,-0.285214739,0.604654,0.513140473,-0.269543236,0.601443,0.51351315,-0.255748247,0.598609
0.503859246,-0.398784997,0.620121,0.49240971,-0.355598845,0.616528,0.483570507,-0.394214067,0.621758,0.454410669,-0.38038679,0.62101,0.426178004,-0.368567839,0.61959,0.412028188,-0.357126709,0.620957,0.457731312,-0.322665746,0.616296,0.429426078,-0.294143003,0.608959,0.415595971,-0.278871812,0.60529,0.403272937,-0.266697737,0.601955,0.478686752,-0.315690651,0.61316,0.468255949,-0.280080096,0.616629,0.459481288,-0.260426219,0.618653,0.458229444,-0.244614794,0.620687,0.497242793,-0.313625807,0.610891,0.48783125,-0.276496282,0.609632,0.482940974,-0.25754056,0.608987,0.478439719,-0.240166373,0.608402,0.521493886,-0.317887506,0.608785,0.522344013,-0.283998039,0.601653,0.522731498,-0.268852214,0.598376,0.523059279,-0.255768151,0.595485
0.524027119,-0.398008321,0.613907,0.524325697,-0.355722004,0.621479,0.518100579,-0.395734329,0.621738,0.518008929,-0.372826829,0.639263,0.506269901,-0.351024746,0.644703,0.513072173,-0.336470417,0.648889,0.511763612,-0.327947681,0.636193,0.498828255,-0.335663707,0.640319,0.491652308,-0.339766034,0.642383,0.506855772,-0.362490104,0.656975,0.52599234,-0.320995993,0.628575,0.508450139,-0.28922179,0.630289,0.497802358,-0.269973871,0.631288,0.491623602,-0.256737135,0.634093,0.537830533,-0.31848194,0.621649,0.524218315,-0.286035878,0.623458,0.517035616,-0.268931252,0.624401,0.510410463,-0.25309283,0.625315,0.551835812,-0.321488056,0.612301,0.55430354,-0.289848279,0.611855,0.555322016,-0.275152328,0.61165,0.556229778,-0.262084615,0.61147
0.534186498,-0.397648641,0.615967,0.547595213,-0.352109781,0.622277,0.526740861,-0.389701096,0.624272,0.542772496,-0.366036958,0.642265,0.535488787,-0.340722162,0.646199,0.547467177,-0.327839996,0.652039,0.543236457,-0.320219816,0.636782,0.529586719,-0.324246378,0.640499,0.522053426,-0.326350824,0.642358,0.534603341,-0.348977973,0.656673,0.556708907,-0.3167064,0.628191,0.545779639,-0.281416129,0.62896,0.540919625,-0.260934443,0.63146,0.537437531,-0.245927395,0.633401,0.567218538,-0.317133057,0.620572,0.558764733,-0.283793771,0.621735,0.558762056,-0.265134703,0.622881,0.554670793,-0.24688719,0.623923,0.578365478,-0.323767215,0.610608,0.586479505,-0.29270093,0.609041,0.59012835,-0.278254578,0.608321,0.59337624,-0.265413201,0.607685
0.564191228,-0.372050079,0.616355,0.560599883,-0.326966428,0.611832,0.544464928,-0.360424521,0.615645,0.534195184,-0.33118751,0.610595,0.500793283,-0.304566145,0.597425,0.495196995,-0.289571646,0.601352,0.533885423,-0.284334768,0.608048,0.527803981,-0.248381763,0.607276,0.524757015,-0.230369479,0.606889,0.525652604,-0.218157572,0.606538,0.557223209,-0.285620558,0.607594,0.547262948,-0.241921802,0.596685,0.545869462,-0.222206792,0.590321,0.545956036,-0.222580623,0.585775,0.577882174,-0.289646186,0.607613,0.570697969,-0.248080307,0.597214,0.573091315,-0.241038607,0.591893,0.574161456,-0.233595028,0.587057,0.600113621,-0.303016801,0.608347,0.597347984,-0.291862009,0.598408,0.589678085,-0.296653679,0.593842,0.582847476,-0.301020635,0.589812
0.551671912,-0.363298674,0.610348,0.564619825,-0.316040198,0.608068,0.539441926,-0.350288933,0.609638,0.514318994,-0.31604384,0.605409,0.492692124,-0.292330732,0.601428,0.483893982,-0.274023407,0.599789,0.547697721,-0.270736001,0.605715,0.540880621,-0.232512408,0.597533,0.537581976,-0.213507111,0.593442,0.534587776,-0.196035974,0.589723,0.571595318,-0.276512294,0.605928,0.575092815,-0.234466629,0.596978,0.577389863,-0.210872713,0.591756,0.579108267,-0.193794739,0.588027,0.59078966,-0.284944954,0.606301,0.599839341,-0.246675524,0.59786,0.607663242,-0.228441296,0.596738,0.614823176,-0.211770806,0.595718,0.612466428,-0.30162531,0.607099,0.631273284,-0.276225355,0.605058,0.639844675,-0.264636049,0.60412,0.647926029,-0.254198808,0.603293
0.559834728,-0.365933495,0.616695,0.555090724,-0.317712833,0.610234,0.537086651,-0.349199492,0.610898,0.5051168,-0.318263229,0.607282,0.484415351,-0.295244008,0.604731,0.475783735,-0.277163707,0.603515,0.529357033,-0.268215905,0.598799,0.516077176,-0.233124473,0.584887,0.509424999,-0.215218098,0.577931,0.503369574,-0.198713824,0.571607,0.557693128,-0.275871239,0.604173,0.565072835,-0.237268936,0.602191,0.57101127,-0.21463757,0.601036,0.575721426,-0.199423141,0.60021,0.579612477,-0.288667116,0.609155,0.590682108,-0.250345204,0.603129,0.597501803,-0.233650395,0.600046,0.603934378,-0.218107882,0.597243,0.608216916,-0.306141881,0.616036,0.625869392,-0.279131957,0.612501,0.633612369,-0.267200825,0.610877,0.64239853,-0.257560928,0.611366
0.542070256,-0.398834745,0.632389,0.535374075,-0.344158201,0.617737,0.51984698,-0.375440283,0.631595,0.491241236,-0.343848324,0.619318,0.468526908,-0.317767038,0.611122,0.457865773,-0.297293737,0.604677,0.515145959,-0.2938337,0.60737,0.495781841,-0.25696751,0.591879,0.486060663,-0.23834819,0.584134,0.477198712,-0.221306106,0.577093,0.53488354,-0.299850864,0.603988,0.533254727,-0.256024746,0.586408,0.530924856,-0.232046262,0.576152,0.527895422,-0.21685867,0.568827,0.551337538,-0.308933545,0.602472,0.540932583,-0.266441399,0.584204,0.535178119,-0.245476833,0.574857,0.529961202,-0.226336731,0.56636,0.571027907,-0.327197887,0.602987,0.571915076,-0.291294202,0.58929,0.571026493,-0.276679851,0.582997,0.565435712,-0.272935915,0.577444
0.502302127,-0.39901181,0.618957,0.505612491,-0.358604208,0.616347,0.485984511,-0.394416359,0.623943,0.460084671,-0.370369712,0.621291,0.428956643,-0.346375882,0.60977,0.417549294,-0.329355342,0.608153,0.493391346,-0.317460064,0.620964,0.494404967,-0.27876573,0.610949,0.494640041,-0.259471732,0.605942,0.49486793,-0.241874634,0.60139,0.51039624,-0.318191109,0.613898,0.513907423,-0.276331989,0.603918,0.503440904,-0.268460798,0.598096,0.495785521,-0.262668934,0.593938,0.52404328,-0.322532428,0.608308,0.517325957,-0.283288037,0.602185,0.509430132,-0.270275952,0.599052,0.502079282,-0.258064835,0.596203,0.53944755,-0.334477157,0.602135,0.540950929,-0.300457431,0.596388,0.541437514,-0.284919947,0.593747,0.541865578,-0.271218444,0.591417
0.505464171,-0.401417905,0.624502,0.492561659,-0.354642911,0.618239,0.485166574,-0.39307688,0.624302,0.452988638,-0.377191247,0.625752,0.423103019,-0.364963928,0.622253,0.405727939,-0.354976274,0.618679,0.45724258,-0.314008021,0.613977,0.429324363,-0.282644581,0.603739,0.415227722,-0.26695784,0.59862,0.402315782,-0.25257425,0.593966,0.479616871,-0.310275721,0.612354,0.464273173,-0.269188759,0.606341,0.454270075,-0.246759134,0.602834,0.447047536,-0.230518888,0.600328,0.497748171,-0.312853877,0.611559,0.482508472,-0.272614944,0.60395,0.47435722,-0.253057348,0.600057,0.467478134,-0.235633763,0.596518,0.523582479,-0.319184818,0.611606,0.522065068,-0.283963785,0.602794,0.521664766,-0.268030272,0.599106,0.521857318,-0.254272743,0.596483
0.503593035,-0.39680505,0.621777,0.502179435,-0.344119073,0.618182,0.482767097,-0.38357554,0.62102,0.44887905,-0.349086804,0.612802,0.423103261,-0.32815811,0.607777,0.410502562,-0.310603909,0.604709,0.480349652,-0.299492112,0.614927,0.465233142,-0.26183779,0.605864,0.45766677,-0.242952319,0.601333,0.450760433,-0.225668205,0.597214,0.504260288,-0.302890743,0.614805,0.505348925,-0.263751344,0.614783,0.506241837,-0.240713508,0.61477,0.506889807,-0.224004633,0.614761,0.523844454,-0.309476389,0.615016,0.520468524,-0.268734831,0.608524,0.519159667,-0.249033432,0.605203,0.518084191,-0.231800123,0.602184,0.54674221,-0.324173321,0.615828,0.553917632,-0.290598979,0.609566,0.563702919,-0.280045602,0.611179,0.570901915,-0.269062961,0.612602
0.524635227,-0.38002603,0.621765,0.525406759,-0.32758755,0.61211,0.505962123,-0.362421466,0.617946,0.47279226,-0.322392737,0.602814,0.449298358,-0.294250145,0.592181,0.439689934,-0.27333811,0.585152,0.503241422,-0.277053797,0.601111,0.489661539,-0.236524462,0.586459,0.483589877,-0.217621146,0.579132,0.478419672,-0.201157984,0.572472,0.527901193,-0.284372933,0.603028,0.536409313,-0.244776016,0.601035,0.54139693,-0.221583728,0.599872,0.54497151,-0.204975199,0.599042,0.548024146,-0.294333559,0.605438,0.548049449,-0.252419942,0.590699,0.548808558,-0.236132134,0.583158,0.549668972,-0.22103905,0.576303,0.571485424,-0.313300366,0.60979,0.585361944,-0.284368977,0.603213,0.592275737,-0.271367215,0.600763,0.598378091,-0.259893904,0.598602
0.519225638,-0.377311407,0.617285,0.52525979,-0.330346874,0.610993,0.503861656,-0.36134628,0.616947,0.475890534,-0.325624077,0.606679,0.452612746,-0.296834272,0.595619,0.443085463,-0.275746126,0.588322,0.514082293,-0.285493672,0.606535,0.504938905,-0.245033393,0.59619,0.499573583,-0.228676069,0.591017,0.492360998,-0.209807932,0.586315,0.535376736,-0.293265724,0.605074,0.534794636,-0.24934334,0.59271,0.533041803,-0.226493572,0.585497,0.53120565,-0.211605821,0.580345,0.552235924,-0.303422669,0.604414,0.559302127,-0.264305024,0.597572,0.562698321,-0.244483859,0.594071,0.565821702,-0.226368509,0.590889,0.57175918,-0.32144053,0.604621,0.578880081,-0.29234135,0.595827,0.584711445,-0.276199393,0.593135,0.589181092,-0.264100531,0.590761
0.520224744,-0.378690454,0.617747,0.523681984,-0.334656726,0.611234,0.504844766,-0.364024317,0.618445,0.473918403,-0.339074047,0.609436,0.448150072,-0.312474314,0.599948,0.437206512,-0.292028566,0.592759,0.498407573,-0.291911897,0.60794,0.484588576,-0.252032704,0.597637,0.478226835,-0.241022468,0.592486,0.472371195,-0.230721855,0.587803,0.519944826,-0.293242346,0.605107,0.51904094,-0.252457142,0.600163,0.517169847,-0.232259539,0.597279,0.515701971,-0.218280758,0.595219,0.537901805,-0.298164968,0.603336,0.533645763,-0.257653563,0.591074,0.530998371,-0.238217164,0.5848,0.528640737,-0.220279863,0.579097,0.559578798,-0.31104181,0.60227,0.567679691,-0.278987885,0.596419,0.571713077,-0.264441453,0.594069,0.575346684,-0.251643121,0.592074
0.50541057,-0.398120809,0.624423,0.507078712,-0.356418156,0.61733,0.48522661,-0.384973334,0.622277,0.458159155,-0.356624584,0.609643,0.430666681,-0.33060986,0.598603,0.419011736,-0.311718114,0.594675,0.480972779,-0.307538129,0.610082,0.461536569,-0.267235191,0.598004,0.456819138,-0.260878288,0.591965,0.452528583,-0.254968994,0.586475,0.505506441,-0.310383132,0.610658,0.497743313,-0.267866399,0.602519,0.495427766,-0.249980148,0.59777,0.493819272,-0.23676791,0.594379,0.525954918,-0.316667257,0.611744,0.509138318,-0.273399497,0.599026,0.503712946,-0.258496109,0.59252,0.498782405,-0.244619208,0.586604,0.550557639,-0.331285841,0.614133,0.544973879,-0.296823056,0.603088,0.544057389,-0.28484145,0.598014,0.542349891,-0.271153676,0.593536
0.501403176,-0.39774256,0.622759,0.487995063,-0.351023708,0.614348,0.479842864,-0.384437267,0.621122,0.43753592,-0.357483193,0.608844,0.410303151,-0.333382533,0.600217,0.399450267,-0.31647057,0.598906,0.460707293,-0.306402088,0.606896,0.439974153,-0.270498134,0.594338,0.429895573,-0.255213143,0.588059,0.420624659,-0.241068901,0.582351,0.484090618,-0.308462218,0.606435,0.475880417,-0.264851186,0.597282,0.469465861,-0.245613164,0.591943,0.464831926,-0.231467094,0.588129,0.503876632,-0.314167362,0.606781,0.493871506,-0.270018942,0.593034,0.487147388,-0.256451525,0.586001,0.481008722,-0.243811557,0.579607,0.528164222,-0.328325915,0.608506,0.525822616,-0.291995446,0.597357,0.524711499,-0.27544685,0.592234,0.525869144,-0.26199665,0.590134
0.492165167,-0.40365867,0.621184,0.479427072,-0.362997216,0.616654,0.468498097,-0.39272254,0.621861,0.43331337,-0.373650702,0.613513,0.405505971,-0.352828722,0.605557,0.391542474,-0.335320961,0.601336,0.452238883,-0.32234546,0.614604,0.43070003,-0.285778461,0.606025,0.418599301,-0.269949761,0.601736,0.407333967,-0.256276322,0.597837,0.474325103,-0.321112109,0.612392,0.460932014,-0.277900333,0.601747,0.452415354,-0.254569699,0.595538,0.446291247,-0.237683106,0.591103,0.493114182,-0.323927075,0.610962,0.482709623,-0.281747377,0.600623,0.476878818,-0.261414248,0.595333,0.470879802,-0.247029278,0.590525,0.516324388,-0.334277151,0.609986,0.516092209,-0.299033835,0.601695,0.515221362,-0.284454097,0.597885,0.514477053,-0.271465903,0.594524
0.486631721,-0.40728819,0.622752,0.479024958,-0.365801457,0.618782,0.466865499,-0.401985599,0.625223,0.43546136,-0.378565904,0.618975,0.406656778,-0.356865456,0.610048,0.396274178,-0.342831821,0.609077,0.450680647,-0.328769512,0.619351,0.430630954,-0.292683536,0.612385,0.420281428,-0.282263697,0.608902,0.410624145,-0.272515788,0.605735,0.471049189,-0.32568701,0.615047,0.456807116,-0.282778471,0.605274,0.447288843,-0.260757784,0.599573,0.440413853,-0.244742979,0.595502,0.488423126,-0.326943999,0.611846,0.481248347,-0.283444694,0.601669,0.472623013,-0.266538187,0.596462,0.469194568,-0.249303309,0.591728,0.512627275,-0.334469391,0.608696,0.508587646,-0.300253834,0.600372,0.507315271,-0.285077468,0.596547,0.509759454,-0.271223368,0.593173
0.488285265,-0.409782245,0.624653,0.480053821,-0.366744382,0.619394,0.469548096,-0.404170849,0.627612,0.438006471,-0.381258899,0.621771,0.408154224,-0.361225383,0.612947,0.395881732,-0.343450864,0.608444,0.453922189,-0.327843585,0.619751,0.43284964,-0.291809369,0.612388,0.42070751,-0.281871815,0.608706,0.410580404,-0.271614073,0.605359,0.473514843,-0.324431995,0.614446,0.459076695,-0.281440261,0.603694,0.447341813,-0.261473086,0.597422,0.440063309,-0.245974513,0.592942,0.490247992,-0.325465016,0.61053,0.476915877,-0.284838169,0.599901,0.469806456,-0.265737453,0.594463,0.462809902,-0.250326553,0.589519,0.511139901,-0.333694265,0.606737,0.505892785,-0.300691329,0.597276,0.503247514,-0.287963127,0.59293,0.501764217,-0.2724513,0.589094
0.486875344,-0.409495383,0.623072,0.480994554,-0.367075085,0.619469,0.469303107,-0.40013638,0.625409,0.439623807,-0.376882084,0.619065,0.415656549,-0.351889613,0.60991,0.403783257,-0.33267274,0.604795,0.458465991,-0.326470484,0.620103,0.448212163,-0.293882558,0.617973,0.441931985,-0.287269877,0.616909,0.435980105,-0.280989596,0.615941,0.479209549,-0.324793532,0.616078,0.472811656,-0.28421977,0.609294,0.465644704,-0.266467428,0.605336,0.460417432,-0.253364758,0.60251,0.498433762,-0.329318452,0.613074,0.486948031,-0.290257096,0.604248,0.480919286,-0.270517242,0.599733,0.473213027,-0.252216547,0.595628,0.519229982,-0.339484101,0.610096,0.516036616,-0.306136025,0.60195,0.514586635,-0.29067948,0.598207,0.510249389,-0.275155627,0.594904
0.482215747,-0.406866927,0.617496,0.478686512,-0.366203478,0.616299,0.464215659,-0.400186985,0.620326,0.437481726,-0.373268479,0.615104,0.414088952,-0.344498416,0.60619,0.404442395,-0.326417695,0.604943,0.462316143,-0.334592075,0.619094,0.45285793,-0.298349774,0.613338,0.448085213,-0.279944272,0.610461,0.443718511,-0.263039676,0.607844,0.482864231,-0.332849178,0.615172,0.477465968,-0.291077237,0.607877,0.473524018,-0.267621141,0.603622,0.469318629,-0.254541663,0.600583,0.499795899,-0.334732349,0.612046,0.497595787,-0.293881174,0.60484,0.495100353,-0.274475366,0.601153,0.492839931,-0.256589597,0.597802,0.518951594,-0.340860702,0.60855,0.525647084,-0.310999665,0.602231,0.525849428,-0.297858758,0.599327,0.525094942,-0.287112057,0.596766
0.488013615,-0.407149781,0.620185,0.489735394,-0.362982961,0.616512,0.466641612,-0.398107124,0.620973,0.442116069,-0.367112984,0.61264,0.414104344,-0.341314472,0.602791,0.404068367,-0.322069249,0.602055,0.465709384,-0.322968382,0.615151,0.452459689,-0.287563279,0.606802,0.445999816,-0.27051634,0.602627,0.43858512,-0.256969779,0.598832,0.48790658,-0.322948466,0.613055,0.483357472,-0.279252754,0.602883,0.479333129,-0.259341474,0.596948,0.475975509,-0.248002749,0.59271,0.506413905,-0.326507078,0.611646,0.502800734,-0.290645674,0.601774,0.501025754,-0.271802788,0.596723,0.49945859,-0.254359962,0.592131,0.528854618,-0.337314131,0.610557,0.53252314,-0.305051341,0.602928,0.534255174,-0.29009868,0.599422,0.53957794,-0.274126927,0.596329
0.486741003,-0.409263914,0.622094,0.489724073,-0.359791591,0.617858,0.466010379,-0.396704666,0.619991,0.439524493,-0.357922454,0.608014,0.420818094,-0.331087712,0.59832,0.416553728,-0.312017072,0.595742,0.465568509,-0.315395418,0.612497,0.461244838,-0.27878143,0.609039,0.45947081,-0.268826108,0.607309,0.457839325,-0.259394453,0.605737,0.489435397,-0.321583079,0.613871,0.489843175,-0.276790677,0.603109,0.489350655,-0.253797918,0.596831,0.490590266,-0.236544165,0.592347,0.510072825,-0.327832897,0.615366,0.505684954,-0.291662309,0.604861,0.503508143,-0.272671557,0.599486,0.50157294,-0.255100774,0.5946,0.534812928,-0.342077184,0.617789,0.546540188,-0.312550336,0.611617,0.552028444,-0.298694545,0.608781,0.556929012,-0.286588363,0.606279
0.48789244,-0.41007111,0.624282,0.487433682,-0.360723948,0.617768,0.467084797,-0.39689667,0.621736,0.443897153,-0.3603779,0.613021,0.421758129,-0.32999777,0.598365,0.415969368,-0.310894043,0.595404,0.465884726,-0.313633301,0.610392,0.460859468,-0.269553589,0.598514,0.456955566,-0.261466354,0.592576,0.453428846,-0.253928406,0.587177,0.48913124,-0.319983956,0.611639,0.488710423,-0.275390753,0.598815,0.490732989,-0.255028607,0.591334,0.490501687,-0.240995355,0.585991,0.509439364,-0.327119938,0.613224,0.515120008,-0.287655597,0.601196,0.516971122,-0.27077961,0.595043,0.518800816,-0.255147527,0.589448,0.53363921,-0.342546151,0.616109,0.547801035,-0.316354216,0.608699,0.554088872,-0.305660722,0.605294,0.557269707,-0.301474862,0.60229
0.486149435,-0.408690015,0.622585,0.488855407,-0.361675914,0.616782,0.468311866,-0.396087345,0.622976,0.446011243,-0.360712866,0.613727,0.422841788,-0.331186836,0.599706,0.414461319,-0.310816583,0.594809,0.478316572,-0.315795343,0.613554,0.465587094,-0.276037922,0.603898,0.461064939,-0.263202919,0.59907,0.454296702,-0.24666848,0.594681,0.498624634,-0.322257208,0.611314,0.493532506,-0.277582827,0.599524,0.491469583,-0.256077886,0.592646,0.488358448,-0.239163239,0.587734,0.514847249,-0.331349601,0.609968,0.514349367,-0.288107241,0.598505,0.514262859,-0.270862755,0.59264,0.514062212,-0.25528051,0.587309,0.532937084,-0.348997829,0.609286,0.538852666,-0.315505023,0.599757,0.54078648,-0.300793356,0.595378,0.541628716,-0.288806367,0.591515
0.488572797,-0.411330757,0.626337,0.491419392,-0.364232195,0.619802,0.471335477,-0.399588852,0.627445,0.448039565,-0.369300786,0.618964,0.419188624,-0.340694697,0.603492,0.408834453,-0.321509775,0.599828,0.476370859,-0.321283765,0.617,0.463638455,-0.281880834,0.607538,0.455944449,-0.267059456,0.602807,0.450501997,-0.255014595,0.598505,0.498564403,-0.32472231,0.613639,0.490822982,-0.282982658,0.601403,0.486102021,-0.260533534,0.594266,0.485807085,-0.243073276,0.589168,0.514502253,-0.332872035,0.611433,0.512061361,-0.289138147,0.599329,0.511169891,-0.272143333,0.593136,0.508779607,-0.255251163,0.587506,0.532456911,-0.349414248,0.609854,0.536479244,-0.316143043,0.599739,0.537857075,-0.301323031,0.595091,0.538627593,-0.288750779,0.59099
0.490034879,-0.413568352,0.628673,0.48975182,-0.366169958,0.620947,0.472359075,-0.400049827,0.62874,0.444289597,-0.372283553,0.618715,0.414285896,-0.34435037,0.604091,0.40391694,-0.325913279,0.600813,0.467927927,-0.320468363,0.61607,0.452068804,-0.28471719,0.605153,0.44379089,-0.268486207,0.599695,0.436188858,-0.253483896,0.594732,0.490618134,-0.321827522,0.613661,0.48216806,-0.280938912,0.600188,0.475976638,-0.258159355,0.592328,0.471357863,-0.243575213,0.586715,0.508464263,-0.327732537,0.612341,0.5052222,-0.287759996,0.599258,0.498616435,-0.271491002,0.592564,0.494696571,-0.254218069,0.586479,0.529572419,-0.344655776,0.611992,0.530495648,-0.313534168,0.601186,0.53145288,-0.298375721,0.59622,0.534162852,-0.287787573,0.59184
0.488396394,-0.411962237,0.626298,0.488211708,-0.366448139,0.619868,0.471860465,-0.400079696,0.627921,0.443424821,-0.374861487,0.620121,0.41509644,-0.347231406,0.606536,0.404931659,-0.327284487,0.602513,0.463365226,-0.325199714,0.61778,0.452205083,-0.284419853,0.608052,0.444342069,-0.272464774,0.603188,0.436799014,-0.258975254,0.598767,0.484076687,-0.324610007,0.613801,0.481143286,-0.280259431,0.601063,0.475846763,-0.25896935,0.593632,0.471778158,-0.245113728,0.588324,0.501992777,-0.329665833,0.611078,0.497721541,-0.288919252,0.59867,0.496412419,-0.269604186,0.592322,0.493914943,-0.254144597,0.58655,0.521615324,-0.341997338,0.608872,0.525065087,-0.310192178,0.598787,0.525018748,-0.296466955,0.594153,0.524397585,-0.284988432,0.590065
0.487517005,-0.411535372,0.624778,0.487099851,-0.368908362,0.619313,0.471133635,-0.399516525,0.626437,0.443697136,-0.376484498,0.61886,0.417995963,-0.348150021,0.606788,0.40839485,-0.326666738,0.603178,0.463808066,-0.332625386,0.617891,0.452189932,-0.29262982,0.609106,0.443965776,-0.276379288,0.604714,0.437612385,-0.262708078,0.600721,0.484476878,-0.329353499,0.614158,0.476120398,-0.288338957,0.602958,0.472110347,-0.263949893,0.596424,0.467520339,-0.250176134,0.591758,0.503127057,-0.332023158,0.611555,0.497341973,-0.290462296,0.60086,0.491459302,-0.274103541,0.595388,0.487237193,-0.262813488,0.590413,0.524635077,-0.343111146,0.609339,0.52636109,-0.311232581,0.599941,0.526488808,-0.29772129,0.595623,0.526005467,-0.286464362,0.591813
0.48724258,-0.411501029,0.623857,0.487538982,-0.369325615,0.618628,0.470959262,-0.399503596,0.625596,0.444878282,-0.376679355,0.618175,0.418512146,-0.348407091,0.606472,0.408692461,-0.327095332,0.602994,0.464281674,-0.331954303,0.61746,0.452163165,-0.292599398,0.608904,0.444156468,-0.276758522,0.604626,0.437682522,-0.263350596,0.600737,0.484694369,-0.329360984,0.613697,0.476774551,-0.288095324,0.602717,0.472112886,-0.264382644,0.596313,0.467496543,-0.250471906,0.591738,0.502908793,-0.332025492,0.611047,0.497397842,-0.290460852,0.600601,0.49172311,-0.27480394,0.595256,0.487223989,-0.262806366,0.590397,0.524228111,-0.342927824,0.608737,0.526147658,-0.311271475,0.599503,0.526270928,-0.297853271,0.59526,0.52577424,-0.286700948,0.591516
0.49028987,-0.41578281,0.630781,0.488736369,-0.372841864,0.622539,0.47352148,-0.402017541,0.631107,0.443240688,-0.373674253,0.621321,0.416875984,-0.344991146,0.60596,0.408413901,-0.326202509,0.601296,0.467468096,-0.323731164,0.617654,0.451726794,-0.290109711,0.606641,0.443299087,-0.272502851,0.601135,0.435558443,-0.259065154,0.596129,0.487614113,-0.330620422,0.614761,0.478532421,-0.287275865,0.600917,0.476175063,-0.264855457,0.592841,0.471161832,-0.245507384,0.587072,0.505000191,-0.335937381,0.613086,0.497311893,-0.297685545,0.600418,0.491689011,-0.276741499,0.593936,0.4859924,-0.261872099,0.588044,0.522356725,-0.356802449,0.612396,0.52358661,-0.322856929,0.600883,0.523325115,-0.308243332,0.595593,0.524485641,-0.290599943,0.590925
0.488494187,-0.41493333,0.628557,0.488418321,-0.370702423,0.620797,0.471967875,-0.401493655,0.629238,0.445519683,-0.376059104,0.619991,0.41980447,-0.346095629,0.605968,0.410060903,-0.325951906,0.60069,0.46539191,-0.327485166,0.61667,0.451471855,-0.290817727,0.605605,0.445848133,-0.272350166,0.600072,0.439851177,-0.255370676,0.595042,0.486097098,-0.328829546,0.613475,0.479211065,-0.285468221,0.600117,0.472234009,-0.263357059,0.592325,0.468154096,-0.247372985,0.586759,0.504002443,-0.333288437,0.61151,0.497671878,-0.290859564,0.598771,0.49275747,-0.273473588,0.592253,0.489074402,-0.257921757,0.586328,0.525600585,-0.344881967,0.610404,0.526591626,-0.312071889,0.599339,0.526349936,-0.298051201,0.594255,0.524745814,-0.288111973,0.589769
0.486442964,-0.414375607,0.626773,0.487893606,-0.368307295,0.619382,0.469547511,-0.400418098,0.62679,0.442408743,-0.37069474,0.616769,0.416299412,-0.336365657,0.601274,0.410124952,-0.32143454,0.599069,0.4654273,-0.321887667,0.614657,0.451223961,-0.285104254,0.603877,0.443017769,-0.26811376,0.598488,0.436564277,-0.254502789,0.593588,0.486177485,-0.327138445,0.612408,0.479629705,-0.283007581,0.599202,0.474066612,-0.261170366,0.591499,0.467923933,-0.246766263,0.585997,0.504199877,-0.332052179,0.61119,0.497696087,-0.290018122,0.598817,0.493895178,-0.273290341,0.592487,0.488842339,-0.258842728,0.586733,0.526065096,-0.345474668,0.610906,0.527184504,-0.312699307,0.600017,0.527003015,-0.298700169,0.595013,0.524528836,-0.28953687,0.590598
0.485494272,-0.41460288,0.62585,0.487038005,-0.368562308,0.61875,0.468525648,-0.400577417,0.625824,0.441653502,-0.369322272,0.615802,0.415928998,-0.336066366,0.600739,0.409460501,-0.320332543,0.598637,0.465213112,-0.321572481,0.614158,0.450908638,-0.28495667,0.603568,0.442891657,-0.267639919,0.598273,0.436376924,-0.253677216,0.593459,0.486092965,-0.326698459,0.612051,0.479581613,-0.282784875,0.59908,0.474114947,-0.261060251,0.591514,0.468297112,-0.246599056,0.586109,0.504157104,-0.331886289,0.610925,0.497901703,-0.289995936,0.598784,0.494101649,-0.273217051,0.592572,0.489262291,-0.258656777,0.586925,0.525914169,-0.345581072,0.610704,0.527165732,-0.312885304,0.599998,0.527048401,-0.29892525,0.595079,0.524663845,-0.28991571,0.590739
0.485728932,-0.415725271,0.627128,0.484955739,-0.36852239,0.61954,0.468647644,-0.401903567,0.627219,0.442150101,-0.370967209,0.617253,0.416936164,-0.344467318,0.601007,0.407799302,-0.323282886,0.598617,0.465431996,-0.321553818,0.614781,0.450779766,-0.283635286,0.60389,0.442691416,-0.266254515,0.598444,0.43527381,-0.250949502,0.593494,0.486252666,-0.326613536,0.612381,0.479421808,-0.281613923,0.599027,0.472631583,-0.261521635,0.591237,0.4681312,-0.24646481,0.585673,0.504067805,-0.33199008,0.611055,0.497703157,-0.289951505,0.598497,0.492690853,-0.27368473,0.592072,0.488933334,-0.258300002,0.586231,0.52572206,-0.346420127,0.610675,0.527127237,-0.313529004,0.599711,0.52680874,-0.299046675,0.594674,0.525193336,-0.289472103,0.590229
0.485281059,-0.416064128,0.626418,0.485978552,-0.369756919,0.619521,0.468439832,-0.402909567,0.62714,0.443908075,-0.375424662,0.618103,0.417356401,-0.346037694,0.604196,0.407432055,-0.326064336,0.599217,0.464034018,-0.32812199,0.615999,0.451532946,-0.289536513,0.605733,0.443728654,-0.271686851,0.6006,0.436539723,-0.256982721,0.595933,0.486121057,-0.327524812,0.613014,0.479133342,-0.284308807,0.600381,0.471102981,-0.264753684,0.593011,0.465778345,-0.25089984,0.587748,0.503742706,-0.332790342,0.611148,0.498398264,-0.290243734,0.599132,0.493302105,-0.275121919,0.592984,0.487150661,-0.265569923,0.587396,0.524720052,-0.345554971,0.610024,0.526413378,-0.31294389,0.599576,0.525714609,-0.299044542,0.594776,0.524531978,-0.289863472,0.590541
