sluyters/QuantumLeap/backend/src/datasets/gesture/HandGestureDataset_SHREC2017_csv/Gesture14/finger_2/subject_16_essai_1_skeletons_world.csv
Wrist_x,Wrist_y,Wrist_z,Palm_x,Palm_y,Palm_z,thumb_base_x,thumb_base_y,thumb_base_z,thumb_first_joint_x,thumb_first_joint_y,thumb_first_joint_z,thumb_second_joint_x,thumb_second_joint_y,thumb_second_joint_z,thumb_tip_x,thumb_tip_y,thumb_tip_z,index_base_x,index_base_y,index_base_z,index_first_joint_x,index_first_joint_y,index_first_joint_z,index_second_joint_x,index_second_joint_y,index_second_joint_z,index_tip_x,index_tip_y,index_tip_z,middle_base_x,middle_base_y,middle_base_z,middle_first_joint_x,middle_first_joint_y,middle_first_joint_z,middle_second_joint_x,middle_second_joint_y,middle_second_joint_z,middle_tip_x,middle_tip_y,middle_tip_z,ring_base_x,ring_base_y,ring_base_z,ring_first_joint_x,ring_first_joint_y,ring_first_joint_z,ring_second_joint_x,ring_second_joint_y,ring_second_joint_z,ring_tip_x,ring_tip_y,ring_tip_z,pinky_base_x,pinky_base_y,pinky_base_z,pinky_first_joint_x,pinky_first_joint_y,pinky_first_joint_z,pinky_second_joint_x,pinky_second_joint_y,pinky_second_joint_z,pinky_tip_x,pinky_tip_y,pinky_tip_z,
0.51522698,-0.3940316,0.576072,0.50419938,-0.35130632,0.568064,0.49804671,-0.38161418,0.579408,0.46978027,-0.34958694,0.57179,0.44998113,-0.31665138,0.557284,0.4519707,-0.29953057,0.560697,0.48955195,-0.30288959,0.566971,0.46785517,-0.26108515,0.555323,0.4567624,-0.24028773,0.549499,0.44614068,-0.22234263,0.544205,0.50699044,-0.30521008,0.560437,0.49701541,-0.24715491,0.544281,0.48318385,-0.22111085,0.534856,0.47877136,-0.20333302,0.528125,0.52153119,-0.31128134,0.55592,0.51462536,-0.25211786,0.547859,0.50775733,-0.22465027,0.543735,0.50142964,-0.19896108,0.539986,0.53899541,-0.3261836,0.552182,0.53826473,-0.26867254,0.53919,0.53261082,-0.24843634,0.53322,0.52763297,-0.2300047,0.527953
0.51237184,-0.38999892,0.571815,0.5074074,-0.34732646,0.566481,0.49856474,-0.3778058,0.575939,0.47510574,-0.35364963,0.57801,0.44952812,-0.32022138,0.56309,0.44250353,-0.30400763,0.564658,0.485216,-0.30146359,0.56823,0.46322974,-0.25836882,0.558783,0.45224041,-0.23683271,0.554059,0.44225303,-0.21726152,0.549765,0.50401554,-0.30080875,0.561401,0.49444878,-0.24553225,0.551089,0.48674402,-0.21563021,0.545075,0.47994283,-0.19846684,0.540778,0.51977858,-0.30425431,0.556352,0.50662089,-0.24611697,0.549728,0.49942345,-0.21679313,0.546339,0.4912203,-0.19648265,0.543258,0.53893119,-0.31561691,0.551494,0.5389064,-0.25933563,0.540342,0.53480883,-0.24732422,0.535218,0.5333259,-0.23388543,0.530697
0.50897052,-0.38907853,0.569659,0.5044052,-0.34842883,0.568424,0.49220599,-0.37684692,0.57218,0.47379756,-0.35384776,0.578466,0.44679073,-0.32185005,0.565774,0.44386608,-0.3052982,0.569931,0.479104,-0.30404317,0.570869,0.47048421,-0.26424878,0.573078,0.4661534,-0.24426829,0.574183,0.46220349,-0.2260558,0.575187,0.50119173,-0.30351753,0.567248,0.50223093,-0.25633504,0.572309,0.50283533,-0.2287893,0.575261,0.50318185,-0.20857525,0.57737,0.51943335,-0.30691242,0.564399,0.52722774,-0.26372752,0.573768,0.53121478,-0.24161156,0.578561,0.53483983,-0.2214944,0.582919,0.54478892,-0.31956803,0.561325,0.54368369,-0.26964708,0.556781,0.54487355,-0.24741754,0.554693,0.54592771,-0.2277778,0.552851
0.51043453,-0.39123448,0.572359,0.50663587,-0.34701185,0.570311,0.49157523,-0.37584722,0.571091,0.46725991,-0.34817434,0.571584,0.44434282,-0.31210256,0.560658,0.44184394,-0.29977997,0.567828,0.4803905,-0.30092751,0.567267,0.46371803,-0.25690713,0.557275,0.45778303,-0.23409199,0.552279,0.45077254,-0.21388541,0.547736,0.50639528,-0.30351825,0.568359,0.50958139,-0.2576659,0.575321,0.5116258,-0.23080992,0.579382,0.51510915,-0.21770793,0.582283,0.52639866,-0.30859791,0.56948,0.52593421,-0.25780241,0.563579,0.52609098,-0.23448849,0.56056,0.52633489,-0.2247688,0.557815,0.55292606,-0.32232345,0.571165,0.56766815,-0.2830593,0.578566,0.57330577,-0.26609011,0.581966,0.58026655,-0.25040518,0.584967
0.47556828,-0.39423212,0.579919,0.50198721,-0.36077249,0.579825,0.49260797,-0.3892778,0.591058,0.48838817,-0.35736685,0.604204,0.4847389,-0.32698721,0.603467,0.47911613,-0.30801892,0.593939,0.52706081,-0.32535002,0.594271,0.53011047,-0.28430119,0.595226,0.53164197,-0.26364218,0.595703,0.52119273,-0.25317356,0.596137,0.52867576,-0.32698162,0.579736,0.53653879,-0.27666671,0.575211,0.53777157,-0.2467897,0.572572,0.53870055,-0.22507431,0.570687,0.52781019,-0.33143274,0.567777,0.54706425,-0.28795339,0.567929,0.5444143,-0.26448809,0.568007,0.52965816,-0.25927753,0.568077,0.52283961,-0.34250332,0.553914,0.55791556,-0.3130734,0.562977,0.57385903,-0.29978114,0.567142,0.57653611,-0.28387023,0.570816
0.49163905,-0.38840652,0.571047,0.52111665,-0.3563887,0.579848,0.49583138,-0.38200864,0.582413,0.49169678,-0.34494873,0.593521,0.48988313,-0.31811895,0.597976,0.49353221,-0.29826063,0.598931,0.5537651,-0.32896191,0.600628,0.55010816,-0.3027188,0.609485,0.5467044,-0.28985926,0.613913,0.54108428,-0.28152249,0.617939,0.55873335,-0.33222898,0.588229,0.54069723,-0.31075208,0.593072,0.54534814,-0.35069897,0.617354,0.56073252,-0.3757523,0.630311,0.55949981,-0.33708425,0.577071,0.57734676,-0.29322301,0.584711,0.57761528,-0.2734193,0.588619,0.56773599,-0.27531786,0.592173,0.55438804,-0.34689006,0.562465,0.57187047,-0.30463861,0.566871,0.57993052,-0.28513403,0.568896,0.57675296,-0.27260982,0.570683
0.52099235,-0.4021565,0.588184,0.54088536,-0.36651033,0.591798,0.50362466,-0.38561425,0.589248,0.51023204,-0.35337647,0.591742,0.49786962,-0.32085048,0.586558,0.50249609,-0.30174361,0.588403,0.54649882,-0.31961054,0.595637,0.5548282,-0.28107147,0.591794,0.55927095,-0.26743343,0.589872,0.56326608,-0.25753794,0.588125,0.56616236,-0.33444226,0.595239,0.58821628,-0.28679196,0.591047,0.60085375,-0.25962811,0.588601,0.62595067,-0.25823714,0.604506,0.58139968,-0.3464524,0.594523,0.60500319,-0.32914938,0.590768,0.58654919,-0.34493218,0.588847,0.58460414,-0.36754356,0.605227,0.59418986,-0.36803042,0.593011,0.60090181,-0.33402088,0.588041,0.60437858,-0.31735395,0.585757,0.60605766,-0.32171193,0.583742
0.52683273,-0.40685447,0.598941,0.5481238,-0.36803439,0.59754,0.51133582,-0.38587437,0.595706,0.51527843,-0.34409431,0.595508,0.50875329,-0.30910056,0.584294,0.51296547,-0.28840472,0.578936,0.54882258,-0.31579303,0.592375,0.55325181,-0.2806716,0.581313,0.55530974,-0.26456019,0.575782,0.55668449,-0.25217929,0.570754,0.57249214,-0.33186149,0.596206,0.5882644,-0.28411413,0.585776,0.59715187,-0.25676888,0.579691,0.61564426,-0.25033357,0.589284,0.58837207,-0.34886429,0.599511,0.61906631,-0.31196391,0.589677,0.61265011,-0.31042259,0.584645,0.60977767,-0.33257577,0.599033,0.60666943,-0.37425028,0.603611,0.62718754,-0.33108242,0.59472,0.6363443,-0.31316147,0.590635,0.64031384,-0.30487244,0.587031
0.54959919,-0.38769136,0.608645,0.57620638,-0.35838079,0.606624,0.54314614,-0.36735104,0.609833,0.54544479,-0.33131074,0.608878,0.54599347,-0.29955898,0.605504,0.55559237,-0.28216842,0.607301,0.58570668,-0.31510683,0.606798,0.59710528,-0.27621339,0.598478,0.60304525,-0.2563384,0.594318,0.60819418,-0.24029078,0.590536,0.60169038,-0.33032237,0.604698,0.62418059,-0.28649183,0.594481,0.63724988,-0.26098243,0.588521,0.64398414,-0.25122701,0.586994,0.61288199,-0.34546484,0.603187,0.63825279,-0.31527305,0.594706,0.62153114,-0.31425131,0.590368,0.61725144,-0.33591454,0.605298,0.62247665,-0.36827556,0.601813,0.64634763,-0.3296821,0.593071,0.65504832,-0.31513495,0.589054,0.65652181,-0.30888378,0.58551
0.55935769,-0.40409573,0.605055,0.57578036,-0.3626163,0.595781,0.54774548,-0.38277415,0.604026,0.54618983,-0.34504135,0.599649,0.54260303,-0.3122919,0.595641,0.55134113,-0.29464192,0.599124,0.57216593,-0.30931312,0.588144,0.60564354,-0.27996802,0.600347,0.62258815,-0.26495384,0.606448,0.6381105,-0.25111024,0.611995,0.59195519,-0.32235875,0.586949,0.63357618,-0.29098032,0.601241,0.66087171,-0.27239467,0.609578,0.68175902,-0.2594001,0.615534,0.60734291,-0.33691461,0.586964,0.59466115,-0.3235266,0.571204,0.56633732,-0.33505843,0.56314,0.56015977,-0.35199045,0.575487,0.62366297,-0.36114732,0.588725,0.64592709,-0.319743,0.582586,0.6564313,-0.30071681,0.579765,0.66444845,-0.2867592,0.577277
0.54436348,-0.39427441,0.589665,0.57028741,-0.36027469,0.590916,0.53658364,-0.3760046,0.592545,0.54527153,-0.34527028,0.599013,0.53733905,-0.30987143,0.589884,0.5485312,-0.29371342,0.595935,0.57848783,-0.31421997,0.595517,0.59464542,-0.27622554,0.593561,0.60227816,-0.25601546,0.592583,0.61030295,-0.23952816,0.591694,0.59624819,-0.32610691,0.592108,0.6288496,-0.28858477,0.595966,0.64698586,-0.26470986,0.598216,0.659703,-0.24675414,0.599823,0.60869983,-0.33898465,0.589166,0.6243028,-0.29846731,0.583852,0.62965994,-0.28336526,0.581134,0.64280937,-0.29843455,0.596939,0.61938601,-0.35984518,0.585515,0.64189938,-0.31859603,0.580065,0.65233603,-0.2997004,0.577561,0.65912732,-0.28728622,0.575351
0.5308495,-0.38914702,0.586909,0.56263907,-0.35396113,0.589635,0.53208938,-0.36885545,0.592167,0.54156696,-0.33793466,0.602093,0.53896329,-0.30388296,0.594375,0.55270325,-0.29169962,0.599782,0.58035851,-0.31448268,0.598334,0.59408569,-0.27353369,0.596292,0.60059152,-0.25160225,0.595271,0.60731187,-0.23312783,0.594342,0.59513222,-0.3252863,0.592231,0.62203068,-0.28371298,0.591972,0.63829606,-0.25949021,0.591821,0.64474957,-0.24364934,0.591713,0.60477979,-0.33701173,0.586912,0.6201342,-0.29507948,0.584992,0.6273762,-0.27771356,0.584009,0.64355344,-0.28756685,0.600453,0.60745225,-0.35500259,0.580225,0.63919209,-0.31884697,0.578956,0.65040787,-0.30268104,0.578374,0.66078916,-0.28987306,0.577859
0.53174466,-0.39285447,0.590806,0.55888426,-0.35462851,0.589466,0.52750442,-0.37092482,0.592824,0.52529937,-0.3386397,0.596677,0.51532279,-0.30255523,0.58344,0.52064085,-0.28300295,0.580572,0.5619269,-0.30795775,0.591184,0.56691927,-0.26451633,0.583746,0.5694569,-0.24265974,0.580027,0.56769706,-0.23303924,0.576647,0.57972373,-0.32024885,0.588189,0.59626789,-0.27163836,0.578907,0.60581916,-0.24345198,0.573493,0.60760355,-0.22968219,0.569625,0.59247269,-0.33362345,0.585868,0.60520374,-0.2896497,0.578102,0.60727643,-0.27478407,0.574129,0.61830678,-0.29091372,0.589224,0.60392798,-0.35538511,0.583426,0.6272892,-0.31531373,0.579556,0.63796493,-0.29697331,0.577779,0.64522015,-0.28363931,0.57621
0.52690549,-0.40397223,0.601695,0.54334832,-0.36564883,0.592393,0.51197895,-0.38432924,0.59916,0.50918861,-0.34924898,0.594003,0.49787196,-0.31185546,0.580406,0.50518921,-0.29362457,0.583161,0.53684504,-0.31217984,0.582776,0.53260349,-0.26902324,0.56572,0.52942265,-0.24991626,0.557193,0.52638388,-0.24190948,0.54944,0.55629013,-0.32780003,0.583534,0.57775187,-0.28040881,0.579068,0.59000936,-0.25345905,0.576463,0.60088681,-0.23566803,0.574602,0.5750953,-0.34120146,0.585161,0.57443222,-0.28637089,0.568486,0.57517817,-0.26731194,0.559955,0.59018434,-0.28090763,0.572037,0.59308016,-0.3661861,0.588797,0.59802818,-0.31728557,0.572913,0.60033037,-0.29476429,0.565615,0.59964845,-0.28825932,0.559176
0.51447381,-0.40460016,0.597409,0.51513375,-0.36319621,0.588733,0.49369538,-0.38285891,0.594557,0.48700032,-0.35117351,0.587728,0.4715037,-0.31071065,0.568298,0.47478837,-0.29091889,0.568969,0.5020788,-0.3087029,0.579127,0.50385762,-0.26800936,0.562523,0.50489555,-0.24737247,0.554222,0.50065642,-0.24224867,0.546675,0.52542895,-0.32001911,0.580469,0.54591089,-0.27471799,0.582871,0.55807812,-0.24773595,0.584273,0.56686794,-0.22820684,0.585273,0.54416442,-0.3332902,0.58251,0.54495849,-0.28055571,0.566203,0.54656283,-0.25701456,0.55786,0.54995018,-0.23377173,0.553674,0.56530218,-0.3562766,0.58651,0.5754475,-0.31548833,0.571124,0.58049207,-0.29626584,0.564055,0.5764186,-0.29377977,0.557817
0.49618373,-0.38619729,0.562934,0.50726219,-0.35885634,0.566828,0.48530436,-0.3890169,0.568235,0.478603,-0.36370546,0.579244,0.45650729,-0.32900506,0.567735,0.45829933,-0.31179454,0.573025,0.49542781,-0.31945668,0.576378,0.48660247,-0.27743102,0.574915,0.4857853,-0.25839193,0.57845,0.48500117,-0.24085751,0.581664,0.51497975,-0.31878362,0.570537,0.51308925,-0.26849545,0.570255,0.51198333,-0.23905172,0.570091,0.51119101,-0.21797061,0.569973,0.53046501,-0.32171211,0.565308,0.54262562,-0.28091264,0.577453,0.54884558,-0.26010161,0.583666,0.55450032,-0.2412185,0.589315,0.54768017,-0.33164286,0.558507,0.5532008,-0.28399108,0.555506,0.55569779,-0.26230997,0.554127,0.55457096,-0.25022256,0.55291
0.49812929,-0.38874855,0.562321,0.50776143,-0.35812971,0.56636,0.48564388,-0.38797021,0.565521,0.47749862,-0.3636004,0.57667,0.45534863,-0.33069253,0.567057,0.4571717,-0.31462334,0.573956,0.49087876,-0.31847011,0.573271,0.48105277,-0.2763622,0.570579,0.47399428,-0.25650866,0.569232,0.46889981,-0.23838087,0.568008,0.51298985,-0.3180587,0.570207,0.50394041,-0.26608832,0.566999,0.49967093,-0.23633303,0.565128,0.49524194,-0.22387653,0.563792,0.530937,-0.32120781,0.567248,0.53849217,-0.27765244,0.574807,0.5405492,-0.25338121,0.578675,0.54319521,-0.23195896,0.58219,0.55158743,-0.33144105,0.563055,0.55413056,-0.28310132,0.563585,0.55552574,-0.26269478,0.563829,0.55548155,-0.24909031,0.564044
0.50131908,-0.394761,0.563328,0.50793579,-0.35870728,0.567269,0.48678461,-0.38880348,0.566498,0.47748251,-0.36693658,0.57693,0.44814054,-0.33667571,0.56413,0.44519511,-0.3205538,0.569184,0.48771913,-0.31980044,0.574073,0.46845166,-0.28008091,0.571913,0.45972493,-0.25995818,0.570832,0.45174747,-0.24155357,0.56985,0.51016405,-0.31817656,0.571022,0.50348572,-0.26772623,0.569738,0.49588666,-0.23883137,0.568988,0.4920076,-0.21931659,0.568453,0.5285687,-0.32035046,0.568084,0.52410746,-0.27419032,0.571049,0.52278558,-0.25079295,0.572566,0.52132167,-0.23550853,0.573945,0.5510555,-0.33122594,0.563934,0.55371155,-0.28378947,0.564382,0.55534706,-0.26322,0.564587,0.55601304,-0.24950313,0.564769
0.50102789,-0.39479426,0.562308,0.50742166,-0.35880958,0.567305,0.48646046,-0.38880157,0.566145,0.47871562,-0.36857044,0.578717,0.45216194,-0.33582459,0.566067,0.45014891,-0.31931208,0.570963,0.48796399,-0.32080151,0.575696,0.47123485,-0.28056269,0.574805,0.4688232,-0.2614444,0.579493,0.46618824,-0.24468102,0.583755,0.51000401,-0.3187764,0.572064,0.50055933,-0.27056709,0.57007,0.49455329,-0.24729983,0.568907,0.4946426,-0.2273638,0.568076,0.52794986,-0.32057015,0.568535,0.52820847,-0.27946865,0.576242,0.52989177,-0.26353437,0.581807,0.53202127,-0.24649001,0.586866,0.54871044,-0.32907903,0.563499,0.54732538,-0.29067458,0.565199,0.547567,-0.27317437,0.565981,0.54778013,-0.25776562,0.56667
0.50434088,-0.39712211,0.565135,0.50836463,-0.35912838,0.568228,0.48800759,-0.38970557,0.567518,0.47884213,-0.36705526,0.578565,0.45209263,-0.3359753,0.566843,0.45200027,-0.3203624,0.572256,0.48602151,-0.3193396,0.573431,0.47649142,-0.27625332,0.569442,0.47083842,-0.25479183,0.567447,0.46547998,-0.23565578,0.565633,0.50919984,-0.31800756,0.571174,0.50473996,-0.27089658,0.57225,0.50325957,-0.24517344,0.572878,0.4989854,-0.22365957,0.573327,0.52945866,-0.32113375,0.568981,0.5213644,-0.27268958,0.564774,0.52251517,-0.25229288,0.562622,0.52078426,-0.23194166,0.560666,0.55101031,-0.32997655,0.565854,0.56690983,-0.29815121,0.577395,0.57420229,-0.28420398,0.582697,0.58063605,-0.27191001,0.587376
0.50975387,-0.39855875,0.564603,0.52507598,-0.35732237,0.572856,0.48815213,-0.38688893,0.563454,0.50154958,-0.36480967,0.577802,0.47073062,-0.3278719,0.559566,0.46582254,-0.31100595,0.562484,0.49766505,-0.31987365,0.576963,0.51268103,-0.28936746,0.595525,0.51931035,-0.27386937,0.604805,0.52533013,-0.25967126,0.613242,0.52672835,-0.32077564,0.580716,0.54037499,-0.28591591,0.596326,0.54819966,-0.26412818,0.605431,0.55378776,-0.24842547,0.611936,0.55101804,-0.32583636,0.582917,0.56924766,-0.29260256,0.596133,0.57915641,-0.27595552,0.603512,0.58816326,-0.260828,0.61022,0.57781093,-0.3370504,0.58392,0.57779913,-0.29800975,0.584172,0.57737189,-0.28288879,0.584884,0.58034675,-0.26878444,0.587029
0.51988206,-0.40486643,0.573021,0.53343537,-0.36579321,0.575484,0.5090289,-0.39308652,0.57208,0.52981974,-0.37589484,0.585115,0.49156714,-0.34162063,0.566394,0.494072,-0.32246854,0.566865,0.50758165,-0.32281432,0.575929,0.52578374,-0.29153898,0.594546,0.5349032,-0.27548381,0.603855,0.54320303,-0.26065449,0.612317,0.53445172,-0.32443056,0.577829,0.53077135,-0.27584333,0.571979,0.52908721,-0.24950379,0.568567,0.52809052,-0.23253993,0.566129,0.55676349,-0.32936274,0.579128,0.57604564,-0.29300085,0.58841,0.5859419,-0.27427734,0.59316,0.59495446,-0.25718641,0.597477,0.58323903,-0.34186421,0.580173,0.59720943,-0.30584076,0.577608,0.60429885,-0.2912966,0.57643,0.60640373,-0.28864369,0.575391
0.57258787,-0.40744141,0.583958,0.57663008,-0.36644513,0.585321,0.55088177,-0.39241382,0.581893,0.57203037,-0.36830629,0.591421,0.56579872,-0.3309893,0.569693,0.57615472,-0.31318272,0.568416,0.5527884,-0.32111513,0.583557,0.54189661,-0.28147146,0.576505,0.5363756,-0.26101947,0.572978,0.53131187,-0.24203711,0.569773,0.58056006,-0.32617228,0.58662,0.57840007,-0.27974768,0.579377,0.57539046,-0.25169835,0.575152,0.57448061,-0.23229233,0.572134,0.60345609,-0.3338628,0.588994,0.61220217,-0.2910065,0.582745,0.61396744,-0.28198951,0.579547,0.6158539,-0.27338506,0.57664,0.63038541,-0.34952543,0.591495,0.66446967,-0.33156589,0.590554,0.66943136,-0.32809989,0.590122,0.66744713,-0.32822603,0.58974
0.57960502,-0.41294631,0.58759,0.58169723,-0.37085857,0.588434,0.5575344,-0.39853248,0.585653,0.53959598,-0.37901632,0.590155,0.50694142,-0.34326331,0.56494,0.4974168,-0.32297649,0.561226,0.55601863,-0.32515461,0.586483,0.54469747,-0.28436241,0.578384,0.53897747,-0.26337886,0.574334,0.53374177,-0.24393938,0.570653,0.5837324,-0.32930478,0.589237,0.57704558,-0.28079291,0.581448,0.58026928,-0.25727437,0.588062,0.58462218,-0.23980346,0.592787,0.60668397,-0.33634983,0.591414,0.59778102,-0.29080307,0.583904,0.59380721,-0.26753787,0.580061,0.59078949,-0.24673393,0.576568,0.63389288,-0.35140527,0.593782,0.61802572,-0.30903141,0.585514,0.61970861,-0.30555082,0.581715,0.6221333,-0.30770646,0.578363
0.52771683,-0.40640859,0.574312,0.55061755,-0.37235793,0.578541,0.51334821,-0.39387675,0.574607,0.52988974,-0.37009175,0.589054,0.50988149,-0.33043145,0.571345,0.51354893,-0.31143073,0.572657,0.54470231,-0.32481237,0.581797,0.54513659,-0.28354071,0.578187,0.54727026,-0.26039355,0.576381,0.54809864,-0.24047045,0.57474,0.56933646,-0.33406589,0.582569,0.57763095,-0.28683414,0.578978,0.59042672,-0.26292354,0.584603,0.59966505,-0.2454791,0.588621,0.58814822,-0.34506208,0.582749,0.60043125,-0.29334925,0.585442,0.60832572,-0.26966692,0.58682,0.61464398,-0.24661807,0.588197,0.60742682,-0.36420419,0.582163,0.62139682,-0.31988481,0.57989,0.6277651,-0.29965195,0.578845,0.63335829,-0.28186761,0.577923
0.5490161,-0.41070323,0.580188,0.56189091,-0.37333962,0.581657,0.53451278,-0.3945116,0.579601,0.53615594,-0.37274655,0.587787,0.51442312,-0.3347903,0.569788,0.51480166,-0.31349021,0.57158,0.54618597,-0.32504173,0.581891,0.54347651,-0.28211523,0.575512,0.54439115,-0.25912167,0.572322,0.5439571,-0.23911298,0.569423,0.57164018,-0.33324429,0.583056,0.57429546,-0.28184458,0.576245,0.57594989,-0.25299567,0.574961,0.57783273,-0.23386783,0.574045,0.59397249,-0.34147095,0.583857,0.60498505,-0.29029733,0.584811,0.60952967,-0.26697544,0.586125,0.61553365,-0.24374535,0.58732,0.61645235,-0.35910998,0.584511,0.62799583,-0.31417762,0.581703,0.63399007,-0.29370642,0.580414,0.63929238,-0.27560226,0.579275
0.5497562,-0.41187037,0.580686,0.558106,-0.37370446,0.580903,0.52753892,-0.39877052,0.58095,0.53838517,-0.37640079,0.589918,0.51523151,-0.33654562,0.570999,0.51489562,-0.31478863,0.571073,0.54560065,-0.32532992,0.581395,0.54184754,-0.28152104,0.574049,0.53884802,-0.25983731,0.570377,0.53717696,-0.23904055,0.567038,0.56983362,-0.33218667,0.58111,0.57397142,-0.28318217,0.577543,0.5757787,-0.25391153,0.575463,0.57703562,-0.2342311,0.573977,0.58896113,-0.34148949,0.580852,0.60033373,-0.29110876,0.583428,0.60768745,-0.26562152,0.584746,0.61344707,-0.2422949,0.585945,0.61194545,-0.35716151,0.580511,0.61886074,-0.31028674,0.574268,0.62215371,-0.28856807,0.571399,0.62542791,-0.26969002,0.568868
0.54677334,-0.41514102,0.581532,0.55761238,-0.37432932,0.580322,0.52854792,-0.39977236,0.580939,0.5359452,-0.37777552,0.588078,0.51101507,-0.34069361,0.567734,0.51201048,-0.31676788,0.566715,0.54109817,-0.32679391,0.578728,0.53127924,-0.28377943,0.569711,0.52936252,-0.25984914,0.565203,0.52440652,-0.24007592,0.561104,0.56634617,-0.33250227,0.579169,0.57065468,-0.2852008,0.57791,0.57009103,-0.25870912,0.577175,0.57431811,-0.23556342,0.57665,0.5864096,-0.34200348,0.579663,0.589556,-0.28823414,0.577301,0.58962367,-0.26366623,0.576093,0.59028148,-0.24227778,0.574994,0.6097206,-0.35927176,0.580464,0.61478001,-0.31213956,0.572801,0.61746556,-0.28819466,0.56928,0.61680749,-0.27647283,0.566174
0.54791295,-0.41604905,0.581571,0.55363963,-0.37232552,0.576369,0.52918549,-0.40068691,0.580734,0.52431521,-0.37531674,0.581923,0.49596076,-0.33975172,0.563232,0.4959843,-0.32224865,0.563483,0.52764056,-0.32514359,0.571747,0.511267,-0.28080588,0.559135,0.5031097,-0.25881584,0.552828,0.49596807,-0.24070091,0.547096,0.55263333,-0.32837392,0.571415,0.55143056,-0.28067005,0.569649,0.55108409,-0.25329641,0.568619,0.55084399,-0.23342742,0.567883,0.57364067,-0.33512688,0.571703,0.57379404,-0.28933903,0.570987,0.57387201,-0.2659058,0.57062,0.5739436,-0.24459933,0.570287,0.59907481,-0.35065599,0.573014,0.59140106,-0.30590899,0.561292,0.58786416,-0.28543865,0.555906,0.58473787,-0.26742497,0.551154
0.54536243,-0.41458693,0.578138,0.55044322,-0.37368528,0.57545,0.52781347,-0.40057837,0.578801,0.52221605,-0.38012194,0.584105,0.4922206,-0.34338919,0.56617,0.49552524,-0.32436524,0.566615,0.52452657,-0.33001884,0.574489,0.50709602,-0.28643464,0.56505,0.49834695,-0.26449455,0.560331,0.49037169,-0.24445907,0.55604,0.54850014,-0.33134186,0.57289,0.54763551,-0.28509784,0.574318,0.54712911,-0.25807863,0.575151,0.54676646,-0.23875964,0.575746,0.57122366,-0.33580346,0.571863,0.56585089,-0.29046831,0.570618,0.56443859,-0.26735056,0.569981,0.56338702,-0.25364115,0.569403,0.5950739,-0.34960313,0.571176,0.59089792,-0.30613714,0.563021,0.58944116,-0.28572756,0.560584,0.58985306,-0.27008487,0.558435
0.54620568,-0.41623847,0.577226,0.54597502,-0.37902868,0.574909,0.53022228,-0.40758571,0.578721,0.51882331,-0.39268749,0.585321,0.48893972,-0.35666054,0.566529,0.48526263,-0.33788313,0.565827,0.51603054,-0.33892032,0.575284,0.50095645,-0.295702,0.56607,0.49337525,-0.27385222,0.561462,0.48645795,-0.25384353,0.557274,0.53889105,-0.33751121,0.572703,0.53403482,-0.28949085,0.57039,0.53064044,-0.26186752,0.569041,0.52904229,-0.23771617,0.568077,0.55848989,-0.34025283,0.570827,0.56279226,-0.29770595,0.575614,0.56586022,-0.27647133,0.578949,0.56864948,-0.25717036,0.581981,0.58289704,-0.35074784,0.569084,0.57960358,-0.30664962,0.560653,0.57768638,-0.28793408,0.556779,0.57532992,-0.27527849,0.553361
0.54540943,-0.41664648,0.576303,0.54210198,-0.38170101,0.574642,0.52858257,-0.40837376,0.577631,0.51621474,-0.39291712,0.583592,0.48490872,-0.35724842,0.563723,0.48017571,-0.33862035,0.562681,0.5142187,-0.33918221,0.575243,0.49498967,-0.29633361,0.566685,0.48622348,-0.27460462,0.562405,0.47822671,-0.25477212,0.558515,0.5375454,-0.33769058,0.57306,0.5299725,-0.29197216,0.574584,0.52653113,-0.26528271,0.575474,0.5239057,-0.24618144,0.576109,0.55746891,-0.34030713,0.571441,0.56037037,-0.29764894,0.576141,0.55824813,-0.27553495,0.578546,0.55896106,-0.25556941,0.580732,0.58214338,-0.35052851,0.569874,0.58341156,-0.30948134,0.567187,0.58338366,-0.29160223,0.568847,0.58594599,-0.27645576,0.570312
0.54602102,-0.41829656,0.577107,0.54208402,-0.38295042,0.575769,0.5299608,-0.41143033,0.579967,0.51542067,-0.39596942,0.585117,0.48567467,-0.36231383,0.567419,0.4818118,-0.34478234,0.568158,0.51433453,-0.34230978,0.578586,0.49667992,-0.2989551,0.57065,0.48782394,-0.27718138,0.566681,0.47975479,-0.25733512,0.563073,0.53759308,-0.33904637,0.574495,0.53083953,-0.29437989,0.577179,0.52778163,-0.26826155,0.578744,0.52541227,-0.24957258,0.579862,0.55600367,-0.34057478,0.57127,0.55636224,-0.29878045,0.577082,0.55729201,-0.27740227,0.580055,0.55812289,-0.25789126,0.582759,0.5787,-0.34942088,0.567778,0.58003903,-0.31041447,0.568891,0.58250071,-0.29334139,0.570578,0.58469579,-0.27823399,0.572066
0.54486619,-0.41841337,0.575927,0.54063011,-0.38267116,0.574559,0.52583885,-0.4116125,0.576324,0.5132068,-0.39318149,0.581797,0.48037017,-0.35846063,0.561061,0.47631755,-0.33843151,0.559806,0.51033285,-0.3403145,0.574146,0.51326529,-0.30683633,0.5858,0.5147493,-0.28925362,0.591627,0.51607724,-0.27315023,0.596924,0.53603282,-0.33882436,0.573256,0.53190821,-0.2957914,0.578573,0.53014909,-0.27044393,0.581674,0.52875771,-0.25220348,0.583889,0.55696446,-0.34184743,0.57267,0.55727103,-0.299301,0.577236,0.55799618,-0.27747293,0.579573,0.56110351,-0.25740951,0.581697,0.58283186,-0.35251061,0.572247,0.58256121,-0.31263135,0.571867,0.58471569,-0.29545467,0.573442,0.58666968,-0.28023915,0.574831
0.54669564,-0.42784127,0.578179,0.54972987,-0.39638168,0.57995,0.52675543,-0.41864119,0.579576,0.51681449,-0.39567898,0.585717,0.49668637,-0.35925384,0.573473,0.50196784,-0.34323111,0.579427,0.53441829,-0.35048472,0.582974,0.56444088,-0.32262953,0.600159,0.57954377,-0.30845838,0.608752,0.59332446,-0.29543996,0.616564,0.55821777,-0.3546071,0.581638,0.57858836,-0.32062326,0.600145,0.59048181,-0.30061956,0.610941,0.59898206,-0.28625446,0.618653,0.57727572,-0.36161846,0.580347,0.58676298,-0.32774738,0.596319,0.59162246,-0.31045415,0.604491,0.59604303,-0.294753,0.61192,0.59872455,-0.3766089,0.578515,0.58701037,-0.33400418,0.57229,0.58595301,-0.32788297,0.569429,0.58594608,-0.32974185,0.566905
0.5458433,-0.43234055,0.57949,0.54979903,-0.39925351,0.580657,0.52486644,-0.41920697,0.578527,0.51477319,-0.39416016,0.582904,0.4962259,-0.35847864,0.570713,0.50108268,-0.34156687,0.575199,0.53311489,-0.35045522,0.580195,0.52652996,-0.30709717,0.572902,0.5234526,-0.28583186,0.569255,0.52103006,-0.26703203,0.565939,0.55930379,-0.35728646,0.581769,0.5689229,-0.31472101,0.583699,0.57394031,-0.28859151,0.584826,0.57995705,-0.27681833,0.58563,0.58081466,-0.36994086,0.582939,0.58424793,-0.32615436,0.581764,0.58931396,-0.30489143,0.581162,0.5943703,-0.30109843,0.580616,0.60353503,-0.38849331,0.584077,0.59457499,-0.34437475,0.576423,0.59559006,-0.33426631,0.572906,0.59688452,-0.33588944,0.569803
0.53273683,-0.43865061,0.574102,0.54961672,-0.41026531,0.581939,0.52181596,-0.4227834,0.57809,0.53218434,-0.4073984,0.595051,0.5305468,-0.37489537,0.590699,0.54336984,-0.35979543,0.596885,0.55153194,-0.37483844,0.592456,0.54262658,-0.34058158,0.594376,0.54074223,-0.35273754,0.595337,0.53887383,-0.36443821,0.59621,0.57119971,-0.37795404,0.589404,0.57908334,-0.33349276,0.590556,0.58376607,-0.3070032,0.591229,0.5822886,-0.29086032,0.591709,0.58598109,-0.38332204,0.586046,0.60722613,-0.34313624,0.58601,0.61804303,-0.32267387,0.585991,0.61646877,-0.30743489,0.585974,0.60062914,-0.39508328,0.580674,0.6231574,-0.3629119,0.581507,0.63334071,-0.34838418,0.58189,0.64170248,-0.33478622,0.582227
0.5425658,-0.42905574,0.577348,0.56046581,-0.39069992,0.581978,0.52985447,-0.41402643,0.581441,0.53967998,-0.38108207,0.594487,0.53125714,-0.34707981,0.587548,0.54296013,-0.33259395,0.58827,0.56948775,-0.34605088,0.590453,0.58473664,-0.3063749,0.588725,0.59236357,-0.28647013,0.587861,0.59693021,-0.27331963,0.587076,0.58750506,-0.35657957,0.586388,0.61398374,-0.32123038,0.592343,0.63064181,-0.29866232,0.595817,0.64138765,-0.28507417,0.598298,0.59999621,-0.36819946,0.582541,0.6261033,-0.33058708,0.585402,0.63947321,-0.31132229,0.586866,0.6516351,-0.29379641,0.588197,0.61046789,-0.38734964,0.577206,0.63062881,-0.35572904,0.574772,0.63833458,-0.34502023,0.573654,0.64194328,-0.34002034,0.572668
0.54665391,-0.4311153,0.581194,0.56503611,-0.39291961,0.583713,0.53115239,-0.4173067,0.583525,0.54703399,-0.38894749,0.59811,0.53424535,-0.35340453,0.588561,0.54033288,-0.33323301,0.586407,0.56910253,-0.34584693,0.588459,0.59743181,-0.31336121,0.594175,0.61091824,-0.29647455,0.597033,0.62323155,-0.28103085,0.599631,0.58910261,-0.35685295,0.586111,0.6234226,-0.32218889,0.593042,0.64262325,-0.30143722,0.597086,0.65659507,-0.28635499,0.599973,0.60358324,-0.36910208,0.583906,0.63612472,-0.33433917,0.588096,0.65168691,-0.3164981,0.59024,0.66602536,-0.30014392,0.592189,0.61952859,-0.38897035,0.580873,0.63364866,-0.35473516,0.576428,0.63986707,-0.34444725,0.574385,0.64338737,-0.33845007,0.572583
0.54556425,-0.43152017,0.581625,0.56580112,-0.3926461,0.584562,0.53146077,-0.41546399,0.583961,0.54125659,-0.38076843,0.595614,0.53383763,-0.34680042,0.588063,0.54162566,-0.3317673,0.587023,0.57124748,-0.34568201,0.5896,0.58279573,-0.30372162,0.585485,0.58958303,-0.28182072,0.583427,0.59270538,-0.26737886,0.581557,0.59113409,-0.3571832,0.58736,0.61614256,-0.31525668,0.588367,0.63008974,-0.2909946,0.588955,0.64013219,-0.27352328,0.589375,0.60540384,-0.36979607,0.585198,0.6316761,-0.33232892,0.58711,0.64296372,-0.3121359,0.588088,0.65845047,-0.29630106,0.589977,0.61828988,-0.3904155,0.582137,0.63804093,-0.35722147,0.579822,0.64983737,-0.34316045,0.578758,0.65920709,-0.32999663,0.57782
0.54367193,-0.4338354,0.582422,0.56540069,-0.39386634,0.585229,0.53079801,-0.41829439,0.585147,0.54298674,-0.38607323,0.597125,0.53600344,-0.35281067,0.591109,0.5432254,-0.33335103,0.588916,0.56885967,-0.34843573,0.590684,0.57452011,-0.3104719,0.586979,0.57790659,-0.28986563,0.585127,0.58106812,-0.27081797,0.583443,0.58964136,-0.35899572,0.587902,0.60135155,-0.31556738,0.583236,0.60949401,-0.28893146,0.580514,0.60927092,-0.27858718,0.57857,0.60344715,-0.37081529,0.585308,0.61693543,-0.32951725,0.581139,0.62505672,-0.30724517,0.579005,0.63182232,-0.28723621,0.577066,0.6156541,-0.39121124,0.58177,0.63528583,-0.35789577,0.578041,0.64363724,-0.34402189,0.576327,0.65308598,-0.32907271,0.574815
0.54398213,-0.43562792,0.584401,0.56020862,-0.39646739,0.585306,0.53076209,-0.41816449,0.585844,0.5403161,-0.38846483,0.597793,0.53453172,-0.35420096,0.589099,0.54222097,-0.3354227,0.588613,0.56331089,-0.34876835,0.587798,0.56476909,-0.30805874,0.581807,0.56660889,-0.28724388,0.578811,0.56492499,-0.27351236,0.576088,0.58488527,-0.35857033,0.586167,0.59230968,-0.31165455,0.579131,0.59828874,-0.28397711,0.575028,0.6007739,-0.26544125,0.572096,0.60003432,-0.37118688,0.584726,0.613202,-0.32969249,0.587484,0.62228215,-0.30897558,0.589891,0.63073405,-0.29025165,0.592269,0.6146879,-0.39231705,0.582884,0.62865677,-0.35607583,0.57955,0.63997708,-0.34203676,0.581821,0.65060344,-0.33001578,0.584415
0.54597345,-0.4386303,0.588079,0.55941197,-0.39865243,0.586373,0.53485373,-0.42132734,0.591108,0.53543094,-0.39490055,0.600113,0.52205308,-0.35886612,0.5884,0.52872402,-0.34130858,0.591875,0.55483529,-0.34993534,0.589162,0.55027473,-0.30840151,0.58166,0.54802689,-0.28716904,0.57791,0.54600177,-0.26758076,0.5745,0.57323868,-0.35719059,0.584749,0.57552405,-0.30800938,0.575364,0.57553654,-0.28020188,0.569889,0.5714947,-0.26669904,0.565978,0.58736837,-0.3668476,0.5813,0.60017829,-0.32405679,0.583633,0.60675551,-0.30206689,0.584827,0.61274778,-0.28201891,0.585912,0.59942021,-0.38463788,0.577616,0.61070426,-0.34422735,0.569674,0.61466424,-0.32553575,0.566026,0.61711456,-0.30968307,0.562806
0.53701362,-0.43343727,0.580727,0.54871938,-0.39858029,0.582319,0.52456432,-0.41983285,0.583884,0.52468031,-0.39815514,0.595058,0.50815177,-0.35786573,0.580192,0.51216919,-0.34338584,0.582578,0.54035799,-0.34943213,0.587512,0.53665021,-0.31073277,0.582885,0.53504653,-0.28988731,0.580572,0.53378729,-0.27098861,0.578468,0.56071379,-0.35746456,0.583835,0.56189653,-0.30649357,0.577981,0.5632574,-0.27798886,0.574566,0.56423231,-0.25761393,0.572127,0.57599752,-0.36277383,0.580635,0.58835405,-0.3215139,0.583782,0.59600717,-0.30021899,0.585923,0.60305286,-0.28088965,0.587953,0.58993081,-0.38044979,0.576622,0.60614643,-0.34419624,0.575329,0.61345331,-0.32782914,0.574735,0.6188726,-0.31259522,0.574211
0.53766249,-0.43447978,0.582687,0.54931614,-0.39777861,0.583311,0.52552105,-0.42065424,0.586027,0.52512348,-0.39668011,0.596097,0.50736913,-0.36118163,0.580254,0.51172945,-0.3428173,0.581752,0.54149772,-0.35068004,0.588083,0.53466499,-0.31285626,0.582571,0.53145861,-0.2924126,0.579815,0.52871515,-0.27386375,0.57731,0.56089233,-0.35740056,0.583904,0.55955436,-0.30602772,0.577069,0.55530419,-0.2775218,0.573081,0.5527019,-0.25731713,0.570233,0.57479961,-0.36317797,0.580396,0.58013274,-0.31694216,0.577202,0.58011298,-0.2921063,0.575568,0.57950412,-0.27088829,0.574083,0.59038331,-0.37911466,0.576206,0.60314981,-0.3411994,0.573395,0.60638521,-0.32131293,0.572104,0.60860888,-0.30524866,0.570964
0.53855688,-0.43501741,0.584339,0.54930614,-0.3972547,0.584648,0.52606134,-0.42259888,0.588039,0.52545186,-0.39879747,0.59704,0.50311003,-0.36489608,0.580151,0.50799373,-0.34406096,0.580953,0.54232713,-0.35220327,0.589679,0.5331829,-0.31489524,0.584516,0.52535744,-0.29565055,0.581935,0.52425363,-0.27688387,0.579588,0.56064478,-0.35641808,0.584943,0.5572783,-0.30688676,0.577881,0.55467561,-0.27805902,0.57376,0.55251589,-0.25754156,0.570818,0.57502721,-0.36360087,0.581011,0.57476782,-0.31509188,0.575225,0.57421348,-0.29062258,0.572265,0.5717329,-0.26924127,0.569574,0.59050104,-0.37903256,0.576387,0.60205434,-0.34022766,0.575161,0.6067153,-0.32271346,0.574597,0.6099396,-0.3071091,0.5741
0.54188037,-0.43592329,0.586871,0.5524985,-0.3981357,0.585705,0.53114177,-0.42250042,0.590936,0.52749271,-0.40862524,0.597593,0.49730179,-0.37180692,0.576495,0.49209797,-0.35191263,0.573652,0.54020502,-0.35444418,0.590208,0.53127619,-0.31389618,0.583242,0.52610685,-0.29334944,0.579759,0.52137136,-0.27433865,0.576592,0.55973215,-0.35629169,0.584594,0.55300524,-0.30598476,0.576087,0.55241608,-0.2780228,0.574091,0.553022,-0.25805895,0.572665,0.57400901,-0.36264755,0.580098,0.57204946,-0.31324998,0.5726,0.57055603,-0.28849399,0.568765,0.56739662,-0.26710943,0.565278,0.59036156,-0.37652927,0.575097,0.59792414,-0.3365721,0.573175,0.60052569,-0.31600981,0.572292,0.6094413,-0.30568082,0.575001
0.54355861,-0.43787793,0.587969,0.55279341,-0.39850639,0.585869,0.53258448,-0.42413434,0.592056,0.52747858,-0.4086143,0.597577,0.49731818,-0.37181918,0.576514,0.49203792,-0.35186969,0.573582,0.53935533,-0.35444061,0.589766,0.52962031,-0.31298145,0.581833,0.52416449,-0.29201825,0.577866,0.51917692,-0.27267472,0.57426,0.55868947,-0.35590104,0.583868,0.55106581,-0.30496368,0.574391,0.55120213,-0.27749349,0.573278,0.55220357,-0.25781852,0.572483,0.57308926,-0.36188069,0.579238,0.57192453,-0.31300495,0.572523,0.57080567,-0.28848038,0.569087,0.56807304,-0.26738247,0.565964,0.58988728,-0.3754699,0.574258,0.59755337,-0.33560571,0.572844,0.6004239,-0.31595625,0.572195,0.6084845,-0.30461075,0.574785
0.54511378,-0.43994872,0.589707,0.55528006,-0.39847506,0.58588,0.53247119,-0.42578535,0.592599,0.53495985,-0.40495993,0.599851,0.50829417,-0.36712475,0.583285,0.51003956,-0.3462469,0.582938,0.53815965,-0.35184407,0.587048,0.52624187,-0.31022188,0.577513,0.5208908,-0.28832554,0.572745,0.51447436,-0.26931588,0.568411,0.55764953,-0.35478816,0.582235,0.54982565,-0.30274412,0.570593,0.54586049,-0.27408926,0.563801,0.54104314,-0.25427553,0.55895,0.57325272,-0.36132979,0.578684,0.57506074,-0.31307439,0.571755,0.57062557,-0.28809368,0.568209,0.56693049,-0.26796371,0.564986,0.59350648,-0.37472152,0.575282,0.59231753,-0.33116348,0.565566,0.59378597,-0.31159758,0.561101,0.59041522,-0.29984357,0.557162
0.54421826,-0.44011253,0.587988,0.55474999,-0.39815632,0.585149,0.53221484,-0.42561319,0.591625,0.53581295,-0.40616151,0.600613,0.51054592,-0.36869747,0.585169,0.51196918,-0.34832977,0.585388,0.53967483,-0.3524065,0.587957,0.53176287,-0.30971298,0.578905,0.52589103,-0.28935726,0.574378,0.52268765,-0.26873466,0.570264,0.55816731,-0.35494809,0.582444,0.55194888,-0.30350478,0.572055,0.54599491,-0.27434774,0.565994,0.54220855,-0.25377707,0.561665,0.57324161,-0.36096249,0.57821,0.57468225,-0.31244027,0.57115,0.57046002,-0.2878568,0.567538,0.56679524,-0.26821884,0.564254,0.5926759,-0.37389057,0.57383,0.59182834,-0.3312753,0.565048,0.59318915,-0.31174757,0.561013,0.58993266,-0.30050285,0.557453
0.54517628,-0.44097986,0.588,0.55388312,-0.3984142,0.58496,0.53253836,-0.42690934,0.591621,0.53599571,-0.4064854,0.600753,0.51141642,-0.36929939,0.585818,0.51259499,-0.3492183,0.58625,0.53949146,-0.35232394,0.587612,0.53134766,-0.30966122,0.578226,0.52585181,-0.2890328,0.573532,0.52228078,-0.26850054,0.569266,0.55804254,-0.35474155,0.582065,0.55165872,-0.3031957,0.571462,0.54597978,-0.27410229,0.565277,0.54209157,-0.25359885,0.560859,0.57320288,-0.360668,0.577824,0.57431441,-0.31198312,0.570647,0.57025848,-0.28764562,0.566976,0.56657681,-0.2683284,0.563638,0.59270761,-0.37372682,0.573473,0.59164712,-0.3308054,0.564529,0.59239369,-0.31148456,0.56042,0.58897061,-0.30031579,0.556794
0.5463617,-0.44179028,0.588126,0.55340733,-0.3987031,0.584896,0.53312044,-0.42810883,0.591706,0.53603182,-0.40660546,0.600761,0.51190869,-0.36963884,0.586173,0.51298277,-0.34979055,0.586791,0.53936943,-0.35227322,0.587366,0.53102199,-0.30959832,0.57772,0.5257105,-0.2887734,0.572896,0.52192826,-0.2683027,0.568512,0.55799225,-0.35461065,0.581819,0.55143807,-0.30295808,0.571006,0.54587192,-0.27388965,0.564698,0.54188934,-0.25342191,0.560193,0.57324833,-0.36048655,0.5776,0.57406748,-0.31167741,0.57031,0.57013282,-0.28750016,0.56658,0.56641286,-0.26840293,0.56319,0.59280609,-0.37366654,0.57331,0.59158189,-0.33049232,0.564207,0.59189074,-0.31129775,0.560024,0.58835157,-0.30015185,0.556334
0.54683869,-0.44195913,0.587526,0.55326705,-0.39892753,0.584639,0.53304725,-0.42838627,0.590882,0.5364187,-0.40670539,0.600691,0.51369796,-0.37008092,0.586359,0.5139276,-0.3501966,0.587131,0.54018274,-0.35201796,0.58705,0.5313816,-0.30962034,0.577683,0.52746005,-0.28831273,0.573,0.52255756,-0.26834431,0.568742,0.55921583,-0.35474148,0.58189,0.55340471,-0.30333039,0.571365,0.54871764,-0.27468336,0.565225,0.54304757,-0.25387455,0.56084,0.5740152,-0.36085321,0.577951,0.57434313,-0.31145943,0.570345,0.57111061,-0.28786648,0.566454,0.56654192,-0.2684993,0.562916,0.59381789,-0.37448791,0.573922,0.59888721,-0.33452647,0.56882,0.59998236,-0.31763887,0.566476,0.60076578,-0.30312942,0.564407
0.54846592,-0.44237927,0.587469,0.55317975,-0.3987666,0.584237,0.53406584,-0.42869654,0.590446,0.53581806,-0.40612115,0.599683,0.51335679,-0.3695377,0.585405,0.51373111,-0.34988439,0.586352,0.53954026,-0.35189119,0.585919,0.53010984,-0.30931882,0.576154,0.52587008,-0.2880237,0.571271,0.52066311,-0.26793617,0.566832,0.55905021,-0.35451226,0.581158,0.55222903,-0.30286851,0.570159,0.54755743,-0.27404469,0.563743,0.54181962,-0.25323388,0.55916,0.57425483,-0.36063602,0.577586,0.57406781,-0.3113419,0.569799,0.57078208,-0.28765959,0.565815,0.566129,-0.26833092,0.562193,0.59423288,-0.37488741,0.574048,0.59885565,-0.33363501,0.568484,0.60032752,-0.3170736,0.565928,0.60042242,-0.30293794,0.563673
0.54957378,-0.44256372,0.587319,0.55379759,-0.39891777,0.584066,0.53505199,-0.42905196,0.590404,0.53580603,-0.40602001,0.59943,0.51353856,-0.36945608,0.585209,0.51372892,-0.35050893,0.586236,0.53976797,-0.35191807,0.585876,0.53061819,-0.30912212,0.576035,0.52668303,-0.28756515,0.571114,0.52147848,-0.26737458,0.566641,0.55926981,-0.35457153,0.580968,0.55231047,-0.30286361,0.56998,0.54758824,-0.27401883,0.56357,0.54196719,-0.25325106,0.558992,0.57442916,-0.36053865,0.577277,0.57419805,-0.31112507,0.569273,0.57048052,-0.28750331,0.565179,0.5656385,-0.2681203,0.561456,0.59399468,-0.37484428,0.573604,0.5982236,-0.33278479,0.567318,0.59955568,-0.31584765,0.56443,0.59873793,-0.30253343,0.561882
0.55032709,-0.44237113,0.586919,0.55431406,-0.39884866,0.583798,0.5354467,-0.42882177,0.589809,0.53543747,-0.40573685,0.598944,0.51340039,-0.36931074,0.584931,0.5145082,-0.35071191,0.5862,0.53865642,-0.35190071,0.585442,0.52888299,-0.30923782,0.576002,0.52240353,-0.28772573,0.571282,0.51946287,-0.26767121,0.566991,0.55860116,-0.35447703,0.580825,0.55292103,-0.30273212,0.569916,0.548013,-0.27379164,0.563553,0.54243796,-0.2529289,0.559007,0.57507613,-0.36058121,0.57736,0.57207181,-0.31060208,0.568426,0.56886689,-0.28659768,0.563856,0.56430186,-0.26769579,0.559701,0.59444102,-0.37517927,0.573924,0.59444058,-0.33110288,0.565036,0.59367735,-0.31191853,0.560953,0.59179194,-0.30032699,0.55735
0.55010899,-0.44216362,0.586602,0.55433515,-0.39869011,0.583496,0.5352121,-0.42848372,0.58941,0.53506319,-0.40545021,0.598468,0.51304466,-0.36901913,0.584432,0.5142167,-0.35045731,0.585746,0.53881688,-0.35160634,0.585045,0.5290373,-0.30907342,0.575601,0.52277584,-0.28765306,0.570879,0.5196103,-0.26759895,0.566586,0.55886818,-0.35435993,0.580538,0.55268013,-0.30252603,0.569621,0.54780959,-0.27347713,0.563253,0.54303013,-0.25279958,0.558704,0.57541107,-0.36060851,0.577161,0.57206763,-0.31046346,0.568006,0.5685924,-0.28652398,0.563321,0.56376887,-0.26787981,0.559063,0.59481799,-0.37537436,0.573826,0.59474549,-0.33119663,0.564782,0.59393411,-0.31195683,0.560626,0.59133994,-0.30001536,0.55696
