sluyters/QuantumLeap/backend/src/datasets/dynamic/HandGestureDataset_SHREC2017_csv/Gesture6/finger_2/subject_1_essai_1_skeletons_world.csv
Wrist_x,Wrist_y,Wrist_z,Palm_x,Palm_y,Palm_z,thumb_base_x,thumb_base_y,thumb_base_z,thumb_first_joint_x,thumb_first_joint_y,thumb_first_joint_z,thumb_second_joint_x,thumb_second_joint_y,thumb_second_joint_z,thumb_tip_x,thumb_tip_y,thumb_tip_z,index_base_x,index_base_y,index_base_z,index_first_joint_x,index_first_joint_y,index_first_joint_z,index_second_joint_x,index_second_joint_y,index_second_joint_z,index_tip_x,index_tip_y,index_tip_z,middle_base_x,middle_base_y,middle_base_z,middle_first_joint_x,middle_first_joint_y,middle_first_joint_z,middle_second_joint_x,middle_second_joint_y,middle_second_joint_z,middle_tip_x,middle_tip_y,middle_tip_z,ring_base_x,ring_base_y,ring_base_z,ring_first_joint_x,ring_first_joint_y,ring_first_joint_z,ring_second_joint_x,ring_second_joint_y,ring_second_joint_z,ring_tip_x,ring_tip_y,ring_tip_z,pinky_base_x,pinky_base_y,pinky_base_z,pinky_first_joint_x,pinky_first_joint_y,pinky_first_joint_z,pinky_second_joint_x,pinky_second_joint_y,pinky_second_joint_z,pinky_tip_x,pinky_tip_y,pinky_tip_z,
0.48801025,-0.36815338,0.565988,0.49095993,-0.32202864,0.562915,0.4716751,-0.35151783,0.567414,0.44769116,-0.3194355,0.560213,0.42256122,-0.29169449,0.551118,0.4136594,-0.27344862,0.549699,0.47738056,-0.26998617,0.562247,0.46703915,-0.23287784,0.554713,0.46179551,-0.2137112,0.550945,0.45701998,-0.19592154,0.547563,0.49686343,-0.27379628,0.559373,0.49147191,-0.2299882,0.549573,0.48670388,-0.20446773,0.543857,0.48444708,-0.18653931,0.539773,0.51268805,-0.27935449,0.557184,0.50914498,-0.24526662,0.547873,0.50778822,-0.22746919,0.543275,0.50675998,-0.21067952,0.539186,0.53142404,-0.29111947,0.554906,0.53109056,-0.27181568,0.545726,0.53236079,-0.26212554,0.542488,0.53549458,-0.25062083,0.54177
0.49487277,-0.37139457,0.572262,0.4917246,-0.3223837,0.563225,0.47669316,-0.35366172,0.571942,0.45174726,-0.32141926,0.562105,0.4222358,-0.29207926,0.548256,0.4099005,-0.27180635,0.545504,0.47000706,-0.26679915,0.555875,0.45839863,-0.22799842,0.54331,0.45342007,-0.20789519,0.537028,0.44795351,-0.18977983,0.531316,0.49005414,-0.26988247,0.552807,0.47986447,-0.22385746,0.537361,0.47533002,-0.19843069,0.528351,0.46960975,-0.180462,0.521916,0.50690417,-0.27562233,0.5508,0.50034573,-0.2356446,0.53583,0.49687589,-0.21561143,0.52817,0.49378802,-0.19721136,0.521207,0.52662828,-0.28723493,0.549445,0.52245499,-0.2638615,0.535796,0.52075457,-0.25272717,0.529525,0.51938137,-0.24267146,0.523992
0.49603227,-0.37113493,0.572694,0.49061743,-0.32274307,0.562203,0.47797617,-0.35354469,0.572584,0.44940623,-0.321555,0.563003,0.42319132,-0.28968714,0.547241,0.41279785,-0.26882715,0.542675,0.47054645,-0.26703962,0.553982,0.45738267,-0.22746285,0.541152,0.45226732,-0.20744082,0.534738,0.44674374,-0.18916902,0.528906,0.48895325,-0.26998783,0.550109,0.47865611,-0.22334448,0.53349,0.47657747,-0.20087124,0.523796,0.47077134,-0.1816572,0.516872,0.5042518,-0.27500631,0.547523,0.49698975,-0.2372001,0.531547,0.49533815,-0.21726147,0.523373,0.49003823,-0.19991345,0.515942,0.52305308,-0.28911037,0.54564,0.51994833,-0.26956448,0.530928,0.51835662,-0.2597384,0.524169,0.51709967,-0.25088048,0.518205
0.4880444,-0.36588858,0.563991,0.48425996,-0.31888439,0.552677,0.47253479,-0.34957335,0.566088,0.44610539,-0.3194433,0.559636,0.41810088,-0.28972277,0.546945,0.40869182,-0.26985144,0.542908,0.47384513,-0.26308123,0.546454,0.46154254,-0.22228434,0.534738,0.4552134,-0.20193707,0.52888,0.44394413,-0.18639474,0.523555,0.48864353,-0.26755791,0.539633,0.48020121,-0.21989288,0.523046,0.4736282,-0.19472864,0.51337,0.46738864,-0.17905371,0.507788,0.50064502,-0.27384054,0.53467,0.49535612,-0.22758914,0.518838,0.48520064,-0.21190167,0.510737,0.48139973,-0.1950637,0.503373,0.51489296,-0.28685415,0.530016,0.51136613,-0.25722743,0.514647,0.50944142,-0.24380403,0.507585,0.50374768,-0.23223295,0.501355
0.48773762,-0.36588218,0.563279,0.48604832,-0.31948349,0.550129,0.47330986,-0.34977026,0.566224,0.44985182,-0.32038984,0.561107,0.42179722,-0.28923544,0.546413,0.41049401,-0.26770753,0.54035,0.47287354,-0.26157352,0.543501,0.45993662,-0.22065708,0.53057,0.45337687,-0.20010812,0.524104,0.44669319,-0.18260219,0.518226,0.4861459,-0.26457497,0.534968,0.47639801,-0.2174425,0.517243,0.46952878,-0.19165247,0.506904,0.46464755,-0.17302623,0.499519,0.49699909,-0.26967871,0.528701,0.49564905,-0.22189002,0.51045,0.48272983,-0.20860836,0.501113,0.47478282,-0.19527683,0.492624,0.51016338,-0.28135726,0.522691,0.5057929,-0.25533283,0.504583,0.50278058,-0.24385744,0.496263,0.50025332,-0.2335542,0.488922
0.48623075,-0.36445551,0.560641,0.48529626,-0.31496677,0.542987,0.47174488,-0.34759246,0.56289,0.4497759,-0.31858271,0.557089,0.42007737,-0.28753796,0.542115,0.40646787,-0.26523001,0.53441,0.47133926,-0.25420888,0.532056,0.45468064,-0.21343372,0.517749,0.44594576,-0.19332127,0.510596,0.43713735,-0.17676335,0.504093,0.4831321,-0.25734757,0.522634,0.47001926,-0.21017603,0.501202,0.45978438,-0.185462,0.488699,0.45249187,-0.16758165,0.479769,0.4930635,-0.26270893,0.515894,0.49069618,-0.21650202,0.499112,0.4800381,-0.20526091,0.490526,0.46874589,-0.19439597,0.48272,0.50566689,-0.27499708,0.509844,0.49145687,-0.2510382,0.488625,0.4835467,-0.24092777,0.478875,0.4757028,-0.23259433,0.470273
0.48595981,-0.3636571,0.559026,0.4848465,-0.31325669,0.539986,0.47107969,-0.34582134,0.560261,0.45265384,-0.31551326,0.553036,0.42471557,-0.28304406,0.536928,0.40880749,-0.26195949,0.529167,0.46867707,-0.25168646,0.526776,0.45132788,-0.21021221,0.511115,0.44214115,-0.19013116,0.503284,0.43359347,-0.17198825,0.496166,0.48121786,-0.25538763,0.518035,0.46714744,-0.20778978,0.495137,0.45642022,-0.18340023,0.48178,0.44877848,-0.16577065,0.472239,0.49180578,-0.26122242,0.511934,0.48233888,-0.2144099,0.487722,0.47028888,-0.20103193,0.475335,0.45933869,-0.1886539,0.464073,0.50530707,-0.27410609,0.506819,0.49356273,-0.25206717,0.484069,0.48482575,-0.24348616,0.473617,0.47517073,-0.23769801,0.464394
0.48594,-0.36399498,0.558504,0.48344425,-0.31134732,0.536925,0.47042411,-0.34483812,0.558431,0.45066834,-0.31336115,0.549502,0.42130499,-0.28148418,0.532924,0.40500896,-0.26009262,0.525118,0.46473028,-0.24801672,0.520197,0.44696007,-0.2052031,0.501529,0.43731043,-0.18502315,0.492196,0.42846719,-0.1666645,0.48371,0.47802156,-0.25207332,0.512047,0.47141131,-0.20308768,0.490427,0.45819023,-0.18348903,0.477815,0.45088043,-0.16814998,0.468807,0.48936539,-0.25826134,0.506578,0.47646783,-0.21269758,0.479689,0.46214859,-0.20169992,0.465932,0.44911523,-0.19158069,0.453426,0.50217822,-0.27148525,0.502525,0.48688321,-0.2508845,0.478269,0.47796268,-0.24222569,0.467124,0.4691508,-0.23545081,0.45729
0.48462281,-0.36330579,0.556922,0.48265502,-0.30858171,0.532575,0.46765355,-0.34211949,0.554379,0.44445626,-0.30759484,0.542068,0.41298442,-0.27660536,0.52492,0.3986787,-0.25348286,0.514853,0.45796551,-0.24245521,0.510762,0.43783132,-0.20115396,0.487483,0.42585347,-0.1827891,0.475844,0.41494651,-0.16593442,0.465263,0.47250667,-0.2481635,0.504504,0.4664119,-0.2004284,0.482867,0.45555021,-0.18257921,0.470246,0.44782434,-0.16951172,0.46123,0.48505022,-0.25580341,0.500749,0.47042237,-0.21125922,0.472269,0.45526089,-0.20028942,0.457698,0.44138741,-0.19035305,0.444452,0.50148923,-0.27121403,0.49909,0.48168575,-0.25277331,0.473313,0.47292283,-0.24739154,0.46147,0.46429533,-0.23693031,0.451019
0.48026486,-0.3594332,0.550791,0.47773846,-0.30422181,0.526621,0.46418395,-0.33826654,0.548621,0.43941931,-0.3026177,0.536848,0.4076346,-0.27256047,0.519086,0.39261273,-0.24879887,0.50791,0.45617142,-0.23802581,0.505392,0.43574864,-0.19845397,0.483395,0.42503828,-0.17953594,0.472397,0.41529269,-0.16217377,0.462399,0.4696659,-0.24447995,0.498755,0.45316489,-0.19869964,0.470733,0.44081937,-0.17485504,0.454387,0.43319492,-0.16160285,0.44407,0.481254,-0.25270887,0.494679,0.46726904,-0.20905614,0.467035,0.45187263,-0.19775797,0.452892,0.43702584,-0.18710815,0.440035,0.49631408,-0.26877885,0.492612,0.47589385,-0.25121032,0.467313,0.4660269,-0.24334455,0.45569,0.45761832,-0.23447834,0.445434
0.47675441,-0.35623633,0.545572,0.47301681,-0.30199063,0.521309,0.46515371,-0.33429036,0.544115,0.43724452,-0.30143126,0.533447,0.40726255,-0.27144096,0.516191,0.39228119,-0.2475828,0.505796,0.45278476,-0.23674149,0.500858,0.43454436,-0.19764331,0.479371,0.42307457,-0.17865998,0.468627,0.41386798,-0.16118275,0.458861,0.46608782,-0.24269864,0.493335,0.44913453,-0.19867913,0.465546,0.43714033,-0.17505624,0.449335,0.428204,-0.15846975,0.437756,0.47671136,-0.25071853,0.488535,0.46279762,-0.20697825,0.460863,0.44690398,-0.19489394,0.446706,0.43208449,-0.18560254,0.433835,0.49059767,-0.26654627,0.485606,0.46886914,-0.24917633,0.460084,0.45829365,-0.24140469,0.448358,0.44972077,-0.23413643,0.438011
0.47019216,-0.35063204,0.536841,0.46948122,-0.29833686,0.514807,0.45843875,-0.32881618,0.535253,0.43292347,-0.29911978,0.524078,0.40407572,-0.26950215,0.509804,0.39177912,-0.24726898,0.504158,0.44911544,-0.23425287,0.495921,0.43087761,-0.19532465,0.474155,0.42160812,-0.17517327,0.463271,0.4131882,-0.15671596,0.453378,0.46343165,-0.24146005,0.489405,0.44791234,-0.19769959,0.462351,0.43710527,-0.17419677,0.44657,0.4285428,-0.15858919,0.435297,0.47536654,-0.24947725,0.485306,0.46222809,-0.20621624,0.458363,0.44726799,-0.19581588,0.444578,0.43349229,-0.18646206,0.432047,0.49303299,-0.26246752,0.482958,0.46999012,-0.25094909,0.458997,0.46038324,-0.24462225,0.448148,0.45163722,-0.23703004,0.439358
0.47365749,-0.35027856,0.536426,0.46663206,-0.29611802,0.508944,0.45874421,-0.32641833,0.532031,0.43142275,-0.297986,0.517439,0.39866496,-0.26650487,0.499815,0.38488524,-0.24259017,0.492747,0.43639327,-0.22852505,0.482505,0.41090268,-0.19006891,0.457171,0.3984391,-0.17040412,0.444504,0.38710278,-0.15244457,0.432989,0.45233087,-0.23410187,0.47726,0.431603,-0.18908473,0.446053,0.41596083,-0.16538783,0.427849,0.40935337,-0.15117529,0.417076,0.46636757,-0.2417128,0.474517,0.44760782,-0.19734264,0.443819,0.43081991,-0.18811442,0.428113,0.41554083,-0.17968379,0.413835,0.48529006,-0.2572452,0.47445,0.45981315,-0.24401105,0.447064,0.44813893,-0.23795052,0.434481,0.43681082,-0.23160634,0.423378
0.46580847,-0.34311963,0.525515,0.46177458,-0.2903481,0.500693,0.45195231,-0.3202366,0.521147,0.42308618,-0.29255997,0.506224,0.39139705,-0.26353882,0.490717,0.3803917,-0.24292953,0.486186,0.42792076,-0.22516103,0.476339,0.40645931,-0.18568897,0.451392,0.39514087,-0.16557894,0.438918,0.38485184,-0.14722783,0.427579,0.44667665,-0.2306147,0.472076,0.42662274,-0.18691897,0.442266,0.41426422,-0.16252787,0.424876,0.40394069,-0.14897151,0.412536,0.46204874,-0.23762027,0.469989,0.43988663,-0.19187392,0.440853,0.42630292,-0.18509468,0.425946,0.41208609,-0.17755183,0.412395,0.48250065,-0.25225359,0.470399,0.45834674,-0.24074529,0.444766,0.44748332,-0.23559849,0.433183,0.43848912,-0.23168097,0.423701
0.46899235,-0.34352948,0.526482,0.46076324,-0.28931301,0.499262,0.4534364,-0.32095737,0.521895,0.42344678,-0.29296823,0.506977,0.38906469,-0.2626073,0.488447,0.37495624,-0.24035861,0.480259,0.42473789,-0.22348629,0.472796,0.40296465,-0.18331598,0.447232,0.39168927,-0.16299696,0.43445,0.38143863,-0.14448796,0.422829,0.44251283,-0.22820227,0.46788,0.42136685,-0.18437158,0.436783,0.40858332,-0.15957368,0.418642,0.3977748,-0.14619799,0.405685,0.45748524,-0.23477491,0.465393,0.43472797,-0.18962377,0.435683,0.42047803,-0.18198334,0.420483,0.40622082,-0.17439664,0.406664,0.47771464,-0.24895427,0.465603,0.45241187,-0.23685786,0.438877,0.44081542,-0.23132996,0.426598,0.4304219,-0.22678911,0.415763
0.4639131,-0.33847933,0.518159,0.45433055,-0.28469816,0.490854,0.44699466,-0.31597151,0.510393,0.41033648,-0.29124385,0.491016,0.37278996,-0.26258592,0.470364,0.35503314,-0.24065299,0.460134,0.41100531,-0.22184422,0.460528,0.39317086,-0.17722424,0.43728,0.38031783,-0.16130904,0.425656,0.37106868,-0.14789265,0.415088,0.43249352,-0.22517623,0.459373,0.4082579,-0.17799826,0.427216,0.394114,-0.15266121,0.408458,0.3840138,-0.13454928,0.395059,0.45183426,-0.23097617,0.459983,0.42841991,-0.18587279,0.42917,0.41402673,-0.17641213,0.413405,0.40023494,-0.17104667,0.399073,0.47638506,-0.24577452,0.463942,0.45104365,-0.23521949,0.436784,0.43954203,-0.22980348,0.424307,0.42936603,-0.22515225,0.413297
0.46279812,-0.33659804,0.51467,0.44825491,-0.28238437,0.485094,0.4415466,-0.31308981,0.503651,0.39842638,-0.2878607,0.480267,0.36023125,-0.26082657,0.458212,0.33961081,-0.23772727,0.445305,0.40031598,-0.21552729,0.449137,0.37938391,-0.16889882,0.429717,0.37370773,-0.15935615,0.420006,0.36658411,-0.14864218,0.411179,0.4240793,-0.22012568,0.450995,0.40545105,-0.17440464,0.424598,0.39529003,-0.15203035,0.4092,0.38982871,-0.13939253,0.398201,0.4449996,-0.22696724,0.454213,0.41974784,-0.18095424,0.420591,0.40712957,-0.17148418,0.403389,0.39537811,-0.16548676,0.38775,0.47309614,-0.24163075,0.461587,0.4469918,-0.23143959,0.431877,0.43472264,-0.22627403,0.418226,0.42306845,-0.22237081,0.406182
0.45990639,-0.33410558,0.510424,0.44420709,-0.28018257,0.480554,0.43678387,-0.31098719,0.497697,0.39871181,-0.28790954,0.472244,0.36273385,-0.26234964,0.448267,0.34252966,-0.24039947,0.433877,0.39302431,-0.21381874,0.442331,0.36777197,-0.17172665,0.42229,0.35978833,-0.15959039,0.41227,0.35552526,-0.14807345,0.403161,0.41829191,-0.21800677,0.446117,0.39544414,-0.16840726,0.421384,0.39134719,-0.15171068,0.406956,0.38507192,-0.13836332,0.396651,0.44115144,-0.22512347,0.450937,0.4135076,-0.17965036,0.416653,0.4020329,-0.17039747,0.399112,0.39077519,-0.16263524,0.383166,0.47019785,-0.23867151,0.460279,0.44685739,-0.22824256,0.429766,0.43591313,-0.22185863,0.415747,0.42604852,-0.21762207,0.403377
0.45862679,-0.3319717,0.506139,0.43967715,-0.27753435,0.475426,0.43251502,-0.30843507,0.491883,0.39944126,-0.28873113,0.464714,0.36509524,-0.26540461,0.439296,0.34436866,-0.24408302,0.423375,0.3845233,-0.21369504,0.43473,0.35538713,-0.17117878,0.413837,0.34637199,-0.15960914,0.40339,0.33817512,-0.14883399,0.393893,0.41104182,-0.21651322,0.440017,0.38495304,-0.1665646,0.415327,0.3765888,-0.15146492,0.400925,0.37377328,-0.13975121,0.390638,0.43516576,-0.22185958,0.446121,0.40420593,-0.1767383,0.410808,0.39277226,-0.16769092,0.39274,0.38351549,-0.15995215,0.376316,0.46634258,-0.23461313,0.457111,0.44355713,-0.2216714,0.425675,0.43317471,-0.21646461,0.411232,0.42197017,-0.21407352,0.398488
0.45610485,-0.32692835,0.4981,0.43400711,-0.27303914,0.468214,0.42770995,-0.3064774,0.483522,0.39520627,-0.28461962,0.455932,0.36036494,-0.2617397,0.430737,0.34023645,-0.24168022,0.415996,0.37579011,-0.21169456,0.427771,0.34293933,-0.1704835,0.408325,0.33567962,-0.16009643,0.398602,0.33216697,-0.14926536,0.389762,0.40244261,-0.21234437,0.433759,0.37060029,-0.16185368,0.409739,0.36344448,-0.14697641,0.395727,0.36246084,-0.13766178,0.385719,0.42411349,-0.21309761,0.440391,0.39054741,-0.16817612,0.40547,0.38103086,-0.15872426,0.387604,0.37275998,-0.15084158,0.371362,0.45662926,-0.22185518,0.451921,0.43746299,-0.20765988,0.420802,0.42892794,-0.20184578,0.406504,0.42159301,-0.1973274,0.393888
0.45541187,-0.32543472,0.495138,0.43311016,-0.27222123,0.465911,0.42603819,-0.30545805,0.48052,0.39404091,-0.2857519,0.452849,0.3567286,-0.26659002,0.426735,0.33619333,-0.24386416,0.411726,0.37357497,-0.21065278,0.425929,0.33902579,-0.16969668,0.404969,0.33064673,-0.15954575,0.394488,0.325332,-0.15855096,0.384961,0.40040344,-0.21126791,0.432215,0.37002061,-0.16169986,0.408085,0.36299132,-0.14776736,0.394009,0.36035686,-0.13790698,0.383954,0.4229922,-0.21312673,0.439056,0.39021194,-0.16905063,0.40455,0.38057725,-0.15952958,0.386897,0.37206688,-0.15121088,0.370848,0.45575194,-0.22259568,0.45076,0.43649689,-0.20781041,0.419967,0.42789723,-0.20165354,0.405818,0.4204498,-0.19656226,0.393335
0.45244526,-0.32264457,0.490462,0.42986163,-0.26964328,0.461447,0.42358877,-0.303946,0.475916,0.39156512,-0.28428596,0.448316,0.36052513,-0.26697498,0.421421,0.33684941,-0.24669223,0.404513,0.36763523,-0.20895417,0.421715,0.33320556,-0.16963512,0.400209,0.32382537,-0.16024608,0.389457,0.31743057,-0.15495831,0.379681,0.3943331,-0.2085586,0.427996,0.3647017,-0.16481329,0.400458,0.35055693,-0.14238769,0.384394,0.34046108,-0.12613285,0.37292,0.41831127,-0.21116036,0.43482,0.38602812,-0.16681832,0.400641,0.37604908,-0.15697069,0.383154,0.36717657,-0.1482234,0.367257,0.45137319,-0.22045857,0.446479,0.43208174,-0.2047326,0.415816,0.4230829,-0.1944473,0.401728,0.41549205,-0.1906684,0.389297
0.44894684,-0.31805798,0.482492,0.42345677,-0.26454486,0.453816,0.4197502,-0.30048284,0.46801,0.39001572,-0.28274628,0.440465,0.35616122,-0.26317585,0.413472,0.33252245,-0.24406713,0.397443,0.35710508,-0.20658838,0.414421,0.31852525,-0.17147724,0.386131,0.30692312,-0.16052003,0.371986,0.29637735,-0.15045167,0.359127,0.3810564,-0.20357361,0.420756,0.34701045,-0.15706056,0.391929,0.33660162,-0.14152639,0.375114,0.3298627,-0.13121816,0.363103,0.40462415,-0.20342369,0.427604,0.37339042,-0.16173885,0.393701,0.36184891,-0.14643473,0.376356,0.35142484,-0.13240663,0.360587,0.43789659,-0.20920049,0.439252,0.42213436,-0.19133736,0.408785,0.41503108,-0.18309765,0.394786,0.4084602,-0.17986827,0.382434
0.44816873,-0.3164054,0.480197,0.4209613,-0.26334341,0.451751,0.41866236,-0.29922022,0.463963,0.38832004,-0.28145552,0.434542,0.35501075,-0.26264755,0.406809,0.33029752,-0.24449336,0.390361,0.34651542,-0.21044113,0.410441,0.30993388,-0.17621557,0.382232,0.29957977,-0.16520583,0.368127,0.29171613,-0.15195204,0.355304,0.37244497,-0.20568955,0.418954,0.33687703,-0.16035364,0.390236,0.32768309,-0.14442523,0.373483,0.32519954,-0.13220136,0.361517,0.39626003,-0.20448617,0.427581,0.3647882,-0.16299133,0.393499,0.35408448,-0.14728081,0.376062,0.347738,-0.1325798,0.36021,0.43012186,-0.20874545,0.441348,0.41668024,-0.18948164,0.410575,0.41063498,-0.18059347,0.396436,0.40791978,-0.17461037,0.38396
0.4544873,-0.31831202,0.484222,0.42189209,-0.26475049,0.453452,0.42054474,-0.3006141,0.466674,0.40343236,-0.27838119,0.436027,0.37190342,-0.25755469,0.408107,0.34972155,-0.24262169,0.395191,0.34698274,-0.22240264,0.408784,0.30477982,-0.18586578,0.384411,0.29335931,-0.17360007,0.372224,0.29230784,-0.17045487,0.361145,0.37129594,-0.21458871,0.417977,0.33117198,-0.16912733,0.391673,0.31896469,-0.14910545,0.376329,0.31575907,-0.14000804,0.365369,0.39388006,-0.21053578,0.427297,0.35311329,-0.16739459,0.39418,0.34124055,-0.15153963,0.377237,0.3328892,-0.13922224,0.361834,0.42865259,-0.20992501,0.442173,0.40920599,-0.18733832,0.40993,0.4013946,-0.17655363,0.395116,0.39454747,-0.16701082,0.382044
0.45577992,-0.31479326,0.480667,0.41924393,-0.26312476,0.450485,0.42041601,-0.29947455,0.463369,0.40352274,-0.27729212,0.432939,0.37195752,-0.25715253,0.405002,0.34973378,-0.24307762,0.392341,0.34406993,-0.22302307,0.406569,0.29993861,-0.18939025,0.382949,0.28993074,-0.17829903,0.37114,0.29055033,-0.1725508,0.360404,0.36776794,-0.21447197,0.415688,0.32377426,-0.1723665,0.391219,0.3097563,-0.1523885,0.376945,0.30616058,-0.14325652,0.36675,0.38995555,-0.20971979,0.424912,0.34521018,-0.16664121,0.39367,0.33276483,-0.15003736,0.377686,0.32555065,-0.13826421,0.363154,0.42219857,-0.20888938,0.439605,0.40122092,-0.18008774,0.407708,0.39299251,-0.1677085,0.393052,0.38614549,-0.15717908,0.380121
0.45535328,-0.31303315,0.479097,0.41889035,-0.26310987,0.45013,0.42009854,-0.29873232,0.461793,0.40560047,-0.2779882,0.431317,0.37410884,-0.25888518,0.403004,0.35059839,-0.24484105,0.388909,0.34422829,-0.22388966,0.407142,0.29914294,-0.19019051,0.382383,0.28825072,-0.17908772,0.370003,0.28641917,-0.17498022,0.358749,0.36818134,-0.21531056,0.416733,0.32311878,-0.17312457,0.391158,0.30823145,-0.15333086,0.376239,0.30375625,-0.1439221,0.365583,0.39058932,-0.21046553,0.426276,0.3454253,-0.16827267,0.393671,0.33093872,-0.15116141,0.37699,0.32175558,-0.13856024,0.361825,0.4230914,-0.20941672,0.441211,0.39646423,-0.17103706,0.410801,0.39018413,-0.15863577,0.396829,0.38719678,-0.15126161,0.384501
0.45759898,-0.30985931,0.47769,0.41749862,-0.26229381,0.448818,0.42127866,-0.29833932,0.46051,0.40485168,-0.27696412,0.430154,0.37319177,-0.25851587,0.401851,0.34966637,-0.24515734,0.38795,0.34140279,-0.22531597,0.406054,0.29260305,-0.1965558,0.382219,0.28066179,-0.18658273,0.370302,0.27788527,-0.18199566,0.359468,0.36442433,-0.21572805,0.415532,0.31373769,-0.1774407,0.390461,0.2970009,-0.15914456,0.375836,0.29126335,-0.14988264,0.36539,0.38219135,-0.20974266,0.424978,0.33512671,-0.17143543,0.393612,0.31749575,-0.15463652,0.377565,0.30548833,-0.14148743,0.362976,0.41373892,-0.20600638,0.439783,0.38564021,-0.16892933,0.409446,0.37848737,-0.15646041,0.395508,0.37508302,-0.14877343,0.383209
0.45340106,-0.28822101,0.466883,0.39472241,-0.23940916,0.440937,0.41349596,-0.27629583,0.449758,0.38435646,-0.24769962,0.432123,0.34654821,-0.218878,0.406279,0.33198063,-0.1943421,0.392643,0.30882221,-0.20429829,0.400493,0.27076256,-0.18064628,0.372368,0.27020739,-0.1740984,0.358305,0.27216922,-0.17004093,0.34552,0.33119475,-0.19431784,0.411024,0.28662653,-0.15984881,0.382735,0.28309629,-0.15085876,0.366234,0.28166779,-0.14489614,0.354447,0.35303323,-0.1879049,0.421167,0.31507864,-0.15942894,0.3876,0.30587578,-0.14818642,0.370427,0.29811686,-0.13810012,0.354815,0.38652939,-0.18417222,0.436469,0.37146501,-0.16767619,0.406949,0.36467178,-0.16005032,0.393386,0.35875713,-0.15329296,0.381419
0.4477658,-0.27681994,0.462651,0.39083206,-0.23799188,0.438591,0.41028897,-0.27384634,0.446754,0.38254236,-0.24679909,0.430904,0.34466932,-0.21852531,0.405112,0.33239643,-0.19575643,0.394842,0.30739626,-0.20636656,0.401066,0.26783474,-0.18178807,0.370488,0.267558,-0.17572336,0.355199,0.26655954,-0.1685371,0.3413,0.32565877,-0.1968225,0.410851,0.27900732,-0.16253441,0.38031,0.2777911,-0.15057857,0.362494,0.27629045,-0.1433712,0.349769,0.34553682,-0.1891896,0.420274,0.30968099,-0.16159021,0.38838,0.30455326,-0.14939234,0.372063,0.29841473,-0.13910846,0.357229,0.37643792,-0.18365903,0.434484,0.36384496,-0.16641339,0.406273,0.35821391,-0.15842001,0.393311,0.35625804,-0.15239818,0.381874
0.44845994,-0.27678245,0.464302,0.39042046,-0.23882248,0.439762,0.41063756,-0.27399115,0.447438,0.38033286,-0.24706038,0.429843,0.33818649,-0.2240232,0.404484,0.32074336,-0.20075294,0.391058,0.30421878,-0.2097384,0.400716,0.26493195,-0.18496253,0.3694,0.26557898,-0.17663655,0.353742,0.26489506,-0.16769892,0.339507,0.32433906,-0.19863095,0.411471,0.27745679,-0.16435481,0.380563,0.27412789,-0.15285336,0.362534,0.27359598,-0.14386569,0.349656,0.34425441,-0.1911155,0.421718,0.30838412,-0.16288573,0.389174,0.30067727,-0.15058296,0.372523,0.2957703,-0.13915716,0.357386,0.37204558,-0.18651325,0.43698,0.36001911,-0.16425074,0.408328,0.35462417,-0.15391531,0.395163,0.34994546,-0.144731,0.383548
0.44597217,-0.27388516,0.462339,0.38647698,-0.23806039,0.438662,0.40864723,-0.27194224,0.445393,0.38334582,-0.25073069,0.415353,0.3457543,-0.23993025,0.386501,0.33193997,-0.21982923,0.367388,0.30112351,-0.21338254,0.400182,0.26367242,-0.18808681,0.369896,0.26290422,-0.17842872,0.354754,0.26404136,-0.16922768,0.340988,0.31743164,-0.20340028,0.411365,0.27680477,-0.1731405,0.381212,0.26404144,-0.15740913,0.363623,0.25611602,-0.14633042,0.35106,0.33562896,-0.19471266,0.421915,0.30055774,-0.16591223,0.38993,0.28933836,-0.15213886,0.373565,0.27916911,-0.13947135,0.358688,0.36475801,-0.18713269,0.437441,0.35087789,-0.16210657,0.409298,0.34537643,-0.15201497,0.396367,0.34060357,-0.143039,0.384958
0.44465919,-0.27263339,0.461336,0.38539898,-0.23845044,0.438284,0.40803163,-0.27155467,0.444756,0.38313442,-0.25181406,0.415095,0.3458021,-0.24119007,0.386407,0.33210014,-0.22125403,0.367564,0.29968868,-0.21779193,0.400723,0.26483523,-0.19151542,0.370795,0.26655165,-0.18482755,0.355831,0.26608886,-0.17539363,0.342227,0.31733448,-0.20540329,0.411707,0.26467718,-0.17614929,0.382075,0.25368677,-0.16151737,0.364789,0.25544593,-0.15057018,0.352442,0.33525732,-0.19645962,0.422058,0.30077958,-0.16866906,0.390617,0.28439928,-0.15732088,0.37453,0.27106031,-0.14478037,0.359906,0.36401171,-0.18849162,0.43727,0.34635976,-0.16701383,0.409557,0.33860926,-0.15633726,0.396824,0.33182067,-0.1468257,0.385589
0.44383022,-0.27007427,0.461235,0.38173262,-0.23704931,0.436896,0.40687144,-0.26928247,0.443435,0.38339893,-0.24213284,0.412582,0.34929183,-0.23324958,0.38363,0.3324928,-0.21575137,0.365105,0.29559788,-0.2195139,0.396888,0.26247712,-0.19317329,0.366344,0.26275774,-0.18335741,0.351071,0.26283196,-0.17339825,0.337187,0.30866156,-0.20822148,0.408837,0.25495216,-0.18104182,0.378191,0.24424997,-0.16513271,0.360314,0.24764143,-0.15373317,0.347545,0.32374832,-0.19825103,0.420054,0.28957326,-0.17139985,0.387368,0.27361981,-0.15739841,0.370645,0.26408789,-0.14372858,0.355442,0.34926273,-0.18825772,0.436462,0.33242955,-0.16339054,0.407826,0.32476355,-0.15182283,0.394668,0.31804262,-0.14152932,0.383059
0.44112138,-0.26091321,0.464646,0.37522436,-0.23463418,0.439031,0.40777418,-0.26875648,0.44542,0.3816738,-0.24020393,0.413298,0.35135666,-0.22685852,0.384334,0.33987675,-0.20526608,0.366955,0.28919527,-0.22445703,0.396335,0.25981861,-0.19690583,0.364321,0.26001284,-0.1831881,0.348313,0.25916103,-0.17115679,0.333761,0.30126057,-0.21172343,0.409499,0.25340723,-0.18654026,0.377962,0.24397242,-0.16722511,0.359566,0.24532328,-0.15675462,0.346425,0.31464741,-0.20188118,0.421788,0.2709536,-0.17303221,0.388219,0.26076023,-0.15744469,0.371044,0.25151973,-0.14316073,0.355431,0.33810736,-0.19160133,0.439641,0.32197639,-0.16592108,0.410165,0.31486377,-0.15411777,0.396621,0.30868804,-0.1436613,0.384671
0.4342118,-0.25395338,0.472227,0.36554828,-0.23820726,0.444224,0.40751121,-0.26124505,0.45076,0.38002512,-0.23162939,0.417047,0.36032936,-0.21630858,0.389388,0.3494766,-0.19280701,0.374256,0.28904457,-0.23411864,0.397014,0.2596976,-0.2065102,0.362229,0.25592376,-0.18538837,0.344837,0.25516212,-0.16816445,0.329026,0.29578183,-0.22381035,0.41194,0.25029537,-0.19804424,0.379024,0.24115152,-0.17611247,0.359823,0.24436681,-0.15769835,0.346108,0.30467108,-0.2157088,0.425815,0.26706259,-0.18277777,0.39011,0.2538404,-0.16381982,0.371843,0.24321524,-0.14621096,0.355236,0.32249771,-0.20690457,0.445864,0.30639222,-0.17104481,0.415213,0.2989806,-0.15461046,0.40113,0.2924341,-0.14013453,0.388704
0.43019646,-0.25264916,0.471471,0.36383008,-0.23947982,0.443477,0.40439359,-0.25878295,0.448966,0.37507793,-0.22479232,0.414936,0.35419453,-0.20541759,0.387644,0.33998045,-0.18245452,0.373228,0.28856448,-0.23501268,0.395035,0.258888,-0.20501867,0.36027,0.25489407,-0.18267894,0.342887,0.25225647,-0.16263519,0.327085,0.29416698,-0.22973049,0.411203,0.24941143,-0.20000077,0.378923,0.23986427,-0.17645808,0.360093,0.24334009,-0.15789864,0.346643,0.30124369,-0.2240091,0.426099,0.2626248,-0.18762169,0.390802,0.24684323,-0.16693926,0.372744,0.23277098,-0.14803839,0.356327,0.31669955,-0.21793577,0.447378,0.2984703,-0.1777146,0.417185,0.29007284,-0.1594147,0.403313,0.28264957,-0.14337291,0.391072
0.42556455,-0.25146874,0.475682,0.36391488,-0.24133222,0.446172,0.40349023,-0.25735811,0.452906,0.37662101,-0.22482993,0.418877,0.35703345,-0.20552414,0.3919,0.34271021,-0.18278021,0.377663,0.29100054,-0.23913283,0.396237,0.26035567,-0.2061127,0.360763,0.25528024,-0.18301869,0.343026,0.25190281,-0.16261482,0.326902,0.2940293,-0.23210359,0.41215,0.24875811,-0.20480184,0.378849,0.23815215,-0.17891192,0.359423,0.23966415,-0.15940887,0.345548,0.29769921,-0.22878483,0.426923,0.25960525,-0.19286005,0.39059,0.24382684,-0.17205787,0.372,0.23085859,-0.15028977,0.355101,0.30977371,-0.22306713,0.448234,0.29072456,-0.18204137,0.417385,0.28195169,-0.16342314,0.403211,0.27419856,-0.14713066,0.390704
0.42483551,-0.25158922,0.477692,0.36236814,-0.24333029,0.447845,0.40395031,-0.25723528,0.454943,0.37467929,-0.2227941,0.420919,0.35559444,-0.20339221,0.39428,0.34024814,-0.18122217,0.380344,0.29281708,-0.24081289,0.397683,0.26308821,-0.20759766,0.362033,0.25687867,-0.18288538,0.344208,0.25276092,-0.16244384,0.328004,0.29430902,-0.2357803,0.413435,0.24993322,-0.20934687,0.379835,0.23884773,-0.18269119,0.360235,0.23952572,-0.16041798,0.346235,0.29810775,-0.23094558,0.428095,0.25660028,-0.19826741,0.391537,0.23901109,-0.17797125,0.372833,0.22327708,-0.15939568,0.355829,0.30931396,-0.22557389,0.449309,0.28953256,-0.18395421,0.418255,0.28042777,-0.16509367,0.403987,0.27238506,-0.14860522,0.391398
0.42469609,-0.25202652,0.479594,0.36271408,-0.24425276,0.449681,0.40432677,-0.25730793,0.456733,0.37237928,-0.22230517,0.422745,0.34787513,-0.20357299,0.395552,0.3335109,-0.18136173,0.381031,0.29377361,-0.24188316,0.399333,0.26326839,-0.20810258,0.363705,0.25798651,-0.18355154,0.345891,0.25386693,-0.16274544,0.329696,0.29485608,-0.23685999,0.415194,0.25020957,-0.21020778,0.381666,0.23885387,-0.18326378,0.362108,0.2385233,-0.16145227,0.348138,0.29857636,-0.23230636,0.429947,0.25640761,-0.19866799,0.393427,0.23858887,-0.17818728,0.374742,0.22265263,-0.15945486,0.357756,0.30860989,-0.22861106,0.451281,0.28790756,-0.1862943,0.420302,0.27839067,-0.16715076,0.406069,0.27203073,-0.1496913,0.39351
0.42410089,-0.25243778,0.480372,0.36185849,-0.24559961,0.451525,0.40390712,-0.25716871,0.457342,0.37194358,-0.22231998,0.423405,0.34806792,-0.20282642,0.396396,0.33293466,-0.18080847,0.382308,0.2951011,-0.24350703,0.401798,0.26341932,-0.20873668,0.366797,0.2581014,-0.18413589,0.349297,0.25275855,-0.16043662,0.333387,0.29633334,-0.23900517,0.418267,0.24969164,-0.21230573,0.385811,0.23761345,-0.18471233,0.366878,0.23637108,-0.16351305,0.353355,0.29967584,-0.23584462,0.43346,0.25695443,-0.20124448,0.398465,0.23894082,-0.18059007,0.380561,0.22282249,-0.16168598,0.364284,0.31074246,-0.23177859,0.455198,0.28871388,-0.18962685,0.424983,0.27892029,-0.17029008,0.4111,0.27191294,-0.15316494,0.398851
0.4249518,-0.25337326,0.482448,0.36447972,-0.2479576,0.455243,0.40497636,-0.25774779,0.459359,0.37333916,-0.22269979,0.425513,0.35047565,-0.20281827,0.39913,0.33330573,-0.18070571,0.385973,0.29777305,-0.24714553,0.406713,0.26564178,-0.21289654,0.372639,0.25501041,-0.18966729,0.355602,0.2469468,-0.16735326,0.340113,0.29873617,-0.24433916,0.423879,0.25304569,-0.21767405,0.392912,0.2403145,-0.18987944,0.374848,0.24061506,-0.16821676,0.361945,0.30284077,-0.24189219,0.439551,0.25990551,-0.2070401,0.405403,0.24123636,-0.18626097,0.387932,0.22452261,-0.167241,0.372049,0.31425059,-0.23921647,0.461673,0.2918381,-0.19619254,0.432504,0.28156877,-0.1767337,0.419102,0.27252338,-0.15974158,0.407276
0.42963007,-0.25635743,0.484452,0.36721992,-0.25451163,0.460598,0.40627082,-0.25966567,0.461353,0.37568763,-0.22415872,0.428028,0.35041024,-0.20818639,0.401104,0.33408189,-0.18469758,0.387725,0.29216967,-0.25979268,0.41464,0.27348522,-0.21368032,0.382683,0.26717473,-0.18992686,0.366704,0.26609827,-0.16914507,0.352179,0.29918337,-0.25535934,0.433096,0.25505774,-0.22441023,0.40535,0.24159723,-0.19877245,0.389166,0.23955983,-0.17901137,0.377605,0.30918303,-0.250274,0.449637,0.26745271,-0.21293637,0.42153,0.24663706,-0.19312549,0.407149,0.22773243,-0.17513552,0.394076,0.32383795,-0.24698402,0.472414,0.29752796,-0.2050734,0.445598,0.2812904,-0.18742307,0.433277,0.26903503,-0.17107643,0.422406
0.43263587,-0.25936391,0.488359,0.37084383,-0.26363625,0.465544,0.40915509,-0.26262382,0.465206,0.37537526,-0.22575147,0.432271,0.34705816,-0.20543135,0.408364,0.33202381,-0.18291979,0.398165,0.29767311,-0.26381695,0.420322,0.27612696,-0.21888172,0.38921,0.2644995,-0.19732981,0.373653,0.26096379,-0.1756397,0.359512,0.3042909,-0.26027589,0.439239,0.26028646,-0.23031904,0.412729,0.24376306,-0.20768648,0.397264,0.24169128,-0.18534741,0.386218,0.31290913,-0.25733879,0.4561,0.27086581,-0.21853507,0.427085,0.24924244,-0.20178873,0.41224,0.23008537,-0.18068167,0.398745,0.32951464,-0.25669896,0.479141,0.29798405,-0.21456684,0.453296,0.28368007,-0.19558455,0.441422,0.27278854,-0.17682845,0.430944
0.43046835,-0.25973986,0.488861,0.37099515,-0.26402446,0.465815,0.40810035,-0.26284477,0.465725,0.375155,-0.22682011,0.43268,0.34713086,-0.20635211,0.407626,0.33459981,-0.18397929,0.396309,0.29827928,-0.26388409,0.420435,0.27543811,-0.21919544,0.389115,0.26444404,-0.19700463,0.373456,0.2608495,-0.17526862,0.35922,0.30459332,-0.26052291,0.439244,0.26030701,-0.23059064,0.412435,0.24443677,-0.20570637,0.396797,0.24025121,-0.18563673,0.385626,0.31295717,-0.25775405,0.45603,0.27066702,-0.21912684,0.42683,0.24918497,-0.1993645,0.41189,0.2297123,-0.18143115,0.398309,0.32975024,-0.25448337,0.479006,0.29771751,-0.21403056,0.452921,0.28334575,-0.19500526,0.440936,0.27185601,-0.17708477,0.430361
0.43093768,-0.26216556,0.490893,0.37281809,-0.26627899,0.467914,0.40923961,-0.26775322,0.467881,0.37600249,-0.2322378,0.434686,0.35047921,-0.2110453,0.41025,0.33462212,-0.18670954,0.399512,0.30036714,-0.26599067,0.422735,0.27649597,-0.22414708,0.391306,0.26523911,-0.20615812,0.375591,0.26372034,-0.18429359,0.361305,0.30652947,-0.26242031,0.441422,0.26187949,-0.2329116,0.414439,0.24430862,-0.20849846,0.398698,0.23838753,-0.18860319,0.387455,0.31476715,-0.25949811,0.458104,0.27197393,-0.22291584,0.42988,0.2500983,-0.20367816,0.41544,0.23026278,-0.18621369,0.402313,0.33127405,-0.25746865,0.480947,0.29835773,-0.21506579,0.454678,0.28346043,-0.19601582,0.442609,0.27044203,-0.17944843,0.43196
0.43252837,-0.26510149,0.49385,0.37472118,-0.26916766,0.470292,0.41045241,-0.27256536,0.470795,0.37832952,-0.23459595,0.437494,0.35178189,-0.2160448,0.412105,0.33536472,-0.19421828,0.40039,0.30199453,-0.26750435,0.424615,0.27786911,-0.2257823,0.392818,0.26616544,-0.2067912,0.37692,0.26458997,-0.18482803,0.362468,0.30799089,-0.26376709,0.443132,0.26262322,-0.23361077,0.415617,0.24470899,-0.20910144,0.399566,0.23841588,-0.18925448,0.388101,0.31636936,-0.26158456,0.459708,0.27286042,-0.22402139,0.431425,0.25073765,-0.2048178,0.416955,0.23068156,-0.18739295,0.4038,0.33261685,-0.25843929,0.48249,0.29883587,-0.21595377,0.455832,0.28356345,-0.1968884,0.443584,0.2702264,-0.18031979,0.432777
0.43629819,-0.27525136,0.496486,0.3765668,-0.27361227,0.47202,0.41197472,-0.27756639,0.473358,0.37916897,-0.24416314,0.439926,0.35318418,-0.22058801,0.414936,0.33755888,-0.19666194,0.403529,0.30365305,-0.26909983,0.425555,0.27856589,-0.22877405,0.393211,0.26601382,-0.20799282,0.377038,0.26434968,-0.18587948,0.362336,0.30925206,-0.26545596,0.443812,0.26268607,-0.23432517,0.415496,0.2442827,-0.20970595,0.398978,0.23753421,-0.18980841,0.38718,0.31706758,-0.26260689,0.460225,0.27351392,-0.22612215,0.432623,0.25065459,-0.20803014,0.4185,0.23158758,-0.1894197,0.405662,0.33325984,-0.25953963,0.482919,0.29936557,-0.22512584,0.459007,0.28331194,-0.20792903,0.44802,0.26923369,-0.19287038,0.438326
0.43718678,-0.277468,0.497648,0.37757217,-0.27505786,0.47299,0.41295034,-0.27946367,0.474486,0.38085061,-0.24112328,0.441054,0.35340262,-0.22239827,0.415532,0.33615219,-0.20054238,0.403589,0.30463659,-0.26970338,0.426337,0.27894376,-0.22945025,0.393902,0.26626512,-0.2086379,0.377684,0.26460219,-0.18645699,0.362941,0.31019963,-0.26611519,0.444561,0.26340933,-0.2350965,0.416114,0.24466671,-0.21058629,0.39952,0.23758546,-0.19070403,0.387667,0.31799148,-0.26336036,0.460958,0.27415168,-0.22701479,0.433157,0.25136817,-0.2089694,0.418934,0.23187306,-0.19038984,0.406004,0.33447518,-0.26092155,0.483655,0.30048814,-0.22524564,0.458989,0.2844905,-0.20793705,0.447657,0.27045812,-0.19277918,0.437657
0.43928355,-0.28004932,0.499942,0.37975193,-0.27697504,0.475007,0.4151901,-0.28185694,0.476778,0.38318998,-0.24577251,0.443293,0.35834804,-0.23064034,0.417063,0.33808414,-0.2065713,0.404364,0.30744415,-0.2719293,0.428137,0.2807928,-0.23079261,0.395521,0.26805046,-0.20989101,0.379212,0.26635324,-0.18758714,0.364387,0.31289995,-0.26824901,0.446259,0.26665081,-0.2386406,0.417541,0.24621604,-0.21506638,0.400788,0.23735879,-0.19364701,0.388822,0.32060126,-0.26551041,0.462588,0.27585205,-0.23173775,0.434702,0.25223527,-0.21467436,0.420435,0.231812,-0.1973273,0.407465,0.33753139,-0.26463171,0.485235,0.30211146,-0.22607221,0.459711,0.28599455,-0.20857513,0.447983,0.27186368,-0.19326149,0.437636
0.44006478,-0.28183771,0.500993,0.38058738,-0.27887691,0.475683,0.41601174,-0.28440807,0.477842,0.38357219,-0.24707142,0.444274,0.35606279,-0.23195619,0.417305,0.33680594,-0.21020291,0.403754,0.30812673,-0.27237571,0.42854,0.28089993,-0.23203871,0.395665,0.2678863,-0.21199435,0.379227,0.26600547,-0.18825945,0.364284,0.31339402,-0.26867633,0.446503,0.26699664,-0.23873327,0.417393,0.24588036,-0.21544531,0.400413,0.2359405,-0.19626414,0.388284,0.32095139,-0.26596519,0.462722,0.27615971,-0.23190279,0.434643,0.25305445,-0.21381666,0.420277,0.23203634,-0.19593725,0.407217,0.33758352,-0.26503146,0.485282,0.3022799,-0.22627951,0.459489,0.28621666,-0.2086982,0.447638,0.27213287,-0.1933123,0.437182
0.44143552,-0.28869589,0.503345,0.38201597,-0.28162122,0.477059,0.41793348,-0.28964283,0.480177,0.38403436,-0.25263753,0.446486,0.3576466,-0.23404037,0.419874,0.33843787,-0.21030155,0.406612,0.31004256,-0.27367598,0.429142,0.28223063,-0.23353832,0.395676,0.27168829,-0.21234491,0.378943,0.26749275,-0.19034044,0.363732,0.31493045,-0.26981806,0.446753,0.26704097,-0.23866465,0.416746,0.24529129,-0.21547846,0.399241,0.23468184,-0.1964472,0.386738,0.3213245,-0.26618095,0.462739,0.2761216,-0.23192502,0.434165,0.2529446,-0.21373859,0.419545,0.2320502,-0.19714368,0.406255,0.33703134,-0.26353081,0.485132,0.30201286,-0.2263563,0.458919,0.28575601,-0.20887672,0.446876,0.27149997,-0.19357612,0.436249
0.44196487,-0.29040429,0.504165,0.38243151,-0.28252785,0.477538,0.41847509,-0.29123778,0.480963,0.38386189,-0.25589688,0.447269,0.3554006,-0.23578916,0.42,0.33527392,-0.21398226,0.405967,0.30938437,-0.27348417,0.429318,0.2822892,-0.23325903,0.395683,0.27211586,-0.21252977,0.378866,0.26943907,-0.19030514,0.363577,0.31433233,-0.2692903,0.446839,0.26732472,-0.23859465,0.416574,0.24563326,-0.21535664,0.39892,0.23536841,-0.19457853,0.38631,0.32166563,-0.26628406,0.46277,0.27595773,-0.23209955,0.433934,0.25261005,-0.21397493,0.419181,0.23157322,-0.19743415,0.405769,0.33765613,-0.26413075,0.485137,0.30208124,-0.22598574,0.458358,0.28645564,-0.20867593,0.446054,0.27137864,-0.19301066,0.435198
0.44215731,-0.29176093,0.504593,0.38259528,-0.28323702,0.477726,0.41873159,-0.29487038,0.48142,0.38400908,-0.25672995,0.447672,0.35525746,-0.23650103,0.420153,0.33474611,-0.21482257,0.405787,0.31054763,-0.27428073,0.429357,0.28378793,-0.23400367,0.395551,0.27237148,-0.21263461,0.378648,0.27131825,-0.19103544,0.363282,0.31536934,-0.27002557,0.446751,0.26803049,-0.23859468,0.416218,0.2461333,-0.21551829,0.398407,0.23534245,-0.19608616,0.385685,0.322584,-0.26706437,0.462592,0.27595506,-0.23223811,0.433685,0.25273545,-0.21406177,0.418896,0.23259179,-0.19667168,0.405451,0.33809314,-0.2646565,0.484878,0.30296718,-0.22613698,0.458278,0.28681296,-0.20860067,0.446056,0.27188062,-0.19299784,0.435272
0.44261058,-0.29305417,0.505323,0.38301664,-0.28398431,0.478271,0.41919098,-0.29600266,0.482154,0.38395028,-0.25754696,0.448387,0.3534569,-0.23859029,0.420495,0.33278216,-0.21614328,0.405636,0.31096337,-0.27469962,0.429763,0.28427029,-0.23423617,0.395847,0.27279479,-0.21288447,0.378889,0.27180983,-0.19135252,0.363472,0.31575642,-0.27031233,0.447083,0.26834334,-0.23873332,0.416378,0.24655592,-0.21555941,0.398466,0.23583052,-0.1961497,0.385672,0.32294967,-0.26726502,0.462873,0.27610923,-0.23244413,0.433699,0.25292268,-0.21417524,0.418772,0.23304123,-0.19666073,0.405203,0.33843801,-0.26480147,0.48512,0.30330211,-0.22618139,0.458416,0.28715581,-0.20860729,0.446147,0.27228527,-0.1930091,0.435321
0.44341582,-0.29579661,0.50679,0.38379741,-0.28490006,0.479459,0.4200148,-0.29738824,0.483559,0.38455124,-0.2586683,0.449838,0.35520991,-0.23871649,0.422427,0.33505882,-0.21635208,0.408147,0.31112472,-0.27493077,0.430662,0.28398473,-0.23411842,0.396654,0.2734839,-0.21327608,0.379649,0.27262062,-0.19187509,0.364191,0.31598905,-0.27038318,0.447949,0.26844652,-0.23882239,0.417105,0.24697074,-0.2153903,0.399112,0.23766867,-0.19476202,0.38626,0.32325777,-0.26720136,0.463728,0.27652518,-0.23249397,0.434067,0.25361209,-0.21374436,0.418892,0.2341294,-0.19586963,0.405096,0.33887307,-0.26456767,0.485995,0.30382465,-0.22596838,0.45868,0.28839577,-0.2079901,0.44613,0.27374439,-0.19231873,0.435056
0.44317697,-0.29771581,0.506987,0.38401608,-0.28528793,0.479851,0.41994902,-0.29794709,0.483807,0.38440233,-0.25893591,0.450044,0.35503564,-0.23860401,0.422634,0.33493853,-0.21618185,0.408368,0.3119809,-0.27546739,0.431265,0.28433243,-0.23465222,0.397311,0.27216285,-0.21392459,0.380335,0.27043809,-0.19185204,0.364901,0.31689609,-0.27085236,0.448566,0.2688843,-0.23921915,0.417803,0.24738309,-0.21590178,0.399859,0.23711726,-0.19688658,0.387041,0.32418361,-0.26764872,0.464345,0.27702518,-0.23256795,0.434504,0.25445028,-0.2134511,0.419237,0.23551578,-0.19602165,0.405358,0.3397769,-0.26506979,0.486589,0.30484708,-0.22576105,0.459376,0.28966613,-0.20776747,0.446872,0.27473579,-0.19235442,0.43584
0.44341519,-0.29921913,0.50781,0.38455434,-0.28609941,0.480627,0.42025891,-0.29934742,0.484669,0.38477114,-0.25933272,0.450866,0.3553811,-0.23902846,0.423458,0.33528736,-0.21658739,0.40918,0.31275406,-0.27567856,0.432051,0.28498568,-0.23511522,0.398033,0.27235637,-0.21418907,0.381024,0.27119964,-0.19256649,0.365561,0.31768811,-0.27089116,0.449287,0.26962476,-0.23934967,0.418418,0.24792052,-0.21622885,0.400411,0.23743559,-0.19735229,0.387549,0.32498124,-0.26758218,0.465015,0.27826754,-0.23157167,0.43528,0.25588182,-0.21238726,0.420066,0.23753471,-0.19519472,0.406236,0.34073782,-0.26470809,0.487204,0.30705084,-0.22404125,0.460151,0.29219135,-0.20544391,0.447722,0.27667736,-0.19192158,0.436755
0.44582291,-0.30197905,0.510845,0.3871558,-0.28842379,0.483884,0.42259833,-0.30218094,0.487779,0.38592789,-0.26173184,0.453937,0.35566527,-0.24125119,0.426169,0.33563242,-0.21905537,0.41146,0.31438152,-0.27627198,0.435569,0.28715125,-0.23705304,0.401617,0.27281841,-0.21657334,0.384641,0.2740252,-0.19510359,0.369208,0.32016861,-0.27074965,0.452801,0.27164982,-0.2397848,0.42202,0.2503722,-0.21696972,0.404064,0.23989292,-0.19940641,0.391239,0.32805483,-0.26766123,0.468513,0.28077024,-0.23220831,0.437925,0.25824021,-0.21316688,0.422275,0.23998794,-0.19561158,0.408047,0.34426508,-0.26470462,0.490656,0.31025695,-0.22431893,0.463147,0.29471369,-0.20634098,0.450507,0.27940348,-0.19227131,0.439354
0.44630572,-0.30334676,0.51184,0.38789238,-0.28931973,0.48508,0.42296311,-0.30356435,0.48884,0.38681705,-0.26221423,0.454976,0.35633849,-0.24206051,0.427125,0.33612084,-0.21975401,0.412317,0.31529347,-0.27674602,0.436999,0.28695215,-0.23773307,0.403117,0.27291747,-0.21781883,0.386176,0.27489669,-0.19634315,0.370775,0.32123629,-0.27115278,0.454229,0.27249692,-0.24025652,0.423539,0.25123641,-0.21742158,0.405637,0.24107101,-0.19997484,0.392849,0.32932557,-0.26727624,0.469928,0.28188991,-0.23246181,0.439332,0.259931,-0.21286286,0.423678,0.2410737,-0.19572909,0.409448,0.3458076,-0.26419846,0.492031,0.31188661,-0.22477253,0.464968,0.2964613,-0.20685351,0.452533,0.28294275,-0.1911541,0.441562
0.44790205,-0.30557891,0.514074,0.38973977,-0.29095073,0.488064,0.42433885,-0.30580219,0.49112,0.3884916,-0.26375793,0.457311,0.35764636,-0.2441065,0.429438,0.33706767,-0.2211674,0.414673,0.31713152,-0.27823161,0.440616,0.28781194,-0.23912361,0.40715,0.27466458,-0.21938077,0.390417,0.27786995,-0.19882599,0.375205,0.32382369,-0.27259702,0.458078,0.2748036,-0.24091913,0.428017,0.25394703,-0.21804708,0.410482,0.24482325,-0.20087821,0.397956,0.33252458,-0.26869211,0.473924,0.28758968,-0.23225493,0.444918,0.2694424,-0.21004397,0.430078,0.25016157,-0.19339421,0.416587,0.34973889,-0.26560422,0.496117,0.31711369,-0.22526879,0.469463,0.30196915,-0.2073106,0.457216,0.28680442,-0.19278762,0.44641
0.44838213,-0.30652954,0.514859,0.39052073,-0.29150038,0.489148,0.42458134,-0.30666784,0.491959,0.38912586,-0.26440807,0.458163,0.35839803,-0.24443186,0.430257,0.33765481,-0.22187907,0.415467,0.31779925,-0.27855697,0.441994,0.28877297,-0.23952024,0.408677,0.27578209,-0.2197809,0.392018,0.27893821,-0.19961439,0.376874,0.3247414,-0.27287396,0.459505,0.27592083,-0.24106926,0.429656,0.25525842,-0.21813806,0.412244,0.24648154,-0.20049944,0.399807,0.33364272,-0.26894323,0.475375,0.28976912,-0.23118893,0.446367,0.27076608,-0.20994875,0.431526,0.2548407,-0.19080213,0.418034,0.35170908,-0.26509271,0.497561,0.31911519,-0.22577149,0.471657,0.30686293,-0.2065716,0.459755,0.29587592,-0.19052136,0.449253
0.44963895,-0.30816032,0.516611,0.39162952,-0.29245469,0.490812,0.42558987,-0.30823935,0.493731,0.39035097,-0.26614261,0.459917,0.35903556,-0.24666047,0.431919,0.33860154,-0.22284957,0.416992,0.31844522,-0.27887811,0.443615,0.28984232,-0.24049126,0.410233,0.2769179,-0.22070217,0.393543,0.27887884,-0.20063429,0.378369,0.32581457,-0.2730594,0.461068,0.27698491,-0.24173518,0.431113,0.25638692,-0.21867772,0.413639,0.24726779,-0.20153545,0.401158,0.33508049,-0.26906806,0.476896,0.29040216,-0.232346,0.44739,0.27166641,-0.21059612,0.432295,0.25567569,-0.19130242,0.418571,0.35298311,-0.26600493,0.499041,0.32025587,-0.22628612,0.47264,0.30826643,-0.20722902,0.46051,0.29778926,-0.19098483,0.449807
0.45151005,-0.31004901,0.518977,0.39387566,-0.29420734,0.493689,0.42710377,-0.31011028,0.496179,0.39165831,-0.26881491,0.462404,0.3601428,-0.24874652,0.434177,0.33933681,-0.22550465,0.418949,0.31966348,-0.27998544,0.446984,0.29111754,-0.24196547,0.413875,0.27869023,-0.22222497,0.39732,0.27931055,-0.20283526,0.382271,0.32791125,-0.27399725,0.464535,0.27962699,-0.24198856,0.434966,0.25949544,-0.21882877,0.417718,0.25047359,-0.20172338,0.405398,0.3378918,-0.26992101,0.480414,0.29435587,-0.23162973,0.45041,0.27400175,-0.21122746,0.43506,0.2579127,-0.19177721,0.421105,0.35663815,-0.26687726,0.50256,0.32417837,-0.22640421,0.475423,0.31250328,-0.20735695,0.462955,0.30313341,-0.19081535,0.451954
0.45367501,-0.31198503,0.521859,0.39655593,-0.29583019,0.497385,0.42904252,-0.31230122,0.499459,0.3939896,-0.27138659,0.465754,0.3622365,-0.2506333,0.437405,0.34241961,-0.22598427,0.421991,0.320334,-0.27966852,0.451782,0.29067831,-0.2440565,0.419044,0.28156168,-0.22518488,0.402676,0.28293271,-0.20605939,0.387795,0.33035201,-0.27271313,0.469168,0.28348573,-0.24003656,0.439989,0.26445816,-0.21730691,0.422969,0.25534975,-0.20216833,0.410811,0.3417848,-0.26788432,0.484865,0.29889993,-0.22942842,0.454681,0.27890241,-0.20910364,0.439239,0.2617117,-0.19195751,0.4252,0.3627748,-0.26081892,0.506695,0.33221882,-0.22112556,0.479646,0.31929385,-0.20543436,0.467218,0.31032566,-0.18923643,0.456251
0.45246614,-0.31217929,0.520467,0.39751641,-0.29679284,0.49886,0.42741995,-0.31239087,0.49842,0.39262029,-0.27275742,0.46523,0.36168387,-0.25031491,0.437217,0.34242575,-0.22663885,0.42239,0.32022642,-0.27907307,0.45589,0.28919721,-0.24116497,0.424928,0.27783182,-0.22203246,0.409447,0.28349002,-0.2086916,0.395373,0.33260035,-0.27239363,0.473949,0.28338211,-0.23832906,0.447274,0.26276938,-0.21553357,0.431714,0.25400117,-0.19817544,0.420599,0.34581195,-0.2697116,0.490036,0.30411298,-0.22859405,0.461207,0.28467103,-0.20797078,0.446458,0.26943678,-0.18863069,0.43305,0.36852265,-0.26440209,0.511998,0.33864631,-0.22381876,0.485818,0.32737223,-0.20528975,0.47379,0.31887004,-0.18910029,0.463177
0.45154987,-0.3141313,0.519416,0.39794136,-0.29771892,0.499833,0.42270517,-0.31638535,0.497595,0.38986857,-0.28027035,0.464872,0.36283494,-0.25096443,0.438363,0.34232856,-0.22697422,0.422293,0.31430045,-0.27503202,0.458694,0.29273651,-0.24093345,0.429072,0.28208176,-0.22228927,0.41426,0.28632722,-0.20672946,0.400796,0.33412777,-0.27283997,0.477256,0.28712054,-0.23442644,0.452457,0.26926788,-0.21115217,0.43799,0.26257275,-0.19419223,0.427657,0.34920546,-0.26889521,0.493641,0.30787044,-0.22848581,0.467639,0.29073749,-0.20713588,0.454336,0.27635834,-0.18742405,0.442243,0.37910796,-0.26660427,0.515724,0.35206326,-0.2236584,0.490939,0.33972717,-0.20423204,0.479552,0.32717902,-0.18908336,0.469504
0.45258524,-0.31610993,0.520516,0.40017912,-0.30003484,0.503094,0.42365931,-0.31942654,0.500196,0.38745339,-0.28709745,0.468397,0.36162243,-0.25485024,0.441512,0.34540464,-0.2293065,0.425851,0.31524403,-0.28129256,0.465412,0.2910516,-0.24531905,0.437231,0.2789301,-0.22723944,0.42314,0.28360318,-0.21911254,0.410331,0.33513008,-0.27401943,0.483008,0.29427978,-0.23718684,0.459479,0.27589049,-0.21452009,0.445754,0.26640781,-0.20066966,0.43595,0.35379401,-0.27034784,0.498474,0.31321191,-0.22886817,0.473984,0.29720358,-0.20753243,0.461454,0.28228924,-0.18969515,0.450063,0.38333946,-0.26691922,0.519194,0.35639253,-0.22518606,0.495384,0.34422258,-0.20625187,0.484444,0.33205949,-0.19078528,0.474792
0.45089311,-0.32782035,0.51955,0.40015939,-0.30205065,0.504225,0.4159965,-0.32813876,0.500256,0.3840877,-0.29331924,0.469432,0.35976539,-0.25893874,0.442473,0.3533732,-0.23347482,0.429148,0.31736744,-0.28125388,0.469385,0.29463619,-0.24659474,0.44277,0.28323065,-0.22910644,0.429463,0.28808589,-0.22254538,0.417365,0.33856368,-0.27412123,0.486557,0.30527895,-0.23398453,0.464699,0.28613142,-0.21153741,0.451949,0.27322863,-0.19960779,0.442841,0.35910139,-0.26935588,0.501555,0.32744092,-0.22659455,0.480643,0.31310362,-0.20595988,0.469944,0.30077514,-0.18724222,0.460217,0.39394105,-0.2658005,0.521462,0.37022707,-0.22532754,0.498974,0.35961027,-0.20692844,0.488642,0.3502469,-0.19071593,0.479525
0.45041558,-0.32468485,0.519526,0.40054958,-0.30232526,0.50536,0.41455853,-0.32864403,0.500587,0.3830226,-0.29216662,0.47022,0.35894803,-0.25869189,0.443288,0.34837748,-0.23117891,0.428325,0.31787419,-0.27841267,0.471838,0.29515034,-0.24041037,0.446078,0.28404824,-0.22220183,0.433199,0.28781466,-0.21693208,0.42149,0.34077666,-0.27188519,0.489029,0.30712187,-0.2339281,0.46821,0.28839739,-0.21158997,0.456065,0.27796549,-0.19608015,0.44739,0.36263896,-0.26774964,0.503977,0.32798798,-0.22557519,0.48188,0.31432446,-0.20489484,0.470575,0.30318134,-0.18639837,0.460297,0.39525978,-0.26565904,0.523687,0.37236837,-0.22545913,0.502007,0.36210881,-0.20713858,0.492047,0.35305657,-0.19097502,0.483258
0.44946634,-0.32993033,0.519266,0.40044975,-0.30362584,0.506599,0.41392243,-0.32904399,0.500727,0.3831263,-0.29182612,0.470939,0.35792512,-0.25726796,0.444135,0.34985215,-0.23206801,0.429801,0.3204312,-0.27890296,0.474709,0.2984712,-0.2411321,0.450061,0.28744096,-0.22284242,0.437737,0.29109402,-0.2176761,0.426533,0.34383067,-0.27270697,0.491995,0.31101525,-0.23328411,0.472557,0.29406583,-0.20956223,0.461218,0.28229148,-0.19694212,0.453119,0.36603614,-0.26883764,0.506935,0.33279057,-0.22569314,0.486328,0.32050039,-0.20524941,0.475785,0.31111371,-0.18716436,0.466201,0.39892421,-0.26705448,0.526458,0.37672924,-0.22698179,0.505854,0.36677365,-0.20869204,0.496387,0.35798801,-0.19254408,0.488034
0.45057235,-0.33234421,0.52177,0.4026717,-0.30515311,0.509976,0.41547627,-0.3315338,0.504667,0.38282518,-0.29349422,0.476022,0.35308425,-0.25880124,0.44821,0.35174527,-0.23343215,0.433402,0.32420064,-0.27162205,0.480471,0.3032342,-0.23772412,0.456788,0.29264061,-0.22267687,0.444946,0.29593618,-0.2203668,0.434181,0.34956528,-0.26584856,0.496377,0.31835983,-0.227604,0.477383,0.30099219,-0.20522106,0.466303,0.28915819,-0.19305864,0.458388,0.37324662,-0.26257301,0.510133,0.34212893,-0.21984843,0.489625,0.33052263,-0.19990369,0.479132,0.31825272,-0.18517844,0.469594,0.4075606,-0.26203579,0.528125,0.38797032,-0.22280199,0.508015,0.38002941,-0.205638,0.498776,0.3735412,-0.19090493,0.490623
0.45018012,-0.33359462,0.522551,0.40424345,-0.30643456,0.512418,0.41167449,-0.33297025,0.506173,0.37584146,-0.28977956,0.47842,0.34679228,-0.25383854,0.450832,0.34219071,-0.22841763,0.43518,0.32803031,-0.26736601,0.485061,0.3074098,-0.23844554,0.462731,0.29720085,-0.22198375,0.451565,0.30037803,-0.22120271,0.441415,0.3540973,-0.26576333,0.500736,0.32627277,-0.22619592,0.483238,0.30712447,-0.20605821,0.473032,0.29731773,-0.19099998,0.465741,0.37855459,-0.26314744,0.514205,0.3517442,-0.21945801,0.494504,0.33953158,-0.19934576,0.484424,0.32756564,-0.18324182,0.47526,0.41687964,-0.26310247,0.531656,0.39349773,-0.22156655,0.512761,0.38500471,-0.20682237,0.50408,0.37859475,-0.19247735,0.49642
0.44780301,-0.3351353,0.522028,0.40341433,-0.30334304,0.514427,0.40660238,-0.33047526,0.506241,0.37277805,-0.28476463,0.479505,0.34321569,-0.24855952,0.452834,0.3423967,-0.22687728,0.437575,0.33108973,-0.26751503,0.489729,0.31258395,-0.23713478,0.469328,0.30324021,-0.22157501,0.459127,0.30698607,-0.21989882,0.449854,0.35933414,-0.26430789,0.505665,0.34102505,-0.22855497,0.490609,0.33010891,-0.2078808,0.481827,0.32217557,-0.19264472,0.475554,0.38512261,-0.26315116,0.519204,0.35698,-0.2207081,0.499683,0.34531927,-0.20056341,0.489695,0.33621263,-0.18319863,0.480616,0.42141654,-0.26518361,0.536441,0.40606984,-0.22317721,0.519459,0.40000697,-0.20708997,0.511657,0.39478714,-0.19310864,0.504772
0.44601471,-0.33497331,0.521457,0.40244509,-0.30485091,0.515675,0.40501821,-0.32964061,0.506141,0.37474138,-0.28775543,0.480202,0.34681039,-0.25212151,0.453776,0.34266629,-0.22726981,0.439101,0.33264258,-0.26630296,0.492941,0.31161209,-0.23283681,0.473964,0.30122696,-0.21600035,0.464475,0.30752582,-0.20978852,0.45585,0.36120702,-0.26540011,0.509009,0.3410742,-0.22596276,0.495722,0.33242174,-0.20399639,0.487972,0.32670072,-0.19168609,0.482435,0.38687754,-0.26410169,0.522553,0.36067771,-0.22136998,0.504633,0.35184382,-0.20165784,0.495465,0.3446639,-0.18412465,0.48713,0.42275357,-0.26739386,0.539581,0.4107986,-0.22712134,0.523999,0.40893519,-0.21284462,0.51684,0.40280315,-0.19682125,0.510523
0.44564921,-0.3355812,0.52218,0.40274111,-0.30480989,0.516496,0.40628227,-0.33023312,0.50685,0.37510073,-0.28809436,0.480925,0.34944135,-0.25336,0.454464,0.34391167,-0.22754993,0.439903,0.33337,-0.26654237,0.49382,0.31251122,-0.23343142,0.474908,0.3020425,-0.21668752,0.465452,0.30827003,-0.21055113,0.456855,0.36186897,-0.26551112,0.509943,0.34212322,-0.2265306,0.496763,0.33338517,-0.20467076,0.489074,0.32751338,-0.19110342,0.483582,0.38752438,-0.26460513,0.523528,0.36139415,-0.22176885,0.505885,0.35316555,-0.202191,0.496858,0.34624614,-0.18451963,0.488652,0.42329708,-0.26809755,0.540592,0.41234841,-0.22822515,0.525088,0.41020548,-0.21332043,0.517965,0.40509594,-0.19781293,0.51168
0.44438815,-0.33659769,0.522571,0.40411748,-0.30616041,0.517734,0.40574542,-0.3300904,0.507081,0.37599082,-0.28804497,0.481269,0.35782806,-0.24989585,0.455068,0.35653744,-0.22631723,0.441916,0.33484215,-0.2686599,0.495521,0.31453754,-0.23432253,0.477169,0.30444971,-0.21745374,0.467994,0.31073735,-0.21102735,0.459652,0.36356091,-0.2661158,0.512158,0.3445942,-0.22627967,0.499913,0.33924778,-0.20229908,0.49277,0.33200894,-0.18884844,0.487668,0.38954013,-0.2664822,0.526116,0.36810161,-0.22413435,0.510078,0.36404972,-0.20332732,0.501873,0.35359117,-0.18547341,0.494413,0.42481689,-0.27108611,0.543532,0.41692347,-0.2327254,0.52872,0.41400858,-0.21618565,0.521914,0.41192288,-0.20259997,0.515909
0.44356017,-0.33794877,0.52305,0.40492141,-0.30606135,0.518581,0.40652736,-0.33011373,0.506414,0.38743783,-0.28803156,0.480016,0.3708564,-0.25247469,0.455318,0.3702353,-0.22955382,0.444196,0.3367318,-0.26828619,0.495283,0.32442264,-0.23278318,0.476956,0.31655007,-0.21430429,0.467793,0.3240964,-0.20588928,0.459463,0.36569299,-0.26767166,0.513428,0.34899998,-0.2289065,0.501984,0.34160289,-0.20370618,0.495309,0.33500442,-0.18824995,0.490541,0.39265143,-0.26959491,0.528605,0.38007367,-0.22974682,0.512123,0.37392771,-0.20782485,0.50369,0.36881559,-0.18780616,0.496024,0.42854861,-0.27697246,0.547449,0.42624598,-0.24292476,0.533131,0.42522561,-0.22610967,0.526553,0.42114184,-0.20996465,0.520748
0.4436028,-0.33851256,0.524334,0.40486637,-0.30516959,0.519334,0.40651067,-0.33001438,0.507891,0.38817198,-0.28850572,0.481428,0.37179346,-0.2537841,0.456407,0.37082221,-0.23100006,0.445033,0.33614922,-0.26886213,0.495857,0.32304911,-0.23253646,0.477161,0.31511236,-0.21400651,0.467813,0.31835133,-0.20802952,0.459315,0.36531649,-0.26750506,0.513569,0.34829232,-0.22841749,0.501464,0.34139752,-0.20345285,0.494403,0.33399067,-0.18802005,0.489359,0.39152117,-0.26854985,0.52842,0.3792701,-0.22835003,0.511083,0.37312008,-0.20661966,0.502213,0.36778081,-0.18669109,0.49415,0.4271015,-0.27275684,0.546932,0.42316867,-0.23967036,0.53212,0.4212857,-0.22298987,0.525315,0.42013145,-0.20931338,0.519311
0.44509931,-0.34021027,0.526698,0.4075944,-0.30603602,0.521103,0.40856896,-0.33155452,0.511183,0.38677464,-0.29901857,0.48515,0.35966021,-0.27088854,0.45859,0.3470775,-0.24830097,0.444152,0.34345382,-0.27035699,0.498276,0.32544111,-0.23354828,0.479372,0.31715686,-0.21490227,0.46992,0.3225341,-0.20751857,0.461327,0.36898775,-0.26900433,0.514652,0.35203132,-0.22766688,0.501612,0.34334132,-0.20341529,0.494006,0.33682857,-0.18585529,0.488573,0.39259166,-0.26912309,0.528439,0.38528362,-0.2268719,0.510652,0.37972707,-0.20519661,0.501551,0.3696548,-0.18598425,0.493278,0.42730078,-0.27240391,0.545738,0.42663637,-0.2428457,0.530318,0.42910824,-0.23069153,0.523233,0.42905,-0.21868127,0.516981
0.44669353,-0.34188124,0.529309,0.41034682,-0.30712128,0.522537,0.4096316,-0.33223448,0.513258,0.38778057,-0.29955437,0.48654,0.36076292,-0.26873032,0.459827,0.3470914,-0.24741925,0.445391,0.34418418,-0.27020535,0.498163,0.33257424,-0.23532534,0.478266,0.32597363,-0.21762567,0.468317,0.32723862,-0.20830518,0.459273,0.37133147,-0.26908431,0.51473,0.35198103,-0.22692915,0.500605,0.34439356,-0.20262289,0.492365,0.33768037,-0.18524717,0.486479,0.39590465,-0.26989525,0.528742,0.38715728,-0.22763428,0.512368,0.38215823,-0.20619447,0.50399,0.37503023,-0.18663532,0.496374,0.42943425,-0.27282876,0.54645,0.42974911,-0.24397874,0.530137,0.42922024,-0.23043096,0.522642,0.42886286,-0.21827858,0.516029
0.44833876,-0.34309992,0.531251,0.41199105,-0.30788348,0.523874,0.41120397,-0.33293386,0.51509,0.38889609,-0.30039208,0.488139,0.36097975,-0.27073684,0.461282,0.34771608,-0.24756707,0.4466,0.34509634,-0.27055946,0.498899,0.33276546,-0.23546065,0.478541,0.32600495,-0.21764658,0.468362,0.32821318,-0.20906406,0.459108,0.37219917,-0.26922166,0.515368,0.35239944,-0.22677739,0.500641,0.34476273,-0.20246466,0.49205,0.33806919,-0.18503381,0.485914,0.39676359,-0.26987291,0.529333,0.38752414,-0.22773647,0.512598,0.38238799,-0.20621329,0.504036,0.3757378,-0.1865288,0.496252,0.43040438,-0.27310921,0.547056,0.43005689,-0.24404179,0.530274,0.42935421,-0.23039613,0.522563,0.42883933,-0.21816437,0.515759
0.45403548,-0.34794189,0.53736,0.42561333,-0.32136164,0.53166,0.42253137,-0.34009279,0.523998,0.39346986,-0.31720534,0.499655,0.361162,-0.28773583,0.473395,0.34329264,-0.26628778,0.460323,0.36018004,-0.28483927,0.511322,0.34140329,-0.2491211,0.493121,0.33193724,-0.2309272,0.484021,0.32990224,-0.21542904,0.475748,0.38720734,-0.28180097,0.525089,0.36096137,-0.23899502,0.511521,0.35956846,-0.22347771,0.503607,0.35871953,-0.21197941,0.497953,0.41159814,-0.2810592,0.536737,0.39735469,-0.23985945,0.521163,0.3907068,-0.2188775,0.513195,0.38617255,-0.20087997,0.505952,0.44544049,-0.28399056,0.551466,0.44143121,-0.25419504,0.535972,0.43973314,-0.24013283,0.528852,0.43546549,-0.22267574,0.522571
0.45483611,-0.34912499,0.537388,0.42492594,-0.31996016,0.530664,0.42076673,-0.34051982,0.523985,0.39282884,-0.31684028,0.499395,0.36158301,-0.28698805,0.472616,0.34417514,-0.26503014,0.458841,0.35944186,-0.2819532,0.509486,0.33988317,-0.24656863,0.490582,0.33002312,-0.22855315,0.48113,0.32505928,-0.21493893,0.472537,0.38658304,-0.27892019,0.522912,0.36040076,-0.23569352,0.508323,0.35824518,-0.22016522,0.499813,0.3573175,-0.2093098,0.493734,0.41107983,-0.27825072,0.534338,0.39720649,-0.23802167,0.517364,0.39375442,-0.21764065,0.50868,0.38526766,-0.19898141,0.500785,0.44507097,-0.28141572,0.548919,0.44031563,-0.25292083,0.532657,0.43828048,-0.23946999,0.525185,0.43657256,-0.22739383,0.518593
0.45715118,-0.35134776,0.538961,0.42533505,-0.32039908,0.531052,0.42287817,-0.34253217,0.525234,0.39295271,-0.31737668,0.500123,0.36189395,-0.28715556,0.473317,0.34450108,-0.26488312,0.459336,0.35907436,-0.28120183,0.508573,0.33927798,-0.2436298,0.488744,0.32873778,-0.22761786,0.478829,0.32414412,-0.21361846,0.469816,0.38629133,-0.27820047,0.521933,0.3596687,-0.2344801,0.506206,0.3570076,-0.21885279,0.497031,0.35587038,-0.20816189,0.490478,0.4108912,-0.27760812,0.533372,0.39828328,-0.23737766,0.514635,0.3920938,-0.21764303,0.505048,0.38716539,-0.20024544,0.496333,0.44509633,-0.28097573,0.54811,0.43969715,-0.25272959,0.530947,0.43736369,-0.23941553,0.523061,0.43539073,-0.22747249,0.516103
0.4582094,-0.35267289,0.539102,0.42507567,-0.3202785,0.530634,0.42361574,-0.34368762,0.5259,0.39356673,-0.31811472,0.501164,0.3617349,-0.28769977,0.474104,0.3438374,-0.26528979,0.459905,0.35904963,-0.28096646,0.50835,0.33836712,-0.24521452,0.48839,0.32795034,-0.22705501,0.47841,0.32336741,-0.21328425,0.469337,0.38572618,-0.2775398,0.52087,0.35886555,-0.23357407,0.50454,0.35593561,-0.21789473,0.495014,0.3546806,-0.20728331,0.48821,0.40985818,-0.27664325,0.531651,0.39722272,-0.23686235,0.513067,0.39134625,-0.217481,0.503559,0.38683934,-0.20058467,0.494916,0.44347701,-0.27970526,0.54566,0.43856441,-0.25286032,0.528145,0.43575354,-0.24564384,0.520098,0.43330819,-0.23890378,0.512998
0.46201447,-0.36362091,0.542672,0.42800357,-0.3249494,0.535202,0.428047,-0.35417954,0.531149,0.39493561,-0.32929951,0.508195,0.36173017,-0.29909435,0.481586,0.34549182,-0.27188501,0.466764,0.36640264,-0.28552418,0.515692,0.34734445,-0.25120969,0.498162,0.33851986,-0.23325143,0.489397,0.33255744,-0.21830688,0.481428,0.39420513,-0.28370395,0.526589,0.37552582,-0.24468421,0.51113,0.36766301,-0.22599639,0.502112,0.36079193,-0.21135244,0.49567,0.41904295,-0.28425446,0.535978,0.40298347,-0.24246972,0.518824,0.39557212,-0.22126133,0.510047,0.39084532,-0.20344676,0.502069,0.45299053,-0.28938736,0.54819,0.44381355,-0.257463,0.531639,0.44154374,-0.24273881,0.524034,0.43745816,-0.22867962,0.517324
0.4597705,-0.36481299,0.541433,0.42648918,-0.33127106,0.535348,0.42644482,-0.35520911,0.530672,0.39510101,-0.33076805,0.508706,0.3617592,-0.30038606,0.482296,0.34327229,-0.27772009,0.468235,0.36908274,-0.28766829,0.517816,0.35269744,-0.25425918,0.501472,0.34442165,-0.23712747,0.4933,0.33605925,-0.22152702,0.485871,0.39677813,-0.28608754,0.528334,0.37993268,-0.24691217,0.514193,0.37157088,-0.2257171,0.505945,0.36473623,-0.20867341,0.500053,0.42139558,-0.28683047,0.537331,0.40907259,-0.248128,0.52232,0.40578698,-0.2295947,0.51464,0.39718037,-0.20919418,0.507659,0.45482246,-0.29215941,0.548907,0.44943634,-0.26678209,0.533477,0.44651499,-0.25365197,0.526388,0.44170168,-0.24203422,0.520132
0.45787447,-0.36580593,0.540483,0.42628247,-0.33204115,0.535211,0.42394764,-0.35497165,0.528771,0.39304519,-0.32883922,0.50602,0.36690105,-0.29269274,0.479362,0.348281,-0.26925247,0.465384,0.36789077,-0.28753837,0.517171,0.35218277,-0.25331133,0.499996,0.3436679,-0.23589723,0.491409,0.33476309,-0.22010717,0.483602,0.39771303,-0.28705975,0.529132,0.38219648,-0.24810328,0.515828,0.37408897,-0.22619755,0.508067,0.36740792,-0.21026865,0.502524,0.42308164,-0.28885857,0.539271,0.41282292,-0.25173762,0.523837,0.40731228,-0.23163758,0.51594,0.40231921,-0.21298747,0.508761,0.45783897,-0.2974518,0.552128,0.45325692,-0.27133614,0.537126,0.45284307,-0.26240331,0.530234,0.45194102,-0.25192419,0.524152
0.45666987,-0.36675203,0.539989,0.42566034,-0.33193663,0.534355,0.4226262,-0.3553247,0.528046,0.3922563,-0.3280053,0.505008,0.36439342,-0.29263535,0.478524,0.345855,-0.2708824,0.464852,0.36675297,-0.28558709,0.51576,0.35006807,-0.25187838,0.498238,0.34121616,-0.23435076,0.489477,0.33285726,-0.21902537,0.481512,0.39707809,-0.28647618,0.52786,0.38148919,-0.24712584,0.514214,0.37401341,-0.22368868,0.506254,0.36681265,-0.20756926,0.500569,0.42253138,-0.28850546,0.538132,0.41156444,-0.2505248,0.522018,0.40630275,-0.23096239,0.513773,0.401808,-0.21321446,0.506278,0.45731673,-0.29693207,0.551194,0.45214932,-0.2711208,0.535896,0.44993165,-0.25889558,0.528867,0.44806635,-0.24789526,0.522665
0.45613404,-0.36780998,0.540079,0.42556397,-0.33208987,0.534189,0.42218862,-0.35609474,0.528219,0.39241303,-0.32803189,0.505212,0.36447009,-0.29291218,0.478634,0.34594442,-0.27094719,0.464967,0.36686202,-0.28554112,0.515497,0.35000273,-0.25163054,0.497847,0.34108809,-0.23404039,0.489022,0.33264641,-0.21860866,0.480999,0.39692521,-0.2862906,0.5274,0.38125079,-0.24666042,0.513497,0.3734966,-0.22306179,0.505387,0.36642007,-0.20671611,0.499594,0.42226111,-0.28833444,0.537525,0.41099308,-0.24995383,0.521182,0.40590123,-0.23068346,0.51282,0.40169881,-0.21340617,0.505219,0.45681674,-0.29651706,0.550439,0.45133058,-0.27085444,0.534967,0.44896305,-0.25870205,0.527858,0.44696326,-0.24776829,0.521585
0.45446116,-0.37154111,0.540214,0.42662388,-0.33385048,0.534609,0.42100093,-0.35906025,0.5289,0.39363931,-0.32905246,0.506469,0.36493833,-0.29476671,0.479925,0.34653715,-0.2721142,0.466444,0.3703958,-0.28785532,0.516785,0.35305436,-0.25367179,0.499586,0.34430358,-0.2361858,0.490987,0.33524712,-0.21978605,0.483169,0.39875231,-0.28777581,0.528146,0.3836407,-0.24752611,0.514491,0.37519752,-0.22386756,0.506526,0.36911956,-0.20659415,0.500837,0.42377794,-0.2898372,0.537809,0.4133826,-0.2530519,0.521584,0.40753457,-0.23225975,0.513283,0.40260763,-0.21412614,0.505737,0.45742007,-0.29690094,0.550132,0.45248975,-0.27236121,0.534948,0.45034994,-0.2605278,0.527972,0.44855852,-0.2498745,0.521817
0.45472573,-0.37269612,0.540642,0.42725471,-0.33450956,0.534921,0.42137079,-0.36010738,0.529449,0.39432109,-0.32961911,0.507117,0.36536925,-0.29572381,0.480589,0.34709125,-0.27281431,0.467271,0.37110753,-0.2884289,0.517152,0.35375666,-0.25423716,0.499938,0.3450011,-0.23674721,0.491331,0.3362858,-0.22015008,0.483507,0.39937728,-0.28823355,0.528324,0.38412011,-0.24767243,0.51455,0.37576213,-0.22406494,0.506516,0.36974629,-0.20682727,0.500776,0.42432986,-0.29021098,0.537839,0.4140447,-0.25340073,0.521535,0.40791066,-0.23265633,0.513193,0.40283804,-0.21440667,0.50561,0.45787863,-0.29719343,0.549995,0.45289808,-0.27250268,0.534748,0.45068782,-0.26060541,0.527743,0.44883138,-0.24989519,0.521561
0.45337321,-0.37705917,0.541481,0.42759675,-0.33449407,0.535488,0.42186578,-0.36122563,0.530333,0.39496633,-0.33021236,0.507998,0.36521884,-0.29721106,0.481481,0.34736022,-0.27443617,0.468744,0.37164697,-0.288838,0.517564,0.3542157,-0.25450422,0.500197,0.34542175,-0.23694986,0.491513,0.33710496,-0.2203513,0.483619,0.39985562,-0.28859078,0.528578,0.38603606,-0.24876184,0.514537,0.3796215,-0.22616702,0.506347,0.37437353,-0.2095104,0.500496,0.42475931,-0.29054124,0.537978,0.41328797,-0.25213118,0.521379,0.4079503,-0.23272435,0.512886,0.40272245,-0.21436483,0.505166,0.45825918,-0.29752376,0.55003,0.45309134,-0.27258846,0.534595,0.45077811,-0.26058938,0.527503,0.44883028,-0.24979206,0.521246
0.45380449,-0.37780499,0.542037,0.4279594,-0.33498354,0.535811,0.42141811,-0.362899,0.530883,0.39532569,-0.33055466,0.5085,0.36547342,-0.29735444,0.482023,0.34753224,-0.27468021,0.469514,0.37192599,-0.28904725,0.517698,0.3544089,-0.25459598,0.500178,0.34557369,-0.23698974,0.491417,0.3372259,-0.22038451,0.483454,0.40011118,-0.28878426,0.528632,0.38634748,-0.24897616,0.514364,0.37996264,-0.22661913,0.506042,0.37482192,-0.21010323,0.500097,0.42499997,-0.29073325,0.537979,0.413445,-0.2522945,0.521245,0.40799207,-0.2327806,0.512684,0.40268971,-0.21436216,0.504901,0.45849286,-0.29773793,0.549994,0.45314897,-0.2726014,0.534391,0.45074876,-0.26052374,0.527222,0.44872249,-0.2496589,0.520897
