sluyters/QuantumLeap/backend/src/datasets/dynamic/HandGestureDataset_SHREC2017_csv/Gesture6/finger_2/subject_23_essai_2_skeletons_world.csv
Wrist_x,Wrist_y,Wrist_z,Palm_x,Palm_y,Palm_z,thumb_base_x,thumb_base_y,thumb_base_z,thumb_first_joint_x,thumb_first_joint_y,thumb_first_joint_z,thumb_second_joint_x,thumb_second_joint_y,thumb_second_joint_z,thumb_tip_x,thumb_tip_y,thumb_tip_z,index_base_x,index_base_y,index_base_z,index_first_joint_x,index_first_joint_y,index_first_joint_z,index_second_joint_x,index_second_joint_y,index_second_joint_z,index_tip_x,index_tip_y,index_tip_z,middle_base_x,middle_base_y,middle_base_z,middle_first_joint_x,middle_first_joint_y,middle_first_joint_z,middle_second_joint_x,middle_second_joint_y,middle_second_joint_z,middle_tip_x,middle_tip_y,middle_tip_z,ring_base_x,ring_base_y,ring_base_z,ring_first_joint_x,ring_first_joint_y,ring_first_joint_z,ring_second_joint_x,ring_second_joint_y,ring_second_joint_z,ring_tip_x,ring_tip_y,ring_tip_z,pinky_base_x,pinky_base_y,pinky_base_z,pinky_first_joint_x,pinky_first_joint_y,pinky_first_joint_z,pinky_second_joint_x,pinky_second_joint_y,pinky_second_joint_z,pinky_tip_x,pinky_tip_y,pinky_tip_z,
0.333662802,-0.235737026,0.344273,0.322117002,-0.185500993,0.330208,0.312951162,-0.219103064,0.337991,0.280680411,-0.198742449,0.320836,0.250113155,-0.173161545,0.299504,0.236193554,-0.15443645,0.287046,0.288389966,-0.143236866,0.315118,0.269382355,-0.107075906,0.297085,0.263868811,-0.0955948631,0.288068,0.263021867,-0.0843113896,0.279871,0.311909539,-0.147414971,0.31876,0.299468944,-0.105700407,0.300023,0.295307311,-0.086120962,0.289093,0.292607033,-0.0719038756,0.281285,0.33192507,-0.154203099,0.322745,0.327169637,-0.115481964,0.30586,0.327058004,-0.0998925147,0.297221,0.32737799,-0.0858025217,0.289367,0.35699235,-0.168618745,0.329322,0.367593987,-0.146728106,0.318169,0.372678693,-0.13910674,0.313044,0.377560246,-0.132193335,0.308522
0.332792494,-0.235737243,0.344208,0.318181844,-0.186656096,0.330273,0.312400455,-0.219656455,0.338482,0.281558736,-0.199736869,0.321972,0.250956952,-0.174297187,0.300544,0.236368426,-0.155344146,0.288587,0.287748448,-0.14386886,0.315937,0.268232859,-0.108252197,0.298306,0.262038205,-0.0963415879,0.28949,0.256522171,-0.085196312,0.281476,0.310892815,-0.147405346,0.31893,0.297765708,-0.105970754,0.300366,0.289912864,-0.0860352323,0.289537,0.289695444,-0.0720894908,0.281802,0.330656932,-0.153663752,0.32237,0.32529694,-0.114752985,0.305548,0.324727845,-0.0990696502,0.296941,0.324650887,-0.0851216993,0.289117,0.355547223,-0.167450335,0.328285,0.365534465,-0.145761641,0.316937,0.370184855,-0.138207836,0.311723,0.374682311,-0.131351745,0.307122
0.332320059,-0.235946425,0.344936,0.317335118,-0.18628462,0.330774,0.312212878,-0.220449808,0.339758,0.281714015,-0.20067375,0.323847,0.250976878,-0.175754119,0.30248,0.236002803,-0.156917303,0.290632,0.285487061,-0.144108846,0.316998,0.265016821,-0.109777291,0.299604,0.254276265,-0.096444686,0.290907,0.250157769,-0.084523443,0.283001,0.308236629,-0.146784389,0.319246,0.293443569,-0.105369063,0.300586,0.287238943,-0.0855827144,0.289701,0.283096325,-0.0714507216,0.281926,0.327767298,-0.15233222,0.322089,0.321356713,-0.113699287,0.304971,0.319729113,-0.0974324938,0.296213,0.318694799,-0.0831893692,0.288251,0.353300024,-0.166044719,0.327325,0.361520567,-0.14385108,0.315679,0.365789156,-0.135489154,0.310328,0.369915995,-0.127906143,0.305607
0.332928021,-0.236673374,0.347101,0.316008006,-0.184600475,0.331531,0.313024647,-0.221622561,0.342428,0.277212394,-0.196797439,0.326941,0.247147794,-0.174404828,0.307375,0.232721533,-0.157716561,0.294471,0.283933558,-0.141582271,0.317648,0.26263116,-0.108207756,0.299847,0.253520642,-0.0947552762,0.290947,0.245185997,-0.0821251372,0.282855,0.305922495,-0.144008176,0.318856,0.289821389,-0.102396071,0.299198,0.282473689,-0.0831384117,0.287731,0.279540707,-0.0698255974,0.27954,0.324835991,-0.149362986,0.320944,0.317441327,-0.111399981,0.302628,0.314725628,-0.0952896391,0.293257,0.314215032,-0.0821258518,0.284738,0.348874193,-0.162070994,0.325467,0.356317201,-0.141182922,0.312798,0.360039899,-0.132195351,0.306978,0.364793038,-0.125667915,0.301842
0.323513409,-0.23075596,0.338999,0.310337205,-0.181171029,0.328166,0.3050351,-0.216925211,0.335707,0.267637972,-0.191181617,0.322436,0.240048885,-0.168687203,0.305649,0.227399976,-0.152629726,0.2932,0.283847289,-0.141236728,0.318457,0.266996069,-0.106971737,0.304096,0.259629044,-0.0939298569,0.296915,0.252867188,-0.0829610436,0.290387,0.305652925,-0.143857823,0.319348,0.295577252,-0.104657162,0.303598,0.290762127,-0.0859280771,0.294411,0.287556202,-0.0724056689,0.287848,0.32411929,-0.149242419,0.320841,0.321658731,-0.113661262,0.306164,0.32219281,-0.102147405,0.298654,0.324747629,-0.0875403214,0.294813,0.346967186,-0.161724666,0.324037,0.355167928,-0.146648519,0.313405,0.359183422,-0.140312521,0.308633,0.362800884,-0.134986608,0.304422
0.322280177,-0.233607279,0.345248,0.312001701,-0.182606461,0.332351,0.305049461,-0.220998831,0.344149,0.269274575,-0.193912651,0.333322,0.244091883,-0.172117604,0.320764,0.230778807,-0.153722336,0.311283,0.288270162,-0.141734624,0.324282,0.277081038,-0.104194688,0.309351,0.26811813,-0.0930441217,0.301885,0.262304324,-0.0807386836,0.295515,0.307724285,-0.144834688,0.321853,0.298624416,-0.105402993,0.304767,0.292625575,-0.0869584607,0.2948,0.288211003,-0.072930573,0.28768,0.323695922,-0.149598387,0.320759,0.320900384,-0.115906922,0.303973,0.318526398,-0.103101116,0.295384,0.31672904,-0.0909479444,0.287577,0.342713731,-0.162902318,0.321154,0.344192547,-0.151780977,0.307779,0.345512363,-0.146432438,0.302227,0.347272569,-0.141675562,0.29752
0.320362482,-0.233987825,0.352648,0.30485778,-0.180364381,0.331393,0.296016271,-0.216628896,0.349779,0.26501962,-0.188678117,0.336052,0.236690819,-0.164722144,0.316762,0.223386122,-0.147687652,0.303328,0.277160657,-0.133527557,0.316787,0.266164561,-0.0933301507,0.297639,0.25876058,-0.0853277219,0.288064,0.249731097,-0.0754614812,0.27936,0.297319057,-0.139574725,0.314092,0.284114992,-0.0995666931,0.290638,0.276465786,-0.0820489809,0.276957,0.272419312,-0.0714315843,0.267184,0.312888311,-0.146384438,0.313367,0.304363586,-0.114582231,0.290439,0.299393283,-0.104895952,0.278708,0.295179814,-0.0958801739,0.268044,0.332831004,-0.161041163,0.315298,0.323996976,-0.148323859,0.296568,0.321738142,-0.142771821,0.287962,0.323589211,-0.135681427,0.280369
0.318108263,-0.233923731,0.355975,0.301391269,-0.177204342,0.332136,0.295007854,-0.215028097,0.350684,0.263115569,-0.186725003,0.333787,0.234685439,-0.1628119,0.314058,0.221209441,-0.145504804,0.301075,0.273145226,-0.131428036,0.313188,0.263876687,-0.0918885883,0.295897,0.258620611,-0.0818930756,0.287251,0.252802114,-0.0734379234,0.279391,0.293194726,-0.136670812,0.312732,0.28427127,-0.097040492,0.290954,0.278560699,-0.082358177,0.27825,0.275590448,-0.0724981641,0.269176,0.310402211,-0.144425066,0.31403,0.304251604,-0.111274568,0.289358,0.297704376,-0.101547511,0.276735,0.292593749,-0.0945828317,0.26526,0.33231713,-0.160158898,0.318703,0.323068079,-0.149370329,0.298138,0.315592032,-0.145670075,0.288689,0.311449218,-0.142195406,0.280352
0.308096237,-0.227814016,0.350658,0.29771147,-0.175698158,0.330005,0.288145912,-0.210832732,0.344606,0.257754121,-0.183965622,0.328273,0.230103682,-0.160331676,0.30896,0.217396085,-0.143074439,0.296958,0.264970104,-0.130548301,0.311772,0.256270223,-0.0912409065,0.296897,0.253392981,-0.080698968,0.28946,0.253344697,-0.0743507318,0.282698,0.286795385,-0.135074494,0.313194,0.280611716,-0.0932986195,0.2934,0.278304149,-0.0818942692,0.281853,0.276201894,-0.0709331015,0.273606,0.305375439,-0.142193612,0.315813,0.301409533,-0.112261886,0.293832,0.300797891,-0.106161052,0.282585,0.298739402,-0.0981280679,0.272362,0.328725753,-0.157050971,0.321636,0.323719134,-0.149973814,0.302996,0.320382859,-0.146116772,0.294431,0.322435665,-0.144890143,0.291225
0.312508177,-0.231004914,0.356666,0.296609059,-0.175140533,0.33146,0.290197093,-0.212828642,0.348297,0.256658322,-0.184434706,0.327688,0.226009581,-0.161496794,0.306653,0.215943331,-0.143434882,0.296281,0.260173342,-0.128437508,0.30799,0.247817502,-0.0890347578,0.294398,0.245304038,-0.0788832566,0.287602,0.24653804,-0.0697486604,0.281424,0.283218998,-0.132979186,0.310942,0.273793166,-0.0894042961,0.291765,0.27453967,-0.0797746191,0.280578,0.273264361,-0.0714581552,0.272588,0.303302924,-0.140285005,0.31514,0.291581761,-0.104571063,0.289309,0.286189749,-0.0971175909,0.276094,0.28153221,-0.0902582489,0.264079,0.32935872,-0.155763025,0.323436,0.317694471,-0.145923126,0.301127,0.312512341,-0.1414162,0.290876,0.308052439,-0.137449106,0.281832
0.310504925,-0.22860042,0.354784,0.292805311,-0.172228003,0.329966,0.285337335,-0.208859628,0.345424,0.251831959,-0.18378894,0.323734,0.221363724,-0.162328641,0.301674,0.2054532,-0.144170769,0.287988,0.254750433,-0.125052955,0.305472,0.234915271,-0.0856382671,0.292393,0.231135465,-0.0761761603,0.285853,0.227794742,-0.0670877095,0.279908,0.277115803,-0.12627481,0.309765,0.264848775,-0.0833675846,0.289129,0.261793553,-0.0731651271,0.277091,0.262923371,-0.0696012376,0.268493,0.298295706,-0.132351422,0.315039,0.285565677,-0.0944417622,0.28953,0.280376924,-0.0898431542,0.276478,0.278962613,-0.088026061,0.264613,0.326108547,-0.146383845,0.324561,0.314516058,-0.137281525,0.302128,0.309296175,-0.133291806,0.291822,0.305431368,-0.133811679,0.282727
0.307285848,-0.224169118,0.353068,0.288804246,-0.166295234,0.329115,0.283548374,-0.207076118,0.343396,0.250274355,-0.183148412,0.32143,0.219452609,-0.164175397,0.298592,0.202245676,-0.146882258,0.284246,0.244923796,-0.122476663,0.304683,0.220487464,-0.0859049363,0.289908,0.214921053,-0.0759565125,0.282521,0.209863309,-0.0664529287,0.275805,0.269361553,-0.123039654,0.309617,0.251690912,-0.0800289056,0.290893,0.249194863,-0.0695430964,0.279971,0.247733164,-0.0617069932,0.272169,0.291104389,-0.127022206,0.315358,0.275521225,-0.0869487132,0.290543,0.27146083,-0.0824932146,0.277847,0.267998227,-0.0784238831,0.266305,0.320069417,-0.138430544,0.32532,0.309506339,-0.127135787,0.303207,0.304792761,-0.12262029,0.293047,0.300734722,-0.118799404,0.284082
0.304715726,-0.22021349,0.349227,0.283128568,-0.161016073,0.325883,0.281496995,-0.204664743,0.340598,0.249346708,-0.18310281,0.319824,0.218528183,-0.164309955,0.297305,0.201081224,-0.147662426,0.283315,0.236547901,-0.120703419,0.303061,0.208577746,-0.0865678912,0.289161,0.201626828,-0.0782368915,0.282211,0.195185171,-0.0702672402,0.275893,0.260151922,-0.118378302,0.306882,0.24049512,-0.0758183214,0.288461,0.236072106,-0.0643727343,0.277715,0.233251602,-0.0563161447,0.270039,0.281649407,-0.119890783,0.311665,0.264952728,-0.0788126995,0.287653,0.260271816,-0.0741294644,0.275368,0.256234273,-0.0698287985,0.2642,0.311120412,-0.128211972,0.320409,0.29940902,-0.113252443,0.298888,0.294283482,-0.108790295,0.289,0.289870544,-0.105114557,0.280275
0.303988757,-0.217976325,0.347708,0.280739912,-0.159221207,0.324285,0.280693274,-0.203372401,0.339464,0.24884988,-0.182761513,0.319114,0.217806916,-0.164557913,0.296656,0.20004174,-0.14821861,0.282677,0.233724512,-0.120185633,0.301898,0.204584589,-0.0863388556,0.287255,0.192888678,-0.0773943948,0.279933,0.184440248,-0.0685286425,0.273278,0.256881221,-0.117243073,0.305219,0.23295662,-0.0744513164,0.286598,0.226603285,-0.0614612508,0.275735,0.222650826,-0.05331276,0.267976,0.278076762,-0.118227387,0.309597,0.257843177,-0.075668545,0.286209,0.252770519,-0.0701622029,0.274243,0.248368248,-0.0650706605,0.263365,0.307327341,-0.125878075,0.317871,0.295073386,-0.111727934,0.296431,0.289680713,-0.108198028,0.28658,0.285019007,-0.105361056,0.277888
0.299675241,-0.206824301,0.341246,0.268257143,-0.148254294,0.32026,0.276109746,-0.199002532,0.334898,0.240044076,-0.174483575,0.316915,0.207526717,-0.157743177,0.295479,0.188085184,-0.142003974,0.281724,0.222570973,-0.113818292,0.301486,0.189450139,-0.0818018435,0.284768,0.180473684,-0.0753207672,0.276409,0.172121791,-0.0692000843,0.26881,0.244307413,-0.109040377,0.303177,0.222640233,-0.0680667127,0.286688,0.214754666,-0.0533836596,0.27707,0.209787165,-0.0444336741,0.2702,0.264431322,-0.108390278,0.306042,0.246690121,-0.0673609186,0.285396,0.24142364,-0.0622128095,0.274833,0.236813331,-0.0574105986,0.26523,0.292611958,-0.11386965,0.312199,0.278966991,-0.0983023906,0.29255,0.273102047,-0.0952505232,0.283521,0.26801689,-0.0928663118,0.275555
0.299124238,-0.201859031,0.340632,0.26470228,-0.14606309,0.319037,0.274923595,-0.194592791,0.334423,0.239549418,-0.174110557,0.316556,0.20698296,-0.158942911,0.295103,0.187451376,-0.144351004,0.281667,0.214162358,-0.114825556,0.300119,0.17860884,-0.0842214686,0.282297,0.167691059,-0.077377128,0.273386,0.157494598,-0.0709398183,0.265286,0.23480112,-0.107525273,0.301459,0.209304731,-0.0675375726,0.284551,0.199931647,-0.0529462445,0.274689,0.194224239,-0.0444358715,0.267644,0.254295468,-0.10461388,0.304077,0.232955143,-0.0642202866,0.284105,0.227827293,-0.057302598,0.273886,0.223327688,-0.0507855055,0.264597,0.282177714,-0.107042294,0.310023,0.266124042,-0.0926463469,0.290133,0.260010263,-0.0893720715,0.280994,0.254917036,-0.0872275565,0.272931
0.294791591,-0.18953981,0.338982,0.257945334,-0.139836779,0.31644,0.270483004,-0.184393454,0.334217,0.236102486,-0.168288268,0.318033,0.203280925,-0.156469833,0.297349,0.186765041,-0.14429179,0.28213,0.207123392,-0.109337682,0.298818,0.168930028,-0.0808160169,0.279779,0.156688292,-0.0758201955,0.270259,0.14526177,-0.0711756198,0.261605,0.225884397,-0.100448963,0.298092,0.196858697,-0.0616798111,0.280283,0.184565416,-0.0489928817,0.269895,0.176714142,-0.0419088789,0.262475,0.24404789,-0.0961366136,0.299077,0.220847453,-0.0563898123,0.279144,0.213936159,-0.049977162,0.268945,0.207712654,-0.0439264534,0.259674,0.270771193,-0.0967197298,0.303207,0.25259873,-0.0826254066,0.283431,0.24557441,-0.0800504248,0.274345,0.239735605,-0.0788397859,0.266328
0.293145863,-0.18097337,0.33887,0.249927811,-0.128023771,0.315404,0.268394128,-0.17759809,0.333768,0.233898057,-0.161920165,0.317121,0.20166357,-0.153789598,0.296034,0.184873367,-0.142621113,0.280707,0.198865173,-0.104471159,0.296884,0.157725858,-0.0792083915,0.274821,0.146955693,-0.0760053193,0.26379,0.138980571,-0.0710368356,0.253761,0.21670301,-0.093699653,0.296304,0.184369573,-0.056761818,0.27819,0.171333771,-0.0443766602,0.267624,0.163180359,-0.0373810569,0.260077,0.234377122,-0.0876813567,0.297474,0.207966159,-0.0490753175,0.27738,0.201030062,-0.0424856843,0.2671,0.194764011,-0.0362531,0.257755,0.261048276,-0.0859375085,0.301945,0.24228769,-0.0719653327,0.281614,0.235423986,-0.0692931494,0.272273,0.229841486,-0.0679526884,0.264031
0.287244756,-0.171616122,0.334612,0.243643895,-0.125377329,0.311907,0.261308072,-0.169068794,0.327986,0.231021207,-0.156409035,0.309548,0.201218871,-0.14483433,0.286473,0.181247331,-0.135939532,0.273894,0.186997803,-0.102724109,0.291895,0.145879641,-0.0796622875,0.273574,0.135857882,-0.0751398708,0.264414,0.126479701,-0.0709320231,0.256087,0.205032288,-0.0911015723,0.293425,0.17038258,-0.0570436981,0.276588,0.157760412,-0.0443351291,0.266766,0.15016784,-0.0367701227,0.259751,0.22306463,-0.0842112013,0.296278,0.193319987,-0.047305305,0.276312,0.187188531,-0.0405831783,0.266097,0.181666194,-0.0342201452,0.256811,0.250552211,-0.0811414147,0.302647,0.23588082,-0.0640672286,0.282115,0.229565282,-0.0570120424,0.272682,0.224386594,-0.0516989775,0.264358
0.285988304,-0.169750591,0.333575,0.242411825,-0.124885179,0.311535,0.260024245,-0.167677203,0.326916,0.229296914,-0.155732814,0.308488,0.200309842,-0.142355847,0.2855,0.180802225,-0.129003501,0.270419,0.187180473,-0.1029782,0.291829,0.146425368,-0.0805520311,0.273973,0.135140058,-0.0755961083,0.265046,0.124539421,-0.0709685487,0.25693,0.205295624,-0.0914016908,0.293594,0.169974689,-0.0577141769,0.276523,0.15594115,-0.0444762053,0.266565,0.147718368,-0.0369635447,0.259452,0.223436937,-0.0844864778,0.296595,0.192318302,-0.0478259671,0.275628,0.185436714,-0.0413515061,0.264901,0.17938457,-0.0355549649,0.255149,0.251104554,-0.0813165672,0.303052,0.235474546,-0.0634314148,0.282792,0.228939596,-0.0565379696,0.273483,0.223636008,-0.0515193541,0.26527
0.284465913,-0.163351057,0.331959,0.238991668,-0.122065101,0.310464,0.259385236,-0.165210308,0.325532,0.230405279,-0.151439756,0.307417,0.199865415,-0.140923366,0.284658,0.180052782,-0.12808264,0.26983,0.18597828,-0.103131561,0.291329,0.142349772,-0.0864295549,0.273751,0.127321975,-0.081008414,0.264962,0.115682452,-0.0770886157,0.256972,0.203274056,-0.0907901259,0.292967,0.159870532,-0.0608024749,0.27462,0.140595728,-0.0469492194,0.263918,0.130528865,-0.0400152968,0.256273,0.216732184,-0.0807869732,0.295824,0.18010738,-0.0477797694,0.274511,0.171071008,-0.0402843111,0.263606,0.163962684,-0.0346447659,0.253693,0.243181996,-0.0742213196,0.30204,0.22267664,-0.0551019724,0.28212,0.215739604,-0.0497345319,0.272968,0.210095174,-0.0456158932,0.264892
0.28107465,-0.157817297,0.330552,0.227216829,-0.115068466,0.308004,0.257012158,-0.160689389,0.324763,0.229646091,-0.148133116,0.307332,0.199432521,-0.140308028,0.284601,0.180156632,-0.131578552,0.271921,0.174122465,-0.103917173,0.289112,0.130807269,-0.0885567434,0.270709,0.116174741,-0.0849547459,0.261508,0.104882965,-0.0826535903,0.253143,0.188220672,-0.0886265864,0.289651,0.146133339,-0.0619472129,0.272049,0.126851556,-0.0503051721,0.261782,0.116909519,-0.0447284136,0.254448,0.203366307,-0.0781127219,0.291677,0.165173468,-0.0482884273,0.27264,0.15442349,-0.0396411868,0.2629,0.14438517,-0.0314005287,0.254046,0.228005,-0.0696670687,0.297044,0.20837009,-0.0517701507,0.276873,0.201908479,-0.0465459202,0.267605,0.196684939,-0.0424482696,0.259427
0.273187138,-0.152403687,0.323033,0.215556661,-0.112711507,0.30426,0.250053769,-0.155381881,0.318735,0.217361667,-0.144960606,0.303386,0.188125569,-0.135302678,0.280107,0.172029107,-0.126897785,0.268233,0.163837975,-0.104116802,0.289177,0.122218146,-0.0926260618,0.26999,0.109300796,-0.0900320612,0.260397,0.0978221374,-0.0878972775,0.251676,0.175868374,-0.0880364193,0.288979,0.133982664,-0.0620982029,0.270751,0.114095266,-0.051973906,0.260118,0.102856357,-0.0473088583,0.252523,0.189432533,-0.0765187176,0.290134,0.154018835,-0.0453314754,0.271919,0.142293765,-0.0381833784,0.2626,0.132363819,-0.0326566586,0.254128,0.212611432,-0.0662427531,0.293971,0.193836646,-0.0403745588,0.276314,0.188475382,-0.0395116576,0.268201,0.183755805,-0.0387606797,0.261043
0.270108806,-0.145605381,0.33098,0.214435365,-0.114045473,0.3077,0.246590318,-0.15119202,0.324303,0.218739955,-0.142877107,0.305768,0.196888279,-0.137542705,0.282739,0.176545193,-0.12873175,0.269646,0.159519664,-0.110143514,0.287327,0.114721991,-0.099426164,0.268545,0.102539636,-0.0966118575,0.259154,0.091730194,-0.0941900954,0.250617,0.170241163,-0.0926197748,0.288751,0.124239359,-0.0717290381,0.269354,0.101854254,-0.0604740215,0.25804,0.0919148763,-0.0544582149,0.249958,0.182649649,-0.0799340985,0.291557,0.140358676,-0.0546197209,0.270797,0.127519422,-0.0441224647,0.260175,0.117998766,-0.0354519145,0.250519,0.204094868,-0.0682246867,0.297947,0.183708708,-0.0504817148,0.277254,0.17529642,-0.0427029649,0.267746,0.169242701,-0.0365893846,0.259357
0.260650762,-0.138474069,0.333991,0.207880596,-0.112911364,0.308572,0.242851284,-0.149227951,0.326718,0.215368908,-0.139712587,0.307365,0.193077344,-0.134991277,0.284622,0.174925458,-0.126515497,0.268969,0.152000006,-0.110512284,0.28635,0.107724815,-0.103133533,0.266637,0.0960216108,-0.101361183,0.256781,0.0852773791,-0.0998622512,0.247821,0.161002655,-0.0922687835,0.287882,0.114297072,-0.0741351402,0.268556,0.092767805,-0.0649478666,0.257283,0.0815645259,-0.0595980304,0.249231,0.172244789,-0.0786516151,0.290927,0.12875129,-0.0549464158,0.269327,0.115162784,-0.0452072553,0.258276,0.106018302,-0.0376872916,0.24823,0.192827054,-0.0652639134,0.297881,0.171221543,-0.0476262712,0.275967,0.16182029,-0.0396642821,0.265898,0.155206682,-0.0335644431,0.257014
0.261645692,-0.137554583,0.335022,0.207780112,-0.112519458,0.30887,0.242939562,-0.148284489,0.327709,0.216641162,-0.13956749,0.308276,0.19199689,-0.133234564,0.285785,0.173292922,-0.126697458,0.270467,0.155038746,-0.110396965,0.286217,0.109361752,-0.104013183,0.266859,0.0975134689,-0.102726801,0.25718,0.086759093,-0.101705781,0.248382,0.162029328,-0.0924762333,0.287584,0.115257321,-0.0750027806,0.268407,0.0940509444,-0.066684752,0.25722,0.0837670375,-0.0622505666,0.24923,0.173261304,-0.0787942524,0.290544,0.129678586,-0.0555657809,0.269232,0.115382628,-0.0461386606,0.258328,0.105476734,-0.0388748156,0.248415,0.193972383,-0.0652481057,0.297494,0.171349171,-0.0479285034,0.275177,0.161915444,-0.040409635,0.264923,0.154657023,-0.0343427903,0.255876
0.259146608,-0.134410533,0.332973,0.203493928,-0.1100724,0.307555,0.239327412,-0.14410253,0.326812,0.216660659,-0.138081739,0.308787,0.192402832,-0.132027663,0.286666,0.171388581,-0.125460224,0.271982,0.152150114,-0.111286027,0.286709,0.108197005,-0.104930307,0.265765,0.0929072946,-0.106799681,0.255294,0.0845965658,-0.10250179,0.245774,0.158221181,-0.092283898,0.286866,0.108673215,-0.078808,0.26775,0.0850773418,-0.0720757109,0.256599,0.0723453524,-0.068368507,0.248635,0.168068039,-0.0778857275,0.288779,0.120362742,-0.0577165473,0.267403,0.103543518,-0.049170441,0.256467,0.0917705917,-0.0426195705,0.246525,0.183480722,-0.0620598883,0.294389,0.156084178,-0.0442681873,0.272843,0.146038519,-0.0371837667,0.262943,0.137065533,-0.0307961808,0.254208
0.256763583,-0.131726444,0.331365,0.200557022,-0.109471737,0.307918,0.238751381,-0.142741401,0.326987,0.218164937,-0.136868467,0.311243,0.195193976,-0.131743795,0.29061,0.176828913,-0.128957673,0.279105,0.15032244,-0.115689897,0.290305,0.106930745,-0.116607753,0.269578,0.0937677575,-0.116720185,0.259215,0.0832159363,-0.116943406,0.249794,0.15247468,-0.0972388991,0.288833,0.105078774,-0.0870487571,0.27136,0.0816030789,-0.0823384323,0.261168,0.0691815537,-0.0798392871,0.253888,0.159156832,-0.0809792131,0.289268,0.114423364,-0.0643495801,0.270619,0.0971906018,-0.0570327322,0.261077,0.0845216279,-0.0511528887,0.252403,0.174433241,-0.0632854255,0.292865,0.147273281,-0.0469172095,0.272705,0.136149464,-0.0397883949,0.263443,0.128522313,-0.0343425787,0.25527
0.248679974,-0.119775042,0.327624,0.191125842,-0.104264138,0.302687,0.232805531,-0.133203905,0.323664,0.212834896,-0.127022646,0.308405,0.192858555,-0.127684317,0.287656,0.173098101,-0.125918495,0.274906,0.144543442,-0.114886728,0.284816,0.10332228,-0.114422848,0.26292,0.090379577,-0.114870522,0.251971,0.0804838302,-0.115317437,0.242018,0.146466275,-0.0940178385,0.28239,0.0990634393,-0.0849949358,0.26313,0.0761503512,-0.0811834504,0.251895,0.0640212274,-0.0792535385,0.24387,0.148536811,-0.0760449753,0.282143,0.102737753,-0.0616532,0.261586,0.0859583968,-0.0559330692,0.251068,0.0775172804,-0.0502480134,0.241506,0.161537671,-0.0569099294,0.285127,0.134236905,-0.0434359469,0.264143,0.123074757,-0.0376392866,0.254502,0.119756342,-0.033207274,0.245995
0.243128042,-0.113500587,0.32606,0.185378448,-0.100482626,0.301343,0.2299162,-0.130204635,0.321899,0.209974756,-0.12456209,0.306386,0.189336978,-0.122458519,0.28539,0.170873156,-0.122800011,0.272593,0.142331134,-0.114544591,0.283337,0.101640973,-0.114863802,0.261386,0.0881885429,-0.116757411,0.250411,0.0797220448,-0.11581627,0.240434,0.140991419,-0.0931881377,0.281224,0.0913342296,-0.0893894697,0.262179,0.068304824,-0.0875937957,0.25107,0.0586567928,-0.0840783436,0.243134,0.142041619,-0.0766068997,0.281221,0.0956510167,-0.064834995,0.259496,0.0790489204,-0.059410243,0.248381,0.0702369997,-0.0528795855,0.238277,0.153227955,-0.0568113027,0.284464,0.123505377,-0.0433883213,0.263586,0.112794182,-0.0377010991,0.253993,0.10428876,-0.0328304442,0.245529
0.240212706,-0.110943639,0.324798,0.182615516,-0.0996309133,0.299823,0.226289714,-0.125845026,0.320591,0.206591021,-0.121580076,0.305015,0.187433846,-0.121002254,0.284099,0.169351766,-0.121675627,0.27132,0.138736238,-0.114256294,0.281626,0.0979018084,-0.117673995,0.259523,0.0858671272,-0.118606011,0.248472,0.0782882697,-0.117874185,0.238425,0.136231255,-0.0937964026,0.279494,0.0893210636,-0.0905624116,0.26113,0.0664512423,-0.0893463253,0.250418,0.0541558925,-0.0886009183,0.242766,0.139014842,-0.0765334514,0.279493,0.0925580179,-0.0655979835,0.25744,0.0768242728,-0.0604842251,0.246157,0.0668064691,-0.0562516172,0.2359,0.149579929,-0.0565132656,0.282772,0.119591839,-0.0435533924,0.261743,0.108757867,-0.038002168,0.252081,0.100142522,-0.03322714,0.243555
0.235089409,-0.106277888,0.322963,0.178234261,-0.098790073,0.298162,0.222367054,-0.121983344,0.31908,0.204984863,-0.121026368,0.303923,0.184890063,-0.119357605,0.283143,0.168183803,-0.121071465,0.270542,0.135771373,-0.114997851,0.280457,0.0966192117,-0.117991507,0.258681,0.0849117237,-0.119057749,0.247793,0.0775393994,-0.118537822,0.237895,0.134165561,-0.0937262674,0.277976,0.086165226,-0.0921732773,0.258098,0.0635148689,-0.0914873813,0.246502,0.0510209663,-0.0910345682,0.23822,0.134804622,-0.0768027393,0.277674,0.0890883287,-0.0681833847,0.257743,0.0707244038,-0.0657783081,0.247546,0.0577840096,-0.0626419891,0.238276,0.1445676,-0.0564278935,0.280575,0.11392399,-0.0445532085,0.259668,0.102830165,-0.0394269768,0.250063,0.093659898,-0.034948652,0.241587
0.232272208,-0.105848959,0.321574,0.173823714,-0.0991359641,0.296107,0.219789912,-0.12161593,0.317584,0.201305399,-0.120333924,0.302276,0.18003645,-0.119573248,0.281704,0.162943692,-0.119057433,0.269276,0.130644035,-0.116863541,0.277921,0.0928716347,-0.124787498,0.255761,0.082777456,-0.126651993,0.244681,0.0752906324,-0.128026456,0.234608,0.128353687,-0.0956669799,0.275377,0.0808651873,-0.0973427456,0.254743,0.0581267404,-0.097645069,0.242707,0.0470263196,-0.0946664903,0.23411,0.128061464,-0.0801756928,0.275071,0.0825738731,-0.0736127384,0.255274,0.0653506013,-0.0705374553,0.245145,0.0556942366,-0.0649435168,0.235937,0.137186982,-0.0596292339,0.278054,0.108855031,-0.0503068172,0.256957,0.0988618575,-0.0463057308,0.247264,0.0924155772,-0.0430562551,0.238712
0.229592142,-0.105146323,0.319959,0.16991506,-0.100306999,0.29418,0.217585285,-0.12107649,0.315937,0.199436369,-0.119712142,0.300585,0.179628734,-0.118633574,0.28019,0.162961365,-0.119205086,0.267451,0.128002269,-0.120117022,0.275794,0.0919407562,-0.12583082,0.25347,0.0820223167,-0.127255599,0.242308,0.0746184964,-0.128199483,0.232161,0.124456349,-0.0989142502,0.273197,0.0779867901,-0.102467199,0.253233,0.0554856925,-0.103340557,0.241587,0.0439903697,-0.100523868,0.233269,0.125267628,-0.0814416774,0.27287,0.0777449442,-0.0774975663,0.251466,0.0615512322,-0.0739727772,0.240515,0.0533846239,-0.0683928802,0.23056,0.130564695,-0.0622739413,0.275868,0.10224106,-0.053229127,0.254579,0.0923727047,-0.0490669191,0.244797,0.0887386746,-0.0440222406,0.236167
0.225850664,-0.104815962,0.317043,0.163795143,-0.104019644,0.291308,0.213662383,-0.120296369,0.31184,0.189002564,-0.124735224,0.294985,0.168867341,-0.121985583,0.273632,0.155398424,-0.11668823,0.261154,0.124892746,-0.122864901,0.271482,0.0861441728,-0.133177247,0.24905,0.080036132,-0.129157764,0.237834,0.0732332195,-0.127224283,0.227638,0.118790711,-0.104673999,0.27036,0.0733952223,-0.107459183,0.250646,0.0508186789,-0.107621554,0.239146,0.0420945603,-0.104108243,0.230932,0.118392755,-0.0876676334,0.271243,0.0731888352,-0.0846101825,0.250365,0.0559621146,-0.0806081891,0.239684,0.0442559473,-0.075972471,0.229973,0.124891393,-0.0675841196,0.275672,0.100393224,-0.0552935382,0.254114,0.0870685402,-0.0526030582,0.244209,0.0765791132,-0.0482554772,0.235469
0.221735534,-0.10431874,0.315459,0.161283728,-0.107124541,0.289666,0.212107823,-0.120517527,0.310743,0.18922755,-0.125895634,0.294501,0.169813556,-0.12405242,0.273501,0.153500107,-0.119605595,0.261521,0.12409775,-0.127074299,0.270412,0.088813518,-0.137491394,0.247554,0.0825701587,-0.13702767,0.236124,0.0768240246,-0.136800718,0.225734,0.118496166,-0.106268424,0.26867,0.0745580062,-0.113104737,0.249425,0.0533454941,-0.115084665,0.238199,0.0425981094,-0.115388503,0.23018,0.117531446,-0.0890891139,0.269048,0.0729494747,-0.0893698696,0.24911,0.0547223668,-0.0871738166,0.23891,0.0405603098,-0.0846499536,0.229636,0.123285417,-0.0685894154,0.272884,0.096459356,-0.0591409343,0.251375,0.0837426533,-0.0571885835,0.241493,0.0745607285,-0.0505079698,0.232774
0.219873816,-0.104527486,0.314098,0.160537176,-0.108001164,0.288014,0.210906451,-0.120884159,0.309807,0.190132339,-0.128518273,0.294104,0.171851058,-0.127974744,0.273646,0.154658958,-0.125678459,0.260247,0.125031097,-0.130812187,0.269135,0.0905582589,-0.142281783,0.246468,0.0847676258,-0.142125343,0.235135,0.0779785496,-0.139214797,0.224831,0.118435029,-0.109989247,0.266782,0.0749791138,-0.117997633,0.247647,0.054263022,-0.12077881,0.236485,0.0430909886,-0.118064903,0.228512,0.116587969,-0.0926137704,0.266676,0.071871282,-0.0935598435,0.245438,0.0556821635,-0.0913544208,0.234572,0.0453837133,-0.0884466893,0.224694,0.121207639,-0.0715542422,0.269977,0.0951420396,-0.0657926651,0.248487,0.0846812492,-0.0619792543,0.238613,0.0738701068,-0.0556156034,0.229901
0.220961461,-0.105445768,0.31424,0.160800358,-0.110629514,0.287083,0.210265061,-0.121367523,0.309128,0.190978818,-0.129859632,0.292368,0.172884302,-0.129346239,0.271806,0.155119951,-0.126661027,0.259346,0.127823962,-0.136164943,0.266631,0.094028257,-0.146683677,0.244978,0.0882151247,-0.146292095,0.234152,0.0810574797,-0.144012127,0.22431,0.118905238,-0.113795331,0.264978,0.0774017352,-0.123906608,0.246757,0.0570120909,-0.127319076,0.236128,0.0452453572,-0.124933352,0.228536,0.116453413,-0.0968152222,0.265524,0.0729819447,-0.0999331087,0.245061,0.0567257051,-0.0980168195,0.234592,0.0457964765,-0.0918117028,0.225074,0.12032641,-0.0759627812,0.26974,0.09410738,-0.0679674369,0.247494,0.0833844887,-0.0640000986,0.237273,0.0737557576,-0.0604709952,0.228254
0.218695096,-0.105595527,0.313494,0.160811653,-0.113183373,0.28601,0.20777629,-0.121178278,0.306627,0.189996991,-0.128730342,0.287688,0.170358921,-0.12704774,0.265955,0.152530699,-0.124590122,0.254624,0.126180829,-0.135972576,0.263215,0.0928150998,-0.148000958,0.243354,0.0876168987,-0.146061796,0.233424,0.0816433102,-0.143634435,0.224397,0.118558264,-0.117252752,0.263638,0.0769239108,-0.12616779,0.246333,0.0568930599,-0.128869221,0.236238,0.045130626,-0.126826907,0.229028,0.115821878,-0.101348271,0.265915,0.0717106798,-0.106036959,0.246137,0.055853146,-0.100946265,0.236017,0.0439889073,-0.0975507954,0.226818,0.117677766,-0.0838550625,0.27223,0.0938467883,-0.0722693992,0.249414,0.0826484898,-0.0678200611,0.23893,0.07346424,-0.0620903484,0.229681
0.215295025,-0.105562389,0.310832,0.160237292,-0.114102746,0.285542,0.205125356,-0.122346299,0.304653,0.188285522,-0.12783441,0.286612,0.168703046,-0.12659322,0.264616,0.150810811,-0.124544795,0.250582,0.126779487,-0.137974893,0.264741,0.0929343415,-0.152175223,0.244547,0.0880580409,-0.14798743,0.23445,0.0823631393,-0.145186263,0.225271,0.118084334,-0.120727079,0.264957,0.0766690954,-0.130284788,0.246867,0.0569874194,-0.132233223,0.236314,0.045927711,-0.130717784,0.228776,0.114505642,-0.104877751,0.266909,0.0716201145,-0.107830687,0.247365,0.0547996752,-0.105277348,0.237366,0.0423109994,-0.101446938,0.228276,0.116937016,-0.0850543166,0.27255,0.08660589,-0.0774987708,0.251035,0.0746179624,-0.0728050021,0.24115,0.0638219841,-0.0686216413,0.232428
0.213828177,-0.10652585,0.311189,0.16024401,-0.114843674,0.286074,0.205801585,-0.123114711,0.305871,0.189167341,-0.127747603,0.288891,0.170820235,-0.128505376,0.267636,0.153113974,-0.127115456,0.25357,0.128714757,-0.140784133,0.266429,0.101562287,-0.154171058,0.243459,0.0971482598,-0.151540236,0.231974,0.0931482315,-0.149305543,0.221533,0.119026862,-0.121886798,0.265632,0.0813668963,-0.135912543,0.24793,0.0627296721,-0.140776872,0.237603,0.052697837,-0.142220284,0.230228,0.114502707,-0.105808415,0.266738,0.0738784589,-0.11414681,0.247747,0.0579918316,-0.113964588,0.23803,0.0459358737,-0.112413126,0.229197,0.115643444,-0.085656534,0.271351,0.0870268355,-0.0793913076,0.250097,0.0769841458,-0.0781166126,0.240331,0.0654453594,-0.0717308617,0.231715
0.211810761,-0.107318333,0.310514,0.160160045,-0.117024619,0.285886,0.205487274,-0.124493379,0.306135,0.190998869,-0.129334991,0.290348,0.17366994,-0.132305144,0.269444,0.160168451,-0.137331863,0.259207,0.134496284,-0.148164534,0.267657,0.106935594,-0.162281976,0.245584,0.103252879,-0.160598489,0.234548,0.0999440945,-0.159265467,0.224514,0.122309962,-0.129982687,0.265841,0.0842225946,-0.141554869,0.244277,0.0677957729,-0.145224818,0.231699,0.0599806123,-0.145339049,0.222714,0.115369167,-0.114076792,0.266074,0.0753797669,-0.121675908,0.246385,0.0611984612,-0.121892348,0.236311,0.0518515883,-0.120155213,0.227154,0.113051854,-0.0934257876,0.269586,0.0893577219,-0.0891414303,0.248906,0.079834841,-0.0864874516,0.239404,0.071250375,-0.0841676446,0.231019
0.211084964,-0.108322168,0.310812,0.160352071,-0.119017934,0.285941,0.205656713,-0.12560428,0.306135,0.19229937,-0.13006955,0.289963,0.180011804,-0.130855685,0.268729,0.163599415,-0.136531187,0.257863,0.136156963,-0.149045783,0.267215,0.10781223,-0.162699102,0.244806,0.105195959,-0.158909366,0.233602,0.106982058,-0.15175804,0.223416,0.123736279,-0.131257734,0.265697,0.0855575974,-0.143422879,0.245251,0.0697854468,-0.146842633,0.233324,0.0617126378,-0.147217322,0.224805,0.116568607,-0.115638634,0.266193,0.0763361938,-0.122876454,0.246513,0.0621767944,-0.122630637,0.236444,0.0515916461,-0.121114934,0.22729,0.11392661,-0.0952535601,0.270049,0.0900684306,-0.0899989756,0.249137,0.0805512059,-0.0868552185,0.239528,0.0722474825,-0.0839786603,0.231051
0.210575761,-0.108898988,0.311246,0.16120074,-0.118599611,0.286219,0.206468982,-0.126437177,0.306851,0.197698957,-0.128296912,0.291035,0.18325649,-0.130830817,0.270034,0.170138664,-0.135175828,0.259031,0.144270236,-0.149414294,0.267763,0.117993151,-0.164450866,0.245494,0.115088224,-0.161125207,0.23436,0.10995623,-0.155282818,0.224238,0.127440981,-0.132791552,0.265848,0.0936060351,-0.148259518,0.247554,0.0780622343,-0.153842428,0.236883,0.0659708041,-0.154007597,0.229261,0.11896198,-0.117581771,0.266028,0.0793587825,-0.125703331,0.246343,0.0693071314,-0.126845875,0.236272,0.0544932204,-0.124217278,0.227116,0.114013095,-0.0960959501,0.269531,0.0897095183,-0.0904350965,0.248474,0.0800919483,-0.0870324673,0.2388,0.0716071716,-0.0839581156,0.230263
0.210182249,-0.108754949,0.310992,0.162386942,-0.1202312,0.286252,0.207301899,-0.126527448,0.306935,0.198635043,-0.128033843,0.291555,0.184167321,-0.131181834,0.270741,0.171233117,-0.136312645,0.260061,0.14586426,-0.150066469,0.268363,0.118952635,-0.165224874,0.246482,0.116244125,-0.161780061,0.235541,0.112203333,-0.156539166,0.225595,0.1309345,-0.133420369,0.266115,0.0949906637,-0.148845252,0.247895,0.0797801325,-0.154278679,0.237267,0.0708510913,-0.156762425,0.229675,0.120173934,-0.11802622,0.266002,0.0828061821,-0.128059042,0.246638,0.070385258,-0.127724747,0.236731,0.0585901836,-0.127687273,0.227725,0.11509406,-0.0978460331,0.269117,0.0900299794,-0.0908803799,0.248241,0.0804510321,-0.0873296053,0.238649,0.071951502,-0.0841392723,0.230186
0.210574012,-0.108740622,0.311159,0.165779263,-0.121909045,0.286212,0.208642068,-0.126650245,0.307186,0.20124033,-0.127047958,0.291909,0.186912418,-0.131358467,0.271336,0.172807292,-0.137140286,0.260994,0.147065315,-0.150256354,0.268318,0.125171793,-0.16597424,0.246407,0.123372815,-0.162288995,0.235451,0.118564442,-0.158075192,0.225491,0.132174102,-0.133505265,0.265906,0.0965084385,-0.149180575,0.247774,0.0835343166,-0.155176332,0.237197,0.0770656361,-0.156281992,0.229642,0.122734608,-0.118505692,0.265672,0.0858168093,-0.128954437,0.246612,0.0718108423,-0.128855514,0.23686,0.0606958918,-0.128914755,0.227995,0.118246254,-0.098621812,0.268672,0.0906324179,-0.0922012122,0.247669,0.0807990748,-0.088596287,0.238019,0.071814803,-0.0850097232,0.229504
0.210739532,-0.10848431,0.311216,0.166572665,-0.121881762,0.28627,0.209874556,-0.126576397,0.30756,0.202461929,-0.127428616,0.292694,0.188538681,-0.131878561,0.272538,0.176323229,-0.138675003,0.262743,0.14803949,-0.150624987,0.26877,0.126554664,-0.166438129,0.247104,0.125216287,-0.162812594,0.236271,0.124175286,-0.15957648,0.226422,0.132972894,-0.133687708,0.265965,0.0993307588,-0.150554025,0.248467,0.0878579895,-0.157331434,0.23826,0.0816794522,-0.159626341,0.23097,0.124521112,-0.118784317,0.265407,0.088581693,-0.130583273,0.247166,0.075926339,-0.132836085,0.237833,0.0661745215,-0.133792975,0.229349,0.118535059,-0.0984367502,0.268022,0.0911737274,-0.0932016054,0.247021,0.0819203199,-0.090600734,0.237372,0.0720443424,-0.0855957613,0.228858
0.211103565,-0.108406664,0.312061,0.166976019,-0.122080423,0.286351,0.210739349,-0.126407647,0.308011,0.202870555,-0.127461868,0.292623,0.19014653,-0.131701496,0.272545,0.17744184,-0.138541923,0.262826,0.14897785,-0.150770892,0.267965,0.128824541,-0.165931659,0.245651,0.127834979,-0.162209723,0.234493,0.127111615,-0.158875197,0.22435,0.134070351,-0.134140826,0.265424,0.101041954,-0.151606721,0.247772,0.090315935,-0.158646713,0.237475,0.0829044392,-0.160151778,0.23012,0.124571697,-0.119196912,0.265137,0.0886699812,-0.131374614,0.246304,0.0785813104,-0.134143907,0.236669,0.0700748364,-0.134975881,0.22791,0.118625946,-0.0990242651,0.268174,0.0930786397,-0.0957955421,0.247028,0.0885539845,-0.0938870048,0.237312,0.0843746103,-0.0899404296,0.228739
0.211143508,-0.108457371,0.312888,0.167284891,-0.122543343,0.286487,0.211301186,-0.126389773,0.308591,0.203359048,-0.127847437,0.292879,0.191097099,-0.13204248,0.272999,0.178758303,-0.138893904,0.263457,0.149000772,-0.151099707,0.267436,0.130963427,-0.166661738,0.244625,0.130559537,-0.161846848,0.233219,0.130566374,-0.156977377,0.22285,0.134085145,-0.134633986,0.264997,0.101537941,-0.152675745,0.246248,0.0915650529,-0.159056341,0.235312,0.0869463025,-0.160529735,0.2275,0.125182749,-0.120172009,0.264842,0.0892192613,-0.134443871,0.24507,0.080330868,-0.134939706,0.234954,0.0731662637,-0.134814822,0.225758,0.118564405,-0.0997866357,0.268127,0.0937765101,-0.0974051449,0.246618,0.0885381514,-0.0945407795,0.236735,0.0844076322,-0.0904165732,0.228015
0.21101236,-0.10823172,0.312997,0.167651659,-0.123092494,0.286554,0.212040213,-0.12624273,0.30895,0.205720861,-0.128815679,0.293562,0.19444446,-0.132673763,0.273896,0.183009214,-0.138693204,0.263184,0.15110171,-0.153757373,0.267791,0.133734846,-0.168958145,0.245154,0.134042523,-0.163094624,0.233835,0.132928914,-0.157516023,0.223545,0.135630536,-0.137584379,0.265029,0.10373683,-0.156180866,0.245681,0.0942650127,-0.160753332,0.234395,0.0906074445,-0.161339704,0.226333,0.12552609,-0.122936265,0.264613,0.0906227447,-0.137191462,0.244718,0.0821010222,-0.137691764,0.234539,0.0743573189,-0.136189922,0.225285,0.118624578,-0.102961053,0.267593,0.0949763703,-0.101361774,0.246099,0.0895224212,-0.0971643518,0.236224,0.0850326868,-0.091814114,0.227511
0.211809837,-0.108066205,0.313032,0.170054414,-0.12385626,0.287112,0.213474035,-0.126149494,0.30917,0.207266055,-0.129262926,0.294026,0.1976942,-0.133405265,0.274301,0.185458733,-0.138726212,0.263324,0.153877612,-0.155135749,0.268851,0.137846925,-0.169749501,0.246589,0.135868551,-0.164660991,0.235458,0.134556001,-0.159810775,0.225339,0.138053487,-0.13916545,0.266014,0.105902905,-0.157220565,0.247653,0.0962255954,-0.162261959,0.236942,0.0903229838,-0.163249784,0.229291,0.127045458,-0.123736037,0.265499,0.0915199044,-0.136711545,0.246086,0.0827486471,-0.137229189,0.236153,0.0755678141,-0.137206563,0.227124,0.119908121,-0.103761623,0.268293,0.0947657901,-0.100964871,0.246863,0.0888792847,-0.0967529834,0.237016,0.0822630108,-0.0920590705,0.228328
0.212958522,-0.107845115,0.313648,0.170982021,-0.124316487,0.28776,0.215040955,-0.125897696,0.30973,0.209600631,-0.129366694,0.294511,0.20022615,-0.133410179,0.274704,0.186411846,-0.138466495,0.263279,0.156512792,-0.155510753,0.269445,0.139336487,-0.169649965,0.247153,0.138510667,-0.165636983,0.236006,0.137148069,-0.160625747,0.225874,0.139342171,-0.139512387,0.266688,0.108645769,-0.158187637,0.248557,0.0976572506,-0.162942334,0.23798,0.0930422853,-0.164751174,0.230426,0.128840391,-0.125111887,0.266236,0.0933072699,-0.138067286,0.246732,0.0845948774,-0.138385607,0.236753,0.076548575,-0.137586682,0.227682,0.120922788,-0.104461489,0.269101,0.0955955491,-0.101620707,0.247675,0.0898226807,-0.0972797629,0.237831,0.0852309735,-0.0931704038,0.229145
0.211218186,-0.106171644,0.309433,0.173945839,-0.126110644,0.286776,0.214827453,-0.124752262,0.307455,0.213393437,-0.130659934,0.294843,0.204440808,-0.136431403,0.278193,0.194604013,-0.143179828,0.270252,0.159013419,-0.157611974,0.272544,0.144790943,-0.173079232,0.253177,0.14375813,-0.170747802,0.243494,0.143353355,-0.167036635,0.234691,0.142205928,-0.14097883,0.268334,0.111217808,-0.161100201,0.253167,0.102202501,-0.167537115,0.244319,0.0969976734,-0.169933212,0.237999,0.130981907,-0.125908148,0.266461,0.0965002457,-0.140283567,0.250168,0.0885345026,-0.141354246,0.241832,0.0807938819,-0.141822816,0.234254,0.123749816,-0.105278191,0.267213,0.0973768134,-0.102627246,0.247752,0.092261004,-0.0985913726,0.23881,0.0866824971,-0.0942227993,0.230921
0.216591329,-0.108912376,0.314949,0.180475575,-0.130179893,0.289302,0.218634291,-0.126891064,0.310631,0.220849012,-0.137050985,0.2949,0.209861557,-0.138390651,0.274434,0.195813402,-0.143097082,0.264252,0.16073262,-0.159029084,0.270618,0.14235508,-0.170396719,0.248126,0.140384388,-0.166553303,0.236881,0.13978431,-0.162624012,0.226657,0.144862222,-0.142240449,0.268426,0.110711,-0.159799496,0.250316,0.101690423,-0.16487295,0.239753,0.0954920025,-0.16606242,0.232207,0.136154005,-0.128723467,0.268422,0.0998694604,-0.14061814,0.248712,0.0889429071,-0.140516139,0.238628,0.0809502302,-0.13998474,0.22946,0.12999578,-0.108913213,0.271787,0.104453428,-0.105237704,0.250463,0.0982049434,-0.101099145,0.240666,0.0897485382,-0.0959026147,0.232021
0.21843753,-0.110388746,0.316004,0.181140376,-0.131719765,0.289905,0.220384279,-0.128287427,0.311472,0.219791483,-0.13842859,0.29546,0.207536185,-0.139628706,0.27566,0.194794775,-0.143108026,0.262696,0.161528916,-0.160090497,0.270721,0.143877107,-0.172359508,0.247863,0.142576931,-0.166727541,0.236435,0.141334548,-0.161552943,0.226045,0.146602362,-0.144261956,0.268661,0.114263582,-0.162651194,0.250214,0.105652215,-0.166087394,0.239454,0.098032581,-0.16663891,0.231767,0.137019534,-0.129901212,0.268798,0.100292994,-0.141319053,0.24856,0.0891938776,-0.140880368,0.238207,0.0799073053,-0.139953058,0.228794,0.130877739,-0.110256885,0.272389,0.108877858,-0.106748102,0.250943,0.102156134,-0.10276117,0.24109,0.0930305357,-0.0980067096,0.232396
0.22056741,-0.112189362,0.317363,0.183739907,-0.134418963,0.290945,0.226015735,-0.131840013,0.312558,0.220853344,-0.139725213,0.296194,0.209589612,-0.141457473,0.276153,0.195262834,-0.143447946,0.262927,0.163290829,-0.16216582,0.271257,0.145388693,-0.173822968,0.248051,0.14464301,-0.168604983,0.236447,0.142693641,-0.16290978,0.225899,0.148817656,-0.146247143,0.269442,0.115234884,-0.162939554,0.250571,0.106378828,-0.166387829,0.239562,0.0986567135,-0.167049331,0.231699,0.139641754,-0.131856996,0.269802,0.101364395,-0.141649633,0.24915,0.0917871856,-0.141555701,0.238584,0.0804328374,-0.14032489,0.228979,0.134061829,-0.112281229,0.273701,0.11029119,-0.107284811,0.251979,0.103530564,-0.103155842,0.241999,0.0945958001,-0.0985502597,0.233192
0.222054365,-0.113599031,0.317554,0.184473328,-0.134876462,0.291226,0.226984123,-0.132940059,0.312908,0.221524333,-0.140461961,0.296749,0.210077757,-0.142196411,0.276763,0.196056638,-0.144028731,0.263756,0.163950973,-0.16270589,0.271782,0.146297489,-0.174312675,0.248737,0.145535131,-0.169498269,0.237214,0.143693273,-0.164128326,0.226738,0.14948853,-0.146610247,0.269796,0.115813852,-0.163214181,0.25095,0.106893633,-0.166774366,0.239956,0.0992955013,-0.167668958,0.232103,0.140340928,-0.132093859,0.27001,0.10199785,-0.14183262,0.249477,0.092261804,-0.141823571,0.238972,0.0809471728,-0.140797682,0.229422,0.134819443,-0.112404417,0.273722,0.11079978,-0.107360309,0.252044,0.104059696,-0.103195664,0.242084,0.0954654122,-0.0987321689,0.233296
0.224145918,-0.115408157,0.318701,0.184392544,-0.134339329,0.291781,0.225811342,-0.133099072,0.313846,0.222085511,-0.141192341,0.297415,0.210841916,-0.142701143,0.277504,0.196770515,-0.143891257,0.264114,0.164458658,-0.162732855,0.271771,0.145861326,-0.173245207,0.248305,0.145444245,-0.169141062,0.236571,0.143560022,-0.163896182,0.225904,0.15009867,-0.146641743,0.26987,0.116201952,-0.162933915,0.250601,0.10718152,-0.166380681,0.239361,0.101104733,-0.167596718,0.231332,0.141035064,-0.132154004,0.270195,0.104630671,-0.141522411,0.249011,0.0935902946,-0.141786835,0.238172,0.0822978706,-0.141026636,0.228319,0.135620353,-0.112552118,0.274117,0.112463942,-0.107366961,0.252197,0.105748224,-0.102991047,0.242126,0.0987779747,-0.099113287,0.23324
0.222152242,-0.114847324,0.313929,0.183715818,-0.133882206,0.290262,0.225208696,-0.133066108,0.311203,0.222248913,-0.141544522,0.297577,0.213060263,-0.144194177,0.280246,0.200987374,-0.146495747,0.269338,0.166504464,-0.164436858,0.274579,0.149516847,-0.177299523,0.254085,0.150121035,-0.174407135,0.243838,0.149344958,-0.170438417,0.234522,0.151107821,-0.147249378,0.270999,0.118168225,-0.165133105,0.254039,0.109700709,-0.169719583,0.244145,0.104079123,-0.171879573,0.237079,0.141182059,-0.131898534,0.269714,0.105614762,-0.142269806,0.250356,0.0949063055,-0.143127324,0.240452,0.0838111333,-0.143094943,0.231449,0.134625014,-0.111384657,0.271297,0.112531765,-0.106864832,0.251483,0.106253231,-0.102841808,0.242379,0.0997471989,-0.0993264364,0.234346
0.227966311,-0.118188779,0.320016,0.186228498,-0.13602026,0.292667,0.229470923,-0.135855454,0.315238,0.223401833,-0.142562301,0.298905,0.212332426,-0.143837774,0.278997,0.198776968,-0.144493827,0.265897,0.165632399,-0.163341534,0.272529,0.147182878,-0.174202477,0.248932,0.146181337,-0.169803549,0.237133,0.145048369,-0.165146407,0.226407,0.151793502,-0.147280049,0.270406,0.117513421,-0.163176818,0.250642,0.108611274,-0.166524454,0.239113,0.102698307,-0.168103975,0.230878,0.142744586,-0.132644384,0.270579,0.10504251,-0.140930202,0.247985,0.095805394,-0.140454391,0.236425,0.0865463774,-0.140072537,0.225916,0.138194814,-0.112906748,0.274377,0.112058547,-0.107101257,0.252118,0.105337752,-0.102571615,0.241891,0.0995484483,-0.0985044159,0.232868
0.229831991,-0.11988313,0.320993,0.187001987,-0.136543531,0.293139,0.231888648,-0.138531661,0.315962,0.224513804,-0.143944255,0.299306,0.212865864,-0.144215614,0.279331,0.199160808,-0.144498465,0.266036,0.167146878,-0.163983524,0.272425,0.148646076,-0.173740778,0.248414,0.147366171,-0.169724752,0.236409,0.146399496,-0.165080913,0.225495,0.15295527,-0.147794824,0.270467,0.119512167,-0.163812378,0.250539,0.110755498,-0.167271971,0.238914,0.103799074,-0.168783352,0.230611,0.144027143,-0.133268171,0.270811,0.107047903,-0.142402216,0.248656,0.0968139809,-0.142151653,0.23732,0.0855824482,-0.14167908,0.227016,0.138777092,-0.113710043,0.274879,0.112791843,-0.107854146,0.252275,0.105487194,-0.103020898,0.241889,0.09984916,-0.0987626386,0.232726
0.227865918,-0.119544519,0.316111,0.187572203,-0.136806322,0.291569,0.230470707,-0.137681975,0.313179,0.229823385,-0.150294843,0.299266,0.220950658,-0.155982238,0.282507,0.209133868,-0.155616588,0.270804,0.171704679,-0.167340614,0.275175,0.157328851,-0.1773251,0.253951,0.157195687,-0.173087088,0.243338,0.155620397,-0.167708128,0.23381,0.156161138,-0.150375189,0.271593,0.123286611,-0.168582597,0.254803,0.115766507,-0.173112893,0.245009,0.107866792,-0.174400542,0.238013,0.146084516,-0.135198772,0.270368,0.110189112,-0.147739152,0.251322,0.100354596,-0.148590465,0.241577,0.0874525563,-0.146254735,0.232718,0.139301259,-0.114869913,0.272138,0.112882889,-0.107998604,0.251519,0.107947886,-0.103562901,0.242046,0.103619264,-0.0990205242,0.233687
0.233708981,-0.123334001,0.323165,0.190122452,-0.138703081,0.294835,0.234846602,-0.140773713,0.317925,0.230147733,-0.149009699,0.301005,0.221457012,-0.154712666,0.282214,0.203906707,-0.147126934,0.266814,0.172910996,-0.167600689,0.273614,0.154222399,-0.180866981,0.249239,0.153213049,-0.170298133,0.237052,0.153303064,-0.162434726,0.225972,0.157833569,-0.152133893,0.271775,0.123682525,-0.168575799,0.252413,0.114168003,-0.170960383,0.241119,0.105915779,-0.171234147,0.233052,0.148143599,-0.138156329,0.27225,0.110135046,-0.147710485,0.250298,0.100175243,-0.146946763,0.239067,0.0892970364,-0.144226631,0.228858,0.141897221,-0.119118344,0.276535,0.115496747,-0.112616991,0.253749,0.113107174,-0.106161248,0.24328,0.111027489,-0.0998285407,0.234042
0.234921204,-0.124436845,0.324014,0.191044232,-0.139337475,0.295468,0.236154184,-0.141807659,0.318733,0.232713751,-0.151001966,0.301763,0.223173292,-0.154563559,0.282849,0.209273826,-0.150894199,0.267799,0.173812843,-0.168134922,0.274085,0.15458314,-0.180750026,0.249586,0.154037396,-0.169981629,0.237337,0.154002498,-0.162242978,0.226201,0.158687821,-0.152687747,0.272233,0.124027934,-0.168615402,0.252395,0.115624816,-0.170850093,0.240823,0.110959567,-0.170016493,0.232557,0.148966345,-0.138734647,0.272713,0.110459076,-0.147587033,0.25008,0.100314375,-0.145162862,0.2385,0.092519441,-0.143173095,0.227973,0.142691416,-0.119735033,0.277032,0.114977145,-0.110060088,0.254097,0.114069382,-0.105934302,0.243559,0.11231317,-0.0994064995,0.234261
0.235306207,-0.124330412,0.323543,0.191414153,-0.139426534,0.295445,0.237103039,-0.141954961,0.318927,0.233957406,-0.151198879,0.302808,0.226107059,-0.153885106,0.283974,0.213002562,-0.149835891,0.268982,0.17510847,-0.168752883,0.275116,0.156971904,-0.181489474,0.251319,0.157458034,-0.17303537,0.23942,0.15704447,-0.164970745,0.228604,0.159490878,-0.153058382,0.272573,0.124763549,-0.16908636,0.253071,0.117500788,-0.17117376,0.241695,0.111277105,-0.172403684,0.233569,0.149341727,-0.138886471,0.272453,0.110665192,-0.147514269,0.249861,0.10205901,-0.145670709,0.238302,0.0943131567,-0.142476236,0.227794,0.142490729,-0.119592733,0.276002,0.114678704,-0.109966242,0.253323,0.114049931,-0.105400162,0.242903,0.11272304,-0.098880058,0.233709
0.236190541,-0.124518273,0.3245,0.192574758,-0.139984436,0.296176,0.238204802,-0.142159112,0.319884,0.23512894,-0.151323251,0.303768,0.228873851,-0.153761663,0.284902,0.215114595,-0.150502136,0.270037,0.176830122,-0.169318499,0.27573,0.157777448,-0.181588442,0.251837,0.158459805,-0.173331758,0.239891,0.158800921,-0.164660702,0.22903,0.161057477,-0.153853471,0.273121,0.125186219,-0.168980126,0.252963,0.120189427,-0.169862435,0.241204,0.114604269,-0.170960943,0.232805,0.150725023,-0.139813868,0.272963,0.110864325,-0.147404781,0.249578,0.104938273,-0.144388196,0.237613,0.105326025,-0.139280606,0.226736,0.143567881,-0.120560337,0.276495,0.116125393,-0.112533392,0.253713,0.114902201,-0.105461897,0.243246,0.115085186,-0.0985033187,0.23401
0.236520052,-0.124339451,0.324254,0.194573567,-0.140744085,0.296209,0.238934641,-0.142080089,0.319985,0.236137565,-0.151486135,0.304321,0.230065668,-0.154195391,0.2856,0.217899913,-0.150625533,0.270733,0.178494561,-0.169529452,0.276339,0.158636445,-0.182018288,0.252837,0.159553667,-0.174100532,0.241086,0.159788212,-0.166303959,0.230404,0.162512066,-0.154093508,0.273381,0.125823364,-0.169023631,0.253382,0.120932039,-0.16986887,0.241716,0.11553485,-0.171119469,0.233383,0.151949216,-0.140033821,0.272916,0.111603428,-0.147628569,0.250311,0.106053908,-0.144684287,0.238745,0.100786312,-0.141697981,0.228231,0.144496185,-0.120114342,0.276047,0.116504568,-0.110914011,0.253421,0.11627092,-0.104872557,0.243025,0.115882977,-0.0982221183,0.233852
