sluyters/QuantumLeap/backend/src/datasets/dynamic/HandGestureDataset_SHREC2017_csv/Gesture6/finger_2/subject_20_essai_2_skeletons_world.csv
Wrist_x,Wrist_y,Wrist_z,Palm_x,Palm_y,Palm_z,thumb_base_x,thumb_base_y,thumb_base_z,thumb_first_joint_x,thumb_first_joint_y,thumb_first_joint_z,thumb_second_joint_x,thumb_second_joint_y,thumb_second_joint_z,thumb_tip_x,thumb_tip_y,thumb_tip_z,index_base_x,index_base_y,index_base_z,index_first_joint_x,index_first_joint_y,index_first_joint_z,index_second_joint_x,index_second_joint_y,index_second_joint_z,index_tip_x,index_tip_y,index_tip_z,middle_base_x,middle_base_y,middle_base_z,middle_first_joint_x,middle_first_joint_y,middle_first_joint_z,middle_second_joint_x,middle_second_joint_y,middle_second_joint_z,middle_tip_x,middle_tip_y,middle_tip_z,ring_base_x,ring_base_y,ring_base_z,ring_first_joint_x,ring_first_joint_y,ring_first_joint_z,ring_second_joint_x,ring_second_joint_y,ring_second_joint_z,ring_tip_x,ring_tip_y,ring_tip_z,pinky_base_x,pinky_base_y,pinky_base_z,pinky_first_joint_x,pinky_first_joint_y,pinky_first_joint_z,pinky_second_joint_x,pinky_second_joint_y,pinky_second_joint_z,pinky_tip_x,pinky_tip_y,pinky_tip_z,
0.50686559,-0.40305553,0.55304,0.51112265,-0.35122833,0.550255,0.49193917,-0.39129361,0.559181,0.47031673,-0.36488447,0.557218,0.42790299,-0.33536209,0.53217,0.40719984,-0.31315174,0.517487,0.49315838,-0.30332837,0.555711,0.48852588,-0.26232287,0.55206,0.48600926,-0.24301125,0.550235,0.48255629,-0.22864105,0.548575,0.51109808,-0.30173211,0.547099,0.50647414,-0.25313948,0.537409,0.50211532,-0.23012988,0.531757,0.50034653,-0.2200692,0.52772,0.52681189,-0.30374561,0.54026,0.52509531,-0.25756395,0.529739,0.52091012,-0.24013251,0.524356,0.51730271,-0.22242433,0.519462,0.54632355,-0.31189045,0.532631,0.5452124,-0.28472313,0.522888,0.546268,-0.27350534,0.518412,0.54698139,-0.26031706,0.514462
0.50130372,-0.39595783,0.546443,0.50753798,-0.34827511,0.546986,0.48604966,-0.38527636,0.551738,0.46504249,-0.35835122,0.549219,0.4278403,-0.32593678,0.525225,0.41128566,-0.30385769,0.511723,0.49222351,-0.30200643,0.554034,0.48893978,-0.26210182,0.552722,0.48728977,-0.24583923,0.552067,0.48515045,-0.23080496,0.551471,0.51223755,-0.3014902,0.547601,0.51007642,-0.25437928,0.541315,0.50891749,-0.23541035,0.537648,0.50763761,-0.22575417,0.53503,0.52933404,-0.30420838,0.542258,0.52784384,-0.25919499,0.535055,0.52362164,-0.24259665,0.53137,0.52511138,-0.22676988,0.528019,0.54922943,-0.31340595,0.535853,0.55065748,-0.29112538,0.529639,0.54862782,-0.28221398,0.526784,0.55004561,-0.27356762,0.525437
0.51248916,-0.40325553,0.558413,0.51207252,-0.35123864,0.551773,0.49344711,-0.38954761,0.559806,0.46625228,-0.35798606,0.550369,0.42907003,-0.32432424,0.525401,0.41187072,-0.30069067,0.509776,0.48695056,-0.29883402,0.548229,0.48197935,-0.25925497,0.546173,0.47844088,-0.24372331,0.545145,0.47579857,-0.23014237,0.54421,0.50902694,-0.29958552,0.54425,0.50622312,-0.25233337,0.537082,0.50370669,-0.23215954,0.532901,0.50289909,-0.22360031,0.529914,0.52757474,-0.30423427,0.541567,0.52060283,-0.25620496,0.528889,0.51196981,-0.24101979,0.522402,0.51119485,-0.23343126,0.516505,0.5509527,-0.31680348,0.539484,0.54383056,-0.29284561,0.527401,0.53763694,-0.28421493,0.52185,0.53774958,-0.27198339,0.516951
0.51496026,-0.40335635,0.560906,0.51375879,-0.35192329,0.553247,0.49414351,-0.38812751,0.560223,0.46509027,-0.35418959,0.547784,0.42983564,-0.3211747,0.524366,0.41467963,-0.29800782,0.508499,0.4855961,-0.29752298,0.546296,0.48343535,-0.25798177,0.546347,0.48289718,-0.24270804,0.546372,0.48104338,-0.22987787,0.546395,0.51037479,-0.29915958,0.544568,0.50526278,-0.25178404,0.535919,0.50367765,-0.23332796,0.530874,0.50219314,-0.22496897,0.52727,0.53080387,-0.30493778,0.543828,0.52047028,-0.2581767,0.529522,0.51555637,-0.2411294,0.522203,0.51197856,-0.23453521,0.51555,0.55673026,-0.31868663,0.544209,0.54541369,-0.28349383,0.530509,0.54118227,-0.27266851,0.524214,0.54020025,-0.26642644,0.518659
0.51953607,-0.40459507,0.565529,0.51700359,-0.35263817,0.555898,0.49868394,-0.38794157,0.564005,0.47107555,-0.35400037,0.551723,0.43998484,-0.32060622,0.530369,0.42137217,-0.29770727,0.512856,0.48555272,-0.29732012,0.546328,0.48416649,-0.25796354,0.546784,0.48501229,-0.24022885,0.547012,0.48333458,-0.2296256,0.54722,0.51004318,-0.29941108,0.544986,0.50609547,-0.25182558,0.536671,0.5047025,-0.23293978,0.53182,0.50341271,-0.22394171,0.528355,0.5315127,-0.30494065,0.544741,0.51932678,-0.25741781,0.528502,0.51347077,-0.23966979,0.520194,0.50924999,-0.23317847,0.512641,0.55819363,-0.31903085,0.54603,0.54387606,-0.2843946,0.530652,0.5365332,-0.27659155,0.523586,0.5360023,-0.26882723,0.517352
0.52102565,-0.40309385,0.565969,0.51758471,-0.3525402,0.556654,0.49941322,-0.38769477,0.564569,0.47297795,-0.35436848,0.553524,0.4404695,-0.32080058,0.532434,0.42567631,-0.29679173,0.518439,0.48643464,-0.29760858,0.54749,0.48498461,-0.25733286,0.546691,0.48497979,-0.23972224,0.546292,0.48566002,-0.22886057,0.545929,0.51137874,-0.29921268,0.5461,0.50891106,-0.25248064,0.539457,0.50826125,-0.2326886,0.535582,0.50778258,-0.22326047,0.532815,0.53261462,-0.30455268,0.545786,0.52116217,-0.25650605,0.529764,0.51590967,-0.23910067,0.521567,0.51172298,-0.22805983,0.514115,0.55820888,-0.31866955,0.546943,0.54407858,-0.28496511,0.531828,0.53713679,-0.27677948,0.524883,0.53624564,-0.26935994,0.518755
0.52389344,-0.40313476,0.568645,0.51973293,-0.3525158,0.55842,0.50162981,-0.38739839,0.56659,0.47227916,-0.35307169,0.552806,0.43745955,-0.32031197,0.530385,0.42121967,-0.29737324,0.514646,0.48692065,-0.2956691,0.547712,0.48445558,-0.25530958,0.545535,0.48522083,-0.23670343,0.544446,0.48384847,-0.22675403,0.543456,0.51154158,-0.29724437,0.546834,0.51012312,-0.25153784,0.540812,0.51022725,-0.22930105,0.537299,0.50878049,-0.22145088,0.534789,0.53291079,-0.30300135,0.547022,0.52144069,-0.256201,0.530008,0.51520896,-0.23869502,0.521304,0.51132239,-0.22758031,0.513391,0.55957177,-0.31760931,0.548921,0.54437812,-0.28514469,0.532924,0.5371743,-0.27734559,0.525574,0.53309356,-0.27203039,0.519089
0.52587706,-0.40310925,0.570475,0.52055317,-0.3525941,0.559593,0.50333983,-0.38733282,0.568155,0.47270903,-0.35292916,0.553369,0.43765082,-0.3200918,0.530744,0.42145519,-0.2970366,0.514872,0.48700799,-0.29522188,0.548031,0.48402552,-0.25441982,0.544917,0.48425004,-0.2354871,0.543359,0.48276083,-0.22540841,0.541943,0.51176721,-0.29686528,0.547263,0.51039053,-0.25120402,0.54125,0.51051834,-0.22885584,0.537742,0.50940789,-0.22123346,0.535237,0.53325966,-0.30275606,0.5476,0.52139478,-0.2558468,0.529932,0.51546424,-0.23868643,0.520892,0.51083697,-0.22714932,0.512674,0.56016086,-0.31758511,0.549784,0.54420894,-0.28506971,0.533241,0.53690705,-0.27748127,0.52564,0.53245594,-0.27229502,0.518934
0.52794476,-0.4027416,0.57196,0.52123499,-0.35266221,0.560514,0.50545904,-0.38712622,0.569712,0.47363261,-0.35324647,0.554487,0.43950086,-0.31994645,0.532611,0.42245354,-0.29733903,0.515808,0.48746225,-0.29505575,0.548592,0.48479874,-0.25354239,0.545134,0.48454052,-0.23522995,0.543405,0.48216336,-0.22514068,0.541834,0.51236574,-0.29710846,0.547544,0.51159312,-0.25074249,0.541866,0.51277446,-0.22739506,0.538554,0.5131625,-0.21985972,0.536188,0.53332435,-0.30247206,0.547701,0.52114196,-0.25544723,0.529573,0.5153731,-0.23819401,0.520298,0.51024023,-0.22672122,0.511866,0.56059385,-0.3179523,0.549765,0.54358231,-0.28475298,0.532881,0.53621891,-0.27731597,0.525124,0.53146284,-0.27221759,0.518279
0.53101882,-0.4032849,0.574615,0.52188531,-0.35056994,0.562442,0.50810346,-0.38762891,0.572033,0.47545117,-0.35321358,0.556242,0.43929834,-0.3196295,0.533454,0.42294981,-0.29750228,0.516007,0.48765119,-0.29218939,0.549525,0.4866452,-0.251654,0.547294,0.48588646,-0.23313553,0.546179,0.48336776,-0.21590073,0.545165,0.51256984,-0.29524534,0.548649,0.51119168,-0.24871825,0.541516,0.51175822,-0.22637499,0.537355,0.51158667,-0.2178866,0.534383,0.53400511,-0.30135272,0.549012,0.52123352,-0.25459126,0.53016,0.51626544,-0.23687249,0.520515,0.51010356,-0.22646842,0.511746,0.56114636,-0.31699301,0.551439,0.54357418,-0.2848937,0.533939,0.53672319,-0.2775731,0.525899,0.53159929,-0.27250981,0.518805
0.5316451,-0.40303277,0.576152,0.52270444,-0.35207514,0.56318,0.50837156,-0.38724721,0.573155,0.4754999,-0.35432132,0.556681,0.438443,-0.32217,0.531994,0.42334601,-0.29852153,0.515943,0.48527771,-0.29283342,0.549109,0.48205329,-0.25118065,0.544415,0.47615188,-0.23285958,0.542068,0.4797647,-0.22066799,0.539935,0.51054074,-0.29484897,0.548482,0.50920145,-0.24762582,0.541262,0.50921893,-0.22568334,0.537051,0.50942457,-0.21722203,0.534043,0.53281376,-0.30035914,0.549122,0.51963459,-0.2541656,0.529376,0.51380291,-0.23574641,0.519274,0.50781362,-0.22606294,0.51009,0.56060943,-0.31589311,0.552007,0.53745709,-0.28540393,0.533813,0.53222833,-0.27748118,0.525454,0.52821002,-0.27395364,0.518079
0.5339536,-0.40424992,0.580117,0.52262593,-0.35021645,0.568619,0.50950576,-0.38767415,0.575841,0.47615047,-0.35581494,0.557991,0.43774961,-0.32155005,0.53141,0.42204529,-0.29889108,0.51372,0.48119573,-0.29098004,0.554122,0.47371705,-0.25135926,0.552311,0.47083999,-0.23313438,0.551406,0.46927824,-0.22006853,0.550583,0.50799696,-0.2937756,0.555589,0.49120144,-0.24528157,0.536177,0.48284517,-0.22259244,0.524853,0.47760905,-0.21084138,0.516764,0.53095665,-0.30029925,0.557822,0.51632345,-0.26267473,0.539082,0.50889963,-0.24288323,0.529494,0.50359111,-0.23159216,0.520778,0.55976387,-0.31589282,0.562348,0.53360311,-0.31578007,0.544616,0.535729,-0.33486835,0.559943,0.54595061,-0.34212156,0.572126
0.53237575,-0.40187564,0.57937,0.51619021,-0.34606579,0.567697,0.50783919,-0.3854877,0.574944,0.47576568,-0.35541359,0.556871,0.43520734,-0.32327188,0.528419,0.42091434,-0.3032274,0.508241,0.47885623,-0.28972635,0.552873,0.46714684,-0.25018479,0.551831,0.46291889,-0.23223136,0.551309,0.45948752,-0.21670863,0.550835,0.50583583,-0.29201466,0.55447,0.48790266,-0.2432727,0.534869,0.47653974,-0.21894282,0.523436,0.47364823,-0.20912739,0.515269,0.52903836,-0.29812519,0.556824,0.51339618,-0.26105457,0.537885,0.50544167,-0.24154173,0.528196,0.49995187,-0.23093181,0.519387,0.55830783,-0.3132383,0.561522,0.53255051,-0.31410547,0.543617,0.5353768,-0.33386579,0.558906,0.54561032,-0.3411298,0.571137
0.5320178,-0.40019483,0.580067,0.51455731,-0.34394149,0.566761,0.50494828,-0.3820616,0.573478,0.48366924,-0.35528608,0.552409,0.44567653,-0.32246655,0.521089,0.42259951,-0.29920669,0.509102,0.47139886,-0.2859473,0.547937,0.45484347,-0.24683206,0.545824,0.44914758,-0.22885437,0.544767,0.44552457,-0.21476985,0.543807,0.50008356,-0.2879297,0.551686,0.4807756,-0.2378473,0.539441,0.47635708,-0.21797491,0.532298,0.47836102,-0.21063128,0.527196,0.52282569,-0.29164933,0.555956,0.50755074,-0.25731742,0.534765,0.49865553,-0.23814624,0.523924,0.49426557,-0.22800749,0.514067,0.55461599,-0.30566433,0.563187,0.53326099,-0.31317694,0.543415,0.54432908,-0.33436544,0.558215,0.55210472,-0.35376992,0.570913
0.5346095,-0.36598319,0.569591,0.50853061,-0.31542141,0.553476,0.50897357,-0.35738778,0.567963,0.46724735,-0.34200981,0.552848,0.43435747,-0.32622812,0.523691,0.42675439,-0.31276935,0.502275,0.45772098,-0.26714025,0.538614,0.44361268,-0.23243815,0.541185,0.43638196,-0.2185763,0.54247,0.42977309,-0.20662561,0.543639,0.47962727,-0.26050376,0.535216,0.46431121,-0.21425752,0.526264,0.45672668,-0.20522116,0.521042,0.45136267,-0.19967984,0.517312,0.50010656,-0.25924099,0.533855,0.47371951,-0.22208052,0.512441,0.46134045,-0.20971056,0.501484,0.45376646,-0.21681439,0.491524,0.52900142,-0.26560672,0.53489,0.50693653,-0.25628439,0.515313,0.51471214,-0.27500596,0.529638,0.52016467,-0.29612009,0.542083
0.53770529,-0.36721105,0.573942,0.51043401,-0.31687614,0.558444,0.50819626,-0.3571167,0.568507,0.48179579,-0.3452534,0.548469,0.43029117,-0.32075413,0.518113,0.41344684,-0.30131335,0.497011,0.45054062,-0.26782381,0.539315,0.43161266,-0.23284773,0.535135,0.4231943,-0.21803939,0.533045,0.41719875,-0.20849104,0.531145,0.47612202,-0.26179539,0.540883,0.44917744,-0.21648269,0.520241,0.4375373,-0.20522384,0.5082,0.4291829,-0.19698202,0.499599,0.50001683,-0.26085861,0.543555,0.48079351,-0.22869053,0.521109,0.4693004,-0.21577389,0.509625,0.46120678,-0.22071813,0.499184,0.5336566,-0.26738153,0.549256,0.51551958,-0.25040916,0.528456,0.5215272,-0.27329124,0.543003,0.53020319,-0.28826588,0.555964
0.53340226,-0.36300021,0.569005,0.50797666,-0.31517639,0.556714,0.50521573,-0.35452766,0.56499,0.48695164,-0.34297559,0.547322,0.44145099,-0.31721515,0.516007,0.41436963,-0.29930133,0.497763,0.4518855,-0.26965891,0.541912,0.42240576,-0.23827808,0.532453,0.41011823,-0.22555917,0.527724,0.40168824,-0.21806083,0.523424,0.4767611,-0.26273763,0.542786,0.44900783,-0.21726755,0.522685,0.43254748,-0.19939115,0.51096,0.4237663,-0.19122924,0.502584,0.49986038,-0.26090937,0.544601,0.47643528,-0.22705225,0.525341,0.46728667,-0.21892099,0.515487,0.45930549,-0.2128107,0.506528,0.53212523,-0.26606097,0.548763,0.51583435,-0.25108016,0.530605,0.52289763,-0.27402233,0.54582,0.53033103,-0.2904709,0.55811
0.53219489,-0.35817912,0.565935,0.50508696,-0.31116256,0.555405,0.50538835,-0.35197498,0.563505,0.49486343,-0.34159645,0.54821,0.44946225,-0.32092425,0.516995,0.42111458,-0.30248708,0.502978,0.45035351,-0.27125737,0.543985,0.40966185,-0.23849609,0.528337,0.39299824,-0.22493215,0.520513,0.3810013,-0.21603297,0.5134,0.4700312,-0.25987482,0.543473,0.4380771,-0.21741482,0.525305,0.42381842,-0.20140059,0.514707,0.41575246,-0.19425259,0.507137,0.49115929,-0.25401931,0.54399,0.46829838,-0.22343409,0.526673,0.46036766,-0.21643729,0.517812,0.45372804,-0.21132534,0.509757,0.52166648,-0.25369052,0.546329,0.50695378,-0.24154017,0.529973,0.51722951,-0.26499322,0.545516,0.52634906,-0.28710866,0.557299
0.5439362,-0.35512808,0.573162,0.5114199,-0.31186509,0.561618,0.51240968,-0.35223198,0.567188,0.49499665,-0.33989579,0.54722,0.45998175,-0.32216675,0.515171,0.4383302,-0.30791114,0.499519,0.4483386,-0.27839128,0.544963,0.40530384,-0.24633586,0.526308,0.38820905,-0.23285278,0.516981,0.37676679,-0.2232608,0.508501,0.47299343,-0.26403116,0.548538,0.43617849,-0.22477259,0.52882,0.42398041,-0.20445323,0.517318,0.41638682,-0.19608595,0.509102,0.49644174,-0.25832137,0.552508,0.46453412,-0.22756046,0.532989,0.45615518,-0.21701365,0.523002,0.44855216,-0.20717097,0.513924,0.52687178,-0.25633502,0.559096,0.51556803,-0.25506855,0.540719,0.53048909,-0.27966261,0.555859,0.54018837,-0.29105986,0.568197
0.55457261,-0.35046862,0.579119,0.51678938,-0.31086324,0.567303,0.52382477,-0.34905992,0.571838,0.50535027,-0.33475177,0.550242,0.47078119,-0.31834238,0.518103,0.44406213,-0.30137761,0.496886,0.4497461,-0.28165243,0.5488,0.4038973,-0.25256965,0.52931,0.38820839,-0.23997849,0.519564,0.37692036,-0.22670921,0.510705,0.46975063,-0.26841794,0.553916,0.42996694,-0.22974092,0.53378,0.4144862,-0.21157132,0.522035,0.4076396,-0.20166897,0.513645,0.49141382,-0.25937035,0.559179,0.45907292,-0.22906505,0.538883,0.45251704,-0.21926795,0.528499,0.45050314,-0.21018366,0.519059,0.52404709,-0.25409683,0.567339,0.51458159,-0.25572299,0.548348,0.53436626,-0.28133279,0.563228,0.54422685,-0.29205109,0.575681
0.55501475,-0.34833198,0.579915,0.51393824,-0.30766125,0.565394,0.52885851,-0.35062423,0.57757,0.51390909,-0.33991526,0.561706,0.48274887,-0.32587679,0.531571,0.4549807,-0.30913881,0.509885,0.44770635,-0.28395077,0.550903,0.40370735,-0.26116762,0.532806,0.38609065,-0.25331643,0.523757,0.3718238,-0.24785239,0.515531,0.46416973,-0.26634848,0.54894,0.41781649,-0.22826912,0.527152,0.39901677,-0.21580618,0.514442,0.38537101,-0.2067306,0.505364,0.48147129,-0.2549707,0.548619,0.44553455,-0.21768259,0.52757,0.44076927,-0.2156689,0.516801,0.43321744,-0.21637031,0.507011,0.50935343,-0.2476948,0.550621,0.4913696,-0.23354107,0.531713,0.50476395,-0.23708678,0.546485,0.51595432,-0.23963617,0.558867
0.56233036,-0.34041174,0.586382,0.51164177,-0.30303,0.567373,0.53724596,-0.34643815,0.584316,0.52309657,-0.33652755,0.568255,0.49040595,-0.32955927,0.540051,0.46102771,-0.31487026,0.519052,0.44288702,-0.28412823,0.549659,0.39589784,-0.26815174,0.52894,0.37956964,-0.26461302,0.51858,0.36853344,-0.26382181,0.509162,0.45392956,-0.26471096,0.545834,0.40336885,-0.23240171,0.520169,0.38390504,-0.22407317,0.505198,0.36982554,-0.21808714,0.494504,0.46904951,-0.25056271,0.54438,0.4256826,-0.21512332,0.519109,0.41759779,-0.21410021,0.506179,0.4103176,-0.2132895,0.494425,0.49536377,-0.23861768,0.545779,0.47543408,-0.22782633,0.524243,0.48753481,-0.23300396,0.537806,0.49898095,-0.23787705,0.550644
0.56020421,-0.3367456,0.584361,0.51057748,-0.30149832,0.566467,0.53600071,-0.34371855,0.583007,0.52331492,-0.33685694,0.568055,0.49065468,-0.32938056,0.539831,0.46120925,-0.31560768,0.519169,0.44310324,-0.28525937,0.55053,0.39673932,-0.27530372,0.531136,0.38011399,-0.27363681,0.521439,0.36634741,-0.27300435,0.512624,0.4544072,-0.26539656,0.546191,0.39834113,-0.23574596,0.521681,0.37659025,-0.22853791,0.507383,0.36804512,-0.22811492,0.49717,0.46909361,-0.25093329,0.544216,0.41596156,-0.22643844,0.522257,0.40292914,-0.22420332,0.511022,0.39478468,-0.22436718,0.500809,0.49468044,-0.23853873,0.544815,0.47563514,-0.22680901,0.524288,0.4879512,-0.23137466,0.538081,0.49916358,-0.23543431,0.550654
0.56245816,-0.33643024,0.586558,0.51171505,-0.30273507,0.566772,0.53825073,-0.34396648,0.585039,0.52530343,-0.33845821,0.569666,0.49351173,-0.33132787,0.542241,0.46467788,-0.31864196,0.522456,0.44040231,-0.29190145,0.549122,0.3923737,-0.28365006,0.528508,0.37568396,-0.28335929,0.518201,0.3634332,-0.28427268,0.50883,0.45203406,-0.26753906,0.544353,0.39697085,-0.24582815,0.525182,0.37817663,-0.24218087,0.513998,0.36445087,-0.23962225,0.50601,0.46597875,-0.25245413,0.542191,0.41285178,-0.2315576,0.518462,0.40273701,-0.23075398,0.506321,0.39724762,-0.23203252,0.495284,0.4916222,-0.23859198,0.542881,0.47187233,-0.22590034,0.521069,0.48435439,-0.23093097,0.534315,0.49701359,-0.2387508,0.547128
0.56029465,-0.3344965,0.584016,0.51054513,-0.30362112,0.565053,0.53668307,-0.34483538,0.583159,0.52372617,-0.33800261,0.568799,0.49013458,-0.32938557,0.541466,0.46238629,-0.3166908,0.522348,0.44033439,-0.29366892,0.548886,0.39262885,-0.28504218,0.529254,0.37759719,-0.28547866,0.519439,0.36592768,-0.28677465,0.510515,0.45042717,-0.27160786,0.543566,0.39680542,-0.24728155,0.525282,0.37731849,-0.24349305,0.514617,0.37069296,-0.24680717,0.506999,0.46335717,-0.25579333,0.540878,0.41427146,-0.2397873,0.518596,0.38892787,-0.23055111,0.507195,0.38264021,-0.23218064,0.496831,0.48724793,-0.24140288,0.54081,0.46887901,-0.22821156,0.519901,0.4826887,-0.23492136,0.533272,0.49657742,-0.24290286,0.545816
0.56708217,-0.34254916,0.591443,0.52209249,-0.31842598,0.574358,0.54096151,-0.35140039,0.587606,0.52115139,-0.34356414,0.569387,0.48627582,-0.32533623,0.539374,0.46135994,-0.31503169,0.522468,0.45294129,-0.30808791,0.555964,0.39825485,-0.28868898,0.535239,0.38189037,-0.28775232,0.524877,0.36859171,-0.2876808,0.515457,0.46857111,-0.28872305,0.555,0.41547831,-0.2608902,0.530892,0.38960071,-0.24909189,0.516829,0.36881392,-0.24243563,0.506785,0.48561797,-0.27517641,0.555729,0.43163122,-0.24470942,0.53266,0.41663164,-0.23884554,0.520857,0.40467657,-0.233654,0.510127,0.51341413,-0.26371072,0.559394,0.50651629,-0.27989011,0.538229,0.52398638,-0.29793529,0.552463,0.53982127,-0.31416299,0.565431
0.56603289,-0.34259325,0.590309,0.52121907,-0.31890684,0.573545,0.5393207,-0.35282344,0.585706,0.52075565,-0.34063138,0.566533,0.48509476,-0.32470114,0.536082,0.45998453,-0.31287186,0.519867,0.45246824,-0.30803395,0.55445,0.40062828,-0.29019662,0.533389,0.38790583,-0.29053017,0.522858,0.37259399,-0.28989373,0.513285,0.46873953,-0.28907221,0.554551,0.41484998,-0.26050596,0.531866,0.39097761,-0.25028317,0.518633,0.37158884,-0.2437062,0.50918,0.48636392,-0.2757585,0.556128,0.432447,-0.24494147,0.533,0.41761677,-0.23893262,0.521167,0.40489999,-0.23365468,0.510409,0.5149198,-0.26443873,0.560742,0.50830527,-0.28053331,0.539461,0.52609279,-0.29864693,0.553774,0.54218879,-0.31489127,0.566814
0.56664583,-0.34328808,0.590745,0.52199826,-0.31935616,0.574052,0.54072267,-0.3520859,0.586638,0.52274522,-0.34082004,0.568121,0.48757665,-0.32542738,0.537851,0.46283891,-0.31090419,0.521866,0.4541479,-0.30855613,0.555632,0.39971338,-0.2896885,0.534957,0.38226539,-0.28772209,0.52462,0.37484183,-0.29043375,0.515222,0.46989676,-0.28916195,0.555137,0.41398009,-0.2591112,0.53102,0.39060273,-0.24930912,0.516952,0.3862309,-0.2486018,0.506903,0.48707255,-0.27551072,0.556218,0.43337041,-0.24469594,0.533341,0.41868047,-0.23868523,0.521637,0.40563146,-0.23357748,0.510997,0.51506687,-0.26379855,0.560233,0.50878629,-0.27998736,0.539199,0.52666439,-0.29810546,0.553531,0.54274508,-0.3142932,0.566491
0.56879064,-0.34234798,0.59251,0.52229419,-0.31670019,0.575049,0.54323639,-0.34982553,0.588897,0.52435938,-0.34396369,0.570922,0.49048344,-0.32719997,0.541155,0.46665678,-0.31639328,0.525263,0.45494815,-0.30841364,0.556634,0.40262316,-0.29034754,0.5375,0.38500628,-0.28814305,0.527933,0.37463017,-0.29036177,0.519236,0.46964134,-0.28842448,0.555264,0.41352331,-0.25773437,0.532551,0.39232236,-0.25026829,0.519301,0.3793617,-0.24761848,0.509838,0.48604953,-0.27426403,0.555692,0.43181348,-0.24238182,0.532265,0.41751606,-0.23736425,0.520279,0.40451332,-0.23265122,0.509383,0.51141806,-0.25779032,0.559062,0.50515976,-0.27732892,0.537759,0.52469046,-0.296167,0.551892,0.54111011,-0.31232414,0.56487
0.57053017,-0.34220604,0.594255,0.52243078,-0.31430954,0.575979,0.54482187,-0.34998792,0.590378,0.52525699,-0.34486665,0.571946,0.49458054,-0.33253584,0.542362,0.47724947,-0.32328198,0.526215,0.45430186,-0.30701814,0.556585,0.40381841,-0.29033269,0.541803,0.38724982,-0.29020822,0.534411,0.38095028,-0.29371299,0.527692,0.46788134,-0.28650724,0.55527,0.41189812,-0.25639531,0.534829,0.39143,-0.25206457,0.522905,0.37977577,-0.24984003,0.514388,0.48338781,-0.27080039,0.555816,0.42900873,-0.23798055,0.53186,0.4165669,-0.23640094,0.519603,0.40298933,-0.23105101,0.508461,0.51087078,-0.25754553,0.559459,0.50246332,-0.27474958,0.537539,0.52176415,-0.29250782,0.551472,0.54039934,-0.31141391,0.564589
0.57016923,-0.34064771,0.59343,0.52117619,-0.31150469,0.575699,0.54534515,-0.34932644,0.590188,0.52557014,-0.34508646,0.572674,0.49348155,-0.33052155,0.543202,0.47140146,-0.32162404,0.527441,0.45385149,-0.30619822,0.557535,0.40336662,-0.29011202,0.542524,0.38694497,-0.29024899,0.535019,0.38146566,-0.29405935,0.528195,0.46696765,-0.28486974,0.555609,0.41118833,-0.25613355,0.535082,0.38726122,-0.24950707,0.523108,0.37929255,-0.24920508,0.514555,0.48248249,-0.27008328,0.555605,0.42829763,-0.23719343,0.531799,0.41531806,-0.23376515,0.51962,0.40298684,-0.23089855,0.508547,0.50931958,-0.2565092,0.558508,0.50136971,-0.27406652,0.537201,0.52082824,-0.29183362,0.551246,0.53932153,-0.30986121,0.56419
0.57120323,-0.34182846,0.594403,0.52184882,-0.31231003,0.576598,0.54691887,-0.35088427,0.591721,0.52258619,-0.34515164,0.574951,0.49142043,-0.33006357,0.545824,0.47042626,-0.31919259,0.530323,0.45219592,-0.30360815,0.559073,0.40274235,-0.28876539,0.544004,0.38662974,-0.28945959,0.536469,0.38243532,-0.29433107,0.52962,0.46723606,-0.28475447,0.556424,0.41133301,-0.25531909,0.53536,0.3878926,-0.24900492,0.523072,0.37938186,-0.24904144,0.514296,0.48251477,-0.26996332,0.55583,0.42836013,-0.23764416,0.532286,0.4150708,-0.23519327,0.520241,0.40164812,-0.23211953,0.50929,0.50902659,-0.2564909,0.558049,0.50054612,-0.27445978,0.536949,0.51979594,-0.29210859,0.550931,0.53852916,-0.31007186,0.563778
0.57216202,-0.34273745,0.595141,0.52247641,-0.31283349,0.577368,0.54824594,-0.35207172,0.592819,0.52018574,-0.34561321,0.576543,0.49054132,-0.33157007,0.547621,0.47017412,-0.31804206,0.532304,0.45308836,-0.304094,0.560317,0.40489113,-0.28589446,0.547487,0.39093158,-0.28737361,0.541072,0.38397681,-0.2914576,0.535241,0.4657322,-0.28346703,0.557229,0.41214494,-0.25213303,0.536951,0.39063417,-0.24648372,0.525122,0.38132673,-0.24970659,0.516673,0.48242328,-0.26990859,0.556271,0.42855118,-0.23756065,0.532977,0.41376955,-0.23378232,0.521059,0.4038919,-0.23255025,0.510224,0.50864465,-0.25637153,0.558054,0.49882187,-0.27436366,0.537138,0.51820249,-0.29196409,0.551094,0.53661439,-0.30796707,0.563866
0.57265288,-0.3435864,0.595642,0.52309783,-0.31394637,0.57781,0.54864204,-0.35278208,0.593252,0.52013859,-0.34575541,0.576875,0.49019414,-0.33180792,0.547935,0.46909168,-0.31797963,0.532575,0.45312953,-0.30408885,0.560627,0.40712736,-0.2833482,0.550054,0.39473482,-0.28200075,0.544767,0.38915419,-0.28935052,0.539961,0.4658752,-0.28357879,0.557604,0.4138269,-0.25188581,0.538868,0.3920123,-0.24336834,0.527938,0.38306514,-0.24537901,0.520132,0.4816222,-0.26925181,0.556706,0.42872914,-0.23555228,0.533168,0.41633768,-0.22753423,0.521125,0.40595959,-0.23211341,0.510176,0.50877114,-0.25651405,0.558569,0.49862217,-0.27447947,0.537586,0.51801445,-0.29183244,0.551532,0.53636047,-0.30750421,0.564324
0.57327051,-0.34422986,0.596385,0.52384236,-0.31467235,0.578516,0.54942339,-0.35345352,0.594209,0.52095687,-0.34647587,0.578122,0.48978459,-0.33304674,0.549332,0.46951139,-0.3192992,0.534075,0.45420225,-0.30479732,0.561571,0.4077386,-0.28305506,0.550925,0.39508824,-0.28237688,0.545603,0.39082119,-0.28933518,0.540764,0.46684483,-0.28433529,0.558268,0.41519769,-0.25213182,0.54064,0.39361043,-0.24369665,0.530358,0.38574783,-0.24488828,0.523013,0.48241798,-0.26997205,0.557142,0.42931276,-0.23510011,0.533568,0.41625233,-0.22778884,0.521507,0.40644803,-0.23234441,0.510543,0.50863106,-0.25654217,0.558741,0.49581732,-0.27292878,0.537836,0.51555687,-0.29041412,0.551748,0.53520901,-0.30684599,0.5645
0.57288661,-0.34423036,0.595784,0.52389027,-0.3166217,0.578296,0.54789544,-0.35259087,0.592645,0.5114981,-0.3505651,0.575299,0.4701446,-0.3340575,0.547102,0.44018705,-0.3194507,0.53193,0.45072092,-0.29718673,0.560452,0.41246514,-0.27307312,0.555407,0.4031048,-0.27124289,0.552885,0.39476267,-0.26994354,0.550592,0.46605866,-0.28242968,0.55848,0.4215438,-0.24122708,0.541564,0.40902992,-0.23571907,0.531696,0.39991879,-0.23174519,0.524648,0.48292549,-0.26937867,0.558416,0.43257846,-0.23682515,0.535933,0.43416736,-0.23974929,0.52443,0.44166228,-0.24692171,0.513972,0.51116522,-0.25761979,0.561208,0.49653391,-0.26972605,0.540096,0.51769956,-0.29099425,0.554198,0.53737867,-0.30783116,0.567096
0.573569,-0.34530662,0.596636,0.52675034,-0.31812644,0.581714,0.54939762,-0.35398141,0.594723,0.51590299,-0.35357186,0.579382,0.48199809,-0.34232316,0.559743,0.45805901,-0.33140624,0.551236,0.45788507,-0.30035786,0.567444,0.42120466,-0.2766777,0.564692,0.41017388,-0.27009611,0.563316,0.40515985,-0.2736083,0.562065,0.47396727,-0.28163783,0.564806,0.43798139,-0.24437093,0.55529,0.42913375,-0.23874749,0.549739,0.42261053,-0.23458593,0.545774,0.49128845,-0.26921782,0.563965,0.45482128,-0.24111305,0.54349,0.44961188,-0.24061628,0.533015,0.45561547,-0.24981119,0.523704,0.51996254,-0.26182502,0.565417,0.50485482,-0.26999013,0.54645,0.52511285,-0.29452454,0.561099,0.54408041,-0.3117307,0.574566
0.56679605,-0.35688855,0.592951,0.51914395,-0.31899097,0.575486,0.53920233,-0.36083372,0.589108,0.49975104,-0.35509259,0.570828,0.45889537,-0.33888084,0.542502,0.43599732,-0.31831727,0.525848,0.44931906,-0.29475069,0.556782,0.41680771,-0.27003938,0.55562,0.40823473,-0.26146249,0.55504,0.40655873,-0.26022725,0.554512,0.46666836,-0.27739281,0.555697,0.42993625,-0.24177763,0.546599,0.42382378,-0.23706084,0.541291,0.42334265,-0.23693186,0.5375,0.48514359,-0.26622206,0.556361,0.45460898,-0.2348388,0.532361,0.43834023,-0.21781735,0.520082,0.43588797,-0.21821415,0.508919,0.51627844,-0.25979211,0.560011,0.49416327,-0.24223771,0.538607,0.50813323,-0.24717847,0.552747,0.52619723,-0.26083644,0.565763
0.56479859,-0.36035779,0.594339,0.51928079,-0.32090765,0.577193,0.53758894,-0.36340295,0.591161,0.49142834,-0.35492652,0.573809,0.45165589,-0.3364791,0.546053,0.42549927,-0.31795211,0.52824,0.45109163,-0.28877878,0.559575,0.42528262,-0.26098244,0.561738,0.41659991,-0.25279433,0.562819,0.40820034,-0.24488754,0.563802,0.47014363,-0.27740499,0.557766,0.43823135,-0.23196513,0.542881,0.42941303,-0.2236141,0.534197,0.42304432,-0.21746827,0.527995,0.48896783,-0.26750382,0.557806,0.46273618,-0.23409383,0.534257,0.44830469,-0.21707403,0.522208,0.44053486,-0.21837089,0.511255,0.52163068,-0.26584991,0.560666,0.49764682,-0.24400078,0.539748,0.51150678,-0.24920559,0.553941,0.528318,-0.26326457,0.566805
0.56297005,-0.36229119,0.594579,0.51916619,-0.32190456,0.577759,0.53378245,-0.36548504,0.591239,0.49106003,-0.35405968,0.573715,0.44995526,-0.33471009,0.546156,0.4237591,-0.31617084,0.529338,0.45262542,-0.28873428,0.560196,0.4299215,-0.25516266,0.55905,0.42203085,-0.24401025,0.558478,0.4160002,-0.23546703,0.557957,0.47248649,-0.2765275,0.5587,0.44031093,-0.23144086,0.543315,0.43215225,-0.22331118,0.534341,0.42629037,-0.21733787,0.527931,0.49369204,-0.26849338,0.558968,0.46219212,-0.2327316,0.535803,0.4490282,-0.21831364,0.523951,0.44259318,-0.21853713,0.513176,0.52420153,-0.26700637,0.562044,0.5018107,-0.24683729,0.541257,0.51333634,-0.2500478,0.555539,0.52940557,-0.26239097,0.568393
0.56366124,-0.37183646,0.601353,0.52323963,-0.32483625,0.582594,0.53248901,-0.36898838,0.594403,0.4885993,-0.35224576,0.571949,0.44156958,-0.3304307,0.545548,0.41684225,-0.31238178,0.529176,0.45564196,-0.28260986,0.558978,0.43633947,-0.25054706,0.561263,0.43170127,-0.24090192,0.562406,0.42995917,-0.23577611,0.563445,0.47866923,-0.27503742,0.561339,0.45916158,-0.23234931,0.557096,0.45659997,-0.22371962,0.554622,0.45474274,-0.21716463,0.552854,0.50240645,-0.27057045,0.564954,0.4653876,-0.23435444,0.539457,0.45119352,-0.22025454,0.526412,0.44441126,-0.21923615,0.514553,0.53720042,-0.27254165,0.572305,0.5092951,-0.25079584,0.548859,0.49738509,-0.24250259,0.538087,0.50474338,-0.24809789,0.543272
0.55770667,-0.37505636,0.599739,0.52101043,-0.32832965,0.582735,0.52740273,-0.37051546,0.593723,0.47869126,-0.35411591,0.572706,0.43460002,-0.33104119,0.546354,0.41092587,-0.31107681,0.530255,0.45751069,-0.28660871,0.56168,0.44776194,-0.25355624,0.567327,0.44280646,-0.23693789,0.57015,0.43837109,-0.22158969,0.572717,0.48374331,-0.27670776,0.563467,0.46450629,-0.23543739,0.556287,0.4636553,-0.22851825,0.552099,0.46317681,-0.22332513,0.549108,0.50885162,-0.27685446,0.566453,0.48102402,-0.23078543,0.542635,0.47361921,-0.22128911,0.53045,0.46784413,-0.2150371,0.519372,0.54243443,-0.281873,0.572772,0.51291436,-0.25527865,0.550785,0.5011274,-0.2453608,0.540683,0.50845636,-0.25077403,0.546559
0.55789059,-0.37763231,0.601158,0.52144623,-0.32955441,0.583138,0.52719691,-0.37206491,0.594627,0.47776678,-0.35336862,0.572806,0.43365758,-0.32978401,0.546841,0.41008349,-0.30984308,0.530585,0.45902076,-0.28487331,0.560632,0.44426675,-0.24906848,0.559874,0.44449667,-0.23515672,0.559495,0.44398291,-0.22623127,0.559151,0.48569114,-0.27852949,0.56272,0.46518984,-0.2309851,0.549998,0.46175065,-0.21917115,0.542577,0.45643775,-0.21497359,0.537276,0.50969581,-0.27690008,0.566044,0.48470408,-0.23408353,0.54122,0.47404977,-0.22073963,0.52852,0.46713355,-0.21147535,0.516974,0.54362949,-0.28273495,0.572929,0.52188798,-0.26839586,0.550104,0.51316128,-0.2630481,0.539617,0.52192423,-0.267808,0.545101
0.55660442,-0.37869814,0.601078,0.52318935,-0.32991189,0.584245,0.52685803,-0.37274527,0.595512,0.47721086,-0.3526914,0.575092,0.42844747,-0.32727809,0.549576,0.40742731,-0.30833502,0.531806,0.46892294,-0.2802135,0.563891,0.45181977,-0.24225181,0.5595,0.44552006,-0.22631401,0.557304,0.43963133,-0.21128699,0.555308,0.49485222,-0.27604513,0.565173,0.48721166,-0.23570604,0.565549,0.48912546,-0.22538648,0.565769,0.49058695,-0.217444,0.565926,0.51861359,-0.27686938,0.567728,0.48938138,-0.23732444,0.544248,0.47833114,-0.22292779,0.532236,0.47113232,-0.2129289,0.521315,0.55143523,-0.28579682,0.573509,0.52582287,-0.2693335,0.551803,0.51684028,-0.26352746,0.54183,0.5254359,-0.26801376,0.547822
0.51617289,-0.38304883,0.591679,0.50930208,-0.33412011,0.581187,0.49236907,-0.36716275,0.587542,0.4628219,-0.34366955,0.570068,0.41898244,-0.31078576,0.541744,0.39704757,-0.28660709,0.529143,0.47344492,-0.27974142,0.567666,0.46137765,-0.24004921,0.566892,0.45944142,-0.22582137,0.566504,0.45760586,-0.21222838,0.566152,0.49994044,-0.27927479,0.569299,0.49386951,-0.23433617,0.562719,0.49437679,-0.21452066,0.55888,0.49592369,-0.20560677,0.556138,0.52395088,-0.28720257,0.571578,0.50922444,-0.24019378,0.553756,0.50374374,-0.21989598,0.544638,0.49947822,-0.20293171,0.536348,0.55194971,-0.3028606,0.575993,0.53571379,-0.27972968,0.558989,0.52780506,-0.26814372,0.551177,0.53659093,-0.26923408,0.559174
0.51536988,-0.37252357,0.578262,0.50861165,-0.32475024,0.570988,0.49704366,-0.36335423,0.581504,0.46695308,-0.34589409,0.574541,0.42369804,-0.31480938,0.547953,0.40076927,-0.29035044,0.533287,0.47863292,-0.27775438,0.569248,0.4720399,-0.23800941,0.567614,0.4619649,-0.22463885,0.566797,0.45703823,-0.21212047,0.566054,0.49776385,-0.27615309,0.562746,0.49250633,-0.23083074,0.557828,0.48824936,-0.20726165,0.554959,0.48294142,-0.19088612,0.55291,0.51618472,-0.2771437,0.558043,0.50791374,-0.22937263,0.544567,0.49981658,-0.20941979,0.537672,0.49241676,-0.19087291,0.531405,0.53687643,-0.28721822,0.553676,0.53209716,-0.26000305,0.542087,0.52956572,-0.24746321,0.536763,0.54125064,-0.24228471,0.546023
0.52314364,-0.37228082,0.579523,0.51019275,-0.32278058,0.570252,0.50673214,-0.36547773,0.583693,0.46962372,-0.34624203,0.577765,0.42734716,-0.31689862,0.553057,0.40421718,-0.29281712,0.537468,0.4815417,-0.27684627,0.568081,0.4813588,-0.24226405,0.573052,0.47584791,-0.22940955,0.575538,0.46786074,-0.21670713,0.577797,0.49879935,-0.27283791,0.559747,0.4943107,-0.22713336,0.554494,0.48686946,-0.20539339,0.551429,0.4807097,-0.1919116,0.54924,0.51393295,-0.27360987,0.553714,0.51647552,-0.22719978,0.545716,0.5111609,-0.21003818,0.541624,0.50233974,-0.19351305,0.537903,0.5336617,-0.28215551,0.548102,0.52603135,-0.25592487,0.534174,0.5224192,-0.2436668,0.527774,0.53315393,-0.23878865,0.536047
0.52031091,-0.37072651,0.577047,0.5086842,-0.32260939,0.568931,0.50261943,-0.36431138,0.581847,0.46802952,-0.34111519,0.57702,0.42539833,-0.31271399,0.55211,0.40250553,-0.29054819,0.535764,0.48237694,-0.27629294,0.568469,0.48245442,-0.24068546,0.573355,0.47846622,-0.22767593,0.575799,0.47453965,-0.21515153,0.57802,0.499626,-0.27224508,0.559736,0.49705693,-0.22543136,0.553563,0.49447068,-0.20345657,0.549962,0.49130701,-0.18745232,0.54739,0.51455041,-0.27292493,0.553272,0.50926333,-0.22706975,0.53743,0.50394473,-0.2069611,0.529324,0.49516982,-0.18816546,0.521956,0.5353828,-0.27994179,0.546962,0.52876153,-0.25513303,0.533726,0.52588057,-0.24327344,0.527644,0.53535014,-0.2384351,0.536131
0.51752005,-0.36931679,0.574262,0.50755377,-0.32356151,0.567163,0.50096179,-0.36305144,0.580026,0.4677364,-0.3406583,0.576789,0.42516238,-0.31201047,0.552157,0.40237493,-0.28982315,0.535741,0.48634675,-0.27732655,0.568713,0.48281394,-0.23999378,0.571853,0.47986286,-0.22522098,0.573423,0.47318938,-0.2132835,0.57485,0.50199458,-0.27196544,0.559119,0.50033163,-0.22592466,0.553136,0.49569015,-0.20264199,0.549647,0.49130977,-0.18735797,0.547154,0.51619367,-0.27216484,0.551855,0.51110173,-0.22712616,0.53746,0.50391351,-0.20617025,0.530095,0.49757065,-0.18857005,0.5234,0.53424794,-0.27975139,0.544432,0.5303706,-0.25465079,0.531775,0.52829765,-0.24227016,0.52596,0.53556388,-0.23792852,0.534498
0.51296891,-0.36676735,0.569675,0.50631324,-0.32279985,0.565315,0.49844713,-0.36133517,0.577398,0.46809693,-0.34081784,0.577554,0.4252065,-0.31062613,0.553365,0.40231385,-0.28755103,0.537478,0.49203672,-0.27879678,0.571494,0.4834156,-0.23832482,0.569792,0.47740953,-0.2227608,0.568941,0.47175306,-0.20804724,0.568167,0.50723432,-0.27456348,0.560375,0.5052459,-0.22855082,0.55488,0.50087102,-0.20382996,0.551676,0.49670563,-0.18757579,0.549386,0.51982357,-0.27490808,0.551612,0.51661456,-0.22889911,0.539443,0.51506854,-0.20812948,0.533217,0.51208817,-0.1880825,0.527558,0.53507364,-0.28240615,0.541968,0.5322364,-0.25682251,0.531217,0.52950736,-0.24367863,0.526278,0.54131527,-0.23900401,0.53509
0.51534567,-0.36901151,0.572712,0.50728239,-0.32344979,0.56613,0.50016595,-0.36264577,0.579633,0.46845686,-0.34095751,0.578229,0.42611882,-0.31101175,0.554965,0.40337141,-0.28689412,0.540261,0.49037706,-0.27774337,0.569537,0.48284705,-0.23767515,0.568348,0.47711019,-0.22208708,0.567754,0.47168102,-0.2074067,0.567213,0.50574283,-0.27380319,0.558671,0.50764964,-0.22946917,0.556456,0.50676476,-0.20636341,0.555164,0.50511639,-0.18908346,0.554241,0.51864738,-0.27448111,0.550315,0.52205783,-0.23103259,0.542948,0.52076224,-0.21076523,0.539178,0.5196562,-0.19177612,0.535752,0.53461807,-0.28256077,0.541515,0.53005161,-0.25568528,0.528468,0.52813256,-0.24286957,0.522474,0.53827344,-0.2371021,0.530667
0.51005397,-0.36707891,0.568723,0.5073595,-0.32347775,0.56591,0.49578625,-0.35998532,0.576114,0.46640137,-0.33940627,0.576013,0.42915077,-0.31299579,0.559492,0.41054149,-0.29059863,0.552901,0.4910438,-0.27887006,0.572906,0.48704934,-0.23938055,0.572755,0.48189659,-0.22379867,0.57268,0.47699754,-0.20907379,0.572611,0.50730523,-0.27485578,0.562723,0.51202436,-0.23133233,0.56078,0.51138562,-0.20796934,0.559647,0.50974706,-0.19137249,0.558838,0.52157808,-0.27587593,0.554593,0.52579635,-0.23257915,0.546844,0.52429252,-0.21248286,0.542879,0.52299854,-0.19363494,0.539275,0.53834676,-0.28479124,0.545443,0.53715412,-0.25895608,0.535216,0.53683693,-0.24653071,0.530518,0.54835237,-0.24128852,0.539779
0.50901347,-0.36855279,0.569661,0.50655566,-0.32375483,0.565059,0.49564354,-0.36081454,0.577712,0.46724859,-0.3404989,0.578339,0.42518902,-0.31057578,0.55523,0.40289365,-0.28648044,0.541617,0.4904614,-0.27904465,0.571456,0.48364515,-0.23796119,0.567666,0.47630542,-0.22122581,0.565771,0.4701419,-0.20609497,0.564048,0.50623861,-0.27502954,0.559846,0.50710183,-0.22984301,0.555677,0.50501498,-0.20622524,0.553245,0.50021739,-0.18909424,0.551508,0.51846564,-0.27547458,0.5507,0.51954384,-0.2306996,0.541623,0.51787926,-0.21103451,0.536979,0.51360094,-0.19212797,0.532757,0.53316473,-0.28383718,0.540643,0.53051912,-0.25622222,0.528636,0.5295136,-0.24338244,0.52312,0.54055688,-0.2377021,0.531495
0.5059957,-0.36838489,0.568061,0.50589362,-0.32381832,0.564467,0.49366052,-0.36043188,0.576864,0.46659167,-0.34108863,0.578814,0.42145023,-0.31203168,0.556667,0.40230002,-0.28683207,0.544228,0.49128867,-0.27993982,0.572604,0.4828806,-0.23825172,0.568085,0.4761013,-0.22163815,0.565825,0.46968074,-0.20636788,0.563771,0.50643515,-0.27573201,0.560394,0.50218818,-0.22968487,0.55259,0.49791527,-0.20645205,0.548038,0.49294249,-0.18793483,0.544786,0.51815037,-0.275937,0.550666,0.51445409,-0.23303966,0.538926,0.5096897,-0.20982916,0.532919,0.50764106,-0.19096889,0.527459,0.53194513,-0.28385055,0.539754,0.52962494,-0.25623193,0.527966,0.52874679,-0.24336198,0.52255,0.54001113,-0.23755898,0.530857
0.50597462,-0.36813815,0.566915,0.50534257,-0.3239311,0.563954,0.49381875,-0.36022582,0.575936,0.46571498,-0.34115553,0.578325,0.42104485,-0.31226258,0.556649,0.40177096,-0.2872796,0.544346,0.49133977,-0.28044066,0.572868,0.483796,-0.23915608,0.568687,0.47604708,-0.22404996,0.566596,0.46956005,-0.20848517,0.564695,0.50635822,-0.27625854,0.560599,0.50092858,-0.22980382,0.551552,0.49581517,-0.20613258,0.546275,0.49180409,-0.18682185,0.542505,0.51795341,-0.27693587,0.550765,0.51448338,-0.2335382,0.539301,0.51115531,-0.21266371,0.533436,0.50820213,-0.19161927,0.528103,0.53157578,-0.28419005,0.539625,0.52970629,-0.25733207,0.528015,0.52908462,-0.24447575,0.52268,0.54124463,-0.23861149,0.531042
0.5057223,-0.36850462,0.566196,0.50553632,-0.3253684,0.563468,0.49353019,-0.36058922,0.575243,0.4626085,-0.34312484,0.577708,0.42111612,-0.31331784,0.557087,0.40146862,-0.28882612,0.544916,0.49005576,-0.28317422,0.5726,0.48162864,-0.24175282,0.568103,0.47440903,-0.22907172,0.565855,0.46835539,-0.21573278,0.563811,0.50469125,-0.27889338,0.560377,0.49982332,-0.23138717,0.551002,0.49449096,-0.20645998,0.545533,0.48904131,-0.1877274,0.541627,0.51646532,-0.27909942,0.550561,0.51259163,-0.23474646,0.538824,0.5092776,-0.21373643,0.532819,0.50575251,-0.19269579,0.52736,0.53118363,-0.28455624,0.539403,0.5290592,-0.25815752,0.527686,0.52807602,-0.24584513,0.522302,0.54087617,-0.23910548,0.530665
0.50492559,-0.36933722,0.565741,0.50451627,-0.32856027,0.563763,0.49306732,-0.36153571,0.57517,0.46243506,-0.3477824,0.578354,0.42027857,-0.31828677,0.558453,0.39964735,-0.29293337,0.546646,0.49037062,-0.2862548,0.573969,0.4802248,-0.24710018,0.56991,0.47411198,-0.23304753,0.567881,0.4692019,-0.21764756,0.566036,0.50512571,-0.28161182,0.56152,0.49877596,-0.23394766,0.552154,0.49331267,-0.2091413,0.546691,0.4897273,-0.19125765,0.542788,0.51716503,-0.28038912,0.551452,0.512872,-0.23581268,0.539797,0.50883127,-0.21617718,0.533834,0.505502,-0.19734471,0.528414,0.53060159,-0.28717255,0.539874,0.52925732,-0.25941003,0.528133,0.52877056,-0.24609125,0.522739,0.5417575,-0.24008369,0.531055
0.50438876,-0.37030549,0.565328,0.50447743,-0.32910134,0.563664,0.49258705,-0.36246064,0.574785,0.4619792,-0.34813649,0.578062,0.41979057,-0.31878554,0.558288,0.39924879,-0.29375329,0.546539,0.49038081,-0.28697178,0.574156,0.48009587,-0.24771453,0.570312,0.47410837,-0.2334713,0.56839,0.46920518,-0.21841158,0.566643,0.50525586,-0.28233407,0.561779,0.49881558,-0.2347438,0.552713,0.49343809,-0.21006514,0.547425,0.48991568,-0.19235168,0.543647,0.51734641,-0.28109469,0.551742,0.51309371,-0.23647556,0.540436,0.50905448,-0.2171051,0.534651,0.50573902,-0.19853475,0.529393,0.53083776,-0.28781054,0.540148,0.52974296,-0.26002757,0.528605,0.52933005,-0.24674337,0.523301,0.5423914,-0.24075227,0.531694
0.50477819,-0.37187488,0.565821,0.50553731,-0.33169287,0.564377,0.49251721,-0.36382874,0.574919,0.4614503,-0.35045158,0.577668,0.41888037,-0.32146325,0.557792,0.39741509,-0.29871974,0.545903,0.49016821,-0.29019088,0.574594,0.47910179,-0.25004167,0.57073,0.47338364,-0.23584151,0.568798,0.46860654,-0.2218161,0.567041,0.50582921,-0.28469983,0.562741,0.49805712,-0.23813144,0.554492,0.49263502,-0.21433717,0.54968,0.48856943,-0.19796979,0.546243,0.51821759,-0.28456038,0.553114,0.51400807,-0.2383596,0.542165,0.50967224,-0.21938372,0.536563,0.50787077,-0.19888396,0.531471,0.53257147,-0.29107738,0.54197,0.53213029,-0.26235477,0.530968,0.53201577,-0.24947082,0.525912,0.54554594,-0.24210384,0.534595
0.504678,-0.37286141,0.565564,0.50564578,-0.33227204,0.56431,0.49214603,-0.36483874,0.574513,0.46108277,-0.35083018,0.577064,0.41859779,-0.32206141,0.55729,0.39713838,-0.29945001,0.545586,0.49001428,-0.29070361,0.574494,0.47884165,-0.25064455,0.570664,0.47323883,-0.23670793,0.568749,0.46845256,-0.22281295,0.567008,0.50590651,-0.28531732,0.56289,0.49796841,-0.23879767,0.554932,0.49256924,-0.21531384,0.55029,0.48855403,-0.19900138,0.546974,0.51850666,-0.28520907,0.553452,0.51436006,-0.23905589,0.542811,0.51026807,-0.21998268,0.537367,0.50844577,-0.19968655,0.532417,0.53311471,-0.2917504,0.542499,0.53312409,-0.26292882,0.531837,0.53327851,-0.24991692,0.526938,0.54715928,-0.2428082,0.535777
0.50579073,-0.37514444,0.566856,0.50638177,-0.33542732,0.565332,0.4919456,-0.36736697,0.574621,0.46052891,-0.3527455,0.575288,0.41894671,-0.32470254,0.556041,0.39783464,-0.30040766,0.545664,0.48803969,-0.29303239,0.573814,0.47456147,-0.25386684,0.568192,0.47067272,-0.23427666,0.565381,0.4658935,-0.21504433,0.562826,0.50510785,-0.28872735,0.563597,0.49618539,-0.24124836,0.555046,0.49031001,-0.21765852,0.550058,0.48769611,-0.19900718,0.546495,0.51897271,-0.28889946,0.555326,0.5147446,-0.24155893,0.544647,0.51124374,-0.22155075,0.539184,0.5098237,-0.20095857,0.534217,0.53568819,-0.29484381,0.545797,0.53713439,-0.26566829,0.535585,0.53789482,-0.25191279,0.530893,0.55346222,-0.2442189,0.540188
