sluyters/QuantumLeap/backend/src/datasets/dynamic/HandGestureDataset_SHREC2017_csv/Gesture6/finger_2/subject_8_essai_1_skeletons_world.csv
Wrist_x,Wrist_y,Wrist_z,Palm_x,Palm_y,Palm_z,thumb_base_x,thumb_base_y,thumb_base_z,thumb_first_joint_x,thumb_first_joint_y,thumb_first_joint_z,thumb_second_joint_x,thumb_second_joint_y,thumb_second_joint_z,thumb_tip_x,thumb_tip_y,thumb_tip_z,index_base_x,index_base_y,index_base_z,index_first_joint_x,index_first_joint_y,index_first_joint_z,index_second_joint_x,index_second_joint_y,index_second_joint_z,index_tip_x,index_tip_y,index_tip_z,middle_base_x,middle_base_y,middle_base_z,middle_first_joint_x,middle_first_joint_y,middle_first_joint_z,middle_second_joint_x,middle_second_joint_y,middle_second_joint_z,middle_tip_x,middle_tip_y,middle_tip_z,ring_base_x,ring_base_y,ring_base_z,ring_first_joint_x,ring_first_joint_y,ring_first_joint_z,ring_second_joint_x,ring_second_joint_y,ring_second_joint_z,ring_tip_x,ring_tip_y,ring_tip_z,pinky_base_x,pinky_base_y,pinky_base_z,pinky_first_joint_x,pinky_first_joint_y,pinky_first_joint_z,pinky_second_joint_x,pinky_second_joint_y,pinky_second_joint_z,pinky_tip_x,pinky_tip_y,pinky_tip_z,
0.45953296,-0.32052916,0.496064,0.45835427,-0.27785489,0.4952,0.44345694,-0.31355878,0.499024,0.41948408,-0.29748331,0.501379,0.38126024,-0.27437627,0.484573,0.37014397,-0.26166823,0.486502,0.43909796,-0.24514642,0.498468,0.42429111,-0.20493801,0.490803,0.41806633,-0.18474119,0.48697,0.41335394,-0.16835817,0.487488,0.45961411,-0.24290426,0.494376,0.46127069,-0.20350869,0.493842,0.46231202,-0.18378855,0.49353,0.46145466,-0.16529618,0.493308,0.47661029,-0.24507119,0.4911,0.48268434,-0.20826865,0.493354,0.48586299,-0.1893396,0.494507,0.48821904,-0.17224019,0.495555,0.49666519,-0.25463968,0.487459,0.51221599,-0.22332892,0.483918,0.51890058,-0.20943145,0.482554,0.52480143,-0.19716355,0.48135
0.45958258,-0.3207294,0.496564,0.46117187,-0.27570754,0.494031,0.44228679,-0.31259869,0.498022,0.42003152,-0.29451907,0.499694,0.38154567,-0.2685296,0.479604,0.36872819,-0.2552635,0.479182,0.44357151,-0.23868336,0.49421,0.42361473,-0.20083884,0.485703,0.41595707,-0.18078503,0.481449,0.41451985,-0.16681184,0.486087,0.46174834,-0.2401811,0.491618,0.45874154,-0.19829703,0.488931,0.45803748,-0.17389784,0.487364,0.45755836,-0.15616015,0.486244,0.47968322,-0.24352069,0.489756,0.48063888,-0.20463041,0.487492,0.48302166,-0.18561338,0.486334,0.48460562,-0.1668462,0.487176,0.49980885,-0.25498703,0.488072,0.51229357,-0.22388112,0.483158,0.51896579,-0.21004207,0.481803,0.52485877,-0.19782102,0.480607
0.45969076,-0.32087981,0.496837,0.46202766,-0.27480571,0.493057,0.44113827,-0.31162392,0.496781,0.41500865,-0.29020283,0.493394,0.38532762,-0.26719805,0.481585,0.37023376,-0.25462381,0.479772,0.44074794,-0.23777234,0.490938,0.42563882,-0.19981992,0.485586,0.41963117,-0.18082522,0.48291,0.41275063,-0.16413132,0.480477,0.46377333,-0.23885342,0.490018,0.45607277,-0.19716396,0.483636,0.4552422,-0.17064443,0.479913,0.45368082,-0.15275764,0.477253,0.48275601,-0.24382001,0.48961,0.47744446,-0.20227705,0.480358,0.47524025,-0.18170816,0.475624,0.47325,-0.16291339,0.471321,0.50497332,-0.25680254,0.489749,0.51438731,-0.22502647,0.484037,0.51969257,-0.21063163,0.481413,0.52459838,-0.19892418,0.479098
0.46321327,-0.32246562,0.499233,0.46308071,-0.27544542,0.493387,0.44420174,-0.31290005,0.498769,0.41842242,-0.28830003,0.491857,0.38869215,-0.26629489,0.481148,0.3778551,-0.25148119,0.481833,0.43668973,-0.23903476,0.489654,0.4362449,-0.20456734,0.490088,0.43528455,-0.18597288,0.490305,0.43516255,-0.16941591,0.490502,0.46235698,-0.23914643,0.488708,0.45264097,-0.19483082,0.476295,0.44948902,-0.17210024,0.469054,0.4447923,-0.15188668,0.463882,0.48150352,-0.24386278,0.488461,0.47994862,-0.20358987,0.481755,0.48077967,-0.1835264,0.479091,0.48190252,-0.16628912,0.480058,0.50442727,-0.25669612,0.489114,0.5129135,-0.2243485,0.482476,0.51773344,-0.20983581,0.479425,0.5226353,-0.19884799,0.476734
0.46701398,-0.32488019,0.502536,0.46327086,-0.27766498,0.495502,0.44795656,-0.31514904,0.502105,0.41549242,-0.28939947,0.492185,0.38790816,-0.26623769,0.481578,0.37717919,-0.24957937,0.48011,0.43870215,-0.24135638,0.491173,0.43069193,-0.20160508,0.478807,0.42672988,-0.18131781,0.472623,0.4243945,-0.17472322,0.467002,0.46242629,-0.24341504,0.489872,0.45550774,-0.20160142,0.477734,0.45447278,-0.19016233,0.470654,0.45396703,-0.18164471,0.465596,0.48131643,-0.24809559,0.489441,0.46442337,-0.20586184,0.479098,0.46344222,-0.19304811,0.473807,0.46318505,-0.19516302,0.468996,0.50281402,-0.26422445,0.49007,0.51181018,-0.23218056,0.480744,0.51597742,-0.21740821,0.476459,0.5178511,-0.21257265,0.472679
0.47590725,-0.3301663,0.510911,0.46711378,-0.27638791,0.494083,0.45551731,-0.31916396,0.509152,0.42865996,-0.28574228,0.494714,0.39887269,-0.25726513,0.481099,0.38640704,-0.23723604,0.469656,0.44357261,-0.23506774,0.482795,0.43543985,-0.19069576,0.462206,0.42815121,-0.18411348,0.451912,0.41696214,-0.19155887,0.442554,0.46475751,-0.23816917,0.480615,0.45549873,-0.19218567,0.458456,0.44487079,-0.19069861,0.44553,0.43733809,-0.18974088,0.436297,0.48298106,-0.24522547,0.480351,0.46893798,-0.20471261,0.460285,0.46092952,-0.20749441,0.450018,0.45299295,-0.21383541,0.440685,0.50584807,-0.26158348,0.482753,0.48476285,-0.2322008,0.464594,0.47505702,-0.21852624,0.456251,0.46980328,-0.21810086,0.448889
0.47897939,-0.33084368,0.512545,0.48379023,-0.27870609,0.497608,0.45806983,-0.31803133,0.509115,0.43587213,-0.27893232,0.495559,0.40996338,-0.25033395,0.48366,0.39902053,-0.22963242,0.478037,0.45946156,-0.23303994,0.48519,0.48102064,-0.20309183,0.490185,0.49193442,-0.19038755,0.492683,0.50235126,-0.17803438,0.494954,0.4825085,-0.24004437,0.485654,0.49102236,-0.20246232,0.486626,0.49605386,-0.19794785,0.487193,0.49993171,-0.19442076,0.487598,0.50189043,-0.25022286,0.487394,0.48913555,-0.2411127,0.468201,0.48211313,-0.24047616,0.458382,0.47111373,-0.25319583,0.449455,0.52529013,-0.27014747,0.491833,0.50694633,-0.25289758,0.474058,0.49853051,-0.24482551,0.465891,0.49114451,-0.23763224,0.458715
0.48047039,-0.33004256,0.513345,0.48370371,-0.26754553,0.488132,0.46801453,-0.30591874,0.510057,0.44246383,-0.26601549,0.502248,0.41464343,-0.24057595,0.489992,0.4014607,-0.21922197,0.482084,0.46459404,-0.21746211,0.470383,0.47931647,-0.18385921,0.458502,0.48046983,-0.1734337,0.452561,0.47560738,-0.17018201,0.447161,0.48265993,-0.22830061,0.467956,0.49271838,-0.18811002,0.458812,0.48815076,-0.18427201,0.453478,0.48494592,-0.1814484,0.449668,0.49787106,-0.24173307,0.468249,0.4655936,-0.23938944,0.441258,0.44855243,-0.23938157,0.427449,0.42838133,-0.24846584,0.414895,0.51626407,-0.26565018,0.472653,0.4854785,-0.25307775,0.449286,0.47128199,-0.24730687,0.43855,0.45875912,-0.24223625,0.429109
0.48288766,-0.32938315,0.514434,0.48666375,-0.2694002,0.490758,0.47264237,-0.30625716,0.513591,0.44231058,-0.26632976,0.499474,0.41952195,-0.23897779,0.488351,0.40968089,-0.21734605,0.481751,0.46986071,-0.2214359,0.476971,0.46026371,-0.18856434,0.45027,0.43925087,-0.1925889,0.43692,0.43183379,-0.20822825,0.440764,0.48579642,-0.23045302,0.471811,0.4913853,-0.18825209,0.456256,0.49099181,-0.17627692,0.447182,0.49065988,-0.16670715,0.441292,0.49903853,-0.24224054,0.469715,0.46623103,-0.23978277,0.442193,0.44909122,-0.23932235,0.428112,0.42867651,-0.24830019,0.41557,0.51487854,-0.26390695,0.47108,0.48561615,-0.25395172,0.449698,0.47209994,-0.24940328,0.439875,0.46016239,-0.24542135,0.431237
0.49339096,-0.33354601,0.525505,0.48616681,-0.26965998,0.492721,0.47640173,-0.30364307,0.519418,0.44058934,-0.26260444,0.498314,0.41614802,-0.22898746,0.482792,0.40812198,-0.20681662,0.475279,0.45898395,-0.21675944,0.467315,0.44408016,-0.18181759,0.435133,0.42198261,-0.1855511,0.419041,0.41162214,-0.19895188,0.41877,0.47860989,-0.22774645,0.466484,0.48722671,-0.18754763,0.452587,0.49213777,-0.17633345,0.44448,0.49647429,-0.16681725,0.438689,0.49587055,-0.24158219,0.46878,0.46008918,-0.23665064,0.436027,0.44048453,-0.23626602,0.41927,0.43098798,-0.25020877,0.418867,0.51069797,-0.26365303,0.476743,0.47373236,-0.26344995,0.448531,0.47337575,-0.27724293,0.456018,0.48107047,-0.2908926,0.46885
0.49544416,-0.33270767,0.526933,0.49201149,-0.27222091,0.498083,0.47977832,-0.30503618,0.522503,0.44869002,-0.26746715,0.503067,0.4225223,-0.23288369,0.487829,0.4103293,-0.21176955,0.478351,0.47152076,-0.22029983,0.476917,0.44172626,-0.2214831,0.446799,0.42283925,-0.22890783,0.43174,0.42239458,-0.23331324,0.433528,0.48970734,-0.23095079,0.474996,0.49846096,-0.19407183,0.46065,0.50879466,-0.17454938,0.452282,0.51426338,-0.15923529,0.446305,0.50518461,-0.24419599,0.476036,0.4896159,-0.22584909,0.445862,0.46651514,-0.22853261,0.430424,0.45375608,-0.24216718,0.43229,0.52438035,-0.26786856,0.481899,0.48816445,-0.26322731,0.456216,0.48512211,-0.28120218,0.465364,0.49144063,-0.29567937,0.477951
0.49094378,-0.31864231,0.520556,0.50007138,-0.26194012,0.497616,0.48033847,-0.30071755,0.519341,0.45512542,-0.25552233,0.504779,0.42790919,-0.22491882,0.488962,0.41255955,-0.20486823,0.478244,0.48801296,-0.21450495,0.483746,0.46866408,-0.1945666,0.457415,0.45020549,-0.20644047,0.444249,0.44980054,-0.21808321,0.448511,0.50238612,-0.22549026,0.479257,0.49556689,-0.18710203,0.452276,0.50120909,-0.1698779,0.445273,0.50673006,-0.1554124,0.440271,0.51392144,-0.23850481,0.477647,0.49476789,-0.22723148,0.451266,0.48396783,-0.21946254,0.437769,0.4935738,-0.22198944,0.442175,0.52717211,-0.26103661,0.479461,0.49804575,-0.25351499,0.458261,0.49921254,-0.27086804,0.469112,0.50286193,-0.2871624,0.480781
0.49153262,-0.30789312,0.51598,0.50563391,-0.25523323,0.495828,0.48490533,-0.28537898,0.516398,0.46211501,-0.25033295,0.507127,0.42891078,-0.21770302,0.487186,0.41204267,-0.19768368,0.473947,0.49926415,-0.20954852,0.485551,0.50473284,-0.17690742,0.462192,0.50735594,-0.16067137,0.450512,0.51100173,-0.15180776,0.444449,0.51152435,-0.22089162,0.479702,0.5112198,-0.17948139,0.455917,0.50409394,-0.18426032,0.449899,0.4895464,-0.19648883,0.445601,0.5207952,-0.23387021,0.476718,0.51028612,-0.20734234,0.452964,0.49880182,-0.20755056,0.440811,0.49988102,-0.22407008,0.446383,0.5305408,-0.25573896,0.476477,0.5068953,-0.24776759,0.457573,0.50761712,-0.2647081,0.468954,0.50972337,-0.27993373,0.48002
0.49250537,-0.29867482,0.515825,0.50696433,-0.25449799,0.496418,0.4857464,-0.27458244,0.514353,0.46558029,-0.24004509,0.509611,0.43375759,-0.20537402,0.489501,0.426147,-0.18493293,0.483811,0.51051378,-0.20932144,0.484116,0.51937936,-0.17939399,0.461969,0.52369731,-0.16450331,0.450896,0.51896492,-0.15932387,0.440829,0.52036472,-0.22579592,0.480888,0.52267175,-0.2047453,0.45607,0.52472691,-0.19223652,0.441592,0.51061164,-0.19240808,0.431251,0.52698782,-0.24224768,0.479994,0.52674138,-0.21525361,0.457419,0.51822225,-0.21305597,0.445868,0.5237841,-0.22553246,0.452394,0.5323396,-0.26691994,0.482076,0.50779435,-0.2575268,0.46262,0.50555607,-0.27239757,0.474558,0.50678639,-0.28674978,0.486035
0.49535654,-0.2977623,0.518236,0.50926178,-0.2544492,0.496742,0.48944936,-0.27392969,0.516787,0.47071508,-0.23654916,0.509106,0.43980149,-0.20497093,0.487572,0.42365122,-0.18207292,0.476663,0.51240874,-0.20907214,0.483347,0.51973426,-0.17931577,0.459581,0.523185,-0.16460297,0.447698,0.51701408,-0.15908796,0.436895,0.52178867,-0.22534888,0.479541,0.52018067,-0.20382381,0.452906,0.51986024,-0.19106353,0.437368,0.50369167,-0.19103015,0.42627,0.52819714,-0.24172801,0.478361,0.52410978,-0.2143405,0.453755,0.50866824,-0.21769305,0.441166,0.50501891,-0.23379257,0.446562,0.53360961,-0.26648772,0.480445,0.50603969,-0.25598791,0.459879,0.50450218,-0.26855985,0.471226,0.50219947,-0.27985933,0.482864
0.49986474,-0.29472611,0.522955,0.51110842,-0.25475536,0.497661,0.49293564,-0.26955554,0.519447,0.47270225,-0.22824447,0.508038,0.44572274,-0.19693269,0.486891,0.43388599,-0.17334325,0.473821,0.51374287,-0.20851624,0.479585,0.52075858,-0.18563887,0.452274,0.52293005,-0.17371273,0.438618,0.51124557,-0.16957771,0.426204,0.52355718,-0.22632527,0.477419,0.51587489,-0.21044069,0.447809,0.51119995,-0.20005697,0.430536,0.49004138,-0.19939845,0.418198,0.53059589,-0.24402348,0.477935,0.52320563,-0.22145512,0.450453,0.50213992,-0.22343393,0.436392,0.49607555,-0.2339422,0.440162,0.53400633,-0.26994652,0.482612,0.50505138,-0.25690141,0.459102,0.50061221,-0.268591,0.469489,0.50027579,-0.27931107,0.481791
0.49330025,-0.29333706,0.516212,0.51029186,-0.25438935,0.495865,0.49106694,-0.27128761,0.517118,0.4830804,-0.23442665,0.513032,0.46202684,-0.19951145,0.497012,0.45422028,-0.17737195,0.487178,0.52187242,-0.2123184,0.486109,0.53315153,-0.18955368,0.46157,0.53705981,-0.17789462,0.449301,0.52596582,-0.17339347,0.438147,0.52827804,-0.23004345,0.479582,0.5229894,-0.21128119,0.453736,0.52031745,-0.19639022,0.438659,0.50009087,-0.1951509,0.42789,0.5320358,-0.24736535,0.476058,0.50505064,-0.23514514,0.450587,0.49127391,-0.2289131,0.437556,0.48403389,-0.242767,0.442405,0.5320899,-0.27148111,0.475218,0.49716149,-0.25491783,0.456477,0.49374892,-0.26437316,0.467667,0.49064237,-0.27117327,0.478602
0.49589081,-0.29113172,0.51943,0.50770976,-0.25348856,0.493144,0.49141185,-0.26743435,0.516903,0.47618592,-0.22863985,0.507528,0.46127221,-0.19103764,0.492397,0.45398791,-0.17242898,0.483425,0.51512384,-0.21176334,0.475795,0.53309695,-0.19454408,0.45411,0.5341265,-0.1862956,0.443268,0.5161968,-0.18322076,0.433411,0.52147052,-0.23338886,0.472108,0.507355,-0.21261149,0.44155,0.49956027,-0.20036492,0.423725,0.47534036,-0.19758761,0.410992,0.523576,-0.25194411,0.471462,0.4901699,-0.23875048,0.442539,0.47292091,-0.23211422,0.427741,0.46150413,-0.24307837,0.430594,0.523615,-0.27820181,0.474941,0.4840113,-0.26037809,0.451404,0.4795385,-0.2651427,0.46131,0.48168489,-0.26979451,0.473434
0.49806242,-0.28997456,0.52375,0.50285103,-0.25327169,0.489673,0.49304142,-0.26697591,0.518658,0.47619836,-0.22240051,0.503845,0.4578477,-0.18674627,0.486312,0.45186422,-0.16382209,0.47392,0.50683892,-0.21065883,0.464851,0.52402908,-0.19662303,0.443051,0.52200129,-0.18920719,0.432151,0.50487923,-0.18129242,0.422242,0.51083095,-0.23079226,0.462403,0.48981343,-0.21064736,0.426297,0.47766149,-0.19756818,0.405235,0.45077174,-0.18953673,0.390191,0.51231747,-0.25243841,0.463484,0.47692992,-0.23178708,0.429627,0.45806634,-0.22252148,0.412305,0.44229608,-0.22946946,0.410771,0.51268815,-0.27986507,0.470237,0.46732407,-0.25847654,0.441956,0.46075696,-0.26156553,0.448642,0.46508541,-0.26715655,0.461188
0.49609932,-0.28846516,0.522769,0.50205763,-0.25369991,0.487785,0.49221103,-0.26568989,0.518033,0.47684058,-0.21950255,0.503415,0.45807697,-0.18599331,0.486648,0.45143616,-0.16282318,0.473675,0.50505817,-0.21027464,0.462932,0.51748141,-0.19478681,0.438008,0.51095025,-0.18679475,0.425545,0.49606472,-0.1802805,0.414216,0.50771521,-0.23163675,0.459789,0.49570441,-0.20642389,0.423042,0.46263662,-0.1952758,0.401606,0.42773294,-0.19012171,0.386295,0.50854255,-0.25081573,0.46038,0.47304283,-0.22902097,0.425955,0.45469879,-0.2179523,0.408343,0.43796708,-0.22284833,0.406018,0.50838676,-0.27804553,0.466706,0.46326721,-0.25469928,0.438266,0.45552989,-0.25888067,0.444325,0.45984799,-0.26561098,0.456684
0.49285104,-0.28630543,0.520588,0.49908297,-0.25254431,0.485847,0.49049927,-0.26410548,0.516795,0.47317103,-0.21695211,0.499581,0.455428,-0.18271418,0.481842,0.44812425,-0.15928924,0.467022,0.50408901,-0.21017393,0.462335,0.51438536,-0.19488749,0.436354,0.508309,-0.18659134,0.423364,0.49329892,-0.17959579,0.411555,0.50489489,-0.23071667,0.458044,0.49248253,-0.20595446,0.421106,0.45943696,-0.19506378,0.399558,0.42457032,-0.18983782,0.384167,0.503793,-0.24939295,0.45767,0.46789457,-0.22725673,0.423052,0.44930775,-0.21602847,0.405341,0.43355281,-0.22120532,0.402827,0.50201523,-0.27591336,0.462829,0.45788331,-0.25264038,0.434987,0.44996318,-0.25700793,0.440956,0.45443261,-0.26559279,0.453069
0.49049267,-0.28472395,0.519066,0.49743519,-0.25192573,0.484831,0.48917589,-0.26287865,0.515843,0.47297869,-0.21651355,0.499614,0.45466406,-0.18292622,0.482362,0.44660038,-0.15942181,0.46753,0.50419902,-0.21089335,0.462323,0.51339714,-0.19471637,0.435707,0.50704645,-0.18640111,0.4224,0.49188699,-0.17928372,0.410302,0.50319206,-0.23034096,0.457434,0.49332555,-0.20582989,0.420826,0.46882445,-0.19476877,0.399471,0.43118466,-0.18943304,0.384217,0.50203558,-0.24876271,0.456521,0.4636178,-0.22797215,0.421837,0.4413844,-0.21861586,0.404092,0.42704876,-0.22219631,0.401675,0.49941319,-0.2747789,0.460969,0.4559201,-0.25199294,0.43363,0.44819025,-0.25641238,0.439752,0.4524743,-0.2649139,0.451747
0.48553246,-0.2809777,0.516938,0.49327283,-0.25006423,0.483024,0.48487432,-0.25882142,0.512914,0.46072321,-0.21104737,0.494233,0.43695032,-0.18156366,0.47573,0.42482774,-0.15791052,0.459462,0.49830129,-0.20744539,0.459661,0.49830334,-0.18553346,0.431428,0.49938369,-0.17552765,0.417312,0.48325942,-0.1725294,0.40448,0.49975386,-0.22819055,0.455884,0.49069897,-0.20369299,0.419535,0.46303069,-0.19283613,0.398332,0.4325328,-0.18794049,0.383187,0.49968504,-0.24704449,0.455857,0.46026517,-0.22767717,0.421687,0.44016574,-0.21816336,0.404205,0.42322949,-0.22398623,0.402412,0.49921768,-0.27395996,0.461288,0.45515606,-0.25157423,0.433618,0.44795439,-0.25628651,0.440184,0.45253627,-0.26501603,0.452468
0.48291144,-0.27880463,0.515925,0.49051973,-0.24816079,0.482175,0.48258554,-0.25639409,0.51143,0.45608224,-0.21061518,0.491817,0.42945761,-0.1823881,0.472647,0.41938487,-0.15776649,0.456159,0.4900039,-0.20093473,0.458294,0.49177281,-0.17970997,0.429816,0.49277372,-0.16906673,0.415578,0.4792068,-0.16622596,0.402633,0.49565625,-0.22294835,0.455166,0.48758418,-0.19508595,0.418971,0.46347132,-0.18846659,0.397858,0.42953656,-0.18676793,0.382777,0.49754923,-0.2419622,0.455658,0.46008404,-0.22667728,0.421811,0.44040453,-0.2178148,0.404494,0.42605306,-0.22378794,0.403017,0.49854496,-0.26899876,0.461669,0.45525008,-0.25116931,0.433814,0.44827791,-0.25617392,0.440585,0.45352977,-0.26427683,0.453013
0.47810294,-0.27713399,0.513284,0.48500906,-0.24565189,0.480605,0.47671495,-0.25429534,0.50949,0.44418348,-0.21623072,0.490825,0.41841605,-0.18817909,0.471528,0.40466593,-0.16447156,0.455086,0.48180432,-0.20060388,0.458199,0.48354982,-0.17598505,0.430274,0.48450282,-0.16364324,0.416311,0.46971437,-0.15774397,0.403618,0.48733764,-0.21937553,0.454452,0.48102274,-0.19017182,0.418984,0.45719593,-0.18073811,0.398295,0.42959838,-0.18165,0.383516,0.49338671,-0.23838832,0.454338,0.45847429,-0.21840539,0.420969,0.44173203,-0.20847795,0.403897,0.42972524,-0.22060828,0.402971,0.49567142,-0.26679039,0.459469,0.45277308,-0.24963383,0.432402,0.44634802,-0.25536052,0.439633,0.4507862,-0.26446897,0.451963
0.47143944,-0.2751986,0.50679,0.47530202,-0.2447747,0.476424,0.46197273,-0.26126654,0.504884,0.43416968,-0.22976058,0.490261,0.40691697,-0.19528488,0.471646,0.39579306,-0.17136541,0.458911,0.46962418,-0.19740664,0.457681,0.47180393,-0.16876078,0.431569,0.47271291,-0.15448022,0.418514,0.45946905,-0.14810845,0.406645,0.47823317,-0.2126101,0.452122,0.47051322,-0.17865216,0.418284,0.44680101,-0.16971531,0.398544,0.41864776,-0.17046299,0.384445,0.48491984,-0.22875897,0.450306,0.4663914,-0.20614126,0.417891,0.44658434,-0.19845674,0.401306,0.43151599,-0.20408319,0.401252,0.49215337,-0.25441879,0.453076,0.45016897,-0.23851408,0.427998,0.44247612,-0.2500756,0.43595,0.44588851,-0.26141061,0.447859
0.45262602,-0.27970218,0.497683,0.45636495,-0.24418609,0.471437,0.44812173,-0.26351166,0.498263,0.41926444,-0.22821509,0.486042,0.39189755,-0.19892105,0.46704,0.37767916,-0.17536359,0.451717,0.45854427,-0.19940189,0.458097,0.47866135,-0.17100738,0.446945,0.48870404,-0.15668052,0.441369,0.4900854,-0.14613644,0.4363,0.46447111,-0.21358366,0.450433,0.45908138,-0.18011367,0.4208,0.45608686,-0.16047533,0.403515,0.44437427,-0.15115777,0.391168,0.46846691,-0.22860975,0.446509,0.45171925,-0.20446945,0.416343,0.43595309,-0.19447561,0.400909,0.42498236,-0.19826332,0.402404,0.47171594,-0.2524199,0.446152,0.43415112,-0.23552181,0.424346,0.42998897,-0.24599908,0.433394,0.43091223,-0.25728113,0.444576
0.44460875,-0.28279442,0.493825,0.45294087,-0.24383417,0.470477,0.43703154,-0.26501007,0.495731,0.41153417,-0.23324441,0.485657,0.38267579,-0.2037874,0.466453,0.36745101,-0.18049424,0.451483,0.45117648,-0.19969106,0.460393,0.47213862,-0.16981068,0.452932,0.48263304,-0.15468178,0.449201,0.48527306,-0.14327065,0.44581,0.45842326,-0.21165174,0.451792,0.45455692,-0.17561563,0.424977,0.45246474,-0.15442911,0.409334,0.44234225,-0.14449258,0.398161,0.46350585,-0.22504015,0.446832,0.44885362,-0.19845711,0.418504,0.43463248,-0.18778814,0.404011,0.42575405,-0.19246413,0.406614,0.4691797,-0.24946251,0.444799,0.43414911,-0.23376618,0.425153,0.43091075,-0.24552486,0.434901,0.43150679,-0.25730484,0.445596
0.4436067,-0.28452012,0.492843,0.45189929,-0.24421282,0.469667,0.43577502,-0.2670913,0.494069,0.40992614,-0.24231091,0.482985,0.37886664,-0.21031303,0.463273,0.36251917,-0.18785022,0.448278,0.44790701,-0.19955991,0.458803,0.46260893,-0.16724954,0.446456,0.4570971,-0.15720306,0.440283,0.45354816,-0.14906134,0.434671,0.4570904,-0.21110521,0.45112,0.46184841,-0.17070556,0.432594,0.45792591,-0.1539137,0.421788,0.45481311,-0.14214094,0.414069,0.46393788,-0.22431104,0.4469,0.44970727,-0.19768572,0.418956,0.43667044,-0.18713882,0.404659,0.42976208,-0.19282582,0.407742,0.47087004,-0.24659871,0.445704,0.43563601,-0.23347934,0.425727,0.43232554,-0.24547893,0.435815,0.43287083,-0.25750535,0.446758
0.4450166,-0.28687138,0.494021,0.45253202,-0.24496316,0.470267,0.43654668,-0.26924733,0.494514,0.40848704,-0.2433673,0.482307,0.3739371,-0.21478017,0.462021,0.35900351,-0.1893969,0.447454,0.44633265,-0.19939784,0.458152,0.45531063,-0.16503428,0.452603,0.45772453,-0.15116335,0.449828,0.46017791,-0.13791306,0.447305,0.45689225,-0.21083969,0.451257,0.45121842,-0.17259007,0.422716,0.42829051,-0.16730236,0.406067,0.40618005,-0.17245805,0.394175,0.46503778,-0.22408508,0.447739,0.45040885,-0.19738258,0.419602,0.4377187,-0.18699401,0.405207,0.43160537,-0.19543207,0.408313,0.47523113,-0.24560763,0.447455,0.43995876,-0.23255991,0.42677,0.43430138,-0.24561626,0.43689,0.43474252,-0.25780887,0.448094
0.42545734,-0.27943033,0.475481,0.43027127,-0.24095145,0.462169,0.42115306,-0.26871043,0.480188,0.39241128,-0.25531501,0.475397,0.35722867,-0.22235406,0.455289,0.34260104,-0.19940149,0.444872,0.42276637,-0.20119913,0.461068,0.43847566,-0.16783248,0.457399,0.44353065,-0.15187782,0.455564,0.44840622,-0.13674839,0.453897,0.43492812,-0.20585432,0.451516,0.43356858,-0.16349672,0.431657,0.42891292,-0.14311241,0.420072,0.42483647,-0.12943844,0.411797,0.44425662,-0.21348494,0.444863,0.44020883,-0.17839787,0.425477,0.43833205,-0.16012022,0.415559,0.44725522,-0.15768515,0.422603,0.45433642,-0.22931177,0.439234,0.44088623,-0.21110057,0.42643,0.45314234,-0.21101441,0.438388,0.45531276,-0.22265766,0.447531
0.43190889,-0.2814859,0.479641,0.43080487,-0.24107924,0.463331,0.42333792,-0.27217286,0.482937,0.39893864,-0.25863296,0.475632,0.3652775,-0.23266477,0.455074,0.34864241,-0.2124241,0.442787,0.41069785,-0.20136243,0.458809,0.41740716,-0.16303455,0.449438,0.42027622,-0.14443074,0.444752,0.42058926,-0.13191708,0.440492,0.42573728,-0.20277591,0.450278,0.42454833,-0.15893866,0.43536,0.42041397,-0.14279581,0.426658,0.41761976,-0.13079075,0.420442,0.43835067,-0.20812342,0.444738,0.43026059,-0.17036576,0.422749,0.42619773,-0.15089415,0.411499,0.43810561,-0.14290912,0.417623,0.45376913,-0.22174698,0.440892,0.44084801,-0.20372075,0.423982,0.45542777,-0.20438393,0.435745,0.46868033,-0.20450486,0.446258
0.42728658,-0.28197609,0.476375,0.42870135,-0.24024781,0.463298,0.41681519,-0.27008616,0.477106,0.38524581,-0.2514134,0.466658,0.35049163,-0.22384195,0.443831,0.33337113,-0.20156076,0.4322,0.40646842,-0.19939395,0.457217,0.41817646,-0.16604589,0.463779,0.4245962,-0.14857239,0.467059,0.43051935,-0.1321049,0.470041,0.42239696,-0.2008444,0.452832,0.42936705,-0.16157306,0.449936,0.43148802,-0.14007509,0.448247,0.43313479,-0.12398414,0.447041,0.43820325,-0.20733845,0.45041,0.43287143,-0.16571952,0.433256,0.43005204,-0.14461991,0.42448,0.42274088,-0.13637678,0.416501,0.45749425,-0.22265563,0.449687,0.44654139,-0.19760579,0.434834,0.44159759,-0.18571624,0.428009,0.45043621,-0.18026308,0.434675
0.42400035,-0.28050907,0.473372,0.42048855,-0.23561468,0.460229,0.41452558,-0.26971165,0.476106,0.38517448,-0.25317744,0.468445,0.34573541,-0.22964793,0.446037,0.32607493,-0.20704044,0.431709,0.40331214,-0.19646423,0.456685,0.41400534,-0.16241305,0.45868,0.41670339,-0.1448675,0.459678,0.41323697,-0.13173181,0.460585,0.41897119,-0.19813238,0.44971,0.42531891,-0.15848401,0.444922,0.42449261,-0.13751711,0.442129,0.41936303,-0.12496934,0.440133,0.43216578,-0.20372917,0.445163,0.435252,-0.16522535,0.434866,0.43319279,-0.14763281,0.429598,0.42820309,-0.13798066,0.424809,0.44681213,-0.21698165,0.441968,0.44091585,-0.18518614,0.427512,0.43470444,-0.1738092,0.42087,0.44239994,-0.17283471,0.427323
0.42022362,-0.27625886,0.467437,0.41730197,-0.23322061,0.456308,0.41046347,-0.26790038,0.471628,0.38341645,-0.25228167,0.466406,0.34670082,-0.22942683,0.444095,0.32666606,-0.20739592,0.429252,0.40158591,-0.19644408,0.455714,0.41254125,-0.1647327,0.460661,0.4109567,-0.14694249,0.463135,0.41460356,-0.13178155,0.465384,0.41600488,-0.19646126,0.447401,0.42415237,-0.15835431,0.445032,0.42132647,-0.13779796,0.44365,0.41797247,-0.12531895,0.442663,0.42735363,-0.19924443,0.441569,0.43603144,-0.16334648,0.435896,0.4330072,-0.14863612,0.432993,0.4291633,-0.13633246,0.430354,0.44300104,-0.20807845,0.436548,0.44108048,-0.17415661,0.42297,0.4344058,-0.16377856,0.416732,0.4395772,-0.16293059,0.423425
0.41332335,-0.27325693,0.460941,0.41347415,-0.22966922,0.451472,0.40358422,-0.26133817,0.463412,0.37643253,-0.24685442,0.456035,0.3450887,-0.22507049,0.431456,0.32670707,-0.20644803,0.413587,0.39574018,-0.19339422,0.449562,0.40583316,-0.1623399,0.458496,0.40455554,-0.14462406,0.462963,0.4050333,-0.129007,0.467024,0.41187453,-0.1926771,0.443895,0.41591336,-0.15181247,0.442575,0.41132267,-0.13320103,0.441806,0.41016911,-0.12243407,0.441256,0.42591433,-0.19472846,0.440089,0.42711407,-0.1532449,0.431871,0.42117129,-0.13800621,0.427666,0.41553489,-0.12388642,0.423844,0.44440946,-0.20558704,0.437168,0.44227047,-0.16718291,0.424733,0.43546321,-0.15658761,0.419019,0.44250336,-0.15146355,0.426579
0.41344535,-0.27081962,0.456027,0.41659164,-0.22419792,0.448777,0.40442725,-0.26082332,0.459809,0.38715789,-0.250569,0.454709,0.35147194,-0.23120071,0.430729,0.3267634,-0.20868274,0.413847,0.3957288,-0.19359695,0.449742,0.39958822,-0.1606867,0.455559,0.39475958,-0.14662489,0.458468,0.39144886,-0.13280224,0.461112,0.41068332,-0.19027592,0.442975,0.40789047,-0.14842507,0.439975,0.40015154,-0.1307065,0.438225,0.39397811,-0.11955662,0.436975,0.42506677,-0.1891405,0.438064,0.42487263,-0.14895742,0.433002,0.41915108,-0.13446196,0.430413,0.41671975,-0.12286733,0.428059,0.44533829,-0.19239647,0.433493,0.43959909,-0.15746477,0.422576,0.43277463,-0.14828147,0.41756,0.44045437,-0.1476192,0.425523
0.41656638,-0.27135081,0.45537,0.41725681,-0.22411948,0.448687,0.40322228,-0.26100064,0.458211,0.3866475,-0.25049645,0.451909,0.35476048,-0.23282614,0.42706,0.32735232,-0.21068127,0.410175,0.3939103,-0.19376001,0.448746,0.38659926,-0.1614346,0.453507,0.38253806,-0.14569923,0.455888,0.37859162,-0.13070257,0.458052,0.41065951,-0.1900884,0.443338,0.40018616,-0.14936635,0.439782,0.39291478,-0.1320481,0.437707,0.39039355,-0.119154,0.436226,0.42614669,-0.18930066,0.439493,0.41939264,-0.14965321,0.434089,0.4142546,-0.13703069,0.431325,0.41197363,-0.12330056,0.428812,0.44725797,-0.19410334,0.436077,0.44018221,-0.15992496,0.425512,0.43429303,-0.14904231,0.420657,0.44201719,-0.14335192,0.428938
0.43321884,-0.2675333,0.452749,0.41993972,-0.22333702,0.447595,0.41447638,-0.26256867,0.454089,0.39598965,-0.25330016,0.44609,0.35788398,-0.23366756,0.420026,0.33577358,-0.21595239,0.403537,0.38784171,-0.19887775,0.446549,0.37859261,-0.16799424,0.451719,0.37398729,-0.1527107,0.454304,0.36951534,-0.13813208,0.456654,0.41009422,-0.19019978,0.44347,0.39253956,-0.1540151,0.441989,0.38617527,-0.13622539,0.441126,0.38233193,-0.12501982,0.440509,0.42719594,-0.18815218,0.441403,0.41076022,-0.14870212,0.434479,0.4062415,-0.13556109,0.430936,0.40534395,-0.12469465,0.427715,0.44931652,-0.19006611,0.439819,0.43992821,-0.16201569,0.430138,0.43187177,-0.1472742,0.425691,0.4453593,-0.14416515,0.434491
0.43677315,-0.26775612,0.452974,0.42151409,-0.22411336,0.448024,0.41630353,-0.262814,0.452846,0.39586321,-0.25329591,0.442977,0.35562946,-0.23361826,0.417243,0.33331369,-0.21639039,0.40175,0.38706921,-0.20005461,0.445203,0.37276544,-0.17194752,0.449625,0.36559549,-0.15676431,0.451837,0.36257394,-0.1480355,0.453847,0.41040817,-0.19196699,0.444062,0.38642286,-0.15713663,0.440277,0.3776796,-0.14012372,0.43807,0.37222255,-0.12897357,0.436493,0.42897626,-0.19028927,0.443572,0.40210422,-0.15327158,0.433159,0.39439184,-0.14104619,0.427832,0.38837627,-0.13133293,0.422989,0.45346984,-0.19225838,0.443797,0.43806227,-0.1634831,0.433435,0.42710281,-0.1516947,0.428673,0.43307983,-0.14546742,0.437346
0.44497214,-0.26616936,0.450318,0.42643726,-0.22673825,0.449275,0.42458556,-0.26486066,0.45105,0.40318312,-0.25860865,0.443261,0.36184238,-0.23974063,0.417721,0.33625205,-0.2210711,0.403409,0.39145134,-0.20986686,0.449655,0.37340611,-0.18479594,0.455696,0.3649803,-0.17221561,0.458717,0.35687473,-0.16021463,0.461463,0.41299987,-0.19675876,0.448441,0.38773515,-0.15966738,0.442153,0.37746193,-0.14177999,0.438485,0.3710584,-0.13028289,0.435865,0.43233294,-0.19231404,0.447536,0.40176913,-0.16068487,0.440636,0.39322657,-0.14843976,0.437106,0.3852066,-0.13678488,0.433897,0.45602937,-0.19353634,0.446646,0.438426,-0.16622366,0.439119,0.42676012,-0.15253042,0.43566,0.41872533,-0.14078949,0.432608
0.44787461,-0.26646456,0.450407,0.428932,-0.22964749,0.450225,0.42681758,-0.26575598,0.450434,0.40922122,-0.25889346,0.441974,0.3682912,-0.23865531,0.415805,0.34222016,-0.22264638,0.402706,0.39019789,-0.21727549,0.450162,0.37274139,-0.19828624,0.460898,0.36466156,-0.18751181,0.466266,0.35677205,-0.17714363,0.471146,0.41126421,-0.20259209,0.450079,0.38625593,-0.17265065,0.449428,0.37670188,-0.1553705,0.449048,0.3711104,-0.14402635,0.448776,0.43014718,-0.19658409,0.450028,0.40044314,-0.17001524,0.447896,0.39291763,-0.1581081,0.446805,0.38573293,-0.14668117,0.445813,0.45801007,-0.19507662,0.449998,0.43397325,-0.17170273,0.442734,0.42489557,-0.16063303,0.439396,0.41673256,-0.15060719,0.436451
0.45287671,-0.26781957,0.454322,0.42796028,-0.22951554,0.452419,0.43050743,-0.26748531,0.4529,0.41010987,-0.2581408,0.442174,0.36998872,-0.23826493,0.415876,0.34777009,-0.22141483,0.401561,0.38119407,-0.222133,0.449572,0.35662523,-0.20048893,0.454203,0.34616869,-0.19119093,0.456519,0.33626422,-0.18240276,0.458624,0.39963471,-0.20782979,0.450896,0.36730213,-0.18079024,0.448419,0.35536782,-0.16954584,0.446974,0.34633293,-0.16100792,0.445942,0.41792371,-0.19870966,0.452159,0.38304213,-0.17086359,0.444934,0.37394815,-0.16210199,0.441236,0.36537098,-0.15375069,0.437876,0.44479942,-0.19293511,0.453942,0.42041118,-0.17117156,0.444996,0.40931099,-0.1611429,0.440886,0.40024536,-0.15280865,0.43726
0.45564354,-0.26794647,0.455342,0.42927948,-0.23556573,0.453935,0.43760126,-0.27047764,0.453398,0.416715,-0.26325991,0.442169,0.37648745,-0.24548828,0.415721,0.3535234,-0.22973043,0.401271,0.38228752,-0.23419236,0.450684,0.35031539,-0.21543088,0.451034,0.33962668,-0.20849444,0.451208,0.33155591,-0.20305503,0.451367,0.39880775,-0.21795264,0.452808,0.35752096,-0.19246532,0.444725,0.34303734,-0.1816109,0.44001,0.33458727,-0.17481806,0.436642,0.41584061,-0.20680691,0.454685,0.37589497,-0.18308901,0.446341,0.36503731,-0.17434806,0.442072,0.35536119,-0.16634995,0.438191,0.44186213,-0.19785897,0.457104,0.41225212,-0.17725603,0.448288,0.40046934,-0.16847474,0.444237,0.38987265,-0.16054801,0.440663
0.45601084,-0.26715686,0.454359,0.42481737,-0.23941859,0.452015,0.43609679,-0.26954753,0.450362,0.41140506,-0.25940852,0.436439,0.37225258,-0.23962088,0.409846,0.34726547,-0.22177786,0.397406,0.37511121,-0.23711017,0.445628,0.34363274,-0.22216699,0.447861,0.33525626,-0.21547201,0.448978,0.32881087,-0.20567723,0.449993,0.39218449,-0.2214085,0.450139,0.34836487,-0.19722488,0.440432,0.33349259,-0.18494231,0.434769,0.32819644,-0.17487544,0.430724,0.40992732,-0.21049483,0.454066,0.36794756,-0.18758206,0.444297,0.35498712,-0.17671362,0.439299,0.34285945,-0.16649037,0.434755,0.43732483,-0.20139139,0.459032,0.40703513,-0.18179858,0.448903,0.3948476,-0.17304111,0.444249,0.38666393,-0.16274912,0.440143
0.45513477,-0.26583729,0.452127,0.42452182,-0.24081083,0.451699,0.43582636,-0.26942181,0.448559,0.41050005,-0.25977808,0.435676,0.37021004,-0.23853661,0.409962,0.34618897,-0.22195788,0.396606,0.37725179,-0.24342463,0.44689,0.34690412,-0.23069049,0.450703,0.33747156,-0.22478166,0.45261,0.32922731,-0.21500229,0.454343,0.39325456,-0.22451539,0.451356,0.35066826,-0.20727877,0.445122,0.33605031,-0.196875,0.441485,0.32898491,-0.19045832,0.438888,0.41047468,-0.21308322,0.455072,0.36985098,-0.19561211,0.448534,0.35706723,-0.18591074,0.445188,0.346838,-0.17306798,0.442147,0.43710067,-0.203041,0.459483,0.40610604,-0.18349592,0.450759,0.39378229,-0.17477151,0.446751,0.38356931,-0.16714022,0.443214
0.45747497,-0.26523807,0.451516,0.42226573,-0.24316073,0.450335,0.43809282,-0.27038955,0.447844,0.41043927,-0.26103705,0.434623,0.37081238,-0.24314427,0.408599,0.34604282,-0.22712489,0.395527,0.37448404,-0.25075195,0.444986,0.34314586,-0.24057242,0.449254,0.33336933,-0.23676513,0.451388,0.32376289,-0.23299207,0.453328,0.38764497,-0.23290176,0.449389,0.34572558,-0.21582752,0.444787,0.3317782,-0.20780627,0.442103,0.32126372,-0.20176411,0.440186,0.40242147,-0.21945626,0.45312,0.36244727,-0.2029769,0.447972,0.35092471,-0.19555918,0.445337,0.34077736,-0.1887564,0.442943,0.4268288,-0.20607133,0.457671,0.39356886,-0.18880624,0.448412,0.38190818,-0.18169313,0.444158,0.37371811,-0.17599456,0.440405
0.46047542,-0.26493206,0.451779,0.42088445,-0.24559697,0.448688,0.43831259,-0.270291,0.446491,0.41150781,-0.26284339,0.43088,0.3734226,-0.24708092,0.404668,0.34586753,-0.2320991,0.392557,0.37244573,-0.25539763,0.440242,0.33842898,-0.24824245,0.443431,0.32605825,-0.24502702,0.445025,0.32189315,-0.24361342,0.446474,0.38480543,-0.2377748,0.446214,0.34472108,-0.22996313,0.445775,0.32967434,-0.22486366,0.445518,0.32930655,-0.22293917,0.445335,0.39919973,-0.22420519,0.451413,0.3545243,-0.21030614,0.442975,0.33888579,-0.20299981,0.438658,0.33173016,-0.19753022,0.434733,0.42540101,-0.20817663,0.457983,0.38839573,-0.1941543,0.44697,0.37617419,-0.18737465,0.44191,0.36941061,-0.17830248,0.437445
0.4579685,-0.26265932,0.448587,0.41982841,-0.24808585,0.44815,0.44095895,-0.27124027,0.44476,0.41668802,-0.26622068,0.431575,0.3806496,-0.25213155,0.404379,0.35479447,-0.23974505,0.389481,0.37502181,-0.25955264,0.443004,0.3402705,-0.259414,0.44598,0.32694275,-0.25882968,0.447468,0.32452547,-0.25952547,0.44882,0.38536214,-0.24092038,0.4478,0.34133043,-0.23517943,0.444463,0.32510268,-0.23116634,0.442516,0.32219805,-0.22952769,0.441125,0.39789336,-0.22628338,0.451788,0.35057692,-0.21909636,0.443309,0.33631364,-0.21443841,0.438971,0.32286311,-0.2100915,0.435027,0.41979071,-0.21055819,0.456518,0.3826896,-0.20209411,0.447707,0.36647516,-0.19763786,0.443658,0.35198286,-0.19366783,0.440086
0.45887092,-0.26207437,0.448783,0.42194861,-0.25019161,0.450331,0.44421434,-0.27224471,0.446695,0.42444593,-0.27022012,0.436127,0.38946554,-0.2572648,0.41244,0.36700527,-0.24772228,0.401684,0.38292653,-0.27095674,0.448483,0.3471358,-0.2713326,0.452175,0.33154031,-0.27160246,0.454021,0.3166558,-0.27181341,0.4557,0.38788849,-0.24790503,0.451571,0.34462219,-0.24904431,0.449481,0.33137726,-0.24727663,0.448263,0.32290495,-0.24591747,0.447392,0.39710574,-0.23158472,0.453972,0.35349796,-0.23100872,0.449565,0.33857651,-0.22842045,0.44731,0.33138066,-0.22570904,0.44526,0.41483402,-0.2132029,0.456528,0.37955408,-0.20832399,0.449614,0.36579665,-0.20519594,0.446437,0.35515473,-0.19875829,0.443634
0.46012596,-0.26130881,0.448612,0.42070034,-0.25224149,0.44936,0.44342161,-0.27166872,0.445162,0.42090094,-0.26908284,0.432759,0.38250226,-0.25360985,0.405308,0.35645505,-0.24087312,0.390001,0.37907781,-0.27090221,0.445332,0.34318604,-0.27121098,0.447982,0.33019558,-0.27527655,0.449307,0.31828139,-0.27687372,0.450512,0.38548558,-0.2515075,0.449957,0.34059682,-0.24872219,0.44548,0.32310174,-0.24949186,0.442869,0.31108461,-0.24874026,0.441003,0.39474767,-0.23556957,0.453697,0.35007564,-0.23083963,0.446723,0.33367844,-0.22786166,0.443154,0.31600153,-0.22691872,0.439911,0.41276677,-0.21714054,0.457947,0.37844849,-0.210506,0.450046,0.36106969,-0.20954582,0.446416,0.34681724,-0.20691724,0.443213
0.4621526,-0.26121114,0.449698,0.42066062,-0.25317019,0.449506,0.44482839,-0.27232647,0.445881,0.42104072,-0.26960428,0.432778,0.38272024,-0.25395367,0.405267,0.35656192,-0.24072432,0.389579,0.37842422,-0.27143514,0.444503,0.34297252,-0.27437395,0.447943,0.33072948,-0.27616294,0.449663,0.31881474,-0.27783143,0.451226,0.38482638,-0.25219191,0.449352,0.33981199,-0.25129931,0.445424,0.32306361,-0.2501834,0.443132,0.31172791,-0.24939672,0.441496,0.39415477,-0.23637415,0.453361,0.34985984,-0.23205394,0.446832,0.33271552,-0.23067855,0.443492,0.31797266,-0.22827398,0.440456,0.41239401,-0.21807586,0.458076,0.37706444,-0.21344349,0.449431,0.3622804,-0.21063399,0.445459,0.34898555,-0.20813474,0.441954
0.46325962,-0.26102381,0.449718,0.41988971,-0.25468545,0.449411,0.4451949,-0.27246891,0.445802,0.4206634,-0.26989943,0.432551,0.38235361,-0.25415043,0.404963,0.35627853,-0.24076886,0.389226,0.37750712,-0.2734538,0.444218,0.34230876,-0.27561609,0.447376,0.32945731,-0.27871319,0.448955,0.31730251,-0.27925097,0.450391,0.38362967,-0.25425824,0.449164,0.33913397,-0.25228618,0.445155,0.32170222,-0.25114229,0.442817,0.30993623,-0.25031336,0.441147,0.39273844,-0.23841338,0.453264,0.34870625,-0.23446262,0.447086,0.33259013,-0.23195833,0.443926,0.31829354,-0.22961467,0.441052,0.41074721,-0.21997203,0.458104,0.37585486,-0.21421576,0.449351,0.36170785,-0.21140873,0.445329,0.34935692,-0.20888632,0.44178
0.46313528,-0.26041581,0.449241,0.41960252,-0.25532677,0.449579,0.44583615,-0.27267134,0.445155,0.41975114,-0.26982213,0.4319,0.38153937,-0.25402167,0.404388,0.35556867,-0.24055701,0.388701,0.37757441,-0.27436878,0.444516,0.33993736,-0.27864678,0.445402,0.32790713,-0.27799447,0.445845,0.31727222,-0.27681622,0.446248,0.38373193,-0.25535704,0.44985,0.33731091,-0.25360015,0.443818,0.31880227,-0.25147659,0.4403,0.30748314,-0.24911624,0.437787,0.39282075,-0.23959251,0.45421,0.34813337,-0.23684034,0.447749,0.33210761,-0.23407271,0.444443,0.31805416,-0.23050441,0.441438,0.41071276,-0.2211299,0.45925,0.37206708,-0.21686594,0.450878,0.36025241,-0.21243355,0.447032,0.35073929,-0.20982462,0.443638
0.46414993,-0.26052009,0.449802,0.41929343,-0.25802525,0.450137,0.44720461,-0.27329109,0.44524,0.41902028,-0.27131842,0.431447,0.38119466,-0.25427639,0.404005,0.35551605,-0.24016574,0.38816,0.37776936,-0.27598748,0.444464,0.34057654,-0.27968164,0.445542,0.32835718,-0.2807937,0.446081,0.31673466,-0.28021088,0.446571,0.38398239,-0.25729978,0.450406,0.33811571,-0.25692983,0.445337,0.31978975,-0.25528433,0.44238,0.30842989,-0.25244419,0.440268,0.39242462,-0.24251829,0.455268,0.34667465,-0.24056415,0.447366,0.33327685,-0.239519,0.443322,0.317975,-0.23201767,0.439647,0.41012441,-0.22405771,0.460894,0.37273626,-0.21823214,0.452381,0.36008326,-0.21489568,0.44847,0.3518071,-0.21085903,0.445018
0.46460682,-0.26035464,0.450102,0.41943696,-0.25854572,0.450322,0.44827312,-0.2737016,0.445345,0.41887194,-0.27167167,0.431295,0.38110244,-0.25457827,0.403894,0.35560893,-0.23996189,0.387899,0.37773301,-0.27647206,0.444334,0.34108953,-0.28035712,0.445866,0.32897299,-0.28157831,0.446633,0.3173589,-0.28133783,0.447329,0.38403607,-0.25792044,0.450498,0.33884532,-0.25794095,0.446039,0.32077601,-0.25659756,0.443437,0.30914215,-0.25389853,0.441579,0.39270929,-0.24317255,0.455553,0.34695704,-0.24130421,0.447494,0.33331369,-0.23954547,0.443371,0.31849631,-0.23292076,0.439623,0.41057348,-0.2247941,0.461424,0.37277712,-0.21874327,0.452776,0.36001495,-0.21529557,0.448802,0.35201144,-0.21124463,0.445296
0.46649597,-0.26108067,0.451588,0.41981291,-0.25905621,0.450362,0.44995718,-0.27445463,0.44597,0.41846716,-0.27172181,0.43053,0.38073639,-0.25556222,0.403318,0.35530528,-0.23965859,0.387158,0.37743555,-0.27836543,0.442492,0.34252244,-0.28252942,0.44554,0.33055227,-0.28417501,0.447064,0.31872143,-0.28429624,0.44845,0.38328554,-0.25952506,0.44938,0.3397863,-0.26046277,0.445816,0.3219553,-0.25903571,0.443738,0.30925412,-0.25616814,0.442253,0.39267893,-0.24440285,0.455162,0.34614283,-0.24226194,0.445169,0.33260688,-0.23850433,0.440057,0.32028064,-0.23499498,0.435409,0.41142632,-0.22576009,0.462116,0.37245426,-0.21910641,0.452253,0.35907223,-0.21537875,0.447722,0.35075605,-0.21100675,0.443724
0.46617131,-0.26073788,0.451156,0.41993179,-0.25933607,0.450188,0.45016025,-0.27442783,0.445505,0.41832706,-0.27182105,0.430107,0.38035444,-0.2562217,0.40302,0.35501942,-0.23980561,0.386803,0.37788808,-0.27869541,0.442416,0.34247111,-0.2824311,0.444874,0.32980521,-0.28314824,0.446103,0.31999763,-0.28424523,0.44722,0.38376003,-0.2599905,0.449414,0.33969776,-0.26065122,0.445279,0.3215974,-0.25894362,0.442866,0.30873324,-0.25603623,0.441143,0.39315165,-0.24489489,0.455264,0.34690246,-0.24295338,0.445662,0.33322715,-0.23919471,0.440749,0.32065903,-0.23569266,0.436283,0.41176648,-0.22628545,0.462253,0.37257831,-0.22123373,0.452557,0.35941502,-0.21743465,0.448102,0.35157904,-0.21263079,0.444171
0.46555656,-0.26040623,0.450379,0.41998961,-0.25951626,0.449991,0.45014702,-0.27441094,0.444894,0.41816278,-0.27189977,0.429854,0.37990048,-0.25640623,0.402811,0.35494537,-0.23999273,0.386627,0.37853873,-0.27915127,0.442744,0.34305925,-0.28292535,0.445217,0.33002848,-0.2836555,0.446453,0.31868771,-0.28424569,0.447577,0.3847558,-0.26107467,0.449681,0.34023505,-0.26075641,0.445531,0.32130816,-0.25796095,0.44311,0.3099806,-0.25455106,0.441381,0.39356906,-0.24529195,0.455427,0.34768308,-0.24361443,0.446364,0.33234624,-0.2398075,0.441726,0.32131692,-0.23650972,0.43751,0.41187985,-0.22660297,0.462203,0.37289723,-0.22199367,0.452944,0.35987471,-0.21831878,0.448689,0.35166746,-0.21356749,0.444935
0.46490094,-0.26053779,0.449749,0.41997449,-0.25974396,0.449867,0.4498228,-0.27470611,0.444368,0.41768225,-0.27194634,0.429595,0.37627311,-0.25913682,0.403454,0.35320773,-0.24071547,0.386865,0.37893516,-0.27968037,0.443025,0.34403364,-0.28402603,0.446263,0.33102184,-0.28559268,0.447882,0.3179449,-0.28633957,0.449354,0.38505308,-0.26158954,0.449962,0.34073562,-0.26128956,0.446031,0.32186541,-0.25939688,0.443737,0.31033095,-0.25668862,0.442099,0.3941287,-0.24636141,0.455663,0.34831317,-0.24451907,0.447188,0.33268491,-0.24112495,0.442852,0.32194976,-0.23779174,0.43891,0.4118037,-0.22757119,0.462305,0.37329917,-0.22429982,0.453416,0.36040899,-0.22090615,0.449332,0.34995212,-0.21778274,0.445728
0.4641611,-0.26051842,0.448937,0.4198675,-0.26093426,0.449711,0.44952732,-0.27488886,0.443774,0.41729084,-0.27278554,0.429442,0.37554448,-0.25949284,0.403534,0.35236275,-0.24114705,0.386956,0.37930774,-0.28047178,0.4435,0.34472688,-0.28562609,0.446263,0.33094634,-0.2870746,0.447644,0.31811614,-0.28759224,0.4489,0.38533699,-0.26229936,0.450331,0.34110032,-0.26346892,0.446055,0.32220787,-0.26168817,0.443561,0.31097862,-0.25845824,0.441779,0.3942903,-0.24698035,0.455885,0.34955189,-0.24664794,0.448182,0.33202598,-0.24458253,0.444241,0.3218121,-0.23943995,0.440658,0.41198161,-0.22857392,0.462248,0.37351995,-0.22633257,0.453864,0.35966585,-0.22538932,0.450012,0.34944187,-0.22073911,0.446613
0.46388433,-0.26086157,0.448614,0.4198046,-0.26126765,0.449611,0.44950184,-0.27535697,0.443552,0.41707857,-0.27292905,0.429399,0.37515973,-0.25965571,0.403551,0.35128875,-0.24162356,0.38706,0.3794099,-0.28093477,0.443649,0.34461919,-0.28605997,0.446328,0.3308626,-0.2875376,0.447667,0.31799799,-0.28813164,0.448885,0.38537982,-0.26271631,0.450409,0.34113569,-0.26413806,0.446191,0.32237813,-0.26248846,0.443731,0.31140586,-0.25923306,0.441973,0.3942666,-0.24735396,0.455884,0.34963105,-0.24715016,0.448412,0.33215771,-0.24523868,0.444589,0.32203014,-0.24024813,0.441113,0.41184573,-0.22888948,0.46212,0.37358082,-0.22701605,0.453914,0.35995597,-0.22614902,0.450144,0.34933808,-0.22180562,0.446818
0.46310698,-0.26106055,0.447865,0.41943746,-0.26193047,0.449273,0.44907715,-0.27572688,0.443032,0.41662644,-0.273333,0.42926,0.37360067,-0.26035236,0.403826,0.35030446,-0.24188712,0.387211,0.37982602,-0.28238417,0.443825,0.34355425,-0.28506141,0.446049,0.33008089,-0.28633514,0.447161,0.31919515,-0.28694737,0.448171,0.38548464,-0.26403164,0.450399,0.34078376,-0.26444437,0.446269,0.32203172,-0.2628089,0.44386,0.31074579,-0.26020484,0.442139,0.39408302,-0.24853658,0.455684,0.3494527,-0.24789945,0.448752,0.33220371,-0.24582903,0.445205,0.32248246,-0.24111637,0.44198,0.41125424,-0.22987153,0.461632,0.37344165,-0.22737337,0.45377,0.36012265,-0.22646008,0.450157,0.34953704,-0.22244793,0.44697
0.46313067,-0.26168524,0.447785,0.41937236,-0.26265126,0.449141,0.44918787,-0.27641079,0.442996,0.41641114,-0.27379984,0.429257,0.3734127,-0.26067929,0.40402,0.34952953,-0.24219502,0.38735,0.37944328,-0.28265993,0.443722,0.34343791,-0.28527955,0.446159,0.33001438,-0.28657191,0.447377,0.3193843,-0.28771863,0.448484,0.38504044,-0.26427372,0.450226,0.34053432,-0.26466439,0.446327,0.32185686,-0.26309682,0.444052,0.31058001,-0.26064938,0.442427,0.39359017,-0.24875521,0.455458,0.34900449,-0.24798814,0.448527,0.33176118,-0.24587191,0.444981,0.32217962,-0.24130196,0.441757,0.4107063,-0.23006907,0.461351,0.37317666,-0.22752864,0.453466,0.35996569,-0.22648572,0.449843,0.34934186,-0.22269354,0.446647
0.46299694,-0.26230699,0.447843,0.41962938,-0.26364193,0.449627,0.44893308,-0.27695171,0.442878,0.41498759,-0.27405931,0.429077,0.37287821,-0.26105737,0.403862,0.3480963,-0.24232729,0.387344,0.37831343,-0.28503617,0.444211,0.34285631,-0.28681674,0.446047,0.3295813,-0.28688673,0.446965,0.31896903,-0.28781792,0.4478,0.38423857,-0.26684692,0.451054,0.34021386,-0.26482414,0.446404,0.3211937,-0.26291441,0.443691,0.31093746,-0.26022026,0.441754,0.39303369,-0.25143485,0.456525,0.34979654,-0.2486122,0.449896,0.33257182,-0.24668891,0.446504,0.32164041,-0.24426293,0.443421,0.41040913,-0.23281706,0.46263,0.37048383,-0.22836278,0.45499,0.35449747,-0.2267127,0.451479,0.3502638,-0.22355153,0.448382
0.46265222,-0.26280943,0.447697,0.4194017,-0.2643296,0.449594,0.4486853,-0.2774971,0.442767,0.41442991,-0.27445755,0.42904,0.37254812,-0.2613634,0.403805,0.34776202,-0.24255454,0.387295,0.37808086,-0.28536304,0.444285,0.34235661,-0.28682849,0.445818,0.3291711,-0.28722129,0.446584,0.3186705,-0.28802237,0.44728,0.38396855,-0.26715859,0.451113,0.33986278,-0.2648689,0.44633,0.32077245,-0.26284939,0.44354,0.31129564,-0.26054524,0.441547,0.39272538,-0.25172484,0.456562,0.34962253,-0.24881753,0.450083,0.33252446,-0.24681634,0.446768,0.32107003,-0.24435961,0.443755,0.41004014,-0.23306668,0.462622,0.36972286,-0.22890122,0.455069,0.35459091,-0.22677246,0.451598,0.3500465,-0.22362281,0.448536
0.4621787,-0.26346154,0.447878,0.41858421,-0.2652967,0.449699,0.44831779,-0.27820165,0.443043,0.41402179,-0.27497154,0.429398,0.37241247,-0.26170821,0.403858,0.3486672,-0.24259766,0.387261,0.37781812,-0.28564356,0.444471,0.34109364,-0.28730545,0.445695,0.32858078,-0.28731504,0.446307,0.31829228,-0.28800269,0.446864,0.38356625,-0.26734592,0.451156,0.33878651,-0.26595359,0.446497,0.32092379,-0.26272751,0.44378,0.3119519,-0.26091062,0.441838,0.392213,-0.25184287,0.456494,0.34852763,-0.24965973,0.450148,0.33232037,-0.24679974,0.446901,0.32210638,-0.24356433,0.443949,0.40837535,-0.23368296,0.462438,0.36780857,-0.23005537,0.454858,0.35414207,-0.22718477,0.451376,0.34841903,-0.22487524,0.448303
0.461755,-0.2643215,0.448233,0.41755022,-0.26651646,0.449855,0.44791422,-0.27907379,0.443436,0.41481553,-0.27521536,0.42977,0.37190314,-0.26506216,0.404368,0.34854708,-0.24339344,0.387732,0.37656007,-0.28642978,0.444568,0.33966728,-0.28669846,0.445629,0.32762349,-0.28679172,0.446159,0.31763553,-0.2878595,0.446641,0.38220507,-0.26807299,0.451153,0.33719525,-0.26532919,0.446295,0.3204264,-0.26264289,0.443461,0.31157301,-0.26076529,0.441437,0.39078198,-0.25252651,0.456427,0.34799705,-0.24945296,0.449931,0.33203609,-0.2465325,0.446608,0.32383813,-0.24357454,0.443587,0.40792057,-0.23376107,0.462327,0.36757078,-0.23009837,0.454621,0.35377903,-0.22730602,0.451081,0.34759451,-0.22480668,0.447957
0.46119365,-0.26532262,0.448612,0.41729955,-0.26677869,0.450132,0.44772474,-0.28032316,0.444304,0.41527534,-0.27675706,0.431152,0.37354283,-0.27077937,0.406236,0.34939607,-0.24852215,0.389495,0.37662285,-0.28675666,0.445417,0.33666052,-0.28330957,0.445952,0.32579065,-0.28500524,0.446219,0.32158274,-0.28560173,0.446462,0.3818838,-0.26800294,0.451348,0.33385029,-0.26279697,0.445141,0.31976408,-0.26020438,0.441521,0.30971963,-0.2596233,0.438935,0.39015024,-0.25219106,0.456093,0.34562546,-0.2483922,0.449772,0.32987675,-0.24542839,0.446539,0.32073746,-0.24372233,0.443599,0.40783998,-0.23275328,0.461391,0.36913018,-0.22905734,0.453753,0.35310523,-0.2267853,0.450244,0.34654816,-0.22440425,0.447147
0.46818528,-0.27035393,0.455291,0.42425832,-0.26968781,0.455319,0.45249225,-0.28428264,0.449126,0.42485103,-0.28382113,0.433472,0.38592334,-0.28332648,0.413355,0.36127721,-0.27014982,0.398421,0.38197962,-0.28642681,0.447421,0.34760436,-0.28272748,0.448921,0.32913384,-0.28338014,0.44967,0.32527174,-0.28710838,0.450352,0.3906809,-0.26822052,0.455341,0.34547633,-0.26191384,0.447627,0.33459578,-0.25913623,0.443128,0.32838626,-0.25723241,0.439913,0.40486637,-0.25387644,0.461859,0.35901339,-0.24768509,0.453666,0.34016569,-0.24429463,0.449475,0.32599555,-0.24476863,0.445664,0.42603223,-0.23714208,0.469469,0.38382449,-0.23325227,0.460316,0.37510235,-0.23021234,0.456111,0.36722478,-0.22749814,0.4524
0.47245905,-0.27180166,0.456856,0.43984904,-0.27184039,0.456332,0.45947612,-0.28651684,0.451611,0.43868799,-0.28619791,0.436794,0.40083411,-0.28962417,0.4193,0.3737508,-0.28037503,0.405104,0.39578175,-0.28657588,0.449319,0.36112512,-0.28520608,0.453226,0.34605964,-0.2855273,0.45518,0.34440024,-0.28748835,0.456956,0.40403913,-0.26848099,0.455913,0.35579989,-0.26187379,0.447745,0.34513269,-0.25921603,0.442981,0.33909448,-0.25742107,0.439578,0.41497167,-0.2535341,0.461389,0.37003764,-0.24805246,0.454682,0.35191259,-0.24519631,0.451251,0.34284459,-0.24282769,0.448131,0.43527033,-0.23621147,0.467871,0.39237573,-0.23181691,0.458652,0.3765471,-0.22919441,0.454416,0.36677694,-0.22659485,0.450679
0.4785691,-0.27855284,0.464626,0.43243789,-0.27614915,0.462078,0.45990191,-0.29166003,0.457994,0.43141812,-0.29964501,0.465039,0.395963,-0.28806472,0.455041,0.37505973,-0.27797734,0.451557,0.38265083,-0.27969148,0.452198,0.37124511,-0.28575847,0.439679,0.40378384,-0.3043007,0.456668,0.43007045,-0.31662818,0.468395,0.39559443,-0.26499423,0.460038,0.35741558,-0.26243551,0.449926,0.35111392,-0.26504918,0.444028,0.34662181,-0.26776623,0.439814,0.41048015,-0.25332299,0.466725,0.36254292,-0.24712892,0.456276,0.35037718,-0.24495303,0.45093,0.34085399,-0.24377158,0.44607,0.43622618,-0.24019985,0.474947,0.39177366,-0.23384088,0.463934,0.38053985,-0.23146203,0.458873,0.37043532,-0.2293681,0.454408
0.47484853,-0.28409945,0.463929,0.43312398,-0.28020836,0.466373,0.45806218,-0.29806613,0.45964,0.43654694,-0.30330415,0.469611,0.40543265,-0.2965713,0.46201,0.3818903,-0.28494771,0.457821,0.38997025,-0.28626838,0.462179,0.3841136,-0.29773222,0.454518,0.41701546,-0.31645141,0.472222,0.44325877,-0.32818735,0.482317,0.40202151,-0.27056177,0.468328,0.37404134,-0.27555138,0.46298,0.39221755,-0.28426323,0.459861,0.4182445,-0.29235818,0.472523,0.41532641,-0.25806512,0.473169,0.37162621,-0.2539824,0.467141,0.36465303,-0.25783654,0.464057,0.37536171,-0.26015492,0.461254,0.43804776,-0.24442579,0.47843,0.39790393,-0.23805948,0.471429,0.38687634,-0.23779585,0.468212,0.37858514,-0.23770922,0.465374
0.48376757,-0.30345429,0.475748,0.44720092,-0.29224391,0.482771,0.46684984,-0.3143554,0.474447,0.43883149,-0.31937792,0.481508,0.41035927,-0.31358963,0.479206,0.39298753,-0.30570869,0.479649,0.4088757,-0.29885978,0.484871,0.40523661,-0.31345504,0.482329,0.43844928,-0.33581841,0.500554,0.46408309,-0.34928166,0.509017,0.41981083,-0.28202541,0.488392,0.40220576,-0.28709306,0.487644,0.41848473,-0.30145522,0.487207,0.44628167,-0.31203516,0.501315,0.43225599,-0.26866641,0.490653,0.39382578,-0.26232635,0.488752,0.38873102,-0.26619939,0.48778,0.39912175,-0.27278285,0.486897,0.45659921,-0.25558558,0.492162,0.42629191,-0.24635411,0.491998,0.41926149,-0.24811663,0.491923,0.41275765,-0.24974889,0.491856
0.49000605,-0.32267946,0.488867,0.45980075,-0.30932801,0.499591,0.47476746,-0.33305317,0.490595,0.44710217,-0.33538703,0.498803,0.42187247,-0.33056118,0.501045,0.40599164,-0.32083675,0.501649,0.4281113,-0.31272408,0.507564,0.42105883,-0.32823643,0.509711,0.45129224,-0.35278045,0.528062,0.47312216,-0.3682797,0.534547,0.43901966,-0.29569345,0.508173,0.41931526,-0.30330177,0.511382,0.43783076,-0.31967407,0.513254,0.46777006,-0.33376002,0.528343,0.45068677,-0.28273356,0.5077,0.41635153,-0.28094072,0.510203,0.42596726,-0.28883793,0.511484,0.45873603,-0.30204948,0.527044,0.46922992,-0.26985475,0.505419,0.4400584,-0.26169815,0.508033,0.43082829,-0.26310727,0.509233,0.42229314,-0.26438141,0.510293
0.49396982,-0.32972466,0.49876,0.46230338,-0.32204742,0.516423,0.47698425,-0.3433385,0.501761,0.45494167,-0.3445379,0.518826,0.43371519,-0.34041166,0.526836,0.42314172,-0.33331513,0.534157,0.43954211,-0.33351391,0.529754,0.43197346,-0.35300555,0.537835,0.45951549,-0.37649222,0.555367,0.47667562,-0.39022619,0.559182,0.44657154,-0.31537594,0.530559,0.42741469,-0.32869245,0.540653,0.44790418,-0.34686707,0.546542,0.47964498,-0.36072548,0.562618,0.45434836,-0.30069811,0.529616,0.42261614,-0.30607651,0.53828,0.43149293,-0.31426458,0.542713,0.4635871,-0.32664596,0.559223,0.46714169,-0.28435687,0.52567,0.4452419,-0.28290648,0.533657,0.43716939,-0.28683856,0.537327,0.42958317,-0.29039055,0.540565
0.49638485,-0.33909918,0.508315,0.46927012,-0.32816242,0.524023,0.48533189,-0.35133271,0.512546,0.46160758,-0.35902284,0.525092,0.44621303,-0.37301346,0.538664,0.44199765,-0.37972918,0.550214,0.44596396,-0.3391797,0.537883,0.43675661,-0.35828598,0.545415,0.46220228,-0.38406046,0.563293,0.48087166,-0.39794884,0.567463,0.4517284,-0.31999032,0.536594,0.43425375,-0.33539636,0.545041,0.45536508,-0.35389745,0.549968,0.48436392,-0.36516245,0.565889,0.45863658,-0.30471241,0.534104,0.42621438,-0.30855274,0.541881,0.43449681,-0.31736803,0.54586,0.46635958,-0.33077018,0.562406,0.47070222,-0.28806404,0.528666,0.44967755,-0.28585561,0.537411,0.44558057,-0.29184268,0.54143,0.44146886,-0.29671077,0.544975
0.50874865,-0.35489543,0.526117,0.48685326,-0.35286568,0.543025,0.50126968,-0.37107995,0.532764,0.48416125,-0.38240373,0.546762,0.468617,-0.39560088,0.56108,0.46444893,-0.40182662,0.573374,0.46862776,-0.36391845,0.560629,0.45718534,-0.38868903,0.570873,0.48165018,-0.412399,0.58838,0.49702823,-0.4247474,0.591332,0.47012108,-0.34484909,0.556555,0.45043675,-0.3667934,0.566744,0.47241647,-0.38406378,0.572687,0.50470308,-0.39438668,0.58868,0.47339041,-0.32970193,0.551665,0.44768208,-0.34603337,0.561817,0.45517164,-0.35935457,0.567011,0.48806679,-0.37328183,0.583859,0.48098393,-0.31326838,0.543228,0.46485028,-0.30377245,0.552593,0.45790366,-0.31096285,0.556896,0.45393353,-0.31872757,0.560693
0.51921632,-0.37950871,0.542796,0.49463541,-0.37120917,0.55819,0.509769,-0.39115409,0.547195,0.4909878,-0.3940076,0.565846,0.47453391,-0.39146261,0.579625,0.46605646,-0.38825876,0.590583,0.47284038,-0.38031799,0.572097,0.46307284,-0.39608225,0.579526,0.48511602,-0.4234595,0.597439,0.49979277,-0.43942351,0.601664,0.47967884,-0.36124589,0.57051,0.44970095,-0.36403489,0.578695,0.45294184,-0.37710957,0.583469,0.48147478,-0.39538199,0.59935,0.48715187,-0.34634164,0.567804,0.47841183,-0.35853529,0.57543,0.5147284,-0.37495874,0.593858,0.53605107,-0.37826391,0.60145,0.49929553,-0.33053697,0.562164,0.47969476,-0.33844132,0.567294,0.4889311,-0.3541235,0.569651,0.51126754,-0.36538844,0.581953
0.52144045,-0.39346131,0.54961,0.50528669,-0.38843381,0.568275,0.51462423,-0.40749714,0.556509,0.50670796,-0.41629894,0.580907,0.49185053,-0.41288311,0.594625,0.4864734,-0.41074418,0.609045,0.49025041,-0.4018377,0.587146,0.47956641,-0.42367594,0.598866,0.50040881,-0.44689426,0.616101,0.51373112,-0.45846777,0.618361,0.49237473,-0.38141382,0.583212,0.48286743,-0.40623506,0.595154,0.50390905,-0.42722084,0.60212,0.53622723,-0.44169134,0.618317,0.49567189,-0.36512471,0.578276,0.48829881,-0.38464444,0.589972,0.52370154,-0.39986966,0.60769,0.54402741,-0.39951716,0.613192,0.50239363,-0.34718923,0.569503,0.4829454,-0.35850983,0.578107,0.49422816,-0.37453094,0.582061,0.51822998,-0.38568162,0.594779
0.53236878,-0.40252929,0.559466,0.5158821,-0.40156781,0.577854,0.5283426,-0.41981438,0.565738,0.51750283,-0.43077716,0.587266,0.49520973,-0.42550028,0.591931,0.48871214,-0.42519365,0.60527,0.50195348,-0.41807317,0.595772,0.49462963,-0.44345453,0.606799,0.51638042,-0.46401967,0.624163,0.53061241,-0.47168929,0.626749,0.50089568,-0.3979834,0.592569,0.492924,-0.4263436,0.604078,0.51716335,-0.44221232,0.610791,0.55057158,-0.45325817,0.627,0.50175765,-0.38153126,0.588261,0.47372919,-0.39827106,0.599355,0.46761217,-0.41068901,0.60503,0.49037403,-0.4280903,0.622015,0.50600888,-0.36263754,0.580266,0.48706606,-0.38134016,0.588375,0.50163083,-0.39436431,0.592101,0.52658708,-0.401826,0.604783
