sluyters/QuantumLeap/backend/src/datasets/dynamic/HandGestureDataset_SHREC2017_csv/Gesture6/finger_2/subject_17_essai_1_skeletons_world.csv
Wrist_x,Wrist_y,Wrist_z,Palm_x,Palm_y,Palm_z,thumb_base_x,thumb_base_y,thumb_base_z,thumb_first_joint_x,thumb_first_joint_y,thumb_first_joint_z,thumb_second_joint_x,thumb_second_joint_y,thumb_second_joint_z,thumb_tip_x,thumb_tip_y,thumb_tip_z,index_base_x,index_base_y,index_base_z,index_first_joint_x,index_first_joint_y,index_first_joint_z,index_second_joint_x,index_second_joint_y,index_second_joint_z,index_tip_x,index_tip_y,index_tip_z,middle_base_x,middle_base_y,middle_base_z,middle_first_joint_x,middle_first_joint_y,middle_first_joint_z,middle_second_joint_x,middle_second_joint_y,middle_second_joint_z,middle_tip_x,middle_tip_y,middle_tip_z,ring_base_x,ring_base_y,ring_base_z,ring_first_joint_x,ring_first_joint_y,ring_first_joint_z,ring_second_joint_x,ring_second_joint_y,ring_second_joint_z,ring_tip_x,ring_tip_y,ring_tip_z,pinky_base_x,pinky_base_y,pinky_base_z,pinky_first_joint_x,pinky_first_joint_y,pinky_first_joint_z,pinky_second_joint_x,pinky_second_joint_y,pinky_second_joint_z,pinky_tip_x,pinky_tip_y,pinky_tip_z,
0.64325414,-0.44558622,0.649364,0.61837362,-0.39696193,0.641634,0.61217652,-0.43316121,0.639922,0.59895103,-0.3932444,0.638814,0.57413455,-0.35334162,0.618216,0.56827533,-0.32919973,0.611489,0.56516881,-0.34545817,0.624265,0.55462129,-0.3064576,0.60784,0.55430317,-0.3034252,0.599628,0.55423269,-0.30070208,0.592162,0.59576066,-0.34753674,0.633274,0.59553793,-0.32546641,0.617578,0.59386339,-0.344174,0.608423,0.60408947,-0.36640702,0.618242,0.62281769,-0.35250613,0.641289,0.61867868,-0.32311276,0.624063,0.61883292,-0.33191582,0.61525,0.62821891,-0.35487337,0.624934,0.6571282,-0.36570155,0.651956,0.65044959,-0.3572364,0.636502,0.66574848,-0.38089833,0.649849,0.67573136,-0.40013089,0.660463
0.64178122,-0.44415062,0.647847,0.61790471,-0.39580524,0.640136,0.61032176,-0.43117956,0.63817,0.59720794,-0.39187208,0.636088,0.57180159,-0.35234184,0.615545,0.56536024,-0.328189,0.60866,0.56433963,-0.34431955,0.622491,0.5574474,-0.3061197,0.606177,0.55676347,-0.3009169,0.598019,0.55393839,-0.29851263,0.590603,0.59521371,-0.34662518,0.631796,0.59496873,-0.32465734,0.616112,0.59328122,-0.34332605,0.606963,0.60338378,-0.36547822,0.616703,0.62251163,-0.35177952,0.640053,0.61887815,-0.32361136,0.622751,0.61792866,-0.33151318,0.613898,0.62739273,-0.35477004,0.623473,0.65804549,-0.36462296,0.651005,0.64965339,-0.35359146,0.635512,0.66576333,-0.37715959,0.648772,0.67579552,-0.39767458,0.659366
0.64054536,-0.44302851,0.646637,0.61687922,-0.3940803,0.638662,0.60862587,-0.42945007,0.636665,0.59507663,-0.39078949,0.631284,0.5655484,-0.35119223,0.608451,0.55700107,-0.326829,0.600655,0.56317524,-0.34331472,0.620459,0.55825115,-0.30674131,0.604077,0.55554007,-0.2989959,0.595887,0.55557811,-0.29075612,0.588441,0.59430952,-0.34584693,0.630038,0.5937181,-0.3238474,0.614098,0.59181181,-0.3423824,0.6048,0.60171016,-0.3643898,0.614372,0.6218493,-0.35119774,0.638541,0.62263842,-0.33094825,0.620926,0.62052106,-0.34184079,0.611914,0.62857316,-0.3652244,0.621289,0.65831559,-0.36392234,0.649825,0.6489916,-0.35266836,0.634094,0.66497226,-0.37615029,0.647236,0.67537402,-0.39658607,0.657869
0.63858533,-0.44149196,0.644943,0.61544625,-0.3919469,0.636851,0.60674422,-0.42756048,0.635151,0.59383085,-0.38995308,0.629343,0.56414729,-0.35092008,0.607059,0.55582554,-0.32657944,0.599112,0.56417958,-0.3418801,0.618782,0.55820681,-0.30648633,0.602142,0.55739217,-0.29885725,0.593822,0.55437733,-0.29260997,0.586258,0.59519704,-0.34455834,0.6281,0.59470351,-0.32301655,0.612053,0.59238896,-0.34161199,0.602692,0.60044385,-0.36337832,0.612303,0.62259395,-0.3500596,0.636396,0.62227884,-0.32999972,0.618761,0.61986402,-0.34102198,0.609738,0.62763114,-0.36433421,0.619179,0.65880463,-0.36302084,0.647452,0.64949368,-0.3508807,0.631681,0.66351151,-0.37487668,0.644891,0.67514901,-0.39438721,0.655563
0.62825867,-0.43331168,0.634297,0.61836029,-0.39157792,0.63707,0.60079355,-0.42025021,0.62955,0.58562269,-0.38215382,0.617856,0.56765599,-0.35230083,0.609841,0.56243861,-0.32961001,0.605017,0.5825214,-0.34755499,0.633271,0.58638119,-0.31862104,0.626154,0.58990664,-0.31325891,0.622596,0.59343426,-0.3085354,0.619361,0.61192174,-0.34930502,0.640069,0.62354781,-0.33703319,0.634728,0.62866481,-0.36246145,0.631612,0.63536735,-0.38360348,0.644951,0.63695573,-0.35369112,0.645446,0.64621201,-0.33887252,0.638294,0.6493425,-0.35368029,0.634634,0.65910415,-0.38034565,0.648121,0.66834502,-0.36456902,0.651433,0.66826612,-0.35685866,0.644291,0.68566211,-0.38149712,0.658952,0.69073994,-0.40063415,0.66715
0.62430027,-0.42954083,0.630084,0.61677277,-0.38964829,0.634554,0.59799279,-0.41750981,0.62606,0.58225623,-0.37901517,0.613241,0.5659347,-0.34638223,0.601278,0.56166529,-0.32342571,0.594718,0.58288612,-0.34679655,0.632904,0.58959857,-0.31580446,0.627885,0.59336221,-0.30592953,0.625376,0.59773623,-0.29881789,0.623095,0.61197762,-0.34833837,0.639388,0.62534745,-0.33683255,0.635769,0.62906638,-0.36113142,0.633657,0.63879443,-0.38498726,0.647461,0.63661346,-0.35248082,0.644376,0.64761721,-0.33859805,0.638884,0.65167163,-0.3539208,0.636075,0.66215129,-0.38097287,0.650062,0.66724279,-0.36291621,0.64965,0.66858302,-0.35684528,0.643893,0.68455821,-0.38174627,0.65865,0.69105268,-0.4003461,0.666397
0.61485823,-0.42174274,0.620194,0.61301684,-0.38656924,0.630001,0.59090913,-0.41113053,0.618769,0.57807909,-0.37748773,0.610377,0.56059147,-0.34915669,0.603932,0.55659197,-0.32764826,0.600834,0.58697679,-0.34698759,0.635511,0.59717149,-0.31902176,0.635861,0.60390627,-0.31101448,0.636036,0.61069801,-0.30498654,0.636195,0.61486858,-0.34775506,0.640608,0.63256826,-0.34001258,0.642524,0.63953565,-0.36644377,0.643641,0.65075025,-0.39165687,0.658818,0.63802832,-0.35104757,0.644039,0.65341497,-0.34103636,0.644002,0.66034857,-0.35806919,0.643983,0.67249769,-0.38621085,0.659488,0.66595929,-0.36002005,0.646678,0.67076254,-0.35787565,0.645462,0.68841247,-0.38279076,0.660408,0.69266467,-0.40093621,0.667219
0.63077756,-0.43078067,0.636341,0.61613061,-0.37426302,0.629399,0.6004129,-0.41621295,0.628266,0.57628303,-0.36542812,0.608212,0.54986676,-0.33372986,0.594016,0.54114141,-0.31041914,0.586265,0.56774622,-0.32520208,0.614299,0.56312649,-0.28908344,0.598816,0.5627064,-0.2790883,0.591075,0.56255595,-0.27009259,0.584037,0.59712851,-0.32745832,0.621891,0.59993135,-0.31012913,0.607,0.62773635,-0.34691733,0.629451,0.63878669,-0.37057557,0.641884,0.62288017,-0.33258897,0.628678,0.62334421,-0.31133176,0.612599,0.62339838,-0.31864813,0.604373,0.63552915,-0.34362165,0.614836,0.65659205,-0.34501369,0.637769,0.64924812,-0.33588097,0.623162,0.66535182,-0.35947009,0.636984,0.67695551,-0.38318833,0.647484
0.63278339,-0.42266066,0.633341,0.61474018,-0.36899524,0.626901,0.6053502,-0.40106411,0.627041,0.57769313,-0.36337186,0.609072,0.54894345,-0.33133122,0.593193,0.53892878,-0.30806749,0.585136,0.56677895,-0.32327527,0.61436,0.55250769,-0.28257023,0.599588,0.55011367,-0.27266633,0.592202,0.5480774,-0.26345796,0.585487,0.59354966,-0.32017309,0.619935,0.58733121,-0.29188167,0.605656,0.62258601,-0.32261248,0.628818,0.63704496,-0.34556488,0.641253,0.61821613,-0.32235175,0.625024,0.61529438,-0.30161242,0.610095,0.6174324,-0.30837477,0.602457,0.63421454,-0.33310655,0.61371,0.65109106,-0.33096404,0.632022,0.64143097,-0.32275099,0.618228,0.65988583,-0.34609515,0.632533,0.67309246,-0.36510771,0.642935
0.63401132,-0.42077222,0.633811,0.61531732,-0.3678659,0.62713,0.60644378,-0.40021019,0.627415,0.57809685,-0.36264131,0.609288,0.54881268,-0.33063801,0.59311,0.53843174,-0.30742095,0.585021,0.56637639,-0.32258784,0.614293,0.55227456,-0.282451,0.599335,0.54979319,-0.27250748,0.591857,0.54767581,-0.26326492,0.585058,0.59351998,-0.32015708,0.619904,0.58297932,-0.28550955,0.60539,0.61835714,-0.31224326,0.628507,0.63472232,-0.33623915,0.641013,0.61823195,-0.32236,0.62504,0.61508561,-0.30151009,0.609888,0.61709445,-0.30676339,0.602136,0.63474534,-0.33091486,0.613301,0.65120335,-0.33102112,0.632131,0.64135211,-0.32271132,0.618152,0.65977316,-0.34603606,0.632425,0.67303278,-0.36507534,0.642878
0.62940685,-0.4008418,0.625684,0.61067313,-0.35200532,0.622648,0.60071736,-0.38993588,0.620245,0.57418509,-0.34715693,0.603984,0.54483435,-0.31622106,0.588375,0.53525512,-0.29269792,0.579027,0.5639099,-0.31063816,0.613694,0.5485783,-0.27741255,0.601594,0.54312952,-0.26239194,0.595544,0.53817792,-0.24840682,0.590044,0.59177348,-0.30929073,0.619366,0.58174844,-0.27268275,0.60837,0.61752117,-0.29628265,0.63192,0.63400238,-0.31983006,0.64329,0.61625511,-0.31115587,0.624269,0.61589546,-0.28918456,0.612299,0.61164514,-0.30587324,0.606174,0.61984252,-0.32633497,0.618447,0.64840297,-0.31910659,0.630546,0.64190495,-0.31224115,0.619245,0.6615347,-0.33537325,0.633847,0.67515451,-0.35444333,0.643486
0.62888374,-0.3880052,0.624787,0.60991916,-0.34173724,0.621412,0.60039728,-0.37797586,0.619737,0.5746904,-0.33924339,0.603846,0.54395851,-0.30781128,0.585754,0.53296391,-0.28790741,0.576138,0.56215213,-0.30190573,0.612685,0.54280809,-0.2695905,0.600598,0.53494332,-0.25430168,0.594554,0.52773435,-0.24009047,0.58906,0.58941808,-0.29931192,0.617762,0.57711298,-0.26277782,0.606485,0.61294518,-0.28583985,0.630154,0.63029081,-0.30904745,0.641663,0.61351675,-0.30012419,0.622202,0.61158276,-0.27801657,0.610151,0.60911423,-0.29466836,0.603986,0.61869696,-0.3150275,0.616324,0.64542082,-0.30676591,0.627979,0.6382959,-0.30028809,0.616567,0.65875225,-0.3229208,0.631247,0.67336541,-0.34162676,0.640955
0.6340504,-0.3865683,0.629858,0.61046307,-0.33920432,0.623424,0.60464003,-0.37694508,0.623751,0.57839155,-0.34016435,0.606005,0.54840492,-0.30936521,0.582565,0.53398412,-0.28793625,0.575173,0.55622728,-0.29658271,0.611128,0.52183898,-0.26238746,0.596433,0.51943099,-0.25421671,0.589086,0.5178852,-0.24710174,0.582406,0.58247781,-0.2914105,0.616466,0.5691696,-0.25570199,0.602211,0.60717639,-0.28142505,0.625436,0.62541632,-0.30482107,0.637882,0.6060851,-0.29025967,0.621359,0.60516157,-0.26946255,0.606523,0.60292722,-0.2856264,0.598932,0.61165099,-0.30833332,0.610254,0.63801337,-0.29481091,0.628123,0.63280153,-0.29084273,0.61439,0.65343328,-0.3128204,0.628738,0.66879421,-0.33130203,0.639135
0.6319466,-0.37611526,0.626767,0.60385229,-0.33109895,0.620007,0.60186354,-0.36793706,0.619799,0.57571156,-0.33183476,0.601009,0.53741618,-0.30232973,0.576533,0.52469787,-0.28189859,0.569224,0.54391871,-0.29315335,0.606407,0.50617611,-0.2597801,0.590991,0.50567197,-0.25079964,0.583283,0.50982863,-0.24426467,0.576276,0.5694855,-0.28684066,0.612695,0.55301159,-0.24823977,0.598055,0.59130303,-0.26730431,0.620969,0.61166707,-0.28989085,0.633457,0.59288872,-0.2845556,0.618396,0.59058746,-0.25836861,0.602929,0.5910897,-0.27295739,0.595016,0.59994301,-0.29335152,0.605957,0.62533097,-0.28734427,0.626169,0.62120976,-0.27870397,0.611976,0.64357737,-0.29951222,0.626109,0.66075956,-0.31751055,0.636585
0.63217298,-0.37421124,0.626851,0.60351307,-0.33026686,0.620303,0.60197737,-0.3664711,0.619748,0.57454968,-0.33409295,0.600852,0.53764494,-0.30307755,0.575923,0.52190044,-0.28150871,0.566214,0.5444266,-0.29293113,0.606694,0.5069259,-0.25946141,0.591336,0.50647567,-0.25051339,0.583657,0.50963375,-0.24407764,0.576676,0.57025717,-0.28686519,0.613222,0.55416329,-0.24830958,0.598769,0.59236563,-0.26741283,0.621642,0.61254175,-0.29000248,0.634049,0.59385361,-0.28477842,0.619102,0.59176618,-0.25866391,0.603736,0.59258297,-0.27275538,0.595874,0.60224456,-0.2940237,0.606811,0.62647634,-0.28780549,0.627058,0.622466,-0.27921755,0.612967,0.64471814,-0.3000598,0.627074,0.66176935,-0.31807552,0.637504
0.63145822,-0.37221742,0.626058,0.60166403,-0.32779536,0.619985,0.60125614,-0.36490033,0.618923,0.57407213,-0.33328133,0.600091,0.53685349,-0.30318059,0.575228,0.51744522,-0.28143228,0.56283,0.54397627,-0.29276537,0.606689,0.50654473,-0.25963721,0.591619,0.50615204,-0.25080437,0.584083,0.50916934,-0.24435056,0.577233,0.56994674,-0.28663557,0.613418,0.54863061,-0.24575519,0.599409,0.58569339,-0.26148017,0.622286,0.60995722,-0.2868416,0.634534,0.59365274,-0.28446552,0.619427,0.59172829,-0.25860506,0.604405,0.59274672,-0.27291563,0.596719,0.60241014,-0.29402039,0.607745,0.62637964,-0.28734322,0.627466,0.62260608,-0.27901964,0.613678,0.64474302,-0.29985972,0.627794,0.66135104,-0.31761329,0.638119
0.63057422,-0.37099395,0.625461,0.60067632,-0.32770109,0.619727,0.60054075,-0.36409982,0.61848,0.57357899,-0.33319015,0.599892,0.53581551,-0.30357058,0.574838,0.51672354,-0.28159269,0.562006,0.54326131,-0.29314912,0.606872,0.5047508,-0.26074218,0.59211,0.5025235,-0.25189724,0.584729,0.50531469,-0.24489613,0.578019,0.56911594,-0.28685164,0.613526,0.54746182,-0.24665996,0.599847,0.58453253,-0.26241381,0.622795,0.60602644,-0.28417406,0.634946,0.5927134,-0.28452368,0.619447,0.59094362,-0.25886024,0.604747,0.59218997,-0.2732988,0.597226,0.60198064,-0.29436152,0.608383,0.62528286,-0.28717447,0.627332,0.62171448,-0.27904161,0.613809,0.64386035,-0.299883,0.627975,0.66025031,-0.31747835,0.638227
0.63294842,-0.37105172,0.627501,0.60173045,-0.32892257,0.621708,0.60156974,-0.36414165,0.619164,0.57266272,-0.33335764,0.599078,0.5348064,-0.30349362,0.574298,0.51544893,-0.28138065,0.560519,0.53504938,-0.30250763,0.607136,0.49589024,-0.27391429,0.591568,0.49565116,-0.2653502,0.583784,0.49563114,-0.25740943,0.576708,0.55997558,-0.29351646,0.615443,0.5316552,-0.25349011,0.601624,0.56602613,-0.26435028,0.623964,0.58992301,-0.28388095,0.635975,0.58334215,-0.28858453,0.622729,0.57773778,-0.26234709,0.607416,0.58236175,-0.27531074,0.599581,0.59729317,-0.29524136,0.61016,0.61661287,-0.28744016,0.632245,0.61309027,-0.27938167,0.618337,0.63674217,-0.29843907,0.632097,0.65770002,-0.31664075,0.642327
0.63290635,-0.37001292,0.627189,0.60098847,-0.32887299,0.621456,0.60115162,-0.36342407,0.618424,0.57371055,-0.3304727,0.597896,0.54033832,-0.29707543,0.569656,0.52595428,-0.27901605,0.562549,0.53466563,-0.30186305,0.606402,0.49543316,-0.27309168,0.590639,0.4951274,-0.2644954,0.582758,0.49504566,-0.25652712,0.575594,0.56013364,-0.29320156,0.615256,0.53196853,-0.25310822,0.601477,0.56616408,-0.26388774,0.623593,0.58994107,-0.28342012,0.63552,0.58396005,-0.28853239,0.622988,0.5783258,-0.26221486,0.60755,0.58283553,-0.27520331,0.599652,0.5980375,-0.29486841,0.610044,0.61779246,-0.28770506,0.633025,0.61424386,-0.27961836,0.619058,0.63772575,-0.29866512,0.63267,0.65912573,-0.31670897,0.642864
0.63342218,-0.36952592,0.62749,0.6007972,-0.32902277,0.621626,0.60164921,-0.36336358,0.618695,0.57435635,-0.33041303,0.598105,0.5385695,-0.29940618,0.570105,0.52494578,-0.27800506,0.561178,0.53478515,-0.30178792,0.606438,0.4954868,-0.27293116,0.590575,0.49514559,-0.26431362,0.582643,0.49503041,-0.25632644,0.575432,0.56026952,-0.29314005,0.615285,0.53203149,-0.25296107,0.601381,0.5662225,-0.26373932,0.623483,0.59002298,-0.28330292,0.63545,0.58411621,-0.28849023,0.623021,0.57781404,-0.26136,0.607472,0.58236571,-0.27408062,0.599516,0.59560681,-0.29434617,0.60987,0.61798788,-0.28770104,0.633082,0.61435255,-0.27957147,0.61902,0.63781299,-0.29862763,0.632622,0.65845304,-0.31627616,0.642845
0.63716299,-0.36615608,0.630002,0.6049349,-0.33090415,0.626125,0.60789235,-0.36449435,0.623897,0.60669374,-0.34010271,0.629782,0.56289094,-0.3321226,0.615457,0.541191,-0.33142065,0.615894,0.54149579,-0.31320598,0.615725,0.50216548,-0.29397782,0.602681,0.50343994,-0.28799277,0.596159,0.50513168,-0.28253969,0.59023,0.5612618,-0.29866715,0.621932,0.53006129,-0.26609062,0.610078,0.56723104,-0.27922009,0.63339,0.59360429,-0.29679498,0.644996,0.58062493,-0.28868905,0.627342,0.57444561,-0.26644418,0.614433,0.58422874,-0.2781748,0.607828,0.60268201,-0.29825276,0.619695,0.60951709,-0.28062336,0.634344,0.61031124,-0.27771954,0.622293,0.63635066,-0.29448575,0.636724,0.65498427,-0.30748556,0.646561
0.63847256,-0.36518492,0.630618,0.60522233,-0.33065269,0.626503,0.60938277,-0.36428687,0.624599,0.60612352,-0.33927713,0.628873,0.56245067,-0.33111301,0.614676,0.54057093,-0.33012044,0.614895,0.54241202,-0.31073124,0.616032,0.50282697,-0.29307938,0.602884,0.50409709,-0.28708239,0.59631,0.5057849,-0.28162098,0.590333,0.56464707,-0.29705685,0.622052,0.53315718,-0.2660023,0.609981,0.57619706,-0.28209729,0.633321,0.59758852,-0.29869453,0.645014,0.58131806,-0.28816981,0.627326,0.5751656,-0.26580748,0.614274,0.5863567,-0.27696322,0.607597,0.60213026,-0.29765898,0.619447,0.61021601,-0.28022462,0.634202,0.61087396,-0.27728546,0.622017,0.63732599,-0.29427143,0.636465,0.65826523,-0.31290583,0.646355
0.63909442,-0.36416629,0.630691,0.60504131,-0.33022702,0.62638,0.61045528,-0.36310368,0.62462,0.60582736,-0.33894266,0.62846,0.56204786,-0.33124555,0.614308,0.54035309,-0.33063681,0.614733,0.54216212,-0.31085952,0.615701,0.50258336,-0.29250896,0.602395,0.50379357,-0.28648097,0.595742,0.50542587,-0.28099331,0.589694,0.56399377,-0.29696839,0.621719,0.53287209,-0.26543179,0.609458,0.57133548,-0.28002644,0.632777,0.59730488,-0.29814601,0.644531,0.58125676,-0.28785158,0.627005,0.57499472,-0.26540521,0.613782,0.58558592,-0.27675958,0.607017,0.60130385,-0.29703634,0.61881,0.61022915,-0.27999059,0.633926,0.61073949,-0.27699451,0.621597,0.63730114,-0.29403779,0.636028,0.65799276,-0.31193286,0.645962
0.64449038,-0.36008613,0.632883,0.60521444,-0.32993674,0.626792,0.6169113,-0.36276912,0.627287,0.60752643,-0.33966464,0.629711,0.56442639,-0.33448227,0.616556,0.5423633,-0.33630714,0.616307,0.54142756,-0.31560647,0.615379,0.4988346,-0.30201068,0.601213,0.49835724,-0.29537908,0.59413,0.49841445,-0.28929719,0.587691,0.55991462,-0.29809858,0.620205,0.52287249,-0.27137831,0.606324,0.56047075,-0.28450005,0.629721,0.59165701,-0.297576,0.642086,0.57814062,-0.28739722,0.624649,0.56401353,-0.26674104,0.610305,0.57715094,-0.27611363,0.602966,0.59556401,-0.29383417,0.614534,0.60421951,-0.27865671,0.63083,0.60061835,-0.27413088,0.617473,0.63057089,-0.29087004,0.631942,0.65430146,-0.30488853,0.642253
0.65014484,-0.36167021,0.63748,0.60144939,-0.32772845,0.623154,0.62062568,-0.36389219,0.6299,0.60568215,-0.33891394,0.627556,0.55804041,-0.33555803,0.608695,0.53335848,-0.33681702,0.605166,0.53064793,-0.31350103,0.603194,0.48289983,-0.29469863,0.582712,0.47942571,-0.28650931,0.572471,0.47668026,-0.27903915,0.563161,0.54639762,-0.29671764,0.60766,0.50584379,-0.264409,0.586059,0.54224327,-0.27732451,0.607846,0.57189459,-0.2944481,0.622498,0.56337231,-0.28491172,0.612451,0.54512366,-0.25963975,0.591196,0.55211146,-0.26689984,0.580322,0.56936934,-0.28182116,0.589049,0.59129729,-0.27456669,0.620253,0.58362842,-0.26771316,0.601109,0.61118132,-0.28209428,0.614443,0.63742838,-0.29693614,0.626351
0.65113435,-0.36110732,0.637902,0.60185338,-0.3280196,0.624008,0.62234996,-0.36428422,0.63108,0.60453115,-0.34302808,0.627408,0.55891339,-0.34050309,0.612117,0.5354136,-0.34011202,0.608873,0.52914846,-0.31688613,0.605303,0.49468922,-0.29609571,0.585595,0.4827974,-0.28838095,0.575742,0.47924529,-0.28194863,0.566784,0.54652234,-0.29804722,0.608982,0.52633033,-0.28532554,0.587861,0.56925623,-0.30943061,0.609911,0.59309687,-0.32432283,0.624472,0.56300755,-0.28572422,0.613091,0.53382036,-0.26908322,0.592505,0.54246825,-0.26971801,0.581973,0.56798393,-0.28253134,0.591057,0.59037027,-0.27464361,0.620019,0.5740123,-0.26986041,0.60138,0.60356287,-0.28025377,0.614898,0.63016166,-0.28944749,0.626699
0.65196123,-0.36059533,0.638273,0.60184788,-0.3277717,0.62419,0.6232748,-0.36425225,0.631562,0.60746439,-0.34134099,0.630394,0.56200023,-0.34014586,0.6159,0.53666725,-0.34099689,0.611355,0.52930494,-0.31661171,0.605482,0.49480833,-0.29579318,0.585736,0.48361512,-0.28856842,0.575863,0.48009634,-0.28287992,0.566887,0.54597411,-0.29818966,0.60896,0.5325104,-0.28826638,0.587687,0.57573848,-0.3125288,0.60972,0.59699235,-0.32618784,0.624331,0.56237464,-0.2857131,0.612919,0.5309683,-0.26773227,0.592254,0.53546433,-0.26623427,0.581682,0.56320824,-0.27919603,0.590737,0.58970967,-0.27440112,0.619695,0.57362955,-0.26929278,0.600979,0.60315846,-0.27966774,0.614486,0.62977051,-0.28886095,0.62631
0.6486236,-0.35759209,0.63401,0.6060129,-0.33548423,0.629315,0.62387438,-0.36418357,0.631012,0.60809467,-0.3503551,0.63344,0.57234645,-0.35777681,0.63086,0.55347781,-0.35971787,0.63256,0.54386557,-0.33482066,0.622141,0.52106544,-0.32067663,0.610637,0.51857276,-0.31800939,0.604886,0.52141414,-0.31820159,0.599657,0.55805878,-0.31605445,0.624238,0.55454509,-0.31061219,0.612004,0.60058307,-0.33694906,0.63603,0.6238178,-0.35152594,0.647997,0.57322714,-0.30213857,0.626329,0.54801358,-0.28674559,0.61429,0.5598135,-0.28882025,0.608131,0.58898281,-0.30232255,0.620745,0.59796916,-0.28848982,0.629506,0.58978774,-0.28688607,0.617907,0.62116747,-0.29831722,0.632833,0.64911505,-0.30516607,0.642703
0.64744928,-0.35556289,0.631941,0.60631777,-0.33091747,0.628722,0.62397892,-0.36353053,0.630095,0.60701769,-0.35016807,0.632997,0.57178088,-0.35583308,0.631014,0.55449063,-0.35872373,0.634672,0.54601765,-0.32725643,0.624062,0.52573345,-0.32190624,0.614117,0.52044999,-0.31916838,0.609144,0.51492758,-0.31755467,0.605907,0.55971374,-0.30817928,0.625242,0.55645192,-0.31099638,0.614562,0.60183584,-0.33782875,0.638829,0.62584045,-0.35241445,0.650309,0.57463471,-0.2936765,0.626463,0.54767645,-0.28589868,0.616111,0.55503087,-0.28699488,0.610814,0.58918306,-0.30209234,0.624036,0.5994388,-0.28123349,0.628388,0.58982513,-0.28595219,0.618152,0.62122717,-0.29786835,0.633267,0.647847,-0.30554752,0.64273
0.65122517,-0.35631235,0.634781,0.60870631,-0.33241632,0.631212,0.62720022,-0.36475962,0.632411,0.60558512,-0.35296008,0.634075,0.57055382,-0.36138412,0.635218,0.55732333,-0.36460367,0.639971,0.54741481,-0.32856583,0.625647,0.52573584,-0.32163614,0.615133,0.51357455,-0.31590449,0.610267,0.51091908,-0.31565538,0.605843,0.56176403,-0.30981412,0.627353,0.55750622,-0.31155141,0.616261,0.60254787,-0.33849141,0.640454,0.6271121,-0.35324648,0.652059,0.57716469,-0.29549999,0.629035,0.57647228,-0.29677866,0.618151,0.59204804,-0.30297169,0.612582,0.61755392,-0.31482747,0.62561,0.60154498,-0.28392189,0.631559,0.59396489,-0.29005813,0.620907,0.623122,-0.30849742,0.635962,0.63794617,-0.31322615,0.646041
0.65605269,-0.35988329,0.639899,0.61012153,-0.33605726,0.633937,0.63161505,-0.36838563,0.637525,0.58519077,-0.36730942,0.636303,0.55323062,-0.36404009,0.6365,0.53306907,-0.35868791,0.637015,0.5464949,-0.32684456,0.626593,0.52576312,-0.32054817,0.614577,0.51768437,-0.31683112,0.60857,0.5135067,-0.31420754,0.603108,0.56153585,-0.30946636,0.627489,0.55563892,-0.30794314,0.6142,0.59983566,-0.33668776,0.638141,0.62486875,-0.35194028,0.650462,0.5771555,-0.29475283,0.62869,0.57396975,-0.29410477,0.616049,0.58828098,-0.30044469,0.609581,0.61352643,-0.31286872,0.621999,0.60175632,-0.2827075,0.630995,0.59119956,-0.28751183,0.618819,0.62039578,-0.30331996,0.63369,0.63883264,-0.30988511,0.643742
0.6546084,-0.36013703,0.639126,0.60822691,-0.33751477,0.633642,0.63005137,-0.36867498,0.636811,0.58476532,-0.36779874,0.636835,0.55342947,-0.3655842,0.637959,0.53382715,-0.36075779,0.638935,0.54557534,-0.32659152,0.626724,0.52601306,-0.3205351,0.615045,0.51682922,-0.31621151,0.609206,0.51148035,-0.31417043,0.603897,0.56075849,-0.30887576,0.627711,0.55538682,-0.30962498,0.614868,0.59856801,-0.33651917,0.638872,0.62466717,-0.35238949,0.651052,0.5771114,-0.29499105,0.628949,0.572922,-0.29493087,0.616687,0.5804383,-0.30734424,0.610413,0.60346344,-0.32290761,0.62297,0.6015472,-0.28400358,0.631228,0.59108246,-0.28918758,0.619375,0.61063279,-0.31244031,0.634292,0.62901596,-0.3283505,0.644248
0.65401175,-0.36074585,0.639181,0.60811026,-0.33689698,0.633963,0.6295137,-0.36946073,0.637126,0.58488874,-0.36837893,0.637551,0.55359723,-0.36630648,0.638711,0.53381888,-0.36120493,0.639543,0.54567129,-0.32674151,0.627564,0.52679129,-0.32091318,0.616226,0.51770737,-0.31689003,0.610557,0.51260487,-0.31498569,0.605403,0.56088843,-0.30897791,0.62832,0.5556,-0.30977548,0.615768,0.59774196,-0.33650055,0.639818,0.6248349,-0.35285237,0.651907,0.5772107,-0.29519861,0.629349,0.57248613,-0.29538089,0.617419,0.58074162,-0.30740929,0.611315,0.60405635,-0.32299096,0.623991,0.60134878,-0.28350477,0.631339,0.59004118,-0.28847162,0.619752,0.61048129,-0.3122146,0.634705,0.62888022,-0.32804574,0.644581
0.64647405,-0.36879325,0.642174,0.5971747,-0.34016962,0.637113,0.62234171,-0.37596875,0.641983,0.57449916,-0.37141113,0.641543,0.54235217,-0.36811912,0.641962,0.52436854,-0.36300817,0.643359,0.54032665,-0.32439552,0.633128,0.53083764,-0.3229502,0.623175,0.52460252,-0.32090019,0.619007,0.52071236,-0.31985924,0.615217,0.55609243,-0.30715106,0.631639,0.54976896,-0.30658518,0.619604,0.59173972,-0.3344054,0.643643,0.62329407,-0.35424843,0.655542,0.57600162,-0.29544082,0.630808,0.56925386,-0.29595329,0.620018,0.58206828,-0.30823432,0.614497,0.60604829,-0.32434129,0.627491,0.60061986,-0.28498032,0.630564,0.58667115,-0.29095372,0.619813,0.6094368,-0.31214647,0.634796,0.62772491,-0.32770067,0.644389
0.64311937,-0.36887374,0.641241,0.5958762,-0.34002888,0.636869,0.61911954,-0.37579695,0.641234,0.5730408,-0.37110924,0.641093,0.54139819,-0.36812468,0.642037,0.52382854,-0.36328542,0.643905,0.53975985,-0.32465209,0.633621,0.52710621,-0.31757749,0.624221,0.51980795,-0.31388569,0.620634,0.51485521,-0.31746402,0.617372,0.55552505,-0.30741636,0.632141,0.54973752,-0.30717799,0.620769,0.59231349,-0.33536702,0.644897,0.62248839,-0.35417016,0.656585,0.57148347,-0.29542621,0.631263,0.56683758,-0.29551359,0.621073,0.57885895,-0.30737953,0.61586,0.60630767,-0.32492566,0.629068,0.59861987,-0.28560296,0.630862,0.58510909,-0.29122457,0.620616,0.60913217,-0.31252732,0.635666,0.62735737,-0.32794615,0.645108
0.64120033,-0.36907278,0.641329,0.59497256,-0.33986537,0.637242,0.61543338,-0.37593353,0.641403,0.57176413,-0.37136979,0.640852,0.53993169,-0.36894402,0.641598,0.52207978,-0.36435778,0.64338,0.53909965,-0.32488149,0.634305,0.52368277,-0.31913738,0.625138,0.51630665,-0.31626413,0.620564,0.51246557,-0.31616338,0.616407,0.55478245,-0.30756694,0.632822,0.54920422,-0.307468,0.621726,0.59202009,-0.33568818,0.645889,0.61795793,-0.3526616,0.657487,0.57066174,-0.29549093,0.63192,0.56621024,-0.29569962,0.621982,0.57844571,-0.30755702,0.616897,0.60275734,-0.3238706,0.630194,0.59528662,-0.28526318,0.631448,0.58279149,-0.29141671,0.621413,0.60618255,-0.31239424,0.63649,0.62682349,-0.32799626,0.645867
0.62200027,-0.3587396,0.623518,0.58460583,-0.33386484,0.626844,0.59992859,-0.36705561,0.626655,0.56049445,-0.3643402,0.628799,0.53134939,-0.36377957,0.632039,0.51543565,-0.36069078,0.636004,0.53745879,-0.32404225,0.633177,0.53233606,-0.32436769,0.630856,0.53323141,-0.32639298,0.629696,0.53240391,-0.32735692,0.629287,0.55193889,-0.30609507,0.630441,0.55295934,-0.30967839,0.626859,0.59646699,-0.338205,0.651426,0.61988398,-0.3535978,0.660434,0.56624995,-0.29325756,0.627932,0.56831359,-0.29685069,0.625209,0.5841531,-0.31055067,0.623816,0.61036999,-0.32774942,0.639262,0.58670611,-0.28140566,0.624459,0.58104168,-0.29052485,0.620451,0.60494884,-0.31158804,0.635918,0.6225837,-0.32562258,0.643327
0.64048004,-0.36995435,0.643122,0.59530037,-0.3398979,0.638719,0.61425338,-0.37624483,0.642652,0.5712667,-0.37149542,0.641264,0.53891821,-0.36952502,0.641445,0.52120517,-0.36542402,0.643367,0.53855626,-0.32472586,0.634876,0.52641509,-0.32075128,0.62513,0.52434839,-0.3210725,0.620257,0.52136955,-0.32084708,0.616602,0.55461898,-0.30759529,0.633956,0.54595291,-0.30624787,0.622456,0.5887366,-0.33414089,0.646609,0.61690857,-0.35192456,0.658351,0.57087176,-0.29564631,0.633543,0.56576682,-0.29557709,0.623069,0.57785606,-0.30721989,0.61771,0.601883,-0.3231721,0.630854,0.59605171,-0.28554411,0.633698,0.58205814,-0.29129351,0.623242,0.60670597,-0.31241726,0.638299,0.62631027,-0.32735204,0.647817
0.63925331,-0.36945193,0.64273,0.59508993,-0.3393885,0.638753,0.61300162,-0.37554169,0.642116,0.57070111,-0.37073957,0.640906,0.53874033,-0.36916137,0.641494,0.52167734,-0.36552192,0.644007,0.53851659,-0.32437154,0.63505,0.5267665,-0.32070617,0.625468,0.5229435,-0.3203757,0.620678,0.51966225,-0.31959225,0.616486,0.55482414,-0.30738309,0.634452,0.5455545,-0.30494623,0.623311,0.58625526,-0.3312097,0.647526,0.61485011,-0.35026055,0.659157,0.57047187,-0.29526236,0.634271,0.56251757,-0.292549,0.624027,0.5728573,-0.30157455,0.618786,0.600148,-0.32149278,0.632025,0.59578898,-0.28516143,0.634639,0.58200302,-0.29069387,0.624394,0.60670932,-0.3119236,0.639491,0.62439955,-0.32473497,0.648951
0.63936444,-0.36949201,0.643515,0.59556982,-0.33912315,0.639462,0.60955488,-0.37542488,0.642966,0.57046147,-0.36977439,0.6414,0.53874776,-0.36875092,0.641691,0.52210041,-0.36541764,0.644596,0.53837419,-0.32390349,0.635781,0.527456,-0.32069799,0.626197,0.52313225,-0.31989884,0.62151,0.52065127,-0.31974377,0.617249,0.55401966,-0.30639958,0.635078,0.54511058,-0.30328687,0.62388,0.58650343,-0.33033701,0.648083,0.61442933,-0.34884865,0.65973,0.57029063,-0.29440015,0.634815,0.5614225,-0.28952616,0.624551,0.57351407,-0.30102901,0.6193,0.60034694,-0.32083005,0.632528,0.59548262,-0.28415981,0.635098,0.58234876,-0.29014321,0.62483,0.60649765,-0.31005546,0.63992,0.62464933,-0.32251167,0.649385
0.63740703,-0.36921462,0.643732,0.59489127,-0.33788382,0.640242,0.60973194,-0.37514622,0.643645,0.57077234,-0.36746611,0.643276,0.53933832,-0.36681415,0.644454,0.52251244,-0.36463279,0.645436,0.53910325,-0.32135623,0.637549,0.53039346,-0.32168202,0.628637,0.52717995,-0.32199768,0.62466,0.52473359,-0.32233469,0.621333,0.5549874,-0.30413368,0.636467,0.54651546,-0.30217964,0.625878,0.58819204,-0.33050296,0.650132,0.61570717,-0.34892285,0.661576,0.57101709,-0.29206431,0.635849,0.56277407,-0.28944271,0.626253,0.57510641,-0.30126594,0.621343,0.60205592,-0.32115117,0.634782,0.59580272,-0.28316339,0.635626,0.5830137,-0.28932053,0.6259,0.60726899,-0.30914098,0.641037,0.62523935,-0.3220005,0.650329
0.63658161,-0.36949441,0.64491,0.59537482,-0.33775826,0.641004,0.61017225,-0.37511527,0.644493,0.57098731,-0.36693121,0.643789,0.53930166,-0.3649528,0.645138,0.52390346,-0.36337519,0.647879,0.53889507,-0.32080007,0.637596,0.53014082,-0.32111508,0.628196,0.52664276,-0.32112957,0.624222,0.52420332,-0.32162827,0.620658,0.5550752,-0.30376876,0.63678,0.54626421,-0.30161856,0.625743,0.58793731,-0.32988973,0.64996,0.61539291,-0.34831099,0.661554,0.5713803,-0.29187143,0.636412,0.56275416,-0.28904252,0.62633,0.5747977,-0.30080508,0.621171,0.6014394,-0.32039908,0.634456,0.59659167,-0.28309673,0.636549,0.58339537,-0.28905717,0.626427,0.60760116,-0.30888784,0.64153,0.62562275,-0.32165461,0.650948
0.63512107,-0.36951886,0.645447,0.59551923,-0.33755843,0.641353,0.6102824,-0.37494945,0.644916,0.57095987,-0.36651055,0.643906,0.53913437,-0.3643305,0.645056,0.52357122,-0.3626405,0.647829,0.53876733,-0.32053318,0.637664,0.53014693,-0.32076476,0.628067,0.52658817,-0.32043131,0.624122,0.52440768,-0.32117646,0.620535,0.5550538,-0.30356873,0.636925,0.54618974,-0.30124434,0.625693,0.5877089,-0.32856788,0.64989,0.61522883,-0.34782474,0.661548,0.57153076,-0.29247269,0.636635,0.56276426,-0.2887372,0.626352,0.57463151,-0.30043094,0.62109,0.60120576,-0.31996083,0.63431,0.59682926,-0.28292764,0.636893,0.58338112,-0.28819341,0.626606,0.60764901,-0.30777854,0.641693,0.62568531,-0.32127284,0.651162
0.63681704,-0.3695036,0.647113,0.59735462,-0.33744061,0.642739,0.61109811,-0.37452707,0.645673,0.57750633,-0.36412913,0.642539,0.54526464,-0.36312406,0.643109,0.52396527,-0.36220881,0.647284,0.53959309,-0.32068243,0.637722,0.53786468,-0.31852226,0.627259,0.53600465,-0.31772404,0.622995,0.53578014,-0.31799531,0.619119,0.55669691,-0.30411452,0.638007,0.55369069,-0.2997348,0.62634,0.59699704,-0.32605012,0.65051,0.61948053,-0.34430445,0.662317,0.57384634,-0.29257834,0.638583,0.57030668,-0.2871041,0.627597,0.58236978,-0.29772661,0.621977,0.6022811,-0.3184813,0.634983,0.60016198,-0.282913,0.63991,0.59147561,-0.28609981,0.629089,0.61636082,-0.30607126,0.644139,0.62884012,-0.32007586,0.653782
0.62956622,-0.28252801,0.639691,0.60214998,-0.31177179,0.648855,0.62241102,-0.30164999,0.633011,0.58895025,-0.31222165,0.620619,0.58051985,-0.33970402,0.615559,0.57043235,-0.35771162,0.616494,0.57370537,-0.35616351,0.647409,0.54452325,-0.36416365,0.643448,0.53115726,-0.36451516,0.641467,0.53147788,-0.35118154,0.639666,0.57310314,-0.34298158,0.658766,0.56202403,-0.33140668,0.659851,0.60460533,-0.32851966,0.680897,0.62732338,-0.33243696,0.690673,0.57463772,-0.32980981,0.667397,0.56252242,-0.31971196,0.668979,0.58394172,-0.31100516,0.669788,0.6101779,-0.31876363,0.68404,0.58034738,-0.30974258,0.676315,0.57577502,-0.30709787,0.673438,0.60451179,-0.3124684,0.686584,0.62099509,-0.31621325,0.694449
0.64173201,-0.290717,0.649736,0.60228104,-0.31208135,0.648709,0.62778249,-0.30632973,0.637992,0.58443216,-0.30899347,0.615792,0.56189731,-0.3266397,0.605977,0.54732641,-0.3411256,0.604514,0.55369955,-0.34229281,0.633467,0.51310431,-0.3371165,0.621179,0.49605287,-0.33006465,0.615035,0.49626192,-0.3148863,0.609449,0.55888047,-0.33147138,0.647598,0.54065313,-0.30617384,0.63853,0.58300233,-0.30705468,0.657872,0.60581353,-0.31818497,0.667223,0.5669473,-0.32347144,0.659305,0.54501225,-0.2950372,0.64662,0.58022098,-0.29764193,0.662486,0.60278833,-0.31169867,0.673947,0.5793361,-0.30724538,0.673379,0.57178565,-0.29193265,0.662232,0.59813528,-0.29937902,0.674105,0.61321243,-0.30951903,0.682631
0.64689978,-0.29506242,0.653745,0.60875674,-0.31397636,0.656049,0.63357727,-0.3112706,0.64447,0.59361158,-0.31335571,0.625574,0.56989584,-0.33145417,0.616593,0.55405449,-0.34490775,0.61538,0.55732109,-0.3366935,0.64632,0.52248873,-0.32967745,0.636953,0.50956772,-0.32264187,0.632269,0.51540805,-0.31037778,0.628011,0.56374907,-0.32224274,0.658542,0.55806402,-0.30006293,0.652668,0.60375924,-0.30677507,0.673515,0.62486665,-0.32123858,0.686307,0.57221104,-0.30940656,0.668418,0.56324704,-0.28623147,0.659196,0.60109606,-0.29401686,0.676337,0.62462846,-0.30866312,0.69083,0.58832852,-0.29241905,0.679825,0.58795103,-0.28293675,0.671412,0.61516074,-0.29453909,0.684309,0.63197286,-0.3052635,0.69454
0.65006371,-0.29719119,0.656336,0.60990449,-0.31353464,0.657468,0.63569402,-0.31305469,0.646916,0.59540828,-0.31401077,0.627526,0.57091618,-0.33169286,0.618359,0.55449075,-0.34463197,0.61701,0.55764186,-0.3362846,0.646692,0.52207694,-0.32880051,0.636451,0.50881175,-0.32153535,0.631331,0.51431242,-0.30908181,0.626676,0.56387833,-0.32171186,0.658693,0.54952078,-0.29957641,0.651641,0.59488127,-0.30429045,0.672616,0.62091548,-0.3149627,0.682819,0.57226326,-0.30882821,0.668479,0.56386324,-0.28521941,0.658247,0.60179044,-0.2933765,0.675502,0.6251088,-0.30835148,0.690455,0.58843756,-0.29186422,0.679951,0.58729163,-0.28198757,0.670659,0.61454226,-0.29359476,0.683621,0.63143692,-0.30435626,0.693951
0.65197756,-0.29847582,0.657906,0.61053961,-0.31314019,0.658291,0.63687189,-0.31408238,0.648349,0.5963021,-0.31426808,0.628607,0.57124826,-0.33162727,0.619249,0.55360902,-0.34322964,0.618686,0.55753496,-0.33575297,0.646794,0.52156381,-0.32786153,0.636054,0.50812248,-0.32041196,0.630684,0.5134738,-0.3078837,0.625802,0.56379889,-0.32112141,0.658709,0.54888416,-0.29852897,0.650911,0.59427674,-0.30341775,0.67192,0.61919228,-0.31369849,0.681931,0.57226036,-0.30823478,0.668482,0.56263046,-0.28427756,0.657596,0.60049621,-0.29190072,0.674882,0.6248855,-0.30627427,0.689362,0.58862852,-0.29134345,0.680049,0.58700902,-0.281218,0.670195,0.6142282,-0.29287855,0.683167,0.63111642,-0.30368989,0.693525
0.64870163,-0.30068942,0.651899,0.61784217,-0.32036089,0.662107,0.63465974,-0.31701889,0.645927,0.60041941,-0.34028696,0.640484,0.56766262,-0.34598167,0.633726,0.54428438,-0.3464207,0.630744,0.57283503,-0.34696982,0.662306,0.54062837,-0.34192735,0.659993,0.52896,-0.33577861,0.658836,0.53649751,-0.32520415,0.657785,0.58432013,-0.33125636,0.673147,0.57474988,-0.31463115,0.675301,0.61861199,-0.32357044,0.696547,0.64036882,-0.32918216,0.702436,0.59638028,-0.31750148,0.681271,0.58854727,-0.29965118,0.67977,0.62407975,-0.30497529,0.69725,0.65184549,-0.31932098,0.707559,0.61572774,-0.29961635,0.689434,0.61175173,-0.29478575,0.68747,0.63895354,-0.30689726,0.700766,0.6570719,-0.31603703,0.708843
0.66680997,-0.34447717,0.655791,0.62948653,-0.33375127,0.661487,0.64176402,-0.35347974,0.650685,0.60172363,-0.35731321,0.645432,0.565526,-0.3559968,0.638,0.54382588,-0.35002359,0.633877,0.57258923,-0.33691563,0.659412,0.54856529,-0.31557947,0.655132,0.53605567,-0.30444238,0.652991,0.54315794,-0.2971997,0.651046,0.59032847,-0.32253524,0.667647,0.56810045,-0.29761054,0.665221,0.60385013,-0.30096488,0.688162,0.63060279,-0.30723514,0.69624,0.60772929,-0.31146108,0.67398,0.59178359,-0.2833866,0.670033,0.62681674,-0.29822074,0.689025,0.64579872,-0.31577086,0.698206,0.63378889,-0.29968307,0.680674,0.63393737,-0.29053886,0.675522,0.6623985,-0.30512792,0.689843,0.6819788,-0.31659073,0.69779
0.65558336,-0.35458461,0.651699,0.62509383,-0.33582329,0.65864,0.63681279,-0.35719784,0.649212,0.5912593,-0.36024878,0.641815,0.55485883,-0.3573485,0.634527,0.53464189,-0.35875353,0.635986,0.57191418,-0.33765872,0.660718,0.54622712,-0.31254322,0.659468,0.53735865,-0.3014354,0.663186,0.54591269,-0.29586483,0.666566,0.58847018,-0.32279449,0.666148,0.57186833,-0.29743136,0.666063,0.6176298,-0.30697652,0.689987,0.64367272,-0.31694037,0.697526,0.60463184,-0.31156802,0.670075,0.60315013,-0.29024439,0.669965,0.62003508,-0.28566494,0.689863,0.64563194,-0.28531788,0.697856,0.63011532,-0.30334034,0.673726,0.6331982,-0.29350098,0.670148,0.66196022,-0.30881584,0.685111,0.68035669,-0.31817895,0.694387
0.65051461,-0.37350843,0.656479,0.61909121,-0.33927589,0.653427,0.63576035,-0.37358645,0.659543,0.59485878,-0.37665412,0.660117,0.56236449,-0.36539097,0.646986,0.53778666,-0.35892133,0.641922,0.57159139,-0.3202552,0.654945,0.54716287,-0.29614864,0.645595,0.53458651,-0.28366054,0.64092,0.52317408,-0.2724529,0.63667,0.58751435,-0.30480027,0.650127,0.58685197,-0.312754,0.640185,0.6251311,-0.34247233,0.663968,0.64339929,-0.35242047,0.680955,0.60292664,-0.29474693,0.646401,0.5806504,-0.26135984,0.635713,0.59796962,-0.26813839,0.654999,0.61733497,-0.28972018,0.668323,0.62564602,-0.2878018,0.642417,0.615351,-0.29941132,0.634349,0.63226475,-0.32186592,0.649275,0.64625679,-0.3369961,0.659351
0.66113575,-0.38313439,0.668173,0.62047136,-0.34083278,0.65474,0.64206092,-0.38081762,0.668776,0.59888761,-0.37923443,0.664684,0.56408809,-0.36759715,0.650317,0.53759744,-0.35815723,0.642474,0.56330572,-0.31566576,0.645531,0.53205531,-0.28803203,0.627839,0.51624457,-0.27399245,0.618993,0.50199263,-0.26149069,0.610951,0.57847,-0.30017506,0.640212,0.56924987,-0.30343743,0.621085,0.60509652,-0.3315568,0.642803,0.62189896,-0.34070383,0.658315,0.59395081,-0.29043626,0.636883,0.56395456,-0.25393594,0.617532,0.58010167,-0.26022367,0.635531,0.60079962,-0.28205349,0.650535,0.61820363,-0.28446561,0.634896,0.60089449,-0.29245704,0.619568,0.61631307,-0.31381951,0.633021,0.63072287,-0.32896572,0.643632
0.66011694,-0.38853838,0.668747,0.62392709,-0.35502481,0.657363,0.6352656,-0.38858618,0.668558,0.60041773,-0.38227046,0.662144,0.5606876,-0.36727588,0.649328,0.53623074,-0.35497237,0.642738,0.57071296,-0.32131033,0.648696,0.54525602,-0.28289876,0.63196,0.53249655,-0.26360598,0.623592,0.52490249,-0.25669283,0.615985,0.58922982,-0.30944136,0.645051,0.5802954,-0.31022081,0.627443,0.61222632,-0.34331746,0.650061,0.62837292,-0.35560597,0.666216,0.60692166,-0.30290161,0.642939,0.57341723,-0.26774654,0.626604,0.56349336,-0.25535008,0.618247,0.58079222,-0.27218985,0.628851,0.63278761,-0.30117511,0.6421,0.61440938,-0.30528989,0.627558,0.62706643,-0.32645322,0.641582,0.63830372,-0.34378269,0.652138
0.65886207,-0.40238424,0.669948,0.62445726,-0.35746193,0.656553,0.63181301,-0.39858718,0.667168,0.59671776,-0.3868249,0.659905,0.55869448,-0.36818858,0.647624,0.53456826,-0.35573379,0.640262,0.56932811,-0.32361771,0.643201,0.54588762,-0.28425812,0.624799,0.5341461,-0.26448562,0.615599,0.53147755,-0.25022858,0.616538,0.59000531,-0.31323898,0.642066,0.58449505,-0.31376699,0.622099,0.61366009,-0.34712662,0.644527,0.62758263,-0.36076414,0.660547,0.60954082,-0.30804499,0.642176,0.57316397,-0.27481553,0.623871,0.56459276,-0.26578457,0.614506,0.58619304,-0.27914237,0.624483,0.63771135,-0.30814006,0.644275,0.62004289,-0.31104165,0.627434,0.6311532,-0.33099217,0.641269,0.63888346,-0.34669263,0.65256
0.66113754,-0.40551326,0.670143,0.62946648,-0.3635559,0.657426,0.63433966,-0.40166866,0.667579,0.600859,-0.39161685,0.659943,0.56168751,-0.3748804,0.647513,0.5361251,-0.35779326,0.641048,0.57676296,-0.32901803,0.644843,0.55260433,-0.28731074,0.626983,0.54513276,-0.27566343,0.618053,0.53835142,-0.26488593,0.609936,0.59759422,-0.319018,0.643673,0.58799709,-0.30893176,0.62434,0.61756371,-0.34627322,0.646939,0.63206206,-0.36097658,0.663081,0.6171864,-0.3141413,0.643701,0.59589745,-0.27853071,0.641353,0.59800981,-0.27501832,0.640152,0.62208749,-0.29518859,0.655683,0.6453035,-0.31462962,0.645603,0.6268882,-0.31624205,0.629247,0.63520647,-0.33332713,0.643201,0.64232623,-0.3519751,0.654367
0.65908059,-0.40466737,0.666327,0.63253414,-0.36483435,0.655495,0.63400875,-0.40152202,0.665331,0.6011556,-0.38999242,0.658828,0.56209018,-0.37333475,0.647044,0.5379567,-0.35739431,0.640805,0.58066927,-0.32863939,0.646242,0.55995254,-0.28388696,0.62981,0.55278804,-0.26922145,0.621594,0.54627801,-0.25564941,0.614125,0.60045961,-0.3183266,0.643781,0.59753663,-0.30938334,0.626157,0.62830871,-0.34513929,0.649061,0.63702907,-0.36185604,0.665422,0.61891441,-0.31317717,0.642599,0.59731485,-0.27833434,0.640991,0.6002974,-0.27516326,0.640168,0.62511993,-0.29509699,0.655747,0.64516796,-0.31326111,0.642785,0.63419464,-0.31245159,0.628204,0.64588997,-0.33006782,0.642409,0.64692582,-0.35106813,0.653049
0.67611935,-0.41690011,0.683172,0.64131825,-0.37069954,0.664111,0.64371045,-0.40827081,0.674501,0.5928855,-0.38800263,0.651747,0.55356234,-0.37114833,0.638829,0.53431152,-0.3580079,0.637578,0.57935507,-0.32326168,0.639297,0.57457576,-0.2901579,0.643654,0.58573521,-0.28466455,0.645833,0.59637431,-0.27932237,0.647813,0.60415476,-0.31858964,0.643496,0.59799585,-0.28265512,0.618749,0.63438256,-0.29661905,0.639176,0.65611836,-0.32163649,0.65454,0.62727866,-0.32118455,0.648436,0.60396393,-0.28490905,0.64342,0.60954019,-0.27390939,0.640854,0.6391989,-0.28786679,0.655711,0.65839303,-0.32989588,0.65711,0.64710957,-0.31639274,0.634811,0.6616711,-0.32814968,0.647177,0.67342291,-0.34398702,0.659821
0.67511929,-0.41790273,0.682007,0.6405116,-0.37130302,0.66313,0.64358482,-0.41016864,0.672328,0.59072356,-0.38736058,0.649172,0.55340046,-0.37158785,0.638439,0.53489747,-0.35926206,0.637233,0.57821481,-0.32296949,0.63721,0.56975917,-0.28423933,0.629249,0.57590735,-0.27684842,0.625268,0.58187182,-0.26991438,0.621649,0.60445863,-0.32053032,0.642715,0.59694968,-0.28310869,0.618427,0.63323337,-0.29649322,0.638642,0.65517253,-0.32120933,0.653773,0.62730052,-0.32224556,0.648715,0.60438755,-0.28541353,0.643399,0.60950485,-0.27399554,0.64068,0.6386767,-0.28766837,0.65533,0.65950912,-0.33127337,0.658624,0.64988701,-0.31638444,0.636126,0.6683091,-0.32546917,0.648327,0.67824624,-0.34258755,0.660976
0.66674054,-0.42433319,0.671522,0.65058601,-0.38787415,0.662265,0.64226162,-0.41817484,0.667547,0.6005096,-0.40070435,0.652344,0.56405493,-0.38238206,0.642254,0.54704246,-0.3691137,0.641765,0.60725961,-0.3403894,0.650505,0.59329116,-0.29951841,0.639094,0.58517541,-0.27989385,0.633388,0.58312871,-0.26787441,0.630765,0.63132956,-0.33784282,0.652254,0.63636218,-0.33318417,0.636165,0.66275785,-0.37130706,0.659531,0.67186082,-0.38749828,0.675732,0.65237108,-0.33931784,0.654414,0.65837579,-0.33381193,0.639849,0.68157359,-0.36523594,0.659322,0.6917928,-0.38266338,0.676678,0.67992856,-0.34775559,0.658342,0.66929877,-0.34722303,0.643522,0.68667037,-0.3586988,0.65795,0.69388399,-0.37530778,0.668759
0.65574578,-0.43068785,0.660115,0.64356171,-0.3870591,0.656604,0.63173418,-0.420024,0.657029,0.58708483,-0.40076069,0.644732,0.55255172,-0.38274077,0.634744,0.53882386,-0.36768499,0.635005,0.60537455,-0.34217869,0.650196,0.59418587,-0.30695806,0.640164,0.58937756,-0.28797915,0.635148,0.58879629,-0.27366517,0.630588,0.63053671,-0.34060103,0.652806,0.62183112,-0.29822157,0.642436,0.65381996,-0.30251689,0.665459,0.6733047,-0.32259543,0.678947,0.65103868,-0.34549541,0.655226,0.65655737,-0.3302623,0.646223,0.6852889,-0.36104874,0.666358,0.69924762,-0.38495585,0.683423,0.67879236,-0.35465904,0.658621,0.67346036,-0.34962106,0.647754,0.69091043,-0.36111482,0.662741,0.69700404,-0.376942,0.672377
