sluyters/QuantumLeap/backend/src/datasets/dynamic/HandGestureDataset_SHREC2017_csv/Gesture6/finger_2/subject_16_essai_1_skeletons_world.csv
Wrist_x,Wrist_y,Wrist_z,Palm_x,Palm_y,Palm_z,thumb_base_x,thumb_base_y,thumb_base_z,thumb_first_joint_x,thumb_first_joint_y,thumb_first_joint_z,thumb_second_joint_x,thumb_second_joint_y,thumb_second_joint_z,thumb_tip_x,thumb_tip_y,thumb_tip_z,index_base_x,index_base_y,index_base_z,index_first_joint_x,index_first_joint_y,index_first_joint_z,index_second_joint_x,index_second_joint_y,index_second_joint_z,index_tip_x,index_tip_y,index_tip_z,middle_base_x,middle_base_y,middle_base_z,middle_first_joint_x,middle_first_joint_y,middle_first_joint_z,middle_second_joint_x,middle_second_joint_y,middle_second_joint_z,middle_tip_x,middle_tip_y,middle_tip_z,ring_base_x,ring_base_y,ring_base_z,ring_first_joint_x,ring_first_joint_y,ring_first_joint_z,ring_second_joint_x,ring_second_joint_y,ring_second_joint_z,ring_tip_x,ring_tip_y,ring_tip_z,pinky_base_x,pinky_base_y,pinky_base_z,pinky_first_joint_x,pinky_first_joint_y,pinky_first_joint_z,pinky_second_joint_x,pinky_second_joint_y,pinky_second_joint_z,pinky_tip_x,pinky_tip_y,pinky_tip_z,
0.58114378,-0.38910135,0.568163,0.5741734,-0.3412201,0.556298,0.55990189,-0.37683554,0.5667,0.55385164,-0.35391755,0.551288,0.5208685,-0.31574234,0.520965,0.51041495,-0.29109832,0.508746,0.54236253,-0.29275009,0.546337,0.53873638,-0.24614982,0.535682,0.53709177,-0.22663397,0.530354,0.53546016,-0.20893854,0.525511,0.56747109,-0.29611882,0.544999,0.56845867,-0.24622733,0.539555,0.57020268,-0.2177574,0.536379,0.57150058,-0.20016609,0.534111,0.58952848,-0.3031247,0.545176,0.58046105,-0.25241491,0.526752,0.57297838,-0.24819385,0.517325,0.56169433,-0.2593771,0.508756,0.61689011,-0.32037576,0.547611,0.58534627,-0.32305618,0.530311,0.5893983,-0.3431577,0.54572,0.6026039,-0.35188961,0.559317
0.58289388,-0.3898996,0.569945,0.57478174,-0.34103305,0.556724,0.5606325,-0.37681622,0.567447,0.55209964,-0.35244023,0.550283,0.51993904,-0.31455413,0.519852,0.50938369,-0.29030933,0.507543,0.54075539,-0.29175732,0.544493,0.53983047,-0.24587041,0.536525,0.53931705,-0.22495718,0.53254,0.53916054,-0.20721181,0.528918,0.56696073,-0.29519719,0.544133,0.56911465,-0.24519056,0.539421,0.5712499,-0.21750532,0.536672,0.57281107,-0.20052924,0.534708,0.58995842,-0.30281804,0.545261,0.57924909,-0.25187324,0.525391,0.57022001,-0.25244295,0.515224,0.55699492,-0.26597885,0.505982,0.61874645,-0.32097924,0.549056,0.58570169,-0.32272841,0.530381,0.58945643,-0.34284122,0.545543,0.60231551,-0.3516212,0.558921
0.58295438,-0.38962903,0.570146,0.57487899,-0.3406193,0.556741,0.56057395,-0.37633049,0.567477,0.55027331,-0.35031418,0.550037,0.51907352,-0.31446391,0.519572,0.50893991,-0.29012079,0.507225,0.54056377,-0.29157226,0.544162,0.53998304,-0.24587478,0.536582,0.53964225,-0.22500183,0.532792,0.53959175,-0.20657174,0.529347,0.5670829,-0.29468506,0.543974,0.56824981,-0.24473894,0.538352,0.56964508,-0.2174341,0.535073,0.57024544,-0.20177801,0.532731,0.59021088,-0.30249219,0.545263,0.57907213,-0.2518522,0.525192,0.56987315,-0.25232686,0.514924,0.55666181,-0.26568958,0.505588,0.61916396,-0.32090014,0.549279,0.58582838,-0.32245211,0.530407,0.58952213,-0.34269559,0.545531,0.60228166,-0.35162126,0.558876
0.58356896,-0.38993705,0.570708,0.57817849,-0.3423906,0.559842,0.56296222,-0.37776934,0.569843,0.55542965,-0.35345854,0.555513,0.52796875,-0.3198961,0.528657,0.52408761,-0.2987968,0.522201,0.54785019,-0.29522109,0.551336,0.54553788,-0.24808396,0.541874,0.54429729,-0.2266117,0.537143,0.54318212,-0.20771943,0.532842,0.57298392,-0.29752363,0.549492,0.57525312,-0.24769118,0.544785,0.57731652,-0.22039809,0.542039,0.5789362,-0.20453732,0.540077,0.59455119,-0.3045348,0.549145,0.58658883,-0.25512614,0.531886,0.57886213,-0.2563342,0.523056,0.56891264,-0.2714416,0.516648,0.62098671,-0.32172379,0.550785,0.59035479,-0.32470157,0.534437,0.59447037,-0.34541364,0.550006,0.60762699,-0.35473789,0.563744
0.57947813,-0.3872184,0.56684,0.57362146,-0.33940397,0.555327,0.55783312,-0.37418001,0.564741,0.54371339,-0.34363912,0.54857,0.51457856,-0.30615407,0.519045,0.50709441,-0.28206156,0.50924,0.54169051,-0.29128487,0.544777,0.54021587,-0.24508251,0.536017,0.54062718,-0.22406236,0.531637,0.53934924,-0.20693533,0.527656,0.56795765,-0.29445343,0.544363,0.5673035,-0.24377095,0.536714,0.57026428,-0.21789135,0.532252,0.5691944,-0.20110833,0.529065,0.59060708,-0.30220048,0.545263,0.58250029,-0.25326198,0.526936,0.57943024,-0.25810767,0.51756,0.56106228,-0.26861239,0.509036,0.61852273,-0.32032952,0.548472,0.58793844,-0.32136158,0.531141,0.59129817,-0.34293804,0.546617,0.60420215,-0.35249849,0.560272
0.58077295,-0.38809852,0.56824,0.57378942,-0.33921498,0.555387,0.55831786,-0.37435713,0.565322,0.54285109,-0.34309413,0.5477,0.51375471,-0.30566392,0.518214,0.50631072,-0.28162565,0.508453,0.54014195,-0.28983783,0.542861,0.53954535,-0.24419807,0.534782,0.54047664,-0.22355033,0.530743,0.5398033,-0.20666986,0.527071,0.56701007,-0.29350346,0.543147,0.56653397,-0.24294433,0.535445,0.56937829,-0.21776981,0.530952,0.56941115,-0.20102765,0.527743,0.59032832,-0.3017444,0.544767,0.5822205,-0.25270555,0.52494,0.57633471,-0.25672876,0.514795,0.55763241,-0.2672875,0.505573,0.61933418,-0.32063203,0.549064,0.58759782,-0.32059026,0.530468,0.59078384,-0.34200805,0.545688,0.60327488,-0.35171789,0.559118
0.58170911,-0.38891369,0.569123,0.57430984,-0.33949555,0.555747,0.55912036,-0.37499444,0.566085,0.54560608,-0.3455817,0.548164,0.51659097,-0.30933598,0.517765,0.50709174,-0.28681234,0.505991,0.54026187,-0.28968156,0.542707,0.5398759,-0.2441282,0.534507,0.54068285,-0.22330981,0.530407,0.53999009,-0.20658304,0.526679,0.56710937,-0.29341709,0.543008,0.5693582,-0.24314816,0.535764,0.57766375,-0.21703226,0.531539,0.57549606,-0.19917821,0.528521,0.59045423,-0.30174967,0.544697,0.58559884,-0.25416251,0.5244,0.57547142,-0.25731399,0.514016,0.55814909,-0.27035381,0.504576,0.6195912,-0.32081255,0.549172,0.58793061,-0.31999669,0.530166,0.59081222,-0.34161478,0.545286,0.60303851,-0.35153352,0.558627
0.58056677,-0.38845994,0.567936,0.57381582,-0.33924962,0.555011,0.55864818,-0.37483273,0.565498,0.54610605,-0.34556664,0.548492,0.51895095,-0.31018642,0.518102,0.50862654,-0.28430032,0.506033,0.54181902,-0.28937251,0.54306,0.53945695,-0.24393829,0.533321,0.53865698,-0.22313596,0.528452,0.5390817,-0.20750307,0.524025,0.56722512,-0.29339439,0.542702,0.57164323,-0.24165736,0.53259,0.57394665,-0.21634032,0.526692,0.57646132,-0.2055017,0.522478,0.58986093,-0.30149486,0.5438,0.58569753,-0.25409824,0.523918,0.58172109,-0.24593051,0.513746,0.57412827,-0.24421706,0.504498,0.61799922,-0.32020741,0.547505,0.59468167,-0.31392669,0.529058,0.59379389,-0.33830612,0.544276,0.60275345,-0.35105836,0.557704
0.58049769,-0.38838094,0.567799,0.57396795,-0.33906162,0.554898,0.55821267,-0.37435867,0.564948,0.5436358,-0.34306037,0.547399,0.51417351,-0.30589612,0.517517,0.50697973,-0.28176001,0.506956,0.54147507,-0.28889792,0.542424,0.53888766,-0.24332959,0.532148,0.53875227,-0.22280476,0.527009,0.53842178,-0.20743963,0.522338,0.56757008,-0.29317741,0.542611,0.57328907,-0.24238194,0.533667,0.57641403,-0.21681468,0.52845,0.57847054,-0.20139222,0.524723,0.59063479,-0.30162159,0.544156,0.58959789,-0.25690159,0.524318,0.57735819,-0.26119555,0.514168,0.55983706,-0.27264162,0.504941,0.61928046,-0.32076675,0.548374,0.59548664,-0.31446798,0.529771,0.59545802,-0.33829938,0.544985,0.60423103,-0.35128183,0.558408
0.58141041,-0.3889587,0.568622,0.57446272,-0.33907574,0.555116,0.55883271,-0.37459211,0.565466,0.5433614,-0.34289138,0.547355,0.51402098,-0.30582773,0.517703,0.50688735,-0.28180075,0.507517,0.54111262,-0.28847891,0.541835,0.53882437,-0.24295011,0.531476,0.53890205,-0.22255057,0.526297,0.53876733,-0.20738506,0.521588,0.56763587,-0.29281704,0.542254,0.57372416,-0.24258027,0.533844,0.57722271,-0.21689165,0.528939,0.57958528,-0.20130882,0.525435,0.59091017,-0.30149396,0.544053,0.58932655,-0.2572621,0.523616,0.57679165,-0.2612965,0.51316,0.55847666,-0.27269956,0.503654,0.61992742,-0.32099746,0.548681,0.59522702,-0.31436963,0.529539,0.5956645,-0.33778037,0.54463,0.60444837,-0.35077042,0.557945
0.58135307,-0.38888731,0.568496,0.57465549,-0.33891135,0.555042,0.55885414,-0.37442367,0.565378,0.54317096,-0.34277423,0.547329,0.51384304,-0.30573678,0.51775,0.50659906,-0.28170623,0.507695,0.54130186,-0.28839954,0.541844,0.53898664,-0.24267265,0.531027,0.53908539,-0.22231029,0.525618,0.53897279,-0.20727651,0.520702,0.5680474,-0.29263571,0.542228,0.57403017,-0.24271829,0.533992,0.57765944,-0.21691964,0.529188,0.58013696,-0.20121807,0.525756,0.59123165,-0.30139025,0.543993,0.589602,-0.2576221,0.52363,0.57713174,-0.26162906,0.513211,0.55861638,-0.27324836,0.50374,0.62010423,-0.32098475,0.548572,0.59516133,-0.31435426,0.52948,0.59603703,-0.33753705,0.544582,0.60512771,-0.35052572,0.557907
0.58060899,-0.38844697,0.567889,0.57475324,-0.33879309,0.555018,0.55859624,-0.37413141,0.56518,0.54422929,-0.3440517,0.547829,0.51543566,-0.30740312,0.517921,0.50708166,-0.28308995,0.507211,0.54258958,-0.28862207,0.542751,0.53785896,-0.24205816,0.529356,0.53738189,-0.22293776,0.522659,0.5349984,-0.20822553,0.51657,0.56894372,-0.29280566,0.54276,0.57105134,-0.24141946,0.530915,0.57324052,-0.21795241,0.524005,0.5729292,-0.20770701,0.519069,0.59168662,-0.3014813,0.544156,0.59078724,-0.2579705,0.524466,0.5780729,-0.26028444,0.514393,0.56064311,-0.27397286,0.505235,0.61984863,-0.32090626,0.548195,0.59552572,-0.31464191,0.529671,0.59674053,-0.33763453,0.544895,0.60611442,-0.35055652,0.558327
0.57874977,-0.38726039,0.566191,0.57804334,-0.34054607,0.558056,0.55878213,-0.37413868,0.565425,0.54808503,-0.34638886,0.551999,0.52431613,-0.31261204,0.527181,0.52091487,-0.29068465,0.521621,0.55180196,-0.29303321,0.551536,0.54561398,-0.24540726,0.536345,0.54367275,-0.22584722,0.52875,0.54045668,-0.21082186,0.521846,0.57724034,-0.29676424,0.550309,0.5807372,-0.24548578,0.539698,0.58386674,-0.22239259,0.533509,0.58406603,-0.21292783,0.529088,0.59854318,-0.30482088,0.550175,0.603031,-0.26320158,0.535188,0.59319092,-0.26689949,0.52752,0.58116924,-0.28379605,0.523474,0.62382408,-0.32301177,0.551549,0.60403816,-0.31920377,0.537152,0.60607071,-0.3426758,0.553154,0.616427,-0.35594058,0.567274
0.57535803,-0.38500067,0.563053,0.57317906,-0.33744436,0.553254,0.55558785,-0.37181525,0.562301,0.54763032,-0.34591564,0.54842,0.51751952,-0.30905354,0.517973,0.50519774,-0.28182514,0.506059,0.54630541,-0.28955849,0.545621,0.53900864,-0.24227961,0.529284,0.53531365,-0.22143943,0.521116,0.53167329,-0.2057006,0.51369,0.5709133,-0.29314888,0.543922,0.57428549,-0.24266977,0.533522,0.5764716,-0.21778066,0.527455,0.57801075,-0.20166573,0.523122,0.59166673,-0.30112526,0.543578,0.59385869,-0.25875865,0.527027,0.58783697,-0.24976817,0.518558,0.5758908,-0.26096986,0.51086,0.61661096,-0.31929981,0.545021,0.59455522,-0.31500536,0.529463,0.59748692,-0.33760697,0.54521,0.60806184,-0.35047943,0.559104
0.57612378,-0.38543978,0.563783,0.57374585,-0.33766136,0.553651,0.55635624,-0.37216064,0.563017,0.54883694,-0.34711691,0.549024,0.51860652,-0.3099605,0.51868,0.50639967,-0.28281122,0.506827,0.54675277,-0.28956615,0.545774,0.53905644,-0.24250804,0.529179,0.53512609,-0.22170905,0.520881,0.5312555,-0.20596827,0.513338,0.5712785,-0.29319926,0.544002,0.57433619,-0.24262219,0.533429,0.57638211,-0.21790326,0.527261,0.57785386,-0.20204571,0.522856,0.59199253,-0.30122947,0.543634,0.59355831,-0.25829908,0.526745,0.58754417,-0.25005964,0.518104,0.57520202,-0.26065773,0.510249,0.6169437,-0.31950449,0.545112,0.5944504,-0.31487793,0.529316,0.5977962,-0.33713137,0.545008,0.60815448,-0.35010494,0.558854
0.57657484,-0.38566819,0.564205,0.57382973,-0.33759418,0.553582,0.55662565,-0.37217209,0.563228,0.5489884,-0.34747608,0.548813,0.51857639,-0.31012659,0.518378,0.50619809,-0.28301366,0.50619,0.5463681,-0.28913359,0.545097,0.53799286,-0.24223644,0.527983,0.53368414,-0.22145886,0.519425,0.52945099,-0.20569799,0.511646,0.57099537,-0.29291712,0.543465,0.57366745,-0.24228457,0.532696,0.57555417,-0.21771532,0.526414,0.57692507,-0.20203169,0.521927,0.59185642,-0.30109866,0.543266,0.59258806,-0.2576221,0.525872,0.5863722,-0.24976813,0.516973,0.57366213,-0.25995992,0.508883,0.61708289,-0.31960897,0.545032,0.5939213,-0.31454017,0.528802,0.59767984,-0.33641574,0.544418,0.60780432,-0.3494755,0.558197
0.57742929,-0.38634193,0.565093,0.57445919,-0.33798534,0.554078,0.55784822,-0.37297599,0.564471,0.54799967,-0.34698343,0.550435,0.51568321,-0.30845561,0.520981,0.50422176,-0.2821959,0.510396,0.54734737,-0.28951569,0.54579,0.53877088,-0.24287249,0.528578,0.5343505,-0.22197145,0.519972,0.52993671,-0.20506744,0.512149,0.5713944,-0.29309753,0.543588,0.57184147,-0.24150222,0.530552,0.57255387,-0.21814063,0.522948,0.57211345,-0.20532769,0.517516,0.59177216,-0.30112587,0.542962,0.59197446,-0.25722766,0.525305,0.58570878,-0.24975474,0.516271,0.57284516,-0.25976038,0.508058,0.61645864,-0.31947573,0.544306,0.59412481,-0.31354787,0.527965,0.59772387,-0.33532629,0.543497,0.60742865,-0.34856371,0.557201
0.5775629,-0.38654202,0.565312,0.5745479,-0.3381118,0.554166,0.55815214,-0.37323797,0.564844,0.54829309,-0.34763767,0.550986,0.51574934,-0.30896017,0.521718,0.50373484,-0.28277625,0.511282,0.54763101,-0.2896603,0.54599,0.53896412,-0.24315253,0.52877,0.53451391,-0.22204787,0.520159,0.53009944,-0.20460546,0.512332,0.57143666,-0.29316379,0.543552,0.57145319,-0.24138172,0.530022,0.57188811,-0.21833159,0.52213,0.57127089,-0.20517929,0.516493,0.59160651,-0.30113012,0.542745,0.59189746,-0.2571522,0.524966,0.58558495,-0.25034236,0.51587,0.57239768,-0.25965975,0.507601,0.61604711,-0.31940921,0.543903,0.59418068,-0.3131444,0.527543,0.59768952,-0.33484423,0.543042,0.60718369,-0.34812699,0.556717
0.57753174,-0.38659481,0.565366,0.57454471,-0.33814966,0.554163,0.55825958,-0.37333368,0.565015,0.54873544,-0.34827904,0.551301,0.51549935,-0.30949821,0.522171,0.50249241,-0.28321631,0.51186,0.54782339,-0.28972473,0.546099,0.53908483,-0.24336726,0.528889,0.53461601,-0.22206875,0.520284,0.53020955,-0.2040905,0.512461,0.57145714,-0.29318487,0.543494,0.57139994,-0.2413667,0.529799,0.57156786,-0.21833951,0.521811,0.57091676,-0.2049954,0.516105,0.59147388,-0.3011154,0.542556,0.59161861,-0.25670297,0.524725,0.58531502,-0.2502993,0.515603,0.57211467,-0.2595995,0.50731,0.61572211,-0.31934966,0.543573,0.59435402,-0.31277971,0.527226,0.59778652,-0.33441206,0.542706,0.60708365,-0.34774635,0.556365
0.57797809,-0.38717143,0.56589,0.57450105,-0.33836499,0.554125,0.55816685,-0.37349668,0.564987,0.55178787,-0.35105524,0.550364,0.51969035,-0.31222341,0.520568,0.50447814,-0.28455403,0.509099,0.54675606,-0.28932104,0.544959,0.53717401,-0.24317927,0.527058,0.53229546,-0.22150356,0.518107,0.52763518,-0.20415218,0.50997,0.57092832,-0.29312256,0.542919,0.57128472,-0.24152441,0.529532,0.57145482,-0.21862622,0.521722,0.57096126,-0.20520353,0.516144,0.59149072,-0.30137554,0.542507,0.59156824,-0.25893886,0.524232,0.58170073,-0.2609472,0.514882,0.56582243,-0.27258408,0.506382,0.61652938,-0.32007757,0.544241,0.5947612,-0.31289244,0.527257,0.59804355,-0.33443558,0.542665,0.60714506,-0.34776868,0.55626
0.57597515,-0.38626322,0.564087,0.573982,-0.33839722,0.553608,0.55737003,-0.37326686,0.564289,0.55056196,-0.3512024,0.551536,0.51721134,-0.31241703,0.521463,0.5077211,-0.28678773,0.509004,0.54876411,-0.29055486,0.546757,0.54527373,-0.24643565,0.529731,0.54214228,-0.2257857,0.521218,0.53864272,-0.20905914,0.513479,0.57185455,-0.29388683,0.543629,0.5724624,-0.24231211,0.530318,0.57247287,-0.21929364,0.522554,0.57234698,-0.20423489,0.517008,0.59128939,-0.30165936,0.542182,0.59351805,-0.26321211,0.52521,0.58498532,-0.26023886,0.516526,0.57345845,-0.26212979,0.508632,0.61462979,-0.31960292,0.542472,0.59473203,-0.31273509,0.52688,0.5980622,-0.33424895,0.542451,0.60721734,-0.34773154,0.55619
0.57748603,-0.3876622,0.565643,0.57447926,-0.3389964,0.554043,0.55881575,-0.37451794,0.565797,0.55163658,-0.35234525,0.55268,0.51786472,-0.314436,0.522879,0.50840336,-0.28811709,0.510314,0.54854506,-0.29062381,0.546366,0.54401375,-0.245726,0.528337,0.54027749,-0.2248607,0.519322,0.53620563,-0.2079588,0.511127,0.57134474,-0.2938942,0.542995,0.57140117,-0.24213976,0.529105,0.57102142,-0.22064035,0.521003,0.56994413,-0.20673805,0.515216,0.59065576,-0.30167425,0.541468,0.5913482,-0.26501635,0.523469,0.58312246,-0.25920258,0.51426,0.57002442,-0.26624558,0.505888,0.61408202,-0.31974557,0.541877,0.59353329,-0.31190521,0.525495,0.59656454,-0.33317407,0.540858,0.60545426,-0.34662089,0.554413
0.57906059,-0.389081,0.567567,0.57515604,-0.33961544,0.55465,0.56054847,-0.37577991,0.567793,0.55073361,-0.35332719,0.554446,0.51475551,-0.31246313,0.525575,0.50390731,-0.28797985,0.514142,0.54886084,-0.29063698,0.546176,0.54437985,-0.24451972,0.527647,0.54029488,-0.22384459,0.518382,0.5359913,-0.20699666,0.50996,0.57143823,-0.29463365,0.542349,0.57553339,-0.24538011,0.529452,0.58094951,-0.22600109,0.521928,0.58196242,-0.21115267,0.516554,0.5909871,-0.30413794,0.54059,0.5895406,-0.26494277,0.521884,0.58210636,-0.25812961,0.512314,0.56876681,-0.26441092,0.503614,0.61386547,-0.32285122,0.540976,0.59809842,-0.31607729,0.52374,0.5949129,-0.33202249,0.538823,0.60310938,-0.34527966,0.552131
0.57921071,-0.38975589,0.567997,0.57504111,-0.33997415,0.554428,0.56091187,-0.37636005,0.568318,0.55091433,-0.35369343,0.554944,0.5174392,-0.31493225,0.526219,0.50413932,-0.28827421,0.514505,0.54918929,-0.29113574,0.545633,0.54436916,-0.24411644,0.526268,0.54311195,-0.22266209,0.516586,0.53923178,-0.2054043,0.507783,0.57192866,-0.29584049,0.541505,0.57848771,-0.24592693,0.527936,0.57895081,-0.22589785,0.520022,0.57962336,-0.21098138,0.514368,0.59040112,-0.30417552,0.539568,0.5928204,-0.26857873,0.519791,0.58597442,-0.26220811,0.509673,0.56679343,-0.26341708,0.500474,0.61325157,-0.32385136,0.53987,0.59657899,-0.3160912,0.522244,0.59381914,-0.33137521,0.537171,0.60139902,-0.34453465,0.550342
0.57969415,-0.39065081,0.569311,0.57437917,-0.33979091,0.553635,0.56168777,-0.37687176,0.569607,0.53910516,-0.34161874,0.555706,0.50934643,-0.30585484,0.530097,0.49560257,-0.2780955,0.516033,0.55408752,-0.28877105,0.543377,0.55074534,-0.23784089,0.522175,0.54318032,-0.22099105,0.511575,0.53904025,-0.2039967,0.501937,0.57340463,-0.29528602,0.538705,0.57625752,-0.24425153,0.524188,0.57641495,-0.22394102,0.51572,0.57663423,-0.20974502,0.509671,0.5905641,-0.30509521,0.536548,0.58717373,-0.26769043,0.51475,0.57924409,-0.26165504,0.503597,0.56630349,-0.26599556,0.493459,0.61146152,-0.32692004,0.53699,0.59110981,-0.32018552,0.517964,0.59118751,-0.33451916,0.532386,0.59517661,-0.34307863,0.54511
0.57976485,-0.39176875,0.570786,0.57294733,-0.33954656,0.552342,0.56222539,-0.37752336,0.571106,0.53830023,-0.3419818,0.556655,0.50957028,-0.30627768,0.531589,0.4962129,-0.27828279,0.517227,0.55527422,-0.28714749,0.540235,0.54778834,-0.23698798,0.51748,0.54225266,-0.21969896,0.506103,0.54043202,-0.2048145,0.500933,0.57153011,-0.29479267,0.534776,0.57403465,-0.24325757,0.516956,0.57536119,-0.22466221,0.506561,0.57178947,-0.20933653,0.499136,0.58872817,-0.30709704,0.532268,0.58059755,-0.27161242,0.508033,0.56928262,-0.26828776,0.495634,0.55245761,-0.27548816,0.484362,0.60530429,-0.33292964,0.532824,0.58116256,-0.32246108,0.512039,0.57904943,-0.33759035,0.525682,0.58340792,-0.34636975,0.537719
0.58295715,-0.39481021,0.575278,0.57470911,-0.34111558,0.554131,0.56411566,-0.37897128,0.573927,0.53750948,-0.34090644,0.556557,0.50967057,-0.30552021,0.531836,0.49710761,-0.27782654,0.518004,0.54974256,-0.28696221,0.538012,0.55800291,-0.24183969,0.521005,0.55689398,-0.22951687,0.512501,0.55591552,-0.21857856,0.50477,0.57113587,-0.2949913,0.53399,0.57803999,-0.24717541,0.513187,0.57405949,-0.23636569,0.501052,0.5715936,-0.22845088,0.492384,0.58925166,-0.30821577,0.532958,0.58370786,-0.27315767,0.505398,0.57607124,-0.26327088,0.491298,0.55509007,-0.26947896,0.478479,0.60838294,-0.33420273,0.535734,0.58116959,-0.32365835,0.512417,0.58258735,-0.33589887,0.525487,0.58184771,-0.34960351,0.53702
0.58254369,-0.39573692,0.576458,0.57493697,-0.34205059,0.554523,0.56361638,-0.37903768,0.574493,0.53648643,-0.34032965,0.55611,0.50914549,-0.3050122,0.53147,0.49716206,-0.27751408,0.517909,0.5522169,-0.28681719,0.537069,0.55724248,-0.24234079,0.520359,0.55629849,-0.22957609,0.512003,0.55527828,-0.21865971,0.504408,0.57247546,-0.29757306,0.533632,0.58062822,-0.24960498,0.515029,0.57664834,-0.2442437,0.504176,0.57376922,-0.23925835,0.496425,0.58918318,-0.31102501,0.533166,0.58325201,-0.27412145,0.504995,0.57226998,-0.26902901,0.490581,0.55335261,-0.27127691,0.477478,0.60915829,-0.33598974,0.536748,0.5790319,-0.32665534,0.512645,0.58202415,-0.33876201,0.525534,0.58188966,-0.35123689,0.539015
0.57832075,-0.39587313,0.577783,0.57511437,-0.34300748,0.555172,0.56011964,-0.37692155,0.57575,0.53393251,-0.33340595,0.557152,0.5121938,-0.2948277,0.535943,0.50435538,-0.26737911,0.524227,0.5524661,-0.28695147,0.537172,0.55532215,-0.24120441,0.517021,0.55439439,-0.23429024,0.506946,0.550808,-0.22711706,0.497786,0.57227314,-0.2978998,0.533638,0.5812964,-0.25140333,0.514006,0.57723663,-0.24367562,0.502554,0.57469809,-0.23806865,0.494373,0.58860886,-0.31164084,0.533165,0.58167923,-0.2747282,0.504623,0.56660965,-0.27291439,0.490019,0.54926152,-0.27610775,0.476744,0.60662725,-0.33897585,0.536867,0.57759943,-0.32678156,0.512318,0.5792676,-0.33924636,0.524986,0.57971892,-0.35238257,0.538538
0.57365192,-0.39534741,0.578392,0.57195174,-0.34425098,0.554639,0.55729971,-0.37552238,0.57564,0.53207647,-0.33071895,0.555839,0.51077274,-0.28838534,0.535194,0.50343827,-0.26378626,0.522879,0.55059109,-0.28575642,0.534927,0.5680363,-0.24564643,0.520387,0.57011521,-0.23610556,0.513116,0.57249294,-0.22713562,0.506507,0.57058498,-0.29744039,0.532017,0.58106635,-0.25259516,0.510755,0.57839241,-0.24721391,0.498353,0.57110121,-0.23775086,0.489493,0.58640098,-0.31360395,0.532181,0.57432489,-0.27955962,0.502848,0.56115621,-0.27627943,0.48784,0.54238331,-0.28033111,0.474196,0.60357523,-0.34128567,0.536836,0.57459187,-0.32749768,0.511251,0.57956044,-0.33801367,0.523597,0.57875071,-0.35172233,0.537389
0.57535498,-0.39678012,0.581648,0.57327049,-0.34548975,0.556722,0.55952658,-0.37693165,0.579112,0.53817714,-0.33468561,0.561912,0.51721844,-0.29453844,0.541002,0.50958334,-0.26675633,0.528132,0.55233571,-0.28685995,0.536495,0.56538502,-0.24633414,0.516778,0.55936275,-0.24622811,0.506919,0.55285028,-0.24403473,0.497957,0.57140058,-0.29905832,0.532982,0.57660092,-0.25296691,0.505303,0.56397123,-0.24828291,0.489156,0.54457097,-0.25344687,0.477623,0.58597971,-0.31535373,0.532777,0.5753943,-0.28003595,0.50222,0.56100155,-0.27628248,0.486586,0.54070586,-0.27962436,0.472374,0.60332834,-0.34235094,0.537223,0.56513815,-0.33520066,0.511045,0.57336011,-0.34711991,0.522928,0.57408708,-0.35567641,0.536749
0.5704093,-0.39469491,0.58013,0.5705525,-0.34464811,0.555428,0.5549394,-0.37417772,0.57795,0.53774001,-0.32976233,0.561588,0.5243934,-0.2885225,0.542485,0.52200054,-0.26223078,0.532036,0.55224867,-0.2865781,0.535817,0.56754212,-0.2479341,0.515187,0.5660731,-0.24161836,0.504871,0.56118754,-0.23711714,0.495494,0.57059838,-0.29970254,0.531903,0.58272487,-0.25783412,0.505922,0.57266866,-0.25186213,0.490766,0.56571915,-0.24765187,0.479941,0.58414778,-0.31663137,0.531342,0.57491517,-0.28051137,0.501287,0.56073681,-0.2766806,0.48591,0.54048646,-0.27992227,0.47193,0.59857611,-0.3446662,0.535334,0.56364,-0.33494258,0.509463,0.57176338,-0.34661379,0.521384,0.57101831,-0.35932381,0.535111
0.56735863,-0.39369682,0.580212,0.56783444,-0.34448146,0.555365,0.55288457,-0.37241112,0.578194,0.53880068,-0.32655962,0.562896,0.52501134,-0.28805968,0.543138,0.52265598,-0.26271098,0.531104,0.55312698,-0.28717766,0.535865,0.56803955,-0.24820737,0.514777,0.56591634,-0.24127783,0.504233,0.56193461,-0.23532666,0.494647,0.57073827,-0.3008052,0.531701,0.58564698,-0.2603822,0.508822,0.57778988,-0.25489142,0.495476,0.57244818,-0.25101796,0.485944,0.58321032,-0.31856547,0.530949,0.57532577,-0.2820913,0.50088,0.56044875,-0.27685703,0.485495,0.5401176,-0.27989687,0.471509,0.59563067,-0.3476553,0.534748,0.56311488,-0.33537748,0.508874,0.57040667,-0.34677178,0.520712,0.56908398,-0.3591581,0.534408
0.56673289,-0.39353019,0.580984,0.56791579,-0.34480205,0.555995,0.55104498,-0.37099029,0.5789,0.5390267,-0.32621976,0.563634,0.52526479,-0.28826235,0.543415,0.5204201,-0.26495179,0.530285,0.55361201,-0.28715116,0.536313,0.56833779,-0.24829047,0.514743,0.56495584,-0.24151461,0.503958,0.55720904,-0.23745897,0.494153,0.57110964,-0.30098935,0.532195,0.58592576,-0.26083005,0.509029,0.57687361,-0.25589982,0.495515,0.57063572,-0.25244825,0.485863,0.58351385,-0.31933242,0.531498,0.57484771,-0.28184305,0.501276,0.56074374,-0.27720504,0.485813,0.54030288,-0.28013467,0.471756,0.59579697,-0.34828924,0.535386,0.56354718,-0.33596813,0.509396,0.57037731,-0.34723274,0.521188,0.56878784,-0.35947607,0.534908
0.56989916,-0.39466774,0.583224,0.5717957,-0.34566299,0.557534,0.55496148,-0.37304822,0.579352,0.54246508,-0.32911548,0.564194,0.52792195,-0.29364507,0.542736,0.52292462,-0.267917,0.5281,0.55306244,-0.28680623,0.535048,0.568327,-0.24803898,0.514339,0.56476409,-0.24133102,0.503985,0.56015306,-0.23561096,0.494572,0.57235374,-0.30166859,0.533068,0.58698175,-0.26073605,0.5097,0.57836192,-0.25428956,0.496068,0.57220319,-0.24756642,0.486332,0.58706556,-0.32022583,0.534206,0.577308,-0.28289376,0.503031,0.5621794,-0.27794252,0.487081,0.54089038,-0.28051336,0.472581,0.6034412,-0.34937408,0.540356,0.55873705,-0.33804766,0.513093,0.55439462,-0.3468202,0.524813,0.55507676,-0.35436569,0.538952
0.56516655,-0.3913933,0.583711,0.56872913,-0.3442036,0.557187,0.55051638,-0.36751909,0.579157,0.53853224,-0.32144113,0.561915,0.5226578,-0.28553638,0.539436,0.52052692,-0.26359345,0.525013,0.55669291,-0.2834124,0.533246,0.57169791,-0.24055057,0.514312,0.5633712,-0.23382882,0.504845,0.56178677,-0.23525868,0.496239,0.57141432,-0.30029376,0.531926,0.58258734,-0.25309416,0.507762,0.57334712,-0.2497477,0.493666,0.56761438,-0.24711704,0.483598,0.58680124,-0.31895309,0.533697,0.57604994,-0.28090071,0.501975,0.55875706,-0.27588532,0.485745,0.5383246,-0.28000598,0.470991,0.60304839,-0.35015779,0.540739,0.5587957,-0.33695912,0.512679,0.55443454,-0.34587939,0.524109,0.55496056,-0.35395879,0.538417
0.56434854,-0.38979907,0.583374,0.5676204,-0.33662167,0.556677,0.54860596,-0.36329521,0.578431,0.53911203,-0.31774064,0.56088,0.5219704,-0.28411626,0.538244,0.51951565,-0.26049432,0.523452,0.55605466,-0.27877201,0.532113,0.56520712,-0.23548626,0.511149,0.5517738,-0.23187711,0.500668,0.54566792,-0.22682105,0.491139,0.57116878,-0.29757566,0.531252,0.58024618,-0.25052415,0.508686,0.57380564,-0.2450257,0.495522,0.56758351,-0.24200247,0.486119,0.58727139,-0.31540874,0.53342,0.57403056,-0.27651404,0.501511,0.55631397,-0.27232793,0.485185,0.53698546,-0.27733351,0.470344,0.60351776,-0.34645875,0.540955,0.55990981,-0.33396626,0.512622,0.55515114,-0.34440102,0.523995,0.55556749,-0.3528685,0.538376
0.56127486,-0.3864899,0.581972,0.56624244,-0.33490129,0.556089,0.54686167,-0.36099201,0.57703,0.53705105,-0.31415635,0.55984,0.52324778,-0.27801223,0.537325,0.51966576,-0.25786947,0.522127,0.55415077,-0.27554247,0.532077,0.55899516,-0.23061761,0.511352,0.55248593,-0.22380051,0.50099,0.54479302,-0.22163986,0.49157,0.57184777,-0.29323724,0.531438,0.58128497,-0.24825618,0.509634,0.57380501,-0.24206519,0.496916,0.5698783,-0.23849312,0.487831,0.58641862,-0.31287519,0.533701,0.57407091,-0.27217626,0.502786,0.55811619,-0.26524028,0.48697,0.53785368,-0.27134077,0.472591,0.6012409,-0.34292939,0.541193,0.56224973,-0.32983351,0.51334,0.55903284,-0.34008253,0.525025,0.55733169,-0.35241734,0.539359
0.55656239,-0.38226334,0.578391,0.56474554,-0.33260812,0.556291,0.54364058,-0.35801543,0.574966,0.53655607,-0.3137553,0.560514,0.52276604,-0.27740552,0.537912,0.51987857,-0.2579836,0.523821,0.55613838,-0.275381,0.536823,0.55410743,-0.22811314,0.512079,0.54850528,-0.22183924,0.499707,0.53995731,-0.21622172,0.488459,0.57311967,-0.29230491,0.535242,0.57980195,-0.24330428,0.512712,0.57412495,-0.23943761,0.49957,0.5683392,-0.2352505,0.490182,0.58613175,-0.31064699,0.536323,0.57824979,-0.26605301,0.509214,0.56763934,-0.25994051,0.495345,0.55238174,-0.26255514,0.482736,0.59960292,-0.33984557,0.541731,0.56516363,-0.32792793,0.516845,0.56325723,-0.33959652,0.529797,0.56147043,-0.35403734,0.543578
0.55674151,-0.38168875,0.579148,0.5650933,-0.33279976,0.557871,0.5445372,-0.35855393,0.575829,0.53548623,-0.31353431,0.561754,0.52003701,-0.27681431,0.539197,0.52046327,-0.25812515,0.525013,0.55304443,-0.27472776,0.539102,0.55655737,-0.22953456,0.521471,0.55423392,-0.21924684,0.512655,0.55243281,-0.20961381,0.504641,0.57111883,-0.29064922,0.537608,0.57688319,-0.2423845,0.514702,0.57289465,-0.23020143,0.50134,0.57043578,-0.22128934,0.491795,0.58516731,-0.3083156,0.53867,0.57941723,-0.26522801,0.512024,0.56874783,-0.25946745,0.498391,0.55298187,-0.26290911,0.485998,0.6000877,-0.33700765,0.543903,0.56644088,-0.32517647,0.519579,0.56547706,-0.33971728,0.532784,0.56546617,-0.35235104,0.546464
0.55539983,-0.37984333,0.578952,0.56407816,-0.33136593,0.558625,0.54322008,-0.35711236,0.575677,0.53318758,-0.31334304,0.561618,0.51834755,-0.27581759,0.538898,0.51691342,-0.25539389,0.525258,0.55348332,-0.27450863,0.540557,0.55603939,-0.22843518,0.521821,0.55285234,-0.21766962,0.512454,0.54979867,-0.20838625,0.503938,0.57026485,-0.2890599,0.539266,0.57560636,-0.24135392,0.514333,0.57110822,-0.22677639,0.499789,0.56648765,-0.2185169,0.489401,0.58507755,-0.30640552,0.540394,0.5804258,-0.26328797,0.514434,0.57089465,-0.26000556,0.501152,0.55452704,-0.26441617,0.489078,0.60099001,-0.33490274,0.545524,0.56905395,-0.32246356,0.52182,0.56624968,-0.33640939,0.535303,0.56820447,-0.35135432,0.548874
0.55356506,-0.37762035,0.577771,0.56387984,-0.3311312,0.559145,0.54258221,-0.35569353,0.575966,0.5334571,-0.31406559,0.562875,0.5170597,-0.27651881,0.540667,0.51472471,-0.25374684,0.526288,0.55417172,-0.27507708,0.544147,0.54732363,-0.22642282,0.523678,0.54161749,-0.21342006,0.513444,0.53661156,-0.20128671,0.50414,0.57172595,-0.28969269,0.541406,0.57229844,-0.23992111,0.513578,0.56731029,-0.2212502,0.497346,0.56093537,-0.21525063,0.485751,0.58518672,-0.3062403,0.541156,0.57745683,-0.27241934,0.517099,0.57363798,-0.25898729,0.504791,0.559484,-0.26166435,0.493602,0.59916834,-0.33354279,0.544366,0.56941026,-0.3216602,0.522417,0.5670172,-0.33593693,0.536299,0.56874996,-0.35061206,0.549407
0.56152419,-0.38079198,0.585633,0.56732632,-0.33208899,0.563181,0.54907746,-0.35865199,0.582017,0.53955689,-0.32593415,0.56772,0.51272965,-0.28926506,0.543232,0.50504926,-0.26694626,0.527885,0.55245604,-0.27470912,0.543228,0.54668165,-0.22630564,0.525871,0.53840087,-0.21197417,0.517192,0.53787509,-0.20143013,0.509302,0.57182757,-0.28933264,0.541798,0.57386944,-0.23647999,0.520981,0.57324696,-0.21821331,0.508838,0.56272319,-0.22291881,0.500164,0.5871804,-0.30523898,0.543041,0.57477787,-0.27017755,0.514751,0.5687005,-0.25278182,0.500276,0.55252929,-0.25694871,0.487118,0.60703775,-0.32848658,0.548704,0.57068433,-0.32392112,0.523515,0.56878066,-0.33749015,0.536363,0.56955302,-0.35072673,0.55021
0.55899588,-0.37703926,0.582887,0.56295473,-0.32757293,0.560897,0.54686415,-0.35516318,0.580959,0.52707944,-0.31879153,0.563898,0.50218597,-0.28479906,0.538818,0.49286121,-0.2596505,0.524148,0.54314684,-0.26719557,0.543455,0.52581483,-0.21689063,0.51786,0.51462457,-0.20582818,0.505062,0.50450437,-0.19560287,0.493427,0.56255156,-0.27803881,0.539954,0.55860984,-0.22616487,0.514527,0.55361536,-0.20469222,0.499695,0.54538566,-0.19947299,0.4891,0.57846902,-0.29194269,0.539441,0.56851966,-0.26262413,0.510888,0.56403908,-0.24964268,0.496279,0.54773829,-0.25143926,0.482999,0.59697752,-0.316924,0.542979,0.56532044,-0.30965942,0.518861,0.56486959,-0.32927329,0.531727,0.56520266,-0.34734531,0.545205
0.55727302,-0.37509376,0.582263,0.55369869,-0.32303058,0.562299,0.54679857,-0.35570192,0.581871,0.51991325,-0.32203342,0.566591,0.49431282,-0.28741631,0.542491,0.48455494,-0.26212635,0.528591,0.53357677,-0.26976558,0.548234,0.51518176,-0.21765987,0.525319,0.50539681,-0.20455343,0.513862,0.4965477,-0.19237473,0.503447,0.55287897,-0.27756474,0.543286,0.54793843,-0.22336727,0.521285,0.54173801,-0.20849764,0.508451,0.53754275,-0.19761257,0.499284,0.56878394,-0.28901482,0.541364,0.55944261,-0.25474649,0.51513,0.554974,-0.23686838,0.501708,0.54171429,-0.23889061,0.489506,0.58750426,-0.31119626,0.542885,0.56199807,-0.30403218,0.520783,0.56835605,-0.3268035,0.534084,0.56787218,-0.34629987,0.54702
0.55262146,-0.37172173,0.578191,0.55086221,-0.32202751,0.561437,0.54029835,-0.35279991,0.577312,0.51636881,-0.32071523,0.563446,0.49085382,-0.28586443,0.538421,0.48208261,-0.26110613,0.52501,0.52838247,-0.26940921,0.548917,0.51055877,-0.218285,0.527834,0.50240231,-0.20810843,0.517292,0.49791301,-0.1963152,0.507708,0.55233524,-0.27777402,0.545482,0.54537527,-0.22308679,0.526802,0.54208833,-0.20863281,0.515906,0.54352676,-0.19950551,0.508123,0.56944069,-0.2893132,0.544459,0.56549117,-0.24816742,0.520952,0.5649074,-0.22815383,0.508925,0.55717558,-0.22605458,0.497992,0.58909019,-0.31140253,0.54642,0.56586558,-0.30599873,0.526117,0.57097847,-0.32797512,0.540413,0.57408274,-0.34965657,0.553102
0.5541569,-0.37271922,0.580344,0.55079671,-0.32256508,0.562531,0.53951921,-0.35360483,0.57819,0.5163187,-0.32181942,0.563141,0.49096532,-0.28669165,0.537863,0.48165293,-0.26145114,0.523867,0.52438661,-0.26929508,0.54763,0.49932956,-0.21805921,0.524749,0.49199115,-0.20658181,0.513309,0.48792912,-0.19649772,0.502909,0.54704361,-0.27625274,0.545565,0.53934475,-0.22271924,0.530678,0.53991734,-0.20777425,0.521994,0.54443537,-0.1988392,0.515791,0.56591477,-0.28709871,0.545785,0.55447858,-0.2502377,0.521727,0.55004221,-0.23564729,0.509418,0.54626964,-0.22212148,0.498228,0.58840719,-0.30873432,0.549388,0.56727351,-0.29990211,0.527802,0.57492239,-0.32316864,0.541927,0.5777233,-0.34851936,0.555001
0.55619507,-0.37604201,0.58516,0.53951702,-0.3280146,0.564902,0.52903692,-0.35570536,0.576488,0.50264114,-0.32718512,0.55657,0.47715195,-0.29139978,0.528894,0.46706624,-0.26561649,0.515022,0.50615091,-0.2737499,0.539852,0.48759379,-0.22324795,0.522715,0.48543505,-0.21130738,0.514147,0.48627937,-0.19883128,0.506357,0.53513251,-0.28174242,0.545609,0.53024938,-0.22823767,0.529096,0.53382658,-0.20711608,0.519464,0.53743856,-0.19673739,0.512584,0.55952673,-0.29352429,0.552533,0.54806452,-0.25664655,0.524145,0.5424109,-0.23751142,0.50962,0.54083514,-0.22062218,0.496416,0.58885187,-0.31634591,0.564378,0.56624779,-0.32363883,0.538709,0.57333574,-0.34363662,0.5516,0.58228318,-0.36307075,0.565633
0.55352651,-0.37539097,0.583657,0.53546698,-0.32717522,0.561366,0.52572445,-0.35865856,0.576182,0.50302219,-0.33399329,0.556174,0.4756881,-0.29966161,0.52817,0.46572763,-0.27532775,0.513628,0.49542982,-0.27542763,0.536495,0.47349921,-0.22547407,0.51937,0.46824943,-0.21565096,0.510807,0.4635924,-0.20644647,0.503023,0.52400489,-0.28058385,0.540137,0.51380535,-0.22658073,0.524455,0.51214508,-0.20180583,0.515306,0.51246799,-0.19248162,0.508772,0.55067451,-0.29001265,0.545539,0.53658159,-0.24905138,0.516425,0.53039259,-0.22782865,0.501529,0.52483774,-0.20842888,0.487988,0.58013351,-0.31128229,0.555998,0.5638477,-0.27533231,0.52939,0.58192092,-0.29319004,0.542023,0.60162161,-0.31163004,0.556286
0.55142307,-0.37343698,0.580477,0.53407844,-0.32660043,0.558745,0.52288508,-0.36111984,0.573444,0.50620397,-0.33753702,0.552986,0.47645268,-0.3033353,0.524164,0.46610537,-0.27760967,0.512595,0.49339062,-0.27622986,0.534829,0.46285551,-0.22864672,0.5133,0.45299986,-0.21315733,0.502535,0.44641366,-0.20463876,0.492749,0.52164402,-0.2797498,0.538047,0.50526103,-0.22580628,0.522457,0.50123754,-0.20068992,0.513363,0.5011166,-0.19206301,0.506867,0.54643573,-0.28803915,0.54304,0.52630709,-0.23745078,0.515684,0.51904766,-0.21957115,0.501688,0.51386785,-0.21263072,0.488964,0.5779509,-0.30715776,0.552921,0.56127066,-0.27142341,0.526825,0.580257,-0.28915269,0.539683,0.60051438,-0.30731094,0.553853
0.55176183,-0.37479073,0.581311,0.535823,-0.32902867,0.561366,0.52259244,-0.36596953,0.574541,0.50696869,-0.34057521,0.553356,0.47856239,-0.30784882,0.527568,0.47084073,-0.28616008,0.518982,0.48996131,-0.28387049,0.539006,0.45897435,-0.23660864,0.516789,0.44962152,-0.22093404,0.50568,0.44450311,-0.21249728,0.495581,0.51784405,-0.28377263,0.542371,0.50120012,-0.23062692,0.526312,0.49565234,-0.20315271,0.516945,0.49548129,-0.18983382,0.510254,0.54250581,-0.28907598,0.547291,0.52381923,-0.24157027,0.52057,0.51745783,-0.22273213,0.506898,0.51701789,-0.21481194,0.49447,0.57427162,-0.30462486,0.556751,0.54865892,-0.26978748,0.53191,0.57149881,-0.28730047,0.544577,0.60153487,-0.30618199,0.558826
0.54959694,-0.3742454,0.578956,0.5312285,-0.32853591,0.557186,0.52033225,-0.36682591,0.569303,0.50872132,-0.3433985,0.544989,0.47769598,-0.30891985,0.513808,0.46507743,-0.28489089,0.499975,0.47855793,-0.2839609,0.529831,0.4418472,-0.23742734,0.50455,0.43067135,-0.22170157,0.49191,0.42450965,-0.21284048,0.480419,0.51036379,-0.28179317,0.536453,0.48503817,-0.22977884,0.517873,0.47605783,-0.20224847,0.507035,0.47421799,-0.18863151,0.499293,0.53760092,-0.28747004,0.544252,0.51167345,-0.23910993,0.515163,0.50325936,-0.21969723,0.500281,0.50283976,-0.21099992,0.486751,0.57331857,-0.30363546,0.557397,0.54481275,-0.26821969,0.530446,0.5678924,-0.2851108,0.542698,0.59271528,-0.30270493,0.556934
0.54713732,-0.37447831,0.577227,0.52981407,-0.32848423,0.556167,0.51951726,-0.36703074,0.5677,0.50722182,-0.34244053,0.543469,0.47598776,-0.30798368,0.512097,0.4629745,-0.28385227,0.497915,0.47772007,-0.28423539,0.529459,0.44215512,-0.24246228,0.498888,0.42616427,-0.22072124,0.486076,0.41307482,-0.20431704,0.474429,0.50764812,-0.28290473,0.53611,0.48331798,-0.22971689,0.517514,0.4741351,-0.20229727,0.506666,0.47224489,-0.1888076,0.498918,0.53619301,-0.28719699,0.543857,0.5114108,-0.23877995,0.515489,0.50379045,-0.21994571,0.500976,0.50284171,-0.2118375,0.487781,0.57050033,-0.30152388,0.556807,0.54075632,-0.26572306,0.530359,0.56472374,-0.28193103,0.542822,0.59008799,-0.29870178,0.556963
0.54736039,-0.37611806,0.575936,0.52654073,-0.32989637,0.553758,0.51893417,-0.36847619,0.56374,0.50830894,-0.34354902,0.537061,0.47753421,-0.3082385,0.505277,0.45978042,-0.28172248,0.492029,0.46987422,-0.2875171,0.522815,0.43181595,-0.24291585,0.503072,0.42188383,-0.22656491,0.493201,0.41973375,-0.2188219,0.484228,0.5024958,-0.2832274,0.532637,0.47074888,-0.23296311,0.515055,0.46255625,-0.20768123,0.504799,0.46339357,-0.19766079,0.497473,0.53272056,-0.28742104,0.543116,0.5034189,-0.2383143,0.513996,0.49545117,-0.21837877,0.499098,0.49651767,-0.2103462,0.485554,0.57193394,-0.30274441,0.559447,0.53791817,-0.26396899,0.531616,0.56137484,-0.27842468,0.542791,0.58748553,-0.2941018,0.556919
0.54512399,-0.3762211,0.5741,0.52515896,-0.33011663,0.552729,0.51945264,-0.36969792,0.563402,0.50081704,-0.34597468,0.537297,0.46622982,-0.31258631,0.505711,0.45044126,-0.28946408,0.492348,0.46501209,-0.29034564,0.524285,0.427054,-0.24592853,0.502589,0.41610091,-0.23014176,0.491742,0.41503863,-0.22021653,0.48188,0.49510094,-0.28600759,0.532376,0.4616415,-0.23397883,0.511295,0.45146251,-0.21074439,0.498998,0.44773453,-0.19811419,0.490215,0.52584707,-0.28773581,0.541342,0.49559548,-0.23742291,0.514191,0.48797323,-0.21885135,0.5003,0.4842825,-0.20756652,0.487672,0.56382806,-0.29964191,0.555766,0.5306755,-0.2606998,0.528803,0.55528212,-0.27535935,0.540798,0.58321307,-0.29228043,0.554939
0.54657196,-0.37738552,0.572385,0.52257754,-0.32868245,0.549784,0.51990969,-0.36987499,0.562303,0.50135964,-0.34305399,0.533356,0.46455336,-0.3118374,0.501873,0.44935087,-0.28902292,0.487808,0.46256075,-0.28995769,0.521306,0.41804526,-0.24723698,0.495124,0.40443376,-0.23165884,0.482034,0.39889266,-0.22402751,0.470133,0.4911288,-0.28384161,0.528259,0.45035663,-0.23218163,0.503179,0.43675715,-0.2092297,0.488549,0.43094025,-0.19673546,0.478098,0.51828889,-0.28403627,0.536421,0.48649756,-0.23408665,0.506667,0.47845637,-0.21790247,0.491443,0.47500213,-0.20996425,0.477604,0.5562797,-0.29347167,0.550143,0.52145045,-0.2550439,0.522532,0.54584913,-0.26992044,0.534438,0.57232199,-0.28572971,0.548771
0.54555471,-0.37654136,0.567147,0.51899516,-0.32902922,0.544926,0.52234514,-0.37303287,0.556158,0.49893207,-0.34056484,0.526269,0.46281157,-0.30834386,0.494893,0.44920334,-0.28394529,0.482812,0.45827833,-0.29511815,0.515525,0.4091487,-0.25264292,0.489632,0.3991867,-0.23856557,0.476685,0.40086087,-0.2347797,0.464916,0.4858897,-0.28381406,0.523763,0.44292327,-0.23629441,0.49801,0.43074056,-0.213578,0.482988,0.42618868,-0.1976182,0.472258,0.51290316,-0.28249082,0.532941,0.48175041,-0.23439678,0.503704,0.47538388,-0.21909297,0.488745,0.47387888,-0.21245994,0.475146,0.55136754,-0.28982361,0.547772,0.51798192,-0.25478081,0.520178,0.54385396,-0.26967358,0.531858,0.57311907,-0.2865731,0.546099
0.55619707,-0.37386037,0.560226,0.51843218,-0.32762165,0.53967,0.53127822,-0.37247847,0.548653,0.51210856,-0.33211936,0.518521,0.47062286,-0.29915089,0.487789,0.4471792,-0.28140732,0.478133,0.45722696,-0.29866832,0.510639,0.41497039,-0.26429509,0.47918,0.39376835,-0.24702505,0.46345,0.39284874,-0.24122521,0.44915,0.48258697,-0.28601849,0.520092,0.43982901,-0.23780263,0.496582,0.42665549,-0.21941361,0.482867,0.41856575,-0.2043265,0.473071,0.51015143,-0.28180949,0.530092,0.47051462,-0.23474119,0.501954,0.46553238,-0.22152498,0.487557,0.47109573,-0.2189488,0.47447,0.54923314,-0.28788442,0.545563,0.51545704,-0.25604992,0.518941,0.54262889,-0.2687007,0.530765,0.57096272,-0.2843574,0.54472
0.56730689,-0.3747334,0.56431,0.52725519,-0.3298049,0.539918,0.54275846,-0.37314747,0.551908,0.52311115,-0.3477665,0.529751,0.48771385,-0.32122529,0.498467,0.46347671,-0.30236077,0.482854,0.4658863,-0.30610906,0.507202,0.42022277,-0.26926993,0.47884,0.39609872,-0.24926718,0.464659,0.39477368,-0.24328108,0.451767,0.4899114,-0.29285228,0.516688,0.44054702,-0.24646273,0.491303,0.42731238,-0.22572062,0.476496,0.41785967,-0.21056371,0.465919,0.51434937,-0.28597016,0.527128,0.46917848,-0.24019927,0.497398,0.46083864,-0.22462038,0.482188,0.46250825,-0.22078016,0.46836,0.54831279,-0.28652987,0.543831,0.51475441,-0.25993697,0.514518,0.53811116,-0.26737367,0.525024,0.56659995,-0.28115581,0.539414
0.55557168,-0.37449859,0.561402,0.52087918,-0.32857756,0.538972,0.5358599,-0.37326829,0.549941,0.50322722,-0.34822656,0.526366,0.46809796,-0.3162081,0.495458,0.45018168,-0.29160708,0.48343,0.45590864,-0.29863718,0.508814,0.41488523,-0.26533728,0.476062,0.39246465,-0.247279,0.459686,0.39013024,-0.24068371,0.444799,0.48163614,-0.2877177,0.51761,0.43378005,-0.23947866,0.491045,0.42619004,-0.2247656,0.47555,0.4182659,-0.21071614,0.464481,0.50696914,-0.28252244,0.52727,0.45910616,-0.24228318,0.495883,0.45056068,-0.22902836,0.479825,0.45224113,-0.2261908,0.465226,0.54696047,-0.28639369,0.542699,0.51546194,-0.25710686,0.514858,0.53865317,-0.26357558,0.526297,0.56794455,-0.28091419,0.540532
0.56763969,-0.37779294,0.56729,0.52898233,-0.33337212,0.542813,0.54281914,-0.37641419,0.553365,0.5196002,-0.34709562,0.52549,0.49321731,-0.31884642,0.49379,0.47073634,-0.29744966,0.476515,0.46711144,-0.3075079,0.508056,0.41980227,-0.27253701,0.472491,0.39595937,-0.25463876,0.454708,0.39380003,-0.24587243,0.438542,0.49187881,-0.29546713,0.519502,0.44581374,-0.25387458,0.494706,0.41927115,-0.22891394,0.480242,0.40879593,-0.21300268,0.469911,0.51522166,-0.28886009,0.531565,0.46626283,-0.24750954,0.498495,0.45926195,-0.23231233,0.481576,0.46197066,-0.22489219,0.466195,0.55312524,-0.29114308,0.550168,0.52995171,-0.26340063,0.520549,0.52017565,-0.25063005,0.506939,0.53506544,-0.2572806,0.50761
0.57141909,-0.37892619,0.567433,0.53078076,-0.33973811,0.543007,0.54333926,-0.37736798,0.552241,0.52160912,-0.35430971,0.522944,0.49278264,-0.3228192,0.490863,0.46981559,-0.29875132,0.47421,0.46945561,-0.31778677,0.506636,0.42034094,-0.27885835,0.470545,0.3958783,-0.25949273,0.452499,0.3927084,-0.24594146,0.436094,0.4905474,-0.30541767,0.519745,0.43964432,-0.26314643,0.493243,0.41843193,-0.2387193,0.477784,0.40975971,-0.22239345,0.466741,0.51261046,-0.29942485,0.533173,0.46188442,-0.2579542,0.500851,0.45036447,-0.23916795,0.484314,0.45493427,-0.22920888,0.469281,0.54642858,-0.29982804,0.55335,0.52631648,-0.27645043,0.523634,0.51716062,-0.2656429,0.509981,0.53543918,-0.26534378,0.50999
0.5909768,-0.40339467,0.601461,0.53967103,-0.36674149,0.563532,0.55590088,-0.40821664,0.587088,0.59026546,-0.43860751,0.590856,0.60504674,-0.43854904,0.579018,0.61533165,-0.42857524,0.573172,0.47933115,-0.34697602,0.519057,0.44231273,-0.30971353,0.489128,0.42373427,-0.29095443,0.474164,0.41397177,-0.27759413,0.46056,0.50045107,-0.33132774,0.527409,0.45434021,-0.28611704,0.490759,0.42746416,-0.25978819,0.469379,0.40827925,-0.24100535,0.454108,0.52240609,-0.32225529,0.538374,0.47938613,-0.2773305,0.50207,0.45744221,-0.25454508,0.483495,0.45501289,-0.24518184,0.46661,0.55579942,-0.31851551,0.558232,0.5235568,-0.2779293,0.522043,0.50976856,-0.26300239,0.505416,0.50917332,-0.25688779,0.490746
0.58510146,-0.39975166,0.595803,0.53384607,-0.3654281,0.557891,0.55219732,-0.40729318,0.583077,0.58916978,-0.44094151,0.590215,0.6046751,-0.44155712,0.578298,0.61796243,-0.43342442,0.574293,0.47092617,-0.34995298,0.515573,0.43425135,-0.31803984,0.477316,0.41740254,-0.3030244,0.458188,0.41467939,-0.29833733,0.440799,0.49149143,-0.33340692,0.521783,0.44425759,-0.28984417,0.485559,0.41670895,-0.26444052,0.464427,0.39703542,-0.24630033,0.449334,0.51331097,-0.32348421,0.530983,0.47608653,-0.27878276,0.495196,0.4570544,-0.25601982,0.476887,0.43976026,-0.23539777,0.460242,0.54711372,-0.31854927,0.548788,0.52156495,-0.28022271,0.513427,0.50977716,-0.26270566,0.497181,0.4981718,-0.25010642,0.482845
0.5271151,-0.39407831,0.531116,0.49791937,-0.35242727,0.526733,0.49648422,-0.39027936,0.52349,0.47134361,-0.352807,0.505154,0.44220938,-0.32389927,0.492587,0.42730916,-0.30054735,0.485953,0.44109097,-0.32137826,0.513825,0.43916719,-0.31494981,0.497319,0.43948119,-0.312423,0.489865,0.45059368,-0.32537296,0.483088,0.47128702,-0.31457242,0.522559,0.45829602,-0.28778445,0.508447,0.45123305,-0.27139472,0.500804,0.44625351,-0.25912847,0.495427,0.49958068,-0.31296245,0.530224,0.4902697,-0.28637007,0.515198,0.48572963,-0.27207873,0.507543,0.48182576,-0.25827912,0.502493,0.53857779,-0.31835658,0.539945,0.52781844,-0.27678232,0.525907,0.52526817,-0.27957385,0.519458,0.52387009,-0.28304296,0.513767
0.52249572,-0.39306605,0.527328,0.49476017,-0.3532122,0.525016,0.49248163,-0.38969778,0.520281,0.46630406,-0.34889123,0.500927,0.44265191,-0.31072738,0.484351,0.43202005,-0.28701576,0.479859,0.43970328,-0.3238276,0.514268,0.43873653,-0.31622736,0.499823,0.43738274,-0.31204545,0.494517,0.44851193,-0.32733531,0.489694,0.46761733,-0.31942528,0.522815,0.46231516,-0.29514817,0.510998,0.46001182,-0.28014214,0.504593,0.45864076,-0.26885471,0.500109,0.49523642,-0.31780515,0.530102,0.49050125,-0.29582003,0.51712,0.4884119,-0.28392908,0.510477,0.48683767,-0.27272925,0.504536,0.53311114,-0.32273892,0.538995,0.53003171,-0.29232477,0.526694,0.52783946,-0.2791384,0.521043,0.53080836,-0.26452282,0.516056
0.52035298,-0.39154022,0.523292,0.48844424,-0.34987727,0.517414,0.48534819,-0.38430979,0.510462,0.46217933,-0.34636592,0.49526,0.43970072,-0.31132967,0.48042,0.42803549,-0.2876459,0.475451,0.42581177,-0.31983458,0.496712,0.42656338,-0.30667455,0.476108,0.45220214,-0.31734721,0.492579,0.47566622,-0.34275196,0.507289,0.45931884,-0.31633355,0.511815,0.43555063,-0.2731251,0.496186,0.44511704,-0.27170258,0.487068,0.45645345,-0.27819181,0.480556,0.49061178,-0.31597236,0.524886,0.48134616,-0.28936063,0.506707,0.47688196,-0.27518459,0.497406,0.47261294,-0.25902647,0.489393,0.53490987,-0.32474351,0.541163,0.53017037,-0.29315375,0.525026,0.5282025,-0.27823046,0.517612,0.52739803,-0.26386141,0.511216
0.51932291,-0.39120982,0.519633,0.48544402,-0.35258864,0.510305,0.48269441,-0.38283745,0.504538,0.45946466,-0.34733012,0.481028,0.43338929,-0.31130036,0.46336,0.41884106,-0.28713293,0.456366,0.41810697,-0.32180775,0.48431,0.41977732,-0.30459434,0.459862,0.44622362,-0.31350292,0.474171,0.47755016,-0.34065013,0.489535,0.45133878,-0.31866267,0.501421,0.42624227,-0.27373909,0.48233,0.43774039,-0.27123493,0.471194,0.45856672,-0.28012925,0.478319,0.48317885,-0.31996742,0.516517,0.4743312,-0.28872104,0.494768,0.47039307,-0.27238118,0.48391,0.46300083,-0.25589331,0.475718,0.52818287,-0.32861064,0.535793,0.5242047,-0.29294563,0.516849,0.52244476,-0.27777029,0.508244,0.52107784,-0.26422234,0.500708
0.51596394,-0.38943806,0.5142,0.48639915,-0.35705278,0.507931,0.48535483,-0.38704418,0.499833,0.46198425,-0.34893982,0.482177,0.43725387,-0.31253853,0.46552,0.42589475,-0.28887522,0.460445,0.41958908,-0.32422089,0.48496,0.42273993,-0.3088159,0.463361,0.44924797,-0.31822021,0.478324,0.47964819,-0.34495125,0.492825,0.45299273,-0.3211141,0.50196,0.42981926,-0.27805233,0.486126,0.4416568,-0.27502247,0.47689,0.46511845,-0.28439806,0.485297,0.48469537,-0.32223154,0.516635,0.47746291,-0.29259775,0.497737,0.47426339,-0.27693695,0.488227,0.46955512,-0.26178774,0.480559,0.53075133,-0.33256301,0.534847,0.52708832,-0.29861472,0.518313,0.52646506,-0.28367598,0.510716,0.52612193,-0.27030252,0.504068
0.52413588,-0.39340841,0.509316,0.49800891,-0.35879012,0.505299,0.49329796,-0.38984306,0.495716,0.47465112,-0.35073479,0.481381,0.44976393,-0.31050662,0.461991,0.44312076,-0.28705427,0.45881,0.4306304,-0.33110896,0.484857,0.43159802,-0.31473695,0.465489,0.45385725,-0.32271392,0.481068,0.48373764,-0.34709807,0.494935,0.4634301,-0.32659962,0.501474,0.43591413,-0.28553142,0.488039,0.44748902,-0.28185761,0.480203,0.47227858,-0.29009254,0.489656,0.49479053,-0.32606278,0.51559,0.48139513,-0.29592004,0.49888,0.47706701,-0.27895679,0.490331,0.47260951,-0.2638873,0.483093,0.5390322,-0.33135494,0.53273,0.53073773,-0.29992984,0.518019,0.5285367,-0.28398511,0.51126,0.52724125,-0.26917397,0.505296
0.5266632,-0.39330687,0.508835,0.49883366,-0.35923565,0.506035,0.49478194,-0.38903281,0.494485,0.47189844,-0.34573575,0.475659,0.4601516,-0.29783773,0.445251,0.45674852,-0.27078465,0.433653,0.4312874,-0.3313516,0.485444,0.43322311,-0.31572976,0.466835,0.45764372,-0.32387208,0.481419,0.48469933,-0.34735371,0.494589,0.46533808,-0.32765636,0.503369,0.4393839,-0.28743627,0.491472,0.45333173,-0.28637085,0.484531,0.48287533,-0.30369736,0.493585,0.49768617,-0.32768036,0.518432,0.48621558,-0.29834563,0.502681,0.48192478,-0.2818595,0.494623,0.47770906,-0.26687764,0.487643,0.542953,-0.33350697,0.536442,0.53684607,-0.30239832,0.522712,0.53493159,-0.28689593,0.516448,0.53386837,-0.27244248,0.510921
0.50558388,-0.37042267,0.476567,0.48689891,-0.34971954,0.484802,0.47985911,-0.3684738,0.465502,0.44311033,-0.34058481,0.462224,0.43098583,-0.30726287,0.45838,0.42346598,-0.28657053,0.458052,0.42925206,-0.32957177,0.475982,0.43393204,-0.30529335,0.468608,0.45876605,-0.31913409,0.484284,0.48364626,-0.34597034,0.493456,0.46369631,-0.32928639,0.492646,0.48113429,-0.30552874,0.493131,0.50453637,-0.32796727,0.493415,0.53522849,-0.35341825,0.506228,0.4950425,-0.33104771,0.50548,0.4889705,-0.29678076,0.500833,0.4944151,-0.27917732,0.498455,0.49866417,-0.26365874,0.496293,0.53694528,-0.33680929,0.518829,0.53617106,-0.30207293,0.514546,0.53432554,-0.28505198,0.512619,0.53418385,-0.27213219,0.510918
0.50886861,-0.37018041,0.476091,0.48997883,-0.34916088,0.484817,0.48297499,-0.36703556,0.464628,0.44982267,-0.33960747,0.461476,0.43614498,-0.30727796,0.45909,0.42907278,-0.28653763,0.460136,0.43181877,-0.32961917,0.475811,0.44059807,-0.30534534,0.468742,0.46819395,-0.314607,0.483803,0.49229368,-0.33702489,0.49261,0.46649666,-0.32948882,0.493127,0.48516015,-0.3058894,0.494291,0.51277894,-0.32761594,0.494971,0.54026247,-0.35330088,0.50747,0.49807334,-0.33128542,0.506446,0.49477543,-0.29640321,0.502202,0.49838355,-0.27961216,0.500031,0.50300411,-0.26407981,0.498057,0.54028928,-0.33693465,0.520265,0.53992208,-0.30237143,0.516415,0.53997283,-0.28642403,0.514647,0.53935074,-0.27345185,0.513086
0.51163903,-0.36844157,0.474277,0.50037049,-0.3461233,0.481985,0.49135015,-0.36496428,0.4629,0.45832138,-0.33852892,0.45806,0.44404216,-0.30528262,0.454148,0.43519735,-0.28431711,0.455437,0.44023318,-0.33069233,0.472402,0.43720919,-0.30223971,0.464412,0.46378858,-0.31017975,0.479916,0.48898488,-0.33127867,0.489262,0.47342237,-0.3278439,0.489327,0.48070819,-0.30183819,0.489233,0.50865148,-0.31735413,0.489177,0.54239661,-0.338846,0.501722,0.50413316,-0.32718411,0.502434,0.49434846,-0.29343083,0.497208,0.4946646,-0.27682848,0.494534,0.49831199,-0.26134374,0.492103,0.54600433,-0.32958733,0.516199,0.53891376,-0.29846539,0.511443,0.53598156,-0.28408999,0.509258,0.53305889,-0.27127155,0.507449
0.5207319,-0.3623205,0.467223,0.49769726,-0.34398349,0.478003,0.49293846,-0.36017633,0.456156,0.45782342,-0.33390162,0.450094,0.44109017,-0.29663538,0.439161,0.42870196,-0.27743064,0.442386,0.44009973,-0.33128825,0.470907,0.44011667,-0.304259,0.465941,0.4660204,-0.31115984,0.480691,0.49045667,-0.33064502,0.488544,0.47305841,-0.32840782,0.488269,0.48564403,-0.30330294,0.491885,0.51546138,-0.32139023,0.493995,0.55011166,-0.34288577,0.506827,0.50331313,-0.3274376,0.501405,0.49753803,-0.29550796,0.499278,0.50144852,-0.27976316,0.498189,0.50483382,-0.26490176,0.497353,0.54410749,-0.32899981,0.514625,0.5409609,-0.29946728,0.512633,0.53960197,-0.28565434,0.511717,0.53755796,-0.27355645,0.511016
0.52954985,-0.35916665,0.465272,0.5105455,-0.34320411,0.475446,0.50218618,-0.35939467,0.454787,0.46749034,-0.33562711,0.447742,0.44632806,-0.30021182,0.437439,0.43203042,-0.2772855,0.436797,0.45231417,-0.33704955,0.468697,0.44783104,-0.31168766,0.463375,0.47261573,-0.31834394,0.47902,0.49671863,-0.33263734,0.48737,0.48291306,-0.3310397,0.485136,0.48874394,-0.3064499,0.487882,0.52019264,-0.32130615,0.489485,0.55259092,-0.34072785,0.502802,0.51150592,-0.32703851,0.497576,0.49826746,-0.29620441,0.494957,0.50003313,-0.28091747,0.493617,0.50070021,-0.26368851,0.492753,0.55093684,-0.32425064,0.510104,0.5392845,-0.2963925,0.507564,0.5379612,-0.28361794,0.506397,0.5335067,-0.27215292,0.506403
0.53168487,-0.35803069,0.464426,0.50999833,-0.34265486,0.474931,0.50350516,-0.35831062,0.453526,0.467861,-0.32827127,0.443565,0.44674029,-0.28780599,0.427508,0.43462318,-0.2640779,0.422867,0.45147496,-0.33611755,0.467866,0.4474599,-0.31103837,0.462697,0.47184075,-0.31742267,0.477755,0.49650578,-0.33262635,0.48581,0.4826889,-0.33054753,0.484935,0.48938323,-0.30642058,0.488171,0.5211727,-0.32160913,0.490059,0.55467272,-0.34089777,0.50304,0.51178678,-0.32687354,0.497858,0.49993389,-0.29685427,0.495485,0.50053681,-0.28061892,0.494271,0.5017037,-0.26468222,0.493167,0.55179158,-0.32444324,0.510885,0.54161122,-0.29681787,0.508639,0.54009094,-0.28422285,0.507607,0.53567609,-0.27299435,0.507654
0.53534661,-0.35581556,0.461728,0.50986317,-0.3424412,0.473002,0.50807148,-0.35705648,0.450958,0.47477393,-0.32708679,0.443348,0.45360055,-0.2838748,0.425599,0.44414448,-0.26060148,0.422234,0.45586618,-0.3400726,0.46663,0.44804908,-0.31205405,0.462247,0.47188964,-0.31813476,0.477151,0.49831329,-0.33490048,0.484835,0.48717547,-0.33452138,0.48374,0.49007436,-0.30754975,0.487905,0.52250931,-0.32276397,0.490335,0.55954567,-0.34191038,0.503414,0.51627338,-0.33063499,0.496615,0.50251455,-0.29890839,0.495036,0.50286278,-0.28410508,0.494229,0.50445592,-0.26884295,0.493495,0.5561645,-0.32754637,0.509439,0.54528862,-0.29720908,0.507896,0.54133252,-0.28498651,0.507186,0.53821123,-0.27366613,0.506561
0.54166187,-0.35381392,0.459968,0.5155284,-0.3443307,0.470832,0.50925622,-0.35548457,0.44851,0.4784968,-0.32432293,0.438116,0.45324582,-0.28194531,0.422363,0.44231518,-0.25879103,0.418583,0.46052971,-0.34429751,0.463285,0.45316655,-0.31663904,0.458265,0.47841282,-0.3223177,0.472494,0.50685176,-0.33934473,0.480159,0.490683,-0.33872564,0.481179,0.49704244,-0.31320803,0.484996,0.53079438,-0.32595564,0.487223,0.56855943,-0.34299008,0.499701,0.51899525,-0.33445742,0.494743,0.50195578,-0.30238519,0.49264,0.49967041,-0.28673714,0.491564,0.50001284,-0.26963857,0.490585,0.55668134,-0.32855799,0.508445,0.546887,-0.30016052,0.506544,0.54287561,-0.28769308,0.505671,0.53799252,-0.27408028,0.504913
0.54294368,-0.35309497,0.458901,0.51609537,-0.34411859,0.469758,0.51003968,-0.35456961,0.446859,0.47785491,-0.32093829,0.435515,0.45462386,-0.27249619,0.41362,0.44365949,-0.24894221,0.408896,0.45902022,-0.34319499,0.461444,0.45359094,-0.31651724,0.456233,0.47922651,-0.32260185,0.469678,0.50759103,-0.34016428,0.477105,0.48990429,-0.33817297,0.480097,0.49676622,-0.31271029,0.484071,0.53072116,-0.32559019,0.486388,0.56793657,-0.34229369,0.498298,0.51886633,-0.33432932,0.494288,0.50199611,-0.30279786,0.492105,0.49947917,-0.28693302,0.490988,0.49925824,-0.26994484,0.489973,0.5577856,-0.3293967,0.508718,0.54755407,-0.29978257,0.506852,0.54221208,-0.28534775,0.505995,0.53683559,-0.2726099,0.505614
0.54326716,-0.35155673,0.456754,0.51904308,-0.3437956,0.467615,0.51965796,-0.35404466,0.444151,0.48070588,-0.32216466,0.432271,0.45350721,-0.27457804,0.412368,0.43980013,-0.24891103,0.404561,0.46289727,-0.34347626,0.458574,0.4592467,-0.31919696,0.453219,0.48566797,-0.32624591,0.46583,0.51086191,-0.34216696,0.472982,0.49067474,-0.33738385,0.477959,0.49688663,-0.31241819,0.482127,0.53108994,-0.32517802,0.484558,0.56775976,-0.34133315,0.495869,0.51922962,-0.33360339,0.492752,0.50258243,-0.30401189,0.490531,0.49931438,-0.28801051,0.489395,0.49791495,-0.27196311,0.488362,0.55997996,-0.3300134,0.507881,0.54884246,-0.29946462,0.506089,0.5439719,-0.28622421,0.505348,0.53939097,-0.2742126,0.504749
0.55220936,-0.34900962,0.454172,0.52361407,-0.34243674,0.465268,0.52104312,-0.3525503,0.44265,0.49190616,-0.31169306,0.424882,0.45556214,-0.307385,0.421044,0.43864385,-0.31420642,0.427988,0.46471282,-0.34375203,0.457794,0.46676157,-0.32024247,0.452977,0.49767902,-0.32650656,0.46702,0.52786328,-0.33422598,0.474531,0.4936474,-0.33735027,0.475835,0.49508721,-0.31129918,0.479961,0.52581168,-0.30923285,0.482368,0.56489699,-0.32310499,0.494775,0.52103139,-0.33220817,0.489496,0.50494103,-0.30388054,0.487619,0.50211179,-0.28849045,0.486659,0.49708731,-0.2714655,0.48619,0.55709011,-0.3266951,0.503268,0.54566155,-0.29552953,0.501585,0.54164505,-0.28250186,0.500812,0.53748833,-0.27308683,0.500415
0.55299818,-0.34793746,0.453488,0.52358306,-0.34166669,0.46463,0.5220856,-0.35169823,0.441987,0.49048604,-0.31046007,0.424262,0.45380348,-0.30621909,0.420238,0.43684672,-0.31322351,0.427002,0.46486469,-0.34350333,0.457216,0.46275036,-0.31892808,0.452452,0.49628887,-0.32579948,0.466503,0.52710518,-0.33517826,0.473996,0.49350377,-0.33703728,0.475242,0.49478195,-0.31100062,0.479421,0.52525484,-0.30847918,0.481859,0.56433787,-0.32231517,0.494284,0.52064264,-0.33180395,0.488885,0.50470181,-0.30347439,0.487059,0.50197282,-0.28805728,0.486124,0.49742646,-0.27149208,0.485632,0.55611679,-0.3262597,0.502627,0.54475712,-0.29604979,0.500987,0.54187807,-0.2842899,0.500233,0.53969328,-0.27487306,0.499568
0.55368546,-0.3471463,0.453166,0.52372495,-0.34112255,0.464451,0.52306166,-0.35114355,0.441784,0.49021424,-0.30982754,0.424229,0.45340101,-0.30560431,0.420138,0.43636465,-0.31262763,0.426786,0.46530893,-0.34339865,0.457289,0.46321499,-0.3186683,0.452702,0.49637212,-0.32553563,0.466844,0.52739363,-0.33543056,0.474304,0.49369513,-0.336805,0.475199,0.49449765,-0.31081628,0.479526,0.52382645,-0.30744805,0.48205,0.56296613,-0.32099438,0.494581,0.52061055,-0.33144658,0.488732,0.50488054,-0.30317985,0.487067,0.50303039,-0.28786032,0.486215,0.50445872,-0.27334205,0.485441,0.55697832,-0.32563272,0.502318,0.54496655,-0.2958374,0.500804,0.54253902,-0.28470866,0.500108,0.54531499,-0.28043831,0.499494
0.55447304,-0.34664841,0.453416,0.52376485,-0.34068832,0.464674,0.52365183,-0.35055839,0.44177,0.48938801,-0.30881396,0.424003,0.45213437,-0.30431801,0.419491,0.43495246,-0.3112711,0.425946,0.46499556,-0.3429033,0.457151,0.46182847,-0.31732156,0.452454,0.49513293,-0.32427427,0.466261,0.52613684,-0.33429163,0.473629,0.49212125,-0.33621855,0.475397,0.4913157,-0.30894132,0.479763,0.51975916,-0.30413218,0.48231,0.55843918,-0.31666857,0.49459,0.51866217,-0.3312061,0.489209,0.50205599,-0.30178973,0.487483,0.50354808,-0.28753273,0.486599,0.50434975,-0.27306652,0.485883,0.55607153,-0.32560611,0.503124,0.54515403,-0.29597979,0.501602,0.542082,-0.28454006,0.500903,0.54250259,-0.27742952,0.500286
0.55406684,-0.34551822,0.452528,0.52305063,-0.33974227,0.463828,0.52356192,-0.34963122,0.441054,0.48920626,-0.30807589,0.423438,0.45194703,-0.30349609,0.418847,0.43454551,-0.31024044,0.425108,0.46460471,-0.34226983,0.456556,0.46237445,-0.31709766,0.451953,0.49545283,-0.32418145,0.46597,0.52724506,-0.33587782,0.473386,0.49291354,-0.33575114,0.474589,0.49355055,-0.30974624,0.478959,0.5196216,-0.30276223,0.481508,0.55838299,-0.31425568,0.493951,0.51977056,-0.33042286,0.488221,0.50316419,-0.30184239,0.486559,0.50307788,-0.28666116,0.485708,0.50556416,-0.27204168,0.484935,0.55653604,-0.32465783,0.501921,0.54414639,-0.29509285,0.500425,0.54283016,-0.28478175,0.499738,0.54584815,-0.28135552,0.499132
0.55533144,-0.3452876,0.453128,0.52373767,-0.33853394,0.463735,0.52432907,-0.34912357,0.441206,0.48953098,-0.30580479,0.422867,0.45174033,-0.29788491,0.415214,0.43176205,-0.30412472,0.420905,0.46399888,-0.33978905,0.455409,0.46067111,-0.31242866,0.449989,0.49354507,-0.32200957,0.463716,0.52498682,-0.33366179,0.471339,0.49238432,-0.33352835,0.473837,0.50030904,-0.30468474,0.477459,0.52894625,-0.29948947,0.479571,0.56811443,-0.31028726,0.491616,0.51940939,-0.32840518,0.487869,0.50593865,-0.29784318,0.485444,0.51491866,-0.28134016,0.484204,0.52647491,-0.26906461,0.483076,0.55781725,-0.32357474,0.502163,0.54554916,-0.2934438,0.500053,0.54357168,-0.28404143,0.499084,0.54479641,-0.27942903,0.498228
0.55573654,-0.34466003,0.453028,0.52387845,-0.33800786,0.463688,0.52471971,-0.34849415,0.441045,0.49244479,-0.30446963,0.422692,0.45323237,-0.3025766,0.41859,0.43529068,-0.30901291,0.424393,0.4641813,-0.3392526,0.455319,0.46164416,-0.31275441,0.449933,0.49700977,-0.32048713,0.463552,0.52646102,-0.33394896,0.471118,0.4927077,-0.33361064,0.473841,0.50091226,-0.30478616,0.477548,0.52967515,-0.29953325,0.47971,0.56881961,-0.31024237,0.491692,0.51970642,-0.32920312,0.487945,0.50889965,-0.29615158,0.485567,0.51672788,-0.28185057,0.484351,0.52998284,-0.27039581,0.483245,0.55811214,-0.32324106,0.502312,0.54604786,-0.29348731,0.500256,0.54444419,-0.28431199,0.499312,0.54950745,-0.28362191,0.498479
0.55556863,-0.34265194,0.451498,0.52290459,-0.33686968,0.462597,0.5247562,-0.34664269,0.439532,0.49215714,-0.30356548,0.421441,0.45373893,-0.29963482,0.415565,0.43438382,-0.30808815,0.422747,0.46367993,-0.33844003,0.454547,0.46204058,-0.31232692,0.449597,0.49736745,-0.32002701,0.463035,0.52656481,-0.33337387,0.470357,0.49226366,-0.33286198,0.473168,0.50122314,-0.30479941,0.477426,0.53039978,-0.29973071,0.47991,0.56960878,-0.31045445,0.491881,0.51924876,-0.32848634,0.487305,0.50910652,-0.29607798,0.485379,0.51760417,-0.28202643,0.484394,0.53167575,-0.27098441,0.483498,0.55759753,-0.32250584,0.501629,0.54592668,-0.29261714,0.499984,0.54580333,-0.28506393,0.499228,0.55054613,-0.28449822,0.498561
0.55581892,-0.34073292,0.450448,0.52211409,-0.33472719,0.461659,0.52525274,-0.34492582,0.438543,0.49286412,-0.30200055,0.420561,0.45408684,-0.29950432,0.415332,0.4348044,-0.30795159,0.422562,0.46312987,-0.33694426,0.453765,0.46376808,-0.3098939,0.448944,0.49802217,-0.31834917,0.462415,0.52654509,-0.33260467,0.4697,0.49164515,-0.33088142,0.472336,0.50069947,-0.30388152,0.476718,0.53054007,-0.29947603,0.479274,0.56977428,-0.31103634,0.4913,0.51871082,-0.32585805,0.48642,0.5085083,-0.29513255,0.484616,0.51727076,-0.28117529,0.483693,0.53167608,-0.2703113,0.482854,0.55669765,-0.32009967,0.500661,0.54588011,-0.28861016,0.499116,0.5449177,-0.28236573,0.498406,0.54793314,-0.28203187,0.497779
0.55548955,-0.33872491,0.449612,0.52131176,-0.33297655,0.460861,0.5251508,-0.34306747,0.437778,0.49213862,-0.30085149,0.419868,0.45348817,-0.29865,0.414626,0.43436999,-0.30717138,0.421797,0.46292586,-0.33475321,0.453085,0.46311283,-0.30881698,0.448322,0.4974246,-0.31725315,0.461874,0.52572719,-0.33093609,0.469168,0.49139501,-0.32867413,0.471575,0.49977179,-0.30266802,0.475984,0.52994597,-0.29862056,0.478556,0.56920309,-0.3106761,0.490651,0.51841478,-0.32363393,0.485588,0.5075225,-0.29390991,0.48383,0.51680647,-0.28015411,0.482931,0.53349468,-0.27003841,0.482114,0.55633361,-0.31783983,0.499739,0.54378041,-0.28383434,0.498223,0.54353382,-0.2792443,0.497527,0.54477455,-0.27840268,0.496912
0.55490195,-0.33724562,0.44899,0.52114565,-0.33151879,0.460234,0.52429435,-0.34136238,0.436942,0.49132423,-0.29960458,0.418878,0.45244872,-0.29526413,0.412502,0.43379976,-0.30351717,0.418497,0.46204824,-0.33154799,0.452177,0.4632038,-0.3055515,0.447348,0.49731261,-0.31362769,0.460599,0.52822159,-0.32903212,0.467799,0.49071008,-0.32657826,0.470944,0.4999653,-0.29944485,0.475414,0.5306008,-0.29763825,0.478021,0.56899223,-0.31010791,0.489897,0.51815363,-0.32273328,0.485186,0.5079092,-0.29085366,0.483403,0.51881936,-0.27757507,0.48249,0.53433662,-0.26935267,0.481661,0.55642889,-0.31723198,0.499603,0.54453049,-0.28310811,0.498104,0.54556319,-0.27642816,0.497415,0.54949245,-0.27752185,0.496858
0.55422704,-0.33576575,0.448269,0.52082798,-0.33083864,0.459892,0.52368087,-0.33987046,0.436284,0.4907439,-0.29879124,0.418484,0.45205824,-0.29475296,0.412411,0.43312534,-0.30404984,0.419318,0.46204907,-0.33103491,0.452173,0.46383048,-0.3052509,0.447736,0.49791307,-0.31329308,0.460891,0.52861925,-0.32854895,0.467898,0.49085091,-0.32607937,0.470961,0.50081941,-0.29922622,0.475894,0.53191297,-0.29771218,0.478772,0.57037832,-0.31053993,0.490682,0.51826723,-0.32227716,0.48518,0.50870705,-0.29060936,0.483794,0.52375929,-0.27722949,0.483084,0.54387527,-0.27082279,0.482439,0.55649044,-0.31679408,0.4995,0.54524283,-0.28292035,0.498353,0.54678215,-0.27674357,0.497826,0.55135993,-0.28128754,0.497627
0.55292051,-0.33399594,0.446989,0.52040433,-0.32933455,0.45924,0.52261762,-0.33814754,0.435247,0.49069042,-0.29633178,0.417986,0.45226816,-0.29379601,0.412971,0.43408922,-0.30174808,0.41901,0.46216753,-0.32951099,0.452265,0.46508196,-0.30400428,0.448522,0.49928644,-0.31213702,0.461713,0.53024717,-0.32780904,0.46846,0.4913815,-0.32471694,0.470908,0.503265,-0.29736082,0.476569,0.53520572,-0.29633522,0.479872,0.57247472,-0.31116089,0.49198,0.51878805,-0.32004321,0.484939,0.51121452,-0.28881712,0.484227,0.52765839,-0.27774232,0.483863,0.54983278,-0.27357029,0.483531,0.55692113,-0.31468775,0.498922,0.54749125,-0.28119514,0.498348,0.54979227,-0.27528233,0.498083,0.55447569,-0.27779503,0.498041
0.55282096,-0.33304418,0.446522,0.52031291,-0.3288792,0.459044,0.52248832,-0.3371166,0.434836,0.49033641,-0.29581595,0.417774,0.45208468,-0.29327692,0.412859,0.43403049,-0.30122419,0.418936,0.46237164,-0.32911841,0.452325,0.46570685,-0.30373518,0.448867,0.49986589,-0.31186552,0.461999,0.53058949,-0.32738887,0.468609,0.49167494,-0.32435052,0.47097,0.50402273,-0.29724384,0.476962,0.53672623,-0.29531361,0.480458,0.57344735,-0.31031678,0.492596,0.51915622,-0.31975656,0.484974,0.51199929,-0.28870309,0.484549,0.52864219,-0.27773537,0.484331,0.5509983,-0.27370276,0.484134,0.55730869,-0.31450327,0.498875,0.54818192,-0.28094464,0.498553,0.55060769,-0.27497886,0.498405,0.55550952,-0.27752648,0.498446
0.55161833,-0.33153621,0.445372,0.51973478,-0.32819622,0.458442,0.52135122,-0.33554224,0.433791,0.4895057,-0.2950994,0.41713,0.4505377,-0.28826104,0.411235,0.43053112,-0.28638628,0.4142,0.46237126,-0.32875957,0.452232,0.46639003,-0.30372861,0.449354,0.50042496,-0.31179174,0.462349,0.53080174,-0.32702864,0.468677,0.49175437,-0.32400292,0.47089,0.50481786,-0.29738403,0.477556,0.53745689,-0.29643159,0.481446,0.57552982,-0.31160656,0.493635,0.51925386,-0.31944999,0.484845,0.51274526,-0.28878919,0.485003,0.53028705,-0.27845928,0.485083,0.55337144,-0.27544406,0.485157,0.55730071,-0.31421088,0.498587,0.54871027,-0.2808525,0.49878,0.55139634,-0.27494588,0.498869,0.5566563,-0.2775755,0.499126
0.55123258,-0.33082181,0.444882,0.51971583,-0.32751093,0.458205,0.52096414,-0.33476164,0.433367,0.4891844,-0.29474445,0.416904,0.45039355,-0.28715455,0.41086,0.4304833,-0.28635447,0.414154,0.46246036,-0.32856695,0.452253,0.46682229,-0.3036872,0.449648,0.50082873,-0.31174153,0.462603,0.53105714,-0.32679314,0.468807,0.4918807,-0.32378633,0.470894,0.50525932,-0.29742496,0.477868,0.5381383,-0.29647424,0.481936,0.57635497,-0.3117517,0.494166,0.51939202,-0.31926017,0.484809,0.51317122,-0.2888062,0.485238,0.53119043,-0.27884962,0.485457,0.55466603,-0.27642473,0.485657,0.55738829,-0.31404465,0.498455,0.54901147,-0.28076507,0.498885,0.55181673,-0.27487137,0.499083,0.55726844,-0.27750713,0.499426
0.55133403,-0.33046133,0.444868,0.51989791,-0.32699245,0.458227,0.52106043,-0.33436259,0.433438,0.48916604,-0.29556376,0.417054,0.45111326,-0.29239332,0.4121,0.4333992,-0.29982193,0.41791,0.46267059,-0.32852433,0.452409,0.46713978,-0.30365163,0.449862,0.50127073,-0.31179034,0.462922,0.53168653,-0.32625338,0.469144,0.49203314,-0.3236536,0.470949,0.50541727,-0.29736153,0.477942,0.53833282,-0.29633164,0.48202,0.57714142,-0.31169153,0.494335,0.5194962,-0.31911066,0.484778,0.51187538,-0.28965135,0.485251,0.52997431,-0.27885621,0.485493,0.5545156,-0.27725946,0.485714,0.55741676,-0.31389315,0.498317,0.54901956,-0.28059691,0.498772,0.55183512,-0.27467787,0.498981,0.55735024,-0.27726817,0.499313
0.54989924,-0.32939465,0.443898,0.51909329,-0.32607566,0.457681,0.51974904,-0.33323847,0.432583,0.48797919,-0.29477385,0.416537,0.45013649,-0.29192743,0.411607,0.43196836,-0.29827527,0.417229,0.46233008,-0.32836006,0.452301,0.46738393,-0.30372677,0.450215,0.50149367,-0.31180736,0.463212,0.53178803,-0.32543842,0.469228,0.49168364,-0.32346031,0.470807,0.50515463,-0.29789945,0.478312,0.53895314,-0.29655228,0.48269,0.57829469,-0.31191413,0.495077,0.51906883,-0.31891364,0.484561,0.50985932,-0.29052556,0.48549,0.53105997,-0.27973037,0.485966,0.55695915,-0.28240051,0.487058,0.55679762,-0.31365954,0.497934,0.54788052,-0.28128998,0.498786,0.55179861,-0.27471082,0.499178,0.55727552,-0.27752185,0.499916
0.54747993,-0.32818208,0.442224,0.51673185,-0.32470758,0.455881,0.51669359,-0.33136296,0.430395,0.48090766,-0.2932931,0.413933,0.43996841,-0.28504399,0.40582,0.4207152,-0.28970651,0.4095,0.45936099,-0.32659821,0.449747,0.46438772,-0.301037,0.447405,0.49766376,-0.30781012,0.459689,0.52732439,-0.32180455,0.46552,0.48816675,-0.3230358,0.468888,0.5028759,-0.29656259,0.476411,0.53688616,-0.29466729,0.480799,0.57527264,-0.30955239,0.492637,0.51594018,-0.31908075,0.483178,0.50758488,-0.28890886,0.483944,0.52886165,-0.27919309,0.484336,0.56245429,-0.29022472,0.49436,0.55357788,-0.31925064,0.497198,0.54629806,-0.28138934,0.497999,0.55058298,-0.27456774,0.498368,0.55651722,-0.27680418,0.49903
0.54447521,-0.32658224,0.439964,0.5151824,-0.32381124,0.454677,0.51462306,-0.33007861,0.428912,0.47623593,-0.2929352,0.413617,0.43437355,-0.29219203,0.406797,0.41535238,-0.29950119,0.411132,0.45961846,-0.32658295,0.450271,0.46395533,-0.29974142,0.449202,0.49785839,-0.30651036,0.462058,0.52948453,-0.32154405,0.467615,0.48905189,-0.32168149,0.468689,0.50392372,-0.29647165,0.477324,0.53760278,-0.29378122,0.482361,0.57790304,-0.31020259,0.4949,0.51639549,-0.31755454,0.482271,0.5074475,-0.2884586,0.484208,0.52964244,-0.28001529,0.485199,0.56370826,-0.29433241,0.495978,0.55212565,-0.31402903,0.49527,0.54621964,-0.28030378,0.496999,0.54969242,-0.27431012,0.497793,0.55629626,-0.27633367,0.498494
0.54333605,-0.32609257,0.439274,0.51436938,-0.32349651,0.454211,0.51336124,-0.3293474,0.428142,0.47544491,-0.29316726,0.412935,0.43474698,-0.29173289,0.405805,0.41551738,-0.29865293,0.410052,0.45884574,-0.32608312,0.449853,0.46356481,-0.29913011,0.448993,0.49715588,-0.30558058,0.461598,0.52843633,-0.32052434,0.466972,0.48852903,-0.32152807,0.468437,0.50379975,-0.29605225,0.477394,0.53757335,-0.29352475,0.482619,0.57772454,-0.30959263,0.495038,0.51604716,-0.31767076,0.48213,0.50662984,-0.28819492,0.4843,0.52974492,-0.28039691,0.485411,0.56371063,-0.29496264,0.496053,0.55178635,-0.31487435,0.495216,0.54630376,-0.28052153,0.497176,0.54993991,-0.27443249,0.498077,0.55670007,-0.27648168,0.498881
0.54068925,-0.32497735,0.437376,0.51205177,-0.32251431,0.452457,0.5103208,-0.3277342,0.425943,0.47161682,-0.29288485,0.410638,0.4313053,-0.28936727,0.402693,0.41148602,-0.2949164,0.406414,0.45425974,-0.32503847,0.447806,0.46071024,-0.29688805,0.447025,0.49421556,-0.30376003,0.459067,0.52493958,-0.31846817,0.464185,0.48456432,-0.32188913,0.466819,0.50215689,-0.29486125,0.476079,0.53599481,-0.29258363,0.481481,0.57532671,-0.30749544,0.493535,0.51235589,-0.31997646,0.480852,0.50451177,-0.28747187,0.483164,0.52845529,-0.28000085,0.484348,0.56353676,-0.29035691,0.494586,0.55046532,-0.31705242,0.494304,0.54355762,-0.28320652,0.496456,0.54912581,-0.27411389,0.497444,0.55639919,-0.27609341,0.498806
0.53384586,-0.32185523,0.432444,0.5048112,-0.32173034,0.448632,0.50369527,-0.32430797,0.421124,0.46482763,-0.29033926,0.40662,0.42359276,-0.28457121,0.397943,0.40253888,-0.28701588,0.400675,0.44805509,-0.32418676,0.444877,0.45770321,-0.29507087,0.445287,0.49032352,-0.30108712,0.456769,0.51805766,-0.31340948,0.461194,0.48012818,-0.32223732,0.464048,0.49832818,-0.29336283,0.474755,0.53400144,-0.29147838,0.481001,0.57360692,-0.30663669,0.492957,0.50853735,-0.32053698,0.478091,0.50193844,-0.28706647,0.481619,0.52542192,-0.28092919,0.483424,0.56046988,-0.29183183,0.493539,0.54655501,-0.3197958,0.491347,0.54142772,-0.28480931,0.494602,0.54550645,-0.27584257,0.496097,0.55431535,-0.27574331,0.497416
0.53166899,-0.32153816,0.431287,0.50305652,-0.32152179,0.447576,0.50122265,-0.32353508,0.419751,0.46260289,-0.28921155,0.4052,0.4217983,-0.28335997,0.396818,0.40091414,-0.28577516,0.399667,0.44606244,-0.32354156,0.44361,0.45582251,-0.29418061,0.444094,0.48800209,-0.29986775,0.45512,0.51532359,-0.31222196,0.459334,0.47773931,-0.32264144,0.463089,0.49117529,-0.29232446,0.474031,0.52000334,-0.28537347,0.480414,0.5576338,-0.29756459,0.492071,0.50665861,-0.32172793,0.477374,0.50095668,-0.28706536,0.48102,0.52440262,-0.28079328,0.482886,0.55906565,-0.29144249,0.492674,0.54460995,-0.32205586,0.490893,0.54061093,-0.28543956,0.494302,0.54497593,-0.27544648,0.495869,0.55324984,-0.27546683,0.497251
0.52488659,-0.31898326,0.426763,0.4957803,-0.32233769,0.444715,0.49331731,-0.32129806,0.415762,0.45686307,-0.28695293,0.402671,0.41376069,-0.27796416,0.395083,0.3968856,-0.28245086,0.398764,0.44223,-0.32228683,0.442575,0.45305779,-0.29319465,0.444949,0.48459318,-0.29865407,0.455661,0.51013839,-0.31185518,0.459003,0.47425624,-0.32217456,0.461812,0.48809114,-0.29092105,0.474811,0.52174735,-0.28579291,0.482394,0.55947624,-0.29870587,0.494284,0.50320811,-0.32188344,0.475718,0.50090876,-0.28729795,0.481224,0.52535753,-0.28155035,0.484041,0.56031955,-0.29244786,0.494067,0.54152061,-0.32129776,0.488486,0.53923194,-0.28773381,0.493514,0.54464594,-0.27630162,0.495825,0.55336738,-0.2759105,0.497915
0.51238492,-0.31425817,0.418406,0.48953382,-0.31888108,0.439405,0.47987171,-0.31765358,0.408743,0.44415158,-0.28015874,0.398617,0.40473795,-0.27259127,0.393304,0.38974759,-0.27690867,0.398404,0.44021925,-0.32115498,0.441076,0.45154244,-0.29184051,0.447045,0.48159786,-0.29660217,0.457615,0.50455254,-0.30895288,0.459482,0.47200343,-0.32102233,0.459404,0.48887213,-0.29148294,0.47609,0.52397705,-0.28704861,0.485824,0.56226547,-0.30020194,0.498454,0.50030159,-0.32049295,0.472233,0.50084078,-0.28759974,0.481207,0.5262037,-0.28233424,0.485798,0.56144436,-0.29204887,0.496614,0.53717179,-0.32010009,0.483177,0.53974025,-0.28926004,0.491164,0.54444901,-0.27915595,0.494834,0.55306009,-0.27623938,0.498072
0.50941432,-0.31317898,0.416409,0.48776042,-0.31814968,0.437985,0.47714292,-0.31629939,0.407006,0.44309435,-0.27940636,0.397462,0.40465143,-0.27244915,0.392989,0.38891813,-0.27647758,0.398633,0.43920365,-0.3207226,0.440388,0.45101936,-0.29172913,0.447052,0.48068134,-0.29613224,0.457571,0.5032086,-0.30808948,0.459144,0.47118964,-0.32082321,0.458535,0.48840595,-0.29134952,0.475931,0.52352786,-0.28685457,0.486079,0.56177669,-0.29994355,0.498832,0.49954948,-0.32042963,0.471152,0.50033936,-0.28763779,0.480796,0.52523605,-0.28248793,0.48573,0.55994699,-0.29152528,0.49668,0.53645519,-0.32011754,0.481742,0.53947327,-0.28952948,0.490302,0.54413116,-0.27914714,0.494235,0.55206064,-0.27608357,0.497705
0.50730017,-0.3128046,0.415246,0.48628562,-0.31762794,0.437142,0.47503987,-0.31558115,0.405974,0.44248645,-0.27886583,0.396747,0.40478573,-0.2716113,0.392691,0.38690277,-0.27400854,0.398484,0.43665545,-0.31919638,0.439932,0.45091876,-0.29088187,0.44698,0.4805856,-0.2953573,0.457441,0.50278247,-0.30739145,0.458839,0.47029038,-0.32024763,0.457996,0.48837793,-0.29070089,0.475793,0.5238235,-0.28644903,0.486174,0.56203786,-0.29976427,0.498975,0.49873631,-0.32011462,0.470511,0.49988583,-0.28769611,0.480527,0.52543386,-0.28234705,0.485651,0.56000641,-0.29160264,0.496653,0.53558663,-0.32005761,0.480921,0.5393213,-0.28944848,0.489803,0.54427432,-0.27902366,0.493884,0.5517454,-0.27596376,0.497485
0.50542839,-0.31309096,0.414102,0.48555005,-0.31783683,0.436218,0.47376816,-0.31413951,0.403684,0.44784294,-0.279465,0.39426,0.41247109,-0.27161951,0.393939,0.39870693,-0.28132198,0.40249,0.43660421,-0.31942606,0.437665,0.45042736,-0.29124626,0.44498,0.47532532,-0.29203364,0.45263,0.49595208,-0.30295613,0.452799,0.47059707,-0.32210706,0.457281,0.46761461,-0.29495429,0.476127,0.49237396,-0.28229617,0.48712,0.52483702,-0.29410697,0.497977,0.50127015,-0.32465627,0.47105,0.4932608,-0.32841419,0.494587,0.50561251,-0.31722919,0.506628,0.53241296,-0.32317634,0.519504,0.53995745,-0.33000801,0.482876,0.54424422,-0.29858628,0.492482,0.54889897,-0.28258744,0.496895,0.55586995,-0.27808073,0.501278
0.50075528,-0.31464719,0.412649,0.48263616,-0.31716825,0.435636,0.46915494,-0.31457875,0.403051,0.44056493,-0.27249489,0.394612,0.40823272,-0.26631018,0.395374,0.39455731,-0.27434368,0.404432,0.43263436,-0.31526284,0.438742,0.44899132,-0.28664821,0.447077,0.47321484,-0.28609764,0.455685,0.49699785,-0.30289372,0.455835,0.46729267,-0.31839549,0.457529,0.46695196,-0.28526965,0.477149,0.49337668,-0.27392433,0.488593,0.52668669,-0.29169319,0.500374,0.49839936,-0.32014506,0.470522,0.49008554,-0.31705847,0.493634,0.50365902,-0.30579011,0.505458,0.53068875,-0.31307006,0.518919,0.53622722,-0.32172159,0.481283,0.54165539,-0.29074592,0.49155,0.54661901,-0.27934596,0.496267,0.55531659,-0.27692761,0.500644
0.49387456,-0.31409269,0.40975,0.47420346,-0.31542571,0.434106,0.46187088,-0.31199327,0.400698,0.43339572,-0.26925282,0.393691,0.40213904,-0.25897509,0.394634,0.3884755,-0.26414215,0.403615,0.42550368,-0.30614602,0.438854,0.44634552,-0.27776358,0.448895,0.4714864,-0.27981858,0.457056,0.49027285,-0.29553683,0.456354,0.46167548,-0.31206568,0.457302,0.4704726,-0.27858297,0.478711,0.49945778,-0.26863077,0.4912,0.52967562,-0.286763,0.503043,0.49465088,-0.31838451,0.469869,0.49222937,-0.3155443,0.495129,0.50974908,-0.30226838,0.508052,0.53497816,-0.31255903,0.521741,0.53253927,-0.32099137,0.479877,0.54358012,-0.29182846,0.491593,0.55065545,-0.28095798,0.497012,0.55896519,-0.2764874,0.501974
0.49381628,-0.31489247,0.412415,0.47301328,-0.31286591,0.438189,0.45348865,-0.30863093,0.404288,0.4351907,-0.26169324,0.398904,0.40752475,-0.25332722,0.402431,0.39528018,-0.26063175,0.413304,0.42942416,-0.2968973,0.445103,0.454591,-0.263621,0.456927,0.47371966,-0.24815861,0.465381,0.49535733,-0.24674258,0.464092,0.46243069,-0.30674246,0.462736,0.47869177,-0.27252252,0.485793,0.51493746,-0.26299718,0.499243,0.5481353,-0.2789663,0.51169,0.49066507,-0.31502042,0.474478,0.48960573,-0.31213522,0.500622,0.51319627,-0.30335705,0.513998,0.53884871,-0.30950839,0.525436,0.52534987,-0.32497313,0.483263,0.54761331,-0.29613666,0.496351,0.55841043,-0.28437941,0.502364,0.57092248,-0.27778678,0.50767
0.49126086,-0.31358058,0.412664,0.47190291,-0.3074025,0.439699,0.4533766,-0.29942536,0.404955,0.43527787,-0.25704887,0.400958,0.40919558,-0.25228227,0.405113,0.3971883,-0.26006059,0.416245,0.4313681,-0.29756375,0.448014,0.45746377,-0.26450551,0.461485,0.47029426,-0.24515349,0.469118,0.48944048,-0.23749855,0.466852,0.46405784,-0.30774027,0.465446,0.4825361,-0.27436561,0.490288,0.52018875,-0.26525183,0.504779,0.55319506,-0.28107649,0.516995,0.49192724,-0.31607043,0.476888,0.49204083,-0.31570099,0.504767,0.51368075,-0.30466027,0.519031,0.54020154,-0.30929917,0.530157,0.52598488,-0.3256831,0.485086,0.54755384,-0.29851251,0.499624,0.56011164,-0.28619769,0.506304,0.57304327,-0.27943309,0.512197
0.4820032,-0.3118796,0.414983,0.47291489,-0.30771748,0.442347,0.45333395,-0.30017247,0.407557,0.43755723,-0.25851092,0.403968,0.41180338,-0.2493749,0.408895,0.39965058,-0.25161324,0.419984,0.4319629,-0.28942936,0.451256,0.46391076,-0.25817943,0.465148,0.48200166,-0.24157911,0.472984,0.49764219,-0.2380993,0.470633,0.4649986,-0.30168434,0.468409,0.49226837,-0.26809426,0.493598,0.53271798,-0.26213403,0.508292,0.55953363,-0.28227478,0.520746,0.49313361,-0.31470633,0.479585,0.49665352,-0.30920533,0.507448,0.52094281,-0.29895652,0.521704,0.54672074,-0.30812046,0.533352,0.52770846,-0.32644981,0.487414,0.55146227,-0.29978024,0.50225,0.56718717,-0.28786722,0.509066,0.57882367,-0.28131171,0.515434
0.47404273,-0.31106772,0.422414,0.46335563,-0.3065912,0.450934,0.44742664,-0.29945833,0.415153,0.43198737,-0.25720339,0.412923,0.40627036,-0.24447276,0.416825,0.39427159,-0.24871111,0.42786,0.42899952,-0.2891817,0.460842,0.4680983,-0.26142637,0.47637,0.48995945,-0.24624164,0.482605,0.50481506,-0.24182633,0.478968,0.46193603,-0.30513351,0.478097,0.50361893,-0.2746203,0.505196,0.54503656,-0.26849742,0.521004,0.5721692,-0.28774707,0.532645,0.48936938,-0.31847665,0.489232,0.52592367,-0.28969137,0.507602,0.55155449,-0.2786285,0.517001,0.57974118,-0.27634375,0.526848,0.521808,-0.33437872,0.496795,0.56127251,-0.35348383,0.532184,0.57955122,-0.3623467,0.54858,0.60306268,-0.36015912,0.563047
0.46257928,-0.30673849,0.424293,0.461038,-0.29926009,0.453865,0.43802379,-0.29303578,0.418044,0.43251182,-0.25526614,0.424068,0.42129208,-0.23168071,0.430727,0.42051124,-0.22068724,0.44083,0.43321225,-0.27734363,0.465804,0.4800929,-0.25393848,0.482661,0.50406071,-0.24035105,0.489823,0.51451013,-0.24280546,0.486033,0.46464438,-0.29549425,0.482028,0.50121651,-0.265572,0.510153,0.5443608,-0.26116346,0.52656,0.57646749,-0.27344568,0.539156,0.49025052,-0.31093241,0.492201,0.54213673,-0.29084093,0.511755,0.57378523,-0.28289502,0.521758,0.60978736,-0.2857549,0.532641,0.51952697,-0.32975698,0.498451,0.55847135,-0.34808185,0.53297,0.57670747,-0.3563827,0.548965,0.60233915,-0.35757706,0.563078
0.50177373,-0.33404591,0.479914,0.49941765,-0.31247004,0.49855,0.47430781,-0.31524738,0.46847,0.46748288,-0.27293826,0.461453,0.46352576,-0.23700768,0.454993,0.46534207,-0.21666097,0.456675,0.4635824,-0.27520078,0.496297,0.50352897,-0.25656408,0.499421,0.53323388,-0.25003107,0.508601,0.55605336,-0.24598169,0.511035,0.4978415,-0.29297934,0.516297,0.55206035,-0.27188931,0.530526,0.58950752,-0.26684644,0.538825,0.6215971,-0.27775294,0.549808,0.52643407,-0.30989466,0.530759,0.57349476,-0.2952281,0.537123,0.60017577,-0.28874988,0.540379,0.63318154,-0.28693952,0.549424,0.56034951,-0.33364216,0.544042,0.59725448,-0.34303263,0.573847,0.61448921,-0.34755158,0.58783,0.6399233,-0.34572013,0.600169
0.53899196,-0.3670255,0.537052,0.52578037,-0.32323822,0.535274,0.50762479,-0.34864743,0.520068,0.49253787,-0.30359785,0.505191,0.47754942,-0.26695243,0.494507,0.48577254,-0.24601682,0.489532,0.47717351,-0.27188572,0.511945,0.49594559,-0.24659799,0.493591,0.52351302,-0.24362426,0.500234,0.55657576,-0.24413781,0.5124,0.51360928,-0.28306762,0.533581,0.54511345,-0.25931788,0.523806,0.56534273,-0.24462369,0.518104,0.5907183,-0.26277586,0.524388,0.54522717,-0.29677575,0.551588,0.57072333,-0.28810862,0.536634,0.58618827,-0.28315977,0.528983,0.6130918,-0.28240487,0.533386,0.58477062,-0.3207782,0.572825,0.60547092,-0.29391671,0.560321,0.60852218,-0.29550647,0.554576,0.61388435,-0.30658032,0.557843
0.53868211,-0.36790991,0.538045,0.52561756,-0.32419691,0.536407,0.50772725,-0.3495563,0.521745,0.48582969,-0.30455041,0.506415,0.46597819,-0.26824408,0.494932,0.47096493,-0.24529359,0.489464,0.4777249,-0.27301178,0.514062,0.49633881,-0.24716355,0.495935,0.51838056,-0.23954208,0.498429,0.55246816,-0.24155077,0.510584,0.51362251,-0.28423644,0.534846,0.54544565,-0.26832988,0.52492,0.56675722,-0.25709261,0.51913,0.58708115,-0.27638743,0.526315,0.54475549,-0.29795316,0.552137,0.56993393,-0.28864916,0.53729,0.58537854,-0.28358261,0.529693,0.61142873,-0.28660876,0.53507,0.58368845,-0.3219087,0.572516,0.60405214,-0.29472774,0.559963,0.60608863,-0.29656642,0.554196,0.61068034,-0.30837131,0.558161
0.53641852,-0.36782638,0.537279,0.52921283,-0.32729676,0.540478,0.50756503,-0.34988886,0.523099,0.48866122,-0.30498867,0.509727,0.47087405,-0.26855249,0.499451,0.47726077,-0.24642813,0.494729,0.48866849,-0.27783732,0.52418,0.51201607,-0.25339218,0.511029,0.53206445,-0.24420439,0.511617,0.56287941,-0.24361445,0.523338,0.52399737,-0.2920028,0.543524,0.56011404,-0.27577768,0.538659,0.58460778,-0.26635838,0.535821,0.60872711,-0.28705224,0.545637,0.55381108,-0.30780493,0.559109,0.58336196,-0.29734012,0.549055,0.60019068,-0.29369994,0.543911,0.6302656,-0.29691495,0.551998,0.58971881,-0.33358439,0.576598,0.61484396,-0.30911551,0.567966,0.61509603,-0.31218544,0.563999,0.6163267,-0.32530459,0.57002
0.51210101,-0.35843204,0.535106,0.52867125,-0.32679792,0.541731,0.48817843,-0.33488984,0.52365,0.48106602,-0.29071575,0.510965,0.47610729,-0.25337423,0.500074,0.48086756,-0.23074151,0.496713,0.50042511,-0.2714066,0.531308,0.52702629,-0.25115201,0.522282,0.5559325,-0.24902111,0.531161,0.58958491,-0.25378488,0.545785,0.53401134,-0.29108342,0.548041,0.5744572,-0.27113337,0.546651,0.60042263,-0.25840645,0.545841,0.62608617,-0.27368303,0.55827,0.56077567,-0.31104728,0.561106,0.59064865,-0.30306864,0.55481,0.60917458,-0.2982005,0.551589,0.64364054,-0.30079484,0.562485,0.59023584,-0.34101503,0.575026,0.62272473,-0.32417124,0.569315,0.62100805,-0.32531444,0.566692,0.61917286,-0.33204359,0.574796
0.51083492,-0.35655851,0.534842,0.52763557,-0.32481619,0.542044,0.4888411,-0.33406755,0.525427,0.48242404,-0.29023327,0.513342,0.477534,-0.25287777,0.502425,0.48265153,-0.23030974,0.49805,0.50500159,-0.27204158,0.534671,0.53117301,-0.24474702,0.527088,0.54520068,-0.23291299,0.523297,0.57576556,-0.23230121,0.535209,0.53666662,-0.29081916,0.548903,0.57677364,-0.27122258,0.547928,0.60260608,-0.2586587,0.547359,0.62901137,-0.2745151,0.561255,0.56156488,-0.30991295,0.559847,0.59165022,-0.30275845,0.554626,0.61001488,-0.29842076,0.551956,0.64586949,-0.30208285,0.564533,0.58840214,-0.33862137,0.571195,0.62162985,-0.32288288,0.566134,0.62004076,-0.32376176,0.563809,0.61796956,-0.33217467,0.57312
0.51136571,-0.35657328,0.536104,0.52692118,-0.32403001,0.543523,0.48977326,-0.33414774,0.527062,0.48465154,-0.29077658,0.516179,0.48124217,-0.25290878,0.507275,0.48651119,-0.23139469,0.501955,0.50730753,-0.27275221,0.536784,0.5334941,-0.24588712,0.529581,0.54780833,-0.2340772,0.52598,0.57876294,-0.23352664,0.538191,0.53866685,-0.29156137,0.550589,0.57885953,-0.27205755,0.549839,0.60476027,-0.25953473,0.549402,0.63114745,-0.2753784,0.563545,0.56322914,-0.3106417,0.561158,0.59373082,-0.30359299,0.556256,0.61198979,-0.30002356,0.553748,0.64799042,-0.30332213,0.566607,0.5895318,-0.33926386,0.572031,0.62402003,-0.32493288,0.567201,0.6246005,-0.32465434,0.564982,0.62353313,-0.33459946,0.574498
0.51005706,-0.35692811,0.536519,0.52613366,-0.32398747,0.543689,0.48940815,-0.33474652,0.528077,0.48560673,-0.29171465,0.517316,0.48194558,-0.25433977,0.508653,0.48727022,-0.23235459,0.503723,0.50826599,-0.27319715,0.537562,0.53465465,-0.24684333,0.530443,0.54919728,-0.23512327,0.526884,0.58085198,-0.23485634,0.539525,0.53859335,-0.29179826,0.550518,0.5773416,-0.26588646,0.549436,0.59591929,-0.27469005,0.548804,0.60853876,-0.30178408,0.563263,0.56219221,-0.31068384,0.560414,0.5928243,-0.30356928,0.555468,0.61092245,-0.29996686,0.552938,0.64644964,-0.30470145,0.566189,0.58720639,-0.33903196,0.570553,0.61769634,-0.32836541,0.565597,0.620944,-0.3246163,0.56332,0.64294982,-0.33247932,0.573107
0.51000441,-0.35798312,0.537537,0.52494203,-0.32366808,0.544385,0.48945444,-0.33562674,0.528988,0.48616013,-0.29259975,0.518031,0.48214823,-0.25540248,0.509297,0.48751654,-0.23317988,0.504687,0.50858842,-0.27374545,0.537899,0.53460937,-0.24749317,0.530436,0.54903684,-0.2357089,0.526704,0.58067335,-0.23543192,0.539249,0.53883571,-0.29251456,0.550906,0.57794697,-0.26907309,0.549451,0.5953375,-0.27523387,0.548602,0.60794551,-0.30225571,0.562965,0.56235373,-0.31155723,0.560879,0.59281313,-0.30414447,0.555595,0.61065408,-0.30040264,0.552891,0.64602889,-0.30504896,0.566046,0.58644372,-0.34053008,0.571168,0.61772942,-0.32927,0.565922,0.62173542,-0.32562709,0.563512,0.64280142,-0.33316657,0.573222
0.51236546,-0.3598884,0.540259,0.52773376,-0.32565925,0.545754,0.49210469,-0.33758228,0.531998,0.48756508,-0.29373363,0.519334,0.48216087,-0.25664656,0.508159,0.48770695,-0.23360777,0.504031,0.5157203,-0.27476742,0.538725,0.53520619,-0.24776502,0.530216,0.5488987,-0.23583471,0.525962,0.58044804,-0.2357102,0.538606,0.54603741,-0.2936271,0.550987,0.57890964,-0.27102357,0.547945,0.59462091,-0.28391721,0.54617,0.60345643,-0.31190986,0.560511,0.56932803,-0.31286674,0.560493,0.59254894,-0.3038678,0.554045,0.60881292,-0.29968305,0.550747,0.6438621,-0.30441341,0.563958,0.590549,-0.33952577,0.570493,0.61796044,-0.32858435,0.564164,0.62224504,-0.32699161,0.561255,0.64013252,-0.33274781,0.570969
