sluyters/QuantumLeap/backend/src/datasets/gesture/HandGestureDataset_SHREC2017_csv/Gesture8/finger_2/subject_4_essai_4_skeletons_world.csv
Wrist_x,Wrist_y,Wrist_z,Palm_x,Palm_y,Palm_z,thumb_base_x,thumb_base_y,thumb_base_z,thumb_first_joint_x,thumb_first_joint_y,thumb_first_joint_z,thumb_second_joint_x,thumb_second_joint_y,thumb_second_joint_z,thumb_tip_x,thumb_tip_y,thumb_tip_z,index_base_x,index_base_y,index_base_z,index_first_joint_x,index_first_joint_y,index_first_joint_z,index_second_joint_x,index_second_joint_y,index_second_joint_z,index_tip_x,index_tip_y,index_tip_z,middle_base_x,middle_base_y,middle_base_z,middle_first_joint_x,middle_first_joint_y,middle_first_joint_z,middle_second_joint_x,middle_second_joint_y,middle_second_joint_z,middle_tip_x,middle_tip_y,middle_tip_z,ring_base_x,ring_base_y,ring_base_z,ring_first_joint_x,ring_first_joint_y,ring_first_joint_z,ring_second_joint_x,ring_second_joint_y,ring_second_joint_z,ring_tip_x,ring_tip_y,ring_tip_z,pinky_base_x,pinky_base_y,pinky_base_z,pinky_first_joint_x,pinky_first_joint_y,pinky_first_joint_z,pinky_second_joint_x,pinky_second_joint_y,pinky_second_joint_z,pinky_tip_x,pinky_tip_y,pinky_tip_z,
0.55616279,-0.39375355,0.669728,0.53914407,-0.33769148,0.644051,0.52779255,-0.37178754,0.660006,0.50041711,-0.3370758,0.634797,0.47396584,-0.3028581,0.609826,0.45795943,-0.28013834,0.592206,0.4949505,-0.26266545,0.609003,0.47757899,-0.22279687,0.580211,0.47060636,-0.20378415,0.565814,0.47702255,-0.19244369,0.569557,0.52135062,-0.26808091,0.61094,0.49384459,-0.25177392,0.579752,0.50391199,-0.27757966,0.597497,0.51538349,-0.30313187,0.614349,0.54455401,-0.27657846,0.614506,0.51841403,-0.26627407,0.584861,0.49550959,-0.27342685,0.569694,0.4929363,-0.29295113,0.573849,0.57518207,-0.29473027,0.622587,0.54384991,-0.28655354,0.595371,0.54412801,-0.30055353,0.606656,0.54581604,-0.31815944,0.62061
0.55060467,-0.38908052,0.662622,0.54589142,-0.33539738,0.642611,0.5276145,-0.37028953,0.658933,0.50473596,-0.32793593,0.641803,0.47473747,-0.2941509,0.618403,0.46155647,-0.2688838,0.603936,0.51584473,-0.26268727,0.620035,0.49879885,-0.22336483,0.597361,0.48920127,-0.20619453,0.586025,0.48216981,-0.19351599,0.577226,0.53732323,-0.26804091,0.616807,0.52155633,-0.21766616,0.591381,0.52264102,-0.20383482,0.59332,0.53303827,-0.21592328,0.608848,0.55575627,-0.27628574,0.615689,0.52738179,-0.26956464,0.592825,0.51033434,-0.27546481,0.581128,0.50601604,-0.2994333,0.588568,0.57655043,-0.29323145,0.617326,0.54758519,-0.28409462,0.595648,0.54634364,-0.30133609,0.608555,0.54724048,-0.31842292,0.62119
0.55483124,-0.39135166,0.667912,0.55285239,-0.33461019,0.645029,0.53356464,-0.36708441,0.662484,0.51211617,-0.32551685,0.642929,0.48085879,-0.28459883,0.620857,0.46959849,-0.25722441,0.610067,0.5400142,-0.26183222,0.617739,0.52799087,-0.22395949,0.592407,0.52104821,-0.20680024,0.579741,0.52390602,-0.19470695,0.578414,0.55924416,-0.2739715,0.615521,0.54094276,-0.24435921,0.587393,0.52395119,-0.2397656,0.570985,0.52407163,-0.2502578,0.576133,0.57509543,-0.28755212,0.615454,0.54647247,-0.27827417,0.589814,0.52662756,-0.27853144,0.576695,0.51772974,-0.29495678,0.582708,0.59421834,-0.31097939,0.618777,0.56428947,-0.29380759,0.594775,0.57233379,-0.29722155,0.606931,0.58144308,-0.30121502,0.620091
0.54163107,-0.36984068,0.654806,0.56537253,-0.32779696,0.642651,0.54086194,-0.33884671,0.656089,0.51843159,-0.30661672,0.646292,0.4930148,-0.27893296,0.631263,0.48232268,-0.2536742,0.619289,0.58514712,-0.27134965,0.633233,0.56632522,-0.24911064,0.620197,0.556731,-0.23754077,0.613679,0.56260182,-0.23281988,0.624072,0.59489076,-0.28513072,0.626978,0.59057675,-0.24904022,0.609291,0.56473412,-0.24482491,0.598974,0.55834401,-0.26053506,0.608327,0.60141939,-0.29921859,0.622765,0.57419976,-0.28312365,0.607909,0.55437333,-0.28212697,0.600309,0.54899444,-0.30081819,0.611069,0.60615332,-0.3214625,0.619536,0.58032048,-0.29842463,0.604626,0.56711992,-0.29048116,0.597776,0.56785039,-0.29198665,0.605329
0.54719839,-0.37733857,0.659617,0.57454771,-0.33346652,0.643292,0.55071057,-0.34311984,0.66244,0.53230585,-0.30663515,0.654804,0.53106228,-0.27645835,0.655981,0.54341205,-0.26117343,0.661136,0.60074058,-0.28088683,0.631981,0.5788397,-0.25454116,0.617969,0.56769806,-0.24092006,0.610963,0.57123303,-0.23389518,0.619546,0.60387128,-0.29343962,0.62224,0.58272792,-0.25747466,0.6017,0.57036756,-0.23594163,0.589717,0.57662528,-0.22620517,0.596785,0.60492581,-0.30633465,0.615481,0.57433243,-0.28550776,0.599006,0.55094769,-0.28865509,0.590578,0.54551439,-0.30819376,0.599219,0.60307586,-0.32682285,0.609828,0.5769891,-0.29606145,0.593457,0.55915469,-0.2955955,0.585936,0.55505946,-0.30159561,0.591819
0.57294888,-0.37423341,0.652746,0.57793669,-0.3270262,0.627211,0.5642502,-0.34757009,0.649974,0.53846965,-0.30709361,0.634275,0.51338403,-0.26819331,0.61684,0.50452871,-0.24142656,0.605985,0.57042007,-0.25535738,0.600763,0.55074743,-0.21974221,0.574573,0.54095069,-0.20174826,0.561478,0.54711659,-0.19050927,0.565115,0.58249461,-0.26838189,0.594285,0.56031458,-0.22987119,0.564883,0.5474393,-0.20716779,0.547732,0.53827545,-0.19082931,0.535482,0.59235591,-0.28265006,0.590917,0.57255147,-0.24141333,0.565339,0.5624513,-0.22015723,0.552253,0.55070554,-0.20406968,0.540357,0.60397751,-0.30675092,0.590687,0.55679424,-0.28999477,0.566653,0.53249993,-0.28138532,0.55561,0.52510885,-0.2834262,0.558234
0.57066866,-0.37257082,0.651219,0.57314762,-0.3247932,0.621719,0.56183286,-0.34481138,0.646877,0.5352337,-0.30307261,0.629267,0.51053264,-0.26454353,0.611463,0.50144859,-0.23754016,0.599506,0.5657824,-0.25262865,0.589774,0.54055609,-0.2189263,0.560558,0.52795879,-0.20194751,0.545949,0.52963608,-0.19255519,0.547359,0.57618601,-0.26766684,0.583679,0.5499638,-0.23040367,0.550967,0.53470919,-0.20851816,0.531886,0.52383325,-0.19280855,0.518256,0.58477281,-0.28356581,0.58093,0.56096971,-0.24409218,0.552206,0.54881719,-0.22376768,0.53751,0.53659528,-0.20642685,0.52415,0.59504407,-0.30956159,0.58203,0.54356244,-0.29102328,0.555396,0.52006584,-0.28255564,0.543158,0.51109426,-0.27784614,0.543952
0.56335198,-0.36778258,0.64168,0.56700253,-0.32274338,0.61175,0.55961163,-0.34221678,0.641181,0.54988435,-0.29821616,0.629885,0.5283314,-0.26182969,0.616562,0.52002611,-0.2353234,0.605218,0.57192204,-0.25632726,0.584099,0.55131235,-0.21671062,0.557926,0.54102731,-0.1967943,0.54484,0.53168898,-0.178619,0.532943,0.57382181,-0.270228,0.573156,0.55115433,-0.22791039,0.541811,0.53795824,-0.20313937,0.523526,0.52854704,-0.18540242,0.510466,0.57524293,-0.28496395,0.566452,0.55296647,-0.24336504,0.540418,0.54051687,-0.22258046,0.527098,0.5265128,-0.20441302,0.514988,0.57666407,-0.30911758,0.562888,0.52343733,-0.28699293,0.538579,0.49928286,-0.2769692,0.527409,0.4866033,-0.27318399,0.526967
0.56631369,-0.36750657,0.637026,0.56643221,-0.32492047,0.605199,0.56673419,-0.34277294,0.635863,0.55184715,-0.30464806,0.625993,0.53505781,-0.26704972,0.614742,0.53095382,-0.24164141,0.606318,0.5542414,-0.25840729,0.575025,0.54302208,-0.21706892,0.546458,0.53364638,-0.19747321,0.532175,0.52514042,-0.17960704,0.51919,0.55715387,-0.27297516,0.564159,0.54385826,-0.2261661,0.532984,0.5321995,-0.20133813,0.514799,0.52385478,-0.18358209,0.501809,0.56025315,-0.28820331,0.557665,0.54678396,-0.24722919,0.530383,0.54110512,-0.22659856,0.517513,0.53601989,-0.20769179,0.505812,0.56534564,-0.31272328,0.554633,0.50769772,-0.30028355,0.52935,0.50599198,-0.30839892,0.534724,0.51939797,-0.31766606,0.545705
0.56556138,-0.36572381,0.632168,0.56274779,-0.32272414,0.599696,0.56423111,-0.34067618,0.630166,0.5479939,-0.30020227,0.617436,0.5271376,-0.26282784,0.603712,0.51701819,-0.23672116,0.591371,0.54742397,-0.25397832,0.567916,0.52882164,-0.21211684,0.538315,0.51950805,-0.19179672,0.523514,0.5142609,-0.17515633,0.510815,0.55132746,-0.26853791,0.557823,0.53682951,-0.22198778,0.526744,0.52856815,-0.19812734,0.508615,0.52178666,-0.17982822,0.495665,0.55537294,-0.28387825,0.552014,0.5370551,-0.2426931,0.518449,0.52825755,-0.22273568,0.5022,0.52029979,-0.20453272,0.487429,0.56181667,-0.30875632,0.549897,0.50220099,-0.29604045,0.523812,0.50016672,-0.30358787,0.529231,0.51196754,-0.31297036,0.540513
0.56330798,-0.36610447,0.628507,0.55858863,-0.33104809,0.595415,0.56092482,-0.34146337,0.626494,0.54320923,-0.30498512,0.613706,0.52163389,-0.26852894,0.600523,0.51387999,-0.23931447,0.589343,0.54221336,-0.25898917,0.563062,0.52626187,-0.21942059,0.531474,0.51817513,-0.19969648,0.515679,0.50967139,-0.18216384,0.501321,0.54666684,-0.27330039,0.552743,0.53195394,-0.22825816,0.521345,0.52310655,-0.20212339,0.50303,0.51667436,-0.18215978,0.49036,0.55106574,-0.28850397,0.546795,0.5310906,-0.24856498,0.513023,0.522277,-0.22873276,0.497076,0.51430796,-0.21063597,0.482579,0.55777033,-0.31339116,0.544604,0.49777758,-0.30032917,0.518403,0.49465902,-0.30716695,0.523161,0.50189774,-0.31689815,0.534228
0.53993734,-0.34555645,0.600819,0.54515637,-0.29807157,0.575314,0.54805562,-0.32363449,0.605562,0.52719932,-0.2845369,0.602629,0.53381503,-0.25321021,0.605164,0.52702525,-0.22908864,0.599567,0.55486021,-0.23280888,0.558049,0.4910342,-0.22004258,0.527826,0.45999056,-0.22206393,0.512835,0.43258017,-0.22355871,0.499264,0.54819646,-0.24384077,0.542425,0.5275446,-0.19857889,0.511809,0.50874629,-0.17353588,0.49395,0.48217445,-0.16410673,0.481194,0.54254241,-0.2561517,0.53153,0.52495617,-0.21156398,0.500999,0.51411715,-0.18895213,0.485378,0.48867918,-0.17500687,0.471178,0.53544669,-0.27714865,0.522298,0.5290461,-0.2370291,0.499048,0.51249624,-0.22222045,0.488366,0.497814,-0.22463539,0.487801
0.54204982,-0.34555198,0.60344,0.54305642,-0.29772346,0.574711,0.54707972,-0.32126733,0.605289,0.52184937,-0.28171693,0.597903,0.52497049,-0.24875712,0.596023,0.51780313,-0.2239198,0.588575,0.54708346,-0.23010578,0.551007,0.48140819,-0.21606333,0.518383,0.4493862,-0.21721751,0.502071,0.42112802,-0.21786575,0.487243,0.54234711,-0.24213423,0.537666,0.51891925,-0.19619729,0.504099,0.49853301,-0.17085881,0.484519,0.47099891,-0.16098987,0.470532,0.53856242,-0.2554468,0.528897,0.51923723,-0.21040986,0.496423,0.50747831,-0.18764241,0.479808,0.48128342,-0.17337615,0.464704,0.53418445,-0.27800958,0.522685,0.52539917,-0.23685435,0.496809,0.50770923,-0.22151605,0.48492,0.49219357,-0.22339613,0.483506
0.53733788,-0.34235988,0.603766,0.53605768,-0.29736379,0.572829,0.54327491,-0.31603349,0.604622,0.5201132,-0.27327676,0.596324,0.5181718,-0.2372875,0.590795,0.51127995,-0.21627955,0.581441,0.54084412,-0.23035574,0.54592,0.48345151,-0.20068586,0.512041,0.45546357,-0.2088508,0.495101,0.44148336,-0.22037688,0.490581,0.53377861,-0.24595393,0.532938,0.50466107,-0.20374932,0.497811,0.48767253,-0.17914779,0.477321,0.45832412,-0.1695109,0.462685,0.52827787,-0.2601806,0.524633,0.50609439,-0.21443031,0.495098,0.49447188,-0.19116681,0.479987,0.47188446,-0.17509343,0.466249,0.52158955,-0.28337789,0.519304,0.51118481,-0.24961629,0.49056,0.48579341,-0.23835384,0.477353,0.46772403,-0.24066925,0.474326
0.53121069,-0.34557682,0.607879,0.5240807,-0.30348999,0.576615,0.54249827,-0.32061602,0.60897,0.5165024,-0.28219005,0.601387,0.51175399,-0.24596094,0.596409,0.50556949,-0.22058491,0.587247,0.53824502,-0.24119219,0.549696,0.48144449,-0.2183871,0.528588,0.45396051,-0.20732801,0.518034,0.43637328,-0.20063017,0.516562,0.52492378,-0.25174938,0.536301,0.49966978,-0.20643122,0.505422,0.45626219,-0.19851901,0.48741,0.44383552,-0.20780071,0.48377,0.51392232,-0.26368483,0.527681,0.49797028,-0.21871594,0.497698,0.48631717,-0.19534557,0.482357,0.46327733,-0.17634333,0.468411,0.50060103,-0.28426153,0.522026,0.50187258,-0.2576559,0.493038,0.4775379,-0.24190055,0.47972,0.45850292,-0.23919366,0.476047
0.51779952,-0.34654297,0.608975,0.51368715,-0.30965171,0.578024,0.5326943,-0.32540056,0.610746,0.51091746,-0.28737391,0.604497,0.50885502,-0.25143562,0.6001,0.50317143,-0.22716741,0.591259,0.53152722,-0.25189685,0.552216,0.47598737,-0.22544144,0.532018,0.44924412,-0.21366657,0.521919,0.43156077,-0.20609913,0.520091,0.51561951,-0.26005709,0.538113,0.49868864,-0.21652321,0.507939,0.45628678,-0.20425053,0.490337,0.44352051,-0.21016257,0.486267,0.5026118,-0.27160323,0.528887,0.48625595,-0.22718586,0.498971,0.47498503,-0.20403117,0.483665,0.45217177,-0.18466339,0.46975,0.48676625,-0.29136087,0.52246,0.48330147,-0.26933811,0.491261,0.46338571,-0.25277037,0.476927,0.44436838,-0.24559438,0.472463
0.49417062,-0.33722642,0.613392,0.49819322,-0.30277794,0.580208,0.50630079,-0.31454757,0.611884,0.49739079,-0.27220674,0.6001,0.49017037,-0.2364728,0.591663,0.48709304,-0.21221859,0.580553,0.5152645,-0.24506285,0.548388,0.45915101,-0.21767631,0.524045,0.43188862,-0.20437753,0.511873,0.41524466,-0.19614422,0.510228,0.50254753,-0.25879613,0.537418,0.483753,-0.21699487,0.503936,0.4402416,-0.20415427,0.484404,0.42523007,-0.21036835,0.480837,0.49181842,-0.27289348,0.530942,0.47563264,-0.23070718,0.499292,0.4647677,-0.20869909,0.483098,0.44135787,-0.19023131,0.468377,0.47838591,-0.29515881,0.528135,0.47508237,-0.27675859,0.495907,0.45507806,-0.2610629,0.4811,0.43726339,-0.25369532,0.477456
0.47940886,-0.32240154,0.593188,0.47572284,-0.28173078,0.556674,0.48645613,-0.29741602,0.58872,0.47270004,-0.24734721,0.573309,0.45422057,-0.21173985,0.56008,0.44810317,-0.18634482,0.546514,0.47603812,-0.21692269,0.51824,0.44330135,-0.1839596,0.482132,0.42609968,-0.16748151,0.464079,0.41965807,-0.15593348,0.457696,0.46844798,-0.23459115,0.509591,0.44757837,-0.19232821,0.473097,0.40296491,-0.18280317,0.451809,0.38561407,-0.18892765,0.446185,0.46265051,-0.25208059,0.50528,0.43536824,-0.20833407,0.473894,0.42140696,-0.18600679,0.457836,0.40871318,-0.16574576,0.443238,0.45652644,-0.27870025,0.505555,0.45433191,-0.2478762,0.473931,0.43328972,-0.23329625,0.459401,0.41789508,-0.22611341,0.454481
0.47942789,-0.32274581,0.595921,0.46727695,-0.28465492,0.558399,0.48059825,-0.29234089,0.589371,0.46325414,-0.24669499,0.570396,0.44302102,-0.2111611,0.553787,0.43917102,-0.18505831,0.538896,0.45965546,-0.21876852,0.516515,0.42972375,-0.18952909,0.4791,0.41475904,-0.17490683,0.460393,0.40115461,-0.16161179,0.443386,0.45691118,-0.23877042,0.510015,0.44026318,-0.19934047,0.47197,0.39644683,-0.19014872,0.449777,0.37880296,-0.19569045,0.444258,0.45529536,-0.25806721,0.507549,0.43128262,-0.21639441,0.474105,0.41764213,-0.19532338,0.456995,0.40523948,-0.17617308,0.441439,0.45456452,-0.28663492,0.51018,0.45549203,-0.25207855,0.478404,0.43105789,-0.24144554,0.463804,0.41683137,-0.23653665,0.459518
0.47742103,-0.32295034,0.597968,0.45706067,-0.28456294,0.559359,0.46985014,-0.29213308,0.590194,0.4522791,-0.24496664,0.56975,0.4308497,-0.20921858,0.5521,0.42320104,-0.18414544,0.536113,0.4452822,-0.2180071,0.515001,0.41516665,-0.18655206,0.478199,0.40010801,-0.17082421,0.459797,0.38641923,-0.15652668,0.443069,0.44460463,-0.23885253,0.509573,0.42880915,-0.20005401,0.470577,0.38545245,-0.19130191,0.447829,0.36704847,-0.19627869,0.441482,0.44481899,-0.25883089,0.508073,0.41420848,-0.22740486,0.469307,0.39855069,-0.21131377,0.449473,0.38431872,-0.19667677,0.431442,0.44652946,-0.28819326,0.512021,0.44261417,-0.25562519,0.479675,0.41770012,-0.24578949,0.464814,0.39928849,-0.24752786,0.460059
0.45419848,-0.30426096,0.603283,0.43825996,-0.27694976,0.563297,0.44511882,-0.27545143,0.5905,0.44020849,-0.23220799,0.566683,0.41421564,-0.20044771,0.545707,0.40271858,-0.1786661,0.526926,0.412727,-0.21723594,0.511591,0.38938234,-0.18871372,0.473811,0.37770859,-0.17445329,0.45492,0.36709616,-0.1614903,0.437747,0.41769157,-0.2417407,0.511736,0.39231028,-0.21153405,0.470394,0.37750181,-0.19391873,0.446279,0.36718402,-0.18146823,0.42936,0.42301298,-0.26406956,0.514925,0.40370015,-0.23270626,0.475985,0.3913592,-0.21713747,0.456062,0.37856517,-0.20331708,0.43795,0.43175056,-0.29491819,0.524683,0.42293937,-0.26288491,0.490498,0.39542427,-0.25631696,0.474792,0.37864876,-0.25842784,0.469
0.44366447,-0.30519761,0.599102,0.4249027,-0.27755527,0.559289,0.4345833,-0.27606461,0.586384,0.42209488,-0.23342924,0.562242,0.39728119,-0.20062084,0.54074,0.38775183,-0.17797423,0.522676,0.40331519,-0.21407456,0.507818,0.37768472,-0.18229977,0.470899,0.36486903,-0.16641624,0.45244,0.35338477,-0.15205097,0.435865,0.41238933,-0.23900427,0.507949,0.38124154,-0.20947412,0.466686,0.36437623,-0.19279626,0.442616,0.35233178,-0.18087864,0.425423,0.41830531,-0.26119363,0.511114,0.39312132,-0.22966244,0.471668,0.37810539,-0.21486976,0.451486,0.36445738,-0.20141481,0.433139,0.42743176,-0.29217199,0.520818,0.41587104,-0.25681385,0.486675,0.39051095,-0.25299632,0.470988,0.37430287,-0.25594114,0.46537
0.40395845,-0.27975426,0.582717,0.40623881,-0.25851175,0.543765,0.40172142,-0.25014653,0.565969,0.38920048,-0.22477406,0.536334,0.37761421,-0.20025563,0.507979,0.37634232,-0.18606076,0.488208,0.40366046,-0.20418423,0.488161,0.36093326,-0.17936744,0.450445,0.33962633,-0.16700368,0.431586,0.32014671,-0.15585643,0.414443,0.40787929,-0.23123218,0.493536,0.36498918,-0.20823334,0.452154,0.33999698,-0.1948285,0.428014,0.32216081,-0.18526014,0.410772,0.40984113,-0.2552699,0.500949,0.37680438,-0.22771868,0.461026,0.35916768,-0.21352945,0.440601,0.34313384,-0.20063063,0.422032,0.41507512,-0.28811007,0.515603,0.40640151,-0.25806484,0.480302,0.37865909,-0.25138428,0.464083,0.36451993,-0.25221205,0.458482
0.40224614,-0.28150594,0.588288,0.39915867,-0.25884735,0.548586,0.39960769,-0.25138334,0.570873,0.38026333,-0.22419519,0.539289,0.3683403,-0.19944671,0.510321,0.36654568,-0.18500021,0.489742,0.39609563,-0.20354928,0.491492,0.35316247,-0.1791817,0.453312,0.33175862,-0.16704202,0.434222,0.3122357,-0.15608047,0.416868,0.40129172,-0.2320373,0.497391,0.35767612,-0.20850509,0.455677,0.33246924,-0.19541921,0.431343,0.31448199,-0.18607789,0.413962,0.4048556,-0.25553662,0.505292,0.35923818,-0.23097822,0.464932,0.324608,-0.22638024,0.444283,0.31726824,-0.22614922,0.436594,0.4092558,-0.28873842,0.520641,0.39682825,-0.25868933,0.485094,0.36859814,-0.25256075,0.468762,0.35203641,-0.25375642,0.462254
0.40364568,-0.28796766,0.594224,0.39450983,-0.26804781,0.55364,0.39731605,-0.25946041,0.579168,0.35286662,-0.23277445,0.549652,0.34636086,-0.19207321,0.524845,0.35279412,-0.17169284,0.511965,0.38553408,-0.20757447,0.498624,0.3469309,-0.18283898,0.46043,0.32616303,-0.17077043,0.441333,0.30670059,-0.15994835,0.423972,0.38870163,-0.23341474,0.501307,0.34853602,-0.2099368,0.459353,0.32326045,-0.19634875,0.43488,0.30501441,-0.18666254,0.417399,0.39168195,-0.25707005,0.506631,0.34820178,-0.23114251,0.466971,0.31402784,-0.22479997,0.446681,0.30702155,-0.22437788,0.438859,0.39586794,-0.2898636,0.51903,0.38440481,-0.25865016,0.483947,0.35605428,-0.25150398,0.467828,0.33991212,-0.25256996,0.461182
0.40644423,-0.31277558,0.610601,0.40536202,-0.29448917,0.57355,0.40697373,-0.29409472,0.600953,0.36891252,-0.27501353,0.577159,0.36627056,-0.23970289,0.562943,0.37661958,-0.22089833,0.557011,0.41003959,-0.23632472,0.528315,0.3494403,-0.21711639,0.495699,0.32009929,-0.20763735,0.47939,0.30482793,-0.21085477,0.47659,0.40693749,-0.25918209,0.525773,0.36547783,-0.23024901,0.486659,0.34135879,-0.21341054,0.463943,0.32413954,-0.20138687,0.447738,0.40429845,-0.28027896,0.526526,0.37827239,-0.25765648,0.488499,0.35445803,-0.24462582,0.469044,0.33351675,-0.2390462,0.464862,0.40091052,-0.30990428,0.532936,0.38036718,-0.27749692,0.500809,0.36176997,-0.26403659,0.486048,0.34399616,-0.26307121,0.482653
0.36166119,-0.28503137,0.580432,0.37352099,-0.26614501,0.546523,0.36662144,-0.25727008,0.567522,0.350209,-0.2309842,0.538691,0.33713192,-0.20733034,0.514123,0.33664486,-0.19304472,0.497159,0.38806315,-0.21614605,0.500155,0.34028609,-0.19397532,0.466431,0.31644548,-0.18291753,0.44957,0.29921347,-0.1784853,0.448697,0.38741415,-0.24188677,0.502799,0.33483823,-0.21640328,0.464938,0.30443988,-0.20165555,0.442991,0.28284133,-0.19116756,0.427358,0.38603941,-0.26488099,0.507578,0.36598905,-0.24932341,0.471618,0.33087927,-0.23435032,0.453219,0.31103246,-0.2289731,0.452082,0.38263488,-0.29575149,0.518333,0.34738323,-0.27361001,0.485947,0.33114985,-0.26342474,0.471066,0.31542381,-0.25744938,0.469466
0.3572455,-0.28587356,0.582147,0.36316098,-0.26646593,0.547182,0.36203926,-0.25785895,0.568821,0.33979091,-0.23138255,0.53962,0.32664992,-0.20777313,0.515221,0.32611107,-0.1934668,0.498246,0.37695943,-0.21579859,0.499351,0.32878461,-0.193354,0.464937,0.30477791,-0.18216929,0.447731,0.28695801,-0.17744668,0.446086,0.37628864,-0.24154761,0.502094,0.32328003,-0.21571117,0.463451,0.29267484,-0.20077016,0.441046,0.2709505,-0.190149,0.425081,0.37494583,-0.26459815,0.507036,0.35421827,-0.24864515,0.470335,0.31928483,-0.23349093,0.451557,0.29894782,-0.22770993,0.449588,0.37166886,-0.29564308,0.518143,0.33391827,-0.27191615,0.485172,0.31656126,-0.2610103,0.470023,0.30043101,-0.25458177,0.46779
0.34540802,-0.28600074,0.582406,0.35038678,-0.26650538,0.547263,0.35030212,-0.25794463,0.56901,0.32679303,-0.23143872,0.539751,0.31346323,-0.20784209,0.515392,0.312851,-0.19353553,0.498423,0.36440646,-0.21572815,0.499188,0.31624394,-0.19323922,0.464661,0.2922531,-0.1820338,0.447398,0.27419653,-0.17726131,0.44562,0.36362741,-0.24147737,0.501948,0.31065285,-0.21558317,0.463176,0.28007772,-0.20060947,0.440693,0.25837984,-0.1899647,0.424669,0.36218783,-0.26453605,0.506917,0.34125909,-0.24851774,0.470094,0.30676216,-0.23333426,0.451254,0.28636016,-0.22748302,0.44914,0.3587823,-0.29560828,0.518082,0.32095589,-0.27182872,0.485016,0.30356538,-0.26089923,0.469823,0.28738928,-0.25441306,0.46748
0.33323067,-0.28584556,0.58209,0.33952909,-0.26625815,0.547166,0.33840621,-0.25788665,0.568925,0.31591988,-0.23118984,0.539916,0.30250819,-0.20739846,0.515681,0.30189428,-0.19297682,0.498799,0.354229,-0.21548471,0.499569,0.30629674,-0.19285871,0.465271,0.28241608,-0.18158333,0.448122,0.26433113,-0.17682065,0.446546,0.35320527,-0.24111805,0.502132,0.30045624,-0.21505355,0.46354,0.27000563,-0.19997914,0.441159,0.24839426,-0.189262,0.425207,0.35153679,-0.26408648,0.506923,0.33069106,-0.24787,0.47032,0.2966487,-0.23275676,0.451592,0.27637798,-0.22699836,0.449689,0.34780701,-0.29505934,0.517843,0.31009419,-0.2711168,0.484944,0.2927526,-0.26011138,0.469828,0.27668349,-0.25369622,0.467643
0.32814953,-0.28619668,0.582805,0.32886128,-0.26637299,0.547402,0.32788202,-0.25810744,0.569455,0.30511034,-0.2313517,0.540294,0.29439932,-0.20570571,0.516855,0.29983367,-0.19237102,0.501529,0.34345919,-0.21530268,0.499147,0.29542267,-0.19255819,0.464546,0.27150802,-0.18122796,0.447245,0.25310832,-0.17632964,0.445306,0.34236342,-0.2409351,0.501751,0.28951426,-0.21471627,0.462813,0.2590195,-0.19954941,0.440211,0.23738915,-0.18876793,0.424097,0.34064598,-0.26392394,0.506611,0.31947892,-0.24753324,0.469681,0.28575466,-0.23234185,0.450787,0.26529757,-0.22639412,0.448492,0.33687925,-0.29496988,0.517686,0.29900125,-0.27088646,0.484532,0.28158926,-0.25981796,0.469298,0.26538074,-0.25324758,0.466816
0.31849875,-0.28711045,0.583829,0.3154599,-0.26801947,0.546297,0.3153593,-0.25786441,0.567477,0.29100705,-0.23098371,0.535227,0.27918746,-0.2051155,0.50943,0.27944845,-0.18994187,0.492089,0.31981487,-0.21504317,0.49246,0.27057142,-0.19379018,0.455362,0.24619485,-0.18321292,0.436813,0.23079766,-0.17874209,0.432315,0.32251269,-0.24241134,0.497901,0.272845,-0.22031243,0.45732,0.24103624,-0.20789233,0.433647,0.21853146,-0.19903377,0.416739,0.32432315,-0.26681185,0.505259,0.27961554,-0.25047209,0.46596,0.25403978,-0.24132579,0.445854,0.23810144,-0.24025298,0.440893,0.32558596,-0.29949217,0.519635,0.3100598,-0.29408601,0.484967,0.28452383,-0.28367601,0.469039,0.27039098,-0.27525717,0.464841
0.30842717,-0.28760758,0.584009,0.30479061,-0.26810484,0.546471,0.30412855,-0.25862633,0.567718,0.28026637,-0.2311175,0.535537,0.26830875,-0.20522301,0.509697,0.26847864,-0.18999745,0.492233,0.30949524,-0.2151484,0.492701,0.26037678,-0.19390551,0.455633,0.23606703,-0.18333288,0.437099,0.22043642,-0.17886902,0.432622,0.31204869,-0.24249118,0.498065,0.26244455,-0.22039095,0.457483,0.23072462,-0.20797047,0.43381,0.20828733,-0.19911067,0.4169,0.31372828,-0.26686518,0.50536,0.26905636,-0.25053391,0.466075,0.24353062,-0.24139128,0.445975,0.22731942,-0.24032873,0.441032,0.31481565,-0.29950831,0.519663,0.29410882,-0.29209107,0.484862,0.26803926,-0.28053988,0.468872,0.25557487,-0.2720586,0.464438
0.2986588,-0.28834319,0.584677,0.29431728,-0.26837516,0.547022,0.2935896,-0.25885274,0.568215,0.26952862,-0.23126466,0.535878,0.25344326,-0.20830654,0.509105,0.25083302,-0.1945235,0.490619,0.29916477,-0.21525321,0.492941,0.24714284,-0.19567993,0.455746,0.22154831,-0.18594058,0.437149,0.20434612,-0.18228519,0.432504,0.30172241,-0.24268739,0.498468,0.25212693,-0.22054848,0.45781,0.22046564,-0.20810566,0.434092,0.19807843,-0.19923102,0.417152,0.30339538,-0.26715298,0.505905,0.25869487,-0.25079247,0.466556,0.23318705,-0.24163431,0.446424,0.21660417,-0.24048621,0.441321,0.30445664,-0.29993077,0.520396,0.2837073,-0.29248626,0.485518,0.25780099,-0.28091144,0.469493,0.24553216,-0.27234681,0.46493
0.28773843,-0.28834122,0.584673,0.2835408,-0.26837909,0.54703,0.28278043,-0.25884909,0.568207,0.25860517,-0.23125819,0.535863,0.24238418,-0.20829713,0.509082,0.23973626,-0.19451676,0.490602,0.28869112,-0.21525888,0.492954,0.23684621,-0.19568637,0.455761,0.21134818,-0.18594696,0.437164,0.19394793,-0.18229488,0.432527,0.29115648,-0.2426981,0.49849,0.24163648,-0.22056197,0.457838,0.21007263,-0.20812148,0.434125,0.18775937,-0.19924774,0.417187,0.29274093,-0.2671683,0.505934,0.24807376,-0.25081074,0.46659,0.22261624,-0.2416538,0.44646,0.20576092,-0.24051073,0.441366,0.29367387,-0.29995152,0.520432,0.2729292,-0.29250915,0.485556,0.24722878,-0.28093538,0.469533,0.23524143,-0.27237317,0.464975
0.26235267,-0.27987535,0.57574,0.26796465,-0.26111404,0.541443,0.26446124,-0.25095096,0.559063,0.23435497,-0.22302299,0.525919,0.2170816,-0.20117796,0.49765,0.21173563,-0.18978821,0.477606,0.28593877,-0.21402374,0.490134,0.23015156,-0.1971219,0.454131,0.20344139,-0.18869494,0.43613,0.18550391,-0.18703835,0.433654,0.28872551,-0.2421543,0.497219,0.23289609,-0.22364037,0.458764,0.20177084,-0.21291198,0.436572,0.17971224,-0.20526199,0.420749,0.29016163,-0.26698601,0.505681,0.2390455,-0.24988787,0.467923,0.2139554,-0.24103315,0.448606,0.19782439,-0.24102136,0.44593,0.28623233,-0.29926471,0.520897,0.24707047,-0.27938919,0.487285,0.22906584,-0.27025709,0.471842,0.21228197,-0.2648016,0.469136
0.24772427,-0.27416421,0.571842,0.26457474,-0.26039287,0.53949,0.25223544,-0.24603288,0.555851,0.23103985,-0.22201397,0.523301,0.21381675,-0.20009546,0.495286,0.20862185,-0.18877302,0.47576,0.28302419,-0.21440691,0.490773,0.2290326,-0.19777733,0.455998,0.20259054,-0.18948623,0.43861,0.18513751,-0.18829756,0.437519,0.28481915,-0.24255148,0.497773,0.23139266,-0.22396103,0.460752,0.20052154,-0.21318016,0.439279,0.17859862,-0.20549407,0.423967,0.28508541,-0.2671654,0.506015,0.23849725,-0.2504761,0.469589,0.21430899,-0.24179961,0.450953,0.19930587,-0.24240781,0.449775,0.27974805,-0.29936783,0.520679,0.23802304,-0.27801331,0.488124,0.21886471,-0.26820348,0.473167,0.21026595,-0.26615222,0.4716
0.2447265,-0.27661195,0.576204,0.25438161,-0.26229098,0.543772,0.24918281,-0.2479826,0.559734,0.21881417,-0.22440369,0.526672,0.20214114,-0.20295931,0.499114,0.19726106,-0.19197449,0.479849,0.2746237,-0.21455556,0.494399,0.22235853,-0.19917991,0.459343,0.19629689,-0.19158799,0.441814,0.18151267,-0.19010863,0.440457,0.27741012,-0.24287193,0.501951,0.22530775,-0.22521667,0.464857,0.19469548,-0.21499761,0.443372,0.17555637,-0.2072081,0.428639,0.27835028,-0.2677736,0.510654,0.23178138,-0.24977266,0.474007,0.2079514,-0.24056285,0.455257,0.18725852,-0.24388581,0.453816,0.27668978,-0.30049524,0.525881,0.23911857,-0.28166601,0.493183,0.22033032,-0.27243889,0.478159,0.20608293,-0.26379951,0.465145
0.23014207,-0.27257463,0.577295,0.2483356,-0.25521268,0.548354,0.23377058,-0.24303642,0.558755,0.21100744,-0.21644232,0.523594,0.19673301,-0.20048133,0.493139,0.19244669,-0.19063793,0.473199,0.27084062,-0.20955078,0.499614,0.2231577,-0.20004254,0.465351,0.19669341,-0.19366133,0.44822,0.17875738,-0.19420979,0.44726,0.27671191,-0.23956619,0.511035,0.22281104,-0.22631618,0.476713,0.19155972,-0.21857123,0.456691,0.17372584,-0.2170629,0.456499,0.27987975,-0.26572574,0.522653,0.22972631,-0.25158665,0.487465,0.20332807,-0.24395088,0.469462,0.18556742,-0.24513079,0.468637,0.2802494,-0.29957984,0.540846,0.28820633,-0.31844158,0.519423,0.27103001,-0.31604051,0.50958,0.25571481,-0.31397146,0.500895
0.22976328,-0.27369598,0.581137,0.24839236,-0.25899283,0.55136,0.23256434,-0.24377165,0.561211,0.20777204,-0.22287045,0.524789,0.18792219,-0.20805966,0.493281,0.18286758,-0.20048601,0.472887,0.26621216,-0.21649431,0.500173,0.21462795,-0.2056056,0.464944,0.18741038,-0.20017167,0.44733,0.16842466,-0.20136388,0.445025,0.2727568,-0.24707022,0.512962,0.21714884,-0.23435534,0.478119,0.18509653,-0.22689606,0.457794,0.16748061,-0.22435166,0.456409,0.27663141,-0.27361644,0.52577,0.22659748,-0.26116149,0.48973,0.20028546,-0.25432824,0.471292,0.18212206,-0.25603678,0.469075,0.27815434,-0.30774553,0.545509,0.2853979,-0.32692216,0.523994,0.26740895,-0.32487861,0.514109,0.25139546,-0.32312159,0.505387
0.22279718,-0.27173966,0.582193,0.23631814,-0.26151579,0.551696,0.22512725,-0.24204522,0.561835,0.19688094,-0.22298087,0.525049,0.17696569,-0.20816764,0.493537,0.17189713,-0.20059328,0.47314,0.25523816,-0.21613073,0.499333,0.20365993,-0.20500684,0.46359,0.17656716,-0.19945078,0.445719,0.15725368,-0.20033676,0.442755,0.26176052,-0.24678508,0.51237,0.20609008,-0.23381862,0.477024,0.17405067,-0.22620763,0.456405,0.15636217,-0.22335478,0.454381,0.26563456,-0.27344262,0.525436,0.21542981,-0.26070341,0.488871,0.18907793,-0.25371898,0.470163,0.17039254,-0.25503736,0.467244,0.26718565,-0.30779236,0.545592,0.27460948,-0.32675808,0.523731,0.25647849,-0.3246113,0.513686,0.24034401,-0.32276099,0.504823
0.28281831,-0.3467564,0.584609,0.27399822,-0.29324743,0.558301,0.26068007,-0.32005376,0.573699,0.23195824,-0.30006066,0.547004,0.21590678,-0.29537382,0.517097,0.20619598,-0.28168974,0.495879,0.23948997,-0.21609973,0.521237,0.20257502,-0.21838261,0.492294,0.21567368,-0.24208511,0.506015,0.22964592,-0.26616913,0.522918,0.26243708,-0.22607992,0.524379,0.21933941,-0.23205336,0.492512,0.19425847,-0.23549484,0.473923,0.19014287,-0.25353914,0.477216,0.28265267,-0.23853809,0.528983,0.23901171,-0.24385717,0.498372,0.2297237,-0.24960285,0.482711,0.23815616,-0.25414803,0.486312,0.30904918,-0.2618213,0.538399,0.26047442,-0.25827516,0.51043,0.24895514,-0.25689817,0.49758,0.24580236,-0.2622694,0.499627
0.28472194,-0.35006303,0.584716,0.26782142,-0.29978713,0.551968,0.26534774,-0.32541494,0.578079,0.23186426,-0.31592831,0.557592,0.20234476,-0.31089263,0.535688,0.18515546,-0.29938534,0.518595,0.22908916,-0.22410091,0.51429,0.18615213,-0.21177329,0.48541,0.16486244,-0.20609938,0.472088,0.14982136,-0.20720009,0.4743,0.24379402,-0.23246547,0.509739,0.19150609,-0.22341575,0.474124,0.1612997,-0.21807623,0.453348,0.14437535,-0.22112272,0.452614,0.25768345,-0.24355445,0.508509,0.20963123,-0.25258612,0.476679,0.18699038,-0.25710992,0.460394,0.1801168,-0.2722805,0.460383,0.27763517,-0.26508376,0.511909,0.22640716,-0.26158202,0.482749,0.20609835,-0.2602065,0.469351,0.20466648,-0.26219739,0.468555
0.28588054,-0.35304185,0.586688,0.26773761,-0.30184085,0.554411,0.26722263,-0.3289359,0.581117,0.23217785,-0.32004881,0.562137,0.19972209,-0.31757737,0.541305,0.184248,-0.30477006,0.524762,0.22920187,-0.22675139,0.518461,0.18406042,-0.2151677,0.490602,0.16211689,-0.20896214,0.476673,0.14842241,-0.20884867,0.477345,0.24319622,-0.23425744,0.512792,0.18922123,-0.2323385,0.477838,0.16027841,-0.23358915,0.457449,0.14495108,-0.24292172,0.456819,0.25649341,-0.24462531,0.510606,0.20838226,-0.252545,0.479709,0.18642559,-0.25903886,0.463901,0.17983833,-0.27455331,0.464091,0.27575019,-0.2652679,0.512793,0.22498897,-0.26232494,0.484395,0.20506522,-0.2613406,0.471347,0.20400531,-0.26364574,0.470703
0.28652074,-0.35559983,0.588524,0.26815474,-0.30386136,0.556559,0.26793969,-0.33158244,0.583098,0.23268247,-0.32206846,0.564273,0.20241463,-0.31670493,0.543933,0.18455045,-0.30472846,0.527439,0.22851477,-0.22968538,0.521066,0.1847164,-0.22303004,0.493437,0.16268078,-0.21924962,0.479622,0.14662693,-0.2220405,0.480501,0.24258219,-0.23657577,0.515341,0.19115311,-0.23422217,0.480635,0.16239419,-0.23550649,0.460389,0.14721485,-0.24496406,0.459965,0.25729155,-0.2462194,0.513085,0.20944912,-0.25423905,0.48243,0.18756335,-0.26087388,0.466746,0.18102565,-0.27669937,0.467158,0.2766677,-0.2666228,0.515142,0.22605117,-0.26387966,0.486939,0.20647375,-0.26307455,0.473981,0.20632314,-0.26531223,0.473506
0.28664697,-0.35681509,0.589096,0.26817502,-0.30465919,0.557243,0.26804756,-0.33277138,0.583585,0.2326322,-0.32266061,0.564608,0.20217803,-0.31649257,0.544169,0.18433612,-0.30410344,0.527735,0.22877977,-0.23030648,0.521747,0.18496085,-0.2233252,0.49409,0.16289786,-0.21954218,0.480262,0.14684969,-0.22237783,0.481231,0.24304807,-0.23720683,0.516169,0.19177308,-0.23481996,0.481504,0.16307134,-0.23610246,0.461283,0.14795802,-0.24562147,0.460968,0.25754073,-0.24687338,0.514026,0.20979767,-0.25486225,0.483365,0.1879351,-0.26151779,0.467678,0.18142651,-0.27747874,0.468194,0.27706372,-0.26724002,0.5162,0.22647997,-0.26453805,0.487991,0.20706111,-0.26379246,0.475029,0.20736394,-0.26599233,0.474634
0.33355554,-0.33669084,0.594985,0.29518292,-0.30094779,0.563278,0.32433976,-0.312796,0.594481,0.28351862,-0.29417038,0.586707,0.27371263,-0.25510305,0.574428,0.25171364,-0.23616785,0.561543,0.24889807,-0.23899967,0.534016,0.19717503,-0.22766657,0.510543,0.17140945,-0.22316818,0.498807,0.15392595,-0.2239001,0.485656,0.24535494,-0.25455781,0.522393,0.19324221,-0.23263827,0.495989,0.16134922,-0.22149576,0.480586,0.14251311,-0.22229423,0.469584,0.24542132,-0.27013807,0.515266,0.19492057,-0.25187211,0.489101,0.1668762,-0.24537975,0.475714,0.14946153,-0.24498555,0.461146,0.25126101,-0.29409087,0.51146,0.20529635,-0.28581131,0.493008,0.18848981,-0.28546625,0.48453,0.1783892,-0.28355119,0.474206
0.33743575,-0.33718475,0.59343,0.29759117,-0.30109582,0.561844,0.32662289,-0.31397631,0.592921,0.29017816,-0.29477592,0.586537,0.27586619,-0.25670953,0.576527,0.25395698,-0.2378053,0.564761,0.24820588,-0.2399148,0.532685,0.19308268,-0.22754181,0.506266,0.17247338,-0.21951687,0.493056,0.14901551,-0.21626041,0.481047,0.24595026,-0.25434251,0.521114,0.19292388,-0.23277577,0.494881,0.16131846,-0.22102642,0.479579,0.14290382,-0.22303527,0.468649,0.24719383,-0.2690731,0.514021,0.19527263,-0.25123626,0.489115,0.16773075,-0.2435478,0.476373,0.14972156,-0.24461606,0.462047,0.25873436,-0.2909108,0.510238,0.21130049,-0.28192749,0.491931,0.19077013,-0.28403344,0.48352,0.18139274,-0.28388771,0.47313
0.3427091,-0.33802033,0.596887,0.30446356,-0.30215681,0.564469,0.33079176,-0.31511611,0.596283,0.29232173,-0.29448792,0.587808,0.27669611,-0.25751019,0.578228,0.25393934,-0.23905582,0.566148,0.24976992,-0.24131699,0.534441,0.1993147,-0.22810115,0.506766,0.17407307,-0.22097059,0.492928,0.15055239,-0.21805752,0.480349,0.24835674,-0.25533614,0.522665,0.1949068,-0.23240074,0.49526,0.16769266,-0.21704036,0.479273,0.14456143,-0.2216855,0.467854,0.25542082,-0.26904924,0.515467,0.21400138,-0.23556027,0.493569,0.18739442,-0.23490062,0.482365,0.17747097,-0.24267175,0.469835,0.26281909,-0.29142147,0.511682,0.21843443,-0.28274228,0.492361,0.19636296,-0.28326883,0.483484,0.18677585,-0.28514958,0.473487
0.34476922,-0.3378578,0.597596,0.30566662,-0.30198057,0.565041,0.33228475,-0.31506567,0.59683,0.29301365,-0.29371472,0.58749,0.27730147,-0.25728544,0.578412,0.25419038,-0.2387962,0.565813,0.25048434,-0.24161978,0.534694,0.20049603,-0.22758036,0.506679,0.17695613,-0.22060377,0.492672,0.15182025,-0.21711947,0.479938,0.25091675,-0.25575957,0.523063,0.19716791,-0.23151481,0.495513,0.16834498,-0.21668598,0.479442,0.14661076,-0.22006258,0.467963,0.25588541,-0.26933571,0.515994,0.21261244,-0.23722684,0.493922,0.18567233,-0.24004496,0.482629,0.17799116,-0.24532356,0.470024,0.26690303,-0.29135578,0.512385,0.21906502,-0.28280398,0.492921,0.19981649,-0.28336037,0.483979,0.18771583,-0.2852417,0.473925
0.34827807,-0.34000222,0.601763,0.30917551,-0.30409036,0.569563,0.33587978,-0.31712434,0.601192,0.30026971,-0.28837022,0.588949,0.28022501,-0.25465775,0.578777,0.25552934,-0.23718989,0.565703,0.260864,-0.24230281,0.539773,0.20574396,-0.23103705,0.513093,0.18049842,-0.22460079,0.499753,0.15547389,-0.22147412,0.487626,0.2576378,-0.25727571,0.528041,0.20079102,-0.24336049,0.500946,0.18908813,-0.24706338,0.48514,0.19584765,-0.24714492,0.473851,0.25984328,-0.2717725,0.520861,0.21328727,-0.26060593,0.494991,0.19371431,-0.26228021,0.481754,0.1968716,-0.25944248,0.467783,0.2701068,-0.29399539,0.517067,0.22760962,-0.27083442,0.498017,0.20912275,-0.27237873,0.489264,0.20077583,-0.27811542,0.479163
0.34546779,-0.33576317,0.596127,0.30806446,-0.30006157,0.565588,0.33392773,-0.31360335,0.596688,0.29779129,-0.28508027,0.586741,0.28076742,-0.24967845,0.577854,0.25761289,-0.23104862,0.565413,0.25826777,-0.23956326,0.538678,0.20840707,-0.21972758,0.513402,0.18401683,-0.22421191,0.500764,0.18175022,-0.22563596,0.489274,0.25520734,-0.2555881,0.526208,0.19842481,-0.23514626,0.501126,0.17801325,-0.24230128,0.486495,0.18229686,-0.24449306,0.476044,0.25533045,-0.26980101,0.518294,0.20663251,-0.23982629,0.498336,0.18182052,-0.24025255,0.488125,0.17857071,-0.24787386,0.475312,0.26453984,-0.29149659,0.513374,0.21766811,-0.27038367,0.496175,0.1990402,-0.2709358,0.488272,0.19667446,-0.27614939,0.478202
0.34517203,-0.33453133,0.593971,0.31146409,-0.29998195,0.563475,0.33757174,-0.31111889,0.594699,0.29746175,-0.2918113,0.573457,0.2845718,-0.25653314,0.566544,0.26031889,-0.24089975,0.551843,0.27411428,-0.23802229,0.536809,0.22138799,-0.22297068,0.515039,0.19993336,-0.22179373,0.504154,0.19875455,-0.22410276,0.494259,0.26566021,-0.25514361,0.524152,0.20596657,-0.23787621,0.499079,0.19168659,-0.23749594,0.484452,0.1979369,-0.23892908,0.474005,0.26088503,-0.27016463,0.516081,0.21406684,-0.23940934,0.496605,0.18977619,-0.24003105,0.48664,0.18498983,-0.24584831,0.474115,0.26234455,-0.29641905,0.510967,0.22657198,-0.26786619,0.493794,0.20751591,-0.26913131,0.485904,0.20736303,-0.26779808,0.47595
0.35732295,-0.32875479,0.587372,0.32718084,-0.3004712,0.562561,0.36735583,-0.30358227,0.587187,0.3168761,-0.28453816,0.567594,0.29809,-0.25734583,0.565527,0.2734432,-0.24162491,0.552706,0.28873333,-0.24636641,0.539916,0.24108157,-0.22849991,0.527652,0.23034095,-0.22341738,0.52152,0.23811185,-0.22403758,0.515946,0.27380506,-0.26581929,0.530567,0.22531981,-0.2427167,0.512711,0.21100281,-0.2346093,0.502295,0.21477766,-0.23117551,0.486787,0.26494251,-0.28337869,0.52478,0.22287509,-0.25633511,0.511127,0.20234547,-0.24305416,0.504141,0.19209874,-0.23721058,0.488512,0.26070295,-0.30754075,0.521551,0.23037139,-0.28648681,0.508588,0.21741683,-0.27978629,0.502631,0.21525914,-0.27615396,0.490525
0.37295459,-0.30623211,0.644678,0.33977053,-0.31411753,0.606242,0.38115481,-0.31107985,0.627672,0.34856893,-0.29495443,0.596826,0.35114204,-0.3002497,0.571145,0.33204916,-0.29901115,0.552025,0.31976561,-0.32598335,0.550791,0.29933273,-0.27105907,0.515026,0.28663754,-0.2548939,0.497144,0.28234157,-0.25806629,0.492152,0.29724593,-0.32365218,0.55668,0.27699907,-0.26522768,0.515567,0.2682067,-0.24269559,0.491585,0.26619832,-0.24615219,0.485985,0.28094993,-0.32110848,0.564475,0.26046461,-0.26846266,0.524649,0.25296432,-0.23857427,0.504273,0.25633638,-0.22334755,0.4982,0.2659781,-0.31680698,0.579509,0.25613823,-0.26898591,0.544287,0.24740221,-0.24645423,0.528103,0.23791072,-0.23956479,0.51481
0.37030385,-0.30470414,0.640096,0.33794224,-0.31288836,0.602534,0.37836719,-0.30918611,0.622884,0.34651948,-0.2926751,0.592708,0.34678707,-0.29610401,0.566157,0.3266097,-0.29355761,0.547204,0.31853691,-0.32463308,0.547622,0.29691614,-0.26910959,0.510399,0.29786901,-0.2652152,0.516269,0.30538027,-0.27943303,0.531857,0.29643464,-0.32289814,0.554099,0.27610252,-0.26483205,0.513485,0.26733966,-0.24242732,0.489794,0.26576269,-0.24620596,0.484899,0.28038333,-0.320805,0.56231,0.26100406,-0.2663753,0.522768,0.25389866,-0.23646363,0.502537,0.2574166,-0.22293279,0.497163,0.26555963,-0.31696758,0.577713,0.25552711,-0.26922635,0.542712,0.24670449,-0.24676767,0.526631,0.24115396,-0.24387171,0.52187
0.37406883,-0.3042226,0.642704,0.3406315,-0.3115476,0.603457,0.38121606,-0.30720787,0.624046,0.35495316,-0.2871832,0.590404,0.35881806,-0.29221419,0.563165,0.34187254,-0.29203346,0.5438,0.32296491,-0.31479592,0.54526,0.29506287,-0.26023057,0.506523,0.29388114,-0.2455232,0.509537,0.30076127,-0.23899042,0.526027,0.30192947,-0.31636552,0.552848,0.27612053,-0.2556536,0.511454,0.265807,-0.22259216,0.487307,0.26583987,-0.21774138,0.480023,0.28693455,-0.31714353,0.562104,0.26573035,-0.25851245,0.521564,0.27892992,-0.25346244,0.524792,0.29590967,-0.26879035,0.54245,0.26866196,-0.31745512,0.579006,0.25644638,-0.26942093,0.543425,0.24726624,-0.24698152,0.527077,0.2413214,-0.24334266,0.520346
0.37920494,-0.3057977,0.646627,0.3618195,-0.31259793,0.608646,0.3918502,-0.30233901,0.627127,0.36339398,-0.28548539,0.593603,0.36659494,-0.28209743,0.56538,0.35044694,-0.28107698,0.545719,0.34867044,-0.31378782,0.550567,0.31278219,-0.26054414,0.51199,0.30757251,-0.24569765,0.515735,0.30775781,-0.2409879,0.532454,0.32856034,-0.32192682,0.55967,0.29327281,-0.26213252,0.519025,0.27540533,-0.22805012,0.495315,0.27205705,-0.22106399,0.4888,0.31361924,-0.32811132,0.570075,0.27849199,-0.26974847,0.529786,0.28117844,-0.26606393,0.5338,0.29559237,-0.28665395,0.550751,0.29910993,-0.33439106,0.588162,0.28031773,-0.28195318,0.552828,0.27481472,-0.2619039,0.536593,0.27397624,-0.26192003,0.530403
0.3928653,-0.31462472,0.667018,0.37231487,-0.31508254,0.627574,0.41158741,-0.3131678,0.652038,0.43312878,-0.32259503,0.634157,0.4407698,-0.3502457,0.631382,0.44101098,-0.37206748,0.633071,0.3620794,-0.31978163,0.57368,0.33997998,-0.26366949,0.536807,0.34317199,-0.25695436,0.541507,0.35376667,-0.25698461,0.557936,0.33750731,-0.31930884,0.576711,0.31336127,-0.26743526,0.535202,0.29914252,-0.24067249,0.510989,0.29552812,-0.24358269,0.504919,0.3191358,-0.31865472,0.582234,0.30093491,-0.2598117,0.542862,0.31011754,-0.2444003,0.547853,0.32649744,-0.25215099,0.565745,0.30086938,-0.3173143,0.594701,0.2856472,-0.27534121,0.559752,0.28047976,-0.25561191,0.543695,0.27807916,-0.25590018,0.538171
0.3979055,-0.31569677,0.670396,0.38533006,-0.31672684,0.630783,0.41791361,-0.31529948,0.656341,0.44728493,-0.32508258,0.63899,0.45442839,-0.35266182,0.635846,0.45385136,-0.37395776,0.636498,0.3756265,-0.32204023,0.577863,0.35341348,-0.26604302,0.541523,0.35633264,-0.2592364,0.546133,0.3668016,-0.25911467,0.562315,0.35029489,-0.3208946,0.579702,0.32590215,-0.26663456,0.538246,0.31085355,-0.24164879,0.514064,0.30680255,-0.24571965,0.507915,0.33139312,-0.31969997,0.584256,0.31291216,-0.26104127,0.545276,0.32198423,-0.24556663,0.550161,0.33824616,-0.25322848,0.567853,0.31260871,-0.31775075,0.595591,0.29853035,-0.27396919,0.560927,0.29271601,-0.25538022,0.545,0.28949413,-0.25672385,0.539479
0.44573225,-0.35998518,0.671549,0.40963254,-0.34182093,0.631139,0.45310604,-0.35306342,0.65534,0.42256844,-0.31491704,0.62103,0.42213368,-0.30437651,0.590724,0.41920562,-0.30583473,0.569727,0.38604283,-0.31703385,0.574876,0.36305042,-0.26023955,0.540581,0.35621346,-0.24757533,0.533807,0.36142646,-0.24432659,0.544634,0.36298862,-0.31843459,0.579032,0.33664019,-0.2575817,0.540727,0.33905656,-0.25022345,0.532093,0.34963643,-0.26742223,0.543239,0.34688923,-0.32098136,0.585553,0.33025198,-0.26244126,0.549001,0.33524546,-0.25124108,0.541711,0.35143727,-0.2561022,0.553558,0.33314522,-0.32672968,0.599358,0.32226553,-0.27702558,0.567918,0.31710148,-0.25500604,0.553473,0.3102931,-0.23864737,0.541379
0.45006897,-0.36225205,0.675828,0.41449393,-0.34385524,0.63498,0.45852622,-0.35692715,0.660719,0.43955195,-0.32161006,0.62996,0.43979551,-0.31762415,0.601426,0.436486,-0.32206826,0.581589,0.39607341,-0.32194792,0.57966,0.37523746,-0.26594903,0.545644,0.36806081,-0.25576856,0.539338,0.37269713,-0.25650747,0.550243,0.37201792,-0.32009093,0.582306,0.34811034,-0.26070844,0.543624,0.34989362,-0.25105982,0.535541,0.35560191,-0.26867933,0.546996,0.35500987,-0.31998951,0.587619,0.33917173,-0.26141721,0.551141,0.34430594,-0.2521731,0.544342,0.3565792,-0.2573751,0.556354,0.33998876,-0.32262606,0.600044,0.31318766,-0.27944893,0.568545,0.29926,-0.25974746,0.554073,0.299441,-0.24138727,0.542257
0.47396548,-0.3649219,0.676739,0.43945959,-0.3453145,0.636281,0.48255295,-0.35947352,0.661414,0.45373222,-0.32015805,0.628289,0.45382792,-0.30907684,0.598687,0.45042006,-0.3099674,0.577549,0.41884263,-0.32101562,0.581051,0.39646383,-0.26514017,0.547365,0.38799847,-0.25606196,0.540426,0.39242676,-0.25679187,0.550947,0.39489771,-0.32005505,0.584111,0.36929346,-0.26070751,0.545993,0.36954854,-0.25077048,0.537121,0.3788837,-0.26773208,0.548125,0.37795338,-0.3207781,0.589734,0.35978358,-0.2621382,0.55367,0.36372186,-0.25287205,0.546196,0.37910231,-0.25792292,0.557772,0.36297804,-0.32457227,0.602473,0.33211898,-0.2764261,0.571415,0.3187082,-0.25585196,0.557145,0.31568592,-0.23930816,0.54503
0.47489098,-0.36222262,0.673385,0.440227,-0.34332656,0.632149,0.48407772,-0.35736438,0.658734,0.46395233,-0.31827551,0.628339,0.46626179,-0.30933307,0.600468,0.46323751,-0.3113731,0.580129,0.42436085,-0.32199063,0.577039,0.40070066,-0.26591412,0.542811,0.39476572,-0.25648507,0.537264,0.40110361,-0.25929644,0.548554,0.39958342,-0.32072554,0.578977,0.37353068,-0.25995067,0.539735,0.37397213,-0.24900873,0.53259,0.38025442,-0.2656791,0.544542,0.3819767,-0.32105872,0.583738,0.36256938,-0.27035642,0.546932,0.35740284,-0.25599558,0.540938,0.36331884,-0.269983,0.553406,0.36620265,-0.32411479,0.595561,0.33776736,-0.27896129,0.563669,0.32482215,-0.25859329,0.549015,0.32333438,-0.24079705,0.537588
0.50060767,-0.36248066,0.671261,0.45843321,-0.34192609,0.633041,0.50294898,-0.35404086,0.653083,0.4648753,-0.3115218,0.615243,0.43537076,-0.27744891,0.586407,0.40473554,-0.25601797,0.564719,0.42311099,-0.31308695,0.576359,0.40274118,-0.25881856,0.542756,0.40016506,-0.25318002,0.534313,0.410783,-0.25646038,0.5442,0.40389274,-0.31542283,0.583758,0.37608441,-0.25623277,0.547755,0.37821696,-0.24942607,0.537107,0.38804335,-0.2655745,0.546789,0.39148498,-0.3189333,0.59278,0.36748072,-0.27520791,0.557459,0.36234145,-0.25760269,0.548409,0.37152216,-0.2654494,0.559057,0.38312209,-0.32620021,0.609249,0.34849378,-0.27925408,0.579218,0.33298679,-0.25847489,0.56542,0.32820677,-0.24147584,0.552616
0.49885077,-0.36517075,0.663573,0.4615929,-0.34710657,0.630354,0.49839795,-0.35264287,0.643004,0.46628553,-0.31175776,0.60549,0.44855352,-0.28170195,0.589417,0.42162795,-0.25947095,0.569313,0.4228754,-0.30580256,0.575277,0.39305429,-0.28847618,0.543842,0.38041416,-0.26088446,0.528481,0.38383972,-0.2513467,0.530607,0.40726443,-0.31614802,0.58752,0.37064149,-0.26385368,0.556304,0.34914254,-0.23477701,0.538094,0.33393569,-0.21433418,0.525087,0.39765816,-0.32356777,0.600142,0.37094867,-0.28223734,0.567895,0.36687529,-0.26177673,0.557269,0.3749876,-0.26809054,0.566044,0.39432631,-0.33917871,0.620172,0.37292525,-0.28987469,0.593254,0.36323409,-0.26836644,0.580886,0.35346949,-0.24907571,0.567905
0.50955763,-0.37306975,0.66549,0.4717084,-0.34673213,0.629674,0.50808948,-0.35755369,0.644541,0.47761252,-0.31237047,0.60668,0.45490199,-0.2791364,0.584049,0.42583867,-0.25593609,0.562617,0.43096438,-0.30394684,0.571786,0.39954271,-0.28534605,0.537941,0.38414025,-0.25628612,0.519166,0.38185247,-0.24345586,0.513949,0.41589722,-0.31269465,0.583491,0.3764821,-0.26119804,0.549561,0.35398001,-0.23114427,0.529768,0.33797286,-0.21043232,0.515528,0.40679237,-0.32192551,0.59587,0.37369376,-0.2790327,0.560734,0.37083037,-0.25914829,0.551622,0.37732606,-0.26613164,0.561908,0.40235084,-0.33689427,0.615995,0.37869848,-0.28649248,0.586332,0.36798768,-0.26458593,0.572703,0.35839861,-0.24575517,0.560334
0.5076301,-0.37382276,0.659488,0.47335526,-0.34604873,0.628858,0.50826116,-0.35776491,0.640928,0.48294771,-0.31067371,0.606322,0.47977636,-0.28212031,0.595246,0.45634471,-0.25666445,0.577061,0.4435216,-0.28840132,0.578567,0.40831687,-0.24476945,0.554827,0.39089046,-0.22328246,0.542957,0.37474099,-0.20356952,0.53147,0.42715251,-0.29861957,0.589362,0.39616109,-0.24905856,0.561927,0.37819496,-0.22050856,0.545923,0.36667078,-0.19876385,0.534492,0.4164914,-0.30986951,0.600594,0.39303787,-0.26161266,0.572301,0.38106028,-0.23711806,0.557825,0.37045271,-0.21287714,0.544182,0.40931515,-0.32880852,0.618577,0.38346797,-0.2862175,0.597214,0.37200376,-0.26774568,0.587399,0.35862973,-0.25113142,0.574678
0.49380732,-0.38020363,0.696531,0.49998228,-0.36020409,0.665323,0.52275771,-0.37792364,0.699174,0.50665257,-0.34130682,0.688062,0.48791563,-0.3242483,0.692797,0.47092242,-0.30779857,0.682649,0.53061867,-0.3164332,0.640344,0.50374405,-0.27273475,0.621399,0.48112555,-0.26072443,0.611926,0.46867441,-0.26462445,0.6057,0.50170951,-0.32050966,0.625079,0.46557001,-0.26890691,0.597069,0.43534347,-0.26002572,0.580729,0.41792963,-0.25983517,0.569058,0.47785217,-0.32620658,0.614918,0.45659027,-0.27634921,0.593361,0.42933101,-0.27187304,0.582331,0.41302461,-0.27922124,0.575138,0.4491991,-0.33754697,0.607411,0.42224815,-0.29581714,0.587673,0.4103064,-0.27774264,0.578604,0.406531,-0.272746,0.572518
0.5146095,-0.39511331,0.70097,0.5034032,-0.35975259,0.667435,0.52284842,-0.37714153,0.700978,0.51360865,-0.33611593,0.689191,0.48899377,-0.31597432,0.681148,0.47303751,-0.30104193,0.669,0.51201605,-0.2931858,0.637146,0.45510826,-0.27561181,0.614848,0.42758585,-0.26699982,0.6037,0.4072768,-0.26195358,0.599703,0.49726332,-0.3058323,0.624193,0.46004144,-0.26019541,0.59205,0.42237423,-0.25592571,0.5733,0.41538022,-0.26475566,0.56716,0.48558166,-0.3194432,0.616112,0.46506017,-0.27207538,0.590011,0.43299375,-0.26694464,0.576657,0.41909642,-0.27749951,0.571537,0.47247904,-0.34191761,0.611437,0.42469195,-0.30835344,0.587501,0.40545953,-0.29461687,0.576504,0.39960994,-0.29002476,0.571897
0.51643808,-0.38517546,0.683887,0.5042216,-0.3448282,0.653388,0.50778687,-0.36843795,0.684078,0.48290844,-0.33555508,0.674259,0.45759922,-0.3069896,0.66439,0.44415234,-0.28405452,0.652862,0.49879113,-0.27451155,0.626065,0.44217453,-0.26638693,0.604021,0.41463725,-0.26229467,0.593,0.39686929,-0.26316982,0.593176,0.49479243,-0.28767003,0.61406,0.46520087,-0.24224731,0.58282,0.42665059,-0.24222218,0.564597,0.41993346,-0.25471981,0.562771,0.4921079,-0.3020389,0.606527,0.47492017,-0.25444098,0.580912,0.44365498,-0.25207733,0.567807,0.43389726,-0.26730507,0.567223,0.49001395,-0.32606285,0.602055,0.43521171,-0.30353607,0.578168,0.41298802,-0.2944434,0.567192,0.40284312,-0.2918928,0.565981
0.52118031,-0.38862782,0.682478,0.52167239,-0.34460731,0.658758,0.50330907,-0.36420089,0.674046,0.46881271,-0.32351186,0.651268,0.43986261,-0.28827202,0.630557,0.4260654,-0.26185807,0.614961,0.50097558,-0.26822452,0.627052,0.47182281,-0.24299052,0.601052,0.45713362,-0.2301826,0.588053,0.45674145,-0.2248312,0.593165,0.52327742,-0.28240363,0.628172,0.48326081,-0.27997368,0.598765,0.45872334,-0.29046013,0.58161,0.46487536,-0.2943457,0.586351,0.54188356,-0.29796033,0.630916,0.50426177,-0.29477314,0.603141,0.48139953,-0.30306364,0.58893,0.48730307,-0.30729548,0.594232,0.56441029,-0.32416997,0.637722,0.52410502,-0.31371186,0.612044,0.49982608,-0.31148178,0.600246,0.49811577,-0.31495383,0.603585
0.53195273,-0.38721852,0.681124,0.52806658,-0.3335202,0.646264,0.51329485,-0.36146772,0.668741,0.47876564,-0.31658666,0.644066,0.44455228,-0.28507089,0.619384,0.42646469,-0.26141139,0.600282,0.48968137,-0.25510752,0.599679,0.45712392,-0.23053479,0.565898,0.44033948,-0.21944714,0.549008,0.43618828,-0.2149016,0.547653,0.51294237,-0.26865492,0.601314,0.46678239,-0.26838053,0.562889,0.46570527,-0.29053385,0.574392,0.48196403,-0.29771949,0.591902,0.53327511,-0.28377761,0.605335,0.48722366,-0.28557193,0.56915,0.48410853,-0.30222462,0.578945,0.50106265,-0.30859192,0.597469,0.55978856,-0.30966401,0.615327,0.51236488,-0.30414532,0.582734,0.50332017,-0.31084332,0.589736,0.51054678,-0.31708184,0.603921
0.53221552,-0.38561455,0.679186,0.52723564,-0.33293889,0.644915,0.51294312,-0.35980598,0.667468,0.47899424,-0.31622598,0.643828,0.44533339,-0.28484717,0.619691,0.42753383,-0.26125818,0.600838,0.49038646,-0.25519822,0.599671,0.45833505,-0.22881986,0.565582,0.44362079,-0.21435581,0.548537,0.43821328,-0.21147167,0.547406,0.51304587,-0.2686482,0.600724,0.47118472,-0.26327405,0.562812,0.46739961,-0.28912792,0.574852,0.48281599,-0.29753521,0.592345,0.53279347,-0.28363967,0.604221,0.48714215,-0.28556862,0.56867,0.48432704,-0.30237844,0.578928,0.5012483,-0.30873568,0.597381,0.55845535,-0.30926691,0.613498,0.51142451,-0.30379452,0.581396,0.50270822,-0.31057795,0.588772,0.50992921,-0.31678138,0.60293
0.52453648,-0.37938506,0.672834,0.52466163,-0.3217612,0.642871,0.5067016,-0.35043272,0.662194,0.47257103,-0.31994504,0.635893,0.44114694,-0.28146956,0.613941,0.43549642,-0.2554508,0.609003,0.49637015,-0.24535395,0.602833,0.47429936,-0.22444121,0.570812,0.46330216,-0.21391574,0.554802,0.46670893,-0.21033102,0.556192,0.51870647,-0.25977676,0.604235,0.50805893,-0.21773227,0.569514,0.48631031,-0.21303522,0.54926,0.48034064,-0.22193929,0.550633,0.5376896,-0.27544379,0.607688,0.51669495,-0.22846516,0.574753,0.50036947,-0.21693499,0.557902,0.49991194,-0.21504771,0.559565,0.56145347,-0.30162596,0.616272,0.51212583,-0.29401808,0.586522,0.50815125,-0.30056639,0.596122,0.52383256,-0.30582119,0.610314
