sluyters/QuantumLeap/backend/src/datasets/gesture/HandGestureDataset_SHREC2017_csv/Gesture12/finger_2/subject_22_essai_5_skeletons_world.csv
Wrist_x,Wrist_y,Wrist_z,Palm_x,Palm_y,Palm_z,thumb_base_x,thumb_base_y,thumb_base_z,thumb_first_joint_x,thumb_first_joint_y,thumb_first_joint_z,thumb_second_joint_x,thumb_second_joint_y,thumb_second_joint_z,thumb_tip_x,thumb_tip_y,thumb_tip_z,index_base_x,index_base_y,index_base_z,index_first_joint_x,index_first_joint_y,index_first_joint_z,index_second_joint_x,index_second_joint_y,index_second_joint_z,index_tip_x,index_tip_y,index_tip_z,middle_base_x,middle_base_y,middle_base_z,middle_first_joint_x,middle_first_joint_y,middle_first_joint_z,middle_second_joint_x,middle_second_joint_y,middle_second_joint_z,middle_tip_x,middle_tip_y,middle_tip_z,ring_base_x,ring_base_y,ring_base_z,ring_first_joint_x,ring_first_joint_y,ring_first_joint_z,ring_second_joint_x,ring_second_joint_y,ring_second_joint_z,ring_tip_x,ring_tip_y,ring_tip_z,pinky_base_x,pinky_base_y,pinky_base_z,pinky_first_joint_x,pinky_first_joint_y,pinky_first_joint_z,pinky_second_joint_x,pinky_second_joint_y,pinky_second_joint_z,pinky_tip_x,pinky_tip_y,pinky_tip_z,
0.318532801,-0.248138442,0.443195,0.318370256,-0.197443082,0.436496,0.304603951,-0.23824333,0.447191,0.275153941,-0.211098208,0.44515,0.250539407,-0.191129598,0.442981,0.237592843,-0.174671092,0.439412,0.300342577,-0.16439894,0.438422,0.284768021,-0.12367726,0.428719,0.276757807,-0.103149093,0.423867,0.26908712,-0.0860453759,0.419457,0.318362316,-0.163751686,0.43159,0.309305761,-0.117819663,0.418211,0.303412784,-0.0910500193,0.410407,0.299179656,-0.0717005647,0.404833,0.333298222,-0.168783579,0.426677,0.323805763,-0.122269689,0.414151,0.318711449,-0.0998583324,0.407743,0.313109947,-0.0791200782,0.401917,0.350494491,-0.18152363,0.422248,0.347847431,-0.142363795,0.410586,0.345075343,-0.124733853,0.405227,0.352715165,-0.116189642,0.414042
0.318403024,-0.247112816,0.443058,0.318011341,-0.196617443,0.436136,0.304418012,-0.237292765,0.446993,0.275071498,-0.210566177,0.444926,0.25034102,-0.190679974,0.442722,0.237336634,-0.174081201,0.439301,0.299699076,-0.163557466,0.437868,0.283974839,-0.122762528,0.427978,0.275932104,-0.102184089,0.423033,0.268260522,-0.0849123736,0.418537,0.317782422,-0.162902559,0.431066,0.308598927,-0.116866196,0.417503,0.302687682,-0.0900312724,0.409591,0.298448005,-0.0706569417,0.40394,0.332809585,-0.167909949,0.426202,0.32325936,-0.121342508,0.413445,0.318095567,-0.0988928046,0.406919,0.312519633,-0.0780939816,0.400986,0.350132272,-0.180737599,0.421871,0.347351862,-0.14152592,0.410026,0.344486105,-0.124000594,0.404584,0.352251278,-0.115229526,0.413346
0.31895208,-0.247306576,0.443539,0.319020076,-0.199414246,0.43709,0.305036381,-0.240442807,0.44774,0.276304033,-0.215324261,0.445531,0.251225741,-0.194989874,0.442571,0.237779797,-0.175725885,0.439571,0.30128142,-0.169968654,0.439421,0.286042673,-0.129153026,0.429852,0.277605182,-0.109178297,0.425067,0.269707025,-0.0908390833,0.420717,0.319216802,-0.168589263,0.432373,0.309798184,-0.122688761,0.41921,0.303260208,-0.0953113093,0.411531,0.298797072,-0.0750315785,0.406046,0.333795843,-0.170515164,0.427257,0.32375635,-0.126727667,0.414904,0.318391196,-0.103512624,0.408585,0.313167428,-0.0808328506,0.40284,0.351025606,-0.182917538,0.422551,0.348286049,-0.143725709,0.411069,0.345045939,-0.127654492,0.405793,0.351184692,-0.124374594,0.414636
0.319407187,-0.246864329,0.444425,0.318682537,-0.199554882,0.436857,0.305467992,-0.239935601,0.44863,0.276320202,-0.215869395,0.446146,0.250641623,-0.195097202,0.442279,0.23750079,-0.176042947,0.43946,0.300507815,-0.169649416,0.438629,0.284161694,-0.129395265,0.42844,0.275731757,-0.110423775,0.423345,0.268099166,-0.0916656701,0.418713,0.31824693,-0.168219218,0.431322,0.30705354,-0.121912328,0.417356,0.300115104,-0.0952417282,0.409209,0.295914093,-0.0781520055,0.40339,0.33293721,-0.171779395,0.426112,0.322028471,-0.12623031,0.412991,0.31553229,-0.103490194,0.406279,0.312047795,-0.0840692357,0.40225,0.35016017,-0.184072839,0.421503,0.346087436,-0.143476657,0.409166,0.342010576,-0.128626745,0.403498,0.348854797,-0.123329202,0.412008
0.319168401,-0.246942417,0.444196,0.317533426,-0.207611767,0.434068,0.304945391,-0.241488094,0.447905,0.276587547,-0.225585626,0.445154,0.250970249,-0.205775364,0.442058,0.238003466,-0.188539276,0.43968,0.297369261,-0.179118505,0.43389,0.278887897,-0.138891798,0.42188,0.269274272,-0.118837439,0.415874,0.260461198,-0.100369319,0.410415,0.315013463,-0.177499659,0.426662,0.301225307,-0.13162884,0.410976,0.292087924,-0.105602238,0.401825,0.285531686,-0.0867217029,0.39529,0.32983967,-0.181017012,0.421789,0.316493191,-0.134912935,0.406756,0.30874835,-0.112126612,0.399065,0.301875495,-0.0914230851,0.392481,0.347661306,-0.193543452,0.418037,0.342057966,-0.153693273,0.403756,0.336765385,-0.138435846,0.397194,0.343253785,-0.127217224,0.405021
0.314029529,-0.253405479,0.439033,0.312838241,-0.218658002,0.431388,0.300089278,-0.254254664,0.443,0.27114295,-0.23447856,0.439805,0.247433636,-0.214306308,0.438221,0.235932312,-0.19696201,0.436855,0.294744798,-0.188297414,0.432806,0.277265396,-0.149336978,0.421665,0.268396292,-0.129411532,0.416094,0.260252567,-0.111017411,0.41103,0.312225269,-0.185925012,0.425797,0.300525587,-0.140938958,0.411322,0.29248136,-0.115248458,0.402878,0.286323758,-0.0968930832,0.396847,0.326843784,-0.188682105,0.420841,0.316633342,-0.142925216,0.406819,0.309825916,-0.120639234,0.399646,0.303209699,-0.100457859,0.393124,0.344257375,-0.200115277,0.416537,0.340180331,-0.161086504,0.403954,0.336144005,-0.144884757,0.398172,0.333057463,-0.127757171,0.393071
0.312030637,-0.264731846,0.43785,0.310829582,-0.226601944,0.429996,0.296797732,-0.261832221,0.441212,0.267558298,-0.240746279,0.438036,0.245041332,-0.221106467,0.437918,0.235738397,-0.20098847,0.438027,0.293265807,-0.19434508,0.430502,0.276436483,-0.15514845,0.419781,0.267644433,-0.135509856,0.414421,0.259435604,-0.113971954,0.409548,0.311502491,-0.193704953,0.424253,0.300222719,-0.149109306,0.410257,0.29287964,-0.123351298,0.402092,0.287174798,-0.105081197,0.396261,0.326537889,-0.197922932,0.419943,0.315561844,-0.153091902,0.406446,0.309735682,-0.130121738,0.399541,0.30443501,-0.109047933,0.393264,0.344063469,-0.211091809,0.416423,0.341203263,-0.172404196,0.403832,0.337538172,-0.157033966,0.398047,0.334334259,-0.143159238,0.392943
0.311640201,-0.280507842,0.438859,0.313006383,-0.239311504,0.430743,0.297113129,-0.272490957,0.441861,0.271619296,-0.255410819,0.440609,0.249230068,-0.236807521,0.441414,0.236555699,-0.219112553,0.438822,0.294325296,-0.206623701,0.43064,0.276714342,-0.167452521,0.420024,0.267318755,-0.148253942,0.414716,0.258666917,-0.130481783,0.40989,0.312851833,-0.205907977,0.424808,0.300979575,-0.161713625,0.410726,0.293710163,-0.135755396,0.402512,0.288501258,-0.1169127,0.396645,0.328285914,-0.210151575,0.42087,0.316617202,-0.165350082,0.407349,0.3105559,-0.142295555,0.400431,0.304765074,-0.121425277,0.394142,0.346500756,-0.223507518,0.417826,0.345034726,-0.18371979,0.405068,0.339459718,-0.172102346,0.399207,0.334519538,-0.161534346,0.394035
0.324491574,-0.289605754,0.44364,0.317569822,-0.24018538,0.432233,0.309131766,-0.283313128,0.446995,0.283213712,-0.264540381,0.443676,0.255098005,-0.247160347,0.440144,0.240607214,-0.231925304,0.438799,0.29453613,-0.208438493,0.430939,0.273596331,-0.168458944,0.417228,0.260843142,-0.151148852,0.410373,0.252700735,-0.130944381,0.404141,0.3124614,-0.20541751,0.423891,0.296297976,-0.160563446,0.406067,0.286681946,-0.134269424,0.395669,0.279669993,-0.115531436,0.388242,0.327986806,-0.207931795,0.419305,0.311477682,-0.163358422,0.402466,0.300167982,-0.141591105,0.393851,0.290907997,-0.12191621,0.386019,0.349733878,-0.216446482,0.416116,0.337420487,-0.177584835,0.400983,0.328878111,-0.173198997,0.39403,0.321236133,-0.169278379,0.387896
0.3305651,-0.295185103,0.44783,0.323448677,-0.249733588,0.434035,0.319297711,-0.291140557,0.450551,0.285633057,-0.274322321,0.445809,0.256718151,-0.255903658,0.440918,0.244611868,-0.241821991,0.442183,0.295618885,-0.218372652,0.430693,0.272193272,-0.177841083,0.414839,0.260203857,-0.15804703,0.406912,0.24842924,-0.135888182,0.399706,0.313972857,-0.213758597,0.423948,0.293350885,-0.171701817,0.403866,0.281228531,-0.146654802,0.392151,0.27227275,-0.129085626,0.383784,0.33046817,-0.21513339,0.419865,0.309983271,-0.170821072,0.400679,0.298747604,-0.150225845,0.390863,0.288066095,-0.132837601,0.381939,0.352093025,-0.22567867,0.417692,0.339762158,-0.18368041,0.400646,0.328983119,-0.180805172,0.392814,0.320156286,-0.172445687,0.385903
0.321638209,-0.31811873,0.446275,0.318719239,-0.268161617,0.435528,0.30684134,-0.309961465,0.449048,0.278125315,-0.283231166,0.444754,0.256022972,-0.263470831,0.444921,0.245912569,-0.244715182,0.444472,0.298345184,-0.234172406,0.433793,0.279336203,-0.195597362,0.419775,0.26967891,-0.17604351,0.412766,0.260830201,-0.158041378,0.406394,0.316418734,-0.233090302,0.42767,0.30178578,-0.190049999,0.410359,0.293075681,-0.164608861,0.400261,0.286837003,-0.14616036,0.393048,0.331829124,-0.237276969,0.423774,0.318580396,-0.192877365,0.406832,0.3118021,-0.169916253,0.398164,0.304337495,-0.150600443,0.390284,0.350619535,-0.251018962,0.421258,0.348820716,-0.209778671,0.406273,0.341692588,-0.199652397,0.399389,0.335362185,-0.190500357,0.393314
0.323099163,-0.324716423,0.447842,0.321340031,-0.279409754,0.436669,0.308337645,-0.316304582,0.450546,0.279417034,-0.294650526,0.445702,0.256852846,-0.275286288,0.445859,0.245350119,-0.258005231,0.444644,0.301690347,-0.244826713,0.434627,0.282145282,-0.20725219,0.420336,0.272249137,-0.188084975,0.413191,0.263031216,-0.170656365,0.406696,0.319566898,-0.243988122,0.428498,0.304268243,-0.201502757,0.410958,0.295245975,-0.176276841,0.400726,0.288781808,-0.157987548,0.393417,0.33477587,-0.248423581,0.424644,0.321923451,-0.203816043,0.407305,0.314067435,-0.182455293,0.398434,0.306910054,-0.162716978,0.39037,0.353287386,-0.262579073,0.422253,0.350649926,-0.220937405,0.406963,0.343472847,-0.209770024,0.399938,0.337105913,-0.199695206,0.393739
0.325815909,-0.337084917,0.450357,0.32259362,-0.290673256,0.438514,0.310684214,-0.328570469,0.45294,0.282510918,-0.303862319,0.446902,0.261866911,-0.282887835,0.447314,0.248897772,-0.261544609,0.445703,0.301003975,-0.255736697,0.435972,0.282056743,-0.216197489,0.42155,0.272514972,-0.196194026,0.414338,0.263766166,-0.174507473,0.407782,0.319645111,-0.254694482,0.429853,0.305716183,-0.21249441,0.411497,0.29758697,-0.187371156,0.40079,0.291777235,-0.169166791,0.393141,0.335496385,-0.259013891,0.426078,0.324133856,-0.213802092,0.407979,0.315983224,-0.195290165,0.398719,0.308549343,-0.178042478,0.390301,0.35484997,-0.273039258,0.423901,0.351727786,-0.233385609,0.408037,0.345630682,-0.223316231,0.400748,0.340256423,-0.214240793,0.394316
0.32847712,-0.342827349,0.453392,0.324912265,-0.294970864,0.440527,0.312674513,-0.337626766,0.454746,0.284118421,-0.310938659,0.448825,0.262207308,-0.290074034,0.448337,0.251686051,-0.268643961,0.446513,0.30315346,-0.261113304,0.435838,0.283324808,-0.222434464,0.420382,0.273326554,-0.202821483,0.412655,0.26418246,-0.184816317,0.405629,0.322872869,-0.261563057,0.431119,0.308445334,-0.219082219,0.412237,0.299841809,-0.194228494,0.401222,0.292663051,-0.173054396,0.393354,0.339661001,-0.267188106,0.428607,0.326034299,-0.223137518,0.41009,0.317955157,-0.203275539,0.400615,0.310247535,-0.181847493,0.392003,0.360119335,-0.282867615,0.42807,0.355055478,-0.241805798,0.411568,0.348383256,-0.232890381,0.403986,0.342491729,-0.224879175,0.397296
0.330394243,-0.353665851,0.455761,0.328378745,-0.311305447,0.44286,0.315383764,-0.347907937,0.458042,0.286143141,-0.322867386,0.451329,0.263263969,-0.300240224,0.448701,0.252360339,-0.281540289,0.446226,0.309113193,-0.274038495,0.439383,0.288538696,-0.237548849,0.424566,0.278113396,-0.218934125,0.417157,0.268547242,-0.201774429,0.410421,0.327061936,-0.274885716,0.433425,0.31223732,-0.233338706,0.41451,0.303580384,-0.208618037,0.403476,0.297391803,-0.190712166,0.395594,0.342237109,-0.280874003,0.429896,0.328761207,-0.237183455,0.411449,0.321575809,-0.215054698,0.402011,0.315047814,-0.194740832,0.393431,0.360527859,-0.297084243,0.428195,0.356677536,-0.256836902,0.411629,0.350189494,-0.245299034,0.404018,0.344467333,-0.23493306,0.397302
0.332260582,-0.361770078,0.458319,0.328854893,-0.313045657,0.443402,0.316714078,-0.351493159,0.459832,0.28690899,-0.325673067,0.453258,0.261052152,-0.30537842,0.449146,0.250313352,-0.284692684,0.446231,0.307797841,-0.274433105,0.437889,0.286358253,-0.237561345,0.421669,0.275516248,-0.218800348,0.413559,0.265581751,-0.201536152,0.406187,0.326342928,-0.275893242,0.432495,0.310926369,-0.233948799,0.412018,0.301934539,-0.209069305,0.400074,0.295511637,-0.191086181,0.391542,0.342181134,-0.28249722,0.429645,0.327816384,-0.238213451,0.409698,0.319901585,-0.21647649,0.399493,0.312708899,-0.196514507,0.390215,0.361525445,-0.299600471,0.429095,0.357699101,-0.258383934,0.410969,0.350276849,-0.25580469,0.40264,0.34227375,-0.251832639,0.395292
0.336736606,-0.372925564,0.465997,0.330874565,-0.31972644,0.446125,0.320705775,-0.360311413,0.465816,0.287479541,-0.335010553,0.456936,0.259933771,-0.312649202,0.449999,0.249016187,-0.291061421,0.447352,0.308975982,-0.280669784,0.435859,0.282720357,-0.246798131,0.415679,0.269434535,-0.229586262,0.405589,0.257252384,-0.213757386,0.396416,0.327278142,-0.286114687,0.431593,0.307676812,-0.244832262,0.406621,0.296235042,-0.220466814,0.392054,0.288058367,-0.202914502,0.381649,0.34315983,-0.296091655,0.430202,0.326900235,-0.250209941,0.405847,0.316917815,-0.229318436,0.393386,0.306936549,-0.211745397,0.382059,0.362768304,-0.317177161,0.432236,0.357830699,-0.274173017,0.410385,0.347023646,-0.267789844,0.400346,0.337438172,-0.262164617,0.391487
0.338787928,-0.387094305,0.469488,0.332555741,-0.343229494,0.450193,0.32487284,-0.385195199,0.470781,0.29336327,-0.354062901,0.461301,0.266176094,-0.33052648,0.453525,0.251372808,-0.311129157,0.446412,0.309625169,-0.302547546,0.442179,0.285853718,-0.265173434,0.421847,0.273743277,-0.246567688,0.411681,0.262673014,-0.229511348,0.402439,0.327128572,-0.305074037,0.436084,0.309186854,-0.262473506,0.41107,0.298521696,-0.23770842,0.396478,0.290906883,-0.219895007,0.386056,0.342538521,-0.31275181,0.433124,0.325100215,-0.267072479,0.409047,0.315212213,-0.245257243,0.396728,0.306222355,-0.225311281,0.385529,0.362035167,-0.331372052,0.433249,0.356526112,-0.287872555,0.411717,0.346164816,-0.28084645,0.401824,0.336979248,-0.274644409,0.393095
0.336113275,-0.400259213,0.471134,0.330536185,-0.346515017,0.450491,0.320901615,-0.386986056,0.471127,0.285335796,-0.35719939,0.460915,0.258287823,-0.332233711,0.452146,0.249702742,-0.312178347,0.448005,0.307885955,-0.303556728,0.440067,0.2818607,-0.270293102,0.419519,0.268862977,-0.252211306,0.409246,0.256970203,-0.235629752,0.399906,0.325799503,-0.311833277,0.435396,0.30679378,-0.2700683,0.409838,0.295708141,-0.245478303,0.394929,0.287790641,-0.227795794,0.38428,0.341343287,-0.322182325,0.433752,0.323432515,-0.276756442,0.409108,0.313494123,-0.254905885,0.396499,0.304446178,-0.234967024,0.385036,0.360247166,-0.34381893,0.435638,0.354589831,-0.301013169,0.413212,0.346410736,-0.290468284,0.402908,0.337947305,-0.278924294,0.393816
0.332756893,-0.40152197,0.471162,0.325824088,-0.3501786,0.450452,0.318101061,-0.388392146,0.47162,0.284428154,-0.359053528,0.463291,0.25344044,-0.33601091,0.453368,0.243980108,-0.314888155,0.448622,0.305751843,-0.306985755,0.440613,0.280595963,-0.271366134,0.420263,0.267898535,-0.25332481,0.410087,0.256278395,-0.236773334,0.400837,0.32342363,-0.312347784,0.435307,0.304706681,-0.270801831,0.409838,0.293790428,-0.24633514,0.394981,0.285993564,-0.228737663,0.384368,0.338494965,-0.322313338,0.433149,0.320988736,-0.276953072,0.408618,0.311183752,-0.255249763,0.396067,0.302264,-0.235429651,0.384657,0.356793787,-0.343483928,0.434455,0.340225551,-0.309733057,0.412468,0.333774181,-0.293829181,0.402366,0.328098573,-0.279724505,0.393453
0.328774712,-0.397960788,0.466031,0.321076338,-0.346587964,0.445682,0.31559629,-0.387050048,0.468757,0.283138201,-0.359323442,0.461771,0.254089277,-0.337464844,0.454036,0.23946098,-0.318168052,0.447763,0.295874184,-0.307388427,0.43904,0.270251832,-0.269552448,0.418385,0.25735926,-0.250471524,0.408058,0.245068913,-0.233943941,0.398669,0.311568058,-0.30848856,0.430802,0.290603252,-0.266387447,0.404547,0.278357259,-0.241630149,0.389232,0.269601506,-0.223842629,0.378293,0.325591989,-0.314980747,0.426189,0.307387171,-0.267435952,0.401073,0.295858453,-0.24653958,0.388223,0.285361042,-0.227420949,0.376541,0.343728683,-0.33217707,0.424605,0.330940447,-0.297592643,0.401928,0.32482631,-0.281974901,0.391509,0.31912723,-0.269991575,0.382315
0.323576653,-0.401775171,0.46869,0.307293544,-0.349822631,0.448313,0.303437221,-0.389037119,0.469473,0.267197173,-0.35729541,0.460945,0.240965668,-0.334984864,0.454565,0.225783356,-0.315757276,0.446849,0.286611974,-0.307696797,0.439074,0.261456107,-0.269248414,0.418457,0.248574689,-0.250387279,0.408148,0.236803071,-0.233124589,0.398776,0.304462832,-0.312307528,0.433413,0.28369815,-0.271165445,0.408012,0.271552463,-0.246907121,0.393195,0.262860037,-0.229444622,0.382612,0.319674728,-0.321579681,0.430926,0.301416464,-0.273764003,0.406152,0.29105284,-0.251251544,0.393478,0.285501839,-0.230716172,0.381955,0.338146947,-0.341779254,0.431792,0.325331922,-0.303594372,0.409699,0.319450165,-0.286020426,0.399548,0.314075326,-0.270820776,0.390591
0.303048674,-0.399101419,0.467378,0.292681276,-0.34520745,0.446412,0.289014583,-0.38643547,0.468432,0.253994335,-0.35221473,0.460043,0.228366358,-0.328326905,0.452987,0.215013369,-0.308110762,0.44627,0.272850783,-0.303098404,0.437235,0.24778737,-0.264590899,0.416795,0.235003273,-0.245510457,0.406575,0.222840214,-0.228961532,0.397284,0.289963575,-0.307974006,0.43108,0.26980955,-0.265426929,0.405523,0.256759016,-0.242417205,0.390614,0.246798037,-0.226838715,0.379966,0.304541303,-0.31742513,0.428249,0.285244315,-0.27101947,0.404016,0.275100537,-0.247743244,0.391618,0.264122764,-0.229564738,0.380347,0.322232079,-0.337756343,0.428828,0.309052129,-0.301398,0.406395,0.302536456,-0.285342582,0.396088,0.296467558,-0.271625058,0.386994
0.289377089,-0.393909179,0.465174,0.278131793,-0.342263876,0.444654,0.275275157,-0.38186086,0.466444,0.241837554,-0.350821017,0.459811,0.216144641,-0.327666638,0.453521,0.201351985,-0.308272748,0.446131,0.256000882,-0.302208568,0.435991,0.232188966,-0.260901211,0.416095,0.21943151,-0.24153609,0.406148,0.206970953,-0.225304755,0.397104,0.273716841,-0.305901318,0.429648,0.253893911,-0.261987537,0.404482,0.242308044,-0.236216188,0.389802,0.234021157,-0.217728229,0.379317,0.288966981,-0.314232838,0.426616,0.271499674,-0.266929341,0.402185,0.262566804,-0.242838635,0.389686,0.250567793,-0.228131961,0.378323,0.307724117,-0.332951125,0.426881,0.294643875,-0.295485714,0.404791,0.287023177,-0.281082011,0.394642,0.279809056,-0.269209187,0.385687
0.269796906,-0.372998156,0.463512,0.261085439,-0.322611797,0.439872,0.255151306,-0.361043844,0.464399,0.227057746,-0.330554241,0.456906,0.198340684,-0.307815277,0.447369,0.181322937,-0.288907087,0.437568,0.237468559,-0.281920033,0.429125,0.211401037,-0.241176168,0.40737,0.197406387,-0.222139193,0.396493,0.183717396,-0.206259634,0.386604,0.254650073,-0.286174256,0.422586,0.231692135,-0.242965192,0.394899,0.218266747,-0.217630668,0.378748,0.208660045,-0.199467045,0.367212,0.269772894,-0.294989503,0.419724,0.249582504,-0.248216734,0.392816,0.239263542,-0.22439314,0.379049,0.225487192,-0.210116503,0.366533,0.288908095,-0.314307964,0.420756,0.27311859,-0.277450154,0.396475,0.263360646,-0.264565792,0.385318,0.253805452,-0.254833964,0.375475
0.27275542,-0.379140403,0.460362,0.259151627,-0.324478832,0.439832,0.260041975,-0.3702954,0.46469,0.227521574,-0.34393613,0.460815,0.201262929,-0.322417506,0.456108,0.186976363,-0.303862593,0.451407,0.23461207,-0.289643984,0.435228,0.208810702,-0.248182966,0.416877,0.194206345,-0.229512216,0.407701,0.178999769,-0.21547437,0.39936,0.248553727,-0.2889345,0.424819,0.223134715,-0.244512307,0.400182,0.208270584,-0.21850738,0.385811,0.197634452,-0.199884983,0.375546,0.2612994,-0.293780688,0.418437,0.24162749,-0.246340773,0.397473,0.2315924,-0.22221703,0.386747,0.214367714,-0.216650437,0.376997,0.278251966,-0.308747529,0.414852,0.260221806,-0.272390896,0.392481,0.249837456,-0.258487826,0.382202,0.239852389,-0.247352658,0.373133
0.263633989,-0.373675768,0.458446,0.244891152,-0.325848941,0.439939,0.252405221,-0.36584372,0.464336,0.214308954,-0.346337734,0.460643,0.194526791,-0.321214554,0.457603,0.183741047,-0.304231125,0.453013,0.226100716,-0.290163585,0.438432,0.199949499,-0.250226142,0.422638,0.186195039,-0.230807988,0.414742,0.172789753,-0.213899514,0.407563,0.236723399,-0.289933939,0.426405,0.210651669,-0.24556757,0.404125,0.195277078,-0.219665855,0.391128,0.184264208,-0.201101325,0.381845,0.246714964,-0.295003358,0.418475,0.229267845,-0.247417669,0.399218,0.220366957,-0.223215528,0.389365,0.203934666,-0.210029901,0.380408,0.260360434,-0.309903213,0.412738,0.244702169,-0.269470691,0.391886,0.237512252,-0.25093946,0.382305,0.227515901,-0.238124924,0.373851
0.257689083,-0.371956834,0.460447,0.235962851,-0.319087934,0.441979,0.242580646,-0.364442061,0.46654,0.206124272,-0.340315275,0.463405,0.186849948,-0.316336556,0.461578,0.171645549,-0.298316638,0.456345,0.21699022,-0.283838018,0.44076,0.190160807,-0.244086105,0.42491,0.176056013,-0.224765773,0.416984,0.162316762,-0.207949681,0.409779,0.227277056,-0.28328018,0.428473,0.200348217,-0.23907438,0.406182,0.182293517,-0.215297685,0.393179,0.16830459,-0.199232867,0.383891,0.237065586,-0.288063563,0.420325,0.218993819,-0.240734703,0.401238,0.209775306,-0.216647895,0.391473,0.192862849,-0.203538968,0.382595,0.25060002,-0.302602394,0.414329,0.234188942,-0.262213718,0.393364,0.226656138,-0.243704834,0.383732,0.216273015,-0.230892015,0.375232
0.241899568,-0.364273237,0.45782,0.226389105,-0.312793376,0.440883,0.23314714,-0.356988452,0.465099,0.19874449,-0.335072468,0.464235,0.181761327,-0.311967091,0.464143,0.167529457,-0.294147894,0.460154,0.210055942,-0.278544735,0.442016,0.184603395,-0.238980876,0.428541,0.171138368,-0.219715551,0.421803,0.157911615,-0.202889497,0.415678,0.2184161,-0.276947047,0.428498,0.19215126,-0.232405179,0.408315,0.174306025,-0.208285304,0.396541,0.160388755,-0.191908951,0.388132,0.226519631,-0.280881639,0.419172,0.209611664,-0.233664027,0.402117,0.200993035,-0.209653347,0.393392,0.183876872,-0.196007611,0.38546,0.237950746,-0.294473043,0.411541,0.221822494,-0.25363052,0.391847,0.214424094,-0.23493302,0.382798,0.203846635,-0.221696939,0.374813
0.231067176,-0.357083679,0.457398,0.216923557,-0.302096518,0.441546,0.222538564,-0.349376408,0.464165,0.191673033,-0.320692018,0.464287,0.169059902,-0.302043354,0.464954,0.155273487,-0.284583577,0.46182,0.201779384,-0.267591519,0.442546,0.173255024,-0.23108157,0.429721,0.158855867,-0.212652904,0.423309,0.145106013,-0.196272069,0.417479,0.211020482,-0.265948785,0.429955,0.184010335,-0.222498154,0.41098,0.168150814,-0.196966099,0.399912,0.156769972,-0.178634984,0.392005,0.219585791,-0.269895703,0.421277,0.202609812,-0.222547791,0.403844,0.193962805,-0.198498981,0.394925,0.175073083,-0.188504708,0.386816,0.231104753,-0.283635856,0.414194,0.212810927,-0.242909853,0.397305,0.20305743,-0.225228175,0.389545,0.194445864,-0.209613818,0.382698
0.219225644,-0.348250145,0.456908,0.206220885,-0.294615234,0.441446,0.211811748,-0.341092568,0.464553,0.184006809,-0.314120004,0.466429,0.16378769,-0.295954162,0.469221,0.151792771,-0.278722525,0.467642,0.19378347,-0.26060322,0.44381,0.164435754,-0.225703171,0.433444,0.149602837,-0.208068613,0.428262,0.136019748,-0.191922616,0.42355,0.200766799,-0.258577716,0.43014,0.171649104,-0.216290189,0.411934,0.154515816,-0.191397542,0.401314,0.142203568,-0.173504344,0.393728,0.207410673,-0.262202595,0.420531,0.184029095,-0.216928165,0.404247,0.170835007,-0.194564535,0.395916,0.15628241,-0.175965895,0.388342,0.216604693,-0.275575693,0.412305,0.203528411,-0.23268033,0.396404,0.189271814,-0.219343251,0.389098,0.17655494,-0.207456713,0.382651
0.210513891,-0.342213037,0.45845,0.198605266,-0.288570664,0.441438,0.203072197,-0.334291356,0.465446,0.176655311,-0.308961983,0.468804,0.155942965,-0.291565721,0.471578,0.141438436,-0.275160138,0.469046,0.184335984,-0.253530919,0.442155,0.155934212,-0.217031062,0.430276,0.141603171,-0.198616355,0.424337,0.12849392,-0.181773077,0.418937,0.192735153,-0.25244239,0.428997,0.164700431,-0.209416602,0.409216,0.148065344,-0.184198394,0.397677,0.138394926,-0.168856418,0.389435,0.200578421,-0.256836732,0.419976,0.177029477,-0.21175352,0.404254,0.163898029,-0.189431594,0.39621,0.151958798,-0.16913579,0.388898,0.211220397,-0.27106315,0.41271,0.19712715,-0.228898881,0.39577,0.180774474,-0.219887603,0.387987,0.166090129,-0.21184388,0.381119
0.203574916,-0.337986939,0.46157,0.193534819,-0.285170695,0.444514,0.197483786,-0.329751235,0.469174,0.172223938,-0.305999932,0.473776,0.150247306,-0.288786653,0.475656,0.136931442,-0.272119252,0.473664,0.184862942,-0.249365719,0.446019,0.152635994,-0.216298022,0.434755,0.136276568,-0.1995251,0.429122,0.121251781,-0.184128917,0.424002,0.189416141,-0.24920167,0.432042,0.161422267,-0.205497034,0.412559,0.145016762,-0.179876239,0.401194,0.133260604,-0.161512367,0.393076,0.19387168,-0.254389877,0.422351,0.173241263,-0.208420737,0.407781,0.158611748,-0.187194092,0.400327,0.145270276,-0.167833427,0.393551,0.200200483,-0.269627715,0.414322,0.196611705,-0.227491598,0.394762,0.179163054,-0.218470137,0.385775,0.163585961,-0.210456201,0.377845
0.210645703,-0.343944832,0.467388,0.194392238,-0.286850838,0.448076,0.20377962,-0.337085524,0.475549,0.177312275,-0.313090878,0.474971,0.154906393,-0.294266036,0.474523,0.139075498,-0.274796225,0.47083,0.173570588,-0.255467674,0.449182,0.149192358,-0.215891154,0.437289,0.134795817,-0.197615226,0.431342,0.121358072,-0.18322049,0.425936,0.180723035,-0.24878838,0.433954,0.153724745,-0.202885118,0.4131,0.139755216,-0.1784377,0.405813,0.129652976,-0.160745203,0.400609,0.188523573,-0.24870891,0.423473,0.14350407,-0.248948257,0.407989,0.144839011,-0.26423174,0.400066,0.164011333,-0.271160924,0.405519,0.20090994,-0.258030838,0.414948,0.19333618,-0.217116727,0.404508,0.177027637,-0.211201165,0.399711,0.162217381,-0.205881635,0.395479
0.203602692,-0.335837979,0.463024,0.18865381,-0.280504281,0.448367,0.197682407,-0.329582194,0.471891,0.166928843,-0.302108179,0.47439,0.14461321,-0.283841649,0.475492,0.13509658,-0.269089116,0.473564,0.17954104,-0.247782152,0.45276,0.150697557,-0.215674539,0.442475,0.135497467,-0.198340519,0.437333,0.120777009,-0.183080984,0.432658,0.183111118,-0.24501752,0.437648,0.160244259,-0.19970613,0.4177,0.144425014,-0.174479302,0.406265,0.130937665,-0.158040437,0.398098,0.188461641,-0.249299357,0.426766,0.165541161,-0.203851022,0.415045,0.150294846,-0.183693921,0.409048,0.132354748,-0.187870635,0.416903,0.19288545,-0.260434953,0.416929,0.184338822,-0.218000478,0.401905,0.169329191,-0.205122084,0.395002,0.155931669,-0.193640192,0.388911
0.202543796,-0.334770643,0.46422,0.188333326,-0.279224534,0.449003,0.195366175,-0.326289688,0.472707,0.166729249,-0.29993463,0.474276,0.146902196,-0.278744557,0.476575,0.133592929,-0.263551269,0.473574,0.178236085,-0.246113762,0.45261,0.148929026,-0.210762803,0.44096,0.133390908,-0.193392551,0.435135,0.119832515,-0.179605207,0.429839,0.182380491,-0.243474925,0.437875,0.160180474,-0.197261592,0.416962,0.144232065,-0.171730072,0.404763,0.132790325,-0.153405609,0.396049,0.18675477,-0.246564901,0.427364,0.163171104,-0.202850817,0.41489,0.148983813,-0.181759612,0.408508,0.130992842,-0.184737061,0.416275,0.193443279,-0.259280735,0.418055,0.188628719,-0.216211586,0.402385,0.171301555,-0.204054884,0.395185,0.157494682,-0.19310973,0.388833
0.201613253,-0.333688292,0.464505,0.188295486,-0.278700912,0.449102,0.194603245,-0.325186368,0.472847,0.166723491,-0.299124152,0.474187,0.147033592,-0.278486135,0.476361,0.133088869,-0.26268629,0.473072,0.177948651,-0.245448444,0.452421,0.148558936,-0.209717746,0.43995,0.133225393,-0.191995009,0.433715,0.11888995,-0.175968793,0.428047,0.182290769,-0.242862336,0.437838,0.160491313,-0.196397995,0.416759,0.144621999,-0.170805442,0.404463,0.133241121,-0.152443924,0.39568,0.186839581,-0.246009172,0.427472,0.16262992,-0.202387135,0.414729,0.148856792,-0.180968931,0.408209,0.130892373,-0.183489964,0.415956,0.193750056,-0.258819351,0.418364,0.190525001,-0.21512908,0.402806,0.172413844,-0.203846844,0.395658,0.158543402,-0.193106661,0.389351
0.199271207,-0.328929367,0.462694,0.188345156,-0.274718904,0.44682,0.192089105,-0.319724711,0.470115,0.169091791,-0.289706076,0.471459,0.149530687,-0.270149615,0.473928,0.131885122,-0.257013861,0.468463,0.179815154,-0.237220343,0.448678,0.150876128,-0.201724591,0.435899,0.136127377,-0.183639826,0.42951,0.120762733,-0.169534796,0.423702,0.18513186,-0.236273102,0.435212,0.164747851,-0.190382476,0.414576,0.149293087,-0.165120144,0.402538,0.135959271,-0.148541046,0.393939,0.190495608,-0.240761464,0.425816,0.170366668,-0.194754383,0.411878,0.160187671,-0.17154386,0.404747,0.138431051,-0.164418112,0.398264,0.196094057,-0.256164923,0.41791,0.192912726,-0.213732721,0.401405,0.178243167,-0.200453598,0.393821,0.160601887,-0.191143907,0.387129
0.208169705,-0.331608768,0.451535,0.207166739,-0.277260631,0.44193,0.198075714,-0.324847664,0.459605,0.181313819,-0.298919019,0.463336,0.161020761,-0.279662355,0.464765,0.147350689,-0.261347574,0.460617,0.189812113,-0.248233031,0.447813,0.170288858,-0.207952882,0.438744,0.153100417,-0.195035049,0.43421,0.13432294,-0.185074696,0.430088,0.202548181,-0.242818858,0.434907,0.16307097,-0.234849508,0.417756,0.160189081,-0.256448925,0.412091,0.163532114,-0.270687382,0.410283,0.213600983,-0.243339546,0.425301,0.188599109,-0.202674903,0.414207,0.175602022,-0.181506874,0.408531,0.163661486,-0.162038084,0.403385,0.227407165,-0.252449158,0.416008,0.209984789,-0.215726394,0.403131,0.201904915,-0.198645477,0.397214,0.189571171,-0.19183003,0.391994
0.209580219,-0.320642094,0.44826,0.210722447,-0.268389839,0.440139,0.203530644,-0.313797368,0.456553,0.182627237,-0.287630647,0.460732,0.162286164,-0.268339049,0.462404,0.151027703,-0.250035447,0.459761,0.198438048,-0.238036554,0.447067,0.172537378,-0.203202602,0.440463,0.159259278,-0.185338786,0.437161,0.14698573,-0.168822776,0.434159,0.208466886,-0.234894506,0.434201,0.191122288,-0.188795029,0.420556,0.182274344,-0.163027345,0.415501,0.165528922,-0.157122915,0.41189,0.217100848,-0.237211719,0.42447,0.197049713,-0.194691279,0.415074,0.183489398,-0.174649419,0.410267,0.170896887,-0.156011676,0.405897,0.227190231,-0.250015784,0.414763,0.220907849,-0.208325775,0.402661,0.212509908,-0.192760416,0.397101,0.19835149,-0.191197974,0.392195
0.218159823,-0.30790543,0.439405,0.217969831,-0.261890616,0.431537,0.217906719,-0.304338465,0.448149,0.196525386,-0.283619819,0.453228,0.176399089,-0.265628858,0.456109,0.164964183,-0.248703807,0.455235,0.20149626,-0.234415402,0.439194,0.18957879,-0.193084327,0.431631,0.17561655,-0.176342188,0.42785,0.162680018,-0.160824119,0.424412,0.211422472,-0.228432565,0.425784,0.196234037,-0.182043428,0.414407,0.187465258,-0.155368694,0.40777,0.170810069,-0.146955292,0.403029,0.220584942,-0.228395751,0.415579,0.21373683,-0.18158912,0.404173,0.197625919,-0.164799633,0.398337,0.182566396,-0.149086875,0.393032,0.232808697,-0.236752487,0.405279,0.223088583,-0.195750459,0.393025,0.218640558,-0.177137043,0.387395,0.205942662,-0.169808983,0.382427
0.235420561,-0.312324307,0.446212,0.233653188,-0.265314401,0.43402,0.223297002,-0.30568193,0.451014,0.20098017,-0.281223487,0.450424,0.182356878,-0.261382745,0.453046,0.174314006,-0.244189994,0.45378,0.212993624,-0.232264065,0.434253,0.199082283,-0.188604882,0.421602,0.185977459,-0.171407883,0.415277,0.173828569,-0.155439994,0.409527,0.228799299,-0.231093083,0.425104,0.211346557,-0.18472782,0.408295,0.201144338,-0.157585919,0.39849,0.191296829,-0.140092565,0.391486,0.242503145,-0.235117622,0.41887,0.22643101,-0.188272446,0.403446,0.217243003,-0.165025485,0.395554,0.208694735,-0.143980956,0.38838,0.259460366,-0.248284411,0.413929,0.254103713,-0.209080213,0.397102,0.251642683,-0.191068075,0.389371,0.241824234,-0.185675783,0.382549
0.265778306,-0.31251203,0.44965,0.257437961,-0.26441614,0.435339,0.252606284,-0.305215587,0.454307,0.225475015,-0.277559664,0.449763,0.202111499,-0.254740548,0.446249,0.186528755,-0.235736082,0.438198,0.235833644,-0.230634425,0.434311,0.22138092,-0.186688963,0.421236,0.20770262,-0.170124715,0.414698,0.195018288,-0.154733463,0.408754,0.251338501,-0.229428534,0.424874,0.232849891,-0.182110145,0.406219,0.222080461,-0.154587896,0.395336,0.211597579,-0.137336983,0.387563,0.264978761,-0.233528484,0.418629,0.253245548,-0.185224843,0.402959,0.242481744,-0.16414948,0.394942,0.229775937,-0.149121466,0.387654,0.282206119,-0.246979846,0.414063,0.27015559,-0.206322873,0.396688,0.264619401,-0.18770986,0.388705,0.253690721,-0.182495,0.381661
0.27104209,-0.310031146,0.450519,0.264815952,-0.256677747,0.431905,0.253580871,-0.299712089,0.449462,0.231037389,-0.273329986,0.448508,0.203574438,-0.253607566,0.445261,0.191614547,-0.23593637,0.441914,0.235025626,-0.219453037,0.42111,0.218403086,-0.177631466,0.410417,0.207392615,-0.15939622,0.405071,0.197201606,-0.142464833,0.400211,0.256765217,-0.220416324,0.418294,0.235079598,-0.175616503,0.394136,0.222388355,-0.149289728,0.380044,0.213301631,-0.130384761,0.369978,0.275963458,-0.226501218,0.417963,0.257584605,-0.177158749,0.396281,0.245588956,-0.158228879,0.385189,0.23456396,-0.140672074,0.375104,0.30029814,-0.242657625,0.420986,0.281637417,-0.198492379,0.400055,0.268458664,-0.18761951,0.390438,0.257827748,-0.184053861,0.381953
0.279620339,-0.309859211,0.447098,0.281784601,-0.264450108,0.433298,0.262595401,-0.30039978,0.447323,0.243040073,-0.276113456,0.442893,0.217426519,-0.25174132,0.435756,0.202479422,-0.231694903,0.42619,0.258563579,-0.226859412,0.426635,0.235387991,-0.188077033,0.410654,0.223687638,-0.168433537,0.402663,0.212979661,-0.150415321,0.395399,0.278839208,-0.228428962,0.423207,0.263582449,-0.182550296,0.403513,0.253519583,-0.157047172,0.392025,0.246303416,-0.138601887,0.38382,0.296244248,-0.234989582,0.421857,0.279970713,-0.187978898,0.402963,0.270369248,-0.165789586,0.393296,0.261605174,-0.145399447,0.384508,0.317516926,-0.251793586,0.422828,0.312678813,-0.211617472,0.413853,0.307743945,-0.195357605,0.409729,0.301058887,-0.192801151,0.40609
0.314233607,-0.320933372,0.450381,0.30735787,-0.271900845,0.43833,0.298562305,-0.313073075,0.452696,0.269855691,-0.284155372,0.446217,0.245457564,-0.260395373,0.440983,0.231575795,-0.240392795,0.433565,0.283463676,-0.237583324,0.435306,0.26312515,-0.196424843,0.420507,0.252501076,-0.176302976,0.413108,0.242797548,-0.157885293,0.406381,0.302290175,-0.236547296,0.429489,0.290166486,-0.187893601,0.410947,0.278455167,-0.166157085,0.40013,0.26999328,-0.150229073,0.392405,0.318655107,-0.240819907,0.425982,0.304626249,-0.193894864,0.407917,0.29744936,-0.169958602,0.398674,0.287774418,-0.153847201,0.390272,0.33901069,-0.254634601,0.424148,0.331789981,-0.212692271,0.408246,0.327408065,-0.194915027,0.40094,0.319202946,-0.190843319,0.394493
0.318564686,-0.317343496,0.44658,0.322339435,-0.266260431,0.435634,0.302719316,-0.309170002,0.44867,0.279167679,-0.277227072,0.440181,0.256004539,-0.254252143,0.436975,0.247497333,-0.237082797,0.437453,0.300156045,-0.231531504,0.432873,0.282844837,-0.191988506,0.418181,0.274115965,-0.171891173,0.410835,0.265657369,-0.15448703,0.404157,0.319690561,-0.230918962,0.427605,0.306685972,-0.184904457,0.410444,0.299081843,-0.157984971,0.400433,0.295936116,-0.139782964,0.396344,0.3362456,-0.235481655,0.424432,0.324021974,-0.190975613,0.407227,0.317411773,-0.168669047,0.398424,0.310007324,-0.151624837,0.390422,0.356329103,-0.249592252,0.42278,0.349750252,-0.210764619,0.407762,0.346744489,-0.192842087,0.400862,0.339745392,-0.188186351,0.394774
0.330211429,-0.317022673,0.445431,0.335864756,-0.270329051,0.435932,0.314032559,-0.307557062,0.446738,0.291560993,-0.277734252,0.439646,0.269948879,-0.253992761,0.436797,0.260103673,-0.234780192,0.434093,0.315493047,-0.234063172,0.432862,0.300113504,-0.192517634,0.41987,0.292410308,-0.171666487,0.413374,0.284576929,-0.154670013,0.407469,0.335986484,-0.236007221,0.428964,0.325936525,-0.193104515,0.413103,0.320115167,-0.167476492,0.40385,0.31597842,-0.148867064,0.397241,0.352960426,-0.242570774,0.426765,0.346855573,-0.196102158,0.410844,0.342409739,-0.17513189,0.402698,0.337523561,-0.158130871,0.395292,0.372765391,-0.258775364,0.42597,0.370476635,-0.21935995,0.412141,0.369404448,-0.201311417,0.405786,0.364682823,-0.19526314,0.40018
0.357891765,-0.320293666,0.446663,0.357691144,-0.271896661,0.436863,0.342044303,-0.310377797,0.448133,0.313101169,-0.279139327,0.440303,0.291308487,-0.255261633,0.43728,0.28119669,-0.235816347,0.434184,0.337012057,-0.235575656,0.433855,0.321498105,-0.193841676,0.420625,0.313731309,-0.172909696,0.41401,0.306053797,-0.155860296,0.407996,0.357361749,-0.237373982,0.429673,0.347378868,-0.194258042,0.413446,0.341615086,-0.168534552,0.403981,0.337527655,-0.149870885,0.39722,0.374263776,-0.243839175,0.427273,0.367723585,-0.197141946,0.410983,0.363356896,-0.176095199,0.402649,0.358708028,-0.159045474,0.395072,0.394085751,-0.259963044,0.426301,0.391515011,-0.220390016,0.412229,0.390309434,-0.202282117,0.405764,0.385928757,-0.196205953,0.400059
0.357420031,-0.318293674,0.445288,0.357598417,-0.270644708,0.436562,0.341526296,-0.308822624,0.446907,0.313717735,-0.277699964,0.439965,0.29278559,-0.253814496,0.437519,0.283924094,-0.234878508,0.435761,0.337013486,-0.234988248,0.434298,0.323317516,-0.192856676,0.421827,0.316324388,-0.172382085,0.415592,0.309640716,-0.154694189,0.409924,0.357581727,-0.23654228,0.430161,0.352219903,-0.189950028,0.414659,0.349149073,-0.16356164,0.405617,0.342660703,-0.149322938,0.399158,0.37454038,-0.242731099,0.427683,0.369031031,-0.196541528,0.412396,0.365659683,-0.174689702,0.404574,0.361898415,-0.158137215,0.397464,0.394243646,-0.258363286,0.426426,0.393490538,-0.220074764,0.413222,0.393054514,-0.203015232,0.407155,0.38911702,-0.198833823,0.401802
0.360664517,-0.317847611,0.4452,0.371369455,-0.27132688,0.439737,0.34547603,-0.308789516,0.447634,0.324249788,-0.276327228,0.440444,0.300021378,-0.249209905,0.43212,0.290180465,-0.229088965,0.428056,0.353933787,-0.236742004,0.440205,0.345464793,-0.19420098,0.430361,0.341232841,-0.173153919,0.425438,0.336933233,-0.160442825,0.420963,0.374152391,-0.238717595,0.435728,0.372946544,-0.1969458,0.422888,0.372450877,-0.171844044,0.415398,0.372200967,-0.153545911,0.410048,0.390327316,-0.24500544,0.432623,0.388983376,-0.201050727,0.420281,0.388344968,-0.178374639,0.413966,0.38779579,-0.157641858,0.408225,0.4083546,-0.260306826,0.430048,0.414044031,-0.22475462,0.419495,0.416736137,-0.20827421,0.414646,0.415250123,-0.203358556,0.410368
0.370256753,-0.321658019,0.452491,0.382616318,-0.269244073,0.443276,0.360118494,-0.3085324,0.452405,0.335201393,-0.273164327,0.443744,0.314212106,-0.247850488,0.439825,0.307368877,-0.230106061,0.440549,0.361322166,-0.23180446,0.438499,0.351071398,-0.19360644,0.424411,0.34596604,-0.174035241,0.417366,0.341339428,-0.155941137,0.410963,0.383266935,-0.235421224,0.436517,0.38058948,-0.192511176,0.420374,0.378673832,-0.168900099,0.410957,0.377438308,-0.151648707,0.404231,0.401375022,-0.243260667,0.435866,0.399365998,-0.19907516,0.419929,0.397986648,-0.178734261,0.411776,0.396653103,-0.160933344,0.404364,0.422485326,-0.260834793,0.4368,0.428447713,-0.226427624,0.42381,0.431135886,-0.210910704,0.417842,0.429093022,-0.205444888,0.412576
0.383801844,-0.320419353,0.455167,0.394882608,-0.271969055,0.447329,0.372065907,-0.308169276,0.45645,0.351368572,-0.276743787,0.45052,0.32793672,-0.249323535,0.441761,0.317118235,-0.228299883,0.434062,0.375977047,-0.235691641,0.445067,0.368875397,-0.191945749,0.43229,0.364385213,-0.176036933,0.425902,0.360182228,-0.162335859,0.420094,0.396842782,-0.238806739,0.441576,0.396322452,-0.193332097,0.426482,0.395226849,-0.170402525,0.417677,0.394185433,-0.155144954,0.411388,0.413731345,-0.246144272,0.439534,0.412988206,-0.203106842,0.424664,0.412716149,-0.180804236,0.417056,0.412457388,-0.161264898,0.41014,0.432764634,-0.262821348,0.438613,0.439198156,-0.226697199,0.426515,0.441866392,-0.212471163,0.420956,0.44222089,-0.205172501,0.416052
0.39492896,-0.320552708,0.458796,0.400776127,-0.272411642,0.449354,0.38309793,-0.308992097,0.459706,0.357807093,-0.275060925,0.450264,0.331896597,-0.24925135,0.443378,0.3214031,-0.228414156,0.436998,0.385269106,-0.234156322,0.445785,0.376725962,-0.19129504,0.432005,0.371508416,-0.174597548,0.425116,0.362939766,-0.16042263,0.418852,0.406104621,-0.237634138,0.442423,0.404093624,-0.192082051,0.426166,0.401542799,-0.169432785,0.416683,0.396249226,-0.15390017,0.409909,0.423210032,-0.245396324,0.440659,0.422979003,-0.200661566,0.424263,0.422022424,-0.180546302,0.415875,0.421331195,-0.16186931,0.408249,0.442933184,-0.262897221,0.44035,0.448799826,-0.225430621,0.426895,0.448333618,-0.215699826,0.420713,0.444731373,-0.205868966,0.415258
