sluyters/QuantumLeap/backend/src/datasets/gesture/HandGestureDataset_SHREC2017_csv/Gesture12/finger_2/subject_24_essai_3_skeletons_world.csv
Wrist_x,Wrist_y,Wrist_z,Palm_x,Palm_y,Palm_z,thumb_base_x,thumb_base_y,thumb_base_z,thumb_first_joint_x,thumb_first_joint_y,thumb_first_joint_z,thumb_second_joint_x,thumb_second_joint_y,thumb_second_joint_z,thumb_tip_x,thumb_tip_y,thumb_tip_z,index_base_x,index_base_y,index_base_z,index_first_joint_x,index_first_joint_y,index_first_joint_z,index_second_joint_x,index_second_joint_y,index_second_joint_z,index_tip_x,index_tip_y,index_tip_z,middle_base_x,middle_base_y,middle_base_z,middle_first_joint_x,middle_first_joint_y,middle_first_joint_z,middle_second_joint_x,middle_second_joint_y,middle_second_joint_z,middle_tip_x,middle_tip_y,middle_tip_z,ring_base_x,ring_base_y,ring_base_z,ring_first_joint_x,ring_first_joint_y,ring_first_joint_z,ring_second_joint_x,ring_second_joint_y,ring_second_joint_z,ring_tip_x,ring_tip_y,ring_tip_z,pinky_base_x,pinky_base_y,pinky_base_z,pinky_first_joint_x,pinky_first_joint_y,pinky_first_joint_z,pinky_second_joint_x,pinky_second_joint_y,pinky_second_joint_z,pinky_tip_x,pinky_tip_y,pinky_tip_z,
0.27610368,-0.198153517,0.449519,0.273929476,-0.143025537,0.43881,0.256397968,-0.179812217,0.447252,0.225623478,-0.148426256,0.433469,0.197700952,-0.122818999,0.417334,0.185088345,-0.105726144,0.409304,0.24786964,-0.100550489,0.429413,0.232254377,-0.0610856242,0.414769,0.222276936,-0.047506658,0.407447,0.221114964,-0.0376668856,0.417001,0.271786215,-0.103033221,0.429443,0.265111432,-0.0596427399,0.413162,0.258239468,-0.0367245032,0.403664,0.252892487,-0.022430187,0.39688,0.291964391,-0.109549887,0.430515,0.287078326,-0.0684671558,0.4151,0.281805827,-0.0503207697,0.407214,0.277017601,-0.0333059295,0.400044,0.316301138,-0.121822451,0.433609,0.316810736,-0.0880435545,0.421177,0.314770385,-0.0761065499,0.415465,0.310828063,-0.0689425259,0.410425
0.275822119,-0.196165414,0.448642,0.273605296,-0.142220491,0.438122,0.256302713,-0.178725525,0.446442,0.225375298,-0.147902756,0.432759,0.197421405,-0.122359593,0.416877,0.184797056,-0.104781932,0.409172,0.247410509,-0.100154538,0.428969,0.231900319,-0.0606516106,0.414452,0.221966873,-0.0466159844,0.407193,0.220995932,-0.036235766,0.416794,0.271292767,-0.1023368,0.428991,0.264794033,-0.0590113502,0.412876,0.257951827,-0.0360646348,0.403475,0.25277814,-0.0212773953,0.39676,0.291486689,-0.108594939,0.430044,0.286889702,-0.0675957194,0.414784,0.281603618,-0.0495336684,0.406976,0.276801826,-0.0325833928,0.399878,0.315923277,-0.121676918,0.433091,0.316557995,-0.0879733165,0.420841,0.314863204,-0.0750856512,0.415212,0.310970671,-0.0677430687,0.410246
0.275978866,-0.194997047,0.448597,0.273517548,-0.141856521,0.437897,0.256435143,-0.178203766,0.446285,0.225262149,-0.147648206,0.432425,0.197197594,-0.122077943,0.416471,0.184469268,-0.104128693,0.408754,0.247032928,-0.0998968867,0.42849,0.231445932,-0.0603619079,0.413798,0.221477118,-0.0461002246,0.406452,0.220560884,-0.0353176526,0.415984,0.270948179,-0.101952015,0.42861,0.264379515,-0.0586390141,0.412334,0.257462593,-0.0356868498,0.40284,0.252308779,-0.0205518675,0.396059,0.291215661,-0.108105676,0.429761,0.286606553,-0.067115892,0.414353,0.28123474,-0.0490932093,0.40647,0.276353365,-0.0321821093,0.399303,0.315821882,-0.121637866,0.432952,0.31636167,-0.0879187567,0.42058,0.314766134,-0.0745400554,0.414896,0.310832626,-0.0670966609,0.40988
0.277847701,-0.198438181,0.452176,0.274796246,-0.145381306,0.440826,0.257888109,-0.183965028,0.44913,0.225475579,-0.153295063,0.434273,0.197890951,-0.130464551,0.417985,0.185274243,-0.107132886,0.409853,0.247970561,-0.102438214,0.430076,0.232050679,-0.067359053,0.414656,0.22204823,-0.0514590423,0.406946,0.22090315,-0.0357951647,0.416176,0.272545211,-0.108682714,0.430965,0.264923147,-0.0670489784,0.414069,0.258461062,-0.0419294731,0.404214,0.25286685,-0.0280577148,0.397174,0.292996771,-0.116230852,0.432813,0.288707147,-0.0751141283,0.416849,0.283510034,-0.0598104243,0.408682,0.278663392,-0.0466818603,0.401257,0.317561724,-0.133190097,0.436927,0.31682283,-0.0990237674,0.423804,0.315222272,-0.0864185131,0.417774,0.312662518,-0.070540266,0.412453
0.278699753,-0.199665731,0.453616,0.275337721,-0.158103082,0.441891,0.259033528,-0.187148033,0.45084,0.227961087,-0.165381235,0.436203,0.20028018,-0.138970552,0.419958,0.187345368,-0.11614603,0.412669,0.248481591,-0.117779485,0.431307,0.23233764,-0.0747489537,0.415783,0.222207177,-0.0601126128,0.408022,0.221740052,-0.0545927263,0.417176,0.272471094,-0.119965988,0.431767,0.264557887,-0.0765458351,0.414613,0.258727693,-0.0519892858,0.404606,0.253152119,-0.0335817565,0.397458,0.292975576,-0.124534264,0.433302,0.286786725,-0.0827919827,0.417053,0.283334265,-0.0632914751,0.40874,0.278911434,-0.0459958598,0.401182,0.317823238,-0.140388909,0.437119,0.316785325,-0.105997829,0.42385,0.315581361,-0.0910956583,0.417754,0.312343977,-0.078751501,0.412375
0.277279677,-0.203009753,0.453267,0.274759327,-0.160754411,0.441287,0.257966071,-0.192229188,0.450811,0.22752946,-0.166037812,0.436499,0.199655439,-0.139315304,0.419451,0.187328962,-0.119372688,0.411772,0.248300139,-0.118283496,0.430964,0.232665376,-0.0774083059,0.415559,0.222953455,-0.0663898425,0.407857,0.221767477,-0.054828947,0.417022,0.272163788,-0.121805691,0.430943,0.263918725,-0.0771426585,0.413641,0.256460622,-0.056378937,0.403549,0.251864078,-0.0368894282,0.39634,0.292200599,-0.128216777,0.432105,0.285400527,-0.08911921,0.415662,0.281814698,-0.0675517588,0.407249,0.277746249,-0.0464753028,0.399601,0.316143425,-0.144650697,0.435534,0.315664599,-0.112518583,0.421966,0.314443581,-0.0975284886,0.415733,0.311594291,-0.0824188092,0.410232
0.274629623,-0.210918578,0.450423,0.270136663,-0.17454985,0.438077,0.254677709,-0.200932,0.447974,0.22220489,-0.17928458,0.43359,0.196490822,-0.15352723,0.422549,0.188893527,-0.137813022,0.422925,0.244224993,-0.132282843,0.427543,0.227539279,-0.0927263438,0.411869,0.217512526,-0.0794071746,0.404032,0.216666324,-0.0695908572,0.413079,0.267802501,-0.134622082,0.427415,0.259487253,-0.0914094033,0.40978,0.252350048,-0.0685887477,0.399493,0.247240363,-0.0519066643,0.392145,0.287772352,-0.14106508,0.428526,0.28187939,-0.100278929,0.411768,0.277832351,-0.0803401219,0.403194,0.274179006,-0.0619651321,0.3954,0.312098677,-0.156750125,0.431958,0.312837209,-0.122595526,0.418316,0.309655363,-0.111122646,0.412047,0.306887861,-0.100750967,0.406517
0.269193094,-0.229165599,0.445087,0.268119613,-0.190357839,0.434559,0.250247813,-0.225535581,0.443009,0.219580237,-0.195058207,0.429474,0.193343568,-0.1691373,0.416111,0.182543111,-0.150264959,0.411806,0.243958708,-0.148421175,0.425591,0.226212065,-0.1104387,0.411281,0.215862921,-0.0954981528,0.404126,0.214603039,-0.0847766339,0.413754,0.26711284,-0.150870008,0.425468,0.258973528,-0.10770098,0.409409,0.251041788,-0.085830527,0.400041,0.245067496,-0.0702175982,0.39335,0.286658386,-0.157384075,0.426405,0.281043372,-0.116240974,0.411146,0.275464625,-0.098166461,0.403339,0.270386373,-0.0812887102,0.396242,0.310266183,-0.173130804,0.429318,0.307995605,-0.13882402,0.416697,0.306913649,-0.123086612,0.410897,0.306145465,-0.104911226,0.405781
0.269694213,-0.245688518,0.447157,0.266005965,-0.203067945,0.43456,0.250350342,-0.233010404,0.444615,0.217685087,-0.208916447,0.430063,0.190450166,-0.18285863,0.41452,0.178382197,-0.163324433,0.40838,0.239732786,-0.160164987,0.423756,0.220588163,-0.122138745,0.407957,0.209898189,-0.109681079,0.400057,0.20816395,-0.102005215,0.409041,0.263134765,-0.162455807,0.423682,0.252282398,-0.119987792,0.40586,0.244201446,-0.0975197341,0.395464,0.238399416,-0.0811145546,0.388038,0.283046443,-0.168943445,0.424863,0.27351948,-0.128969945,0.407942,0.267900525,-0.109455337,0.399285,0.262795505,-0.091432571,0.391415,0.307436717,-0.184836506,0.428419,0.304504889,-0.151258504,0.414233,0.301683993,-0.137763336,0.407715,0.299228878,-0.125660914,0.401963
0.269634364,-0.261453464,0.448053,0.266266011,-0.220984648,0.436023,0.25048945,-0.257752177,0.446131,0.218404257,-0.228884562,0.432451,0.189445817,-0.2029681,0.416105,0.175804555,-0.183162099,0.407712,0.240216881,-0.178021196,0.426361,0.22168242,-0.139341656,0.411303,0.210818029,-0.125300553,0.403774,0.208854657,-0.116700483,0.413029,0.263223812,-0.180094705,0.425635,0.252441477,-0.137744443,0.408365,0.245073341,-0.114203922,0.398292,0.239558239,-0.0974697563,0.391096,0.282790356,-0.186447483,0.426223,0.27659974,-0.144874023,0.409744,0.270789597,-0.127362186,0.401314,0.265263548,-0.111546326,0.393649,0.306715174,-0.202221185,0.428991,0.306573673,-0.168375512,0.415468,0.303637816,-0.15685469,0.409255,0.301087805,-0.146468579,0.403773
0.273523674,-0.276236389,0.451449,0.269064655,-0.230047051,0.436724,0.253772202,-0.263523301,0.448789,0.221077638,-0.240846614,0.434355,0.18986315,-0.217144929,0.41602,0.17414223,-0.198050304,0.406249,0.240413444,-0.18588379,0.424499,0.219580592,-0.148151131,0.407275,0.207785245,-0.134628586,0.398663,0.204968254,-0.127052141,0.40697,0.26354292,-0.187994883,0.424009,0.249428753,-0.146093816,0.404438,0.240358224,-0.122761109,0.393022,0.233855167,-0.105864966,0.384868,0.283521164,-0.194521043,0.425056,0.27209542,-0.154352191,0.406418,0.266023037,-0.134035729,0.396883,0.26150888,-0.112910935,0.38889,0.308444318,-0.210751486,0.428825,0.304504475,-0.175869416,0.413265,0.299990499,-0.16479863,0.406116,0.296024832,-0.154846152,0.399808
0.276110891,-0.291391436,0.452687,0.269484833,-0.250563079,0.437406,0.25623075,-0.288827585,0.449989,0.221654537,-0.26140963,0.435194,0.190663181,-0.237587828,0.417172,0.175461547,-0.218179915,0.408658,0.240583348,-0.205651233,0.424799,0.219485702,-0.167785221,0.407099,0.207569466,-0.154505635,0.398249,0.204650958,-0.148024993,0.40634,0.263667851,-0.2078598,0.42421,0.249249902,-0.165855869,0.404148,0.240005351,-0.142616226,0.392445,0.233380005,-0.125813768,0.384086,0.283637893,-0.214537862,0.425231,0.271904614,-0.174248865,0.406133,0.265674491,-0.153937156,0.396363,0.260012036,-0.135365492,0.38748,0.308617664,-0.231073627,0.429066,0.304432266,-0.195927433,0.413167,0.299802874,-0.185052614,0.405862,0.295735329,-0.175292514,0.399417
0.27576879,-0.312541856,0.454076,0.268661834,-0.270046495,0.43752,0.254891413,-0.308681901,0.451167,0.221273781,-0.278055207,0.435367,0.192215312,-0.253559396,0.418265,0.178413658,-0.233396124,0.410142,0.240466679,-0.223391895,0.423881,0.217863227,-0.184242848,0.40549,0.205415312,-0.174974635,0.396295,0.20186841,-0.173263972,0.404001,0.263387894,-0.226409272,0.423224,0.248004782,-0.186325424,0.402122,0.238397884,-0.163879726,0.389812,0.231510349,-0.147631706,0.38102,0.283164004,-0.233860231,0.424314,0.268557722,-0.194075523,0.404364,0.260500626,-0.174931196,0.394157,0.253159381,-0.157348423,0.384877,0.307839671,-0.251503458,0.428451,0.303355637,-0.215309121,0.411533,0.296945152,-0.208018087,0.403761,0.291270179,-0.20150056,0.396902
0.277721108,-0.332126681,0.455047,0.270102392,-0.286821063,0.437524,0.259894222,-0.328456921,0.452313,0.224153554,-0.298995091,0.436544,0.193607158,-0.275524344,0.420458,0.178072812,-0.256132244,0.411545,0.238840977,-0.240992797,0.423533,0.215977897,-0.205450225,0.404252,0.203319007,-0.19380169,0.394612,0.199560027,-0.190626574,0.401893,0.261279162,-0.241951825,0.422392,0.243210144,-0.203682039,0.40049,0.232504925,-0.181254473,0.387714,0.224824826,-0.165054517,0.378588,0.281099407,-0.247816815,0.42318,0.266373508,-0.210093218,0.402308,0.25855634,-0.191165201,0.39163,0.251440137,-0.173793363,0.381922,0.306649613,-0.263838885,0.427131,0.303022964,-0.22836541,0.409813,0.295624788,-0.223052941,0.401856,0.289056878,-0.218342196,0.394835
0.2823627,-0.350574575,0.456084,0.272215219,-0.304316999,0.438003,0.263582895,-0.346911585,0.453771,0.227476723,-0.318051544,0.438422,0.196490052,-0.295340072,0.422721,0.180464623,-0.276152037,0.413776,0.240385336,-0.258421069,0.424225,0.216289319,-0.223456394,0.404766,0.203014818,-0.212391634,0.395037,0.198593781,-0.210520444,0.402143,0.262230382,-0.258838264,0.42239,0.242610938,-0.221082619,0.400078,0.230983521,-0.19899191,0.387063,0.222635708,-0.183044239,0.377766,0.281680528,-0.264325123,0.42266,0.265449087,-0.226971095,0.401352,0.256845027,-0.208283368,0.39045,0.249005937,-0.191140264,0.380539,0.307019034,-0.28002192,0.426106,0.302218345,-0.244355132,0.408391,0.294263379,-0.239462409,0.400252,0.287194452,-0.235144416,0.39307
0.279408366,-0.367762103,0.454435,0.269273519,-0.322431436,0.437143,0.256482455,-0.363475781,0.451843,0.221314308,-0.334188953,0.43629,0.190736131,-0.309735999,0.420293,0.17629817,-0.289554836,0.412884,0.240958039,-0.274191714,0.423474,0.216832533,-0.238389376,0.404521,0.203920391,-0.225805532,0.395044,0.199944849,-0.223070435,0.402454,0.263252519,-0.276811963,0.422212,0.2432216,-0.240719326,0.400607,0.231429259,-0.219304107,0.388005,0.2229495,-0.203819047,0.379003,0.282609146,-0.28414693,0.422876,0.266256208,-0.248051441,0.402253,0.257747045,-0.229657718,0.391701,0.249990404,-0.212773035,0.382109,0.307020721,-0.302062753,0.426644,0.299204118,-0.268364866,0.409365,0.294716295,-0.254649875,0.401426,0.289484264,-0.239230701,0.394421
0.275296307,-0.381559415,0.455086,0.269184846,-0.326319665,0.437787,0.255502053,-0.366608142,0.451808,0.219461012,-0.341778975,0.437818,0.188930508,-0.318501113,0.423762,0.174936391,-0.299386137,0.417982,0.240962595,-0.280241845,0.423227,0.215919494,-0.246855787,0.404156,0.202885313,-0.235101855,0.394621,0.19880068,-0.234958524,0.402019,0.263730646,-0.284066007,0.422849,0.245370894,-0.24681404,0.401103,0.234595378,-0.224773456,0.388418,0.225018357,-0.206448964,0.379357,0.283410397,-0.292420381,0.424243,0.26714251,-0.256557513,0.403631,0.258172724,-0.239797965,0.393086,0.249666744,-0.225344282,0.383499,0.308036163,-0.311588751,0.428861,0.300687061,-0.277713648,0.411532,0.296307735,-0.26418129,0.403571,0.292457166,-0.25215635,0.396545
0.274213141,-0.393751635,0.455922,0.268460978,-0.346000486,0.438875,0.254567471,-0.378338517,0.452565,0.218872681,-0.358919625,0.438521,0.187407695,-0.334996241,0.422569,0.172737016,-0.315541876,0.415966,0.240901321,-0.295842358,0.424363,0.215534083,-0.262931865,0.405386,0.202341092,-0.252156279,0.395897,0.198046634,-0.25312995,0.403363,0.2636366,-0.299874934,0.424154,0.244872571,-0.262758132,0.402593,0.233853499,-0.240808595,0.390015,0.225945194,-0.224976778,0.381031,0.283317105,-0.308465136,0.425662,0.26663688,-0.273752537,0.405226,0.258064275,-0.255744734,0.39477,0.250244995,-0.239207975,0.385264,0.307974771,-0.328045258,0.43037,0.301187157,-0.292711387,0.41324,0.296590193,-0.279465936,0.40537,0.292546002,-0.26769311,0.398425
0.272677925,-0.409319724,0.455025,0.267578112,-0.361944499,0.439535,0.25283272,-0.402596616,0.452328,0.218491011,-0.372777344,0.43897,0.188599185,-0.350132664,0.42415,0.174116568,-0.330662472,0.417428,0.240836093,-0.312574954,0.426807,0.216459806,-0.278935759,0.409184,0.203752343,-0.268601448,0.400372,0.199843697,-0.270115349,0.408456,0.263397392,-0.316017943,0.42616,0.245120385,-0.279821601,0.405969,0.234364247,-0.258360693,0.394191,0.226632382,-0.242852771,0.385778,0.282814432,-0.324082831,0.427154,0.266924077,-0.288904522,0.408004,0.25875516,-0.270656923,0.398206,0.251283821,-0.253954356,0.389298,0.306985141,-0.34296502,0.430994,0.298785198,-0.309033901,0.414682,0.293469752,-0.296955626,0.407188,0.288780465,-0.286197649,0.400575
0.273006053,-0.4240696,0.456681,0.267625833,-0.372003803,0.439935,0.253432135,-0.408420637,0.453475,0.218255823,-0.383536716,0.43951,0.187669481,-0.36127676,0.423933,0.172472504,-0.341613019,0.416459,0.240282923,-0.321061289,0.425798,0.214639103,-0.288842078,0.407097,0.201408287,-0.27969559,0.397747,0.196943147,-0.282519216,0.405339,0.262828351,-0.325018126,0.425474,0.243031111,-0.290488318,0.404181,0.231362907,-0.270016687,0.39176,0.222966251,-0.255222885,0.382888,0.282368414,-0.333643692,0.426858,0.265935753,-0.297510093,0.406649,0.257443539,-0.27897576,0.396309,0.249675959,-0.262064033,0.38691,0.306898574,-0.353455956,0.431368,0.298704596,-0.31806356,0.41426,0.292970333,-0.306105464,0.4064,0.287909198,-0.295466353,0.399464
0.273892796,-0.436053828,0.457257,0.27004144,-0.385753623,0.441572,0.254456184,-0.420275163,0.454183,0.220694397,-0.395932411,0.441302,0.19075006,-0.37535342,0.426601,0.175561468,-0.356556301,0.419654,0.243173426,-0.334848707,0.428238,0.218243016,-0.302304791,0.410246,0.205354866,-0.293245903,0.40125,0.201317151,-0.296627871,0.409205,0.265879802,-0.338937635,0.428028,0.245512913,-0.304035005,0.407607,0.233452587,-0.283496849,0.395695,0.224762686,-0.268664632,0.387186,0.28547653,-0.34765441,0.4294,0.268540555,-0.311090572,0.410065,0.259750629,-0.292462782,0.400172,0.251700461,-0.275489582,0.391178,0.309934316,-0.367540407,0.433715,0.299922045,-0.329186797,0.417036,0.292792335,-0.319131737,0.409373,0.286471325,-0.3101846,0.402612
0.275983994,-0.449655847,0.45964,0.269109004,-0.397196865,0.443011,0.256018734,-0.433486679,0.456018,0.220316718,-0.409187187,0.442545,0.190096773,-0.389696606,0.429758,0.174889269,-0.371302276,0.423701,0.240064364,-0.345813918,0.428405,0.212895006,-0.319437044,0.409496,0.199042565,-0.306069258,0.400042,0.193944801,-0.309474522,0.407592,0.263020727,-0.349822032,0.428651,0.240677007,-0.314535376,0.407374,0.227383613,-0.294111277,0.394962,0.217808761,-0.279377717,0.386097,0.283085718,-0.358546756,0.430492,0.264751264,-0.321396057,0.410325,0.25515167,-0.302814494,0.400006,0.246367729,-0.285888957,0.390626,0.308516243,-0.378572008,0.435515,0.297753832,-0.339426672,0.418238,0.290136596,-0.329826583,0.410299,0.283379445,-0.321297633,0.403295
0.276464388,-0.454818328,0.462205,0.269023806,-0.400573699,0.444724,0.256677858,-0.438739924,0.458838,0.221349371,-0.410728156,0.444838,0.191970084,-0.391256347,0.43261,0.177289766,-0.372555332,0.426506,0.24034796,-0.348700637,0.42994,0.212892175,-0.321788068,0.410704,0.198912113,-0.308160965,0.401086,0.193572847,-0.311678923,0.408407,0.262870442,-0.352639127,0.429628,0.239069196,-0.32012707,0.40772,0.225471608,-0.299733433,0.394941,0.216663954,-0.282103668,0.385812,0.282560101,-0.361368608,0.431094,0.26223135,-0.327907844,0.410426,0.251944062,-0.310375531,0.399852,0.242535806,-0.29433006,0.390239,0.306353254,-0.384162786,0.435829,0.296603335,-0.341498261,0.417924,0.287156811,-0.336168795,0.409697,0.279337232,-0.33045109,0.402438
0.279626254,-0.467068324,0.468476,0.270010867,-0.412923759,0.448758,0.258989977,-0.450271396,0.464156,0.223258311,-0.422180262,0.44875,0.194108115,-0.404408973,0.436393,0.178943051,-0.385937563,0.429569,0.238541826,-0.359984047,0.431406,0.209969853,-0.334017484,0.41025,0.195447849,-0.320917342,0.399671,0.189667808,-0.325974401,0.406048,0.261688185,-0.364152809,0.43173,0.237393069,-0.330726293,0.407884,0.223072186,-0.311026252,0.393973,0.212765627,-0.296850188,0.384037,0.282131122,-0.373165777,0.43394,0.261338614,-0.338202967,0.411366,0.250397916,-0.321173622,0.399817,0.240397246,-0.305611519,0.389317,0.308410416,-0.393774071,0.439929,0.296106547,-0.353372455,0.420589,0.287413051,-0.346295702,0.411704,0.279496784,-0.341114654,0.403863
0.278541408,-0.468894655,0.467833,0.26889494,-0.414913392,0.44829,0.257616662,-0.454380006,0.463899,0.221244024,-0.429815624,0.451341,0.189661208,-0.412392362,0.437505,0.172909595,-0.39462485,0.430196,0.238495404,-0.361803603,0.431543,0.209513656,-0.335814815,0.410743,0.194780039,-0.32270115,0.400342,0.188610534,-0.327741515,0.406856,0.261075145,-0.366150391,0.431415,0.236321495,-0.332408138,0.407776,0.221707613,-0.312597764,0.393987,0.211187234,-0.298346754,0.384138,0.281011848,-0.375326132,0.433235,0.259553747,-0.339920534,0.410937,0.248211433,-0.322756853,0.399529,0.237823971,-0.307126312,0.389158,0.306616639,-0.39616305,0.438739,0.289212095,-0.356439586,0.419163,0.278782138,-0.358172606,0.410169,0.269881358,-0.361695061,0.402233
0.276527347,-0.472671013,0.467668,0.267495629,-0.416356451,0.448197,0.25702829,-0.456663232,0.464562,0.220625954,-0.429431844,0.451088,0.190190058,-0.411313016,0.43876,0.175973617,-0.391519363,0.431531,0.237627414,-0.365228452,0.432563,0.207802194,-0.339266066,0.412362,0.192634811,-0.326163431,0.402261,0.185670197,-0.331171542,0.40894,0.259057495,-0.369478615,0.431384,0.233239349,-0.335327523,0.407964,0.217971476,-0.315358187,0.394303,0.206977004,-0.301000537,0.384545,0.277998405,-0.378606871,0.432332,0.255388183,-0.34272409,0.410377,0.243367316,-0.325412219,0.399145,0.232334727,-0.309702331,0.388934,0.302348951,-0.399453033,0.436807,0.286075184,-0.356535296,0.417584,0.275438538,-0.358346965,0.408751,0.266374727,-0.361939775,0.400958
0.276953273,-0.472538271,0.468823,0.264525285,-0.418005283,0.448171,0.256780095,-0.458434215,0.465966,0.216043286,-0.437988315,0.455317,0.183401474,-0.421330769,0.443964,0.166454129,-0.403228215,0.43745,0.233645418,-0.36512551,0.432155,0.198735099,-0.339762957,0.411461,0.182246598,-0.327300581,0.401114,0.17390593,-0.336576437,0.407395,0.254193117,-0.369032793,0.430338,0.222693028,-0.3341692,0.406057,0.205587157,-0.314408277,0.391894,0.19327395,-0.300221059,0.381777,0.272563092,-0.377946658,0.430877,0.245122322,-0.344930083,0.40822,0.231613721,-0.330278658,0.396628,0.219210487,-0.316868256,0.38609,0.296525827,-0.398674051,0.435081,0.280834218,-0.355150038,0.415335,0.269344946,-0.356626946,0.406262,0.259644186,-0.360336625,0.398256
0.273455314,-0.469453813,0.465288,0.257143314,-0.414528579,0.446128,0.254001846,-0.456157834,0.463465,0.213213481,-0.435057495,0.453707,0.181125112,-0.419146918,0.443596,0.164682629,-0.401826281,0.438149,0.228823172,-0.363407673,0.43234,0.193593379,-0.337296598,0.413208,0.176924553,-0.324758925,0.403642,0.172329654,-0.338907029,0.410596,0.245711496,-0.364760264,0.429583,0.216518205,-0.329550297,0.406687,0.198660887,-0.310597873,0.393332,0.185554989,-0.297591886,0.383792,0.263152743,-0.372544611,0.429201,0.238022447,-0.338941662,0.407686,0.224147727,-0.323806514,0.396678,0.211398332,-0.309938118,0.386671,0.286120597,-0.391862999,0.432075,0.275252094,-0.346175426,0.41338,0.263179052,-0.345306258,0.40479,0.25268966,-0.348089795,0.397211
0.272602548,-0.470329003,0.465928,0.255826503,-0.414108423,0.446397,0.25320742,-0.456861905,0.464185,0.210285096,-0.433827398,0.453525,0.179467498,-0.418199472,0.442468,0.162396076,-0.400525124,0.435997,0.225350305,-0.361834203,0.432491,0.192213865,-0.336891962,0.413207,0.175367425,-0.324315321,0.403566,0.167621519,-0.338022063,0.41039,0.244484375,-0.364194318,0.429532,0.214773677,-0.328785109,0.406369,0.195986787,-0.311896675,0.392857,0.178733777,-0.305856524,0.383206,0.261786181,-0.371800127,0.429021,0.236086581,-0.33793384,0.407186,0.22151458,-0.323886935,0.396014,0.207888938,-0.311782494,0.385859,0.284679817,-0.390964594,0.431807,0.273494165,-0.345104191,0.412896,0.26125173,-0.34415012,0.404207,0.250655416,-0.346853545,0.39654
0.269785848,-0.470508502,0.465599,0.246395483,-0.40601041,0.446226,0.246176191,-0.455410719,0.463752,0.202780729,-0.42756177,0.452077,0.16978092,-0.411859558,0.440065,0.156913617,-0.396516903,0.433006,0.216819776,-0.35565518,0.432279,0.183089463,-0.331490239,0.41301,0.165922449,-0.319303189,0.403375,0.157905271,-0.333102825,0.410248,0.236063028,-0.357391136,0.429498,0.205588958,-0.322701393,0.406431,0.185819918,-0.30841298,0.392976,0.17098618,-0.300990292,0.383365,0.253563679,-0.364413097,0.429117,0.227125546,-0.33115959,0.407394,0.211841605,-0.31864948,0.39628,0.197331985,-0.308726146,0.386177,0.276884054,-0.382768964,0.432028,0.264985055,-0.337368553,0.413203,0.252841637,-0.336654175,0.404554,0.242491356,-0.339568227,0.396923
0.259056608,-0.463723258,0.462958,0.239928587,-0.395957076,0.444367,0.237160935,-0.44437018,0.461625,0.197697311,-0.419547779,0.450679,0.164421889,-0.404700567,0.43923,0.146118441,-0.387494465,0.432039,0.210001764,-0.347458412,0.431551,0.175291163,-0.323766135,0.413088,0.157619208,-0.311811704,0.403857,0.148997382,-0.32530823,0.411065,0.228544871,-0.347797599,0.428314,0.196682323,-0.313306964,0.405976,0.176136235,-0.299050679,0.392945,0.160778406,-0.291619332,0.383637,0.245590494,-0.353593378,0.42748,0.217740616,-0.320414189,0.40649,0.20175263,-0.307884043,0.395751,0.186601519,-0.297919929,0.385989,0.268612796,-0.370403413,0.429729,0.255935395,-0.325544548,0.41149,0.243602734,-0.324859489,0.40311,0.233303783,-0.327884935,0.395716
0.24233444,-0.446616405,0.457006,0.224956092,-0.386299058,0.440106,0.225272236,-0.434103155,0.456669,0.182117534,-0.406938042,0.4459,0.150185616,-0.388313727,0.434649,0.131781381,-0.371210951,0.425622,0.198959529,-0.338628652,0.429586,0.16599604,-0.312108963,0.4128,0.14870276,-0.303573247,0.404408,0.138461997,-0.312564161,0.412296,0.216799194,-0.338116361,0.425513,0.186669592,-0.30210361,0.404737,0.166912077,-0.28633105,0.392617,0.151944081,-0.277660105,0.383961,0.232855048,-0.343177066,0.423824,0.206882182,-0.308534306,0.404273,0.191747996,-0.294540612,0.394271,0.177243875,-0.283214873,0.385177,0.254057305,-0.359099929,0.424783,0.241044887,-0.317918224,0.407731,0.228739894,-0.319820274,0.399896,0.222826146,-0.326976904,0.392983
0.226532807,-0.435981884,0.453606,0.211640523,-0.372421216,0.436174,0.203889978,-0.416676299,0.452833,0.169769658,-0.39257969,0.443732,0.137631061,-0.376122658,0.433045,0.118481719,-0.360420375,0.423434,0.186403144,-0.32412965,0.424773,0.152757977,-0.299487872,0.407368,0.135185434,-0.289664416,0.398666,0.123540078,-0.29294098,0.406335,0.204144007,-0.324758378,0.421121,0.180889358,-0.285229618,0.39982,0.161557613,-0.272642124,0.387394,0.147418034,-0.263561552,0.378519,0.22007596,-0.330736179,0.419831,0.193873143,-0.296148594,0.400286,0.178370367,-0.282476361,0.390286,0.163505738,-0.271381789,0.381195,0.241008904,-0.347691911,0.421349,0.228510364,-0.306869533,0.403942,0.215754574,-0.308442414,0.395945,0.209464958,-0.315536701,0.388888
0.212302505,-0.422949066,0.44835,0.197982339,-0.364359564,0.434943,0.195863198,-0.41194276,0.448939,0.157812915,-0.382210161,0.438812,0.128156201,-0.363539201,0.42974,0.112098622,-0.345738521,0.422928,0.17202525,-0.321742352,0.427706,0.140208531,-0.295730189,0.413609,0.123527435,-0.284988364,0.406561,0.112155489,-0.285742809,0.415689,0.190594234,-0.318443504,0.423366,0.170825426,-0.271513509,0.405582,0.152305619,-0.266892977,0.395208,0.138603224,-0.263670441,0.387798,0.207032778,-0.320872015,0.421113,0.186561412,-0.286238026,0.403461,0.173908917,-0.271790527,0.394429,0.161451686,-0.259981959,0.386218,0.228387161,-0.333057484,0.420812,0.223504986,-0.296469599,0.406061,0.211458075,-0.297958501,0.399283,0.203290473,-0.30552498,0.393303
0.201632795,-0.414628107,0.446076,0.191894928,-0.354988646,0.43243,0.185671095,-0.404625364,0.447356,0.153469099,-0.37220862,0.4395,0.123914301,-0.354235116,0.430524,0.107978387,-0.336355803,0.423584,0.170233864,-0.311409064,0.425943,0.139996342,-0.28086495,0.412218,0.122926994,-0.273819935,0.405355,0.111421262,-0.281563811,0.414432,0.186950028,-0.309312712,0.420646,0.164127442,-0.270862361,0.402856,0.144905788,-0.258223673,0.392478,0.130657673,-0.24927985,0.385066,0.201636235,-0.312750839,0.417629,0.181813069,-0.277137045,0.399916,0.168749231,-0.262391427,0.390854,0.155788018,-0.250156082,0.382616,0.220478847,-0.326191876,0.416478,0.217333055,-0.288571981,0.401475,0.204107181,-0.289406189,0.394582,0.198115448,-0.29920281,0.3885
0.190854444,-0.403912344,0.444909,0.181718117,-0.343230084,0.431988,0.176782714,-0.393107866,0.446703,0.142739088,-0.360183733,0.439359,0.112287877,-0.343751066,0.429736,0.0949847365,-0.326610563,0.42123,0.163657412,-0.299890929,0.426598,0.13372451,-0.269399785,0.413677,0.116187663,-0.262206281,0.407216,0.103475154,-0.265716524,0.416545,0.17907602,-0.298336946,0.42083,0.156256103,-0.259959361,0.403757,0.136239837,-0.247061836,0.393798,0.121431774,-0.237779428,0.386684,0.192461058,-0.302163474,0.417355,0.172508222,-0.266446494,0.400248,0.158999671,-0.251486588,0.391496,0.145527119,-0.238957696,0.383539,0.209323919,-0.315981581,0.415545,0.2121483,-0.277172928,0.403232,0.200141791,-0.273032682,0.397575,0.190292791,-0.279991236,0.392583
0.176082242,-0.390903667,0.440444,0.169481596,-0.333655483,0.428594,0.163829839,-0.380264202,0.443107,0.130255308,-0.352904353,0.438519,0.100811598,-0.334970466,0.430984,0.0830354631,-0.319388344,0.422063,0.155220771,-0.291317756,0.424968,0.125805605,-0.261075099,0.413331,0.108104999,-0.252908243,0.407512,0.0947289231,-0.256366215,0.417193,0.16934606,-0.289547518,0.418362,0.148029492,-0.250099641,0.402391,0.128023081,-0.23598855,0.393075,0.113192043,-0.225837934,0.38642,0.181369346,-0.293110471,0.41409,0.163421497,-0.256237322,0.397614,0.150331698,-0.240556214,0.389185,0.137138584,-0.227229738,0.381521,0.196108424,-0.306489515,0.411168,0.199534165,-0.270100681,0.403344,0.188257783,-0.263924571,0.399749,0.179005265,-0.270705163,0.396577
0.165170553,-0.380968874,0.440153,0.159980813,-0.321051136,0.427793,0.153583291,-0.370266029,0.442931,0.121906678,-0.341130144,0.438606,0.0921252779,-0.324456912,0.431583,0.073789942,-0.309471733,0.422548,0.144975864,-0.279175735,0.424011,0.114425887,-0.249791497,0.412166,0.0963850539,-0.240708638,0.406243,0.0822494346,-0.241862896,0.415752,0.158785643,-0.277196879,0.41712,0.136058074,-0.238521901,0.400779,0.115271,-0.22498636,0.391247,0.0998479648,-0.215256545,0.384438,0.17064372,-0.280559938,0.412664,0.151302305,-0.244391027,0.395719,0.137480778,-0.229121039,0.387049,0.123605817,-0.216188673,0.379168,0.185355277,-0.293629749,0.409616,0.188353727,-0.257624756,0.401927,0.176681057,-0.251870928,0.398394,0.167503779,-0.258941577,0.395277
0.183982184,-0.344383967,0.462534,0.155711724,-0.290418573,0.437816,0.163156708,-0.339276753,0.462024,0.12143113,-0.326570775,0.448082,0.0851679459,-0.312853258,0.432219,0.0641464529,-0.296648339,0.421237,0.1138215,-0.253334231,0.422409,0.0848707733,-0.21559605,0.404513,0.0687991912,-0.214727724,0.395565,0.057018134,-0.223894216,0.401985,0.132106185,-0.245373919,0.416472,0.10492796,-0.201457068,0.395333,0.0836791778,-0.19203844,0.383002,0.0760120356,-0.199494921,0.374194,0.149933482,-0.243864439,0.414019,0.118117616,-0.236962869,0.386486,0.117910047,-0.245658264,0.372399,0.125601769,-0.260236376,0.37556,0.175821203,-0.251082704,0.415443,0.144567977,-0.218807786,0.393855,0.1317967,-0.216904957,0.383937,0.130048155,-0.223156974,0.375185
0.18094536,-0.340138496,0.463317,0.150791338,-0.28092267,0.436308,0.159499894,-0.333315079,0.461231,0.114240928,-0.313175655,0.445268,0.0783065523,-0.299162479,0.429619,0.0574417347,-0.282404932,0.418129,0.108778306,-0.240656401,0.417495,0.0805189869,-0.201926296,0.398317,0.0647302008,-0.20136662,0.388727,0.0531525794,-0.210656205,0.394808,0.128301249,-0.235358439,0.412985,0.102235873,-0.190860019,0.390036,0.0815184402,-0.181758753,0.376649,0.0741660108,-0.192648519,0.367087,0.147091205,-0.236114284,0.411933,0.116721762,-0.233048299,0.383797,0.116000734,-0.241379418,0.369401,0.12302941,-0.255184933,0.371981,0.174877263,-0.248597279,0.415385,0.143794323,-0.215715298,0.392456,0.130988984,-0.213790007,0.381922,0.128947998,-0.219953041,0.372626
0.177088043,-0.338560296,0.463275,0.147213902,-0.279935387,0.436218,0.151958585,-0.327649219,0.460754,0.10744215,-0.310771995,0.446468,0.0724180868,-0.297553541,0.43308,0.0507313486,-0.282828983,0.422149,0.102875241,-0.237698728,0.416813,0.0805529747,-0.200623885,0.403456,0.0647063109,-0.199806653,0.396777,0.0515628384,-0.206790589,0.405647,0.122312518,-0.232222018,0.412853,0.0989023591,-0.189691929,0.388116,0.0784294844,-0.180778351,0.373687,0.0717991848,-0.190343222,0.36338,0.140949177,-0.23293577,0.412259,0.108791337,-0.225889649,0.384557,0.109639682,-0.234917716,0.370384,0.120047741,-0.251255071,0.373171,0.167545201,-0.243145932,0.416252,0.141992777,-0.211379431,0.392805,0.129314128,-0.209384083,0.382032,0.126460385,-0.215896055,0.372526
0.15709195,-0.317877593,0.44741,0.128600428,-0.261423215,0.427923,0.133009582,-0.305372686,0.448947,0.0942390908,-0.293436189,0.440628,0.0589493827,-0.281159459,0.426937,0.0386203832,-0.265596243,0.417138,0.0937787528,-0.22444133,0.418284,0.0724495283,-0.186613556,0.403934,0.0560281336,-0.188197958,0.396759,0.0420612951,-0.196877483,0.404755,0.109984296,-0.218858489,0.411095,0.0859034522,-0.175650867,0.388879,0.0634034921,-0.167630081,0.375919,0.0530840824,-0.175922855,0.366662,0.125608025,-0.219074645,0.407096,0.0922467104,-0.183283723,0.388479,0.0753106062,-0.16509571,0.378954,0.0577501499,-0.163217292,0.370295,0.147901597,-0.227929997,0.405814,0.129954163,-0.191971825,0.387109,0.11667454,-0.190853376,0.378514,0.111354652,-0.199039359,0.370931
0.145059489,-0.306734958,0.443343,0.125199703,-0.258567554,0.427023,0.127944477,-0.300932377,0.446067,0.0861700301,-0.286703692,0.440346,0.0517221947,-0.273010129,0.427839,0.0314396687,-0.25776217,0.418471,0.0891189693,-0.220198122,0.420808,0.0674709515,-0.182143394,0.406679,0.0514718109,-0.18413661,0.399615,0.040044043,-0.195668273,0.407701,0.105987207,-0.215023939,0.41293,0.0801382461,-0.172627403,0.393494,0.063280097,-0.149416906,0.382155,0.0472039148,-0.146928641,0.374057,0.12176825,-0.215450654,0.408052,0.0939401807,-0.177363483,0.392162,0.0798646842,-0.15808565,0.384033,0.0622132022,-0.153755811,0.376642,0.143518624,-0.224242876,0.405198,0.127639828,-0.191874114,0.388475,0.111898082,-0.184909958,0.380792,0.103580099,-0.191449135,0.374013
0.141519913,-0.304415051,0.443347,0.119198576,-0.254213299,0.427766,0.120944824,-0.296450964,0.446777,0.080554373,-0.281128838,0.440925,0.0467163335,-0.265462153,0.42814,0.0263191234,-0.250007606,0.41803,0.0842796886,-0.216121874,0.422906,0.0665079087,-0.177967436,0.409754,0.0492829186,-0.17837512,0.403178,0.0341709274,-0.185308506,0.411486,0.100434689,-0.210649077,0.414312,0.0800184352,-0.166632456,0.395677,0.0631811021,-0.147742753,0.384807,0.0472539421,-0.146398724,0.377042,0.11557119,-0.210809688,0.408771,0.0863431557,-0.174244137,0.393809,0.0714384245,-0.155592867,0.386154,0.053041256,-0.145839926,0.379195,0.136470388,-0.219252212,0.405017,0.120120621,-0.185141975,0.388542,0.107625547,-0.176946101,0.380973,0.0979038453,-0.182214364,0.374294
0.136273382,-0.302092711,0.44591,0.115402233,-0.251458871,0.429719,0.119124812,-0.295821012,0.44859,0.0790034615,-0.279763001,0.44192,0.0450992655,-0.263978722,0.428938,0.0255700625,-0.247805578,0.419249,0.0829604459,-0.214980921,0.423523,0.0649116066,-0.176302679,0.409431,0.0476492869,-0.175987877,0.402385,0.0324854629,-0.18226337,0.410523,0.0998911953,-0.210021825,0.415737,0.0783110968,-0.166123795,0.396385,0.0619755709,-0.143323014,0.385095,0.0462017213,-0.141576603,0.377032,0.115666057,-0.210647034,0.410922,0.10740531,-0.16503764,0.392932,0.0911253765,-0.164557688,0.383728,0.0847052783,-0.176923929,0.37536,0.137307255,-0.219714919,0.408119,0.120190525,-0.185926775,0.391459,0.107648722,-0.178107986,0.383805,0.0983137878,-0.183686289,0.377051
0.13588385,-0.302366171,0.447542,0.115714357,-0.251914751,0.4307,0.118529114,-0.295662288,0.449804,0.0784620795,-0.276342193,0.441816,0.0447431017,-0.260167401,0.428533,0.0257567884,-0.24335215,0.418564,0.0830319525,-0.2147284,0.423577,0.0648585155,-0.175588257,0.408795,0.0463259664,-0.172488782,0.401404,0.0306272629,-0.176933013,0.409319,0.100281656,-0.210272897,0.416157,0.078495363,-0.166554709,0.396173,0.064374212,-0.143785731,0.384516,0.0475381774,-0.140289005,0.376189,0.11631998,-0.211337527,0.411707,0.108203819,-0.16588265,0.392334,0.0917316774,-0.164707388,0.382423,0.084810858,-0.176584953,0.373412,0.13826686,-0.220966452,0.409442,0.121816126,-0.18657539,0.392305,0.109667518,-0.177921358,0.384431,0.100018253,-0.182834834,0.377484
0.135578523,-0.302371958,0.448288,0.115863619,-0.252127706,0.431165,0.118141984,-0.295493853,0.450422,0.0789682042,-0.274946925,0.441002,0.0466733662,-0.256622492,0.427353,0.0276955668,-0.239525849,0.416678,0.0830880765,-0.214654786,0.423708,0.0648625823,-0.175313855,0.40867,0.0464079161,-0.172036457,0.40115,0.0305498927,-0.176053698,0.408964,0.100480149,-0.210405004,0.41638,0.07860239,-0.166801848,0.39614,0.0649376568,-0.143337441,0.384334,0.0482233512,-0.139694945,0.375901,0.116628402,-0.21164878,0.412033,0.108461322,-0.166151356,0.392106,0.0918792245,-0.163908099,0.38191,0.0839423105,-0.175089631,0.372642,0.13869041,-0.221502165,0.409936,0.122585324,-0.186834764,0.392592,0.110639115,-0.177772885,0.384623,0.100839465,-0.182357423,0.377591
0.134316254,-0.302178134,0.446537,0.115771273,-0.253681848,0.431689,0.116855317,-0.295025737,0.448178,0.0791554805,-0.275254314,0.438463,0.0476825018,-0.2557269,0.425997,0.0296338186,-0.238513455,0.416059,0.0836435713,-0.221481294,0.424952,0.0665932992,-0.181291948,0.410157,0.0474451228,-0.171453552,0.402759,0.0345303631,-0.165370294,0.411235,0.101447528,-0.215172229,0.418868,0.0825447078,-0.172046972,0.399696,0.0761212046,-0.146675422,0.388512,0.0545237125,-0.13988628,0.380524,0.117522399,-0.216427722,0.415321,0.0972424169,-0.178410229,0.397256,0.0899692189,-0.15604344,0.388013,0.0740789059,-0.1504152,0.379611,0.140117482,-0.225317297,0.413762,0.126463419,-0.190586824,0.397967,0.118842314,-0.177174559,0.390709,0.110744203,-0.165006866,0.384306
0.137031847,-0.303418967,0.44609,0.121838064,-0.256433746,0.431155,0.119371596,-0.295827296,0.446877,0.0913967881,-0.272218819,0.436023,0.0618196146,-0.251355275,0.422273,0.0460588893,-0.233223328,0.411446,0.0916524775,-0.220308147,0.423261,0.075055773,-0.179634674,0.407891,0.0588512912,-0.167733113,0.400206,0.0453568229,-0.162794264,0.408674,0.109498755,-0.216674283,0.418258,0.0964797469,-0.172535895,0.403186,0.0876613562,-0.147441442,0.394394,0.0731286065,-0.141104103,0.388113,0.126114652,-0.218366115,0.415609,0.109850295,-0.175910153,0.397716,0.100511672,-0.154805757,0.388562,0.0848310498,-0.149175533,0.380239,0.14881004,-0.228724769,0.415112,0.137811292,-0.191594733,0.399759,0.129977522,-0.176605404,0.392705,0.121967331,-0.164456893,0.386481
0.137309185,-0.301421874,0.444197,0.128213206,-0.247900711,0.429487,0.120262482,-0.292872033,0.444205,0.0907832882,-0.264069594,0.432385,0.0602919597,-0.243750133,0.420384,0.0460389415,-0.225389862,0.414202,0.0944627482,-0.209807806,0.420721,0.0831830909,-0.167138056,0.403908,0.0672963599,-0.161155653,0.395502,0.0544412288,-0.161979183,0.40371,0.114470274,-0.206853006,0.416785,0.106190249,-0.160151074,0.398321,0.0891709817,-0.144518763,0.38755,0.0765793789,-0.13300526,0.379856,0.132694943,-0.209101804,0.414994,0.108813864,-0.171844454,0.398466,0.0893529466,-0.154907427,0.39001,0.0745028144,-0.135558245,0.382322,0.156952834,-0.220051747,0.415455,0.146122192,-0.182011684,0.400108,0.136876728,-0.168268897,0.393056,0.124372667,-0.165160267,0.386834
0.139593306,-0.300152403,0.444126,0.137044527,-0.246999713,0.429041,0.123772076,-0.291122117,0.443191,0.0959838942,-0.263333941,0.430105,0.0647437449,-0.242210931,0.415686,0.0472060136,-0.223509736,0.408862,0.104287534,-0.206855806,0.418831,0.0845422592,-0.166269232,0.40266,0.0683110142,-0.159376066,0.394575,0.055149722,-0.159215291,0.403033,0.125304481,-0.206074311,0.416015,0.115387051,-0.159276848,0.397091,0.0984574852,-0.143698657,0.386051,0.0859517369,-0.132235722,0.378166,0.144150705,-0.21012256,0.415183,0.121027435,-0.16967009,0.397266,0.109115991,-0.149058935,0.388099,0.0982871732,-0.130321164,0.379765,0.168717901,-0.223172225,0.416826,0.156505251,-0.185191526,0.400866,0.148046765,-0.170377088,0.393533,0.138047649,-0.165929042,0.387063
0.161961291,-0.295839397,0.446181,0.158355793,-0.247346861,0.429644,0.152955852,-0.285864142,0.444552,0.117269107,-0.263469861,0.430327,0.0858344152,-0.24187764,0.415114,0.0698382079,-0.223320155,0.406619,0.124884075,-0.206282401,0.41767,0.104169801,-0.165458287,0.400169,0.087842704,-0.158560412,0.391418,0.0754846801,-0.158461233,0.399316,0.146142403,-0.20575134,0.415363,0.135637085,-0.159034979,0.396488,0.119207335,-0.143484999,0.385477,0.107089779,-0.132042001,0.377612,0.165288982,-0.210077518,0.415094,0.141753413,-0.169151597,0.396052,0.129676111,-0.148371826,0.38631,0.119305802,-0.130166054,0.379313,0.190393397,-0.223610189,0.417644,0.177422587,-0.185222017,0.400932,0.168879403,-0.170255864,0.393253,0.159064807,-0.16567826,0.386478
0.178423765,-0.29429033,0.444025,0.172328725,-0.245989331,0.42873,0.159163569,-0.284527228,0.442934,0.13062644,-0.262935484,0.429613,0.0983158191,-0.240395827,0.411744,0.0807582464,-0.222792142,0.399326,0.140170602,-0.205094814,0.418194,0.116463889,-0.165885305,0.401792,0.09974287,-0.154059745,0.39359,0.087578818,-0.148931792,0.401963,0.161308267,-0.204632069,0.415523,0.154288503,-0.157662671,0.395729,0.139129745,-0.142886548,0.384183,0.127976623,-0.132021431,0.375936,0.180201089,-0.208989057,0.414831,0.16043594,-0.168055923,0.401324,0.147607394,-0.149290332,0.394413,0.135831269,-0.132051091,0.388131,0.204738229,-0.222503437,0.416673,0.191901574,-0.186444379,0.403518,0.18603529,-0.170022165,0.397473,0.180877092,-0.155612257,0.39214
0.181905356,-0.293106637,0.443862,0.174436151,-0.244329998,0.428201,0.167614617,-0.282274083,0.442383,0.132016334,-0.262734731,0.429914,0.0993773383,-0.240998847,0.412784,0.0825431211,-0.223026388,0.40263,0.144449148,-0.201617885,0.416944,0.123244259,-0.161209959,0.400055,0.107335902,-0.154179965,0.391611,0.0964968282,-0.155228652,0.399818,0.1662111,-0.20172327,0.414677,0.151269212,-0.1573359,0.395656,0.133872983,-0.135046826,0.384561,0.123473072,-0.119066117,0.376636,0.185534044,-0.206537839,0.414354,0.165537735,-0.164589333,0.398641,0.152316918,-0.146067074,0.390601,0.138333831,-0.13397017,0.383293,0.20759011,-0.221527873,0.41669,0.200342869,-0.184544988,0.403082,0.195721991,-0.168108112,0.39683,0.191650882,-0.153662099,0.391313
0.187278701,-0.284846006,0.419377,0.184303926,-0.239210114,0.41515,0.167856126,-0.277086751,0.419184,0.13981038,-0.255905957,0.413987,0.112488083,-0.235750195,0.406911,0.0994221724,-0.219248202,0.404066,0.158781787,-0.204546839,0.412378,0.146863743,-0.171359811,0.407592,0.13752604,-0.164375651,0.405199,0.134551496,-0.167167702,0.418063,0.181790608,-0.201983139,0.4115,0.164554091,-0.162112932,0.401097,0.153801283,-0.139014129,0.395029,0.144647393,-0.126123806,0.390695,0.201194499,-0.204016556,0.411193,0.187074328,-0.16656465,0.401275,0.17970736,-0.146903171,0.3962,0.170798177,-0.138396076,0.391587,0.224820525,-0.21384189,0.411568,0.226227681,-0.194069042,0.424765,0.226876481,-0.184993624,0.430829,0.227449636,-0.17699016,0.436179
0.223591892,-0.299344025,0.451787,0.213198045,-0.25046542,0.433054,0.201930534,-0.287876554,0.447689,0.167621922,-0.264593048,0.430055,0.136075762,-0.239503656,0.411772,0.121429968,-0.220331631,0.404141,0.179213614,-0.206798375,0.416579,0.161945993,-0.168467484,0.406833,0.152762681,-0.149648169,0.40196,0.142225465,-0.139068311,0.39753,0.204232954,-0.208583718,0.416878,0.189490318,-0.16408401,0.397414,0.180276359,-0.139408413,0.38606,0.172575633,-0.12539638,0.37795,0.225834186,-0.214812956,0.418971,0.21005932,-0.173100532,0.399656,0.201823785,-0.152257298,0.389774,0.19349794,-0.136790713,0.38079,0.252819288,-0.230445688,0.424652,0.22959967,-0.201901082,0.405452,0.21884753,-0.188657107,0.396631,0.20931099,-0.176895688,0.388847
0.242238793,-0.292078135,0.437756,0.230000928,-0.244033828,0.426571,0.220425293,-0.283333717,0.435076,0.186036166,-0.257628175,0.421499,0.155828059,-0.23457033,0.406341,0.140944391,-0.216400699,0.399971,0.19511962,-0.205127797,0.416432,0.176461415,-0.166459813,0.4048,0.164956255,-0.152651948,0.398984,0.154164204,-0.139675708,0.393697,0.219539413,-0.203257221,0.416913,0.205419252,-0.160145877,0.400244,0.196796715,-0.135477981,0.39052,0.188947865,-0.124389517,0.383575,0.241024031,-0.206334977,0.418411,0.232279638,-0.16718945,0.41275,0.227803477,-0.147145323,0.409854,0.223732598,-0.128913438,0.407221,0.268478674,-0.218154836,0.422092,0.266431147,-0.182610112,0.41164,0.263926419,-0.169814104,0.406838,0.261728836,-0.158291656,0.4026
0.248306071,-0.290646833,0.438156,0.247732783,-0.2433946,0.427636,0.226187315,-0.280193867,0.434027,0.201404338,-0.25277848,0.418091,0.171192901,-0.226836259,0.397485,0.157294419,-0.207896021,0.383761,0.215850444,-0.201626878,0.416019,0.195156954,-0.161140328,0.400465,0.183953771,-0.14488293,0.392687,0.173592036,-0.129789553,0.385617,0.242280862,-0.203782896,0.418551,0.22877604,-0.159099588,0.402183,0.22068977,-0.133786774,0.392635,0.214803169,-0.115971347,0.385815,0.264782208,-0.210105723,0.421672,0.252493561,-0.166852067,0.40679,0.245788666,-0.147849041,0.399175,0.239655853,-0.13026945,0.392253,0.29216589,-0.225487436,0.427129,0.289318214,-0.189302739,0.415177,0.287888684,-0.175497001,0.409686,0.286203562,-0.166865885,0.404841
0.26406114,-0.288268274,0.439524,0.262973045,-0.236708961,0.427759,0.251756089,-0.276382336,0.436388,0.215094018,-0.250755628,0.421317,0.1826549,-0.227338987,0.404137,0.162688238,-0.209647809,0.392051,0.229618623,-0.196154067,0.416686,0.208591947,-0.157954338,0.400883,0.197729211,-0.149492869,0.392982,0.187558674,-0.14156669,0.385799,0.25393429,-0.195258487,0.417601,0.241321109,-0.150519188,0.400375,0.231089134,-0.130649529,0.390327,0.222793211,-0.121580183,0.38315,0.275357164,-0.199184087,0.419513,0.269595193,-0.156676733,0.403351,0.263487698,-0.14068975,0.395082,0.255882766,-0.132814908,0.387564,0.302813616,-0.21220629,0.423777,0.300790579,-0.175974424,0.410818,0.296040834,-0.168293454,0.404864,0.291836779,-0.161348507,0.39961
0.273883781,-0.28592363,0.435811,0.276449081,-0.240633945,0.42842,0.25462411,-0.275428372,0.434641,0.227401391,-0.251642691,0.422935,0.195926771,-0.226185026,0.401029,0.180302433,-0.20584171,0.390986,0.253735927,-0.199524103,0.422497,0.233512239,-0.166757449,0.410797,0.223145507,-0.149847226,0.404948,0.213556701,-0.134135273,0.39963,0.276261738,-0.201462907,0.422037,0.26888249,-0.159525164,0.408722,0.262436864,-0.136884995,0.400955,0.255300343,-0.124892001,0.395407,0.295297039,-0.207547691,0.422387,0.291301253,-0.166413573,0.409728,0.285510138,-0.14966044,0.403252,0.280204218,-0.133944927,0.397364,0.318235683,-0.222809338,0.424074,0.329954466,-0.193829403,0.423539,0.335275887,-0.180662806,0.423293,0.339938874,-0.169122,0.423076
0.309135302,-0.280973427,0.430068,0.304040179,-0.23585861,0.425346,0.285518909,-0.269397211,0.425207,0.246958603,-0.244110207,0.411081,0.217248695,-0.220835819,0.396241,0.201548166,-0.202374327,0.388735,0.272395146,-0.197842315,0.416243,0.255856818,-0.166618744,0.403917,0.247381868,-0.150390888,0.397754,0.239542886,-0.13523598,0.392151,0.299752069,-0.199650458,0.421269,0.292346349,-0.160833577,0.409742,0.287940324,-0.138361095,0.403018,0.284616462,-0.123775175,0.398215,0.323268288,-0.205173355,0.425872,0.315022726,-0.169652521,0.414444,0.310813632,-0.150804452,0.408597,0.306993065,-0.133227201,0.403281,0.352526705,-0.219039215,0.432051,0.360455745,-0.192841446,0.432146,0.364200061,-0.180254597,0.432189,0.364752441,-0.178304107,0.432228
0.318625315,-0.285555591,0.434797,0.320636883,-0.239369888,0.42716,0.295120942,-0.272945374,0.429681,0.265805893,-0.245600461,0.413702,0.235301649,-0.220092126,0.394695,0.221005155,-0.200315048,0.382822,0.289920396,-0.197470944,0.415987,0.274802582,-0.166943454,0.40164,0.267118371,-0.151100634,0.394466,0.260050213,-0.136316166,0.387944,0.317115525,-0.200665194,0.420565,0.309876635,-0.15930684,0.406505,0.304659293,-0.139538288,0.398303,0.300823977,-0.125699576,0.392445,0.340499723,-0.207672489,0.425086,0.335970292,-0.170808627,0.411595,0.332820157,-0.154911254,0.404693,0.329441569,-0.142357809,0.398418,0.3694806,-0.223905602,0.431674,0.375954266,-0.193291889,0.42374,0.376276214,-0.184435315,0.420094,0.376688437,-0.176361729,0.416877
0.359893388,-0.291047441,0.442334,0.350348318,-0.241887994,0.432822,0.334208974,-0.277427664,0.435127,0.293118972,-0.24985677,0.418315,0.265265656,-0.225905179,0.400395,0.249553811,-0.207086452,0.392187,0.313165949,-0.198465553,0.417827,0.29515551,-0.162866271,0.401083,0.288023991,-0.147548492,0.392712,0.283578608,-0.137102465,0.385101,0.342213134,-0.201987833,0.424608,0.333716391,-0.161796317,0.408761,0.329442668,-0.139545594,0.399517,0.326452862,-0.123294344,0.392914,0.367457745,-0.209360248,0.431129,0.359451347,-0.174252444,0.41525,0.356421312,-0.158716401,0.407126,0.353809859,-0.144160367,0.399741,0.39932087,-0.226110274,0.44037,0.404883483,-0.196801454,0.43427,0.407985229,-0.190669274,0.431467,0.410957578,-0.185058445,0.428994
0.364318021,-0.291145966,0.44215,0.363583175,-0.242986902,0.433284,0.33846306,-0.276407829,0.434139,0.307114973,-0.246668041,0.414917,0.278483455,-0.222017925,0.395797,0.264646798,-0.202371222,0.383467,0.328587735,-0.197429845,0.417635,0.31472984,-0.167288915,0.400864,0.307785858,-0.151701997,0.392479,0.301462687,-0.137188076,0.384856,0.358968332,-0.203022002,0.425629,0.354054288,-0.1625434,0.410288,0.351975666,-0.143540658,0.401339,0.350662953,-0.129496512,0.394947,0.38509486,-0.212195983,0.433084,0.388556401,-0.172792235,0.421869,0.390231028,-0.152875168,0.416131,0.400647942,-0.138000317,0.420307,0.417359184,-0.231247545,0.443301,0.42527878,-0.201462753,0.436636,0.43027688,-0.192044391,0.433574,0.434470142,-0.184794344,0.430871
0.370132623,-0.292897217,0.442993,0.374353079,-0.247363349,0.434901,0.3510427,-0.279901284,0.437225,0.323209279,-0.253297365,0.420069,0.292895126,-0.226117463,0.397733,0.278203416,-0.206679576,0.389836,0.340719231,-0.203888889,0.422615,0.33028348,-0.168146122,0.408234,0.325191884,-0.150248828,0.401043,0.320660668,-0.133972664,0.394507,0.369236995,-0.207576191,0.427913,0.364663494,-0.167630235,0.413398,0.362116755,-0.143827594,0.404931,0.357519134,-0.131540351,0.398884,0.393706203,-0.215131504,0.433073,0.394366793,-0.174769098,0.42076,0.395438767,-0.161004155,0.414461,0.396522612,-0.149127207,0.408734,0.423914129,-0.232126917,0.440483,0.432045419,-0.201729546,0.433032,0.436091274,-0.193864899,0.429608,0.439931017,-0.186699033,0.426587
0.398859307,-0.302737646,0.457982,0.400135463,-0.254231433,0.446015,0.375103086,-0.289032177,0.451951,0.353914661,-0.262079212,0.433534,0.322342141,-0.234879782,0.410577,0.311008204,-0.217050926,0.404298,0.36835896,-0.209687667,0.431076,0.353875624,-0.168140819,0.413924,0.348514039,-0.154275979,0.405348,0.343701364,-0.141349445,0.397552,0.396569887,-0.214379195,0.435681,0.388666407,-0.172577408,0.417867,0.38443035,-0.148717461,0.407475,0.382402176,-0.13687229,0.400053,0.420444603,-0.222835818,0.440651,0.416023998,-0.180977089,0.424529,0.414415736,-0.160667183,0.416281,0.414203943,-0.149471076,0.408782,0.449209346,-0.240838797,0.448512,0.450820336,-0.206628233,0.437085,0.453695086,-0.195342111,0.431836,0.456266586,-0.187890212,0.427203
0.419912002,-0.304926083,0.464429,0.424467402,-0.257412703,0.450463,0.406865538,-0.291258286,0.458242,0.379142488,-0.26571099,0.439186,0.347158198,-0.237859,0.416065,0.333636595,-0.218093511,0.406881,0.391583718,-0.211532011,0.43413,0.37550212,-0.16923671,0.41555,0.369655928,-0.154745938,0.406259,0.364459174,-0.141532051,0.397814,0.419748514,-0.216398786,0.438403,0.409905141,-0.172407652,0.41899,0.404838896,-0.1480692,0.407665,0.402289005,-0.134427246,0.399577,0.443706101,-0.225118598,0.443298,0.437403803,-0.182408328,0.425529,0.43484929,-0.161693233,0.416438,0.434104386,-0.149483887,0.408173,0.472827451,-0.243650665,0.451416,0.470023536,-0.207644362,0.438352,0.471026345,-0.194136551,0.432349,0.472428384,-0.185357166,0.427053
0.438479795,-0.304172253,0.462517,0.443993089,-0.256741405,0.44909,0.426155064,-0.290631356,0.45655,0.398634737,-0.264811481,0.43786,0.366269,-0.2367307,0.414938,0.35248708,-0.216803774,0.405772,0.411723567,-0.211164325,0.433362,0.392387404,-0.168936102,0.415011,0.385319243,-0.152231997,0.405836,0.38078007,-0.142880366,0.397495,0.439698828,-0.215883767,0.437495,0.427790771,-0.170203724,0.418486,0.423671086,-0.148091404,0.407398,0.421578464,-0.134483007,0.399477,0.463384115,-0.224451199,0.442221,0.455132713,-0.182762997,0.424392,0.450897366,-0.161476316,0.41527,0.449284922,-0.146286897,0.406977,0.492029799,-0.242729012,0.45005,0.490220536,-0.207500949,0.438713,0.491288768,-0.192733792,0.433504,0.493269132,-0.189306701,0.428908
0.459955547,-0.307241303,0.466438,0.464838423,-0.262144402,0.452823,0.444720637,-0.294048309,0.459402,0.419923602,-0.268374602,0.439497,0.38936012,-0.240161155,0.416754,0.3769683,-0.220294779,0.407662,0.434498613,-0.217384222,0.435601,0.4101909,-0.174267261,0.41646,0.40338057,-0.15951829,0.406889,0.397255454,-0.145842766,0.398189,0.462997514,-0.22266319,0.441066,0.447442488,-0.175553806,0.42178,0.444771004,-0.15558884,0.41053,0.443052191,-0.141015081,0.402494,0.486712229,-0.231539626,0.446908,0.477542096,-0.188549098,0.429457,0.47278194,-0.16678769,0.420528,0.472522755,-0.152044147,0.412412,0.514686413,-0.24982742,0.456068,0.509949487,-0.214168267,0.445063,0.50771858,-0.197991278,0.440006,0.510637061,-0.191638532,0.435545
0.460724847,-0.305993431,0.465581,0.466348471,-0.261133291,0.452499,0.437211587,-0.290543994,0.457123,0.426644434,-0.266380661,0.435841,0.393207169,-0.233110659,0.411912,0.384705702,-0.21368026,0.40561,0.442709882,-0.21238975,0.433757,0.422802183,-0.1684326,0.414078,0.41904746,-0.155969809,0.404239,0.415819,-0.144390464,0.395294,0.471947681,-0.221868409,0.441202,0.461884292,-0.175475213,0.422257,0.463033748,-0.158127039,0.411205,0.464177023,-0.145425421,0.403311,0.495682747,-0.234103983,0.448622,0.491455859,-0.191547807,0.433449,0.494126082,-0.174270732,0.425687,0.496770309,-0.158301567,0.41863,0.522616764,-0.256143106,0.459527,0.523860877,-0.221864796,0.448911,0.524325121,-0.20634578,0.444034,0.529055645,-0.200620779,0.43973
0.462193789,-0.30657347,0.466533,0.467569936,-0.261678634,0.453456,0.439776951,-0.291110771,0.458646,0.422248101,-0.261793035,0.43796,0.394762452,-0.230985101,0.41762,0.389358237,-0.214414495,0.411155,0.444143417,-0.213468966,0.435454,0.428896354,-0.171331886,0.420303,0.427776115,-0.159323125,0.412728,0.427078419,-0.148263152,0.405841,0.472327339,-0.222722916,0.442164,0.468746062,-0.178828045,0.426838,0.472868194,-0.161524692,0.417898,0.476389177,-0.149417722,0.411512,0.495135387,-0.234753541,0.448978,0.4930838,-0.193659764,0.437685,0.497755248,-0.177881533,0.431907,0.502356483,-0.16311978,0.426655,0.520962353,-0.256515346,0.459176,0.527086927,-0.224579031,0.451848,0.532782822,-0.213151952,0.448481,0.537051722,-0.202559446,0.44551
0.46376385,-0.306597773,0.466945,0.473981497,-0.262986253,0.456598,0.444889194,-0.29004208,0.458706,0.430615476,-0.259558342,0.438344,0.403319449,-0.227037946,0.416658,0.395071809,-0.206109219,0.407095,0.458283258,-0.213986343,0.439771,0.442757778,-0.170571117,0.422057,0.441953979,-0.158592714,0.413199,0.441497734,-0.147432707,0.405147,0.486718174,-0.225793191,0.447662,0.48402521,-0.181704792,0.431273,0.48792812,-0.161667773,0.421712,0.491351579,-0.147916987,0.414883,0.509217132,-0.239772688,0.45518,0.50705756,-0.197902905,0.439856,0.510869175,-0.181644676,0.432016,0.514603279,-0.166596806,0.424888,0.533743973,-0.263535812,0.465725,0.537813162,-0.230515326,0.454909,0.54238292,-0.217609318,0.449939,0.547812882,-0.208784321,0.445554
0.466857961,-0.304711092,0.465809,0.480884066,-0.260231232,0.455517,0.445660872,-0.287733779,0.457427,0.441110462,-0.258196536,0.43693,0.411508744,-0.22355602,0.412913,0.4038306,-0.203373281,0.399693,0.465882751,-0.208540244,0.438537,0.451262723,-0.165381138,0.420895,0.451044593,-0.15582735,0.412074,0.451175668,-0.146924077,0.404054,0.494396992,-0.221619856,0.44663,0.491840901,-0.177797589,0.430365,0.49712092,-0.160763193,0.420877,0.501515806,-0.14965558,0.414099,0.516875863,-0.236630605,0.454308,0.515056231,-0.19494289,0.439015,0.519620032,-0.180006713,0.431191,0.524313928,-0.166790652,0.424078,0.541196978,-0.261586118,0.465031,0.546796267,-0.229382258,0.455051,0.552022641,-0.216529382,0.450466,0.558094871,-0.20756011,0.44642
0.468070179,-0.303197846,0.465475,0.486835418,-0.256596606,0.455599,0.452127238,-0.281529728,0.456824,0.445025362,-0.250864211,0.436165,0.418330709,-0.216157893,0.414389,0.412532601,-0.196445718,0.400813,0.471547939,-0.204762936,0.43852,0.458475215,-0.161921167,0.420895,0.458811532,-0.154364643,0.412083,0.459317892,-0.149971927,0.404071,0.500041104,-0.218918824,0.447071,0.49931207,-0.175890833,0.431016,0.505573479,-0.159853421,0.42165,0.510502866,-0.148073166,0.414961,0.520057928,-0.235892851,0.455084,0.522523474,-0.193849982,0.439525,0.527051109,-0.17799241,0.431565,0.528277627,-0.165781603,0.424328,0.544338553,-0.261382728,0.466126,0.553862171,-0.229975663,0.456986,0.560240901,-0.217743119,0.452787,0.566738993,-0.214926093,0.449082
0.470220692,-0.303257516,0.466516,0.488419269,-0.257346145,0.456329,0.454337573,-0.28157163,0.45792,0.444356104,-0.255264503,0.437234,0.418651692,-0.219064123,0.415064,0.409318877,-0.200676509,0.400521,0.472575977,-0.206509958,0.439136,0.459635883,-0.163632904,0.421473,0.459828025,-0.156015378,0.412641,0.46018222,-0.151649291,0.404613,0.50094666,-0.22069855,0.447532,0.499898537,-0.177579104,0.43137,0.506051124,-0.162562685,0.421942,0.510930018,-0.151520141,0.415207,0.523165129,-0.236560501,0.45545,0.522442962,-0.19536699,0.440026,0.527267315,-0.180853165,0.432135,0.532323186,-0.168672664,0.424961,0.54555616,-0.26239317,0.466434,0.554705651,-0.231800073,0.457243,0.560930473,-0.219442529,0.45302,0.567512787,-0.216204336,0.449294
0.471305209,-0.302958368,0.46677,0.489063174,-0.257643906,0.456575,0.455278184,-0.281360869,0.45821,0.444872244,-0.255578778,0.437557,0.418468932,-0.219913123,0.4152,0.409831899,-0.201164602,0.4006,0.472907839,-0.207098951,0.439422,0.45995167,-0.1641945,0.421716,0.460023233,-0.156525344,0.412863,0.460255967,-0.152136856,0.404814,0.501293362,-0.221308043,0.447771,0.500079083,-0.178126733,0.431534,0.506111757,-0.16341055,0.422062,0.510914329,-0.152586236,0.415297,0.523522331,-0.23718723,0.455651,0.522188095,-0.195763547,0.440018,0.52690485,-0.181623359,0.432021,0.530150031,-0.169083035,0.42475,0.546211284,-0.262901685,0.466591,0.554688984,-0.232248062,0.457029,0.560798799,-0.219908588,0.452636,0.567028368,-0.216855756,0.448759
