sluyters/QuantumLeap/backend/src/datasets/gesture/HandGestureDataset_SHREC2017_csv/Gesture12/finger_2/subject_27_essai_2_skeletons_world.csv
Wrist_x,Wrist_y,Wrist_z,Palm_x,Palm_y,Palm_z,thumb_base_x,thumb_base_y,thumb_base_z,thumb_first_joint_x,thumb_first_joint_y,thumb_first_joint_z,thumb_second_joint_x,thumb_second_joint_y,thumb_second_joint_z,thumb_tip_x,thumb_tip_y,thumb_tip_z,index_base_x,index_base_y,index_base_z,index_first_joint_x,index_first_joint_y,index_first_joint_z,index_second_joint_x,index_second_joint_y,index_second_joint_z,index_tip_x,index_tip_y,index_tip_z,middle_base_x,middle_base_y,middle_base_z,middle_first_joint_x,middle_first_joint_y,middle_first_joint_z,middle_second_joint_x,middle_second_joint_y,middle_second_joint_z,middle_tip_x,middle_tip_y,middle_tip_z,ring_base_x,ring_base_y,ring_base_z,ring_first_joint_x,ring_first_joint_y,ring_first_joint_z,ring_second_joint_x,ring_second_joint_y,ring_second_joint_z,ring_tip_x,ring_tip_y,ring_tip_z,pinky_base_x,pinky_base_y,pinky_base_z,pinky_first_joint_x,pinky_first_joint_y,pinky_first_joint_z,pinky_second_joint_x,pinky_second_joint_y,pinky_second_joint_z,pinky_tip_x,pinky_tip_y,pinky_tip_z,
0.323088092,-0.23027566,0.445293,0.31908975,-0.182148319,0.441668,0.304332081,-0.219850169,0.445989,0.268019241,-0.190550481,0.436525,0.229649452,-0.162253012,0.411887,0.210203169,-0.140236144,0.400562,0.295612593,-0.139955928,0.440087,0.280334994,-0.0968382533,0.430363,0.270836184,-0.078062533,0.425501,0.261798694,-0.0639849791,0.42108,0.318384442,-0.139949706,0.43811,0.305953387,-0.0919466712,0.427083,0.297501759,-0.0643331685,0.42065,0.290799103,-0.0452637169,0.416056,0.33742905,-0.143836942,0.436813,0.330823879,-0.0958027487,0.427034,0.327082545,-0.0711471767,0.42203,0.321844012,-0.0537770645,0.417482,0.360339621,-0.155570418,0.435883,0.358832604,-0.114216244,0.426473,0.357533535,-0.095401812,0.42215,0.355944119,-0.0818134258,0.418335
0.323306675,-0.227530708,0.445326,0.319561044,-0.179800758,0.441232,0.304183144,-0.217018545,0.445721,0.26866693,-0.189186001,0.435729,0.229996401,-0.161653734,0.410545,0.210127142,-0.139883363,0.398187,0.294346269,-0.13747891,0.438935,0.278425376,-0.0942652385,0.428589,0.268720944,-0.0750613023,0.423417,0.259660834,-0.0569276105,0.418714,0.317383245,-0.137124428,0.437193,0.305391448,-0.0888899648,0.425519,0.297031555,-0.0614306546,0.418709,0.290268798,-0.0432685041,0.413845,0.336775995,-0.140757306,0.436131,0.328252414,-0.0903478178,0.426927,0.323056805,-0.0659057791,0.422219,0.318301354,-0.0432181819,0.417938,0.360576245,-0.149036198,0.435554,0.359285851,-0.107990932,0.425956,0.357928905,-0.0895575205,0.421547,0.355494121,-0.0796822617,0.417656
0.323385422,-0.226131994,0.4453,0.319678111,-0.178997216,0.441032,0.304141498,-0.215622087,0.445635,0.268918131,-0.188759061,0.435524,0.230074132,-0.161428627,0.410033,0.21001756,-0.139709725,0.397236,0.293918644,-0.136650168,0.438543,0.277824892,-0.0934201488,0.428053,0.268071046,-0.0740787289,0.422808,0.258973309,-0.0558345137,0.41804,0.317002745,-0.136161954,0.436823,0.305179123,-0.087864424,0.424963,0.296863293,-0.0604591101,0.418045,0.290091199,-0.0425996443,0.413104,0.336473645,-0.1396951,0.435794,0.32809787,-0.0903052814,0.426726,0.322955041,-0.0658850187,0.422086,0.318248042,-0.0432109433,0.417868,0.360353552,-0.148944153,0.435285,0.358927372,-0.107883184,0.425531,0.357506911,-0.0894519331,0.42105,0.355080919,-0.0785693533,0.417095
0.321850483,-0.225999439,0.444946,0.318563065,-0.179482706,0.440493,0.302779799,-0.215266658,0.445351,0.267541958,-0.188975313,0.435291,0.228663526,-0.161518668,0.409411,0.208621205,-0.139691996,0.396668,0.293386189,-0.136714238,0.437958,0.277483426,-0.0934348163,0.427553,0.26786388,-0.0739240567,0.422351,0.258896313,-0.055531908,0.417622,0.316358313,-0.13653391,0.436092,0.304838258,-0.0882171397,0.424209,0.296624548,-0.0609258215,0.417276,0.289865401,-0.0453208284,0.412325,0.33561181,-0.143135617,0.434961,0.328956733,-0.0952941852,0.425173,0.324976506,-0.0707137193,0.420165,0.320018272,-0.0524779947,0.415612,0.358640895,-0.15544094,0.434362,0.356113961,-0.113879726,0.424127,0.354311194,-0.0973693698,0.419425,0.353084995,-0.0784981808,0.415276
0.324134078,-0.230514107,0.446328,0.319668884,-0.185511819,0.44128,0.304219284,-0.217074899,0.447011,0.272022701,-0.200595122,0.437204,0.234083818,-0.170477202,0.410165,0.214144906,-0.148437324,0.397322,0.294086703,-0.146688198,0.438685,0.277504691,-0.103032317,0.427797,0.268175766,-0.080821663,0.422352,0.258810379,-0.0581234613,0.417403,0.316685776,-0.142259758,0.436286,0.304225821,-0.0951585828,0.423779,0.296333251,-0.0675040904,0.416483,0.289275174,-0.0456254597,0.411272,0.335729243,-0.145923947,0.434769,0.327048041,-0.0974284349,0.42232,0.32256342,-0.0734463813,0.415951,0.316114897,-0.0529874501,0.410161,0.358889973,-0.157514201,0.433813,0.354837727,-0.116978584,0.423047,0.352235207,-0.0967520226,0.418101,0.351560648,-0.0786449788,0.413736
0.325164434,-0.231906365,0.446543,0.322112425,-0.196035741,0.440377,0.308731637,-0.22948638,0.447169,0.273350816,-0.212918257,0.437031,0.232748107,-0.184239594,0.410179,0.214152947,-0.164125195,0.397145,0.290723797,-0.154871744,0.436947,0.273617057,-0.110684028,0.42463,0.263932515,-0.0898562777,0.418472,0.256984217,-0.0725574239,0.414468,0.313212231,-0.151474218,0.434281,0.300503066,-0.102554574,0.420269,0.290903926,-0.0768082078,0.412095,0.283474339,-0.0596957761,0.406257,0.333782973,-0.151302006,0.432647,0.324156903,-0.102696341,0.419365,0.317216084,-0.0797899593,0.41257,0.312912462,-0.0552822066,0.406392,0.357729412,-0.159772416,0.431739,0.352161191,-0.118319601,0.420238,0.349742853,-0.0991705689,0.414954,0.347409191,-0.0809878557,0.410292
0.327320568,-0.247666226,0.445316,0.316924839,-0.208651422,0.438828,0.308422411,-0.24237574,0.44685,0.269099334,-0.223459724,0.437887,0.230671961,-0.19768428,0.411319,0.209749123,-0.175987011,0.394807,0.288716044,-0.167280052,0.436333,0.27286803,-0.123202473,0.4242,0.263290669,-0.102996899,0.418134,0.256160325,-0.0891247451,0.412619,0.310011954,-0.164574628,0.432424,0.29778275,-0.115987142,0.418289,0.288686432,-0.0895748225,0.410044,0.281171759,-0.0724399268,0.404154,0.328306064,-0.16636776,0.429798,0.320732423,-0.117457449,0.41603,0.314710764,-0.0944916734,0.408986,0.309218283,-0.072976307,0.402582,0.35127554,-0.175835201,0.427778,0.348435501,-0.1357489,0.415788,0.34719853,-0.116994241,0.41028,0.344366263,-0.103143946,0.40542
0.32198996,-0.261199165,0.443681,0.315407721,-0.222237509,0.436532,0.302453968,-0.251112836,0.444245,0.265334908,-0.235003772,0.433785,0.226570182,-0.208185087,0.407171,0.206900345,-0.186938698,0.390413,0.287607943,-0.178841573,0.432358,0.26865344,-0.136261665,0.419899,0.259413824,-0.114834851,0.414175,0.250952367,-0.0951397041,0.408971,0.309743575,-0.177632019,0.429479,0.296165178,-0.129504907,0.414991,0.286572548,-0.104039052,0.406539,0.279625062,-0.0852315051,0.400503,0.328658166,-0.180728544,0.427764,0.31727453,-0.132082849,0.412941,0.311353059,-0.107159511,0.405356,0.305970493,-0.0843747782,0.398462,0.352197661,-0.191873464,0.426926,0.345702954,-0.152061503,0.414267,0.342761819,-0.133393323,0.40845,0.340192047,-0.116707269,0.403318
0.323784794,-0.279329273,0.444619,0.317008452,-0.242488585,0.437389,0.306200175,-0.280310587,0.445814,0.268156922,-0.259665561,0.436205,0.229404286,-0.235240134,0.409881,0.208011598,-0.214345342,0.393572,0.287239587,-0.200998384,0.433973,0.268741677,-0.158925577,0.420997,0.259369102,-0.137586987,0.414509,0.250728322,-0.118036471,0.408611,0.308558454,-0.197880774,0.430281,0.294640636,-0.149469887,0.415414,0.283819494,-0.126188921,0.406742,0.275941082,-0.10891554,0.400548,0.327055424,-0.199426129,0.427906,0.315831514,-0.150552218,0.412555,0.308878299,-0.127185519,0.404701,0.302536198,-0.105485513,0.397561,0.350583913,-0.208773544,0.426312,0.343882557,-0.169751239,0.413667,0.340849558,-0.151412572,0.407857,0.338200146,-0.134997123,0.402731
0.326221614,-0.298027562,0.447804,0.316459106,-0.256884533,0.4394,0.306689761,-0.288553738,0.448899,0.267134696,-0.273499652,0.438888,0.228789952,-0.248929955,0.412792,0.206747758,-0.227136219,0.397934,0.287366764,-0.213692879,0.435063,0.268400252,-0.171146347,0.4214,0.258337486,-0.150635335,0.414568,0.249090232,-0.131680824,0.408357,0.308722792,-0.211448327,0.431148,0.295505141,-0.163123649,0.415064,0.285467312,-0.139530148,0.405681,0.278199326,-0.12209545,0.398979,0.327131235,-0.213816694,0.428701,0.31496781,-0.165625419,0.412354,0.308237507,-0.141662488,0.40399,0.302114299,-0.119563989,0.396387,0.350364462,-0.224290095,0.427223,0.345495872,-0.186912719,0.413624,0.343350877,-0.169293256,0.407375,0.341512535,-0.153489197,0.401862
0.327513657,-0.326957038,0.450661,0.318739093,-0.277856856,0.440539,0.308552126,-0.316458596,0.451693,0.270003566,-0.294960197,0.441249,0.233724074,-0.27326857,0.414637,0.211402578,-0.251590562,0.398859,0.289602412,-0.23317738,0.434954,0.268343426,-0.192815414,0.419884,0.257535626,-0.172329396,0.412349,0.247619882,-0.153447297,0.4055,0.310176392,-0.231190292,0.430601,0.294196007,-0.183800998,0.412992,0.282337924,-0.160843104,0.40272,0.273741163,-0.143931179,0.395383,0.328108359,-0.233893999,0.427953,0.314639758,-0.186248036,0.409773,0.307751406,-0.161628194,0.400471,0.301491514,-0.139088609,0.392015,0.351043147,-0.24502898,0.426524,0.344396202,-0.207580566,0.411392,0.341420207,-0.18999077,0.40444,0.33883945,-0.174247473,0.398306
0.335497341,-0.353933841,0.45595,0.323624955,-0.303647251,0.443291,0.315799005,-0.343257522,0.456434,0.276822783,-0.32157006,0.444746,0.239331935,-0.299422479,0.41939,0.217219482,-0.277822745,0.405041,0.291396417,-0.257654913,0.435281,0.269012219,-0.215601655,0.417797,0.25702236,-0.19619637,0.409054,0.246010892,-0.178292779,0.401107,0.312052482,-0.255605653,0.430862,0.292653926,-0.210386405,0.410651,0.280687805,-0.184906025,0.398862,0.272081428,-0.166384002,0.390441,0.330313547,-0.258394691,0.428393,0.313851992,-0.211401106,0.407704,0.3054253,-0.187100126,0.397118,0.297762617,-0.164838434,0.387495,0.354101458,-0.269858684,0.427596,0.344037423,-0.231631811,0.410316,0.339455226,-0.213795912,0.402376,0.335436537,-0.197900346,0.39537
0.334700399,-0.381116979,0.452851,0.324097705,-0.328847146,0.441345,0.315440881,-0.370613843,0.454038,0.275639737,-0.349035574,0.44355,0.236456712,-0.32455232,0.419943,0.214207778,-0.302847899,0.405379,0.293816249,-0.282850139,0.435013,0.27048897,-0.243759288,0.418904,0.258496322,-0.224509541,0.410849,0.247480751,-0.206766551,0.403527,0.313805238,-0.279899899,0.430049,0.293763008,-0.236763572,0.411157,0.280949345,-0.213942684,0.400137,0.271679056,-0.197250659,0.392265,0.331379106,-0.28198504,0.427025,0.315836976,-0.237477547,0.407289,0.306663161,-0.217193186,0.397192,0.297098739,-0.201709807,0.388013,0.354239268,-0.292728783,0.425384,0.34486841,-0.256249908,0.408997,0.339684481,-0.241077853,0.401468,0.335137527,-0.227449525,0.394825
0.34100044,-0.405795219,0.455909,0.328455668,-0.354098012,0.445489,0.320089708,-0.396411759,0.456332,0.279800924,-0.376568534,0.444979,0.240616378,-0.351769647,0.419546,0.217351861,-0.329249596,0.405024,0.294777626,-0.309306107,0.438926,0.27290159,-0.270772997,0.423254,0.261766832,-0.251557361,0.415418,0.251534054,-0.233830605,0.408295,0.316378118,-0.305478882,0.435258,0.299169079,-0.253751911,0.41748,0.287314873,-0.236887924,0.40711,0.278990797,-0.235424895,0.399703,0.335314367,-0.306806265,0.4332,0.319944095,-0.264156008,0.414767,0.311668203,-0.244271313,0.405336,0.303649443,-0.229129911,0.396762,0.359893318,-0.316516114,0.432514,0.350578604,-0.286983911,0.417157,0.346377027,-0.27299678,0.4101,0.342718292,-0.260407819,0.403875
0.340502382,-0.417066773,0.456874,0.328213414,-0.374228847,0.445889,0.317625147,-0.416289768,0.456027,0.277062473,-0.397339799,0.44491,0.234900607,-0.370194034,0.422558,0.213136656,-0.34881481,0.413207,0.294657637,-0.326371691,0.437333,0.271575294,-0.287419172,0.421144,0.259912878,-0.268412874,0.413049,0.249200279,-0.250903356,0.40569,0.317511792,-0.324302374,0.435104,0.303596202,-0.271913514,0.416413,0.293378007,-0.260822269,0.405509,0.285773426,-0.26264837,0.397721,0.337380179,-0.327191969,0.434283,0.321445062,-0.281773692,0.415617,0.312982263,-0.264577658,0.406067,0.305099488,-0.255204421,0.397385,0.362883704,-0.338972598,0.435144,0.352435112,-0.309416566,0.419196,0.347691862,-0.295484318,0.411868,0.343542894,-0.282977136,0.405403
0.339507365,-0.432805167,0.457291,0.329143121,-0.384729263,0.447068,0.318235982,-0.421851931,0.456903,0.277252211,-0.40514883,0.446392,0.237349848,-0.379267577,0.42336,0.21535332,-0.357529767,0.412647,0.296645372,-0.337219806,0.439611,0.275046154,-0.298892928,0.424101,0.264071883,-0.281572881,0.416346,0.25394294,-0.265524258,0.409295,0.319191495,-0.335059832,0.437031,0.299861286,-0.282639598,0.41961,0.288078568,-0.265735125,0.409447,0.279963348,-0.259354882,0.402188,0.338741572,-0.337854803,0.435851,0.323450633,-0.293191356,0.417981,0.315124518,-0.276406409,0.408839,0.307200217,-0.267502704,0.400527,0.363740621,-0.349489071,0.436163,0.35373202,-0.320383584,0.420836,0.349160639,-0.306784282,0.413794,0.34516054,-0.294573321,0.40758
0.342554702,-0.442116647,0.461974,0.330322017,-0.395679183,0.449061,0.319662934,-0.433847648,0.459691,0.275515169,-0.414041351,0.446622,0.237518802,-0.390177897,0.422038,0.214655511,-0.368074239,0.408895,0.295650165,-0.343968197,0.43737,0.272226786,-0.305913992,0.419131,0.26046334,-0.288401755,0.410012,0.249644111,-0.272248894,0.401722,0.319275475,-0.343422482,0.436383,0.299433782,-0.295589201,0.416053,0.287587222,-0.280318417,0.404194,0.279292702,-0.275560078,0.395723,0.339931702,-0.347776804,0.436763,0.32329037,-0.300905146,0.416255,0.314279415,-0.285381779,0.405763,0.305806609,-0.278299968,0.396225,0.366619222,-0.361731295,0.439354,0.354365049,-0.33056285,0.421574,0.348767852,-0.316009423,0.413404,0.343855173,-0.303004208,0.406196
0.343236208,-0.452066268,0.46384,0.330837302,-0.398241646,0.449263,0.32027232,-0.438256095,0.461061,0.27536291,-0.416330956,0.446924,0.237178954,-0.391952089,0.422037,0.214163512,-0.369403762,0.40856,0.295511934,-0.344815151,0.43581,0.271117443,-0.305185462,0.41634,0.259073578,-0.287349043,0.406605,0.248018103,-0.270934408,0.397755,0.319260715,-0.344591841,0.434951,0.300545808,-0.307163181,0.412999,0.289351553,-0.289373408,0.400194,0.278619376,-0.274339776,0.391047,0.340021897,-0.34932689,0.43559,0.323605329,-0.312118308,0.413495,0.314690818,-0.29142471,0.40219,0.307074921,-0.283771057,0.391914,0.367667052,-0.366606249,0.438762,0.357213542,-0.337243862,0.419823,0.352508569,-0.323507224,0.411121,0.348415983,-0.311240256,0.403443
0.348017122,-0.457655209,0.471808,0.334212496,-0.402153369,0.455141,0.325141717,-0.443627336,0.469007,0.289303483,-0.427285424,0.45211,0.248889855,-0.400275775,0.428981,0.227345635,-0.380313474,0.413488,0.298052855,-0.348229074,0.440235,0.272934513,-0.306623546,0.418386,0.260183062,-0.288775318,0.407462,0.24843689,-0.272840292,0.397531,0.321411304,-0.348314772,0.438776,0.293495511,-0.342709403,0.414943,0.283904514,-0.356036243,0.40104,0.291295085,-0.377444607,0.409302,0.342098766,-0.355202136,0.439115,0.310234623,-0.305851967,0.416173,0.294540944,-0.291864373,0.404435,0.280172361,-0.28052143,0.393764,0.368704362,-0.370498581,0.44228,0.358909835,-0.337949741,0.422051,0.353564507,-0.325890432,0.412756,0.348863066,-0.315284517,0.404555
0.344797291,-0.453324172,0.468851,0.331890456,-0.399596735,0.453158,0.322530197,-0.44019957,0.46649,0.278673537,-0.420004234,0.451096,0.239564434,-0.395630091,0.425452,0.216004106,-0.372309693,0.410739,0.296784771,-0.347918072,0.439473,0.269336203,-0.299072605,0.419102,0.260210908,-0.289566326,0.408916,0.249184161,-0.277177447,0.399656,0.320014386,-0.347716085,0.43775,0.304733965,-0.295370412,0.414396,0.292337455,-0.29035883,0.400773,0.30124439,-0.301379823,0.409307,0.340318891,-0.352347913,0.43778,0.310774833,-0.308067303,0.41599,0.296493221,-0.292552153,0.404841,0.283459574,-0.279478694,0.394706,0.366516961,-0.366545631,0.440422,0.35597043,-0.336799164,0.420736,0.350740002,-0.324371334,0.411691,0.346150891,-0.313378949,0.40371
0.342582897,-0.452475789,0.468996,0.326081952,-0.396634809,0.453365,0.32013063,-0.438848153,0.466058,0.271493764,-0.41460125,0.450267,0.233093627,-0.38989679,0.425119,0.213266519,-0.368503823,0.409402,0.292175721,-0.346517188,0.438993,0.269235614,-0.295662719,0.41838,0.257858506,-0.284559961,0.408074,0.247970053,-0.274259817,0.398705,0.316224699,-0.347316129,0.438019,0.302393936,-0.294189173,0.414727,0.293198429,-0.289279339,0.40114,0.301364263,-0.298803234,0.409737,0.336913372,-0.352566851,0.438661,0.310753321,-0.308068875,0.416479,0.297046695,-0.29134125,0.40513,0.286411286,-0.274911062,0.394813,0.362966095,-0.367033179,0.442011,0.351866463,-0.337065142,0.422223,0.346851796,-0.323071488,0.413131,0.344427169,-0.308978397,0.405109
0.341992038,-0.452516067,0.472586,0.322486781,-0.395180351,0.455415,0.313117281,-0.434825689,0.468362,0.267301942,-0.409370194,0.450879,0.230718001,-0.387756554,0.424218,0.210370194,-0.365417984,0.408267,0.287656384,-0.337601343,0.438361,0.266298306,-0.291904214,0.423153,0.254650409,-0.279432244,0.415549,0.248686143,-0.277385752,0.408637,0.312180199,-0.341341062,0.438555,0.296268401,-0.293010912,0.413925,0.283322749,-0.27668623,0.399558,0.286806931,-0.282427602,0.407564,0.334689138,-0.351213556,0.4403,0.31739362,-0.292484218,0.418534,0.307188776,-0.28749368,0.407398,0.297825578,-0.283092702,0.397274,0.361606644,-0.368529694,0.445202,0.347894846,-0.33216998,0.423896,0.342268271,-0.315834006,0.414106,0.34027552,-0.301885073,0.405468
0.323511821,-0.440080253,0.471143,0.310695177,-0.381009501,0.453446,0.301674044,-0.423395902,0.466754,0.256389231,-0.395593974,0.449246,0.218108369,-0.37239253,0.423479,0.196174971,-0.34991009,0.407466,0.278678436,-0.32478307,0.435827,0.259445025,-0.279918644,0.422309,0.248014295,-0.267375907,0.415551,0.238005729,-0.264208769,0.409407,0.302900436,-0.329386228,0.436072,0.285490699,-0.279426809,0.410977,0.272459001,-0.263020845,0.396339,0.274934771,-0.266606171,0.404127,0.323868802,-0.33803706,0.437907,0.308593186,-0.280871897,0.415296,0.297239923,-0.274988727,0.403728,0.285768611,-0.272427952,0.393212,0.350353969,-0.357129877,0.443002,0.3374083,-0.321094936,0.421139,0.331500168,-0.304369961,0.411094,0.32631079,-0.289513343,0.402231
0.313271649,-0.426329125,0.467435,0.30103062,-0.367072697,0.451458,0.291985263,-0.410724127,0.464054,0.247660108,-0.384532447,0.447784,0.208680792,-0.361426954,0.422333,0.186145751,-0.339277084,0.406923,0.267841504,-0.313625847,0.436285,0.244160221,-0.269538459,0.421177,0.231145459,-0.257584459,0.413623,0.220435993,-0.254893156,0.406756,0.291628302,-0.315876046,0.43577,0.27236747,-0.265731809,0.412424,0.258632222,-0.248437699,0.398805,0.259979954,-0.250481509,0.407348,0.312359173,-0.322517199,0.436821,0.296728497,-0.26765262,0.417833,0.285921086,-0.261514088,0.408118,0.27588525,-0.256001349,0.399286,0.338829079,-0.339119916,0.44071,0.327571527,-0.299602445,0.420472,0.321130854,-0.286250116,0.411173,0.314306489,-0.279084505,0.402969
0.314932224,-0.415757736,0.471108,0.298375009,-0.355667442,0.455015,0.291126857,-0.402597249,0.466496,0.24769875,-0.375858956,0.449126,0.207648847,-0.353745077,0.427033,0.185009787,-0.334520545,0.415011,0.255221941,-0.308882331,0.438203,0.233517267,-0.26639552,0.429009,0.22287698,-0.254627398,0.424412,0.212795897,-0.243482105,0.420233,0.280497053,-0.306086017,0.439214,0.253533966,-0.254248532,0.415517,0.239984089,-0.238606584,0.401693,0.241173996,-0.239070837,0.410123,0.303029905,-0.308385208,0.441531,0.276356059,-0.257306544,0.417796,0.264587458,-0.241445169,0.405653,0.253760933,-0.226739705,0.394613,0.332754474,-0.319424412,0.446927,0.314821392,-0.284500579,0.426278,0.307140138,-0.273127948,0.41679,0.300345201,-0.262959724,0.408419
0.303017545,-0.386107329,0.473001,0.282963522,-0.332612293,0.454873,0.276568239,-0.374935755,0.466215,0.23079705,-0.359184958,0.449085,0.188424756,-0.340248215,0.427746,0.164167155,-0.323329012,0.417104,0.237242404,-0.283932077,0.433919,0.211429041,-0.244872319,0.4255,0.200478508,-0.235300187,0.42129,0.190006183,-0.22618081,0.417463,0.263654694,-0.281833822,0.437075,0.235946535,-0.230767642,0.411177,0.222764021,-0.214561905,0.39607,0.223600806,-0.213563024,0.403434,0.287335482,-0.28478942,0.441347,0.254682272,-0.237564941,0.415107,0.240211097,-0.219683882,0.401681,0.227465748,-0.204631437,0.389477,0.318808981,-0.296790158,0.449375,0.297102817,-0.270101673,0.425687,0.287043241,-0.257645818,0.414802,0.278116197,-0.246539123,0.405199
0.278723956,-0.371664679,0.467941,0.262214545,-0.319247271,0.451442,0.255213107,-0.360976008,0.464669,0.210893375,-0.340359064,0.450122,0.170713098,-0.32005828,0.428279,0.148511872,-0.302478287,0.412372,0.222350458,-0.271776206,0.436054,0.199512998,-0.229583173,0.425342,0.186290416,-0.218117289,0.419986,0.173734266,-0.207264936,0.415117,0.246269209,-0.269335612,0.435243,0.225306457,-0.216895379,0.415784,0.210770462,-0.201616135,0.404433,0.209284971,-0.199117369,0.414552,0.267551425,-0.271949165,0.436099,0.23947264,-0.226081782,0.41248,0.224968323,-0.207438085,0.400396,0.211773277,-0.192958825,0.38941,0.295574351,-0.283435321,0.439845,0.274935735,-0.248913344,0.418949,0.265370928,-0.232789678,0.409348,0.256882323,-0.218407117,0.400876
0.272149842,-0.363557679,0.466381,0.250349601,-0.305784248,0.452548,0.243039606,-0.347476273,0.463781,0.199230121,-0.325613642,0.449839,0.160150967,-0.304892455,0.430255,0.138601147,-0.286426105,0.415708,0.210838928,-0.261090557,0.439828,0.193827715,-0.221683066,0.435282,0.182303485,-0.207293236,0.433009,0.171315505,-0.193567868,0.430942,0.234825975,-0.257394624,0.438967,0.212892798,-0.206412863,0.420568,0.198431056,-0.188738418,0.409835,0.196288125,-0.183636922,0.420366,0.256045058,-0.25882904,0.439534,0.227947979,-0.214417101,0.418417,0.213502885,-0.194148608,0.407613,0.200432466,-0.178038485,0.397791,0.283823547,-0.268628104,0.442499,0.264097682,-0.232846097,0.423893,0.254938908,-0.216105844,0.415344,0.246801876,-0.201159428,0.407801
0.262020241,-0.350984654,0.463105,0.244592817,-0.299009297,0.451899,0.239829138,-0.343309315,0.462517,0.195592267,-0.317040777,0.45056,0.158102228,-0.29578182,0.433609,0.137467874,-0.276839735,0.420439,0.207282451,-0.257052988,0.44352,0.19013751,-0.217312541,0.438369,0.177856356,-0.202582131,0.435793,0.166177337,-0.188571018,0.433452,0.230280821,-0.252277065,0.440896,0.20827563,-0.201403559,0.422524,0.192881509,-0.183516207,0.411807,0.189661477,-0.177922601,0.422224,0.250483756,-0.252690442,0.439772,0.22332468,-0.206945568,0.421646,0.20902377,-0.185570138,0.412372,0.195779277,-0.16804846,0.403941,0.276696462,-0.26099361,0.440312,0.257321935,-0.226360385,0.424046,0.248276085,-0.210055073,0.416572,0.240210703,-0.195438442,0.409978
0.254333273,-0.339357332,0.462844,0.233810992,-0.282708066,0.451906,0.228536888,-0.324672802,0.464093,0.187885037,-0.303525153,0.454633,0.150153032,-0.283446498,0.439171,0.12867856,-0.265118839,0.426799,0.197694349,-0.242724367,0.446039,0.181293067,-0.204019289,0.441893,0.167630605,-0.189351276,0.43982,0.154633085,-0.175399102,0.437935,0.218821565,-0.236442196,0.441167,0.196701454,-0.186660508,0.423535,0.179055868,-0.168785653,0.413249,0.173274,-0.162367662,0.423634,0.237540388,-0.235570428,0.438167,0.208474463,-0.190529807,0.420988,0.192735555,-0.169390973,0.412198,0.177809814,-0.15197707,0.404208,0.262116991,-0.242278194,0.436459,0.239908727,-0.207748048,0.420688,0.229505706,-0.19147957,0.413442,0.22021032,-0.176889417,0.407049
0.244289252,-0.323101197,0.460652,0.226343511,-0.270690403,0.452387,0.223864582,-0.317183528,0.462507,0.179793401,-0.291180733,0.454183,0.142095324,-0.270606366,0.438331,0.120788014,-0.252055845,0.426104,0.191330455,-0.232336285,0.449111,0.17377138,-0.193665067,0.444294,0.159654532,-0.178108784,0.441886,0.146207344,-0.16367512,0.439696,0.212694452,-0.226147439,0.444273,0.19275448,-0.17764407,0.429251,0.176167891,-0.155317186,0.420489,0.170692275,-0.150786118,0.431842,0.231458018,-0.225218519,0.441054,0.208169179,-0.177332642,0.426235,0.193683437,-0.157273013,0.418653,0.179851949,-0.142545972,0.41176,0.255755652,-0.231589418,0.438646,0.23501146,-0.196501294,0.425105,0.225189589,-0.180190885,0.418883,0.21637257,-0.165570043,0.413393
0.239975078,-0.314067574,0.462877,0.222282643,-0.264926574,0.455093,0.22038801,-0.309620913,0.466404,0.179242523,-0.287962635,0.459977,0.141412274,-0.268599293,0.445157,0.119502904,-0.25072536,0.433451,0.186910043,-0.229273166,0.454263,0.168024013,-0.188751352,0.446924,0.153148148,-0.172129515,0.443254,0.139191681,-0.156535238,0.439918,0.206597867,-0.221199134,0.44745,0.183602538,-0.173840245,0.433379,0.16517585,-0.151535132,0.42517,0.151506124,-0.13553121,0.419307,0.224141449,-0.218659313,0.442561,0.200454973,-0.171184536,0.428109,0.184969293,-0.151623545,0.420714,0.169900582,-0.137447363,0.413993,0.247275647,-0.223002137,0.438111,0.22525582,-0.187334079,0.425068,0.214921262,-0.170515185,0.419076,0.205677072,-0.155426485,0.413789
0.240193417,-0.311569944,0.463746,0.222041857,-0.263368805,0.456171,0.220388705,-0.307433857,0.466942,0.179285398,-0.287074767,0.460075,0.141419653,-0.268888617,0.445983,0.119243231,-0.251514073,0.434603,0.185580162,-0.228597403,0.455063,0.163530601,-0.188709706,0.448861,0.147897985,-0.172778531,0.44576,0.136664589,-0.157712543,0.442941,0.205263989,-0.220045348,0.448734,0.17892414,-0.172793795,0.436662,0.159669245,-0.151281597,0.429621,0.145346822,-0.135795631,0.424591,0.220928142,-0.214670833,0.444223,0.19496594,-0.168209194,0.429978,0.178428082,-0.148992254,0.42269,0.162543931,-0.135013972,0.416064,0.244562053,-0.217656016,0.440183,0.220583698,-0.182339786,0.427306,0.20932712,-0.165701086,0.42139,0.19925703,-0.150782739,0.41617
0.23950673,-0.30928149,0.463251,0.221568121,-0.262388829,0.456624,0.219946937,-0.305677764,0.46684,0.17933009,-0.286455763,0.460732,0.141193076,-0.267375222,0.445776,0.119196201,-0.249834214,0.434906,0.18404391,-0.227629571,0.456661,0.163802498,-0.188957379,0.45085,0.148112295,-0.1730855,0.447944,0.133359698,-0.158167088,0.445302,0.203293387,-0.218242983,0.450118,0.17878123,-0.172713147,0.437954,0.159345024,-0.1511832,0.430858,0.144890412,-0.135692685,0.425789,0.220700802,-0.214505195,0.445344,0.19609952,-0.168205093,0.432143,0.179900322,-0.148592083,0.42539,0.16412536,-0.134017334,0.41925,0.244042966,-0.217248483,0.440837,0.220274195,-0.182292993,0.428812,0.209087888,-0.165781936,0.423287,0.199065096,-0.150954594,0.418412
0.239466572,-0.308390739,0.463672,0.221386976,-0.261964902,0.456965,0.219882359,-0.304904454,0.467203,0.179326363,-0.286102877,0.460995,0.141156733,-0.2667631,0.445916,0.119248945,-0.249153111,0.435336,0.183953065,-0.22750539,0.456874,0.163800482,-0.188933026,0.451259,0.148110499,-0.173102317,0.448452,0.133352965,-0.158217362,0.4459,0.203185442,-0.218138628,0.45038,0.178678767,-0.172633314,0.438251,0.159201508,-0.151116821,0.431175,0.144715531,-0.135637128,0.426122,0.220592532,-0.214418448,0.445653,0.196555975,-0.168271602,0.433038,0.180515109,-0.148562516,0.426584,0.164810309,-0.133816334,0.420716,0.243958667,-0.217191639,0.441216,0.220075947,-0.182198915,0.429131,0.208838075,-0.165674393,0.423578,0.19877073,-0.150837636,0.418679
0.239606666,-0.308011377,0.464276,0.221296371,-0.261731929,0.457207,0.219951796,-0.304545002,0.467684,0.179352076,-0.285935068,0.461225,0.141105708,-0.266340158,0.445908,0.119217839,-0.248612909,0.435365,0.183800432,-0.2273107,0.456714,0.163654188,-0.188753241,0.451063,0.147954766,-0.172929753,0.448237,0.133191133,-0.158054477,0.445669,0.203021431,-0.217968329,0.450267,0.178451726,-0.172423514,0.437968,0.158930307,-0.150894283,0.430793,0.14441758,-0.135411962,0.425668,0.220442128,-0.214281496,0.445613,0.19665003,-0.168190133,0.43319,0.180675628,-0.148427113,0.426834,0.164998786,-0.13359118,0.421056,0.243869672,-0.217121538,0.441321,0.219795547,-0.182001812,0.428937,0.208478366,-0.165434307,0.423247,0.198345787,-0.150568335,0.418227
0.240622148,-0.306681196,0.46313,0.230839878,-0.259755275,0.455976,0.220952857,-0.303217803,0.466352,0.190141941,-0.285662085,0.459607,0.151157069,-0.265792821,0.443417,0.124889023,-0.250470226,0.42944,0.193141321,-0.226920325,0.455188,0.169625774,-0.188520682,0.448445,0.15527941,-0.171002197,0.445074,0.14131516,-0.155221915,0.442008,0.211917266,-0.217388561,0.448952,0.186798058,-0.174724079,0.439367,0.169725015,-0.149398098,0.433776,0.156111131,-0.132847433,0.429782,0.229155992,-0.213507657,0.444479,0.205116323,-0.166596548,0.430624,0.188495212,-0.147194525,0.423535,0.171762108,-0.135487108,0.41709,0.252657795,-0.21609487,0.440414,0.223491347,-0.181559087,0.428328,0.209278189,-0.16493097,0.422775,0.199004426,-0.150110498,0.417876
0.226084039,-0.313910061,0.481175,0.223552966,-0.265854288,0.4668,0.209008626,-0.300473656,0.481495,0.170870504,-0.276449682,0.469552,0.139018916,-0.262044888,0.442091,0.120363339,-0.244659058,0.425777,0.192636403,-0.217286538,0.457392,0.166812889,-0.174120951,0.440945,0.153908983,-0.152552988,0.432721,0.137441569,-0.139257957,0.425245,0.211575493,-0.220844559,0.452659,0.198545408,-0.16750507,0.43172,0.182453294,-0.143875567,0.419506,0.170016842,-0.127703108,0.410781,0.228407981,-0.224146863,0.450091,0.213680244,-0.174423315,0.432344,0.196641331,-0.157165569,0.423264,0.181824989,-0.140587715,0.415009,0.250013103,-0.241378702,0.449462,0.238731238,-0.195663266,0.432263,0.227558878,-0.180725583,0.424361,0.217566345,-0.167320551,0.417389
0.237805659,-0.303942386,0.458095,0.228166342,-0.2590595,0.451279,0.217965538,-0.299047041,0.459724,0.179832488,-0.282560117,0.450798,0.139280008,-0.256072646,0.427493,0.117584958,-0.235879191,0.412491,0.20125142,-0.221092257,0.44869,0.172623794,-0.182859487,0.437536,0.158173136,-0.163553601,0.431958,0.140364617,-0.144103378,0.426888,0.219710834,-0.21633882,0.444573,0.193036416,-0.171597658,0.430851,0.175174696,-0.14712887,0.422847,0.161281337,-0.13040919,0.417129,0.236056065,-0.216539055,0.441813,0.231373325,-0.167954995,0.428571,0.215893936,-0.153925815,0.421796,0.201220155,-0.140593176,0.415637,0.257312258,-0.224451242,0.439703,0.243327205,-0.181381299,0.427323,0.236097267,-0.162155396,0.421634,0.229733458,-0.145255506,0.416615
0.238099223,-0.303719268,0.45758,0.234007824,-0.255711662,0.448343,0.219118683,-0.297894128,0.460328,0.185336051,-0.279914281,0.452497,0.141818298,-0.256395232,0.429227,0.119786474,-0.23555934,0.415124,0.208208867,-0.215353166,0.445521,0.180879116,-0.176605023,0.432762,0.166981267,-0.1568758,0.426382,0.152738247,-0.14037556,0.420583,0.225588881,-0.209811186,0.439257,0.200241929,-0.164745402,0.423648,0.185272399,-0.138058576,0.414542,0.169268712,-0.128653034,0.408038,0.240939086,-0.209450785,0.434953,0.241905142,-0.164590034,0.427065,0.227753822,-0.153444379,0.423029,0.214109577,-0.142681946,0.419361,0.260966823,-0.21680843,0.431433,0.245826882,-0.176768921,0.416905,0.238814037,-0.158080446,0.41023,0.232593696,-0.141423654,0.40434
0.242770068,-0.307428799,0.457918,0.246684368,-0.270564232,0.448614,0.225832691,-0.298823583,0.458214,0.19870411,-0.289612491,0.44692,0.159972496,-0.257072688,0.422296,0.14553451,-0.236610288,0.417183,0.220943364,-0.224052796,0.442636,0.196625853,-0.181906671,0.429436,0.186475729,-0.162608624,0.427392,0.177085392,-0.144739353,0.425533,0.242204115,-0.224802812,0.43946,0.225844462,-0.175566699,0.423089,0.212329503,-0.151177364,0.413539,0.200783655,-0.137406401,0.406718,0.260344394,-0.229730991,0.437705,0.245240072,-0.183472218,0.430142,0.237176859,-0.159892617,0.426273,0.229827095,-0.138384557,0.422755,0.282738956,-0.243393733,0.43719,0.277766035,-0.202616893,0.43087,0.274108815,-0.184477424,0.427966,0.270869837,-0.168362823,0.425403
0.280587676,-0.306071744,0.441674,0.271633009,-0.259299575,0.435461,0.261344271,-0.298024753,0.443194,0.222024384,-0.277249417,0.434248,0.182373727,-0.251788329,0.414123,0.162850183,-0.232140344,0.39924,0.242242496,-0.219346216,0.433146,0.219518414,-0.179049788,0.422018,0.207741788,-0.158897139,0.416454,0.195175721,-0.145280166,0.411395,0.263021379,-0.214962394,0.429349,0.243910268,-0.167184372,0.416158,0.228521062,-0.14659507,0.408463,0.217044209,-0.131906255,0.402966,0.281140328,-0.215437895,0.426797,0.275189072,-0.175740364,0.428349,0.267811157,-0.155524382,0.429143,0.25925272,-0.14232358,0.429865,0.304339513,-0.223504264,0.424831,0.297567866,-0.181938059,0.41291,0.288096737,-0.184751544,0.407433,0.28052017,-0.195777766,0.4026
0.314456598,-0.30689713,0.451874,0.29937626,-0.257929341,0.43908,0.289287481,-0.296166027,0.4465,0.249774139,-0.273458267,0.427056,0.210298745,-0.247586795,0.399848,0.189505171,-0.226751041,0.383981,0.257997222,-0.212193084,0.423532,0.242875827,-0.175490266,0.42522,0.235191347,-0.156873108,0.426065,0.22813702,-0.139790631,0.426832,0.284708504,-0.21084944,0.426494,0.264818977,-0.162371844,0.412146,0.254783411,-0.139222584,0.403776,0.24815966,-0.124600268,0.397798,0.308179867,-0.214108736,0.430114,0.287364143,-0.162797719,0.410399,0.279839802,-0.147114368,0.400311,0.274808739,-0.141928694,0.391141,0.338499294,-0.225877376,0.436492,0.320178307,-0.188813172,0.417211,0.312759395,-0.174984752,0.408352,0.306196358,-0.162517931,0.400535
0.32942272,-0.30034262,0.434302,0.318018343,-0.254035628,0.427882,0.306105038,-0.291144531,0.431983,0.268555213,-0.266026109,0.419475,0.238387201,-0.2499275,0.415744,0.233620184,-0.244956395,0.427456,0.281515943,-0.211975654,0.420558,0.27521666,-0.174404958,0.42338,0.27209047,-0.155731258,0.424791,0.270233691,-0.142734143,0.426073,0.306988324,-0.209693673,0.421566,0.29160333,-0.16094983,0.407431,0.283606588,-0.135268037,0.399186,0.277847818,-0.116428513,0.393296,0.328980463,-0.211922635,0.422988,0.314065464,-0.162904683,0.408877,0.308137732,-0.141839778,0.401658,0.302734685,-0.12202448,0.395095,0.356816222,-0.221967603,0.425725,0.349573671,-0.181791433,0.41403,0.346873017,-0.16497294,0.408656,0.344533614,-0.149795919,0.403915
0.336628475,-0.299037153,0.434553,0.338439858,-0.250043846,0.427088,0.313392459,-0.287279534,0.431231,0.289796249,-0.263629209,0.415601,0.2501085,-0.234760208,0.385524,0.231171995,-0.213657001,0.374879,0.307320075,-0.203138439,0.417781,0.289892312,-0.163102306,0.405242,0.281048677,-0.142548733,0.398972,0.272926221,-0.123521237,0.393272,0.333277255,-0.205047934,0.41974,0.318684739,-0.157332097,0.404333,0.310149456,-0.140421852,0.395346,0.303983267,-0.127705163,0.388926,0.3555542,-0.210802779,0.42204,0.346123961,-0.161486964,0.406883,0.341197886,-0.137948899,0.399128,0.336747118,-0.11621388,0.392078,0.383313083,-0.225341343,0.425979,0.383164129,-0.185064766,0.413815,0.383142949,-0.166410627,0.408226,0.380536327,-0.160414886,0.403294
0.371167883,-0.299476795,0.436697,0.363195506,-0.251225334,0.427867,0.346446944,-0.285278068,0.431451,0.313127292,-0.263789339,0.413099,0.273759589,-0.236402326,0.384092,0.254801662,-0.215527424,0.3663,0.327349064,-0.202866058,0.415172,0.310570445,-0.165333351,0.398787,0.302093863,-0.145901997,0.390594,0.294331116,-0.127796536,0.383147,0.355348212,-0.205215517,0.419156,0.343768086,-0.155351629,0.402419,0.337737958,-0.133133958,0.392655,0.333506262,-0.11666318,0.385681,0.379621137,-0.211429499,0.42325,0.370455723,-0.161134147,0.406889,0.366815593,-0.143436107,0.398519,0.363308352,-0.133309248,0.390909,0.410229469,-0.226697175,0.429525,0.409135901,-0.184378308,0.416799,0.409137265,-0.172182607,0.410952,0.409358732,-0.161051112,0.405792
0.377433478,-0.300186574,0.437732,0.374185452,-0.251524784,0.428377,0.352193878,-0.28564107,0.432,0.323856137,-0.263680783,0.412929,0.283992703,-0.235988106,0.383419,0.264931229,-0.2150573,0.365501,0.337190073,-0.202638844,0.414707,0.320079564,-0.164821332,0.397552,0.311458614,-0.145297238,0.388975,0.303576898,-0.127139453,0.381177,0.365686762,-0.20521209,0.419149,0.353266375,-0.155053603,0.401647,0.347169051,-0.134745721,0.391438,0.342946595,-0.120695814,0.384146,0.390473638,-0.211638306,0.423668,0.380408226,-0.16103752,0.406645,0.376701058,-0.143226272,0.397936,0.373228649,-0.133005737,0.390019,0.421859879,-0.2272276,0.43053,0.419970166,-0.184552601,0.417193,0.419920295,-0.172229533,0.411064,0.420105885,-0.160997533,0.405657
0.380480463,-0.297876009,0.436038,0.384015263,-0.24603545,0.424387,0.359800791,-0.281062358,0.429105,0.332163311,-0.254810949,0.408043,0.294052057,-0.226630791,0.378086,0.276359516,-0.205808369,0.359505,0.349181851,-0.193297302,0.407624,0.335000856,-0.155439398,0.388199,0.327960672,-0.135929337,0.378487,0.321593237,-0.117802433,0.369657,0.378366051,-0.198861594,0.412895,0.369043453,-0.148613271,0.393141,0.364742976,-0.128936446,0.381618,0.361849575,-0.115421729,0.373387,0.403457315,-0.207888086,0.418308,0.3962868,-0.157261366,0.399137,0.394172262,-0.140155823,0.389329,0.39164874,-0.130722552,0.380412,0.434687582,-0.226766515,0.426601,0.43549609,-0.184762161,0.411663,0.436676294,-0.173277126,0.4048,0.438025011,-0.162836653,0.398744
0.394149301,-0.295534318,0.432696,0.399891404,-0.250308166,0.423919,0.371190674,-0.279261138,0.427869,0.363236648,-0.261577993,0.410042,0.32872859,-0.227736873,0.379111,0.312317984,-0.202213257,0.363615,0.370052582,-0.199303101,0.411792,0.357541995,-0.158677408,0.395516,0.351321529,-0.138369026,0.387379,0.345689915,-0.119545737,0.379981,0.397877836,-0.20488747,0.415261,0.390973625,-0.156344289,0.398393,0.3867349,-0.134538861,0.388553,0.38389774,-0.118334684,0.381525,0.421592558,-0.213818342,0.418926,0.417547171,-0.165260927,0.402233,0.415705487,-0.143672612,0.393692,0.414252266,-0.123476655,0.385927,0.450656103,-0.232388519,0.42469,0.454345301,-0.191677625,0.412028,0.456582084,-0.176519788,0.40621,0.458785467,-0.162815596,0.401077
0.407635301,-0.300129934,0.435426,0.409405591,-0.252884523,0.425713,0.38465687,-0.282879567,0.430413,0.373712029,-0.267393726,0.412131,0.338004605,-0.233290222,0.381272,0.319565516,-0.206615344,0.368244,0.379762064,-0.200954199,0.412709,0.36753835,-0.162353285,0.395688,0.361493862,-0.142463582,0.387178,0.355993347,-0.124644556,0.379441,0.407587741,-0.207152708,0.416132,0.40091763,-0.158704288,0.398352,0.396224892,-0.137906754,0.38798,0.392985075,-0.122996242,0.380571,0.431335385,-0.216648856,0.419845,0.42706801,-0.167224254,0.402403,0.424931792,-0.146343919,0.393479,0.423230324,-0.126797919,0.385366,0.460450453,-0.235998511,0.42582,0.462998373,-0.194671303,0.411802,0.464557794,-0.178018151,0.405361,0.461526786,-0.163361598,0.399678
0.418815754,-0.302228917,0.433857,0.420625101,-0.256545794,0.424499,0.403564662,-0.290279919,0.428719,0.373732567,-0.266715245,0.410369,0.340730204,-0.239683099,0.379873,0.319539883,-0.215427243,0.36283,0.38496953,-0.207065573,0.411579,0.372044743,-0.163091253,0.394981,0.366987996,-0.144176194,0.386682,0.359163509,-0.125756474,0.379137,0.413106163,-0.210258172,0.415268,0.402965692,-0.160067962,0.398075,0.403341856,-0.13990608,0.388046,0.402230725,-0.123839784,0.380883,0.437301833,-0.21719382,0.419167,0.429083626,-0.167444513,0.402412,0.430768204,-0.148044813,0.39384,0.431201191,-0.132938374,0.386047,0.467549169,-0.233290867,0.425302,0.469353787,-0.192943049,0.412109,0.471802709,-0.177839118,0.406048,0.470644127,-0.164544044,0.400699
0.431540739,-0.30660343,0.436994,0.42375507,-0.258487113,0.426719,0.407235464,-0.292381609,0.431828,0.3799316,-0.269365307,0.413225,0.344822051,-0.241183952,0.383133,0.324275205,-0.217147508,0.366659,0.388123615,-0.209135683,0.413137,0.37339122,-0.164135196,0.395838,0.367699399,-0.144777733,0.387188,0.360425847,-0.126239424,0.379324,0.416015673,-0.212062708,0.416584,0.405748647,-0.162370724,0.398527,0.403154276,-0.140574306,0.387994,0.40164389,-0.124716225,0.38047,0.439950949,-0.218797945,0.420369,0.431914961,-0.169620504,0.40248,0.42844225,-0.14797826,0.393328,0.427419616,-0.130378889,0.385007,0.469783826,-0.234641689,0.426521,0.470323231,-0.194211707,0.412577,0.472027016,-0.178200308,0.406171,0.471442679,-0.164140892,0.400518
0.43321759,-0.307612219,0.438271,0.425044674,-0.259387281,0.42748,0.409015113,-0.293562326,0.433181,0.383370491,-0.271225388,0.41455,0.346474574,-0.242408673,0.384597,0.326150778,-0.218505727,0.36796,0.389235638,-0.210038098,0.413639,0.374460946,-0.164990925,0.396042,0.368586949,-0.145282891,0.387243,0.363462767,-0.127413362,0.379244,0.416923364,-0.212776019,0.416835,0.405217609,-0.162596272,0.398195,0.402028962,-0.140822882,0.387322,0.398050874,-0.124421745,0.379556,0.440699583,-0.219371844,0.42046,0.431555884,-0.170193234,0.402029,0.427902405,-0.148250214,0.392599,0.426477002,-0.130511513,0.384026,0.470371887,-0.235069002,0.42651,0.471212514,-0.195029509,0.412463,0.472807287,-0.178594863,0.406008,0.474381675,-0.163847821,0.400314
0.434824564,-0.308233016,0.439105,0.426316377,-0.25992531,0.42802,0.41066203,-0.294308992,0.434103,0.384728447,-0.27211057,0.415514,0.34818677,-0.243240295,0.385707,0.32731453,-0.219465709,0.369067,0.39131901,-0.211394679,0.414091,0.37506329,-0.165508224,0.396275,0.36892144,-0.145764159,0.387367,0.363549454,-0.127870591,0.379269,0.417867798,-0.213199305,0.417086,0.405115551,-0.162751496,0.398146,0.401403719,-0.140961949,0.387097,0.397574464,-0.124629158,0.379206,0.441555462,-0.219669982,0.420573,0.43146418,-0.170449838,0.40181,0.427536363,-0.148374156,0.39221,0.425718192,-0.130522242,0.383483,0.471167935,-0.235235289,0.42651,0.471484727,-0.195147167,0.412146,0.472715948,-0.178421355,0.405546,0.473949015,-0.163435028,0.399722
