sluyters/QuantumLeap/backend/src/datasets/gesture/HandGestureDataset_SHREC2017_csv/Gesture12/finger_2/subject_13_essai_3_skeletons_world.csv
Wrist_x,Wrist_y,Wrist_z,Palm_x,Palm_y,Palm_z,thumb_base_x,thumb_base_y,thumb_base_z,thumb_first_joint_x,thumb_first_joint_y,thumb_first_joint_z,thumb_second_joint_x,thumb_second_joint_y,thumb_second_joint_z,thumb_tip_x,thumb_tip_y,thumb_tip_z,index_base_x,index_base_y,index_base_z,index_first_joint_x,index_first_joint_y,index_first_joint_z,index_second_joint_x,index_second_joint_y,index_second_joint_z,index_tip_x,index_tip_y,index_tip_z,middle_base_x,middle_base_y,middle_base_z,middle_first_joint_x,middle_first_joint_y,middle_first_joint_z,middle_second_joint_x,middle_second_joint_y,middle_second_joint_z,middle_tip_x,middle_tip_y,middle_tip_z,ring_base_x,ring_base_y,ring_base_z,ring_first_joint_x,ring_first_joint_y,ring_first_joint_z,ring_second_joint_x,ring_second_joint_y,ring_second_joint_z,ring_tip_x,ring_tip_y,ring_tip_z,pinky_base_x,pinky_base_y,pinky_base_z,pinky_first_joint_x,pinky_first_joint_y,pinky_first_joint_z,pinky_second_joint_x,pinky_second_joint_y,pinky_second_joint_z,pinky_tip_x,pinky_tip_y,pinky_tip_z,
0.44472498,-0.29298595,0.510662,0.45229836,-0.25302476,0.517531,0.43078946,-0.27905808,0.518049,0.4020929,-0.25569803,0.521007,0.3748806,-0.23542122,0.519949,0.36407271,-0.221623,0.523728,0.44202545,-0.20120998,0.533001,0.4354126,-0.16105733,0.533985,0.43110565,-0.14052246,0.534478,0.427474,-0.12196671,0.534926,0.46160043,-0.1988594,0.527045,0.45990616,-0.15317205,0.527738,0.45726994,-0.12450877,0.528143,0.45610047,-0.10503028,0.528432,0.47736121,-0.19854052,0.521695,0.48661441,-0.16057457,0.529634,0.48968299,-0.13753223,0.533696,0.49244443,-0.11799878,0.537389,0.49612645,-0.20437661,0.514326,0.50414057,-0.16677902,0.513856,0.50648018,-0.14774713,0.51364,0.50903862,-0.13278581,0.513449
0.44496596,-0.29089293,0.510286,0.45216684,-0.25250626,0.517264,0.43066636,-0.27853244,0.517672,0.40200151,-0.25541386,0.520618,0.37483092,-0.23515226,0.519582,0.36385384,-0.22104821,0.523132,0.44177391,-0.20099074,0.532832,0.43527325,-0.16081529,0.533905,0.43098037,-0.14027878,0.534442,0.42732888,-0.12167871,0.534929,0.46141363,-0.19862248,0.526923,0.45973913,-0.15293808,0.527649,0.45718988,-0.12440283,0.528072,0.45596507,-0.10482451,0.528375,0.47725254,-0.19843437,0.521605,0.48610652,-0.16025477,0.529294,0.48896725,-0.13716612,0.533228,0.49156832,-0.11737348,0.536805,0.49605784,-0.20423492,0.514262,0.50420517,-0.16677239,0.513962,0.50661605,-0.14776104,0.513825,0.5091881,-0.13251418,0.513703
0.44539661,-0.290517,0.510781,0.45226309,-0.25255371,0.517502,0.43093946,-0.27816874,0.518009,0.40161166,-0.25731506,0.520808,0.3746649,-0.23654544,0.519898,0.364108,-0.22194623,0.523548,0.44177255,-0.20198131,0.532633,0.43507526,-0.16125626,0.533399,0.4308313,-0.14064638,0.533782,0.42607673,-0.12056397,0.53413,0.46087254,-0.19885268,0.526799,0.45980201,-0.15368208,0.527288,0.45787293,-0.12578151,0.527573,0.45660818,-0.10623631,0.527776,0.47673854,-0.19877209,0.52156,0.48618652,-0.16121161,0.529539,0.48941563,-0.13821982,0.533621,0.49239112,-0.11817563,0.537333,0.49567663,-0.20449185,0.514344,0.5039907,-0.16867899,0.51369,0.506419,-0.14966207,0.51339,0.50907191,-0.1340105,0.513125
0.44568562,-0.2900196,0.510897,0.45214934,-0.2520334,0.517534,0.43101974,-0.27780983,0.518016,0.40156012,-0.2566701,0.520522,0.37481432,-0.23659581,0.519978,0.36435445,-0.22120831,0.523468,0.44105592,-0.2017346,0.532453,0.4344362,-0.1607939,0.53306,0.43019691,-0.14012749,0.533364,0.42576225,-0.12065643,0.53364,0.46047501,-0.19902849,0.526715,0.45982796,-0.15377267,0.527339,0.45813329,-0.12588385,0.527703,0.45680978,-0.10560832,0.527963,0.47640104,-0.1990254,0.52156,0.48606617,-0.1611983,0.529589,0.48941818,-0.13824107,0.533697,0.49249714,-0.11809878,0.537432,0.49545677,-0.20469702,0.514457,0.50414403,-0.16885538,0.513893,0.50663414,-0.14987028,0.513634,0.50890203,-0.13348208,0.513405
0.44561122,-0.29029913,0.509965,0.4553095,-0.26452162,0.517089,0.42988916,-0.27771174,0.516019,0.40589165,-0.27052203,0.520357,0.37674294,-0.24900903,0.516778,0.36552391,-0.23289046,0.519442,0.43892698,-0.2141135,0.53123,0.43105973,-0.17401366,0.532127,0.42674951,-0.15346731,0.532576,0.42273277,-0.13435391,0.532984,0.46082863,-0.21243417,0.526982,0.45840165,-0.16707166,0.527036,0.45663698,-0.13940901,0.527068,0.45505789,-0.12127309,0.527091,0.47862662,-0.21351102,0.52302,0.48565838,-0.16834939,0.52913,0.48856407,-0.14606399,0.532257,0.49113117,-0.12362362,0.535099,0.4998765,-0.21659537,0.517288,0.50680442,-0.18016349,0.517246,0.50974038,-0.16139859,0.517227,0.51310062,-0.1424374,0.517211
0.44669115,-0.29103463,0.50962,0.45643475,-0.26524606,0.517109,0.43162778,-0.28367226,0.514787,0.4058501,-0.27089341,0.518715,0.37804392,-0.25077613,0.51725,0.36706386,-0.23497228,0.520296,0.43848213,-0.21600322,0.530541,0.43010174,-0.17589455,0.531475,0.42556066,-0.15548371,0.531942,0.42132595,-0.13648163,0.532367,0.46132522,-0.2142226,0.527508,0.45858719,-0.16881333,0.527972,0.45650939,-0.14117489,0.528243,0.45471642,-0.12238355,0.528436,0.48003674,-0.21515796,0.524521,0.48427932,-0.17091586,0.528766,0.48644575,-0.14823166,0.530938,0.48875166,-0.12518075,0.532913,0.50236416,-0.22124782,0.519916,0.50976217,-0.18581197,0.520737,0.51282702,-0.16785439,0.521114,0.51555883,-0.15168193,0.521447
0.44909346,-0.30565157,0.505132,0.45325234,-0.28043074,0.513285,0.4319704,-0.30607862,0.511024,0.40387,-0.28601612,0.515315,0.37823508,-0.26636286,0.516066,0.36683297,-0.2496383,0.517877,0.43680425,-0.2332337,0.528212,0.4308729,-0.19263752,0.529536,0.42713634,-0.17238871,0.530197,0.4236343,-0.1534729,0.530799,0.45875836,-0.2304983,0.524591,0.4558601,-0.18516775,0.525696,0.45339604,-0.15799272,0.526341,0.45070136,-0.13918922,0.526801,0.476792,-0.23058332,0.521079,0.47903733,-0.18587698,0.524541,0.48009339,-0.16280761,0.526313,0.48105132,-0.14177908,0.527923,0.49836607,-0.23555067,0.515754,0.51020872,-0.20163127,0.520097,0.51485905,-0.18362032,0.522092,0.51900737,-0.16741896,0.523853
0.4514388,-0.3282772,0.508754,0.45400469,-0.29865122,0.515241,0.43430014,-0.32538796,0.515418,0.40674072,-0.30342069,0.518917,0.3811597,-0.28253373,0.518784,0.37091403,-0.26621375,0.521568,0.43870655,-0.24900461,0.529479,0.43093701,-0.20808566,0.52951,0.42649461,-0.18754701,0.529525,0.42237804,-0.16851438,0.529539,0.45913556,-0.24627633,0.524231,0.45486462,-0.19968704,0.523641,0.45122714,-0.17222033,0.523296,0.44818311,-0.15249057,0.52305,0.47587544,-0.24650002,0.51949,0.48157064,-0.20432828,0.525592,0.48370258,-0.18163596,0.528713,0.48563316,-0.16073593,0.531551,0.49582808,-0.25188082,0.512907,0.50933946,-0.2180974,0.521059,0.51523818,-0.20147087,0.524804,0.52045407,-0.18671472,0.528109
0.44230521,-0.36157337,0.513019,0.44870901,-0.32198295,0.517866,0.4257877,-0.34644844,0.517547,0.40014808,-0.32172153,0.520605,0.37514447,-0.29695192,0.517411,0.36736497,-0.28045364,0.521176,0.43536303,-0.26713534,0.527956,0.42772313,-0.22548799,0.526439,0.42305025,-0.20657774,0.52568,0.41867133,-0.18878376,0.524991,0.45752296,-0.26806234,0.52457,0.45442866,-0.22238432,0.523303,0.4512559,-0.19615108,0.522564,0.44855978,-0.17994706,0.522035,0.47553671,-0.27139798,0.521468,0.48440792,-0.23048792,0.529375,0.48870259,-0.20861495,0.533421,0.4926112,-0.18854871,0.537099,0.49669268,-0.28073498,0.517078,0.50720838,-0.24470703,0.519772,0.51185639,-0.22689387,0.521009,0.51567114,-0.2114913,0.522101
0.4473487,-0.37194976,0.515868,0.45398913,-0.33939378,0.519049,0.43278607,-0.36500026,0.519846,0.4052335,-0.33688408,0.518104,0.37919905,-0.31067104,0.513171,0.37190254,-0.29420822,0.517224,0.4377247,-0.28359419,0.526871,0.42876761,-0.24186064,0.52373,0.42286668,-0.22430356,0.522159,0.41733107,-0.20772038,0.52073,0.45957676,-0.28394844,0.523441,0.45234697,-0.23556354,0.519442,0.44758305,-0.20756183,0.517109,0.44416116,-0.18736887,0.515443,0.47758478,-0.2869041,0.520411,0.48759596,-0.24636249,0.529718,0.4925422,-0.22526034,0.53448,0.49704045,-0.20600393,0.538809,0.49917387,-0.29599424,0.516331,0.50841428,-0.25741811,0.515992,0.51203055,-0.23907749,0.515836,0.51467252,-0.22333259,0.515698
0.45110443,-0.40107537,0.511071,0.45574074,-0.36169856,0.516747,0.43441802,-0.38775298,0.51681,0.40704212,-0.36170466,0.518096,0.38411302,-0.33888401,0.518496,0.37457921,-0.32006786,0.519153,0.44069898,-0.30942424,0.529072,0.43264159,-0.26853484,0.528693,0.42849829,-0.24958392,0.528504,0.42462488,-0.23185182,0.528332,0.46214344,-0.30870497,0.524572,0.45797932,-0.26159258,0.523402,0.4554394,-0.23438773,0.522719,0.45360479,-0.21466384,0.522232,0.47950571,-0.31062444,0.520496,0.48898834,-0.26973296,0.529585,0.49384464,-0.2484114,0.534236,0.49826248,-0.22885297,0.538463,0.49991371,-0.3180851,0.514821,0.50607349,-0.27748811,0.513292,0.50889669,-0.25910568,0.51259,0.511351,-0.24326271,0.511971
0.45177232,-0.40604353,0.511043,0.45684792,-0.37108712,0.51611,0.4348046,-0.39231804,0.516333,0.40747623,-0.3716762,0.51736,0.38516576,-0.35115481,0.519947,0.38017278,-0.33875619,0.527991,0.44132863,-0.31805966,0.527301,0.43176307,-0.27755914,0.526395,0.42675184,-0.25767223,0.525941,0.42212236,-0.23927845,0.525529,0.46287607,-0.31748884,0.523076,0.45778044,-0.27011744,0.521299,0.45418587,-0.24437815,0.520263,0.45147532,-0.226172,0.519522,0.48043892,-0.31958936,0.519266,0.49146713,-0.28076239,0.531357,0.49707491,-0.26061284,0.537543,0.50217182,-0.24218626,0.543166,0.50124333,-0.32740453,0.513992,0.50495761,-0.28595373,0.511895,0.5066698,-0.26687306,0.510932,0.50881915,-0.24621852,0.510082
0.45199841,-0.43132146,0.508029,0.4557223,-0.39174584,0.513887,0.43477725,-0.418235,0.513529,0.40498137,-0.3914288,0.512604,0.38024024,-0.36829968,0.510977,0.37243071,-0.35341331,0.516065,0.43921179,-0.34002563,0.526075,0.43209811,-0.29894435,0.525478,0.4280667,-0.28124945,0.52518,0.42427931,-0.26459986,0.524908,0.46087664,-0.33885609,0.521922,0.45698222,-0.29162708,0.520667,0.45422229,-0.26571624,0.519935,0.45221011,-0.24671861,0.519412,0.47854845,-0.34043102,0.518118,0.48873417,-0.29968313,0.527563,0.49395045,-0.2786668,0.532395,0.49869579,-0.25946485,0.536788,0.49953443,-0.34753699,0.512745,0.50606749,-0.30680739,0.51148,0.50895088,-0.28860731,0.510898,0.5115394,-0.27232231,0.510385
0.45369902,-0.44170798,0.509112,0.45692049,-0.41172403,0.515283,0.43617314,-0.43840219,0.514092,0.40649731,-0.41436209,0.515175,0.38179635,-0.39387014,0.515816,0.37132625,-0.37711968,0.517988,0.43791469,-0.3603345,0.527128,0.43124303,-0.31863889,0.526412,0.42799343,-0.30331025,0.526053,0.42491642,-0.2887423,0.525728,0.46039977,-0.3590292,0.523718,0.45704985,-0.31148147,0.522439,0.4550726,-0.28720172,0.521693,0.45362614,-0.26924776,0.52116,0.47877157,-0.3604996,0.520501,0.48565403,-0.31704478,0.525489,0.48919832,-0.29468436,0.52804,0.49243429,-0.27421263,0.53036,0.50068099,-0.36746994,0.515794,0.5087065,-0.32772772,0.515115,0.51243453,-0.30928384,0.514803,0.51574592,-0.2929123,0.514528
0.44453273,-0.47224602,0.5147,0.45001974,-0.43071707,0.518261,0.42848683,-0.45685127,0.519661,0.40178473,-0.42983101,0.520774,0.37855234,-0.40646032,0.520126,0.36869234,-0.38734607,0.52022,0.43636177,-0.37473935,0.527587,0.43131373,-0.33193126,0.524631,0.42725294,-0.31515083,0.523153,0.42346398,-0.2993556,0.521809,0.45742455,-0.37544338,0.523112,0.45576415,-0.32653096,0.519132,0.45340848,-0.30103653,0.51681,0.45171984,-0.28233047,0.515152,0.47455104,-0.37872815,0.519194,0.48112095,-0.33278749,0.519916,0.48411603,-0.30964302,0.520286,0.48626602,-0.28957489,0.520622,0.49471776,-0.38823751,0.513995,0.50304998,-0.34695422,0.510427,0.50687651,-0.32798953,0.508787,0.51025333,-0.31125867,0.507341
0.44478321,-0.47449214,0.510416,0.45432969,-0.43952441,0.515554,0.42895487,-0.45978984,0.515815,0.40218502,-0.43920842,0.515081,0.37878365,-0.4188122,0.516642,0.36846628,-0.40126807,0.518051,0.44092779,-0.38643697,0.526892,0.43343066,-0.34789311,0.525841,0.42913418,-0.32925049,0.525315,0.42514119,-0.31188917,0.524837,0.4617554,-0.38589623,0.522532,0.45971915,-0.33841318,0.520625,0.45633329,-0.31414982,0.519513,0.45385809,-0.29626087,0.518719,0.47882457,-0.38809267,0.518601,0.48233649,-0.34098135,0.517673,0.48319139,-0.31765307,0.517199,0.48299053,-0.29767679,0.516768,0.49914974,-0.39620778,0.51317,0.50666583,-0.35452131,0.511148,0.50892849,-0.33634071,0.510219,0.50993612,-0.32198167,0.5094
0.44397141,-0.48023402,0.504118,0.4502865,-0.4464641,0.510976,0.42904684,-0.46746724,0.511009,0.4042189,-0.4492426,0.514976,0.38171303,-0.42802363,0.51656,0.37123897,-0.40919462,0.516405,0.43775468,-0.39623105,0.525714,0.43561468,-0.35457556,0.525871,0.43123235,-0.3422235,0.525949,0.42703511,-0.33039927,0.52602,0.45791567,-0.3946129,0.520253,0.45926488,-0.34702424,0.519668,0.45662337,-0.32444097,0.519327,0.45466983,-0.30766812,0.519084,0.47430625,-0.3958789,0.515298,0.48051247,-0.34879806,0.514304,0.48240025,-0.32591718,0.513796,0.48356992,-0.3056842,0.513334,0.49355824,-0.40271341,0.5084,0.50725655,-0.36486516,0.51149,0.51352786,-0.34756136,0.51291,0.51904874,-0.33233673,0.514162
0.44698348,-0.4849243,0.505718,0.45373013,-0.4501368,0.51279,0.43308601,-0.47724109,0.513072,0.40607912,-0.45837552,0.516358,0.3801546,-0.4392126,0.516614,0.36788713,-0.42224046,0.517365,0.44133809,-0.4004767,0.528285,0.43977441,-0.36116904,0.528587,0.43593662,-0.35215392,0.528738,0.43222634,-0.34344934,0.528875,0.46288067,-0.40060166,0.522343,0.46190483,-0.35093226,0.521826,0.46008659,-0.32665431,0.521525,0.45875464,-0.30879719,0.52131,0.47910754,-0.40139344,0.516973,0.48106515,-0.35193637,0.51565,0.48023574,-0.33200897,0.514973,0.48234118,-0.30883471,0.514358,0.4980266,-0.40759011,0.509545,0.51122781,-0.37009529,0.512897,0.51617929,-0.35073214,0.514438,0.5216768,-0.33552235,0.515797
0.45005542,-0.49846796,0.51009,0.45227069,-0.46728891,0.515311,0.43379687,-0.48805919,0.515772,0.4014286,-0.46701267,0.515912,0.37761744,-0.44484991,0.515667,0.36677062,-0.42326288,0.514556,0.43962227,-0.41392858,0.527039,0.43657001,-0.37433328,0.525693,0.43359657,-0.35271835,0.525019,0.43032867,-0.33979326,0.524407,0.46041466,-0.41375016,0.522342,0.46111768,-0.36634544,0.520134,0.46016893,-0.3411372,0.518847,0.45949412,-0.32268786,0.517927,0.47730819,-0.41630359,0.518122,0.48231231,-0.37038874,0.515002,0.4849272,-0.34659808,0.513406,0.4855798,-0.32840421,0.511955,0.49717302,-0.42490308,0.51233,0.51043869,-0.38668727,0.512466,0.51356101,-0.37474754,0.512529,0.51643317,-0.36375529,0.512585
0.44753849,-0.51583224,0.512142,0.45094295,-0.47693224,0.514683,0.42991373,-0.49907543,0.515721,0.40032186,-0.47673515,0.515554,0.37605127,-0.45448361,0.51492,0.36311453,-0.43328467,0.508705,0.43419753,-0.41906481,0.521369,0.42684952,-0.38299393,0.517388,0.42239294,-0.36684796,0.515397,0.41806953,-0.35241759,0.513588,0.45601311,-0.42018557,0.518104,0.45393429,-0.3711672,0.513019,0.45122122,-0.34546886,0.510053,0.44928149,-0.32674061,0.507934,0.47403568,-0.42398922,0.515246,0.47701837,-0.37582365,0.509608,0.47780963,-0.35234446,0.506723,0.47596602,-0.33716876,0.504101,0.49575978,-0.43449708,0.511459,0.5039684,-0.3915492,0.507167,0.50371492,-0.38104153,0.505194,0.50334221,-0.37203597,0.503454
0.4495231,-0.51937996,0.514577,0.45205664,-0.47373195,0.515575,0.43109,-0.50154638,0.517224,0.40084069,-0.47612192,0.516051,0.37700939,-0.45425892,0.516186,0.36443723,-0.43355824,0.511201,0.43309108,-0.41678497,0.519692,0.42433344,-0.37965368,0.514163,0.41915897,-0.3630327,0.511399,0.4141814,-0.34820483,0.508885,0.45521784,-0.41833751,0.516918,0.45115421,-0.36922658,0.510299,0.44561027,-0.34709339,0.506438,0.44150781,-0.3319962,0.503681,0.47363218,-0.42258492,0.514568,0.4751059,-0.37332294,0.50737,0.47480116,-0.34989006,0.503688,0.47163296,-0.3357905,0.50034,0.49608813,-0.43382911,0.511604,0.50300346,-0.38979958,0.505901,0.50198258,-0.37879686,0.50328,0.50091975,-0.36937,0.500967
0.44620074,-0.518663,0.51162,0.45065011,-0.4779841,0.514832,0.43021682,-0.50341079,0.516971,0.3994069,-0.47912591,0.516005,0.37480146,-0.45648985,0.514568,0.36400671,-0.4358169,0.512394,0.43665589,-0.42344183,0.52427,0.43622315,-0.38139299,0.520697,0.43131833,-0.37450331,0.518911,0.42667078,-0.3679312,0.517287,0.45694522,-0.4233175,0.51915,0.45623977,-0.37494879,0.514799,0.45438519,-0.35545146,0.512262,0.45000349,-0.33781282,0.510449,0.47349719,-0.42602937,0.51472,0.47709631,-0.38197526,0.509422,0.47840812,-0.355122,0.506712,0.47662442,-0.33861441,0.504248,0.49312825,-0.43506071,0.508951,0.50732122,-0.39915737,0.507418,0.50982763,-0.38853287,0.506714,0.512168,-0.37875087,0.506092
0.44513471,-0.51930287,0.510907,0.45007476,-0.47857292,0.514479,0.42963129,-0.50446029,0.516746,0.39912666,-0.47995182,0.516187,0.37451965,-0.45732346,0.514636,0.36382325,-0.43698384,0.513035,0.43714394,-0.42458389,0.524839,0.43679618,-0.381894,0.521381,0.43193508,-0.37503882,0.519653,0.42732569,-0.36849595,0.518081,0.45706262,-0.42418394,0.519279,0.45671312,-0.37597,0.515058,0.45468146,-0.35568322,0.512596,0.45119269,-0.33851782,0.510838,0.4732426,-0.42664042,0.514463,0.47692024,-0.38183429,0.509234,0.47846685,-0.35594435,0.506559,0.4771602,-0.33863318,0.504127,0.49231543,-0.4352993,0.508181,0.50738621,-0.39920851,0.507483,0.51027838,-0.38887638,0.507162,0.51296445,-0.37933985,0.506879
0.44554126,-0.52245445,0.512438,0.44876167,-0.48302091,0.514899,0.42780522,-0.50742689,0.516064,0.39740116,-0.48201082,0.516052,0.37329398,-0.45922857,0.514579,0.36372488,-0.43801487,0.513654,0.4341929,-0.4246387,0.521561,0.42718674,-0.38856636,0.517605,0.42114513,-0.37935239,0.515626,0.4154304,-0.37058541,0.513828,0.45573006,-0.42624165,0.518207,0.45293688,-0.38156323,0.513028,0.44909073,-0.35891112,0.510006,0.44891592,-0.33901489,0.507848,0.4734439,-0.43043258,0.515282,0.47359482,-0.38658624,0.509643,0.4732413,-0.36394713,0.506759,0.47632182,-0.33951373,0.504136,0.49466091,-0.44140875,0.511425,0.50596886,-0.40003711,0.507201,0.50697698,-0.38789434,0.50526,0.50657983,-0.37619164,0.503547
0.44141531,-0.52312782,0.50895,0.44540759,-0.48653904,0.51222,0.42557137,-0.5069982,0.513827,0.3959707,-0.48470275,0.514345,0.37377097,-0.46031843,0.514539,0.36360973,-0.44150924,0.514631,0.43440857,-0.42978924,0.521128,0.42868225,-0.39090273,0.518425,0.42683603,-0.3755164,0.517074,0.42068261,-0.35663103,0.515845,0.4547399,-0.43113768,0.516592,0.45336727,-0.38460823,0.512855,0.45098871,-0.36023648,0.510675,0.45031092,-0.34032862,0.509118,0.47129564,-0.43507638,0.512639,0.47318599,-0.38787615,0.508435,0.47299244,-0.36563365,0.506284,0.47284611,-0.34502045,0.504329,0.49209025,-0.45033386,0.507436,0.50572298,-0.41010355,0.505798,0.51183847,-0.39199545,0.505045,0.51146609,-0.37934209,0.504381
0.44068048,-0.52416612,0.508877,0.44580019,-0.48348413,0.511949,0.42416601,-0.50695497,0.512816,0.39612686,-0.48272955,0.514475,0.37301445,-0.45997378,0.513957,0.36354702,-0.43910869,0.513408,0.43299207,-0.4257183,0.519536,0.42668772,-0.38899756,0.516441,0.42240022,-0.3729237,0.514893,0.41806093,-0.35432394,0.513485,0.45442206,-0.43082531,0.516044,0.45233569,-0.38332043,0.511957,0.44936963,-0.3594777,0.509573,0.44841234,-0.34024604,0.507869,0.47180428,-0.43565332,0.512962,0.47330133,-0.38785455,0.508446,0.47329254,-0.36469167,0.506136,0.47532379,-0.34089193,0.504036,0.49234533,-0.44736964,0.508834,0.50404659,-0.4080901,0.505088,0.50718465,-0.38839786,0.503366,0.50257083,-0.39112287,0.501848
0.43810501,-0.52226838,0.506303,0.44359103,-0.48197964,0.509802,0.42231331,-0.50597753,0.511036,0.39510571,-0.4822541,0.513432,0.37276495,-0.46022868,0.513968,0.3630769,-0.4415903,0.514461,0.43072337,-0.42798621,0.518725,0.42575608,-0.38741551,0.51584,0.42104688,-0.37458721,0.514398,0.41930984,-0.36644466,0.513087,0.45167189,-0.42964786,0.514443,0.4505123,-0.38208024,0.510545,0.44782875,-0.35849043,0.508272,0.44656367,-0.33889496,0.506648,0.46850128,-0.43237769,0.510682,0.4699256,-0.38470619,0.506292,0.47014646,-0.36137451,0.504046,0.47115648,-0.34012398,0.502004,0.48827748,-0.44294505,0.50568,0.49621846,-0.40230834,0.50211,0.49955587,-0.38199246,0.50047,0.50152905,-0.37180585,0.499023
0.43240941,-0.5225187,0.503311,0.43554766,-0.48283152,0.507076,0.41786312,-0.50677595,0.508905,0.3866315,-0.48089667,0.512321,0.37043547,-0.45951774,0.513805,0.36312965,-0.43965729,0.513771,0.42650179,-0.42748122,0.517268,0.41938377,-0.3912658,0.514807,0.41839803,-0.37297414,0.513577,0.41598933,-0.35548876,0.512459,0.44618247,-0.42864612,0.512045,0.44658435,-0.38043446,0.508534,0.4442855,-0.35700556,0.506487,0.44226303,-0.3387799,0.505024,0.46206469,-0.43242898,0.50749,0.46131003,-0.38581642,0.50392,0.46081565,-0.36237526,0.502093,0.46275106,-0.33994608,0.500433,0.47760693,-0.44538706,0.501498,0.49207023,-0.40672914,0.501789,0.4988869,-0.38782824,0.501923,0.49559336,-0.3842607,0.502041
0.42608389,-0.52248266,0.502509,0.42876325,-0.48009513,0.50621,0.41219612,-0.50595257,0.507909,0.3761785,-0.47079618,0.507352,0.35713313,-0.44893398,0.510614,0.34821471,-0.42985162,0.509972,0.42563231,-0.42347421,0.516108,0.41606941,-0.38447031,0.514568,0.41152896,-0.36602683,0.513798,0.40731947,-0.34888679,0.513098,0.44473301,-0.42674457,0.511094,0.44223365,-0.3796701,0.508042,0.43897357,-0.35538151,0.506261,0.43635547,-0.33808129,0.504989,0.46041996,-0.43131661,0.506715,0.46228378,-0.38305568,0.503363,0.46036198,-0.36076363,0.501647,0.46138383,-0.33958914,0.500088,0.47626399,-0.44410387,0.500944,0.48533405,-0.40065273,0.497443,0.48750944,-0.38303123,0.495835,0.48582274,-0.37927021,0.494416
0.4285397,-0.51849913,0.501624,0.42561843,-0.47340184,0.504367,0.41354328,-0.50369528,0.508008,0.37778084,-0.47139265,0.50855,0.35812123,-0.45037436,0.51211,0.3488478,-0.43180202,0.512266,0.41910908,-0.41565611,0.514572,0.40948275,-0.37683392,0.512134,0.40353657,-0.35895351,0.510915,0.39760794,-0.34322231,0.509807,0.43699963,-0.41682199,0.507986,0.43475763,-0.36783516,0.505008,0.42933396,-0.34451276,0.503271,0.42536955,-0.32734761,0.50203,0.451427,-0.42067807,0.502381,0.4539662,-0.37233683,0.499997,0.4526775,-0.35024726,0.498777,0.45150263,-0.32976053,0.497668,0.46804312,-0.4311931,0.495268,0.47222338,-0.38767738,0.490633,0.47551907,-0.36897957,0.489964,0.47870517,-0.35270116,0.489661
0.4266337,-0.49306524,0.498294,0.42709072,-0.45136228,0.503481,0.40932019,-0.48220325,0.50447,0.37843126,-0.45748876,0.504584,0.35444787,-0.43912249,0.50693,0.34556252,-0.42588516,0.50887,0.40782107,-0.40332579,0.515665,0.40108361,-0.36085897,0.513669,0.394867,-0.35111277,0.512671,0.3889333,-0.34178289,0.511764,0.42791245,-0.39922609,0.51029,0.42192624,-0.3521121,0.507554,0.41602679,-0.33091694,0.505958,0.41144341,-0.31626877,0.504818,0.44451579,-0.3985605,0.505507,0.44581533,-0.35041552,0.501363,0.44354951,-0.33110116,0.499242,0.43948384,-0.3196148,0.497315,0.4646786,-0.40323851,0.499042,0.47221802,-0.3622927,0.496571,0.47565687,-0.34357657,0.495435,0.47454156,-0.33613395,0.494433
0.41324643,-0.48651578,0.491806,0.41095385,-0.44666837,0.498814,0.39836209,-0.47662555,0.499624,0.36570841,-0.45280799,0.503836,0.34481952,-0.43496917,0.508686,0.33462872,-0.41773233,0.510021,0.39972962,-0.40026075,0.51463,0.3925989,-0.36179124,0.515011,0.38766541,-0.34406766,0.515201,0.38305511,-0.32751427,0.515374,0.41824363,-0.39674068,0.507959,0.41506496,-0.35116622,0.507364,0.4130222,-0.32440504,0.507016,0.40955483,-0.30749837,0.506768,0.43327722,-0.39653954,0.501974,0.43406374,-0.34953724,0.500578,0.43445968,-0.32562267,0.499863,0.43106421,-0.30846004,0.499214,0.45089918,-0.40173576,0.493806,0.46230315,-0.36161219,0.492608,0.46330549,-0.34697988,0.492058,0.46423476,-0.33364205,0.491572
0.4013916,-0.48372347,0.49342,0.40119438,-0.43748437,0.497874,0.38643897,-0.47131947,0.499853,0.35396118,-0.44284471,0.502284,0.33172285,-0.42440101,0.505846,0.32004703,-0.4063195,0.505178,0.38877366,-0.38719327,0.509691,0.3800927,-0.34865505,0.507558,0.37328806,-0.33413014,0.506491,0.36685899,-0.32036753,0.505521,0.40779104,-0.3850945,0.503676,0.40324328,-0.33724607,0.500853,0.39687225,-0.31416718,0.499207,0.39179533,-0.29803679,0.49803,0.42331317,-0.38621007,0.498411,0.42318692,-0.3376172,0.494665,0.42045849,-0.3153189,0.492748,0.41743158,-0.29542699,0.491006,0.44166125,-0.39329303,0.491466,0.44752221,-0.35197327,0.48836,0.45021518,-0.33298358,0.486932,0.44755594,-0.32414969,0.485673
0.38373859,-0.46580553,0.482951,0.38710684,-0.4222611,0.489733,0.37177278,-0.45577313,0.491889,0.34224591,-0.4288019,0.495435,0.32037314,-0.41020232,0.499175,0.30949462,-0.39264643,0.499894,0.38052214,-0.37729055,0.506682,0.36732874,-0.34224259,0.508838,0.36051679,-0.3241848,0.509917,0.35419476,-0.30744964,0.510897,0.39661598,-0.37269032,0.498542,0.39188598,-0.32700133,0.499264,0.3851302,-0.30289434,0.499685,0.38017456,-0.28522894,0.499985,0.40960832,-0.37161433,0.491361,0.40987257,-0.32486188,0.49106,0.40464151,-0.30442894,0.490907,0.39974015,-0.28527496,0.490767,0.42464487,-0.37581494,0.481789,0.4380096,-0.33858108,0.483504,0.43787969,-0.32293822,0.484291,0.43774468,-0.30873371,0.484986
0.3828522,-0.46680806,0.487449,0.38493226,-0.42269724,0.492344,0.36540512,-0.4509515,0.494363,0.33760147,-0.42860959,0.501787,0.31590425,-0.41053168,0.505906,0.30473124,-0.39308839,0.506571,0.3707681,-0.37060269,0.505142,0.36194479,-0.33110252,0.504581,0.35540633,-0.31878046,0.5043,0.34692418,-0.30341149,0.504045,0.38935682,-0.36994235,0.498711,0.38530106,-0.32242321,0.497118,0.38172987,-0.29832473,0.496189,0.37737074,-0.27970768,0.495526,0.40438783,-0.37224958,0.49307,0.40784408,-0.32494444,0.491425,0.40416167,-0.30302452,0.490584,0.39991898,-0.2836913,0.489819,0.42176464,-0.38070698,0.485612,0.42722573,-0.3393497,0.482976,0.42973101,-0.32036285,0.481764,0.43143371,-0.30658696,0.480695
0.37270632,-0.45579512,0.480801,0.37571275,-0.41505613,0.487315,0.36030975,-0.4457952,0.489543,0.33312049,-0.42066235,0.494242,0.31274441,-0.40133499,0.498659,0.30393244,-0.38819323,0.50322,0.36112418,-0.36824346,0.503779,0.35459494,-0.32768399,0.504598,0.34673842,-0.31270345,0.505008,0.33929657,-0.29852446,0.50538,0.37886251,-0.3630363,0.49579,0.37577556,-0.31569871,0.494918,0.36937499,-0.29182545,0.494409,0.36398506,-0.27540504,0.494046,0.39329579,-0.36147215,0.488756,0.39198491,-0.31394167,0.487209,0.38862241,-0.2914394,0.486417,0.38483806,-0.27139341,0.485697,0.41032971,-0.36503306,0.479402,0.42253243,-0.32870455,0.484397,0.42625376,-0.31199081,0.486692,0.42923069,-0.29718654,0.488716
0.34922744,-0.42696762,0.470486,0.35505129,-0.38905357,0.478664,0.33627397,-0.41766275,0.479097,0.31488989,-0.40188691,0.489514,0.2942101,-0.38692303,0.496341,0.28445191,-0.37196223,0.500147,0.34507465,-0.34527792,0.496476,0.3389109,-0.30607796,0.498677,0.33094044,-0.29144165,0.499777,0.32214649,-0.28165991,0.500777,0.36263454,-0.3408446,0.489304,0.3587364,-0.29581315,0.491184,0.3531882,-0.27074764,0.492281,0.34902571,-0.25257602,0.493065,0.37688781,-0.33981766,0.482824,0.38154682,-0.29765302,0.489276,0.38279193,-0.27602853,0.492576,0.38293216,-0.25626416,0.495577,0.39352299,-0.34387377,0.4739,0.4052398,-0.30682688,0.476793,0.40642987,-0.29023986,0.478122,0.40748066,-0.27524746,0.479294
0.34666099,-0.42734584,0.476676,0.3442865,-0.3822391,0.48205,0.32579004,-0.4114644,0.484421,0.30213493,-0.39230191,0.491537,0.28067374,-0.37562931,0.496801,0.26840564,-0.35801825,0.496612,0.33216061,-0.33458135,0.496274,0.32282848,-0.29438929,0.496332,0.31405671,-0.27957979,0.496361,0.30571266,-0.26549269,0.496388,0.35035353,-0.33133431,0.489036,0.34355398,-0.28500001,0.488353,0.33735686,-0.2589728,0.487955,0.33287424,-0.24013909,0.48767,0.36510739,-0.33143386,0.4827,0.36286179,-0.28415777,0.480694,0.35854226,-0.26201591,0.479668,0.35367327,-0.24245556,0.478735,0.38236656,-0.33709549,0.474342,0.38698111,-0.29582494,0.471879,0.38909685,-0.27688766,0.470747,0.38761744,-0.26315045,0.469749
0.33201656,-0.4165563,0.473165,0.33207153,-0.37418059,0.479072,0.31860713,-0.40638348,0.481385,0.28912654,-0.38161362,0.48604,0.26866056,-0.36396707,0.491358,0.25830978,-0.34664514,0.492707,0.32096151,-0.32768296,0.494354,0.30864071,-0.28911675,0.495532,0.30128174,-0.27034587,0.496121,0.29342233,-0.25405769,0.496656,0.33881762,-0.32378745,0.486752,0.33272756,-0.27768041,0.486508,0.32657941,-0.25175408,0.486365,0.31915527,-0.23701143,0.486263,0.35324929,-0.32331312,0.48008,0.34959785,-0.27827862,0.48156,0.34650808,-0.25553732,0.482318,0.34366805,-0.23466526,0.483007,0.37005701,-0.32820873,0.471243,0.37393019,-0.28678901,0.4693,0.37482902,-0.26802806,0.468407,0.37374723,-0.25263811,0.46762
0.32520148,-0.40325453,0.47181,0.3264242,-0.35503949,0.478471,0.30873713,-0.38495084,0.479511,0.28381283,-0.36913798,0.487191,0.26160953,-0.3556212,0.493708,0.24871908,-0.33967842,0.494849,0.30949464,-0.31028012,0.493808,0.2982314,-0.27302571,0.495769,0.28897135,-0.25640439,0.496749,0.28026314,-0.24078886,0.49764,0.32899539,-0.30549738,0.48714,0.32104794,-0.26052777,0.487685,0.31198559,-0.23753646,0.488003,0.30522722,-0.22040172,0.48823,0.34489969,-0.30423653,0.481184,0.33979757,-0.25848569,0.480876,0.33443482,-0.23662471,0.480718,0.32942236,-0.21618063,0.480575,0.36376192,-0.30803109,0.473102,0.36438946,-0.26718887,0.472265,0.36270552,-0.24969465,0.47188,0.36119211,-0.23391741,0.47154
0.28816942,-0.36425996,0.462651,0.29122374,-0.32710443,0.470972,0.27581318,-0.35749139,0.472558,0.25462442,-0.34443057,0.484415,0.23404534,-0.33173265,0.492523,0.22293205,-0.31720373,0.495905,0.27930374,-0.28631087,0.490479,0.26934289,-0.2489075,0.494136,0.26008014,-0.23155694,0.495964,0.2514001,-0.21532121,0.497627,0.29522402,-0.27939071,0.481791,0.28875902,-0.2371799,0.486419,0.28156057,-0.21266076,0.489119,0.27633274,-0.19489393,0.491048,0.30824328,-0.27629038,0.474052,0.30891824,-0.23358538,0.478539,0.30566219,-0.21154839,0.480834,0.30263964,-0.19120752,0.482921,0.32365095,-0.2777724,0.463597,0.33130143,-0.23963106,0.465159,0.33114317,-0.2216082,0.465877,0.326084,-0.20922703,0.46651
0.2844837,-0.36665974,0.465953,0.28277265,-0.32789743,0.472314,0.27243368,-0.3589097,0.475577,0.23946801,-0.33872981,0.480419,0.22498319,-0.32650009,0.490476,0.22064906,-0.31578887,0.497317,0.27269105,-0.2838435,0.489705,0.26034513,-0.24514386,0.49103,0.25081057,-0.22711734,0.491693,0.24455783,-0.2123835,0.492296,0.28792852,-0.27830241,0.480584,0.2860147,-0.23608461,0.485351,0.27961357,-0.21138817,0.488132,0.27319532,-0.19420323,0.490118,0.30033343,-0.27645297,0.472629,0.29972047,-0.23474761,0.479257,0.29872734,-0.21329817,0.482648,0.30108858,-0.19303288,0.485731,0.31488523,-0.27966561,0.46219,0.31624773,-0.23811579,0.460183,0.31678902,-0.21901676,0.459261,0.31866198,-0.20396758,0.458636
0.28066579,-0.34939703,0.475435,0.28147321,-0.30939532,0.479926,0.2675406,-0.34101616,0.483337,0.2490647,-0.33263419,0.497706,0.21926257,-0.31726606,0.496838,0.20201956,-0.30098554,0.494336,0.26688634,-0.26520142,0.493544,0.24729489,-0.22844398,0.493596,0.23723987,-0.20957911,0.493622,0.22794347,-0.19213806,0.493645,0.28258284,-0.25877895,0.485766,0.27093733,-0.21313501,0.48429,0.25853389,-0.18829003,0.483429,0.24942882,-0.17003985,0.482814,0.29567725,-0.25621927,0.479049,0.2895379,-0.21098222,0.479393,0.28570255,-0.1878756,0.479569,0.27846529,-0.16737372,0.479729,0.31166191,-0.25867118,0.470358,0.3179821,-0.21880888,0.467306,0.31361979,-0.20085076,0.465904,0.30467507,-0.19144019,0.464666
0.27929533,-0.34926906,0.474229,0.27988062,-0.30959015,0.479078,0.26637995,-0.34145751,0.482438,0.23759882,-0.32655344,0.48765,0.21757348,-0.31626093,0.496112,0.20229221,-0.30078418,0.495756,0.26537619,-0.26639901,0.493392,0.24624943,-0.22966898,0.493793,0.23643936,-0.21083254,0.493994,0.22737339,-0.19342661,0.494176,0.28071745,-0.25943015,0.485384,0.26990938,-0.21384478,0.484196,0.25716395,-0.18941816,0.483503,0.2477781,-0.17142025,0.483008,0.29352801,-0.25638953,0.478451,0.28787552,-0.21151036,0.479313,0.28464615,-0.18864242,0.479755,0.27637809,-0.16894182,0.480156,0.3091971,-0.25820436,0.469451,0.31578022,-0.21874176,0.467172,0.31168768,-0.20076011,0.466125,0.30296798,-0.19071759,0.465201
0.27335958,-0.34374498,0.469584,0.26739255,-0.30050557,0.47553,0.26064856,-0.33685126,0.47888,0.23062403,-0.31852542,0.487241,0.20705813,-0.30511313,0.492932,0.19440612,-0.29039457,0.495243,0.25149567,-0.25811272,0.492152,0.24353977,-0.2221732,0.494098,0.23057714,-0.20773334,0.495071,0.22280437,-0.19458091,0.495956,0.26812088,-0.25081472,0.483267,0.25538581,-0.20593332,0.483468,0.24694026,-0.17969475,0.483584,0.24086347,-0.16081474,0.483668,0.28180868,-0.2474936,0.475536,0.28024864,-0.20576058,0.479581,0.27415221,-0.18399574,0.48165,0.26845711,-0.16373528,0.483531,0.29828141,-0.24885231,0.465425,0.30312346,-0.21000296,0.463394,0.29642225,-0.19484523,0.462461,0.28899799,-0.18332971,0.461638
0.26850321,-0.33896156,0.466029,0.26418688,-0.29765493,0.474254,0.24939643,-0.32912023,0.476221,0.22740383,-0.31647075,0.486217,0.20502865,-0.30418935,0.493337,0.1941797,-0.2910032,0.497716,0.25035114,-0.2586014,0.494025,0.23885232,-0.22148719,0.497286,0.22768904,-0.20478833,0.498917,0.21716959,-0.18906664,0.500399,0.26397916,-0.24922701,0.484952,0.25614285,-0.20562844,0.485755,0.24679536,-0.17988247,0.486223,0.23894647,-0.16183429,0.486558,0.27684782,-0.2444093,0.476904,0.27326298,-0.20161384,0.481195,0.27143189,-0.17974252,0.48339,0.26775282,-0.16193689,0.485386,0.29221521,-0.24360623,0.466091,0.2929353,-0.20289858,0.465489,0.29340423,-0.18427157,0.465431,0.29381862,-0.16781623,0.46538
0.25806125,-0.33365847,0.464891,0.25820988,-0.29553356,0.473143,0.24589449,-0.32803196,0.475469,0.21855824,-0.31210817,0.485331,0.19907622,-0.29950732,0.494266,0.19163203,-0.28863947,0.499656,0.24737225,-0.25690775,0.493395,0.23581272,-0.22079216,0.497725,0.22671421,-0.20341538,0.49989,0.2179798,-0.18727597,0.501859,0.26245788,-0.24868766,0.483864,0.25616245,-0.20534349,0.485725,0.24662098,-0.18005607,0.48681,0.23809491,-0.16256334,0.487585,0.27472465,-0.24445284,0.475436,0.27225178,-0.20258911,0.480777,0.26957326,-0.18094867,0.48351,0.26641261,-0.16216096,0.485994,0.28916113,-0.24442664,0.464164,0.29386301,-0.20628432,0.466547,0.29174227,-0.19136942,0.467641,0.28959946,-0.17540039,0.468607
0.25620215,-0.33348513,0.464781,0.25719652,-0.29565659,0.472989,0.24428829,-0.32765473,0.475278,0.21861797,-0.3123624,0.485546,0.1990743,-0.29979838,0.494517,0.19121669,-0.28813038,0.500037,0.24695402,-0.25661977,0.493104,0.23450803,-0.22068419,0.497644,0.22576266,-0.20312269,0.499915,0.21647145,-0.18717647,0.501978,0.26197156,-0.24867717,0.483654,0.25613706,-0.20530127,0.485773,0.24646135,-0.18017711,0.487008,0.23757182,-0.16292456,0.487891,0.27417038,-0.24467955,0.475296,0.27222685,-0.20324544,0.481296,0.26935889,-0.18172303,0.484365,0.26477843,-0.16184136,0.487156,0.28848708,-0.24496379,0.464114,0.29349953,-0.20704514,0.466623,0.29116536,-0.19103999,0.467776,0.28839817,-0.17525395,0.468794
0.25504452,-0.33325123,0.465023,0.25626308,-0.29536975,0.473021,0.24319141,-0.32739003,0.475511,0.21907495,-0.31187712,0.486148,0.19950326,-0.29855213,0.494754,0.19001791,-0.28432973,0.49932,0.24590011,-0.25615426,0.492935,0.23185845,-0.21949093,0.497313,0.22481238,-0.20126615,0.499503,0.21608984,-0.18631245,0.501493,0.26088508,-0.24821023,0.483412,0.24990979,-0.20381143,0.486226,0.2398174,-0.17893096,0.487867,0.2348892,-0.16302434,0.48904,0.27306066,-0.24422139,0.475009,0.27074612,-0.20245313,0.480347,0.2662591,-0.18116967,0.483077,0.26037519,-0.16167767,0.48556,0.2862103,-0.24524815,0.463803,0.29279924,-0.20682515,0.466283,0.28985186,-0.19039725,0.467423,0.28649315,-0.17489681,0.468428
0.25416648,-0.33295666,0.464991,0.25570789,-0.29520315,0.473049,0.24234953,-0.32706463,0.47545,0.21928407,-0.31160679,0.486406,0.19969988,-0.29790174,0.494828,0.19015346,-0.28337568,0.499132,0.24534185,-0.25595209,0.492982,0.23177536,-0.21922883,0.49735,0.22503929,-0.20095427,0.499534,0.21599766,-0.18591254,0.501519,0.26036885,-0.2480591,0.483518,0.25002492,-0.20390532,0.48645,0.23996143,-0.17903842,0.48816,0.2342002,-0.16282583,0.489382,0.27258071,-0.24411268,0.47516,0.26989289,-0.20200369,0.479838,0.26525586,-0.18041251,0.482231,0.25853166,-0.1610452,0.484406,0.28591868,-0.24497267,0.463999,0.29245808,-0.20674831,0.466203,0.28917617,-0.19006343,0.467216,0.28545476,-0.1746671,0.468109
0.25353443,-0.33273976,0.464959,0.25534283,-0.29509793,0.473077,0.24175131,-0.32683611,0.475412,0.2194173,-0.3114556,0.486578,0.19982256,-0.29751841,0.494884,0.19024201,-0.2828138,0.499038,0.24499079,-0.2558394,0.493056,0.23174687,-0.2190919,0.497418,0.22519613,-0.20078609,0.499599,0.21595591,-0.18566297,0.501582,0.26004352,-0.24797639,0.483624,0.25010818,-0.20397322,0.486612,0.24005778,-0.17911031,0.488356,0.23373671,-0.16269054,0.489601,0.2722756,-0.24405366,0.475287,0.26935109,-0.20172415,0.479546,0.26465581,-0.17995958,0.481726,0.25742083,-0.16066328,0.483707,0.28576004,-0.24482137,0.464143,0.2922482,-0.20670925,0.466177,0.28878323,-0.18987136,0.467112,0.28484278,-0.1745364,0.467937
0.25262801,-0.33190977,0.464227,0.2534995,-0.29432505,0.472379,0.24083073,-0.3260347,0.474698,0.21931699,-0.31121731,0.486517,0.19965675,-0.29730039,0.494772,0.1895543,-0.28228965,0.498393,0.24206049,-0.25422056,0.492412,0.23094242,-0.21821134,0.496574,0.22452637,-0.19986923,0.498655,0.21469458,-0.18409195,0.500547,0.25722539,-0.24640304,0.48297,0.24930927,-0.20271581,0.48558,0.23985276,-0.17752618,0.487102,0.23313623,-0.16128557,0.48819,0.26955662,-0.24252863,0.474623,0.26977445,-0.2017037,0.479919,0.26658836,-0.18002796,0.482629,0.2598105,-0.16073945,0.485092,0.28459848,-0.24354544,0.463461,0.29164785,-0.20610637,0.465529,0.28796292,-0.18925186,0.466479,0.28390565,-0.17399244,0.467317
0.25278887,-0.33133556,0.463867,0.25470517,-0.29371255,0.471922,0.24100078,-0.32550869,0.474412,0.22580221,-0.31299401,0.487191,0.20164905,-0.29606692,0.494867,0.1897859,-0.2817719,0.49753,0.24409319,-0.25428173,0.491956,0.2307664,-0.21765727,0.496325,0.22425116,-0.19938346,0.49851,0.2148906,-0.18352031,0.500496,0.25899122,-0.24645889,0.482387,0.25319248,-0.20226331,0.484539,0.24260536,-0.17315295,0.485795,0.23365269,-0.16047995,0.486692,0.27122062,-0.24248922,0.473942,0.27184272,-0.2007682,0.479547,0.26675534,-0.17955001,0.482415,0.2599648,-0.16028354,0.485022,0.28536271,-0.24198334,0.462678,0.29309087,-0.201503,0.462416,0.28994861,-0.18444791,0.462295,0.27963426,-0.17170075,0.462189
0.25235251,-0.32938709,0.46233,0.25798259,-0.28747995,0.470423,0.24077639,-0.32378874,0.473191,0.21981313,-0.30247033,0.48291,0.20103057,-0.29552724,0.494525,0.19031266,-0.28196319,0.498308,0.2480571,-0.24481169,0.490874,0.23341147,-0.20998084,0.496564,0.22434602,-0.19567009,0.499409,0.21805235,-0.1785334,0.501995,0.26311572,-0.23706423,0.480938,0.25214215,-0.19624253,0.484055,0.24566059,-0.17076898,0.485873,0.24243339,-0.15109135,0.487762,0.27534514,-0.23327608,0.472188,0.26863509,-0.1921828,0.477856,0.2647318,-0.17109495,0.480756,0.26081277,-0.15428093,0.483392,0.28809702,-0.23623835,0.460552,0.30071436,-0.19621856,0.460066,0.29188221,-0.18232842,0.459843,0.28414753,-0.17030009,0.459645
0.26024481,-0.3151501,0.460807,0.26593291,-0.27537731,0.470547,0.24651912,-0.30978477,0.469363,0.22883199,-0.29598149,0.479177,0.2098734,-0.28783903,0.490051,0.19543401,-0.27733101,0.494313,0.24852447,-0.2435845,0.4897,0.2424752,-0.20574014,0.492566,0.22932921,-0.19618354,0.493999,0.21647127,-0.1868307,0.495301,0.26556605,-0.23561336,0.483202,0.26106591,-0.1913387,0.486206,0.24665765,-0.1713337,0.487959,0.23394888,-0.16052256,0.489211,0.28101864,-0.22717877,0.477163,0.27901007,-0.18318018,0.478238,0.27136263,-0.16112899,0.478788,0.26416622,-0.14040014,0.479288,0.29836927,-0.22458669,0.468547,0.30960752,-0.19515903,0.480774,0.31174107,-0.17965898,0.486391,0.31361192,-0.16583589,0.491348
0.26354467,-0.32070263,0.462803,0.27619185,-0.2847655,0.470615,0.25614875,-0.3113736,0.471394,0.23721708,-0.30331441,0.482696,0.20980051,-0.28717831,0.48661,0.19441845,-0.26940007,0.481573,0.2572666,-0.24375937,0.488066,0.25140659,-0.20809392,0.49045,0.24058247,-0.19544796,0.491641,0.23066641,-0.18993025,0.492725,0.27626793,-0.23718223,0.480764,0.26796415,-0.19500205,0.482807,0.25764048,-0.17044489,0.483999,0.25000022,-0.15229686,0.484851,0.29184447,-0.23437283,0.474201,0.28470033,-0.19031745,0.475302,0.28080152,-0.16780667,0.475866,0.27143893,-0.1544411,0.476378,0.31048229,-0.23612548,0.465227,0.3069471,-0.19741443,0.465515,0.30503632,-0.18050518,0.465647,0.30081421,-0.16593871,0.465764
0.26942844,-0.32547451,0.468402,0.27955434,-0.28789967,0.472861,0.2632662,-0.3191433,0.479672,0.24068893,-0.30526951,0.486092,0.22150312,-0.28997861,0.491983,0.20300571,-0.27190163,0.48766,0.26955623,-0.24967029,0.490521,0.25809421,-0.21236767,0.494267,0.24903199,-0.19445898,0.49614,0.24000131,-0.17798104,0.497843,0.28356786,-0.24071004,0.478655,0.27131272,-0.19634071,0.478418,0.26410631,-0.17024784,0.47828,0.25802381,-0.15153235,0.478181,0.29488944,-0.23596947,0.468577,0.28765535,-0.19218912,0.469795,0.28611781,-0.17105159,0.474346,0.28399307,-0.15133071,0.478484,0.30825899,-0.23545509,0.455859,0.28062566,-0.23216322,0.456428,0.28755497,-0.24988047,0.45669,0.30574282,-0.27179942,0.469401
0.27297182,-0.32331585,0.466923,0.28125069,-0.28804048,0.473737,0.26156492,-0.31592135,0.474658,0.24487268,-0.30363743,0.485743,0.22232952,-0.28698363,0.490075,0.21457788,-0.27362025,0.495922,0.27030661,-0.24345639,0.489251,0.25748216,-0.20915252,0.491575,0.24748237,-0.19181799,0.492736,0.23779795,-0.17565092,0.493793,0.28755394,-0.24087982,0.482589,0.28163293,-0.19465643,0.483363,0.26895425,-0.17185605,0.483814,0.26259435,-0.1540373,0.484136,0.302248,-0.23904049,0.476624,0.30218926,-0.19409645,0.476483,0.29481832,-0.1733094,0.476411,0.28615216,-0.15714842,0.476345,0.31966091,-0.24202586,0.468509,0.32859578,-0.204081,0.472211,0.33139987,-0.18664581,0.473912,0.331555,-0.17077519,0.475413
0.26597393,-0.31091754,0.448899,0.28167942,-0.28254423,0.463107,0.2560363,-0.3086498,0.463109,0.24812301,-0.30010034,0.475128,0.23397349,-0.28762494,0.487658,0.22557909,-0.27077583,0.490761,0.28789956,-0.25431592,0.493138,0.29234307,-0.22597159,0.503993,0.28280345,-0.21943692,0.509421,0.27313051,-0.21278907,0.514355,0.30140252,-0.24519515,0.481567,0.30105441,-0.20675191,0.492103,0.30086864,-0.18443931,0.498248,0.30074409,-0.16855055,0.502638,0.31146939,-0.23968153,0.471038,0.31166795,-0.19930713,0.480196,0.31175033,-0.17850052,0.484882,0.31181411,-0.15949969,0.489142,0.32158593,-0.23702724,0.456406,0.34393881,-0.2236606,0.483693,0.3542008,-0.21758975,0.49623,0.36325244,-0.21226659,0.507293
0.32275026,-0.34698319,0.477548,0.32384172,-0.30663655,0.48138,0.30788501,-0.33700161,0.483031,0.27728574,-0.31375083,0.482724,0.25343153,-0.29585587,0.485619,0.24513088,-0.28193038,0.490209,0.30769855,-0.26136244,0.491474,0.2805977,-0.24150105,0.490827,0.29221803,-0.26936012,0.511234,0.30236503,-0.29345737,0.519641,0.32533197,-0.25630773,0.486358,0.31380192,-0.20996169,0.483185,0.30455132,-0.18348561,0.481334,0.29598218,-0.16543658,0.480012,0.34017177,-0.25483379,0.481876,0.3146549,-0.24718045,0.4805,0.30234081,-0.24892006,0.479796,0.29010162,-0.25071954,0.479208,0.35847864,-0.25859379,0.47596,0.353762,-0.21630062,0.472637,0.35216906,-0.19706513,0.471889,0.35091246,-0.18005136,0.471438
0.32640339,-0.34524231,0.478663,0.33272325,-0.30151517,0.481643,0.31066738,-0.33405035,0.483574,0.28267031,-0.30506508,0.481203,0.26106714,-0.28784191,0.485984,0.24795155,-0.26773209,0.48178,0.31703924,-0.2530357,0.490276,0.30013681,-0.21430878,0.488636,0.29152741,-0.19456715,0.487816,0.29319237,-0.18235657,0.503534,0.33706371,-0.25048604,0.485515,0.32412137,-0.20386822,0.481636,0.31650585,-0.17638614,0.479374,0.31103518,-0.15662175,0.477758,0.35354892,-0.25113281,0.481386,0.34713607,-0.20389917,0.477619,0.34068308,-0.18150877,0.475692,0.33465523,-0.16046502,0.47394,0.3733254,-0.2574648,0.476013,0.386514,-0.2203813,0.471851,0.38078707,-0.21288569,0.469938,0.37172985,-0.22198864,0.468251
0.33513612,-0.33841208,0.472716,0.35031707,-0.30086966,0.479094,0.32878898,-0.32797148,0.477455,0.29724772,-0.30344864,0.475187,0.27274666,-0.28355701,0.476199,0.26439061,-0.2703491,0.481832,0.33621277,-0.25830913,0.490592,0.32175483,-0.22148538,0.490732,0.3142366,-0.20234017,0.490802,0.31737543,-0.19058404,0.507082,0.35694433,-0.25501625,0.48738,0.34528323,-0.21056363,0.486876,0.33833098,-0.18404609,0.486582,0.33329534,-0.16483203,0.486372,0.3740311,-0.25473832,0.484283,0.36627269,-0.20960263,0.483838,0.36223282,-0.18608461,0.48361,0.35851808,-0.16444837,0.483403,0.39450455,-0.25940046,0.479671,0.40957862,-0.22565191,0.479211,0.40505799,-0.21682647,0.479,0.39749671,-0.22516893,0.478814
0.37133947,-0.33520636,0.471925,0.37278162,-0.29830669,0.47997,0.35399884,-0.32688056,0.478614,0.3239489,-0.3036207,0.479027,0.29772029,-0.28274931,0.477932,0.29117871,-0.27203796,0.486377,0.35382639,-0.2563614,0.495332,0.34263351,-0.21815813,0.497564,0.33703102,-0.19903792,0.49868,0.33539758,-0.18354045,0.504908,0.37480976,-0.25172029,0.490421,0.37525358,-0.21482185,0.503967,0.37547294,-0.19312529,0.511868,0.37561393,-0.17755404,0.517513,0.39198423,-0.25041763,0.485808,0.38744417,-0.20556785,0.486765,0.38504095,-0.18193914,0.487254,0.38280798,-0.1600441,0.487699,0.41249135,-0.25385451,0.479142,0.42451802,-0.21879271,0.479694,0.4234168,-0.21204657,0.479947,0.41889356,-0.2216882,0.480171
0.37868686,-0.33705744,0.475211,0.38299307,-0.2975083,0.480669,0.3578949,-0.32542347,0.477724,0.32648138,-0.30267023,0.474027,0.30052988,-0.28899794,0.477481,0.29469115,-0.28311021,0.489425,0.35801431,-0.24921027,0.488644,0.34685552,-0.20814925,0.486928,0.34127035,-0.1875977,0.486069,0.33918331,-0.17040633,0.489609,0.38259436,-0.24818968,0.487761,0.37264846,-0.20341726,0.485805,0.36912727,-0.18126781,0.484664,0.36649407,-0.16447959,0.483849,0.40283857,-0.25001339,0.486646,0.40151989,-0.2038426,0.484592,0.40085072,-0.1795567,0.483541,0.40024622,-0.15707077,0.482586,0.42726786,-0.2574912,0.48454,0.43864936,-0.22254985,0.48438,0.4415126,-0.2162994,0.484306,0.43863193,-0.2259869,0.484242
0.39820806,-0.34127726,0.483578,0.40081397,-0.30167087,0.488295,0.37685378,-0.33069579,0.486703,0.35680235,-0.31477,0.49275,0.32598053,-0.28629869,0.480221,0.3152162,-0.2703748,0.482871,0.37117161,-0.25810306,0.496338,0.36695245,-0.21935295,0.493537,0.36478917,-0.19902939,0.492137,0.36278865,-0.1799611,0.490864,0.39443391,-0.25426148,0.494423,0.37938604,-0.21110384,0.49184,0.37433772,-0.19111505,0.490334,0.37057056,-0.17119087,0.489258,0.41386069,-0.25363317,0.492511,0.40473758,-0.20838279,0.489819,0.40004137,-0.18478674,0.488442,0.39572,-0.16300462,0.487189,0.43795045,-0.25789167,0.489554,0.46264034,-0.22554666,0.4889,0.46460611,-0.21993387,0.4886,0.46074112,-0.22186867,0.488335
0.42896313,-0.34273342,0.484999,0.42298686,-0.30406523,0.489527,0.40733332,-0.33366575,0.488593,0.37819038,-0.31657925,0.493022,0.3481646,-0.28885426,0.481772,0.33626109,-0.27195825,0.482791,0.39305966,-0.26054545,0.497967,0.38914217,-0.22151142,0.494689,0.38715059,-0.20107224,0.49305,0.38531953,-0.18191547,0.49156,0.41582627,-0.25635933,0.49541,0.40021238,-0.21304576,0.492745,0.39585989,-0.19305964,0.491191,0.39260658,-0.17788603,0.49008,0.43483894,-0.25546516,0.492984,0.42578769,-0.21009097,0.49005,0.42115261,-0.18644948,0.488548,0.41689382,-0.16463743,0.487184,0.45845491,-0.25942017,0.489436,0.48281028,-0.22683117,0.488199,0.48527478,-0.22116361,0.48763,0.48185948,-0.22303844,0.487129
0.45392604,-0.3445237,0.488731,0.45058386,-0.30513908,0.492954,0.43332281,-0.33380179,0.492513,0.40546724,-0.31435936,0.496913,0.37719269,-0.28529723,0.485821,0.36655295,-0.26741581,0.486655,0.42411408,-0.25904927,0.501346,0.42359501,-0.21979358,0.497668,0.42339804,-0.19925149,0.495828,0.42325918,-0.1800063,0.494156,0.44667899,-0.2565182,0.498441,0.43371438,-0.21222487,0.495514,0.43159706,-0.19195819,0.493806,0.43005596,-0.1765805,0.492586,0.46534533,-0.2570286,0.495751,0.45984995,-0.21110761,0.492472,0.45709472,-0.18718898,0.490794,0.45457391,-0.16512327,0.489269,0.48819323,-0.26276867,0.491929,0.51484717,-0.23183669,0.490137,0.5182987,-0.22624266,0.489314,0.51518142,-0.22775542,0.488588
0.45716966,-0.34418687,0.481295,0.47100038,-0.30961505,0.485829,0.44836327,-0.33559158,0.484561,0.42021445,-0.31255517,0.486929,0.39772439,-0.29137391,0.488541,0.38884865,-0.27447043,0.491176,0.45215794,-0.26114017,0.493895,0.44249444,-0.22146612,0.491716,0.43755667,-0.20109848,0.490626,0.43300382,-0.18226174,0.489635,0.47553952,-0.26087063,0.491733,0.46751801,-0.21582176,0.488996,0.46272025,-0.18858457,0.487399,0.4594125,-0.17030375,0.486259,0.49491501,-0.26329503,0.489629,0.50003144,-0.22383967,0.495894,0.50263079,-0.20260333,0.4991,0.50497043,-0.18247901,0.502014,0.51835109,-0.27159323,0.486463,0.52276235,-0.23627876,0.484394,0.52292964,-0.22734192,0.483444,0.52314028,-0.21900236,0.482605
0.46098323,-0.34792579,0.473269,0.47142345,-0.31553069,0.480837,0.44497157,-0.33568706,0.479081,0.42850597,-0.31075686,0.483448,0.41570412,-0.29003862,0.491216,0.41786817,-0.28104718,0.50301,0.46173302,-0.26936843,0.494734,0.46311029,-0.22915568,0.495717,0.46380304,-0.20864025,0.496208,0.46414933,-0.19000769,0.496655,0.48333276,-0.26951537,0.490691,0.48668027,-0.2240771,0.491646,0.48816552,-0.19799295,0.492204,0.48925012,-0.17867721,0.492602,0.50072771,-0.27215708,0.486821,0.50654425,-0.22784839,0.487373,0.50912856,-0.20529815,0.487655,0.5104938,-0.18997698,0.487911,0.52079912,-0.28042192,0.481109,0.54353617,-0.25330206,0.493621,0.55430839,-0.2390074,0.499369,0.56384365,-0.22627784,0.504441
0.51237458,-0.3661626,0.504254,0.5158406,-0.32413155,0.505411,0.49325877,-0.35001953,0.505884,0.46832423,-0.31854152,0.501317,0.44269271,-0.2900222,0.495201,0.43392609,-0.26918551,0.493378,0.49609552,-0.26746367,0.508433,0.49457289,-0.2285578,0.509933,0.49575238,-0.20928771,0.510683,0.49763066,-0.1932876,0.511365,0.5203164,-0.27010962,0.506918,0.51815563,-0.22433966,0.505605,0.5194144,-0.1977814,0.504839,0.52168266,-0.18114958,0.504291,0.54008567,-0.275262,0.505588,0.53500141,-0.22635952,0.499123,0.53473039,-0.20354028,0.495816,0.5345834,-0.18214355,0.492809,0.56346867,-0.2873544,0.503829,0.5823237,-0.25364979,0.511016,0.59133037,-0.23833315,0.514624,0.59930654,-0.22482649,0.517832
0.51247984,-0.36791154,0.50276,0.51605649,-0.32519015,0.50295,0.49080134,-0.34891445,0.501437,0.46646635,-0.31571296,0.496042,0.44589489,-0.28450959,0.487961,0.4393243,-0.26468861,0.488615,0.49768962,-0.26812576,0.501524,0.49048982,-0.22781302,0.493747,0.48689996,-0.2069941,0.489859,0.48463967,-0.18993751,0.486325,0.52468938,-0.27403661,0.503199,0.52026602,-0.22457963,0.495115,0.51839259,-0.19616291,0.490399,0.51791042,-0.17680494,0.48703,0.54697657,-0.28190927,0.504563,0.55388377,-0.24229357,0.50749,0.56185234,-0.22241213,0.508987,0.56939072,-0.20338201,0.510348,0.57368756,-0.29742709,0.506172,0.57870173,-0.25493633,0.500218,0.58094703,-0.23560583,0.497482,0.58467227,-0.22098798,0.495068
0.53652356,-0.34703644,0.493564,0.54311397,-0.31187968,0.50336,0.51832512,-0.33556988,0.498698,0.49306429,-0.31505498,0.504602,0.47073683,-0.29235014,0.50481,0.46047504,-0.27189537,0.502502,0.52802638,-0.26852944,0.518456,0.53081155,-0.22882546,0.521091,0.53220487,-0.20847368,0.522408,0.53381376,-0.19372614,0.523606,0.55184945,-0.26776531,0.516109,0.55570522,-0.22466326,0.518802,0.55882535,-0.19901496,0.520372,0.5613565,-0.18187137,0.521494,0.57126479,-0.26955009,0.513475,0.57754434,-0.22578603,0.515883,0.5813527,-0.20284207,0.517115,0.58485911,-0.18155568,0.518235,0.59410245,-0.27656785,0.508928,0.61425436,-0.24835762,0.519682,0.62442415,-0.23330718,0.524623,0.63342798,-0.21990632,0.528983
0.5457753,-0.35221033,0.50059,0.55011952,-0.31496404,0.507783,0.525631,-0.33884784,0.503787,0.49843394,-0.30902395,0.499893,0.47393209,-0.28522684,0.498352,0.4636964,-0.27205095,0.503626,0.53399225,-0.26779929,0.518173,0.53584937,-0.22720736,0.51813,0.53679733,-0.20648766,0.518108,0.53893145,-0.19202591,0.518088,0.55892343,-0.26895737,0.517145,0.5632555,-0.22336585,0.51705,0.56635915,-0.19645083,0.516995,0.56864135,-0.17666322,0.516955,0.57935337,-0.27244867,0.515781,0.58237746,-0.22782819,0.515629,0.58671021,-0.20754219,0.515552,0.59085508,-0.18815062,0.515481,0.60364101,-0.28176234,0.513126,0.62415266,-0.25320031,0.524191,0.63478914,-0.23842085,0.529275,0.64173845,-0.223529,0.533761
0.54700258,-0.35344702,0.502108,0.55521035,-0.31740094,0.510036,0.52495507,-0.33787039,0.502963,0.49572514,-0.3060406,0.496851,0.47467458,-0.2832126,0.49781,0.46809593,-0.2696819,0.504069,0.53993059,-0.26911282,0.51826,0.54375295,-0.23242544,0.517874,0.54589265,-0.21349894,0.517681,0.54809227,-0.19645241,0.517505,0.56793722,-0.27380373,0.520354,0.57244742,-0.22842904,0.520674,0.57513792,-0.20130066,0.52086,0.57708899,-0.18161709,0.520994,0.59088458,-0.28016353,0.521506,0.59829287,-0.24101916,0.524741,0.6054051,-0.22139159,0.526395,0.61212507,-0.20256307,0.5279,0.61795216,-0.29289817,0.521764,0.6385094,-0.26420783,0.530503,0.64884973,-0.24975945,0.534518,0.65822345,-0.23665831,0.538061
0.55041835,-0.3538806,0.501718,0.56650292,-0.32055205,0.510032,0.52869428,-0.33883101,0.503118,0.50510676,-0.30998569,0.496969,0.48693186,-0.28534944,0.49743,0.48158287,-0.27098897,0.503901,0.54496377,-0.27462746,0.519265,0.5468281,-0.23421395,0.519537,0.54912434,-0.21500858,0.519673,0.55137069,-0.19731581,0.519797,0.57056322,-0.27556877,0.520853,0.5752178,-0.23030347,0.521669,0.57866443,-0.20366922,0.522146,0.58133396,-0.18440473,0.522486,0.5932455,-0.28082928,0.521561,0.6076955,-0.24391009,0.531318,0.61859451,-0.22269937,0.536309,0.62683303,-0.20305036,0.540847,0.62312134,-0.29160421,0.521232,0.63389133,-0.25971931,0.52602,0.64144302,-0.24047995,0.52822,0.64445026,-0.22564882,0.530161
0.55463006,-0.35703794,0.502595,0.56666098,-0.32413822,0.511146,0.54037981,-0.34623935,0.50524,0.51637339,-0.32268185,0.507852,0.49679712,-0.29782955,0.507892,0.4856006,-0.27453464,0.506007,0.5476972,-0.27773426,0.522094,0.55319082,-0.2388646,0.52331,0.5562584,-0.21905185,0.523918,0.55911684,-0.20046539,0.524471,0.57403738,-0.27931613,0.522265,0.57900346,-0.23412088,0.523673,0.58267383,-0.20772886,0.524495,0.58420581,-0.18683632,0.525081,0.59567949,-0.28308481,0.52179,0.60524836,-0.24300436,0.528354,0.61295354,-0.22218505,0.531711,0.62022901,-0.20257923,0.534764,0.62145624,-0.29261168,0.520008,0.63646717,-0.26141673,0.527614,0.64571391,-0.24777777,0.531109,0.65424474,-0.23245567,0.534192
0.55647105,-0.3589092,0.503406,0.5670114,-0.32549714,0.511784,0.54098525,-0.34803286,0.506235,0.51753964,-0.32341063,0.508999,0.49727739,-0.29811748,0.508383,0.48708465,-0.27579837,0.50686,0.54835398,-0.2786448,0.522795,0.55414933,-0.2397641,0.523878,0.55730027,-0.21979705,0.524419,0.56023533,-0.2010936,0.524911,0.57443435,-0.28003401,0.522675,0.57921849,-0.23472096,0.523895,0.58256348,-0.20819039,0.524606,0.584236,-0.18759702,0.525115,0.59584706,-0.28368377,0.521973,0.60564581,-0.24320236,0.528287,0.61300029,-0.22209809,0.531517,0.62001683,-0.20228112,0.534453,0.62131118,-0.29313947,0.519943,0.6368658,-0.26190102,0.527673,0.6461904,-0.24770177,0.531225,0.65469819,-0.23262758,0.534358
0.56539151,-0.36310622,0.504522,0.57603817,-0.32749926,0.5125,0.54451767,-0.34947479,0.507137,0.52711405,-0.32825803,0.510875,0.50345049,-0.30422471,0.509281,0.49120521,-0.28051915,0.508667,0.54966751,-0.27910872,0.522889,0.55385117,-0.23971142,0.52358,0.55634534,-0.21974522,0.523925,0.55867024,-0.20105383,0.524239,0.5758647,-0.28020501,0.522871,0.57911574,-0.23464953,0.523653,0.581675,-0.20797815,0.52411,0.5830673,-0.18757055,0.524436,0.59743624,-0.2836463,0.522281,0.60792818,-0.24393036,0.529848,0.61626051,-0.22249103,0.53372,0.62325434,-0.20236971,0.537239,0.62467106,-0.29128062,0.520443,0.63754462,-0.26146773,0.528031,0.64639858,-0.24493038,0.531517,0.65287625,-0.23070888,0.534593
0.56352694,-0.36194346,0.50466,0.57048025,-0.32640031,0.512614,0.54521292,-0.34963088,0.50741,0.51804354,-0.32309941,0.508406,0.49751814,-0.29869995,0.508361,0.49056262,-0.28055058,0.508582,0.55065836,-0.27896785,0.523148,0.55352434,-0.23930599,0.523796,0.55560126,-0.21944137,0.524121,0.55757766,-0.2008916,0.524416,0.57666766,-0.28007592,0.522955,0.57917719,-0.23447172,0.523694,0.58094742,-0.20689715,0.524125,0.58268859,-0.18751894,0.524433,0.59805184,-0.28353973,0.522225,0.6053873,-0.24274933,0.527737,0.61136456,-0.22157401,0.530557,0.61784056,-0.20142737,0.533121,0.62355415,-0.29284858,0.520221,0.63697646,-0.26122097,0.527672,0.64531562,-0.24523321,0.531096,0.65175457,-0.22956608,0.534116
0.55880382,-0.35946444,0.503464,0.5686779,-0.32549986,0.51241,0.54162778,-0.34724148,0.507797,0.51398201,-0.31960965,0.506072,0.49459276,-0.29743013,0.50712,0.48377098,-0.2771937,0.506854,0.55276084,-0.27934477,0.525755,0.55276079,-0.23820436,0.527639,0.55024325,-0.21776365,0.528581,0.55398124,-0.20067845,0.529438,0.57697747,-0.27954463,0.524039,0.57963021,-0.23301632,0.526084,0.57969724,-0.20510539,0.527277,0.58220043,-0.18513149,0.528129,0.5977101,-0.28302926,0.521984,0.60190192,-0.24119101,0.525474,0.60474062,-0.21758399,0.527259,0.60868615,-0.19706122,0.528882,0.62107047,-0.29148274,0.518251,0.63142022,-0.25675343,0.52501,0.63482755,-0.23886072,0.528115,0.64297983,-0.22504827,0.530855
0.55853131,-0.35954525,0.503263,0.56482283,-0.32379533,0.511618,0.53772023,-0.34531285,0.505556,0.51122537,-0.32081337,0.506512,0.48791152,-0.2973153,0.505303,0.47869626,-0.27949939,0.506774,0.54549079,-0.27398212,0.521966,0.54131671,-0.23470678,0.522709,0.54390154,-0.21788365,0.52308,0.54913426,-0.19852785,0.523417,0.57205991,-0.27662272,0.522492,0.57291721,-0.23104658,0.523506,0.57281077,-0.20537731,0.524098,0.5764766,-0.18480138,0.524521,0.59474005,-0.28272061,0.522326,0.5933408,-0.23732688,0.523503,0.59770642,-0.21483641,0.524105,0.6017476,-0.19465435,0.524652,0.62114073,-0.29284893,0.520945,0.62378603,-0.25467996,0.524527,0.62976304,-0.23710437,0.526173,0.63484208,-0.2222947,0.527626
0.55535953,-0.35866456,0.501294,0.55686016,-0.32137306,0.508948,0.53593765,-0.34500833,0.504637,0.50669878,-0.322128,0.506444,0.48416117,-0.29873768,0.505944,0.47677484,-0.27970135,0.50669,0.5398307,-0.27476946,0.519934,0.53349388,-0.23519877,0.520388,0.53239349,-0.21543459,0.520615,0.53162089,-0.19755506,0.520821,0.56220612,-0.27626907,0.518916,0.56361154,-0.23013373,0.519307,0.56627461,-0.20155438,0.519536,0.56807232,-0.1826519,0.519699,0.58298198,-0.27933712,0.517531,0.58330856,-0.23409446,0.517908,0.58683941,-0.20965438,0.5181,0.58583035,-0.18965492,0.519154,0.60765785,-0.28666009,0.514788,0.6174661,-0.25316641,0.519901,0.62295253,-0.23598987,0.522251,0.62893796,-0.22140564,0.524324
0.55530554,-0.35957187,0.501113,0.55559114,-0.32192829,0.508532,0.5360442,-0.34609382,0.504615,0.50284184,-0.32272283,0.505767,0.48059735,-0.29917129,0.505329,0.47496225,-0.27948698,0.505662,0.53497424,-0.27573206,0.51949,0.5312435,-0.23503258,0.51976,0.53007415,-0.21498908,0.519895,0.52943511,-0.19693067,0.520018,0.55982337,-0.27608443,0.518185,0.55806488,-0.23032666,0.518383,0.55559181,-0.20445799,0.518499,0.55905365,-0.1842723,0.518582,0.58018487,-0.27900195,0.51658,0.58277419,-0.23540145,0.519388,0.58546773,-0.21258844,0.520825,0.58793118,-0.19152048,0.522131,0.60436038,-0.28778521,0.513607,0.61224617,-0.25095962,0.517159,0.61712604,-0.23340474,0.518791,0.62275776,-0.21889111,0.520231
0.52257419,-0.37047357,0.499248,0.53296952,-0.33245332,0.505829,0.50746388,-0.35598334,0.504522,0.4885155,-0.32780562,0.508281,0.46890239,-0.30048743,0.5066,0.46311373,-0.28082368,0.507649,0.52426864,-0.28155501,0.518168,0.52201164,-0.24043725,0.518389,0.52087178,-0.21969771,0.518499,0.52346653,-0.19893768,0.518599,0.54643967,-0.28358622,0.514386,0.54692029,-0.23792606,0.514894,0.54778432,-0.21109134,0.51519,0.54862961,-0.19181573,0.515402,0.56412694,-0.28797284,0.510804,0.56630553,-0.24290422,0.511796,0.56799557,-0.21964842,0.512303,0.56963473,-0.19827857,0.512765,0.58415046,-0.29865216,0.505578,0.59451335,-0.26193536,0.51021,0.5992577,-0.24520697,0.512339,0.6040514,-0.22987273,0.514217
0.53417264,-0.35993048,0.495615,0.53705687,-0.31965289,0.504457,0.51755924,-0.34768594,0.501194,0.48426824,-0.31876538,0.501814,0.46442347,-0.29791545,0.503686,0.45709295,-0.27854407,0.504296,0.52215545,-0.27453788,0.519199,0.51815745,-0.23521832,0.521172,0.51807803,-0.21820261,0.522159,0.52141962,-0.20282899,0.523055,0.54511,-0.27378121,0.51594,0.54275954,-0.22988303,0.517968,0.542736,-0.20373343,0.519151,0.54315114,-0.18513471,0.519996,0.5637329,-0.27565442,0.512628,0.56352292,-0.231857,0.514351,0.56497794,-0.20914746,0.515232,0.56631209,-0.18796744,0.516033,0.58554353,-0.2829146,0.507409,0.59321461,-0.2484702,0.512531,0.59832801,-0.23119611,0.514885,0.60287718,-0.21566629,0.516962
0.5165557,-0.35591347,0.489948,0.52075878,-0.31670969,0.500424,0.50201645,-0.34462132,0.497115,0.47207452,-0.31686436,0.500192,0.45083753,-0.29388921,0.500496,0.44199882,-0.27624643,0.502342,0.51042458,-0.27276703,0.518557,0.51217886,-0.23306869,0.522192,0.51332157,-0.21461813,0.524009,0.51433609,-0.19707684,0.525662,0.53200408,-0.27138304,0.514019,0.536152,-0.22673337,0.517675,0.53897514,-0.20045939,0.519808,0.54503151,-0.18412118,0.523482,0.54923914,-0.27274073,0.509537,0.55451701,-0.22929284,0.512938,0.55781171,-0.20649364,0.514678,0.56375481,-0.18671437,0.51626,0.56884628,-0.27933634,0.502684,0.58191014,-0.24472454,0.509727,0.58789781,-0.22893269,0.512963,0.59777016,-0.21453334,0.515818
0.5135161,-0.35527196,0.497577,0.51441374,-0.31540785,0.504645,0.49799501,-0.34383545,0.504261,0.46561918,-0.31572842,0.506019,0.44319427,-0.2922037,0.505486,0.4337827,-0.27338046,0.505897,0.50346983,-0.26895066,0.51911,0.50159296,-0.22797357,0.519496,0.50020166,-0.20794271,0.519689,0.49890085,-0.1892675,0.519865,0.52407462,-0.26771545,0.513806,0.52458148,-0.22154031,0.513752,0.52432983,-0.19535431,0.51372,0.52404693,-0.17656161,0.513698,0.54070229,-0.26932541,0.508936,0.54469358,-0.22598374,0.510989,0.54655032,-0.20336799,0.512039,0.54823381,-0.18237088,0.512993,0.55994866,-0.27652501,0.502098,0.57389666,-0.24215369,0.508481,0.58049383,-0.22517074,0.511414,0.5891471,-0.21157042,0.514002
0.51043829,-0.35368024,0.495754,0.51303795,-0.31488128,0.503156,0.49440226,-0.34224873,0.502058,0.46541691,-0.31640444,0.505253,0.44335659,-0.29342785,0.505566,0.43381711,-0.2741452,0.505288,0.50022874,-0.26888755,0.517474,0.49874394,-0.22867266,0.51824,0.4953772,-0.21424038,0.518623,0.49368517,-0.19922379,0.518971,0.52148409,-0.26734306,0.512765,0.52123793,-0.22222588,0.513456,0.51682712,-0.19791536,0.513859,0.51576979,-0.18067442,0.514147,0.53874071,-0.26868622,0.50836,0.54345782,-0.22710301,0.512036,0.54575765,-0.20480943,0.513916,0.54784597,-0.18411559,0.515626,0.55890803,-0.2755507,0.502031,0.57064291,-0.24137893,0.507317,0.57630607,-0.22415609,0.509745,0.58134135,-0.20872337,0.511888
0.4950982,-0.35344955,0.496188,0.49527808,-0.31646666,0.502247,0.4713313,-0.34122069,0.502783,0.44725497,-0.31282701,0.503434,0.42666381,-0.2884149,0.503703,0.41816856,-0.26837631,0.503045,0.48894782,-0.2670957,0.515703,0.48409297,-0.22657674,0.51648,0.48107589,-0.20694792,0.516868,0.47805694,-0.19199238,0.517221,0.50895459,-0.26769828,0.510113,0.50846869,-0.22179529,0.509788,0.50728407,-0.19530181,0.509599,0.50874295,-0.17744649,0.509464,0.52490248,-0.27090915,0.50508,0.5300941,-0.22806171,0.509355,0.53260691,-0.20568312,0.511542,0.53460738,-0.18491128,0.51353,0.54290303,-0.28019971,0.498187,0.55350657,-0.24510897,0.501704,0.55821814,-0.22760741,0.503319,0.56242662,-0.2118528,0.504745
0.48048107,-0.35939275,0.497827,0.48550922,-0.32389021,0.502502,0.46787198,-0.34572832,0.504749,0.44040473,-0.31996227,0.504957,0.41882133,-0.29330918,0.502325,0.41056932,-0.27278924,0.501172,0.48057237,-0.27251667,0.515106,0.47551555,-0.23139197,0.515045,0.47183745,-0.21211878,0.515015,0.47218672,-0.19261644,0.514987,0.49942416,-0.2735709,0.508578,0.50139005,-0.22771093,0.508781,0.50171991,-0.20067789,0.5089,0.50611073,-0.17856851,0.508984,0.51436345,-0.27724774,0.502874,0.5133266,-0.23066974,0.501923,0.51279664,-0.2068498,0.501437,0.51212412,-0.18505278,0.500994,0.53103023,-0.28725649,0.495372,0.53809624,-0.24773891,0.496343,0.54132386,-0.22970698,0.496789,0.5440384,-0.2134838,0.497182
0.47769816,-0.35457604,0.494508,0.48359614,-0.31129754,0.501091,0.46378164,-0.34162603,0.501052,0.43349697,-0.31214849,0.50104,0.41018347,-0.2894148,0.501062,0.40030749,-0.26966922,0.500045,0.46942921,-0.26529687,0.514958,0.46554711,-0.22422222,0.514821,0.4632557,-0.20734825,0.514752,0.46464461,-0.19309891,0.51469,0.49018834,-0.26337957,0.509636,0.48869973,-0.21910318,0.511305,0.48773519,-0.19305929,0.512279,0.48700549,-0.17390084,0.512974,0.50699022,-0.26440286,0.504787,0.50542161,-0.21846986,0.504273,0.50467462,-0.19482655,0.50401,0.50399235,-0.17317391,0.503771,0.5266629,-0.27082519,0.498041,0.53184692,-0.23011068,0.497261,0.53423867,-0.21133279,0.496902,0.5363789,-0.19470428,0.496586
0.47531649,-0.35271169,0.492435,0.47909601,-0.31230929,0.500074,0.46047115,-0.34069916,0.49885,0.43196525,-0.32034866,0.504188,0.40803429,-0.29796801,0.504094,0.39839041,-0.27958697,0.504871,0.45625123,-0.2703151,0.514736,0.45428861,-0.2292819,0.514821,0.45240198,-0.20905999,0.514863,0.45064736,-0.19026201,0.514901,0.47757186,-0.26622301,0.509985,0.47515539,-0.22011106,0.510123,0.47310629,-0.19357543,0.510204,0.47159874,-0.17407057,0.510262,0.49510849,-0.26546228,0.505528,0.49707816,-0.22085353,0.504796,0.49734458,-0.19834108,0.504422,0.49742166,-0.1781309,0.504081,0.51614189,-0.26974854,0.499104,0.52631074,-0.2331537,0.501639,0.53104945,-0.21539973,0.502803,0.53966183,-0.19856469,0.503831
0.47067306,-0.34998956,0.489805,0.46438271,-0.30944956,0.497886,0.45418668,-0.34003048,0.497506,0.4223392,-0.31680371,0.503589,0.39855295,-0.29456714,0.503742,0.38884639,-0.27605803,0.504382,0.44798612,-0.26813005,0.514508,0.44563037,-0.22708964,0.515066,0.44276289,-0.20710043,0.515344,0.4400875,-0.18847802,0.515598,0.46751578,-0.26266631,0.508374,0.46522604,-0.217488,0.50918,0.46155307,-0.1915472,0.50965,0.45868915,-0.1726662,0.509986,0.48359343,-0.26071271,0.502749,0.48896838,-0.21739331,0.50566,0.49111507,-0.19474152,0.507149,0.49068546,-0.17550751,0.508502,0.5028736,-0.26347234,0.49486,0.51144199,-0.2258627,0.495011,0.51324498,-0.20835954,0.49508,0.51479634,-0.19257593,0.495141
0.45538698,-0.34256675,0.488096,0.45315885,-0.30189915,0.494796,0.43952951,-0.33409755,0.495492,0.40745467,-0.30845358,0.498762,0.38320904,-0.28721712,0.499158,0.37308529,-0.26985815,0.500701,0.43796509,-0.25957455,0.509809,0.4324949,-0.21868903,0.509716,0.42764802,-0.19998519,0.509669,0.42308763,-0.18238057,0.509627,0.45710636,-0.25470446,0.503508,0.45366066,-0.20840125,0.502884,0.44888164,-0.18329213,0.50252,0.44528517,-0.16470996,0.50226,0.47283732,-0.25323757,0.497846,0.4712434,-0.20739601,0.496876,0.46794979,-0.18552302,0.49638,0.46474848,-0.16508933,0.495929,0.4916779,-0.25659452,0.490108,0.49623983,-0.21712628,0.489174,0.49613024,-0.19951035,0.488744,0.49604338,-0.18351673,0.488366
0.44940078,-0.34223241,0.486843,0.44865567,-0.30345804,0.493842,0.43026641,-0.33248084,0.495245,0.40700763,-0.3105072,0.501506,0.38204923,-0.286682,0.499455,0.37224815,-0.26806687,0.499786,0.43610778,-0.26100887,0.510341,0.42764539,-0.2218515,0.511189,0.42630358,-0.20139456,0.511613,0.42218377,-0.18342811,0.511999,0.45186482,-0.25789491,0.502942,0.4517367,-0.21008568,0.50283,0.44759332,-0.18466238,0.502765,0.44449437,-0.16583965,0.502719,0.46650335,-0.25696694,0.496356,0.46536135,-0.21138422,0.496099,0.46519588,-0.18697923,0.495968,0.46256788,-0.16616406,0.495849,0.48360544,-0.26104357,0.487468,0.48750269,-0.22022906,0.486821,0.48931235,-0.20130934,0.486524,0.49158625,-0.18422371,0.486262
0.44092951,-0.34092529,0.486749,0.44203347,-0.30427045,0.493745,0.42539744,-0.33109245,0.493648,0.39153141,-0.30595167,0.495835,0.36804372,-0.28296136,0.495448,0.35834871,-0.26422964,0.495866,0.42553842,-0.25880975,0.508434,0.4191745,-0.21839224,0.509153,0.41522878,-0.19837649,0.509512,0.41431277,-0.1821921,0.509839,0.44570221,-0.25579897,0.502859,0.44190887,-0.21022409,0.503274,0.43799029,-0.18520016,0.503516,0.43491268,-0.16723077,0.503689,0.46207471,-0.25586192,0.497775,0.45920825,-0.21125321,0.498135,0.45641532,-0.19009675,0.498319,0.4537539,-0.16998827,0.498486,0.48405444,-0.26190177,0.49069,0.48015459,-0.2203256,0.490441,0.47928207,-0.20164788,0.490327,0.47850318,-0.18495651,0.490226
