sluyters/QuantumLeap/backend/src/datasets/dynamic/HandGestureDataset_SHREC2017_csv/Gesture11/finger_1/subject_7_essai_1_skeletons_world.csv
Wrist_x,Wrist_y,Wrist_z,Palm_x,Palm_y,Palm_z,thumb_base_x,thumb_base_y,thumb_base_z,thumb_first_joint_x,thumb_first_joint_y,thumb_first_joint_z,thumb_second_joint_x,thumb_second_joint_y,thumb_second_joint_z,thumb_tip_x,thumb_tip_y,thumb_tip_z,index_base_x,index_base_y,index_base_z,index_first_joint_x,index_first_joint_y,index_first_joint_z,index_second_joint_x,index_second_joint_y,index_second_joint_z,index_tip_x,index_tip_y,index_tip_z,middle_base_x,middle_base_y,middle_base_z,middle_first_joint_x,middle_first_joint_y,middle_first_joint_z,middle_second_joint_x,middle_second_joint_y,middle_second_joint_z,middle_tip_x,middle_tip_y,middle_tip_z,ring_base_x,ring_base_y,ring_base_z,ring_first_joint_x,ring_first_joint_y,ring_first_joint_z,ring_second_joint_x,ring_second_joint_y,ring_second_joint_z,ring_tip_x,ring_tip_y,ring_tip_z,pinky_base_x,pinky_base_y,pinky_base_z,pinky_first_joint_x,pinky_first_joint_y,pinky_first_joint_z,pinky_second_joint_x,pinky_second_joint_y,pinky_second_joint_z,pinky_tip_x,pinky_tip_y,pinky_tip_z,
0.63102419,-0.44357359,0.598436,0.62980792,-0.39881966,0.595243,0.60585545,-0.42378555,0.593451,0.58927512,-0.39789484,0.583554,0.55841014,-0.36237789,0.558245,0.55708497,-0.34593255,0.555687,0.5979003,-0.34110135,0.586472,0.60578007,-0.3085174,0.600324,0.61010189,-0.29101207,0.60725,0.61438945,-0.2740544,0.613546,0.62863639,-0.34762395,0.591414,0.63232726,-0.30539609,0.579611,0.63415033,-0.31385569,0.572726,0.64582566,-0.34070689,0.585677,0.65347959,-0.35648966,0.595728,0.66246569,-0.3342541,0.582807,0.65804082,-0.34309589,0.576197,0.6699379,-0.36973719,0.589894,0.6823414,-0.37443325,0.601348,0.67829525,-0.35528168,0.58893,0.67598245,-0.3454786,0.583785,0.67422572,-0.33677925,0.579354
0.63117255,-0.44433344,0.598282,0.62980842,-0.39901515,0.594885,0.60600056,-0.42474599,0.593352,0.59122958,-0.39953223,0.584515,0.56130568,-0.36357491,0.559011,0.56023447,-0.34699069,0.556052,0.59827472,-0.34185783,0.586011,0.60549593,-0.31047302,0.600999,0.61085576,-0.29314864,0.608493,0.61425595,-0.27591555,0.615306,0.62891737,-0.34802602,0.59081,0.6331303,-0.30633217,0.578809,0.63381307,-0.31432349,0.571808,0.64626705,-0.34090569,0.58472,0.65396339,-0.35722763,0.595022,0.661676,-0.33423756,0.581961,0.65690657,-0.34342344,0.575278,0.6685267,-0.37020782,0.588948,0.6828291,-0.37457744,0.600552,0.67768873,-0.35503631,0.588003,0.67499431,-0.34526199,0.582485,0.67286597,-0.33658646,0.577694
0.62900552,-0.44307617,0.596022,0.62866502,-0.39874321,0.593857,0.60508224,-0.4245505,0.592224,0.59053928,-0.39860485,0.58402,0.5601451,-0.36279199,0.558532,0.55892966,-0.34624051,0.555628,0.599555,-0.34217603,0.587397,0.60415247,-0.30962496,0.601237,0.60954767,-0.29241467,0.608157,0.61292407,-0.275339,0.61449,0.62782443,-0.3471819,0.59126,0.63539579,-0.30794387,0.580634,0.63441451,-0.32479855,0.574436,0.64466431,-0.35215265,0.587864,0.65153815,-0.35585193,0.594607,0.65373882,-0.31201437,0.583669,0.65579109,-0.31335356,0.578072,0.67478646,-0.33825728,0.592542,0.68206702,-0.37388315,0.59892,0.67820176,-0.3544058,0.587648,0.67649329,-0.34524776,0.582759,0.67522976,-0.33727367,0.578476
0.629152,-0.44327112,0.595436,0.62880847,-0.39909627,0.593445,0.60533553,-0.42499044,0.591857,0.59127481,-0.3989418,0.584805,0.56089073,-0.3629094,0.560061,0.56096878,-0.34704991,0.557791,0.59972562,-0.34225244,0.5874,0.60390898,-0.30946238,0.600886,0.60823717,-0.29182344,0.60763,0.61222596,-0.27504048,0.61376,0.627879,-0.34761818,0.591057,0.63549889,-0.30837497,0.580636,0.6342942,-0.32483555,0.574557,0.64463211,-0.35221869,0.588066,0.65148291,-0.35606783,0.594221,0.65204681,-0.31222616,0.583507,0.65546948,-0.31331261,0.578025,0.67455676,-0.33824827,0.592589,0.68151316,-0.37368323,0.598291,0.67815124,-0.35387636,0.587222,0.6765818,-0.34486393,0.582324,0.67543004,-0.33711905,0.578002
0.62964321,-0.44421947,0.595462,0.62889687,-0.39916562,0.593376,0.60573768,-0.42602007,0.591931,0.59238172,-0.39957554,0.585963,0.5636425,-0.36398156,0.561155,0.5634605,-0.3477219,0.558632,0.59976912,-0.34225664,0.587308,0.60373103,-0.30933585,0.600608,0.60793966,-0.29165507,0.607258,0.61180401,-0.27486337,0.613303,0.62791773,-0.3475975,0.590873,0.6352506,-0.30853588,0.580363,0.6339719,-0.32412915,0.574232,0.64657876,-0.34975348,0.587724,0.65151452,-0.35599331,0.593969,0.65285288,-0.31374516,0.583178,0.65472728,-0.31408249,0.577657,0.67307557,-0.33967016,0.592207,0.68145461,-0.37348595,0.59797,0.67800813,-0.35347187,0.586849,0.67636659,-0.34448437,0.581827,0.67516689,-0.33684344,0.577397
0.63024975,-0.44483865,0.595651,0.62942603,-0.39967043,0.593433,0.60618353,-0.42663112,0.592083,0.59425198,-0.40048215,0.587841,0.56696099,-0.36441376,0.564225,0.56822839,-0.3489882,0.562601,0.59975404,-0.34216749,0.587211,0.60357084,-0.30916452,0.600383,0.6076925,-0.29146012,0.606969,0.61179589,-0.27514677,0.612956,0.62835292,-0.34793576,0.590773,0.63495562,-0.30854351,0.580126,0.63311975,-0.32409307,0.573915,0.64348775,-0.35137968,0.587368,0.65212516,-0.3562833,0.593876,0.65248676,-0.31344141,0.582964,0.65430426,-0.31304994,0.577382,0.67378355,-0.33641103,0.591893,0.68086548,-0.37309425,0.597906,0.67792277,-0.353906,0.586676,0.67532221,-0.34777422,0.581516,0.67397484,-0.34099746,0.577128
0.6306154,-0.44523295,0.595791,0.62965395,-0.39990199,0.593343,0.60670567,-0.42721133,0.59248,0.59530131,-0.40096723,0.588992,0.56872572,-0.3650631,0.566213,0.57061875,-0.34990529,0.565132,0.60005185,-0.34247974,0.587243,0.60362498,-0.30916623,0.600029,0.60763029,-0.29135073,0.606422,0.61162906,-0.27492164,0.612234,0.62840885,-0.34796203,0.590406,0.63421321,-0.30834909,0.579565,0.63188887,-0.32379786,0.573241,0.64211931,-0.35097065,0.586675,0.65199328,-0.35608737,0.593198,0.65135501,-0.31290696,0.58218,0.65310362,-0.31206637,0.576543,0.67260287,-0.33521695,0.591058,0.68053321,-0.37265984,0.596893,0.67663453,-0.35365262,0.585587,0.67417844,-0.34797008,0.580392,0.67296545,-0.34327246,0.575809
0.63288787,-0.44718379,0.598272,0.63068902,-0.40081232,0.594548,0.60774314,-0.42829752,0.593855,0.59648129,-0.40114214,0.590597,0.5721563,-0.36535434,0.569711,0.5756871,-0.35167483,0.569584,0.59861903,-0.34184549,0.586029,0.59201254,-0.30370571,0.594463,0.59236249,-0.28515641,0.59868,0.592601,-0.2678633,0.602514,0.62794486,-0.34783212,0.59008,0.63122951,-0.3076925,0.577817,0.62899437,-0.32205466,0.570663,0.64010124,-0.34786372,0.583586,0.65249529,-0.35644955,0.593704,0.65589393,-0.32595453,0.58063,0.6535552,-0.33184181,0.573942,0.66677425,-0.36063256,0.587699,0.68246786,-0.37377824,0.598579,0.67675976,-0.35379623,0.585965,0.67439616,-0.34524499,0.580169,0.67257549,-0.33816557,0.575056
0.62868868,-0.44458979,0.595362,0.62280136,-0.39671607,0.593421,0.60353529,-0.42550941,0.590619,0.5939713,-0.39742979,0.591318,0.57219518,-0.36431915,0.569848,0.57554149,-0.3513926,0.5692,0.59431517,-0.33817496,0.585992,0.5907596,-0.30078064,0.592753,0.59008082,-0.28172583,0.596134,0.58944908,-0.26416015,0.599244,0.62383291,-0.34535773,0.591094,0.63475238,-0.30919372,0.580578,0.63333625,-0.32403112,0.574445,0.64466441,-0.35034337,0.587748,0.64821573,-0.35485919,0.595442,0.66054763,-0.32946898,0.583833,0.65983917,-0.33212512,0.577893,0.67226165,-0.36226557,0.59199,0.67738278,-0.3730155,0.600917,0.67232415,-0.37319454,0.589495,0.68892077,-0.40032437,0.605922,0.69901704,-0.41781775,0.618522
0.61110147,-0.43751092,0.594887,0.60740802,-0.39168953,0.593534,0.58720414,-0.41726631,0.589414,0.58387398,-0.38779334,0.589226,0.57213646,-0.35525176,0.575266,0.576181,-0.34168608,0.581186,0.58155073,-0.33192881,0.585698,0.58014206,-0.29380138,0.592213,0.58022034,-0.274853,0.596224,0.58037717,-0.25750548,0.599992,0.61103242,-0.34137393,0.591911,0.62328015,-0.30896408,0.581916,0.62412257,-0.32654224,0.576086,0.63233841,-0.35268668,0.589355,0.63517767,-0.35265727,0.597128,0.64815907,-0.32965936,0.585635,0.65043142,-0.33379306,0.579754,0.66159458,-0.36090869,0.593695,0.66371357,-0.37278995,0.60355,0.66377219,-0.37125534,0.592335,0.68038759,-0.39872167,0.608592,0.68846708,-0.41655947,0.619504
0.59994136,-0.43649954,0.595564,0.59073461,-0.38847148,0.588188,0.57429595,-0.41477168,0.58835,0.57335877,-0.38951953,0.589159,0.55399748,-0.35276522,0.568444,0.551774,-0.33534051,0.567552,0.55607616,-0.32581437,0.573196,0.56322471,-0.29166673,0.586496,0.56671946,-0.2740226,0.593145,0.56985275,-0.25765631,0.599191,0.58532149,-0.33406753,0.579341,0.57891965,-0.28470353,0.563136,0.58220596,-0.27895927,0.553684,0.59827924,-0.3010624,0.565056,0.60989875,-0.34459838,0.58497,0.61474179,-0.31812672,0.567555,0.61272745,-0.32044915,0.558645,0.62144478,-0.34571494,0.570561,0.64020396,-0.36432405,0.592781,0.63413748,-0.36001821,0.57664,0.65119921,-0.38657817,0.592322,0.66154026,-0.40528197,0.604083
0.59582716,-0.43742233,0.596694,0.580755,-0.38884265,0.58875,0.56472073,-0.41619669,0.58941,0.56303282,-0.38991688,0.58976,0.54411443,-0.35326293,0.569246,0.5419884,-0.33584924,0.568413,0.54591485,-0.32581664,0.5732,0.55272264,-0.29158915,0.58634,0.55605065,-0.27391449,0.592911,0.55903144,-0.2575243,0.598884,0.57499818,-0.33399892,0.579222,0.56805947,-0.28435671,0.56245,0.57069765,-0.27844638,0.552666,0.58617986,-0.30042837,0.563866,0.59945982,-0.34449529,0.584795,0.60348338,-0.31775229,0.566887,0.60098303,-0.31992142,0.557725,0.60919862,-0.34505509,0.569472,0.62966966,-0.36422633,0.592622,0.62278999,-0.35965297,0.576055,0.63954614,-0.38616374,0.591687,0.64997855,-0.40494384,0.603579
0.56827912,-0.40466041,0.583699,0.56749495,-0.36124401,0.581451,0.54453628,-0.38578418,0.579764,0.55247836,-0.36160017,0.586825,0.53538251,-0.32646308,0.569765,0.53495511,-0.31094414,0.571553,0.53874998,-0.30574354,0.574753,0.54952444,-0.27568605,0.59443,0.55481019,-0.2601232,0.604268,0.55955907,-0.24567564,0.613212,0.56643279,-0.31277237,0.578754,0.56244022,-0.26471338,0.568026,0.56702413,-0.25575519,0.561769,0.58478381,-0.27587786,0.575153,0.58943423,-0.32189329,0.58222,0.59693882,-0.29259861,0.570601,0.59710458,-0.29272944,0.564657,0.60848707,-0.31765109,0.578902,0.61734098,-0.33917308,0.586689,0.61407195,-0.33125153,0.575309,0.63298537,-0.35810092,0.591885,0.64314506,-0.37740807,0.602318
0.56764993,-0.39977664,0.584113,0.56554775,-0.35123836,0.58151,0.54369965,-0.3808016,0.57996,0.54738315,-0.35000957,0.583802,0.52851028,-0.31453754,0.564921,0.52745183,-0.29846026,0.565952,0.53634862,-0.29580488,0.574251,0.54702791,-0.26557207,0.593856,0.55226703,-0.24992678,0.603658,0.55697472,-0.23540751,0.61257,0.56413806,-0.30286962,0.578389,0.55977438,-0.25471646,0.567279,0.56405422,-0.24534568,0.560798,0.58158582,-0.26492415,0.574055,0.58725984,-0.31201352,0.581996,0.59427295,-0.28220412,0.569975,0.59520655,-0.27941982,0.563826,0.60848885,-0.30186477,0.577924,0.61536751,-0.32931095,0.586684,0.61166343,-0.32078977,0.574973,0.63046397,-0.34729539,0.591501,0.64071624,-0.36659206,0.602032
0.55203323,-0.35439254,0.625232,0.57303553,-0.31829629,0.620366,0.54158402,-0.33270233,0.625057,0.53402988,-0.30699321,0.624212,0.52704276,-0.27972537,0.618916,0.53095629,-0.26434159,0.620728,0.57628964,-0.26534686,0.616095,0.56180653,-0.247724,0.605397,0.55439174,-0.23840889,0.600048,0.55241766,-0.25392318,0.613485,0.59617832,-0.27770095,0.61453,0.58347571,-0.26065328,0.601909,0.56285019,-0.28041335,0.594546,0.56989949,-0.30009475,0.607504,0.61130372,-0.29088062,0.613621,0.60227104,-0.27674056,0.601982,0.59564877,-0.27524713,0.596027,0.60459043,-0.29704794,0.610364,0.62678808,-0.31237078,0.613261,0.62324748,-0.27110377,0.601512,0.61835708,-0.26972929,0.596113,0.62947134,-0.27528726,0.606187
0.55597479,-0.3344514,0.679536,0.5772336,-0.30051236,0.657774,0.55071852,-0.30574222,0.671896,0.53604929,-0.26953076,0.654294,0.51967338,-0.23875949,0.636123,0.51935344,-0.2203149,0.630252,0.58557366,-0.23994855,0.630266,0.54848563,-0.22491801,0.603543,0.52975499,-0.21732881,0.590182,0.51599699,-0.2262004,0.596587,0.59968126,-0.26161992,0.631673,0.56080697,-0.24814312,0.601912,0.52232917,-0.25612398,0.584551,0.51886817,-0.2681576,0.590601,0.60984546,-0.28241734,0.634525,0.57986458,-0.26569962,0.605937,0.56064152,-0.26113572,0.59131,0.55515955,-0.27392164,0.598052,0.61905352,-0.31280954,0.641163,0.61712046,-0.2809674,0.615365,0.59406466,-0.28054808,0.603511,0.58568465,-0.29144709,0.607789
0.56839452,-0.31627973,0.693129,0.57563585,-0.27392725,0.661399,0.55865698,-0.28691114,0.683778,0.5314296,-0.24853368,0.659304,0.52220876,-0.22068122,0.650746,0.51539612,-0.20143712,0.641575,0.56748274,-0.20565906,0.623482,0.51628987,-0.19899368,0.58938,0.49072877,-0.19565296,0.572329,0.47891224,-0.21013124,0.573164,0.58190033,-0.2251583,0.623342,0.52303816,-0.21544807,0.584953,0.48245102,-0.22377225,0.562559,0.47740128,-0.23455447,0.562925,0.59341874,-0.24482865,0.625697,0.53691577,-0.23262315,0.589579,0.50053331,-0.23261538,0.5711,0.48324483,-0.24030678,0.571917,0.60632454,-0.27512863,0.633227,0.60506438,-0.23459407,0.607306,0.58887181,-0.22855956,0.595396,0.58849644,-0.22864209,0.599084
0.56962868,-0.31696646,0.694634,0.55787097,-0.26266045,0.661968,0.55347879,-0.28974163,0.685331,0.50703309,-0.26098494,0.661007,0.48461975,-0.23685454,0.651372,0.46961004,-0.21931092,0.641399,0.51996753,-0.19048999,0.623328,0.47730755,-0.19465399,0.588338,0.45601789,-0.19669148,0.570843,0.45285093,-0.21507079,0.570937,0.54261787,-0.20053929,0.622787,0.49245564,-0.20385711,0.583702,0.46405202,-0.21994788,0.560903,0.46397306,-0.23093526,0.560609,0.56252257,-0.21319369,0.624885,0.51275605,-0.21414376,0.588251,0.48340075,-0.22298107,0.569508,0.47175597,-0.23789016,0.569656,0.58851319,-0.23667827,0.632248,0.56994509,-0.19080788,0.606376,0.55500107,-0.18848497,0.594489,0.55483911,-0.19093849,0.598071
0.56163651,-0.311778,0.68977,0.55941517,-0.26088843,0.666048,0.5358803,-0.28311265,0.676863,0.51839816,-0.24408282,0.65606,0.50657242,-0.21546832,0.636546,0.50306282,-0.19524072,0.626503,0.53254946,-0.18642639,0.630451,0.50327151,-0.18831684,0.599123,0.48860948,-0.1893536,0.583459,0.48892991,-0.21258184,0.587285,0.56067812,-0.20215175,0.637595,0.52633783,-0.20293734,0.605422,0.49720365,-0.21517051,0.586655,0.49020284,-0.230606,0.590852,0.58387037,-0.21911632,0.645319,0.55849855,-0.20798706,0.612686,0.52907693,-0.21665007,0.59599,0.52088651,-0.22838595,0.600198,0.61137755,-0.24699173,0.658061,0.57808318,-0.24481274,0.629288,0.56524612,-0.25560006,0.616068,0.56786464,-0.26794327,0.618535
0.55031816,-0.29857846,0.685539,0.55474414,-0.2453774,0.662962,0.52817732,-0.27090838,0.672755,0.51310964,-0.23279889,0.652208,0.49807469,-0.20533027,0.629594,0.4964898,-0.18957597,0.620261,0.53000689,-0.17502505,0.628471,0.50123382,-0.17691478,0.597915,0.48681846,-0.17795626,0.582636,0.48593823,-0.19862096,0.586938,0.55852697,-0.19046549,0.635883,0.52491447,-0.19136859,0.604754,0.49638482,-0.204098,0.586596,0.4900117,-0.22004595,0.59132,0.5820256,-0.20718654,0.643739,0.55717679,-0.19603067,0.611994,0.52824266,-0.20526041,0.595753,0.52068463,-0.2175711,0.600495,0.60983045,-0.23474213,0.656467,0.5770525,-0.23276091,0.628444,0.56476076,-0.24412314,0.615568,0.56795731,-0.25682905,0.618445
0.5801357,-0.27176985,0.709531,0.57510848,-0.22215389,0.675897,0.56338073,-0.24490204,0.70079,0.53837066,-0.20918261,0.678352,0.51092698,-0.18246925,0.659271,0.50117986,-0.16288494,0.649353,0.54927329,-0.15120476,0.637139,0.49492997,-0.15045692,0.603378,0.46792773,-0.15003446,0.586498,0.45375335,-0.16440866,0.58634,0.56752496,-0.16518212,0.635555,0.50756636,-0.16433546,0.59591,0.46993645,-0.17592313,0.572784,0.46395585,-0.18919455,0.571731,0.58320827,-0.18079043,0.636871,0.53037048,-0.18025218,0.600053,0.50413684,-0.19304708,0.581215,0.50352617,-0.20818373,0.580644,0.60300945,-0.20721186,0.643445,0.550228,-0.20326019,0.610899,0.53693142,-0.21421837,0.595945,0.53747914,-0.22661025,0.594707
0.57977512,-0.26711529,0.709265,0.57629305,-0.21404797,0.67732,0.56374621,-0.24056559,0.701241,0.53918923,-0.20205794,0.681352,0.51022293,-0.17600217,0.661779,0.49830657,-0.15624361,0.650236,0.5529935,-0.14408952,0.64085,0.49953576,-0.1434474,0.608408,0.47293035,-0.14309406,0.592187,0.45949619,-0.15780886,0.593254,0.57086717,-0.15812577,0.639005,0.51191622,-0.15748669,0.600786,0.47470225,-0.16948801,0.578491,0.46956142,-0.18338545,0.578647,0.58607414,-0.17371149,0.639975,0.5342944,-0.17343681,0.604558,0.50846646,-0.18669021,0.586438,0.50894899,-0.20038998,0.587188,0.60499127,-0.19994906,0.645884,0.55310266,-0.19619331,0.614432,0.54011761,-0.20765313,0.599982,0.54143767,-0.22057777,0.599724
0.5817095,-0.26849578,0.712637,0.57373047,-0.21865616,0.676452,0.56502922,-0.24166843,0.703937,0.53846347,-0.20385834,0.681802,0.51129563,-0.17697175,0.662976,0.50040366,-0.15888982,0.650383,0.54032825,-0.14902943,0.635615,0.48155935,-0.15260956,0.600892,0.45261731,-0.1542226,0.583531,0.43812852,-0.16782711,0.581317,0.55693573,-0.16331107,0.633049,0.49749557,-0.15416727,0.591713,0.46187392,-0.16955207,0.5676,0.45785099,-0.18246074,0.564339,0.57158862,-0.17913457,0.633756,0.51019143,-0.18039747,0.595696,0.47885592,-0.18868752,0.576224,0.46454065,-0.200205,0.573371,0.59078622,-0.20570034,0.639982,0.53423272,-0.20388795,0.606499,0.52182817,-0.21401493,0.591115,0.52986111,-0.21979613,0.588184
0.57753178,-0.27097298,0.695738,0.56937583,-0.22037938,0.665332,0.56968922,-0.25373379,0.692056,0.54532677,-0.22138921,0.678089,0.52326889,-0.19468241,0.665624,0.51137519,-0.17531871,0.655649,0.54040541,-0.15173797,0.635467,0.48814509,-0.15263155,0.607386,0.46334873,-0.15140056,0.593345,0.45446869,-0.16928826,0.595285,0.55435608,-0.16154523,0.628863,0.49841347,-0.15277826,0.593219,0.46734809,-0.16895604,0.572427,0.46534698,-0.18468756,0.572868,0.56907993,-0.17046394,0.625797,0.51346006,-0.17076721,0.594302,0.48754168,-0.18336111,0.578189,0.47392436,-0.20081901,0.579677,0.58781715,-0.19022729,0.626665,0.53234115,-0.18818682,0.598311,0.51842794,-0.19928372,0.585283,0.52128959,-0.21032249,0.585555
0.5707459,-0.26857939,0.683832,0.56383993,-0.21850368,0.657509,0.55987428,-0.25118076,0.680512,0.5316531,-0.22550571,0.665175,0.50602985,-0.20129175,0.649904,0.49199699,-0.18371917,0.636318,0.53647977,-0.1521398,0.631492,0.48711586,-0.151795,0.60562,0.46191435,-0.15356909,0.592683,0.45642214,-0.17044166,0.597276,0.55193647,-0.16030703,0.625937,0.4986998,-0.15243043,0.593474,0.46955617,-0.16979545,0.574538,0.4704568,-0.18634896,0.577816,0.56716258,-0.16856382,0.623416,0.51519639,-0.16789048,0.594533,0.49491444,-0.17954247,0.579755,0.49187426,-0.19743238,0.584186,0.58666424,-0.18729899,0.624327,0.53519344,-0.180779,0.59806,0.52082026,-0.19251966,0.585991,0.52320469,-0.20859471,0.588464
0.55874072,-0.2749037,0.673375,0.55498528,-0.22486436,0.650653,0.55171131,-0.25149572,0.673659,0.53736549,-0.22739499,0.662353,0.53195936,-0.20041577,0.659477,0.53789158,-0.18319211,0.662646,0.53671637,-0.16351894,0.632055,0.49127275,-0.15393274,0.61116,0.46849482,-0.15355111,0.600713,0.46132306,-0.17327282,0.606996,0.54944782,-0.16693576,0.623401,0.49952675,-0.15257403,0.595114,0.47427294,-0.17105756,0.578614,0.48757976,-0.18442851,0.583238,0.55898181,-0.17425211,0.61805,0.51438806,-0.16720596,0.594052,0.49481446,-0.18253559,0.581773,0.49625048,-0.20083717,0.587917,0.57488732,-0.18982564,0.61505,0.52315483,-0.17751325,0.592739,0.50526604,-0.18635412,0.582488,0.50738446,-0.19762507,0.586247
0.5752386,-0.28624155,0.653028,0.56059777,-0.23767102,0.639796,0.56271979,-0.27644029,0.659237,0.5484392,-0.25162246,0.656971,0.5342389,-0.22894208,0.653319,0.5358636,-0.21389896,0.658647,0.53364196,-0.18761536,0.636371,0.49726971,-0.17299093,0.625986,0.47959209,-0.16722212,0.620794,0.47505072,-0.1851101,0.630859,0.5431928,-0.18164613,0.623925,0.5018807,-0.14400375,0.605894,0.47968881,-0.15370325,0.595375,0.48922362,-0.17501397,0.603444,0.55246625,-0.18058148,0.614716,0.51999647,-0.14155487,0.601507,0.50481053,-0.14766457,0.594748,0.50439102,-0.15761478,0.604881,0.56680421,-0.18583363,0.605703,0.52509367,-0.18626081,0.592299,0.50761746,-0.19735218,0.586141,0.51243991,-0.21032783,0.592944
0.55570466,-0.27737629,0.650723,0.54439566,-0.23126382,0.634984,0.54229124,-0.27026334,0.656949,0.53314669,-0.24461882,0.654771,0.51175486,-0.21680408,0.641524,0.51198653,-0.19679542,0.639294,0.52276868,-0.18242008,0.629489,0.49286985,-0.14220146,0.617813,0.47806053,-0.12234756,0.611975,0.47485985,-0.10673732,0.619958,0.5344454,-0.17798608,0.616106,0.48940499,-0.1607839,0.596053,0.46367731,-0.15132493,0.584356,0.46082298,-0.16752937,0.590906,0.54318166,-0.17681288,0.606321,0.51003401,-0.13841546,0.591533,0.49632223,-0.1451041,0.583966,0.49669862,-0.15539839,0.592564,0.5566232,-0.18318772,0.596994,0.5129713,-0.17533103,0.582287,0.49994274,-0.19201515,0.575529,0.50333614,-0.20625989,0.581171
0.55248474,-0.2845519,0.648881,0.54324807,-0.24078582,0.633519,0.54008037,-0.27426568,0.65422,0.53393674,-0.25548529,0.655647,0.51262406,-0.22672384,0.640996,0.50942286,-0.20890064,0.635356,0.52099307,-0.19135532,0.627251,0.49059482,-0.15096868,0.61489,0.47555378,-0.13106229,0.60871,0.47333001,-0.11591587,0.617918,0.53175272,-0.18595429,0.615093,0.48854177,-0.17031112,0.594907,0.46276245,-0.16097376,0.583132,0.46043343,-0.1775979,0.590347,0.54155801,-0.18521451,0.606286,0.50831438,-0.14713644,0.590973,0.49638626,-0.15477467,0.583139,0.4992031,-0.16648484,0.592341,0.55509533,-0.19146928,0.59807,0.5137957,-0.18481856,0.582917,0.50195238,-0.20011969,0.575955,0.50529595,-0.21645597,0.582045
0.55106359,-0.28604367,0.649119,0.55262241,-0.24611395,0.64135,0.53363594,-0.27190775,0.648215,0.51858702,-0.23852828,0.636653,0.50776894,-0.20938219,0.625628,0.50712673,-0.190313,0.62081,0.54036301,-0.19910727,0.633763,0.52505482,-0.17257949,0.620621,0.51813093,-0.17020692,0.61405,0.5273426,-0.1731368,0.62657,0.56290421,-0.20382021,0.632031,0.54345263,-0.18187775,0.61648,0.53185711,-0.16832752,0.607408,0.53741403,-0.18433781,0.61938,0.58134209,-0.21082887,0.631211,0.56653622,-0.18078213,0.616884,0.55901092,-0.19101796,0.609554,0.57048563,-0.20808158,0.622868,0.60301494,-0.22527496,0.63139,0.57451783,-0.20171178,0.617355,0.56119699,-0.19060606,0.610906,0.54935082,-0.1806603,0.605256
0.54720012,-0.29385916,0.649357,0.55471118,-0.26129614,0.638887,0.53498269,-0.27917022,0.652089,0.53304733,-0.25532596,0.644672,0.53283207,-0.228775,0.638197,0.54587561,-0.21446089,0.645308,0.55546018,-0.20907269,0.633505,0.52896385,-0.19307774,0.621566,0.51520124,-0.18469351,0.615596,0.51656055,-0.18181978,0.627423,0.56974455,-0.21464808,0.62633,0.53646472,-0.19621568,0.60931,0.51643621,-0.18502783,0.599382,0.51507158,-0.20204054,0.60992,0.58075604,-0.22256607,0.621241,0.56312256,-0.18285051,0.607276,0.54971475,-0.19059532,0.60013,0.55464639,-0.21381951,0.612426,0.59231153,-0.23841588,0.616731,0.55482746,-0.21724243,0.602777,0.53742973,-0.20739914,0.596366,0.5272245,-0.21478749,0.604812
0.54640015,-0.29501762,0.647464,0.55806887,-0.26039753,0.637628,0.53559911,-0.28004682,0.650646,0.5446111,-0.25525224,0.64393,0.54518721,-0.23095346,0.632152,0.55821836,-0.21686091,0.636102,0.56327193,-0.20917643,0.633325,0.53744014,-0.19211523,0.622148,0.52390393,-0.18437238,0.616559,0.52404642,-0.17931855,0.628608,0.57731099,-0.2136317,0.625831,0.54377627,-0.19386766,0.609529,0.52303754,-0.1834934,0.600021,0.51906637,-0.20169184,0.610749,0.58817275,-0.22060459,0.62043,0.556504,-0.2027758,0.607238,0.53734868,-0.21827132,0.600489,0.53972942,-0.24003225,0.613014,0.59963038,-0.23529774,0.615454,0.56278931,-0.21426237,0.602141,0.54566821,-0.20446755,0.596025,0.53389297,-0.21395749,0.604647
0.54955601,-0.30316561,0.654326,0.56406148,-0.27212772,0.64,0.54031036,-0.28409308,0.655639,0.53841708,-0.26632066,0.645913,0.53017391,-0.23965872,0.632497,0.53843016,-0.22393077,0.634463,0.5717523,-0.21675916,0.629663,0.53907093,-0.2009905,0.614242,0.52225488,-0.1928399,0.606532,0.52123319,-0.21087422,0.61687,0.58293314,-0.22639823,0.622817,0.54182217,-0.20754613,0.601912,0.51731862,-0.19627644,0.589717,0.51148873,-0.21232321,0.598747,0.59108644,-0.2377064,0.618301,0.55272929,-0.21942693,0.6006,0.52552042,-0.22715596,0.591544,0.52958667,-0.24547526,0.602214,0.59857381,-0.25762207,0.615046,0.5572,-0.23336915,0.597972,0.53224319,-0.22925785,0.590127,0.52969659,-0.23969267,0.597324
0.62981554,-0.32876048,0.671787,0.60719853,-0.2889281,0.633042,0.62260994,-0.3020804,0.666734,0.5893802,-0.27800755,0.648578,0.56288194,-0.26620292,0.638569,0.54230113,-0.26221637,0.625296,0.57930447,-0.22317904,0.594542,0.51103155,-0.21189699,0.564225,0.47780284,-0.20625346,0.549066,0.4568435,-0.21609426,0.53998,0.57979326,-0.24157653,0.586571,0.49961576,-0.23032181,0.547243,0.4542814,-0.228779,0.524301,0.43985732,-0.2315954,0.513516,0.58190674,-0.26001543,0.583029,0.50788181,-0.25191213,0.548709,0.48996336,-0.25687054,0.546721,0.50441024,-0.26585958,0.559785,0.58767857,-0.28810456,0.584571,0.53091438,-0.26856334,0.554792,0.50098477,-0.26529115,0.54111,0.48240489,-0.26653422,0.532624
0.63482962,-0.33217019,0.671486,0.61909905,-0.29809805,0.63128,0.6265643,-0.30433334,0.664023,0.59809334,-0.28153708,0.641787,0.57107952,-0.2683853,0.629741,0.54919778,-0.26369949,0.614779,0.59259074,-0.23273763,0.588607,0.52149261,-0.21751589,0.555313,0.48693767,-0.20995944,0.538666,0.46395725,-0.21797753,0.529246,0.59346833,-0.25332896,0.583054,0.51042254,-0.23778056,0.541548,0.46243516,-0.23296611,0.517335,0.44631011,-0.23417034,0.506499,0.59576883,-0.27343805,0.581617,0.51777336,-0.26023764,0.544483,0.49927324,-0.26327268,0.54309,0.51421116,-0.27221364,0.557529,0.60150824,-0.30323655,0.585885,0.54338526,-0.2810494,0.553797,0.51173581,-0.27542203,0.539053,0.49185236,-0.2748957,0.530361
0.6690237,-0.37677778,0.673703,0.64049945,-0.33088349,0.638381,0.66334935,-0.35199464,0.672736,0.63188861,-0.32415388,0.653818,0.61359957,-0.30708886,0.647718,0.59378761,-0.29240634,0.631615,0.6096092,-0.26283071,0.607742,0.56262996,-0.23098858,0.575485,0.53022202,-0.22059387,0.559357,0.50162092,-0.22426282,0.548647,0.60612189,-0.27649011,0.596014,0.52710289,-0.27478642,0.561371,0.49935934,-0.28206664,0.541162,0.5001204,-0.28307511,0.530616,0.60550695,-0.29159779,0.589116,0.54293474,-0.27318946,0.558474,0.52730003,-0.28096054,0.555256,0.54035712,-0.29306067,0.566343,0.60901225,-0.31679696,0.586146,0.54504101,-0.3024596,0.561017,0.52084786,-0.29696667,0.549472,0.5154129,-0.29422848,0.541449
0.67911157,-0.40944115,0.683306,0.66080218,-0.35826013,0.650033,0.66989295,-0.38537618,0.682537,0.64742875,-0.36009321,0.670099,0.62795639,-0.34080238,0.659706,0.61477508,-0.32639026,0.647131,0.63376573,-0.28776051,0.621344,0.57910584,-0.26922069,0.592059,0.55180075,-0.25995591,0.577417,0.53137926,-0.26905196,0.574275,0.63819494,-0.298237,0.610123,0.56397312,-0.29669213,0.574421,0.52871675,-0.30567153,0.553595,0.52874329,-0.31293267,0.549358,0.64339228,-0.31112533,0.603482,0.58352834,-0.29860554,0.573478,0.57780955,-0.31384731,0.579409,0.59936589,-0.32501848,0.593893,0.65243042,-0.33452651,0.600514,0.5871209,-0.32315294,0.573635,0.55851899,-0.32063777,0.561286,0.54716549,-0.32390735,0.55816
0.6606599,-0.40795229,0.630236,0.63328358,-0.35805633,0.609111,0.65008256,-0.39510282,0.637823,0.62357594,-0.40895016,0.639944,0.60044245,-0.40177737,0.641989,0.58804865,-0.39170358,0.643432,0.59781817,-0.30196075,0.600792,0.55530214,-0.31996152,0.588357,0.54314157,-0.3364378,0.582139,0.55544548,-0.34807343,0.586055,0.60063342,-0.29950317,0.583772,0.54644173,-0.31377467,0.560784,0.56221038,-0.34019381,0.571464,0.5872169,-0.34543043,0.583288,0.60525069,-0.30155406,0.571414,0.55936396,-0.31474424,0.555109,0.57171284,-0.33417616,0.564591,0.59548833,-0.33696809,0.575404,0.61502649,-0.31170896,0.559821,0.56451733,-0.31799829,0.544066,0.55432714,-0.31976699,0.536827,0.55686449,-0.32436254,0.538494
0.65831281,-0.41164166,0.627997,0.6315078,-0.36726219,0.607403,0.64871069,-0.39938446,0.636477,0.62321736,-0.41894031,0.639576,0.60054814,-0.41194853,0.642102,0.58766571,-0.40151328,0.643013,0.59764901,-0.31196622,0.600622,0.55643472,-0.33075188,0.589557,0.5449003,-0.34749518,0.584024,0.55682828,-0.35876465,0.587514,0.59953252,-0.30907405,0.582702,0.54646316,-0.32377788,0.560806,0.5609944,-0.34938596,0.570228,0.58512189,-0.35413581,0.581207,0.60328903,-0.31072619,0.569562,0.55873459,-0.31724173,0.554579,0.56772201,-0.34059616,0.562998,0.58929329,-0.3449946,0.572411,0.61187896,-0.32030849,0.556956,0.5627472,-0.32695334,0.54236,0.56629394,-0.33647258,0.548416,0.57486532,-0.34456271,0.555901
0.68903328,-0.44359092,0.635892,0.66525217,-0.39496167,0.615814,0.68235978,-0.43018489,0.645122,0.65689032,-0.44271153,0.649433,0.64005442,-0.43165052,0.654676,0.63048755,-0.41859447,0.655811,0.63725018,-0.33852732,0.610381,0.59375044,-0.3560609,0.600539,0.58072874,-0.37197454,0.595618,0.59182012,-0.38286491,0.598711,0.63677636,-0.33746828,0.591731,0.58046526,-0.3502871,0.570848,0.59258346,-0.37472711,0.579124,0.61678928,-0.37972916,0.589289,0.63831872,-0.34059,0.57795,0.59224368,-0.34580441,0.564161,0.59780929,-0.36595218,0.571609,0.61854149,-0.37183251,0.580152,0.64374034,-0.35181186,0.564505,0.5931325,-0.35563747,0.550961,0.59583706,-0.36359037,0.556291,0.60392307,-0.370687,0.563125
0.68482563,-0.45168322,0.635271,0.66108283,-0.40846286,0.612353,0.67277867,-0.4439641,0.641865,0.66589207,-0.43276235,0.641506,0.65816819,-0.41657209,0.644196,0.66383039,-0.41405958,0.645179,0.63389446,-0.34651345,0.601324,0.58403899,-0.35612741,0.580721,0.57471289,-0.37056715,0.570419,0.58888879,-0.37866021,0.571635,0.63672079,-0.34761543,0.584865,0.57695899,-0.35517489,0.560037,0.58371587,-0.38264078,0.570161,0.60680078,-0.39265524,0.58232,0.64072613,-0.3527541,0.573109,0.59189813,-0.35392287,0.554908,0.59609277,-0.37406638,0.563909,0.60287078,-0.39409179,0.574854,0.64861195,-0.36686712,0.5625,0.59425415,-0.36590051,0.545189,0.59390687,-0.37715122,0.551637,0.60029547,-0.3880426,0.560229
0.68311598,-0.46601201,0.636049,0.66430561,-0.41944221,0.613455,0.67504813,-0.44992382,0.643058,0.67002674,-0.44472188,0.643454,0.66306211,-0.42919916,0.646869,0.66881629,-0.42699463,0.647862,0.6378846,-0.35771161,0.603205,0.5786125,-0.36153288,0.573369,0.56456846,-0.37243505,0.558451,0.57532638,-0.37820411,0.556645,0.64035612,-0.35864532,0.586355,0.58102455,-0.36643731,0.562061,0.58733268,-0.39364515,0.57177,0.61011415,-0.40344717,0.58361,0.64402337,-0.36363299,0.574252,0.59581375,-0.36525939,0.55668,0.59960492,-0.3851327,0.565331,0.60595285,-0.40489421,0.575882,0.65142495,-0.37753407,0.56318,0.59756464,-0.37668528,0.546412,0.59689828,-0.38764937,0.552602,0.6029568,-0.39828046,0.560903
0.67812296,-0.47725585,0.630455,0.66242462,-0.43868513,0.611718,0.67218562,-0.47286597,0.639366,0.66902605,-0.46531659,0.642493,0.66402564,-0.45165168,0.647809,0.67183693,-0.45145071,0.650788,0.64191153,-0.38032594,0.607013,0.585288,-0.38576077,0.579984,0.5726743,-0.3973448,0.566469,0.5852899,-0.40402897,0.566285,0.64351119,-0.38080089,0.589244,0.58796507,-0.39101054,0.568775,0.59575998,-0.41942725,0.579974,0.61810634,-0.42883626,0.591255,0.64607795,-0.38520869,0.576084,0.60190375,-0.38961412,0.56237,0.60700173,-0.41037954,0.572305,0.61219144,-0.42946614,0.581811,0.65142379,-0.39798022,0.563179,0.6010139,-0.39890261,0.549566,0.60144252,-0.41042721,0.556809,0.60685144,-0.42052126,0.564526
0.68097405,-0.46586353,0.635828,0.68026981,-0.4227562,0.610386,0.68269906,-0.45136981,0.642688,0.69577156,-0.42672448,0.644456,0.70299022,-0.40643781,0.646497,0.71013619,-0.39056393,0.643318,0.69746383,-0.36541452,0.597578,0.65737346,-0.33305728,0.583038,0.62857159,-0.33667928,0.575769,0.62700898,-0.34866713,0.574792,0.68308758,-0.37172999,0.579871,0.63102996,-0.32985051,0.554462,0.61095191,-0.34387046,0.558198,0.62327314,-0.36312809,0.568561,0.67091115,-0.38047974,0.567284,0.60897438,-0.35880254,0.546293,0.60188098,-0.3775032,0.549701,0.60535273,-0.3997941,0.559517,0.65574731,-0.39755724,0.55606,0.60044499,-0.37180905,0.539021,0.59632961,-0.38557197,0.541285,0.59812772,-0.40108709,0.54816
0.68776187,-0.4798334,0.578268,0.68754642,-0.44069504,0.584107,0.67321279,-0.47390302,0.587016,0.67278258,-0.46352153,0.600966,0.65004993,-0.44804979,0.601198,0.65094801,-0.44141268,0.611997,0.67040886,-0.40285159,0.599696,0.66602955,-0.3730002,0.598946,0.66373256,-0.35717631,0.598572,0.67776219,-0.3641138,0.613898,0.68765059,-0.39598137,0.59111,0.68146369,-0.39385546,0.588653,0.71330919,-0.43934679,0.613244,0.73210426,-0.4590041,0.62734,0.70200983,-0.39344449,0.583592,0.69907856,-0.39733031,0.583792,0.72309055,-0.4339336,0.604998,0.74045601,-0.46130531,0.619859,0.71941594,-0.39633971,0.573758,0.7099392,-0.391902,0.573871,0.71884362,-0.41706073,0.590231,0.716479,-0.43390682,0.596535
0.69441865,-0.49474306,0.583865,0.68331831,-0.45789648,0.580515,0.67528628,-0.49562144,0.588824,0.66912181,-0.48176973,0.597696,0.64571949,-0.46529818,0.597193,0.6438971,-0.45687044,0.605368,0.65263737,-0.41129925,0.583799,0.63908017,-0.37751306,0.574711,0.63223539,-0.36008664,0.570167,0.64405724,-0.3669372,0.583369,0.67065098,-0.40540659,0.576497,0.6560726,-0.39940327,0.56672,0.68791828,-0.44492415,0.591415,0.70335294,-0.46211178,0.602703,0.68656323,-0.40412414,0.570751,0.67489787,-0.40389122,0.563599,0.69904921,-0.44054171,0.584883,0.71228241,-0.46490568,0.596274,0.70767849,-0.40945296,0.564397,0.68807459,-0.40004983,0.556197,0.69704317,-0.42514449,0.572331,0.69838972,-0.44395089,0.581474
0.68250893,-0.50086757,0.58275,0.69030304,-0.46725525,0.59081,0.66929652,-0.49177227,0.590366,0.69048412,-0.47567505,0.613943,0.69901002,-0.45284826,0.616776,0.71874639,-0.44468275,0.626278,0.69305967,-0.43191029,0.606864,0.70201818,-0.39848805,0.609335,0.70663908,-0.38096825,0.610571,0.72089708,-0.3890303,0.627204,0.71152514,-0.43349529,0.600478,0.71607859,-0.39348183,0.602525,0.71770921,-0.37475773,0.60372,0.73542752,-0.38837947,0.619965,0.7257576,-0.4372686,0.594596,0.7262099,-0.42656529,0.598231,0.74415684,-0.46204813,0.620101,0.74864935,-0.48468643,0.62737,0.74073197,-0.44654693,0.586383,0.72600395,-0.43163005,0.587448,0.73410418,-0.45634221,0.604248,0.73037004,-0.47191115,0.610387
0.68425223,-0.49510858,0.581966,0.69965966,-0.46663976,0.590277,0.67123607,-0.48629948,0.589788,0.70079097,-0.4757767,0.613962,0.70869879,-0.45265366,0.616466,0.72798503,-0.44414377,0.625604,0.70215691,-0.43166482,0.606793,0.71189907,-0.39877875,0.610075,0.7169128,-0.38149042,0.611716,0.73181591,-0.38978187,0.628539,0.72056234,-0.43291558,0.600246,0.72514714,-0.39313313,0.602606,0.72697336,-0.37457522,0.603982,0.74525333,-0.38830351,0.620264,0.73476309,-0.43640714,0.594213,0.73595875,-0.42612695,0.598191,0.75449552,-0.46166588,0.620013,0.75902023,-0.48418844,0.627124,0.74973387,-0.44533207,0.585781,0.73812695,-0.42928758,0.587134,0.74597466,-0.45350218,0.603903,0.74169974,-0.46861266,0.609929
0.68491295,-0.50330696,0.585395,0.70188066,-0.47212906,0.592801,0.67325614,-0.49321706,0.593172,0.702368,-0.48471538,0.616624,0.70971149,-0.46104763,0.618011,0.72883057,-0.44858233,0.626462,0.70455947,-0.43894766,0.608507,0.71533472,-0.40511346,0.611019,0.72089207,-0.38742684,0.612275,0.73408012,-0.39237104,0.628881,0.7224747,-0.44077514,0.601684,0.72703776,-0.40082809,0.603133,0.72853084,-0.38243885,0.603978,0.74611598,-0.39676309,0.620024,0.73622999,-0.44483039,0.595494,0.73624523,-0.43502343,0.598706,0.75399657,-0.47069237,0.620502,0.75847795,-0.49308194,0.627911,0.750584,-0.4545928,0.58701,0.73814399,-0.43851658,0.587691,0.74549411,-0.46254295,0.604423,0.74111627,-0.47753038,0.610671
0.68296012,-0.50330704,0.584982,0.69988689,-0.47263484,0.592505,0.67149664,-0.4927487,0.592515,0.7021752,-0.48429901,0.616514,0.71221786,-0.46188646,0.617123,0.73278152,-0.45434809,0.625041,0.70252414,-0.43820082,0.608009,0.71286387,-0.40245006,0.610366,0.71801748,-0.38474771,0.611544,0.73281312,-0.39219537,0.628163,0.72074059,-0.44037663,0.601528,0.72548803,-0.40036334,0.603017,0.72695262,-0.38183412,0.603886,0.74454779,-0.3933602,0.62,0.7347257,-0.44469867,0.595609,0.73433767,-0.43441475,0.598751,0.75192589,-0.47000803,0.620622,0.75643341,-0.4925114,0.628091,0.74929868,-0.4547468,0.587432,0.73659624,-0.43823793,0.588068,0.74387318,-0.46221787,0.604859,0.73671962,-0.47560713,0.611146
0.68214378,-0.50462687,0.585506,0.69749148,-0.47589478,0.592685,0.67075406,-0.49362098,0.592806,0.70206946,-0.48589749,0.617057,0.71227694,-0.46346633,0.616684,0.73624368,-0.45868168,0.623738,0.70112065,-0.43880479,0.607617,0.70982359,-0.40549812,0.609615,0.71366495,-0.39061979,0.610613,0.72919632,-0.39568494,0.627178,0.71944537,-0.44124988,0.601296,0.72265369,-0.40187734,0.602374,0.72308115,-0.38678521,0.603003,0.74067428,-0.39848644,0.619057,0.73216429,-0.44629639,0.595535,0.73095112,-0.43567219,0.598241,0.74817331,-0.47120573,0.62016,0.75462934,-0.49352745,0.627824,0.7467216,-0.45679003,0.587598,0.73344411,-0.43985644,0.587865,0.74051868,-0.46372302,0.604686,0.73794397,-0.47837622,0.611114
0.68099685,-0.50800693,0.58888,0.69335713,-0.47624562,0.591955,0.67416836,-0.49768703,0.597268,0.69905104,-0.48945921,0.618493,0.70682206,-0.46941348,0.61791,0.72591927,-0.46214607,0.622955,0.69845914,-0.43687887,0.604798,0.70196374,-0.40375534,0.603808,0.70285202,-0.38602401,0.603314,0.71068961,-0.39479136,0.618515,0.7121776,-0.43795045,0.595643,0.71067566,-0.39815568,0.593093,0.70554764,-0.37906536,0.591606,0.71610128,-0.39246857,0.606202,0.72371664,-0.44319658,0.587871,0.71084657,-0.43275683,0.588081,0.72549321,-0.46745243,0.609214,0.73272595,-0.48958134,0.617572,0.73324454,-0.45385742,0.578146,0.71081547,-0.43626464,0.576157,0.71674506,-0.45899442,0.59231,0.71290279,-0.47358933,0.599272
0.6779177,-0.51261828,0.59255,0.68190921,-0.47919881,0.593825,0.66826293,-0.50088261,0.600582,0.68711375,-0.49107237,0.620436,0.6971472,-0.47031003,0.619079,0.71504193,-0.46234559,0.623212,0.68976144,-0.4370546,0.60473,0.689203,-0.40222867,0.601872,0.68897827,-0.3841546,0.600443,0.69584594,-0.39258304,0.615049,0.70291957,-0.43858982,0.595354,0.69767629,-0.3966777,0.590971,0.69124724,-0.37700761,0.588414,0.70085112,-0.39007829,0.602471,0.71278079,-0.44283679,0.587541,0.69779962,-0.43129005,0.586103,0.71195085,-0.46581845,0.607091,0.71981783,-0.48834564,0.616056,0.72247079,-0.4536545,0.578033,0.69834821,-0.43508779,0.57463,0.70393563,-0.45767752,0.590637,0.70059779,-0.47259822,0.598041
0.6594375,-0.51715095,0.593636,0.67017382,-0.47990951,0.593528,0.6532032,-0.50427586,0.601534,0.67518053,-0.49269631,0.620444,0.68517529,-0.47180437,0.61934,0.70212985,-0.46309439,0.622909,0.67489134,-0.43640799,0.603117,0.67279929,-0.40095,0.599268,0.67179613,-0.38259692,0.597344,0.67815524,-0.39109389,0.611548,0.68794689,-0.43724929,0.593399,0.6806036,-0.39453213,0.58767,0.67319038,-0.37457358,0.584329,0.68232236,-0.38759766,0.597914,0.69790199,-0.44102281,0.585412,0.68195124,-0.42921206,0.582824,0.69598409,-0.46385079,0.603602,0.70435761,-0.4866624,0.612948,0.70811349,-0.45148195,0.575903,0.68307242,-0.43283137,0.571508,0.68847077,-0.45556618,0.58733,0.68560369,-0.47096982,0.595011
0.6415883,-0.51647656,0.591816,0.64851822,-0.47944696,0.592661,0.62505947,-0.50400139,0.599975,0.65289461,-0.49218924,0.619779,0.66429813,-0.47237617,0.620171,0.68169314,-0.46414272,0.624404,0.65545732,-0.43715925,0.603365,0.65395317,-0.40197613,0.600278,0.65323677,-0.38373864,0.598734,0.65897411,-0.39214282,0.61318,0.66831407,-0.43801249,0.593675,0.66208808,-0.39576025,0.588935,0.65510007,-0.3759369,0.58617,0.66358823,-0.38890838,0.600038,0.67795975,-0.44171837,0.585637,0.66235358,-0.43009996,0.583966,0.67561057,-0.46476172,0.604814,0.68345593,-0.48745449,0.613818,0.68751685,-0.45194247,0.575926,0.66316168,-0.43349711,0.572313,0.66819687,-0.45628439,0.588207,0.66488525,-0.47149404,0.595641
0.62199653,-0.51793658,0.593489,0.62842873,-0.47998574,0.593327,0.60554841,-0.50523036,0.601438,0.63190413,-0.49279993,0.620548,0.64334604,-0.47325439,0.621324,0.65996552,-0.46471434,0.625173,0.63503157,-0.43684625,0.602933,0.63171525,-0.40086183,0.598614,0.63007983,-0.38227799,0.596455,0.63446068,-0.39042506,0.610494,0.6475416,-0.4376126,0.593133,0.63739589,-0.39797121,0.587373,0.62796178,-0.38074516,0.584013,0.63479769,-0.39669004,0.597563,0.65693086,-0.44129976,0.585082,0.63941797,-0.42901434,0.582492,0.65180652,-0.46354759,0.603234,0.65998694,-0.48646102,0.612567,0.66625788,-0.45161289,0.575506,0.64061428,-0.43258287,0.571106,0.64517328,-0.45527052,0.5869,0.64204395,-0.47064864,0.594573
0.60903595,-0.51960478,0.599791,0.61816426,-0.47500274,0.594419,0.60603726,-0.50550177,0.608368,0.62154105,-0.48848542,0.623049,0.63137987,-0.47450979,0.623539,0.64477987,-0.46783836,0.624798,0.63110356,-0.42359984,0.600451,0.62178858,-0.39294442,0.592965,0.61709197,-0.37693068,0.589222,0.6149611,-0.38752806,0.601113,0.63840086,-0.42765195,0.587976,0.62093255,-0.39240806,0.577745,0.60508291,-0.37897065,0.571777,0.60465677,-0.39722514,0.582919,0.64323652,-0.43444514,0.578132,0.61495148,-0.42816097,0.572219,0.6232793,-0.45905942,0.591134,0.63767454,-0.48136002,0.6054,0.64658591,-0.44908275,0.567191,0.61356001,-0.43294766,0.559915,0.61611106,-0.45111243,0.574228,0.61345885,-0.46361935,0.582338
0.59291918,-0.51862456,0.602864,0.59883639,-0.4764112,0.595884,0.58123577,-0.50242215,0.610993,0.60087814,-0.48964502,0.624228,0.61105241,-0.4763744,0.625698,0.62334671,-0.46916596,0.626284,0.61033631,-0.42345452,0.600026,0.59907285,-0.39197473,0.591316,0.5933789,-0.37558887,0.58696,0.58993384,-0.38584959,0.598333,0.61744281,-0.42748916,0.587513,0.59771606,-0.39113807,0.575673,0.58046327,-0.37710079,0.568766,0.57870211,-0.39491909,0.579319,0.6222249,-0.43436196,0.577761,0.59163048,-0.42696708,0.570357,0.5992408,-0.45761588,0.588981,0.61371462,-0.47999463,0.603374,0.62573349,-0.4492992,0.567171,0.59104162,-0.43217705,0.558635,0.59319571,-0.45013928,0.572695,0.59094911,-0.46291355,0.58115
0.57147629,-0.51865269,0.602726,0.57764492,-0.47635123,0.595809,0.56002891,-0.50240406,0.610971,0.57875342,-0.48960816,0.624181,0.58875207,-0.47676041,0.626205,0.60063726,-0.46959146,0.626852,0.58986276,-0.42353851,0.600145,0.5778175,-0.39198003,0.591324,0.57170979,-0.37555943,0.586914,0.56736211,-0.38576833,0.598207,0.59668544,-0.42748843,0.587512,0.57653332,-0.39121009,0.575779,0.55890404,-0.37721218,0.568934,0.55634316,-0.39502135,0.579469,0.60119291,-0.43428453,0.577658,0.57004154,-0.42699328,0.570392,0.57715876,-0.45759879,0.588959,0.59153113,-0.47994133,0.603307,0.60430021,-0.44911304,0.566936,0.56948408,-0.43208422,0.558515,0.57146273,-0.45001273,0.572534,0.56919381,-0.4627407,0.580933
0.51869117,-0.50620391,0.579809,0.5525741,-0.4792895,0.584993,0.52962385,-0.50093474,0.595368,0.55160086,-0.49248754,0.617152,0.55213035,-0.47556334,0.615254,0.56417713,-0.4723733,0.620749,0.59321635,-0.45171597,0.608385,0.57766494,-0.44053309,0.618035,0.56889668,-0.43421201,0.62286,0.57042043,-0.456532,0.637446,0.5921714,-0.44813073,0.591212,0.56524617,-0.42996328,0.593929,0.55223853,-0.45423754,0.595514,0.5704366,-0.47833803,0.607819,0.5887682,-0.44750556,0.576681,0.56962671,-0.43512706,0.584423,0.56817873,-0.46137706,0.600822,0.57164092,-0.48168962,0.604247,0.5797082,-0.45114158,0.55858,0.55566783,-0.43319315,0.562917,0.55318085,-0.45107174,0.57554,0.54597932,-0.46319098,0.578908
0.50669574,-0.50474591,0.578139,0.53039172,-0.47811789,0.583563,0.50642886,-0.49865374,0.592657,0.52699674,-0.48998342,0.614014,0.52543742,-0.47175422,0.610326,0.53630151,-0.46825491,0.615337,0.5703285,-0.44985308,0.605876,0.55293151,-0.43805969,0.614565,0.54324436,-0.43145766,0.618909,0.54436238,-0.45412202,0.634081,0.5703868,-0.4472636,0.590068,0.54240484,-0.4288629,0.592409,0.54592576,-0.46726634,0.612595,0.56186692,-0.4898129,0.6224,0.56789967,-0.44747452,0.576641,0.54712318,-0.43450165,0.583583,0.54604145,-0.46161204,0.601128,0.55070337,-0.48291407,0.605783,0.55989946,-0.45214389,0.559821,0.53484708,-0.43361795,0.563469,0.53287094,-0.45218778,0.576964,0.5262335,-0.4647944,0.580912
0.48510995,-0.50422577,0.577395,0.50902614,-0.47773359,0.582828,0.48512426,-0.49828127,0.591937,0.50469598,-0.48963673,0.613314,0.50269788,-0.47143885,0.609663,0.51289097,-0.46795469,0.614688,0.54938394,-0.44949406,0.605178,0.53096958,-0.43772949,0.613898,0.52074196,-0.43114011,0.618257,0.52085215,-0.45380855,0.633422,0.54922228,-0.44688673,0.589344,0.52050638,-0.42850612,0.591705,0.52325147,-0.46689921,0.611867,0.5390922,-0.48944777,0.621672,0.54652582,-0.44708132,0.575894,0.52492467,-0.43413757,0.582865,0.52308544,-0.46123906,0.600389,0.52780855,-0.48256509,0.605073,0.5382306,-0.45172926,0.559045,0.51293593,-0.43322653,0.562718,0.51063468,-0.45178662,0.576197,0.50402785,-0.46438138,0.580131
0.4639785,-0.5041692,0.577182,0.48808517,-0.47762621,0.582697,0.46424124,-0.49817436,0.59181,0.48295907,-0.4897022,0.613396,0.48085119,-0.47185874,0.610206,0.49047852,-0.46847998,0.615378,0.52897969,-0.449526,0.605221,0.50962769,-0.43785922,0.61408,0.49889749,-0.43131584,0.618509,0.49799264,-0.45398408,0.633667,0.52855504,-0.44686243,0.589312,0.49918613,-0.4285713,0.591795,0.50111305,-0.46691371,0.611886,0.51678344,-0.48939738,0.621608,0.52560765,-0.44700369,0.575794,0.50327133,-0.43416583,0.582903,0.50063972,-0.46122293,0.600368,0.5053368,-0.48249007,0.604979,0.51695793,-0.45157408,0.558853,0.491506,-0.43316956,0.562644,0.48784713,-0.45042931,0.576079,0.47932404,-0.46140407,0.579955
0.50288328,-0.52412227,0.600432,0.5174312,-0.48622496,0.595283,0.51075558,-0.5140035,0.612572,0.50435637,-0.50887884,0.626827,0.4877186,-0.4916436,0.621964,0.4841837,-0.48419928,0.622499,0.53600665,-0.43653288,0.605867,0.49966077,-0.43797184,0.605916,0.48054448,-0.43872812,0.605941,0.47973854,-0.46548483,0.617718,0.53301589,-0.43787086,0.589107,0.48709823,-0.4264626,0.580896,0.48239667,-0.45886645,0.599106,0.49306318,-0.479741,0.607792,0.52937994,-0.44240369,0.57572,0.49220059,-0.4350323,0.573095,0.48459012,-0.45454364,0.588987,0.48442095,-0.47416777,0.596396,0.52058713,-0.45354892,0.560521,0.48410066,-0.44075804,0.55603,0.47899651,-0.44618513,0.568064,0.47126401,-0.45559251,0.574311
0.51522669,-0.53831516,0.616743,0.5190357,-0.49206975,0.604354,0.51935692,-0.52438548,0.628387,0.51155474,-0.51830479,0.638112,0.49433148,-0.50836936,0.638324,0.487371,-0.49911335,0.636874,0.52693767,-0.43782669,0.608293,0.48294789,-0.43573081,0.60426,0.46046763,-0.43469291,0.602244,0.45585084,-0.45778309,0.609889,0.51941046,-0.43787518,0.589495,0.4720706,-0.41066515,0.575382,0.45635243,-0.42903373,0.588576,0.45799694,-0.45184723,0.597823,0.51292926,-0.44179568,0.574994,0.47128672,-0.42629937,0.567539,0.46222688,-0.44627862,0.579186,0.46584688,-0.46754174,0.586848,0.50458793,-0.45373559,0.559545,0.459882,-0.44249039,0.551107,0.4577522,-0.45736967,0.55978,0.4565965,-0.47007412,0.566112
0.52056594,-0.54519875,0.629509,0.50092527,-0.48889316,0.613078,0.52583424,-0.53190313,0.641766,0.49840529,-0.51885803,0.64401,0.48789802,-0.52055266,0.654269,0.47728055,-0.51033803,0.651167,0.48999442,-0.43329295,0.614396,0.45458913,-0.40084431,0.60817,0.43681727,-0.38455613,0.605057,0.42241846,-0.3712917,0.604802,0.4832372,-0.43148881,0.59337,0.42795264,-0.43831834,0.575128,0.40700711,-0.45392052,0.579714,0.40960369,-0.47758235,0.587752,0.47884611,-0.43396743,0.577351,0.43169123,-0.43269687,0.56674,0.41798729,-0.44837735,0.57106,0.42385526,-0.46503951,0.57707,0.47579447,-0.44433793,0.560692,0.43225545,-0.44263159,0.552201,0.43165596,-0.45419086,0.555342,0.43230119,-0.46539175,0.559549
0.52241189,-0.5492659,0.636512,0.49192726,-0.49099554,0.615567,0.51541195,-0.52877874,0.646678,0.4866169,-0.51854351,0.643253,0.47539911,-0.52037006,0.653365,0.4627572,-0.50840607,0.647851,0.47551587,-0.43081837,0.61056,0.43886611,-0.39789084,0.602877,0.42052966,-0.3814167,0.599036,0.40535912,-0.36780035,0.597765,0.46943124,-0.42959514,0.590444,0.41389513,-0.43587634,0.571132,0.39039187,-0.4485995,0.571867,0.39258709,-0.47135871,0.579083,0.46593442,-0.43282519,0.575526,0.41795439,-0.43103688,0.563759,0.40208362,-0.44417931,0.564774,0.40761813,-0.45994765,0.56993,0.46461368,-0.44467221,0.560851,0.41896658,-0.44093845,0.549441,0.41663057,-0.45019719,0.54987,0.41751459,-0.4612719,0.554053
0.5208659,-0.54939202,0.638019,0.49157849,-0.49202982,0.616702,0.51386506,-0.5299091,0.647943,0.48501564,-0.51837248,0.642711,0.47351341,-0.52031458,0.652481,0.46025073,-0.50795169,0.646161,0.47438416,-0.43147176,0.611087,0.43274934,-0.40240395,0.602896,0.41159207,-0.38934214,0.598801,0.39327536,-0.37996572,0.597415,0.46846993,-0.43031135,0.591132,0.4127277,-0.43641664,0.57132,0.38948013,-0.4494552,0.572308,0.39195312,-0.47243018,0.579785,0.46515817,-0.43361743,0.576375,0.41682072,-0.43164235,0.564087,0.40120039,-0.44502734,0.565316,0.40704588,-0.46101391,0.57077,0.46414577,-0.44560852,0.561949,0.41832249,-0.44097253,0.550084,0.41530644,-0.45046695,0.550669,0.41565368,-0.46182279,0.555072
0.50563816,-0.54521861,0.638022,0.48145391,-0.48976048,0.616397,0.50430497,-0.52992423,0.647201,0.47146287,-0.5134692,0.640484,0.46290823,-0.51949139,0.647678,0.45465596,-0.50570472,0.640085,0.47195954,-0.42923565,0.609613,0.42494514,-0.40338682,0.59958,0.40261119,-0.39160604,0.594563,0.38892141,-0.38157602,0.595501,0.46575586,-0.4272515,0.59046,0.40682466,-0.42360777,0.569017,0.38514752,-0.4361125,0.573919,0.38506385,-0.45959259,0.583214,0.46263525,-0.42702386,0.576386,0.4146561,-0.42923226,0.56227,0.40165878,-0.44544088,0.56684,0.40918685,-0.46340469,0.574365,0.46185653,-0.43865841,0.56282,0.41565859,-0.43736685,0.549183,0.41692446,-0.45116212,0.552298,0.42550892,-0.46483307,0.558305
0.51530578,-0.54759705,0.637643,0.49061343,-0.49291822,0.616307,0.51318712,-0.52868836,0.647607,0.48766319,-0.52171657,0.646989,0.47272776,-0.53208716,0.658539,0.45806418,-0.52405824,0.654562,0.47436037,-0.43292893,0.610727,0.43335315,-0.40438261,0.602569,0.41171777,-0.39162965,0.59849,0.3894565,-0.38155565,0.594567,0.46481787,-0.43967166,0.590717,0.40530648,-0.42399968,0.569729,0.37862337,-0.43142293,0.567119,0.37888432,-0.45203267,0.573892,0.45815676,-0.44618191,0.575915,0.40626636,-0.4396468,0.561663,0.39242325,-0.4484855,0.559767,0.39108219,-0.46207455,0.564764,0.45326029,-0.46104747,0.561438,0.40995637,-0.45494364,0.550669,0.39332182,-0.45478492,0.549002,0.38214639,-0.45845136,0.552145
0.51498054,-0.54729006,0.638111,0.49047457,-0.49370717,0.616541,0.51297893,-0.52816157,0.647655,0.48771113,-0.52202413,0.647436,0.47437521,-0.53394148,0.660834,0.46015519,-0.5264505,0.65755,0.47411854,-0.43345218,0.61025,0.43423515,-0.40568291,0.603402,0.41285598,-0.39344366,0.599978,0.3904107,-0.38221686,0.595144,0.4647801,-0.43963594,0.590669,0.40656415,-0.42598474,0.572459,0.37788471,-0.43148379,0.56699,0.37753462,-0.4503615,0.57186,0.45841452,-0.44643292,0.576239,0.40897667,-0.4425798,0.56541,0.39335985,-0.4495559,0.561103,0.39038349,-0.46124901,0.563755,0.45390857,-0.46170689,0.562241,0.41100012,-0.45610192,0.552071,0.39292062,-0.45432102,0.548442,0.38108677,-0.45718015,0.550614
0.52405949,-0.5443661,0.631351,0.50813512,-0.48966214,0.610467,0.52723254,-0.52908522,0.64149,0.50928675,-0.5202743,0.646066,0.49466523,-0.53132345,0.657472,0.48011681,-0.52759308,0.655691,0.49267974,-0.43076402,0.605478,0.45188738,-0.40349347,0.599105,0.43023473,-0.39167022,0.595918,0.40989318,-0.38031247,0.592073,0.4821426,-0.43316303,0.585419,0.43382036,-0.40263119,0.567547,0.4054607,-0.40945558,0.563657,0.40290561,-0.42669361,0.568901,0.47520176,-0.43904195,0.570542,0.42572815,-0.4380008,0.560163,0.41103808,-0.44646577,0.557215,0.40817823,-0.45894456,0.560228,0.47018114,-0.45333055,0.555908,0.42730876,-0.44957485,0.545992,0.41000154,-0.44936934,0.543411,0.40238108,-0.45349828,0.5459
0.54195549,-0.53814764,0.637642,0.52433788,-0.48827234,0.613692,0.54189271,-0.52072852,0.645959,0.52312352,-0.51847129,0.647492,0.50684643,-0.52813993,0.656277,0.49103398,-0.52289901,0.652502,0.50306527,-0.42877468,0.603912,0.45417677,-0.41054086,0.586735,0.43257722,-0.41630553,0.578147,0.42882697,-0.42562701,0.572134,0.49516025,-0.43395784,0.584965,0.44302305,-0.40130609,0.563308,0.4158034,-0.41020319,0.560508,0.4148253,-0.42963533,0.567462,0.49057669,-0.44192762,0.571241,0.43840989,-0.44048179,0.556951,0.42260875,-0.4484702,0.554924,0.42020552,-0.46097027,0.559885,0.48872192,-0.45831001,0.558439,0.44123043,-0.44925252,0.545166,0.42306956,-0.44631362,0.543222,0.41218109,-0.45465077,0.547139
0.56086465,-0.53530292,0.639464,0.54677392,-0.48939736,0.615106,0.5705112,-0.51767889,0.64751,0.54634275,-0.51998308,0.64938,0.53030139,-0.52925853,0.657667,0.51473797,-0.52403697,0.653922,0.52492295,-0.4293015,0.604654,0.47557458,-0.41053387,0.586725,0.45305644,-0.41602686,0.57776,0.44958213,-0.42138158,0.571483,0.51719361,-0.43464406,0.58589,0.46458856,-0.40165375,0.563796,0.43714087,-0.41049227,0.560903,0.43567685,-0.42966117,0.567987,0.51166676,-0.44126263,0.572349,0.4598332,-0.44098795,0.557591,0.44352565,-0.44892277,0.555484,0.44097112,-0.46155978,0.560601,0.51117542,-0.45944749,0.559825,0.4624058,-0.45007906,0.546169,0.44485028,-0.44686083,0.544154,0.43419331,-0.45298722,0.548179
0.57688795,-0.53541677,0.6396,0.55723114,-0.48925971,0.614933,0.57575262,-0.51762693,0.647445,0.55703351,-0.51983735,0.649198,0.5410739,-0.52884972,0.657159,0.52554484,-0.52352809,0.653287,0.53494399,-0.42882154,0.603978,0.48612569,-0.41040582,0.586542,0.46349299,-0.41607367,0.577825,0.45982467,-0.42157402,0.571744,0.52732964,-0.43424123,0.585347,0.47441158,-0.40100474,0.562885,0.4462935,-0.40923643,0.559187,0.4451556,-0.4285148,0.565982,0.52303273,-0.44246838,0.57194,0.46962074,-0.44035762,0.556794,0.45315821,-0.44831665,0.554734,0.45062335,-0.46108719,0.560027,0.52160653,-0.45928089,0.559622,0.47212726,-0.44964066,0.545637,0.45435558,-0.44869957,0.543652,0.44392213,-0.45267734,0.547804
0.5851087,-0.54000997,0.645632,0.57122995,-0.48774829,0.617252,0.58248396,-0.51960374,0.650775,0.56392573,-0.51063054,0.648567,0.54398946,-0.50917283,0.650515,0.52790668,-0.4973529,0.643616,0.55407122,-0.42036625,0.599889,0.51193961,-0.39543094,0.58328,0.48626726,-0.40015384,0.574975,0.47721474,-0.40944605,0.57152,0.54766639,-0.42713162,0.583212,0.49467114,-0.39154596,0.555426,0.46386874,-0.37085066,0.539217,0.44018297,-0.37241521,0.533113,0.54394551,-0.43693334,0.571701,0.48475525,-0.42703214,0.550908,0.46667301,-0.43513175,0.551786,0.46263998,-0.45039058,0.560532,0.54242108,-0.45656562,0.562197,0.48781463,-0.44719938,0.543266,0.4919627,-0.46072818,0.543434,0.50949492,-0.47401939,0.550162
0.60134951,-0.53903311,0.645558,0.59237397,-0.4876021,0.617067,0.61126103,-0.51812078,0.650638,0.58615264,-0.51108797,0.649148,0.56632728,-0.50932155,0.650705,0.55056658,-0.4976875,0.644049,0.5747686,-0.42011889,0.599536,0.53297239,-0.39521332,0.582959,0.50679817,-0.39994157,0.57467,0.49706463,-0.40911435,0.571057,0.56847565,-0.42689873,0.582894,0.5153672,-0.39129148,0.555065,0.48449763,-0.37058518,0.538831,0.46042639,-0.37202262,0.532551,0.56486942,-0.43671934,0.571421,0.50510421,-0.42677789,0.55058,0.4866549,-0.43469093,0.551227,0.48250576,-0.44988437,0.559902,0.56351996,-0.45638777,0.561978,0.50807223,-0.44700182,0.543026,0.51190166,-0.46037465,0.543017,0.52954025,-0.47360668,0.549683
0.59681172,-0.51350222,0.651321,0.59413755,-0.46814396,0.619404,0.60289821,-0.49015757,0.652926,0.58249244,-0.47315516,0.643875,0.56943927,-0.46017136,0.640755,0.55822933,-0.44571186,0.629983,0.59831181,-0.40282742,0.594756,0.55234936,-0.36609518,0.565778,0.52939531,-0.34775636,0.55129,0.50448777,-0.34465483,0.546416,0.58979213,-0.41460363,0.581121,0.53291901,-0.37426429,0.548082,0.50004866,-0.35095248,0.52881,0.47578031,-0.34937271,0.523499,0.58294456,-0.42806945,0.572389,0.51858351,-0.40148104,0.545675,0.50143582,-0.40154482,0.5493,0.49262634,-0.41011989,0.561535,0.57507318,-0.45119932,0.566725,0.51827465,-0.41543593,0.542694,0.5172819,-0.4159931,0.544871,0.53612927,-0.42841143,0.554172
0.58457422,-0.49756791,0.638998,0.58791933,-0.44515798,0.607851,0.58585813,-0.46589899,0.638376,0.57215645,-0.44767017,0.627851,0.55943975,-0.42921906,0.617401,0.5516435,-0.41338866,0.604925,0.59193125,-0.37836332,0.581118,0.55546814,-0.34035814,0.549906,0.53722793,-0.32131953,0.534301,0.51732964,-0.32036158,0.532812,0.59073243,-0.39157146,0.570494,0.54406252,-0.35068671,0.535887,0.51688236,-0.32690531,0.515701,0.49683949,-0.32797242,0.513958,0.58953876,-0.40633695,0.564178,0.52960417,-0.37944438,0.53497,0.52058821,-0.38363079,0.543977,0.51547297,-0.39472512,0.55937,0.58760389,-0.43132197,0.561281,0.53155221,-0.39562131,0.534889,0.52939024,-0.39974723,0.54116,0.54775231,-0.41365992,0.55288
0.57348455,-0.44500378,0.629607,0.59109901,-0.41178108,0.603452,0.58157525,-0.42299036,0.629873,0.59531168,-0.40386586,0.624671,0.60435482,-0.38302099,0.616322,0.61026603,-0.36923878,0.606469,0.61212212,-0.35931866,0.581968,0.59523622,-0.32156582,0.557051,0.57640004,-0.30368433,0.544592,0.5609205,-0.30298138,0.547964,0.6089055,-0.37311386,0.572081,0.59428786,-0.32526451,0.541194,0.56308613,-0.304662,0.523176,0.54711168,-0.30980381,0.525398,0.60502627,-0.38739286,0.565983,0.59149015,-0.34208266,0.53997,0.5845184,-0.31898992,0.526661,0.57852271,-0.31646566,0.530344,0.5978938,-0.40994469,0.562602,0.55224537,-0.37230432,0.538674,0.54626746,-0.38217479,0.548272,0.55773204,-0.39961691,0.560415
0.58259287,-0.44673144,0.638179,0.60330721,-0.41771656,0.613656,0.58902602,-0.42357843,0.636339,0.59065953,-0.3915828,0.624858,0.58025649,-0.3641901,0.605461,0.58386002,-0.34842218,0.596983,0.62604219,-0.37032276,0.590953,0.60694303,-0.33545373,0.567259,0.59361141,-0.31824262,0.555412,0.59092545,-0.31362863,0.560941,0.62625603,-0.38691225,0.584243,0.605001,-0.34552842,0.55372,0.58525172,-0.32321846,0.535914,0.57893377,-0.32208275,0.540005,0.62508693,-0.40297431,0.580632,0.60885278,-0.36443838,0.553924,0.60061571,-0.34461132,0.540259,0.59582876,-0.34820486,0.545661,0.62090875,-0.42673063,0.579975,0.58686076,-0.3890659,0.555463,0.58238654,-0.39635053,0.566913,0.58055798,-0.41358981,0.579979
0.60974524,-0.4121256,0.631368,0.63415675,-0.39573679,0.613405,0.61542913,-0.39158727,0.630242,0.62565679,-0.36618026,0.621234,0.62153215,-0.33971019,0.601343,0.62733858,-0.32526948,0.592205,0.6559264,-0.35919526,0.597046,0.65214013,-0.32661545,0.577499,0.64690148,-0.31002556,0.567725,0.65427498,-0.30538441,0.576534,0.65828584,-0.37665426,0.591859,0.65414645,-0.33919878,0.567014,0.64325396,-0.31872877,0.55252,0.64437694,-0.31894356,0.560179,0.65871557,-0.3927608,0.58899,0.65728457,-0.35791228,0.567081,0.65678877,-0.33987596,0.555872,0.66198728,-0.34383509,0.564937,0.65611062,-0.41527081,0.588241,0.63547928,-0.37944653,0.567709,0.63688863,-0.38639438,0.581604,0.63644628,-0.40230727,0.594218
0.6123631,-0.39177538,0.609806,0.64977929,-0.38121367,0.610202,0.62112817,-0.37762177,0.618148,0.6394543,-0.35509171,0.620101,0.64119668,-0.32950389,0.607504,0.65700643,-0.31838802,0.609462,0.68935247,-0.35655303,0.620756,0.70699602,-0.32929988,0.620396,0.71295849,-0.31525281,0.620217,0.72818239,-0.31208726,0.635348,0.69206227,-0.36930383,0.610677,0.70984779,-0.33729947,0.605586,0.71322436,-0.32048264,0.602616,0.72310032,-0.32338653,0.616268,0.6915515,-0.38085104,0.602354,0.7119423,-0.35265471,0.600479,0.72310591,-0.33735329,0.59952,0.73914867,-0.34421309,0.615344,0.68561422,-0.39659565,0.59237,0.68273422,-0.37002018,0.588572,0.68802238,-0.37941672,0.604322,0.68368531,-0.39454138,0.611766
0.61997806,-0.38975484,0.606661,0.6691205,-0.38016974,0.608531,0.63991642,-0.3760982,0.615654,0.65989474,-0.35433182,0.618774,0.65968819,-0.32780295,0.604368,0.67766587,-0.3176953,0.608136,0.71025357,-0.35675752,0.621112,0.73074058,-0.33029564,0.622272,0.73821656,-0.31659268,0.622853,0.75498905,-0.31356236,0.638351,0.71281493,-0.3693631,0.610775,0.7334756,-0.33826082,0.607312,0.73872395,-0.32190579,0.605292,0.75009037,-0.32497914,0.619303,0.71208227,-0.38070689,0.602126,0.73527814,-0.35346517,0.601859,0.74795719,-0.33859237,0.601722,0.76570962,-0.34566693,0.617943,0.70569143,-0.39603527,0.591533,0.70513281,-0.37035212,0.5891,0.71129756,-0.37975387,0.604859,0.70657687,-0.39458007,0.611826
0.64322208,-0.39085931,0.60856,0.69165326,-0.38116531,0.610435,0.66254615,-0.37705346,0.617496,0.68293004,-0.35523643,0.620532,0.68306795,-0.32888217,0.606441,0.70160851,-0.31889859,0.610454,0.73212002,-0.35771354,0.622949,0.75360625,-0.33122213,0.624061,0.76164676,-0.31750921,0.624618,0.77951914,-0.31448857,0.640125,0.73489846,-0.37036309,0.612683,0.752674,-0.34048493,0.609202,0.75575226,-0.32553877,0.607171,0.76582286,-0.3303639,0.6212,0.73438286,-0.38174553,0.604092,0.75840092,-0.35446728,0.603785,0.77152765,-0.33957998,0.603628,0.79048111,-0.3466575,0.619862,0.7283198,-0.39712246,0.593567,0.72843075,-0.37140331,0.591102,0.7354616,-0.38081114,0.606884,0.73091633,-0.39564901,0.61387
0.72119043,-0.26566964,0.649801,0.73307663,-0.27584303,0.623165,0.73510984,-0.25175497,0.639943,0.72898987,-0.21781732,0.628367,0.70667415,-0.1849949,0.605846,0.70613129,-0.16692852,0.597991,0.75656575,-0.26633673,0.588875,0.71776702,-0.23213711,0.557808,0.69837383,-0.21493707,0.542275,0.6858706,-0.20476734,0.545985,0.74458069,-0.28664625,0.591218,0.70191819,-0.24927223,0.556851,0.698879,-0.24364703,0.575293,0.70228866,-0.2420411,0.593513,0.73356131,-0.30279405,0.59522,0.69367461,-0.26679241,0.562049,0.67326761,-0.24837686,0.545078,0.6641319,-0.23568534,0.548914,0.7182571,-0.32083339,0.603956,0.6924874,-0.28150428,0.574448,0.69821307,-0.27584062,0.58594,0.70950361,-0.28744306,0.600782
0.73726866,-0.27394287,0.66908,0.74114454,-0.27844628,0.63895,0.7507941,-0.25908584,0.658723,0.75348838,-0.24779004,0.641022,0.75382401,-0.23650456,0.620887,0.75884055,-0.23410799,0.609227,0.76182785,-0.26258794,0.601133,0.71126452,-0.22746816,0.567842,0.68601869,-0.20999768,0.551196,0.66726534,-0.20668069,0.552992,0.74974791,-0.28254457,0.602811,0.69451508,-0.24157462,0.56547,0.68602919,-0.24012968,0.581733,0.68778026,-0.24185624,0.600345,0.73881141,-0.2988538,0.606537,0.68795084,-0.25895429,0.570814,0.662011,-0.23878946,0.552537,0.64743591,-0.22832279,0.55425,0.72396371,-0.31791155,0.615464,0.68765755,-0.27459235,0.583867,0.69988651,-0.26596758,0.593889,0.70931356,-0.25975413,0.608895
0.79136997,-0.25038173,0.698871,0.78627056,-0.26372148,0.665784,0.79919252,-0.23672223,0.682136,0.78704883,-0.20073815,0.661601,0.76641959,-0.16862113,0.637818,0.75118969,-0.14851058,0.6195,0.78978067,-0.25730492,0.617686,0.73039188,-0.22473493,0.578936,0.69199629,-0.20120574,0.559561,0.67929891,-0.19156018,0.557074,0.77849775,-0.27843262,0.626098,0.71316093,-0.24303227,0.585819,0.70520767,-0.23384262,0.597661,0.7110331,-0.23106694,0.615948,0.76946365,-0.29477982,0.635594,0.70721329,-0.26034708,0.595045,0.674254,-0.24170775,0.574299,0.65791252,-0.22715063,0.571681,0.75926881,-0.31230456,0.651843,0.71560819,-0.27519659,0.616816,0.72188071,-0.2678508,0.623479,0.7369037,-0.25914255,0.638479
0.81997446,-0.24370165,0.71084,0.80935101,-0.25503126,0.675854,0.82272245,-0.22786133,0.691342,0.80384204,-0.19052335,0.667009,0.78197409,-0.15882604,0.644244,0.76303109,-0.13858758,0.625067,0.80266538,-0.24450692,0.622787,0.73084391,-0.21258039,0.581952,0.69010012,-0.19012002,0.561535,0.67615417,-0.18007964,0.555649,0.79537196,-0.26764982,0.633891,0.71889838,-0.23328477,0.592488,0.70777705,-0.22349282,0.599836,0.71417905,-0.22107474,0.617119,0.79005799,-0.28577175,0.645751,0.71688534,-0.25177846,0.603351,0.67895404,-0.23359955,0.581658,0.65897658,-0.21864929,0.575488,0.78515321,-0.30563482,0.665099,0.73247197,-0.26860967,0.628947,0.7317085,-0.25991596,0.632485,0.74557826,-0.25094824,0.646634
0.82096922,-0.24256783,0.717519,0.80591847,-0.24981666,0.681562,0.82823451,-0.22824685,0.700954,0.81133067,-0.19054975,0.681281,0.79357978,-0.15960485,0.659853,0.77938592,-0.13943343,0.642316,0.80688272,-0.24120979,0.63128,0.74640188,-0.20473,0.591271,0.70730097,-0.18183063,0.571267,0.69233638,-0.1738734,0.567027,0.79415392,-0.26139909,0.638434,0.72672181,-0.2217088,0.595991,0.71607204,-0.21304278,0.605505,0.72213345,-0.21092371,0.623844,0.78416343,-0.27721107,0.647119,0.72050391,-0.23911378,0.604966,0.68685113,-0.218952,0.583399,0.66834909,-0.20451004,0.57881,0.77327796,-0.29452567,0.662827,0.72858146,-0.25431292,0.626496,0.73251682,-0.24406684,0.630892,0.74728282,-0.23520197,0.645564
0.81878442,-0.24322117,0.714523,0.81332846,-0.2525258,0.677473,0.82647076,-0.22759843,0.699039,0.80953743,-0.19079604,0.680068,0.78488689,-0.16060195,0.660612,0.77181238,-0.14008931,0.644508,0.81695419,-0.22829659,0.627603,0.74224028,-0.19576916,0.587383,0.70112862,-0.17938853,0.567273,0.6858937,-0.17204662,0.562692,0.80680218,-0.2522026,0.633033,0.72320572,-0.21902609,0.591045,0.71119573,-0.21144968,0.600144,0.71633787,-0.21012436,0.618188,0.79883743,-0.27154368,0.640386,0.72701055,-0.23921089,0.59886,0.69075706,-0.22303214,0.577615,0.67048778,-0.20899913,0.572917,0.79018708,-0.29405811,0.654667,0.73281777,-0.25520994,0.618135,0.73246323,-0.24645638,0.62326,0.74008374,-0.23596975,0.638105
0.81786014,-0.23976303,0.713334,0.81415321,-0.23675131,0.676967,0.82294407,-0.22118628,0.697545,0.80272323,-0.17490676,0.675586,0.77672259,-0.14356186,0.653372,0.75662565,-0.12330828,0.63464,0.815614,-0.21899869,0.627293,0.74343656,-0.19538483,0.588403,0.70313261,-0.17982124,0.568958,0.68880752,-0.17288859,0.565117,0.80634094,-0.24330512,0.633347,0.72571747,-0.21870211,0.59216,0.71406577,-0.21189127,0.601858,0.7188562,-0.21092384,0.619801,0.79916588,-0.2626091,0.64116,0.73204449,-0.24051431,0.602051,0.69580659,-0.22485026,0.582041,0.6771425,-0.21110414,0.578449,0.79152259,-0.28452864,0.655888,0.73495344,-0.25483556,0.619549,0.73489209,-0.24709592,0.625053,0.7432937,-0.2376623,0.639977
0.83303428,-0.24901789,0.719255,0.83612691,-0.24810849,0.681934,0.83161755,-0.22833233,0.701501,0.80872924,-0.19151822,0.680606,0.78199168,-0.16138095,0.660508,0.76877907,-0.14091395,0.644721,0.82530602,-0.21499248,0.629056,0.74349203,-0.19900371,0.589238,0.69844536,-0.18651574,0.569329,0.68582746,-0.17401518,0.563572,0.82752369,-0.24295514,0.63717,0.73511423,-0.22539625,0.596069,0.71550964,-0.22160754,0.603161,0.71778829,-0.22237015,0.620254,0.82969887,-0.26613139,0.646751,0.74655931,-0.2531043,0.609885,0.70855811,-0.24513524,0.591023,0.70749456,-0.24236695,0.586347,0.83313167,-0.29413237,0.66373,0.7627476,-0.2651539,0.626709,0.75550802,-0.25970269,0.630439,0.76174119,-0.25797837,0.644915
0.83201721,-0.24901642,0.716921,0.83145038,-0.24722575,0.679311,0.82951232,-0.22515377,0.699469,0.80663313,-0.19234959,0.680846,0.78193226,-0.16196709,0.661859,0.76902694,-0.14158991,0.646885,0.81861314,-0.21579159,0.626564,0.73497516,-0.1993286,0.585423,0.69168606,-0.18503494,0.564852,0.67873812,-0.1734424,0.558673,0.82214793,-0.24197829,0.6342,0.72955521,-0.22413058,0.592731,0.71070072,-0.2199487,0.599753,0.71462608,-0.22087329,0.616958,0.82383505,-0.26489933,0.643412,0.74033737,-0.25150948,0.606044,0.73250159,-0.2539099,0.61223,0.75538127,-0.2592944,0.627256,0.82679553,-0.29259096,0.659993,0.75656997,-0.26354854,0.622904,0.74935829,-0.25807567,0.626598,0.75565023,-0.25635585,0.641084
0.8322749,-0.24456079,0.718095,0.82750297,-0.23559716,0.68034,0.83132132,-0.22299851,0.701253,0.80786724,-0.1804102,0.685074,0.78740458,-0.15054208,0.666857,0.77607065,-0.13058082,0.653463,0.81742888,-0.20603862,0.628219,0.74163924,-0.19485231,0.590573,0.69868651,-0.18645919,0.57175,0.68665603,-0.17732109,0.566841,0.81700429,-0.23298192,0.635056,0.72598667,-0.21798748,0.593194,0.71142748,-0.21525171,0.600564,0.71868732,-0.22013998,0.61802,0.81721048,-0.25501801,0.64362,0.73782876,-0.24208833,0.605625,0.7271184,-0.24393397,0.612096,0.74679103,-0.24957936,0.629414,0.81866914,-0.28123437,0.659451,0.7531043,-0.26484249,0.622394,0.74602275,-0.2602603,0.626335,0.75383998,-0.25815163,0.640906
0.83358212,-0.24396605,0.7192,0.82714346,-0.23626528,0.681394,0.83252822,-0.22226132,0.702445,0.80733441,-0.18077048,0.685567,0.78596585,-0.1508849,0.667414,0.77244125,-0.13060758,0.652688,0.81718724,-0.20692906,0.629337,0.73690812,-0.19487914,0.591602,0.69705335,-0.18602848,0.572735,0.68553419,-0.17905647,0.567804,0.81642729,-0.2338097,0.636049,0.7243451,-0.21815559,0.594112,0.70658149,-0.21658896,0.601484,0.71929747,-0.22010494,0.618968,0.81637901,-0.25577691,0.644515,0.73690447,-0.2425025,0.606409,0.72625072,-0.24427156,0.61288,0.74611966,-0.25002503,0.630344,0.81757066,-0.28188498,0.660237,0.75293418,-0.26928788,0.624554,0.7451733,-0.26944491,0.629299,0.7523876,-0.26654238,0.643697
0.83377539,-0.24346156,0.719376,0.82670396,-0.2369651,0.681628,0.83279224,-0.22171776,0.702804,0.80742283,-0.18136656,0.68585,0.78597221,-0.1514783,0.667804,0.77111665,-0.13112694,0.652642,0.81709636,-0.20791727,0.629843,0.73673645,-0.19553294,0.592044,0.69671672,-0.18627873,0.573145,0.68404388,-0.18102218,0.568332,0.81590656,-0.23469488,0.636351,0.72348472,-0.21858309,0.594378,0.70619497,-0.21694204,0.601965,0.71956263,-0.22034967,0.619529,0.81551777,-0.25655355,0.644645,0.73595297,-0.24293988,0.606439,0.7234715,-0.24493122,0.61309,0.74199894,-0.2509455,0.631011,0.81632518,-0.28249664,0.660152,0.75591109,-0.27855177,0.628148,0.7510618,-0.27914099,0.633977,0.75566637,-0.28120276,0.647501
0.83487975,-0.24339581,0.720394,0.82737378,-0.23769326,0.682662,0.83386132,-0.22157732,0.703879,0.80790756,-0.18188466,0.686504,0.78627378,-0.15195691,0.668378,0.77048048,-0.13159673,0.652961,0.81786229,-0.20876267,0.630962,0.73607677,-0.19588955,0.593144,0.69454723,-0.18631826,0.574235,0.68307469,-0.18196331,0.569456,0.81650248,-0.23552564,0.637407,0.7238428,-0.21916218,0.595423,0.70726291,-0.21741194,0.603074,0.72225765,-0.22069295,0.620662,0.81598057,-0.2573607,0.645647,0.73631758,-0.24356355,0.607411,0.72388951,-0.24554993,0.614115,0.74197799,-0.25163165,0.632167,0.81664385,-0.28325731,0.661087,0.756473,-0.27901327,0.629137,0.75162638,-0.27960693,0.635023,0.75617341,-0.28165057,0.64855
0.82904204,-0.24115671,0.71667,0.82145114,-0.23678585,0.679051,0.82737957,-0.21955735,0.698647,0.804263,-0.18137504,0.683765,0.78407201,-0.15182537,0.666895,0.76904214,-0.131653,0.652245,0.81028599,-0.20719944,0.625594,0.73002773,-0.1941582,0.588799,0.71828314,-0.18943737,0.59398,0.7455173,-0.18864147,0.607867,0.81031703,-0.2349167,0.633928,0.7184321,-0.21821882,0.592745,0.7023697,-0.21590556,0.599155,0.71740622,-0.21908951,0.616063,0.81167511,-0.2572317,0.643714,0.73364564,-0.24352608,0.606842,0.72129,-0.2448554,0.612515,0.73776464,-0.25055214,0.629434,0.81452274,-0.28380369,0.660982,0.75428787,-0.2791357,0.627536,0.74773394,-0.27875793,0.632102,0.75228351,-0.28081018,0.645643
0.83107583,-0.23662675,0.717834,0.82314423,-0.23618431,0.679959,0.82748758,-0.21419,0.699208,0.80327479,-0.17720777,0.680314,0.77973716,-0.14997665,0.663591,0.76479545,-0.12899773,0.647262,0.80874847,-0.2073688,0.62555,0.71996786,-0.18896064,0.587625,0.71640862,-0.18441774,0.591834,0.73034771,-0.1841624,0.59566,0.80897073,-0.23480198,0.63453,0.7159014,-0.2166438,0.593516,0.69585692,-0.21080816,0.59879,0.7138582,-0.21719297,0.615281,0.80971777,-0.25657223,0.644867,0.73139647,-0.24222098,0.608365,0.71846776,-0.24258226,0.613076,0.73555897,-0.24947596,0.629627,0.81302707,-0.28291088,0.66283,0.75552611,-0.28040147,0.629383,0.74772604,-0.27927495,0.633173,0.75223447,-0.27842575,0.646414
0.83112574,-0.23596748,0.717779,0.82275438,-0.23559317,0.67991,0.82714645,-0.21349584,0.698902,0.80243219,-0.17687242,0.68097,0.78209865,-0.14669585,0.665055,0.76566193,-0.1290959,0.648929,0.80782934,-0.20694157,0.6252,0.71898724,-0.18844231,0.587008,0.71168841,-0.1824755,0.590904,0.72162061,-0.18120949,0.594446,0.80829806,-0.23422875,0.634489,0.71533947,-0.21594485,0.593643,0.69540873,-0.21052336,0.598552,0.71176147,-0.21558958,0.614868,0.80932523,-0.2559911,0.64508,0.73127132,-0.24163532,0.608837,0.7171811,-0.24010862,0.613241,0.73500599,-0.24852866,0.629515,0.81167495,-0.28082635,0.663345,0.75662612,-0.28159348,0.630593,0.74846308,-0.28019667,0.63426,0.75258239,-0.27889413,0.647209
0.83361616,-0.23619256,0.719121,0.82360362,-0.2353353,0.680817,0.82876178,-0.21334979,0.700173,0.79991489,-0.17495552,0.67917,0.77814121,-0.14388693,0.661949,0.75863886,-0.12751877,0.645261,0.80773472,-0.20646675,0.625656,0.71849486,-0.18786956,0.586667,0.70975462,-0.18166159,0.589856,0.71679395,-0.17934057,0.592756,0.80776669,-0.23328699,0.634873,0.71420956,-0.21435792,0.593798,0.69454766,-0.20986724,0.59786,0.71000676,-0.21349308,0.613992,0.80858192,-0.25458905,0.645439,0.73012201,-0.23997491,0.608959,0.71642796,-0.23945297,0.612636,0.73345439,-0.24685043,0.628834,0.8121056,-0.28056789,0.663738,0.75662418,-0.28385153,0.631222,0.74921118,-0.2812518,0.634433,0.75183574,-0.28083336,0.647123
0.83315983,-0.23538411,0.718741,0.82306589,-0.23470836,0.680532,0.82790533,-0.2125114,0.699446,0.7960119,-0.17255677,0.67602,0.77077919,-0.14280498,0.658123,0.74892342,-0.12341261,0.64051,0.80644516,-0.20546579,0.625028,0.71625318,-0.1868843,0.584867,0.70500693,-0.18006093,0.587605,0.71150425,-0.17769663,0.590094,0.80738298,-0.23273315,0.634704,0.7143632,-0.21400868,0.593949,0.69414851,-0.20937615,0.597541,0.70845706,-0.21155991,0.613411,0.80880215,-0.25425626,0.64564,0.73250151,-0.24085195,0.609613,0.71730218,-0.23929884,0.612895,0.73274861,-0.24532733,0.628753,0.81284998,-0.28043543,0.664367,0.75762227,-0.28299901,0.631384,0.74811868,-0.28101585,0.634129,0.75182943,-0.27912228,0.646801
0.83243293,-0.23474534,0.718621,0.82187424,-0.23321248,0.680794,0.82675276,-0.21181596,0.6988,0.78955946,-0.17153012,0.673343,0.76472648,-0.14163594,0.653613,0.74381464,-0.12229332,0.635627,0.80676914,-0.20602822,0.624961,0.7147267,-0.18622746,0.583095,0.7021803,-0.17919027,0.585377,0.70185867,-0.17476558,0.587452,0.80799781,-0.23295323,0.635422,0.71614101,-0.21429162,0.595112,0.69518755,-0.2093618,0.598272,0.70882251,-0.21141274,0.613846,0.80997684,-0.25481225,0.646975,0.73564085,-0.24150342,0.611708,0.71972673,-0.23985541,0.614639,0.7335915,-0.2444084,0.63005,0.81445019,-0.2812259,0.66638,0.76016921,-0.28731796,0.633657,0.74275002,-0.28393559,0.629277,0.7424192,-0.27753574,0.638383
0.82215773,-0.24060068,0.711799,0.81149235,-0.24712119,0.673792,0.81228165,-0.22663509,0.692829,0.78543127,-0.19160963,0.674842,0.76269387,-0.16183234,0.657134,0.75541147,-0.14275454,0.645315,0.80160074,-0.21438377,0.618852,0.71498429,-0.19575807,0.577087,0.70337302,-0.18872221,0.580496,0.69945121,-0.18600674,0.583596,0.8043393,-0.242369,0.628205,0.71356642,-0.22304337,0.584749,0.69536289,-0.21711674,0.589124,0.70296558,-0.21699238,0.606216,0.80682093,-0.26563958,0.63886,0.71993861,-0.24651364,0.595338,0.70461203,-0.24080853,0.599027,0.71889215,-0.24604429,0.616983,0.81034802,-0.2938515,0.657221,0.75281062,-0.29145423,0.620004,0.74476741,-0.27903223,0.622022,0.75219965,-0.27302644,0.635902
0.8099291,-0.24981175,0.708618,0.80797329,-0.2458535,0.671739,0.8065827,-0.22556297,0.690046,0.77392642,-0.18944046,0.668422,0.74865533,-0.15860404,0.648055,0.74256173,-0.13950267,0.636957,0.80114501,-0.21277519,0.618228,0.71689189,-0.19381449,0.576943,0.70610604,-0.1893658,0.582082,0.70334576,-0.18626508,0.586753,0.80414035,-0.2407713,0.627505,0.71606579,-0.22243617,0.584617,0.69900958,-0.21775459,0.591166,0.70535902,-0.21922213,0.608736,0.80660464,-0.26409242,0.63801,0.7218643,-0.24585303,0.594804,0.70866793,-0.24375232,0.600342,0.71941054,-0.24776683,0.620001,0.80967374,-0.29243076,0.656025,0.75394903,-0.28888356,0.619117,0.74765095,-0.27703617,0.622572,0.75563497,-0.27112337,0.636901
0.80788322,-0.24968185,0.708113,0.80651649,-0.24558545,0.67131,0.80460376,-0.22535468,0.689501,0.773235,-0.18944785,0.668415,0.75130264,-0.15894225,0.649695,0.74897202,-0.1408855,0.641008,0.80015776,-0.21230866,0.617814,0.71678296,-0.19463432,0.576544,0.70610163,-0.18902223,0.581715,0.70266885,-0.18504843,0.586415,0.80331878,-0.2403314,0.627168,0.71601117,-0.22218172,0.584336,0.69857373,-0.21762764,0.590928,0.70434507,-0.21912936,0.608491,0.80587105,-0.26369851,0.637729,0.72177765,-0.24563801,0.594551,0.70817501,-0.24366239,0.600125,0.71658153,-0.24774896,0.619787,0.80895327,-0.29213226,0.6558,0.75372017,-0.2881201,0.618918,0.7474908,-0.27623974,0.622401,0.7555033,-0.27028468,0.636732
0.80817956,-0.24864713,0.70884,0.80586149,-0.2445015,0.671339,0.80309516,-0.22400652,0.688985,0.77024685,-0.18708639,0.665819,0.75096076,-0.15588358,0.647149,0.74694033,-0.13826835,0.638601,0.79275668,-0.20840402,0.615738,0.70569314,-0.19867438,0.573933,0.68711376,-0.19810785,0.576627,0.68760761,-0.19597221,0.579075,0.80019409,-0.23799149,0.626359,0.71231596,-0.22247705,0.583495,0.69270916,-0.21631319,0.587009,0.69758247,-0.21721394,0.603618,0.8056787,-0.26285645,0.638018,0.72151302,-0.24596764,0.594446,0.70475275,-0.24260086,0.597364,0.71216508,-0.24570314,0.616123,0.81096014,-0.29099736,0.657501,0.75031852,-0.28134364,0.620562,0.74110447,-0.26888037,0.622008,0.75370148,-0.26625572,0.635569
0.80740285,-0.24785168,0.708782,0.8040441,-0.24320463,0.671219,0.8018806,-0.22321947,0.688744,0.76899889,-0.18608301,0.665145,0.74856241,-0.15561799,0.646177,0.7451524,-0.13707872,0.637379,0.7912852,-0.20826932,0.61534,0.70425998,-0.19852829,0.573511,0.68518986,-0.19781135,0.575764,0.68523329,-0.19554445,0.577811,0.79766949,-0.23650121,0.626163,0.7094831,-0.22300212,0.583363,0.68915595,-0.21625121,0.586329,0.69468413,-0.21674919,0.602742,0.80382683,-0.26105835,0.637993,0.72103746,-0.24618253,0.594424,0.70360068,-0.24248571,0.596868,0.7103503,-0.24525723,0.615438,0.81057655,-0.29040695,0.657689,0.74871633,-0.27950195,0.6208,0.73950106,-0.26665927,0.621885,0.74929643,-0.26018697,0.635289
0.8067308,-0.24727399,0.708608,0.80310933,-0.24273418,0.67095,0.80093215,-0.22267459,0.688498,0.76827625,-0.18549735,0.664798,0.74777076,-0.15495621,0.645578,0.74374871,-0.13630728,0.636362,0.78991572,-0.20823629,0.614905,0.70261276,-0.19839197,0.573061,0.68331105,-0.19754325,0.575017,0.68324778,-0.19520385,0.576796,0.79637591,-0.23648752,0.625782,0.70671454,-0.22311617,0.582982,0.68549157,-0.2161486,0.585578,0.69271075,-0.21634794,0.601874,0.80180845,-0.25996184,0.637662,0.72018614,-0.24677378,0.594082,0.7021551,-0.24295365,0.596209,0.70751201,-0.24570912,0.614655,0.80964197,-0.28996845,0.657433,0.74500855,-0.276528,0.620562,0.73627987,-0.263274,0.621403,0.74776646,-0.25864638,0.634706
0.80547304,-0.24659392,0.707852,0.80189404,-0.24231039,0.670335,0.79940604,-0.22204475,0.687625,0.76650248,-0.18419656,0.663752,0.74656908,-0.15432307,0.644582,0.74278052,-0.13572564,0.635622,0.78862888,-0.20834369,0.614266,0.70033012,-0.19861665,0.572447,0.68194865,-0.1975581,0.574372,0.68197109,-0.1951389,0.576122,0.79528871,-0.23663266,0.625337,0.70563593,-0.22330318,0.582667,0.68629031,-0.21597035,0.58523,0.6931402,-0.21619125,0.60147,0.80088264,-0.26012484,0.637367,0.71894047,-0.24734504,0.593847,0.70007137,-0.24369286,0.595942,0.70703595,-0.24520896,0.614352,0.80830039,-0.28932606,0.657295,0.74412116,-0.27650727,0.62049,0.73551456,-0.26317349,0.621309,0.74702672,-0.25811647,0.63458
0.80209754,-0.24522245,0.704923,0.79785829,-0.24123506,0.667239,0.79490957,-0.22064239,0.683935,0.76369472,-0.18382147,0.660783,0.74395881,-0.15182412,0.641676,0.73724015,-0.13281557,0.630843,0.77983287,-0.21141446,0.610096,0.69050022,-0.20355134,0.568874,0.66563177,-0.20399406,0.567157,0.67808021,-0.20749802,0.582738,0.78847629,-0.23794842,0.62204,0.69636698,-0.22686587,0.58041,0.66845461,-0.21811204,0.578424,0.68260358,-0.21354121,0.59286,0.79499177,-0.2613472,0.634802,0.71354616,-0.24989952,0.592034,0.69213165,-0.24291697,0.590218,0.69494001,-0.24372938,0.606762,0.80488082,-0.28961954,0.655627,0.73980759,-0.27806479,0.619818,0.72800538,-0.26323288,0.617659,0.73990734,-0.25623412,0.629424
0.80051222,-0.24448533,0.703264,0.79684811,-0.24128952,0.665808,0.79330382,-0.22012043,0.682416,0.76336172,-0.1836014,0.660007,0.74431585,-0.15186104,0.640923,0.73731275,-0.13285974,0.629661,0.77949391,-0.21200816,0.609027,0.69309337,-0.20377774,0.567389,0.68213098,-0.19514457,0.567616,0.70569138,-0.19416423,0.582435,0.78695287,-0.24005882,0.620882,0.69514113,-0.22711376,0.57878,0.67018944,-0.21919368,0.579234,0.68605033,-0.21481351,0.594606,0.79376542,-0.26188456,0.633553,0.71138523,-0.25222831,0.590342,0.69241342,-0.24391762,0.590617,0.69632514,-0.24489719,0.608175,0.80438856,-0.28969448,0.654236,0.7373765,-0.27829021,0.617883,0.72750143,-0.26413927,0.617317,0.74005587,-0.2567998,0.629892
0.80051746,-0.24428492,0.703056,0.79627541,-0.24104367,0.66581,0.79300398,-0.21997612,0.682084,0.76081639,-0.18184941,0.657311,0.74090803,-0.15104686,0.63627,0.73233082,-0.13202455,0.624241,0.7797339,-0.21205618,0.609054,0.69444625,-0.20401739,0.567464,0.67865745,-0.19545279,0.567719,0.70447978,-0.19382676,0.581708,0.78783247,-0.23913373,0.621137,0.69583929,-0.2275696,0.57921,0.6709134,-0.21972953,0.579707,0.68620353,-0.21556179,0.595029,0.79479931,-0.26165833,0.633979,0.7109351,-0.25042096,0.59086,0.69267117,-0.24251259,0.591168,0.69862337,-0.24364607,0.608702,0.80528871,-0.28978132,0.654836,0.73831796,-0.2791134,0.618573,0.72841112,-0.26497265,0.618035,0.74062774,-0.25735624,0.630589
0.79953977,-0.2436363,0.702513,0.79592042,-0.24101713,0.665475,0.79171128,-0.2194322,0.681485,0.76030287,-0.18173389,0.656464,0.73991987,-0.1509296,0.635191,0.73145147,-0.13196431,0.6232,0.77953836,-0.21199436,0.608821,0.6948085,-0.20404466,0.567243,0.67942473,-0.19540379,0.567761,0.70475578,-0.19390134,0.582027,0.78783271,-0.23932446,0.62105,0.69594089,-0.22771668,0.579219,0.67140106,-0.22003877,0.580052,0.68680804,-0.2160939,0.595444,0.79493508,-0.26195336,0.633995,0.71017384,-0.25027606,0.590917,0.69245831,-0.24259097,0.591509,0.69878408,-0.24362043,0.60914,0.80515424,-0.28965047,0.654944,0.73854387,-0.27947947,0.618703,0.72886285,-0.26543899,0.618386,0.74094486,-0.25773538,0.631017
0.79863639,-0.2426724,0.701424,0.794352,-0.2406689,0.664487,0.78991637,-0.21867863,0.680029,0.75915592,-0.18167625,0.654231,0.73734175,-0.15118327,0.632361,0.72810346,-0.13180453,0.619642,0.77382042,-0.21642693,0.607469,0.68246652,-0.20672846,0.566315,0.67278619,-0.19449269,0.565059,0.69122551,-0.19359613,0.5769,0.78603677,-0.24064384,0.620185,0.69089851,-0.23457213,0.579046,0.66770827,-0.22142725,0.577664,0.68327079,-0.21833675,0.592111,0.79378751,-0.26376419,0.633522,0.71003711,-0.25390742,0.590965,0.68860497,-0.24590462,0.589652,0.69375648,-0.24303842,0.606312,0.80429182,-0.29006785,0.654923,0.73810913,-0.28120027,0.619304,0.72653844,-0.26663669,0.617539,0.73783944,-0.25829485,0.62939
0.79798234,-0.24188332,0.700406,0.79364389,-0.24062233,0.664047,0.7885493,-0.21814079,0.67882,0.75751547,-0.18183274,0.652378,0.73178659,-0.1520491,0.629751,0.72310826,-0.13162765,0.616238,0.7737236,-0.21681608,0.607275,0.68236543,-0.20736,0.566081,0.67301569,-0.19511212,0.5657,0.69169374,-0.19370337,0.577057,0.78533753,-0.24321056,0.620436,0.69150989,-0.23524861,0.579508,0.67838433,-0.22318109,0.57924,0.7001731,-0.22057869,0.588713,0.7943987,-0.26455654,0.634095,0.70923561,-0.25631831,0.591581,0.68995022,-0.24723498,0.591214,0.69528896,-0.24448923,0.608234,0.80492375,-0.29151421,0.655793,0.73976548,-0.27688269,0.620167,0.73031306,-0.2613679,0.619131,0.74104772,-0.25681638,0.631267
0.79798117,-0.24194082,0.699846,0.79335711,-0.24119263,0.663701,0.78811396,-0.21840021,0.678146,0.75491018,-0.18346701,0.650594,0.72880896,-0.15212809,0.627106,0.71850787,-0.13321519,0.61367,0.77417023,-0.21741715,0.60697,0.68286336,-0.20804955,0.565863,0.6726989,-0.19563387,0.565427,0.69280649,-0.19300473,0.575549,0.78507575,-0.24510634,0.620349,0.69237249,-0.23601556,0.579633,0.67944598,-0.22399007,0.579304,0.68969072,-0.21772967,0.579069,0.79464004,-0.26680219,0.63417,0.708186,-0.25854714,0.591788,0.68977207,-0.24889023,0.591364,0.69479577,-0.2467268,0.608308,0.8061984,-0.29295094,0.65603,0.74016799,-0.27881584,0.620535,0.73148353,-0.26206706,0.619459,0.74286905,-0.25522549,0.631534
0.79833687,-0.24190605,0.699458,0.79323005,-0.24166808,0.663348,0.78822143,-0.21861929,0.677764,0.75533948,-0.18396824,0.65189,0.73373468,-0.15175507,0.630745,0.72678572,-0.13256394,0.620247,0.77425936,-0.2176026,0.606651,0.68290394,-0.20821557,0.565524,0.67030392,-0.19644499,0.565223,0.67990873,-0.18970655,0.564948,0.78506965,-0.24528446,0.620036,0.69225918,-0.23610686,0.579304,0.67941463,-0.22411856,0.579145,0.68977723,-0.2179498,0.57903,0.79445229,-0.26707307,0.633859,0.71148462,-0.26129968,0.591459,0.69095407,-0.25336599,0.591179,0.69380613,-0.25260797,0.608189,0.80556014,-0.29280183,0.655717,0.73945604,-0.27851752,0.620196,0.72981474,-0.26353815,0.61923,0.74203327,-0.25619118,0.631357
0.79853805,-0.24182432,0.698934,0.79302146,-0.24208021,0.662866,0.78815317,-0.21877897,0.67721,0.75399162,-0.18387794,0.651282,0.73268006,-0.15180004,0.630138,0.72627129,-0.13282702,0.619702,0.77393959,-0.21760901,0.606167,0.68262579,-0.20822303,0.56507,0.66999777,-0.19698307,0.564709,0.68084863,-0.18954942,0.56438,0.78475681,-0.2452948,0.619604,0.69198137,-0.23609011,0.578931,0.67896796,-0.22404063,0.578698,0.68925045,-0.21787981,0.578532,0.79409563,-0.26717593,0.633467,0.71172327,-0.26157619,0.591105,0.6909345,-0.2537798,0.590763,0.69359354,-0.25312184,0.607731,0.80527645,-0.29289102,0.655365,0.73841614,-0.27858794,0.619885,0.72899676,-0.26347976,0.618872,0.74191272,-0.25615187,0.630966
0.79888318,-0.24173867,0.698689,0.79242806,-0.24229524,0.662228,0.78832423,-0.21893393,0.67703,0.75130616,-0.18350973,0.650813,0.73001352,-0.15243613,0.629081,0.72382276,-0.13260024,0.617679,0.77256884,-0.21725231,0.605283,0.68142184,-0.20789472,0.564348,0.66769497,-0.19670842,0.562869,0.67654438,-0.18883422,0.561525,0.78306703,-0.24484013,0.618496,0.69030723,-0.23555124,0.577863,0.66689794,-0.22079933,0.576218,0.6683142,-0.21284905,0.575043,0.79214488,-0.2672813,0.632205,0.70989876,-0.26108483,0.589969,0.68765345,-0.25282991,0.588421,0.68969742,-0.25200049,0.604857,0.80316071,-0.2921373,0.653979,0.73460996,-0.27670844,0.618683,0.72313239,-0.26266617,0.616747,0.73517947,-0.25669635,0.628418
0.79887679,-0.24160804,0.698221,0.79227451,-0.24246978,0.661877,0.78804129,-0.21893748,0.676509,0.75025285,-0.18309589,0.650092,0.72905374,-0.15207584,0.628376,0.7230973,-0.13271347,0.617351,0.77209363,-0.2170702,0.604965,0.68090181,-0.20775467,0.564051,0.66722272,-0.19661393,0.562636,0.67646224,-0.1886435,0.561351,0.78273852,-0.24470369,0.618286,0.689983,-0.23543826,0.577735,0.66730976,-0.22109919,0.576175,0.67258134,-0.21429839,0.575061,0.79192645,-0.2671794,0.632075,0.70655511,-0.25868705,0.58988,0.68703221,-0.25010171,0.588403,0.69066596,-0.248306,0.604851,0.8036744,-0.29272668,0.653926,0.73430348,-0.27612115,0.618668,0.72261206,-0.26043649,0.616788,0.73455786,-0.25670733,0.628468
0.79847242,-0.24134681,0.697669,0.79165265,-0.24243953,0.661348,0.78742003,-0.21880835,0.675946,0.74955269,-0.18282053,0.649613,0.72847063,-0.15183433,0.627965,0.7219862,-0.13269186,0.616945,0.77137404,-0.21683147,0.604442,0.6801553,-0.20754087,0.563533,0.66647321,-0.19642661,0.562128,0.67522601,-0.18867005,0.56085,0.78205591,-0.24446501,0.617784,0.68927633,-0.23519537,0.577251,0.6671249,-0.22156208,0.575703,0.67217282,-0.21413474,0.574597,0.7912758,-0.26693872,0.631589,0.70600717,-0.25857334,0.589404,0.68618009,-0.25039744,0.587936,0.69029292,-0.24833616,0.604384,0.80319358,-0.29271474,0.653456,0.73362483,-0.27587119,0.618206,0.72201722,-0.26034609,0.616334,0.73345655,-0.25560767,0.628013
0.79398786,-0.24032917,0.693912,0.7871609,-0.24213937,0.657527,0.78314336,-0.21803629,0.672325,0.74523771,-0.18187511,0.646528,0.72462195,-0.15121774,0.625003,0.71677564,-0.1322081,0.613527,0.76802645,-0.21647763,0.600733,0.68270166,-0.20867244,0.559551,0.66325006,-0.19588801,0.55908,0.67200665,-0.18868916,0.558652,0.77780751,-0.2438078,0.613886,0.68459931,-0.23387703,0.572965,0.66622393,-0.22194851,0.572585,0.67003699,-0.21402215,0.572314,0.78633883,-0.26611247,0.62754,0.7097406,-0.2632578,0.585038,0.68510674,-0.25291083,0.584574,0.6877215,-0.25183807,0.601551,0.79610512,-0.29359739,0.649237,0.72760963,-0.27451333,0.613628,0.71757729,-0.25991837,0.612517,0.72905934,-0.2538869,0.62462
0.7943467,-0.24146135,0.694537,0.78786484,-0.2430645,0.658132,0.78363159,-0.21910416,0.673007,0.74372564,-0.18577141,0.645737,0.723992,-0.1539921,0.624326,0.71864872,-0.13326273,0.615066,0.7686916,-0.21616532,0.601391,0.68093783,-0.20718092,0.560138,0.66530448,-0.19639778,0.559949,0.67357021,-0.18925654,0.559777,0.77858768,-0.24368336,0.614466,0.68768871,-0.23431944,0.573431,0.66853744,-0.22371006,0.573402,0.66665776,-0.21649258,0.573382,0.78767148,-0.26659241,0.628058,0.70406171,-0.25835207,0.585468,0.68457688,-0.24974604,0.585307,0.68907095,-0.24579981,0.60244,0.79805711,-0.29477425,0.649684,0.72919217,-0.27468752,0.613972,0.71910114,-0.26031987,0.613091,0.72945455,-0.25240471,0.625318
0.79352673,-0.24222538,0.694267,0.78741545,-0.24338122,0.657917,0.7831351,-0.21974231,0.672837,0.74396681,-0.18618477,0.646149,0.72405407,-0.15387873,0.62458,0.71760308,-0.13361347,0.614518,0.76894177,-0.21630961,0.601344,0.6794716,-0.2065644,0.559989,0.6669162,-0.19659171,0.560412,0.6754314,-0.18992744,0.560797,0.77885263,-0.24395226,0.614317,0.68824933,-0.23428729,0.573128,0.66932639,-0.22428667,0.573866,0.67007119,-0.21794301,0.574393,0.78736049,-0.26648861,0.627821,0.7018181,-0.25692006,0.58511,0.68427294,-0.24976065,0.585607,0.69013034,-0.24861837,0.603052,0.79778359,-0.29504667,0.649333,0.72867539,-0.2744723,0.613461,0.71692191,-0.26367713,0.613082,0.71826944,-0.25970177,0.62556
