sluyters/QuantumLeap/backend/src/datasets/dynamic/HandGestureDataset_SHREC2017_csv/Gesture11/finger_1/subject_22_essai_1_skeletons_world.csv
Wrist_x,Wrist_y,Wrist_z,Palm_x,Palm_y,Palm_z,thumb_base_x,thumb_base_y,thumb_base_z,thumb_first_joint_x,thumb_first_joint_y,thumb_first_joint_z,thumb_second_joint_x,thumb_second_joint_y,thumb_second_joint_z,thumb_tip_x,thumb_tip_y,thumb_tip_z,index_base_x,index_base_y,index_base_z,index_first_joint_x,index_first_joint_y,index_first_joint_z,index_second_joint_x,index_second_joint_y,index_second_joint_z,index_tip_x,index_tip_y,index_tip_z,middle_base_x,middle_base_y,middle_base_z,middle_first_joint_x,middle_first_joint_y,middle_first_joint_z,middle_second_joint_x,middle_second_joint_y,middle_second_joint_z,middle_tip_x,middle_tip_y,middle_tip_z,ring_base_x,ring_base_y,ring_base_z,ring_first_joint_x,ring_first_joint_y,ring_first_joint_z,ring_second_joint_x,ring_second_joint_y,ring_second_joint_z,ring_tip_x,ring_tip_y,ring_tip_z,pinky_base_x,pinky_base_y,pinky_base_z,pinky_first_joint_x,pinky_first_joint_y,pinky_first_joint_z,pinky_second_joint_x,pinky_second_joint_y,pinky_second_joint_z,pinky_tip_x,pinky_tip_y,pinky_tip_z,
0.443635116,-0.247228209,0.442106,0.452559763,-0.197303936,0.429839,0.426529761,-0.227289905,0.43853,0.425580725,-0.18718529,0.421619,0.410338077,-0.152813672,0.413015,0.409454483,-0.130566952,0.400601,0.432046539,-0.14800845,0.417415,0.431096668,-0.109007765,0.400393,0.430780301,-0.0892075611,0.391882,0.447952265,-0.0763479419,0.400485,0.455753265,-0.156989108,0.418384,0.450125522,-0.116280329,0.399827,0.471816292,-0.137637042,0.421694,0.481281429,-0.158225437,0.435271,0.475437122,-0.168443795,0.420303,0.469120895,-0.129950753,0.401954,0.459424125,-0.131543207,0.392566,0.467437493,-0.152834597,0.402857,0.498735776,-0.189457875,0.424568,0.487054396,-0.149166338,0.41116,0.484724218,-0.143385363,0.404999,0.496247503,-0.157339108,0.413756
0.437757954,-0.24315153,0.435793,0.451300366,-0.196566713,0.428632,0.421140709,-0.223748773,0.432607,0.421246919,-0.185284696,0.417369,0.407925471,-0.152304339,0.411237,0.408205128,-0.131725409,0.400754,0.434692956,-0.148758704,0.419982,0.438280404,-0.110668867,0.40708,0.43996939,-0.0920169539,0.40063,0.452770025,-0.0771729662,0.404886,0.459625946,-0.158152031,0.421944,0.459161824,-0.118709633,0.4079,0.481837954,-0.140539069,0.430682,0.489091551,-0.162322705,0.442913,0.479864565,-0.169827046,0.424214,0.47065066,-0.126470058,0.412154,0.468752413,-0.118124145,0.405984,0.484117808,-0.135113795,0.418776,0.502849335,-0.190815598,0.428052,0.49047022,-0.150024839,0.414064,0.48761004,-0.145339102,0.407638,0.498992123,-0.157777771,0.416196
0.439996659,-0.24250706,0.436772,0.451996415,-0.197300576,0.429357,0.421694583,-0.223881042,0.432977,0.419916511,-0.187735735,0.416913,0.405731407,-0.15490993,0.41056,0.405580668,-0.132825614,0.400046,0.434578824,-0.149041082,0.419772,0.438124694,-0.111012707,0.406623,0.439791203,-0.0923518672,0.400048,0.452817569,-0.077511819,0.404382,0.460251102,-0.158727419,0.422432,0.458817683,-0.120554727,0.408072,0.478659589,-0.147069397,0.430741,0.48710494,-0.165925849,0.443051,0.481171654,-0.170692832,0.4253,0.469798271,-0.127296906,0.410473,0.465753281,-0.122736175,0.402888,0.478265457,-0.14159226,0.414622,0.50503199,-0.192120375,0.429882,0.492038903,-0.154611993,0.415497,0.489176998,-0.146532664,0.408887,0.499900168,-0.159806291,0.417284
0.44188377,-0.242744317,0.438113,0.450222478,-0.199325946,0.429662,0.423796252,-0.224164154,0.434544,0.416936153,-0.192712152,0.41851,0.401783128,-0.160483081,0.412801,0.401675238,-0.138456492,0.402467,0.433878533,-0.152619574,0.4197,0.437452415,-0.114722726,0.405809,0.439083798,-0.0960140494,0.398863,0.451973807,-0.0780127088,0.403422,0.458927306,-0.162196331,0.421771,0.456828528,-0.120700976,0.406531,0.477967199,-0.142264022,0.429091,0.485358221,-0.165068059,0.441686,0.479380974,-0.174131326,0.424249,0.467864148,-0.12961769,0.408753,0.462430109,-0.123361472,0.400825,0.474714116,-0.141960511,0.412319,0.500572269,-0.195633196,0.428543,0.489686279,-0.155550043,0.413542,0.485877872,-0.148063334,0.40665,0.494493091,-0.162511616,0.414844
0.442694504,-0.242744164,0.438863,0.448285675,-0.201698481,0.429066,0.424710868,-0.224040386,0.435257,0.414463527,-0.198148719,0.418858,0.398996231,-0.165987949,0.413592,0.398871442,-0.140332401,0.403349,0.432210069,-0.152334038,0.418191,0.434236982,-0.115037279,0.40318,0.435368461,-0.0963003897,0.395675,0.448886528,-0.08152833,0.400864,0.456662694,-0.162096768,0.419917,0.452163558,-0.129520584,0.403492,0.470418277,-0.154859946,0.425835,0.47657371,-0.177550017,0.43879,0.476158627,-0.174930219,0.422234,0.465821786,-0.131398837,0.4071,0.460561244,-0.125396419,0.399357,0.473009739,-0.142917447,0.411001,0.498252671,-0.198150199,0.426559,0.486398107,-0.157633052,0.411187,0.482000599,-0.150925442,0.404124,0.490438876,-0.164276523,0.412188
0.444458831,-0.244392395,0.441142,0.443691539,-0.204856874,0.428074,0.423963664,-0.224074932,0.434821,0.404891351,-0.200842082,0.414302,0.397058965,-0.172038791,0.41674,0.402803149,-0.149624203,0.411241,0.421631396,-0.15499595,0.411647,0.421576886,-0.117600596,0.3938,0.421388752,-0.0990574213,0.384876,0.435229153,-0.0851582555,0.389466,0.448002925,-0.166858126,0.41587,0.439701279,-0.131916089,0.396217,0.455883125,-0.157177425,0.417511,0.465738355,-0.17724047,0.431305,0.469867947,-0.180936217,0.420541,0.459314904,-0.135219649,0.403227,0.451926915,-0.129578314,0.394369,0.46367314,-0.14610423,0.405058,0.495318376,-0.205441677,0.428166,0.481123614,-0.162666756,0.409113,0.473890552,-0.157026875,0.400358,0.48201623,-0.168541113,0.406887
0.444270774,-0.255771174,0.449901,0.441616573,-0.21118081,0.431337,0.422773817,-0.23338847,0.441581,0.400087431,-0.208967417,0.417512,0.39199401,-0.17805391,0.415745,0.393315847,-0.158777817,0.407391,0.413060703,-0.158653081,0.40884,0.407205058,-0.121432436,0.386551,0.404273295,-0.102827821,0.375406,0.419809472,-0.0898127748,0.381831,0.439879416,-0.171190822,0.414002,0.427185823,-0.137283791,0.389429,0.439923013,-0.158858187,0.408923,0.446508018,-0.18135485,0.423931,0.462686751,-0.186061464,0.419948,0.444097128,-0.147334957,0.394596,0.427316512,-0.155837768,0.381625,0.42983595,-0.177385201,0.388412,0.490279495,-0.212028098,0.429971,0.477138279,-0.167910645,0.407438,0.467774892,-0.161576789,0.397085,0.4722937,-0.171865155,0.402006
0.433548876,-0.260119474,0.447575,0.429103152,-0.215858131,0.429115,0.40820086,-0.239293279,0.438296,0.391811758,-0.212248505,0.413126,0.382158476,-0.181342585,0.410266,0.385626775,-0.159194764,0.401462,0.401121258,-0.160155281,0.405466,0.395654531,-0.122822261,0.382967,0.392900493,-0.104189759,0.371717,0.408088424,-0.0912312976,0.377884,0.42943029,-0.172609032,0.411877,0.418802826,-0.139345342,0.38731,0.433122807,-0.161928422,0.406489,0.441770337,-0.18244684,0.421395,0.453563461,-0.187436209,0.418841,0.436383326,-0.149317062,0.393126,0.421452464,-0.158321242,0.37997,0.42583099,-0.178123995,0.38643,0.482951797,-0.213409837,0.430042,0.468605056,-0.168850053,0.407501,0.460674791,-0.163013362,0.397144,0.467237492,-0.175615862,0.401957
0.427306453,-0.266927275,0.44837,0.41862806,-0.223901647,0.427989,0.400600289,-0.246741745,0.438072,0.382389896,-0.220914504,0.411367,0.370561936,-0.189747276,0.406551,0.371127582,-0.169921482,0.396572,0.38701739,-0.166722124,0.401812,0.380351942,-0.129882856,0.377767,0.376990237,-0.111511394,0.365745,0.390898521,-0.0991491562,0.370932,0.4159387,-0.178944754,0.408956,0.404611368,-0.145380632,0.382703,0.420010399,-0.168522054,0.400937,0.427449796,-0.191822563,0.416157,0.440820624,-0.19367355,0.416701,0.42306262,-0.159351514,0.389157,0.408466965,-0.169105049,0.375065,0.409741966,-0.189156853,0.38039,0.47162549,-0.219727324,0.429132,0.451781557,-0.176508232,0.404167,0.442126768,-0.178131697,0.392696,0.444720959,-0.194285526,0.396158
0.41449322,-0.279994186,0.446213,0.405511496,-0.232994575,0.424852,0.39098067,-0.257670912,0.436892,0.368655301,-0.233884606,0.41113,0.353845323,-0.204234192,0.407113,0.351688569,-0.184345729,0.397295,0.371386152,-0.176104636,0.399288,0.363064517,-0.13916636,0.374909,0.358737737,-0.120981186,0.362719,0.371225787,-0.109266154,0.367904,0.399467573,-0.186133527,0.404906,0.387335765,-0.145612386,0.377904,0.400314806,-0.167277553,0.396246,0.407838674,-0.190707007,0.411771,0.424062798,-0.199207683,0.411483,0.400549892,-0.165575658,0.383673,0.385744268,-0.17550628,0.369444,0.389122647,-0.195513911,0.374794,0.455255596,-0.223627834,0.422705,0.42970899,-0.179803197,0.397407,0.419032035,-0.18286712,0.385783,0.422896191,-0.199097387,0.389231
0.399335134,-0.288013157,0.441967,0.388436883,-0.240085691,0.421351,0.367956102,-0.269988884,0.432227,0.351240196,-0.241974632,0.406112,0.335373432,-0.212179381,0.401888,0.333218668,-0.192719201,0.392112,0.356104365,-0.182547063,0.395731,0.347849509,-0.145916147,0.371495,0.343053149,-0.12897918,0.359378,0.353154432,-0.119800807,0.363828,0.384450959,-0.193599674,0.402099,0.372599647,-0.15324728,0.375683,0.385777624,-0.176807461,0.394092,0.39342076,-0.200568007,0.409425,0.409026278,-0.207504471,0.409225,0.398257857,-0.17272662,0.381755,0.376618192,-0.181592401,0.3677,0.372489096,-0.198850417,0.373174,0.439734849,-0.232831934,0.42097,0.415787534,-0.188762294,0.39601,0.405668537,-0.191916462,0.384543,0.409379258,-0.20828359,0.388103
0.373727144,-0.307088552,0.439108,0.372622095,-0.254796315,0.419185,0.351416899,-0.284140396,0.430024,0.334881275,-0.256014545,0.404798,0.32028936,-0.22640088,0.401625,0.318585753,-0.207313615,0.392421,0.343328782,-0.196863366,0.394845,0.335495661,-0.160072484,0.371251,0.330816913,-0.143053886,0.359455,0.341903939,-0.13342785,0.365047,0.370561303,-0.208456019,0.400581,0.359340115,-0.168283494,0.374797,0.371248868,-0.192778056,0.393658,0.378204788,-0.216887161,0.408904,0.394007333,-0.222808239,0.407124,0.382947877,-0.186436602,0.380443,0.363470978,-0.193456064,0.366793,0.360260018,-0.212608913,0.372791,0.423017798,-0.248655545,0.41807,0.401652802,-0.204286823,0.393734,0.391569181,-0.201930611,0.382553,0.39524605,-0.218194007,0.386507
0.369796472,-0.309822517,0.438833,0.366150652,-0.260604238,0.419442,0.347573667,-0.286730596,0.429663,0.328953316,-0.261351436,0.404437,0.314996447,-0.231710073,0.401363,0.316317645,-0.209980345,0.392297,0.337883719,-0.202409851,0.395334,0.32823306,-0.165178987,0.37179,0.323421523,-0.14653298,0.360019,0.337830214,-0.134490026,0.365248,0.365136035,-0.214424025,0.401334,0.354836768,-0.17718968,0.375989,0.3659798,-0.204096414,0.394967,0.372376303,-0.227714079,0.410091,0.38844535,-0.229090116,0.408046,0.379225211,-0.193029654,0.381708,0.360431595,-0.199966893,0.368232,0.35938646,-0.216345504,0.374397,0.417054959,-0.255234617,0.419104,0.397210354,-0.210979671,0.395076,0.387877462,-0.208716027,0.384036,0.394258489,-0.222130901,0.388125
0.364166825,-0.320665443,0.443805,0.356678471,-0.271639691,0.421232,0.342136028,-0.297029538,0.434403,0.318971661,-0.275308486,0.408343,0.303664286,-0.245464636,0.403735,0.299399235,-0.22492008,0.393455,0.327904916,-0.211747287,0.394785,0.315370034,-0.175160398,0.368773,0.309106923,-0.156853544,0.355766,0.317792132,-0.146844998,0.360237,0.354226948,-0.2241747,0.400153,0.341353031,-0.185690234,0.372145,0.349855956,-0.21252474,0.390056,0.356374584,-0.236507122,0.40581,0.376889716,-0.239325211,0.406635,0.36412857,-0.204764417,0.377936,0.342922724,-0.211645786,0.363253,0.338186529,-0.229053288,0.36808,0.404950126,-0.266275285,0.417944,0.383333814,-0.222036563,0.391881,0.371868119,-0.220466501,0.379906,0.373582139,-0.23667419,0.382943
0.351529868,-0.328268876,0.442019,0.34387177,-0.278405211,0.418129,0.330487354,-0.304800096,0.433222,0.30631204,-0.283882356,0.407678,0.290438735,-0.254047637,0.403203,0.285211815,-0.233510272,0.392767,0.31540459,-0.21790072,0.391606,0.300965709,-0.180970654,0.364779,0.29374301,-0.162514094,0.351365,0.300958029,-0.152736114,0.355449,0.340523926,-0.229941427,0.39582,0.3252558,-0.191081864,0.366803,0.331714202,-0.218485095,0.384417,0.338521353,-0.242741376,0.400442,0.362275694,-0.244869214,0.401474,0.347178927,-0.210212641,0.372151,0.325114936,-0.216818803,0.357148,0.32052432,-0.233803068,0.361623,0.389435205,-0.271739105,0.412027,0.366536235,-0.227024515,0.385367,0.353914073,-0.225401535,0.373118,0.354946189,-0.241549889,0.375861
0.341217666,-0.336524371,0.437786,0.334918956,-0.287577541,0.413888,0.32082627,-0.313751989,0.430086,0.29826088,-0.295668374,0.405884,0.281221987,-0.266550792,0.40262,0.274734761,-0.245805773,0.392724,0.3056173,-0.227414409,0.388754,0.287602485,-0.189041724,0.362175,0.278589417,-0.169903677,0.348886,0.283543317,-0.159956636,0.353187,0.329752905,-0.237953419,0.391572,0.31158513,-0.197826067,0.362686,0.317817896,-0.226361496,0.380541,0.325812215,-0.251377005,0.396594,0.350865686,-0.251722418,0.396076,0.33320097,-0.216030464,0.367292,0.311809882,-0.223076932,0.352565,0.30897087,-0.240854038,0.357364,0.377633139,-0.277393924,0.405281,0.352474158,-0.232184562,0.378993,0.339439653,-0.230467211,0.366915,0.341197496,-0.246907556,0.369884
0.337006203,-0.338905368,0.435535,0.325176883,-0.290721746,0.410687,0.314568782,-0.322335086,0.4286,0.289109596,-0.30197219,0.405235,0.270864467,-0.273750319,0.40234,0.262825301,-0.253492591,0.39248,0.294945142,-0.230937534,0.385913,0.27432586,-0.192953048,0.358971,0.264015515,-0.173994301,0.345499,0.26707867,-0.164438707,0.349527,0.317966723,-0.240388345,0.387483,0.296613227,-0.200631452,0.357959,0.301369022,-0.230042427,0.375507,0.310194912,-0.255119657,0.391694,0.338339298,-0.253314579,0.391046,0.317627869,-0.218389811,0.362022,0.296029283,-0.225739256,0.347173,0.294067975,-0.24309062,0.351715,0.364586498,-0.278087604,0.399304,0.337329854,-0.233271669,0.372751,0.323299124,-0.231978271,0.360551,0.324876985,-0.248409451,0.363303
0.33392967,-0.349363117,0.43613,0.321489061,-0.300934761,0.411203,0.311539249,-0.331753702,0.42995,0.286294723,-0.315207051,0.407548,0.266685947,-0.288312319,0.405383,0.257174559,-0.268433805,0.395859,0.289590978,-0.241786399,0.387339,0.266580576,-0.203942902,0.360675,0.255079764,-0.185051582,0.347343,0.256472666,-0.176027767,0.351455,0.311881808,-0.249760956,0.387925,0.287660705,-0.210021789,0.358472,0.292127563,-0.240635553,0.376028,0.302055865,-0.266056442,0.392193,0.331883877,-0.261526761,0.390687,0.308512509,-0.226888162,0.362023,0.28760446,-0.234642585,0.347358,0.287155768,-0.252183585,0.352012,0.358142399,-0.285041237,0.398017,0.328618255,-0.240505617,0.37172,0.314195061,-0.239530828,0.359637,0.316363115,-0.256166649,0.362462
0.333998269,-0.35385244,0.438952,0.319946636,-0.301782075,0.412311,0.312339408,-0.336650292,0.434011,0.284274682,-0.3049538,0.413086,0.262928595,-0.270577757,0.400384,0.257186684,-0.250230662,0.384875,0.288678777,-0.242638791,0.388921,0.266516895,-0.205568163,0.361804,0.255215401,-0.18738767,0.348245,0.25560659,-0.178279867,0.350549,0.309425624,-0.249485351,0.387434,0.285891956,-0.206585618,0.356917,0.288881487,-0.231050329,0.373541,0.298798948,-0.261153174,0.389798,0.328077334,-0.260348926,0.388645,0.296570951,-0.234635728,0.359584,0.277188542,-0.244243606,0.344716,0.279055979,-0.258636506,0.348652,0.352763247,-0.282842649,0.394437,0.323334872,-0.237305507,0.367729,0.308763165,-0.235517347,0.355458,0.310224593,-0.251511786,0.357708
0.326779105,-0.362567462,0.437323,0.310030919,-0.308913836,0.410225,0.306904312,-0.342355591,0.432331,0.276867504,-0.313410239,0.4113,0.255118889,-0.279520702,0.399324,0.249154971,-0.260494243,0.384164,0.277622966,-0.24921387,0.386477,0.255621276,-0.212431144,0.358837,0.244195872,-0.194775002,0.345018,0.243411784,-0.186032485,0.346118,0.298453286,-0.255424888,0.384921,0.274018416,-0.211506936,0.354048,0.277275849,-0.240477103,0.370422,0.286725316,-0.267231,0.38673,0.317282158,-0.26585986,0.386118,0.287187907,-0.239311365,0.356737,0.268632676,-0.248729646,0.341705,0.270903135,-0.263080506,0.345388,0.342407933,-0.288041233,0.391968,0.312260384,-0.241033117,0.364993,0.297740815,-0.238426139,0.352599,0.299240271,-0.254244321,0.354652
0.338281111,-0.37840613,0.455852,0.313447339,-0.328064253,0.42304,0.308062699,-0.360413559,0.444979,0.28253417,-0.337750488,0.424461,0.251980907,-0.302555371,0.402851,0.238594139,-0.277771157,0.388817,0.269297475,-0.27300156,0.388148,0.257883141,-0.23625708,0.372096,0.251552426,-0.220615161,0.36407,0.245772475,-0.206060933,0.356773,0.296220022,-0.280523584,0.3924,0.265335374,-0.291292638,0.357451,0.274003761,-0.309992334,0.369822,0.285893655,-0.329765304,0.386347,0.32049081,-0.291436879,0.3989,0.287283596,-0.245945977,0.362848,0.270980203,-0.249692441,0.344404,0.270414043,-0.263581386,0.343476,0.352597604,-0.312834464,0.411909,0.324192303,-0.26989741,0.382295,0.311200941,-0.257526561,0.368689,0.31160478,-0.267263109,0.369449
0.338365397,-0.391211052,0.463361,0.316832695,-0.341798871,0.427609,0.310275605,-0.371784225,0.451388,0.283994563,-0.349938129,0.426655,0.252443772,-0.313389429,0.403591,0.238679435,-0.288076602,0.388956,0.270186928,-0.283757434,0.38943,0.258511742,-0.246843707,0.373003,0.252049215,-0.231229133,0.364789,0.246150669,-0.216720599,0.357322,0.297596192,-0.291802015,0.394223,0.264311002,-0.299760596,0.356071,0.27085861,-0.315811885,0.365577,0.282944047,-0.335847567,0.382361,0.322529128,-0.303386913,0.401437,0.287598711,-0.256108969,0.363246,0.270653537,-0.257982517,0.343706,0.268921603,-0.272714554,0.340291,0.355900085,-0.326038138,0.415767,0.326174964,-0.281628381,0.384633,0.312584379,-0.268770091,0.370328,0.31184343,-0.280341054,0.369873
0.33830417,-0.397711323,0.464901,0.317267376,-0.35272685,0.428561,0.311264817,-0.383266506,0.452867,0.284121677,-0.360855526,0.427409,0.252309159,-0.323917858,0.404183,0.238429828,-0.298489506,0.389541,0.270034068,-0.293845457,0.389926,0.258108371,-0.257008387,0.373478,0.251480451,-0.241518888,0.365254,0.245426421,-0.227136656,0.357778,0.297387772,-0.301996506,0.394625,0.263603398,-0.309250099,0.356095,0.269911532,-0.32460658,0.365015,0.282084829,-0.344725695,0.381752,0.322353508,-0.313743732,0.401816,0.286852378,-0.265920249,0.363294,0.269624921,-0.267532701,0.343585,0.267554936,-0.281705093,0.339683,0.35590746,-0.336721696,0.416215,0.325608441,-0.291719516,0.384697,0.311710031,-0.278710004,0.370216,0.310537937,-0.290283701,0.369411
0.315911532,-0.40787341,0.484794,0.303470843,-0.365177244,0.447371,0.288229113,-0.387975372,0.467378,0.257084763,-0.359020269,0.432304,0.232086054,-0.337797571,0.402171,0.220964787,-0.319739751,0.382305,0.260260534,-0.312921738,0.401203,0.243398201,-0.278585001,0.379801,0.234746777,-0.262681555,0.369101,0.226675293,-0.249588331,0.359373,0.291693094,-0.325456258,0.412424,0.265990579,-0.330365008,0.374971,0.259436234,-0.340105012,0.373491,0.26536727,-0.35034612,0.386575,0.319154708,-0.339736245,0.425083,0.28397127,-0.348732586,0.385766,0.262974967,-0.347362538,0.365651,0.249157116,-0.350364759,0.354294,0.353912037,-0.363620526,0.446077,0.31886816,-0.371692376,0.412377,0.305901446,-0.36842664,0.396893,0.298096143,-0.368927684,0.38784
0.327607034,-0.435234949,0.473769,0.306479075,-0.374694987,0.43774,0.298610876,-0.413612318,0.459497,0.260878227,-0.37560301,0.43024,0.229922522,-0.346130231,0.403037,0.213594821,-0.319302314,0.386535,0.257168179,-0.310136168,0.396462,0.23847377,-0.282951911,0.373512,0.229059878,-0.268713559,0.362037,0.22041547,-0.256133783,0.351605,0.286167652,-0.319321506,0.404096,0.257756442,-0.323517133,0.365798,0.257620555,-0.34808036,0.37346,0.267553159,-0.36190362,0.389718,0.311961222,-0.331482365,0.413673,0.285978284,-0.287039225,0.374517,0.26999985,-0.291556872,0.354483,0.265096795,-0.304978381,0.349511,0.349364022,-0.35710479,0.430823,0.312223968,-0.360392705,0.396424,0.29707581,-0.356112571,0.380619,0.291381259,-0.360464218,0.376225
0.312995919,-0.43178072,0.465532,0.28063319,-0.372113388,0.432579,0.274689355,-0.415232023,0.451863,0.239442113,-0.384637609,0.42393,0.205984648,-0.354362733,0.400351,0.188489566,-0.329127223,0.388216,0.230448287,-0.308623887,0.394043,0.203518875,-0.285254004,0.373594,0.190071837,-0.275507981,0.36337,0.178099125,-0.268932005,0.354075,0.258964513,-0.314974371,0.401807,0.230258453,-0.292230928,0.365554,0.236415537,-0.32373987,0.37626,0.249236769,-0.353840884,0.392735,0.285328478,-0.325742515,0.411212,0.253636162,-0.273828123,0.382419,0.243608078,-0.276782996,0.367688,0.251662021,-0.29831368,0.372402,0.321374163,-0.348687204,0.427653,0.299494702,-0.303593721,0.39506,0.288415137,-0.301642227,0.380084,0.286935346,-0.309207989,0.377833
0.299029412,-0.438656035,0.463772,0.270211758,-0.379328662,0.430612,0.270406069,-0.418798588,0.451163,0.229561468,-0.393717705,0.424089,0.195615114,-0.365355385,0.400866,0.177544987,-0.340498945,0.388373,0.219948139,-0.316677915,0.393289,0.190755994,-0.294763085,0.373586,0.176017676,-0.285806406,0.363734,0.162747504,-0.28000168,0.354778,0.247145942,-0.32219518,0.399646,0.215373862,-0.300128556,0.363239,0.219897611,-0.333047985,0.374498,0.233050039,-0.363477994,0.391201,0.272564877,-0.332284838,0.40791,0.240714217,-0.281989995,0.381043,0.230135193,-0.286104889,0.367296,0.239123417,-0.308857535,0.373281,0.307775785,-0.354447273,0.423048,0.283765659,-0.309577606,0.390221,0.271599387,-0.307792646,0.375138,0.268928304,-0.315997127,0.373026
0.29507052,-0.442002174,0.463758,0.260967132,-0.385320896,0.430762,0.263128938,-0.426639658,0.452119,0.221068554,-0.401587805,0.426362,0.186410489,-0.374440569,0.4043,0.167902753,-0.349744453,0.391972,0.210892809,-0.323622364,0.394777,0.179742592,-0.302643645,0.375575,0.163903695,-0.294198944,0.365973,0.149538263,-0.288895275,0.357245,0.236909309,-0.32836898,0.399949,0.202802139,-0.306924108,0.363699,0.205970653,-0.341024343,0.375568,0.219346214,-0.371703872,0.392406,0.261446907,-0.337815855,0.407224,0.225960929,-0.289085182,0.377616,0.214701733,-0.293938517,0.362468,0.223438899,-0.314305491,0.366755,0.295803021,-0.359201156,0.421173,0.272810041,-0.310542948,0.389388,0.2604255,-0.307007074,0.374785,0.257503898,-0.314048299,0.373544
0.286009069,-0.445930351,0.461329,0.256407022,-0.385447066,0.429024,0.254552513,-0.42945327,0.450121,0.21298402,-0.403699342,0.425285,0.178108386,-0.375898488,0.40328,0.164072999,-0.350867403,0.392112,0.203724176,-0.325471053,0.394032,0.172131137,-0.304154092,0.375286,0.156000419,-0.295525338,0.365914,0.145447026,-0.289528767,0.357393,0.229271122,-0.330051378,0.398858,0.194639318,-0.308206352,0.363132,0.197110113,-0.342863454,0.375658,0.214845825,-0.372875351,0.392512,0.253381108,-0.339374627,0.405783,0.218037602,-0.290304994,0.37664,0.206542963,-0.2950884,0.361729,0.219285811,-0.314926181,0.366317,0.287174908,-0.360654305,0.41921,0.264418328,-0.311841908,0.388076,0.25188898,-0.308258152,0.373771,0.252990816,-0.314623634,0.37309
0.277774383,-0.449166107,0.460176,0.248608557,-0.387348423,0.427448,0.25108768,-0.430703198,0.450128,0.205841086,-0.406032608,0.426475,0.171132752,-0.378497482,0.405476,0.157152363,-0.35351431,0.393813,0.198146789,-0.327113345,0.393659,0.165782209,-0.306292541,0.375696,0.149067758,-0.297944207,0.366714,0.133643314,-0.292758163,0.358549,0.222236731,-0.331812523,0.396887,0.185372832,-0.306601488,0.36097,0.184697027,-0.340419272,0.37358,0.196443369,-0.372556491,0.39053,0.245048088,-0.341289057,0.402536,0.210320018,-0.292255811,0.37383,0.197506247,-0.297398084,0.359143,0.205730863,-0.318588992,0.363923,0.277158878,-0.362830358,0.414534,0.252297218,-0.317289078,0.382762,0.238269888,-0.315264389,0.368163,0.233453082,-0.324299952,0.367173
0.278526233,-0.454628747,0.464317,0.249078473,-0.389662507,0.429809,0.2520077,-0.435901459,0.454598,0.212472275,-0.410237766,0.432053,0.180490091,-0.38054622,0.409637,0.16506442,-0.354197983,0.396758,0.201293373,-0.326681148,0.395293,0.167582805,-0.307457608,0.378242,0.150912295,-0.299330472,0.369716,0.135496809,-0.294266274,0.361966,0.224914313,-0.330113858,0.397584,0.185178698,-0.306901506,0.360475,0.183923656,-0.339801123,0.371786,0.195926001,-0.371442628,0.388759,0.245344918,-0.339733251,0.402625,0.202926809,-0.301423445,0.366161,0.191959366,-0.306036812,0.347504,0.19749343,-0.320110491,0.345813,0.276975991,-0.361254216,0.414202,0.23392746,-0.335819905,0.381592,0.222735762,-0.338286815,0.366609,0.223621729,-0.351829984,0.364604
0.276425235,-0.453974601,0.463677,0.246076677,-0.389202926,0.429684,0.250272046,-0.43529485,0.4543,0.207853893,-0.40446662,0.43251,0.17477197,-0.374914277,0.411264,0.160304644,-0.350513829,0.397017,0.199594986,-0.325839342,0.395935,0.166933431,-0.306219284,0.377848,0.15006225,-0.297772034,0.368804,0.134492699,-0.292387752,0.360582,0.222731378,-0.329624255,0.397941,0.184599284,-0.304126525,0.361231,0.181250011,-0.333256149,0.37302,0.19412568,-0.368792842,0.39,0.244738032,-0.33855632,0.402701,0.202313254,-0.301342269,0.366699,0.191470702,-0.306302246,0.34828,0.197212006,-0.320710436,0.347041,0.275973811,-0.359867304,0.413862,0.232879496,-0.333466332,0.381609,0.222185318,-0.336350343,0.366789,0.224003452,-0.349958337,0.365124
0.267549397,-0.452999803,0.462883,0.234095481,-0.38023522,0.430564,0.236808164,-0.429295465,0.452454,0.196186467,-0.396452655,0.430365,0.164310153,-0.366532643,0.408634,0.147821748,-0.340498862,0.395057,0.188717846,-0.317255287,0.396554,0.157862724,-0.297633604,0.377818,0.141945538,-0.288802436,0.36845,0.127332541,-0.282972465,0.359933,0.213263421,-0.321643891,0.400385,0.179115315,-0.296280437,0.364718,0.178377041,-0.328152773,0.377507,0.188934981,-0.360367397,0.394422,0.23620326,-0.330950563,0.406493,0.197203268,-0.295636431,0.370942,0.187738694,-0.300978421,0.352753,0.19386495,-0.316169609,0.352296,0.268093131,-0.3524873,0.418962,0.228326165,-0.326183003,0.387146,0.219348092,-0.329474176,0.372528,0.222777311,-0.343244155,0.371483
0.252783505,-0.43832843,0.460677,0.2263466,-0.366796407,0.427096,0.225231798,-0.417419119,0.448082,0.188976862,-0.386556756,0.421438,0.154862753,-0.356443398,0.396066,0.140659822,-0.331935952,0.384529,0.178482625,-0.303378924,0.389521,0.148942161,-0.284775124,0.369542,0.133696474,-0.275921419,0.359553,0.11955329,-0.268502472,0.350471,0.204781643,-0.30824913,0.395737,0.172616782,-0.280626067,0.359034,0.175113982,-0.312760912,0.369996,0.186975067,-0.342910763,0.386714,0.229301821,-0.317909078,0.403924,0.192160974,-0.285981684,0.366688,0.182702115,-0.290149655,0.347636,0.184555218,-0.30724453,0.345453,0.263263789,-0.339794211,0.419041,0.225141713,-0.314781296,0.386015,0.218823011,-0.31835171,0.370841,0.222252071,-0.330579935,0.368525
0.253534449,-0.422531055,0.461754,0.226149939,-0.362576733,0.425874,0.22567875,-0.40525203,0.449955,0.194493104,-0.375818826,0.425417,0.159846166,-0.349459022,0.399648,0.138310134,-0.327158839,0.382344,0.173149207,-0.307653743,0.387833,0.138751636,-0.280323146,0.367111,0.120980028,-0.267919518,0.356749,0.10451195,-0.256543011,0.34733,0.199036994,-0.311177303,0.392368,0.165514545,-0.26730127,0.354143,0.166681581,-0.298831845,0.363612,0.179472552,-0.325693314,0.380411,0.223697113,-0.31879362,0.399381,0.187290816,-0.273170572,0.361196,0.175035557,-0.277920373,0.34166,0.175296408,-0.293620508,0.338225,0.258477359,-0.336370429,0.413496,0.225510148,-0.343044481,0.379639,0.218071871,-0.335720455,0.364083,0.217757928,-0.337851048,0.360792
0.255153487,-0.405806493,0.45478,0.224699802,-0.345984403,0.419375,0.22768313,-0.391851458,0.444744,0.187383109,-0.360290749,0.421049,0.15282433,-0.337107645,0.396983,0.1328013,-0.312778587,0.381234,0.170517766,-0.29192759,0.383881,0.134078182,-0.265476203,0.362594,0.115460142,-0.253591351,0.35195,0.0982264525,-0.242734057,0.342274,0.194602502,-0.291668828,0.386313,0.157344079,-0.244329747,0.348566,0.158591013,-0.273226141,0.358333,0.172968689,-0.300986431,0.375228,0.217958905,-0.296668007,0.391552,0.176884163,-0.257442075,0.354441,0.168190788,-0.263202552,0.335454,0.172978778,-0.278270451,0.333016,0.251792091,-0.312169388,0.403508,0.217824301,-0.317947483,0.370397,0.210043376,-0.313394535,0.355184,0.211113639,-0.316863299,0.352616
0.251736208,-0.397519008,0.449712,0.220079356,-0.334486378,0.415558,0.225469428,-0.38193629,0.440339,0.183660856,-0.346906607,0.418937,0.150102785,-0.325273042,0.395593,0.130796631,-0.3014145,0.379618,0.16792017,-0.283038464,0.38171,0.131274479,-0.254857,0.359431,0.112473795,-0.242456353,0.348292,0.095103366,-0.23109742,0.338165,0.192105325,-0.283899159,0.383664,0.157446461,-0.233654533,0.346845,0.153969782,-0.257142364,0.351524,0.166177816,-0.285026295,0.367612,0.215288125,-0.289523659,0.388395,0.177378731,-0.246499237,0.352306,0.166166274,-0.252659604,0.333841,0.171448996,-0.267002264,0.332491,0.248836245,-0.307141686,0.39955,0.214159595,-0.31341602,0.367225,0.202279227,-0.304880463,0.352373,0.200044739,-0.3082274,0.350623
0.242419385,-0.373489786,0.435826,0.212164238,-0.30707512,0.403821,0.214743725,-0.357922113,0.424768,0.180279305,-0.327170401,0.40331,0.149136322,-0.300483876,0.378477,0.130211523,-0.275108887,0.363086,0.160756657,-0.251419868,0.369212,0.126126969,-0.230114002,0.351309,0.108134288,-0.219231095,0.342358,0.09131548,-0.209180292,0.33422,0.185297656,-0.25214478,0.373934,0.148193185,-0.209791603,0.338436,0.15183617,-0.239335076,0.351219,0.166827077,-0.265766049,0.368072,0.208969839,-0.257956891,0.380747,0.168346063,-0.22352791,0.345094,0.161874915,-0.230724055,0.326853,0.170664449,-0.243745005,0.326354,0.243030487,-0.274607232,0.393992,0.206763268,-0.278418236,0.362141,0.199876169,-0.275771369,0.347506,0.200484669,-0.282074899,0.346443
0.284102753,-0.346264115,0.444259,0.239245772,-0.292665455,0.408853,0.25653721,-0.338926411,0.436656,0.223291383,-0.321627189,0.417585,0.186956687,-0.30070374,0.396152,0.16273643,-0.278639583,0.38166,0.179012189,-0.251141357,0.376449,0.143155072,-0.229029824,0.362312,0.124538519,-0.217674397,0.355243,0.107158818,-0.207153161,0.348817,0.198819899,-0.244325738,0.375789,0.150436389,-0.208337114,0.338476,0.155797226,-0.233723523,0.349059,0.174201477,-0.259104648,0.365877,0.219604751,-0.243224591,0.378483,0.168928849,-0.213571093,0.342707,0.156493585,-0.216806258,0.324403,0.16690185,-0.230199672,0.322427,0.2522443,-0.250301257,0.387453,0.217538637,-0.259054786,0.355318,0.203146475,-0.26089112,0.340553,0.198668995,-0.26705669,0.338301
0.221563598,-0.324891481,0.431512,0.190701753,-0.262541609,0.400785,0.201017044,-0.314147222,0.429009,0.158093526,-0.293560365,0.414192,0.134502982,-0.268369254,0.404982,0.119724775,-0.247677871,0.397953,0.148776908,-0.214289007,0.377868,0.111823809,-0.213300113,0.351842,0.111194132,-0.2226572,0.338828,0.110445418,-0.230295801,0.326998,0.163451071,-0.208395875,0.372092,0.119610811,-0.168487955,0.339332,0.0990251554,-0.172433218,0.327152,0.103284923,-0.192956447,0.334469,0.178634811,-0.208636382,0.370146,0.136000883,-0.204705445,0.34024,0.139637607,-0.213186007,0.324939,0.154961025,-0.214865474,0.326275,0.202389259,-0.218501415,0.372903,0.159438761,-0.214778677,0.345436,0.157667938,-0.221336742,0.332817,0.168952323,-0.22212064,0.33305
0.217250446,-0.311425467,0.423057,0.188493622,-0.244596576,0.395362,0.197036959,-0.301366139,0.420931,0.155330175,-0.274240929,0.407898,0.131890725,-0.251017748,0.399867,0.117396304,-0.231249913,0.393668,0.147701787,-0.19885754,0.374873,0.111719829,-0.197797053,0.350566,0.111290522,-0.208170965,0.338413,0.110748829,-0.216844932,0.327364,0.163001516,-0.192682266,0.369501,0.120604091,-0.153442128,0.338977,0.0984410628,-0.153884608,0.321171,0.101031885,-0.171047791,0.323473,0.178533819,-0.192468261,0.367611,0.137322893,-0.188444634,0.339712,0.141198688,-0.198667412,0.325438,0.157273586,-0.20256147,0.328752,0.202351082,-0.201378722,0.369936,0.160672039,-0.197797816,0.344109,0.158941525,-0.205902751,0.332243,0.170792146,-0.208427704,0.333989
0.210750092,-0.289809611,0.410345,0.187665486,-0.23318126,0.393625,0.192879755,-0.283272888,0.412463,0.15364206,-0.260489341,0.403465,0.133099905,-0.242907758,0.403533,0.119736369,-0.225594989,0.401515,0.151920003,-0.194530589,0.385579,0.118058457,-0.198539688,0.370456,0.119341346,-0.212852742,0.362894,0.120472049,-0.225597946,0.356105,0.166756055,-0.187018505,0.378012,0.127092248,-0.15149002,0.357213,0.105769331,-0.154894563,0.34508,0.110000267,-0.175464608,0.352187,0.181302564,-0.185243663,0.373312,0.141505839,-0.181073608,0.35537,0.146114435,-0.196657187,0.34619,0.165970649,-0.206700767,0.354928,0.202681463,-0.191321373,0.37054,0.164838851,-0.192222746,0.353033,0.165039555,-0.203492657,0.34499,0.179451695,-0.208852779,0.350923
0.209600158,-0.282963409,0.408106,0.187414195,-0.22211045,0.392555,0.191894133,-0.271365992,0.410287,0.151571701,-0.250723761,0.400763,0.131803132,-0.236702671,0.405475,0.119599324,-0.22479184,0.406156,0.152366541,-0.184229843,0.385338,0.118686029,-0.187753058,0.370917,0.119929489,-0.202358987,0.363707,0.126189917,-0.224588285,0.372451,0.167277949,-0.176753437,0.378033,0.128168211,-0.14127611,0.358185,0.106920187,-0.144458375,0.346607,0.111191273,-0.164938092,0.354225,0.181828918,-0.174929231,0.373442,0.142343051,-0.170221522,0.356331,0.146983872,-0.186396402,0.347576,0.16710913,-0.197102328,0.356847,0.203082451,-0.180814445,0.370605,0.165519049,-0.181423108,0.353812,0.165772931,-0.193357219,0.346096,0.1804196,-0.19926095,0.352446
0.209643814,-0.272490374,0.408191,0.187431383,-0.211826124,0.392591,0.191962531,-0.26100524,0.410365,0.151594771,-0.240051717,0.400824,0.13168351,-0.226010884,0.405107,0.1179117,-0.210653943,0.405605,0.152364168,-0.174243749,0.385332,0.11867355,-0.177258589,0.370878,0.119910693,-0.191940939,0.36365,0.126164168,-0.213796856,0.372375,0.167273081,-0.166663069,0.378022,0.128149246,-0.131047003,0.358132,0.106896126,-0.133961344,0.346529,0.111160197,-0.154087768,0.354126,0.181823562,-0.164728042,0.373431,0.142323077,-0.159445602,0.356281,0.146954693,-0.175878351,0.347507,0.167066516,-0.186732939,0.356756,0.203081355,-0.170440206,0.370603,0.165502207,-0.170692535,0.353776,0.165748503,-0.182997908,0.346045,0.180384791,-0.189046854,0.352378
0.209383422,-0.261633036,0.407684,0.187246143,-0.201322263,0.392203,0.19180208,-0.250402467,0.410022,0.151564137,-0.229295138,0.400743,0.13168221,-0.215531782,0.405103,0.117920712,-0.200256731,0.405636,0.152324627,-0.164217884,0.385232,0.118705548,-0.166828844,0.370978,0.119976972,-0.181654956,0.363851,0.126244804,-0.203181021,0.372613,0.167151837,-0.156464353,0.377748,0.128104876,-0.120796961,0.358008,0.10688502,-0.123483992,0.346493,0.111154861,-0.143276662,0.354109,0.181614682,-0.154354478,0.373002,0.142230401,-0.148596755,0.356049,0.146899295,-0.165334953,0.347376,0.16702156,-0.176366354,0.35666,0.202736131,-0.159794852,0.369973,0.165325848,-0.155661932,0.353311,0.164133028,-0.169024891,0.345655,0.178296148,-0.176853701,0.352015
0.20936596,-0.251093231,0.40765,0.188199638,-0.190755594,0.392181,0.191784799,-0.239746554,0.409902,0.151909063,-0.217393933,0.400498,0.132198875,-0.203302954,0.404737,0.118719368,-0.187762332,0.405207,0.153892926,-0.15325206,0.385108,0.120238912,-0.154893624,0.370792,0.121102458,-0.169905409,0.363633,0.127053569,-0.191128603,0.372405,0.168970154,-0.145882489,0.377736,0.130624851,-0.109548053,0.357977,0.109334504,-0.111713251,0.346451,0.113315845,-0.131203263,0.35409,0.18355774,-0.144092262,0.373081,0.144343446,-0.137229639,0.356077,0.148494299,-0.154407701,0.347376,0.168384788,-0.165876003,0.356676,0.204673533,-0.149916076,0.370157,0.167350043,-0.144876566,0.353453,0.165689808,-0.158606721,0.345778,0.179673181,-0.166782225,0.35215
0.211303761,-0.236321784,0.409392,0.190734905,-0.180937303,0.393216,0.193672921,-0.230140023,0.411653,0.152946124,-0.207210446,0.402167,0.138228244,-0.195207144,0.408088,0.127087309,-0.18100071,0.409783,0.156103974,-0.143490468,0.3857,0.123545173,-0.146633589,0.370995,0.12533227,-0.161725235,0.363642,0.132264361,-0.182520445,0.372134,0.171130019,-0.135938205,0.37811,0.13257168,-0.0992881687,0.35779,0.111236522,-0.101093968,0.345936,0.115179614,-0.120110288,0.353258,0.185698598,-0.13400088,0.373341,0.146378564,-0.126406146,0.355864,0.150367481,-0.143741647,0.346923,0.170049606,-0.15521956,0.355896,0.206853873,-0.139652137,0.370399,0.169392004,-0.13407452,0.353288,0.16757369,-0.148055735,0.345427,0.181383908,-0.156267999,0.351544
0.212077138,-0.225472087,0.408872,0.190893685,-0.170544414,0.39317,0.194571521,-0.219528726,0.411328,0.153068094,-0.196417462,0.402196,0.138468303,-0.184767075,0.408145,0.127442931,-0.17069446,0.409896,0.156687094,-0.133611017,0.386206,0.124184822,-0.136186499,0.371924,0.125945677,-0.151503169,0.364784,0.132860724,-0.172073595,0.37345,0.171666794,-0.125930144,0.378507,0.134425421,-0.0877419118,0.35863,0.112482045,-0.0877302759,0.347035,0.115433829,-0.105948613,0.354526,0.186151351,-0.123847629,0.373604,0.14789786,-0.11823281,0.356585,0.152876385,-0.135782824,0.347877,0.172607384,-0.146489987,0.357044,0.20712355,-0.129252176,0.370428,0.169835257,-0.123199336,0.353705,0.168024704,-0.137618331,0.346021,0.181911085,-0.146150019,0.352289
0.2113822,-0.229055591,0.408455,0.190708344,-0.175506681,0.392976,0.193835462,-0.223035054,0.410777,0.152677825,-0.201358032,0.401473,0.139048728,-0.190163684,0.408165,0.128484103,-0.176444543,0.410448,0.156384347,-0.138518657,0.385985,0.123964374,-0.141452268,0.371719,0.126545523,-0.154004132,0.364586,0.133960211,-0.177428603,0.373349,0.171447177,-0.130922898,0.378522,0.134819481,-0.0896774127,0.358779,0.112122051,-0.0876869405,0.347261,0.113133506,-0.104878624,0.354881,0.186069436,-0.126288625,0.373794,0.147177327,-0.118790553,0.356831,0.151445238,-0.136379577,0.348152,0.171115562,-0.15060088,0.357439,0.207147663,-0.131711142,0.370786,0.169899052,-0.125834239,0.354115,0.168161111,-0.140182577,0.346456,0.18208939,-0.151403249,0.352817
0.210807872,-0.221145338,0.406266,0.190248893,-0.167258068,0.391937,0.193765098,-0.215726668,0.409439,0.152714065,-0.193403308,0.401574,0.139658039,-0.182802098,0.408794,0.130225055,-0.169574078,0.41162,0.15678326,-0.13125872,0.386766,0.124762418,-0.134250077,0.373844,0.1305008,-0.147253489,0.367383,0.143132559,-0.166963962,0.376529,0.171527784,-0.12331922,0.378556,0.137380278,-0.0802417168,0.360023,0.113636334,-0.0740841972,0.349212,0.111452264,-0.0886344933,0.357145,0.185727955,-0.120975293,0.373108,0.146643389,-0.108749015,0.357529,0.150494844,-0.126895118,0.349559,0.172146287,-0.143530927,0.359248,0.206011328,-0.123125704,0.369065,0.169633251,-0.120277951,0.353561,0.168151889,-0.134974797,0.346437,0.182266476,-0.143690233,0.353113
0.211252156,-0.216149724,0.406749,0.190591946,-0.162682055,0.392768,0.194454761,-0.211166869,0.410445,0.153592908,-0.189643185,0.403421,0.141841743,-0.180075419,0.411434,0.132665631,-0.169095229,0.414024,0.157195141,-0.127516495,0.388484,0.126743659,-0.134902966,0.376191,0.134519274,-0.148893148,0.370045,0.148289745,-0.168040462,0.379275,0.171597739,-0.119096217,0.379712,0.137484099,-0.0788766151,0.361642,0.113727921,-0.0727819169,0.351101,0.11159363,-0.0872617834,0.359057,0.185503428,-0.116326198,0.37377,0.145071598,-0.100037626,0.358805,0.147319342,-0.118070421,0.351148,0.169463275,-0.136519365,0.360909,0.205603158,-0.120715824,0.369091,0.169309736,-0.115200755,0.354099,0.16815322,-0.130099442,0.347211,0.182384839,-0.138834409,0.353944
0.213893394,-0.219009294,0.409958,0.191663174,-0.162391735,0.3921,0.196862857,-0.211341888,0.412811,0.157948188,-0.187718558,0.404025,0.145285423,-0.178026278,0.411039,0.137712668,-0.167020057,0.413645,0.156733806,-0.126885594,0.384254,0.12587166,-0.132782126,0.369117,0.136155989,-0.146523424,0.361549,0.151586495,-0.162579289,0.369278,0.1705735,-0.118149084,0.375423,0.142227368,-0.0772530957,0.35399,0.118195604,-0.0606311245,0.341488,0.11010813,-0.0665061696,0.347872,0.184213628,-0.115139495,0.369786,0.141903298,-0.0879536726,0.35162,0.136437794,-0.0994118637,0.342326,0.154103663,-0.116845822,0.350384,0.204457395,-0.11930088,0.366101,0.16684382,-0.111088018,0.348386,0.165728802,-0.124967328,0.340246,0.178834911,-0.135613534,0.34565
0.215933279,-0.216025633,0.410527,0.193757244,-0.162877642,0.393121,0.199132127,-0.211366491,0.414076,0.165248385,-0.188563237,0.406419,0.15194728,-0.179181498,0.41459,0.147838633,-0.168280961,0.418854,0.162320575,-0.129580915,0.386451,0.13110149,-0.134615874,0.372153,0.138917932,-0.148158365,0.365004,0.155072071,-0.163845503,0.372829,0.172498794,-0.118937848,0.376866,0.144016247,-0.0782254233,0.356048,0.120462194,-0.0602419231,0.343903,0.109245592,-0.0633120041,0.345304,0.185529047,-0.11544399,0.370568,0.143236985,-0.0885933505,0.353218,0.13740051,-0.100066028,0.344341,0.155131555,-0.117537851,0.352478,0.205037881,-0.118965719,0.366033,0.167832859,-0.105436168,0.349001,0.165125149,-0.119121313,0.341176,0.178997672,-0.134940663,0.346642
0.218866373,-0.216404255,0.412166,0.203151324,-0.164243604,0.395076,0.204122703,-0.208822291,0.415439,0.175835973,-0.189682743,0.407386,0.155631527,-0.178241577,0.41363,0.149914986,-0.166451416,0.41708,0.172926037,-0.130865786,0.38826,0.143946989,-0.137624209,0.373897,0.151092529,-0.150368211,0.366716,0.168860106,-0.164879224,0.374721,0.184957286,-0.121281007,0.379117,0.150202792,-0.0815077492,0.358439,0.124779185,-0.0609220356,0.346377,0.110465639,-0.0632315944,0.344616,0.197247726,-0.117448889,0.373154,0.153567389,-0.0903680061,0.355804,0.146862018,-0.102474097,0.346928,0.15901882,-0.119169586,0.355287,0.216146711,-0.120477829,0.36896,0.174509349,-0.0989117556,0.351933,0.170270213,-0.108423083,0.34411,0.184789717,-0.120656004,0.349748
0.220656581,-0.216279395,0.412618,0.204540802,-0.164501113,0.395401,0.206148352,-0.209105653,0.415822,0.175726265,-0.189855077,0.407647,0.156844608,-0.178522304,0.414125,0.151730011,-0.166967769,0.417872,0.172994627,-0.130917693,0.388414,0.143956614,-0.137633411,0.373922,0.151076048,-0.150351809,0.366676,0.168821802,-0.164841824,0.374636,0.185057786,-0.121346907,0.379323,0.150236316,-0.0815259409,0.358519,0.125458279,-0.061278932,0.346384,0.111274368,-0.0633053296,0.344893,0.197385161,-0.117530723,0.373414,0.15367308,-0.0901889606,0.355928,0.146790308,-0.102183494,0.346982,0.160252309,-0.119389147,0.355292,0.216348236,-0.120590156,0.369304,0.175066833,-0.097556187,0.352163,0.17001285,-0.106652201,0.344287,0.184049347,-0.119236263,0.349886
0.235005806,-0.213151771,0.410088,0.218344415,-0.166811589,0.393758,0.218861967,-0.209061224,0.41268,0.191465871,-0.198478354,0.403673,0.169193659,-0.18970128,0.41302,0.159194337,-0.175552954,0.410564,0.183817176,-0.135437959,0.386564,0.151819938,-0.14020582,0.37157,0.157839869,-0.151587781,0.364072,0.176706182,-0.164951685,0.372334,0.194433497,-0.124773626,0.378509,0.160712745,-0.0845815142,0.35818,0.138268186,-0.0641869795,0.346322,0.124239143,-0.0638912696,0.347673,0.205888795,-0.119831083,0.373371,0.159385451,-0.0956581918,0.356027,0.149600731,-0.104565974,0.347153,0.166573435,-0.12157242,0.356006,0.224403235,-0.121287899,0.37002,0.183292964,-0.0973646609,0.353014,0.176899373,-0.107555393,0.3452,0.186641632,-0.12017248,0.351223
0.25283606,-0.217899685,0.409725,0.23260646,-0.174921553,0.394105,0.237160712,-0.21506753,0.41407,0.210556571,-0.211486344,0.407851,0.185774852,-0.202843048,0.418693,0.174700826,-0.18927273,0.421783,0.194948446,-0.142566354,0.389594,0.167798665,-0.153529989,0.37695,0.176306118,-0.166299832,0.370628,0.196240463,-0.179282897,0.379095,0.206928217,-0.132627276,0.379519,0.172779052,-0.0931304218,0.360397,0.150136219,-0.0733054333,0.349243,0.135444194,-0.0743978,0.345658,0.219522704,-0.128475872,0.372653,0.174452365,-0.10742958,0.357077,0.170374634,-0.121396583,0.349107,0.190393475,-0.138734974,0.357952,0.239294119,-0.131023897,0.367158,0.200350615,-0.110126811,0.351629,0.195992415,-0.122214157,0.344494,0.209987283,-0.135608011,0.350513
0.281860907,-0.24347811,0.434304,0.248349999,-0.206276053,0.402235,0.262834583,-0.236014307,0.435373,0.236755844,-0.23497852,0.423883,0.206295847,-0.217025721,0.42229,0.188557389,-0.194620351,0.413218,0.201102656,-0.166197636,0.382997,0.172059199,-0.133434571,0.359765,0.156443825,-0.143843309,0.348149,0.162329513,-0.156148454,0.347762,0.212598674,-0.164456262,0.372288,0.183733838,-0.121363195,0.351884,0.166202559,-0.0966844371,0.339982,0.151076946,-0.0812886899,0.33148,0.225759287,-0.167140631,0.366406,0.191831373,-0.122306408,0.341043,0.171230101,-0.129162447,0.328067,0.174246503,-0.147974234,0.329024,0.247891237,-0.177793439,0.364763,0.209932773,-0.192629436,0.339328,0.221002684,-0.203328607,0.344726,0.23529646,-0.215647059,0.35577
0.284748713,-0.254745748,0.430831,0.246936096,-0.215161558,0.399945,0.267006522,-0.245860619,0.432772,0.236055993,-0.24487674,0.42263,0.206333463,-0.227848427,0.422367,0.189623339,-0.20634933,0.415554,0.200880024,-0.175937697,0.382573,0.171282514,-0.142898922,0.358141,0.1554449,-0.152813025,0.345926,0.158419794,-0.166830327,0.345368,0.211921968,-0.173904137,0.371103,0.182111016,-0.130208296,0.348776,0.164216822,-0.105432396,0.33592,0.148915709,-0.0900756799,0.326738,0.224575056,-0.176285918,0.364484,0.192073241,-0.132344339,0.341473,0.172082423,-0.139661692,0.3297,0.17577277,-0.159105687,0.331906,0.245866723,-0.186441903,0.361784,0.208765339,-0.201104158,0.337441,0.219974365,-0.211771581,0.343122,0.233379141,-0.223270382,0.352871
0.288951701,-0.288189386,0.424694,0.270078315,-0.231326801,0.397789,0.266986285,-0.272197213,0.419933,0.248747865,-0.244099243,0.399233,0.259960621,-0.245938235,0.397414,0.269169937,-0.238990427,0.387846,0.231447044,-0.178312951,0.374458,0.207598953,-0.143443126,0.356707,0.194383243,-0.12771804,0.347831,0.181321481,-0.115275486,0.339762,0.252487552,-0.180535537,0.372664,0.214547209,-0.184449206,0.341989,0.192338813,-0.18681686,0.324096,0.190823161,-0.205349313,0.327133,0.272118474,-0.187362603,0.373647,0.238719053,-0.150460194,0.344527,0.221348485,-0.157137714,0.329629,0.224791135,-0.177964167,0.333436,0.299278807,-0.204708042,0.379215,0.258017565,-0.208847758,0.352449,0.267939064,-0.228329048,0.363192,0.286360888,-0.234894034,0.376778
0.297093003,-0.297065982,0.428097,0.282721502,-0.245811021,0.395653,0.286398521,-0.285468819,0.426065,0.26153958,-0.268042178,0.409344,0.239915324,-0.238898452,0.406084,0.228831714,-0.212275799,0.396174,0.249815891,-0.189604757,0.372232,0.216815204,-0.153339734,0.341054,0.20039651,-0.135345015,0.325465,0.193373154,-0.124116658,0.32446,0.263750088,-0.194109084,0.365356,0.213614934,-0.195267402,0.331665,0.185089381,-0.195424267,0.312011,0.179579958,-0.20898231,0.31109,0.277524278,-0.203004559,0.362662,0.238730759,-0.168042265,0.332207,0.215198684,-0.173482582,0.316625,0.213632503,-0.190595736,0.316539,0.297847573,-0.223104223,0.364824,0.277381589,-0.173396557,0.336937,0.265125296,-0.175191754,0.333219,0.267293074,-0.193673471,0.342107
0.303460988,-0.309464734,0.428969,0.282631047,-0.256289073,0.396056,0.286751331,-0.291169204,0.426704,0.26146944,-0.279349547,0.409662,0.23925885,-0.250054019,0.405892,0.228004481,-0.223126513,0.396,0.248909699,-0.199398178,0.372037,0.215723819,-0.163161418,0.340858,0.199214447,-0.145175667,0.325268,0.191954485,-0.134296545,0.324081,0.263017944,-0.203945804,0.365321,0.212798822,-0.202959059,0.331247,0.184132456,-0.201956577,0.311371,0.17847024,-0.211906371,0.310163,0.27701362,-0.21294825,0.362802,0.237725878,-0.17795779,0.331934,0.214207911,-0.183214482,0.316142,0.212606264,-0.199919272,0.315728,0.297740713,-0.233307942,0.365245,0.276701412,-0.182832049,0.337028,0.260819985,-0.182411235,0.328721,0.260314375,-0.198905208,0.333956
0.319742994,-0.331576402,0.425649,0.297216395,-0.271704343,0.393086,0.2972705,-0.312863366,0.419782,0.274731114,-0.293289968,0.397371,0.248495817,-0.265385068,0.391186,0.23381426,-0.239336216,0.382114,0.255546962,-0.213625552,0.364714,0.224855202,-0.177275647,0.332592,0.209563863,-0.159216565,0.316532,0.205010402,-0.149676197,0.316297,0.276043702,-0.218222147,0.362677,0.232761767,-0.218805899,0.327655,0.207745545,-0.21885647,0.307225,0.203189039,-0.234087418,0.306992,0.295630881,-0.227345322,0.363978,0.259032761,-0.192188699,0.330789,0.238440613,-0.197659031,0.313809,0.237980317,-0.214922457,0.314059,0.323466825,-0.248008144,0.370846,0.296742347,-0.19547388,0.340745,0.279700378,-0.192761141,0.326915,0.277216046,-0.206132438,0.32634
0.352929084,-0.348728047,0.432007,0.327867016,-0.294838628,0.403465,0.333005842,-0.334497352,0.430486,0.299670397,-0.312714207,0.414381,0.266955406,-0.286228391,0.398765,0.252618413,-0.263928396,0.39195,0.287338219,-0.244087214,0.3832,0.260758966,-0.206164228,0.354678,0.247474615,-0.187224924,0.340416,0.241139789,-0.174167015,0.335432,0.304526034,-0.245619486,0.376812,0.280281071,-0.195743419,0.345893,0.256112187,-0.1957474,0.327857,0.25292542,-0.212773829,0.329506,0.32130396,-0.251759594,0.374163,0.28120743,-0.210998133,0.346196,0.264550844,-0.219836098,0.331887,0.271607757,-0.237572944,0.334574,0.34571198,-0.267901354,0.375738,0.313494669,-0.224577964,0.349851,0.297973659,-0.228767232,0.337957,0.298814611,-0.244078884,0.33922
0.360984573,-0.359480149,0.436322,0.340954346,-0.311261141,0.407974,0.343651173,-0.351668945,0.433157,0.326258451,-0.331025226,0.41462,0.29686221,-0.300760981,0.397995,0.284645843,-0.279467474,0.39429,0.298456627,-0.258833219,0.385744,0.27331343,-0.219561291,0.357015,0.260752082,-0.199998041,0.34265,0.258287955,-0.188803156,0.341419,0.318076203,-0.26079837,0.381502,0.282521657,-0.220742833,0.350187,0.262288755,-0.229947568,0.33192,0.265877089,-0.24450676,0.334011,0.336897964,-0.267414735,0.380601,0.297312781,-0.22507257,0.351607,0.281367056,-0.233087889,0.336772,0.288471601,-0.251286484,0.33976,0.363758535,-0.284364739,0.384195,0.336579272,-0.237789597,0.357478,0.32128664,-0.240285102,0.345203,0.321917639,-0.255367734,0.346704
0.373326737,-0.373429937,0.436505,0.355430661,-0.325199944,0.408768,0.359120434,-0.365527454,0.433782,0.34184478,-0.346392814,0.415908,0.311635852,-0.316705837,0.399258,0.298838449,-0.295667244,0.395474,0.312198945,-0.273718261,0.387493,0.28637111,-0.235103873,0.359305,0.273462527,-0.2158327,0.34521,0.26987697,-0.204510626,0.342741,0.331621039,-0.275198302,0.382867,0.29745903,-0.229227056,0.352126,0.276346803,-0.236354238,0.334193,0.279348605,-0.252799509,0.336575,0.350365246,-0.281373254,0.381594,0.310126132,-0.239977301,0.353263,0.29453568,-0.248330766,0.338767,0.302389676,-0.266562886,0.342105,0.377274224,-0.297710228,0.384651,0.349281111,-0.251518098,0.358476,0.334185662,-0.254422147,0.346449,0.335426749,-0.269711882,0.348216
0.39058608,-0.389837307,0.441893,0.370481481,-0.339991413,0.413618,0.368528574,-0.374790668,0.438918,0.356911866,-0.361078402,0.420658,0.327137092,-0.331034354,0.403625,0.314636372,-0.309583853,0.399403,0.327598183,-0.287289018,0.391676,0.302268529,-0.248835757,0.363173,0.289606718,-0.229640043,0.348922,0.286647131,-0.218733768,0.346295,0.347176683,-0.289763531,0.387214,0.313418437,-0.243531029,0.356008,0.291368936,-0.250273063,0.337805,0.293535842,-0.266296027,0.339911,0.366008196,-0.296801188,0.386126,0.326117729,-0.254943677,0.357302,0.309653172,-0.262994864,0.342554,0.316566826,-0.2808566,0.345577,0.392924516,-0.314217994,0.389488,0.365348118,-0.267651871,0.362908,0.349746084,-0.2703965,0.350696,0.35026049,-0.285398378,0.352222
0.393579012,-0.391513592,0.441667,0.372366078,-0.340013927,0.41297,0.375349015,-0.379338373,0.43822,0.358291406,-0.360583979,0.419265,0.328971615,-0.331167209,0.402635,0.316961213,-0.310266231,0.398984,0.32876981,-0.286851502,0.390158,0.303985444,-0.253227139,0.360924,0.290356077,-0.236032773,0.346306,0.282404253,-0.223896539,0.338341,0.348802634,-0.289752483,0.386173,0.31477387,-0.243527742,0.354524,0.29249169,-0.250164949,0.336062,0.294434818,-0.265921145,0.337988,0.368068445,-0.297155989,0.385515,0.331173012,-0.253173473,0.356125,0.311068797,-0.261084655,0.341088,0.317426763,-0.279110455,0.343872,0.395583145,-0.315035179,0.389452,0.367647346,-0.2683175,0.362414,0.351847546,-0.271021128,0.349991,0.352131953,-0.285829674,0.351337
0.403256131,-0.40031885,0.445222,0.384455221,-0.348441496,0.416856,0.380973004,-0.384358283,0.44176,0.368381012,-0.370900129,0.422795,0.3381104,-0.34074733,0.403571,0.325205584,-0.318480731,0.397529,0.341993021,-0.293883418,0.394238,0.321061157,-0.247983248,0.365298,0.307235738,-0.233161469,0.350828,0.301292053,-0.2336802,0.348033,0.362194878,-0.297244351,0.390367,0.328898273,-0.261492031,0.358952,0.306398489,-0.270344939,0.340627,0.308267026,-0.282711319,0.342749,0.38147316,-0.305119205,0.389774,0.342255316,-0.261683898,0.360572,0.324123833,-0.266866033,0.345632,0.326805046,-0.284887679,0.34862,0.408784113,-0.323729935,0.393731,0.378571265,-0.276316017,0.36685,0.36308041,-0.278995906,0.354499,0.364410767,-0.294087928,0.356002
0.406164681,-0.403148657,0.447132,0.386912958,-0.350201031,0.418312,0.383201642,-0.386183726,0.44273,0.368329737,-0.37030537,0.422413,0.338448969,-0.339785306,0.402339,0.326098432,-0.317477836,0.39602,0.344177144,-0.294458748,0.394207,0.326929545,-0.249316014,0.364549,0.313955787,-0.234596229,0.34972,0.309846918,-0.235952638,0.347679,0.365392874,-0.298946302,0.391399,0.336458599,-0.264386217,0.359396,0.313103269,-0.272813928,0.340728,0.310948455,-0.283675841,0.342687,0.385480025,-0.307776857,0.391723,0.350065823,-0.265209393,0.361641,0.331779133,-0.270164381,0.346249,0.332763296,-0.288789937,0.348968,0.413653093,-0.32756179,0.396832,0.386507672,-0.281287106,0.369245,0.370981753,-0.283797187,0.356569,0.368892357,-0.297105796,0.357872
0.413159291,-0.407363189,0.449746,0.398139488,-0.352433652,0.420201,0.393669402,-0.392016591,0.446461,0.382512599,-0.375249216,0.427723,0.353048168,-0.344651354,0.408811,0.337046474,-0.321987776,0.402123,0.357781319,-0.295440165,0.397049,0.337828125,-0.252409767,0.367458,0.32388954,-0.237866626,0.352663,0.31377171,-0.237852793,0.349037,0.376676518,-0.300580131,0.39261,0.34528415,-0.264306545,0.360406,0.315980873,-0.272065839,0.34162,0.312796336,-0.283878285,0.343008,0.394856943,-0.310051434,0.391658,0.352348232,-0.281154251,0.361875,0.333703751,-0.289357293,0.346637,0.339081998,-0.304847743,0.348872,0.420805056,-0.330789382,0.395387,0.39180203,-0.284446179,0.368022,0.371963203,-0.285007772,0.355449,0.371650015,-0.299232167,0.356372
0.411714629,-0.406153081,0.449276,0.400000559,-0.353200509,0.42129,0.392347106,-0.389754247,0.445826,0.382049487,-0.373807172,0.426892,0.353158357,-0.342249459,0.407197,0.342261584,-0.319228864,0.400862,0.366127883,-0.295537452,0.39893,0.349348521,-0.255462843,0.369931,0.336562725,-0.242158722,0.355431,0.324941802,-0.240433036,0.346938,0.385184277,-0.303160628,0.395156,0.357155309,-0.270364885,0.36402,0.32862708,-0.276612237,0.345857,0.321708527,-0.289003485,0.348198,0.40288577,-0.314525095,0.394608,0.371810606,-0.261660005,0.365643,0.35078288,-0.264544565,0.350823,0.352252842,-0.285023739,0.354042,0.427108873,-0.337160211,0.398556,0.395591106,-0.289483202,0.371871,0.378356892,-0.294839426,0.35961,0.379205001,-0.307466049,0.36129
0.419568345,-0.41005633,0.451106,0.412632082,-0.355249831,0.422533,0.403427613,-0.390716859,0.447329,0.392665497,-0.377545777,0.427905,0.362989035,-0.346089818,0.406981,0.351575064,-0.322401185,0.399099,0.376822964,-0.296986994,0.39938,0.359752649,-0.256712817,0.370136,0.346914952,-0.24332992,0.355513,0.334553601,-0.240949548,0.346047,0.396280247,-0.304824153,0.39585,0.367865173,-0.271639476,0.364196,0.338754665,-0.277623865,0.345731,0.335350962,-0.29043001,0.347771,0.414412751,-0.316427624,0.395557,0.380764099,-0.267195067,0.366024,0.359591228,-0.272094651,0.350914,0.361548711,-0.291402823,0.353783,0.439310906,-0.339465409,0.3999,0.406743022,-0.293353414,0.372752,0.389521534,-0.296522803,0.360278,0.390682211,-0.311070835,0.361692
0.421670719,-0.410690814,0.451455,0.41386792,-0.356624264,0.422673,0.40588642,-0.391281103,0.447814,0.393789148,-0.378570662,0.428576,0.364475984,-0.346920623,0.407685,0.353306042,-0.32295001,0.399518,0.379231522,-0.298074453,0.399558,0.364977011,-0.259380639,0.370075,0.352592875,-0.24517891,0.355333,0.337200715,-0.24082179,0.34552,0.398142484,-0.306429773,0.395795,0.373967597,-0.271383232,0.364028,0.341046734,-0.276582466,0.345497,0.336809823,-0.289571218,0.347398,0.415752605,-0.31845132,0.395329,0.384975539,-0.271222179,0.365759,0.360882563,-0.27375032,0.35063,0.362169327,-0.292849461,0.353367,0.439903344,-0.341956206,0.399504,0.409615542,-0.29838316,0.372321,0.39018442,-0.298648887,0.359832,0.390801363,-0.313037444,0.361143
0.428045857,-0.411278848,0.45161,0.41868211,-0.357924283,0.422815,0.414439828,-0.391941498,0.448536,0.402618719,-0.379277055,0.43012,0.374123208,-0.347064242,0.409591,0.359853868,-0.323533041,0.401169,0.390081541,-0.299003673,0.400416,0.374042943,-0.259447392,0.371248,0.361763383,-0.245133658,0.356665,0.344439251,-0.240575844,0.345753,0.407749483,-0.307987158,0.395927,0.381820443,-0.270971143,0.364319,0.350748739,-0.274941608,0.345882,0.342154219,-0.288700104,0.347694,0.424193241,-0.320510613,0.394864,0.392472826,-0.270884094,0.365665,0.369561762,-0.275052203,0.350726,0.366580065,-0.294387873,0.35343,0.446717324,-0.344568168,0.39834,0.415929874,-0.297968079,0.371453,0.397323294,-0.300517458,0.3591,0.393922536,-0.31483252,0.360381
0.436553632,-0.411968352,0.451593,0.432792372,-0.357825098,0.422915,0.424990191,-0.391855149,0.448621,0.41360632,-0.379261569,0.430354,0.385205455,-0.347180506,0.410143,0.374920722,-0.322944353,0.402119,0.400349737,-0.299038738,0.400718,0.384147982,-0.259455726,0.371671,0.3718384,-0.245108951,0.357148,0.359452354,-0.240578062,0.347314,0.418024708,-0.307953827,0.396134,0.391976674,-0.270861021,0.36464,0.360647524,-0.274842987,0.346269,0.355242937,-0.288120959,0.348134,0.434511855,-0.320427116,0.394983,0.402516763,-0.27077,0.365921,0.379494929,-0.274943107,0.351052,0.379898996,-0.294071465,0.353822,0.457144809,-0.344436795,0.398337,0.426037407,-0.297798385,0.371561,0.407332683,-0.300349457,0.359259,0.407232646,-0.314761739,0.36059
0.447366292,-0.411865919,0.451104,0.442461604,-0.357654187,0.422713,0.434877554,-0.391470243,0.448207,0.422903201,-0.379828048,0.430057,0.393768086,-0.347998661,0.409489,0.383028924,-0.323776064,0.401113,0.410002428,-0.299096199,0.400795,0.393925398,-0.259623963,0.371912,0.381758828,-0.245329938,0.35747,0.369191931,-0.240585681,0.347325,0.427794171,-0.308005136,0.3962,0.402068203,-0.271079409,0.364934,0.370643588,-0.275181908,0.346696,0.365245975,-0.288605941,0.34872,0.444369323,-0.320451453,0.395013,0.413803008,-0.268065494,0.366172,0.390927006,-0.269577935,0.351416,0.390267108,-0.290072812,0.354361,0.467083963,-0.344385778,0.398278,0.435965681,-0.297896166,0.371683,0.417294252,-0.300520842,0.359464,0.417320771,-0.315058527,0.36093
0.448894167,-0.324231247,0.388765,0.431889087,-0.321375591,0.409243,0.43319439,-0.33775881,0.39006,0.417009924,-0.333003606,0.404337,0.391383712,-0.296161721,0.386475,0.40674554,-0.281756012,0.391019,0.404102031,-0.33710347,0.424042,0.394680879,-0.342684846,0.4329,0.410036214,-0.355610589,0.437329,0.443236018,-0.376925818,0.452662,0.417732945,-0.31955421,0.428366,0.416043385,-0.328878154,0.441151,0.43384665,-0.344324721,0.448609,0.469665978,-0.367213561,0.464784,0.430469307,-0.304903314,0.430054,0.422939854,-0.309483794,0.440837,0.447083724,-0.328122591,0.446355,0.480232762,-0.348021204,0.463742,0.448330381,-0.287469167,0.428674,0.439288642,-0.300189013,0.436943,0.451943256,-0.317686304,0.440743,0.479068054,-0.338691672,0.453906
0.414831098,-0.373561488,0.42333,0.431470863,-0.332329722,0.420589,0.394200421,-0.347233907,0.410538,0.398923386,-0.31528642,0.393512,0.39785802,-0.283300416,0.378711,0.405167527,-0.264074948,0.370646,0.415366366,-0.274879974,0.402573,0.423726303,-0.283599219,0.38718,0.43973,-0.313509601,0.400599,0.440286245,-0.33463531,0.412035,0.446390361,-0.295074516,0.418031,0.46277462,-0.309887809,0.407806,0.47039606,-0.346621274,0.425283,0.465506508,-0.356702575,0.436092,0.470767858,-0.3155133,0.431005,0.486070298,-0.321583061,0.416406,0.492158892,-0.352344915,0.431427,0.484771265,-0.366653439,0.443324,0.497079111,-0.346490671,0.446679,0.499296494,-0.351403335,0.43362,0.496859193,-0.370634824,0.445203,0.496442171,-0.376969373,0.455637
0.416020725,-0.374632764,0.424544,0.431995084,-0.332733491,0.4211,0.395112615,-0.348037419,0.411488,0.399709043,-0.315907359,0.394287,0.398705821,-0.283904104,0.379518,0.406741146,-0.265541857,0.371069,0.415081595,-0.274691519,0.402297,0.422763239,-0.282954642,0.3863,0.439629435,-0.312527761,0.399572,0.441489854,-0.335166158,0.411187,0.446234457,-0.294971459,0.417885,0.461878135,-0.309287496,0.407016,0.470835966,-0.346527759,0.424306,0.464929875,-0.357918087,0.43405,0.470795165,-0.315531601,0.43103,0.485333733,-0.321095751,0.415775,0.49125312,-0.351696458,0.430633,0.484120638,-0.366161341,0.442729,0.4974597,-0.346755962,0.447021,0.499051233,-0.35123072,0.433407,0.496945086,-0.370842123,0.44485,0.495240899,-0.377988229,0.45486
0.422157321,-0.379324453,0.43179,0.437920788,-0.333816941,0.423143,0.401243106,-0.352365256,0.418507,0.407773858,-0.321482766,0.402767,0.414940195,-0.294898242,0.389326,0.424861435,-0.278175712,0.381355,0.421316208,-0.275584241,0.400708,0.419138074,-0.285631415,0.380976,0.43685805,-0.315552672,0.394486,0.441367601,-0.337093418,0.407668,0.452092314,-0.296244264,0.415067,0.453775889,-0.311080526,0.399277,0.46131032,-0.343680867,0.416816,0.458025326,-0.355459609,0.428167,0.476295892,-0.31719197,0.427679,0.483194006,-0.321065987,0.408055,0.486811026,-0.350933713,0.423159,0.479806946,-0.363427315,0.437117,0.502374851,-0.348948696,0.443896,0.502418532,-0.350504882,0.42636,0.502519007,-0.371969194,0.437901,0.500716997,-0.380529124,0.448548
0.427983371,-0.383838042,0.437509,0.442135525,-0.338162598,0.426428,0.406948986,-0.356659656,0.424083,0.414409683,-0.325940148,0.409529,0.420121723,-0.300301504,0.393767,0.429552368,-0.283375219,0.385224,0.424599195,-0.278328963,0.402251,0.4196243,-0.287574218,0.380814,0.436872248,-0.317532669,0.39425,0.443641106,-0.342959306,0.408077,0.455147031,-0.298697972,0.416082,0.453204906,-0.312321538,0.398054,0.461349743,-0.349031488,0.415476,0.457467399,-0.363011889,0.427466,0.481527786,-0.321275887,0.42848,0.482951198,-0.322495216,0.406864,0.48624539,-0.352065299,0.421879,0.483986251,-0.368631003,0.436606,0.508197503,-0.353116435,0.444846,0.502854675,-0.3520513,0.425539,0.502620984,-0.373235454,0.436968,0.501764907,-0.382011105,0.448195
0.430739476,-0.393531016,0.441248,0.445242233,-0.341485936,0.428687,0.410512603,-0.359938438,0.427314,0.418109583,-0.330489008,0.411696,0.423616118,-0.304837974,0.395983,0.432286207,-0.285968309,0.387215,0.426914915,-0.281694603,0.402912,0.420202905,-0.289941295,0.380279,0.436929681,-0.319594969,0.393286,0.443681818,-0.343676395,0.407413,0.457954319,-0.302324953,0.416957,0.454077009,-0.31489677,0.397627,0.463565306,-0.351756973,0.414505,0.460424941,-0.368552245,0.426794,0.482761206,-0.323502639,0.429667,0.484382519,-0.325427294,0.406742,0.487179241,-0.35463874,0.42128,0.484546079,-0.369869433,0.436344,0.510236869,-0.356028788,0.446641,0.505563538,-0.355776763,0.426236,0.504851958,-0.376664443,0.437266,0.50326115,-0.384003727,0.448725
0.431438892,-0.391213167,0.440535,0.445927837,-0.34336127,0.427595,0.411426244,-0.360729858,0.42809,0.419632025,-0.331894587,0.412904,0.426333423,-0.307079394,0.397996,0.435447859,-0.288633157,0.389567,0.43003467,-0.28453834,0.403468,0.421986832,-0.291843076,0.381232,0.439323904,-0.322425143,0.395328,0.446142666,-0.346870365,0.409734,0.458714696,-0.304808053,0.415511,0.452462468,-0.315192718,0.395719,0.462357993,-0.352654985,0.413927,0.459655063,-0.369215758,0.426801,0.483655122,-0.328685484,0.426607,0.483019485,-0.330992078,0.403819,0.485727983,-0.357130695,0.419551,0.484061563,-0.372455715,0.435038,0.507914202,-0.361408945,0.441751,0.500967325,-0.360622347,0.421254,0.500526163,-0.377715676,0.433213,0.50034282,-0.385020453,0.445063
0.43251943,-0.389995002,0.441061,0.446483532,-0.344216616,0.427837,0.41192577,-0.361158268,0.428505,0.419766875,-0.332103444,0.412998,0.426451788,-0.307305029,0.398008,0.435571182,-0.289049562,0.389536,0.430723002,-0.28483584,0.403387,0.421856221,-0.292082513,0.380914,0.438764782,-0.322554748,0.394921,0.445603125,-0.34722983,0.409385,0.459484518,-0.305532907,0.415487,0.452322002,-0.315798126,0.395447,0.461504503,-0.352919229,0.413541,0.458793731,-0.369175015,0.42647,0.483766687,-0.328757228,0.426658,0.476937144,-0.335530424,0.403614,0.477173293,-0.362476326,0.419247,0.481619844,-0.374570811,0.434797,0.508292492,-0.36167819,0.441935,0.498252332,-0.361523829,0.421225,0.496734773,-0.381433684,0.433101,0.498859678,-0.387817954,0.444995
0.432083326,-0.388622086,0.441429,0.446733955,-0.344647529,0.427972,0.412161968,-0.361353048,0.428689,0.419747776,-0.332425866,0.413146,0.426312617,-0.308031015,0.397829,0.435674604,-0.290961625,0.389238,0.430648285,-0.284682138,0.40314,0.423816333,-0.293462125,0.382654,0.440555537,-0.323954244,0.396642,0.446488766,-0.348247885,0.410314,0.459601544,-0.305690296,0.415406,0.4520169,-0.315812137,0.395167,0.460720381,-0.352623292,0.41309,0.45801294,-0.368741078,0.426037,0.48256338,-0.327118143,0.426734,0.476548242,-0.334752593,0.403452,0.477305308,-0.362365683,0.418933,0.478802715,-0.37707398,0.434519,0.508520255,-0.36180249,0.442234,0.497400748,-0.361570311,0.421337,0.495588808,-0.381231349,0.43309,0.497965707,-0.388108897,0.445002
0.431985196,-0.388898392,0.441643,0.446671585,-0.345028271,0.428214,0.412158969,-0.361534475,0.428917,0.419262473,-0.332591165,0.413193,0.425754958,-0.309033736,0.397499,0.43497497,-0.291449939,0.388984,0.430114591,-0.284222349,0.403416,0.424510271,-0.294099313,0.38355,0.44121112,-0.324617607,0.397581,0.446926936,-0.34896079,0.411025,0.459594202,-0.30602693,0.415674,0.451932753,-0.316243879,0.395458,0.459594196,-0.353173384,0.413396,0.457649955,-0.368960903,0.426338,0.482542496,-0.327545671,0.426991,0.475943925,-0.334850574,0.403735,0.476749682,-0.362556669,0.419229,0.477845115,-0.377531314,0.434809,0.508157966,-0.361919758,0.442475,0.494939818,-0.362091297,0.421599,0.492749628,-0.381392324,0.433362,0.496184878,-0.389586495,0.44527
