sluyters/QuantumLeap/backend/src/datasets/dynamic/HandGestureDataset_SHREC2017_csv/Gesture11/finger_1/subject_28_essai_10_skeletons_world.csv
Wrist_x,Wrist_y,Wrist_z,Palm_x,Palm_y,Palm_z,thumb_base_x,thumb_base_y,thumb_base_z,thumb_first_joint_x,thumb_first_joint_y,thumb_first_joint_z,thumb_second_joint_x,thumb_second_joint_y,thumb_second_joint_z,thumb_tip_x,thumb_tip_y,thumb_tip_z,index_base_x,index_base_y,index_base_z,index_first_joint_x,index_first_joint_y,index_first_joint_z,index_second_joint_x,index_second_joint_y,index_second_joint_z,index_tip_x,index_tip_y,index_tip_z,middle_base_x,middle_base_y,middle_base_z,middle_first_joint_x,middle_first_joint_y,middle_first_joint_z,middle_second_joint_x,middle_second_joint_y,middle_second_joint_z,middle_tip_x,middle_tip_y,middle_tip_z,ring_base_x,ring_base_y,ring_base_z,ring_first_joint_x,ring_first_joint_y,ring_first_joint_z,ring_second_joint_x,ring_second_joint_y,ring_second_joint_z,ring_tip_x,ring_tip_y,ring_tip_z,pinky_base_x,pinky_base_y,pinky_base_z,pinky_first_joint_x,pinky_first_joint_y,pinky_first_joint_z,pinky_second_joint_x,pinky_second_joint_y,pinky_second_joint_z,pinky_tip_x,pinky_tip_y,pinky_tip_z,
0.440110713,-0.361933769,0.532335,0.452673246,-0.310757145,0.522005,0.422234663,-0.33944671,0.526463,0.411311586,-0.302527871,0.515557,0.3917394,-0.267771551,0.503033,0.38938684,-0.248508715,0.490638,0.432256833,-0.257923306,0.507998,0.41912734,-0.220285782,0.490108,0.433345202,-0.230096548,0.505302,0.446104243,-0.246763074,0.519116,0.459083085,-0.269183859,0.512533,0.455051949,-0.234913945,0.494902,0.444162689,-0.242898085,0.484617,0.447346098,-0.265750367,0.494366,0.480933174,-0.282810912,0.517226,0.470117433,-0.274994328,0.498904,0.449239642,-0.287529996,0.48953,0.448254438,-0.304027718,0.499923,0.505912695,-0.306730221,0.524437,0.484375833,-0.306395467,0.507623,0.473144572,-0.317141604,0.499898,0.476925042,-0.334395609,0.507058
0.44051909,-0.360478548,0.530534,0.45285567,-0.311949372,0.521008,0.424078345,-0.339902602,0.526399,0.445537423,-0.321165567,0.526924,0.427695871,-0.284646444,0.514819,0.421375666,-0.263327411,0.512961,0.434588441,-0.260578526,0.509722,0.423130034,-0.216480925,0.493519,0.420966963,-0.21180906,0.489429,0.432885002,-0.230522546,0.502683,0.459749801,-0.270763479,0.512272,0.456738149,-0.236992187,0.495599,0.446396521,-0.245203058,0.485873,0.450007463,-0.268399498,0.496148,0.480046135,-0.283404119,0.515256,0.470751583,-0.276408279,0.498434,0.450625243,-0.289381061,0.489828,0.450301191,-0.306357089,0.500968,0.502977818,-0.305956793,0.520333,0.483098392,-0.305345411,0.504648,0.472279188,-0.316464285,0.497441,0.476496197,-0.334209937,0.505135
0.447955061,-0.359693095,0.532125,0.465378878,-0.314311324,0.521983,0.43274701,-0.341283138,0.528991,0.458815233,-0.322734276,0.529723,0.440591603,-0.285958328,0.517488,0.433399094,-0.264099951,0.514713,0.447421363,-0.263305509,0.511587,0.435056588,-0.21740685,0.495667,0.429537615,-0.210957543,0.487707,0.439387801,-0.228276765,0.498199,0.47147058,-0.272678395,0.512683,0.468136933,-0.23856687,0.495626,0.457572693,-0.246484621,0.485675,0.461283189,-0.269640016,0.495862,0.490863648,-0.284656299,0.514528,0.481713888,-0.277489915,0.497777,0.461506764,-0.290444449,0.489207,0.461344662,-0.307521776,0.500387,0.512827514,-0.30643873,0.518372,0.493360139,-0.30473517,0.502661,0.482276356,-0.315959873,0.495443,0.486562066,-0.333902053,0.503141
0.458463209,-0.36258872,0.537298,0.47165816,-0.310343307,0.520929,0.448971945,-0.344246836,0.534552,0.448805682,-0.310702386,0.524236,0.430893757,-0.272541472,0.503581,0.425489085,-0.248078013,0.496253,0.450786232,-0.258205575,0.507098,0.434871045,-0.212562792,0.487464,0.426936758,-0.190440613,0.477647,0.435410391,-0.176909666,0.486244,0.472223289,-0.266339182,0.505919,0.458767058,-0.23825349,0.483517,0.451155843,-0.221349006,0.470449,0.456885402,-0.234905893,0.478409,0.490045073,-0.277474356,0.506469,0.484708804,-0.234325724,0.485344,0.478000012,-0.224326642,0.474536,0.485055561,-0.237851406,0.483539,0.51136973,-0.298723622,0.509829,0.488004318,-0.292917598,0.490358,0.478488343,-0.303563253,0.481411,0.484245936,-0.320940904,0.487413
0.464027479,-0.356077406,0.534075,0.470925751,-0.299074387,0.517351,0.452414655,-0.335674208,0.53426,0.449751572,-0.308715513,0.522822,0.430911446,-0.270573179,0.50088,0.426964768,-0.246639228,0.494338,0.458520374,-0.248483766,0.507034,0.448973065,-0.203120017,0.489455,0.444104368,-0.180990948,0.480666,0.454270712,-0.16809046,0.489412,0.475344734,-0.25679137,0.502015,0.455330698,-0.234252019,0.480065,0.432257811,-0.239540458,0.467261,0.431065567,-0.258144372,0.474896,0.488898096,-0.267890954,0.499437,0.491401805,-0.229425626,0.477599,0.478145961,-0.224083922,0.466426,0.47689802,-0.234820351,0.474721,0.502518164,-0.290633138,0.499192,0.484632386,-0.257181972,0.480892,0.474909685,-0.251635975,0.472484,0.479716057,-0.253814836,0.478446
0.469089932,-0.349970446,0.532624,0.477572887,-0.294781631,0.513908,0.456916036,-0.328416845,0.532482,0.456407978,-0.311433764,0.519403,0.429468682,-0.274045371,0.495569,0.421354883,-0.245199525,0.485726,0.456343785,-0.244819995,0.501917,0.445718122,-0.199325616,0.482887,0.443245706,-0.17605614,0.473371,0.450234203,-0.163688529,0.481298,0.476573892,-0.250066733,0.496746,0.466068653,-0.212863459,0.473062,0.442737242,-0.217747144,0.459246,0.443297621,-0.238341196,0.46603,0.491372863,-0.259807214,0.494227,0.474408683,-0.219840464,0.473097,0.462581127,-0.224168823,0.462287,0.471343947,-0.236662725,0.470381,0.509254604,-0.279402683,0.494381,0.483059065,-0.271695791,0.474761,0.471634412,-0.273432392,0.465746,0.47485603,-0.283039168,0.471026
0.468506371,-0.352664472,0.533329,0.472534764,-0.296238604,0.512892,0.453382119,-0.330649295,0.529497,0.444243188,-0.314172547,0.5112,0.4130012,-0.273508147,0.485308,0.402196944,-0.247266164,0.474646,0.452094757,-0.241786963,0.495107,0.439463226,-0.198075412,0.472181,0.433261607,-0.176020493,0.460718,0.443268043,-0.161860625,0.466817,0.473572022,-0.250620073,0.494151,0.460840985,-0.217910958,0.468098,0.437392398,-0.227983156,0.4529,0.431101288,-0.248282611,0.459149,0.48942827,-0.263586435,0.495262,0.473527302,-0.225850791,0.470619,0.459996045,-0.233460275,0.45801,0.466345438,-0.250525871,0.465158,0.513100197,-0.287661077,0.499954,0.487143813,-0.273066785,0.477587,0.467006526,-0.279360361,0.46731,0.468218975,-0.287420605,0.471907
0.470573901,-0.353476014,0.533572,0.471663439,-0.298434681,0.509241,0.456028382,-0.332808671,0.530842,0.44408643,-0.321723154,0.513531,0.411034403,-0.284400367,0.489679,0.397765886,-0.258044889,0.478341,0.445179127,-0.245849833,0.490404,0.429744693,-0.200461868,0.466056,0.421969975,-0.178054013,0.453882,0.429630629,-0.163480681,0.458574,0.465475264,-0.250507413,0.486929,0.440776761,-0.217894623,0.458003,0.413938337,-0.228712477,0.441129,0.408859992,-0.243942549,0.445476,0.48211681,-0.262478026,0.486328,0.450665366,-0.249984631,0.459733,0.424893749,-0.259577471,0.446126,0.418799001,-0.27797689,0.451452,0.50453624,-0.283690717,0.48966,0.466197495,-0.274206824,0.465609,0.448403558,-0.281249649,0.454559,0.452558934,-0.288495487,0.457763
0.471659507,-0.355472466,0.53357,0.464413025,-0.30816032,0.504657,0.450926194,-0.341235966,0.528254,0.434775336,-0.334964574,0.507106,0.398227305,-0.296972348,0.482999,0.38225586,-0.270069833,0.47018,0.428659569,-0.249866389,0.479633,0.410538058,-0.205382164,0.450174,0.401404228,-0.183397677,0.435444,0.407921078,-0.169764784,0.438017,0.450770702,-0.256263377,0.478145,0.422413536,-0.224959319,0.445025,0.394773082,-0.236220707,0.425705,0.390784901,-0.252227007,0.42772,0.470816536,-0.266824201,0.479606,0.434157258,-0.259583316,0.448456,0.407775765,-0.266923511,0.432518,0.400542015,-0.283251466,0.435154,0.49764704,-0.289013365,0.486114,0.454232506,-0.28408337,0.45844,0.435128508,-0.288762018,0.445725,0.437097333,-0.293345609,0.446933
0.462048825,-0.365173574,0.532471,0.44619114,-0.321519789,0.500594,0.437380885,-0.358820605,0.523968,0.414035013,-0.353641651,0.498611,0.377372838,-0.318609388,0.473383,0.359850184,-0.291654176,0.458263,0.406468869,-0.261924439,0.469634,0.385540357,-0.217776426,0.436654,0.375000154,-0.195955859,0.420163,0.378931379,-0.182828741,0.420211,0.43168405,-0.270366673,0.471364,0.404175098,-0.248022067,0.435392,0.375974908,-0.258136294,0.414409,0.370143464,-0.270495873,0.414547,0.454311286,-0.282558389,0.475749,0.417190695,-0.283352355,0.440946,0.388970076,-0.285718166,0.423139,0.379363595,-0.297953382,0.423458,0.484134131,-0.306451884,0.486175,0.441037555,-0.30665273,0.455705,0.420388122,-0.307682781,0.441705,0.419397509,-0.307949977,0.441227
0.454263017,-0.385357141,0.52536,0.429652178,-0.336847618,0.493536,0.426124007,-0.379607181,0.516353,0.415067226,-0.353487615,0.49693,0.378097392,-0.317874431,0.47307,0.360519785,-0.292737313,0.461218,0.381002592,-0.28018981,0.461967,0.357275363,-0.239180636,0.428932,0.34539616,-0.218766115,0.412414,0.344631525,-0.206279894,0.409328,0.407701714,-0.283942758,0.464355,0.379492547,-0.24780587,0.428345,0.360173292,-0.258191132,0.40734,0.361324778,-0.268039596,0.407445,0.4322997,-0.292362523,0.469276,0.399227884,-0.298156313,0.43424,0.375147321,-0.299207554,0.416314,0.368787047,-0.310901517,0.416537,0.465843905,-0.311990071,0.480321,0.426754292,-0.3146554,0.449694,0.407071687,-0.312861065,0.435622,0.401249625,-0.319238903,0.435082
0.449428178,-0.402453764,0.528506,0.415778374,-0.347385031,0.493798,0.421200478,-0.385702575,0.518458,0.405058171,-0.368107967,0.496974,0.364882822,-0.333969745,0.473029,0.341259656,-0.307672447,0.458208,0.363692382,-0.292653728,0.45908,0.337081912,-0.25586933,0.423357,0.323772901,-0.237504845,0.405495,0.319210094,-0.226170218,0.398672,0.390881009,-0.295254836,0.461971,0.36002392,-0.262250801,0.423757,0.342493555,-0.272012712,0.401466,0.340697795,-0.280369066,0.39954,0.416115547,-0.302635292,0.467574,0.383850864,-0.310829734,0.430319,0.359867044,-0.308173625,0.411258,0.352151069,-0.3161261,0.409237,0.45082483,-0.320821837,0.479896,0.412504184,-0.325928354,0.447567,0.392696634,-0.321499109,0.432714,0.385634424,-0.325111672,0.430523
0.441408802,-0.415398179,0.525949,0.423550147,-0.364658445,0.499222,0.41514294,-0.398849443,0.518111,0.399907756,-0.384246147,0.495633,0.369020263,-0.351392101,0.482407,0.354400366,-0.323083989,0.475135,0.379788272,-0.304842865,0.47236,0.347280524,-0.306083129,0.442898,0.330952493,-0.306873602,0.428167,0.328143232,-0.326853576,0.43146,0.406230083,-0.310005793,0.474714,0.377160297,-0.286548052,0.442802,0.356111507,-0.29595339,0.424186,0.356199877,-0.312489097,0.427232,0.430404934,-0.319813569,0.479135,0.398279468,-0.322724543,0.447965,0.378450055,-0.325263019,0.432018,0.376693035,-0.33928516,0.435419,0.462997807,-0.341620872,0.488747,0.424171385,-0.338025077,0.461206,0.407433349,-0.342153595,0.448552,0.405495222,-0.353171021,0.450377
0.433691924,-0.428450837,0.523751,0.414150033,-0.372855807,0.499708,0.411773549,-0.41112315,0.51978,0.387079551,-0.391987957,0.500832,0.363777142,-0.362832458,0.495591,0.354520702,-0.341200857,0.490356,0.379971949,-0.315786516,0.479472,0.347277323,-0.320911214,0.454325,0.330763146,-0.323757988,0.441752,0.331304399,-0.34640265,0.447079,0.401876886,-0.321069684,0.477661,0.368390702,-0.296552616,0.448645,0.34679585,-0.305035539,0.43172,0.34914774,-0.324379646,0.436288,0.421658186,-0.33075578,0.478403,0.386798094,-0.326950271,0.45122,0.364418387,-0.335934641,0.437313,0.366037906,-0.347590665,0.44273,0.447892042,-0.351929262,0.483262,0.404594154,-0.350396098,0.458783,0.389373711,-0.350766154,0.447535,0.387721865,-0.360966718,0.450821
0.425238324,-0.434456836,0.525442,0.406421366,-0.37733682,0.500489,0.405318273,-0.417028791,0.5227,0.383015296,-0.401198778,0.505317,0.3592861,-0.373066457,0.500508,0.349152892,-0.351649394,0.495642,0.372077374,-0.321129987,0.481246,0.337289828,-0.311084458,0.456543,0.319638749,-0.318882781,0.444191,0.320052586,-0.340052586,0.449201,0.391996445,-0.325199924,0.477607,0.354165704,-0.299114458,0.448192,0.333206625,-0.309978588,0.431034,0.336426291,-0.328855434,0.435057,0.410330382,-0.333922325,0.47693,0.368945071,-0.339202377,0.449923,0.350372348,-0.344953334,0.436106,0.348810543,-0.362188609,0.441098,0.435221565,-0.354015551,0.480275,0.390312129,-0.353570805,0.455886,0.377407811,-0.353820883,0.44468,0.377100465,-0.363764048,0.447631
0.419709944,-0.430675363,0.522056,0.391743668,-0.371819478,0.497623,0.401077421,-0.415791168,0.521424,0.375123668,-0.398376039,0.507054,0.349525919,-0.374272926,0.503199,0.337253946,-0.353701002,0.499815,0.353758564,-0.321292081,0.481401,0.316532517,-0.310234724,0.458721,0.303281775,-0.321095494,0.447382,0.308524154,-0.34272084,0.452652,0.37130225,-0.321092146,0.47522,0.329247927,-0.30254403,0.446856,0.304483184,-0.291862885,0.430498,0.286559583,-0.284922338,0.418814,0.388183302,-0.326094855,0.472401,0.349587248,-0.335601702,0.447159,0.338682782,-0.341154008,0.434245,0.344729938,-0.359701697,0.439409,0.412339139,-0.341415407,0.473151,0.369786864,-0.346315371,0.450147,0.36157244,-0.347089753,0.439577,0.364494965,-0.357079161,0.442646
0.414938031,-0.426307777,0.518462,0.388589289,-0.367469315,0.494489,0.397446605,-0.412607346,0.519131,0.371283204,-0.39234009,0.5067,0.346987454,-0.367562267,0.503894,0.336316955,-0.350114765,0.500233,0.353175646,-0.314935072,0.480216,0.313753141,-0.303554575,0.458914,0.299330814,-0.314608103,0.448263,0.303923273,-0.33632793,0.453656,0.368789376,-0.317104104,0.472507,0.323660483,-0.295691064,0.444954,0.297243011,-0.284494104,0.428943,0.278106138,-0.277164322,0.417506,0.384081962,-0.321723182,0.468387,0.341610951,-0.32925464,0.444379,0.331655295,-0.335450184,0.432096,0.337809589,-0.354935572,0.437329,0.406185539,-0.336512819,0.467538,0.360290933,-0.339719031,0.44552,0.353175548,-0.34103982,0.435404,0.358866359,-0.352461982,0.438522
0.403041448,-0.416840144,0.513016,0.37910782,-0.35496468,0.49064,0.387146473,-0.404788095,0.515359,0.360427706,-0.383016639,0.505556,0.336630803,-0.360848577,0.500039,0.324818654,-0.340036465,0.495028,0.349863101,-0.305011945,0.479508,0.30777902,-0.291864058,0.46057,0.292355332,-0.300865182,0.451101,0.297286642,-0.323755227,0.457078,0.362671325,-0.304689712,0.470121,0.318688836,-0.288935406,0.444432,0.29543691,-0.300293791,0.429447,0.299758316,-0.317679662,0.433758,0.375216793,-0.309574956,0.464472,0.331960387,-0.318251652,0.442737,0.32252934,-0.326341138,0.431617,0.326280056,-0.344578139,0.437413,0.393509259,-0.324748803,0.461566,0.345757409,-0.323524676,0.441391,0.325383877,-0.324640723,0.432121,0.317175377,-0.334111754,0.435663
0.398391768,-0.408685419,0.511316,0.37846804,-0.344054453,0.489812,0.381013749,-0.391604075,0.513566,0.359088817,-0.370785072,0.503678,0.335264858,-0.348764969,0.497491,0.323643769,-0.328352446,0.492489,0.349575627,-0.294753958,0.479114,0.307771669,-0.28163046,0.460559,0.292471988,-0.290684753,0.451281,0.297713959,-0.313691534,0.457735,0.362650496,-0.294559876,0.470094,0.319117644,-0.279000086,0.44503,0.296098715,-0.290789318,0.430409,0.300785941,-0.308657052,0.435245,0.375373513,-0.299479818,0.464666,0.332463497,-0.308392723,0.443408,0.323213081,-0.317176458,0.432532,0.32736091,-0.335931968,0.438862,0.393772697,-0.3145663,0.461875,0.346303394,-0.31375785,0.442088,0.326043498,-0.315341139,0.432997,0.318104343,-0.325158471,0.436939
0.396979093,-0.401216849,0.511233,0.379928718,-0.341597372,0.490326,0.381482472,-0.387824848,0.512798,0.358688426,-0.367625439,0.501929,0.33402772,-0.34588683,0.495629,0.322404537,-0.325635947,0.491941,0.349691344,-0.292612465,0.479131,0.308232475,-0.280402504,0.46029,0.293021176,-0.289088225,0.45087,0.298770172,-0.312261638,0.457722,0.363752807,-0.29240401,0.471156,0.32055389,-0.278084905,0.44629,0.297964583,-0.289934167,0.431785,0.303233879,-0.308350066,0.437146,0.377878299,-0.293918648,0.466533,0.33813885,-0.288975194,0.445141,0.325505964,-0.300462629,0.434197,0.326740958,-0.321817693,0.441003,0.397877665,-0.308234488,0.464585,0.351462136,-0.308805342,0.444696,0.331336013,-0.311701239,0.435558,0.322150767,-0.32509605,0.439858
0.39154202,-0.386035836,0.504218,0.376372681,-0.321625251,0.486239,0.380031161,-0.371514763,0.509265,0.357411158,-0.350508451,0.503991,0.334158457,-0.328596977,0.501429,0.32462569,-0.308242616,0.500621,0.35407231,-0.275999596,0.481329,0.31404896,-0.257953571,0.467311,0.296549772,-0.264347222,0.460302,0.300660664,-0.287351829,0.467924,0.363624681,-0.273837588,0.469751,0.324210413,-0.246153581,0.448586,0.299300672,-0.255720559,0.43624,0.302948537,-0.275837479,0.441963,0.373061834,-0.27693359,0.46189,0.33163251,-0.271930717,0.445101,0.32192292,-0.286592789,0.436512,0.324902343,-0.309370052,0.444009,0.386943713,-0.289505668,0.455664,0.341677627,-0.289818391,0.439538,0.324112952,-0.29491965,0.432129,0.31785438,-0.307053744,0.436959
0.389304001,-0.366709044,0.503374,0.376528309,-0.304731713,0.484056,0.380798135,-0.347107643,0.50941,0.358263572,-0.332791235,0.505681,0.335397172,-0.311237577,0.502895,0.325751374,-0.290814873,0.50112,0.358710083,-0.25843636,0.479566,0.317636652,-0.238251184,0.465825,0.298379173,-0.243610948,0.458955,0.299991599,-0.265260219,0.465511,0.365010845,-0.256749323,0.466343,0.323623561,-0.227080503,0.444658,0.296353609,-0.235259503,0.432008,0.29834022,-0.254250321,0.436471,0.37161716,-0.260265157,0.457252,0.327006739,-0.252742076,0.440482,0.31631988,-0.267339771,0.431901,0.317524318,-0.288683992,0.438177,0.381907064,-0.273391604,0.449806,0.334704253,-0.271120673,0.433719,0.316989568,-0.27544283,0.426327,0.309966822,-0.285896916,0.430252
0.38496395,-0.349896374,0.499286,0.376981911,-0.292016616,0.482883,0.377096084,-0.338265749,0.505291,0.353584251,-0.318264693,0.501681,0.331452754,-0.29706042,0.500056,0.322439109,-0.276258723,0.498563,0.363034823,-0.246669879,0.480192,0.321010382,-0.23935818,0.467971,0.302387162,-0.244878078,0.46186,0.306495919,-0.267730618,0.46999,0.370275149,-0.245719446,0.467841,0.326835488,-0.221536126,0.448339,0.301385506,-0.230208406,0.436963,0.302754188,-0.25465837,0.443114,0.37719946,-0.249690907,0.459198,0.333801477,-0.244771353,0.444219,0.320199237,-0.260089049,0.436555,0.322043887,-0.282510352,0.444574,0.386993106,-0.263074321,0.451792,0.34037984,-0.258392033,0.43716,0.341632917,-0.273212264,0.448329,0.351339134,-0.28463237,0.45781
0.393621611,-0.350590005,0.506725,0.37769548,-0.288273604,0.481465,0.382374432,-0.332290929,0.509636,0.363297341,-0.316489941,0.500663,0.332095893,-0.287336229,0.487576,0.315306246,-0.265924707,0.481859,0.349592227,-0.237268353,0.46924,0.313588431,-0.19871293,0.449386,0.294925085,-0.180825095,0.439459,0.283963638,-0.168141447,0.439671,0.361999213,-0.238253586,0.458304,0.319831827,-0.206499406,0.430773,0.299084655,-0.220127092,0.414714,0.298915651,-0.238093537,0.416991,0.372925042,-0.239535332,0.451647,0.330172162,-0.240739126,0.428655,0.31717626,-0.251489565,0.416892,0.316553808,-0.269008649,0.420624,0.390393227,-0.253096531,0.448038,0.343113796,-0.252461606,0.426869,0.343398268,-0.26611612,0.435766,0.352730823,-0.277065488,0.446666
0.401868018,-0.345617271,0.50937,0.391084896,-0.285809562,0.483104,0.388127703,-0.33232183,0.511489,0.374816075,-0.316593974,0.501246,0.343014124,-0.286997251,0.487614,0.330095769,-0.264798806,0.482368,0.359328294,-0.236843264,0.469233,0.322202396,-0.198164992,0.448118,0.303234584,-0.179942279,0.43756,0.292362204,-0.167058305,0.437393,0.371769626,-0.235759276,0.459019,0.328863376,-0.208935564,0.430407,0.308742895,-0.2229932,0.413717,0.309166469,-0.240523444,0.415683,0.384212703,-0.239913421,0.453049,0.340151529,-0.245566834,0.428816,0.327879475,-0.254324464,0.416417,0.328384618,-0.270169018,0.419753,0.402856962,-0.254046762,0.450414,0.35472629,-0.253233977,0.428235,0.354815139,-0.266875683,0.437042,0.36429601,-0.277973317,0.448263
0.403022102,-0.343311069,0.509577,0.384030761,-0.284814245,0.485681,0.385928867,-0.328278251,0.508243,0.358317776,-0.298605816,0.499367,0.33144621,-0.277349589,0.487537,0.315537806,-0.258303456,0.476958,0.348926884,-0.2349606,0.468902,0.319241206,-0.199425837,0.457196,0.303139897,-0.183260734,0.451344,0.28798619,-0.169205432,0.446023,0.365911175,-0.235978235,0.463769,0.323944992,-0.236306969,0.435591,0.339702859,-0.2671756,0.453298,0.360716126,-0.27613464,0.469829,0.383259108,-0.238779557,0.461763,0.344441936,-0.249094987,0.436378,0.332652062,-0.258032139,0.423391,0.335645764,-0.275721594,0.428917,0.407412704,-0.254235848,0.463377,0.363201318,-0.258960917,0.440272,0.366141712,-0.275414672,0.451493,0.37705824,-0.287974408,0.463975
0.411112539,-0.342234507,0.512831,0.394906363,-0.286330217,0.487201,0.391570873,-0.327195396,0.510397,0.36720736,-0.297928115,0.500029,0.342106499,-0.278390062,0.485827,0.326047944,-0.258899098,0.474428,0.357679434,-0.234977713,0.467924,0.324295659,-0.20022014,0.451177,0.307517446,-0.184221209,0.442803,0.292973289,-0.169499497,0.436442,0.375740305,-0.236583183,0.463699,0.333543196,-0.237332696,0.433849,0.348746457,-0.267711945,0.450936,0.369436532,-0.276662872,0.467685,0.393141218,-0.243018895,0.462602,0.352976923,-0.249222079,0.435363,0.340551452,-0.257715613,0.421427,0.343329137,-0.274902807,0.426039,0.419497451,-0.257515511,0.465568,0.373188875,-0.259629042,0.440977,0.376752259,-0.277019404,0.45175,0.388268353,-0.290274773,0.464582
0.407457681,-0.349407182,0.513806,0.39432895,-0.299013379,0.490788,0.39025244,-0.334438968,0.51264,0.381199974,-0.320377991,0.507229,0.359135903,-0.290442917,0.498672,0.353470412,-0.270640615,0.491149,0.35964177,-0.246412006,0.474777,0.353513531,-0.208120096,0.468531,0.341109627,-0.210870387,0.465408,0.32931989,-0.213582157,0.462569,0.37807896,-0.249981627,0.469682,0.336885024,-0.253804396,0.442242,0.353492957,-0.285580765,0.460371,0.374709657,-0.295277092,0.477077,0.394798803,-0.255848144,0.467625,0.355862162,-0.260148258,0.442925,0.347513239,-0.269996766,0.430288,0.360116971,-0.273574691,0.436279,0.418133836,-0.27197022,0.469034,0.375438271,-0.271911905,0.446488,0.384068636,-0.292059625,0.457998,0.402536883,-0.299914285,0.470433
0.408619273,-0.352678267,0.514415,0.395159065,-0.300971417,0.488755,0.400395742,-0.337083823,0.516335,0.386271829,-0.324126279,0.511031,0.365236427,-0.298434986,0.502704,0.355984906,-0.275947779,0.494466,0.373746299,-0.25192762,0.475013,0.342397094,-0.219206136,0.452867,0.32170949,-0.208283456,0.441793,0.302719533,-0.198271081,0.431726,0.382051731,-0.25520953,0.465226,0.327152625,-0.254636271,0.436949,0.340890649,-0.284742246,0.451564,0.36598249,-0.292376868,0.466627,0.390867886,-0.263067316,0.459552,0.340003722,-0.265477916,0.435501,0.336155294,-0.275720545,0.423195,0.35344613,-0.278266782,0.427027,0.404636954,-0.281759777,0.457161,0.350787192,-0.274901747,0.43512,0.346973686,-0.28623496,0.444366,0.360093397,-0.295718141,0.455709
0.419318967,-0.353875552,0.517182,0.412868184,-0.305923166,0.490228,0.40394848,-0.340713909,0.517065,0.399275517,-0.317684555,0.510308,0.383328855,-0.288316587,0.502473,0.380128472,-0.277274533,0.492705,0.387750703,-0.251080631,0.473071,0.338100304,-0.251821368,0.442237,0.351336681,-0.276469647,0.454294,0.36345988,-0.299275769,0.465255,0.400088862,-0.257024223,0.465512,0.345820014,-0.258350899,0.435456,0.354392765,-0.287551082,0.450576,0.376562984,-0.299440474,0.46656,0.411975918,-0.267084868,0.461794,0.361816356,-0.267613782,0.435379,0.350488434,-0.277079874,0.421865,0.363909739,-0.280782223,0.425398,0.428849025,-0.288342861,0.461908,0.374275139,-0.279906192,0.437951,0.367897699,-0.290722837,0.447471,0.374588422,-0.301230843,0.459594
0.428919009,-0.369468296,0.523217,0.423439748,-0.320420056,0.495677,0.41435485,-0.350165794,0.521279,0.406074891,-0.328229051,0.512101,0.393100534,-0.297107919,0.50394,0.392785535,-0.28515495,0.494166,0.397753881,-0.262934985,0.475827,0.351456188,-0.259415031,0.444871,0.360511316,-0.286468408,0.45742,0.372679901,-0.30974874,0.468829,0.413248885,-0.269430544,0.470424,0.362914279,-0.26640806,0.439287,0.369764881,-0.299504638,0.454959,0.38927042,-0.316512799,0.471141,0.427578031,-0.280138131,0.468534,0.379190611,-0.278699871,0.440442,0.364250263,-0.286380144,0.426069,0.370285237,-0.297746166,0.429514,0.447057363,-0.302617708,0.470888,0.393978635,-0.291573975,0.445592,0.389754091,-0.305117347,0.455429,0.389341432,-0.319849264,0.468146
0.434499916,-0.384921805,0.524405,0.424123678,-0.336844205,0.496082,0.422693192,-0.366004924,0.52449,0.41605945,-0.353020877,0.517443,0.402203888,-0.323380466,0.50761,0.403181951,-0.315509008,0.499532,0.404548611,-0.280482011,0.478318,0.35986274,-0.257847989,0.454284,0.361112189,-0.28337619,0.465761,0.377580495,-0.306464269,0.47983,0.414378126,-0.288848908,0.47011,0.369280928,-0.256959207,0.439164,0.366939019,-0.2863578,0.453062,0.380406856,-0.304096957,0.468618,0.423808207,-0.300849294,0.465984,0.372554076,-0.287788654,0.438932,0.357793648,-0.297647166,0.425091,0.367941364,-0.307210726,0.427637,0.437105219,-0.324234777,0.465848,0.381505774,-0.310766004,0.441389,0.373276612,-0.319570561,0.450099,0.37087638,-0.330441917,0.462085
0.443740314,-0.401547864,0.530802,0.435762767,-0.353230563,0.502971,0.439841633,-0.389817019,0.533153,0.429094243,-0.37111977,0.526365,0.41508543,-0.342179829,0.518828,0.413838102,-0.333387213,0.510428,0.417763934,-0.298098154,0.488408,0.372152167,-0.275818926,0.46681,0.373446092,-0.300856977,0.477052,0.391744085,-0.321521844,0.489666,0.42424589,-0.304285713,0.477451,0.376825282,-0.271803199,0.447899,0.373759116,-0.301739123,0.460192,0.390986809,-0.320312575,0.47474,0.431031675,-0.314534436,0.471016,0.378656613,-0.301584165,0.446129,0.365583633,-0.312228176,0.433396,0.376730363,-0.321997823,0.435449,0.441490412,-0.335953058,0.468093,0.386190939,-0.322789274,0.445422,0.377796135,-0.331134001,0.453136,0.375503073,-0.34165155,0.464106
0.470077764,-0.410616432,0.524317,0.45760645,-0.360361324,0.496704,0.467829566,-0.393470387,0.529229,0.44449969,-0.379273071,0.524308,0.422311763,-0.359233021,0.517859,0.409357479,-0.346283567,0.509546,0.446726017,-0.307927656,0.485546,0.396064683,-0.309505709,0.46691,0.406591868,-0.330662002,0.474471,0.430727764,-0.338645261,0.484846,0.445954109,-0.314784267,0.471384,0.40190101,-0.280242727,0.443568,0.376185412,-0.260077498,0.427341,0.364508157,-0.254050022,0.426351,0.446620367,-0.325186436,0.462291,0.412174709,-0.282221744,0.440047,0.391216717,-0.263107107,0.428667,0.36934282,-0.251575705,0.41968,0.449674489,-0.345960062,0.456219,0.394385817,-0.328851637,0.435834,0.383140874,-0.332216028,0.441376,0.377421191,-0.33851965,0.4507
0.472464494,-0.415811891,0.526056,0.460803493,-0.37036678,0.497541,0.470764546,-0.39793775,0.530463,0.446642578,-0.390243532,0.524813,0.421734696,-0.37259741,0.517149,0.406704594,-0.360175264,0.507896,0.451846455,-0.317083482,0.48517,0.397952824,-0.315598947,0.46562,0.385507138,-0.326453764,0.472914,0.387490395,-0.349948334,0.483543,0.44917564,-0.325530445,0.471395,0.403628962,-0.286168706,0.442721,0.376097106,-0.261304949,0.425995,0.359082608,-0.266916053,0.424605,0.448269062,-0.337220654,0.462703,0.394230366,-0.311210822,0.439533,0.366874193,-0.29799725,0.4277,0.341990946,-0.301549511,0.416943,0.449438747,-0.359428814,0.45725,0.393002023,-0.338217391,0.43612,0.382950462,-0.339942768,0.44143,0.379971554,-0.345255056,0.450926
0.472548255,-0.416862823,0.525936,0.461326526,-0.370461798,0.497927,0.471385185,-0.399034772,0.530502,0.4480506,-0.389814616,0.525208,0.424315167,-0.371876202,0.517806,0.410212036,-0.359264945,0.508761,0.453136066,-0.317544592,0.486077,0.399555223,-0.316103254,0.466884,0.387379955,-0.327084341,0.474513,0.389235779,-0.350583989,0.485135,0.450406981,-0.325949059,0.472243,0.405504721,-0.28666031,0.443955,0.378379445,-0.26262794,0.427454,0.361590558,-0.267558948,0.426411,0.449378465,-0.337568896,0.463457,0.396795256,-0.310296286,0.440666,0.37261943,-0.294248621,0.429468,0.345619506,-0.300262713,0.419288,0.450268547,-0.359621095,0.457809,0.394145775,-0.338500437,0.436971,0.384646949,-0.340420676,0.442562,0.382376974,-0.345782492,0.452064
0.474047762,-0.41948192,0.528292,0.463313159,-0.372284913,0.499796,0.472930049,-0.401126716,0.532371,0.44916848,-0.390244449,0.52628,0.42569054,-0.371815704,0.518389,0.411594042,-0.359239303,0.508828,0.456563873,-0.318968888,0.487016,0.401314952,-0.315913592,0.467068,0.389342467,-0.326991535,0.47485,0.390395481,-0.350384657,0.48583,0.454029982,-0.327886611,0.473666,0.410754255,-0.293968366,0.44476,0.384452996,-0.273542332,0.427899,0.366047922,-0.276885365,0.426836,0.452290115,-0.339677506,0.465322,0.401553839,-0.310263409,0.441799,0.375753211,-0.299076649,0.429763,0.346759662,-0.300423693,0.418822,0.45327149,-0.36231961,0.460275,0.396666433,-0.33997848,0.438827,0.387286512,-0.34178415,0.444533,0.385801858,-0.347333916,0.454294
0.477344491,-0.423097757,0.532754,0.464464463,-0.373001539,0.501163,0.47565994,-0.403780684,0.535818,0.449856319,-0.391225948,0.528054,0.426579399,-0.372919736,0.52057,0.412302333,-0.360174416,0.51096,0.455453436,-0.317428219,0.485139,0.401324156,-0.306641624,0.463077,0.387706644,-0.31474124,0.468506,0.383593337,-0.335105643,0.47938,0.452314389,-0.326418064,0.472196,0.406547047,-0.290503214,0.441036,0.377842835,-0.269988871,0.422859,0.357725951,-0.271591824,0.419459,0.451852715,-0.338845307,0.464476,0.397146716,-0.309269537,0.438718,0.368899191,-0.296224801,0.42554,0.342729764,-0.297060947,0.41356,0.453683489,-0.362369608,0.460671,0.395795995,-0.338424048,0.437535,0.3847002,-0.338813049,0.441279,0.383349432,-0.344466223,0.450874
0.477762049,-0.42374874,0.533746,0.465151252,-0.373209003,0.501979,0.476326317,-0.40438843,0.536818,0.450096568,-0.391675291,0.529142,0.425842835,-0.373500999,0.521857,0.412281137,-0.360717944,0.512292,0.45644652,-0.317472055,0.485852,0.401923876,-0.30657755,0.463769,0.388041797,-0.314478922,0.468911,0.383832592,-0.334768115,0.479679,0.453290106,-0.326540293,0.47285,0.406163841,-0.288872434,0.441631,0.376912402,-0.270409625,0.423419,0.356699447,-0.272440828,0.419784,0.45268706,-0.338952024,0.465097,0.396118441,-0.311477258,0.439305,0.36764429,-0.297814914,0.42611,0.343012937,-0.299852242,0.414113,0.454300326,-0.362474432,0.461284,0.396519854,-0.338349222,0.438138,0.385170977,-0.33860833,0.441648,0.383858302,-0.344322558,0.451154
0.475550856,-0.422366746,0.531983,0.463559489,-0.3707823,0.501003,0.474910925,-0.403554749,0.535676,0.446884488,-0.389823214,0.529,0.423519932,-0.371209394,0.522401,0.409991284,-0.356005514,0.513663,0.456016369,-0.317145627,0.486165,0.401810877,-0.300995134,0.465072,0.387770591,-0.306854936,0.470278,0.382281434,-0.325855807,0.480681,0.452610828,-0.325119517,0.472595,0.404249201,-0.284831935,0.442224,0.375531296,-0.262697391,0.424507,0.355954636,-0.268464741,0.421111,0.451367366,-0.3369584,0.464302,0.395940118,-0.309139298,0.439485,0.367288712,-0.294395337,0.426788,0.343418678,-0.298991433,0.415245,0.451888726,-0.359452703,0.459726,0.394905796,-0.330377014,0.437373,0.382745348,-0.331767416,0.440947,0.382019833,-0.342085313,0.4502
