sluyters/QuantumLeap/backend/src/datasets/dynamic/HandGestureDataset_SHREC2017_csv/Gesture11/finger_1/subject_26_essai_1_skeletons_world.csv
Wrist_x,Wrist_y,Wrist_z,Palm_x,Palm_y,Palm_z,thumb_base_x,thumb_base_y,thumb_base_z,thumb_first_joint_x,thumb_first_joint_y,thumb_first_joint_z,thumb_second_joint_x,thumb_second_joint_y,thumb_second_joint_z,thumb_tip_x,thumb_tip_y,thumb_tip_z,index_base_x,index_base_y,index_base_z,index_first_joint_x,index_first_joint_y,index_first_joint_z,index_second_joint_x,index_second_joint_y,index_second_joint_z,index_tip_x,index_tip_y,index_tip_z,middle_base_x,middle_base_y,middle_base_z,middle_first_joint_x,middle_first_joint_y,middle_first_joint_z,middle_second_joint_x,middle_second_joint_y,middle_second_joint_z,middle_tip_x,middle_tip_y,middle_tip_z,ring_base_x,ring_base_y,ring_base_z,ring_first_joint_x,ring_first_joint_y,ring_first_joint_z,ring_second_joint_x,ring_second_joint_y,ring_second_joint_z,ring_tip_x,ring_tip_y,ring_tip_z,pinky_base_x,pinky_base_y,pinky_base_z,pinky_first_joint_x,pinky_first_joint_y,pinky_first_joint_z,pinky_second_joint_x,pinky_second_joint_y,pinky_second_joint_z,pinky_tip_x,pinky_tip_y,pinky_tip_z,
0.478343119,-0.212967593,0.471323,0.486926594,-0.164964629,0.458834,0.461708105,-0.188146728,0.466274,0.443142681,-0.139928394,0.447231,0.421138742,-0.102793426,0.421485,0.415017734,-0.0813537467,0.403095,0.474412299,-0.102829798,0.442805,0.480236797,-0.0624337888,0.437932,0.484304433,-0.0435177812,0.435495,0.488199905,-0.0253517772,0.43328,0.497000089,-0.115180957,0.444441,0.49386795,-0.0680790064,0.42346,0.49293721,-0.0439773234,0.411221,0.492436899,-0.0271973917,0.402479,0.51449596,-0.128582516,0.446696,0.514780308,-0.0823594388,0.426569,0.51315969,-0.067053244,0.416271,0.51280423,-0.0528272769,0.40691,0.536404342,-0.149748931,0.451148,0.534878942,-0.108949632,0.432067,0.531216689,-0.0999311237,0.423299,0.532318542,-0.0910685161,0.415564
0.49080015,-0.21384758,0.482445,0.493415799,-0.162923165,0.46457,0.471402422,-0.186793393,0.474839,0.448456315,-0.139788867,0.451755,0.427237922,-0.0988348987,0.42803,0.419475988,-0.0802408728,0.407949,0.473026968,-0.0986455853,0.441164,0.481725046,-0.0587731949,0.439186,0.487018977,-0.0398060712,0.438197,0.492603762,-0.0245202907,0.437298,0.497421417,-0.109839666,0.443968,0.488919628,-0.064478659,0.417526,0.476901013,-0.0511322447,0.402101,0.46881546,-0.0424506088,0.391083,0.517971228,-0.122364605,0.447577,0.509287216,-0.080329615,0.422112,0.499380759,-0.0728009533,0.409084,0.492422556,-0.0623513176,0.39724,0.543209922,-0.143942308,0.454405,0.528523561,-0.100720315,0.430434,0.518131709,-0.0981238453,0.41942,0.509036617,-0.0958326689,0.409703
0.506607312,-0.217509549,0.495492,0.504344971,-0.168338463,0.471877,0.483696508,-0.192068903,0.485569,0.456964332,-0.153086252,0.458989,0.431612475,-0.118123929,0.436975,0.419692468,-0.0957882398,0.417467,0.470886089,-0.103133149,0.441106,0.480630402,-0.0634826171,0.438764,0.486463525,-0.0430756368,0.437594,0.491928783,-0.0247157466,0.436529,0.496760125,-0.113333339,0.444659,0.476273813,-0.0734294658,0.412674,0.452608911,-0.078313429,0.394016,0.431080311,-0.0901414534,0.380689,0.518909251,-0.123142361,0.449302,0.488705457,-0.0734316164,0.418557,0.47417301,-0.0657537518,0.402827,0.461055366,-0.0586536136,0.388527,0.548014614,-0.144264738,0.458174,0.527890832,-0.100701345,0.429698,0.512480168,-0.104207385,0.416614,0.497946651,-0.108850272,0.40507
0.499283532,-0.218679926,0.488784,0.49947646,-0.169063621,0.469259,0.479087066,-0.194771627,0.481781,0.456122423,-0.155878373,0.459363,0.430628636,-0.120310276,0.436135,0.421251542,-0.0964587261,0.419475,0.470310336,-0.107467304,0.445282,0.482732548,-0.065141502,0.441364,0.488025385,-0.0452355492,0.439405,0.493104258,-0.0251603374,0.437624,0.497253365,-0.115574429,0.446754,0.479097433,-0.0707874713,0.418914,0.459936439,-0.0714557845,0.402674,0.439788683,-0.0867242673,0.391074,0.517009551,-0.127767519,0.449388,0.500411121,-0.0787456351,0.423096,0.484688555,-0.0803828102,0.409645,0.470398071,-0.0819527456,0.397416,0.543027082,-0.145590749,0.455282,0.512707753,-0.108627124,0.430501,0.499643208,-0.0911298592,0.419114,0.48952494,-0.0906414252,0.409068
0.50298594,-0.220844741,0.492009,0.501910449,-0.174536236,0.471204,0.484042673,-0.201756675,0.485304,0.45939242,-0.161669029,0.463213,0.432064101,-0.125312804,0.438073,0.424986543,-0.10073733,0.42364,0.471227767,-0.112251784,0.446581,0.480692477,-0.0697627578,0.441898,0.487449731,-0.0462848122,0.439557,0.492153182,-0.0259639748,0.437428,0.498591988,-0.118432341,0.447225,0.479523718,-0.0731100698,0.4183,0.458698465,-0.0712241242,0.401427,0.439307403,-0.0846992184,0.389375,0.516983339,-0.130516426,0.449271,0.502072875,-0.0873964199,0.422257,0.482192027,-0.0907372282,0.408435,0.466052651,-0.0950380389,0.395871,0.540641025,-0.15162554,0.454643,0.511617946,-0.118748227,0.429195,0.498181006,-0.102455558,0.417503,0.486943025,-0.103759457,0.407186
0.505282837,-0.226119734,0.492168,0.502367839,-0.178754458,0.472336,0.486055321,-0.203807849,0.487305,0.467359382,-0.172716671,0.467857,0.442383795,-0.1350615,0.445371,0.437504902,-0.114141553,0.429646,0.473280276,-0.121860506,0.450727,0.481792063,-0.0793881688,0.444862,0.485954233,-0.0574596801,0.44193,0.492528922,-0.0296547185,0.439264,0.494797047,-0.129345,0.449478,0.474310889,-0.0818916945,0.421829,0.458298569,-0.0651645981,0.4057,0.441220913,-0.0730757441,0.394179,0.513347191,-0.139059231,0.449896,0.48927341,-0.0885755814,0.42466,0.47406345,-0.0850973302,0.411749,0.460225896,-0.0819129383,0.400011,0.536960469,-0.157393495,0.453185,0.509215634,-0.119083256,0.429174,0.495970335,-0.10216569,0.418142,0.484796902,-0.102489881,0.408407
0.506010062,-0.22259296,0.494602,0.502699737,-0.174801578,0.473592,0.487356428,-0.199527096,0.489462,0.468467531,-0.165298324,0.469568,0.447199336,-0.123140577,0.451158,0.44877432,-0.104598276,0.438025,0.476041443,-0.114034,0.450714,0.484113722,-0.0712448967,0.444542,0.48891556,-0.0475312554,0.441456,0.492630423,-0.0277319367,0.43865,0.497532328,-0.124079207,0.449376,0.473917219,-0.0869791306,0.420626,0.44072787,-0.101929998,0.403855,0.440583849,-0.119809719,0.410377,0.516336022,-0.132765977,0.449805,0.489868712,-0.0865028452,0.423594,0.472723785,-0.0854286868,0.410184,0.45710369,-0.0844864343,0.397993,0.537854982,-0.154218274,0.453274,0.504666347,-0.119144517,0.428422,0.487825892,-0.106646922,0.417003,0.474321733,-0.112143011,0.406927
0.511470433,-0.224686183,0.500018,0.505144166,-0.178466906,0.475995,0.49204766,-0.201177096,0.494143,0.473404158,-0.166685368,0.473127,0.456121138,-0.126622757,0.457665,0.452430936,-0.105648194,0.440251,0.475117432,-0.114238063,0.449838,0.481620852,-0.0730139004,0.443263,0.485279781,-0.0509873195,0.439975,0.489663706,-0.029071385,0.436986,0.495391562,-0.125199936,0.448306,0.469741366,-0.086858534,0.416782,0.435078991,-0.101587087,0.398393,0.433280632,-0.118720034,0.403371,0.513758639,-0.134300046,0.448795,0.486396708,-0.0853127202,0.420117,0.467537212,-0.08506643,0.405445,0.449984268,-0.0871859532,0.392107,0.536822941,-0.153851228,0.45276,0.49930587,-0.124577846,0.425792,0.482349855,-0.115018746,0.413401,0.468323677,-0.122682847,0.402468
0.513402651,-0.228192999,0.502745,0.502027789,-0.182511488,0.475353,0.492266656,-0.208180129,0.495307,0.473580772,-0.173409516,0.472083,0.450597408,-0.13463692,0.455378,0.44600014,-0.113506967,0.437083,0.466070879,-0.119427521,0.444628,0.471241749,-0.0755719201,0.436121,0.473783704,-0.0535661144,0.431867,0.474960202,-0.0341284633,0.428,0.487691046,-0.127206171,0.443782,0.457596345,-0.0893744861,0.409059,0.422607485,-0.104385635,0.388805,0.420249265,-0.118531363,0.391917,0.506965192,-0.137317615,0.44508,0.475100298,-0.0863045991,0.413266,0.455084385,-0.0861982011,0.396989,0.435421091,-0.0992608771,0.382192,0.532405054,-0.155571085,0.450487,0.491991424,-0.126387851,0.420889,0.473871802,-0.116644805,0.407291,0.459750961,-0.122225481,0.395292
0.501880285,-0.232114314,0.494957,0.48957251,-0.189290431,0.468723,0.483415544,-0.210624209,0.489795,0.465973832,-0.182133027,0.469876,0.453304925,-0.144231086,0.46215,0.453057051,-0.124152826,0.44834,0.463578083,-0.123334808,0.44169,0.463002366,-0.0784083219,0.428093,0.462240076,-0.0557032445,0.421294,0.464265825,-0.0340773262,0.417906,0.48187585,-0.132826496,0.438487,0.451457963,-0.0928239546,0.405333,0.418684263,-0.108139141,0.385993,0.417210148,-0.125972218,0.389637,0.497853954,-0.144323889,0.437763,0.467362916,-0.103304335,0.408146,0.444232689,-0.115391461,0.392994,0.427426153,-0.131812232,0.381767,0.518582315,-0.16539658,0.440589,0.478956532,-0.137674789,0.412773,0.46024105,-0.129319878,0.399993,0.444513366,-0.137726772,0.388717
0.48137557,-0.242911862,0.48518,0.465474079,-0.195358332,0.453019,0.456165072,-0.223661694,0.476193,0.438982898,-0.189778959,0.451072,0.415838771,-0.149821796,0.433244,0.410100206,-0.129610514,0.41444,0.428856047,-0.126314119,0.416636,0.430811149,-0.0835037883,0.406419,0.431450508,-0.0616696736,0.40131,0.432231914,-0.0411354849,0.396666,0.449566462,-0.136312419,0.415951,0.412889704,-0.0978901945,0.377081,0.377909127,-0.112075813,0.354406,0.373213205,-0.127061953,0.354464,0.468199926,-0.148430955,0.41773,0.430936008,-0.108503226,0.382096,0.405262325,-0.119899465,0.363864,0.402203666,-0.139027176,0.364404,0.493350685,-0.170708671,0.424382,0.448495062,-0.143955754,0.391614,0.427721612,-0.133453648,0.376558,0.409721698,-0.138516466,0.363274
0.460683157,-0.251700445,0.473949,0.439583506,-0.203958569,0.438263,0.432924589,-0.232223075,0.46398,0.412998305,-0.20324855,0.438013,0.386824281,-0.163371225,0.418626,0.378961753,-0.144025856,0.399324,0.400065028,-0.132753755,0.397894,0.397469807,-0.0899717502,0.38589,0.396385507,-0.0677076775,0.379888,0.395539005,-0.04689949,0.374432,0.420236518,-0.143583391,0.397131,0.377884171,-0.108574898,0.355486,0.34078974,-0.122298862,0.331193,0.334372531,-0.134184726,0.328525,0.438646631,-0.15650738,0.399103,0.394572138,-0.124739352,0.360986,0.366870302,-0.137630577,0.341484,0.36191774,-0.152675354,0.339164,0.463935746,-0.179966669,0.406481,0.414238122,-0.156126341,0.371717,0.391290459,-0.146429128,0.355744,0.371509234,-0.151842217,0.341651
0.438299876,-0.260169967,0.465096,0.418439284,-0.211166022,0.43168,0.40763124,-0.238500015,0.454177,0.390553912,-0.207015393,0.42647,0.368000815,-0.168196511,0.406639,0.361769632,-0.147063495,0.386992,0.380576061,-0.140097697,0.391948,0.381617351,-0.0972765334,0.3828,0.382304185,-0.075087578,0.378227,0.383061162,-0.0543811268,0.374069,0.402991043,-0.151540194,0.393166,0.370609274,-0.11138184,0.352908,0.337877701,-0.1225866,0.329424,0.330060128,-0.137734402,0.328564,0.422953066,-0.164896313,0.396602,0.386895632,-0.127248254,0.35909,0.361283375,-0.138994113,0.339898,0.356683483,-0.156211963,0.339291,0.449547449,-0.188704207,0.405411,0.407877878,-0.160545919,0.371161,0.389763097,-0.147516522,0.355424,0.371056518,-0.151506565,0.341539
0.395373314,-0.280264847,0.450946,0.3816756,-0.225422206,0.415586,0.369749312,-0.252710893,0.437192,0.351414435,-0.224964419,0.405986,0.324407113,-0.18670611,0.383405,0.316736351,-0.165250468,0.362713,0.339011745,-0.153168574,0.370858,0.334581422,-0.110813094,0.35681,0.332522243,-0.088922643,0.349786,0.330772319,-0.0684929283,0.343401,0.364364353,-0.165105796,0.374831,0.3324114,-0.130986339,0.33268,0.300057575,-0.143537923,0.308092,0.292132629,-0.153732414,0.305405,0.386850743,-0.178899922,0.380674,0.350986566,-0.145969873,0.340562,0.326170693,-0.157322742,0.320039,0.319752603,-0.170983581,0.31724,0.416656426,-0.203252697,0.392633,0.376003321,-0.180119337,0.356398,0.357231502,-0.170675154,0.33975,0.340161471,-0.174381833,0.32506
0.3445145,-0.303257804,0.409434,0.334139302,-0.243794243,0.381752,0.326683703,-0.277811321,0.404364,0.308031787,-0.248066477,0.38467,0.282599665,-0.207830122,0.366931,0.276362724,-0.184720068,0.354126,0.303943398,-0.173767388,0.353686,0.29678355,-0.134727398,0.345113,0.293209638,-0.114124988,0.340826,0.289965102,-0.0946848485,0.336929,0.32050969,-0.180300949,0.349847,0.285292835,-0.131334887,0.315567,0.256004432,-0.138844101,0.295571,0.256554671,-0.156591279,0.298283,0.33573526,-0.189864359,0.348704,0.297489418,-0.15526819,0.318273,0.273439436,-0.164201214,0.302704,0.274909647,-0.1836452,0.306327,0.356846612,-0.20978055,0.351234,0.319310249,-0.18384077,0.322722,0.300748172,-0.173168297,0.309621,0.277982472,-0.174198929,0.298062
0.380357519,-0.361368801,0.456247,0.364453995,-0.307767636,0.423387,0.364541544,-0.335338418,0.451285,0.343886077,-0.310321541,0.435907,0.323825401,-0.288726438,0.419536,0.315854319,-0.269587003,0.406267,0.33241742,-0.236365635,0.391359,0.285899482,-0.21262625,0.361444,0.26040652,-0.206862985,0.346486,0.237753925,-0.211656067,0.332888,0.345557833,-0.247345851,0.385513,0.299069767,-0.210385409,0.34751,0.264047086,-0.20344894,0.325342,0.251525603,-0.218174055,0.324074,0.357936894,-0.260462994,0.383097,0.305433429,-0.237539871,0.349955,0.278503979,-0.225810796,0.332999,0.264869855,-0.240565641,0.332627,0.375583765,-0.284104394,0.384833,0.31204469,-0.273783437,0.354102,0.287484388,-0.267569126,0.339983,0.284333335,-0.267692646,0.338843
0.34243731,-0.389371002,0.455009,0.330848227,-0.337646961,0.4207,0.32723199,-0.36087676,0.447627,0.307254202,-0.337547159,0.429197,0.287804355,-0.320283366,0.409358,0.282262669,-0.306235224,0.396081,0.302702598,-0.264338329,0.384575,0.257173785,-0.240368761,0.351916,0.231674355,-0.234059967,0.335587,0.208150326,-0.23688152,0.320742,0.316827336,-0.279073312,0.381156,0.273264168,-0.24320136,0.341244,0.238578288,-0.235555106,0.317962,0.224438452,-0.248991312,0.316116,0.329693659,-0.295232638,0.380842,0.278298117,-0.271913116,0.345167,0.251945218,-0.259993695,0.326914,0.236649321,-0.274719643,0.32571,0.347268364,-0.32235198,0.385296,0.283703816,-0.307225443,0.352484,0.258961219,-0.296131788,0.337409,0.255122965,-0.293177111,0.335636
0.350356414,-0.407331732,0.478896,0.317827409,-0.362436729,0.437549,0.318426492,-0.379807493,0.466942,0.288281767,-0.368080962,0.437279,0.262816439,-0.355586783,0.417181,0.2480437,-0.338847697,0.396711,0.272128488,-0.298619008,0.390284,0.228750513,-0.265791838,0.352267,0.20289197,-0.259343584,0.333259,0.180462413,-0.260847304,0.315979,0.290970124,-0.313545064,0.389893,0.246292088,-0.286803004,0.345083,0.211543625,-0.285720811,0.318945,0.196338977,-0.290200786,0.309353,0.308359627,-0.329060127,0.392583,0.259850412,-0.303941482,0.351558,0.235073317,-0.291067107,0.330569,0.215215742,-0.297371772,0.320888,0.332697954,-0.353817041,0.401615,0.272830211,-0.345191721,0.364944,0.274017481,-0.342866714,0.365131,0.284641016,-0.352941872,0.378109
0.331304299,-0.408485887,0.475635,0.301859961,-0.372019077,0.434358,0.301004772,-0.38894007,0.462904,0.271325301,-0.377204049,0.432773,0.245442875,-0.364010984,0.411267,0.231160303,-0.347283884,0.390724,0.256718016,-0.307319351,0.386202,0.213866498,-0.27404757,0.347481,0.18832436,-0.267364701,0.32812,0.166290435,-0.268344684,0.31052,0.276339767,-0.322921213,0.386784,0.23267357,-0.296077178,0.34169,0.198622849,-0.294596672,0.315385,0.1839772,-0.299060678,0.30613,0.294325223,-0.33903535,0.390269,0.246476295,-0.313642316,0.348662,0.222036053,-0.300623071,0.327374,0.196238752,-0.297962319,0.308022,0.319255743,-0.36456992,0.400242,0.260103424,-0.355114698,0.363074,0.261653646,-0.352672247,0.363675,0.272177742,-0.363025831,0.376989
0.303493685,-0.427462887,0.470297,0.273511055,-0.380564962,0.429173,0.274780982,-0.407001661,0.457568,0.250428172,-0.399447137,0.428754,0.22130745,-0.387299783,0.407967,0.205788205,-0.370620702,0.387134,0.215602352,-0.319236811,0.38114,0.182429428,-0.281340945,0.356339,0.165334352,-0.262858316,0.343938,0.149385617,-0.246438646,0.332665,0.23907207,-0.326837945,0.381775,0.201702911,-0.302905815,0.336397,0.177392929,-0.304597078,0.309926,0.170064794,-0.306031731,0.300914,0.260869543,-0.336575897,0.385292,0.217585874,-0.318762362,0.343272,0.195441885,-0.309646289,0.321773,0.175967956,-0.311051508,0.302229,0.29162012,-0.354948961,0.395283,0.245711107,-0.355670025,0.358064,0.248655691,-0.35736476,0.359009,0.261203203,-0.369077103,0.372474
0.234173551,-0.430241326,0.434194,0.215096658,-0.370473896,0.401798,0.217745707,-0.402609337,0.428879,0.179849935,-0.377291536,0.411584,0.147623072,-0.373362135,0.392628,0.141593322,-0.377726415,0.374504,0.180970197,-0.293412986,0.369708,0.141452871,-0.261967394,0.338713,0.118009859,-0.251071035,0.323215,0.0958185267,-0.242430377,0.309127,0.193214936,-0.303404624,0.36446,0.136575465,-0.302139663,0.326618,0.13270714,-0.295539305,0.304544,0.146408716,-0.289724212,0.303803,0.205180104,-0.316325207,0.362502,0.151546831,-0.31861891,0.329306,0.141193123,-0.320495886,0.312321,0.154627598,-0.321747892,0.31245,0.222973675,-0.340946772,0.364722,0.167574089,-0.333596845,0.33393,0.173182268,-0.350022179,0.342081,0.194580524,-0.360932627,0.356079
0.227568923,-0.430714658,0.426799,0.201655084,-0.379045288,0.396418,0.211054862,-0.406489877,0.423818,0.166880129,-0.391902647,0.408289,0.134447767,-0.389738147,0.390444,0.12974015,-0.392690382,0.372555,0.162812457,-0.306857213,0.368766,0.12170705,-0.278848054,0.338464,0.102433628,-0.269238154,0.328729,0.0841438139,-0.2605032,0.319979,0.175303682,-0.312188806,0.361402,0.12389099,-0.31643236,0.325936,0.124732509,-0.309133058,0.305248,0.138961912,-0.30282399,0.305376,0.18764327,-0.321061504,0.357556,0.139101093,-0.328913259,0.327218,0.132470373,-0.332157019,0.311697,0.147265863,-0.33346392,0.312931,0.206329275,-0.340474894,0.357235,0.155774307,-0.339484146,0.328815,0.162571633,-0.357025084,0.337374,0.183272485,-0.366335693,0.350695
0.223416269,-0.433245355,0.42739,0.192450253,-0.379289245,0.39805,0.202038634,-0.415391975,0.424838,0.159776648,-0.39130886,0.411576,0.127972192,-0.386218033,0.396182,0.122138252,-0.38871636,0.379199,0.154651521,-0.308996504,0.371743,0.113408312,-0.283485673,0.341405,0.0939112578,-0.275460333,0.331942,0.0752897802,-0.268155964,0.32334,0.167413801,-0.314158064,0.364232,0.116786664,-0.319354814,0.32968,0.114986682,-0.315076861,0.309525,0.128529262,-0.312956478,0.310342,0.179844974,-0.322749412,0.360191,0.131871754,-0.331201904,0.33073,0.125296681,-0.334766475,0.315657,0.140250541,-0.33652808,0.317629,0.198383667,-0.341522228,0.35949,0.148585817,-0.341170573,0.331791,0.154750135,-0.358934981,0.34088,0.174851865,-0.367973187,0.354154
0.221702442,-0.434119388,0.427609,0.193680632,-0.379368356,0.398606,0.200761355,-0.414786514,0.424835,0.160731286,-0.390643223,0.411543,0.128989771,-0.384993837,0.39549,0.123232853,-0.387143671,0.378186,0.155842254,-0.309262538,0.372296,0.114024184,-0.28626984,0.342538,0.0937411484,-0.281708942,0.332386,0.0748957583,-0.272652212,0.323926,0.168962749,-0.314715212,0.365179,0.117597159,-0.318817475,0.330767,0.116235499,-0.314143455,0.310693,0.131325648,-0.307726457,0.311866,0.181686358,-0.323526556,0.361436,0.133715655,-0.331989345,0.331971,0.126864109,-0.335505308,0.316896,0.141719649,-0.337539802,0.319205,0.200553167,-0.342518615,0.361045,0.150657854,-0.342259008,0.333333,0.156668373,-0.360308077,0.342767,0.176699342,-0.36940041,0.356178
0.211000361,-0.415584917,0.408985,0.187008325,-0.365551302,0.38424,0.192474053,-0.398638174,0.408591,0.155935297,-0.378026175,0.398466,0.125366386,-0.3728092,0.383155,0.119676042,-0.3743632,0.365869,0.152765502,-0.302473401,0.364199,0.112677505,-0.283297165,0.338256,0.0924587809,-0.277855198,0.327839,0.0737979894,-0.270610786,0.319933,0.164947292,-0.306480097,0.355721,0.115863267,-0.313213166,0.325496,0.115446966,-0.310582247,0.307865,0.131090676,-0.307175863,0.311308,0.176606182,-0.313671538,0.350548,0.131484735,-0.3252106,0.325341,0.125434678,-0.330604476,0.312445,0.141110062,-0.335262683,0.317257,0.193641874,-0.329845033,0.347848,0.146751175,-0.332210711,0.323703,0.153288059,-0.351542906,0.334618,0.172828525,-0.360514035,0.347821
0.218617538,-0.431122791,0.424527,0.194551595,-0.376158438,0.395511,0.198171952,-0.409957035,0.420871,0.159973724,-0.385807488,0.407544,0.128223511,-0.37898422,0.390281,0.122101582,-0.380246234,0.372532,0.154498742,-0.305471386,0.368114,0.112969982,-0.282918676,0.338635,0.0939880267,-0.278588556,0.332134,0.0755278852,-0.274730972,0.326224,0.168080095,-0.311595772,0.362067,0.117108393,-0.315083441,0.32728,0.130735509,-0.343461179,0.342729,0.153295569,-0.35421379,0.360342,0.181249391,-0.320961822,0.359206,0.133427519,-0.328526755,0.329043,0.126347447,-0.33127418,0.313611,0.140882633,-0.33337114,0.316119,0.200743716,-0.340612149,0.359869,0.150885427,-0.339805888,0.331569,0.156819037,-0.358037812,0.341379,0.176772433,-0.367385673,0.355143
0.218729863,-0.428467929,0.42311,0.200592517,-0.36693726,0.394817,0.201320784,-0.405740749,0.4203,0.169998332,-0.376212411,0.409288,0.136590049,-0.370300061,0.392935,0.125806902,-0.376795335,0.375929,0.162086519,-0.298875941,0.369026,0.118852693,-0.27630708,0.341023,0.0985523485,-0.270267782,0.333491,0.0793472761,-0.268275911,0.326645,0.174207405,-0.305363764,0.362208,0.11896131,-0.31331325,0.328296,0.138570852,-0.336384046,0.34386,0.161744766,-0.345216269,0.360554,0.186263302,-0.314920276,0.35866,0.136993536,-0.322752669,0.329548,0.130137537,-0.325256519,0.314654,0.142763816,-0.332646502,0.317521,0.204575541,-0.33454019,0.358401,0.153224902,-0.335621919,0.330978,0.16043709,-0.350778791,0.340891,0.177834024,-0.36450653,0.354386
0.254335468,-0.4024994,0.431895,0.215786599,-0.352922378,0.39974,0.224478993,-0.394530725,0.428844,0.186201283,-0.379410229,0.415533,0.154273587,-0.371819422,0.401079,0.138185634,-0.367647878,0.386993,0.158757058,-0.296041403,0.370599,0.115731822,-0.264410498,0.337616,0.0955444763,-0.258807567,0.330182,0.0771723359,-0.257919026,0.323424,0.172124867,-0.29654943,0.362678,0.122396146,-0.29874307,0.326029,0.137046498,-0.324636228,0.337489,0.158991922,-0.337368952,0.354343,0.186219549,-0.300660997,0.358503,0.14012314,-0.307605168,0.327284,0.133673122,-0.311170263,0.311312,0.145710932,-0.311666022,0.310932,0.209039822,-0.31277863,0.35804,0.164891027,-0.31861552,0.328936,0.165343088,-0.335508405,0.336078,0.180394029,-0.343358703,0.349091
0.256214442,-0.396073975,0.430181,0.220096463,-0.341494067,0.399914,0.234224221,-0.381916852,0.429105,0.196968338,-0.368219232,0.418696,0.160174765,-0.362207205,0.406925,0.143086476,-0.357917578,0.394444,0.164580114,-0.28641852,0.374675,0.120769021,-0.254653766,0.34405,0.099900959,-0.24787435,0.336936,0.0799036178,-0.241626859,0.330469,0.175989887,-0.285116514,0.365029,0.125329349,-0.288029931,0.330617,0.140745338,-0.315512609,0.342374,0.163393217,-0.326507624,0.358513,0.188448831,-0.287708755,0.359298,0.141791229,-0.295643925,0.330685,0.136032681,-0.302120885,0.316046,0.149410065,-0.305146399,0.316563,0.209302995,-0.297975067,0.356708,0.165264568,-0.305298884,0.329791,0.166429316,-0.323140214,0.337195,0.182045448,-0.331193382,0.349538
0.259660412,-0.381559556,0.431077,0.220533631,-0.321272869,0.400275,0.237754208,-0.357145527,0.430117,0.1973833,-0.347346927,0.41927,0.159418272,-0.33721949,0.407894,0.140566992,-0.329940292,0.395375,0.164850236,-0.266668106,0.374755,0.121146554,-0.234609176,0.343791,0.100142405,-0.226672018,0.3358,0.0801023878,-0.219327658,0.328536,0.17633892,-0.264878043,0.364773,0.125819205,-0.267932744,0.330111,0.140743247,-0.294696442,0.340972,0.163126571,-0.3054307,0.35692,0.188834228,-0.267038425,0.358804,0.143964959,-0.277614421,0.330082,0.139617036,-0.283954931,0.315387,0.152969332,-0.285393913,0.315287,0.209693139,-0.276740792,0.356006,0.165816139,-0.284568607,0.329028,0.166572491,-0.301957791,0.335833,0.181897855,-0.309902301,0.347967
0.25925262,-0.365278199,0.4304,0.220933286,-0.310432103,0.399961,0.237484939,-0.351238349,0.429437,0.197626601,-0.335408663,0.418917,0.159894792,-0.324488948,0.407606,0.14117175,-0.316779987,0.395136,0.1660842,-0.255726735,0.374725,0.122679384,-0.223253613,0.343734,0.101813511,-0.214796292,0.335721,0.0819110116,-0.206939497,0.328437,0.177599043,-0.254248131,0.364879,0.126744759,-0.25715746,0.330428,0.141493295,-0.284552994,0.341811,0.163911432,-0.295514257,0.357845,0.190072322,-0.256654597,0.358995,0.144780527,-0.267007397,0.330417,0.1400564,-0.274102998,0.315796,0.153470266,-0.276499174,0.316076,0.210808004,-0.26663456,0.356248,0.16650734,-0.274397345,0.329373,0.167167978,-0.292092396,0.336528,0.182517544,-0.300279739,0.348761
0.267916624,-0.35850054,0.439088,0.230905728,-0.295622089,0.40762,0.246399866,-0.344417357,0.438265,0.208371355,-0.319522244,0.426376,0.169797452,-0.301560513,0.415663,0.148307399,-0.287107892,0.402419,0.176656256,-0.239542442,0.381741,0.133291351,-0.20415271,0.351975,0.113701701,-0.195076569,0.347331,0.09490121,-0.186470462,0.343109,0.186060768,-0.235611867,0.37135,0.133457897,-0.234256951,0.336409,0.147336487,-0.262156578,0.346044,0.170153742,-0.274848912,0.361707,0.196893272,-0.236166297,0.365094,0.149899097,-0.242772071,0.336262,0.144746631,-0.252341012,0.321511,0.158094426,-0.257013232,0.320576,0.215969047,-0.244352813,0.362046,0.170526568,-0.250313225,0.335024,0.171082074,-0.26857087,0.341012,0.187056997,-0.27852522,0.352844
0.265043023,-0.321314912,0.430164,0.229867176,-0.272114796,0.405957,0.24598687,-0.309543276,0.431529,0.208155203,-0.298189243,0.426815,0.170841452,-0.282242057,0.419969,0.150873947,-0.27021563,0.410391,0.180875466,-0.221267393,0.388486,0.136566944,-0.189391297,0.3606,0.117653368,-0.181242302,0.359105,0.0990908576,-0.17340172,0.357747,0.190246456,-0.216824158,0.378057,0.138879337,-0.218936676,0.34907,0.152653649,-0.254254267,0.364918,0.176505448,-0.268110826,0.380378,0.200748725,-0.216672238,0.37124,0.156683119,-0.229053897,0.347813,0.151092442,-0.243009885,0.335827,0.168063535,-0.253808835,0.340406,0.218733369,-0.223440135,0.366501,0.170990357,-0.199175812,0.343881,0.148792119,-0.189186663,0.333488,0.128950597,-0.184006729,0.324612
0.263111564,-0.296649364,0.43774,0.23929515,-0.240888571,0.410329,0.24823698,-0.277186983,0.436396,0.214435163,-0.254223145,0.428054,0.183278994,-0.234029239,0.420506,0.1658909,-0.214850082,0.410608,0.203974945,-0.177854804,0.387022,0.160170107,-0.188034345,0.362751,0.148130587,-0.206452357,0.375081,0.154954078,-0.232600845,0.386291,0.212378018,-0.179319907,0.378736,0.155882374,-0.179803282,0.346108,0.152804007,-0.212636724,0.361388,0.171349818,-0.234343051,0.377987,0.221421099,-0.1845541,0.373916,0.17033043,-0.193940159,0.346461,0.147843324,-0.20189259,0.332414,0.152191554,-0.219613954,0.335543,0.236296201,-0.198900617,0.372014,0.183847996,-0.174425143,0.345986,0.160264955,-0.163331286,0.334028,0.140587049,-0.155300436,0.32576
0.245452636,-0.267307804,0.439674,0.22618711,-0.210112023,0.412206,0.229578232,-0.247433205,0.43628,0.195649711,-0.218626819,0.425891,0.165076413,-0.192313394,0.417618,0.14866618,-0.168958053,0.407563,0.193294495,-0.147045537,0.386353,0.148093616,-0.152750706,0.360143,0.135212587,-0.167396561,0.373503,0.139899331,-0.194755394,0.389182,0.204357245,-0.148048742,0.380548,0.149445964,-0.148153808,0.34702,0.131134005,-0.164348471,0.363683,0.128091347,-0.191561781,0.381041,0.215389877,-0.152855854,0.377772,0.163661886,-0.15831077,0.348674,0.143973312,-0.169249893,0.333786,0.144870686,-0.189081442,0.33737,0.23222044,-0.166714156,0.378321,0.178892466,-0.144607832,0.350905,0.154899391,-0.134590811,0.338309,0.13499481,-0.126743959,0.329562
0.230839967,-0.242938783,0.44969,0.223550114,-0.185470568,0.418439,0.220104796,-0.219539119,0.44422,0.173942343,-0.197308409,0.427403,0.131441536,-0.176973197,0.407621,0.106636571,-0.164036476,0.390994,0.204304829,-0.119965625,0.387064,0.15336293,-0.106631508,0.357317,0.138031609,-0.107705573,0.368851,0.1307835,-0.127772822,0.385197,0.214025354,-0.12444036,0.38242,0.15475452,-0.113000269,0.345316,0.13471523,-0.118135403,0.359677,0.130213027,-0.141492489,0.377606,0.223192999,-0.132136253,0.380875,0.16536999,-0.125383224,0.348146,0.142420748,-0.134148836,0.3314,0.147113044,-0.148842227,0.332502,0.236219414,-0.149567019,0.383428,0.183324533,-0.126427984,0.353006,0.159410334,-0.11617361,0.339029,0.138588845,-0.107213561,0.326696
0.23403537,-0.239371663,0.457674,0.222809638,-0.181053067,0.428066,0.228281728,-0.208610056,0.456104,0.188937904,-0.18878222,0.443448,0.151659347,-0.171613417,0.429436,0.13000638,-0.153585582,0.415595,0.208500325,-0.115768496,0.402747,0.15409942,-0.102534981,0.377369,0.134008128,-0.100990433,0.383695,0.126615535,-0.120991433,0.39817,0.210651529,-0.124005292,0.393941,0.148822117,-0.123049457,0.359681,0.126259468,-0.133867923,0.372817,0.126122769,-0.157755701,0.389333,0.213383319,-0.134682428,0.388853,0.155386738,-0.113330943,0.360093,0.14479708,-0.129630615,0.345379,0.154543377,-0.146666795,0.346758,0.2183958,-0.155138007,0.38694,0.163380891,-0.142609053,0.359857,0.139946262,-0.136929798,0.347413,0.129290202,-0.139238181,0.347627
0.233334976,-0.220341181,0.454495,0.218139629,-0.159976941,0.42738,0.230556579,-0.190785477,0.457576,0.19452913,-0.171326901,0.452136,0.15868527,-0.156354386,0.442138,0.138709155,-0.140121822,0.434952,0.19947998,-0.0983162811,0.409705,0.150662602,-0.0721365781,0.390396,0.126670093,-0.0592517448,0.3816,0.10786981,-0.0489032321,0.384336,0.198677046,-0.10299872,0.396129,0.140925357,-0.109723013,0.366331,0.122133333,-0.127305291,0.376239,0.129028639,-0.14915607,0.390128,0.199332681,-0.110554149,0.386935,0.1439097,-0.0960899114,0.36385,0.126307888,-0.109026887,0.352039,0.135133204,-0.123663516,0.352819,0.202646879,-0.126869007,0.379764,0.150614594,-0.11930435,0.35763,0.131922088,-0.12115243,0.347461,0.133429128,-0.127170376,0.347259
0.241541856,-0.192606355,0.461566,0.221548526,-0.142069338,0.433659,0.236698077,-0.17369438,0.465055,0.200514149,-0.153390472,0.460118,0.167886703,-0.146404663,0.455126,0.146680442,-0.129495131,0.445664,0.200281095,-0.0813716419,0.415854,0.151182509,-0.0564434563,0.396949,0.126855889,-0.0440976106,0.387496,0.106509209,-0.0334598754,0.384787,0.198694013,-0.0851879458,0.401494,0.137887209,-0.0809602916,0.37169,0.115318883,-0.0941703537,0.37922,0.109266378,-0.114216999,0.392364,0.198900379,-0.0919839146,0.391713,0.142479328,-0.0891850577,0.368904,0.114245045,-0.0877169547,0.357234,0.105189958,-0.103386996,0.356522,0.20207698,-0.107312386,0.383952,0.151447389,-0.106893923,0.362168,0.135500308,-0.113683611,0.35216,0.137632936,-0.126412729,0.350829
0.233483247,-0.186077762,0.460273,0.209951134,-0.128332029,0.432766,0.21988718,-0.161014713,0.462362,0.18032345,-0.142123987,0.455437,0.142238413,-0.122456297,0.445736,0.119428921,-0.103878834,0.43528,0.190300548,-0.067624658,0.41357,0.140530959,-0.0428605297,0.392929,0.115766022,-0.0305421727,0.382608,0.0951204796,-0.0197563635,0.38039,0.191591589,-0.0707170284,0.401063,0.131140807,-0.0665025809,0.370307,0.113015174,-0.0852210703,0.381396,0.107057283,-0.105337089,0.396002,0.193950362,-0.076968075,0.392777,0.137964083,-0.0794226692,0.368453,0.115141067,-0.0889338918,0.356009,0.112026794,-0.105809483,0.357235,0.199257204,-0.0918141827,0.386745,0.148536087,-0.0949208412,0.363502,0.133545012,-0.10360841,0.352823,0.139748202,-0.115590331,0.352949
0.232507146,-0.181113176,0.456727,0.210799768,-0.125910607,0.429366,0.223697128,-0.157427161,0.459864,0.183414306,-0.141125423,0.454647,0.144753766,-0.124312135,0.446848,0.120798734,-0.107909091,0.437603,0.189951363,-0.0654085083,0.411562,0.140191588,-0.0413292628,0.392266,0.115425505,-0.0293481525,0.382618,0.0939973715,-0.0186950462,0.377926,0.189741885,-0.0691930065,0.39783,0.12913445,-0.062760411,0.36795,0.111138886,-0.0815693771,0.377333,0.105910959,-0.101511725,0.391087,0.190985968,-0.0759524033,0.388525,0.136361144,-0.0852836843,0.365422,0.129079434,-0.100670255,0.353602,0.129210168,-0.116258615,0.354032,0.195210131,-0.0912270701,0.381257,0.141881078,-0.0894063346,0.359131,0.146984388,-0.100019301,0.365084,0.166398178,-0.105258585,0.37518
0.232849085,-0.179289245,0.456589,0.211377882,-0.125284365,0.428842,0.225287614,-0.15646891,0.45971,0.184538468,-0.140873049,0.454637,0.145551308,-0.124896323,0.447108,0.121101784,-0.109110137,0.437826,0.189753115,-0.0646377268,0.410713,0.139817769,-0.0407398707,0.391316,0.115008877,-0.028871661,0.381618,0.0935068962,-0.0183197376,0.376634,0.189176899,-0.0687031808,0.396861,0.128330466,-0.0614448702,0.366782,0.110378337,-0.0802597794,0.375513,0.105442458,-0.10016726,0.389133,0.190184114,-0.0756878729,0.387486,0.135922307,-0.0850092246,0.364246,0.128624593,-0.10031552,0.352356,0.128585343,-0.115696421,0.35232,0.194252435,-0.0912115643,0.380187,0.14142438,-0.0891185462,0.357975,0.146343039,-0.0995828788,0.363491,0.165629565,-0.104772384,0.373447
0.230838121,-0.17900352,0.456526,0.208741453,-0.124591504,0.425903,0.222205534,-0.156529469,0.458008,0.178874318,-0.136220061,0.45081,0.144250045,-0.120437505,0.441596,0.124346404,-0.10274553,0.432469,0.185526965,-0.0635122362,0.403503,0.135555756,-0.03772581,0.381445,0.11095779,-0.0254488203,0.370416,0.090567874,-0.0157468945,0.366109,0.185897161,-0.0674155914,0.390607,0.130104266,-0.0762749903,0.357877,0.130615306,-0.101054456,0.364591,0.139484925,-0.122038493,0.378538,0.187748183,-0.0742927878,0.382229,0.132952689,-0.0767532476,0.356269,0.107360069,-0.0813104348,0.342988,0.0994217399,-0.0968739418,0.340899,0.192962169,-0.0898014004,0.376526,0.140394476,-0.0884074213,0.352088,0.150796267,-0.107399592,0.356199,0.171398907,-0.113956614,0.366394
0.256082385,-0.177189773,0.442298,0.221364727,-0.12741487,0.415735,0.23486099,-0.167698316,0.442829,0.191460237,-0.144029928,0.434414,0.165138037,-0.122372186,0.429986,0.145834184,-0.10176015,0.42204,0.170553223,-0.0796458909,0.395384,0.140838773,-0.0364418698,0.37871,0.118482666,-0.0293523655,0.370373,0.0974031953,-0.0234088082,0.362794,0.18259553,-0.0725662115,0.385119,0.137728013,-0.082938894,0.350255,0.157862714,-0.111050521,0.364367,0.181052694,-0.117293493,0.381491,0.195142546,-0.070072717,0.378609,0.155372118,-0.0828625665,0.353009,0.157862884,-0.101043307,0.33991,0.173938522,-0.105554041,0.342921,0.215354772,-0.0737055598,0.374568,0.174480773,-0.0893818051,0.350299,0.188419418,-0.106570225,0.359496,0.208168958,-0.108027875,0.371823
0.274390963,-0.197683134,0.438255,0.239734215,-0.148159314,0.411255,0.249646986,-0.186913878,0.4349,0.221011156,-0.172036107,0.423781,0.1786772,-0.148816231,0.408842,0.157940443,-0.12935423,0.402046,0.184625368,-0.0990107723,0.385819,0.153615781,-0.0584517966,0.369948,0.137231267,-0.0379879465,0.362012,0.119169084,-0.034636141,0.354798,0.200815539,-0.0932369151,0.380136,0.151415289,-0.0648654385,0.346982,0.158209507,-0.094429702,0.364009,0.179347319,-0.115087737,0.381347,0.216990764,-0.0918200962,0.377427,0.177194465,-0.096144027,0.348628,0.17597693,-0.113593291,0.333893,0.190218626,-0.120184833,0.337793,0.241843668,-0.0968302907,0.377989,0.198210883,-0.110969112,0.350824,0.195311905,-0.129926405,0.36171,0.198501561,-0.147749333,0.375492
0.293192658,-0.224207035,0.449183,0.259703677,-0.174321461,0.414105,0.26809788,-0.20701197,0.442718,0.237710201,-0.198398479,0.423916,0.196257312,-0.171651937,0.405359,0.174817279,-0.14694999,0.39285,0.204129233,-0.116415075,0.378492,0.172952452,-0.0766771296,0.352752,0.156587582,-0.0569526194,0.339882,0.137159199,-0.0569600218,0.328182,0.221577225,-0.118267481,0.373675,0.170715053,-0.0949647971,0.333638,0.172251285,-0.125670093,0.344152,0.1914446,-0.14405224,0.361934,0.238750746,-0.123379039,0.372267,0.19280374,-0.132684149,0.336946,0.184971736,-0.143570525,0.318875,0.193638292,-0.14273996,0.316761,0.264635121,-0.136590206,0.375521,0.212990529,-0.147208623,0.343033,0.205783088,-0.16070089,0.349442,0.207703799,-0.174285678,0.363361
0.324670224,-0.251296941,0.453535,0.290938653,-0.202738764,0.416242,0.299165061,-0.232341121,0.445864,0.270996378,-0.221878234,0.424745,0.235029381,-0.200650379,0.404976,0.212596038,-0.176622892,0.389126,0.23429772,-0.143296438,0.377405,0.200122393,-0.104727959,0.352893,0.181632891,-0.0866817654,0.340636,0.16457433,-0.0699637699,0.329494,0.25233499,-0.147862649,0.373258,0.198919416,-0.123571973,0.331473,0.199002648,-0.153475318,0.339485,0.218405689,-0.172032839,0.357115,0.270027075,-0.155195369,0.372562,0.220512217,-0.157757989,0.33545,0.207546243,-0.166718088,0.316462,0.213047149,-0.165280951,0.312219,0.296555109,-0.170980615,0.376979,0.242007169,-0.178439062,0.343105,0.232655051,-0.189555116,0.347804,0.23409259,-0.201483624,0.361548
0.316686363,-0.25522537,0.44269,0.284783139,-0.218215491,0.407884,0.29364862,-0.247065007,0.437517,0.267138475,-0.239595746,0.420491,0.235040572,-0.222854386,0.406114,0.212724212,-0.198798447,0.390121,0.232678167,-0.160424775,0.374061,0.214858388,-0.116429015,0.344961,0.198660649,-0.10301727,0.330411,0.180434432,-0.0981030888,0.317184,0.248459371,-0.164854161,0.367767,0.215470927,-0.111098809,0.328485,0.188339373,-0.100007162,0.309974,0.177732234,-0.108820955,0.313148,0.263991362,-0.171950353,0.365124,0.232408438,-0.12443434,0.339838,0.211823037,-0.105547402,0.326901,0.190540536,-0.0936355306,0.31514,0.287412204,-0.18716869,0.366864,0.235118508,-0.193497636,0.335373,0.227917706,-0.204879635,0.341346,0.229779473,-0.217328064,0.354746
0.312255336,-0.286931364,0.441907,0.288167191,-0.239113362,0.410051,0.29039467,-0.265673913,0.435144,0.260731857,-0.256227149,0.414244,0.225073954,-0.234478809,0.390789,0.20516284,-0.210707031,0.375034,0.242889367,-0.176849276,0.376621,0.216780946,-0.135598158,0.343516,0.198650626,-0.121470047,0.326964,0.178635753,-0.115972997,0.311916,0.260434239,-0.184517992,0.373335,0.23130414,-0.137744327,0.335342,0.213641004,-0.111319244,0.313179,0.192202435,-0.109370525,0.297349,0.277059981,-0.194490521,0.372951,0.263304884,-0.145281975,0.336361,0.237373595,-0.147140984,0.317641,0.215239863,-0.154916623,0.300623,0.300920578,-0.213523714,0.376976,0.268605761,-0.167678531,0.345526,0.247204082,-0.16614417,0.331076,0.242553454,-0.1811425,0.330826
0.328647842,-0.319417431,0.447828,0.309074242,-0.268373504,0.414082,0.300902665,-0.296772407,0.434855,0.274883549,-0.280581807,0.406731,0.241454136,-0.253948959,0.378328,0.224139469,-0.229989804,0.36188,0.260169347,-0.202364609,0.371584,0.245327495,-0.15359356,0.345555,0.231635154,-0.15630938,0.332541,0.22003849,-0.168620841,0.32071,0.286313403,-0.210583906,0.375187,0.255168097,-0.162743129,0.334332,0.236951328,-0.135354284,0.310501,0.221586059,-0.127884528,0.293478,0.30972622,-0.221104609,0.380608,0.28308416,-0.208274281,0.341786,0.257534309,-0.216053348,0.321923,0.236822492,-0.209614288,0.303866,0.341135339,-0.241026911,0.391836,0.334880599,-0.229620249,0.356615,0.307402963,-0.231743505,0.340433,0.292630787,-0.231564925,0.338618
0.365430568,-0.335857255,0.461798,0.350908913,-0.286559708,0.423585,0.348998508,-0.306982184,0.452198,0.316965919,-0.268776468,0.428025,0.286143188,-0.252502344,0.406244,0.269574703,-0.233356951,0.387129,0.318819142,-0.21469974,0.381668,0.322384107,-0.177183362,0.355048,0.298705135,-0.176629181,0.341738,0.273426571,-0.18173499,0.329637,0.33340745,-0.23078513,0.379541,0.294582843,-0.189447755,0.336509,0.27194242,-0.165429581,0.311408,0.250140746,-0.154231302,0.293478,0.346860024,-0.247871797,0.380574,0.296915393,-0.234800847,0.341668,0.262179781,-0.231682585,0.321763,0.25571975,-0.228258273,0.316832,0.365530103,-0.275742213,0.387186,0.303989235,-0.263114278,0.35187,0.274792262,-0.249258307,0.335643,0.266721459,-0.241138682,0.331028
0.37522642,-0.339317227,0.464683,0.378851423,-0.299448279,0.4255,0.373604964,-0.308852092,0.452322,0.358038721,-0.284214894,0.425942,0.343294216,-0.26019146,0.401093,0.337637121,-0.245435053,0.381231,0.362618498,-0.230210902,0.37945,0.378539429,-0.206369825,0.356535,0.356847319,-0.202499408,0.345078,0.327039138,-0.20148559,0.334662,0.372828428,-0.252653381,0.380339,0.326312652,-0.220003091,0.335993,0.299198145,-0.200977957,0.310124,0.278446398,-0.188103633,0.291647,0.38186918,-0.274600375,0.383924,0.361790552,-0.248777511,0.342847,0.318758317,-0.238572664,0.321831,0.297476178,-0.234296546,0.315755,0.393621449,-0.307439691,0.393723,0.32701348,-0.278154233,0.356728,0.294872263,-0.25885532,0.33973,0.283431284,-0.248130543,0.334268
0.406347143,-0.359269474,0.472251,0.401056275,-0.318577752,0.432954,0.393623412,-0.327666784,0.458623,0.379360016,-0.312542053,0.431667,0.365258919,-0.292007624,0.406031,0.361472869,-0.280714222,0.386919,0.37961091,-0.249546734,0.385269,0.34943208,-0.228559494,0.346106,0.334385348,-0.218088144,0.326525,0.303165683,-0.2136676,0.308724,0.393533427,-0.272217601,0.387662,0.350881341,-0.243770567,0.343015,0.325962791,-0.227189326,0.31697,0.305996777,-0.216611926,0.298367,0.405719723,-0.2942039,0.392493,0.388751924,-0.264715778,0.349777,0.346853096,-0.25746192,0.327923,0.322573107,-0.254473746,0.321192,0.421444968,-0.326824614,0.403796,0.353386198,-0.301589616,0.366242,0.319562867,-0.28267183,0.348987,0.306317746,-0.27016769,0.343246
0.414995818,-0.361526257,0.478308,0.42003632,-0.325615869,0.441133,0.402980372,-0.329139882,0.463062,0.397703339,-0.313459281,0.435802,0.385228323,-0.293142793,0.407528,0.382590658,-0.28353141,0.387951,0.407093667,-0.261536471,0.393151,0.377930798,-0.239501597,0.353015,0.363233316,-0.228553913,0.332946,0.332021389,-0.223047504,0.314703,0.420432426,-0.287149857,0.398286,0.396339527,-0.256479172,0.354743,0.346500014,-0.249308674,0.329344,0.313538898,-0.238587092,0.311201,0.431566348,-0.311091384,0.405217,0.416127672,-0.288934973,0.363375,0.372646351,-0.279173576,0.341967,0.348956584,-0.273539659,0.33702,0.444920444,-0.345076501,0.418732,0.38105538,-0.319675828,0.381297,0.347552312,-0.301368137,0.364097,0.332496058,-0.288045874,0.359573
0.420682375,-0.366137645,0.481521,0.427560094,-0.335049284,0.444082,0.413417466,-0.333747133,0.466026,0.404045682,-0.321966378,0.437625,0.391147857,-0.300304815,0.409009,0.385383105,-0.283200441,0.388265,0.413053473,-0.268754422,0.395588,0.383751751,-0.245396616,0.355341,0.368981323,-0.233786404,0.335218,0.336109013,-0.226364949,0.316925,0.427241047,-0.294551563,0.40093,0.402745015,-0.262247601,0.357204,0.352897368,-0.25504303,0.331697,0.317743315,-0.242408018,0.313478,0.439159129,-0.318843669,0.408052,0.423541782,-0.295017585,0.365992,0.379894556,-0.28523088,0.344473,0.353399103,-0.277510134,0.339168,0.453563682,-0.353600741,0.421832,0.389237353,-0.32767685,0.384234,0.355281345,-0.309234332,0.36696,0.339566721,-0.295817143,0.362164
0.424463641,-0.375705842,0.477359,0.427236412,-0.342642839,0.441094,0.413847783,-0.343666457,0.463457,0.408966157,-0.335478359,0.439099,0.399360541,-0.312928584,0.412214,0.400155402,-0.295575182,0.395137,0.411892952,-0.270267316,0.39547,0.389426061,-0.247784047,0.35613,0.373431209,-0.237859398,0.33646,0.351252982,-0.231095194,0.318578,0.425940712,-0.294423884,0.399296,0.393463129,-0.264898557,0.356485,0.374314181,-0.247059772,0.331512,0.343673242,-0.242961792,0.313675,0.437741945,-0.317472968,0.405084,0.433239885,-0.288937204,0.364275,0.395377184,-0.281375125,0.343397,0.370755834,-0.28055676,0.339775,0.455589926,-0.352423743,0.417104,0.39646182,-0.330755705,0.380436,0.361551379,-0.314313545,0.363588,0.345819972,-0.304512966,0.360067
0.432621183,-0.389399806,0.480177,0.437424739,-0.350857488,0.444436,0.422265728,-0.357230237,0.467758,0.422729112,-0.347492362,0.445835,0.41434992,-0.327487772,0.420669,0.415496959,-0.311293426,0.403979,0.423323195,-0.280691414,0.401036,0.401402444,-0.254811922,0.362314,0.38476018,-0.243801268,0.342954,0.360274759,-0.235934396,0.325353,0.436588672,-0.303812842,0.403241,0.401636728,-0.271280878,0.361011,0.380551259,-0.251499807,0.336376,0.349523405,-0.247016748,0.31878,0.447855077,-0.326314727,0.407659,0.441157914,-0.296060649,0.367212,0.404482232,-0.287098942,0.346518,0.377451339,-0.285650845,0.343559,0.461668896,-0.359809638,0.417967,0.401728579,-0.335408907,0.382064,0.366992249,-0.318095223,0.365568,0.350204791,-0.307811673,0.362691
0.435687731,-0.392765578,0.481561,0.439259963,-0.353773053,0.445865,0.42546153,-0.36054126,0.469271,0.424868266,-0.350820253,0.447814,0.416643246,-0.338696479,0.423145,0.417177592,-0.325780037,0.405867,0.425067691,-0.28350277,0.40266,0.402904673,-0.257529855,0.36403,0.386119691,-0.246478048,0.344715,0.362263667,-0.238117274,0.327156,0.438255392,-0.306580232,0.404724,0.402924266,-0.273906278,0.362548,0.382350858,-0.25484447,0.337946,0.350835395,-0.24913632,0.320373,0.449467364,-0.329056385,0.409022,0.441813691,-0.299137988,0.368611,0.401237534,-0.291701926,0.347936,0.379559498,-0.289905857,0.345026,0.463236551,-0.362537633,0.419181,0.403010338,-0.338020071,0.383349,0.368033949,-0.320165644,0.366886,0.354418711,-0.310884401,0.364059
0.440558256,-0.397909046,0.485935,0.442315499,-0.357500703,0.448844,0.431871781,-0.36694555,0.472816,0.426249684,-0.354984075,0.449094,0.41668757,-0.348658683,0.423891,0.416545905,-0.335773409,0.405969,0.426007738,-0.287139903,0.403523,0.390629927,-0.266723746,0.364314,0.365029761,-0.25788511,0.344709,0.334191977,-0.250911242,0.326887,0.439779485,-0.31066878,0.406095,0.40437233,-0.275044732,0.362832,0.38427856,-0.25615316,0.337596,0.351962908,-0.249450536,0.31957,0.451610574,-0.333635874,0.410911,0.441785755,-0.303552877,0.369499,0.401533234,-0.293798624,0.348312,0.377682189,-0.290503564,0.344035,0.466366152,-0.367926509,0.421887,0.404690435,-0.342690329,0.385183,0.369014485,-0.323822352,0.368318,0.355019482,-0.312351855,0.364419
0.44011148,-0.397662474,0.484337,0.441801891,-0.35742324,0.447604,0.43081341,-0.366258377,0.470898,0.425052768,-0.354110061,0.446889,0.415534787,-0.3472599,0.421115,0.415367286,-0.334476223,0.403155,0.425561805,-0.287010819,0.402176,0.391163944,-0.266825008,0.363282,0.365787954,-0.258221408,0.343836,0.335086481,-0.251410931,0.326157,0.43985914,-0.310916621,0.405266,0.407622946,-0.277325594,0.362194,0.388550602,-0.257060249,0.337068,0.35746476,-0.251184635,0.319122,0.452105004,-0.334190802,0.410484,0.44258985,-0.304530394,0.369263,0.402406821,-0.294909749,0.348173,0.377365275,-0.292960941,0.344181,0.467292916,-0.36880851,0.421888,0.405627274,-0.343784748,0.385197,0.369893469,-0.324872554,0.36834,0.356642636,-0.314401539,0.36462
0.440134877,-0.397906856,0.483629,0.441968771,-0.358929257,0.446885,0.430611844,-0.366320946,0.470146,0.42436795,-0.353961965,0.445689,0.414671763,-0.347173221,0.419834,0.414280896,-0.334446897,0.401701,0.425405267,-0.287410826,0.401393,0.39175242,-0.267108004,0.362442,0.368455109,-0.259386569,0.342966,0.336136392,-0.251561303,0.325261,0.440161313,-0.312513466,0.404534,0.407407153,-0.278034693,0.361447,0.388317136,-0.257921619,0.336314,0.357130728,-0.251985784,0.318361,0.452305586,-0.335852047,0.409793,0.442797512,-0.306827932,0.368561,0.40244964,-0.297150758,0.347465,0.376921335,-0.293526595,0.343454,0.467342362,-0.370446646,0.42125,0.405535892,-0.345564404,0.384539,0.369777572,-0.326429599,0.367671,0.356236186,-0.314638572,0.363935
0.442687206,-0.400050369,0.483627,0.4425031,-0.359098163,0.446446,0.431486407,-0.366750975,0.47009,0.423678879,-0.35385641,0.444581,0.413304183,-0.347499607,0.418876,0.412057226,-0.334746622,0.400303,0.427326385,-0.289136785,0.400544,0.393419738,-0.267699115,0.361277,0.368450728,-0.258961101,0.341644,0.337841486,-0.251946723,0.323795,0.440247847,-0.312441576,0.403592,0.408116521,-0.278962641,0.360209,0.388755864,-0.258983511,0.334902,0.356201827,-0.251736548,0.316826,0.452295795,-0.335741329,0.408807,0.43650558,-0.313579504,0.367278,0.391512175,-0.302159127,0.346031,0.372071771,-0.296126917,0.341596,0.46728735,-0.370297109,0.420271,0.405138559,-0.345238742,0.383378,0.369289828,-0.325942948,0.366426,0.355394123,-0.313903712,0.362378
0.443841345,-0.400968485,0.484036,0.44385902,-0.360480156,0.446379,0.432130651,-0.367232118,0.469927,0.421731487,-0.353843658,0.44212,0.408175948,-0.3506953,0.416491,0.404133597,-0.339376357,0.396885,0.427752745,-0.289908947,0.399402,0.396201622,-0.268361495,0.35959,0.371763537,-0.259321526,0.339684,0.339665614,-0.25150556,0.321588,0.442199712,-0.314447279,0.402975,0.40483828,-0.285000729,0.359212,0.382011396,-0.266883068,0.333684,0.348645162,-0.260951548,0.315449,0.453965662,-0.337281322,0.408658,0.435265245,-0.314805732,0.366811,0.389765997,-0.302967975,0.345401,0.366292767,-0.296714815,0.340392,0.469543512,-0.372387323,0.420748,0.406415526,-0.346772911,0.383485,0.370311884,-0.327057856,0.366364,0.355781697,-0.314751752,0.36184
0.443676277,-0.400998373,0.483037,0.444443268,-0.361280919,0.445368,0.431813201,-0.367243216,0.46882,0.422304483,-0.356836421,0.440996,0.412399475,-0.357175165,0.415695,0.408963015,-0.346892005,0.395771,0.42692686,-0.290197115,0.398252,0.395083454,-0.268691627,0.358213,0.37452622,-0.260109292,0.338194,0.347465841,-0.252520195,0.319995,0.442584357,-0.315539124,0.401952,0.403408511,-0.285867928,0.35817,0.380331872,-0.267861826,0.332631,0.346931682,-0.261979961,0.314389,0.455240288,-0.339370998,0.40774,0.433587749,-0.317311369,0.365936,0.387731335,-0.305262885,0.344548,0.365156024,-0.297358545,0.339521,0.471052096,-0.374567991,0.419957,0.406064656,-0.347902666,0.382654,0.369915681,-0.327927812,0.365515,0.355952668,-0.315419499,0.360956
