sluyters/QuantumLeap/backend/src/datasets/dynamic/HandGestureDataset_SHREC2017_csv/Gesture11/finger_1/subject_5_essai_4_skeletons_world.csv
Wrist_x,Wrist_y,Wrist_z,Palm_x,Palm_y,Palm_z,thumb_base_x,thumb_base_y,thumb_base_z,thumb_first_joint_x,thumb_first_joint_y,thumb_first_joint_z,thumb_second_joint_x,thumb_second_joint_y,thumb_second_joint_z,thumb_tip_x,thumb_tip_y,thumb_tip_z,index_base_x,index_base_y,index_base_z,index_first_joint_x,index_first_joint_y,index_first_joint_z,index_second_joint_x,index_second_joint_y,index_second_joint_z,index_tip_x,index_tip_y,index_tip_z,middle_base_x,middle_base_y,middle_base_z,middle_first_joint_x,middle_first_joint_y,middle_first_joint_z,middle_second_joint_x,middle_second_joint_y,middle_second_joint_z,middle_tip_x,middle_tip_y,middle_tip_z,ring_base_x,ring_base_y,ring_base_z,ring_first_joint_x,ring_first_joint_y,ring_first_joint_z,ring_second_joint_x,ring_second_joint_y,ring_second_joint_z,ring_tip_x,ring_tip_y,ring_tip_z,pinky_base_x,pinky_base_y,pinky_base_z,pinky_first_joint_x,pinky_first_joint_y,pinky_first_joint_z,pinky_second_joint_x,pinky_second_joint_y,pinky_second_joint_z,pinky_tip_x,pinky_tip_y,pinky_tip_z,
0.51013562,-0.36648377,0.561023,0.51298573,-0.32543838,0.563356,0.48765405,-0.34995986,0.555298,0.48398135,-0.32659709,0.560003,0.4598708,-0.31305214,0.561617,0.44875261,-0.28728799,0.555473,0.48706335,-0.27967827,0.557483,0.4790031,-0.24489696,0.556653,0.47402066,-0.22749294,0.556237,0.48556835,-0.21793589,0.572431,0.51548676,-0.28577857,0.565578,0.5077963,-0.24478993,0.560169,0.50350151,-0.22087803,0.557013,0.51882898,-0.21148915,0.572162,0.53891825,-0.29240876,0.571992,0.53016446,-0.25436911,0.569535,0.52806566,-0.23472791,0.568278,0.53104105,-0.21855872,0.567135,0.5662533,-0.30126402,0.578999,0.56161945,-0.26926824,0.577205,0.56219118,-0.25454995,0.57638,0.56384932,-0.24474338,0.575653
0.51055907,-0.36636484,0.561235,0.51315391,-0.32542871,0.563719,0.48860785,-0.35043111,0.556232,0.47061383,-0.32282178,0.556004,0.45146056,-0.30172902,0.556314,0.43854041,-0.2802322,0.549774,0.48777666,-0.2803651,0.55889,0.47719193,-0.24471071,0.558587,0.47393919,-0.22772467,0.558435,0.4860398,-0.21857928,0.574937,0.51507678,-0.28551253,0.566086,0.50747556,-0.2441435,0.560335,0.50393896,-0.22134869,0.556981,0.52046564,-0.21146375,0.572234,0.53783442,-0.29231641,0.571743,0.53054587,-0.25349832,0.569581,0.52868942,-0.23395148,0.568474,0.53008489,-0.21794061,0.567468,0.56472306,-0.30558682,0.577843,0.56127951,-0.27098625,0.577375,0.56274888,-0.25655863,0.577161,0.56600493,-0.24632756,0.576971
0.51152483,-0.36705745,0.562589,0.51379454,-0.32600664,0.564976,0.4892708,-0.35104825,0.557365,0.46968568,-0.3231321,0.556305,0.44862035,-0.29951519,0.553699,0.43615437,-0.2792154,0.549607,0.48659379,-0.28056306,0.559793,0.4773316,-0.24510691,0.559699,0.47373299,-0.22767009,0.559652,0.48495491,-0.21838885,0.576148,0.51428506,-0.2854839,0.56725,0.5056421,-0.24393705,0.56129,0.50393661,-0.22102355,0.557814,0.52005115,-0.21171823,0.572957,0.53699057,-0.2918291,0.573133,0.53089022,-0.25368317,0.570298,0.52855364,-0.23401162,0.568847,0.52659133,-0.2153943,0.567529,0.56434577,-0.30541341,0.579513,0.56146811,-0.27203795,0.578154,0.56261894,-0.25739604,0.577529,0.56539258,-0.24621252,0.576978
0.50909848,-0.36748284,0.563197,0.50022393,-0.32352118,0.566151,0.48553286,-0.35073364,0.558079,0.45732201,-0.31689202,0.556795,0.43579396,-0.28899467,0.550063,0.43289768,-0.27716703,0.557612,0.47628539,-0.27798205,0.561491,0.4657321,-0.2415767,0.558265,0.46149725,-0.22344345,0.556652,0.4751883,-0.21456336,0.572361,0.50435751,-0.28518336,0.568965,0.50395073,-0.24450579,0.563879,0.50520154,-0.22182284,0.560912,0.52155613,-0.21276627,0.576272,0.52736237,-0.2938019,0.574802,0.5390803,-0.26143657,0.575369,0.54678451,-0.24246985,0.57566,0.55511524,-0.22949024,0.575924,0.55432993,-0.3092733,0.581021,0.55960045,-0.28108868,0.582464,0.56436567,-0.26725243,0.583127,0.56979001,-0.25067795,0.583712
0.51336197,-0.36993341,0.569941,0.49821171,-0.31409024,0.567849,0.48742581,-0.35111792,0.564458,0.4620223,-0.31973418,0.563781,0.4331084,-0.28753636,0.545494,0.42379884,-0.26954949,0.542465,0.46575022,-0.26941545,0.559286,0.45620285,-0.23560652,0.55967,0.45191925,-0.21868275,0.559862,0.46127926,-0.20908606,0.576688,0.49362887,-0.27248288,0.565856,0.4809313,-0.22983074,0.554699,0.47559915,-0.20885999,0.54819,0.4879162,-0.20015818,0.562112,0.51736568,-0.27799116,0.571491,0.50674477,-0.23743265,0.560981,0.50130882,-0.21661253,0.555604,0.49636592,-0.19764274,0.550716,0.54677706,-0.29033352,0.578426,0.54703277,-0.25210156,0.577046,0.54802438,-0.2342622,0.576412,0.54890309,-0.21848444,0.575853
0.49559153,-0.36073586,0.565564,0.49265908,-0.32141276,0.568284,0.47315473,-0.3448788,0.560626,0.45127586,-0.31920289,0.560075,0.42693945,-0.28435886,0.536363,0.42090436,-0.26653872,0.536185,0.46842185,-0.27383273,0.5637,0.45537144,-0.24205793,0.563139,0.44937435,-0.22508756,0.562859,0.4602075,-0.21299505,0.579289,0.49551858,-0.2819293,0.570875,0.48843357,-0.24089818,0.564778,0.48548606,-0.21720156,0.561221,0.49987133,-0.20738137,0.576378,0.51863822,-0.28946072,0.57649,0.50894886,-0.24924355,0.569644,0.5041117,-0.22896019,0.566142,0.50141873,-0.21089816,0.562958,0.54588236,-0.30376649,0.582496,0.54358385,-0.26636934,0.580616,0.54506322,-0.2486451,0.579752,0.54787476,-0.23417533,0.57899
0.50760464,-0.3668907,0.571649,0.49028681,-0.31758261,0.566401,0.47480111,-0.34607812,0.563178,0.44550242,-0.31613021,0.552375,0.4187965,-0.28517078,0.521849,0.40808715,-0.26488628,0.513552,0.4504013,-0.2681854,0.551804,0.43834801,-0.23475954,0.552047,0.43240239,-0.21791814,0.552168,0.43940042,-0.20843949,0.56835,0.47978741,-0.27161247,0.561403,0.46259291,-0.22739486,0.546637,0.45658616,-0.20443634,0.538024,0.46782904,-0.19430738,0.550124,0.50515143,-0.27755726,0.569873,0.4861136,-0.2360037,0.553749,0.47768944,-0.21567384,0.5455,0.47211871,-0.19918884,0.538,0.53722509,-0.29060841,0.580691,0.52263964,-0.24625819,0.566164,0.51594397,-0.22608086,0.559489,0.51524636,-0.2150734,0.5536
0.50050448,-0.36260829,0.571916,0.48565506,-0.312962,0.563967,0.47488616,-0.34637886,0.564138,0.44380783,-0.31867534,0.552107,0.4125937,-0.29063179,0.521695,0.39901506,-0.27077385,0.51163,0.44093603,-0.26761951,0.54844,0.43025832,-0.23645624,0.552236,0.42487515,-0.22076816,0.554134,0.43165156,-0.2121944,0.57134,0.46937298,-0.26851948,0.556398,0.45138365,-0.22409985,0.540654,0.44647532,-0.20814773,0.53147,0.4587666,-0.20343288,0.543547,0.49444678,-0.27246204,0.563807,0.46628367,-0.23292485,0.545673,0.45350198,-0.21418451,0.536394,0.44201447,-0.19719927,0.52796,0.52709582,-0.28330725,0.573902,0.51271545,-0.2403082,0.563628,0.50727887,-0.22103897,0.558907,0.50268901,-0.20412932,0.554742
0.49917022,-0.36232917,0.572917,0.47281118,-0.31083566,0.563958,0.46974099,-0.3460143,0.564783,0.43002105,-0.31756216,0.551911,0.40221959,-0.28868293,0.521392,0.39342775,-0.2688279,0.508831,0.42960506,-0.26485925,0.547279,0.4181799,-0.23329915,0.550232,0.41242076,-0.21740658,0.551709,0.41878326,-0.2085533,0.568793,0.45824146,-0.26620022,0.555425,0.43932994,-0.22054569,0.537057,0.43355024,-0.21106337,0.526343,0.4458585,-0.22307164,0.537571,0.48357896,-0.27057042,0.563098,0.46483753,-0.22631644,0.54507,0.45848416,-0.21083748,0.535846,0.45274267,-0.19649794,0.52746,0.51669636,-0.28206597,0.573689,0.49859407,-0.23677581,0.558365,0.49310274,-0.21892156,0.551324,0.48964094,-0.20676319,0.545112
0.49773393,-0.36178001,0.573081,0.47277345,-0.31081086,0.563913,0.46796845,-0.34558587,0.564799,0.43126126,-0.31657796,0.551951,0.40383732,-0.28667156,0.522053,0.39159908,-0.26563756,0.50944,0.42930755,-0.26467583,0.5469,0.41807426,-0.23324022,0.550093,0.41240656,-0.21739909,0.55169,0.41880903,-0.20856614,0.568828,0.45804015,-0.26608328,0.555181,0.43838327,-0.22032433,0.536117,0.43216132,-0.21000602,0.524995,0.44423813,-0.22136464,0.53598,0.48348535,-0.27051805,0.562989,0.46482582,-0.22843528,0.544305,0.45830434,-0.21182324,0.534746,0.45254817,-0.19823189,0.526055,0.51677381,-0.28210826,0.573775,0.49770246,-0.23629203,0.55733,0.49181189,-0.21860535,0.549775,0.48801306,-0.20677001,0.543109
0.46426051,-0.3333814,0.564092,0.45536334,-0.2925595,0.564138,0.43482696,-0.31625923,0.552612,0.43770282,-0.28462973,0.554807,0.42570372,-0.24970192,0.541991,0.43201432,-0.23306515,0.548653,0.41450362,-0.24795154,0.549216,0.40404284,-0.21496252,0.54937,0.39865457,-0.19797457,0.549447,0.4037937,-0.18692496,0.563661,0.44710179,-0.2546498,0.564182,0.44746872,-0.22256229,0.555083,0.44793859,-0.20290241,0.549776,0.46533184,-0.21018646,0.561434,0.4750447,-0.26280829,0.5765,0.47838063,-0.2345169,0.564021,0.47623728,-0.22192119,0.557637,0.4777468,-0.21134767,0.551833,0.50997948,-0.27765426,0.59079,0.49684877,-0.24213177,0.579525,0.50500814,-0.2487809,0.57435,0.50897315,-0.26219897,0.572074
0.43892469,-0.30609893,0.547454,0.43729696,-0.27117071,0.55553,0.41471927,-0.29278058,0.542306,0.41421769,-0.26236737,0.547581,0.40200744,-0.23051489,0.54031,0.40226193,-0.21423608,0.546326,0.407452,-0.23406223,0.554309,0.3965596,-0.19892631,0.550654,0.39099565,-0.18087748,0.548826,0.39761407,-0.1691757,0.563823,0.43580744,-0.23819924,0.563222,0.44595726,-0.21746279,0.563189,0.45249244,-0.20411363,0.563169,0.47635453,-0.21745914,0.579241,0.45922943,-0.24376988,0.569692,0.46752098,-0.23023141,0.566825,0.46359009,-0.24875296,0.565358,0.47042572,-0.26811417,0.580569,0.48717779,-0.25463233,0.575684,0.48157069,-0.21501436,0.572154,0.48755823,-0.21608878,0.570532,0.49317915,-0.21711415,0.569101
0.4390283,-0.30674102,0.549415,0.43516933,-0.27047687,0.555592,0.41392799,-0.29301051,0.543166,0.41368919,-0.26261595,0.548052,0.401056,-0.22964967,0.538404,0.40211357,-0.21279403,0.54414,0.40277804,-0.23205822,0.551646,0.38664368,-0.19540366,0.545799,0.3804505,-0.17725272,0.542876,0.38969354,-0.16632612,0.557111,0.42868783,-0.23517836,0.561474,0.44076002,-0.21509749,0.559215,0.44673518,-0.20156642,0.557897,0.4660681,-0.2154088,0.573252,0.45258639,-0.2407834,0.568902,0.46317236,-0.22870966,0.563838,0.45940773,-0.24648591,0.561247,0.46577009,-0.26695388,0.575679,0.48152629,-0.25193041,0.576362,0.47529007,-0.21464757,0.571004,0.48403,-0.21530267,0.568543,0.48991299,-0.21745353,0.566371
0.43883925,-0.3060092,0.548932,0.43223608,-0.26878048,0.553475,0.41083381,-0.29009059,0.537922,0.40589002,-0.25713029,0.535728,0.39570358,-0.22161482,0.515233,0.39114141,-0.20266791,0.515144,0.39091052,-0.22509019,0.542219,0.37552506,-0.18689876,0.531869,0.36846325,-0.16984363,0.526695,0.37434767,-0.1584748,0.537281,0.42046176,-0.23117409,0.557802,0.43775565,-0.21244089,0.553866,0.45274817,-0.19876139,0.55157,0.47038617,-0.21187124,0.564156,0.4454418,-0.23865418,0.570144,0.46199406,-0.22860513,0.561967,0.46386562,-0.24455447,0.557783,0.46207345,-0.26442898,0.568957,0.47616252,-0.25224943,0.583616,0.48898385,-0.23448533,0.576137,0.4879739,-0.25070768,0.5727,0.48866216,-0.26618885,0.580948
0.43548148,-0.30326944,0.543762,0.42930669,-0.26661186,0.549493,0.40824261,-0.28800639,0.533038,0.40628842,-0.2572234,0.530041,0.39069154,-0.22403879,0.509557,0.38813331,-0.20459753,0.513342,0.39207736,-0.2239645,0.539415,0.3775226,-0.18652769,0.529886,0.3701587,-0.16743085,0.525121,0.37395206,-0.15418293,0.535895,0.42188839,-0.22858937,0.55495,0.44388583,-0.2127336,0.552379,0.45797919,-0.20270483,0.550879,0.4790873,-0.21871704,0.56378,0.44694872,-0.23494018,0.567126,0.46629982,-0.22657126,0.560146,0.46911644,-0.24198796,0.556575,0.46820078,-0.26442133,0.568057,0.47746074,-0.24732255,0.580181,0.49222968,-0.23414285,0.573735,0.49282225,-0.25230486,0.572656,0.49189356,-0.26697137,0.582208
0.4482112,-0.3144619,0.554922,0.43161414,-0.27390834,0.543939,0.42663713,-0.30664705,0.546738,0.41612952,-0.278619,0.538117,0.3943897,-0.24413668,0.516279,0.38557775,-0.22576917,0.515516,0.38356312,-0.23141694,0.525823,0.35970742,-0.19225747,0.505376,0.34781317,-0.17273969,0.495153,0.35043501,-0.16120365,0.50521,0.40973633,-0.22997824,0.53348,0.40758159,-0.21300148,0.513213,0.40675379,-0.2028351,0.501391,0.42513375,-0.21885312,0.512003,0.43322924,-0.23201686,0.540968,0.41904032,-0.20165746,0.520575,0.41182198,-0.18571504,0.510142,0.43144381,-0.1935066,0.520074,0.46480894,-0.24049903,0.551725,0.45859023,-0.23003126,0.532638,0.47609717,-0.25436002,0.54722,0.48500459,-0.26776622,0.559592
0.45492747,-0.3190263,0.553479,0.43645896,-0.27033139,0.537423,0.42722487,-0.30729375,0.540662,0.42205847,-0.27030859,0.525652,0.39790894,-0.23154654,0.496241,0.38569976,-0.21003535,0.488622,0.38093332,-0.22376411,0.509825,0.35926629,-0.18434601,0.483253,0.34949493,-0.1656148,0.469967,0.35467976,-0.15505107,0.475909,0.40982783,-0.22490279,0.52213,0.40325583,-0.19907503,0.495574,0.39963807,-0.18379118,0.480083,0.41342382,-0.1958543,0.486687,0.43627471,-0.22919279,0.533994,0.40842149,-0.18818759,0.507163,0.40973029,-0.1861689,0.493436,0.42501216,-0.20210999,0.499116,0.47252611,-0.24063063,0.550782,0.46472036,-0.22786977,0.52704,0.48054793,-0.25069238,0.539024,0.4893154,-0.26418491,0.552026
0.45868833,-0.31908982,0.548892,0.44457708,-0.26880524,0.534389,0.43527732,-0.30328625,0.535786,0.43054729,-0.26875354,0.522628,0.4062588,-0.23020507,0.493366,0.39444122,-0.20901918,0.486258,0.38933656,-0.22273093,0.507471,0.36851566,-0.18390541,0.482098,0.35918429,-0.16541922,0.469412,0.36498767,-0.15496636,0.475649,0.41887593,-0.22423385,0.520577,0.41377811,-0.19910917,0.495659,0.41107869,-0.18418971,0.481124,0.42559189,-0.19642776,0.488112,0.44579173,-0.22873697,0.532932,0.41884442,-0.18823398,0.507288,0.42068314,-0.1864447,0.494167,0.43637925,-0.20252748,0.500147,0.48242588,-0.24028855,0.549999,0.47585272,-0.22799515,0.52733,0.49189267,-0.25083563,0.539332,0.50028768,-0.26415476,0.551963
0.47785416,-0.31378387,0.545249,0.46299993,-0.26753656,0.537362,0.44807506,-0.30155677,0.535232,0.43138802,-0.26730139,0.520556,0.41368933,-0.23520897,0.503167,0.40317962,-0.21369893,0.496556,0.41148722,-0.22603678,0.518959,0.40987846,-0.20933847,0.500795,0.40939937,-0.2007669,0.491714,0.42474011,-0.20016049,0.501845,0.44087196,-0.22624,0.52985,0.44187713,-0.2148497,0.511874,0.44306201,-0.20806608,0.501388,0.46090262,-0.22616095,0.512019,0.46721146,-0.22932867,0.539668,0.45081193,-0.1889987,0.52067,0.45228654,-0.19446687,0.51095,0.46742633,-0.2147875,0.520702,0.50241603,-0.23861124,0.552547,0.49969254,-0.22946985,0.535301,0.52378049,-0.25091516,0.549423,0.53505823,-0.26367091,0.560968
0.57842631,-0.35503365,0.587836,0.51941067,-0.32071635,0.564754,0.55514839,-0.36286486,0.587136,0.54682354,-0.39473851,0.585585,0.53313424,-0.41550909,0.578911,0.52534261,-0.43075733,0.583716,0.45478315,-0.30810236,0.54817,0.44314935,-0.3061688,0.517094,0.43734303,-0.30521397,0.501555,0.45872932,-0.31293827,0.506511,0.46419334,-0.28858785,0.542772,0.45131185,-0.2891677,0.510211,0.44380968,-0.28951987,0.491218,0.46370266,-0.30078301,0.496538,0.47662697,-0.27519337,0.540814,0.46681528,-0.28124989,0.514728,0.46762238,-0.28861377,0.501381,0.48117297,-0.29842798,0.507637,0.50045204,-0.26398193,0.542879,0.46311152,-0.25846194,0.518726,0.44577813,-0.25599822,0.507628,0.43038044,-0.25386739,0.497836
0.57407807,-0.35526793,0.560517,0.51925577,-0.31997722,0.537955,0.55325631,-0.3621603,0.563133,0.54925953,-0.39678871,0.571491,0.53660114,-0.41861689,0.568921,0.52934303,-0.43382242,0.575771,0.45947872,-0.3056461,0.526043,0.44557035,-0.30972154,0.494611,0.43854605,-0.31164448,0.478894,0.45823434,-0.32067565,0.482759,0.4674229,-0.28661774,0.516467,0.42666315,-0.27313889,0.483557,0.40284366,-0.26529448,0.464359,0.41342626,-0.28025177,0.468598,0.47838317,-0.27380477,0.511014,0.46569215,-0.28435677,0.487671,0.46509757,-0.29239796,0.475729,0.47729334,-0.30097684,0.481832,0.50003704,-0.26369019,0.508924,0.47393703,-0.26399025,0.486988,0.46185801,-0.26435373,0.47691,0.45115554,-0.26481407,0.468026
0.57716218,-0.37697283,0.557638,0.51770572,-0.34255403,0.532363,0.5529752,-0.38476693,0.554322,0.5456738,-0.41672284,0.552157,0.52919468,-0.43506523,0.540107,0.51941838,-0.45085583,0.541614,0.45071926,-0.32929237,0.510883,0.44407565,-0.32325813,0.478344,0.44066106,-0.32017816,0.462074,0.46161902,-0.32644423,0.466336,0.46174407,-0.31011986,0.508293,0.4253614,-0.28924313,0.47297,0.40412305,-0.27706825,0.452366,0.4192306,-0.28884535,0.456675,0.47567836,-0.29718723,0.508883,0.46689563,-0.2957419,0.479553,0.46580929,-0.29967825,0.464547,0.47594789,-0.30881971,0.469559,0.50146761,-0.28673356,0.514319,0.48193084,-0.28136424,0.48756,0.47306725,-0.27906104,0.475266,0.46532612,-0.27713478,0.46443
0.61099899,-0.38191313,0.567162,0.54834708,-0.34440335,0.534277,0.58556092,-0.38869934,0.559449,0.57100054,-0.41536942,0.548328,0.54756894,-0.43064525,0.535528,0.53336455,-0.44354559,0.533373,0.47671891,-0.32731669,0.501901,0.46091487,-0.31099004,0.463398,0.45800857,-0.30785165,0.444146,0.46487522,-0.31398839,0.443647,0.48925256,-0.3090037,0.502957,0.47926502,-0.2959292,0.460767,0.47255832,-0.28793809,0.436156,0.48545885,-0.29324382,0.435605,0.50501233,-0.29719602,0.507371,0.49364302,-0.28473427,0.469648,0.49266772,-0.27820847,0.450347,0.49785894,-0.2781141,0.449818,0.53379356,-0.28864856,0.518676,0.50505745,-0.27982839,0.485781,0.49278405,-0.27601203,0.470667,0.48266961,-0.27281046,0.457331
0.58709036,-0.33042561,0.508133,0.53275594,-0.33395652,0.502522,0.5778566,-0.34995651,0.510097,0.55434864,-0.37249946,0.513497,0.53882949,-0.39848375,0.521213,0.52019099,-0.40606428,0.522513,0.49027127,-0.35837328,0.501272,0.48898427,-0.36736373,0.487779,0.50195735,-0.36318458,0.481032,0.52714569,-0.36486678,0.494218,0.48310963,-0.33700557,0.49718,0.48202749,-0.34512668,0.483419,0.49079474,-0.34633272,0.475392,0.5232855,-0.35173327,0.488839,0.48081411,-0.31917031,0.494414,0.48259904,-0.33035527,0.48345,0.49672291,-0.32338981,0.477841,0.52942431,-0.32986595,0.491703,0.48514179,-0.29725079,0.492258,0.46694013,-0.31793533,0.480902,0.47646779,-0.3126002,0.475684,0.48539353,-0.30782574,0.47108
0.59398362,-0.32981291,0.508798,0.54390476,-0.33280519,0.501289,0.58381205,-0.34902929,0.509719,0.56394901,-0.36930533,0.510571,0.54462274,-0.39260636,0.514821,0.52545983,-0.39990091,0.515485,0.49919827,-0.357341,0.497389,0.5008728,-0.36603043,0.484601,0.51382785,-0.36469197,0.478207,0.54156362,-0.36876392,0.491563,0.49249387,-0.33625284,0.494137,0.4875552,-0.34255563,0.478129,0.49596526,-0.34196866,0.468792,0.52771294,-0.34649385,0.481588,0.490779,-0.31866924,0.492268,0.4879973,-0.32744366,0.47911,0.50270528,-0.32497408,0.472378,0.53731169,-0.33606076,0.485533,0.49612618,-0.29702923,0.49151,0.47552263,-0.31585022,0.478317,0.48422509,-0.31027847,0.472255,0.49250422,-0.30507925,0.466907
0.59477553,-0.40184972,0.491724,0.55009279,-0.36763159,0.483624,0.56591742,-0.40194304,0.483859,0.54422951,-0.38388933,0.478895,0.50823208,-0.38611653,0.474348,0.48861679,-0.37814815,0.473687,0.48703262,-0.34570853,0.467878,0.50021313,-0.33763487,0.454943,0.51023521,-0.33893598,0.448475,0.53380734,-0.35354565,0.460966,0.50812478,-0.3355075,0.475908,0.5185812,-0.32640475,0.459005,0.56671006,-0.35844018,0.484291,0.5826127,-0.37557007,0.500734,0.52883093,-0.32948795,0.483394,0.53792322,-0.31924861,0.465705,0.57585268,-0.34440697,0.485435,0.5954153,-0.36380329,0.503687,0.55966166,-0.32658458,0.493606,0.55994095,-0.32376321,0.476714,0.58230737,-0.35152287,0.491658,0.60052319,-0.37569385,0.503397
0.61456294,-0.39571726,0.48748,0.57061124,-0.36538542,0.481244,0.58818588,-0.39853636,0.481451,0.57154635,-0.38977619,0.483443,0.53514387,-0.39399752,0.478917,0.51823519,-0.38553044,0.479088,0.51067326,-0.34912395,0.469156,0.51034072,-0.33487074,0.457325,0.51756101,-0.34123703,0.451409,0.53950262,-0.35785258,0.464758,0.52904662,-0.33670403,0.475304,0.54079236,-0.32977275,0.461323,0.58673885,-0.36454035,0.487645,0.60135267,-0.38122573,0.50557,0.54736075,-0.32863921,0.481039,0.56369692,-0.32292254,0.470331,0.6039698,-0.34866001,0.491111,0.62333631,-0.36733042,0.508938,0.57510812,-0.32287555,0.488868,0.57767812,-0.32175263,0.473888,0.60119662,-0.34998195,0.48949,0.61907689,-0.37384185,0.500811
0.61771655,-0.40643679,0.491406,0.57096142,-0.38139131,0.484104,0.59073327,-0.40901755,0.485534,0.5736099,-0.40373053,0.485736,0.53948113,-0.40726237,0.483451,0.52239614,-0.3987205,0.483771,0.50940297,-0.36307459,0.471498,0.51896066,-0.35791681,0.45843,0.53011425,-0.35843499,0.451895,0.54713507,-0.37026577,0.464888,0.52866664,-0.35077279,0.47715,0.52199969,-0.33603996,0.461888,0.57414452,-0.36439968,0.488147,0.60184261,-0.38582082,0.501911,0.54787567,-0.34289763,0.482591,0.55402235,-0.33952588,0.465873,0.58886847,-0.37021874,0.48634,0.6156384,-0.39611564,0.503316,0.57701173,-0.33759027,0.490279,0.57584222,-0.33469317,0.474561,0.60175978,-0.36264002,0.49012,0.62227429,-0.38642773,0.501685
0.62161469,-0.4258916,0.498173,0.57300683,-0.39730963,0.488724,0.59063115,-0.42524348,0.489018,0.581838,-0.41188693,0.48849,0.54420859,-0.40628866,0.479205,0.522577,-0.40763162,0.479364,0.50749539,-0.37396818,0.470385,0.51638761,-0.3660021,0.456674,0.52688246,-0.36634283,0.449819,0.54214079,-0.37837992,0.46161,0.52983415,-0.36459774,0.479725,0.52197463,-0.34293457,0.460622,0.5735093,-0.37297475,0.485012,0.60521599,-0.39703195,0.499578,0.5517964,-0.35928231,0.488436,0.55513639,-0.34856075,0.468453,0.58870232,-0.37905804,0.487461,0.60380393,-0.39837906,0.505863,0.5844528,-0.35727225,0.500322,0.58892802,-0.35808804,0.482105,0.61563959,-0.38081519,0.49649,0.63074945,-0.39466525,0.510091
0.62272761,-0.43091949,0.499674,0.57429256,-0.400264,0.489529,0.5906122,-0.43507525,0.490536,0.58358006,-0.41572874,0.48993,0.54578065,-0.41006353,0.480734,0.52378475,-0.41100031,0.480659,0.50807223,-0.37626926,0.47074,0.51584655,-0.36824492,0.456263,0.52588765,-0.36834329,0.449025,0.54097084,-0.38005694,0.460574,0.53042525,-0.36681921,0.479867,0.52584134,-0.35112434,0.459498,0.57751408,-0.38397712,0.483788,0.60795337,-0.40855897,0.49878,0.5524839,-0.36150456,0.488477,0.55348506,-0.3489561,0.467917,0.58775218,-0.37961835,0.486877,0.60311121,-0.39913091,0.504617,0.58542062,-0.3596134,0.500378,0.58891647,-0.36061249,0.481654,0.61556182,-0.3833336,0.495988,0.63052976,-0.39689574,0.509391
0.621534,-0.43863561,0.501146,0.57449476,-0.40233894,0.490347,0.59101612,-0.43753163,0.491703,0.58487065,-0.42016147,0.491377,0.54702104,-0.41416235,0.481812,0.52518067,-0.41259445,0.481704,0.50776927,-0.37909957,0.470716,0.51702115,-0.37157,0.4557,0.52535117,-0.37163323,0.448192,0.53968198,-0.38325537,0.459444,0.53035068,-0.36995465,0.480063,0.52431867,-0.35005603,0.459821,0.57572443,-0.38169709,0.483897,0.60578345,-0.40299876,0.498777,0.55263121,-0.3649702,0.488924,0.55319448,-0.34997447,0.467692,0.58791255,-0.38058768,0.486441,0.60508445,-0.40310169,0.502991,0.58587699,-0.36360554,0.501239,0.58834078,-0.36486243,0.481962,0.60975545,-0.39091724,0.496121,0.6298433,-0.41310484,0.508396
0.61896272,-0.43993023,0.500737,0.57048057,-0.40748089,0.491043,0.58708686,-0.43758398,0.489916,0.57604752,-0.42124509,0.489446,0.53854579,-0.41468778,0.479159,0.52267818,-0.41260558,0.48056,0.50053727,-0.38318082,0.470367,0.510786,-0.37342971,0.457346,0.52218631,-0.37435643,0.450836,0.54226775,-0.38645976,0.462118,0.52423386,-0.37572264,0.481811,0.51865942,-0.35217088,0.463133,0.57288016,-0.38104552,0.486401,0.60339316,-0.40505265,0.500461,0.54730456,-0.37203747,0.49228,0.55325346,-0.36189009,0.471445,0.58282707,-0.39182617,0.489504,0.59513867,-0.4104135,0.507977,0.58120144,-0.37204608,0.506254,0.58504648,-0.37118955,0.487494,0.60780262,-0.39629801,0.501138,0.63171472,-0.41780404,0.513031
0.61229751,-0.44138303,0.499389,0.55585202,-0.40872122,0.490415,0.57818829,-0.43996472,0.488477,0.56237745,-0.41931722,0.487206,0.52714214,-0.41442468,0.478855,0.50470476,-0.4130622,0.477633,0.48992622,-0.38297064,0.470109,0.5006365,-0.373909,0.457933,0.51265642,-0.37519427,0.451845,0.53185087,-0.38945546,0.463337,0.51387857,-0.37576787,0.481869,0.50810035,-0.35231232,0.463319,0.55745172,-0.38089672,0.486528,0.58763211,-0.40478791,0.500523,0.53706684,-0.3722181,0.492519,0.54340248,-0.36251877,0.472264,0.57264367,-0.39246493,0.490302,0.58250203,-0.40938258,0.506701,0.57093505,-0.37227758,0.506569,0.57499405,-0.3718261,0.48833,0.59756237,-0.39695674,0.501971,0.61724058,-0.41926346,0.51368
0.60077105,-0.44397543,0.499722,0.54542386,-0.4088407,0.490555,0.564481,-0.44158147,0.488882,0.55384641,-0.42015797,0.488829,0.5166863,-0.41400745,0.478656,0.4943068,-0.41496392,0.477578,0.47969877,-0.38305803,0.470211,0.48966578,-0.37378896,0.45778,0.50164506,-0.37496276,0.451564,0.52076978,-0.38918411,0.463016,0.50341946,-0.37573747,0.481825,0.49723917,-0.35224977,0.463233,0.54570982,-0.38087311,0.486496,0.57557259,-0.40478825,0.500523,0.52641696,-0.37211424,0.492377,0.53227381,-0.36230254,0.471982,0.56122949,-0.39226909,0.490057,0.57112149,-0.40921105,0.506489,0.56006701,-0.37211721,0.506347,0.56353507,-0.37155756,0.487978,0.58593064,-0.39669794,0.501644,0.60550781,-0.41904207,0.513408
0.5688216,-0.44143724,0.501016,0.52272545,-0.40751071,0.490725,0.54071934,-0.44272267,0.493144,0.53707979,-0.42742054,0.496,0.49898673,-0.41954056,0.484783,0.47616349,-0.41912142,0.483535,0.45942092,-0.38690214,0.473483,0.46602613,-0.37989614,0.458176,0.47745676,-0.37874489,0.450522,0.49767827,-0.39082887,0.462232,0.47921681,-0.37548306,0.480923,0.45542247,-0.35120207,0.46174,0.50410147,-0.38178748,0.48676,0.5285537,-0.40075999,0.501552,0.49905244,-0.36852722,0.488159,0.50449905,-0.36194237,0.468238,0.53643914,-0.38909325,0.487748,0.5496522,-0.4048156,0.505484,0.52921119,-0.36459196,0.498493,0.53093458,-0.36745184,0.479993,0.55621877,-0.39058641,0.494744,0.57787456,-0.41068208,0.506974
0.55707598,-0.44066717,0.500142,0.50115434,-0.40721176,0.490365,0.51863301,-0.44216786,0.492526,0.5143632,-0.42719735,0.495741,0.47732365,-0.42020694,0.485553,0.45447768,-0.4196961,0.484198,0.43892294,-0.38716526,0.473805,0.44511791,-0.38051386,0.458921,0.45701988,-0.37954858,0.451478,0.4774551,-0.3918249,0.46341,0.45846259,-0.37558378,0.481052,0.43466204,-0.35175655,0.462469,0.48190471,-0.38251065,0.487682,0.50595686,-0.40137205,0.502318,0.47798583,-0.36846305,0.488074,0.4832774,-0.36224848,0.468634,0.51479995,-0.38952801,0.488293,0.52811561,-0.40536098,0.506165,0.5076055,-0.36427674,0.498062,0.50896151,-0.36746333,0.480008,0.53401084,-0.39069852,0.494886,0.55526663,-0.41071043,0.507009
0.55383673,-0.4479095,0.510801,0.50496541,-0.4130714,0.49879,0.526056,-0.45034517,0.503914,0.51231204,-0.43596758,0.50655,0.47612042,-0.43610812,0.500262,0.45384392,-0.43699604,0.499121,0.43559043,-0.39313922,0.481664,0.43832965,-0.38892781,0.464022,0.44726465,-0.38765507,0.455201,0.47264544,-0.39939858,0.466356,0.45386351,-0.38023481,0.487351,0.45003306,-0.37479335,0.465197,0.49552458,-0.4109174,0.490254,0.52128586,-0.4319465,0.506133,0.47275516,-0.37198634,0.493328,0.47089474,-0.36966425,0.472224,0.50620507,-0.39970071,0.491844,0.53298417,-0.42516042,0.508204,0.50245846,-0.36643842,0.502524,0.49695702,-0.37146451,0.48308,0.523396,-0.39388713,0.497896,0.54611144,-0.41305591,0.510484
0.52598952,-0.44396382,0.512132,0.47876006,-0.41253516,0.502447,0.50082919,-0.44891781,0.508665,0.49105635,-0.44193676,0.514474,0.45557684,-0.44324818,0.509936,0.43583384,-0.44477083,0.510996,0.41930349,-0.39841537,0.491356,0.41778383,-0.39857229,0.474644,0.42915123,-0.39717299,0.466288,0.45087628,-0.40618698,0.478397,0.43436369,-0.38296412,0.493224,0.42278654,-0.37948643,0.47398,0.46613942,-0.41510271,0.500311,0.48434261,-0.42763401,0.515977,0.45032674,-0.37245402,0.495805,0.44617809,-0.37418036,0.478338,0.4802924,-0.40301123,0.499014,0.49925462,-0.41675363,0.517419,0.47614494,-0.36397567,0.500623,0.46587565,-0.3770446,0.484023,0.48740427,-0.40257188,0.499708,0.50345953,-0.4190164,0.511781
0.51674143,-0.43741012,0.509075,0.46316881,-0.40686536,0.500768,0.49246802,-0.44352328,0.505837,0.47761445,-0.43705921,0.514245,0.44324049,-0.44159167,0.510082,0.4237294,-0.44485119,0.510757,0.40504222,-0.3982682,0.490909,0.39750036,-0.39776995,0.47557,0.40975729,-0.39688577,0.4679,0.43163814,-0.40657686,0.480538,0.41835147,-0.38168512,0.492856,0.40507934,-0.37699377,0.475214,0.4493772,-0.41146125,0.501842,0.46800327,-0.42362286,0.516581,0.4328162,-0.36990861,0.495355,0.43052698,-0.37045556,0.479139,0.46778073,-0.39580195,0.500039,0.49008384,-0.40982237,0.517722,0.45674404,-0.35928174,0.499817,0.44716062,-0.37286973,0.484287,0.46729153,-0.40061621,0.50017,0.48188347,-0.41842205,0.511794
0.52105319,-0.42344864,0.539027,0.46182841,-0.41010676,0.518609,0.50294452,-0.43649249,0.530935,0.48485337,-0.43140627,0.528218,0.45151286,-0.44012514,0.508778,0.42966093,-0.44820049,0.504535,0.40167886,-0.41566238,0.494208,0.37729116,-0.40050467,0.468398,0.3854041,-0.3875966,0.455493,0.39978703,-0.39047339,0.462829,0.4057752,-0.39737679,0.499164,0.37929418,-0.37632778,0.46996,0.4224051,-0.3954386,0.492329,0.44585958,-0.40899871,0.509915,0.4137381,-0.38380174,0.505447,0.3961834,-0.36243059,0.478244,0.43094124,-0.38001646,0.495763,0.45193397,-0.39571813,0.513746,0.43166977,-0.36977567,0.516577,0.43150735,-0.36699551,0.490983,0.45401547,-0.38793259,0.503977,0.47565477,-0.40808163,0.518023
0.51628373,-0.41694899,0.538051,0.45517414,-0.40642465,0.523734,0.50318458,-0.43467523,0.53526,0.46642689,-0.44691997,0.525626,0.46545884,-0.46259453,0.537412,0.47079109,-0.47049519,0.552391,0.40326869,-0.42401851,0.510377,0.40033351,-0.40977847,0.488541,0.40826653,-0.39249895,0.477623,0.4232127,-0.39290868,0.487676,0.40146736,-0.40183717,0.510099,0.39359197,-0.38925423,0.486152,0.43862516,-0.40307254,0.511331,0.45693083,-0.41256666,0.529276,0.40416732,-0.38444036,0.511413,0.39615692,-0.37432475,0.489951,0.43282814,-0.38821375,0.509733,0.45287921,-0.39856223,0.527564,0.41520441,-0.36477868,0.515629,0.4137192,-0.37005016,0.496085,0.44150059,-0.3924208,0.511028,0.46282286,-0.40751085,0.5237
0.49777455,-0.4018695,0.530108,0.44231547,-0.39780745,0.524661,0.49114142,-0.42504346,0.535381,0.46340535,-0.44954665,0.535299,0.45766313,-0.46906954,0.54608,0.45766022,-0.47876924,0.559591,0.40144009,-0.42432831,0.52783,0.40414558,-0.42800294,0.512651,0.41515757,-0.42060245,0.505061,0.42535971,-0.4236998,0.51698,0.39559526,-0.39696307,0.519473,0.39519056,-0.39918499,0.504208,0.44088816,-0.4165492,0.529747,0.46149208,-0.42125772,0.545001,0.39419244,-0.37499847,0.513179,0.3882142,-0.37613337,0.497245,0.42463657,-0.3866813,0.517188,0.44609759,-0.39120381,0.534042,0.39905257,-0.34962059,0.506896,0.40720529,-0.36458322,0.497386,0.43889982,-0.3806725,0.512929,0.4639995,-0.39185706,0.522302
0.50915354,-0.41241264,0.544725,0.44291352,-0.39762637,0.524923,0.49552171,-0.43029841,0.54345,0.45947119,-0.4463499,0.530899,0.45112896,-0.46208935,0.538515,0.44975559,-0.46981928,0.55031,0.38764296,-0.40835047,0.509816,0.37568292,-0.39690854,0.481905,0.40685577,-0.40414296,0.499775,0.4245744,-0.41039779,0.517928,0.38595045,-0.38524572,0.506064,0.37318573,-0.37537711,0.475989,0.41514544,-0.39119883,0.498756,0.43728376,-0.39882702,0.516781,0.38909289,-0.36773499,0.505107,0.34213116,-0.36158213,0.479166,0.36410734,-0.37952936,0.497108,0.39574491,-0.38900549,0.514751,0.40142149,-0.34911428,0.50772,0.39800667,-0.35566198,0.485277,0.42396895,-0.37094023,0.498762,0.44760026,-0.38549077,0.511889
0.50394606,-0.41331713,0.548024,0.43602971,-0.40004911,0.528712,0.48846652,-0.42969286,0.545882,0.45069172,-0.44885335,0.533337,0.44289993,-0.46407146,0.54138,0.4419848,-0.47182773,0.553778,0.37962442,-0.4091758,0.51281,0.36809874,-0.39968201,0.485671,0.39942447,-0.40736461,0.503886,0.41706797,-0.41366898,0.521871,0.37958341,-0.38684764,0.51032,0.37543246,-0.37826248,0.48089,0.41273638,-0.39062744,0.504082,0.43053552,-0.39841776,0.522008,0.38403294,-0.36996687,0.510351,0.32990574,-0.34708896,0.483867,0.32695445,-0.35174706,0.483476,0.35094821,-0.3705219,0.500604,0.39782531,-0.35211412,0.514017,0.39319111,-0.35962723,0.491472,0.41871113,-0.37565407,0.505188,0.44236476,-0.39052347,0.518441
0.49232522,-0.45487719,0.581422,0.43394798,-0.42291815,0.552113,0.46614714,-0.4582375,0.565807,0.42751863,-0.43745028,0.533942,0.39566336,-0.44713388,0.523888,0.3744919,-0.45061498,0.519695,0.36430365,-0.40442818,0.511873,0.36848632,-0.37911242,0.47933,0.39453765,-0.38512205,0.489379,0.42505129,-0.39650101,0.506236,0.37867913,-0.39256903,0.524199,0.3671072,-0.36305025,0.484941,0.39888766,-0.37556015,0.497498,0.41624094,-0.39062909,0.51564,0.39534169,-0.38550028,0.537508,0.33440248,-0.36025264,0.50115,0.3277521,-0.35286346,0.487845,0.33793736,-0.35523838,0.494038,0.42394642,-0.38153613,0.558465,0.42221403,-0.37011575,0.525735,0.43223236,-0.38928074,0.532595,0.44772001,-0.41229965,0.546774
0.49035506,-0.46039245,0.584202,0.43422066,-0.42642004,0.556481,0.46261699,-0.46119172,0.567116,0.42742006,-0.42741569,0.537857,0.40057531,-0.43544618,0.53189,0.37402726,-0.43471598,0.521302,0.36142289,-0.40015874,0.515404,0.36682973,-0.37812769,0.48791,0.3858055,-0.38558052,0.497163,0.40782092,-0.39711412,0.51171,0.37914359,-0.39140641,0.53008,0.37147586,-0.3605877,0.492613,0.39835286,-0.37538908,0.503928,0.40972037,-0.3912253,0.521032,0.39829383,-0.3872045,0.545152,0.3417685,-0.35880922,0.511739,0.32839194,-0.3440504,0.494644,0.32537288,-0.34019055,0.492955,0.4293277,-0.38727709,0.567858,0.42795632,-0.37382475,0.536098,0.44129797,-0.39512242,0.5422,0.45575565,-0.41866828,0.555744
0.49164404,-0.46369711,0.589039,0.43616733,-0.42941144,0.561162,0.46485319,-0.4645982,0.572088,0.42926166,-0.42668497,0.53925,0.40025588,-0.43140394,0.528139,0.37313706,-0.43003796,0.515719,0.36733895,-0.40657002,0.520156,0.37262254,-0.38040739,0.492348,0.39091652,-0.38754318,0.501702,0.41239687,-0.39885777,0.516455,0.38348481,-0.3968175,0.534614,0.3761658,-0.36262546,0.496965,0.40276185,-0.37684299,0.508418,0.41345498,-0.39305508,0.525603,0.40001612,-0.390393,0.549523,0.3475285,-0.3692008,0.520999,0.3367148,-0.35325786,0.506405,0.33827587,-0.35294868,0.510258,0.42628697,-0.38950293,0.572069,0.4303799,-0.37733983,0.540206,0.44522977,-0.39749731,0.546392,0.45859178,-0.42173866,0.560005
0.49261359,-0.46597464,0.591304,0.43726952,-0.43128589,0.563119,0.46616476,-0.46680512,0.574314,0.4312236,-0.42818986,0.540774,0.40369427,-0.4320244,0.528497,0.37462313,-0.4303257,0.51578,0.36884598,-0.40807944,0.521854,0.37660825,-0.38138194,0.493508,0.39264141,-0.38860299,0.502645,0.41399013,-0.39990626,0.517504,0.38381329,-0.39722149,0.536277,0.38488386,-0.36645676,0.49836,0.41085559,-0.37982875,0.509555,0.42294504,-0.39650564,0.526659,0.40134362,-0.39244015,0.551192,0.34860425,-0.37026638,0.522178,0.33804005,-0.35499471,0.507333,0.33982312,-0.35454033,0.511049,0.43033028,-0.39177679,0.573802,0.43192214,-0.37955758,0.541761,0.44668103,-0.39962948,0.547787,0.45983001,-0.42345259,0.5614
0.4928408,-0.4670065,0.592238,0.43751011,-0.43209156,0.563799,0.4665058,-0.46768719,0.575077,0.43209763,-0.42777348,0.540984,0.40435044,-0.43040636,0.52776,0.37678463,-0.42728954,0.513668,0.36919515,-0.40853333,0.522138,0.37753448,-0.38201325,0.493684,0.39305401,-0.38871015,0.502457,0.41385632,-0.39990682,0.517207,0.38427337,-0.39814725,0.536715,0.38486277,-0.36680695,0.498622,0.41050487,-0.3797539,0.509351,0.42257724,-0.39638387,0.526391,0.40170797,-0.39342417,0.551784,0.34861919,-0.37051197,0.522105,0.33804367,-0.35724177,0.506921,0.33962938,-0.35471304,0.510252,0.43060313,-0.3928279,0.57462,0.43247746,-0.38065234,0.542449,0.4466729,-0.40133099,0.548187,0.4596234,-0.42399874,0.561734
0.49855198,-0.47123899,0.597354,0.44728542,-0.43467147,0.566559,0.47169749,-0.47143617,0.579471,0.4464559,-0.42764217,0.543024,0.41523786,-0.42601963,0.524858,0.38638457,-0.42026858,0.508532,0.3804416,-0.40962978,0.522357,0.38828432,-0.38189536,0.492262,0.40163576,-0.38632429,0.49841,0.42066772,-0.39708896,0.512687,0.39565041,-0.40033494,0.53723,0.39396761,-0.36606364,0.497398,0.41683629,-0.37642991,0.50479,0.42876431,-0.39279366,0.521518,0.41290294,-0.39583587,0.552797,0.35931071,-0.37166654,0.522061,0.351265,-0.3571962,0.506335,0.35748705,-0.35593651,0.509095,0.44190837,-0.39569874,0.576654,0.44393708,-0.38311643,0.543347,0.45632489,-0.40169822,0.547024,0.46326514,-0.42423078,0.560172
0.50211138,-0.47137023,0.596885,0.45960069,-0.43501746,0.566134,0.48252126,-0.47120407,0.579329,0.45606429,-0.42670188,0.54183,0.42174853,-0.4218435,0.519713,0.40015605,-0.42367762,0.512657,0.39096394,-0.40965409,0.522388,0.39623084,-0.38227036,0.492547,0.41195811,-0.38693299,0.499339,0.43303563,-0.39761927,0.513828,0.40592973,-0.40005028,0.536848,0.40383291,-0.36569492,0.496897,0.42727684,-0.37664915,0.505084,0.43950856,-0.39323578,0.522105,0.42300391,-0.39531529,0.55207,0.37017578,-0.37206664,0.522623,0.36263805,-0.35805897,0.507558,0.37025458,-0.35775222,0.511692,0.45182122,-0.39491922,0.575518,0.45365697,-0.38227101,0.542148,0.46654944,-0.40117537,0.546312,0.4779219,-0.42359733,0.559671
0.5227998,-0.48304614,0.631198,0.48490505,-0.44733956,0.591153,0.51066197,-0.49033379,0.618497,0.52014125,-0.47660695,0.59003,0.51002915,-0.4725963,0.56184,0.49724703,-0.46300154,0.540744,0.44363535,-0.43128795,0.547419,0.42004232,-0.39250259,0.509964,0.43265563,-0.38956245,0.503229,0.44704635,-0.40356997,0.515318,0.44872633,-0.4132387,0.553014,0.40369496,-0.37451759,0.510769,0.41867317,-0.366617,0.50211,0.44034683,-0.37901754,0.514674,0.45678381,-0.40214349,0.561937,0.41446283,-0.36312206,0.523531,0.41769314,-0.34901371,0.503882,0.41629574,-0.34288139,0.4887,0.47298132,-0.39498933,0.579822,0.43335205,-0.37351632,0.546295,0.43665863,-0.36333582,0.530891,0.44053206,-0.35463235,0.5186
0.5223956,-0.47807616,0.63071,0.48480416,-0.43806095,0.59103,0.51037795,-0.48542612,0.618153,0.52045244,-0.46803499,0.590383,0.51010268,-0.46390162,0.561921,0.49743738,-0.45446285,0.540951,0.44388982,-0.42229173,0.547733,0.4267432,-0.38484771,0.51092,0.43743245,-0.38217116,0.503357,0.4476185,-0.39944933,0.514862,0.44890971,-0.40421782,0.55324,0.40358152,-0.36479746,0.511714,0.41858395,-0.35756559,0.502003,0.43974963,-0.36948635,0.513976,0.45687647,-0.39305195,0.562051,0.41513099,-0.35466228,0.524375,0.41870197,-0.34105286,0.505099,0.41676,-0.33489556,0.489245,0.4729128,-0.38574558,0.579738,0.43380103,-0.364675,0.546861,0.43736927,-0.35477596,0.531755,0.44098397,-0.34616234,0.519132
0.5273534,-0.48228987,0.635632,0.49599448,-0.44484502,0.601651,0.51411117,-0.48784263,0.622113,0.52770822,-0.47380093,0.597372,0.52319716,-0.46199079,0.566443,0.51550142,-0.45035024,0.546593,0.45954384,-0.42042611,0.560971,0.4585614,-0.38748217,0.532628,0.46549955,-0.38357488,0.520182,0.47342487,-0.39639143,0.526394,0.46916198,-0.4058037,0.569289,0.43418454,-0.36494556,0.536613,0.44171212,-0.35217925,0.518481,0.4578869,-0.36186974,0.523319,0.48025866,-0.39760637,0.579801,0.48885094,-0.37727551,0.546833,0.48918451,-0.36841384,0.529966,0.46992096,-0.35702073,0.511322,0.49882547,-0.39418911,0.598389,0.51001267,-0.38379585,0.571335,0.51714638,-0.37895569,0.558905,0.51179106,-0.37014778,0.54474
0.54950559,-0.46167881,0.640515,0.51294682,-0.42448679,0.601871,0.53120875,-0.46683278,0.62811,0.54055331,-0.46199996,0.601648,0.53133854,-0.45854723,0.572614,0.52020415,-0.45270696,0.551939,0.46502519,-0.40505059,0.559474,0.45666504,-0.37680076,0.524326,0.46311963,-0.37924053,0.515143,0.47450664,-0.394226,0.525345,0.47805765,-0.38887242,0.565066,0.43663448,-0.3471243,0.525354,0.44428782,-0.34201508,0.509552,0.46254904,-0.35490244,0.517277,0.49253981,-0.37923222,0.573837,0.49335105,-0.36604073,0.536312,0.49128183,-0.35788981,0.517113,0.47431625,-0.34527939,0.499947,0.51627584,-0.37382489,0.59128,0.51801711,-0.37070387,0.559866,0.52167198,-0.36867898,0.545432,0.5179287,-0.36080865,0.532202
0.54318654,-0.45903893,0.639056,0.52066692,-0.40881763,0.603471,0.51035354,-0.44134651,0.62172,0.49356844,-0.41673091,0.586901,0.46620063,-0.38899595,0.555677,0.44996965,-0.36749019,0.540841,0.47337835,-0.35666322,0.556729,0.45178824,-0.35757519,0.514551,0.46286079,-0.3782735,0.51612,0.48151013,-0.4009795,0.533391,0.504163,-0.36242402,0.569581,0.48103786,-0.32733305,0.526186,0.48269742,-0.34027887,0.517238,0.49482021,-0.36349796,0.528692,0.53220061,-0.3713251,0.583999,0.50974085,-0.37697042,0.542554,0.49583374,-0.37970217,0.52135,0.48448854,-0.3801495,0.511774,0.56977923,-0.38929852,0.607423,0.54155366,-0.40282586,0.572193,0.52848685,-0.4083064,0.556006,0.51658173,-0.4137002,0.548355
0.54824716,-0.44481592,0.613736,0.53264384,-0.38147189,0.585122,0.51843283,-0.41588182,0.596685,0.51260194,-0.3745982,0.574263,0.48669122,-0.33329283,0.551768,0.47559845,-0.31246322,0.547236,0.48460976,-0.31035715,0.543484,0.46271846,-0.29779185,0.503811,0.47229976,-0.31949115,0.512061,0.49171038,-0.34751854,0.531013,0.51696526,-0.32464735,0.557871,0.49848212,-0.28465184,0.519585,0.51274305,-0.29290296,0.52419,0.52876378,-0.31808479,0.54052,0.54639021,-0.34117391,0.572802,0.52775964,-0.33053705,0.535266,0.50997765,-0.33683486,0.516062,0.50574462,-0.35043483,0.512839,0.58584591,-0.36981792,0.595511,0.56480116,-0.36159066,0.563228,0.55521215,-0.35789914,0.548395,0.54411166,-0.36502783,0.535307
0.54332047,-0.43307379,0.598125,0.54450576,-0.37739421,0.57992,0.52158293,-0.4035431,0.578846,0.52460724,-0.36908521,0.565111,0.50297788,-0.33086519,0.546012,0.49443335,-0.31187858,0.544557,0.50018011,-0.30980594,0.542448,0.48810009,-0.30249149,0.509773,0.49935895,-0.32260925,0.517432,0.51755396,-0.34827925,0.533385,0.53666826,-0.32678565,0.562581,0.53431865,-0.30138072,0.535375,0.5588937,-0.31354013,0.545644,0.57383647,-0.33772908,0.558709,0.56860254,-0.34490889,0.581123,0.54931425,-0.29374413,0.551515,0.54590811,-0.28766418,0.536367,0.54721458,-0.30203052,0.534792,0.60913947,-0.37421735,0.606066,0.59498226,-0.36868137,0.581013,0.57013097,-0.3743335,0.569502,0.54637088,-0.3777107,0.559345
0.54788048,-0.42386735,0.58782,0.54696778,-0.3706131,0.573478,0.5206779,-0.39846142,0.572606,0.53644223,-0.3697031,0.565737,0.50882981,-0.32905537,0.540959,0.49922613,-0.31019527,0.539027,0.50803799,-0.3090926,0.543925,0.49026684,-0.26895629,0.515364,0.4945218,-0.25672872,0.513712,0.51413946,-0.25280276,0.528156,0.54102986,-0.32233242,0.55982,0.54274583,-0.29922696,0.535327,0.57515976,-0.3173886,0.553622,0.58651692,-0.3431223,0.568225,0.56959144,-0.33703108,0.574455,0.55651042,-0.29061541,0.548379,0.55539899,-0.28082304,0.535038,0.57183148,-0.28463368,0.539407,0.60546964,-0.36163846,0.594137,0.59431962,-0.3601787,0.571403,0.57263398,-0.36782166,0.560957,0.56525068,-0.37924698,0.563863
0.55377407,-0.40513465,0.600531,0.55331841,-0.35388372,0.580483,0.53218184,-0.38028102,0.588463,0.54201018,-0.35413361,0.579078,0.51732983,-0.31343964,0.554228,0.50874607,-0.2918456,0.5493,0.5246995,-0.29241886,0.551153,0.50549158,-0.25113066,0.519783,0.50923761,-0.23814399,0.517164,0.53077739,-0.23381408,0.532762,0.55235393,-0.30618418,0.56139,0.54534668,-0.28616184,0.530743,0.5748063,-0.30754,0.551,0.58680602,-0.33331643,0.568444,0.57626125,-0.32139177,0.571981,0.56534821,-0.27759189,0.542212,0.56028318,-0.26973378,0.526981,0.57448993,-0.27604588,0.531682,0.60622644,-0.34677618,0.588042,0.58264086,-0.34501265,0.561661,0.58045954,-0.36347677,0.573365,0.58238629,-0.37920856,0.587188
0.54305266,-0.38730297,0.58748,0.55037601,-0.33099956,0.572479,0.52536216,-0.35303482,0.576669,0.54340706,-0.32928689,0.573632,0.52270954,-0.28929715,0.551122,0.51841761,-0.26876577,0.548542,0.529141,-0.27203874,0.548212,0.51723103,-0.23216364,0.521949,0.52316573,-0.21836957,0.520085,0.54662713,-0.21230511,0.535842,0.55553933,-0.28714573,0.558192,0.55594984,-0.2677297,0.53269,0.58938639,-0.28714974,0.555138,0.60021114,-0.3108988,0.571409,0.57774212,-0.30306409,0.568027,0.57402055,-0.26192905,0.543515,0.57287588,-0.25422227,0.530974,0.5913018,-0.26007052,0.538432,0.60449373,-0.32860242,0.582262,0.58689397,-0.32538459,0.559644,0.58552411,-0.34441153,0.572766,0.58575635,-0.35998633,0.585814
0.56712842,-0.36684242,0.601583,0.57604482,-0.32231857,0.585593,0.54896372,-0.34151072,0.590612,0.57076097,-0.32348442,0.588498,0.55990525,-0.28819448,0.563384,0.567676,-0.27087317,0.557431,0.55746137,-0.26409895,0.560445,0.54355597,-0.2245686,0.532748,0.54778207,-0.21085075,0.529322,0.57092676,-0.20481959,0.544375,0.58423045,-0.28035583,0.570363,0.57852001,-0.26542415,0.543839,0.60842875,-0.28522774,0.565967,0.61735909,-0.30834468,0.582506,0.60664642,-0.29718358,0.580254,0.60400632,-0.25655813,0.555461,0.60043191,-0.25115798,0.542776,0.60698203,-0.26544805,0.549988,0.63332,-0.32368969,0.59474,0.61196425,-0.32506549,0.571389,0.61731247,-0.34716267,0.5843,0.62428487,-0.36337376,0.597525
0.57340371,-0.36576461,0.610843,0.58532756,-0.31969482,0.594261,0.55699257,-0.33973898,0.600189,0.58157589,-0.32183321,0.601602,0.57320294,-0.28899869,0.577591,0.58155595,-0.27518041,0.57108,0.57377139,-0.26293749,0.569125,0.55905118,-0.22590586,0.541166,0.56386602,-0.21210131,0.53888,0.58705178,-0.20710082,0.554678,0.59889166,-0.28210951,0.578469,0.58749754,-0.26252074,0.551345,0.61017841,-0.27940816,0.573545,0.61503743,-0.29972246,0.590325,0.61972188,-0.30126466,0.58795,0.62653784,-0.26959378,0.564565,0.61838354,-0.26499615,0.5526,0.61714678,-0.27396923,0.560309,0.64249326,-0.32899608,0.602072,0.60704587,-0.32128426,0.578377,0.6031049,-0.33498325,0.591331,0.60851414,-0.34567827,0.604693
0.58393372,-0.36816244,0.620946,0.59843391,-0.32375189,0.605149,0.56932773,-0.33716341,0.611489,0.59819604,-0.32517013,0.613392,0.59036204,-0.29297035,0.589995,0.5966558,-0.2779467,0.583661,0.59101881,-0.2662483,0.582104,0.57780138,-0.230156,0.555468,0.57705094,-0.21432429,0.547728,0.59489925,-0.20873407,0.560163,0.6149761,-0.28464729,0.590103,0.60733814,-0.25771138,0.563831,0.62126131,-0.28538485,0.586923,0.62757267,-0.30459318,0.603675,0.63469416,-0.30304508,0.598393,0.64210651,-0.27142549,0.575701,0.63450725,-0.26753262,0.564091,0.63120931,-0.28206961,0.57253,0.65733228,-0.33099047,0.610985,0.62177445,-0.32359015,0.588132,0.61845098,-0.33748811,0.601658,0.62129492,-0.34962625,0.614947
0.60612416,-0.36513953,0.639537,0.61731107,-0.3165399,0.617576,0.59219188,-0.33972163,0.630495,0.61467226,-0.3222961,0.626368,0.60578487,-0.29196513,0.602027,0.60924576,-0.2779716,0.592242,0.60340674,-0.25980661,0.590889,0.58611883,-0.21762748,0.559987,0.5901204,-0.20135573,0.556667,0.61389451,-0.1925076,0.572271,0.6254664,-0.27662807,0.596662,0.61668025,-0.24893063,0.56426,0.62847017,-0.27378944,0.585577,0.63445092,-0.29224313,0.603988,0.64419657,-0.29386706,0.603782,0.60930865,-0.29622524,0.573794,0.57985779,-0.29882477,0.558451,0.57436709,-0.30948218,0.563809,0.66684949,-0.32076556,0.616175,0.63057885,-0.31483369,0.589277,0.62587378,-0.32760979,0.601655,0.63082617,-0.33722002,0.615921
0.62000776,-0.36098035,0.64841,0.62561665,-0.31752012,0.62381,0.60758079,-0.33706635,0.641478,0.62594124,-0.32106215,0.636913,0.61663177,-0.29051206,0.61555,0.61970855,-0.27249298,0.605257,0.61328221,-0.25904684,0.598078,0.59340942,-0.21673279,0.566796,0.59565934,-0.20197677,0.562449,0.61807366,-0.19296317,0.577326,0.63216222,-0.27431277,0.600382,0.61717664,-0.24779845,0.565728,0.62710605,-0.27220151,0.586441,0.63433818,-0.29077502,0.605477,0.64861037,-0.29034611,0.60493,0.65316149,-0.2521429,0.589119,0.65432959,-0.23721604,0.581029,0.67037408,-0.24365659,0.593416,0.66928999,-0.31601235,0.614833,0.62673246,-0.31160095,0.586963,0.62248289,-0.32547035,0.598982,0.62770786,-0.33682777,0.613451
0.62434175,-0.36176309,0.651452,0.63082149,-0.31662497,0.626109,0.61175548,-0.33776196,0.644377,0.62889741,-0.32230868,0.638764,0.61946836,-0.2917751,0.616999,0.62313326,-0.27617756,0.606178,0.61603248,-0.26008606,0.599687,0.59581506,-0.21768481,0.567798,0.59773514,-0.20237968,0.563628,0.62019083,-0.19353577,0.578598,0.63482733,-0.2753916,0.601973,0.61864726,-0.24810069,0.566599,0.62782399,-0.27232372,0.586897,0.6353332,-0.29081497,0.606064,0.65126447,-0.29147386,0.606587,0.65615204,-0.25339671,0.590942,0.65762544,-0.23865897,0.582937,0.67397357,-0.24534786,0.595381,0.67204189,-0.3172333,0.616706,0.62793569,-0.31091762,0.588327,0.62414674,-0.32615083,0.600083,0.62936083,-0.33799414,0.614629
0.62635929,-0.36181148,0.652355,0.63233482,-0.31695751,0.626882,0.61401805,-0.33797189,0.6456,0.63138734,-0.3234657,0.64021,0.62412029,-0.29416396,0.619005,0.62611577,-0.27720794,0.608274,0.61779619,-0.26050455,0.600787,0.59764273,-0.21808767,0.569043,0.60018131,-0.20218581,0.565379,0.62261637,-0.19399918,0.580608,0.63616203,-0.27561255,0.602621,0.61958967,-0.24801801,0.56718,0.62791216,-0.27138984,0.587456,0.63619897,-0.29067609,0.60664,0.65225186,-0.29152807,0.606877,0.65710975,-0.25343666,0.591241,0.65853594,-0.23866878,0.583241,0.67481542,-0.24530823,0.59566,0.67265401,-0.31709237,0.616606,0.62871733,-0.31161247,0.588266,0.62453095,-0.32593113,0.600012,0.62976431,-0.33804163,0.614541
0.62793502,-0.36214681,0.652929,0.63370518,-0.31752349,0.627557,0.61559509,-0.33835796,0.646265,0.63470883,-0.32507545,0.641599,0.6270552,-0.29571498,0.621039,0.62891352,-0.27691433,0.610661,0.6191833,-0.2610639,0.60165,0.59906139,-0.21860393,0.570042,0.60138492,-0.20259763,0.566217,0.62360768,-0.19423654,0.581344,0.63752692,-0.27609243,0.603394,0.62094927,-0.24768353,0.568064,0.62951031,-0.2718441,0.588407,0.63761777,-0.29098843,0.607572,0.65359181,-0.29194376,0.607563,0.65804667,-0.25365559,0.591674,0.65916698,-0.23903328,0.583545,0.67495687,-0.24615573,0.59586,0.67396355,-0.31743825,0.617173,0.6298956,-0.31111122,0.58893,0.62616065,-0.32614352,0.60072,0.63113795,-0.33863923,0.615232
0.62907975,-0.36263392,0.65341,0.63461669,-0.31806488,0.62812,0.61674432,-0.33888287,0.646848,0.63595952,-0.32583317,0.642467,0.62860241,-0.29643719,0.622192,0.63059832,-0.27751793,0.611953,0.62007644,-0.2615627,0.602403,0.59996917,-0.21900021,0.570925,0.60226512,-0.20303999,0.567156,0.62444551,-0.19469112,0.582308,0.63837426,-0.2764842,0.604035,0.62189267,-0.24781538,0.5688,0.63063546,-0.27196758,0.5892,0.6386843,-0.29111558,0.608349,0.65440411,-0.29225511,0.608104,0.65899358,-0.25400558,0.592505,0.66028775,-0.239213,0.584523,0.67642368,-0.24598944,0.596945,0.67474443,-0.31767162,0.617582,0.63160127,-0.31128346,0.589428,0.62797695,-0.32645312,0.601256,0.63215256,-0.33904795,0.615751
0.62978735,-0.36308532,0.65394,0.63482622,-0.31839185,0.628485,0.61770398,-0.33950168,0.647738,0.63561225,-0.32578467,0.643411,0.62690059,-0.29529233,0.623673,0.63120768,-0.27748664,0.613449,0.62044081,-0.2619394,0.603122,0.60034209,-0.21929688,0.571801,0.60249271,-0.20331907,0.568003,0.62455259,-0.19494439,0.583078,0.63827232,-0.27658476,0.604241,0.62155101,-0.24762107,0.568919,0.63025824,-0.271703,0.589265,0.63842964,-0.29088062,0.608428,0.65393477,-0.29213244,0.607906,0.65890469,-0.25404293,0.592794,0.66042118,-0.23917659,0.585063,0.67677517,-0.24572029,0.597631,0.67389681,-0.31730358,0.616945,0.63002727,-0.31068917,0.588829,0.62618529,-0.32605986,0.600629,0.63143231,-0.33872254,0.6151
0.63063322,-0.36213399,0.65539,0.63271275,-0.30482698,0.628856,0.61941841,-0.33568564,0.650244,0.63782971,-0.30615394,0.645151,0.64272836,-0.2805902,0.628766,0.65337674,-0.26650055,0.621078,0.6221077,-0.24873608,0.604135,0.60054587,-0.2111253,0.571779,0.60305493,-0.19687448,0.568208,0.62498002,-0.19437124,0.583431,0.63707354,-0.26358538,0.603585,0.59452844,-0.25060011,0.567492,0.59962533,-0.2718156,0.587228,0.6073885,-0.29070767,0.606479,0.65043818,-0.27928104,0.605991,0.65385039,-0.24073369,0.59129,0.64812129,-0.23541354,0.583769,0.66165151,-0.24303918,0.596289,0.66780934,-0.30473991,0.613772,0.62689342,-0.28980576,0.585446,0.62654825,-0.30875666,0.596884,0.62865803,-0.33126935,0.611288
0.62782352,-0.36063576,0.648635,0.63269822,-0.31690864,0.62555,0.61721904,-0.33852682,0.644742,0.62524095,-0.32346556,0.636257,0.60959478,-0.29164773,0.612731,0.60898497,-0.27387979,0.600538,0.61906478,-0.26165891,0.604806,0.59476949,-0.21634636,0.576867,0.59624477,-0.19916682,0.574995,0.61600557,-0.18884172,0.590896,0.63534931,-0.26994231,0.603564,0.59558032,-0.264787,0.570958,0.60578195,-0.29265546,0.592583,0.62333521,-0.30330402,0.611165,0.65072886,-0.28035857,0.60503,0.65537652,-0.24254661,0.590904,0.64983405,-0.23755844,0.583676,0.66257756,-0.25139091,0.596425,0.67421604,-0.30345231,0.61107,0.63172097,-0.29600924,0.585368,0.6328374,-0.3153457,0.598018,0.6301932,-0.33359084,0.611969
0.63239453,-0.36406262,0.651131,0.62979728,-0.32430303,0.629294,0.62412449,-0.34679079,0.649541,0.62391625,-0.33822493,0.645225,0.60629654,-0.31183146,0.625493,0.60337521,-0.29404695,0.615289,0.60387588,-0.27327322,0.612396,0.58577387,-0.23105148,0.585421,0.58214532,-0.21510371,0.579034,0.59660432,-0.20912094,0.592052,0.62125549,-0.27958191,0.608496,0.57667729,-0.28521841,0.576391,0.59442772,-0.31618222,0.598201,0.61205502,-0.33941594,0.617858,0.6373188,-0.28853377,0.607639,0.6245722,-0.24518958,0.593018,0.61802739,-0.22333306,0.585537,0.62786004,-0.2200827,0.597636,0.65945138,-0.30637438,0.610748,0.60982031,-0.30913873,0.586889,0.61033354,-0.32714951,0.599763,0.6162028,-0.34337651,0.614081
0.63576306,-0.3672964,0.65268,0.62714662,-0.32551669,0.626847,0.62790146,-0.35563507,0.651674,0.62258679,-0.34019555,0.645485,0.60470926,-0.31813782,0.628903,0.60296064,-0.29787709,0.617783,0.5978251,-0.27221347,0.607996,0.57492832,-0.22769711,0.57757,0.57358824,-0.21030763,0.576228,0.59204588,-0.20012742,0.591932,0.61330582,-0.27725186,0.602245,0.56556812,-0.27870289,0.56604,0.58062866,-0.30825542,0.585148,0.59758973,-0.33134424,0.604242,0.62820393,-0.28530119,0.600292,0.61775033,-0.24325849,0.587533,0.61238436,-0.22196505,0.581005,0.62263956,-0.21851419,0.593168,0.64982244,-0.30236563,0.602882,0.59890753,-0.30392175,0.576974,0.5978687,-0.3208565,0.588197,0.60298338,-0.33640112,0.601668
0.64373421,-0.38381842,0.656093,0.62402022,-0.34262112,0.629851,0.62576384,-0.37880183,0.656303,0.62032592,-0.36045035,0.650406,0.60471351,-0.33667116,0.636168,0.59939799,-0.31833736,0.625308,0.59360437,-0.2896584,0.612306,0.56617764,-0.24358051,0.582193,0.56590295,-0.22656878,0.580969,0.58167983,-0.21675512,0.596267,0.6076736,-0.29283653,0.604858,0.5600048,-0.29105349,0.568189,0.5748198,-0.32115285,0.586337,0.59207805,-0.34530471,0.605297,0.62154989,-0.29946435,0.601553,0.61237187,-0.25835394,0.591425,0.60766859,-0.23749698,0.586243,0.61732855,-0.2341069,0.598775,0.64233027,-0.31505956,0.602649,0.59222672,-0.31633217,0.577205,0.59122152,-0.33373752,0.587888,0.5965443,-0.34982307,0.600986
0.62891679,-0.38300832,0.646566,0.60900113,-0.33674331,0.626185,0.61226935,-0.37281196,0.648705,0.60543644,-0.36368367,0.645663,0.57291549,-0.33136755,0.627883,0.55700037,-0.30789932,0.618309,0.58523777,-0.28701532,0.615132,0.57814633,-0.24715071,0.605124,0.57459831,-0.22726626,0.600121,0.57727501,-0.21137958,0.601727,0.59904666,-0.28952085,0.606774,0.57699961,-0.23999209,0.578587,0.57593635,-0.21753181,0.574698,0.59090605,-0.21099351,0.589163,0.61184879,-0.29525642,0.602089,0.60228113,-0.25234949,0.578193,0.59380296,-0.24603306,0.565967,0.59709839,-0.25795868,0.573684,0.62989476,-0.30913908,0.600481,0.5874903,-0.313689,0.579518,0.58858586,-0.33266515,0.592033,0.59195415,-0.34931433,0.604263
0.6122911,-0.38267134,0.634408,0.60212817,-0.33478702,0.619062,0.59577359,-0.3688325,0.637613,0.5961219,-0.35687091,0.637333,0.5620677,-0.32165043,0.618796,0.55009369,-0.30219569,0.61172,0.58257955,-0.28708634,0.612816,0.57362172,-0.25216951,0.608981,0.56933226,-0.23389268,0.607063,0.56541142,-0.21712932,0.605319,0.59620879,-0.28875267,0.604446,0.57960109,-0.2418903,0.581391,0.57752867,-0.21891101,0.576254,0.59192085,-0.21188169,0.590214,0.60844222,-0.29363326,0.599208,0.58867698,-0.25205713,0.581468,0.57881225,-0.23095591,0.572392,0.58618122,-0.22513653,0.582272,0.6250546,-0.30623267,0.596012,0.58571794,-0.30296012,0.578765,0.59292494,-0.32466555,0.592609,0.59506216,-0.34638926,0.604047
0.59524433,-0.38710185,0.625444,0.58998251,-0.34654292,0.616648,0.58656676,-0.37483944,0.632274,0.5894102,-0.36750757,0.641961,0.56334716,-0.33560745,0.63083,0.56187666,-0.31396916,0.628297,0.58024368,-0.30248453,0.619571,0.57196666,-0.264692,0.613428,0.56662656,-0.24637385,0.610357,0.56113034,-0.23007029,0.607565,0.58981664,-0.30249164,0.60827,0.5755082,-0.25859828,0.593038,0.56715887,-0.23323349,0.584153,0.57205203,-0.23213369,0.595265,0.59807854,-0.30577198,0.599912,0.58697908,-0.26380749,0.587888,0.57856127,-0.24451319,0.581736,0.57491394,-0.22580467,0.576294,0.60886071,-0.31609858,0.591864,0.56895503,-0.31541491,0.58103,0.57478636,-0.33378114,0.59532,0.57792844,-0.34785182,0.604673
0.59533998,-0.39163161,0.629442,0.58126099,-0.34555467,0.616586,0.57758678,-0.38098973,0.632218,0.56344968,-0.35274554,0.631699,0.53786602,-0.31936756,0.618375,0.53159173,-0.30108139,0.618187,0.55924456,-0.29844816,0.611474,0.54042569,-0.25780311,0.592614,0.53700156,-0.2402527,0.589752,0.53387627,-0.22403325,0.587151,0.57491526,-0.29874241,0.604343,0.57333793,-0.25944316,0.601087,0.57243503,-0.23648011,0.599188,0.58821685,-0.22653712,0.614923,0.5886282,-0.30244045,0.599856,0.57966653,-0.26191016,0.579162,0.573091,-0.25433908,0.568574,0.56588541,-0.24547774,0.558949,0.60683515,-0.31353928,0.597065,0.58854915,-0.28450073,0.581181,0.60469161,-0.30738529,0.595819,0.61745909,-0.32724305,0.607084
0.58000719,-0.38990605,0.619455,0.57776389,-0.34609804,0.615795,0.56117512,-0.37689066,0.620806,0.5479741,-0.35062465,0.625334,0.52531138,-0.32019067,0.616276,0.52323152,-0.30674615,0.6224,0.55372058,-0.30368683,0.615069,0.54040714,-0.26541297,0.604193,0.53542678,-0.24695321,0.600633,0.53088292,-0.23001201,0.597396,0.57327629,-0.30528206,0.61231,0.5715702,-0.26616421,0.609585,0.5705771,-0.24323218,0.607995,0.58653298,-0.23343244,0.624605,0.5895026,-0.30953188,0.610432,0.57720491,-0.27040204,0.600254,0.57291303,-0.25248089,0.595047,0.57008584,-0.23765181,0.590313,0.60938233,-0.32028262,0.60894,0.59371659,-0.2820509,0.598688,0.61772196,-0.2957048,0.615164,0.63349414,-0.31604256,0.62516
0.56810674,-0.38560615,0.606842,0.56835389,-0.35522383,0.608274,0.55197993,-0.37980985,0.611311,0.54316595,-0.36451033,0.62217,0.52149354,-0.33693917,0.616409,0.52220278,-0.32295743,0.624156,0.55110162,-0.3179079,0.615067,0.54012156,-0.28144382,0.609622,0.53459566,-0.26301178,0.6069,0.52955002,-0.24613549,0.604425,0.56886034,-0.3158072,0.609637,0.55898726,-0.27534156,0.603996,0.55319566,-0.25278458,0.600706,0.56553383,-0.24360267,0.616336,0.58338379,-0.31678345,0.605011,0.57352024,-0.27846584,0.600783,0.56851439,-0.25905133,0.59862,0.56397814,-0.24149658,0.596653,0.60082341,-0.3232753,0.599373,0.59081252,-0.28573932,0.594342,0.58649737,-0.27041205,0.59203,0.59686886,-0.26786383,0.603602
0.54655713,-0.40367715,0.609653,0.55106779,-0.36110547,0.608899,0.53099323,-0.38963344,0.611115,0.52780192,-0.36658838,0.622255,0.50690814,-0.33614017,0.613443,0.51006415,-0.32041251,0.619077,0.53507231,-0.31754131,0.61029,0.52453179,-0.28013391,0.602247,0.51904954,-0.26185406,0.598225,0.51404021,-0.24502253,0.594569,0.55541623,-0.32012749,0.60818,0.54775827,-0.27742298,0.599256,0.54517845,-0.25139452,0.59405,0.558119,-0.24181408,0.609146,0.57208814,-0.3251909,0.606523,0.56699339,-0.28680617,0.603912,0.56426786,-0.26728302,0.602576,0.56178645,-0.24949254,0.601361,0.59178036,-0.33696761,0.604742,0.59573679,-0.3016737,0.6082,0.59755108,-0.28563437,0.609788,0.60114038,-0.27247445,0.613219
0.55655748,-0.4019351,0.60973,0.55148838,-0.36018583,0.608043,0.54001919,-0.38921441,0.611433,0.52681165,-0.36729677,0.621349,0.50717196,-0.33868952,0.614717,0.50697022,-0.32215607,0.618492,0.53332743,-0.317237,0.609116,0.52078704,-0.2789832,0.599971,0.51435107,-0.26020634,0.595399,0.50848033,-0.24300625,0.591242,0.55322138,-0.31864306,0.606437,0.54024805,-0.27594815,0.596706,0.53276747,-0.25206225,0.591029,0.54437991,-0.24247172,0.605855,0.56972,-0.32277765,0.604412,0.5663567,-0.28662484,0.605721,0.56131495,-0.2672408,0.606391,0.56292514,-0.25119953,0.606999,0.58961752,-0.33353021,0.602379,0.59361383,-0.29993993,0.608334,0.59195122,-0.28252989,0.611069,0.59289681,-0.26895232,0.613926
0.55598917,-0.40319818,0.610118,0.55238189,-0.36144494,0.608974,0.53567948,-0.39234156,0.612838,0.52752386,-0.37164591,0.623419,0.5060996,-0.3435641,0.616313,0.50459782,-0.32793866,0.621153,0.53467345,-0.31977252,0.61174,0.51699475,-0.28486715,0.603926,0.50904649,-0.26623578,0.600018,0.50178222,-0.24927571,0.596466,0.55361636,-0.32007069,0.607885,0.54071314,-0.27825427,0.598997,0.53350045,-0.25420766,0.593813,0.54479315,-0.24531477,0.608768,0.56928652,-0.32325521,0.604833,0.56681594,-0.28799644,0.607562,0.56300536,-0.26969621,0.608958,0.56404654,-0.25322347,0.610228,0.58819234,-0.33280789,0.601505,0.59018089,-0.29872469,0.608205,0.59105616,-0.28331166,0.611283,0.59202865,-0.26977652,0.614219
0.55536414,-0.40397815,0.609724,0.55179124,-0.36217991,0.60878,0.53469861,-0.39275886,0.611232,0.52386314,-0.37438127,0.621071,0.49851062,-0.34895585,0.612874,0.49911854,-0.33180773,0.619171,0.52628487,-0.32466174,0.610104,0.5093834,-0.28825792,0.602034,0.50089254,-0.26998894,0.598,0.49314332,-0.25332441,0.594332,0.54936804,-0.32241349,0.607881,0.53250588,-0.28154338,0.598839,0.52409809,-0.25728548,0.593565,0.53858926,-0.24804231,0.60862,0.56663402,-0.32489272,0.606152,0.56411505,-0.29521145,0.615083,0.56382812,-0.27916236,0.619652,0.568105,-0.26224881,0.623806,0.58971915,-0.33408738,0.604323,0.58584277,-0.30155502,0.612203,0.58574624,-0.28672493,0.615824,0.58565733,-0.27357792,0.619018
