sluyters/QuantumLeap/src/datasets/gesture/HandGestureDataset_SHREC2017_csv/Gesture13/finger_2/subject_26_essai_5_skeletons_world.csv
Wrist_x,Wrist_y,Wrist_z,Palm_x,Palm_y,Palm_z,thumb_base_x,thumb_base_y,thumb_base_z,thumb_first_joint_x,thumb_first_joint_y,thumb_first_joint_z,thumb_second_joint_x,thumb_second_joint_y,thumb_second_joint_z,thumb_tip_x,thumb_tip_y,thumb_tip_z,index_base_x,index_base_y,index_base_z,index_first_joint_x,index_first_joint_y,index_first_joint_z,index_second_joint_x,index_second_joint_y,index_second_joint_z,index_tip_x,index_tip_y,index_tip_z,middle_base_x,middle_base_y,middle_base_z,middle_first_joint_x,middle_first_joint_y,middle_first_joint_z,middle_second_joint_x,middle_second_joint_y,middle_second_joint_z,middle_tip_x,middle_tip_y,middle_tip_z,ring_base_x,ring_base_y,ring_base_z,ring_first_joint_x,ring_first_joint_y,ring_first_joint_z,ring_second_joint_x,ring_second_joint_y,ring_second_joint_z,ring_tip_x,ring_tip_y,ring_tip_z,pinky_base_x,pinky_base_y,pinky_base_z,pinky_first_joint_x,pinky_first_joint_y,pinky_first_joint_z,pinky_second_joint_x,pinky_second_joint_y,pinky_second_joint_z,pinky_tip_x,pinky_tip_y,pinky_tip_z,
0.466725727,-0.182885118,0.470526,0.479140497,-0.136734288,0.466261,0.453714334,-0.159304396,0.469018,0.424031506,-0.127976068,0.461671,0.394133817,-0.100439028,0.449288,0.385429361,-0.0816763511,0.449643,0.467933762,-0.0816225635,0.461203,0.466720213,-0.0387316617,0.453256,0.467231784,-0.0170816074,0.449283,0.469022406,0.00268934269,0.445671,0.490245247,-0.089809314,0.461485,0.493965033,-0.0421227029,0.451263,0.499297862,-0.0174989586,0.4453,0.50355306,0.00025391509,0.44104,0.508007416,-0.0993877906,0.462004,0.506703272,-0.0563430495,0.458911,0.508828143,-0.0322768945,0.457328,0.51313889,-0.0115398273,0.455889,0.52807935,-0.116468312,0.46319,0.521447952,-0.0788783417,0.45559,0.523740856,-0.0714477943,0.452098,0.538883507,-0.0832908766,0.463189
0.472806656,-0.18471108,0.476993,0.480312393,-0.137467243,0.468585,0.45565051,-0.164178352,0.473744,0.422594891,-0.129622474,0.463248,0.391640846,-0.102134327,0.450323,0.382906977,-0.082841673,0.448953,0.46120513,-0.0805103915,0.458279,0.451920018,-0.0372112088,0.446315,0.450858024,-0.0169074125,0.440333,0.453380842,0.00267987577,0.434895,0.484112818,-0.088713553,0.459171,0.479140361,-0.0396933903,0.442427,0.479445805,-0.0162181779,0.432659,0.480015686,0.000633652905,0.425682,0.502718118,-0.0983832812,0.46047,0.487038301,-0.0509359445,0.444654,0.482436095,-0.0268969937,0.436561,0.480235509,-0.00833522673,0.429205,0.524505682,-0.115769378,0.463138,0.508076338,-0.0742677497,0.447996,0.506126019,-0.0694361018,0.441039,0.519885795,-0.0815577623,0.449736
0.466357001,-0.190325282,0.47287,0.470880491,-0.153163313,0.466713,0.446704282,-0.169874274,0.469802,0.416668599,-0.142683192,0.460883,0.382093547,-0.115332919,0.446275,0.36984753,-0.0943626729,0.44091,0.458866886,-0.0966641045,0.458333,0.450995474,-0.0504169497,0.444894,0.448526493,-0.028089529,0.438174,0.446386312,-0.00727417116,0.432065,0.48154506,-0.106419052,0.459821,0.481260867,-0.0581856639,0.445278,0.4831691,-0.0299218801,0.436794,0.488201196,-0.00468698023,0.430735,0.499635002,-0.117258108,0.461458,0.490853394,-0.0689721042,0.447443,0.488959656,-0.0455146294,0.440273,0.488665268,-0.0281495238,0.433755,0.520197626,-0.135822851,0.464232,0.510254444,-0.0938130244,0.450659,0.509004254,-0.0894130052,0.444422,0.519177397,-0.104768395,0.453671
0.462019088,-0.201509593,0.472659,0.468733663,-0.15486375,0.465685,0.445830576,-0.181322088,0.470168,0.411352664,-0.153167951,0.462731,0.37682815,-0.125721755,0.445884,0.363098816,-0.105307432,0.440561,0.453773537,-0.102511695,0.457384,0.443731733,-0.0567875551,0.443797,0.439760277,-0.0348761658,0.437003,0.436226081,-0.0143910453,0.430827,0.476200173,-0.111217413,0.457877,0.474706868,-0.0618073147,0.442658,0.474491389,-0.0328760841,0.43378,0.474407027,-0.0120021709,0.427438,0.494492746,-0.124373806,0.458752,0.484512188,-0.0734978527,0.444454,0.481688337,-0.0503627954,0.437139,0.480112289,-0.0338234602,0.430489,0.515735419,-0.141133605,0.460721,0.503243718,-0.0978899938,0.446842,0.500859353,-0.0937950014,0.440466,0.512587757,-0.106644188,0.449606
0.439092814,-0.21668726,0.470237,0.449262892,-0.17371253,0.461463,0.424069717,-0.19491829,0.4671,0.393749729,-0.167682103,0.45967,0.356703854,-0.139684553,0.440277,0.342599481,-0.119260582,0.434663,0.438488768,-0.116398814,0.451015,0.42836646,-0.0709007256,0.435854,0.423585945,-0.0486052641,0.428273,0.419293994,-0.0279092471,0.421381,0.460222341,-0.126504101,0.45164,0.46005183,-0.0774225838,0.434564,0.460304281,-0.0495039697,0.424603,0.461931808,-0.0287680505,0.417488,0.477650388,-0.13773114,0.452743,0.469201881,-0.0897350349,0.436719,0.466381604,-0.0683563245,0.428521,0.463806981,-0.0539274214,0.421068,0.497527701,-0.15696115,0.455224,0.487088669,-0.115048588,0.43989,0.483015069,-0.112296134,0.432845,0.491796144,-0.127888021,0.441466
0.438623392,-0.224591578,0.470949,0.445454526,-0.187863757,0.460997,0.423439918,-0.202925515,0.468029,0.39098669,-0.181720223,0.460026,0.354296628,-0.152457749,0.440712,0.342769171,-0.132902514,0.438165,0.432483203,-0.130052548,0.449922,0.420856966,-0.0844357458,0.434192,0.41505924,-0.0614465855,0.426327,0.409799203,-0.0404339166,0.419178,0.453817204,-0.139497178,0.449856,0.451885692,-0.0905037787,0.43171,0.450991038,-0.0618945988,0.421125,0.450480143,-0.0411266717,0.413564,0.471032004,-0.150208261,0.450471,0.459880182,-0.102321923,0.433707,0.456261212,-0.0851915628,0.42513,0.453026435,-0.07247112,0.417333,0.490950583,-0.168896283,0.452522,0.47872113,-0.126414723,0.436521,0.47444919,-0.124154381,0.429169,0.483305623,-0.140194003,0.437514
0.426672404,-0.237590221,0.465579,0.426970943,-0.200276421,0.454502,0.404917261,-0.224245244,0.462684,0.372906288,-0.196747804,0.454351,0.33705322,-0.16851813,0.437213,0.325443338,-0.149219376,0.434946,0.412219649,-0.142028172,0.442604,0.400063226,-0.0974039836,0.426205,0.394010786,-0.0747529456,0.418005,0.388529244,-0.0539068888,0.410551,0.433355495,-0.150740744,0.442101,0.428230794,-0.100449474,0.422905,0.424995057,-0.0722952449,0.411707,0.422791654,-0.051844156,0.403708,0.450588258,-0.16094527,0.442431,0.438127242,-0.111982235,0.424862,0.432035901,-0.0970702166,0.415873,0.426375093,-0.0860535974,0.407701,0.470834295,-0.179220519,0.44429,0.456938368,-0.135987127,0.427584,0.450874418,-0.134846767,0.419908,0.458954559,-0.151655237,0.427953
0.404441093,-0.265271703,0.460888,0.408723084,-0.219085759,0.448731,0.387354048,-0.244001386,0.457093,0.352748808,-0.21807818,0.448387,0.31500043,-0.191473225,0.429454,0.300384637,-0.172149074,0.425171,0.391232991,-0.159623605,0.434925,0.376052028,-0.113637985,0.417183,0.368463091,-0.0905673996,0.408312,0.361564597,-0.0695449124,0.400247,0.413159396,-0.168316699,0.435121,0.40740217,-0.117910728,0.414716,0.404299657,-0.0894068495,0.402813,0.402154881,-0.06883885,0.394311,0.430995515,-0.178511532,0.436099,0.416902044,-0.128644797,0.417202,0.411656536,-0.118533816,0.407534,0.407070073,-0.110019066,0.398744,0.451991351,-0.196760794,0.438876,0.437372973,-0.153417955,0.42109,0.432276646,-0.15451213,0.412919,0.440258547,-0.172327166,0.420573
0.398819387,-0.289965312,0.465888,0.396188411,-0.241943797,0.448988,0.378428245,-0.269900138,0.459607,0.339965484,-0.241640403,0.446902,0.305387751,-0.217536107,0.432369,0.28763605,-0.197950481,0.423399,0.369595368,-0.181831087,0.428578,0.35269101,-0.135095906,0.411621,0.344581092,-0.112314706,0.403143,0.337202948,-0.0914893598,0.395435,0.393046149,-0.188806079,0.430068,0.383260099,-0.137566106,0.407715,0.378287143,-0.109199982,0.394675,0.374798145,-0.088731692,0.385361,0.412452689,-0.197684837,0.43243,0.410015084,-0.15313119,0.408693,0.408835336,-0.130224974,0.396549,0.407813329,-0.109341094,0.385509,0.436057206,-0.214517227,0.437491,0.436667549,-0.17435486,0.418273,0.434777045,-0.171714301,0.409444,0.449345629,-0.175673888,0.416486
0.382912442,-0.310704553,0.462426,0.376586226,-0.26208313,0.44283,0.364145861,-0.292539535,0.459106,0.328660155,-0.266771716,0.451903,0.294287487,-0.244097799,0.440045,0.275680467,-0.225066548,0.431873,0.349240255,-0.203426821,0.423966,0.331758346,-0.154543291,0.405375,0.322735788,-0.135541641,0.396079,0.314494102,-0.117838032,0.387628,0.369354479,-0.20818594,0.420892,0.35902166,-0.157551734,0.400212,0.353011314,-0.127928152,0.388149,0.348726184,-0.10672448,0.379532,0.386104167,-0.21523745,0.419679,0.386019639,-0.17082164,0.398929,0.386066906,-0.147934891,0.388312,0.386170788,-0.127022275,0.378661,0.406836605,-0.229858146,0.420814,0.409278755,-0.199790871,0.399132,0.410621349,-0.185804468,0.38917,0.427992775,-0.18011874,0.395206
0.380240577,-0.319911057,0.465627,0.365149051,-0.275725388,0.441698,0.362066862,-0.300751695,0.462633,0.320934884,-0.290929941,0.459739,0.280484832,-0.271385648,0.443738,0.257397541,-0.253751695,0.433168,0.336520274,-0.213876051,0.419945,0.308243315,-0.172685557,0.394884,0.294051826,-0.151907663,0.382353,0.281116118,-0.132897556,0.370962,0.353881293,-0.219559306,0.414906,0.335635311,-0.170381134,0.389176,0.3245928,-0.142243375,0.374167,0.316718869,-0.121988105,0.363446,0.368868045,-0.227574155,0.41237,0.361898096,-0.183482627,0.38725,0.358417417,-0.160757964,0.374398,0.355311485,-0.139986881,0.362715,0.388300018,-0.243811363,0.412489,0.384221698,-0.213590607,0.386523,0.382491764,-0.199600747,0.374593,0.396108558,-0.194590109,0.378452
0.368269227,-0.332318696,0.462618,0.354158964,-0.287960732,0.439354,0.350590278,-0.311860358,0.459599,0.309295563,-0.300949584,0.455094,0.270120664,-0.280387092,0.440081,0.246431592,-0.26440809,0.427982,0.325414789,-0.225416629,0.418077,0.296305605,-0.185174112,0.393021,0.281678085,-0.164849945,0.380493,0.268221118,-0.146476448,0.369105,0.34282846,-0.231142776,0.41331,0.324540713,-0.18137781,0.388883,0.313730561,-0.152416877,0.374633,0.306014736,-0.131640574,0.364456,0.357971097,-0.239280671,0.410952,0.348545381,-0.194226554,0.383756,0.343754774,-0.171110927,0.369842,0.339422211,-0.150053137,0.357194,0.377726696,-0.25584745,0.411197,0.375471115,-0.223131189,0.38603,0.374524081,-0.208025265,0.374466,0.37374282,-0.194652831,0.364263
0.343878163,-0.353015437,0.45088,0.334586667,-0.301083918,0.430495,0.327935006,-0.334034955,0.450563,0.295285018,-0.319058731,0.452712,0.258541478,-0.301076708,0.442325,0.236549017,-0.285516568,0.434707,0.308533486,-0.240592966,0.414671,0.280383156,-0.199943383,0.393346,0.266203111,-0.179376552,0.382684,0.2510946,-0.165627142,0.37299,0.323956276,-0.244255989,0.407673,0.302711279,-0.193520923,0.382162,0.287711766,-0.167574514,0.367281,0.276955111,-0.148795476,0.356652,0.337377005,-0.250677251,0.403287,0.324254995,-0.204754819,0.374335,0.317533918,-0.181277468,0.359522,0.314789453,-0.161677878,0.349801,0.354938138,-0.265146628,0.400721,0.356124686,-0.233424679,0.376518,0.353364654,-0.222335123,0.365398,0.339011581,-0.222684321,0.355585
0.329748066,-0.367278611,0.45275,0.319318022,-0.319382587,0.432742,0.313727671,-0.349563307,0.45271,0.281015765,-0.336387734,0.455273,0.245669518,-0.32192257,0.447705,0.223330026,-0.308524652,0.440851,0.292041558,-0.261816177,0.417538,0.261885674,-0.225611113,0.396441,0.246539496,-0.207108199,0.385893,0.230182577,-0.196081894,0.376303,0.307624445,-0.265874805,0.41034,0.283988603,-0.218355864,0.383899,0.267284857,-0.194971254,0.368475,0.255240762,-0.177956276,0.357458,0.321159734,-0.272428653,0.405764,0.306959225,-0.230803605,0.376897,0.299779208,-0.209285289,0.362127,0.295199107,-0.190787754,0.350943,0.338789444,-0.286607532,0.402922,0.339462304,-0.258821816,0.37891,0.336281962,-0.250295007,0.367877,0.32155656,-0.252700179,0.358142
0.317707586,-0.388720274,0.459442,0.304345928,-0.336799292,0.435031,0.300736456,-0.369228367,0.457881,0.267538719,-0.354963506,0.459832,0.231106752,-0.338138674,0.450013,0.208212843,-0.323503091,0.441887,0.273986905,-0.275209618,0.414652,0.241249833,-0.236989909,0.39001,0.224741305,-0.217694051,0.377689,0.207240816,-0.205965906,0.366489,0.289282924,-0.279597114,0.407702,0.262589192,-0.229760745,0.377269,0.243948813,-0.20535899,0.359517,0.230567133,-0.18778404,0.346837,0.30284527,-0.28664668,0.403626,0.285244327,-0.242757991,0.371084,0.276243944,-0.220290007,0.354435,0.270237118,-0.201474525,0.342049,0.321053541,-0.301915145,0.401964,0.318427762,-0.272094174,0.374808,0.313402003,-0.262689947,0.362331,0.297297713,-0.263875476,0.351322
0.312510869,-0.395263375,0.46128,0.292624727,-0.347647281,0.435816,0.295315702,-0.375321975,0.459299,0.255377408,-0.365345028,0.460642,0.218765526,-0.347745626,0.450157,0.195680141,-0.332599362,0.441402,0.262117666,-0.285075223,0.41413,0.229108316,-0.246583705,0.388489,0.212482541,-0.227187515,0.375669,0.19479462,-0.215458035,0.364015,0.277476267,-0.289777261,0.407307,0.250635519,-0.239586401,0.375799,0.231819208,-0.215129475,0.35742,0.218319888,-0.19754557,0.344292,0.29108764,-0.29711989,0.403406,0.273312315,-0.253075384,0.369929,0.264211197,-0.230560893,0.352801,0.258623919,-0.212316466,0.340776,0.309365851,-0.312815266,0.402093,0.306519685,-0.283020472,0.374265,0.301278767,-0.27371545,0.361479,0.285005044,-0.274708549,0.350198
0.302833376,-0.405004117,0.464095,0.283368656,-0.3551953,0.437265,0.284906819,-0.384480953,0.461104,0.245030924,-0.372426393,0.461312,0.207870127,-0.355194724,0.450056,0.184223896,-0.340301065,0.440474,0.250936984,-0.292618428,0.41332,0.217092749,-0.255286079,0.386204,0.20003797,-0.236481573,0.372647,0.182091378,-0.22552168,0.360322,0.26713452,-0.297738261,0.407226,0.239505813,-0.248540336,0.374279,0.220305266,-0.224941539,0.35506,0.206526049,-0.207984003,0.341332,0.281486639,-0.305396525,0.404017,0.263432468,-0.262598538,0.369556,0.254191557,-0.240710723,0.351924,0.248551468,-0.223301824,0.339671,0.300756362,-0.321407208,0.403714,0.296194617,-0.294007261,0.37529,0.29006785,-0.286109468,0.362231,0.273395379,-0.287773267,0.350708
0.299905258,-0.405946989,0.463338,0.282056521,-0.355763697,0.436669,0.282237111,-0.385567771,0.460557,0.244210438,-0.372673411,0.46106,0.206721638,-0.355882013,0.449459,0.183495232,-0.340541346,0.440268,0.250294131,-0.2930925,0.413101,0.216610112,-0.255599064,0.386305,0.199634498,-0.236710821,0.372907,0.181657417,-0.225634687,0.360726,0.266157637,-0.298292564,0.406812,0.238726966,-0.248992383,0.374124,0.219545875,-0.225284538,0.355056,0.205779721,-0.208247685,0.341436,0.280219334,-0.306020413,0.403431,0.262181314,-0.263179695,0.369144,0.251922869,-0.242591644,0.351601,0.238284584,-0.228774459,0.335654,0.299106635,-0.322123112,0.4029,0.294311922,-0.294689004,0.374443,0.287993115,-0.286717172,0.361368,0.271106659,-0.28820044,0.349832
0.295435897,-0.411280229,0.464345,0.280293838,-0.360937004,0.437898,0.278570816,-0.391443221,0.462439,0.242692252,-0.375488104,0.46094,0.205973231,-0.356742579,0.448919,0.182861073,-0.340534947,0.43913,0.248761855,-0.301009626,0.415559,0.214462283,-0.264002055,0.389078,0.197168854,-0.24535943,0.375837,0.181892302,-0.22916052,0.363801,0.262919937,-0.306442665,0.40829,0.234214662,-0.258259614,0.376083,0.215258726,-0.233058472,0.357296,0.204436836,-0.212877323,0.344537,0.275600617,-0.31439454,0.404088,0.256741515,-0.271408643,0.369702,0.247090684,-0.249422424,0.352109,0.23709517,-0.230812799,0.336116,0.292848007,-0.330828493,0.402543,0.287867107,-0.302905479,0.373662,0.28100697,-0.29456946,0.360392,0.263471631,-0.295050823,0.348683
0.295975777,-0.414086191,0.465329,0.279421129,-0.365838336,0.438206,0.279535767,-0.394204698,0.463751,0.243735618,-0.381082871,0.462461,0.206578097,-0.364819415,0.449275,0.183117575,-0.345905523,0.439711,0.249157345,-0.302553145,0.41575,0.213961343,-0.265588544,0.389368,0.196226373,-0.246980542,0.376176,0.177892818,-0.233976415,0.364184,0.262463212,-0.307795188,0.407839,0.232617632,-0.259576758,0.37548,0.209643614,-0.23798123,0.356603,0.193400535,-0.22214931,0.34312,0.274512969,-0.315616588,0.403154,0.253996348,-0.272360418,0.368106,0.241237557,-0.252467986,0.350175,0.232554683,-0.234666713,0.335934,0.291150481,-0.331954607,0.401122,0.284361252,-0.303668577,0.371325,0.274165125,-0.297950987,0.357635,0.258303707,-0.295129856,0.345555
0.295461187,-0.415086865,0.46442,0.27925425,-0.366721242,0.437549,0.279584318,-0.395529349,0.463431,0.245733467,-0.385215702,0.463556,0.20774622,-0.367240427,0.450824,0.184389274,-0.350962602,0.440808,0.249432213,-0.303957712,0.415999,0.214148548,-0.267292014,0.390314,0.195521626,-0.25001141,0.377472,0.177912802,-0.235932074,0.365797,0.262100787,-0.308828791,0.407465,0.23107314,-0.262236731,0.375571,0.209301254,-0.238924855,0.356966,0.19303218,-0.223100298,0.343677,0.273253757,-0.318016792,0.402252,0.253389306,-0.272207426,0.367283,0.243028972,-0.249680678,0.349392,0.235275276,-0.234000532,0.337559,0.289084423,-0.334188443,0.399551,0.279641478,-0.306526806,0.369521,0.270369075,-0.298204287,0.355723,0.251304523,-0.297996104,0.343548
0.290152424,-0.41050156,0.458534,0.275535486,-0.363680121,0.433825,0.275303893,-0.39174873,0.458466,0.232762648,-0.383927175,0.458809,0.197290209,-0.371003826,0.451829,0.174047014,-0.35845151,0.444458,0.248433313,-0.303148661,0.415029,0.213983866,-0.267544305,0.391234,0.196537021,-0.249541681,0.379336,0.179296057,-0.234890651,0.36852,0.260771439,-0.308018898,0.406162,0.230943423,-0.262924513,0.376229,0.209966281,-0.240520939,0.358768,0.194210528,-0.225300358,0.346296,0.27183734,-0.315367293,0.400529,0.251394173,-0.274276957,0.367252,0.239857995,-0.253752425,0.350226,0.230888344,-0.237608051,0.337444,0.286290001,-0.332291973,0.397041,0.282553328,-0.301019014,0.368375,0.274888314,-0.292921814,0.355205,0.256814879,-0.293096641,0.343584
0.291501775,-0.414797555,0.463068,0.275645381,-0.365002655,0.436709,0.275678761,-0.394007571,0.461105,0.233087788,-0.38404832,0.461075,0.194879577,-0.365474349,0.44788,0.170106983,-0.350258824,0.436333,0.247857856,-0.301339353,0.414368,0.212420503,-0.26598596,0.389068,0.194449368,-0.247777414,0.376418,0.176703279,-0.233517383,0.364918,0.261331599,-0.308533814,0.407199,0.231302162,-0.260907087,0.375225,0.210442944,-0.23731959,0.356573,0.194957693,-0.221101392,0.343251,0.273319206,-0.317324488,0.403073,0.25326796,-0.274616073,0.36898,0.24208553,-0.25369119,0.351537,0.230899173,-0.235736102,0.33568,0.289088004,-0.336004027,0.40161,0.286473963,-0.304455586,0.372865,0.278784535,-0.296360944,0.359657,0.260404864,-0.2964585,0.348004
0.290109611,-0.414554783,0.462941,0.273479125,-0.363589087,0.436426,0.27440899,-0.393445501,0.460807,0.230274289,-0.378384869,0.458023,0.192027187,-0.35835541,0.443739,0.171622055,-0.341643949,0.431989,0.247961944,-0.297353005,0.413757,0.211345877,-0.263896379,0.388769,0.191944261,-0.246169332,0.376274,0.176340313,-0.231727324,0.364916,0.260672765,-0.305277022,0.40674,0.231523123,-0.258301771,0.374575,0.211803269,-0.233423578,0.355811,0.196041905,-0.217958279,0.342409,0.27263541,-0.315774688,0.40275,0.253264383,-0.273116402,0.368613,0.243160557,-0.25115613,0.351147,0.230397984,-0.234864027,0.335269,0.288876964,-0.333609092,0.401469,0.285728867,-0.303597551,0.372625,0.274649137,-0.296444148,0.359372,0.258021075,-0.295970507,0.347678
0.285865725,-0.408824301,0.458894,0.268227735,-0.348579393,0.432844,0.268841349,-0.386156502,0.456444,0.224984801,-0.363700472,0.451275,0.186092617,-0.343852217,0.435604,0.162169529,-0.331794741,0.421263,0.242441318,-0.284370514,0.410145,0.205677564,-0.25051161,0.384672,0.187053991,-0.233401685,0.371935,0.169960571,-0.217725905,0.360357,0.25658495,-0.291529706,0.403678,0.227779093,-0.244395638,0.371666,0.207652889,-0.221149952,0.352992,0.192575493,-0.205318856,0.339654,0.269040762,-0.300896119,0.40011,0.249923119,-0.259173967,0.366382,0.240151303,-0.237781867,0.349125,0.228728242,-0.220953571,0.333438,0.285569982,-0.319013754,0.399273,0.283413054,-0.288589983,0.371077,0.274520025,-0.281499384,0.358122,0.255574552,-0.282169674,0.346691
0.273741913,-0.393078179,0.455437,0.261793164,-0.3367834,0.430562,0.259470576,-0.371703962,0.453796,0.219338244,-0.351614691,0.449562,0.18091514,-0.330926252,0.434111,0.156269293,-0.315687462,0.420604,0.237937353,-0.27290761,0.409733,0.201887863,-0.238250801,0.386046,0.183606223,-0.220704923,0.374203,0.166813588,-0.204607544,0.363436,0.25119013,-0.279636087,0.402712,0.22293218,-0.231599732,0.371999,0.202961561,-0.207584612,0.354083,0.187961955,-0.191145711,0.341285,0.262872124,-0.28866755,0.398608,0.243890975,-0.245922586,0.365925,0.234186384,-0.224000862,0.349203,0.222709892,-0.206507645,0.334001,0.278381831,-0.306430976,0.396975,0.276053549,-0.275234728,0.369296,0.266816953,-0.26737898,0.356579,0.247719287,-0.267819811,0.345357
0.272112536,-0.379337814,0.449455,0.263129144,-0.319280029,0.426692,0.257021276,-0.359737479,0.448897,0.221246523,-0.343754723,0.446343,0.179958755,-0.326401764,0.429791,0.155399672,-0.310749727,0.417102,0.23298983,-0.257463116,0.408776,0.19776557,-0.220848269,0.386054,0.178895994,-0.204693576,0.374693,0.160952714,-0.191358137,0.364364,0.247769634,-0.259099866,0.401207,0.215782974,-0.215160158,0.37193,0.196753641,-0.189607872,0.354852,0.181474055,-0.173784718,0.342654,0.260987151,-0.264047578,0.396511,0.249465034,-0.213940334,0.368581,0.234956423,-0.198199981,0.354291,0.21591615,-0.195238267,0.3413,0.278973421,-0.277174047,0.393888,0.281738607,-0.25173361,0.367764,0.267482708,-0.250412118,0.355761,0.247607851,-0.251781257,0.34517
0.270032267,-0.35717539,0.438145,0.256087452,-0.293753557,0.418311,0.253647216,-0.33267301,0.439446,0.214989165,-0.320718193,0.437057,0.175855288,-0.303470743,0.422812,0.151979707,-0.287163259,0.412341,0.226425755,-0.235904082,0.404866,0.1880827,-0.204407349,0.386463,0.16848467,-0.188343043,0.377261,0.150377727,-0.173556927,0.368897,0.240404391,-0.234727762,0.396106,0.204184304,-0.192547635,0.370621,0.182808475,-0.167619659,0.355755,0.1674089,-0.149642749,0.345137,0.252938851,-0.237251702,0.390233,0.226289021,-0.194789481,0.362366,0.211794562,-0.173884117,0.348108,0.198537658,-0.154689664,0.335146,0.270113659,-0.247257004,0.385814,0.255734057,-0.217578638,0.361255,0.245946401,-0.206992382,0.349971,0.228911887,-0.209273228,0.340015
0.248913422,-0.327259054,0.433325,0.239743581,-0.272076471,0.415569,0.234582766,-0.311145841,0.435318,0.195881857,-0.299792667,0.43336,0.156165369,-0.284164499,0.418429,0.13193313,-0.267897974,0.407359,0.216523558,-0.21534878,0.404536,0.178324694,-0.185669952,0.387781,0.1586721,-0.170437773,0.379404,0.140440507,-0.156330598,0.371788,0.229390695,-0.213811842,0.39569,0.191848843,-0.174334018,0.372191,0.169131031,-0.15151631,0.358483,0.152644832,-0.134946477,0.348691,0.240772167,-0.21598188,0.389607,0.210847313,-0.175987845,0.364759,0.195331498,-0.155155548,0.352047,0.177950284,-0.140632814,0.34049,0.25608131,-0.225504516,0.384661,0.243557361,-0.193626706,0.361703,0.234290901,-0.181283272,0.351155,0.217087724,-0.180741278,0.341848
0.256740253,-0.302746319,0.441959,0.237428932,-0.251546566,0.420773,0.237209478,-0.288378949,0.441758,0.196244527,-0.281012956,0.436704,0.155505264,-0.265840859,0.419578,0.130352386,-0.250856896,0.407259,0.199972496,-0.196971827,0.404484,0.160935943,-0.162274974,0.384739,0.141141021,-0.144689487,0.374866,0.122797077,-0.128852249,0.365891,0.216056613,-0.195523695,0.397054,0.180371083,-0.150470926,0.369843,0.158690566,-0.125148001,0.353969,0.143083035,-0.106895654,0.342631,0.230621891,-0.197663433,0.392366,0.198300311,-0.15454814,0.365958,0.181675168,-0.132332046,0.352447,0.166500498,-0.112027648,0.340164,0.250770968,-0.206831159,0.389544,0.228617261,-0.175926755,0.364983,0.218344613,-0.161463252,0.353698,0.209222337,-0.148538326,0.34374
0.252943296,-0.300070482,0.440736,0.232857434,-0.243282887,0.421088,0.233427018,-0.286181482,0.440902,0.187642807,-0.273182978,0.434403,0.147056822,-0.256574386,0.417231,0.122450572,-0.240299537,0.405242,0.198076082,-0.18917613,0.406408,0.160020413,-0.155262816,0.387768,0.140641852,-0.138000659,0.378448,0.122795099,-0.122107497,0.369975,0.214446096,-0.185420911,0.39909,0.179919468,-0.149705524,0.372384,0.158267255,-0.125777719,0.356806,0.142580695,-0.108410602,0.345678,0.22904632,-0.185695709,0.394391,0.196357516,-0.14645282,0.368869,0.179388704,-0.126002898,0.355811,0.166067577,-0.110207696,0.343941,0.249010232,-0.192726226,0.391354,0.22786546,-0.167940585,0.367831,0.218014624,-0.15626279,0.357023,0.210370115,-0.14796675,0.347487
0.242102064,-0.275994205,0.437857,0.222978305,-0.222510246,0.418297,0.221627584,-0.263560733,0.437798,0.179263107,-0.254697801,0.431872,0.138745744,-0.240523444,0.415112,0.113850362,-0.225795794,0.403607,0.185776201,-0.170726649,0.403412,0.146244746,-0.138112327,0.384609,0.126091494,-0.121495672,0.375208,0.107515721,-0.106186277,0.366662,0.202259584,-0.166055695,0.396399,0.164819337,-0.129584685,0.370105,0.142329261,-0.107621232,0.354767,0.125907749,-0.0915545086,0.343812,0.217098222,-0.165494291,0.391945,0.183109399,-0.127261864,0.366825,0.165409635,-0.107274272,0.353973,0.149102084,-0.0888054481,0.342289,0.237618789,-0.171347755,0.38919,0.215764535,-0.146691492,0.365852,0.205550505,-0.13503683,0.355128,0.196431266,-0.124550268,0.345667
0.231008963,-0.263558555,0.427831,0.210708388,-0.206236248,0.411697,0.212680743,-0.251723272,0.429467,0.167095275,-0.235092023,0.42522,0.127276609,-0.221602551,0.409574,0.102155855,-0.20805073,0.396844,0.179866183,-0.155641777,0.40146,0.140638017,-0.124328964,0.38599,0.120434951,-0.108210891,0.378255,0.101682604,-0.0932556297,0.371223,0.194671027,-0.151710919,0.393635,0.15716338,-0.110184023,0.371333,0.134535985,-0.0858561743,0.358324,0.118107999,-0.0681618681,0.349031,0.207930693,-0.151669222,0.388282,0.174644543,-0.111362333,0.366486,0.157290676,-0.0902642054,0.355334,0.141293184,-0.0707581824,0.345197,0.226053712,-0.158003003,0.383997,0.201596544,-0.126496907,0.36378,0.190109833,-0.111560205,0.354491,0.179821518,-0.0980987885,0.346294
0.215522423,-0.244803995,0.413313,0.19517367,-0.193141534,0.400741,0.199053482,-0.234902994,0.41742,0.158122762,-0.220997673,0.41649,0.121225786,-0.207471742,0.405325,0.0977320045,-0.193553595,0.396393,0.161507553,-0.14755169,0.396196,0.12950272,-0.109014473,0.383809,0.108958767,-0.0943083529,0.377616,0.0896968903,-0.0805283518,0.371986,0.175354902,-0.141129632,0.386666,0.143081978,-0.0944730866,0.368415,0.121375978,-0.0692359336,0.357769,0.103400551,-0.0537307072,0.350165,0.187968848,-0.138920662,0.379672,0.163496265,-0.0917973322,0.361485,0.146185743,-0.0713741358,0.352181,0.130111998,-0.0523434951,0.343722,0.20556579,-0.142354135,0.372949,0.186705239,-0.102060075,0.354773,0.17480314,-0.0866533638,0.346421,0.164120275,-0.0727453873,0.339052
0.210842954,-0.237725425,0.408764,0.188042618,-0.182426993,0.39763,0.190984494,-0.224936242,0.41302,0.15087249,-0.212173101,0.414,0.115045431,-0.200549108,0.40495,0.0918274022,-0.187602716,0.397466,0.153076615,-0.138228226,0.394356,0.122940851,-0.100931167,0.384012,0.102194053,-0.0870602848,0.37884,0.0826318549,-0.073990671,0.374138,0.168072357,-0.131476993,0.385165,0.138906169,-0.0840874186,0.368212,0.115804877,-0.061192167,0.358323,0.0984479154,-0.0448239728,0.351259,0.181571579,-0.128953839,0.378354,0.156068162,-0.0823142086,0.360185,0.140489945,-0.0600151784,0.35089,0.123370439,-0.0430857499,0.342439,0.200124073,-0.131878214,0.371661,0.179288024,-0.0934092644,0.354858,0.169088217,-0.0758520384,0.347137,0.159741941,-0.0603437611,0.340325
0.202015699,-0.22181334,0.404703,0.18102342,-0.171451921,0.394483,0.184351569,-0.214153511,0.409413,0.145629387,-0.204251253,0.41229,0.109668863,-0.194698492,0.403435,0.0889914673,-0.184946542,0.396432,0.146077314,-0.129050038,0.392451,0.114685516,-0.0918710187,0.382275,0.093683953,-0.077699269,0.377188,0.0738660901,-0.0643334285,0.372563,0.160227701,-0.12141091,0.383041,0.131521992,-0.0748098096,0.367071,0.107593764,-0.0524724895,0.357755,0.0899588254,-0.0359779087,0.351101,0.173124506,-0.118096291,0.375987,0.148622991,-0.0713732635,0.358441,0.132560695,-0.0493695609,0.349464,0.114730971,-0.0329152925,0.341303,0.191112918,-0.119975345,0.368883,0.174383528,-0.0788669075,0.352577,0.161225883,-0.0662637351,0.345085,0.149271883,-0.0547450032,0.338475
0.199964606,-0.219649335,0.40433,0.179560112,-0.170748573,0.394314,0.182382598,-0.211954577,0.409,0.143737472,-0.203455331,0.411992,0.107969242,-0.194107518,0.403608,0.0851187862,-0.18252773,0.397674,0.14507122,-0.128139051,0.392387,0.113778054,-0.0913436427,0.382704,0.0927512995,-0.0772395392,0.377863,0.0729065359,-0.0639353654,0.373462,0.159265097,-0.120716816,0.383099,0.130425202,-0.0741154475,0.36729,0.106811087,-0.0513027085,0.358067,0.0894284396,-0.0344767892,0.35148,0.172179027,-0.117580735,0.376133,0.147809983,-0.0708267396,0.358633,0.1322276,-0.0484882872,0.349679,0.114630357,-0.0316725543,0.341539,0.190140222,-0.11967928,0.369107,0.173613547,-0.0784800527,0.353135,0.16041458,-0.0656757311,0.345796,0.148424052,-0.0539763939,0.339321
0.198506563,-0.216887549,0.403134,0.178333212,-0.168941914,0.393804,0.180976275,-0.209628863,0.408057,0.141465389,-0.200518132,0.411008,0.106914068,-0.192323827,0.40272,0.084165624,-0.18086622,0.39711,0.142398583,-0.126212459,0.392703,0.111179213,-0.0894441803,0.382741,0.0900649553,-0.0753987142,0.37776,0.0714234973,-0.0629159832,0.373232,0.156601031,-0.118358777,0.383359,0.124637331,-0.0710581986,0.368254,0.100725059,-0.048308827,0.359443,0.0861655261,-0.0323115919,0.353149,0.16780556,-0.112607924,0.376299,0.14198098,-0.0664229491,0.358956,0.124734019,-0.0453358468,0.350083,0.111528407,-0.028157537,0.342016,0.185966953,-0.113523139,0.36907,0.170667081,-0.0754355852,0.35334,0.156578512,-0.0577853282,0.346113,0.145661605,-0.0440817507,0.339735
0.197945534,-0.215573734,0.403053,0.177818872,-0.168132732,0.393767,0.180362257,-0.208499716,0.408009,0.141364116,-0.19984106,0.410854,0.106437641,-0.191523994,0.402468,0.0836870684,-0.180031241,0.396819,0.141809947,-0.125844727,0.392741,0.110683281,-0.089041495,0.382844,0.0895742389,-0.0750170152,0.377895,0.0707353277,-0.0624533055,0.373396,0.156011576,-0.117787272,0.383372,0.124659669,-0.071070934,0.36832,0.100752241,-0.0483218637,0.35954,0.0851782307,-0.0320624576,0.353269,0.167801101,-0.112604931,0.376289,0.142002734,-0.0664331266,0.359011,0.124765017,-0.0453471134,0.35017,0.110540951,-0.0274055639,0.342134,0.185945286,-0.113509913,0.369027,0.169968481,-0.0745597497,0.353285,0.156550916,-0.0577751439,0.346052,0.145634165,-0.0440734465,0.339671
0.198094559,-0.215005604,0.403274,0.178049125,-0.167942266,0.393913,0.180421434,-0.207996502,0.408131,0.142577707,-0.200672462,0.410845,0.106711603,-0.191624205,0.40262,0.0837237452,-0.180138304,0.396638,0.142912198,-0.126604098,0.39271,0.111855465,-0.0896090828,0.382801,0.0907652115,-0.0758134046,0.377847,0.0708146235,-0.0627715895,0.373343,0.157127924,-0.118578178,0.383434,0.126176161,-0.0721126127,0.368275,0.102369621,-0.0492964686,0.359432,0.0859634655,-0.0332075939,0.353115,0.169276397,-0.114077282,0.376432,0.145116596,-0.0684100903,0.358976,0.128887999,-0.0465790046,0.350045,0.11166295,-0.0267890191,0.341925,0.187366333,-0.115330439,0.369278,0.169885412,-0.0748010366,0.353613,0.157239086,-0.0580848528,0.346415,0.146709468,-0.0438985403,0.340064
0.199528762,-0.2151169,0.404908,0.179282881,-0.168064563,0.394979,0.181542108,-0.207995411,0.409466,0.143841707,-0.201688383,0.412558,0.109634028,-0.19490432,0.402889,0.0867050926,-0.184049093,0.39531,0.143413286,-0.126433346,0.392983,0.112335069,-0.0892041051,0.382422,0.0926218309,-0.0766144128,0.377141,0.0745511285,-0.0660817845,0.372341,0.157834992,-0.118482088,0.383863,0.127531448,-0.072519972,0.368145,0.105319257,-0.0503312729,0.358977,0.0862354965,-0.0327650897,0.352428,0.170992918,-0.114885139,0.377028,0.147777459,-0.0690500039,0.358711,0.131844019,-0.0470569974,0.349339,0.115343531,-0.0287140594,0.34082,0.188713649,-0.114560965,0.370148,0.173763627,-0.0784362081,0.353546,0.164520544,-0.0604962046,0.345918,0.152238152,-0.0439637998,0.339187
0.202654352,-0.21664596,0.408283,0.184020184,-0.16979463,0.397223,0.184538613,-0.209887411,0.413278,0.156513415,-0.208328027,0.417044,0.117473664,-0.200551971,0.40588,0.0963072655,-0.191468557,0.393092,0.146996027,-0.129762142,0.394899,0.122779069,-0.0912135883,0.382619,0.102607657,-0.0854500044,0.376479,0.0873728762,-0.0790711798,0.370897,0.161153678,-0.12058038,0.384841,0.132020455,-0.0742059676,0.367067,0.111966218,-0.0533969654,0.356699,0.0962382304,-0.0411363157,0.349293,0.174251871,-0.116838148,0.37731,0.1533611,-0.0705784712,0.355741,0.137877463,-0.0495362548,0.344706,0.12349415,-0.0298670135,0.334674,0.193611083,-0.117733997,0.369745,0.183023391,-0.0807011611,0.350406,0.174520382,-0.0663849277,0.34152,0.166892925,-0.0533569359,0.333679
0.206285066,-0.220556109,0.411326,0.18912647,-0.173611764,0.399421,0.186788252,-0.211365294,0.415487,0.156315775,-0.212341353,0.418474,0.121315278,-0.206335979,0.405204,0.0966353076,-0.193676254,0.394596,0.151279783,-0.135125233,0.395445,0.124668915,-0.0924925471,0.381696,0.10597887,-0.0849104682,0.374821,0.0883242303,-0.0783908725,0.368571,0.164359334,-0.123770472,0.386092,0.137119919,-0.0764483829,0.36749,0.11451383,-0.0570702211,0.356639,0.100048617,-0.0474606778,0.348889,0.178225834,-0.119762225,0.379198,0.157655207,-0.0758401472,0.356447,0.145176318,-0.0520195141,0.344807,0.129799263,-0.0398963471,0.334225,0.199959444,-0.1205791,0.372508,0.184390594,-0.0879302357,0.353377,0.176090672,-0.0692305821,0.344587,0.168579237,-0.0552358189,0.336831
0.232163279,-0.23230093,0.424989,0.215495752,-0.190221353,0.407797,0.217759739,-0.228961828,0.42575,0.179098513,-0.226719136,0.425844,0.139597989,-0.219582436,0.411673,0.114607659,-0.211117327,0.397492,0.170603108,-0.144527686,0.395699,0.137787198,-0.103083047,0.377242,0.118716099,-0.0943398195,0.368014,0.100641908,-0.0860993288,0.359624,0.18840273,-0.138050878,0.388549,0.157699486,-0.089620497,0.368184,0.13553729,-0.0669637951,0.356304,0.119198377,-0.0504009094,0.347819,0.204540114,-0.135841005,0.383824,0.177621215,-0.0880724792,0.358842,0.163945836,-0.063909972,0.346061,0.148682562,-0.0564699501,0.334442,0.226963692,-0.139266041,0.38043,0.208031628,-0.106231145,0.358689,0.199223107,-0.0905900087,0.3487,0.191382582,-0.0765041809,0.339885
0.250833755,-0.253776828,0.414337,0.22924233,-0.207010535,0.401501,0.233226429,-0.244996913,0.418009,0.196552721,-0.240634635,0.41985,0.157768225,-0.233725341,0.407986,0.133687782,-0.22265875,0.400718,0.192519922,-0.162507855,0.396229,0.156821562,-0.125886643,0.382289,0.135648784,-0.112754492,0.37532,0.115816933,-0.100470541,0.368983,0.205451735,-0.155729333,0.38713,0.171248202,-0.109711244,0.368468,0.147997679,-0.0859245595,0.357581,0.131168575,-0.068683696,0.349805,0.21767591,-0.15318291,0.380509,0.196436419,-0.103738343,0.35773,0.179411836,-0.0842318281,0.346075,0.163379762,-0.0664944203,0.33548,0.235436091,-0.156187434,0.374268,0.21872701,-0.114923077,0.355207,0.211043454,-0.0959154201,0.34645,0.204259696,-0.0791156671,0.338723
0.258131834,-0.267916443,0.425794,0.239778978,-0.226405303,0.408873,0.238914736,-0.256196003,0.426853,0.204095182,-0.265238009,0.432786,0.165433555,-0.259217789,0.421314,0.143536111,-0.248579277,0.417003,0.203318685,-0.175392125,0.397339,0.166505176,-0.138638221,0.380924,0.145747248,-0.12455032,0.372717,0.126401492,-0.111436093,0.365256,0.218997837,-0.17294465,0.389928,0.187285918,-0.124496591,0.366733,0.165802715,-0.0997059179,0.353203,0.150261879,-0.0817269799,0.343539,0.233260313,-0.17413148,0.384968,0.208898491,-0.126616868,0.360064,0.1964428,-0.102339163,0.347323,0.18265278,-0.0828753042,0.335739,0.253018699,-0.181904529,0.381259,0.243809316,-0.144859796,0.359439,0.239623325,-0.127611727,0.349414,0.235956507,-0.112256316,0.340568
0.279496051,-0.289784466,0.429278,0.259343451,-0.242553663,0.413173,0.259715145,-0.278607587,0.430732,0.224365835,-0.277199228,0.435233,0.185866845,-0.274290169,0.423191,0.162027367,-0.26972678,0.41538,0.220337028,-0.193607919,0.402737,0.18418097,-0.155961741,0.387116,0.163659592,-0.143634605,0.379305,0.144405423,-0.132101231,0.372204,0.236859755,-0.189971457,0.395142,0.203263141,-0.143677374,0.372793,0.182938702,-0.117222927,0.359755,0.16830211,-0.0981248077,0.35046,0.251820432,-0.190128544,0.389977,0.228783776,-0.143477608,0.365525,0.216964643,-0.119453742,0.353014,0.201614867,-0.108337371,0.341641,0.272453085,-0.196516607,0.385913,0.262899282,-0.154060449,0.365717,0.253283907,-0.144374464,0.356438,0.244699718,-0.135631421,0.348251
0.31186529,-0.312477796,0.436883,0.286561401,-0.263999805,0.419817,0.290599308,-0.301940289,0.437482,0.250744445,-0.29982797,0.434669,0.209170487,-0.290289286,0.418554,0.182972263,-0.279238802,0.40757,0.242613705,-0.215983277,0.407618,0.202929388,-0.181895622,0.389948,0.182893493,-0.164687569,0.381113,0.164554856,-0.148938644,0.373082,0.258588485,-0.210710308,0.400711,0.219697908,-0.165919565,0.377218,0.196876311,-0.139987395,0.363513,0.18055805,-0.121441364,0.353724,0.273600751,-0.209538049,0.396177,0.247881575,-0.163014399,0.370436,0.233578294,-0.140919884,0.357267,0.217298333,-0.129886128,0.345295,0.29524184,-0.214449608,0.392995,0.269071269,-0.172055926,0.376378,0.256287676,-0.17237547,0.368744,0.25280556,-0.18234528,0.362007
0.308651469,-0.317275269,0.43054,0.289544413,-0.275187,0.414404,0.288608497,-0.305961608,0.431664,0.254454623,-0.311372181,0.434408,0.216270674,-0.303370346,0.424776,0.194488624,-0.293168289,0.421351,0.251884262,-0.223445379,0.403544,0.214586004,-0.190029136,0.385299,0.195360347,-0.173694849,0.376177,0.176922573,-0.161448908,0.367884,0.2670864,-0.219307436,0.396338,0.230687591,-0.172928362,0.373833,0.208965839,-0.146780902,0.360704,0.195069599,-0.12916881,0.354284,0.281185456,-0.219211592,0.391495,0.253314545,-0.171879465,0.367573,0.240137264,-0.148387389,0.35691,0.228125185,-0.126926011,0.347217,0.30121989,-0.225741491,0.387822,0.288538335,-0.183399417,0.366968,0.282703748,-0.164017257,0.357387,0.271168112,-0.158759947,0.348933
0.316015799,-0.335032119,0.435208,0.300895885,-0.28930271,0.418397,0.296261912,-0.320950667,0.435377,0.262292804,-0.321736175,0.436176,0.221374446,-0.312171357,0.420821,0.195424578,-0.301800862,0.408595,0.265012326,-0.235417213,0.40587,0.228062394,-0.202903652,0.388037,0.209217878,-0.186323095,0.37912,0.190915502,-0.175499453,0.371014,0.281253718,-0.234205497,0.399576,0.248356825,-0.186818201,0.376139,0.22753598,-0.161898239,0.362468,0.211814474,-0.145477633,0.352702,0.296046443,-0.236530463,0.39553,0.271764195,-0.186657827,0.371566,0.263814824,-0.16421643,0.365422,0.256520556,-0.143435098,0.359837,0.316511434,-0.245946671,0.392899,0.307835414,-0.205472017,0.371823,0.303855248,-0.186857311,0.36214,0.293439733,-0.182436411,0.353595
0.328971428,-0.350132403,0.439448,0.317652544,-0.306450384,0.423154,0.31724957,-0.342571061,0.439818,0.279883534,-0.336150525,0.439784,0.23989686,-0.327203593,0.426189,0.214685796,-0.315608675,0.416712,0.281496814,-0.252104715,0.411261,0.243618747,-0.222204057,0.393897,0.224246273,-0.20693265,0.385215,0.206350307,-0.192838753,0.377323,0.297046207,-0.25067317,0.404911,0.263500543,-0.204216238,0.381988,0.242826387,-0.178693581,0.368617,0.227965196,-0.160312513,0.359066,0.311429498,-0.252870715,0.400782,0.29042894,-0.201529184,0.376378,0.278208634,-0.179574702,0.365544,0.267039225,-0.159364516,0.355695,0.331681756,-0.26228511,0.397986,0.326877635,-0.21904872,0.377296,0.324562131,-0.199441393,0.36779,0.315231369,-0.192317914,0.359403
0.346495218,-0.369813819,0.447733,0.334273676,-0.323602534,0.430194,0.326637684,-0.353270349,0.446822,0.293596443,-0.353458049,0.446906,0.252233102,-0.344006999,0.430401,0.226253579,-0.332407437,0.41918,0.299318332,-0.266216952,0.415807,0.261440369,-0.234721838,0.397305,0.242186809,-0.218722641,0.388055,0.224476662,-0.204012339,0.379645,0.316390943,-0.266986575,0.410558,0.28422874,-0.219061097,0.386117,0.263448179,-0.195276971,0.37186,0.24847066,-0.178083679,0.361676,0.331851461,-0.271068934,0.407419,0.311218513,-0.221204192,0.382268,0.296762927,-0.202598154,0.369401,0.283526587,-0.185418759,0.357703,0.353035411,-0.282861251,0.405973,0.347322966,-0.239065939,0.384847,0.344574832,-0.219228867,0.375141,0.335638942,-0.2123719,0.366577
0.360598817,-0.386066195,0.455643,0.348528341,-0.33836178,0.436961,0.340022195,-0.36839094,0.453649,0.305355559,-0.362530812,0.450262,0.264383138,-0.351850887,0.430565,0.238939712,-0.338172094,0.418524,0.312021726,-0.280090724,0.420396,0.276461758,-0.248136522,0.400346,0.258365018,-0.231874532,0.39032,0.241704196,-0.216902779,0.381206,0.330559958,-0.28154093,0.416046,0.299993176,-0.23263589,0.390266,0.281039759,-0.206912783,0.375227,0.267440562,-0.188399458,0.364486,0.347174759,-0.286183816,0.413723,0.326214224,-0.237813935,0.387758,0.314377125,-0.215455495,0.374473,0.303609706,-0.194986563,0.362396,0.369665512,-0.298624535,0.413406,0.365692651,-0.257773395,0.391866,0.363812531,-0.239093996,0.381969,0.355881473,-0.234480729,0.373236
0.365707975,-0.393626726,0.460567,0.352497491,-0.344137136,0.440413,0.345818643,-0.377817231,0.456017,0.303969984,-0.363403692,0.447425,0.263981189,-0.354141517,0.42531,0.238759535,-0.339709978,0.409908,0.316401782,-0.285660797,0.419634,0.282867739,-0.251633007,0.396338,0.265887891,-0.234377155,0.384689,0.25031008,-0.218528745,0.3741,0.337532803,-0.289140141,0.417848,0.308910153,-0.241849605,0.390042,0.291445612,-0.217239706,0.373822,0.278911503,-0.19947442,0.362236,0.35619342,-0.295527741,0.417733,0.33832842,-0.246491864,0.390533,0.328397057,-0.223884517,0.376617,0.319383998,-0.203225007,0.363965,0.380958017,-0.310213787,0.420257,0.380212542,-0.269802891,0.399093,0.379773008,-0.251366161,0.389369,0.37404743,-0.247008891,0.380789
0.372919414,-0.39932227,0.460651,0.363982482,-0.350385491,0.441096,0.351346113,-0.381272791,0.457647,0.320470802,-0.375605283,0.453834,0.278180799,-0.36375657,0.433533,0.253119514,-0.351183997,0.422809,0.324411523,-0.291156504,0.422646,0.289494591,-0.258386519,0.400385,0.270426363,-0.239475075,0.389254,0.254615038,-0.223998818,0.379135,0.343935793,-0.292610513,0.419203,0.311051576,-0.244094498,0.392357,0.293011217,-0.217973206,0.376697,0.280082515,-0.199191158,0.365511,0.358843838,-0.296402325,0.417685,0.339929308,-0.248638392,0.390702,0.329865956,-0.225414257,0.376897,0.320728152,-0.204222215,0.364347,0.382419803,-0.309411666,0.418448,0.379712217,-0.269001156,0.396776,0.378399252,-0.250531285,0.386818,0.371591849,-0.246370609,0.378032
0.377481872,-0.402402939,0.462667,0.366987807,-0.352599118,0.442389,0.362962448,-0.38799554,0.45971,0.323577635,-0.379613681,0.456152,0.281913985,-0.369230274,0.437603,0.25573472,-0.355946009,0.425419,0.33009667,-0.294518897,0.423448,0.295651691,-0.262654322,0.401099,0.278167469,-0.246471151,0.389924,0.259023808,-0.229225629,0.379765,0.349596365,-0.296105335,0.419687,0.318090159,-0.249925955,0.392237,0.299669143,-0.222857365,0.376224,0.283709424,-0.202179003,0.364786,0.367034627,-0.300892407,0.417956,0.347941599,-0.25372104,0.390109,0.337541418,-0.231407113,0.375861,0.328106522,-0.211013726,0.362909,0.390619,-0.313560194,0.41856,0.388957496,-0.276590861,0.396483,0.38822476,-0.25957272,0.38634,0.381027215,-0.257159249,0.377389
0.390651276,-0.408719514,0.46468,0.378003569,-0.359391584,0.443486,0.368491483,-0.391823134,0.461919,0.337127372,-0.391750161,0.457213,0.292583763,-0.37588529,0.437216,0.266412851,-0.362562279,0.424708,0.335456171,-0.302563524,0.424089,0.300061376,-0.268284092,0.401211,0.282175959,-0.250949091,0.389773,0.263814701,-0.233211268,0.379374,0.354899687,-0.302261601,0.419758,0.321904843,-0.256739093,0.391596,0.302611645,-0.230057583,0.375168,0.288806807,-0.210932922,0.363434,0.37241477,-0.305434941,0.417621,0.356708721,-0.254289214,0.392067,0.346574881,-0.237311744,0.378993,0.337411338,-0.221638349,0.367107,0.396395202,-0.316019853,0.417857,0.391486772,-0.281328359,0.394582,0.38906155,-0.266361011,0.383888,0.382127724,-0.264248649,0.374452
0.394926523,-0.411806347,0.467299,0.380906767,-0.362920006,0.446199,0.37477923,-0.396197435,0.464156,0.339248312,-0.394871884,0.459072,0.294946721,-0.379636198,0.439497,0.268607002,-0.367153934,0.426226,0.338531547,-0.306231459,0.42641,0.30343716,-0.271394127,0.403117,0.288017623,-0.255521323,0.39147,0.269486249,-0.237647699,0.380882,0.35966162,-0.308928077,0.422576,0.326105257,-0.25965022,0.39437,0.307200598,-0.232184615,0.377916,0.293686433,-0.212530568,0.366164,0.377481162,-0.312830023,0.420841,0.361561906,-0.259570374,0.394135,0.350633043,-0.245133409,0.380472,0.340746182,-0.231840476,0.36805,0.401642425,-0.324095901,0.421547,0.400441463,-0.288520644,0.399161,0.399947887,-0.272122907,0.388876,0.393866909,-0.271051841,0.379801
0.397843707,-0.415647035,0.469839,0.383414526,-0.368402018,0.44832,0.377130927,-0.399531443,0.466279,0.341615636,-0.400018151,0.462169,0.297555877,-0.385781323,0.44243,0.271124575,-0.37336654,0.428997,0.342552922,-0.310434705,0.427709,0.308362182,-0.27558714,0.40419,0.293272337,-0.261269222,0.39243,0.275086466,-0.243231623,0.381739,0.364080421,-0.314334126,0.424229,0.333225634,-0.267144916,0.395539,0.315211326,-0.239553193,0.378803,0.302336085,-0.219811159,0.366849,0.381747743,-0.319942904,0.422812,0.365370693,-0.267785222,0.395554,0.35392625,-0.251487357,0.381608,0.34256142,-0.234446391,0.36893,0.405559704,-0.333463926,0.423955,0.401902004,-0.295771153,0.400824,0.400231028,-0.278442293,0.390196,0.393836041,-0.274055811,0.380818
0.404648375,-0.420679907,0.471464,0.385687284,-0.370717538,0.449815,0.381757662,-0.403894667,0.467868,0.343096585,-0.401173846,0.462573,0.299776709,-0.387399522,0.443929,0.273425238,-0.374381005,0.430842,0.345495114,-0.314008808,0.429062,0.311079543,-0.278706751,0.405039,0.293590074,-0.262467499,0.393028,0.277551905,-0.247570757,0.382109,0.365520884,-0.315801839,0.425578,0.334066828,-0.268816542,0.396767,0.315701042,-0.241340187,0.379961,0.302572586,-0.221677855,0.367956,0.383426415,-0.320700491,0.424168,0.365433512,-0.269952287,0.396124,0.354119732,-0.252175694,0.381776,0.343043606,-0.234653951,0.368732,0.407635621,-0.333354212,0.425336,0.403523668,-0.294145444,0.402082,0.402020543,-0.277074503,0.391397,0.395054787,-0.275467011,0.38197
0.405478652,-0.421702615,0.47183,0.386483671,-0.371548614,0.450165,0.382568245,-0.404977622,0.468227,0.343795055,-0.401702778,0.462719,0.300557669,-0.387781718,0.444189,0.274333574,-0.374555469,0.431382,0.345796269,-0.314693735,0.429389,0.311267415,-0.279205133,0.405323,0.293742066,-0.262907935,0.393289,0.277673949,-0.247960784,0.38235,0.365899253,-0.316203277,0.425909,0.334267695,-0.269310334,0.397082,0.315796661,-0.241885127,0.380266,0.302592559,-0.222258154,0.368254,0.383879341,-0.320863746,0.424502,0.365359392,-0.270608809,0.396212,0.354096148,-0.252342984,0.381737,0.343234182,-0.23472322,0.368579,0.408212957,-0.33322451,0.425677,0.404003691,-0.294638343,0.402433,0.402396221,-0.277563222,0.391753,0.395440788,-0.276016813,0.38233
0.40598888,-0.422339273,0.472024,0.386946045,-0.372032407,0.450357,0.383072191,-0.405660927,0.468422,0.344217955,-0.402024736,0.462812,0.301023414,-0.388007506,0.444341,0.274874038,-0.374654113,0.431699,0.345972238,-0.315059471,0.429584,0.311388254,-0.279478471,0.4055,0.293846835,-0.263153891,0.393458,0.277764395,-0.248182046,0.382511,0.366110372,-0.316422926,0.4261,0.334396303,-0.269580063,0.397273,0.31587638,-0.242182177,0.380457,0.302636996,-0.222573808,0.368445,0.384125703,-0.320962019,0.424691,0.365347075,-0.270956156,0.396283,0.354113574,-0.252447522,0.381749,0.343392943,-0.234795169,0.368535,0.408516438,-0.333171913,0.425863,0.404281971,-0.294926919,0.402634,0.402615874,-0.27785241,0.391961,0.395669257,-0.276344445,0.382543
0.406241593,-0.422677747,0.472033,0.387227641,-0.372329279,0.450454,0.383322106,-0.406032315,0.468427,0.34443731,-0.402166299,0.46279,0.301298412,-0.388112331,0.44439,0.275224563,-0.374706599,0.431895,0.34611086,-0.315309074,0.429742,0.3115389,-0.27971268,0.405708,0.294008717,-0.263390165,0.393692,0.277934406,-0.248418251,0.382767,0.366306986,-0.316615205,0.426296,0.334602605,-0.269846023,0.397541,0.316086402,-0.242484914,0.380767,0.302849529,-0.222900101,0.368786,0.384369942,-0.321101536,0.424911,0.365027512,-0.270933082,0.395987,0.35359789,-0.252135131,0.381189,0.342781305,-0.234352648,0.367736,0.408819763,-0.333239254,0.426101,0.404664305,-0.295262906,0.402964,0.403001956,-0.278210618,0.392333,0.396098791,-0.276756494,0.382953
0.406503494,-0.42300687,0.472124,0.387447409,-0.372559278,0.450545,0.383584108,-0.40638981,0.468522,0.344644313,-0.402326224,0.462842,0.301525298,-0.388226478,0.44447,0.275489553,-0.374764048,0.432058,0.346194937,-0.315467918,0.429837,0.31159969,-0.279833233,0.405795,0.294062107,-0.263498893,0.393775,0.277981911,-0.248516902,0.382847,0.366403141,-0.316713208,0.426386,0.334666304,-0.269963882,0.397632,0.316130383,-0.242613127,0.380858,0.302879224,-0.223035314,0.368877,0.384478795,-0.321149446,0.424998,0.36506916,-0.271106788,0.396066,0.353669998,-0.252223378,0.381264,0.342942418,-0.234445395,0.367807,0.40894846,-0.333224169,0.426183,0.404789093,-0.295394644,0.403052,0.403098285,-0.278342607,0.392424,0.396198858,-0.276906413,0.383046
