sluyters/QuantumLeap/src/datasets/gesture/HandGestureDataset_SHREC2017_csv/Gesture13/finger_2/subject_23_essai_1_skeletons_world.csv
Wrist_x,Wrist_y,Wrist_z,Palm_x,Palm_y,Palm_z,thumb_base_x,thumb_base_y,thumb_base_z,thumb_first_joint_x,thumb_first_joint_y,thumb_first_joint_z,thumb_second_joint_x,thumb_second_joint_y,thumb_second_joint_z,thumb_tip_x,thumb_tip_y,thumb_tip_z,index_base_x,index_base_y,index_base_z,index_first_joint_x,index_first_joint_y,index_first_joint_z,index_second_joint_x,index_second_joint_y,index_second_joint_z,index_tip_x,index_tip_y,index_tip_z,middle_base_x,middle_base_y,middle_base_z,middle_first_joint_x,middle_first_joint_y,middle_first_joint_z,middle_second_joint_x,middle_second_joint_y,middle_second_joint_z,middle_tip_x,middle_tip_y,middle_tip_z,ring_base_x,ring_base_y,ring_base_z,ring_first_joint_x,ring_first_joint_y,ring_first_joint_z,ring_second_joint_x,ring_second_joint_y,ring_second_joint_z,ring_tip_x,ring_tip_y,ring_tip_z,pinky_base_x,pinky_base_y,pinky_base_z,pinky_first_joint_x,pinky_first_joint_y,pinky_first_joint_z,pinky_second_joint_x,pinky_second_joint_y,pinky_second_joint_z,pinky_tip_x,pinky_tip_y,pinky_tip_z,
0.368473975,-0.15283678,0.364002,0.362702205,-0.105009953,0.342477,0.347820551,-0.134658963,0.35584,0.335427174,-0.120126575,0.335738,0.31801966,-0.10395367,0.312412,0.308660161,-0.0887622913,0.295519,0.334860376,-0.0599096275,0.321179,0.315125608,-0.0244505237,0.298001,0.306802766,-0.0221867321,0.286412,0.299260328,-0.0199244624,0.275876,0.358760517,-0.0682521212,0.324956,0.351232526,-0.0280200017,0.30387,0.347545636,-0.0181151577,0.29157,0.34515341,-0.0113110279,0.282784,0.378656495,-0.0778278473,0.329575,0.377018082,-0.041763738,0.30744,0.374486637,-0.0352291397,0.296115,0.371267719,-0.0303801632,0.28582,0.403159085,-0.0954007162,0.337887,0.415335945,-0.0783945685,0.322664,0.4170708,-0.0762769643,0.31567,0.418191938,-0.0750559271,0.309499
0.365424598,-0.151199016,0.360402,0.362891206,-0.106947534,0.341852,0.346166991,-0.134564125,0.353687,0.335239837,-0.12083854,0.335507,0.315991831,-0.103802545,0.311217,0.308094465,-0.0889498992,0.295872,0.338468119,-0.0639471045,0.323893,0.320070737,-0.0261840895,0.303163,0.313078178,-0.0233367512,0.292798,0.306857045,-0.0212852877,0.283376,0.361154582,-0.0703401322,0.326753,0.356991734,-0.0293802688,0.309038,0.355908783,-0.0194709649,0.298703,0.355521179,-0.0124823994,0.291322,0.380095874,-0.079370753,0.330409,0.381370764,-0.0435330648,0.311247,0.381003142,-0.036481949,0.301444,0.380561669,-0.0310360608,0.292531,0.402920249,-0.0960826502,0.337186,0.417052762,-0.0790910793,0.323857,0.419978947,-0.077219472,0.317733,0.422308996,-0.0761251302,0.312329
0.372959036,-0.155143599,0.367709,0.367987894,-0.113789038,0.344842,0.351728245,-0.137534208,0.359184,0.338058805,-0.126984173,0.338562,0.316123834,-0.107862993,0.314975,0.307176343,-0.0910776466,0.298176,0.335874671,-0.0693049837,0.322396,0.312364114,-0.0315933188,0.298311,0.305428914,-0.0246485275,0.286268,0.297940342,-0.0218025616,0.27532,0.360024918,-0.0752642432,0.326229,0.350615836,-0.034697717,0.305302,0.348402415,-0.0221335448,0.293094,0.346353342,-0.0131092778,0.284375,0.380811866,-0.0835362252,0.330987,0.377559528,-0.0460961575,0.30868,0.374743953,-0.0397449806,0.297267,0.372295155,-0.0322951089,0.286892,0.406354025,-0.098216365,0.339641,0.416512495,-0.0794917547,0.323421,0.417673734,-0.0780423206,0.315968,0.418295842,-0.0759667424,0.309393
0.375300308,-0.156986429,0.369951,0.368545278,-0.115326362,0.345618,0.354235838,-0.139969682,0.361377,0.338181104,-0.13075984,0.340592,0.315651237,-0.111970646,0.31736,0.305170655,-0.0975182908,0.300561,0.335082184,-0.0721175431,0.32235,0.310166085,-0.0343070154,0.297506,0.302271744,-0.0273202656,0.285084,0.295483226,-0.0246993991,0.273791,0.35896499,-0.0779057393,0.325812,0.347853715,-0.0368100322,0.303976,0.343775744,-0.0268929508,0.291239,0.341550586,-0.0168898552,0.282141,0.379646455,-0.0860651849,0.330369,0.376043835,-0.0493641555,0.308467,0.374241325,-0.0405997137,0.297261,0.37185361,-0.0330799885,0.287074,0.406033761,-0.102208922,0.338975,0.414059897,-0.0821045109,0.321693,0.413667377,-0.0808296098,0.313752,0.413863144,-0.079496925,0.306746
0.378127698,-0.16637871,0.368544,0.368209853,-0.126372101,0.345556,0.357250093,-0.150110126,0.361244,0.338602919,-0.142088131,0.342002,0.315154772,-0.123886897,0.319235,0.306108185,-0.110521629,0.304556,0.337095374,-0.0820414168,0.324564,0.314868332,-0.0398114125,0.304088,0.308838154,-0.0320274954,0.29385,0.301010948,-0.0333314189,0.284542,0.359928679,-0.087602141,0.326845,0.350858145,-0.0459631056,0.308758,0.349950425,-0.030976878,0.298207,0.349682136,-0.0198022545,0.29067,0.379569137,-0.0955384145,0.330335,0.377305654,-0.0577589056,0.313178,0.379734105,-0.0466095114,0.3044,0.37564966,-0.0480027081,0.29642,0.404432471,-0.11131649,0.337498,0.412284155,-0.0864796489,0.320928,0.411217194,-0.085550035,0.313315,0.410529609,-0.0847624094,0.306597
0.382395632,-0.170539861,0.372473,0.369610386,-0.128191108,0.347026,0.360276947,-0.155957485,0.364256,0.340198166,-0.143697599,0.343807,0.316606374,-0.125097182,0.32073,0.305655262,-0.110784428,0.303992,0.3352774,-0.0831274152,0.32362,0.309170626,-0.0496302389,0.298464,0.299307807,-0.0426152538,0.285887,0.289788956,-0.0366564077,0.274452,0.358523214,-0.0885097338,0.326312,0.346803059,-0.0467808077,0.305156,0.342503625,-0.0340169089,0.292815,0.340678733,-0.0236430112,0.284,0.378809191,-0.0963717357,0.330314,0.371802155,-0.058199893,0.308157,0.367879586,-0.0552599161,0.296821,0.363623926,-0.0488117826,0.286515,0.405020039,-0.112244283,0.338408,0.406981324,-0.0965568846,0.318908,0.404450422,-0.0943129161,0.309949,0.402429033,-0.0923440957,0.302044
0.384212624,-0.175999954,0.374667,0.36827828,-0.130078954,0.346818,0.361497476,-0.164493077,0.366345,0.334051805,-0.149456927,0.345675,0.307553067,-0.131027034,0.32313,0.29474256,-0.116739505,0.306728,0.329423922,-0.0889375932,0.322032,0.302218391,-0.0547778696,0.295677,0.290823951,-0.0483606479,0.2825,0.280548365,-0.0427130621,0.27052,0.352332934,-0.0937980149,0.324149,0.339508544,-0.0518544857,0.301144,0.333161359,-0.0414092316,0.287724,0.328945015,-0.0336552534,0.278139,0.372589835,-0.101272374,0.327846,0.363821147,-0.0632841046,0.302893,0.356815183,-0.059400019,0.290127,0.350513441,-0.0561662376,0.278522,0.399237228,-0.116775639,0.335893,0.398503354,-0.101152498,0.314574,0.394293068,-0.0992766289,0.304779,0.390585626,-0.0977866472,0.296136
0.381627964,-0.184038995,0.37281,0.365369933,-0.144706981,0.346801,0.359624773,-0.170353188,0.365534,0.333799227,-0.160370253,0.346151,0.307364309,-0.141715273,0.323634,0.294509927,-0.12719115,0.307187,0.33114621,-0.100178243,0.324267,0.30511758,-0.0582732007,0.299473,0.294394171,-0.0497840213,0.287076,0.285185727,-0.0456161148,0.275806,0.35325922,-0.104790842,0.32563,0.338718255,-0.0624014704,0.302382,0.332339366,-0.0488396677,0.288821,0.329100708,-0.0362854464,0.279135,0.372611588,-0.112015604,0.328577,0.362188488,-0.0736743724,0.302593,0.355057437,-0.0689951685,0.289299,0.348302569,-0.0657829489,0.277214,0.397780635,-0.127096247,0.335493,0.396099371,-0.111014109,0.315039,0.394328277,-0.10602652,0.305641,0.392577243,-0.0999076834,0.297349
0.37010174,-0.189276578,0.36482,0.358345351,-0.144058894,0.34157,0.348089891,-0.176952618,0.357948,0.325307114,-0.162208742,0.339186,0.298558374,-0.141360774,0.315989,0.292251986,-0.134178367,0.299231,0.327114455,-0.099000691,0.320971,0.303018517,-0.0615005403,0.297774,0.294191665,-0.0525203233,0.286176,0.285115089,-0.058630378,0.275632,0.349295566,-0.104655023,0.322644,0.335522624,-0.0651055411,0.296893,0.326485794,-0.0527043959,0.281872,0.320259718,-0.0435828939,0.271142,0.368550911,-0.11272708,0.325653,0.360998636,-0.075109015,0.301599,0.354968427,-0.0685060164,0.289292,0.347011893,-0.0671814418,0.278104,0.392497257,-0.131835394,0.33228,0.39558553,-0.112995233,0.313692,0.394800738,-0.111745606,0.305152,0.393247859,-0.105099068,0.297617
0.366914892,-0.195078323,0.363456,0.354976092,-0.146106263,0.34007,0.34616237,-0.177958096,0.356787,0.323116791,-0.163032515,0.338256,0.295038442,-0.141901863,0.315171,0.288086148,-0.134296606,0.298384,0.324944168,-0.0993825483,0.319653,0.300932678,-0.0633330554,0.296528,0.289890913,-0.0602007872,0.284966,0.282751161,-0.0614851713,0.274455,0.346097407,-0.105883505,0.321035,0.331985596,-0.065334178,0.295221,0.320673657,-0.0551597878,0.280163,0.316114923,-0.0452618893,0.269407,0.365166365,-0.114466606,0.323814,0.357567652,-0.076607123,0.299585,0.351656381,-0.0682848667,0.28719,0.341022882,-0.0687422261,0.275921,0.389733322,-0.131364043,0.330185,0.391260745,-0.115508299,0.31049,0.384197224,-0.114990159,0.301441,0.378077317,-0.114392848,0.293457
0.360197117,-0.199012769,0.360066,0.345648299,-0.153076409,0.336563,0.338744146,-0.180894831,0.352622,0.314668111,-0.170724557,0.333179,0.287078916,-0.149237009,0.309789,0.281171457,-0.140844612,0.292969,0.313221018,-0.10662405,0.315125,0.290316697,-0.070377662,0.291423,0.281744771,-0.0629951236,0.279571,0.275261457,-0.0632612973,0.268797,0.335756812,-0.112382098,0.317433,0.321234309,-0.0715999634,0.291407,0.313334205,-0.0604592609,0.276225,0.308603839,-0.0495434863,0.265381,0.355350378,-0.120611092,0.320981,0.350502173,-0.0865783194,0.296819,0.345066525,-0.0809790238,0.284457,0.340447619,-0.0758186698,0.273219,0.380631585,-0.137074298,0.328281,0.382700314,-0.124700218,0.309248,0.382083194,-0.120784986,0.300503,0.379490617,-0.115753557,0.292788
0.355010066,-0.203933928,0.358351,0.337931292,-0.15888041,0.33399,0.330650637,-0.189970697,0.350744,0.306086576,-0.17689464,0.331058,0.278412302,-0.155853049,0.307822,0.272190463,-0.148015957,0.29104,0.305760615,-0.111926312,0.311904,0.282546102,-0.0758827831,0.287675,0.273284032,-0.0689502882,0.27556,0.265477155,-0.069595624,0.264546,0.32818612,-0.118037902,0.314161,0.313439024,-0.0774913597,0.287491,0.304662961,-0.0669331263,0.271933,0.298566251,-0.0594886748,0.26082,0.34769713,-0.12658241,0.317728,0.342375505,-0.0930526847,0.29291,0.336052114,-0.0879570005,0.280213,0.330584675,-0.0832889085,0.268669,0.372872521,-0.143467229,0.325163,0.37402878,-0.132016205,0.305771,0.372862526,-0.128553675,0.296861,0.37202669,-0.125553273,0.288999
0.34164229,-0.213402985,0.353728,0.329362682,-0.165987908,0.331347,0.320567598,-0.195429661,0.346404,0.296757422,-0.182603128,0.327181,0.269309195,-0.160247521,0.303519,0.265675823,-0.148573861,0.286588,0.298746618,-0.11899865,0.310643,0.277140909,-0.0825935379,0.287575,0.26879705,-0.0747931046,0.276042,0.264215535,-0.0723299575,0.265556,0.321252572,-0.125325665,0.313131,0.31054627,-0.0846189413,0.287942,0.303694713,-0.0739161466,0.273249,0.299848295,-0.0633164514,0.262754,0.340682589,-0.134030263,0.316748,0.336907933,-0.100401981,0.293346,0.332084547,-0.0943503597,0.281373,0.330314929,-0.0865496011,0.270488,0.365495638,-0.151074729,0.323984,0.36997181,-0.139225331,0.306205,0.370650591,-0.135399645,0.298037,0.372433504,-0.129591874,0.290829
0.350871185,-0.216750245,0.362674,0.33055641,-0.170834057,0.334277,0.325248822,-0.202075658,0.353713,0.298254024,-0.192151449,0.332294,0.274300198,-0.176460489,0.309944,0.263094464,-0.163940882,0.293265,0.293759753,-0.130752945,0.308415,0.266261476,-0.092033511,0.281388,0.255279229,-0.085433975,0.267875,0.245334061,-0.0793869821,0.25559,0.316749017,-0.135454793,0.311163,0.302913189,-0.0929237493,0.284701,0.296698158,-0.0805633985,0.269265,0.29224099,-0.0739652769,0.258239,0.336762062,-0.142651839,0.315417,0.32590489,-0.106828891,0.287718,0.320109087,-0.0997568218,0.273546,0.314511524,-0.0952259863,0.260663,0.362597742,-0.157464836,0.324197,0.359206274,-0.145934816,0.302309,0.35750176,-0.141557197,0.292253,0.355611366,-0.138745838,0.283379
0.343732345,-0.226449918,0.362926,0.324372151,-0.18403118,0.334405,0.321091045,-0.209726792,0.353992,0.294067789,-0.202891172,0.3326,0.269810152,-0.187359232,0.310262,0.258337368,-0.174738671,0.293594,0.288079544,-0.14037538,0.308513,0.260354725,-0.101514978,0.281447,0.248997057,-0.0950142382,0.267914,0.238696585,-0.0890696127,0.255611,0.311280938,-0.144828004,0.31119,0.296584654,-0.101516886,0.284253,0.289532052,-0.0890789143,0.268539,0.284440948,-0.082397811,0.257315,0.331606647,-0.151872954,0.315396,0.319658642,-0.1116002,0.288923,0.314382232,-0.102791708,0.275378,0.307721265,-0.101545063,0.263065,0.358030254,-0.166613765,0.324135,0.354654397,-0.15288364,0.302158,0.352926177,-0.147716912,0.29206,0.353341923,-0.141149127,0.28315
0.34131643,-0.229691685,0.361699,0.322321729,-0.187069931,0.33338,0.315678612,-0.221097192,0.353072,0.290557311,-0.20885104,0.332038,0.267238632,-0.189079489,0.309503,0.25573109,-0.175999433,0.293064,0.28470449,-0.145302028,0.307973,0.26002801,-0.103838113,0.28277,0.249276453,-0.097189064,0.270169,0.239525017,-0.0910882062,0.258713,0.307710943,-0.150065025,0.310329,0.295774119,-0.103815399,0.285668,0.289531465,-0.0915237696,0.271282,0.280180658,-0.0923322036,0.261007,0.327991582,-0.157493172,0.314256,0.317306538,-0.12182575,0.286797,0.311709347,-0.109961326,0.272748,0.305448903,-0.0997129216,0.259977,0.354565116,-0.172965938,0.322637,0.348458137,-0.155569009,0.299764,0.345031726,-0.149816244,0.289254,0.34116282,-0.146735632,0.279981
0.339623047,-0.240105085,0.36486,0.318717457,-0.19282504,0.333122,0.316313682,-0.224342288,0.355695,0.290305161,-0.21220695,0.334029,0.263656034,-0.199950961,0.312592,0.250455857,-0.186580693,0.296769,0.277198809,-0.15261468,0.30527,0.25344644,-0.112415727,0.281403,0.242254199,-0.103991057,0.269469,0.232167459,-0.0977669799,0.25862,0.300085022,-0.156908647,0.307289,0.285725148,-0.115519741,0.28128,0.277976263,-0.0985068817,0.266109,0.273293501,-0.0892981684,0.255272,0.320497071,-0.163753991,0.311177,0.308564766,-0.125733498,0.283345,0.302467487,-0.114741263,0.269105,0.29695043,-0.105645076,0.25616,0.347609759,-0.17813042,0.319962,0.339301616,-0.160683122,0.295315,0.334881509,-0.155107762,0.283991,0.330685896,-0.151182365,0.273999
0.340227319,-0.242732263,0.366511,0.314913992,-0.197297784,0.332865,0.317269593,-0.227542207,0.358036,0.28928217,-0.218523336,0.33727,0.261630653,-0.207788148,0.317214,0.247257717,-0.195122781,0.301773,0.272345302,-0.157539164,0.304876,0.247628831,-0.117832133,0.281235,0.234931175,-0.110018559,0.269414,0.223390709,-0.104385105,0.258668,0.294116064,-0.161323793,0.305478,0.27646798,-0.119829326,0.277727,0.265929938,-0.10310953,0.261539,0.258274952,-0.0931534677,0.249976,0.313914793,-0.167766412,0.308335,0.299301779,-0.129889506,0.279368,0.291066176,-0.119213634,0.264547,0.283502098,-0.110440318,0.251074,0.340871558,-0.18170334,0.316147,0.328984759,-0.164576278,0.290326,0.322757722,-0.159159517,0.278462,0.316900242,-0.155369047,0.267994
0.334443232,-0.246465359,0.364213,0.302780185,-0.205737168,0.329287,0.308751612,-0.232337763,0.354916,0.276924486,-0.227183562,0.333264,0.25289493,-0.215085247,0.313336,0.239372304,-0.202439104,0.297596,0.260820935,-0.162387511,0.299614,0.236777426,-0.124422067,0.273644,0.224461032,-0.116613221,0.26066,0.213236559,-0.109465737,0.248856,0.283059823,-0.166471815,0.300858,0.268600824,-0.125063321,0.274441,0.260071358,-0.108868435,0.259031,0.255088127,-0.0957898543,0.248024,0.30327321,-0.173235941,0.304333,0.292127507,-0.134862296,0.27694,0.2857399,-0.12501992,0.262925,0.281247636,-0.113321724,0.250183,0.330799625,-0.187707789,0.313047,0.322430603,-0.171648068,0.287021,0.317858516,-0.166252694,0.275064,0.313018039,-0.163128399,0.264513
0.324682883,-0.259584012,0.362287,0.300103074,-0.216264055,0.329191,0.301446109,-0.244803206,0.354159,0.274447399,-0.238379051,0.333778,0.2484441,-0.224761176,0.313814,0.234096522,-0.211547787,0.298671,0.258774211,-0.172803655,0.301916,0.233964689,-0.137028501,0.275605,0.220963625,-0.126534987,0.262449,0.209105991,-0.116912465,0.250489,0.280267483,-0.176548348,0.302251,0.264368792,-0.133722859,0.276447,0.254443322,-0.117156961,0.261394,0.247201841,-0.106999311,0.250642,0.299919722,-0.183084692,0.30485,0.288373655,-0.141826695,0.278061,0.281072149,-0.132677556,0.264355,0.271824814,-0.131600273,0.251895,0.326844848,-0.197387023,0.312283,0.317435033,-0.180375973,0.287012,0.312431487,-0.174525056,0.275401,0.307252626,-0.171024906,0.265156
0.320899392,-0.261908753,0.359577,0.295871686,-0.217529957,0.326582,0.297406408,-0.252207835,0.352348,0.271822195,-0.239586874,0.333074,0.246215792,-0.225362169,0.313668,0.232693955,-0.212266453,0.299445,0.253787181,-0.176523041,0.300473,0.228732832,-0.141247757,0.274414,0.215115377,-0.131129746,0.261384,0.205506155,-0.119152293,0.249539,0.274210877,-0.180466743,0.299725,0.257917197,-0.13760733,0.273273,0.246872834,-0.121477431,0.257842,0.238704886,-0.111512775,0.24682,0.292964539,-0.187202955,0.301426,0.281841104,-0.145978524,0.274155,0.273720307,-0.136827271,0.260203,0.26313123,-0.135962294,0.247519,0.318808497,-0.201809,0.307779,0.309681152,-0.18477828,0.282515,0.304400743,-0.179403493,0.270908,0.298998336,-0.176027829,0.260666
0.314242793,-0.266065447,0.35492,0.290160728,-0.219642353,0.323858,0.292871293,-0.251835134,0.349001,0.266193905,-0.241961081,0.331284,0.238537554,-0.230180159,0.312835,0.229436553,-0.216384183,0.301075,0.25235006,-0.176652935,0.300376,0.231920613,-0.136771844,0.276242,0.216919268,-0.131352228,0.264175,0.204607329,-0.1330305,0.253204,0.271902338,-0.180000416,0.298575,0.256865702,-0.137870252,0.273396,0.246457357,-0.122437879,0.258709,0.23878369,-0.112772431,0.248217,0.289692566,-0.1861845,0.299273,0.281492557,-0.146495815,0.274836,0.27473847,-0.138388002,0.262333,0.265417181,-0.138418529,0.250967,0.313994995,-0.199999666,0.304182,0.30644828,-0.183655041,0.280116,0.301751768,-0.178823269,0.269059,0.29688307,-0.175877397,0.259303
0.302014946,-0.267631846,0.347405,0.277387163,-0.22414453,0.317651,0.277629979,-0.255059414,0.340525,0.242067921,-0.243879604,0.321561,0.212650406,-0.227007729,0.300772,0.197192985,-0.213365572,0.284955,0.242771616,-0.177991779,0.29366,0.217512521,-0.135450862,0.269953,0.205831113,-0.132192454,0.2581,0.198134015,-0.132776011,0.247324,0.263572616,-0.182279474,0.293432,0.248650995,-0.136725571,0.267985,0.236266958,-0.125464174,0.253142,0.230511604,-0.113522724,0.242539,0.281906566,-0.189382704,0.295333,0.270779897,-0.14780498,0.269312,0.263249559,-0.140904503,0.256,0.255316698,-0.13808415,0.243897,0.306083767,-0.204579235,0.301499,0.299534937,-0.189472696,0.278394,0.295666661,-0.1846447,0.267779,0.293445338,-0.178884428,0.258412
0.293859393,-0.272653297,0.343771,0.27251305,-0.224476777,0.31364,0.267863808,-0.261515341,0.335946,0.232225527,-0.246038006,0.315837,0.201787485,-0.22921331,0.294602,0.185676479,-0.215456294,0.278695,0.234348597,-0.180829355,0.288283,0.208991815,-0.138768395,0.265681,0.198625054,-0.135271655,0.254381,0.192488828,-0.136889519,0.244107,0.256105315,-0.184516205,0.289115,0.23685609,-0.139842802,0.263118,0.226337766,-0.128155743,0.247954,0.218922591,-0.119693516,0.237122,0.277009405,-0.189200089,0.291914,0.26325314,-0.149708326,0.26625,0.256253741,-0.143484198,0.253119,0.249635119,-0.141861355,0.241183,0.302325378,-0.204590337,0.299195,0.291874386,-0.19533646,0.275453,0.285980995,-0.193317525,0.264545,0.279440295,-0.193225928,0.25492
0.286308645,-0.278407587,0.340273,0.26626173,-0.227923679,0.309803,0.264549385,-0.262861337,0.333209,0.227525003,-0.251639257,0.314031,0.196636079,-0.23612542,0.293402,0.179899741,-0.223034806,0.277636,0.227216732,-0.185494717,0.285212,0.200132419,-0.143300183,0.261726,0.188365286,-0.138379958,0.249983,0.179551899,-0.141036087,0.239307,0.248264119,-0.188085361,0.285001,0.227127663,-0.143482185,0.258296,0.215270318,-0.13231253,0.242717,0.206856941,-0.124258995,0.23159,0.267004207,-0.193868824,0.286966,0.252917806,-0.152171304,0.260392,0.244747841,-0.146225801,0.246796,0.235613989,-0.147113341,0.234435,0.2920938,-0.207636762,0.293302,0.281818036,-0.197403214,0.269374,0.275372174,-0.195670421,0.258381,0.268376948,-0.19580096,0.24868
0.280437768,-0.276480975,0.334188,0.261011404,-0.231451842,0.306835,0.257771763,-0.265075294,0.327354,0.222134445,-0.249915982,0.308457,0.189157197,-0.236614065,0.287407,0.174533736,-0.221480326,0.272462,0.223093856,-0.189772039,0.284149,0.196551348,-0.148102627,0.262105,0.18468136,-0.143611336,0.251083,0.17839247,-0.144395322,0.241063,0.244846782,-0.192784169,0.284571,0.22362319,-0.148216021,0.258691,0.211377145,-0.137279675,0.243595,0.205314395,-0.127141603,0.232811,0.265533351,-0.196290336,0.286837,0.24890912,-0.15628253,0.259714,0.239876896,-0.150158813,0.245838,0.232231328,-0.148623023,0.233222,0.290854424,-0.210103894,0.293121,0.279379375,-0.205407383,0.271051,0.273588316,-0.204072144,0.26091,0.278182422,-0.207462136,0.259757
0.278462972,-0.284085242,0.334125,0.254438829,-0.240868146,0.303769,0.255983443,-0.272871068,0.328109,0.218254312,-0.262529836,0.310241,0.186827199,-0.246166738,0.29051,0.172205109,-0.229788206,0.275694,0.217472158,-0.194470267,0.280535,0.192208997,-0.152603579,0.259588,0.180250619,-0.147758169,0.249114,0.173038068,-0.148225375,0.239593,0.237437999,-0.196689963,0.279061,0.217475684,-0.152217558,0.254619,0.205343412,-0.141000199,0.240361,0.198523148,-0.130406026,0.230177,0.255346719,-0.202270759,0.279978,0.241992917,-0.160496472,0.255098,0.23347741,-0.154434733,0.242368,0.225879448,-0.152303343,0.230795,0.279594028,-0.216014492,0.285055,0.266105943,-0.20608469,0.260994,0.258823489,-0.203437779,0.249939,0.264516799,-0.207086383,0.250703
0.272000633,-0.286880469,0.329867,0.251131782,-0.240982275,0.301981,0.250119657,-0.27633199,0.324939,0.214049394,-0.260754166,0.308415,0.183010414,-0.244543244,0.288404,0.167683052,-0.233171328,0.272765,0.217189922,-0.196027386,0.281377,0.192038765,-0.153109201,0.259521,0.179992387,-0.148499369,0.248593,0.171851305,-0.14921724,0.238659,0.236663957,-0.198232699,0.279283,0.216401133,-0.15300184,0.253477,0.203834733,-0.141709991,0.238423,0.19486867,-0.133573959,0.227671,0.253852031,-0.203669379,0.279516,0.239879006,-0.16175201,0.253595,0.230801975,-0.155561867,0.240333,0.220830914,-0.156180098,0.228276,0.276673228,-0.216962251,0.283457,0.267198714,-0.202084652,0.260845,0.259530946,-0.202552748,0.250456,0.265751515,-0.20861381,0.252214
0.266087816,-0.290170926,0.326773,0.246219362,-0.243315923,0.300336,0.244822136,-0.280158519,0.32313,0.209714778,-0.261213527,0.308271,0.179567377,-0.245035449,0.288736,0.167017321,-0.234305034,0.273191,0.215022049,-0.199538784,0.282077,0.190418504,-0.155780073,0.259759,0.176058675,-0.153731523,0.248601,0.169017686,-0.152901945,0.238456,0.231760909,-0.203805621,0.278817,0.211528026,-0.158303901,0.252178,0.197960617,-0.147429908,0.236638,0.190819945,-0.137036052,0.225539,0.247920503,-0.209148066,0.27799,0.233594232,-0.167687635,0.251487,0.223452088,-0.161811508,0.237928,0.214902538,-0.159739583,0.225601,0.269105399,-0.222101422,0.280482,0.262015822,-0.205556138,0.258648,0.255230546,-0.204150612,0.248617,0.261456798,-0.211334771,0.25084
0.258900505,-0.300241932,0.327235,0.239321074,-0.254515924,0.300801,0.23971094,-0.28549481,0.32324,0.201747113,-0.2681693,0.307919,0.173597661,-0.252469507,0.287986,0.162239608,-0.244184959,0.272095,0.209621705,-0.208089226,0.282106,0.185991806,-0.164571691,0.259513,0.173475468,-0.160794096,0.248216,0.163762381,-0.165025257,0.237947,0.228167551,-0.21144505,0.279284,0.207629147,-0.172050582,0.251947,0.196418332,-0.148807138,0.236,0.186305303,-0.142441823,0.22461,0.244301463,-0.217842462,0.278817,0.233109885,-0.175235115,0.253923,0.223661667,-0.169692232,0.241186,0.21464136,-0.167772386,0.229607,0.265337726,-0.232324423,0.281735,0.25656911,-0.215355135,0.259859,0.245937116,-0.217089492,0.249808,0.246521951,-0.229305406,0.251939
0.250803153,-0.303797406,0.323947,0.234741075,-0.255193609,0.298951,0.228649805,-0.29318329,0.320207,0.192451427,-0.273028611,0.305231,0.161294723,-0.252510363,0.285509,0.14713658,-0.241396344,0.269883,0.202038308,-0.212199403,0.28132,0.178261408,-0.169344439,0.259287,0.16640816,-0.166519317,0.248271,0.16068639,-0.168016282,0.238256,0.220960103,-0.214853104,0.278604,0.201654495,-0.172742773,0.252311,0.190376842,-0.148387772,0.236972,0.183447669,-0.146336885,0.226017,0.237302418,-0.220626396,0.278124,0.226494736,-0.177400648,0.254096,0.217581092,-0.173041248,0.241803,0.211035569,-0.172406451,0.230627,0.258417371,-0.234251706,0.280837,0.254441919,-0.216486885,0.25998,0.244733448,-0.218557706,0.250397,0.246039407,-0.231618056,0.253214
0.240230231,-0.303246745,0.317513,0.225640268,-0.25433452,0.294338,0.221402684,-0.288287265,0.313421,0.186298156,-0.268916899,0.298047,0.156307756,-0.249726727,0.279437,0.143734104,-0.240157238,0.263617,0.193020796,-0.211661282,0.277218,0.171840902,-0.169577773,0.258887,0.160768828,-0.168814296,0.249722,0.15639436,-0.17463815,0.24139,0.21287357,-0.214747313,0.275473,0.193743496,-0.180288508,0.250209,0.182591652,-0.159891073,0.235471,0.172679358,-0.161491635,0.224945,0.232657084,-0.219701309,0.275664,0.220119388,-0.178653157,0.253433,0.211134419,-0.177337935,0.242059,0.201831752,-0.180119248,0.231719,0.254437595,-0.233512017,0.278936,0.249543057,-0.218725288,0.259506,0.237875005,-0.224095666,0.250579,0.242319469,-0.236282337,0.25419
0.242609122,-0.309523548,0.323031,0.2218967,-0.256589678,0.294945,0.222708881,-0.293412086,0.317977,0.184661365,-0.272956587,0.301293,0.154109612,-0.253364469,0.282563,0.143117431,-0.242834113,0.266646,0.188861397,-0.209717907,0.274082,0.158116971,-0.174458572,0.249954,0.142985131,-0.165191252,0.23789,0.132278699,-0.169539165,0.226923,0.208178646,-0.212902268,0.272084,0.188298304,-0.173338397,0.243361,0.182317014,-0.150834136,0.232581,0.1770714,-0.148067059,0.22488,0.225296361,-0.219252736,0.272412,0.21603119,-0.176010182,0.248581,0.206508397,-0.172857125,0.236388,0.194636669,-0.17679915,0.225304,0.248068003,-0.233865141,0.27649,0.23997176,-0.217101191,0.253738,0.229278972,-0.218744989,0.243284,0.229096978,-0.231097262,0.244943
0.23904402,-0.308606584,0.320586,0.220073488,-0.256649744,0.293821,0.217280995,-0.294420388,0.31597,0.182507336,-0.271948183,0.299845,0.152457774,-0.25271057,0.280708,0.141843112,-0.242644575,0.26467,0.188459164,-0.210200045,0.274188,0.160148992,-0.17400691,0.250971,0.145759218,-0.163994208,0.239362,0.138817938,-0.167895066,0.228809,0.20761234,-0.213477596,0.272036,0.189451789,-0.173880114,0.244309,0.182235391,-0.150922236,0.231239,0.173559925,-0.15059799,0.221904,0.224467121,-0.219857832,0.272144,0.215624345,-0.177113559,0.247879,0.20563934,-0.17529232,0.235464,0.191873046,-0.180791606,0.224177,0.245357366,-0.235767802,0.275789,0.239881901,-0.218048163,0.253793,0.229696544,-0.219698394,0.243687,0.230163416,-0.232244112,0.245814
0.237100166,-0.309267552,0.319497,0.217521166,-0.258425411,0.293272,0.215768908,-0.29530972,0.315248,0.179997392,-0.272850607,0.2996,0.150183231,-0.253755534,0.280366,0.140206116,-0.245546272,0.264332,0.186407648,-0.211596037,0.274374,0.159597853,-0.174544661,0.251678,0.145303229,-0.164128273,0.24033,0.135035721,-0.168349332,0.230013,0.205253543,-0.214799826,0.271926,0.187659414,-0.174485099,0.244661,0.175812854,-0.153556266,0.229369,0.166653044,-0.150991101,0.218446,0.221867247,-0.221162608,0.271753,0.215025084,-0.177750403,0.248284,0.205468965,-0.174674872,0.236277,0.191637456,-0.181185211,0.225361,0.24381585,-0.235789629,0.274992,0.237511326,-0.218901917,0.253323,0.227650665,-0.220063738,0.243366,0.229190872,-0.231959497,0.245691
0.231880477,-0.309873594,0.317649,0.21383885,-0.258698853,0.292537,0.211196135,-0.295351822,0.313722,0.171352565,-0.274422735,0.298502,0.145214731,-0.255950116,0.27915,0.136631842,-0.245230552,0.263026,0.179341347,-0.210503927,0.274615,0.15159127,-0.180580285,0.252664,0.137151508,-0.169069901,0.241689,0.131972824,-0.171619542,0.231711,0.197860456,-0.21401515,0.272097,0.18323011,-0.174297773,0.245404,0.173051619,-0.150599873,0.229833,0.161990686,-0.148433425,0.21871,0.214163157,-0.22068309,0.271787,0.210969663,-0.179459405,0.249015,0.202520367,-0.173277122,0.237365,0.190872636,-0.179135969,0.226773,0.235641971,-0.235799436,0.274718,0.236792785,-0.217851979,0.254142,0.227473511,-0.219250277,0.244689,0.230465219,-0.232608158,0.247682
0.229520452,-0.309615378,0.316821,0.206208243,-0.257405774,0.291982,0.207368684,-0.295913795,0.312982,0.168866096,-0.274113301,0.297882,0.139372991,-0.255702123,0.278682,0.128792916,-0.247649082,0.262558,0.173112825,-0.21023466,0.274312,0.144016649,-0.180836354,0.252553,0.128893646,-0.169597558,0.241673,0.122779168,-0.174347196,0.231783,0.191615606,-0.213182962,0.271764,0.173874988,-0.172434326,0.24542,0.163521204,-0.148792468,0.230053,0.152018891,-0.146614978,0.219076,0.208063186,-0.219397978,0.271411,0.201308051,-0.177584268,0.248131,0.192833724,-0.16899512,0.23622,0.182926783,-0.17490559,0.225392,0.232614092,-0.234701142,0.274255,0.228904302,-0.212779245,0.253774,0.219674296,-0.213784032,0.244364,0.224384183,-0.226607221,0.247411
0.222434208,-0.309334519,0.314528,0.200396286,-0.254816125,0.290757,0.200275029,-0.293794645,0.310916,0.160136608,-0.26971846,0.296133,0.131071277,-0.251165135,0.276764,0.123437712,-0.244908652,0.260548,0.170718132,-0.208346267,0.273922,0.140765197,-0.176318851,0.252825,0.126179592,-0.164408586,0.242276,0.117369659,-0.172081542,0.232686,0.189219704,-0.211441744,0.271408,0.172280219,-0.170886802,0.245749,0.162394189,-0.147326892,0.230781,0.151139077,-0.14514999,0.22009,0.205557665,-0.217723574,0.271008,0.199588929,-0.176107333,0.24829,0.191395117,-0.167638523,0.236666,0.177811811,-0.173062374,0.226099,0.227121839,-0.232290357,0.273656,0.226857959,-0.211281851,0.253797,0.217900539,-0.212423174,0.244673,0.21930237,-0.224508968,0.248058
0.217342097,-0.307740388,0.312622,0.19628331,-0.251310344,0.290407,0.194741473,-0.291752746,0.30981,0.159425412,-0.266690193,0.296114,0.130744221,-0.244101572,0.278271,0.121200999,-0.235745872,0.262394,0.168395263,-0.20554186,0.275372,0.139718354,-0.172452612,0.255614,0.125053704,-0.160207716,0.245735,0.115860924,-0.16805295,0.236754,0.18641603,-0.208488825,0.272325,0.168763864,-0.165362575,0.248041,0.159213332,-0.14158686,0.233876,0.149847581,-0.1420837,0.223758,0.202222332,-0.214597618,0.271377,0.197138669,-0.173105711,0.249553,0.186954742,-0.161750447,0.238387,0.175409078,-0.16992698,0.228237,0.222902479,-0.228856985,0.273169,0.22112769,-0.205423,0.253985,0.211818662,-0.2061605,0.245171,0.215266783,-0.220518169,0.24888
0.217636462,-0.30642186,0.31243,0.195934818,-0.249913988,0.290177,0.194045155,-0.291143867,0.310113,0.159539725,-0.263418305,0.297065,0.131376724,-0.24348732,0.27961,0.120549086,-0.23380038,0.263877,0.167866039,-0.202154811,0.275737,0.140072503,-0.170911266,0.256349,0.125271601,-0.158394273,0.246655,0.114046636,-0.162342184,0.237843,0.185104918,-0.20476888,0.272065,0.167202636,-0.165486803,0.247906,0.156756368,-0.14252717,0.233813,0.144621485,-0.140705521,0.223747,0.200334535,-0.210674889,0.270605,0.195278258,-0.169068121,0.249474,0.186570536,-0.159789009,0.238663,0.172717579,-0.165009207,0.228835,0.220462828,-0.22486157,0.271795,0.219497918,-0.202579947,0.252435,0.20981272,-0.202938112,0.24354,0.210199804,-0.213901587,0.247123
0.209250846,-0.304346786,0.313245,0.193682183,-0.244146257,0.29066,0.190317389,-0.287952831,0.311645,0.157252887,-0.255412664,0.299542,0.129338857,-0.235940205,0.283541,0.116895556,-0.225396036,0.268336,0.165267561,-0.194650132,0.276934,0.137399122,-0.162757937,0.257968,0.122316482,-0.150023494,0.248485,0.112435392,-0.157336408,0.239863,0.181376961,-0.197031297,0.272277,0.161718434,-0.159619975,0.248157,0.150116606,-0.137793624,0.234087,0.139293107,-0.139875741,0.224037,0.195659324,-0.202723771,0.270031,0.19125677,-0.162101807,0.24983,0.182092819,-0.152840622,0.239494,0.170311999,-0.160821618,0.230098,0.214642834,-0.21661795,0.270331,0.207588054,-0.202266882,0.250642,0.199153944,-0.200548539,0.241596,0.192831341,-0.21245915,0.24478
0.20459464,-0.298326901,0.312939,0.184209307,-0.233368543,0.289389,0.186150563,-0.28065107,0.310824,0.149682316,-0.248299129,0.298334,0.121205005,-0.22841134,0.283598,0.107676066,-0.217017356,0.268868,0.155079072,-0.188271818,0.274522,0.125020752,-0.161520794,0.254703,0.109559205,-0.148257978,0.244793,0.0974043427,-0.15063488,0.235784,0.172132865,-0.189533134,0.27022,0.152443009,-0.148399552,0.245386,0.140128924,-0.126163198,0.230899,0.127752451,-0.124947921,0.220551,0.187292241,-0.194307142,0.268333,0.176893401,-0.153324731,0.244743,0.16461106,-0.148096287,0.232674,0.150949273,-0.151615542,0.221703,0.207572165,-0.207101594,0.269186,0.199422643,-0.196582686,0.248885,0.19061406,-0.195970146,0.239557,0.187329935,-0.208925245,0.242537
0.198361727,-0.289422287,0.312491,0.178585534,-0.22859789,0.290502,0.180364076,-0.27426126,0.31017,0.142668998,-0.243990123,0.297429,0.114032216,-0.223348062,0.281861,0.103914665,-0.213117548,0.266779,0.149085826,-0.184281336,0.276192,0.119739162,-0.157009948,0.256923,0.104629559,-0.143435789,0.247288,0.0931858322,-0.145324692,0.23853,0.16693756,-0.1850147,0.272603,0.148042662,-0.14346501,0.248784,0.136276014,-0.120909407,0.234889,0.124785144,-0.119252622,0.224964,0.182716912,-0.189323729,0.271193,0.172395105,-0.147436759,0.247801,0.160856674,-0.14139447,0.235832,0.148116018,-0.144528836,0.224952,0.203673415,-0.201505422,0.272408,0.197311562,-0.189834392,0.253149,0.189517952,-0.188934577,0.2443,0.18323383,-0.200907273,0.247862
0.18966368,-0.280510634,0.307881,0.170836211,-0.221837046,0.288383,0.172024494,-0.267001402,0.306684,0.133324887,-0.240321287,0.295225,0.103685782,-0.220814423,0.277824,0.0957537324,-0.208539092,0.262081,0.143621814,-0.178771852,0.276761,0.11732246,-0.144414977,0.259553,0.10259217,-0.133452027,0.250949,0.0908027323,-0.133800639,0.243127,0.160987436,-0.17905921,0.272512,0.143853399,-0.137841973,0.250775,0.132980197,-0.115298566,0.238094,0.121595367,-0.113382055,0.229037,0.176175041,-0.182924132,0.270385,0.168155189,-0.141372411,0.248721,0.156982751,-0.134934672,0.237638,0.144333353,-0.137836698,0.227562,0.196082851,-0.19442146,0.270421,0.192165646,-0.180966145,0.252627,0.184566512,-0.179954138,0.244452,0.17840856,-0.19198219,0.248688
0.183593134,-0.276364103,0.308903,0.164276606,-0.215952989,0.289068,0.16233995,-0.260247536,0.307701,0.127795857,-0.233161415,0.296218,0.098612228,-0.213292344,0.277998,0.0899576775,-0.206306986,0.262024,0.137354939,-0.172960538,0.277262,0.110867696,-0.138548305,0.259889,0.0958252577,-0.131334039,0.251203,0.0822453134,-0.128315037,0.243306,0.154426362,-0.173428234,0.272922,0.13618918,-0.132718841,0.250943,0.124560377,-0.110471698,0.238123,0.112566714,-0.10884865,0.228965,0.169401245,-0.177429231,0.270743,0.160793752,-0.136270259,0.248899,0.148835106,-0.130117683,0.237724,0.13570519,-0.13321516,0.227564,0.189084432,-0.18907333,0.270762,0.184295332,-0.17566827,0.252743,0.176089253,-0.174674703,0.244465,0.169431065,-0.186352012,0.248591
0.177039447,-0.271601199,0.308492,0.16234202,-0.214489907,0.288937,0.159658541,-0.258037975,0.307565,0.125764205,-0.231685109,0.296463,0.0945227513,-0.209386716,0.278948,0.0862145639,-0.201495899,0.263181,0.13599094,-0.171640502,0.27762,0.110894914,-0.132407227,0.260601,0.0966282099,-0.130628201,0.252092,0.0833614006,-0.128121148,0.244356,0.152954329,-0.172050375,0.27302,0.135785778,-0.131990189,0.251219,0.124091886,-0.111108626,0.238501,0.112343806,-0.107345826,0.229417,0.167770369,-0.175989674,0.270608,0.160123673,-0.134433267,0.248917,0.148108709,-0.128652428,0.237819,0.134999686,-0.131609096,0.22773,0.187151161,-0.187525267,0.270313,0.183283056,-0.173580712,0.252413,0.174787767,-0.172810905,0.244188,0.168028605,-0.184368326,0.248392
0.172045622,-0.267452617,0.31006,0.155493849,-0.207576368,0.290327,0.154444722,-0.253128604,0.30842,0.11854193,-0.221997191,0.296365,0.0902288659,-0.201326327,0.280238,0.0797161222,-0.191103481,0.264942,0.12924135,-0.164018183,0.278034,0.104848273,-0.126809078,0.260364,0.0901829893,-0.122067596,0.251528,0.0762705328,-0.117735087,0.243497,0.146508825,-0.165119887,0.274265,0.125100571,-0.126655249,0.252231,0.110006658,-0.108843754,0.239377,0.0977980991,-0.0995355829,0.230196,0.161650555,-0.169655505,0.272549,0.154127246,-0.127367624,0.253007,0.142147601,-0.121097983,0.243009,0.129804123,-0.121419806,0.233919,0.181490591,-0.181984356,0.273103,0.175892819,-0.164765253,0.255338,0.160707186,-0.16923136,0.247175,0.157682368,-0.17751747,0.251306
0.183316953,-0.242434691,0.315198,0.157664695,-0.192140259,0.29064,0.163784098,-0.232571225,0.314152,0.128862169,-0.219547662,0.302802,0.094114705,-0.205692408,0.285565,0.0794194067,-0.194798989,0.271136,0.120939913,-0.154702443,0.276572,0.095647226,-0.115935367,0.257978,0.0796032342,-0.114210841,0.248681,0.064519626,-0.112740018,0.240229,0.137053715,-0.15194613,0.27065,0.111329893,-0.112129424,0.245497,0.096361171,-0.0889756715,0.230825,0.0827001936,-0.0867621686,0.220345,0.152124287,-0.153117041,0.2675,0.137505821,-0.10982488,0.24571,0.123535565,-0.106365131,0.234561,0.110491695,-0.103287318,0.224425,0.173502892,-0.16099439,0.266988,0.15694705,-0.150257919,0.247321,0.144675397,-0.156487372,0.238285,0.143118592,-0.165667341,0.24063
0.179586999,-0.238997008,0.312868,0.154641785,-0.189158502,0.289327,0.160727714,-0.229523143,0.312613,0.123846882,-0.214312908,0.302363,0.0915877834,-0.202829219,0.285632,0.071902901,-0.187428425,0.273184,0.117011456,-0.149817143,0.276767,0.0931946748,-0.111681907,0.259665,0.0768072841,-0.109729715,0.251114,0.0633339586,-0.111101122,0.24334,0.132359283,-0.146884704,0.270165,0.106953984,-0.106930941,0.245971,0.092169705,-0.0836946642,0.231858,0.0780322509,-0.0811250958,0.221777,0.146741128,-0.147905539,0.266384,0.133217557,-0.105135435,0.245816,0.11883641,-0.101373451,0.235293,0.105340725,-0.0979890628,0.225726,0.167194777,-0.155596928,0.264988,0.150063018,-0.144593251,0.246399,0.137764552,-0.15103112,0.237859,0.139829683,-0.163134031,0.240505
0.179107796,-0.235406687,0.314877,0.149989323,-0.179255926,0.293203,0.157949317,-0.222955217,0.314422,0.121642232,-0.205784334,0.303895,0.0891989102,-0.193756289,0.288277,0.0707252306,-0.184671257,0.273967,0.112575787,-0.145105884,0.281368,0.0859695775,-0.107975697,0.263758,0.0704640229,-0.108324973,0.254953,0.0590404099,-0.109220007,0.246948,0.128889791,-0.141717947,0.275562,0.0999599585,-0.101492555,0.252548,0.0832637665,-0.078308367,0.239123,0.0688127319,-0.0750371167,0.229534,0.144172236,-0.142168492,0.272305,0.125328487,-0.0991382356,0.249392,0.110377343,-0.0944331065,0.237668,0.0964347451,-0.0903227839,0.227011,0.165777207,-0.148779852,0.271287,0.14914608,-0.115713262,0.252505,0.139484841,-0.119458731,0.243876,0.141353093,-0.13290401,0.247143
0.174012578,-0.226828118,0.320211,0.144767468,-0.17674665,0.298201,0.154436193,-0.21799956,0.319514,0.115256155,-0.202396757,0.308648,0.0831195709,-0.188908013,0.292632,0.0638378785,-0.174747227,0.280478,0.108401135,-0.140991722,0.285889,0.0832601483,-0.103250517,0.267924,0.0669915319,-0.101396183,0.258942,0.0516298556,-0.0997784152,0.250776,0.124994465,-0.138125856,0.280285,0.0981098878,-0.0963439962,0.256958,0.0808124407,-0.074393664,0.243351,0.068470376,-0.0744936791,0.233632,0.140383355,-0.139090164,0.277218,0.120804429,-0.095946356,0.2543,0.105392982,-0.090805091,0.242575,0.096256297,-0.0942522597,0.231915,0.161919994,-0.146475571,0.276468,0.147217903,-0.112793818,0.257307,0.137094347,-0.114828309,0.248503,0.13763756,-0.128243851,0.251691
0.171789593,-0.224872544,0.320607,0.143814941,-0.175065198,0.298928,0.152335283,-0.216035763,0.319995,0.114316469,-0.200656697,0.309252,0.0824037513,-0.188049033,0.292716,0.0631212491,-0.174359988,0.280118,0.107512493,-0.13949776,0.286895,0.0824367022,-0.101933906,0.269151,0.0661219614,-0.100072126,0.260279,0.050705578,-0.0984442202,0.252214,0.124071877,-0.136572365,0.281282,0.0972013855,-0.0948984447,0.258211,0.0798774071,-0.072967234,0.244752,0.0659463779,-0.0712075656,0.235139,0.139435764,-0.137478812,0.278185,0.120170335,-0.0946673397,0.256005,0.10502163,-0.0910469929,0.244658,0.0949378059,-0.0980852609,0.234342,0.160939236,-0.144778466,0.277356,0.146270715,-0.111165656,0.258405,0.134461819,-0.110171391,0.249698,0.136404241,-0.12619002,0.252991
0.165942893,-0.221007199,0.32074,0.140821427,-0.171919785,0.300443,0.14699739,-0.212554985,0.320875,0.108138519,-0.195976945,0.311189,0.0761116104,-0.182422854,0.294854,0.0571358349,-0.169182802,0.282124,0.103230829,-0.135043229,0.290053,0.0790351966,-0.0981768493,0.273561,0.0624428724,-0.094252192,0.265315,0.0466665017,-0.0906374035,0.257819,0.119833444,-0.131484198,0.283922,0.0983606278,-0.0885363626,0.263872,0.0802404497,-0.0728684359,0.252177,0.0653283226,-0.0635793077,0.243822,0.135026365,-0.131864777,0.280302,0.118057675,-0.090685602,0.262023,0.104129118,-0.0775634412,0.252671,0.0907327653,-0.0733066309,0.244169,0.156002625,-0.138492986,0.278671,0.138653707,-0.107929466,0.260532,0.128476286,-0.10742751,0.252198,0.13233798,-0.122813096,0.255833
0.167619995,-0.222582273,0.320396,0.140500309,-0.172301336,0.301798,0.146184181,-0.212670011,0.320775,0.110800118,-0.197873543,0.311479,0.0777025976,-0.18224985,0.296496,0.0593361454,-0.168774699,0.284444,0.105639395,-0.137393143,0.292594,0.0760492458,-0.105976504,0.277014,0.0609183677,-0.0964351361,0.269224,0.0446236654,-0.0905795719,0.262142,0.120583212,-0.132544816,0.28666,0.094731587,-0.0930663019,0.266415,0.0759617939,-0.0755374941,0.254606,0.0640467358,-0.0634215817,0.24617,0.135118971,-0.132329039,0.283082,0.116387373,-0.0921942394,0.264433,0.0991639433,-0.0789247188,0.254891,0.0856165498,-0.0658461081,0.246217,0.155485459,-0.138306177,0.281278,0.139667469,-0.108036298,0.263901,0.132136055,-0.0927887823,0.255917,0.127885811,-0.0946197905,0.260103
0.16471367,-0.221420501,0.322121,0.139658315,-0.171597436,0.304578,0.146268728,-0.213282563,0.322702,0.109552355,-0.195460105,0.313727,0.0795174032,-0.18028037,0.299298,0.0604993845,-0.167802106,0.286396,0.106824694,-0.137283147,0.296171,0.0775528107,-0.105780022,0.281335,0.0600132288,-0.0968946045,0.273917,0.0433376916,-0.0885294671,0.267173,0.121505607,-0.132264945,0.290298,0.096386182,-0.0927886882,0.270505,0.0777184376,-0.0750328466,0.25896,0.0639912576,-0.0619774969,0.250713,0.135278662,-0.131438644,0.286696,0.114831475,-0.0922009735,0.267192,0.100259995,-0.0779220359,0.257213,0.0866649229,-0.0645742228,0.248141,0.154872067,-0.136759677,0.284725,0.14068042,-0.106611335,0.267935,0.134118375,-0.0925773781,0.260221,0.129959826,-0.0942744846,0.264729
0.161474758,-0.219456767,0.323143,0.132595183,-0.164627084,0.305814,0.14126579,-0.210163677,0.323051,0.100185276,-0.188766322,0.313177,0.0693748791,-0.172661942,0.298662,0.0518168007,-0.158324976,0.286914,0.100362799,-0.129315703,0.296687,0.0705631754,-0.0973296012,0.281404,0.0531780266,-0.0881666449,0.273762,0.040330024,-0.0829163725,0.266815,0.117026696,-0.125824901,0.291709,0.0906657405,-0.0874605771,0.271854,0.0732693065,-0.0673775803,0.260271,0.0625994151,-0.0569219432,0.251998,0.132126761,-0.126267848,0.28883,0.112519403,-0.0868897746,0.269297,0.100118017,-0.074495554,0.259304,0.0870495582,-0.0608431666,0.250219,0.154324496,-0.13472954,0.287687,0.13997461,-0.10488717,0.271137,0.133330691,-0.0909726473,0.263532,0.129852752,-0.0902519962,0.268283
0.159640454,-0.218325945,0.322709,0.132107477,-0.164720851,0.30615,0.13953151,-0.209057793,0.322664,0.0998120939,-0.188726324,0.312899,0.068981125,-0.172332531,0.298474,0.0513835255,-0.157704626,0.287214,0.100178625,-0.129926218,0.297482,0.0709109026,-0.0979591496,0.282611,0.0537383547,-0.0875619181,0.275175,0.0374388568,-0.0777585856,0.268416,0.116497656,-0.125964983,0.292673,0.091069367,-0.0869739019,0.273386,0.0732816217,-0.0677825783,0.262135,0.060020537,-0.0540597026,0.254099,0.131381728,-0.126005815,0.289877,0.112313397,-0.086369705,0.270816,0.0984619044,-0.072059147,0.261064,0.0864890666,-0.0603699462,0.252199,0.151838849,-0.132317168,0.288733,0.137155855,-0.102341347,0.272757,0.128684045,-0.0861307278,0.265417,0.126946738,-0.0863992234,0.270386
0.156224693,-0.21669529,0.322632,0.131251414,-0.16415037,0.306363,0.136507499,-0.206829068,0.322627,0.0984269993,-0.188301604,0.312936,0.0674121856,-0.171655041,0.298239,0.04970005,-0.156878259,0.287183,0.0997105486,-0.129252352,0.297895,0.070397867,-0.0973990873,0.283198,0.0532169106,-0.08669312,0.275849,0.0369123047,-0.0765952391,0.269168,0.116033813,-0.125332709,0.29312,0.0906955635,-0.0849171836,0.274055,0.0728439146,-0.067357699,0.262933,0.0594011535,-0.0538925234,0.254989,0.130896044,-0.125411744,0.290333,0.112102881,-0.084863077,0.272598,0.097990688,-0.0714300212,0.263525,0.0858265434,-0.0590114075,0.255276,0.151278874,-0.131780203,0.289161,0.135356592,-0.100010023,0.273375,0.128508727,-0.0856999466,0.266122,0.126248158,-0.0854426574,0.271175
0.155034173,-0.215519273,0.322583,0.130716294,-0.163212668,0.306848,0.133697192,-0.204589088,0.322295,0.095617499,-0.185065344,0.312265,0.0647267239,-0.168076793,0.298138,0.04827111,-0.154252125,0.286798,0.0977243229,-0.12648898,0.298308,0.0683517062,-0.094804136,0.283649,0.0511817758,-0.0833629785,0.276319,0.0360133701,-0.0736921115,0.269655,0.114047033,-0.122503308,0.294041,0.0901920341,-0.0840613204,0.27528,0.0714294607,-0.064115799,0.264336,0.0587261968,-0.0518560008,0.256519,0.128957101,-0.12251812,0.291634,0.111377399,-0.0838571193,0.273474,0.0969847757,-0.0681121465,0.264183,0.0840686305,-0.0544248442,0.255736,0.14946653,-0.128831905,0.290843,0.134783388,-0.0977364856,0.275427,0.127990395,-0.0832818364,0.268344,0.118932194,-0.0772684442,0.262095
0.152391336,-0.212778984,0.321759,0.129432725,-0.161309609,0.306705,0.130669101,-0.201895612,0.321753,0.0952846227,-0.183924844,0.312145,0.064284132,-0.166867965,0.297675,0.0475922606,-0.153073149,0.286185,0.0977355569,-0.125692466,0.298868,0.0693133361,-0.0919779815,0.284768,0.0522644173,-0.0832575583,0.277718,0.0366011409,-0.0743133075,0.271309,0.113240198,-0.120162056,0.294452,0.089342432,-0.0821136622,0.276271,0.0710997304,-0.0611428039,0.265665,0.0582968351,-0.0465347127,0.25809,0.127932321,-0.119804756,0.291875,0.109932501,-0.0818812644,0.273967,0.0952678063,-0.0644594766,0.264805,0.0828412012,-0.0492788537,0.256475,0.148201977,-0.125622042,0.290793,0.133073202,-0.0945367505,0.275806,0.126068127,-0.0800781761,0.268919,0.117297911,-0.0720107127,0.262843
0.151206977,-0.210959601,0.320692,0.127717884,-0.1571763,0.306377,0.130108377,-0.200505024,0.321135,0.0950497904,-0.181324201,0.31218,0.0641825167,-0.1645418,0.298334,0.0464330338,-0.151154015,0.287005,0.0969509065,-0.123820254,0.299481,0.0690905481,-0.0914834945,0.286,0.0526313457,-0.0803853366,0.279259,0.0347617255,-0.0695813727,0.273131,0.112732639,-0.11899292,0.294725,0.0877200593,-0.0790221748,0.27722,0.0703798188,-0.0588944209,0.267009,0.0580617289,-0.0453279595,0.259715,0.126827518,-0.117018916,0.291817,0.107610329,-0.078143905,0.274362,0.0943683601,-0.0616937586,0.265432,0.0827164666,-0.0477638725,0.257313,0.146677551,-0.12216285,0.290245,0.13217196,-0.0911994088,0.275668,0.1254482,-0.0767669751,0.268971,0.117126209,-0.0673694196,0.263062
0.150088853,-0.209534973,0.319715,0.127388266,-0.156497152,0.306293,0.129480218,-0.19946893,0.320472,0.0947575708,-0.180513383,0.312005,0.0640478601,-0.163640535,0.298413,0.046510506,-0.14906569,0.2879,0.0971363611,-0.123675317,0.30025,0.0694187405,-0.0914985117,0.287315,0.0522275728,-0.0779310018,0.280848,0.03641138,-0.0663348308,0.274969,0.112536981,-0.117660285,0.295368,0.0882050578,-0.0788891882,0.278614,0.071179591,-0.0585239828,0.268841,0.0586756711,-0.0435442192,0.261861,0.126730201,-0.116562219,0.292293,0.108187355,-0.0777220323,0.275457,0.0952239198,-0.0611145107,0.266843,0.0831310005,-0.0455607263,0.259013,0.14632414,-0.121378195,0.290405,0.132620863,-0.0903841211,0.276347,0.126699471,-0.0741489067,0.269888,0.119357465,-0.0637214062,0.264188
0.146510481,-0.206269122,0.319514,0.12667184,-0.154608187,0.306554,0.128870601,-0.198447578,0.320348,0.0933769866,-0.177601713,0.312022,0.0628077888,-0.160840285,0.298918,0.0452800695,-0.146096108,0.288836,0.0963326256,-0.121248493,0.300845,0.0694063542,-0.0897152811,0.28814,0.0521161483,-0.0766065519,0.281787,0.0364368124,-0.0646573208,0.276012,0.111876454,-0.115851759,0.296004,0.0880815669,-0.0769527005,0.279615,0.0714702791,-0.05622967,0.270054,0.0592823401,-0.0409981,0.263225,0.126080168,-0.114590828,0.29293,0.108271153,-0.0756592302,0.276388,0.0956848764,-0.0587929754,0.267925,0.0839483549,-0.0429980345,0.260231,0.145649483,-0.119177034,0.290983,0.132923148,-0.0878921123,0.277225,0.127026843,-0.0733038056,0.270903,0.119545276,-0.0631626576,0.265325
0.145860873,-0.20532371,0.319627,0.125865429,-0.152819211,0.307112,0.126943323,-0.195636361,0.320284,0.0903789983,-0.174084524,0.311762,0.059939931,-0.157238449,0.298714,0.0441918906,-0.144331768,0.287678,0.0951474162,-0.117695015,0.301417,0.0678893941,-0.0853426893,0.288872,0.0516049599,-0.0722959282,0.2826,0.0367315107,-0.0618356193,0.276899,0.111417222,-0.113063452,0.296926,0.088160395,-0.0739282772,0.280815,0.0720907486,-0.0527629131,0.271417,0.0603470171,-0.0388760052,0.264704,0.126458209,-0.114240997,0.294109,0.108657209,-0.0753701008,0.277996,0.0964204649,-0.0575043885,0.269751,0.0850239558,-0.0413610396,0.262257,0.146272713,-0.119207788,0.292409,0.133692125,-0.0856991345,0.279008,0.12802138,-0.0708743376,0.27285,0.119921079,-0.0653926018,0.267417
0.145406056,-0.204658662,0.31986,0.125632442,-0.152343059,0.307393,0.126447458,-0.194884896,0.320401,0.0900286576,-0.173670803,0.31173,0.0596043323,-0.156767709,0.29861,0.0436416868,-0.14360442,0.287638,0.0950693199,-0.117309004,0.301577,0.067904839,-0.0848122886,0.288981,0.0515909028,-0.0718671903,0.282683,0.0365532328,-0.0611147118,0.276958,0.111485099,-0.112866494,0.297244,0.0881404941,-0.0737218808,0.281135,0.0720933417,-0.0524799003,0.271737,0.0603781102,-0.0382276769,0.265025,0.126571981,-0.113927833,0.294554,0.108706135,-0.0750683431,0.278495,0.0964874015,-0.0571605797,0.270279,0.0851435568,-0.0409406558,0.26281,0.146513145,-0.119116794,0.292998,0.134081419,-0.0856870628,0.279651,0.128459514,-0.0708082524,0.273519,0.120200663,-0.0655404693,0.268108
0.144442252,-0.203107247,0.319729,0.125590624,-0.151911023,0.307778,0.126073705,-0.194064547,0.320133,0.0901328056,-0.172898316,0.311333,0.0598446528,-0.156019,0.298386,0.0432423268,-0.141950967,0.287879,0.0952904537,-0.117297115,0.302063,0.0690846386,-0.0835628941,0.289671,0.0524767072,-0.0721959009,0.283476,0.0368673621,-0.0626917552,0.277843,0.111665329,-0.11275393,0.29805,0.0885843341,-0.0736256336,0.282289,0.0727809435,-0.0522014708,0.273094,0.0612122271,-0.0364850294,0.266527,0.126466174,-0.112190229,0.295587,0.108938039,-0.0733674821,0.279894,0.0970228111,-0.0557925708,0.271865,0.0859298743,-0.0393561505,0.264566,0.146537068,-0.117596563,0.294232,0.134945504,-0.0845698471,0.281267,0.129673779,-0.0695654471,0.27531,0.121387504,-0.0639270725,0.270054
0.143489227,-0.201135722,0.319325,0.124868111,-0.149725336,0.307871,0.125831082,-0.193239873,0.319829,0.0904661878,-0.172162718,0.311207,0.0603105555,-0.15469386,0.298929,0.0431866942,-0.140481589,0.288538,0.0955632019,-0.11718398,0.302538,0.0695523701,-0.083565214,0.290365,0.0532721961,-0.0713013352,0.284279,0.0375376669,-0.0600058574,0.278746,0.111841679,-0.112451273,0.298549,0.0887293692,-0.0734445933,0.283189,0.0728588551,-0.0514407653,0.274229,0.0613111844,-0.0362909435,0.267829,0.126569474,-0.111709888,0.29607,0.109449116,-0.0723731285,0.280662,0.0977659608,-0.0546795817,0.272779,0.0867282294,-0.0387497259,0.265613,0.146426993,-0.116364722,0.294631,0.134959355,-0.0814528291,0.281993,0.130009044,-0.0663940314,0.276186,0.121354642,-0.0608593313,0.271062
0.142983401,-0.199236453,0.319228,0.125168039,-0.14914709,0.308428,0.125442995,-0.19162944,0.320025,0.0914033347,-0.16947388,0.311852,0.0617027677,-0.152530258,0.299938,0.0434815328,-0.138873062,0.289314,0.0959996266,-0.116306681,0.303797,0.0710595107,-0.0824505622,0.292156,0.0546576308,-0.0689144145,0.286336,0.0382540207,-0.0592490966,0.281044,0.112313591,-0.110329313,0.299636,0.0890950901,-0.0715815291,0.28485,0.0735854087,-0.0498505057,0.276225,0.0619147524,-0.0350889892,0.270064,0.126798443,-0.109043102,0.296971,0.110537399,-0.0701843538,0.28194,0.0992613581,-0.0522237385,0.27425,0.0887730462,-0.035434897,0.267259,0.146509238,-0.11348135,0.295225,0.135402795,-0.0808142129,0.282985,0.130298847,-0.0658000324,0.277361,0.12174044,-0.0605388251,0.272399
0.142511322,-0.197792736,0.319276,0.125279747,-0.148610855,0.308573,0.124977149,-0.190235339,0.32007,0.0913524214,-0.168889263,0.311902,0.0616975578,-0.15197701,0.300107,0.0436845651,-0.138244688,0.28958,0.0961398842,-0.115852989,0.303988,0.0710055408,-0.0819744399,0.292441,0.0546157122,-0.0685676255,0.286668,0.038415253,-0.058728458,0.281419,0.112529102,-0.109826114,0.29986,0.089151546,-0.0711192964,0.285146,0.0736390514,-0.0493415628,0.276563,0.0620384925,-0.0345544816,0.270433,0.127094587,-0.108584507,0.297215,0.110717356,-0.069767122,0.282261,0.0995000064,-0.0517323177,0.27461,0.0890698771,-0.0348798929,0.267655,0.146873629,-0.113073022,0.295481,0.135541718,-0.0804450891,0.283308,0.130333868,-0.065446987,0.277715,0.121784105,-0.0602530526,0.272781
0.141602884,-0.195873492,0.318416,0.125079122,-0.147399173,0.308458,0.12420101,-0.188523204,0.319431,0.0911919581,-0.167194682,0.311631,0.0620194686,-0.150533301,0.300938,0.0452409972,-0.135455271,0.291669,0.0963181969,-0.115565581,0.304536,0.0713795511,-0.081668543,0.293547,0.0551238965,-0.0681944525,0.288053,0.0398152745,-0.0559562284,0.283058,0.112714757,-0.109496432,0.300353,0.0896452478,-0.0700821691,0.286267,0.074366954,-0.0474354143,0.27805,0.0629724279,-0.0330242469,0.272181,0.127290097,-0.108248869,0.29761,0.111103802,-0.0688423364,0.283281,0.0999896997,-0.0498884528,0.27595,0.0897865661,-0.0336521891,0.269285,0.146995777,-0.112698124,0.295661,0.135968873,-0.0801540595,0.283968,0.130753971,-0.0644950743,0.278595,0.122583371,-0.0571966828,0.273854
0.140710519,-0.194698834,0.318244,0.124978446,-0.147091652,0.308688,0.123393986,-0.187372171,0.319412,0.0904493816,-0.165703894,0.311854,0.0616392829,-0.147439887,0.302701,0.0451346204,-0.133747,0.292926,0.0966700425,-0.113763243,0.305163,0.0717770127,-0.079802319,0.294596,0.0556882015,-0.0670572728,0.289313,0.0403526845,-0.0555996889,0.284509,0.11291655,-0.109288652,0.300909,0.090213923,-0.0691089705,0.28717,0.0748671541,-0.0472310831,0.279156,0.063665235,-0.0312308611,0.273432,0.127534074,-0.108141113,0.298079,0.111455141,-0.06882841,0.284162,0.100465285,-0.0498974008,0.277042,0.0903245632,-0.0334695394,0.270569,0.147196658,-0.112704681,0.295975,0.136456098,-0.0801211461,0.284534,0.131467302,-0.0645757964,0.279277,0.123332981,-0.0573442114,0.274639
0.139868424,-0.193325227,0.317976,0.124861804,-0.146764676,0.308878,0.122604738,-0.186014999,0.319261,0.090178997,-0.16505081,0.311906,0.0616215847,-0.146627366,0.30291,0.0452522942,-0.132801022,0.293092,0.0966234672,-0.112759492,0.305738,0.0720618682,-0.0795305938,0.295482,0.0567636889,-0.0650821006,0.290354,0.0417956158,-0.0523776613,0.285693,0.113144171,-0.108465714,0.301474,0.0909696463,-0.0688200055,0.288117,0.0755345104,-0.04710665,0.280326,0.0638829197,-0.0319282076,0.27476,0.127846697,-0.107418511,0.298603,0.111886584,-0.0682351465,0.285112,0.101030724,-0.0498236633,0.278209,0.0909545031,-0.0326593384,0.271934,0.147365513,-0.112628935,0.296391,0.136946818,-0.07948365,0.285248,0.131915525,-0.0645798824,0.280128,0.125783312,-0.0536983221,0.27561
0.139178988,-0.192088234,0.317542,0.124681061,-0.145257637,0.308946,0.122028671,-0.184862472,0.319003,0.0894820177,-0.163160173,0.311932,0.0616088008,-0.146017604,0.302886,0.0452838471,-0.132025501,0.292977,0.0966477171,-0.112527663,0.306282,0.0728721412,-0.0782075188,0.296424,0.0571790101,-0.0646621002,0.291495,0.042271135,-0.0518057539,0.287014,0.113218963,-0.107603853,0.301948,0.091805221,-0.0676017802,0.289022,0.0764020027,-0.0460000664,0.281482,0.0645994275,-0.0308723053,0.276097,0.127887103,-0.107150782,0.298985,0.112210209,-0.0679875173,0.285927,0.101412551,-0.0488540819,0.279246,0.0914464678,-0.0323108245,0.273172,0.14747443,-0.111806836,0.296597,0.137332301,-0.0788120554,0.28577,0.132265941,-0.0639692262,0.280796,0.1267007,-0.0509218236,0.276406
0.140568138,-0.192479849,0.320753,0.125495588,-0.140304926,0.312184,0.123086547,-0.184972059,0.321736,0.0902050243,-0.161314318,0.314048,0.0615872052,-0.144281471,0.303259,0.0454564639,-0.12951623,0.293738,0.0986644606,-0.105856772,0.308944,0.0736528254,-0.0751480551,0.298679,0.0578318533,-0.0621874523,0.293547,0.042845865,-0.0501507459,0.288882,0.115269912,-0.100905059,0.305209,0.0929329742,-0.0644440278,0.292172,0.0775218648,-0.042662536,0.284567,0.0661580162,-0.0287227562,0.279135,0.130092848,-0.0998823395,0.302737,0.115344748,-0.0611872109,0.28957,0.103467224,-0.0457088465,0.282833,0.0927932061,-0.0310457356,0.276709,0.149866514,-0.104507755,0.300928,0.139260561,-0.0724570528,0.290229,0.133955092,-0.0604164643,0.285313,0.129162212,-0.0488160436,0.280976
0.141317022,-0.190865521,0.321527,0.128727512,-0.13514955,0.313301,0.123604353,-0.181937567,0.32251,0.0938976041,-0.156836141,0.31501,0.0636831891,-0.142567516,0.304614,0.0463484821,-0.128367892,0.294817,0.101640139,-0.104878104,0.310245,0.0742012883,-0.0759776182,0.30017,0.058683996,-0.0610545583,0.295132,0.0436303498,-0.0484891433,0.290552,0.117387162,-0.0994592581,0.306613,0.0943007875,-0.0614151742,0.293836,0.0786533967,-0.0398370715,0.286382,0.0667614991,-0.0256506138,0.281058,0.131604283,-0.0979949424,0.304203,0.117010964,-0.059304434,0.291209,0.104821082,-0.0424601187,0.284561,0.0934966864,-0.029794086,0.278517,0.151021578,-0.0990712315,0.302422,0.14169214,-0.0665927757,0.292019,0.137392645,-0.0515764324,0.28724,0.13359084,-0.0382735125,0.283022
0.142201337,-0.190038473,0.323536,0.129605245,-0.135217076,0.314804,0.124723451,-0.181816079,0.324773,0.0945801711,-0.15699893,0.317403,0.0649210362,-0.141304525,0.306123,0.0466493789,-0.127949902,0.295513,0.104098148,-0.102974204,0.311824,0.075216268,-0.0732034426,0.301746,0.0605714163,-0.0577545671,0.296707,0.0442401942,-0.0478477478,0.292126,0.118446455,-0.0992547184,0.307731,0.095281682,-0.0610439764,0.294641,0.0795027078,-0.0395152228,0.287005,0.0674526834,-0.0250165551,0.281551,0.132663602,-0.0981851915,0.304973,0.117208805,-0.0596302356,0.291762,0.10517972,-0.0424285857,0.285002,0.0938611044,-0.0272760001,0.278857,0.151751214,-0.102755011,0.302841,0.140990008,-0.0705533308,0.291946,0.135091494,-0.0578459232,0.28694,0.130959741,-0.0444014003,0.282523
0.142590342,-0.188823882,0.324641,0.130049909,-0.135257476,0.31557,0.125286012,-0.181231073,0.325716,0.0947761757,-0.156838069,0.318112,0.0650302491,-0.141123023,0.306518,0.0468555906,-0.127627609,0.295955,0.104034093,-0.102756189,0.312214,0.0753630684,-0.0727387211,0.301834,0.0608050283,-0.056941316,0.296644,0.0444584965,-0.0472127134,0.291925,0.11895049,-0.0991300232,0.308222,0.0957018256,-0.0608137626,0.294827,0.079843087,-0.0393129505,0.287014,0.067767888,-0.0245997707,0.281433,0.133285369,-0.098348591,0.30557,0.117351284,-0.0598154559,0.292147,0.105380091,-0.0424214509,0.28528,0.0941024743,-0.0269415968,0.279037,0.152497399,-0.103296743,0.303609,0.141318589,-0.0711014794,0.292505,0.135510593,-0.057815823,0.287403,0.131100253,-0.0444612002,0.282901
0.142927989,-0.187661475,0.325361,0.130299474,-0.135272979,0.316097,0.125654989,-0.179979402,0.326364,0.0950198083,-0.156697769,0.318629,0.0652831966,-0.14080063,0.306896,0.0474554407,-0.126800356,0.29669,0.103041161,-0.103654004,0.312553,0.0755402775,-0.0723899249,0.301932,0.0616512462,-0.0550674032,0.296621,0.0450661794,-0.0459739915,0.291793,0.11912511,-0.099069189,0.308593,0.0959891673,-0.0606365296,0.295032,0.0802242236,-0.0390695963,0.287121,0.0686433771,-0.0231803959,0.281471,0.133543733,-0.0983650982,0.305982,0.117797999,-0.05974412,0.292391,0.105954165,-0.042288105,0.285438,0.094653614,-0.0266966065,0.279116,0.152858283,-0.103416977,0.304094,0.141707954,-0.0712744837,0.29287,0.136432044,-0.0564306668,0.287714,0.131542987,-0.044367889,0.283164
0.143504934,-0.186719788,0.326619,0.130654387,-0.135385006,0.316993,0.126229527,-0.178955569,0.327559,0.095958643,-0.156016882,0.319701,0.0662453487,-0.140166568,0.30802,0.0485158059,-0.125556784,0.298477,0.103769276,-0.102868485,0.313183,0.0756494449,-0.0721811383,0.302433,0.0617250831,-0.0549271126,0.297058,0.0450685949,-0.0465810105,0.292171,0.119311116,-0.0990283363,0.309196,0.09631473,-0.0604095586,0.295341,0.0806625386,-0.0387432773,0.287259,0.0691759768,-0.0227962261,0.281486,0.133796714,-0.098348978,0.306587,0.118154344,-0.0596031626,0.292697,0.106478467,-0.0420010015,0.28559,0.0954805261,-0.0255675287,0.27913,0.153210922,-0.103450621,0.30475,0.142127714,-0.071297502,0.293286,0.136899721,-0.0564345455,0.288018,0.132268449,-0.0432242954,0.283371
0.143915061,-0.185408603,0.327179,0.130872501,-0.13537755,0.317537,0.126733793,-0.177683498,0.328211,0.0962009625,-0.156130729,0.320473,0.0664095498,-0.139913336,0.308389,0.0487896313,-0.125251747,0.298776,0.103826396,-0.10296749,0.313833,0.0760206038,-0.0719935832,0.303095,0.0622921774,-0.0546843602,0.297727,0.0461207159,-0.0448887645,0.292846,0.119886713,-0.0984321544,0.309726,0.0971091575,-0.0598021918,0.295885,0.0815419991,-0.0381428758,0.28781,0.069758319,-0.022540627,0.282043,0.133952949,-0.0982759127,0.30702,0.118427508,-0.059486717,0.293107,0.107234671,-0.0413335502,0.285989,0.0960087387,-0.0252790103,0.279518,0.153346999,-0.103334508,0.305069,0.142492316,-0.0711805039,0.293574,0.137340381,-0.0563248779,0.288293,0.132774692,-0.0431135836,0.283633
0.144792096,-0.184336906,0.328169,0.131137884,-0.135476844,0.318192,0.127617064,-0.176627917,0.329153,0.0964618877,-0.156353749,0.321317,0.0665825858,-0.139849313,0.308911,0.0490331949,-0.125120124,0.299233,0.10385353,-0.103024737,0.314257,0.0762221251,-0.0717794021,0.303284,0.0625917878,-0.0544532985,0.297797,0.0464714353,-0.0445252033,0.292809,0.11994332,-0.098457784,0.310111,0.0973170474,-0.0596423859,0.296002,0.0817941231,-0.0379427629,0.287772,0.0700549559,-0.0223036102,0.281894,0.134092462,-0.0982373234,0.307396,0.118550245,-0.0593579215,0.293211,0.107447529,-0.0411060443,0.285953,0.0962491478,-0.0250217408,0.279356,0.153534888,-0.103305128,0.305479,0.142750825,-0.0710851707,0.293759,0.137611368,-0.0562180304,0.288374,0.133057989,-0.0429990532,0.283623
0.145573423,-0.183305673,0.329033,0.13136595,-0.135596836,0.318793,0.128432917,-0.175586995,0.32995,0.0967164169,-0.156391021,0.321998,0.0667606684,-0.139236287,0.309685,0.0499318767,-0.123997543,0.300627,0.103974205,-0.103095665,0.314637,0.0764891556,-0.0716320779,0.303486,0.0629530355,-0.05431607,0.297911,0.0468511125,-0.0443175432,0.292843,0.120065228,-0.0985126245,0.310497,0.097632283,-0.0595254922,0.296169,0.0821613421,-0.0377896369,0.287811,0.0704217184,-0.0221449725,0.281841,0.134260595,-0.0982456839,0.307806,0.119177381,-0.0589017101,0.293325,0.108630697,-0.0404535301,0.285916,0.0977368959,-0.0242698015,0.27918,0.153729836,-0.103331266,0.305951,0.14351527,-0.0706959678,0.294061,0.138421788,-0.0558842939,0.288598,0.133487445,-0.0429927595,0.283777
0.144131273,-0.179661002,0.324932,0.130730161,-0.134848561,0.317288,0.127886804,-0.17285888,0.32733,0.0966399741,-0.155976067,0.321614,0.0675956453,-0.140243712,0.312788,0.0509822642,-0.125414005,0.305342,0.104522244,-0.10360096,0.316307,0.0777175779,-0.0724604149,0.307665,0.0643581943,-0.0551861252,0.303344,0.0482082402,-0.0451382651,0.299415,0.120275912,-0.0986502617,0.311097,0.0988270979,-0.0600113444,0.299174,0.0837008615,-0.0382437185,0.29222,0.0720831941,-0.0224443209,0.287252,0.13405007,-0.0980000079,0.307343,0.120051803,-0.059117956,0.294837,0.110012164,-0.0407095517,0.288438,0.0994644393,-0.024403691,0.282621,0.152658661,-0.102527849,0.303886,0.143522969,-0.0704493795,0.293499,0.138760986,-0.0558669861,0.288726,0.134121301,-0.0430807724,0.284515
0.146898879,-0.182390356,0.330918,0.132125455,-0.135572527,0.320155,0.129806383,-0.174541221,0.331678,0.0972320083,-0.156723349,0.323465,0.0672254286,-0.138928047,0.310441,0.0504785781,-0.123878568,0.3011,0.10431939,-0.103346555,0.315534,0.077407349,-0.0707205918,0.303951,0.0636628899,-0.0541275642,0.29816,0.0480053063,-0.0436716677,0.292895,0.120427833,-0.0987534953,0.311435,0.0982553137,-0.0594355062,0.296668,0.0832397599,-0.0374403719,0.288053,0.0714748134,-0.021655707,0.2819,0.134903596,-0.0980874015,0.308815,0.120007461,-0.0588804285,0.293863,0.11018192,-0.0402773285,0.286213,0.0987860196,-0.0240751627,0.279259,0.154385264,-0.103269855,0.307113,0.145058158,-0.0701519959,0.294893,0.139327361,-0.0560023284,0.289279,0.134671891,-0.042902935,0.284325
0.146668031,-0.18243154,0.331101,0.132060301,-0.135626096,0.320345,0.129545027,-0.17446732,0.331832,0.0971204556,-0.1563781,0.323583,0.06734256,-0.138733161,0.310476,0.0507057585,-0.123243771,0.301439,0.104258487,-0.10320705,0.315693,0.0776903828,-0.0706837429,0.304082,0.0640111373,-0.0540565209,0.298277,0.0487035365,-0.0432688221,0.292999,0.120483789,-0.0987767377,0.311632,0.0988130603,-0.059253768,0.296862,0.0835470109,-0.0374145707,0.288246,0.0723032324,-0.0214283376,0.282092,0.135038776,-0.0982509336,0.309042,0.120512547,-0.0590161581,0.294101,0.110599952,-0.0403267294,0.286458,0.0992777488,-0.0240661786,0.279509,0.154580156,-0.103606827,0.307373,0.145792708,-0.0705577416,0.295168,0.139828444,-0.0564862893,0.28956,0.135064863,-0.0434892117,0.284611
0.14658779,-0.182283716,0.330957,0.132016459,-0.135535809,0.320342,0.129519172,-0.174408856,0.331759,0.0972537061,-0.156138245,0.323617,0.067619336,-0.138314767,0.310657,0.0511091261,-0.12274753,0.301668,0.10431481,-0.103277096,0.315849,0.0781203231,-0.0705732066,0.304347,0.0646055073,-0.0538738085,0.298595,0.0493627467,-0.043145367,0.293367,0.120474326,-0.0987526697,0.311742,0.0992078901,-0.0591408424,0.297098,0.0840961449,-0.0372640949,0.288555,0.0729628133,-0.0212447318,0.282453,0.134971888,-0.0981418448,0.309104,0.12108727,-0.0588475472,0.294247,0.110923991,-0.0403647792,0.286646,0.10014925,-0.0239062388,0.279735,0.15444206,-0.103383968,0.307361,0.146076633,-0.0705204726,0.295239,0.140404625,-0.0563379372,0.289669,0.135651494,-0.0434287607,0.284755
