sluyters/QuantumLeap/src/datasets/gesture/HandGestureDataset_SHREC2017_csv/Gesture13/finger_2/subject_13_essai_4_skeletons_world.csv
Wrist_x,Wrist_y,Wrist_z,Palm_x,Palm_y,Palm_z,thumb_base_x,thumb_base_y,thumb_base_z,thumb_first_joint_x,thumb_first_joint_y,thumb_first_joint_z,thumb_second_joint_x,thumb_second_joint_y,thumb_second_joint_z,thumb_tip_x,thumb_tip_y,thumb_tip_z,index_base_x,index_base_y,index_base_z,index_first_joint_x,index_first_joint_y,index_first_joint_z,index_second_joint_x,index_second_joint_y,index_second_joint_z,index_tip_x,index_tip_y,index_tip_z,middle_base_x,middle_base_y,middle_base_z,middle_first_joint_x,middle_first_joint_y,middle_first_joint_z,middle_second_joint_x,middle_second_joint_y,middle_second_joint_z,middle_tip_x,middle_tip_y,middle_tip_z,ring_base_x,ring_base_y,ring_base_z,ring_first_joint_x,ring_first_joint_y,ring_first_joint_z,ring_second_joint_x,ring_second_joint_y,ring_second_joint_z,ring_tip_x,ring_tip_y,ring_tip_z,pinky_base_x,pinky_base_y,pinky_base_z,pinky_first_joint_x,pinky_first_joint_y,pinky_first_joint_z,pinky_second_joint_x,pinky_second_joint_y,pinky_second_joint_z,pinky_tip_x,pinky_tip_y,pinky_tip_z,
0.44010377,-0.31026738,0.488606,0.42910456,-0.25868706,0.490708,0.42108278,-0.29450953,0.496163,0.38345754,-0.27242086,0.499709,0.35393378,-0.25507831,0.497937,0.33866004,-0.2388706,0.497113,0.41100915,-0.20950535,0.501758,0.40214855,-0.16808282,0.499317,0.39599711,-0.14734014,0.498097,0.39006132,-0.12856933,0.496988,0.42936211,-0.20601702,0.493414,0.42235282,-0.15938942,0.491666,0.41749779,-0.13167929,0.490646,0.41369748,-0.11163789,0.489918,0.44430041,-0.20612056,0.486398,0.44668024,-0.16274926,0.488216,0.4468909,-0.13921944,0.489146,0.44706598,-0.11719906,0.489992,0.4620016,-0.21202825,0.47769,0.46186623,-0.17012869,0.471827,0.46185483,-0.15051542,0.469133,0.46161373,-0.13342358,0.466756
0.43064005,-0.29957773,0.490046,0.42471154,-0.25098665,0.493804,0.41243732,-0.28628257,0.497822,0.37944182,-0.26691432,0.502367,0.34948751,-0.25126943,0.500948,0.33458186,-0.23662886,0.501682,0.40644592,-0.20424104,0.506607,0.39488389,-0.16416448,0.506729,0.38849835,-0.14396625,0.506789,0.38074103,-0.1264218,0.506845,0.42463921,-0.19951175,0.498642,0.4151543,-0.15191857,0.495286,0.40871903,-0.12393641,0.493327,0.40314538,-0.10398328,0.491929,0.43965859,-0.19854433,0.491815,0.4365759,-0.1536122,0.489729,0.43256997,-0.12982417,0.488662,0.42798426,-0.10874815,0.487691,0.45773067,-0.20313577,0.483098,0.45980024,-0.16214932,0.478693,0.45946127,-0.14299258,0.47667,0.45912247,-0.12585293,0.474884
0.42639161,-0.29399827,0.492084,0.42189669,-0.24921048,0.494567,0.40858978,-0.28141494,0.500269,0.37450885,-0.26443304,0.504464,0.34387154,-0.24857763,0.502423,0.33145403,-0.23515677,0.50212,0.39819019,-0.20073284,0.506723,0.38557215,-0.16002532,0.503923,0.37605023,-0.14149971,0.502523,0.36709933,-0.12402696,0.501251,0.41557585,-0.19500592,0.497766,0.40998063,-0.15174887,0.499481,0.40404071,-0.12517231,0.500481,0.39914063,-0.10591487,0.501196,0.43000247,-0.19323005,0.490217,0.42953853,-0.15130764,0.494647,0.42786456,-0.12847894,0.496914,0.42543332,-0.10711007,0.498974,0.44759562,-0.19685135,0.480817,0.44451754,-0.15424229,0.475083,0.44311425,-0.13447963,0.472449,0.44168747,-0.11693444,0.470124
0.42049293,-0.28606511,0.490326,0.4168422,-0.2444984,0.495624,0.4051492,-0.27812135,0.498497,0.37142657,-0.26160657,0.502622,0.34229559,-0.24739601,0.502892,0.32717123,-0.23322041,0.503868,0.39248856,-0.19912759,0.510293,0.37776067,-0.15994748,0.510188,0.36875004,-0.14016543,0.510136,0.36042171,-0.12187984,0.510089,0.41071216,-0.1919595,0.502456,0.40264965,-0.14842156,0.504367,0.39611328,-0.1219925,0.505482,0.39136839,-0.10284163,0.506278,0.42593795,-0.18884866,0.495623,0.42207869,-0.14499077,0.495464,0.41751168,-0.12143629,0.495383,0.41324937,-0.099446739,0.495309,0.44465403,-0.19060128,0.486676,0.44567123,-0.15066096,0.483622,0.44455111,-0.13159675,0.482219,0.44209605,-0.11675931,0.480981
0.41559603,-0.2851277,0.493101,0.40714671,-0.24581004,0.497682,0.40049894,-0.27713877,0.501448,0.36278682,-0.26054354,0.5069,0.33320937,-0.24398895,0.505232,0.3195045,-0.22926656,0.506681,0.39249783,-0.19951377,0.511933,0.37810933,-0.16040408,0.512415,0.36927592,-0.14067534,0.512657,0.36110749,-0.12243798,0.512876,0.41026802,-0.19354087,0.503606,0.40236959,-0.14898106,0.504853,0.3965053,-0.12230697,0.505581,0.39227074,-0.10306285,0.506101,0.42499067,-0.1914821,0.496421,0.41822336,-0.14904849,0.496616,0.4166743,-0.12375004,0.496717,0.41224422,-0.10193455,0.496808,0.44058038,-0.19846123,0.487155,0.44088311,-0.15746566,0.483915,0.43946301,-0.13837251,0.482426,0.44020495,-0.11902782,0.481112
0.41195295,-0.28107181,0.490354,0.40656725,-0.2354365,0.496673,0.39476137,-0.27205573,0.499285,0.36186932,-0.2571162,0.504953,0.33268484,-0.24218362,0.504661,0.31912155,-0.22865335,0.507166,0.38693664,-0.19368713,0.5132,0.37639563,-0.15643947,0.513681,0.36915083,-0.14029029,0.513921,0.36074958,-0.1225238,0.51414,0.40487424,-0.18651267,0.504846,0.39776829,-0.14533988,0.508093,0.39051784,-0.11938156,0.509987,0.38520032,-0.10042105,0.511339,0.41971691,-0.18336115,0.497513,0.41676856,-0.14181568,0.499517,0.41221281,-0.11867561,0.500542,0.40792957,-0.09702532,0.501474,0.43770945,-0.1849817,0.487821,0.43794334,-0.14464343,0.486067,0.43725697,-0.12556291,0.485262,0.43665096,-0.10859626,0.484551
0.40652405,-0.27589962,0.488167,0.4048022,-0.23387586,0.495955,0.39247056,-0.26942634,0.497937,0.3609921,-0.25271612,0.504793,0.33149797,-0.23851762,0.504704,0.31822703,-0.2267356,0.50721,0.3876778,-0.19307755,0.514821,0.37766137,-0.15552639,0.517152,0.36772568,-0.13463589,0.518317,0.36194266,-0.12134046,0.519376,0.40518886,-0.18583159,0.506026,0.39759622,-0.14379142,0.508855,0.39044568,-0.11766058,0.510504,0.38483701,-0.098606803,0.511683,0.41955258,-0.182582,0.498224,0.41730935,-0.14131236,0.50106,0.41288641,-0.11828423,0.502512,0.40870682,-0.09669235,0.503831,0.43670194,-0.18399902,0.487758,0.43718598,-0.14384431,0.487079,0.4369506,-0.12506021,0.486767,0.43674336,-0.10840716,0.486492
0.40776409,-0.27624649,0.491036,0.40487541,-0.23387812,0.497079,0.3901258,-0.26765027,0.499363,0.35837322,-0.24911251,0.503671,0.33007182,-0.23435348,0.504455,0.3156,-0.21989558,0.505679,0.38568973,-0.19150435,0.512621,0.37313321,-0.15158906,0.513397,0.36431105,-0.13223293,0.513785,0.35603849,-0.11409628,0.514138,0.40395406,-0.18488078,0.504893,0.39700219,-0.14297722,0.508325,0.39036911,-0.11692989,0.510327,0.38526323,-0.097945597,0.511757,0.41908947,-0.1821764,0.498095,0.41742897,-0.14082708,0.501419,0.41380025,-0.11783908,0.50312,0.41038571,-0.096403945,0.504666,0.43744265,-0.18435324,0.489083,0.43740703,-0.14349422,0.487088,0.43708413,-0.12452801,0.486171,0.43680116,-0.10775722,0.485363
0.40920385,-0.27834616,0.491703,0.4053889,-0.23737193,0.497418,0.39238064,-0.2693051,0.500212,0.36019003,-0.25145053,0.504776,0.33125618,-0.23485064,0.505061,0.31761539,-0.22210545,0.50663,0.3867838,-0.1920475,0.5129,0.37632578,-0.15426927,0.51385,0.36756756,-0.13378218,0.514325,0.35970657,-0.11880613,0.514757,0.40518601,-0.18641482,0.504831,0.39977874,-0.14506792,0.507472,0.39694133,-0.11839569,0.509013,0.3917761,-0.10174328,0.510114,0.42076731,-0.18536404,0.497776,0.41999079,-0.14377486,0.501602,0.42018116,-0.12264507,0.50356,0.41605753,-0.10040205,0.50534,0.43882905,-0.19147685,0.488504,0.43928985,-0.15066612,0.486196,0.4394906,-0.13207974,0.485135,0.43949878,-0.11194771,0.4842
0.40687926,-0.27715694,0.49222,0.40542007,-0.23774114,0.497788,0.39239758,-0.26964316,0.501137,0.3608258,-0.25157565,0.505773,0.33144408,-0.2338499,0.504503,0.31877681,-0.21780843,0.506045,0.38787833,-0.19238241,0.513632,0.3804093,-0.15349331,0.514076,0.37222437,-0.13373976,0.514299,0.36418744,-0.11568291,0.514501,0.40534281,-0.1862523,0.505009,0.40096218,-0.14475196,0.507585,0.39862827,-0.11832878,0.509088,0.39437943,-0.10172207,0.510162,0.42084514,-0.18584312,0.497511,0.42495352,-0.14571857,0.504637,0.42540035,-0.12442197,0.508283,0.42562938,-0.10438494,0.511598,0.43809819,-0.19132636,0.487727,0.44176876,-0.15159427,0.487497,0.44538965,-0.13329413,0.487391,0.4441262,-0.11673821,0.487298
0.4078314,-0.27772469,0.491358,0.4054861,-0.23628305,0.497758,0.39235318,-0.26936633,0.500906,0.3627967,-0.25252458,0.506867,0.33374678,-0.23278505,0.503552,0.32134216,-0.21750995,0.505573,0.38933693,-0.19306652,0.515117,0.38324778,-0.15455743,0.516588,0.37825943,-0.13457844,0.517323,0.3723604,-0.11603614,0.517992,0.40653556,-0.18676964,0.506058,0.40667303,-0.14512671,0.511356,0.40654486,-0.11925158,0.514447,0.41002204,-0.10139464,0.518304,0.42061683,-0.18437855,0.498139,0.42816243,-0.14568789,0.504846,0.43246092,-0.12144075,0.508277,0.43068568,-0.10295055,0.511397,0.43828403,-0.18883425,0.487733,0.44636374,-0.15131611,0.4875,0.44805262,-0.13297904,0.487393,0.448209,-0.11708498,0.487298
0.40916571,-0.27366631,0.487446,0.41897023,-0.23216221,0.496278,0.39783717,-0.26923772,0.497077,0.37807213,-0.25257187,0.506412,0.34553342,-0.23589193,0.50197,0.33304094,-0.22384708,0.506693,0.39906001,-0.19394474,0.515957,0.3876696,-0.15541159,0.518857,0.3834599,-0.13576442,0.520307,0.37643657,-0.11712274,0.521625,0.41689765,-0.18542086,0.507767,0.41032062,-0.14257527,0.511218,0.40885398,-0.11688595,0.513738,0.40788526,-0.098536354,0.515641,0.43168266,-0.18101767,0.500388,0.43187938,-0.13809669,0.503228,0.43000469,-0.11770405,0.504681,0.42805041,-0.096138009,0.506003,0.449636,-0.18086837,0.490281,0.46109504,-0.1459522,0.496832,0.46608373,-0.12929426,0.499842,0.4704893,-0.11455921,0.502497
0.41049588,-0.27698229,0.492874,0.41968691,-0.23914323,0.498811,0.39559613,-0.26949421,0.501528,0.37706433,-0.25436309,0.507131,0.34491927,-0.23662913,0.502424,0.33575431,-0.22619804,0.510466,0.40456397,-0.19669777,0.514688,0.39444317,-0.15742398,0.516601,0.38841254,-0.13719924,0.517558,0.37849551,-0.11726708,0.518427,0.42295501,-0.19151981,0.506546,0.41540874,-0.14646705,0.50674,0.40941579,-0.11924926,0.506853,0.40440087,-0.099779748,0.506933,0.4379264,-0.19000769,0.499418,0.43623616,-0.14654668,0.497932,0.43245869,-0.12377717,0.497172,0.42890572,-0.10221654,0.496481,0.4556364,-0.1935905,0.490024,0.4582628,-0.15237579,0.487926,0.45948916,-0.13327448,0.486963,0.4605347,-0.11628513,0.486112
0.4133764,-0.27629821,0.49157,0.42289795,-0.24034714,0.497332,0.40699551,-0.26883251,0.50007,0.37895733,-0.2537733,0.505262,0.34928073,-0.23779014,0.50408,0.33564618,-0.2247324,0.507576,0.40986769,-0.19694705,0.512869,0.40109722,-0.15727539,0.51318,0.39374197,-0.13907787,0.513335,0.38674163,-0.12176887,0.513476,0.42796497,-0.19129064,0.50485,0.42390713,-0.15047011,0.5081,0.41821183,-0.12454621,0.509997,0.41097895,-0.1030553,0.511351,0.44278601,-0.1893283,0.497835,0.44672124,-0.14940454,0.50791,0.45136854,-0.12877862,0.513065,0.45400212,-0.11005364,0.517751,0.457391,-0.19266557,0.488603,0.46405368,-0.15113879,0.486182,0.46571349,-0.13210329,0.485069,0.46167335,-0.11623614,0.484088
0.42212208,-0.27679638,0.488543,0.43043503,-0.24713318,0.495498,0.40636458,-0.26939158,0.496514,0.38423107,-0.2608409,0.500977,0.35765906,-0.24417384,0.502156,0.34818466,-0.23158078,0.508325,0.41308148,-0.2059611,0.511478,0.40574323,-0.16708553,0.51277,0.39954912,-0.14827983,0.513416,0.3936043,-0.13520957,0.514003,0.43221445,-0.20007738,0.50457,0.43615516,-0.16227056,0.516955,0.43767491,-0.13886368,0.524179,0.43872927,-0.12196927,0.529339,0.4479238,-0.19780467,0.498384,0.45097897,-0.15575088,0.504317,0.45189966,-0.13325275,0.507352,0.45271972,-0.11257969,0.510111,0.46676053,-0.20017708,0.489975,0.47408474,-0.16405615,0.488938,0.47362909,-0.14853564,0.488462,0.47286279,-0.13509949,0.488042
0.43096951,-0.28671011,0.485562,0.43749591,-0.25453892,0.494746,0.41613593,-0.27994199,0.494671,0.39613897,-0.27078057,0.505324,0.36611176,-0.25223025,0.502363,0.3531674,-0.23723007,0.504397,0.4215473,-0.21325109,0.514146,0.41364102,-0.17423813,0.517555,0.40968834,-0.15473199,0.51926,0.40601876,-0.13692608,0.520809,0.44040048,-0.20715184,0.506743,0.43694612,-0.16410003,0.509697,0.43332576,-0.13761529,0.51142,0.43002122,-0.11840157,0.512651,0.4557669,-0.2047687,0.499987,0.45686807,-0.16074183,0.500786,0.45479062,-0.13839245,0.501195,0.45279592,-0.11709941,0.501567,0.4738875,-0.20710441,0.490576,0.4815242,-0.17001007,0.491166,0.48418094,-0.15162907,0.491437,0.48620002,-0.1351923,0.491676
0.44715625,-0.3020452,0.495836,0.44872428,-0.26781337,0.500063,0.43089459,-0.29399344,0.503799,0.40239967,-0.28199755,0.507032,0.37223529,-0.26359086,0.504302,0.35945636,-0.2490434,0.506687,0.42880728,-0.22299207,0.513558,0.41819808,-0.18239404,0.512139,0.41237422,-0.16375719,0.511429,0.40687928,-0.1461104,0.510784,0.44743541,-0.21781754,0.505595,0.43856482,-0.1721689,0.502971,0.43282895,-0.14714733,0.50144,0.42858712,-0.1284663,0.500347,0.46265107,-0.21627291,0.498739,0.46861512,-0.17546385,0.506178,0.47147309,-0.1534945,0.509984,0.47369565,-0.13273961,0.513444,0.48092527,-0.21972728,0.489917,0.48314491,-0.18023712,0.485922,0.48427663,-0.16140973,0.484087,0.48533647,-0.14441577,0.482467
0.44463293,-0.30542666,0.494367,0.4473798,-0.2709741,0.499192,0.43000612,-0.29700355,0.502988,0.40250914,-0.28332258,0.507481,0.37315273,-0.26391109,0.504406,0.36089072,-0.24860243,0.506442,0.43587612,-0.22743893,0.514034,0.42841515,-0.18761288,0.514308,0.42114873,-0.16916925,0.514445,0.41212202,-0.14952476,0.51457,0.45278213,-0.2235876,0.505512,0.44576503,-0.17727609,0.504593,0.43713701,-0.14931666,0.504056,0.4329095,-0.13026698,0.503673,0.46652877,-0.22322624,0.498155,0.47190314,-0.18283183,0.506338,0.47446161,-0.16199256,0.510524,0.47531268,-0.13765651,0.51433,0.48261185,-0.22839481,0.488645,0.49587508,-0.19361542,0.49375,0.50193424,-0.17779012,0.496095,0.50505862,-0.16230277,0.498164
0.44443107,-0.30885071,0.488026,0.45701761,-0.27752843,0.49661,0.43381813,-0.30489301,0.49917,0.4150493,-0.29173,0.506489,0.3858607,-0.27236458,0.504136,0.37503989,-0.25781658,0.507879,0.4446263,-0.23701615,0.51796,0.43894747,-0.19811665,0.521401,0.43613948,-0.17881605,0.523121,0.43178998,-0.1607881,0.524685,0.46090311,-0.22977887,0.507887,0.45782603,-0.18566403,0.510091,0.45531246,-0.15952515,0.511377,0.45246703,-0.14044595,0.512296,0.47400986,-0.22642981,0.498983,0.47523064,-0.18084879,0.498379,0.47418947,-0.15712177,0.49807,0.4717828,-0.13670852,0.497789,0.48925971,-0.2275329,0.487083,0.5040226,-0.19423813,0.493808,0.51004767,-0.17727728,0.496898,0.5153999,-0.16208762,0.499625
0.45831314,-0.31978354,0.487564,0.46600205,-0.28857967,0.495162,0.44313172,-0.31185669,0.495952,0.41796486,-0.3004559,0.500306,0.39018644,-0.28257021,0.500007,0.37785727,-0.26726192,0.502104,0.45114601,-0.24656871,0.512275,0.44296521,-0.20664486,0.513998,0.43873211,-0.18624553,0.514859,0.43461746,-0.17308118,0.515642,0.47012947,-0.24157155,0.505145,0.46538234,-0.19679899,0.506256,0.46209922,-0.17028109,0.506905,0.45971943,-0.15110359,0.507368,0.48555014,-0.2399925,0.498733,0.49831456,-0.20300862,0.512871,0.50484042,-0.18389646,0.520104,0.51077113,-0.16641505,0.52668,0.50375249,-0.24312955,0.489961,0.50971299,-0.20345682,0.48952,0.51249738,-0.18494462,0.489317,0.51330557,-0.17135881,0.489138
0.45522569,-0.3320819,0.485056,0.4621095,-0.30425139,0.493833,0.44144811,-0.32216079,0.493197,0.41199999,-0.3066762,0.497473,0.38961879,-0.2841853,0.499281,0.37733612,-0.26666279,0.499106,0.45886627,-0.25889308,0.511728,0.45500246,-0.21981298,0.515562,0.45164327,-0.20349868,0.517479,0.44833983,-0.18782256,0.519221,0.47809443,-0.25801895,0.505364,0.47912109,-0.2140478,0.508221,0.47932664,-0.18808856,0.509887,0.47903287,-0.16916092,0.511078,0.49326829,-0.25984234,0.499497,0.49686847,-0.21549016,0.501875,0.49775691,-0.19254645,0.503091,0.4985578,-0.17114133,0.504197,0.51009656,-0.26713325,0.491212,0.53104278,-0.23951994,0.504713,0.54195868,-0.22750194,0.512159,0.55159207,-0.21689491,0.51873
0.47717154,-0.35676737,0.48967,0.48333997,-0.31765683,0.49526,0.46360814,-0.3457801,0.497729,0.43584277,-0.32380734,0.500851,0.41014743,-0.30291297,0.500095,0.3973479,-0.28421881,0.498551,0.47298748,-0.27013658,0.510121,0.46311949,-0.23050742,0.511572,0.45753059,-0.21149799,0.512298,0.45229593,-0.19374269,0.512957,0.49140118,-0.26753217,0.502582,0.48592957,-0.22156721,0.502227,0.48218688,-0.19475963,0.502021,0.47882396,-0.17683031,0.501873,0.50623777,-0.26813692,0.495976,0.50713438,-0.22579969,0.499065,0.50638225,-0.20414491,0.500645,0.50562679,-0.18377242,0.502082,0.52340206,-0.2743443,0.487259,0.52506055,-0.23366592,0.485534,0.52582858,-0.21491519,0.484742,0.52596977,-0.1990137,0.484043
0.48103827,-0.35581553,0.48584,0.49345543,-0.32195811,0.495564,0.46491822,-0.34497792,0.492312,0.44381934,-0.33276536,0.499135,0.42007104,-0.31753842,0.503628,0.40702891,-0.30029458,0.503515,0.47762425,-0.27966212,0.512279,0.47408953,-0.24012431,0.515361,0.47236024,-0.22189663,0.516902,0.47067138,-0.20462255,0.518303,0.49979016,-0.27677271,0.508295,0.51174316,-0.24111677,0.524645,0.51869784,-0.2201294,0.534182,0.52365793,-0.20505803,0.540994,0.51784547,-0.27685118,0.504316,0.52234632,-0.23327251,0.506335,0.5246069,-0.21088869,0.507368,0.52668482,-0.19004031,0.508307,0.53913726,-0.28186647,0.498158,0.5614659,-0.25433936,0.511607,0.57262718,-0.24217499,0.518622,0.5824735,-0.23144649,0.524811
0.4982148,-0.36643319,0.492373,0.50318001,-0.33059339,0.497013,0.47976042,-0.3549465,0.497309,0.45423043,-0.33619649,0.498387,0.43101208,-0.31924309,0.502263,0.41874138,-0.30206805,0.502711,0.4839688,-0.28071045,0.507227,0.48344756,-0.24399273,0.513643,0.48321505,-0.22522835,0.516851,0.48300413,-0.20804442,0.519767,0.50606139,-0.27920766,0.503088,0.49738843,-0.23245086,0.50087,0.49264039,-0.20544887,0.499575,0.49002736,-0.18844161,0.498651,0.52418515,-0.28080289,0.499349,0.51763453,-0.23417942,0.496966,0.51540448,-0.21223749,0.495747,0.51334555,-0.19158333,0.494639,0.54577842,-0.2883404,0.494204,0.5506,-0.24859392,0.493417,0.5527992,-0.23044005,0.493055,0.55573885,-0.21804339,0.492736
0.50339463,-0.374008,0.490629,0.50897673,-0.34013831,0.496267,0.48753446,-0.36426537,0.497953,0.45968479,-0.35049615,0.500621,0.42972894,-0.3303867,0.498084,0.4187995,-0.3167436,0.502203,0.49176782,-0.29654387,0.510282,0.48582081,-0.25701012,0.509683,0.48276378,-0.23663738,0.509383,0.47908416,-0.22174267,0.509111,0.51092641,-0.29177315,0.503649,0.50641067,-0.24590352,0.502337,0.50366267,-0.21880874,0.501571,0.50168236,-0.19921726,0.501024,0.52675443,-0.29044246,0.497786,0.55309927,-0.26320663,0.521181,0.56658299,-0.2491295,0.53315,0.57884399,-0.23625505,0.544031,0.54595206,-0.29406477,0.489952,0.55392258,-0.25426511,0.487766,0.5568919,-0.23629681,0.486762,0.55523496,-0.2308527,0.485876
0.49410433,-0.39873309,0.493322,0.50736817,-0.36102012,0.499857,0.48325497,-0.38530354,0.501436,0.46014504,-0.36146741,0.505277,0.43193196,-0.33321882,0.499505,0.42019595,-0.31594427,0.500055,0.50647775,-0.31191114,0.515647,0.50375747,-0.27217788,0.517603,0.50234701,-0.25186776,0.518581,0.50103498,-0.23314204,0.51947,0.52459944,-0.31250522,0.508413,0.5265885,-0.26683568,0.509017,0.52673701,-0.24040083,0.509369,0.52684025,-0.22122629,0.50962,0.53882787,-0.31571784,0.501991,0.54404473,-0.27044469,0.502051,0.54549602,-0.24794473,0.502082,0.54607986,-0.22871884,0.502111,0.5544066,-0.32502091,0.493359,0.57098126,-0.29179108,0.497634,0.57839194,-0.27549163,0.499599,0.58400182,-0.26148158,0.501332
0.53021968,-0.40994558,0.492258,0.52939019,-0.37088214,0.498411,0.51410537,-0.40219371,0.500439,0.48477591,-0.37910366,0.502524,0.46043374,-0.3594449,0.504226,0.45261876,-0.34626258,0.510286,0.5096568,-0.32651389,0.513939,0.50516029,-0.28416262,0.512666,0.50382945,-0.26603711,0.512029,0.50259653,-0.24897539,0.51145,0.52848826,-0.32082791,0.506467,0.52406451,-0.27365511,0.504732,0.5227066,-0.24802599,0.50372,0.52198431,-0.23002833,0.502997,0.54381484,-0.31888875,0.499873,0.54784439,-0.27407306,0.500241,0.55121193,-0.25272353,0.500429,0.5543739,-0.23263352,0.5006,0.56208893,-0.3219018,0.491089,0.56983263,-0.28406836,0.488649,0.57353228,-0.26619841,0.487528,0.5771725,-0.25211377,0.486539
0.52958575,-0.41699072,0.497731,0.53378249,-0.37840319,0.504572,0.51133272,-0.40446775,0.502457,0.48091251,-0.37800482,0.500077,0.45887934,-0.35904119,0.503534,0.4503225,-0.34379695,0.507533,0.5196164,-0.33064606,0.516547,0.51830556,-0.29171101,0.516468,0.5176292,-0.27156641,0.516429,0.51700178,-0.2528434,0.516394,0.54275646,-0.33207425,0.513529,0.54350566,-0.28576245,0.513095,0.54621197,-0.25973014,0.514979,0.54815012,-0.24095464,0.516325,0.56151958,-0.33602309,0.51055,0.56934711,-0.29213043,0.512787,0.57358122,-0.26960333,0.513931,0.57763496,-0.24950333,0.514972,0.58328086,-0.34632014,0.506001,0.60154718,-0.3119831,0.507127,0.60979325,-0.29650877,0.507644,0.61678023,-0.2858356,0.5081
0.53091543,-0.42977386,0.50075,0.54353264,-0.39824788,0.506639,0.52148078,-0.42479836,0.508049,0.49600407,-0.40140161,0.51012,0.46605286,-0.37555503,0.505054,0.4536755,-0.35550698,0.502014,0.53439651,-0.34857729,0.520858,0.53340397,-0.30691646,0.520949,0.53291154,-0.28621601,0.520995,0.53238184,-0.27235528,0.521036,0.55399916,-0.34808277,0.514348,0.55611373,-0.30154948,0.513598,0.55737442,-0.27799855,0.513161,0.55832053,-0.26071471,0.512849,0.56966124,-0.35044232,0.508565,0.57379163,-0.30477794,0.507089,0.57604245,-0.2819425,0.506333,0.57814968,-0.26074602,0.505646,0.58754022,-0.35878473,0.500791,0.60100212,-0.32431906,0.503844,0.60810669,-0.30884241,0.505246,0.61370835,-0.29952439,0.506484
0.53819659,-0.44038049,0.500794,0.54438758,-0.40031737,0.506072,0.52358187,-0.4278936,0.50797,0.49985777,-0.40527136,0.50856,0.47385221,-0.38155078,0.507511,0.46840575,-0.36894398,0.51468,0.53286686,-0.35366662,0.519583,0.53487402,-0.31101463,0.517444,0.53406837,-0.29652988,0.516375,0.53334929,-0.28273513,0.515403,0.55247293,-0.34948455,0.512981,0.55327072,-0.30218272,0.510748,0.55337834,-0.2829333,0.509446,0.55316096,-0.26850112,0.508516,0.56818707,-0.35128402,0.507167,0.57654984,-0.30902772,0.506891,0.58019279,-0.29011212,0.50675,0.5836653,-0.27212152,0.506622,0.58641606,-0.35902044,0.499443,0.59719277,-0.32150052,0.496741,0.60202664,-0.30345672,0.4955,0.60257355,-0.29039733,0.494405
0.55309838,-0.45695518,0.510001,0.55838445,-0.42017229,0.512234,0.53850979,-0.44832553,0.514978,0.512423,-0.42016338,0.512199,0.48370811,-0.39103926,0.50407,0.47386435,-0.37154479,0.50363,0.54128779,-0.36603974,0.520301,0.54079258,-0.32406844,0.51606,0.54055158,-0.30415219,0.51394,0.54037511,-0.28564914,0.512013,0.56235487,-0.36601044,0.515157,0.56826052,-0.32067671,0.515899,0.57248364,-0.2966811,0.516332,0.57559259,-0.27894054,0.516641,0.57960032,-0.36897947,0.510763,0.59219347,-0.32694954,0.514781,0.59955358,-0.30586203,0.516837,0.60634957,-0.2862202,0.518706,0.60010157,-0.37850054,0.505176,0.61347234,-0.34004426,0.500149,0.61817352,-0.33141251,0.497839,0.61441744,-0.33772868,0.495801
0.56116903,-0.46836832,0.509501,0.57172511,-0.43326692,0.514148,0.54349443,-0.45372465,0.514072,0.51825468,-0.43263763,0.512604,0.49088034,-0.40802427,0.509181,0.4820017,-0.39266301,0.513327,0.55450252,-0.38064268,0.523929,0.56430187,-0.34774748,0.533021,0.57051765,-0.33662908,0.537567,0.57625152,-0.32568881,0.5417,0.57710325,-0.38129675,0.520231,0.57895445,-0.33429315,0.51775,0.58087368,-0.31056928,0.516303,0.58249815,-0.29558554,0.515269,0.59563357,-0.3846935,0.516852,0.59965415,-0.33755278,0.513832,0.60279713,-0.31838067,0.512287,0.60584393,-0.30025309,0.510882,0.61772341,-0.39451375,0.512136,0.62936013,-0.35788551,0.510022,0.63598514,-0.34440009,0.50905,0.63667821,-0.34603175,0.508193
0.57103274,-0.4766994,0.515129,0.58118704,-0.43999626,0.517942,0.55542291,-0.46414353,0.517309,0.52588133,-0.4333985,0.511741,0.49929789,-0.40599786,0.506171,0.48926864,-0.38811439,0.507899,0.56034263,-0.38420734,0.523153,0.56161683,-0.34976952,0.519059,0.56239891,-0.33295099,0.517012,0.56320925,-0.31789742,0.515151,0.58486053,-0.38719292,0.521625,0.58598957,-0.34344785,0.516884,0.58677421,-0.31714783,0.514119,0.58739357,-0.29798675,0.512143,0.60521912,-0.39256303,0.520164,0.64388189,-0.37046459,0.544452,0.66370592,-0.35898918,0.556878,0.68175203,-0.34846553,0.568175,0.6299607,-0.40492237,0.51801,0.64889352,-0.36987947,0.515332,0.6551609,-0.36119434,0.514102,0.65129375,-0.36722974,0.513016
0.56107676,-0.49938727,0.519187,0.5768208,-0.45957082,0.522051,0.54599476,-0.4770645,0.520832,0.52854239,-0.45479305,0.513878,0.49956089,-0.42002027,0.50577,0.50024752,-0.40646451,0.514644,0.5727947,-0.39939687,0.52666,0.57386207,-0.36277787,0.522468,0.57451184,-0.34377843,0.520372,0.57517389,-0.32607848,0.518466,0.59692888,-0.40914155,0.525801,0.60213202,-0.36126197,0.520997,0.60560492,-0.33445484,0.518194,0.60835718,-0.31985462,0.516192,0.61618438,-0.42014987,0.524886,0.6194204,-0.37170833,0.520225,0.62248197,-0.35144084,0.517839,0.62560847,-0.33468841,0.515671,0.63778661,-0.43933789,0.52338,0.64173606,-0.39874904,0.519304,0.64486503,-0.39241942,0.517431,0.64221676,-0.40211776,0.515778
0.60603904,-0.50486125,0.513438,0.60527502,-0.46274542,0.517949,0.58441718,-0.49034706,0.516248,0.54914079,-0.46362228,0.513363,0.52249213,-0.44212612,0.511166,0.50982572,-0.42300443,0.508703,0.57965129,-0.40978314,0.525465,0.58228737,-0.36904815,0.522694,0.58365378,-0.34835716,0.521309,0.58494163,-0.32939821,0.520049,0.60456422,-0.4099387,0.52384,0.60283739,-0.36235706,0.520961,0.60547833,-0.34240381,0.519282,0.60700576,-0.32689171,0.518082,0.62536373,-0.41298313,0.522174,0.62533041,-0.36820015,0.520718,0.63030536,-0.36241536,0.519973,0.63513326,-0.35856887,0.519296,0.65086243,-0.42249377,0.51953,0.65890631,-0.38311789,0.51811,0.66563284,-0.37058792,0.517457,0.67182835,-0.35911752,0.516881
0.59450479,-0.49786407,0.507388,0.60086484,-0.45974194,0.51456,0.57732932,-0.48460725,0.512445,0.54697517,-0.46173525,0.512443,0.52073616,-0.44103819,0.510114,0.50830186,-0.42256148,0.506597,0.59078449,-0.40891393,0.527223,0.58782346,-0.36741807,0.527765,0.59078053,-0.35555533,0.528035,0.59302563,-0.35047111,0.528281,0.61374507,-0.41129096,0.523925,0.6168241,-0.36927624,0.524311,0.61934964,-0.34516164,0.524536,0.61926224,-0.32860633,0.525574,0.63205208,-0.41599459,0.520688,0.63793634,-0.37447384,0.527871,0.65273194,-0.36601447,0.531546,0.66312765,-0.35730346,0.534961,0.652732,-0.42706925,0.515782,0.66122993,-0.38626405,0.518074,0.6696683,-0.37433829,0.519128,0.67738194,-0.36333242,0.520057
0.60381711,-0.51082877,0.519384,0.60600768,-0.46902986,0.521884,0.58444422,-0.49401943,0.521928,0.55242851,-0.46783662,0.518815,0.52358793,-0.44365122,0.513574,0.51089321,-0.42449166,0.510824,0.59059132,-0.41116299,0.527244,0.58477795,-0.36711083,0.523288,0.58557727,-0.35605515,0.521309,0.5865544,-0.34605691,0.519511,0.61411932,-0.41858797,0.525148,0.61581353,-0.37153746,0.520175,0.61743336,-0.34465443,0.517273,0.61891871,-0.32563653,0.515201,0.63323702,-0.42586423,0.523241,0.64484426,-0.38249458,0.525757,0.6527374,-0.36149196,0.527045,0.6600232,-0.34201121,0.528215,0.65524687,-0.44055711,0.520598,0.66006371,-0.39852586,0.516329,0.66506845,-0.3842841,0.514368,0.66997378,-0.37292753,0.512637
0.60338441,-0.51254713,0.521701,0.60709418,-0.46920208,0.523142,0.58420376,-0.49501482,0.523883,0.55303225,-0.46903443,0.520284,0.52389084,-0.44433449,0.515064,0.51239409,-0.42590852,0.51557,0.5899054,-0.41068904,0.527101,0.58322113,-0.36685921,0.52215,0.58359773,-0.35279259,0.519675,0.58485742,-0.34408169,0.517424,0.61384626,-0.4152975,0.525025,0.61244964,-0.36788715,0.518901,0.61401675,-0.34284422,0.515329,0.61558194,-0.32560085,0.512777,0.63240836,-0.42423222,0.523212,0.63726654,-0.37750154,0.52085,0.6431966,-0.35759216,0.519641,0.64945833,-0.35583117,0.518542,0.65458228,-0.43913087,0.520833,0.65844499,-0.39695931,0.515408,0.66273465,-0.38268828,0.512915,0.66702347,-0.37153665,0.510716
0.60281769,-0.51331595,0.522824,0.60688176,-0.46977668,0.523811,0.58387723,-0.49545733,0.524892,0.55338046,-0.46974333,0.521155,0.5239328,-0.44462641,0.515822,0.51283539,-0.42662128,0.517078,0.5897711,-0.41059734,0.527216,0.58306729,-0.36650552,0.521842,0.58331362,-0.35269418,0.519155,0.58438442,-0.34331552,0.516713,0.6136052,-0.41534278,0.5251,0.61135731,-0.36669485,0.518494,0.61283123,-0.34221455,0.51464,0.61437121,-0.3255371,0.511887,0.63223568,-0.42375772,0.523288,0.63661916,-0.37695299,0.520742,0.64282377,-0.3578477,0.51944,0.64910013,-0.35563492,0.518256,0.65443952,-0.4387084,0.520974,0.65788311,-0.39642283,0.515084,0.66188677,-0.38211556,0.512377,0.66592619,-0.37100997,0.509989
0.60198298,-0.51340466,0.523298,0.6065941,-0.4700322,0.524254,0.58336049,-0.49546592,0.52541,0.55343392,-0.47003285,0.521674,0.52344151,-0.44433566,0.515648,0.51226305,-0.42634233,0.515739,0.58998347,-0.41075179,0.527684,0.58357679,-0.3666747,0.522298,0.58387486,-0.35304248,0.519605,0.58487858,-0.34314548,0.517157,0.61370422,-0.41554586,0.525502,0.6112804,-0.36642207,0.518874,0.61285764,-0.34230151,0.515008,0.61449287,-0.3259579,0.512246,0.63228799,-0.42362956,0.523637,0.63728598,-0.37730833,0.521693,0.64406787,-0.35882853,0.520698,0.65066782,-0.35657612,0.519793,0.65438308,-0.43852345,0.521265,0.65785528,-0.39634727,0.515333,0.66182524,-0.38208845,0.512608,0.665836,-0.37106045,0.510203
0.60235621,-0.51390921,0.522441,0.60997056,-0.476947,0.525115,0.58478983,-0.49721564,0.52572,0.56294645,-0.47931703,0.526139,0.53789914,-0.45524348,0.522823,0.53026622,-0.43936693,0.527064,0.59284379,-0.4230551,0.531523,0.59487982,-0.38077568,0.527222,0.5959243,-0.35948239,0.525071,0.59543587,-0.34976789,0.523116,0.61737519,-0.42304587,0.528608,0.6182425,-0.375249,0.523671,0.61913884,-0.34668,0.52079,0.62045553,-0.32914801,0.518733,0.63537791,-0.426279,0.526016,0.64434055,-0.38375575,0.52621,0.6504604,-0.36409058,0.52631,0.65563414,-0.3493804,0.5264,0.65675677,-0.43979287,0.522527,0.66553865,-0.39989913,0.51883,0.67137361,-0.38059417,0.517132,0.67574326,-0.3660299,0.515633
0.60122802,-0.51284262,0.520646,0.610507,-0.47670579,0.524776,0.58522797,-0.4977652,0.525426,0.5620109,-0.47697788,0.524462,0.53720186,-0.45259656,0.52081,0.52833618,-0.43516142,0.522893,0.59672496,-0.42259842,0.534321,0.59814037,-0.37970142,0.531182,0.60085763,-0.36469634,0.529613,0.60283028,-0.35378987,0.528186,0.61856553,-0.4216903,0.530161,0.61958493,-0.37688894,0.526752,0.62285851,-0.34946998,0.524763,0.62525304,-0.33211094,0.523342,0.63600044,-0.42679363,0.52644,0.64362182,-0.38172812,0.526492,0.65123907,-0.36344444,0.526519,0.65758973,-0.34480097,0.526544,0.65577094,-0.43863823,0.521389,0.66841582,-0.39873905,0.519092,0.67301229,-0.38061484,0.518037,0.67877361,-0.36806274,0.517106
0.60785556,-0.51095554,0.517965,0.6185958,-0.46459725,0.523104,0.58945859,-0.49638608,0.522162,0.56628838,-0.46638254,0.523124,0.54057794,-0.44329542,0.519379,0.52708977,-0.42725394,0.517926,0.59810933,-0.41279787,0.53285,0.59902489,-0.36992638,0.531075,0.60021981,-0.35281148,0.530188,0.59850619,-0.3366763,0.529381,0.62163164,-0.41433512,0.529791,0.62415214,-0.36616688,0.527455,0.62555636,-0.33954583,0.526093,0.62658883,-0.32027854,0.52512,0.64199504,-0.4160583,0.526902,0.64926637,-0.37158588,0.528503,0.65513749,-0.35085476,0.529322,0.66059,-0.33150071,0.530066,0.66516101,-0.42575356,0.522705,0.67108783,-0.38573535,0.521262,0.67680086,-0.37184277,0.5206,0.68203144,-0.35919448,0.520015
0.60785299,-0.50302767,0.516863,0.61351055,-0.45443956,0.523393,0.59016301,-0.48908357,0.521515,0.5594126,-0.45242849,0.5213,0.53679445,-0.42907929,0.518409,0.52626109,-0.41117192,0.519826,0.60094573,-0.40278505,0.534939,0.59949772,-0.36090536,0.534329,0.6052779,-0.34725456,0.534024,0.60897947,-0.33893703,0.533746,0.62334608,-0.4046124,0.531869,0.62527253,-0.35751538,0.530968,0.63164063,-0.33433883,0.530443,0.63442898,-0.32024844,0.530068,0.64113707,-0.40886486,0.528869,0.647693,-0.36283018,0.527261,0.65415641,-0.34140632,0.526439,0.66018356,-0.32150494,0.525691,0.66132662,-0.41937057,0.524341,0.67716003,-0.38321123,0.524283,0.68453492,-0.36637269,0.524257,0.69163639,-0.35174746,0.524233
0.60165442,-0.49273376,0.520464,0.61223126,-0.45357356,0.52577,0.58655755,-0.4766876,0.524859,0.55502941,-0.4417971,0.523527,0.53233815,-0.41470835,0.515036,0.52164051,-0.39270434,0.510723,0.60536172,-0.3957943,0.535884,0.60599576,-0.35326207,0.53475,0.60985293,-0.33934742,0.534183,0.61356048,-0.32609059,0.533667,0.62585692,-0.40351652,0.532642,0.63392772,-0.35574829,0.530945,0.6380328,-0.32886762,0.529956,0.64099707,-0.30950428,0.529249,0.64335146,-0.40950377,0.529589,0.65013925,-0.36385677,0.528973,0.65615318,-0.34209517,0.528657,0.66228616,-0.32260881,0.528371,0.6646867,-0.42403806,0.525172,0.67504675,-0.38530259,0.5236,0.68137673,-0.36663563,0.522878,0.68682943,-0.35124917,0.522241
0.60303204,-0.49056096,0.522401,0.61258566,-0.44362713,0.527096,0.5873816,-0.47391176,0.526275,0.56140275,-0.43507913,0.522879,0.54016149,-0.40803725,0.51803,0.53084461,-0.3861922,0.513505,0.60406175,-0.38890309,0.536022,0.60761298,-0.34746508,0.533925,0.60960876,-0.32675012,0.532877,0.61181465,-0.30832204,0.531924,0.62710417,-0.39346323,0.533169,0.6361357,-0.34895833,0.535272,0.64142244,-0.32296675,0.536499,0.64635848,-0.30489531,0.537376,0.64542191,-0.400078,0.530481,0.65966547,-0.35908285,0.537025,0.66695598,-0.33809468,0.540374,0.6735842,-0.31900586,0.543418,0.66600668,-0.41367062,0.526589,0.67665869,-0.37442387,0.52467,0.68151591,-0.35649674,0.523788,0.68716514,-0.34160217,0.523009
0.61585869,-0.466163,0.529841,0.62617745,-0.42596403,0.533137,0.60116605,-0.44960387,0.534542,0.57582043,-0.42193623,0.533004,0.54762961,-0.39341808,0.51911,0.53517943,-0.37162645,0.514652,0.61775355,-0.37093725,0.541803,0.61750112,-0.32958211,0.539177,0.61739896,-0.30855811,0.537864,0.61732109,-0.28923874,0.536671,0.63942161,-0.3746054,0.537395,0.64435029,-0.32969079,0.539254,0.64833332,-0.30407606,0.540339,0.65166359,-0.28647748,0.541113,0.65676599,-0.38058056,0.53353,0.6626657,-0.33498926,0.533496,0.66566395,-0.3118127,0.533478,0.66972963,-0.29203743,0.533462,0.67644627,-0.39360929,0.528427,0.68804582,-0.3577859,0.531976,0.69331365,-0.34165789,0.533606,0.70038038,-0.33154797,0.535045
0.61488958,-0.46324816,0.528232,0.62500769,-0.42340114,0.532212,0.59975127,-0.44698473,0.532876,0.5762671,-0.41919573,0.530562,0.54983267,-0.38678502,0.519849,0.53808316,-0.36963487,0.517734,0.61589351,-0.36908887,0.541424,0.61728652,-0.32761904,0.539087,0.61814461,-0.30708824,0.537919,0.61899678,-0.28841123,0.536856,0.6380029,-0.37251833,0.537353,0.64174816,-0.32725562,0.538383,0.64558102,-0.30238343,0.538984,0.64883828,-0.28589016,0.539414,0.65573211,-0.37826705,0.533715,0.65997845,-0.33166136,0.531865,0.6625368,-0.30824139,0.530919,0.66608929,-0.28901254,0.530058,0.67492531,-0.38806959,0.528787,0.68808678,-0.35543887,0.532521,0.69361712,-0.33943677,0.534237,0.70099377,-0.32931756,0.535751
0.613674,-0.45631487,0.525402,0.62858649,-0.40852555,0.530719,0.60034832,-0.43797693,0.530619,0.58495775,-0.40570432,0.528672,0.55868254,-0.37887422,0.526096,0.55583589,-0.36623276,0.534258,0.62038708,-0.35585934,0.541829,0.62094624,-0.31357407,0.540726,0.6223544,-0.29452932,0.540175,0.62368621,-0.27674026,0.539674,0.64242546,-0.35869201,0.537589,0.64499655,-0.31450868,0.539565,0.64894392,-0.28955952,0.540717,0.65278764,-0.27400546,0.541541,0.65998818,-0.36387482,0.533714,0.66544422,-0.31791162,0.532912,0.66821433,-0.29454916,0.532502,0.67205096,-0.27389197,0.532129,0.6797907,-0.37573872,0.528311,0.69330335,-0.34056401,0.531481,0.69943318,-0.32471188,0.532937,0.70764035,-0.31442085,0.534222
0.61974697,-0.43652065,0.521307,0.63680084,-0.39120173,0.52835,0.61162507,-0.41523587,0.527256,0.58742063,-0.3906674,0.528328,0.55909768,-0.36551454,0.524273,0.54714611,-0.34460271,0.519092,0.6281487,-0.34106579,0.5419,0.62717892,-0.29987207,0.542891,0.6277392,-0.27972107,0.543387,0.62824842,-0.26111731,0.543838,0.65006003,-0.34266841,0.537448,0.65270681,-0.30012709,0.541507,0.65774716,-0.27563549,0.543875,0.66139445,-0.25757986,0.545566,0.66747526,-0.34673824,0.533274,0.66934098,-0.30104491,0.533568,0.6702945,-0.27772139,0.533719,0.67321278,-0.25740564,0.533856,0.68707835,-0.35705955,0.527266,0.6971738,-0.32052989,0.529989,0.70176626,-0.30401459,0.53124,0.70941504,-0.29377685,0.532344
0.63501562,-0.42393616,0.521866,0.64728168,-0.38072859,0.529971,0.61794345,-0.41067835,0.526849,0.59447572,-0.37989416,0.525271,0.56737157,-0.35353413,0.518265,0.55580911,-0.33428669,0.517125,0.62976144,-0.33340448,0.543298,0.63060685,-0.29229496,0.544312,0.63406264,-0.27330312,0.544819,0.63357875,-0.25867008,0.54528,0.65307631,-0.33294569,0.540436,0.65581891,-0.28893916,0.543029,0.66131295,-0.26350693,0.544541,0.66530237,-0.24487464,0.545621,0.67196479,-0.33523311,0.537495,0.6746327,-0.29222088,0.538835,0.68176057,-0.27175102,0.539521,0.68849313,-0.25245481,0.540145,0.69406128,-0.3432389,0.532815,0.70528586,-0.30612062,0.534311,0.71316245,-0.28953491,0.534998,0.72023151,-0.27460907,0.535604
0.63528353,-0.4106585,0.518477,0.64027127,-0.36854826,0.52678,0.61571747,-0.39626548,0.521501,0.58412514,-0.36046653,0.519738,0.56271179,-0.33260484,0.514606,0.55477753,-0.30996591,0.507911,0.62556044,-0.31816004,0.537907,0.62939678,-0.27723079,0.538877,0.63133173,-0.25650961,0.539362,0.63385604,-0.2376423,0.539803,0.65120785,-0.32184581,0.537495,0.65340321,-0.27660055,0.538611,0.65821414,-0.2504794,0.539262,0.6633632,-0.2324919,0.539727,0.67187023,-0.32750405,0.536554,0.67917194,-0.28293798,0.537656,0.6853632,-0.26119337,0.540167,0.69100203,-0.24134902,0.54245,0.69582728,-0.34184226,0.534243,0.70005959,-0.30555589,0.536513,0.71286681,-0.29094216,0.537556,0.71770197,-0.294202,0.538477
0.63885173,-0.39995462,0.521628,0.64962634,-0.353541,0.528058,0.62352212,-0.37654402,0.524228,0.59546177,-0.34669592,0.519767,0.57004954,-0.31896739,0.512214,0.55997761,-0.29964371,0.511715,0.63434287,-0.3011148,0.536987,0.63378168,-0.25895681,0.536144,0.63350212,-0.23783759,0.535723,0.6334714,-0.21858328,0.53534,0.65950181,-0.30446933,0.536355,0.65941903,-0.25770507,0.535427,0.66126138,-0.23048123,0.534885,0.66260787,-0.21070973,0.534498,0.67973073,-0.30998896,0.535369,0.68904856,-0.26827595,0.540858,0.6957028,-0.24645139,0.543666,0.70177834,-0.22641537,0.546219,0.70302686,-0.32206318,0.533272,0.70683373,-0.2859357,0.533806,0.71673763,-0.2728178,0.534051,0.72154018,-0.27465886,0.534268
0.64286935,-0.3849322,0.522231,0.65143567,-0.34012028,0.529338,0.62737585,-0.37188112,0.52801,0.60668687,-0.34047806,0.528097,0.5733098,-0.31386985,0.520761,0.56028884,-0.2958261,0.510819,0.63991103,-0.29328172,0.542729,0.6421664,-0.25267016,0.543072,0.64331449,-0.231929,0.543244,0.64442064,-0.21301334,0.5434,0.66230312,-0.29330486,0.538509,0.66494728,-0.24793615,0.538821,0.66652548,-0.22075122,0.539003,0.66766943,-0.2009979,0.539133,0.68051976,-0.29597196,0.534523,0.69414277,-0.25701591,0.543217,0.70171073,-0.2359124,0.547665,0.70860993,-0.21647972,0.551708,0.70177374,-0.30450514,0.528733,0.71762146,-0.27360071,0.535826,0.72484894,-0.25969492,0.539085,0.73298658,-0.24719244,0.54196
0.64197489,-0.37156004,0.520399,0.65358498,-0.3312955,0.530079,0.62661183,-0.35952631,0.526954,0.6157375,-0.3291566,0.527525,0.58520489,-0.302044,0.521779,0.58216792,-0.29064856,0.530886,0.64439989,-0.28567948,0.546721,0.65287122,-0.24523336,0.548819,0.65716936,-0.22468675,0.549868,0.66110569,-0.20581224,0.550822,0.66703031,-0.2854007,0.54257,0.67651116,-0.24358074,0.547645,0.68323758,-0.21783483,0.550605,0.68827099,-0.1990525,0.552719,0.68517352,-0.28777754,0.538454,0.69602973,-0.2473136,0.544931,0.7024807,-0.22559606,0.548245,0.70836334,-0.20566735,0.551258,0.70581024,-0.29582643,0.532141,0.71919914,-0.26282304,0.537143,0.72529375,-0.24795946,0.539441,0.73341886,-0.23550963,0.541469
0.64479011,-0.36182429,0.522108,0.65546656,-0.31922727,0.531131,0.62842242,-0.34896136,0.527657,0.61594433,-0.31357211,0.526801,0.58547419,-0.28188989,0.516104,0.57892751,-0.26549457,0.520102,0.64626775,-0.27169494,0.545963,0.65487612,-0.23193743,0.547538,0.66038807,-0.21216332,0.548325,0.6655335,-0.19359792,0.549041,0.66987964,-0.27290446,0.542773,0.67526036,-0.23076418,0.544568,0.68181702,-0.20533654,0.545614,0.68664363,-0.18647487,0.546362,0.688785,-0.27653774,0.539496,0.699529,-0.23902039,0.54484,0.70853218,-0.21719751,0.547574,0.71236422,-0.20221093,0.550059,0.71024211,-0.2861534,0.534283,0.71986936,-0.2507264,0.5364,0.72440108,-0.23459081,0.537372,0.73157578,-0.2215882,0.53823
0.64729478,-0.35252962,0.524155,0.65652745,-0.31054635,0.531205,0.63112418,-0.33922191,0.529492,0.61401477,-0.30544498,0.528001,0.58563002,-0.27367071,0.516064,0.57748536,-0.25509916,0.517371,0.64512224,-0.26098638,0.544007,0.65285172,-0.21989752,0.543213,0.65815794,-0.19918343,0.542816,0.66310028,-0.1799312,0.542455,0.66783456,-0.26197434,0.540302,0.67246477,-0.21852071,0.540741,0.67922213,-0.19225206,0.540997,0.68419533,-0.17288932,0.54118,0.68600216,-0.26552947,0.536743,0.69420824,-0.22655626,0.540414,0.7025312,-0.20432068,0.542293,0.71235829,-0.18611236,0.544,0.70668874,-0.27521384,0.531473,0.71914567,-0.23712667,0.531565,0.7250949,-0.21952516,0.531608,0.73035557,-0.20395612,0.531645
0.66787759,-0.33440495,0.512205,0.67026963,-0.29876728,0.521896,0.64667913,-0.32289819,0.515339,0.61831538,-0.29725021,0.515827,0.59587593,-0.27277518,0.514003,0.58644484,-0.25254641,0.512397,0.64734936,-0.25390708,0.534403,0.65449531,-0.21298974,0.536859,0.65524171,-0.19479443,0.538086,0.66036688,-0.17584696,0.539203,0.67354443,-0.2535564,0.5344,0.67520993,-0.20911707,0.53712,0.67766011,-0.18262287,0.538706,0.68135604,-0.16324743,0.539839,0.69504376,-0.25579101,0.533696,0.70829564,-0.21561574,0.541017,0.71506927,-0.19514101,0.544763,0.72422814,-0.17492047,0.548168,0.72068062,-0.26348449,0.531471,0.7311319,-0.23199542,0.536503,0.74054431,-0.21541402,0.538815,0.75203115,-0.20231686,0.540856
0.67317732,-0.32785223,0.516611,0.67499258,-0.28241063,0.525307,0.65093338,-0.30660994,0.519571,0.62069541,-0.27831516,0.516592,0.5979632,-0.25423935,0.515036,0.58842983,-0.23441872,0.513928,0.65154991,-0.23745741,0.536709,0.65858653,-0.19622102,0.538132,0.66218131,-0.17500425,0.538844,0.66549436,-0.1553586,0.539491,0.67816303,-0.23706746,0.536527,0.68630932,-0.19643067,0.545122,0.69263843,-0.17134466,0.550136,0.69715883,-0.15318449,0.553717,0.7001515,-0.23927204,0.535748,0.71216818,-0.20353615,0.543425,0.72313379,-0.18167238,0.547353,0.73428186,-0.16119704,0.550924,0.72660174,-0.24698165,0.533576,0.7340505,-0.21541799,0.538016,0.74156606,-0.19826278,0.540056,0.75066322,-0.18385316,0.541856
0.66739564,-0.31491068,0.513087,0.67335803,-0.28030364,0.523913,0.64790164,-0.30347252,0.517425,0.62564059,-0.27164386,0.515409,0.59825934,-0.24410916,0.509025,0.58928935,-0.23155866,0.513551,0.65563492,-0.23645303,0.538897,0.66799292,-0.19407609,0.542282,0.67351601,-0.17350644,0.543974,0.67857178,-0.15459159,0.545512,0.68118575,-0.23633727,0.537881,0.68646782,-0.19412552,0.543805,0.69169528,-0.16819121,0.54726,0.69543817,-0.14939338,0.549728,0.70194814,-0.23870403,0.536261,0.71043534,-0.20112685,0.54214,0.719904,-0.17887629,0.545147,0.73015196,-0.15841751,0.547882,0.72625971,-0.24644625,0.532778,0.73448619,-0.21508736,0.537758,0.74359525,-0.19832713,0.540046,0.7539438,-0.18632303,0.542065
0.67264406,-0.31092836,0.515395,0.68343546,-0.26497492,0.525466,0.65805417,-0.28746447,0.519268,0.62836929,-0.26279789,0.518014,0.59771022,-0.2353476,0.50694,0.58707946,-0.2226609,0.509135,0.66648506,-0.21896715,0.539209,0.67247171,-0.18482882,0.546649,0.67902833,-0.16517242,0.550368,0.68964316,-0.14840964,0.55375,0.69169853,-0.22033603,0.53846,0.69204586,-0.18173544,0.544256,0.7001576,-0.15548696,0.547637,0.7085886,-0.13686782,0.550052,0.71204761,-0.22395653,0.537115,0.70762152,-0.18296933,0.540188,0.71642088,-0.16181404,0.54176,0.72704343,-0.14388511,0.54319,0.73567121,-0.23323414,0.534068,0.75171202,-0.20492225,0.543583,0.76313367,-0.18926307,0.547955,0.77327647,-0.17523869,0.551813
0.67609358,-0.29621381,0.515362,0.68361705,-0.26137093,0.525868,0.65656531,-0.28318615,0.518889,0.62384027,-0.25156861,0.516211,0.60563157,-0.22444408,0.511735,0.59612867,-0.20518043,0.511485,0.66746402,-0.21164281,0.539583,0.67038528,-0.17294961,0.542848,0.67906133,-0.15555435,0.54448,0.68731417,-0.13875851,0.545964,0.69392606,-0.21349619,0.539424,0.69496869,-0.1796863,0.546254,0.70486891,-0.15529498,0.550239,0.71469832,-0.13774679,0.553085,0.71530868,-0.21750114,0.538531,0.71845145,-0.17845857,0.542027,0.72560867,-0.15546822,0.543816,0.73220742,-0.13410448,0.545441,0.74009318,-0.22724712,0.535966,0.75384745,-0.1977988,0.544321,0.76251187,-0.18239959,0.54816,0.77193862,-0.17167389,0.551547
0.68046695,-0.295829,0.519903,0.68819297,-0.25704453,0.530081,0.66111864,-0.28246591,0.523349,0.635741,-0.246951,0.520892,0.61191121,-0.22011797,0.515584,0.60039416,-0.2045713,0.515538,0.67463943,-0.20639317,0.543403,0.6785139,-0.16626634,0.546319,0.68367472,-0.14521048,0.547777,0.68845155,-0.12552684,0.549103,0.70090009,-0.20872434,0.543213,0.70167399,-0.17208757,0.548586,0.71110602,-0.14581445,0.55172,0.72185706,-0.13009253,0.553958,0.721938,-0.21324002,0.54232,0.72618185,-0.17540223,0.547964,0.73465785,-0.15258454,0.550851,0.74273549,-0.13366272,0.553477,0.74591203,-0.22379994,0.539799,0.76041975,-0.19224815,0.546942,0.76869901,-0.17666338,0.550224,0.77679164,-0.16237208,0.55312
0.67965453,-0.29343322,0.52081,0.68641815,-0.25159001,0.529913,0.65901794,-0.27598265,0.523856,0.63308715,-0.23770705,0.520292,0.61181917,-0.2094512,0.515577,0.6042792,-0.19206266,0.518056,0.67412349,-0.19873747,0.541784,0.67621557,-0.1575654,0.543515,0.67726082,-0.13689098,0.54438,0.68447177,-0.12353368,0.545167,0.69968694,-0.20529725,0.541658,0.69808718,-0.1614505,0.543655,0.70410342,-0.13426539,0.544819,0.71062299,-0.11502395,0.545651,0.72078805,-0.21041855,0.540895,0.72626425,-0.17227848,0.547095,0.73427706,-0.14965191,0.550266,0.7427402,-0.12831499,0.55315,0.74488177,-0.22177279,0.538685,0.75956085,-0.19080764,0.545783,0.76709311,-0.17616632,0.549045,0.77567267,-0.16427015,0.551923
0.67733302,-0.29134907,0.520196,0.68521101,-0.2505968,0.52973,0.65762266,-0.27435719,0.52375,0.63299224,-0.2379656,0.520892,0.61120649,-0.2094816,0.515747,0.60385132,-0.19218615,0.518411,0.67407242,-0.19922245,0.542605,0.67588346,-0.15877062,0.544853,0.67678915,-0.13854823,0.545977,0.68525841,-0.12406084,0.546998,0.69968504,-0.20461721,0.542032,0.69798774,-0.16205191,0.544551,0.70435689,-0.13493242,0.546021,0.71114326,-0.11570504,0.547071,0.72022588,-0.20977472,0.540869,0.72598616,-0.17159124,0.547233,0.73378394,-0.14905193,0.550489,0.74241293,-0.12771867,0.553449,0.74346926,-0.22112371,0.538118,0.75847789,-0.1905589,0.54548,0.7658855,-0.1763197,0.548863,0.77601736,-0.16398388,0.551847
0.67442264,-0.28706198,0.520119,0.68319759,-0.24780719,0.529626,0.65676767,-0.27293441,0.523984,0.63287697,-0.23747193,0.521514,0.60783041,-0.20783284,0.513354,0.59620023,-0.1832022,0.506043,0.67356881,-0.1985657,0.542851,0.67500406,-0.15828797,0.545146,0.67572206,-0.13818055,0.546293,0.68442409,-0.12362569,0.547335,0.69883735,-0.20205382,0.541892,0.69857744,-0.1600928,0.544412,0.70430255,-0.13288781,0.545882,0.70988208,-0.1134352,0.546932,0.71889913,-0.20751687,0.540414,0.72442437,-0.16922871,0.54663,0.73196403,-0.14664789,0.54981,0.74122495,-0.12676271,0.552701,0.74142474,-0.21919974,0.537288,0.75758819,-0.19000144,0.545306,0.76527349,-0.17606831,0.54899,0.77656307,-0.16360507,0.552241
0.6758939,-0.28684981,0.521732,0.68494236,-0.24763283,0.531012,0.65821345,-0.27248598,0.525388,0.63573205,-0.23630442,0.5222,0.61688607,-0.20487865,0.517371,0.60983173,-0.18397963,0.515981,0.67500051,-0.19775851,0.543781,0.67386282,-0.15878922,0.545815,0.67685191,-0.13830069,0.546832,0.68574243,-0.12409798,0.547757,0.70025089,-0.20137147,0.542985,0.70049266,-0.1555324,0.545243,0.70499979,-0.12809829,0.54656,0.70825388,-0.10816392,0.547501,0.72028137,-0.20696196,0.541658,0.7237479,-0.16858821,0.546985,0.73134409,-0.14583848,0.549711,0.74057836,-0.12580052,0.552188,0.74275565,-0.21883682,0.538746,0.7567434,-0.18707206,0.546491,0.76383222,-0.17340246,0.550049,0.77889142,-0.16180462,0.553189
0.67578553,-0.28620681,0.521989,0.68546486,-0.24733854,0.531437,0.65848315,-0.27184939,0.525782,0.63656084,-0.23582177,0.522798,0.61707316,-0.20495239,0.517543,0.61020837,-0.18410758,0.516319,0.67608863,-0.1973382,0.544523,0.67483329,-0.15915138,0.546747,0.67730423,-0.13878719,0.547859,0.68729728,-0.12417165,0.54887,0.70108125,-0.20095528,0.543627,0.70133747,-0.15547181,0.546085,0.70609254,-0.12802239,0.547518,0.7095271,-0.10805666,0.548542,0.72084673,-0.20655259,0.542206,0.72364401,-0.16827486,0.547425,0.73156311,-0.14547046,0.550096,0.74105672,-0.1253122,0.552524,0.7429151,-0.21843132,0.539157,0.75723398,-0.18662388,0.546976,0.76437045,-0.17285846,0.550569,0.77955194,-0.16138662,0.553739
0.67404591,-0.28492151,0.520804,0.68423847,-0.24652057,0.53043,0.656759,-0.26916066,0.525114,0.63703042,-0.23396766,0.522811,0.61831927,-0.20500512,0.518663,0.61177982,-0.18500006,0.518663,0.67594302,-0.19685077,0.544305,0.67855091,-0.15922577,0.548999,0.68311377,-0.1388102,0.551346,0.69342859,-0.12422501,0.55348,0.70007922,-0.20033792,0.542852,0.70289288,-0.15604784,0.547443,0.70944257,-0.128854,0.550121,0.71417092,-0.10898294,0.552034,0.71906729,-0.20580556,0.540959,0.72772884,-0.16935302,0.551052,0.73922349,-0.1470537,0.556216,0.75203736,-0.12705149,0.560911,0.74010643,-0.21747273,0.53732,0.75919422,-0.18817435,0.547712,0.76851466,-0.17518014,0.552487,0.78345828,-0.16199965,0.5567
0.67708492,-0.28560639,0.523181,0.68721406,-0.24722221,0.532822,0.65866152,-0.26948153,0.526584,0.63709746,-0.23508501,0.52316,0.61637934,-0.20472906,0.517616,0.60816533,-0.18768228,0.518566,0.67674679,-0.19573056,0.545609,0.67551891,-0.15900462,0.547958,0.67999145,-0.13851068,0.549132,0.68701615,-0.12163851,0.550199,0.70205321,-0.19957971,0.545262,0.70354071,-0.15674362,0.54949,0.70213904,-0.13230233,0.551956,0.71452046,-0.11000263,0.553717,0.72206711,-0.20536872,0.544278,0.7228016,-0.16598292,0.549577,0.72698244,-0.14061079,0.552288,0.7335079,-0.11902552,0.554753,0.74443285,-0.21747116,0.541725,0.75833893,-0.18603653,0.549085,0.7649469,-0.17201498,0.552467,0.7797335,-0.15957207,0.555451
0.67687307,-0.28520771,0.523225,0.68687432,-0.24699782,0.53278,0.65833424,-0.26910623,0.52646,0.635498,-0.23554303,0.522813,0.6133823,-0.20629056,0.516702,0.6066766,-0.18931953,0.519927,0.67588486,-0.19630922,0.545287,0.67420556,-0.15903838,0.547541,0.67880253,-0.13850401,0.548668,0.68748517,-0.12265175,0.549692,0.70126716,-0.19952282,0.545109,0.7030357,-0.15739512,0.550023,0.70274078,-0.1330733,0.552889,0.71470069,-0.11088638,0.554937,0.72143275,-0.2053461,0.54427,0.72097723,-0.16662449,0.549045,0.72707467,-0.14335691,0.551488,0.73883074,-0.12262244,0.553709,0.74403674,-0.21748655,0.541903,0.75821407,-0.18681845,0.549306,0.76415199,-0.17218515,0.552707,0.77899238,-0.15955221,0.555709
0.67669482,-0.28409739,0.523961,0.68719155,-0.24707475,0.533287,0.65878417,-0.26914724,0.526986,0.63541592,-0.23557136,0.523033,0.61238166,-0.20776079,0.517791,0.60578504,-0.19081703,0.521176,0.67525165,-0.19570207,0.545334,0.67279254,-0.15866533,0.547348,0.67819349,-0.1384702,0.548355,0.68626754,-0.12194551,0.54927,0.70088321,-0.19960694,0.54532,0.70208856,-0.15803917,0.550765,0.70306555,-0.13356234,0.553941,0.71495363,-0.11162593,0.55621,0.72123811,-0.20544336,0.544633,0.7188502,-0.16619348,0.550167,0.72631939,-0.14318584,0.552999,0.73403673,-0.12161229,0.555573,0.74415919,-0.21761265,0.542482,0.75514311,-0.18617435,0.550571,0.76163435,-0.17221584,0.554288,0.78047727,-0.1599369,0.557568
0.67755679,-0.28434632,0.525873,0.68594818,-0.24828183,0.534822,0.65857483,-0.26891213,0.528016,0.62918503,-0.23808977,0.522912,0.60583938,-0.20983962,0.516582,0.59985369,-0.19368886,0.522463,0.66236856,-0.19833303,0.545461,0.6572631,-0.1628299,0.547056,0.66366214,-0.14321141,0.547853,0.67160185,-0.12691935,0.548578,0.68914221,-0.20108052,0.546369,0.68271169,-0.1593041,0.548098,0.68970264,-0.13283223,0.549106,0.6966526,-0.11422883,0.549827,0.71063885,-0.20604138,0.546468,0.70918028,-0.1668145,0.551055,0.71524438,-0.1436045,0.553402,0.72143089,-0.12189358,0.555536,0.73526944,-0.21731306,0.545312,0.74632634,-0.1849817,0.551845,0.7513994,-0.17035335,0.554847,0.76426773,-0.15697904,0.557496
0.67533654,-0.2842029,0.525671,0.66772832,-0.24967239,0.533698,0.65293672,-0.26941543,0.526989,0.61414354,-0.24275386,0.523355,0.59069856,-0.21594849,0.517979,0.58021774,-0.19590511,0.516217,0.65015449,-0.1980813,0.542509,0.65365768,-0.16374853,0.548446,0.66473054,-0.143715,0.551414,0.6687299,-0.1241665,0.554112,0.67705987,-0.20127782,0.544056,0.66998562,-0.15949777,0.544921,0.67552324,-0.1322251,0.545426,0.68484121,-0.11621978,0.545786,0.69871931,-0.20663823,0.544747,0.70823177,-0.16793411,0.552011,0.71592675,-0.14564937,0.555727,0.72327323,-0.12494851,0.559106,0.72370069,-0.21843927,0.544431,0.73457577,-0.18520308,0.550145,0.73955183,-0.17015059,0.55277,0.75273136,-0.15713478,0.555086
0.65439147,-0.29132546,0.528398,0.65029975,-0.25410504,0.532434,0.62638845,-0.27864786,0.52977,0.60031288,-0.24747261,0.525622,0.57518582,-0.21672914,0.514363,0.56521288,-0.19348361,0.506588,0.63268653,-0.19906612,0.537722,0.62532028,-0.15965345,0.534464,0.6301779,-0.13922997,0.532834,0.63481535,-0.12001379,0.531353,0.65727686,-0.20238555,0.537641,0.64731686,-0.15882855,0.534034,0.65295819,-0.13199681,0.531929,0.65950203,-0.11408062,0.530426,0.67700306,-0.20800135,0.537281,0.67933566,-0.16727789,0.539429,0.68863294,-0.14422195,0.540528,0.69730934,-0.12259854,0.541527,0.69974283,-0.22037743,0.536276,0.70545643,-0.18161167,0.534946,0.71312183,-0.16378385,0.534335,0.72367638,-0.15230452,0.533796
0.6356111,-0.29001072,0.524316,0.64774546,-0.25420028,0.533843,0.61899532,-0.27571322,0.528016,0.59084445,-0.24562611,0.526429,0.56066538,-0.21509302,0.511397,0.54758706,-0.19485403,0.508231,0.63360839,-0.20669131,0.546887,0.64033729,-0.16463926,0.549148,0.64050723,-0.14399105,0.550279,0.64319882,-0.12423032,0.551307,0.65926451,-0.20993931,0.546135,0.6640416,-0.16488557,0.548659,0.67419261,-0.14343061,0.557515,0.68215113,-0.12661208,0.56384,0.68313159,-0.21302851,0.544826,0.68796155,-0.17055878,0.547258,0.69448723,-0.14775769,0.548502,0.69754708,-0.12969798,0.552863,0.70512156,-0.22447775,0.541901,0.71408666,-0.19724903,0.547649,0.72177182,-0.1809647,0.55029,0.73170415,-0.16964076,0.552621
0.63630319,-0.29297181,0.526688,0.63675886,-0.25877784,0.533061,0.61701524,-0.27793966,0.528694,0.58628838,-0.25229646,0.523643,0.55234864,-0.22229173,0.509158,0.5388191,-0.20425426,0.508108,0.61701374,-0.20916264,0.541219,0.61596178,-0.16718376,0.540235,0.61543582,-0.14616849,0.539743,0.61782712,-0.12693437,0.539296,0.64312282,-0.21160711,0.541284,0.63905548,-0.16575896,0.540181,0.64301628,-0.13926966,0.539537,0.64599346,-0.1195243,0.539077,0.6644382,-0.21626037,0.540876,0.662703,-0.16980288,0.539809,0.66269173,-0.14563446,0.539263,0.66659613,-0.12425172,0.538767,0.68961719,-0.22710786,0.539478,0.69867073,-0.19437957,0.543174,0.70567638,-0.17738762,0.544872,0.71575327,-0.16703639,0.54637
0.62916768,-0.28937082,0.520452,0.6324313,-0.25513408,0.529166,0.61253483,-0.27701987,0.525397,0.5849163,-0.25274136,0.523711,0.55219177,-0.22453437,0.511826,0.53929616,-0.20753747,0.512004,0.61196031,-0.21185411,0.54299,0.61301744,-0.17034286,0.544365,0.61354145,-0.14924921,0.545052,0.61472493,-0.13089853,0.545677,0.6360783,-0.20870221,0.540411,0.63767131,-0.16669336,0.541843,0.63595676,-0.14122016,0.542678,0.63800613,-0.1250308,0.543274,0.65606642,-0.20857256,0.537658,0.66712714,-0.17570152,0.547586,0.67462968,-0.15381439,0.552665,0.68244577,-0.13323975,0.557282,0.68019938,-0.21338996,0.533117,0.69319939,-0.18127103,0.540108,0.70016264,-0.16698076,0.54411,0.70682573,-0.15317077,0.547641
0.62152967,-0.29576347,0.524871,0.61231688,-0.25794691,0.52943,0.59252488,-0.28493617,0.528375,0.56394262,-0.25658585,0.5241,0.53234337,-0.22729236,0.510705,0.51826826,-0.20846116,0.50855,0.58759154,-0.21235691,0.537773,0.58880521,-0.17032076,0.534932,0.58948959,-0.14857363,0.533512,0.59042498,-0.12985293,0.532221,0.61137505,-0.21044068,0.535312,0.61114853,-0.16785548,0.536205,0.613996,-0.14228431,0.536726,0.61702793,-0.1272117,0.537098,0.63124399,-0.21148224,0.532958,0.63779291,-0.17308915,0.537017,0.64432527,-0.15151525,0.539094,0.65045402,-0.13086029,0.540982,0.65563447,-0.21798758,0.529487,0.66302582,-0.17763331,0.527609,0.66646506,-0.15892104,0.526747,0.6703768,-0.1466501,0.525985
0.59725249,-0.29646944,0.517149,0.59852305,-0.26607382,0.526355,0.58033168,-0.28586582,0.523209,0.55210973,-0.26170438,0.523048,0.52094709,-0.23305619,0.51284,0.51055359,-0.21682056,0.514788,0.58688409,-0.22237544,0.541972,0.58984172,-0.1811651,0.544189,0.59132672,-0.16005732,0.545297,0.59268137,-0.14057127,0.546305,0.60931574,-0.22212275,0.538235,0.6097092,-0.17758738,0.540787,0.61067003,-0.15078829,0.542275,0.61135125,-0.13140296,0.543339,0.62732879,-0.22436572,0.534494,0.62885042,-0.17971093,0.536865,0.62984794,-0.15650836,0.538078,0.63308458,-0.13568321,0.539181,0.64803123,-0.23194063,0.528698,0.65970974,-0.19469409,0.530789,0.6650738,-0.17758935,0.53175,0.67117071,-0.16569824,0.532598
0.58470154,-0.30264118,0.518595,0.58505217,-0.26662915,0.525068,0.56695231,-0.29002585,0.523095,0.53570464,-0.26093218,0.520423,0.50773955,-0.23309574,0.512774,0.49820812,-0.21630081,0.514613,0.57152652,-0.22064458,0.536337,0.56951724,-0.17900166,0.535984,0.56849681,-0.15779274,0.535807,0.56788285,-0.13894603,0.535646,0.59477248,-0.220913,0.53342,0.59269626,-0.1743253,0.532961,0.5921062,-0.14702893,0.532693,0.59203082,-0.12773649,0.532502,0.61372688,-0.22369474,0.530552,0.61240869,-0.17924452,0.529866,0.61323099,-0.15639319,0.529516,0.61406857,-0.13499607,0.529197,0.63597712,-0.23219633,0.526192,0.64259033,-0.19713058,0.526345,0.6468254,-0.17917901,0.526416,0.65068627,-0.16319557,0.526478
0.57358646,-0.29765851,0.509327,0.57792914,-0.26316184,0.518871,0.55869886,-0.28746293,0.516658,0.52731516,-0.26815798,0.519115,0.49763954,-0.24433549,0.512624,0.48471842,-0.22621447,0.511611,0.56361733,-0.22102801,0.536333,0.56169396,-0.1802727,0.539038,0.56070487,-0.15964952,0.540391,0.55978942,-0.14075825,0.541621,0.5848742,-0.21759625,0.531189,0.58616382,-0.175405,0.536067,0.58721769,-0.14928396,0.538912,0.58819372,-0.12996543,0.540945,0.60212555,-0.21729128,0.526266,0.60705382,-0.17773324,0.534018,0.60989167,-0.15623187,0.537984,0.61275297,-0.13567319,0.54159,0.6222925,-0.22194394,0.519006,0.62947344,-0.18802688,0.523097,0.63374547,-0.17025128,0.524977,0.63754167,-0.1543229,0.526636
0.56213897,-0.29840333,0.506706,0.55865916,-0.26588575,0.515204,0.53682826,-0.29223419,0.513701,0.50933693,-0.26732783,0.514638,0.48285405,-0.24289856,0.510488,0.47158317,-0.22345391,0.508979,0.54538133,-0.22372,0.531314,0.54331167,-0.18266163,0.532953,0.54222769,-0.16175275,0.533772,0.54114618,-0.14248388,0.534517,0.56637009,-0.220748,0.526166,0.56532625,-0.17479078,0.52768,0.56468787,-0.14747153,0.528563,0.56421788,-0.12764431,0.529193,0.58343238,-0.22080818,0.521316,0.59141608,-0.17982758,0.526574,0.59559249,-0.15701037,0.529264,0.59941118,-0.1358294,0.53171,0.60342424,-0.22589811,0.514292,0.61141287,-0.18775849,0.515194,0.61517413,-0.16974397,0.515609,0.61850429,-0.15378463,0.515975
0.55026991,-0.29670541,0.501333,0.5529459,-0.263974,0.511508,0.53096698,-0.28996025,0.509257,0.50152232,-0.26769759,0.511728,0.47450778,-0.24544427,0.509339,0.46419326,-0.22940306,0.511736,0.5384275,-0.22529336,0.530251,0.5363415,-0.18534691,0.533545,0.53515175,-0.16495364,0.535192,0.53400326,-0.14617249,0.53669,0.55893818,-0.22118856,0.524634,0.55807902,-0.17870875,0.528065,0.55757712,-0.15232704,0.530067,0.56191369,-0.13065304,0.531496,0.57555445,-0.22017067,0.519276,0.57669359,-0.17578266,0.521827,0.57728359,-0.15286222,0.523132,0.57799364,-0.13155188,0.524319,0.59496703,-0.2236683,0.511406,0.60222082,-0.18582155,0.513739,0.60593503,-0.16860981,0.515142,0.60944045,-0.15349772,0.516575
0.53977938,-0.29732118,0.497108,0.54523051,-0.26407436,0.508195,0.52488834,-0.2891091,0.505318,0.4931624,-0.26987917,0.508337,0.46846486,-0.24829247,0.507868,0.46170226,-0.23087173,0.511373,0.53079638,-0.22656281,0.528104,0.52893999,-0.18794849,0.532339,0.52805353,-0.1677586,0.534457,0.5304301,-0.14755095,0.536382,0.55143735,-0.22277742,0.522501,0.55202991,-0.17923909,0.526484,0.55438077,-0.15237805,0.528807,0.55455134,-0.13311815,0.530467,0.56803749,-0.22205357,0.51709,0.57277677,-0.17686576,0.520334,0.57392078,-0.15424708,0.521994,0.57538184,-0.13340287,0.523503,0.58719445,-0.22593534,0.509026,0.59516056,-0.19142183,0.512598,0.59939899,-0.17372927,0.514239,0.6033993,-0.15857301,0.515687
0.54024332,-0.30034905,0.499988,0.53963808,-0.26718917,0.508557,0.52257378,-0.29282645,0.507655,0.48729798,-0.27456911,0.510147,0.46446123,-0.25601223,0.513103,0.45379394,-0.23861484,0.514131,0.52115463,-0.22752101,0.525541,0.51637263,-0.18759196,0.527283,0.51375015,-0.16761522,0.528154,0.51127627,-0.14892932,0.528946,0.54125649,-0.22321251,0.519612,0.53749711,-0.1782741,0.52111,0.5353386,-0.15214882,0.521983,0.53371496,-0.13277672,0.522607,0.5576384,-0.22215321,0.514115,0.55662792,-0.17761704,0.514754,0.55619734,-0.15463123,0.51508,0.55578301,-0.13303989,0.515377,0.57698711,-0.22583891,0.506309,0.582474,-0.18694992,0.506909,0.58500383,-0.16899919,0.507185,0.59322769,-0.15531338,0.509783
0.52723604,-0.30221586,0.496636,0.52307109,-0.26863645,0.505786,0.50815562,-0.29510293,0.504967,0.47463212,-0.27447066,0.507981,0.44962607,-0.25323167,0.507202,0.43955976,-0.23767315,0.51016,0.51080617,-0.22672214,0.524092,0.50619364,-0.18808059,0.52676,0.50387327,-0.16829414,0.528094,0.50166605,-0.14975784,0.529306,0.53047611,-0.22307431,0.517585,0.5269164,-0.17855118,0.519691,0.52498865,-0.15179684,0.52092,0.52820942,-0.13241208,0.521797,0.54627544,-0.22260304,0.511571,0.54493132,-0.17778632,0.512856,0.54424162,-0.15483134,0.513513,0.54895331,-0.13333765,0.51411,0.56450442,-0.2270393,0.503062,0.57044033,-0.18796549,0.504231,0.57324283,-0.1697189,0.504768,0.57573083,-0.1534927,0.505242
0.5120009,-0.30566899,0.496919,0.512633,-0.27021725,0.505152,0.4980603,-0.29724781,0.505609,0.46550008,-0.27699586,0.509228,0.44064935,-0.2566098,0.509394,0.42909777,-0.23885341,0.509565,0.50263765,-0.22936859,0.523069,0.49827356,-0.18891456,0.52511,0.49503298,-0.16893301,0.52613,0.49197384,-0.15021795,0.527058,0.52087165,-0.22464591,0.515763,0.51764066,-0.18069156,0.517804,0.51418521,-0.15447559,0.518995,0.51163518,-0.13528465,0.519845,0.53564798,-0.22328357,0.509157,0.53795472,-0.182582,0.51367,0.53741764,-0.16026357,0.51598,0.53685049,-0.13936428,0.518079,0.55285518,-0.22671451,0.500068,0.55874233,-0.18948673,0.500426,0.55998258,-0.17139587,0.500591,0.56044949,-0.15604256,0.500736
0.49088363,-0.32015562,0.505334,0.50053828,-0.28080275,0.509413,0.48112931,-0.30843296,0.514259,0.45867121,-0.28367314,0.517204,0.42924925,-0.25612469,0.508443,0.42023074,-0.23764038,0.509233,0.49745363,-0.23245442,0.523889,0.49068975,-0.1914585,0.524321,0.48573821,-0.17137917,0.524536,0.4811259,-0.15268627,0.524733,0.51289944,-0.23065575,0.514666,0.51033022,-0.18406724,0.513157,0.50657026,-0.15679315,0.512277,0.50370526,-0.13503349,0.511648,0.52516472,-0.23203198,0.506783,0.5249163,-0.18699503,0.506766,0.52357244,-0.16351194,0.506758,0.52142853,-0.14200475,0.50675,0.53884773,-0.2393764,0.496754,0.54736341,-0.20201484,0.497131,0.5500462,-0.18379379,0.497304,0.55242876,-0.16760661,0.497457
0.49606218,-0.31166602,0.499111,0.49820523,-0.27551695,0.505071,0.48388736,-0.3019978,0.507844,0.45358484,-0.2797094,0.510761,0.42771308,-0.25582526,0.50732,0.41751008,-0.23732235,0.507434,0.48924017,-0.22957812,0.521002,0.4808381,-0.18906128,0.521785,0.47656106,-0.1684613,0.522177,0.47586091,-0.1507865,0.522533,0.50669913,-0.22509972,0.512742,0.5020428,-0.18029102,0.512855,0.49733189,-0.15441836,0.512921,0.49385375,-0.1353199,0.512969,0.52084032,-0.22405761,0.505513,0.52062771,-0.18154581,0.506671,0.51839219,-0.1597506,0.507264,0.51939838,-0.14072693,0.507803,0.53737514,-0.22807256,0.496,0.54118575,-0.18846853,0.494157,0.5416923,-0.17004365,0.493311,0.54216437,-0.15346132,0.492564
0.49413156,-0.31166394,0.498614,0.49765481,-0.27511967,0.504735,0.47749706,-0.30272992,0.507125,0.45170087,-0.2792858,0.509756,0.42584818,-0.2560002,0.506906,0.41512743,-0.23738749,0.506599,0.48892911,-0.23005316,0.520541,0.48092172,-0.18976737,0.521781,0.47654293,-0.16947604,0.522402,0.47482237,-0.15119147,0.522965,0.50805379,-0.22741235,0.512613,0.50229291,-0.18134343,0.512955,0.49796202,-0.15523905,0.513155,0.49476868,-0.13601512,0.513298,0.52196374,-0.22767361,0.505646,0.5187558,-0.18240029,0.505756,0.51583113,-0.16019989,0.505812,0.5130687,-0.13935127,0.505864,0.5375383,-0.2304373,0.496422,0.54113885,-0.19136496,0.495049,0.53987656,-0.17613581,0.494418,0.54162973,-0.15696087,0.493861
0.48602735,-0.31360085,0.497689,0.48783441,-0.27882499,0.503563,0.47473605,-0.30346597,0.506752,0.44365047,-0.28167426,0.510125,0.42108705,-0.25729386,0.507488,0.41281589,-0.23874586,0.507877,0.48597556,-0.23150251,0.519818,0.47944614,-0.19024023,0.521002,0.4752729,-0.16990479,0.521595,0.47139599,-0.15106044,0.522133,0.50009273,-0.23020677,0.511119,0.49753031,-0.18448344,0.511408,0.49590553,-0.15564639,0.511577,0.49312148,-0.13633866,0.511697,0.51319876,-0.23100585,0.503535,0.51379171,-0.18690596,0.503742,0.5122438,-0.16220568,0.503847,0.51067119,-0.1400571,0.503943,0.52784683,-0.23746603,0.493608,0.5335368,-0.19874752,0.492358,0.53614265,-0.17773973,0.491784,0.53637609,-0.16161596,0.491277
0.48519382,-0.31425567,0.497583,0.49202661,-0.27724941,0.503443,0.47373509,-0.30410875,0.506508,0.4441918,-0.28260002,0.509684,0.42021145,-0.25824645,0.50701,0.40978704,-0.23999351,0.507267,0.48300244,-0.23317754,0.519517,0.47835328,-0.19073231,0.520292,0.47341081,-0.17150774,0.520679,0.46913658,-0.15288457,0.521031,0.49965419,-0.23020551,0.510981,0.49633551,-0.18452451,0.510955,0.49441247,-0.15605363,0.51094,0.49154241,-0.13669652,0.510929,0.51296547,-0.23051348,0.503531,0.5126098,-0.18583543,0.503152,0.51079847,-0.16182303,0.502958,0.50901275,-0.13979361,0.502782,0.52805168,-0.23637357,0.493767,0.53211924,-0.19667101,0.491922,0.53439002,-0.17703866,0.491074,0.53596951,-0.15878457,0.490326
