sluyters/QuantumLeap/backend/src/datasets/dynamic/HandGestureDataset_SHREC2017_csv/Gesture14/finger_2/subject_24_essai_1_skeletons_world.csv
Wrist_x,Wrist_y,Wrist_z,Palm_x,Palm_y,Palm_z,thumb_base_x,thumb_base_y,thumb_base_z,thumb_first_joint_x,thumb_first_joint_y,thumb_first_joint_z,thumb_second_joint_x,thumb_second_joint_y,thumb_second_joint_z,thumb_tip_x,thumb_tip_y,thumb_tip_z,index_base_x,index_base_y,index_base_z,index_first_joint_x,index_first_joint_y,index_first_joint_z,index_second_joint_x,index_second_joint_y,index_second_joint_z,index_tip_x,index_tip_y,index_tip_z,middle_base_x,middle_base_y,middle_base_z,middle_first_joint_x,middle_first_joint_y,middle_first_joint_z,middle_second_joint_x,middle_second_joint_y,middle_second_joint_z,middle_tip_x,middle_tip_y,middle_tip_z,ring_base_x,ring_base_y,ring_base_z,ring_first_joint_x,ring_first_joint_y,ring_first_joint_z,ring_second_joint_x,ring_second_joint_y,ring_second_joint_z,ring_tip_x,ring_tip_y,ring_tip_z,pinky_base_x,pinky_base_y,pinky_base_z,pinky_first_joint_x,pinky_first_joint_y,pinky_first_joint_z,pinky_second_joint_x,pinky_second_joint_y,pinky_second_joint_z,pinky_tip_x,pinky_tip_y,pinky_tip_z,
0.442783779,-0.379822082,0.567353,0.448204878,-0.334340647,0.560089,0.424820928,-0.362751651,0.564994,0.39587588,-0.330123421,0.552834,0.375783496,-0.305275162,0.544425,0.363459115,-0.284249553,0.539523,0.430877327,-0.284783674,0.552299,0.41891662,-0.243730883,0.539985,0.412448668,-0.233476678,0.533828,0.404846252,-0.223547334,0.528231,0.4550067,-0.291842042,0.55307,0.451487751,-0.246867966,0.53943,0.450037225,-0.224160513,0.531474,0.445694656,-0.208346244,0.525791,0.474617716,-0.301626531,0.554342,0.472161027,-0.257653025,0.543024,0.470993224,-0.240416407,0.537234,0.467202633,-0.223871642,0.53197,0.497156666,-0.320437218,0.556997,0.504749601,-0.286264243,0.55021,0.507312585,-0.270978875,0.547091,0.510246492,-0.258820438,0.54434
0.447108776,-0.381903046,0.570508,0.454151975,-0.336093576,0.562894,0.43018327,-0.36492673,0.567248,0.41402327,-0.336723504,0.559584,0.390486056,-0.310107612,0.55084,0.371635366,-0.286222433,0.541905,0.430770354,-0.285085688,0.553734,0.419375596,-0.244297061,0.540733,0.413656155,-0.232529351,0.534232,0.407909613,-0.221821341,0.528322,0.455788568,-0.292317104,0.555535,0.451282738,-0.246994714,0.541657,0.451320205,-0.224319336,0.533562,0.447486815,-0.20861962,0.527779,0.477803018,-0.300940917,0.557686,0.474341936,-0.25756413,0.544231,0.472315458,-0.238394802,0.537348,0.474661509,-0.216811136,0.53109,0.504804624,-0.313575257,0.561432,0.514229435,-0.280792126,0.55517,0.5185733,-0.26570355,0.552293,0.52241379,-0.252376368,0.549755
0.449310434,-0.381559203,0.571199,0.461097605,-0.332610708,0.564725,0.430546537,-0.364742443,0.568404,0.413373883,-0.330385294,0.561121,0.387954174,-0.303225191,0.549252,0.372141183,-0.284759742,0.541162,0.437905022,-0.280867806,0.556904,0.423978535,-0.239557819,0.544816,0.418894291,-0.227202706,0.538772,0.41335267,-0.217568755,0.533277,0.463165432,-0.286097325,0.55846,0.458393955,-0.241213058,0.545475,0.45495948,-0.22179641,0.5379,0.454298013,-0.208068547,0.53249,0.482628377,-0.296741492,0.560309,0.480088105,-0.250375688,0.547684,0.479026753,-0.234621537,0.541225,0.478450535,-0.217763054,0.535354,0.507310611,-0.312956748,0.563518,0.516468468,-0.27982138,0.556202,0.520648233,-0.264647204,0.55284,0.524066185,-0.254459519,0.549874
0.451950961,-0.381551029,0.572475,0.46266885,-0.332033191,0.565835,0.434810519,-0.364527345,0.569472,0.413769186,-0.329191554,0.561004,0.388830131,-0.302060309,0.549493,0.378819213,-0.282253546,0.545213,0.440575004,-0.280566468,0.557638,0.426158731,-0.239276938,0.545296,0.420490975,-0.22589419,0.539124,0.41531379,-0.213407639,0.533514,0.465923319,-0.286520928,0.559407,0.46110721,-0.241980755,0.546179,0.458798468,-0.220138938,0.538463,0.45555505,-0.207477101,0.532951,0.486628494,-0.295361591,0.561445,0.482307079,-0.251053695,0.548588,0.480533344,-0.234862523,0.542009,0.479620219,-0.218882207,0.536029,0.509767248,-0.313817683,0.564904,0.517466505,-0.279839203,0.556628,0.521181347,-0.264782815,0.552826,0.523998136,-0.255139047,0.549471
0.455693965,-0.375854433,0.567987,0.467915217,-0.328939876,0.566546,0.440794521,-0.359276999,0.566676,0.423949781,-0.325614279,0.562562,0.405590127,-0.300263111,0.560026,0.398596561,-0.279397859,0.554688,0.449496247,-0.282791319,0.563938,0.445044692,-0.243496185,0.556106,0.441846067,-0.228082556,0.55219,0.438936297,-0.213666982,0.54863,0.474546149,-0.288361436,0.565152,0.481428998,-0.246115603,0.559764,0.484368062,-0.222094799,0.556621,0.485395162,-0.208464971,0.554376,0.496824461,-0.294986507,0.566278,0.507172017,-0.260390745,0.563248,0.510994502,-0.246007214,0.561698,0.514690277,-0.232353319,0.560289,0.520538307,-0.310855906,0.567833,0.536575922,-0.28287642,0.569067,0.545485045,-0.271018472,0.571348,0.553401367,-0.260468806,0.57336
0.467587271,-0.361834117,0.566501,0.483947832,-0.313858529,0.567587,0.453976026,-0.336576001,0.565219,0.429483833,-0.302990371,0.555384,0.409794827,-0.275442498,0.54893,0.404468249,-0.258759476,0.550847,0.472028258,-0.267453496,0.566693,0.466104102,-0.228725701,0.560431,0.466167174,-0.216656572,0.557301,0.466331607,-0.205249032,0.554455,0.496609844,-0.276322647,0.568638,0.502207084,-0.235200817,0.562605,0.511517476,-0.213919392,0.565823,0.518241918,-0.198459293,0.568122,0.515834881,-0.287045521,0.570145,0.520668538,-0.246593339,0.564179,0.524546525,-0.23146322,0.561128,0.528331838,-0.217169588,0.558353,0.536639601,-0.305978712,0.571745,0.553609426,-0.278737409,0.574578,0.562410789,-0.265871288,0.57588,0.570230502,-0.254420793,0.577028
0.480721284,-0.356957152,0.576298,0.496891117,-0.313886089,0.573897,0.463646393,-0.338783567,0.573562,0.453612268,-0.303858132,0.570907,0.443581476,-0.278867838,0.57319,0.444907207,-0.264293307,0.578924,0.485963236,-0.264241042,0.568852,0.47848666,-0.224182317,0.559318,0.477381517,-0.212284504,0.554551,0.476486368,-0.20110234,0.550218,0.510660978,-0.274765679,0.571572,0.516682093,-0.235007192,0.566504,0.52293097,-0.21438735,0.563547,0.527616448,-0.199354748,0.561435,0.529807268,-0.28701044,0.574021,0.531320056,-0.24484097,0.564505,0.534039745,-0.230135326,0.559637,0.536775702,-0.216308964,0.55521,0.55015541,-0.307943543,0.577289,0.56622131,-0.278813654,0.576869,0.574229137,-0.265497515,0.576675,0.581328878,-0.253695573,0.576505
0.513523637,-0.352297218,0.58403,0.525745608,-0.312102582,0.58492,0.496042223,-0.335437079,0.582222,0.479398436,-0.303380568,0.579509,0.465567641,-0.275418627,0.576279,0.463012413,-0.255576208,0.574761,0.511909355,-0.265285261,0.583233,0.510446906,-0.226727088,0.576755,0.510289945,-0.20794142,0.573516,0.51018297,-0.19063609,0.570572,0.53739182,-0.273849594,0.585781,0.548040306,-0.234068182,0.579862,0.55429419,-0.210766956,0.57641,0.559154606,-0.197246322,0.573944,0.557471034,-0.284403758,0.587801,0.568930972,-0.247693196,0.58235,0.576318461,-0.231517769,0.579562,0.583341992,-0.216355912,0.577027,0.579442086,-0.303272548,0.590037,0.59573986,-0.276923997,0.5907,0.605299056,-0.264484418,0.591004,0.613856409,-0.253342732,0.591273
0.525121457,-0.350792189,0.596846,0.543904673,-0.303783228,0.598046,0.512339798,-0.324704096,0.597353,0.49890944,-0.293587849,0.596926,0.486857399,-0.266565748,0.595798,0.484367374,-0.24684742,0.5945,0.53967631,-0.2569531,0.599484,0.539330505,-0.219445423,0.594264,0.540698532,-0.203427227,0.591654,0.542053384,-0.188420111,0.589282,0.561807609,-0.266875015,0.599211,0.571457827,-0.227783313,0.593416,0.578437557,-0.206538168,0.590036,0.583632518,-0.190955489,0.587622,0.578443461,-0.278386607,0.598881,0.589546506,-0.240098225,0.593216,0.596138533,-0.2208097,0.590318,0.602446181,-0.204209289,0.587683,0.595147095,-0.298033004,0.598302,0.617233152,-0.273753967,0.600299,0.627328893,-0.26267401,0.601217,0.63758922,-0.253566725,0.602026
0.527306659,-0.34000736,0.597984,0.546558547,-0.302804606,0.599845,0.513582724,-0.322338559,0.597767,0.499183432,-0.291341761,0.597151,0.487443797,-0.265009001,0.597049,0.485700859,-0.246320141,0.597519,0.541982881,-0.256600179,0.600811,0.541796851,-0.21888726,0.595596,0.542749753,-0.201923243,0.592989,0.543802605,-0.186851056,0.590618,0.565067288,-0.267079703,0.601651,0.576446693,-0.22841782,0.598119,0.583197076,-0.204666037,0.596059,0.588732988,-0.193315254,0.594588,0.582559401,-0.278995921,0.602179,0.5944299,-0.241534014,0.597763,0.601192033,-0.222825927,0.595503,0.607756155,-0.205914872,0.593449,0.600334738,-0.299063059,0.602505,0.621240264,-0.275228304,0.604337,0.630799732,-0.264353528,0.605179,0.640470853,-0.254730812,0.605922
0.52745746,-0.33939946,0.600517,0.542293408,-0.298684581,0.603505,0.51461402,-0.322572808,0.6016,0.494801953,-0.2882044,0.600843,0.482774105,-0.26317125,0.602101,0.480492328,-0.244549343,0.602732,0.538245117,-0.254745362,0.606859,0.537690701,-0.217716067,0.603167,0.53744463,-0.198783562,0.60132,0.537241224,-0.181320656,0.599642,0.56047678,-0.263695242,0.606405,0.568851963,-0.2244888,0.60234,0.574105696,-0.201380559,0.599968,0.576894874,-0.18863647,0.598274,0.577321845,-0.274281554,0.60577,0.587766225,-0.23888825,0.603462,0.59395076,-0.220297237,0.602282,0.598237929,-0.207925948,0.601209,0.594440877,-0.292674436,0.604547,0.611152807,-0.263548932,0.60175,0.618805852,-0.25020334,0.600465,0.623059029,-0.242141719,0.599331
0.498234207,-0.34178583,0.596454,0.521919748,-0.311162976,0.610278,0.488066029,-0.330368768,0.603172,0.474243235,-0.302649014,0.606574,0.461659157,-0.279703909,0.609536,0.459731135,-0.262450059,0.61218,0.524900326,-0.276266001,0.627946,0.545601605,-0.24900394,0.632823,0.555841087,-0.235568509,0.635261,0.563040006,-0.22272055,0.637478,0.544917264,-0.281412224,0.623695,0.560546611,-0.250516217,0.633241,0.569616545,-0.232723723,0.63881,0.576486719,-0.21944947,0.642788,0.559274269,-0.288314866,0.618985,0.567543006,-0.257440122,0.628575,0.571776169,-0.241839425,0.633482,0.577801654,-0.22753188,0.637942,0.572371096,-0.30128323,0.611239,0.591586604,-0.27937508,0.6165,0.600672483,-0.267697402,0.618917,0.603368993,-0.266365681,0.621049
0.502696733,-0.373000744,0.608253,0.498485015,-0.33181633,0.611329,0.475494581,-0.360190755,0.60592,0.456732935,-0.333496293,0.606272,0.436883185,-0.311200518,0.605526,0.430684316,-0.295181521,0.608078,0.473503583,-0.289643566,0.610439,0.478065569,-0.252622967,0.607862,0.480323639,-0.234240042,0.606574,0.484437068,-0.223919334,0.605403,0.500559602,-0.292441711,0.614314,0.49800546,-0.255645168,0.618176,0.496543253,-0.234367685,0.620429,0.500122387,-0.222030555,0.622038,0.522624296,-0.298304935,0.617235,0.508084076,-0.257907516,0.611635,0.500675462,-0.237356387,0.60877,0.500918921,-0.225852585,0.606165,0.54822578,-0.31166064,0.620186,0.557804198,-0.280114141,0.619789,0.563598795,-0.265907106,0.619607,0.569582252,-0.260276097,0.619446
0.472881529,-0.388530967,0.619604,0.478757168,-0.346337787,0.619551,0.451692073,-0.37205257,0.614514,0.433504082,-0.338307498,0.608005,0.418168723,-0.31502781,0.609202,0.41697499,-0.304942192,0.618334,0.456126716,-0.298217887,0.613104,0.467753749,-0.263537243,0.612235,0.473547255,-0.246254082,0.611801,0.479632077,-0.237230319,0.611406,0.484395379,-0.305842715,0.619499,0.491107426,-0.264608879,0.613319,0.495015894,-0.240578422,0.609714,0.499276686,-0.230861361,0.607139,0.507253735,-0.315778124,0.624767,0.504698594,-0.273613246,0.616477,0.503397438,-0.251979979,0.612235,0.502663067,-0.229592524,0.608379,0.533415795,-0.33418491,0.630982,0.544876716,-0.304700298,0.630818,0.552251797,-0.291304366,0.630743,0.558374214,-0.287351427,0.630676
0.451209924,-0.393086396,0.625224,0.453759521,-0.350069618,0.623808,0.429259504,-0.377835861,0.619532,0.404675527,-0.352519306,0.618286,0.382571515,-0.328967217,0.614381,0.374909455,-0.312533352,0.615915,0.427864529,-0.302376826,0.615694,0.415470953,-0.266224808,0.6132,0.409305665,-0.24825204,0.611953,0.406845422,-0.233221047,0.61082,0.456221916,-0.308455987,0.622433,0.451747629,-0.264679163,0.613502,0.449496416,-0.239331582,0.608292,0.447889975,-0.221196551,0.60457,0.479347226,-0.317207772,0.628104,0.491065579,-0.27866052,0.623005,0.497061462,-0.258939341,0.620397,0.506488043,-0.238606507,0.618025,0.506208599,-0.334335754,0.635009,0.521534479,-0.305998195,0.636111,0.529880484,-0.293139919,0.636618,0.537877989,-0.288618727,0.637065
0.455539434,-0.38918162,0.627755,0.456653863,-0.342508389,0.62932,0.438671372,-0.379887584,0.629919,0.415454233,-0.359065225,0.634313,0.392008056,-0.343390998,0.635787,0.381573518,-0.329712754,0.638077,0.434569502,-0.306429034,0.633092,0.411099564,-0.278270293,0.629217,0.39901914,-0.263754393,0.62728,0.387825572,-0.250291186,0.625519,0.455344145,-0.303115728,0.630847,0.439882925,-0.262813467,0.625726,0.43016734,-0.239565516,0.622739,0.423087145,-0.2228747,0.620605,0.472907941,-0.303876782,0.628862,0.461351359,-0.263401138,0.624297,0.455451516,-0.242754229,0.621961,0.447608744,-0.226135153,0.619838,0.49433506,-0.311309005,0.626275,0.500445517,-0.281049794,0.629074,0.504304116,-0.26791479,0.631707,0.506714656,-0.255501193,0.634031
0.458249296,-0.387330846,0.629298,0.462289047,-0.34502088,0.635465,0.43926173,-0.377175077,0.629165,0.415031192,-0.356299353,0.63252,0.391359701,-0.339548864,0.633049,0.381257913,-0.326046427,0.6358,0.439589991,-0.309377704,0.639424,0.422671957,-0.278543987,0.637005,0.413602169,-0.262669682,0.635796,0.405187163,-0.247924151,0.634696,0.46547928,-0.308406212,0.641478,0.455892754,-0.268717689,0.640081,0.449998174,-0.245498126,0.639266,0.445714229,-0.228769673,0.638684,0.486414774,-0.310870485,0.64263,0.479450718,-0.271693238,0.641351,0.475902784,-0.251744439,0.640697,0.47177165,-0.234481564,0.640102,0.511287343,-0.319716283,0.64301,0.520038977,-0.293653769,0.650402,0.525226808,-0.282506972,0.655277,0.529423339,-0.271427665,0.659578
0.4781646,-0.383461521,0.620585,0.487986142,-0.345177259,0.631703,0.461608866,-0.374674406,0.622895,0.461951967,-0.347528726,0.630767,0.438041086,-0.322852873,0.624527,0.435697863,-0.315653372,0.634346,0.470248789,-0.318045077,0.64205,0.46013556,-0.287307888,0.64491,0.454849209,-0.271335672,0.646339,0.449906217,-0.25645281,0.647639,0.493233146,-0.314163071,0.642544,0.491878662,-0.276908385,0.64613,0.485647687,-0.276044376,0.648223,0.48572559,-0.290877201,0.649717,0.512121197,-0.313663872,0.64198,0.510672102,-0.276451943,0.645541,0.509292254,-0.257194887,0.647363,0.507492655,-0.23956403,0.649019,0.534174153,-0.318209218,0.639553,0.541440539,-0.293682286,0.648644,0.545580508,-0.282833379,0.653957,0.548496169,-0.272230327,0.658645
0.505572481,-0.364400908,0.614984,0.516916364,-0.334257704,0.628659,0.487921728,-0.363640739,0.620423,0.492944634,-0.334530223,0.632939,0.476263139,-0.310370536,0.631124,0.478895916,-0.303513136,0.642702,0.511803982,-0.30853513,0.644656,0.508319459,-0.277332549,0.650894,0.506413982,-0.261069955,0.654013,0.504584001,-0.245890892,0.656848,0.531971739,-0.305608571,0.641994,0.539559133,-0.269898844,0.64859,0.533155026,-0.267388872,0.652438,0.531400833,-0.281868852,0.655187,0.54764436,-0.305739348,0.63861,0.554556935,-0.269717818,0.644855,0.557309708,-0.250824951,0.64805,0.559129677,-0.233337225,0.650954,0.564234076,-0.310706659,0.632452,0.57950164,-0.288393799,0.643435,0.587170226,-0.278373173,0.649401,0.593139648,-0.26826982,0.654666
0.552296383,-0.37799449,0.642344,0.554288139,-0.336878673,0.644056,0.534319848,-0.367915545,0.643965,0.526158276,-0.3412932,0.642041,0.498741636,-0.313748895,0.632007,0.494830576,-0.302808922,0.638908,0.533328323,-0.297910294,0.647241,0.523933417,-0.261207787,0.642747,0.519190957,-0.242578057,0.640501,0.514851212,-0.225474482,0.638458,0.556222576,-0.297388827,0.645725,0.553159259,-0.255441035,0.640453,0.551382004,-0.230719509,0.637378,0.547172868,-0.22255721,0.635182,0.57518371,-0.300492975,0.644328,0.573427178,-0.259442252,0.639141,0.573093425,-0.240761391,0.636488,0.567602523,-0.229649214,0.634076,0.597630356,-0.310713613,0.642409,0.584081247,-0.276780683,0.638279,0.57784053,-0.261371681,0.636381,0.572473687,-0.24860728,0.634707
0.549428426,-0.370870897,0.642389,0.571208257,-0.329435776,0.645205,0.540206195,-0.349197576,0.647923,0.533037962,-0.317508407,0.649486,0.531429217,-0.295016867,0.657286,0.537807655,-0.282182849,0.664609,0.579530992,-0.289103115,0.654055,0.577477833,-0.258500512,0.653388,0.576435016,-0.242387208,0.653081,0.575541677,-0.227258323,0.652892,0.595050303,-0.296390505,0.647952,0.607995221,-0.257901613,0.644777,0.621422007,-0.237853781,0.649122,0.631096345,-0.223339301,0.652226,0.605875104,-0.305431185,0.642683,0.635451233,-0.281516322,0.643419,0.647471535,-0.265391207,0.643795,0.646052351,-0.25838698,0.644138,0.614969055,-0.321674946,0.636027,0.632003802,-0.296794111,0.637717,0.636450187,-0.284358241,0.638493,0.639958327,-0.273623087,0.639178
0.569349354,-0.350180836,0.64499,0.588114728,-0.312267745,0.641791,0.557112484,-0.331739238,0.64456,0.536299319,-0.29697508,0.634721,0.51869342,-0.267485509,0.627106,0.513553312,-0.246752799,0.623246,0.584841169,-0.265637439,0.639109,0.580794701,-0.230629863,0.630503,0.57883393,-0.212613777,0.6262,0.577089864,-0.195918124,0.622288,0.605832904,-0.27627124,0.638672,0.611624973,-0.23516185,0.628837,0.615031987,-0.210984338,0.6231,0.61736831,-0.193687321,0.619002,0.621852866,-0.288389208,0.638591,0.632403974,-0.249455543,0.628926,0.637296733,-0.22952161,0.623982,0.63998252,-0.212965772,0.619486,0.63827259,-0.308910426,0.639004,0.648350784,-0.280572712,0.630816,0.647781017,-0.271869911,0.627054,0.647369248,-0.263997961,0.623735
0.559857398,-0.355746306,0.645365,0.578612113,-0.312687029,0.641704,0.552810524,-0.332510282,0.644806,0.526240558,-0.299332024,0.635766,0.505621268,-0.269912519,0.623316,0.498995638,-0.249078892,0.619023,0.574202232,-0.265778134,0.638553,0.569268571,-0.230551052,0.629576,0.566851159,-0.212446683,0.625088,0.564683742,-0.195684165,0.621008,0.595336186,-0.275896968,0.638136,0.599557284,-0.234240168,0.627874,0.601172355,-0.210493719,0.621888,0.602414278,-0.193275205,0.617613,0.611585012,-0.287667482,0.638112,0.621928508,-0.248689427,0.628028,0.626419244,-0.228695195,0.622868,0.628203897,-0.212392205,0.618178,0.628458478,-0.307922748,0.638664,0.638347616,-0.278933689,0.629869,0.636263878,-0.271008151,0.625829,0.628698683,-0.265125333,0.622263
0.50555876,-0.345167897,0.626274,0.525808284,-0.309632542,0.617897,0.491340722,-0.320890819,0.618878,0.519223289,-0.301413865,0.621308,0.523721721,-0.273571487,0.599475,0.533788505,-0.257278488,0.594867,0.520022268,-0.259083739,0.602984,0.524023354,-0.23406464,0.587967,0.523908268,-0.222912863,0.580459,0.523986321,-0.212547304,0.573633,0.543907755,-0.27686803,0.60973,0.548297067,-0.247501881,0.594425,0.547248667,-0.235105217,0.585497,0.546713336,-0.225992806,0.57912,0.562429994,-0.294760695,0.616013,0.580362834,-0.267986049,0.622306,0.590371914,-0.260599532,0.625526,0.591085387,-0.27045538,0.628453,0.581930648,-0.321955101,0.624747,0.577708083,-0.289492857,0.609638,0.575849585,-0.274373382,0.602696,0.574255676,-0.260918289,0.596571
0.501613244,-0.391179799,0.649051,0.508200039,-0.341933725,0.638159,0.48127237,-0.366311905,0.644165,0.463771529,-0.331752457,0.627466,0.443956487,-0.305211578,0.621306,0.445800318,-0.29598139,0.630473,0.492933973,-0.287809119,0.624722,0.501695065,-0.251570554,0.609518,0.503019056,-0.237969176,0.601916,0.504368119,-0.225403403,0.595005,0.51688411,-0.299420279,0.62754,0.516183715,-0.272660243,0.610326,0.497834195,-0.286271671,0.600284,0.483184313,-0.297295718,0.593112,0.536025192,-0.312808142,0.630809,0.536154426,-0.285402141,0.613583,0.520847515,-0.296290557,0.604769,0.519687074,-0.316828216,0.614847,0.557559101,-0.335727611,0.63639,0.558522644,-0.300923792,0.632021,0.558973626,-0.284879443,0.630014,0.559375583,-0.270694094,0.628243
0.488244744,-0.391709676,0.632091,0.504489924,-0.361333018,0.635187,0.473650852,-0.380928564,0.634658,0.453509652,-0.360630954,0.639434,0.435170604,-0.340608946,0.641405,0.425482945,-0.321618829,0.636597,0.502910689,-0.316563085,0.640489,0.510470934,-0.279912717,0.637131,0.514259424,-0.261579173,0.635452,0.517708229,-0.244897453,0.633926,0.523484038,-0.325291458,0.638205,0.538418149,-0.289600796,0.633878,0.541443144,-0.279387433,0.631354,0.535559533,-0.286592297,0.629551,0.538685889,-0.335672937,0.636055,0.543101353,-0.296253846,0.632773,0.546036541,-0.277846996,0.631094,0.548357633,-0.265513203,0.629567,0.553499116,-0.353735062,0.633031,0.555107557,-0.319366329,0.62967,0.555928361,-0.303621753,0.628126,0.556658978,-0.289681406,0.626763
0.470767124,-0.409805425,0.648359,0.481230141,-0.367591647,0.64637,0.465090645,-0.399946579,0.655932,0.442632138,-0.378732991,0.659567,0.418144082,-0.358270444,0.656539,0.404656319,-0.340207939,0.652324,0.480204745,-0.326337343,0.654571,0.459499474,-0.300348403,0.652622,0.448427856,-0.285871179,0.651648,0.438162654,-0.272440009,0.650762,0.491226957,-0.327138047,0.644431,0.516585386,-0.296564525,0.653997,0.531460286,-0.278569839,0.659578,0.53839087,-0.263629814,0.663564,0.499008608,-0.329756376,0.636259,0.492437152,-0.289330378,0.632733,0.48668248,-0.269063924,0.630929,0.480598043,-0.250859769,0.629289,0.506877861,-0.339658013,0.626943,0.520506636,-0.309166851,0.625499,0.524861339,-0.29427992,0.624836,0.528698395,-0.281160313,0.624251
0.48096495,-0.395645695,0.639919,0.487856474,-0.357275783,0.648984,0.471198819,-0.392261968,0.649675,0.4492763,-0.372264087,0.657849,0.427993356,-0.35418025,0.659509,0.416916312,-0.337222376,0.658479,0.484825282,-0.32986044,0.667329,0.471145445,-0.309869446,0.67157,0.463215666,-0.298480111,0.674927,0.455764696,-0.287733997,0.678187,0.498232738,-0.323254592,0.657823,0.485362493,-0.289281215,0.661467,0.477474781,-0.268593372,0.663593,0.468617881,-0.26714242,0.665111,0.50851047,-0.320839143,0.649209,0.501698749,-0.284815682,0.653485,0.498165772,-0.266202056,0.655674,0.489458602,-0.258259991,0.657663,0.519191157,-0.323589312,0.637619,0.531415343,-0.300137848,0.649259,0.538004534,-0.289981419,0.655803,0.544103936,-0.28117346,0.661925
0.480472525,-0.368774707,0.631532,0.505788745,-0.33848926,0.648414,0.474189093,-0.35979095,0.640118,0.489807309,-0.332247893,0.658143,0.501302361,-0.306848633,0.658563,0.520724218,-0.294952505,0.670641,0.518309628,-0.318521866,0.670517,0.509484272,-0.304725959,0.681231,0.502617293,-0.302131434,0.686587,0.504446828,-0.319599811,0.702677,0.534612318,-0.317373397,0.664874,0.532162742,-0.288708746,0.675259,0.524226216,-0.291565483,0.681316,0.523698392,-0.309335549,0.688246,0.545804544,-0.318345839,0.658757,0.54883594,-0.284458162,0.669917,0.550294926,-0.266542661,0.675626,0.547989688,-0.258715782,0.680817,0.554741141,-0.323110538,0.64887,0.566454552,-0.301862236,0.657594,0.565173507,-0.294474687,0.661603,0.564713054,-0.301382945,0.66514
0.494083258,-0.335941189,0.617377,0.529400069,-0.319296749,0.639562,0.491261595,-0.324881927,0.625955,0.518423108,-0.30682948,0.648962,0.538063053,-0.284936909,0.650171,0.562929132,-0.276611042,0.663093,0.550221635,-0.30353323,0.665202,0.553955609,-0.285436911,0.679586,0.554175252,-0.281149701,0.686778,0.554742092,-0.292831204,0.703202,0.567708344,-0.307389973,0.661193,0.582104243,-0.277695476,0.676636,0.580121986,-0.2766382,0.685644,0.5853105,-0.295552407,0.702081,0.579047609,-0.311745365,0.655959,0.596378814,-0.279234802,0.671416,0.605328339,-0.261718645,0.679325,0.609512481,-0.253654057,0.686514,0.586579125,-0.319082298,0.646271,0.605441639,-0.302866743,0.657883,0.609590754,-0.294347566,0.663218,0.610620602,-0.299733931,0.667926
0.504978152,-0.331049708,0.63153,0.554112682,-0.315701987,0.642714,0.514871311,-0.313171563,0.640908,0.554252626,-0.298630513,0.655275,0.579654625,-0.282353595,0.655263,0.608953516,-0.279001283,0.666096,0.591045381,-0.299481904,0.662002,0.5952562,-0.276413317,0.669567,0.592373925,-0.266399261,0.673349,0.589966739,-0.272922047,0.688671,0.597671389,-0.308981099,0.65362,0.617788063,-0.278179717,0.659022,0.610737061,-0.268599737,0.662173,0.608390685,-0.281141128,0.676807,0.599439864,-0.317598554,0.645745,0.63695326,-0.301167972,0.653004,0.646413095,-0.286654332,0.656718,0.640626205,-0.284529607,0.660095,0.592913243,-0.328145242,0.63469,0.624629079,-0.326585632,0.646264,0.634685139,-0.316915546,0.651581,0.634904924,-0.316490219,0.656273
0.566426882,-0.350255171,0.643819,0.591039923,-0.311700791,0.644919,0.556402902,-0.334580808,0.647296,0.543206847,-0.304744815,0.645239,0.530085841,-0.280735571,0.647065,0.530143227,-0.265597499,0.652929,0.589234827,-0.267373493,0.650026,0.587528627,-0.229595132,0.646782,0.586545397,-0.21105014,0.645161,0.585658721,-0.193916484,0.643687,0.608336084,-0.274582745,0.645992,0.617993171,-0.2342762,0.640413,0.623308133,-0.210619115,0.637158,0.626577105,-0.194301993,0.634834,0.62259026,-0.28383372,0.642576,0.640803838,-0.25203136,0.640172,0.649495909,-0.234609837,0.638942,0.657651586,-0.218337293,0.637823,0.63669277,-0.300811383,0.638376,0.656267509,-0.273631255,0.639058,0.665607908,-0.261312881,0.639722,0.673927884,-0.250475885,0.640384
0.576453656,-0.353446481,0.644185,0.591447193,-0.314227198,0.644327,0.5635649,-0.338208017,0.646436,0.545479302,-0.313097498,0.644829,0.532069757,-0.289840025,0.647214,0.527860437,-0.271112226,0.647258,0.583803444,-0.273468418,0.647252,0.581513866,-0.235057077,0.642184,0.580193693,-0.217628888,0.63965,0.579016372,-0.201408826,0.637347,0.605859222,-0.276536273,0.644466,0.610468718,-0.237599528,0.637763,0.613740798,-0.213447788,0.633854,0.619429184,-0.194703505,0.631061,0.621680042,-0.285419525,0.642161,0.635281938,-0.250815957,0.634716,0.635454606,-0.240399549,0.630906,0.635837368,-0.229666025,0.627444,0.638221322,-0.302120699,0.63942,0.658311446,-0.276328858,0.64085,0.667481432,-0.264562541,0.641506,0.675696169,-0.253471254,0.642086
0.576927598,-0.359804266,0.651721,0.5767874,-0.324450293,0.650729,0.552078244,-0.350937887,0.65549,0.528693589,-0.320992237,0.651414,0.509335265,-0.295242995,0.64769,0.501954647,-0.275367933,0.644701,0.56973029,-0.282865348,0.654804,0.563397764,-0.247125168,0.649926,0.559870746,-0.240893967,0.647488,0.556605968,-0.235011932,0.645271,0.588463403,-0.286836489,0.64976,0.588093693,-0.249814991,0.642199,0.588049922,-0.227328367,0.637789,0.588101454,-0.210830908,0.634638,0.602990081,-0.293438987,0.645695,0.609068789,-0.255122881,0.637928,0.606163802,-0.242739524,0.633954,0.603556529,-0.231070236,0.630341,0.618528608,-0.307409682,0.641059,0.642275557,-0.285238336,0.648671,0.65315393,-0.275101704,0.652168,0.662753545,-0.264141317,0.655254
0.515271145,-0.394378428,0.657234,0.537450522,-0.357304549,0.651006,0.5112455,-0.378049675,0.660406,0.514995148,-0.345812562,0.654567,0.520212757,-0.317570132,0.655337,0.531815496,-0.30324507,0.661323,0.546294111,-0.313997306,0.650827,0.531842912,-0.286750839,0.64297,0.517817969,-0.298285666,0.639041,0.526171801,-0.318627365,0.650584,0.558356123,-0.322033097,0.644927,0.552946219,-0.282508533,0.633369,0.54899031,-0.259329864,0.626627,0.545901097,-0.242633924,0.621811,0.566766418,-0.331982699,0.64061,0.571628765,-0.290631593,0.631054,0.569928832,-0.269600847,0.626164,0.564594272,-0.252867901,0.62172,0.573673929,-0.349914191,0.636504,0.594342937,-0.326981907,0.64107,0.603705272,-0.316651978,0.643168,0.606667495,-0.305307523,0.645019
0.486213413,-0.394607228,0.649639,0.518571298,-0.360972605,0.65409,0.494297713,-0.384890341,0.663304,0.478347853,-0.367562818,0.674829,0.459094737,-0.350486518,0.678888,0.450237232,-0.33281788,0.679228,0.546561225,-0.334720396,0.674251,0.527131327,-0.320488656,0.681436,0.516627993,-0.312817189,0.685028,0.510541821,-0.32678013,0.697798,0.548092495,-0.332442047,0.658435,0.538787329,-0.298832501,0.659819,0.533281346,-0.27833729,0.660911,0.529257799,-0.263233436,0.661766,0.54684246,-0.333135025,0.645032,0.547305977,-0.297201534,0.650693,0.53603181,-0.303155515,0.65359,0.543194619,-0.327931422,0.666982,0.540715475,-0.338692258,0.628527,0.549515582,-0.307560391,0.631329,0.552796502,-0.292927424,0.632617,0.553520251,-0.280021336,0.633753
0.505844393,-0.401365238,0.662715,0.509956559,-0.357604684,0.657997,0.491437235,-0.393081044,0.666522,0.465468362,-0.37164596,0.662889,0.439800089,-0.353470589,0.660426,0.430026858,-0.339820766,0.663013,0.490248704,-0.317755665,0.659627,0.468731579,-0.286441682,0.65313,0.457678449,-0.27153908,0.649882,0.457770113,-0.264178765,0.661847,0.50827001,-0.315005997,0.653392,0.492416827,-0.272767861,0.643279,0.481856489,-0.249774118,0.637381,0.474090576,-0.233447905,0.633167,0.52340023,-0.316479417,0.648668,0.506724093,-0.2757842,0.640723,0.497299098,-0.256171387,0.636657,0.489496938,-0.240278379,0.634662,0.541848413,-0.325141164,0.643845,0.520348933,-0.305574801,0.635293,0.517124073,-0.317692808,0.631364,0.529724949,-0.333126332,0.64031
0.506796393,-0.392984124,0.661174,0.515533187,-0.348113993,0.661351,0.4935696,-0.38257443,0.664683,0.46800011,-0.359036256,0.661337,0.446509795,-0.341377893,0.661765,0.442515317,-0.332597164,0.670451,0.501100646,-0.31662263,0.665884,0.482381425,-0.285814722,0.662106,0.472796162,-0.269998413,0.660217,0.474424349,-0.261137718,0.673373,0.519960774,-0.313938035,0.661525,0.508523173,-0.274931079,0.65551,0.501365112,-0.251998134,0.652002,0.495945711,-0.235584967,0.649496,0.53537431,-0.314958962,0.657923,0.524299777,-0.275632549,0.65259,0.518140381,-0.255614066,0.649862,0.511525966,-0.238492521,0.647382,0.556070701,-0.323851299,0.653647,0.57124144,-0.302306506,0.663935,0.578443591,-0.289692798,0.668662,0.581393555,-0.278388706,0.672833
0.509718528,-0.396490824,0.662712,0.518438138,-0.350952037,0.660437,0.496982345,-0.385555538,0.666529,0.476373797,-0.349232269,0.662261,0.464421888,-0.330496452,0.666468,0.468593943,-0.321786369,0.676562,0.51850478,-0.309054916,0.663712,0.521657716,-0.272494198,0.65494,0.520103039,-0.255557751,0.650554,0.531147032,-0.245602043,0.662046,0.535624553,-0.313001351,0.658215,0.535665017,-0.270749546,0.65017,0.532528177,-0.247830064,0.645478,0.530298413,-0.231134202,0.642126,0.548769139,-0.319700107,0.653888,0.542337308,-0.278347413,0.647669,0.537517683,-0.258704745,0.644487,0.53309846,-0.240529128,0.641594,0.562483347,-0.334012034,0.649145,0.561843895,-0.298032743,0.641957,0.56154649,-0.281520427,0.638654,0.555800149,-0.277501237,0.63574
0.516240944,-0.388055632,0.65766,0.542637446,-0.342794787,0.657763,0.514773771,-0.373796665,0.66265,0.495336903,-0.339335785,0.660406,0.488762703,-0.326779859,0.670776,0.495932557,-0.321852089,0.683608,0.542327289,-0.303283313,0.664107,0.547679793,-0.266790253,0.656953,0.54724793,-0.249425472,0.653375,0.559636327,-0.238764674,0.665257,0.558673379,-0.306736386,0.657864,0.56137572,-0.265057894,0.651884,0.559846921,-0.241806082,0.648395,0.558777027,-0.224872712,0.645903,0.570940358,-0.312819578,0.652717,0.567486391,-0.272125194,0.648938,0.56424189,-0.252296356,0.647005,0.56126514,-0.233944895,0.645247,0.583176616,-0.326023888,0.646633,0.586565687,-0.291071341,0.64125,0.588089349,-0.275144261,0.638777,0.584467437,-0.265928781,0.636595
0.559064044,-0.366364132,0.64911,0.559436077,-0.32744651,0.647497,0.541777788,-0.351840626,0.648759,0.50617372,-0.326121251,0.639383,0.48583981,-0.303416836,0.637781,0.477014644,-0.283109669,0.632045,0.538521697,-0.28368663,0.645976,0.530065406,-0.245162272,0.638347,0.525827712,-0.225732874,0.634533,0.534975996,-0.213151698,0.646791,0.562664455,-0.287238737,0.645922,0.580085775,-0.254103044,0.656679,0.590288928,-0.23457797,0.662953,0.597595756,-0.220545315,0.667435,0.582374476,-0.293706209,0.646017,0.590103628,-0.253998704,0.637774,0.590864828,-0.241871015,0.633557,0.591740836,-0.230432522,0.629723,0.605383649,-0.307891852,0.646385,0.617239431,-0.276022307,0.641279,0.622667479,-0.261415773,0.638934,0.629373407,-0.249309965,0.638821
0.557471684,-0.367149293,0.649244,0.562329494,-0.327663871,0.647875,0.540652116,-0.352226665,0.648905,0.521898761,-0.33008396,0.655022,0.501160217,-0.306215557,0.651821,0.494240595,-0.288582067,0.652266,0.551911258,-0.280259245,0.646527,0.542956012,-0.241373114,0.639131,0.538483859,-0.222743727,0.635433,0.534399779,-0.20557031,0.632071,0.575481345,-0.287188527,0.64653,0.579011618,-0.24598439,0.641829,0.581210069,-0.222169229,0.639087,0.5827545,-0.205567918,0.637128,0.594070163,-0.296509057,0.64665,0.598170173,-0.255126716,0.638631,0.600305131,-0.234031868,0.634527,0.602257549,-0.214820334,0.630797,0.614381492,-0.314103201,0.647008,0.622874782,-0.280591683,0.640664,0.626937072,-0.26581889,0.637749,0.628165805,-0.250256629,0.635177
0.559101076,-0.370460211,0.652643,0.564054567,-0.330025411,0.650399,0.541935868,-0.355237429,0.65199,0.515582329,-0.33411474,0.652041,0.494352024,-0.31129824,0.649577,0.486656657,-0.294205441,0.650283,0.546838542,-0.284966446,0.648066,0.53316117,-0.24579477,0.639918,0.529522533,-0.232194766,0.635845,0.524537715,-0.219440728,0.632141,0.57078633,-0.290729649,0.648193,0.568449688,-0.247155571,0.639222,0.566681837,-0.223621524,0.633989,0.565459071,-0.206512711,0.630251,0.592890447,-0.298261361,0.648492,0.594217196,-0.257578638,0.64176,0.600445084,-0.237368999,0.638316,0.597730067,-0.226173848,0.635185,0.614095816,-0.315542143,0.649197,0.620824001,-0.280018183,0.642748,0.624854899,-0.264941722,0.639785,0.628412407,-0.25163596,0.63717
0.510239009,-0.387816341,0.652501,0.535904074,-0.351608221,0.655875,0.510225713,-0.372960279,0.657498,0.489104239,-0.347686719,0.655939,0.467582642,-0.318578718,0.647034,0.462138071,-0.300947168,0.647581,0.531536178,-0.311914849,0.664426,0.527985287,-0.277013647,0.663697,0.525279334,-0.267358826,0.663332,0.522717496,-0.258181427,0.663,0.550472501,-0.315303122,0.659191,0.562195179,-0.280826677,0.655623,0.559174597,-0.269635693,0.653541,0.556971468,-0.261261126,0.652054,0.56486635,-0.321267659,0.654592,0.575856998,-0.282822583,0.650673,0.58052674,-0.262994064,0.648668,0.581673168,-0.248021397,0.646846,0.579705353,-0.33417281,0.648636,0.592228799,-0.302630609,0.645431,0.59802186,-0.28806131,0.643958,0.603154159,-0.275165128,0.642658
0.523748528,-0.384583265,0.652044,0.532973913,-0.347667359,0.653022,0.509499024,-0.371565114,0.65419,0.482807587,-0.35097349,0.650176,0.460341345,-0.331209473,0.649565,0.455801026,-0.320625437,0.657312,0.512452488,-0.303917403,0.656376,0.498957278,-0.268292879,0.653321,0.494356062,-0.252913841,0.651794,0.490076594,-0.238520653,0.650405,0.535071931,-0.3048828,0.653983,0.53140136,-0.267203088,0.648145,0.529394911,-0.244373948,0.644869,0.528020082,-0.22764532,0.642583,0.553381555,-0.309177513,0.651928,0.553958336,-0.26784273,0.645876,0.554518711,-0.249822006,0.64278,0.558304013,-0.233502007,0.64273,0.574549269,-0.320642009,0.649352,0.585200164,-0.290078089,0.645035,0.589477494,-0.277565533,0.643052,0.593000884,-0.2679646,0.643403
0.514020211,-0.388715426,0.653657,0.51180134,-0.350469802,0.653778,0.496637021,-0.381372007,0.659228,0.47124936,-0.365085213,0.65941,0.452226946,-0.350263601,0.664715,0.442603389,-0.33406355,0.668586,0.496416878,-0.313201493,0.660857,0.484088209,-0.280210258,0.657899,0.478330684,-0.274065753,0.65642,0.473159756,-0.269026185,0.655076,0.515221611,-0.310623858,0.653897,0.515227298,-0.273281086,0.654004,0.512223902,-0.252117821,0.654067,0.50981708,-0.237245036,0.654112,0.530524958,-0.312080417,0.648158,0.525608129,-0.271281059,0.640481,0.523104394,-0.250080184,0.636553,0.523413414,-0.233984252,0.632983,0.548374407,-0.320322339,0.641369,0.559455335,-0.288913636,0.641854,0.564569562,-0.274414953,0.642077,0.569093409,-0.261586145,0.642273
0.508106731,-0.394047144,0.658357,0.504344103,-0.358676638,0.658213,0.492665953,-0.385667043,0.660733,0.462875812,-0.374476155,0.667656,0.437907688,-0.357705856,0.667032,0.425953255,-0.342572613,0.667349,0.484192048,-0.317006003,0.661099,0.466402232,-0.28213492,0.656304,0.457407216,-0.264470354,0.653907,0.449169931,-0.248274692,0.651728,0.505667629,-0.317166279,0.658071,0.498575336,-0.274128023,0.651296,0.495421483,-0.250098024,0.647345,0.490566611,-0.233232236,0.644522,0.523386218,-0.320954939,0.655591,0.52240333,-0.27728988,0.650761,0.518538237,-0.256952749,0.64829,0.518543268,-0.239823119,0.646043,0.544242827,-0.332149323,0.652688,0.551002926,-0.29850434,0.648841,0.554060584,-0.283198029,0.647073,0.553871033,-0.273184318,0.645513
0.507323839,-0.396841988,0.659118,0.506060863,-0.358763721,0.660403,0.492826542,-0.386180174,0.663014,0.46084158,-0.370339875,0.663809,0.434690506,-0.346906334,0.658014,0.421380784,-0.32891573,0.654165,0.488129599,-0.318267253,0.666165,0.476364228,-0.282002563,0.663129,0.468633634,-0.269480424,0.661611,0.463886508,-0.267684951,0.660231,0.508772108,-0.317813135,0.661671,0.50307569,-0.27541263,0.656568,0.505582619,-0.25280937,0.660497,0.507038346,-0.237168604,0.663303,0.525573827,-0.321034512,0.657863,0.524329009,-0.279744481,0.652993,0.522669133,-0.258968451,0.650501,0.521163506,-0.239909937,0.648236,0.54498651,-0.331400831,0.653167,0.553726161,-0.299108434,0.651984,0.557679835,-0.284271884,0.651441,0.55966192,-0.272817749,0.650961
0.516741613,-0.392283655,0.656128,0.518715622,-0.352712357,0.657905,0.506020396,-0.381211364,0.658379,0.47247866,-0.364529181,0.659181,0.450589886,-0.348516378,0.661498,0.442093365,-0.335757626,0.665625,0.497291998,-0.312929162,0.661935,0.480704221,-0.276815249,0.658247,0.472325741,-0.259020848,0.656403,0.464677791,-0.242769411,0.654726,0.519938015,-0.312247765,0.659659,0.515195794,-0.271270592,0.654658,0.510940777,-0.24875375,0.65174,0.507773243,-0.232664527,0.649656,0.538806422,-0.313827235,0.657633,0.536382754,-0.275097254,0.653258,0.535191277,-0.263916391,0.651019,0.534136234,-0.25331275,0.648984,0.56085298,-0.323382802,0.654963,0.567537358,-0.290024855,0.651136,0.570347094,-0.277912299,0.649377,0.570970216,-0.27021005,0.647825
0.540982822,-0.387704006,0.658013,0.541578485,-0.352040948,0.66241,0.515411041,-0.378128528,0.657198,0.495707743,-0.355926892,0.655436,0.475401261,-0.339097413,0.658772,0.464975651,-0.319765402,0.65503,0.516783699,-0.31189231,0.664366,0.504002179,-0.273397456,0.660758,0.500803663,-0.25933761,0.664351,0.49839957,-0.244489995,0.667617,0.542839992,-0.312683785,0.666751,0.540509383,-0.271458071,0.663964,0.539459864,-0.247294047,0.662339,0.539292703,-0.230289346,0.661177,0.564349706,-0.316645278,0.668336,0.565878596,-0.276668047,0.665959,0.568526238,-0.258833928,0.664743,0.571039028,-0.242120315,0.663637,0.589890189,-0.327383383,0.669512,0.604482377,-0.301526709,0.676059,0.613061491,-0.288696602,0.679067,0.620728299,-0.277144939,0.681722
0.55581566,-0.387989548,0.665026,0.5459842,-0.349250451,0.66151,0.52656566,-0.381723603,0.66274,0.508764026,-0.357173597,0.662209,0.486913565,-0.336306084,0.661277,0.470864838,-0.319599265,0.657888,0.515072154,-0.304536437,0.656253,0.502622647,-0.265488661,0.646573,0.499441652,-0.247915139,0.647399,0.496506009,-0.231733639,0.64815,0.543321519,-0.305159501,0.658044,0.538188883,-0.261634997,0.648087,0.535202072,-0.236157055,0.642279,0.535651656,-0.225298089,0.638131,0.564802959,-0.308911173,0.659825,0.563213078,-0.267626514,0.650304,0.563538796,-0.248185058,0.645433,0.56392011,-0.230180886,0.641004,0.591025328,-0.320218353,0.662482,0.596600593,-0.286913596,0.656411,0.599592317,-0.272017392,0.653622,0.6022871,-0.258734455,0.65116
0.563930407,-0.392816447,0.670502,0.566623025,-0.348332675,0.665505,0.544386041,-0.376518274,0.665753,0.512462558,-0.349867595,0.653466,0.487391593,-0.326252055,0.646765,0.478169866,-0.310899748,0.648648,0.535147859,-0.300848216,0.656146,0.540284164,-0.271590463,0.66822,0.542834281,-0.256828446,0.674257,0.545142293,-0.243333249,0.679745,0.562322385,-0.304604442,0.660579,0.563591936,-0.263346088,0.656925,0.566712894,-0.239905764,0.654793,0.570124679,-0.22432026,0.65327,0.585075808,-0.311521448,0.664663,0.585888806,-0.271820682,0.65379,0.586927791,-0.252024804,0.648227,0.588020343,-0.233843477,0.64317,0.612715414,-0.326692676,0.670271,0.63450073,-0.302774617,0.680303,0.644530463,-0.291738149,0.684912,0.653390968,-0.281976216,0.688979
0.550428466,-0.384157226,0.656373,0.56075312,-0.334454197,0.658054,0.537879618,-0.368011914,0.657173,0.50769311,-0.334051761,0.652648,0.485450931,-0.31087578,0.649196,0.477367928,-0.294309221,0.650319,0.545502056,-0.290141462,0.660204,0.537303287,-0.251923483,0.655445,0.533187428,-0.23267868,0.653065,0.529436801,-0.215103266,0.650902,0.56941232,-0.294595751,0.659718,0.571497633,-0.252424785,0.654366,0.572785251,-0.227860506,0.651244,0.573724019,-0.210203779,0.649014,0.588445455,-0.301773372,0.659172,0.594007899,-0.263075627,0.653882,0.596956274,-0.244558909,0.651175,0.599763399,-0.227316567,0.648714,0.609680747,-0.316694679,0.658263,0.625971872,-0.289218121,0.660226,0.633450673,-0.276631356,0.661128,0.640111789,-0.266212551,0.661924
0.54512157,-0.385407597,0.65909,0.550346699,-0.338268177,0.657492,0.530097028,-0.370352597,0.661162,0.501480117,-0.338580777,0.658356,0.47930192,-0.314667179,0.654225,0.472711487,-0.294560035,0.649211,0.538844501,-0.291916815,0.659006,0.532300754,-0.2517889,0.652651,0.527557513,-0.232330481,0.649474,0.523240659,-0.214610005,0.646585,0.559178206,-0.299734751,0.655908,0.559258293,-0.254416393,0.64792,0.558723747,-0.229568289,0.64326,0.55837074,-0.21162679,0.639931,0.576648017,-0.304775923,0.653497,0.580015206,-0.266579834,0.646313,0.582162751,-0.245083714,0.642638,0.583964516,-0.229765978,0.639296,0.594766087,-0.32060731,0.650907,0.608637623,-0.290637832,0.650562,0.615133183,-0.2765637,0.650404,0.62047812,-0.264824702,0.650264
0.529214888,-0.38958351,0.657926,0.534091969,-0.346128548,0.654936,0.509192371,-0.381600412,0.660057,0.489034863,-0.35229811,0.664228,0.468485147,-0.331444299,0.664314,0.456382216,-0.312581612,0.659956,0.516918846,-0.302115327,0.655577,0.503435697,-0.264142973,0.648717,0.496445964,-0.245469982,0.645287,0.487918423,-0.227788582,0.642168,0.537711273,-0.302631273,0.651973,0.540145219,-0.259771136,0.641797,0.539356496,-0.235867197,0.635862,0.538838812,-0.218555908,0.631622,0.553607683,-0.309650137,0.649267,0.555157714,-0.266127228,0.642269,0.555009734,-0.246474314,0.638689,0.554707009,-0.228589695,0.635434,0.57225969,-0.324514593,0.646549,0.578397603,-0.290124231,0.641166,0.580996347,-0.274327444,0.638692,0.582376105,-0.260782727,0.63651
0.516232447,-0.397269227,0.661314,0.514152538,-0.349693508,0.652307,0.498426658,-0.385676225,0.662519,0.473772552,-0.365239565,0.661052,0.448010698,-0.347014968,0.658829,0.436106615,-0.332608916,0.658663,0.484023673,-0.306010412,0.647689,0.467395139,-0.26953765,0.6434,0.45929896,-0.251459766,0.641533,0.457866697,-0.238672417,0.646656,0.505341469,-0.304925903,0.643384,0.496093152,-0.258298261,0.627655,0.489320435,-0.234766726,0.618479,0.484489188,-0.217737681,0.611926,0.523501205,-0.308053407,0.640624,0.520640577,-0.268721292,0.640343,0.519178327,-0.248620427,0.640199,0.519257863,-0.236354064,0.644515,0.546085528,-0.319073122,0.638794,0.550963055,-0.285306727,0.636878,0.553339525,-0.269871105,0.636156,0.5554374,-0.256251639,0.63552
0.526972164,-0.393203741,0.658559,0.517207283,-0.352870361,0.656625,0.501079355,-0.385599063,0.658128,0.471542684,-0.372256647,0.656037,0.442094716,-0.356278732,0.651555,0.428348556,-0.343020943,0.652285,0.482955232,-0.315686971,0.654763,0.458668866,-0.280056095,0.646894,0.446557813,-0.262295674,0.64296,0.436489193,-0.246703661,0.640738,0.505622565,-0.312882412,0.654705,0.503200543,-0.274089159,0.656946,0.50177885,-0.251376685,0.658253,0.500759779,-0.235116285,0.659187,0.528516212,-0.313340878,0.654826,0.520378343,-0.274624885,0.653832,0.516596485,-0.254524513,0.653323,0.513316297,-0.236187915,0.65286,0.554673284,-0.321245459,0.655275,0.556915053,-0.286805625,0.652418,0.558392329,-0.271078891,0.651105,0.55970716,-0.257138844,0.649947
0.522942585,-0.396449345,0.660614,0.513502506,-0.354647563,0.655714,0.501253256,-0.388295317,0.66035,0.461003361,-0.372797882,0.653427,0.431786717,-0.356986098,0.649308,0.421962095,-0.342310499,0.64901,0.47907562,-0.314798784,0.652037,0.456518519,-0.279393429,0.645395,0.445243054,-0.261697202,0.642074,0.435024751,-0.245629696,0.6391,0.50280201,-0.311747526,0.650851,0.484834775,-0.269368139,0.63956,0.475362015,-0.243900378,0.632974,0.46859303,-0.225694431,0.62827,0.523128213,-0.313072515,0.650301,0.504816214,-0.273589022,0.64225,0.496480961,-0.252617613,0.638132,0.488975917,-0.233629512,0.634387,0.546641843,-0.324356882,0.65043,0.54013848,-0.28801763,0.641039,0.537154203,-0.271250648,0.636725,0.534556232,-0.256504174,0.632918
0.52605093,-0.390745666,0.655292,0.516075276,-0.352834572,0.654584,0.499843331,-0.383263807,0.654346,0.468741958,-0.364661821,0.645569,0.4443804,-0.350893044,0.647347,0.432183534,-0.342417744,0.653233,0.482847474,-0.315152006,0.652911,0.471050704,-0.286146849,0.658897,0.464500475,-0.271420621,0.66189,0.458531845,-0.258007441,0.664611,0.508063183,-0.312135113,0.653881,0.501239505,-0.271452917,0.652114,0.497259159,-0.247723914,0.651083,0.494415765,-0.230775563,0.650346,0.529635238,-0.313227807,0.654742,0.544577717,-0.284863202,0.669856,0.55161683,-0.270393442,0.677589,0.55801588,-0.257241954,0.684619,0.556593827,-0.32106513,0.655868,0.557884959,-0.287527278,0.652022,0.559112927,-0.272763366,0.650256,0.562434584,-0.260314656,0.648696
0.537047897,-0.396029446,0.657258,0.54259047,-0.361880309,0.655778,0.516664345,-0.383490571,0.652294,0.490073686,-0.352898093,0.637615,0.469103666,-0.32936784,0.635301,0.463586513,-0.317941265,0.641537,0.512391415,-0.315885878,0.648529,0.50254851,-0.287537994,0.653104,0.507366603,-0.280624985,0.655391,0.511905968,-0.273927676,0.65747,0.540999863,-0.321060116,0.654309,0.543208525,-0.280578339,0.645894,0.544611198,-0.256513403,0.640986,0.545666962,-0.239109632,0.63748,0.564884769,-0.328863739,0.659195,0.552231048,-0.286183868,0.648862,0.545755654,-0.264328826,0.643576,0.546751385,-0.255465623,0.63877,0.593730609,-0.344671134,0.665191,0.598652024,-0.310439134,0.661879,0.601409941,-0.294833625,0.660357,0.604158284,-0.281189802,0.659014
0.543444587,-0.388885023,0.658494,0.555955885,-0.344905045,0.656083,0.531021949,-0.367432247,0.65602,0.496290458,-0.340413555,0.6449,0.469920488,-0.31073432,0.631344,0.461023672,-0.293389024,0.631171,0.532133254,-0.298587164,0.65133,0.538386183,-0.27138904,0.666351,0.541479211,-0.257602586,0.673861,0.544273057,-0.244964592,0.680689,0.557445997,-0.303609392,0.653692,0.559282148,-0.263562914,0.644192,0.559980643,-0.238884202,0.63865,0.56085985,-0.221657978,0.634691,0.578956792,-0.315318229,0.655845,0.572879662,-0.272750634,0.645979,0.569775717,-0.250892205,0.640931,0.571431666,-0.24273894,0.636343,0.602580389,-0.333063046,0.658767,0.599876136,-0.297323916,0.648971,0.598655948,-0.280792829,0.64447,0.599093839,-0.276452581,0.640499
0.549445375,-0.368021882,0.644868,0.555937051,-0.32123,0.638193,0.529317449,-0.352801369,0.642298,0.501325748,-0.322497427,0.630183,0.471202422,-0.296092326,0.617554,0.458479117,-0.275920497,0.610243,0.529639795,-0.272355644,0.630409,0.522704421,-0.233168665,0.623723,0.519233232,-0.213478516,0.62038,0.51632512,-0.195640688,0.61734,0.554856274,-0.276627867,0.63157,0.567858354,-0.240822715,0.63774,0.575451536,-0.219891493,0.641339,0.581769077,-0.204073985,0.64391,0.575755573,-0.284013663,0.633107,0.577270337,-0.242792591,0.620459,0.578115117,-0.221512309,0.613988,0.578926124,-0.202048412,0.608105,0.600769302,-0.299858552,0.635977,0.618757242,-0.272852897,0.638275,0.626961924,-0.260551847,0.639331,0.63572723,-0.251231724,0.640263
0.538492447,-0.356445337,0.622312,0.54465208,-0.315111665,0.622843,0.522460141,-0.344064593,0.624683,0.494793591,-0.318382344,0.620912,0.470133501,-0.295059518,0.615238,0.459290949,-0.276509652,0.611752,0.528929204,-0.271655544,0.626182,0.522428909,-0.233176626,0.62136,0.519170351,-0.213811589,0.618949,0.516328873,-0.196193419,0.616757,0.553827939,-0.275975245,0.623372,0.556312642,-0.233488531,0.616724,0.557853982,-0.208760259,0.612845,0.558937422,-0.192510492,0.610075,0.571333669,-0.282083653,0.621014,0.578608308,-0.243468326,0.620941,0.586221543,-0.225543293,0.62365,0.592359541,-0.208723755,0.626113,0.590943944,-0.295708207,0.618148,0.610916881,-0.270103233,0.625469,0.62029489,-0.258433621,0.629041,0.629323042,-0.248566373,0.633382
0.534501272,-0.36148463,0.626461,0.538481779,-0.313929719,0.622068,0.517040449,-0.347299995,0.626621,0.484759092,-0.314265009,0.618582,0.461640348,-0.289951467,0.613419,0.456278457,-0.274118862,0.609667,0.522321734,-0.268251936,0.619245,0.507874643,-0.230651529,0.610248,0.501343646,-0.211879094,0.605749,0.495369469,-0.19458718,0.601659,0.543505038,-0.271622439,0.61767,0.55427765,-0.236447375,0.623253,0.559172922,-0.215301446,0.62651,0.562880425,-0.199583538,0.628837,0.561988762,-0.278682779,0.616752,0.569804933,-0.242210162,0.612691,0.569307151,-0.226579994,0.610614,0.566183519,-0.226635809,0.608726,0.583468031,-0.293815891,0.616359,0.598115821,-0.266530144,0.619056,0.607384531,-0.255310165,0.622991,0.616013809,-0.245608763,0.626929
0.512202596,-0.347562559,0.598561,0.508194739,-0.318589694,0.601537,0.489956956,-0.349441064,0.601849,0.459110122,-0.326472027,0.59795,0.436819215,-0.307446687,0.598193,0.428397286,-0.293385556,0.601303,0.487054887,-0.285962027,0.607708,0.476158062,-0.249881051,0.604683,0.470538903,-0.232929742,0.603171,0.465331776,-0.217156426,0.601796,0.508550115,-0.282596198,0.604515,0.514687596,-0.248014791,0.615253,0.518241121,-0.227476051,0.621517,0.520768067,-0.212642935,0.625992,0.526377721,-0.282846232,0.601629,0.525577881,-0.242426433,0.597102,0.523693627,-0.223309054,0.594785,0.521566832,-0.206261397,0.592679,0.547812136,-0.288784783,0.597756,0.566712187,-0.268177121,0.61136,0.575380974,-0.258774373,0.617611,0.581901357,-0.247540746,0.623126
0.505420889,-0.368967803,0.611982,0.496789489,-0.330112802,0.611868,0.478388804,-0.362066004,0.611813,0.445010075,-0.339253949,0.605691,0.419948299,-0.322802635,0.605364,0.407708896,-0.307918735,0.605777,0.469698372,-0.287869067,0.611577,0.450110517,-0.251019444,0.605023,0.441613773,-0.233933943,0.601745,0.434677189,-0.219660756,0.598766,0.494618416,-0.287846367,0.611754,0.493780398,-0.251377237,0.61796,0.493290454,-0.230076529,0.62158,0.492939415,-0.214852914,0.624166,0.515354297,-0.291452468,0.611908,0.511812698,-0.252834469,0.612482,0.510015425,-0.233223454,0.612775,0.509499573,-0.215684353,0.613042,0.540265196,-0.302368606,0.612109,0.553846598,-0.273011253,0.615149,0.560059635,-0.259600256,0.616546,0.566323827,-0.247302446,0.617778
0.492788579,-0.368174128,0.610106,0.490132345,-0.324684405,0.612855,0.475583506,-0.359824711,0.61365,0.441826859,-0.334269602,0.611427,0.419694637,-0.319302337,0.613861,0.415467809,-0.311344576,0.62242,0.470378026,-0.287173376,0.619191,0.453826742,-0.252227143,0.616808,0.445519061,-0.234681129,0.615616,0.437948503,-0.218687849,0.614533,0.491853552,-0.285093716,0.615605,0.482298986,-0.243946881,0.611819,0.476344098,-0.220233432,0.609611,0.472036061,-0.203002914,0.608033,0.509490058,-0.28676163,0.612417,0.509926576,-0.248846247,0.614651,0.510152087,-0.229507638,0.615794,0.511103621,-0.214256382,0.616833,0.53026871,-0.294983026,0.608221,0.544564883,-0.268777661,0.617124,0.55145686,-0.256801041,0.621606,0.55753905,-0.246229938,0.625561
0.494818728,-0.365280504,0.604707,0.498485395,-0.327927857,0.611369,0.472577563,-0.35701442,0.608783,0.464609023,-0.335850975,0.606757,0.429175017,-0.301400487,0.584995,0.420449696,-0.283341285,0.583773,0.48949984,-0.288868679,0.621064,0.489166554,-0.260188036,0.633322,0.488947095,-0.245665891,0.639451,0.488717062,-0.23236092,0.645022,0.510587949,-0.288701511,0.618035,0.510589345,-0.249493423,0.620307,0.510587076,-0.226561471,0.621632,0.514933495,-0.211095301,0.623392,0.5274095,-0.291805043,0.614968,0.534704693,-0.257653657,0.621828,0.538059317,-0.239773963,0.625338,0.540291104,-0.222634139,0.628529,0.542362057,-0.301502138,0.610299,0.554541059,-0.272302464,0.612588,0.560078069,-0.259062986,0.61364,0.563587454,-0.247263147,0.614568
0.486211747,-0.319451911,0.572273,0.502624463,-0.293159151,0.587196,0.470494231,-0.310076136,0.576092,0.453072721,-0.29375582,0.58496,0.43739993,-0.27736838,0.590459,0.440604577,-0.274504662,0.606615,0.494762262,-0.264950554,0.60225,0.510904433,-0.246673796,0.627275,0.518947113,-0.23734441,0.639788,0.526242587,-0.228758961,0.651163,0.518926301,-0.267962255,0.602127,0.533103106,-0.232743892,0.609613,0.540045906,-0.214225977,0.61398,0.54513378,-0.200165243,0.617099,0.537617517,-0.272606547,0.600739,0.559390529,-0.256869227,0.618504,0.571655297,-0.240867967,0.627594,0.582968812,-0.225517632,0.635857,0.557503313,-0.282149295,0.596751,0.579898817,-0.267687177,0.609851,0.591003761,-0.257319822,0.615871,0.59933143,-0.248425832,0.621182
0.487661921,-0.330287596,0.57331,0.503181547,-0.295214364,0.585842,0.473871943,-0.315500995,0.578595,0.457496221,-0.299000384,0.584546,0.445543542,-0.281917612,0.592859,0.445533878,-0.266232188,0.599133,0.495961298,-0.265194188,0.601093,0.503150621,-0.23021041,0.606197,0.503740022,-0.213212155,0.608749,0.504239568,-0.197333323,0.611069,0.517994679,-0.267024617,0.598382,0.532335903,-0.233487349,0.603166,0.539236344,-0.211570399,0.605957,0.551157384,-0.196839,0.615735,0.534929987,-0.270929035,0.595071,0.552688666,-0.236722284,0.599334,0.559308974,-0.218725366,0.601515,0.565495229,-0.201675023,0.603497,0.552819718,-0.279995331,0.58919,0.575510612,-0.254429733,0.593832,0.584852811,-0.24197589,0.595965,0.593107837,-0.230963091,0.597846
0.49058874,-0.324839577,0.573237,0.513935903,-0.286695755,0.579995,0.476453375,-0.313095192,0.576743,0.463404118,-0.287312969,0.580084,0.444011124,-0.266213944,0.580884,0.43776026,-0.250557001,0.584029,0.507506625,-0.247429607,0.589031,0.502186935,-0.211237174,0.589357,0.499460872,-0.192716546,0.589519,0.496944318,-0.175627263,0.589667,0.529430566,-0.251150737,0.586753,0.535833382,-0.211704086,0.586498,0.539182568,-0.187976818,0.58635,0.541230073,-0.170896175,0.586244,0.546400783,-0.257308677,0.584298,0.557057477,-0.219918881,0.585483,0.562487412,-0.200880911,0.58609,0.566916501,-0.182615325,0.586642,0.564348828,-0.270337956,0.580339,0.58196412,-0.245377792,0.585267,0.589966676,-0.234104883,0.587532,0.596336914,-0.222404639,0.58953
0.487961675,-0.32717436,0.570505,0.496506121,-0.287069345,0.569755,0.471540018,-0.310914135,0.570974,0.442147723,-0.285326345,0.56471,0.422785535,-0.264151956,0.565472,0.412693222,-0.243948755,0.560191,0.481387047,-0.241971437,0.569828,0.471466855,-0.204222775,0.563282,0.466460628,-0.184974448,0.56001,0.461879672,-0.167247754,0.557034,0.50468411,-0.24681229,0.569006,0.510664446,-0.208579263,0.568986,0.514206071,-0.185395945,0.568975,0.516711773,-0.168887941,0.568967,0.523385468,-0.254254128,0.568393,0.537793271,-0.223496736,0.575534,0.545891036,-0.204865522,0.579188,0.549515634,-0.191331413,0.58251,0.544584382,-0.269502369,0.567787,0.558779614,-0.242183363,0.569269,0.565621967,-0.228853861,0.56995,0.570703367,-0.218902979,0.57055
0.471542267,-0.338311473,0.562886,0.466762692,-0.296201887,0.558079,0.447345877,-0.327937371,0.56365,0.417590854,-0.298246169,0.555665,0.395917026,-0.276019172,0.553883,0.38602062,-0.257300117,0.551549,0.44607313,-0.249846886,0.555734,0.43631642,-0.213648363,0.554809,0.431394291,-0.195376567,0.554346,0.426894041,-0.178664596,0.553925,0.468261114,-0.252152009,0.55327,0.477494537,-0.218194146,0.561941,0.482615583,-0.196625025,0.566998,0.48620004,-0.180696811,0.570611,0.486531382,-0.257800109,0.551654,0.48129635,-0.213940369,0.540695,0.477558467,-0.196915965,0.535089,0.474202069,-0.180939539,0.529992,0.508157841,-0.271437509,0.550499,0.519399873,-0.241203031,0.551698,0.524629472,-0.227041375,0.552249,0.528470712,-0.216417744,0.552735
0.445252637,-0.336582689,0.546566,0.441882399,-0.300309718,0.548401,0.422121051,-0.331396791,0.549773,0.395636498,-0.309596127,0.55014,0.372689274,-0.290632916,0.549904,0.366155406,-0.277907694,0.555151,0.423103796,-0.259231024,0.553681,0.408176837,-0.22281564,0.5506,0.400702878,-0.204577848,0.54906,0.393901941,-0.187980284,0.54766,0.444942251,-0.259042101,0.550236,0.439226979,-0.21754188,0.545622,0.434766144,-0.194505431,0.54293,0.431537234,-0.177636429,0.541008,0.462695671,-0.26242137,0.547244,0.45797713,-0.222918668,0.545082,0.455111398,-0.202798149,0.543975,0.452473655,-0.184165203,0.54297,0.483235363,-0.272900035,0.543423,0.49103347,-0.241976803,0.545956,0.494609973,-0.227203483,0.54712,0.497778863,-0.214088351,0.548147
0.445689301,-0.338286305,0.547813,0.440038237,-0.299260997,0.548332,0.422578315,-0.331450176,0.548752,0.389917549,-0.311992889,0.543966,0.361771514,-0.294965882,0.540219,0.349497904,-0.281956972,0.54221,0.408545734,-0.260330293,0.549867,0.385830976,-0.226546959,0.544438,0.374365567,-0.20950381,0.541724,0.363866838,-0.193883687,0.539257,0.432068052,-0.256905452,0.548853,0.420386625,-0.21438339,0.542417,0.412992059,-0.191048424,0.538663,0.407639763,-0.174039337,0.535981,0.452129479,-0.257584831,0.547974,0.440088808,-0.216711763,0.541726,0.4338146,-0.198380139,0.538529,0.428005977,-0.181227678,0.535623,0.477078767,-0.264888314,0.546854,0.479521673,-0.231899443,0.545136,0.480444664,-0.216367167,0.544346,0.481236145,-0.202627278,0.543649
0.441852114,-0.337963682,0.544945,0.435559797,-0.297509455,0.543934,0.41946072,-0.330765224,0.546107,0.385408377,-0.309390247,0.540023,0.359182037,-0.29229725,0.538103,0.347509894,-0.278536574,0.539862,0.405770995,-0.257939838,0.544694,0.384178156,-0.223144763,0.53842,0.376724812,-0.204141356,0.535284,0.367476867,-0.187569857,0.532432,0.428745557,-0.255217663,0.54292,0.427599459,-0.218720608,0.549411,0.429595434,-0.199607641,0.554,0.429740785,-0.184815221,0.557278,0.448228766,-0.256534515,0.541547,0.449754561,-0.22425658,0.545873,0.449645138,-0.205513627,0.548086,0.44989346,-0.193512557,0.550098,0.473515358,-0.267788099,0.540084,0.473274497,-0.231788731,0.534058,0.473118173,-0.215436776,0.531289,0.471722712,-0.209003908,0.528846
0.441708802,-0.337610635,0.544421,0.439003725,-0.290496896,0.537812,0.416630838,-0.326505422,0.541013,0.384043288,-0.291766657,0.527572,0.364114454,-0.271565503,0.528811,0.358013096,-0.258543827,0.533657,0.408922847,-0.243359446,0.528987,0.391258907,-0.208931531,0.51624,0.382299385,-0.19125217,0.509866,0.374084167,-0.174908005,0.504072,0.435015766,-0.245935725,0.53118,0.44579444,-0.215414383,0.545143,0.452082719,-0.19760779,0.553289,0.456792574,-0.183233395,0.559107,0.457185918,-0.251798416,0.533549,0.460506732,-0.216133611,0.539991,0.462206978,-0.197906199,0.543287,0.463876461,-0.180636042,0.546283,0.484694315,-0.265804341,0.537382,0.487699366,-0.233501306,0.532084,0.489178379,-0.219756805,0.52965,0.490542549,-0.207450164,0.527502
0.436106072,-0.332816983,0.537544,0.448204416,-0.288821443,0.534992,0.418786988,-0.322896478,0.540563,0.401250165,-0.282708548,0.535147,0.383419827,-0.255203389,0.530855,0.377147736,-0.233902737,0.523612,0.440690059,-0.245529195,0.537014,0.456124912,-0.222283122,0.556696,0.463837686,-0.210487586,0.566536,0.470847639,-0.1996704,0.575482,0.459696033,-0.249577108,0.53243,0.462137793,-0.207398621,0.523833,0.46365297,-0.182443061,0.518818,0.458354289,-0.174082658,0.515236,0.474625684,-0.256251308,0.528875,0.485175064,-0.219421284,0.521294,0.481121245,-0.207925046,0.517415,0.470354304,-0.214795041,0.513888,0.490988696,-0.270449278,0.525077,0.502540037,-0.238302293,0.517243,0.503671878,-0.224797315,0.513644,0.497246488,-0.22261162,0.510468
0.42934334,-0.320735739,0.519846,0.454650779,-0.274844219,0.517563,0.428158565,-0.300534272,0.519973,0.405558367,-0.269470319,0.515637,0.389498341,-0.245018022,0.515604,0.385877445,-0.227966026,0.518129,0.442387878,-0.227307747,0.516146,0.437842266,-0.189273448,0.508189,0.435501437,-0.170120076,0.504211,0.433392399,-0.152389455,0.500594,0.465063698,-0.233727196,0.515268,0.473708529,-0.193032829,0.508302,0.477933838,-0.169312411,0.504238,0.478913872,-0.155468751,0.501335,0.483161136,-0.242575408,0.514741,0.492465321,-0.203258637,0.506404,0.495844041,-0.18408651,0.502138,0.499101152,-0.166227386,0.49826,0.503386118,-0.259701228,0.514476,0.517280902,-0.23070547,0.512378,0.523959643,-0.216356565,0.511413,0.529921574,-0.203571448,0.510562
0.426041873,-0.315327318,0.512739,0.447793255,-0.272843324,0.510898,0.415938292,-0.299643277,0.515196,0.396915388,-0.267932713,0.509332,0.37375037,-0.237900672,0.498467,0.364909486,-0.216428991,0.490303,0.439352885,-0.226902287,0.512706,0.435840842,-0.1885554,0.506273,0.434054947,-0.16920446,0.503057,0.432443196,-0.151388639,0.500133,0.459398894,-0.232409068,0.509049,0.465031148,-0.191857664,0.500359,0.468444223,-0.167037853,0.49529,0.470297831,-0.150841819,0.491669,0.475064797,-0.240387759,0.506196,0.483393257,-0.20197397,0.497375,0.4863939,-0.182072051,0.492862,0.489284811,-0.163512129,0.488759,0.491836319,-0.258557926,0.503116,0.507559356,-0.230698785,0.499495,0.514620366,-0.216895106,0.497832,0.520967248,-0.204540414,0.496364
0.425591209,-0.313088032,0.500281,0.427894879,-0.2820037,0.497811,0.408014202,-0.313418159,0.50118,0.378360388,-0.283381324,0.49308,0.355111929,-0.258885973,0.487539,0.344828799,-0.239543482,0.484148,0.40659403,-0.237022534,0.49723,0.397350305,-0.197126317,0.489232,0.392129365,-0.182634493,0.485233,0.387306831,-0.168965248,0.481597,0.429410039,-0.23863864,0.495327,0.436236108,-0.199152786,0.49511,0.439618282,-0.175940046,0.494983,0.441161655,-0.16311961,0.494892,0.448264923,-0.243645873,0.493972,0.448820568,-0.200882178,0.484594,0.448252488,-0.181097968,0.479796,0.447830522,-0.162672999,0.475433,0.470665045,-0.256417372,0.492759,0.481422872,-0.223899396,0.48972,0.486412752,-0.208869575,0.488323,0.490826479,-0.195585154,0.487091
0.419023719,-0.32547553,0.491617,0.41582158,-0.286222138,0.489871,0.400471879,-0.314136537,0.492965,0.370923324,-0.293033949,0.488577,0.348700387,-0.271175351,0.486813,0.341461654,-0.25636529,0.490023,0.389685158,-0.244148445,0.490357,0.386508385,-0.212144905,0.494554,0.384811866,-0.19495116,0.496652,0.384815573,-0.186316016,0.49856,0.412537672,-0.243086534,0.48812,0.407507374,-0.199735277,0.479184,0.404588195,-0.174208573,0.473971,0.402538858,-0.156025205,0.470248,0.4316103,-0.245849725,0.486428,0.428568045,-0.203737361,0.477564,0.427041529,-0.181957917,0.473029,0.425745407,-0.162294619,0.468907,0.454756996,-0.25580974,0.484706,0.471563257,-0.228533852,0.492156,0.479296833,-0.215964252,0.495579,0.486127288,-0.204854626,0.4986
0.415134481,-0.326790332,0.489953,0.405234438,-0.288729685,0.489262,0.393521294,-0.320249292,0.490373,0.358787151,-0.302343211,0.48855,0.332248519,-0.285211391,0.486425,0.319115436,-0.270051761,0.486033,0.37638663,-0.248082081,0.489314,0.355998712,-0.212175005,0.482678,0.345756291,-0.194190074,0.479361,0.336916463,-0.179544017,0.476344,0.400313366,-0.246263439,0.48857,0.389014579,-0.203022685,0.480955,0.382421786,-0.179145054,0.476514,0.377665458,-0.161748204,0.473341,0.420588221,-0.248374163,0.488017,0.410661448,-0.205785137,0.480544,0.405588658,-0.18406759,0.47672,0.401172988,-0.165486472,0.473245,0.445559332,-0.25755684,0.487472,0.452768122,-0.226199994,0.490167,0.456156938,-0.2116739,0.491405,0.459388979,-0.198520951,0.492498
0.411286604,-0.32727989,0.486688,0.40212505,-0.28942139,0.486087,0.388926746,-0.320327859,0.486381,0.355643462,-0.302249405,0.484588,0.330481096,-0.285364373,0.483925,0.319982983,-0.272457273,0.486623,0.370746504,-0.251499881,0.485287,0.353891729,-0.213138067,0.480637,0.344815892,-0.195346028,0.478312,0.338552201,-0.183231832,0.476198,0.395466797,-0.249728261,0.485483,0.387214357,-0.206935114,0.477924,0.382626948,-0.18246058,0.473514,0.377295135,-0.162668469,0.470365,0.417511735,-0.249506713,0.485697,0.409273332,-0.206950501,0.478317,0.405061732,-0.185232911,0.474542,0.401341169,-0.166089111,0.471109,0.443327515,-0.258854008,0.486044,0.453013256,-0.228810756,0.48996,0.458976008,-0.217501653,0.49176,0.462212156,-0.201871204,0.493348
0.411170594,-0.329042992,0.4879,0.408345395,-0.286620128,0.486164,0.391580644,-0.317948766,0.488462,0.36358776,-0.289454765,0.48221,0.336193842,-0.263208614,0.474623,0.32686991,-0.244135916,0.472346,0.38766958,-0.242333985,0.485672,0.386076811,-0.210802613,0.491788,0.385240334,-0.194453769,0.494846,0.386158981,-0.18421232,0.497625,0.411100865,-0.24349888,0.484422,0.413496186,-0.203008467,0.475614,0.414007887,-0.177881515,0.470475,0.414413403,-0.159752596,0.466805,0.431768902,-0.251817184,0.483543,0.4298592,-0.209216229,0.475111,0.428891404,-0.187357563,0.470797,0.425966129,-0.164529897,0.466875,0.453729501,-0.265638735,0.482777,0.469460301,-0.236099225,0.485512,0.476775056,-0.222458743,0.486769,0.48408877,-0.213605938,0.492672
0.405389057,-0.324690579,0.482505,0.411122857,-0.280676332,0.481287,0.389573515,-0.312121156,0.485558,0.365637561,-0.273872691,0.481824,0.349778745,-0.249116487,0.48168,0.342397686,-0.233292045,0.478534,0.408796689,-0.2332514,0.484272,0.403852726,-0.193853458,0.478883,0.401169951,-0.174502526,0.476188,0.398725977,-0.15668361,0.473738,0.428162898,-0.239840763,0.480064,0.437527253,-0.19929997,0.475395,0.442911964,-0.175869744,0.472671,0.444776385,-0.162115294,0.470726,0.442952409,-0.248706789,0.476705,0.457053277,-0.212159688,0.476854,0.464188794,-0.193667405,0.47693,0.470121661,-0.177297719,0.476999,0.458330704,-0.265550287,0.472931,0.477967338,-0.238884946,0.47503,0.486896846,-0.226781229,0.475995,0.494813944,-0.215964398,0.476847
0.40269041,-0.322456051,0.479563,0.414032452,-0.279392356,0.478616,0.387825929,-0.309560803,0.482939,0.3665396,-0.272467892,0.479049,0.354252655,-0.246224358,0.477611,0.345985799,-0.227851227,0.476616,0.409829692,-0.232632049,0.482192,0.405638595,-0.19348196,0.47714,0.407122057,-0.174466005,0.474614,0.404667164,-0.157630948,0.476116,0.428878181,-0.239303848,0.477665,0.440240463,-0.198407418,0.469897,0.445601368,-0.174210349,0.465757,0.44949517,-0.156870066,0.462837,0.443296647,-0.248182827,0.474019,0.464233208,-0.215177096,0.476554,0.47336169,-0.199573706,0.477851,0.482087762,-0.18450866,0.47903,0.458086856,-0.264927122,0.469863,0.482122526,-0.239783884,0.472479,0.492396825,-0.227346681,0.473681,0.501522562,-0.21628469,0.474741
0.401807733,-0.322399292,0.479077,0.410397876,-0.281148014,0.477848,0.385907727,-0.310275337,0.48145,0.36185342,-0.274165953,0.477187,0.339611867,-0.249292485,0.47029,0.336439691,-0.228533462,0.470894,0.405289986,-0.233188974,0.479973,0.399855149,-0.193801128,0.474253,0.397015967,-0.174379255,0.471393,0.397062776,-0.156140755,0.468793,0.42723267,-0.239818814,0.476614,0.433504493,-0.199537933,0.471442,0.437007745,-0.177977039,0.468425,0.439747884,-0.161996284,0.46627,0.4426822,-0.249059599,0.473955,0.455943022,-0.213348669,0.475731,0.463707859,-0.194806647,0.47664,0.470520096,-0.178090065,0.477466,0.458892737,-0.266358266,0.471007,0.478178842,-0.239428618,0.472639,0.484638738,-0.227002964,0.473389,0.491875872,-0.21697803,0.474051
0.398567626,-0.323978633,0.477448,0.395246129,-0.286776842,0.473085,0.381571579,-0.314367142,0.479279,0.345104292,-0.28852252,0.471982,0.32051858,-0.262775851,0.465294,0.309808028,-0.242334395,0.458443,0.377167435,-0.239966568,0.472371,0.368725529,-0.205995139,0.470219,0.365533204,-0.193963581,0.469142,0.365912148,-0.199081612,0.468164,0.398395237,-0.242522368,0.468707,0.391920609,-0.199225707,0.457968,0.388166012,-0.173657752,0.451704,0.385494081,-0.155244645,0.447229,0.415611286,-0.248325445,0.466066,0.411312818,-0.205582523,0.455298,0.409137562,-0.183548418,0.449789,0.407174092,-0.163413925,0.44478,0.435673693,-0.262059779,0.463631,0.453042523,-0.235844271,0.47167,0.461008332,-0.223842488,0.475363,0.468561391,-0.212333749,0.478622
0.395093585,-0.32505439,0.476616,0.383235674,-0.28925847,0.474311,0.374216574,-0.318099682,0.477306,0.332614983,-0.297696908,0.471377,0.307863733,-0.280045889,0.470164,0.296361477,-0.264731303,0.470707,0.358877215,-0.245036886,0.473586,0.340446217,-0.207345362,0.466104,0.331262242,-0.189947434,0.462364,0.322781831,-0.173812204,0.458963,0.382190556,-0.245552156,0.471998,0.371625612,-0.201792274,0.463033,0.370812274,-0.177844704,0.461667,0.368472828,-0.159676387,0.460692,0.401589746,-0.249703918,0.470889,0.393986741,-0.206179468,0.46201,0.390082415,-0.18430132,0.457467,0.386533815,-0.164354288,0.453338,0.424863065,-0.261497253,0.469941,0.433601383,-0.229211593,0.469733,0.437854508,-0.214234382,0.469637,0.441637564,-0.200917575,0.469553
0.392308509,-0.327827431,0.475906,0.381854995,-0.290091681,0.474856,0.370027271,-0.32044332,0.477148,0.334010035,-0.301356427,0.474998,0.307440305,-0.28283364,0.471677,0.294273474,-0.266628714,0.470049,0.354947069,-0.24841854,0.475687,0.338231027,-0.210872381,0.469411,0.330135738,-0.198111759,0.466273,0.322528031,-0.186028219,0.46342,0.380819411,-0.247133225,0.473802,0.371356487,-0.20363697,0.466115,0.362730009,-0.18121249,0.46163,0.35839548,-0.165657109,0.458427,0.400024371,-0.250677039,0.47234,0.392757755,-0.207715965,0.464719,0.385097074,-0.187770975,0.46082,0.381279394,-0.172166937,0.457276,0.422994021,-0.261607814,0.470777,0.429679488,-0.228240468,0.468675,0.429842873,-0.213135089,0.467709,0.435896406,-0.199855581,0.466856
0.395219225,-0.328120019,0.478519,0.392771682,-0.28975537,0.477236,0.375487572,-0.320520001,0.480075,0.344653313,-0.30379346,0.476736,0.31697493,-0.284902561,0.472171,0.302372068,-0.26791536,0.46861,0.365119103,-0.248373326,0.4783,0.348401996,-0.210161146,0.471844,0.342643754,-0.199032163,0.468616,0.335379906,-0.186739993,0.465681,0.387846199,-0.248244425,0.475947,0.378483198,-0.20384756,0.467965,0.374655827,-0.180187965,0.463309,0.369178765,-0.162420493,0.459983,0.406823205,-0.251608997,0.47412,0.40010675,-0.206269398,0.466169,0.39541894,-0.187784343,0.462101,0.393377802,-0.176302701,0.458403,0.43212482,-0.261968616,0.472162,0.435952956,-0.228870621,0.46989,0.439223536,-0.213804002,0.468846,0.44215314,-0.20036021,0.467925
0.391109397,-0.32837557,0.476986,0.391341728,-0.288221612,0.476071,0.371525023,-0.319610593,0.479647,0.345979173,-0.282571047,0.478501,0.328806365,-0.256241272,0.475312,0.321700718,-0.235497113,0.470382,0.381763128,-0.240430028,0.478766,0.384084095,-0.208673768,0.488099,0.38527155,-0.19305213,0.492766,0.387191989,-0.179662853,0.497009,0.401768885,-0.244663879,0.475147,0.404174983,-0.200351479,0.467597,0.401383511,-0.18223392,0.463193,0.40116615,-0.168137198,0.460047,0.418408038,-0.251246155,0.472247,0.417455789,-0.209060278,0.464994,0.418101078,-0.189561872,0.461284,0.418988202,-0.169830871,0.45791,0.436874864,-0.265535886,0.468963,0.456315902,-0.23942103,0.475263,0.467871765,-0.230266375,0.47931,0.478275744,-0.220549588,0.482881
0.386590489,-0.32743677,0.475981,0.392207737,-0.286751214,0.475588,0.364835643,-0.312924666,0.47562,0.347341742,-0.273759768,0.474679,0.333772519,-0.245539059,0.471436,0.335416297,-0.228508454,0.472118,0.382276955,-0.235874575,0.474864,0.377966004,-0.196736189,0.467994,0.374749331,-0.179611577,0.464559,0.371810442,-0.163532167,0.461436,0.405189293,-0.243402466,0.475191,0.412355428,-0.202701644,0.467836,0.414328004,-0.180779387,0.463545,0.414643459,-0.167833422,0.46048,0.422377853,-0.25338861,0.475494,0.434784711,-0.215701961,0.471723,0.439994952,-0.19587669,0.469793,0.44368271,-0.180417878,0.468039,0.443451345,-0.270842628,0.475913,0.457254747,-0.24335734,0.471064,0.463455601,-0.229861227,0.468836,0.46691799,-0.221173123,0.46687
0.387459492,-0.326044043,0.476257,0.396470633,-0.284959202,0.476302,0.375012339,-0.3073768,0.478872,0.361905244,-0.273881391,0.480551,0.347160742,-0.247410075,0.47872,0.343688517,-0.226574982,0.474587,0.3983086,-0.235400924,0.479603,0.40071577,-0.19455839,0.474252,0.40114142,-0.180395178,0.471576,0.400899127,-0.164666359,0.469144,0.417647105,-0.243974318,0.476347,0.428218393,-0.203638791,0.469441,0.434098888,-0.178526762,0.465413,0.436660472,-0.161821334,0.462536,0.432125771,-0.25433105,0.473663,0.445601457,-0.216071815,0.466336,0.451614574,-0.197475682,0.462587,0.459725835,-0.178502096,0.459179,0.446503352,-0.272625163,0.470485,0.462233292,-0.242498223,0.465079,0.469448196,-0.228731796,0.462595,0.479212764,-0.215893718,0.462777
0.388196996,-0.328113569,0.478535,0.397972528,-0.285068418,0.477174,0.374777157,-0.309095918,0.48048,0.358469572,-0.275255957,0.477848,0.339916365,-0.247056896,0.472991,0.335594373,-0.227374621,0.471267,0.396716995,-0.235276719,0.478662,0.397659914,-0.19572239,0.472149,0.395894022,-0.177847736,0.468893,0.394312061,-0.161201854,0.465933,0.416543696,-0.243735809,0.475798,0.425768448,-0.20293459,0.46752,0.430737169,-0.179545976,0.462692,0.433462849,-0.162314384,0.459243,0.431579845,-0.254068231,0.473556,0.443538663,-0.215137213,0.465059,0.449041142,-0.196106321,0.460711,0.453262423,-0.180349231,0.456758,0.446933168,-0.272486761,0.471118,0.461330602,-0.2417169,0.464679,0.467931551,-0.227626511,0.461721,0.472844974,-0.216996801,0.45911
0.384190993,-0.331206807,0.482976,0.38927882,-0.293962585,0.480998,0.368445058,-0.317147152,0.484075,0.347140361,-0.285345284,0.482447,0.329136741,-0.257202795,0.476065,0.323683275,-0.23670479,0.472615,0.384568058,-0.245018934,0.481002,0.379792094,-0.206354696,0.474047,0.377410775,-0.186706869,0.470569,0.37525091,-0.168653327,0.467408,0.404540436,-0.254747733,0.479,0.411199693,-0.212694921,0.470426,0.41475987,-0.188345504,0.465424,0.41660144,-0.169645815,0.461852,0.419750225,-0.266160322,0.477519,0.427864743,-0.225224131,0.469032,0.430696682,-0.205666342,0.46469,0.433294311,-0.187690712,0.460743,0.43525629,-0.285859989,0.476077,0.446962775,-0.253137511,0.469925,0.452274838,-0.238215659,0.467099,0.460748988,-0.222630568,0.464605
0.38972085,-0.33569067,0.486661,0.39132881,-0.296220201,0.483238,0.371792625,-0.324810318,0.48761,0.352325716,-0.303641947,0.490755,0.327652875,-0.277319541,0.481396,0.314971945,-0.256595757,0.472066,0.374283343,-0.251131797,0.482054,0.362856908,-0.212780215,0.473904,0.355893581,-0.195907545,0.469829,0.349457816,-0.180154618,0.466125,0.394637188,-0.2530132,0.479783,0.392114571,-0.210914706,0.469993,0.388479552,-0.186562178,0.464283,0.385896385,-0.168903639,0.460204,0.41344921,-0.262094218,0.478204,0.411370079,-0.21848735,0.468534,0.40882948,-0.198031659,0.463587,0.405522787,-0.18143791,0.459089,0.43387696,-0.277220992,0.476871,0.43631936,-0.240578965,0.468466,0.436513046,-0.225143333,0.464604,0.436731275,-0.211354356,0.461196
0.392058494,-0.339406045,0.491584,0.393146284,-0.300649243,0.488492,0.374996431,-0.328877056,0.492859,0.345773468,-0.308260174,0.492034,0.320995333,-0.284772429,0.485776,0.312160783,-0.267510295,0.48592,0.37092671,-0.255974552,0.487951,0.356303818,-0.216472593,0.48042,0.347057389,-0.202180932,0.476654,0.339825576,-0.18899147,0.473231,0.392621096,-0.258459848,0.48538,0.386231014,-0.214097173,0.47595,0.380409615,-0.191594013,0.47045,0.376162911,-0.171862255,0.466521,0.410448428,-0.264219122,0.483526,0.404384661,-0.22089188,0.47428,0.400093178,-0.201492458,0.46955,0.397708369,-0.181183212,0.465249,0.43134455,-0.27791452,0.481817,0.433947522,-0.241526277,0.473928,0.434298683,-0.226235763,0.470303,0.438452086,-0.213310472,0.467104
0.392464683,-0.340757069,0.493262,0.393333398,-0.301773713,0.489759,0.37551264,-0.330208124,0.494811,0.345854284,-0.308332222,0.492149,0.321018461,-0.284792947,0.485811,0.312392051,-0.267708483,0.48628,0.37194306,-0.25667593,0.489288,0.357115526,-0.217253388,0.481715,0.347985004,-0.202721321,0.477928,0.340401902,-0.18923844,0.474486,0.393322407,-0.258921517,0.486247,0.386693566,-0.214353577,0.47652,0.380729824,-0.191755287,0.470846,0.37640254,-0.173056008,0.466793,0.410886443,-0.264501087,0.484042,0.404577355,-0.220997138,0.474506,0.400158788,-0.2015255,0.469627,0.397149436,-0.181903566,0.465192,0.431494951,-0.278011423,0.481985,0.434272574,-0.241707194,0.474283,0.434704998,-0.226447421,0.470743,0.437661755,-0.213299142,0.467621
0.390272145,-0.339617127,0.490688,0.395181598,-0.303858794,0.491533,0.377703585,-0.335329411,0.495953,0.352906914,-0.313224613,0.494157,0.330381814,-0.287917846,0.489435,0.316314961,-0.26912725,0.488264,0.382288651,-0.268904937,0.498708,0.372087471,-0.232158248,0.495506,0.366925935,-0.213509265,0.493905,0.362197456,-0.196391029,0.49245,0.401119304,-0.267304278,0.49238,0.401142194,-0.224945116,0.486113,0.397942261,-0.203647198,0.482457,0.395445528,-0.188403092,0.479846,0.414420264,-0.267246649,0.4871,0.411182804,-0.226081118,0.481566,0.40874006,-0.206578743,0.478735,0.406518348,-0.188343273,0.476161,0.431488766,-0.277542334,0.480732,0.452212062,-0.254414697,0.491707,0.460709786,-0.243589158,0.49675,0.466457455,-0.234430448,0.501199
0.394823306,-0.344937078,0.498826,0.399937106,-0.307594134,0.499099,0.377222225,-0.334709501,0.500211,0.358809162,-0.304633733,0.500654,0.338726374,-0.278832533,0.495203,0.328667896,-0.257802337,0.487614,0.39241498,-0.259703724,0.501022,0.384450205,-0.222479994,0.495532,0.378968152,-0.208345196,0.492786,0.373800313,-0.195269404,0.490291,0.414100167,-0.265203248,0.499373,0.416447222,-0.222818238,0.492779,0.415916176,-0.199564539,0.488933,0.414483504,-0.184575289,0.486186,0.431310397,-0.273276028,0.497992,0.435089189,-0.232405096,0.492076,0.434445091,-0.214493173,0.489049,0.433928899,-0.197653285,0.486298,0.449018534,-0.288232234,0.496319,0.462269003,-0.257786677,0.493149,0.467496397,-0.243098427,0.491692,0.469148689,-0.234454855,0.490407
0.40011262,-0.34933421,0.505551,0.410655852,-0.308844803,0.504939,0.38385019,-0.337833549,0.508195,0.376178286,-0.311482051,0.513309,0.354258385,-0.282916314,0.504099,0.348951196,-0.26444233,0.504317,0.399670126,-0.263258891,0.50783,0.395972587,-0.224129186,0.502213,0.393004882,-0.204649905,0.499405,0.390073008,-0.187126766,0.496853,0.420273912,-0.267638759,0.504326,0.427711996,-0.22571471,0.496481,0.42920783,-0.204177824,0.491905,0.43036431,-0.188403767,0.488636,0.436514795,-0.27478832,0.501494,0.444222907,-0.233301612,0.493869,0.444594645,-0.218282263,0.489968,0.445101855,-0.204051387,0.486421,0.456551622,-0.289000967,0.498246,0.463749222,-0.256598395,0.492182,0.467200309,-0.243125098,0.489396,0.472136841,-0.234144467,0.486937
0.402974778,-0.35156624,0.509324,0.413880551,-0.310122474,0.50821,0.386411255,-0.338692836,0.510999,0.375357583,-0.308478257,0.512721,0.356120137,-0.277304291,0.504122,0.349430052,-0.260470807,0.502326,0.405208142,-0.262942982,0.509544,0.402269855,-0.222804491,0.503232,0.395663763,-0.206602702,0.500076,0.393692822,-0.194609052,0.497207,0.426322303,-0.268764122,0.507095,0.43083945,-0.226680624,0.499195,0.432731371,-0.202675565,0.494587,0.432826273,-0.187906901,0.491296,0.442923105,-0.277095605,0.505175,0.44805839,-0.235713339,0.497452,0.44838982,-0.219272535,0.4935,0.448841405,-0.203766583,0.489908,0.460977288,-0.293438295,0.503082,0.470094575,-0.259808706,0.496565,0.471826024,-0.245891973,0.493571,0.473809581,-0.234985847,0.490929
0.402989758,-0.353580907,0.510971,0.415574099,-0.312324908,0.511232,0.387116479,-0.33912489,0.512335,0.374263749,-0.308227776,0.513041,0.354905702,-0.279400492,0.504394,0.34962183,-0.259543287,0.502333,0.408971689,-0.265108219,0.513121,0.404064095,-0.226373334,0.507708,0.399983835,-0.211637625,0.505002,0.396201313,-0.197727396,0.502542,0.429561616,-0.272213823,0.511494,0.433973293,-0.232844847,0.504968,0.436685218,-0.208178832,0.501161,0.437197353,-0.192511873,0.498442,0.446461203,-0.281307593,0.510133,0.452991813,-0.240378508,0.503711,0.454368643,-0.223422889,0.500425,0.455375682,-0.207272114,0.497438,0.463879236,-0.300222785,0.508485,0.475050418,-0.26758172,0.504289,0.477887383,-0.254800922,0.502361,0.483378234,-0.241134583,0.50066
0.404476037,-0.356014135,0.513654,0.418178914,-0.313364556,0.513848,0.389814579,-0.340917399,0.515484,0.376424994,-0.310196762,0.5159,0.356436095,-0.280817065,0.506385,0.350824877,-0.260703673,0.503884,0.407904677,-0.267721551,0.516276,0.403299857,-0.228888161,0.511008,0.399643021,-0.212038364,0.508374,0.39742901,-0.199172951,0.50598,0.430581061,-0.273369727,0.514042,0.431126095,-0.230123868,0.507548,0.431840934,-0.207562112,0.50376,0.437100662,-0.19271485,0.501054,0.447108505,-0.280585054,0.512187,0.453796544,-0.239787203,0.505574,0.454973079,-0.223661446,0.502191,0.456224269,-0.20802003,0.499115,0.465778214,-0.29659515,0.509967,0.475158179,-0.263736525,0.504618,0.477370691,-0.246746874,0.502161,0.480690388,-0.239609737,0.499992
0.412936402,-0.362420985,0.523182,0.422460749,-0.31725492,0.520963,0.398580284,-0.344919866,0.525191,0.380299205,-0.315572811,0.523639,0.359201424,-0.286405189,0.513585,0.352017068,-0.2660867,0.509544,0.411134692,-0.27041688,0.521952,0.402706036,-0.230499224,0.515521,0.394925799,-0.219883272,0.512305,0.389994313,-0.209702244,0.509382,0.431708901,-0.275872985,0.518739,0.431682427,-0.231478807,0.510154,0.431256425,-0.208155811,0.505147,0.430730831,-0.191944019,0.50157,0.446700165,-0.282101986,0.516284,0.447990975,-0.240724239,0.507976,0.447034477,-0.222102913,0.503726,0.446247982,-0.204672852,0.499861,0.464939042,-0.297511554,0.513734,0.468244739,-0.264327465,0.506132,0.468121313,-0.248095272,0.50264,0.473262015,-0.236662705,0.499558
0.412168775,-0.362256626,0.523535,0.421934899,-0.319580171,0.52337,0.397363245,-0.34751282,0.525657,0.372547119,-0.318879655,0.523713,0.353247951,-0.291711946,0.518124,0.35002765,-0.271113566,0.516595,0.406668561,-0.275972649,0.525914,0.399733755,-0.23698193,0.520521,0.397037615,-0.222850191,0.517824,0.392489467,-0.211403023,0.515372,0.427763441,-0.280599947,0.523204,0.429565016,-0.238025216,0.516415,0.428418659,-0.216595559,0.512455,0.427584322,-0.200962277,0.509626,0.444411184,-0.287905166,0.520987,0.446025032,-0.247121918,0.51418,0.449579624,-0.226590645,0.510698,0.450052418,-0.208675738,0.507532,0.465295201,-0.301828633,0.518396,0.471851755,-0.268091419,0.512561,0.472640167,-0.252753815,0.509881,0.474641366,-0.240913345,0.507516
0.41316151,-0.363083152,0.525543,0.422270575,-0.32087311,0.524906,0.398540698,-0.34815325,0.527598,0.373093441,-0.319347276,0.524481,0.353515892,-0.291933211,0.518517,0.349235751,-0.271686854,0.517006,0.407540799,-0.276564566,0.527042,0.400352722,-0.237348884,0.521327,0.396822389,-0.223326552,0.51847,0.392179649,-0.211355515,0.515873,0.428632533,-0.281170045,0.524267,0.430100709,-0.238322047,0.517059,0.428751392,-0.216763779,0.512853,0.427772261,-0.201050607,0.50985,0.445307705,-0.288485965,0.522038,0.446614898,-0.247448735,0.51486,0.448955029,-0.226888057,0.511187,0.449262708,-0.208594326,0.507849,0.465430448,-0.302873334,0.519505,0.471745751,-0.26860424,0.513285,0.473146288,-0.253024473,0.510427,0.474428145,-0.242098823,0.507906
0.41500048,-0.365332831,0.528785,0.419839023,-0.325654038,0.52778,0.400460497,-0.350279646,0.530741,0.378208815,-0.324538913,0.530575,0.361996786,-0.294253548,0.521776,0.355389158,-0.271940176,0.516455,0.404209377,-0.284378053,0.529539,0.397796302,-0.247431249,0.523522,0.393724388,-0.229837947,0.520514,0.392543995,-0.212817651,0.517779,0.425018893,-0.287282104,0.526772,0.427428675,-0.244698135,0.519181,0.428905738,-0.218957506,0.514753,0.427526815,-0.203243556,0.51159,0.44182454,-0.293248768,0.524581,0.447231204,-0.249978256,0.517253,0.44406575,-0.233260132,0.513504,0.443322562,-0.215884437,0.510096,0.464372956,-0.305813552,0.522151,0.471090088,-0.270817297,0.515541,0.468421511,-0.260190659,0.512504,0.472425966,-0.247042355,0.509824
0.41466917,-0.366158365,0.529528,0.419272719,-0.326224953,0.528405,0.400312982,-0.351358007,0.531743,0.377965211,-0.324381693,0.53073,0.358779486,-0.293550692,0.521556,0.353423906,-0.271346209,0.516614,0.405033589,-0.283935526,0.530405,0.397865312,-0.247864259,0.524595,0.393816311,-0.229997738,0.52169,0.391124377,-0.213940168,0.519049,0.425388645,-0.286835386,0.527278,0.427232422,-0.244263944,0.519717,0.428148739,-0.219542803,0.515307,0.426758013,-0.203548583,0.512157,0.441750126,-0.292752744,0.5248,0.44679392,-0.250526561,0.517435,0.44402295,-0.233561134,0.513667,0.443139306,-0.216375435,0.510241,0.460284732,-0.306379661,0.522049,0.470056879,-0.270821462,0.51526,0.467613839,-0.25933487,0.512141,0.467247913,-0.248108161,0.509388
0.4146541,-0.367170182,0.530761,0.419327808,-0.326875741,0.529279,0.400312911,-0.352488671,0.532971,0.378308693,-0.324707649,0.531511,0.359128067,-0.293579085,0.522005,0.35380298,-0.27148382,0.517074,0.405562074,-0.283966121,0.531026,0.397927987,-0.248033708,0.525006,0.393781577,-0.230012866,0.521996,0.390620358,-0.214454721,0.51926,0.425789714,-0.286873988,0.527791,0.427188577,-0.244131499,0.519922,0.427441525,-0.219762302,0.515332,0.425931377,-0.203555202,0.512054,0.442046869,-0.292800592,0.525255,0.446551075,-0.250865572,0.517566,0.443931376,-0.233620953,0.513632,0.442875369,-0.21644044,0.510056,0.460471427,-0.306452505,0.522492,0.469743564,-0.271000265,0.515427,0.467490746,-0.259130689,0.51218,0.46698947,-0.247786966,0.509316
