sluyters/QuantumLeap/backend/src/datasets/dynamic/HandGestureDataset_SHREC2017_csv/Gesture14/finger_2/subject_13_essai_2_skeletons_world.csv
Wrist_x,Wrist_y,Wrist_z,Palm_x,Palm_y,Palm_z,thumb_base_x,thumb_base_y,thumb_base_z,thumb_first_joint_x,thumb_first_joint_y,thumb_first_joint_z,thumb_second_joint_x,thumb_second_joint_y,thumb_second_joint_z,thumb_tip_x,thumb_tip_y,thumb_tip_z,index_base_x,index_base_y,index_base_z,index_first_joint_x,index_first_joint_y,index_first_joint_z,index_second_joint_x,index_second_joint_y,index_second_joint_z,index_tip_x,index_tip_y,index_tip_z,middle_base_x,middle_base_y,middle_base_z,middle_first_joint_x,middle_first_joint_y,middle_first_joint_z,middle_second_joint_x,middle_second_joint_y,middle_second_joint_z,middle_tip_x,middle_tip_y,middle_tip_z,ring_base_x,ring_base_y,ring_base_z,ring_first_joint_x,ring_first_joint_y,ring_first_joint_z,ring_second_joint_x,ring_second_joint_y,ring_second_joint_z,ring_tip_x,ring_tip_y,ring_tip_z,pinky_base_x,pinky_base_y,pinky_base_z,pinky_first_joint_x,pinky_first_joint_y,pinky_first_joint_z,pinky_second_joint_x,pinky_second_joint_y,pinky_second_joint_z,pinky_tip_x,pinky_tip_y,pinky_tip_z,
0.48287862,-0.31501124,0.493458,0.48195331,-0.2797897,0.500011,0.47052387,-0.30596981,0.50285,0.4410396,-0.28210425,0.506763,0.41867842,-0.25983235,0.507147,0.41050945,-0.24383685,0.507828,0.47949005,-0.2333472,0.517287,0.47362074,-0.1932406,0.519353,0.46972245,-0.17329936,0.520387,0.46602307,-0.15483728,0.521326,0.49349619,-0.23393775,0.508472,0.49474722,-0.18549532,0.511306,0.49505022,-0.15984868,0.512959,0.49134808,-0.1399855,0.51414,0.50612423,-0.23518755,0.500746,0.5079318,-0.19019781,0.501191,0.50845085,-0.16368606,0.50142,0.50486063,-0.14131305,0.501627,0.51999157,-0.24222476,0.490551,0.5293444,-0.20548883,0.492377,0.53275949,-0.18772623,0.493216,0.53663267,-0.16679445,0.493957
0.48280647,-0.31441075,0.492208,0.48886003,-0.27710553,0.499735,0.46928839,-0.30520634,0.500765,0.44497871,-0.28590347,0.507707,0.41996983,-0.26656197,0.506732,0.40975927,-0.24707081,0.507559,0.47079511,-0.23679321,0.516881,0.46870416,-0.19548394,0.517689,0.46560539,-0.17381091,0.518093,0.46272682,-0.15455498,0.518461,0.49207009,-0.2330577,0.509462,0.48621529,-0.18652218,0.510118,0.483736,-0.16009436,0.5105,0.4835362,-0.13864116,0.510774,0.50499838,-0.23013641,0.502813,0.50939357,-0.18400712,0.503459,0.50829018,-0.16134707,0.50379,0.5070383,-0.14062803,0.50409,0.52669189,-0.23453744,0.493769,0.52695155,-0.19330132,0.493227,0.53118932,-0.17540992,0.492978,0.53399272,-0.15853685,0.492758
0.48050316,-0.31290221,0.49024,0.47591487,-0.27388114,0.499039,0.46734603,-0.30435102,0.499418,0.43055093,-0.28039542,0.503361,0.4048411,-0.25774876,0.501614,0.39553998,-0.24172267,0.504515,0.4637664,-0.234289,0.518084,0.45871365,-0.19441909,0.520605,0.45618006,-0.17444136,0.521866,0.45633927,-0.15710435,0.525855,0.48211882,-0.22882551,0.510407,0.47868502,-0.18353493,0.512325,0.47664933,-0.15682707,0.513444,0.47460931,-0.13736991,0.514243,0.49693289,-0.2268239,0.503452,0.49693672,-0.18345535,0.504605,0.49526982,-0.1610586,0.505195,0.49367999,-0.13994288,0.505732,0.51419516,-0.22936539,0.49386,0.52000127,-0.19033459,0.493817,0.52612537,-0.17368628,0.493797,0.53347934,-0.15775259,0.493779
0.4796527,-0.3150702,0.493681,0.47231464,-0.27433632,0.50001,0.4591203,-0.30548868,0.501638,0.42158769,-0.28405774,0.503519,0.39168516,-0.26309497,0.499611,0.37795515,-0.2458254,0.49899,0.44987676,-0.23375061,0.51535,0.43929234,-0.19411347,0.51583,0.43235813,-0.17895797,0.51607,0.42570155,-0.16442571,0.516289,0.46828479,-0.22727671,0.508185,0.45707902,-0.18252417,0.508235,0.45048204,-0.15617931,0.508264,0.44667318,-0.13753903,0.509346,0.48353554,-0.22453635,0.501831,0.48341757,-0.18327355,0.504079,0.48111808,-0.16092898,0.505229,0.47781926,-0.15314261,0.506274,0.50206218,-0.22640369,0.493312,0.50352587,-0.18571798,0.491738,0.50422122,-0.16672935,0.491015,0.50484687,-0.14981614,0.490377
0.4711274,-0.31601023,0.49411,0.45688042,-0.28244692,0.500779,0.44803559,-0.30962925,0.501762,0.41156457,-0.29681015,0.503279,0.37895013,-0.27759807,0.497799,0.36259342,-0.26027662,0.495086,0.43225654,-0.244464,0.516058,0.41781978,-0.20605418,0.516759,0.4095446,-0.18801245,0.51711,0.40177195,-0.17108182,0.517428,0.45104656,-0.23602148,0.509395,0.43897996,-0.19278327,0.509363,0.43023934,-0.17127932,0.509345,0.42365034,-0.1550696,0.509331,0.46687604,-0.23164424,0.50343,0.4598774,-0.1892703,0.506628,0.45631934,-0.16769093,0.508264,0.45222231,-0.15366643,0.509751,0.48664358,-0.23146975,0.495328,0.48477106,-0.19138232,0.49422,0.48390216,-0.17257668,0.49371,0.4831323,-0.15577521,0.493261
0.44447227,-0.33309605,0.493937,0.43969451,-0.29413983,0.498651,0.42513375,-0.32495992,0.498492,0.39121615,-0.30275374,0.495575,0.36221267,-0.28355196,0.492763,0.35013318,-0.26928282,0.495721,0.41303883,-0.25150888,0.508414,0.39376828,-0.21494975,0.506877,0.38325042,-0.19813487,0.506108,0.37333913,-0.18226745,0.505409,0.43381654,-0.24518791,0.504741,0.41571405,-0.20135688,0.502514,0.4125827,-0.17929737,0.510259,0.41019546,-0.16314374,0.515791,0.45164713,-0.24265254,0.501376,0.44041437,-0.20192862,0.505159,0.43382128,-0.18086734,0.507095,0.4263784,-0.16240103,0.508854,0.47431268,-0.24505353,0.496671,0.47069903,-0.20756408,0.497657,0.46844954,-0.19008136,0.49811,0.4645933,-0.17668296,0.498509
0.45565026,-0.31563733,0.48586,0.44000912,-0.2918838,0.49602,0.43108639,-0.31821897,0.493778,0.4001222,-0.31264399,0.496232,0.36649929,-0.29875778,0.492536,0.34986087,-0.28598176,0.493362,0.41094571,-0.26541702,0.514769,0.39051265,-0.23215684,0.518648,0.37929019,-0.21609931,0.520587,0.36880292,-0.201121,0.52235,0.42866078,-0.2518282,0.509158,0.40837828,-0.21615763,0.513365,0.39438813,-0.19547086,0.515819,0.3840328,-0.18049839,0.517572,0.44410205,-0.24278365,0.503804,0.42766915,-0.20497567,0.508581,0.41806293,-0.18540594,0.511025,0.40898136,-0.16737945,0.513247,0.46436182,-0.23618237,0.495936,0.45475843,-0.19936517,0.498548,0.45012738,-0.18237125,0.499747,0.44521411,-0.1679977,0.500806
0.44681908,-0.32200621,0.485155,0.43488584,-0.29292689,0.495332,0.42618557,-0.32301868,0.492403,0.38895027,-0.31527238,0.493963,0.35843782,-0.30583388,0.494932,0.34189531,-0.29485313,0.496967,0.40053989,-0.26656276,0.513291,0.37773959,-0.23461578,0.517095,0.36580869,-0.21862729,0.518997,0.35442421,-0.20436233,0.520725,0.41902946,-0.25369065,0.508505,0.3974219,-0.21632566,0.512272,0.38374617,-0.19453659,0.514469,0.37382061,-0.17874032,0.516039,0.43515727,-0.24525827,0.50383,0.4181183,-0.20772389,0.509305,0.40898748,-0.18837883,0.512106,0.4000614,-0.17055431,0.514653,0.45628367,-0.239475,0.496775,0.44636791,-0.20310666,0.499488,0.44185611,-0.18653501,0.500734,0.44196371,-0.17018544,0.501834
0.4460354,-0.32318847,0.485231,0.43323518,-0.29417529,0.495281,0.42513472,-0.32421444,0.492111,0.39000138,-0.3184338,0.496378,0.35819033,-0.30779374,0.495611,0.34173871,-0.29696452,0.497798,0.39535452,-0.27035947,0.512679,0.37558897,-0.23535018,0.515848,0.36383633,-0.21919943,0.517433,0.35273402,-0.20445894,0.518873,0.4140638,-0.25722273,0.508293,0.39541197,-0.21701333,0.511373,0.38206163,-0.19470198,0.51317,0.37235717,-0.17850199,0.514453,0.43285721,-0.24694109,0.503957,0.41661737,-0.20886498,0.508726,0.40731723,-0.18933118,0.511166,0.39841268,-0.17121369,0.513384,0.4544179,-0.24110168,0.497329,0.44583489,-0.20416642,0.49998,0.44185391,-0.18723303,0.501199,0.4408755,-0.17101619,0.502273
0.44580408,-0.32418882,0.485599,0.43258502,-0.29491879,0.495456,0.42488111,-0.32521922,0.492372,0.3900163,-0.31921574,0.496757,0.35812267,-0.30846002,0.495858,0.34175312,-0.29772616,0.498172,0.39526044,-0.27029513,0.512557,0.37490113,-0.23561169,0.515471,0.36318997,-0.21939761,0.516928,0.352168,-0.20448992,0.518252,0.41401329,-0.25719135,0.508231,0.39470699,-0.21722326,0.511028,0.3814418,-0.19472771,0.512659,0.37179653,-0.17838793,0.513824,0.43205938,-0.24748312,0.503962,0.41604795,-0.20920675,0.508446,0.40667035,-0.18960745,0.51074,0.39775734,-0.1713901,0.512826,0.4537326,-0.24160896,0.497443,0.44546326,-0.20443145,0.499927,0.44160143,-0.18735989,0.501069,0.43996481,-0.17129023,0.502076
0.44669588,-0.32520716,0.486055,0.43405063,-0.29588198,0.496099,0.4258858,-0.32606805,0.492666,0.39705686,-0.32014316,0.497057,0.36262257,-0.30598519,0.491705,0.34336359,-0.29405339,0.49428,0.40184317,-0.2684093,0.513173,0.37932722,-0.23599209,0.516618,0.3676215,-0.21969473,0.518341,0.35482924,-0.20529969,0.519907,0.4209585,-0.25593818,0.509117,0.40305857,-0.21987658,0.513126,0.39218187,-0.19663427,0.515464,0.3774351,-0.18017243,0.517134,0.43767895,-0.24784155,0.505056,0.4176986,-0.20992849,0.509126,0.40819524,-0.19021994,0.511208,0.40118998,-0.17107926,0.513101,0.45963055,-0.24249777,0.49876,0.45256379,-0.20829224,0.502044,0.44865575,-0.19174533,0.503553,0.4415608,-0.17420864,0.504885
0.4498853,-0.32720639,0.488455,0.44210227,-0.29537161,0.496456,0.4296354,-0.32799171,0.495459,0.40390401,-0.31601226,0.499336,0.36885601,-0.30052957,0.493295,0.35195248,-0.28724582,0.493402,0.41058767,-0.26436047,0.512159,0.38911837,-0.23033908,0.514298,0.37772677,-0.21358329,0.515367,0.36716977,-0.19806673,0.516339,0.42869521,-0.251772,0.506824,0.41163262,-0.21259732,0.508439,0.39840134,-0.19224194,0.509381,0.38872703,-0.17892608,0.510054,0.44707838,-0.24342233,0.501859,0.42902829,-0.20526626,0.506955,0.42393759,-0.185955,0.509562,0.41675137,-0.16742374,0.511933,0.47021698,-0.24278336,0.494768,0.46189872,-0.20451937,0.498331,0.45911484,-0.18754644,0.499968,0.45665827,-0.17257099,0.501412
0.45285574,-0.32334799,0.487242,0.45180563,-0.28323766,0.495436,0.43555496,-0.32140855,0.492955,0.40452993,-0.30428385,0.492129,0.37433574,-0.29125068,0.492258,0.36130061,-0.28041632,0.496984,0.41936239,-0.26014421,0.509751,0.40137102,-0.22473174,0.510885,0.39204269,-0.20639395,0.511451,0.38080844,-0.18702011,0.511966,0.43673464,-0.24688939,0.506055,0.42436646,-0.2095879,0.511172,0.41352056,-0.18816139,0.514157,0.40540426,-0.17222923,0.516289,0.45391628,-0.24152809,0.502424,0.44883047,-0.20417613,0.509858,0.44075459,-0.18432828,0.513662,0.43441666,-0.16634628,0.517119,0.47724654,-0.2343344,0.496905,0.47059171,-0.1957763,0.498025,0.4674405,-0.17809722,0.49854,0.46466482,-0.16252331,0.498994
0.46371964,-0.32419408,0.491457,0.46422449,-0.28804783,0.499044,0.4457481,-0.31695973,0.49648,0.41977838,-0.30405104,0.498958,0.38961653,-0.29077199,0.498952,0.37376611,-0.27125336,0.49207,0.43083733,-0.25362785,0.511976,0.41425136,-0.21643527,0.512953,0.40574493,-0.19781321,0.513442,0.39782357,-0.1804852,0.513887,0.45214787,-0.24442292,0.508876,0.43760695,-0.20125651,0.509542,0.42979375,-0.17370874,0.50993,0.42341263,-0.15653325,0.510208,0.47047051,-0.23920957,0.505779,0.46397285,-0.19973112,0.510878,0.4600897,-0.17862268,0.513487,0.45700136,-0.15716785,0.515859,0.49311681,-0.23590124,0.500988,0.50390164,-0.20193949,0.501864,0.50441232,-0.1957944,0.502267,0.50151828,-0.20644265,0.502622
0.46418686,-0.32309554,0.487766,0.4736337,-0.28713186,0.49726,0.45084979,-0.3180536,0.495018,0.42436263,-0.29813895,0.496448,0.39366807,-0.28025354,0.493796,0.377964,-0.26229647,0.491081,0.45103031,-0.25011081,0.514611,0.43379533,-0.21618838,0.518941,0.42521965,-0.1992988,0.521106,0.42381251,-0.18679058,0.53105,0.47173158,-0.24351498,0.509563,0.45973922,-0.2012391,0.5129,0.45322503,-0.17644084,0.514846,0.44881372,-0.15875786,0.516236,0.48883008,-0.24048104,0.504726,0.48762984,-0.20648468,0.520247,0.48694457,-0.18890956,0.528188,0.48628069,-0.17283008,0.535406,0.50959078,-0.24154996,0.497578,0.51950543,-0.20596649,0.499329,0.52209496,-0.19615121,0.500134,0.52091996,-0.20354507,0.500843
0.45928421,-0.31735956,0.478031,0.47235404,-0.28747619,0.49298,0.45092698,-0.31455663,0.488969,0.44688692,-0.29523765,0.503945,0.4323296,-0.28309117,0.513692,0.43765904,-0.2835869,0.530627,0.46546329,-0.2593755,0.519721,0.46460759,-0.22353338,0.529126,0.46413582,-0.20542219,0.533828,0.46368275,-0.1888502,0.538103,0.48368138,-0.25140766,0.512355,0.49885865,-0.22564271,0.53791,0.50769335,-0.21052994,0.552818,0.51399529,-0.19970043,0.563466,0.49827268,-0.24698688,0.505216,0.505071,-0.20913018,0.517762,0.50853504,-0.18965643,0.52418,0.5116771,-0.17189412,0.530015,0.51500115,-0.24592938,0.494534,0.52879865,-0.21550254,0.501449,0.53115418,-0.20289926,0.504626,0.52934659,-0.20656375,0.50743
0.47774304,-0.32271541,0.482873,0.49575432,-0.29146045,0.495038,0.4737099,-0.31728739,0.491104,0.45693679,-0.292742,0.498251,0.42875393,-0.26562965,0.492078,0.42727332,-0.25403095,0.503179,0.48346024,-0.25154181,0.515987,0.48468816,-0.21920884,0.528395,0.48512979,-0.20167058,0.534599,0.48546599,-0.18547649,0.540239,0.50452077,-0.24786289,0.510803,0.51689796,-0.21650978,0.528106,0.52404376,-0.1946129,0.538199,0.52916731,-0.17763141,0.545409,0.52138442,-0.24725747,0.505661,0.53296994,-0.21297096,0.519817,0.53916427,-0.19296827,0.527059,0.5447787,-0.17442744,0.533643,0.54069643,-0.25131187,0.497768,0.54791966,-0.21708799,0.502476,0.55239019,-0.20258816,0.50464,0.55574759,-0.20287643,0.506549
0.51343818,-0.33131663,0.502995,0.51701725,-0.28358998,0.505139,0.49487009,-0.30880256,0.503518,0.4616591,-0.27829109,0.497741,0.44376766,-0.25976899,0.504238,0.43668836,-0.24158703,0.506416,0.49090523,-0.23333707,0.507708,0.48193512,-0.19479277,0.502315,0.47778796,-0.17532174,0.499619,0.4742326,-0.15744631,0.497167,0.51663667,-0.23464279,0.507918,0.53248541,-0.20658266,0.526942,0.54400436,-0.18381358,0.538039,0.55279665,-0.16681057,0.545966,0.53818167,-0.23839081,0.507937,0.54964132,-0.21102998,0.531363,0.55557214,-0.19636842,0.543348,0.561191,-0.18172126,0.554244,0.56473121,-0.24831013,0.507654,0.56339288,-0.20612229,0.501966,0.56434681,-0.19419114,0.499353,0.56536651,-0.18316491,0.497047
0.51520206,-0.31971277,0.496747,0.52635443,-0.28377881,0.503835,0.49679126,-0.30654396,0.50087,0.4778887,-0.2816557,0.504715,0.46346357,-0.25990516,0.510945,0.45836123,-0.23932741,0.510892,0.51195682,-0.23804027,0.515226,0.51293556,-0.19664338,0.515367,0.51342993,-0.17567014,0.515437,0.51388306,-0.15644218,0.515501,0.53539729,-0.2398722,0.513021,0.53800493,-0.19493253,0.5131,0.53959799,-0.16743454,0.513146,0.54077057,-0.14717823,0.513179,0.55435932,-0.24378278,0.510696,0.58776995,-0.22218407,0.538053,0.60487559,-0.21102717,0.55205,0.62043285,-0.20082762,0.564775,0.5765208,-0.25330757,0.506901,0.58726592,-0.21971542,0.507242,0.59218128,-0.21185426,0.507399,0.59679083,-0.20446036,0.507537
0.50841272,-0.32141784,0.492767,0.52495022,-0.28423856,0.502944,0.49507289,-0.30513519,0.498123,0.48985332,-0.27786207,0.508278,0.47372075,-0.25043795,0.508607,0.47401184,-0.23371699,0.514631,0.516271,-0.23925516,0.518619,0.53072965,-0.2005202,0.521509,0.53819865,-0.18056337,0.522954,0.54519884,-0.16474576,0.524268,0.53937541,-0.24158554,0.516134,0.55323952,-0.19809351,0.5195,0.56126885,-0.17194589,0.521463,0.56706639,-0.1529859,0.522865,0.5576818,-0.24585674,0.513356,0.57922265,-0.20758117,0.518781,0.5900318,-0.18756555,0.521557,0.60133058,-0.17243237,0.524081,0.57828029,-0.25567201,0.508578,0.59123665,-0.22164072,0.511325,0.59826777,-0.21410087,0.512587,0.60477026,-0.2071715,0.513701
0.5094846,-0.32075175,0.493461,0.52582712,-0.28398735,0.503709,0.49656105,-0.3048557,0.499376,0.49359284,-0.27334001,0.510545,0.47980104,-0.24098329,0.506599,0.48226064,-0.2260219,0.514411,0.52344189,-0.2358047,0.520123,0.54125074,-0.19711949,0.522707,0.55054623,-0.17718763,0.523999,0.55917184,-0.15861948,0.525174,0.54321229,-0.24111127,0.51699,0.5605952,-0.19769081,0.520242,0.56953345,-0.17290184,0.52214,0.58284728,-0.15703054,0.529787,0.56045961,-0.24628735,0.513673,0.59098122,-0.21146891,0.523663,0.60558736,-0.19388743,0.528774,0.62139591,-0.17567857,0.533421,0.57930847,-0.25719535,0.508241,0.60567967,-0.22416304,0.511533,0.61804701,-0.2090881,0.513045,0.62933914,-0.19522358,0.51438
0.51015662,-0.31545681,0.491537,0.52720715,-0.2816365,0.503818,0.4965547,-0.30290162,0.498687,0.49427526,-0.27143545,0.51057,0.47992519,-0.23857974,0.505567,0.48334405,-0.22272778,0.513237,0.53115302,-0.23263144,0.523564,0.55095636,-0.19546946,0.527958,0.56093226,-0.17669923,0.530155,0.5700438,-0.15952622,0.532152,0.55248444,-0.2368931,0.519734,0.570043,-0.1964253,0.52524,0.58158648,-0.17137658,0.528452,0.58708161,-0.15511577,0.530746,0.56669272,-0.24471564,0.515697,0.59327935,-0.20508692,0.520534,0.60745554,-0.18428872,0.523008,0.6162088,-0.16896949,0.525257,0.58373402,-0.25600329,0.509113,0.61474115,-0.22470777,0.513969,0.62931496,-0.21019844,0.5162,0.64246861,-0.19802718,0.518168
0.51456121,-0.31415943,0.49172,0.54401468,-0.2764225,0.502734,0.50676819,-0.29638742,0.498689,0.49711397,-0.26793796,0.5038,0.4802864,-0.23962378,0.505424,0.48100594,-0.22229129,0.510617,0.54417201,-0.23198311,0.521113,0.55562986,-0.19302715,0.52523,0.56132384,-0.17388254,0.527289,0.5650277,-0.1577221,0.52916,0.56583958,-0.23465869,0.517016,0.57880942,-0.19293698,0.521245,0.586823,-0.1673059,0.523712,0.59258382,-0.14881183,0.525474,0.5826978,-0.23919697,0.512856,0.59730488,-0.20264665,0.518761,0.60615678,-0.18225927,0.521782,0.61734217,-0.16264178,0.524529,0.60090629,-0.24932058,0.506309,0.622233,-0.22231671,0.514614,0.63273688,-0.2084716,0.51843,0.64322522,-0.19420003,0.521797
0.51738146,-0.31518431,0.494455,0.54317522,-0.27554334,0.503588,0.50734357,-0.2979482,0.500814,0.48916171,-0.26494897,0.502612,0.47452637,-0.23823077,0.502248,0.47591046,-0.22164652,0.50774,0.54129231,-0.22938086,0.51953,0.54588235,-0.18671004,0.522352,0.5489111,-0.16592469,0.523762,0.55168241,-0.14680063,0.525045,0.56274843,-0.23253678,0.515431,0.56864017,-0.18782648,0.518157,0.57467881,-0.16118213,0.519747,0.58021562,-0.14543607,0.520883,0.57950704,-0.23751995,0.511403,0.58945828,-0.19846515,0.516706,0.598266,-0.1765545,0.519418,0.60934365,-0.15810137,0.521885,0.59780905,-0.24827901,0.505281,0.6152427,-0.21436066,0.510949,0.62409561,-0.1990644,0.513553,0.63548277,-0.18926212,0.51714
0.51642184,-0.314094,0.493015,0.52565127,-0.27921771,0.500675,0.50150116,-0.30020587,0.498617,0.48351183,-0.27090798,0.501297,0.46174821,-0.24340279,0.499595,0.46480396,-0.22855701,0.507168,0.52067546,-0.23086584,0.514369,0.52307634,-0.18971855,0.515662,0.5250495,-0.17011163,0.516309,0.52689518,-0.15150223,0.516897,0.54200941,-0.23430871,0.510607,0.5447954,-0.19364331,0.51163,0.55022713,-0.16888591,0.512226,0.55267254,-0.15245172,0.512652,0.56210988,-0.23744816,0.506962,0.57860759,-0.1987326,0.517071,0.58705243,-0.17889034,0.522243,0.59473212,-0.16083258,0.526945,0.58196114,-0.24743062,0.501508,0.58962413,-0.2101024,0.501945,0.59506541,-0.19276226,0.502146,0.60000596,-0.1769984,0.502324
0.51594347,-0.3133591,0.491841,0.52295643,-0.27952706,0.498925,0.49803538,-0.29834045,0.49485,0.47282109,-0.27474239,0.495323,0.45045733,-0.25040064,0.494882,0.44415382,-0.23106124,0.496077,0.50029788,-0.23420068,0.508964,0.50032582,-0.19265339,0.508768,0.50034191,-0.17148248,0.50867,0.50035786,-0.15200047,0.508581,0.52529725,-0.23352345,0.508112,0.52722071,-0.18793761,0.507876,0.52840012,-0.16015666,0.507739,0.53211497,-0.14268083,0.507641,0.5460328,-0.23532985,0.506903,0.56010751,-0.19498158,0.515702,0.56732355,-0.17418421,0.520203,0.57392915,-0.15509208,0.524296,0.57125669,-0.24228796,0.504451,0.5814595,-0.20481537,0.505745,0.58611187,-0.18775494,0.50634,0.59019849,-0.17278214,0.506865
0.51777578,-0.31471071,0.493739,0.5186428,-0.27952211,0.499728,0.49783145,-0.30236447,0.497879,0.46519949,-0.27860702,0.498345,0.4448144,-0.25413111,0.497001,0.43621436,-0.23943682,0.502724,0.49402455,-0.23400967,0.510148,0.50489853,-0.20142425,0.523318,0.50985001,-0.18296264,0.529904,0.51431327,-0.16562694,0.53589,0.51714403,-0.23289274,0.507502,0.51421933,-0.18474943,0.506277,0.51241413,-0.1579442,0.505562,0.51152813,-0.14025595,0.505051,0.53619168,-0.23449769,0.504898,0.53816406,-0.18555013,0.503071,0.53876266,-0.16151634,0.502136,0.53933363,-0.13928666,0.501287,0.56102654,-0.23790256,0.500929,0.57802614,-0.20888475,0.510859,0.58626629,-0.19409887,0.515421,0.59912923,-0.17907368,0.519446
0.50788943,-0.31222645,0.486991,0.49888528,-0.28066573,0.495029,0.48881748,-0.30322571,0.492783,0.45219207,-0.28405828,0.495555,0.42704326,-0.26040129,0.493406,0.41648198,-0.23982966,0.490801,0.47927049,-0.23694966,0.509303,0.47256214,-0.19648005,0.510663,0.46912678,-0.17582754,0.511343,0.46595558,-0.15680569,0.511961,0.50141922,-0.23406622,0.505466,0.49535571,-0.18962668,0.506685,0.49184756,-0.16387749,0.507397,0.48935367,-0.14556228,0.507905,0.51952092,-0.23423114,0.501736,0.51782768,-0.18885205,0.50248,0.51693085,-0.16508126,0.50286,0.51609914,-0.14313772,0.503207,0.54106183,-0.23945973,0.496125,0.54445618,-0.1999692,0.496988,0.54603369,-0.1815418,0.497385,0.54743457,-0.1651316,0.497735
0.47993655,-0.31000612,0.473329,0.47734561,-0.27889262,0.485895,0.46178807,-0.30225263,0.479544,0.43253046,-0.28548054,0.486226,0.40710486,-0.26404752,0.485758,0.39878753,-0.24948895,0.490628,0.45536584,-0.24271949,0.504774,0.45677471,-0.20997294,0.517918,0.45745086,-0.19349667,0.524489,0.45805149,-0.1784619,0.530464,0.4784953,-0.23736467,0.502211,0.47562493,-0.19468628,0.508036,0.47392473,-0.16965537,0.511433,0.47269973,-0.15171655,0.51386,0.49756042,-0.23521342,0.499204,0.4990858,-0.19457144,0.507373,0.49992879,-0.17379645,0.511617,0.50069393,-0.15490331,0.515475,0.52049918,-0.23713092,0.493822,0.53578055,-0.20867816,0.508071,0.54394669,-0.19610978,0.515704,0.55115219,-0.18501168,0.522439
0.45796949,-0.32385143,0.477241,0.4590645,-0.28902427,0.487524,0.43984797,-0.31645912,0.483657,0.4146081,-0.29575026,0.489051,0.38679286,-0.27175142,0.484509,0.37814563,-0.25790829,0.489743,0.43875591,-0.24980668,0.50458,0.42782651,-0.21229706,0.508453,0.42216036,-0.1929877,0.510389,0.41689049,-0.17510609,0.512149,0.4606602,-0.2446083,0.500882,0.4503704,-0.20263264,0.504804,0.44437816,-0.17817845,0.507092,0.4401022,-0.16072506,0.508726,0.47875953,-0.24273373,0.497108,0.47084786,-0.20126059,0.500943,0.4668127,-0.1795116,0.502906,0.46300083,-0.15919463,0.504689,0.50057852,-0.24530708,0.491132,0.50177649,-0.20712682,0.494139,0.5023121,-0.18937031,0.495521,0.50276726,-0.17334285,0.49674
0.45524688,-0.32695854,0.480371,0.44938913,-0.29247574,0.489893,0.43653523,-0.31922119,0.4861,0.40356914,-0.30063419,0.489437,0.37367968,-0.27818986,0.483692,0.35989378,-0.26025624,0.482384,0.42717012,-0.25226965,0.50543,0.41134409,-0.21600399,0.508516,0.40288945,-0.19813497,0.510059,0.39497126,-0.18144791,0.511461,0.44918207,-0.24674626,0.502259,0.43682894,-0.20458555,0.505225,0.42874148,-0.17982248,0.506954,0.42282258,-0.16175491,0.50819,0.46761288,-0.24467753,0.498972,0.45670047,-0.20247006,0.501842,0.45096959,-0.18080251,0.503311,0.4457559,-0.1610938,0.504646,0.4901814,-0.24722266,0.493686,0.48850823,-0.21020894,0.496024,0.48712131,-0.19245807,0.497098,0.48587105,-0.17659569,0.498046
0.45293496,-0.32451389,0.477743,0.44696174,-0.290523,0.48776,0.43457069,-0.31877335,0.48431,0.40265252,-0.30291027,0.488555,0.36948555,-0.28696174,0.48317,0.3545584,-0.2723069,0.484015,0.41806073,-0.2577917,0.504769,0.40130757,-0.2222136,0.50822,0.39233032,-0.20444796,0.509946,0.38397029,-0.18794131,0.511515,0.43812,-0.2476853,0.500788,0.42396915,-0.20656709,0.504126,0.41437133,-0.18256473,0.506073,0.40735289,-0.16506032,0.507464,0.45532212,-0.24157636,0.4968,0.44523067,-0.20161565,0.502005,0.43924327,-0.18072878,0.504668,0.43304999,-0.16157869,0.507089,0.47728928,-0.23873968,0.490604,0.47507452,-0.20261851,0.493762,0.4728379,-0.18518082,0.495213,0.47082142,-0.16958268,0.496493
0.45278849,-0.32682856,0.479983,0.44618966,-0.29214854,0.48899,0.43479784,-0.32140369,0.487034,0.39757819,-0.30864338,0.490635,0.36628322,-0.29095724,0.486536,0.3533678,-0.27473504,0.486328,0.4182957,-0.25724965,0.505667,0.40042185,-0.22168945,0.50858,0.39090083,-0.20395483,0.510037,0.38205241,-0.18750074,0.511361,0.43786669,-0.24792952,0.500699,0.42223158,-0.2065516,0.503338,0.41222944,-0.18236388,0.504877,0.40466482,-0.16496379,0.505976,0.45456002,-0.24262374,0.495971,0.44399942,-0.20240281,0.500899,0.43778955,-0.18145005,0.50342,0.43144938,-0.16225249,0.505712,0.4756328,-0.24409759,0.48903,0.47293211,-0.20829543,0.493115,0.47055368,-0.19116229,0.494992,0.46968505,-0.17271529,0.496648
0.45114243,-0.32795624,0.478709,0.44260915,-0.30188963,0.488244,0.42970073,-0.3234261,0.484526,0.40006714,-0.31621925,0.490023,0.36964554,-0.29707192,0.48672,0.35453904,-0.27735169,0.487312,0.41286346,-0.26721551,0.503906,0.39604659,-0.23108845,0.50677,0.38720827,-0.21302158,0.508202,0.37902104,-0.19631046,0.509504,0.43413542,-0.25835483,0.50064,0.4190435,-0.21672213,0.503486,0.40959588,-0.19233008,0.505146,0.40271709,-0.17460422,0.506332,0.45229361,-0.25338363,0.497275,0.44068035,-0.21192854,0.500709,0.43425618,-0.19043883,0.502466,0.42897703,-0.16677661,0.504064,0.47531799,-0.25210413,0.491894,0.46997124,-0.21454739,0.494328,0.46721275,-0.19697713,0.495446,0.46647222,-0.17855724,0.496433
0.45036078,-0.32893416,0.478194,0.44232178,-0.30169363,0.487927,0.42922289,-0.32482311,0.484115,0.39997244,-0.31614439,0.489907,0.36964022,-0.29706765,0.486713,0.35500335,-0.27856588,0.487637,0.41285445,-0.26720967,0.503895,0.39619117,-0.23117281,0.506955,0.38742313,-0.21313978,0.508484,0.37929703,-0.1964534,0.509875,0.43408426,-0.25832438,0.500581,0.41917001,-0.21678756,0.503638,0.40981967,-0.19243517,0.505422,0.40300661,-0.17472975,0.506696,0.45219083,-0.25332605,0.497162,0.44078333,-0.21197806,0.500826,0.43445841,-0.19052752,0.5027,0.42905447,-0.16819746,0.504405,0.47511989,-0.25199907,0.491689,0.46994937,-0.21453741,0.494305,0.46727027,-0.19700139,0.495507,0.46602644,-0.1795463,0.496568
0.44945864,-0.32944836,0.47834,0.44078004,-0.29855171,0.487836,0.42813123,-0.32521504,0.484042,0.39743347,-0.30950192,0.491175,0.36838953,-0.2891821,0.486516,0.35456526,-0.27403902,0.48772,0.41113703,-0.26560021,0.503325,0.39816996,-0.2218323,0.505864,0.39077906,-0.20478315,0.507133,0.3815604,-0.18727835,0.508287,0.43250161,-0.25691295,0.500182,0.41920804,-0.21277659,0.502927,0.41009626,-0.18825207,0.504528,0.40380937,-0.16931252,0.505671,0.45072414,-0.25207245,0.496921,0.44074513,-0.20831573,0.499956,0.43442968,-0.18667674,0.501509,0.42866969,-0.16546974,0.502921,0.47380747,-0.2509312,0.491671,0.47146962,-0.21208666,0.494126,0.46926926,-0.19446616,0.495254,0.46795694,-0.17689533,0.49625
0.4481969,-0.32747415,0.476858,0.4450196,-0.28999198,0.48715,0.43007615,-0.32000767,0.483724,0.40166357,-0.29930029,0.488335,0.37229511,-0.27847248,0.484575,0.35959771,-0.26192942,0.485266,0.42480782,-0.25227907,0.504766,0.41010085,-0.21622229,0.508827,0.40240569,-0.19818364,0.510858,0.39547743,-0.18354912,0.512704,0.44571474,-0.24522462,0.500532,0.43365739,-0.20412792,0.504588,0.42918257,-0.18284722,0.513482,0.42775387,-0.16753653,0.519834,0.46317307,-0.24175816,0.496315,0.45450608,-0.20094227,0.501662,0.44987133,-0.17982121,0.504398,0.44534271,-0.16042811,0.506885,0.48280391,-0.2393401,0.489808,0.48075145,-0.20280841,0.492722,0.47900563,-0.18527059,0.494061,0.47179971,-0.17523968,0.495242
0.4517176,-0.32867639,0.480149,0.44939906,-0.2847883,0.487084,0.43413336,-0.31892222,0.486127,0.40545551,-0.29101849,0.48637,0.37565711,-0.27033217,0.482737,0.36326324,-0.2594179,0.485804,0.42764765,-0.24128454,0.500589,0.41147477,-0.20332242,0.501577,0.40307783,-0.18438381,0.502071,0.39529595,-0.16684458,0.50252,0.44873967,-0.23523788,0.496101,0.43409128,-0.19141017,0.496484,0.42549518,-0.16569253,0.496708,0.41908068,-0.14720439,0.496868,0.46642765,-0.23283305,0.491915,0.45419945,-0.19078418,0.492315,0.4480118,-0.17074538,0.49252,0.44236131,-0.15262466,0.492706,0.48828879,-0.23509817,0.485917,0.48388066,-0.19575115,0.485597,0.48173427,-0.17745269,0.48545,0.48007362,-0.1650312,0.48532
0.4539714,-0.33030025,0.483527,0.44866832,-0.28764086,0.488421,0.43321194,-0.32013172,0.487505,0.40148471,-0.28889434,0.483837,0.37586216,-0.27012562,0.484697,0.36648433,-0.25648373,0.489669,0.42559099,-0.23822254,0.49766,0.41252996,-0.19645587,0.496063,0.40446812,-0.1828953,0.495264,0.39674634,-0.1698649,0.494537,0.44799236,-0.23451622,0.494784,0.43369899,-0.1890232,0.492585,0.42904829,-0.16138187,0.491302,0.42345371,-0.14186919,0.490385,0.46688233,-0.23417114,0.492069,0.46441772,-0.19592779,0.4981,0.46184136,-0.17440094,0.501186,0.46045923,-0.15719789,0.503991,0.48733961,-0.24339973,0.488123,0.49319793,-0.20403296,0.487588,0.49270698,-0.18578429,0.487343,0.49151128,-0.17242158,0.487126
0.44856357,-0.32463582,0.477009,0.45638102,-0.28275936,0.487121,0.43332805,-0.31533362,0.485285,0.41301681,-0.29039857,0.488176,0.38849415,-0.27152041,0.48989,0.37485124,-0.25133453,0.486044,0.44340966,-0.24354781,0.506279,0.43885868,-0.21040493,0.517526,0.43655187,-0.19374866,0.52315,0.43443644,-0.17855896,0.528262,0.4634272,-0.23773019,0.500268,0.45533954,-0.19485033,0.504535,0.45059013,-0.16971644,0.507025,0.44718267,-0.15170948,0.508803,0.47975944,-0.23537724,0.494602,0.47456433,-0.19186996,0.49834,0.471869,-0.16942077,0.500252,0.46939791,-0.14890185,0.501991,0.49913655,-0.23738589,0.486382,0.50638205,-0.20205754,0.493605,0.50969046,-0.18551148,0.496924,0.51260988,-0.17087032,0.499853
0.45647836,-0.33046016,0.485256,0.46421559,-0.2861631,0.490134,0.43909657,-0.316902,0.489738,0.41902361,-0.29226824,0.493077,0.39576082,-0.26673241,0.488608,0.38682294,-0.24949548,0.49095,0.44684251,-0.23915502,0.499975,0.43337543,-0.20052594,0.498879,0.42642154,-0.18053901,0.498331,0.41996516,-0.16196008,0.497832,0.46875109,-0.23747509,0.496488,0.46642781,-0.19559322,0.500307,0.46315014,-0.17104018,0.502535,0.46064761,-0.15273812,0.504126,0.48693047,-0.23885476,0.493273,0.48008171,-0.1930414,0.491295,0.47559914,-0.17153008,0.490283,0.47139073,-0.15116842,0.489363,0.50883543,-0.24610024,0.488728,0.50743505,-0.20551529,0.486394,0.50628793,-0.1871544,0.485321,0.50510505,-0.17145936,0.484374
0.44897758,-0.3253137,0.477004,0.4627344,-0.28824106,0.485882,0.43513772,-0.31486416,0.485438,0.42611212,-0.29400368,0.496565,0.40296732,-0.26504009,0.489158,0.39573646,-0.24494038,0.489075,0.45788701,-0.24715605,0.504126,0.45346763,-0.20790273,0.507953,0.45120836,-0.18801998,0.509866,0.44675341,-0.1771562,0.511606,0.47652172,-0.24431474,0.497445,0.47445601,-0.2005135,0.501386,0.47290045,-0.17467552,0.503685,0.4715842,-0.1559849,0.505327,0.49148045,-0.24454015,0.491319,0.49193659,-0.20026593,0.494104,0.49191154,-0.17743225,0.495528,0.49188625,-0.15661018,0.496824,0.50852818,-0.24998235,0.48272,0.51943803,-0.2149452,0.489246,0.52443379,-0.19900306,0.492244,0.52883428,-0.18501547,0.49489
0.45931506,-0.3294957,0.485669,0.47264261,-0.28551128,0.490782,0.44797076,-0.31639885,0.492671,0.43754022,-0.29057236,0.49919,0.41022952,-0.2626111,0.492362,0.39659923,-0.24277882,0.487839,0.46635384,-0.23507367,0.503891,0.45723975,-0.19526525,0.50423,0.45254372,-0.17477349,0.504399,0.4481918,-0.15579231,0.504553,0.48451086,-0.23497286,0.497457,0.48068163,-0.18826974,0.496306,0.4784241,-0.16063034,0.495634,0.47558566,-0.14097328,0.495154,0.49917086,-0.23773251,0.491803,0.49823234,-0.19182542,0.490612,0.49601476,-0.16814609,0.490003,0.49391331,-0.14629274,0.48945,0.51588195,-0.24674757,0.484299,0.52067938,-0.20765418,0.482198,0.52045776,-0.18956137,0.481233,0.52027928,-0.17324105,0.480382
0.47487485,-0.32727434,0.492541,0.48901579,-0.28023989,0.496111,0.46358754,-0.31164577,0.498334,0.44479844,-0.28315426,0.500446,0.41748265,-0.2564446,0.494371,0.40698337,-0.236298,0.492582,0.47002564,-0.23380291,0.506361,0.46314889,-0.1892056,0.504204,0.45818031,-0.16891632,0.503126,0.45356488,-0.1499831,0.502145,0.49169631,-0.22874676,0.500783,0.48494643,-0.18144241,0.497742,0.48014337,-0.15427723,0.495968,0.4759035,-0.13761506,0.494702,0.50846781,-0.22934434,0.495941,0.5100024,-0.1850516,0.496881,0.5101753,-0.16154639,0.497362,0.51032722,-0.13980783,0.497799,0.52871513,-0.23562913,0.48963,0.53273942,-0.1983036,0.486873,0.53341542,-0.18131511,0.485606,0.53407361,-0.16583177,0.484488
0.47172279,-0.3226286,0.486327,0.4864309,-0.27988893,0.492181,0.46156721,-0.30879374,0.493062,0.44238417,-0.28240443,0.496545,0.41709649,-0.25644758,0.49256,0.40824305,-0.23731123,0.492797,0.47069384,-0.23599377,0.505649,0.46752373,-0.19482433,0.50571,0.46212876,-0.17218749,0.505741,0.45847984,-0.15338058,0.505768,0.49212309,-0.23067154,0.49984,0.48966665,-0.18721487,0.49922,0.48670817,-0.16007428,0.498858,0.48251613,-0.13797201,0.498599,0.50852961,-0.23092563,0.494648,0.51029368,-0.18700985,0.495984,0.51058496,-0.16365736,0.496668,0.51055472,-0.14223337,0.49729,0.52800408,-0.23655212,0.487594,0.53293178,-0.1989914,0.486033,0.5341397,-0.18151189,0.485316,0.5352575,-0.16563761,0.484683
0.46399103,-0.32160807,0.48188,0.47865456,-0.28049709,0.488404,0.45350196,-0.31139205,0.490469,0.44207438,-0.28288441,0.497443,0.4169466,-0.25613123,0.492799,0.4098172,-0.2378294,0.494706,0.47452599,-0.23478146,0.504734,0.47061467,-0.1944731,0.506916,0.4672159,-0.17468957,0.508007,0.46259707,-0.15478885,0.508999,0.49219334,-0.23223842,0.49696,0.49107944,-0.18708615,0.497705,0.49266332,-0.16052162,0.49814,0.48805783,-0.14069893,0.498451,0.5063487,-0.23277166,0.490106,0.51029334,-0.18982259,0.49355,0.51159133,-0.16697447,0.495312,0.51245943,-0.14607728,0.496914,0.52271638,-0.24220634,0.480964,0.53086847,-0.20572916,0.481259,0.5332413,-0.18742609,0.481394,0.5327649,-0.16678086,0.481514
0.4663743,-0.32178155,0.482778,0.4791092,-0.2810715,0.488783,0.4549775,-0.31165426,0.491553,0.4419436,-0.28313974,0.497919,0.41728731,-0.25622829,0.49341,0.41090128,-0.23826064,0.496019,0.47529989,-0.23454535,0.504862,0.47115722,-0.19415398,0.506792,0.46746801,-0.17438283,0.507757,0.46285836,-0.15489161,0.508635,0.49241596,-0.23228021,0.496659,0.49256739,-0.18743031,0.498229,0.49365826,-0.1608458,0.499146,0.49059415,-0.14117876,0.4998,0.50607934,-0.23307958,0.489486,0.51052498,-0.19023243,0.493353,0.5120414,-0.1674631,0.495331,0.51319276,-0.14659562,0.49713,0.52170782,-0.24173901,0.480036,0.53077029,-0.20569111,0.48117,0.53356918,-0.18754134,0.48169,0.53397255,-0.16811526,0.48215
0.47527219,-0.31746546,0.481199,0.48793769,-0.2796012,0.488362,0.46189871,-0.30647817,0.488987,0.45044535,-0.28514586,0.495532,0.42447751,-0.26013935,0.492196,0.41279722,-0.2400798,0.493406,0.47540592,-0.23428813,0.504311,0.47089,-0.19384725,0.50597,0.46731157,-0.17391915,0.506799,0.46395045,-0.15529866,0.507553,0.49437439,-0.23226213,0.497766,0.4929678,-0.18703043,0.498586,0.49116963,-0.16005813,0.499063,0.4898642,-0.14052631,0.499405,0.50999552,-0.23104168,0.491879,0.51028581,-0.18630906,0.494412,0.51191222,-0.16531466,0.495709,0.51244783,-0.14407574,0.496887,0.53170759,-0.23501512,0.483809,0.53343324,-0.19700988,0.483529,0.53382097,-0.17932643,0.4834,0.53550869,-0.16333022,0.483287
0.47402547,-0.3192291,0.482812,0.48743988,-0.27905624,0.489428,0.46183993,-0.30740342,0.490202,0.44342923,-0.28169186,0.493832,0.41868072,-0.2565307,0.49242,0.41159134,-0.23839945,0.494582,0.47582806,-0.23388533,0.504395,0.46960148,-0.19268323,0.505706,0.46596949,-0.17270008,0.506361,0.46255956,-0.15401573,0.506957,0.49519843,-0.23195128,0.498112,0.49310907,-0.18641276,0.498444,0.49109436,-0.15930933,0.498638,0.48963339,-0.13968795,0.498776,0.51146356,-0.23121607,0.492479,0.51094316,-0.18797575,0.494098,0.51103431,-0.16470963,0.494926,0.5110312,-0.14337908,0.495679,0.53033171,-0.23665591,0.48479,0.53305701,-0.19732964,0.484025,0.53467443,-0.17937115,0.483674,0.53615044,-0.1631993,0.483364
0.47292627,-0.32219793,0.483605,0.4799111,-0.28480185,0.488647,0.45998172,-0.31126078,0.491756,0.44619054,-0.29324278,0.500786,0.41993463,-0.26479322,0.493201,0.41257863,-0.2417431,0.49325,0.4722057,-0.23706987,0.5031,0.467037,-0.19599999,0.503757,0.46318663,-0.17597081,0.504085,0.46016462,-0.15573388,0.504383,0.49104985,-0.23794762,0.495278,0.49062136,-0.1925829,0.496398,0.48911416,-0.16558777,0.497051,0.48825568,-0.1418998,0.497517,0.50524026,-0.23967926,0.48849,0.50455164,-0.19436571,0.488269,0.5032317,-0.17076068,0.488156,0.50145548,-0.14920442,0.488054,0.52141099,-0.24737073,0.479636,0.52904728,-0.20620827,0.480185,0.53163137,-0.18800481,0.480437,0.53341095,-0.17179247,0.480659
0.47797564,-0.3214813,0.485364,0.48501294,-0.28124159,0.491119,0.46392648,-0.30970518,0.492416,0.44258388,-0.28300725,0.497124,0.41782866,-0.25650818,0.492976,0.4101483,-0.23981211,0.493957,0.47013131,-0.23390052,0.50491,0.46452132,-0.19203119,0.504767,0.46184906,-0.17134133,0.504696,0.45982801,-0.15309566,0.504631,0.49068028,-0.23020864,0.498705,0.48824829,-0.18422291,0.497795,0.48503647,-0.15707914,0.497264,0.48291194,-0.137875,0.496885,0.50673064,-0.23027213,0.493198,0.50892576,-0.18728301,0.49236,0.50819874,-0.16453733,0.491931,0.5033126,-0.14518174,0.491541,0.52578515,-0.23568909,0.485782,0.53223944,-0.19719276,0.484002,0.53330848,-0.17894787,0.483184,0.53429319,-0.16256603,0.482463
0.47754245,-0.32083052,0.484631,0.48445175,-0.28087207,0.49058,0.46350755,-0.30924876,0.491793,0.44226026,-0.2830062,0.496738,0.41756423,-0.25671086,0.49277,0.40984561,-0.23975207,0.493802,0.46998431,-0.23373464,0.504684,0.46413556,-0.19205007,0.504697,0.46139719,-0.17130867,0.504703,0.45944225,-0.1529593,0.504709,0.49024569,-0.23011173,0.498429,0.4879429,-0.18404792,0.497658,0.48491129,-0.15687494,0.497208,0.48288582,-0.13762503,0.496887,0.50623603,-0.23012934,0.492867,0.50860612,-0.18720237,0.49221,0.50784242,-0.16454212,0.491873,0.50348541,-0.14519089,0.491568,0.52519967,-0.23549239,0.48536,0.53142927,-0.19700339,0.483746,0.53256159,-0.17872058,0.483005,0.53359812,-0.16230924,0.482351
0.47837988,-0.32027836,0.484283,0.48233225,-0.28063488,0.489944,0.46372346,-0.30861089,0.491098,0.43986025,-0.28270035,0.496279,0.41617668,-0.25696327,0.493256,0.40842719,-0.23821221,0.494094,0.46904943,-0.23251728,0.503371,0.46172262,-0.19056822,0.503219,0.45794155,-0.16996936,0.503144,0.45684722,-0.15213022,0.503075,0.48885006,-0.22972145,0.497419,0.48529606,-0.18348862,0.496544,0.48178729,-0.15576478,0.496033,0.47999001,-0.13669597,0.495668,0.50506807,-0.2300763,0.492127,0.50578407,-0.18797738,0.491437,0.50453019,-0.16755719,0.491084,0.50268372,-0.14794778,0.490763,0.52430708,-0.2358706,0.484982,0.52793801,-0.19676855,0.483224,0.52998582,-0.17906013,0.482416,0.53267941,-0.16213136,0.481703
0.47718421,-0.32025338,0.483612,0.48115827,-0.28079088,0.489261,0.46261749,-0.30850468,0.490443,0.43857418,-0.28273582,0.4957,0.41522754,-0.25704334,0.492951,0.40765998,-0.23821119,0.493774,0.46815019,-0.23256521,0.502694,0.46079855,-0.19066055,0.502545,0.45709926,-0.16993152,0.50247,0.45616241,-0.15196048,0.502403,0.48793182,-0.22996428,0.496719,0.48452072,-0.18381442,0.495843,0.48104928,-0.15628245,0.495332,0.47929801,-0.13708919,0.494967,0.50410742,-0.23047735,0.491409,0.50540403,-0.18861506,0.491609,0.50454771,-0.16818389,0.491711,0.50315345,-0.14903588,0.491804,0.5232465,-0.23646136,0.484245,0.52698212,-0.1966657,0.482473,0.52911062,-0.17856039,0.48166,0.53190322,-0.16151693,0.480941
0.47673069,-0.32081255,0.484336,0.48025472,-0.28106488,0.489582,0.46079491,-0.30875839,0.491072,0.43673608,-0.28215187,0.495889,0.41382984,-0.25604509,0.493133,0.40654815,-0.23748703,0.493271,0.46707672,-0.2318041,0.50253,0.46013936,-0.19032524,0.502111,0.45633891,-0.16953578,0.501901,0.45497146,-0.1511183,0.50171,0.48682468,-0.22961219,0.496507,0.48320097,-0.1833745,0.495374,0.48001591,-0.15641524,0.494713,0.47769287,-0.13665245,0.494241,0.50294281,-0.23049242,0.491186,0.50331042,-0.19026535,0.492122,0.50432955,-0.16725471,0.492601,0.50447291,-0.14752833,0.493037,0.52312478,-0.23889837,0.484064,0.52600727,-0.19701583,0.481916,0.52753592,-0.17843901,0.480929,0.53051556,-0.16402969,0.480059
0.47470574,-0.32062771,0.484204,0.47946547,-0.28070113,0.489521,0.4601983,-0.30851243,0.490946,0.43309641,-0.28109097,0.494096,0.41052015,-0.25606815,0.492598,0.40082551,-0.23544338,0.490566,0.46679156,-0.23160269,0.502542,0.46000258,-0.19012286,0.502195,0.45623655,-0.16938156,0.502021,0.45366061,-0.15022813,0.501863,0.4865609,-0.2296735,0.496541,0.4828748,-0.18334906,0.495397,0.47979341,-0.15629742,0.49473,0.47845521,-0.13666467,0.494253,0.50265614,-0.23077055,0.491232,0.50028403,-0.18754144,0.490546,0.49904677,-0.16454326,0.490195,0.5009916,-0.14306056,0.489876,0.52061162,-0.23880865,0.484115,0.52503029,-0.19863942,0.482069,0.52698586,-0.18011549,0.481128,0.52845165,-0.16269347,0.480298
