sluyters/QuantumLeap/backend/src/datasets/dynamic/HandGestureDataset_SHREC2017_csv/Gesture14/finger_2/subject_5_essai_3_skeletons_world.csv
Wrist_x,Wrist_y,Wrist_z,Palm_x,Palm_y,Palm_z,thumb_base_x,thumb_base_y,thumb_base_z,thumb_first_joint_x,thumb_first_joint_y,thumb_first_joint_z,thumb_second_joint_x,thumb_second_joint_y,thumb_second_joint_z,thumb_tip_x,thumb_tip_y,thumb_tip_z,index_base_x,index_base_y,index_base_z,index_first_joint_x,index_first_joint_y,index_first_joint_z,index_second_joint_x,index_second_joint_y,index_second_joint_z,index_tip_x,index_tip_y,index_tip_z,middle_base_x,middle_base_y,middle_base_z,middle_first_joint_x,middle_first_joint_y,middle_first_joint_z,middle_second_joint_x,middle_second_joint_y,middle_second_joint_z,middle_tip_x,middle_tip_y,middle_tip_z,ring_base_x,ring_base_y,ring_base_z,ring_first_joint_x,ring_first_joint_y,ring_first_joint_z,ring_second_joint_x,ring_second_joint_y,ring_second_joint_z,ring_tip_x,ring_tip_y,ring_tip_z,pinky_base_x,pinky_base_y,pinky_base_z,pinky_first_joint_x,pinky_first_joint_y,pinky_first_joint_z,pinky_second_joint_x,pinky_second_joint_y,pinky_second_joint_z,pinky_tip_x,pinky_tip_y,pinky_tip_z,
0.5575116,-0.40949314,0.583816,0.56450945,-0.36988123,0.588075,0.53939017,-0.39391622,0.583347,0.52766396,-0.36554792,0.586135,0.51228049,-0.33902363,0.584137,0.51284172,-0.32722694,0.592218,0.54742859,-0.32625072,0.590332,0.53789208,-0.2859458,0.586052,0.53273076,-0.26679929,0.583912,0.5280035,-0.24919217,0.581967,0.57175057,-0.33048217,0.592362,0.58162114,-0.29703524,0.604014,0.58763941,-0.27752281,0.610811,0.59228447,-0.2632716,0.615666,0.59144111,-0.33666203,0.593763,0.58534788,-0.29748891,0.589958,0.5812673,-0.27418052,0.588011,0.57920763,-0.25622134,0.586241,0.61575198,-0.34692077,0.594911,0.62260083,-0.31748788,0.60036,0.63166701,-0.3086896,0.607376,0.63930749,-0.2996219,0.613567
0.54733449,-0.40902655,0.578549,0.54635949,-0.3792796,0.581087,0.53206062,-0.39462568,0.580463,0.51392385,-0.37652093,0.584111,0.4987939,-0.3478931,0.580366,0.49898435,-0.33216512,0.584948,0.53419696,-0.33480693,0.585089,0.55836707,-0.30782514,0.598414,0.57049256,-0.29421916,0.605077,0.58153785,-0.2817855,0.611134,0.55495941,-0.33880394,0.583642,0.57294314,-0.30783451,0.598554,0.58344591,-0.28964477,0.607253,0.59059032,-0.27375193,0.613466,0.57160702,-0.34465321,0.582291,0.57876752,-0.314856,0.595904,0.58242557,-0.2995821,0.602868,0.58574954,-0.28568128,0.6092,0.59066435,-0.35674019,0.580355,0.58379076,-0.32127684,0.575451,0.58063192,-0.30498472,0.573197,0.57784561,-0.29061101,0.571209
0.54310915,-0.40641607,0.572641,0.54646046,-0.38007708,0.579381,0.52330723,-0.40549307,0.575998,0.51757873,-0.38660493,0.58368,0.49658757,-0.35995385,0.579114,0.49288093,-0.34358767,0.582113,0.5313425,-0.34372388,0.587918,0.51649936,-0.30915277,0.587974,0.5123264,-0.29776594,0.588003,0.50835503,-0.28693221,0.588029,0.55487836,-0.3419299,0.586167,0.56675707,-0.311602,0.599871,0.57513388,-0.29289397,0.607866,0.58111992,-0.27949059,0.613576,0.57157019,-0.34587046,0.584299,0.56724017,-0.31547726,0.595494,0.56605575,-0.29992611,0.601222,0.56498141,-0.28579614,0.606429,0.59064853,-0.35537443,0.581222,0.5831484,-0.32249994,0.583832,0.58014577,-0.30834115,0.585043,0.57815694,-0.29621587,0.586772
0.54463269,-0.40765008,0.572799,0.54941433,-0.38331204,0.583028,0.52409709,-0.40645783,0.574368,0.5164345,-0.38791247,0.583048,0.494803,-0.36180037,0.578589,0.49008811,-0.34533628,0.581078,0.52462587,-0.35151484,0.591715,0.5090593,-0.32572314,0.597394,0.50752887,-0.31567711,0.600234,0.50692226,-0.30721061,0.602815,0.54837961,-0.35029608,0.593326,0.53837123,-0.31278686,0.595931,0.53606654,-0.2931858,0.597451,0.5345352,-0.2789778,0.598537,0.568094,-0.35145448,0.594003,0.56637039,-0.3152137,0.596728,0.56650566,-0.29887241,0.602071,0.56661534,-0.28396601,0.606928,0.59199524,-0.35716882,0.593541,0.59440363,-0.33529216,0.60659,0.59554917,-0.32535101,0.612585,0.59844718,-0.3176256,0.619809
0.55140772,-0.40513584,0.573856,0.54845786,-0.37945791,0.58161,0.53277734,-0.40849363,0.575436,0.52780356,-0.39171097,0.58661,0.49516641,-0.37021416,0.578162,0.48667255,-0.36023774,0.584425,0.5125225,-0.3512143,0.588667,0.490699,-0.32122853,0.588683,0.47960343,-0.30598313,0.588691,0.46942021,-0.29202573,0.588699,0.53335603,-0.34279385,0.589416,0.50934692,-0.3094596,0.589683,0.49519475,-0.28981161,0.589839,0.48501852,-0.27568433,0.58995,0.55167422,-0.33781597,0.589541,0.5373141,-0.31029348,0.598854,0.5301043,-0.29628589,0.603779,0.52354242,-0.28354128,0.608256,0.57584331,-0.3358348,0.588725,0.56593408,-0.31202288,0.596706,0.56132193,-0.30095986,0.600373,0.55841783,-0.29182728,0.604851
0.55589823,-0.42028107,0.575612,0.54639321,-0.38695213,0.580241,0.5336869,-0.41150723,0.57518,0.52205059,-0.40167783,0.581532,0.49236445,-0.37889101,0.574704,0.48472179,-0.36734229,0.580239,0.51057822,-0.35946159,0.582789,0.48620338,-0.32979621,0.578771,0.47383727,-0.31472545,0.576762,0.46247939,-0.30087075,0.574935,0.53361677,-0.35426633,0.584901,0.51178921,-0.31726807,0.581908,0.49895938,-0.29549873,0.580162,0.48974073,-0.27984915,0.578914,0.55367285,-0.35219975,0.586345,0.5323919,-0.32019138,0.587631,0.52146213,-0.30375478,0.588288,0.51150288,-0.28877774,0.588886,0.57979281,-0.35421021,0.5875,0.56390638,-0.32069026,0.583533,0.56300135,-0.31822375,0.581711,0.56223537,-0.31599083,0.580103
0.55738767,-0.42742313,0.577471,0.56343232,-0.40435988,0.590226,0.54413865,-0.42706056,0.580625,0.53788107,-0.40045449,0.579917,0.51686876,-0.38258162,0.58261,0.51059324,-0.37659032,0.591508,0.5398907,-0.38156548,0.602507,0.53715717,-0.37591015,0.606284,0.53956335,-0.3906021,0.608172,0.55744199,-0.41903706,0.623731,0.56178741,-0.37655969,0.603065,0.55805184,-0.35412273,0.608359,0.55557749,-0.33977233,0.611627,0.55862385,-0.34686303,0.613962,0.58015031,-0.37409494,0.602717,0.57942319,-0.36802449,0.607059,0.58206191,-0.38569122,0.60928,0.60080464,-0.41529313,0.62578,0.60283706,-0.37451273,0.600712,0.59272999,-0.34804783,0.602991,0.58996316,-0.34031074,0.604039,0.5894436,-0.33792756,0.604963
0.56329634,-0.41136274,0.582673,0.56841302,-0.38337465,0.599535,0.54566317,-0.40498109,0.588688,0.54680201,-0.37076775,0.590972,0.55061661,-0.34529463,0.59615,0.55892743,-0.33563147,0.608765,0.55641448,-0.36436569,0.618005,0.55849048,-0.35356249,0.626608,0.56158464,-0.37224376,0.63091,0.57579548,-0.39874899,0.647345,0.57703477,-0.3609309,0.616508,0.58235519,-0.34902349,0.626332,0.58544302,-0.3409703,0.632344,0.58990623,-0.35235874,0.636638,0.59362751,-0.3594661,0.61421,0.59783081,-0.348137,0.623322,0.59981796,-0.36331919,0.627984,0.61649255,-0.39371794,0.645348,0.61280782,-0.36045942,0.609356,0.60689131,-0.35377274,0.615625,0.60521238,-0.34821439,0.618505,0.60491149,-0.34728515,0.621047
0.56747297,-0.42960609,0.584955,0.57782704,-0.39766661,0.597555,0.55366752,-0.42587261,0.589264,0.57360537,-0.40275988,0.606144,0.57964635,-0.3797714,0.614237,0.58713491,-0.36432402,0.621995,0.56225152,-0.36731043,0.611133,0.56694652,-0.36732465,0.615647,0.57553074,-0.38697437,0.617903,0.59649584,-0.41442498,0.633714,0.58367802,-0.36555402,0.610239,0.58629677,-0.34011312,0.615612,0.58799846,-0.32981141,0.618746,0.59043856,-0.34096595,0.620984,0.60114854,-0.3661127,0.608706,0.60419488,-0.36666562,0.613581,0.60404858,-0.38861746,0.616075,0.61793421,-0.41868529,0.632771,0.6216903,-0.37080919,0.6053,0.62416095,-0.35761516,0.607939,0.62528818,-0.35102955,0.609152,0.62316144,-0.34892843,0.610222
0.57125722,-0.4319309,0.588098,0.57990184,-0.39841026,0.599109,0.55657242,-0.42674099,0.591793,0.57405551,-0.40253419,0.606034,0.57865859,-0.37854275,0.612325,0.58574606,-0.36269281,0.619412,0.56292549,-0.36661537,0.610889,0.56589295,-0.36415821,0.613915,0.57354698,-0.38303791,0.615427,0.59404256,-0.40998251,0.630967,0.58457985,-0.36517122,0.610193,0.58600555,-0.33869427,0.613934,0.58698509,-0.32782614,0.616116,0.58872315,-0.33853089,0.617675,0.60232707,-0.36605401,0.608925,0.60397377,-0.3655542,0.612254,0.60286867,-0.38694225,0.613957,0.61632011,-0.41672539,0.630363,0.62337864,-0.37127595,0.606032,0.62471882,-0.35718782,0.607351,0.62533398,-0.35020965,0.607957,0.62272596,-0.34773646,0.608492
0.55627012,-0.41780457,0.574038,0.57327561,-0.38050344,0.591341,0.54240796,-0.40180288,0.581561,0.5522073,-0.37437391,0.595897,0.55908101,-0.35219699,0.606568,0.56713359,-0.33999027,0.616655,0.57630698,-0.35039513,0.611931,0.58591465,-0.3495871,0.621981,0.58852195,-0.37108047,0.627007,0.60214795,-0.3988389,0.643695,0.59526518,-0.35281485,0.608759,0.61340896,-0.32160554,0.619368,0.62456848,-0.30190699,0.625798,0.63277534,-0.28708962,0.630464,0.60960097,-0.35657746,0.605055,0.61797124,-0.326289,0.615415,0.62629627,-0.32663713,0.620715,0.64700374,-0.3334214,0.638271,0.62421481,-0.36459507,0.598461,0.62417739,-0.3562139,0.605706,0.62673287,-0.35116475,0.609035,0.62633084,-0.34956203,0.611998
0.5572007,-0.40495687,0.575486,0.57807005,-0.3665809,0.57973,0.54408357,-0.39491907,0.582026,0.5542193,-0.36384236,0.592366,0.55744819,-0.34551381,0.602475,0.56263349,-0.3335161,0.608047,0.58321341,-0.33387228,0.590465,0.58780121,-0.29797781,0.589481,0.59017689,-0.27951062,0.588989,0.60569,-0.26956914,0.603101,0.59738589,-0.33545531,0.584001,0.60576358,-0.29480255,0.582348,0.60814469,-0.2710483,0.581383,0.609883,-0.2538254,0.580694,0.60817811,-0.33876422,0.578416,0.61937572,-0.30268055,0.576598,0.62036878,-0.28388607,0.575669,0.63799848,-0.27357953,0.590262,0.61929359,-0.34679742,0.571192,0.6345932,-0.32096858,0.576259,0.64384539,-0.31045211,0.580665,0.65170345,-0.30025836,0.584553
0.56635523,-0.41374984,0.590244,0.57053828,-0.37059459,0.583038,0.55007819,-0.39837761,0.589688,0.54165433,-0.35997408,0.590357,0.53691952,-0.32947996,0.586461,0.53990379,-0.31147332,0.587063,0.5630468,-0.32216367,0.577585,0.57536703,-0.29171889,0.58607,0.58071469,-0.27834106,0.590312,0.59771732,-0.272564,0.606666,0.58117103,-0.33024461,0.575784,0.57402684,-0.29402904,0.562186,0.57002504,-0.27218921,0.554254,0.56724987,-0.25623312,0.548589,0.59580551,-0.33954696,0.574758,0.59315815,-0.29708697,0.562232,0.59102612,-0.27696486,0.555823,0.60715142,-0.26897863,0.56766,0.61267135,-0.3560657,0.574426,0.61425567,-0.31876089,0.562889,0.61245203,-0.30494041,0.557587,0.61092139,-0.29258514,0.55291
0.57884548,-0.43226109,0.597667,0.57880639,-0.38778737,0.589796,0.55768482,-0.41333681,0.597785,0.54902327,-0.38061723,0.59654,0.54105139,-0.35845172,0.600525,0.54327349,-0.34110431,0.602953,0.56752885,-0.33855689,0.584717,0.56728591,-0.29971482,0.57141,0.55952494,-0.28950035,0.564756,0.56804091,-0.29016774,0.575543,0.58532928,-0.34449189,0.581873,0.57580238,-0.30571879,0.567879,0.569515,-0.28448037,0.559717,0.56465475,-0.27002033,0.553886,0.59991552,-0.35216654,0.580031,0.58848086,-0.31025898,0.56797,0.58263465,-0.28870845,0.5618,0.59446537,-0.29217359,0.573631,0.61719564,-0.36700998,0.578803,0.61552349,-0.3301763,0.566952,0.61363212,-0.31458604,0.561507,0.61312919,-0.29828937,0.556703
0.56120588,-0.42432084,0.586985,0.56320148,-0.39067614,0.584242,0.54442146,-0.40631623,0.586999,0.52131852,-0.38139191,0.578168,0.50346741,-0.35069926,0.568474,0.49693136,-0.32894536,0.563865,0.55250475,-0.34760432,0.58244,0.53338825,-0.33317506,0.574216,0.5221205,-0.32913994,0.570104,0.52429227,-0.3464415,0.582786,0.57214019,-0.35192485,0.58148,0.56526837,-0.31111651,0.571892,0.56168829,-0.28703461,0.566696,0.55914967,-0.26958501,0.562985,0.58829603,-0.35800338,0.580865,0.57528093,-0.31569714,0.572189,0.56863541,-0.29416997,0.56775,0.56494546,-0.28790402,0.566583,0.60743505,-0.37044531,0.580469,0.61800092,-0.33804945,0.572649,0.61771125,-0.32462889,0.569056,0.61329081,-0.3157254,0.565885
0.54781534,-0.42366645,0.57245,0.55591499,-0.39768778,0.583734,0.53758935,-0.42060358,0.580629,0.51816637,-0.39645441,0.584745,0.50849693,-0.37817081,0.593202,0.50982981,-0.3684358,0.602992,0.550093,-0.36692576,0.601126,0.54176269,-0.36157722,0.607854,0.53632893,-0.36349043,0.611218,0.5427765,-0.38331991,0.627264,0.56574301,-0.36286931,0.595094,0.55953596,-0.33266081,0.600265,0.55785968,-0.31088614,0.603282,0.55646231,-0.29661289,0.60651,0.57815568,-0.36156166,0.589417,0.56999305,-0.33137348,0.595752,0.56346521,-0.31333276,0.598994,0.56135182,-0.31030642,0.601941,0.59204276,-0.3640904,0.581207,0.58746721,-0.33413724,0.584813,0.58480372,-0.32091226,0.58647,0.58214102,-0.30966418,0.587932
0.54019759,-0.42996873,0.574038,0.53736972,-0.39882812,0.580042,0.52637909,-0.42493752,0.579167,0.50397701,-0.39885512,0.578272,0.49340052,-0.37684702,0.582797,0.50092694,-0.36535897,0.595503,0.52365656,-0.36473255,0.590237,0.50650549,-0.33518127,0.591223,0.49766321,-0.31995843,0.591717,0.50109125,-0.31613129,0.606761,0.54050854,-0.36110396,0.586086,0.5263224,-0.32283388,0.585565,0.51795196,-0.30024618,0.585261,0.51193042,-0.28399185,0.585045,0.55454334,-0.36046191,0.582291,0.55610363,-0.32205966,0.580261,0.55969563,-0.30055399,0.579222,0.55404733,-0.28867702,0.578278,0.57154847,-0.36446935,0.576995,0.57827147,-0.33080181,0.575967,0.57446898,-0.32192606,0.575494,0.57130602,-0.31231533,0.575077
0.5525948,-0.42572519,0.57761,0.54081845,-0.38917462,0.579403,0.53199268,-0.42276515,0.582374,0.5071223,-0.39959872,0.580429,0.48978334,-0.37666582,0.580458,0.48237366,-0.36563587,0.58616,0.51376916,-0.35695671,0.586362,0.49186268,-0.32413838,0.583874,0.48071284,-0.30814433,0.58263,0.47246728,-0.29509908,0.584011,0.530267,-0.34930533,0.581207,0.50758494,-0.31177,0.576846,0.49407922,-0.29074659,0.574302,0.48428859,-0.2759591,0.572485,0.544651,-0.3454525,0.576854,0.5247973,-0.30860907,0.573636,0.51440599,-0.29231494,0.57199,0.5049058,-0.27825122,0.570494,0.56351376,-0.34571928,0.571411,0.54376034,-0.31349811,0.5674,0.53619463,-0.30526405,0.565558,0.52936482,-0.29780733,0.563932
0.54904547,-0.42410806,0.572562,0.54752503,-0.39103932,0.575738,0.53565085,-0.41950154,0.576967,0.51587656,-0.39806558,0.574699,0.49148553,-0.36922973,0.564816,0.48949377,-0.35563952,0.571446,0.52284285,-0.35842304,0.583179,0.49966478,-0.32825278,0.581882,0.48927469,-0.31269233,0.581233,0.47950349,-0.29987564,0.580643,0.54061567,-0.35238418,0.578934,0.52107839,-0.31431503,0.575685,0.50941453,-0.29280862,0.573789,0.50094004,-0.27772046,0.572435,0.55590156,-0.34985963,0.575241,0.53284618,-0.31521507,0.573361,0.52332451,-0.29886474,0.574814,0.51458685,-0.28401467,0.576135,0.57550218,-0.3517414,0.570419,0.5649019,-0.32594519,0.574242,0.55967631,-0.31629729,0.575999,0.55489415,-0.30752329,0.577548
0.55363203,-0.4248392,0.57514,0.55519304,-0.39176015,0.579982,0.54459875,-0.42749132,0.58378,0.53371431,-0.40617178,0.587713,0.52832046,-0.40780649,0.60613,0.5275732,-0.40232689,0.618078,0.53887176,-0.36354006,0.593659,0.52645301,-0.32938484,0.594579,0.51979561,-0.32987785,0.595039,0.51377078,-0.33180674,0.595458,0.55146267,-0.35357777,0.584856,0.53369598,-0.34235184,0.584192,0.54097157,-0.36559492,0.583805,0.56126523,-0.39164318,0.597295,0.56231501,-0.3477154,0.577309,0.54784622,-0.3130769,0.578423,0.53946209,-0.298145,0.578992,0.53331212,-0.29557921,0.57951,0.57636372,-0.34531066,0.567659,0.5587155,-0.33751063,0.567594,0.56383587,-0.35201842,0.567564,0.57976891,-0.37218234,0.578335
0.5544644,-0.42214209,0.562462,0.56208198,-0.38615673,0.572356,0.54795607,-0.41928616,0.572974,0.53708392,-0.40217478,0.580272,0.53453488,-0.40605151,0.602231,0.53505326,-0.40250948,0.615625,0.54826408,-0.36193384,0.591652,0.54042662,-0.33019044,0.596998,0.53607376,-0.33178757,0.599671,0.53210545,-0.33473495,0.602102,0.56034887,-0.35186558,0.582316,0.54744433,-0.34057169,0.586795,0.55676905,-0.36530588,0.589408,0.57773946,-0.39227413,0.603824,0.57041389,-0.3457224,0.57401,0.56100164,-0.31359651,0.579719,0.55520585,-0.29972288,0.58264,0.55141783,-0.29811223,0.585296,0.58275341,-0.34257768,0.562821,0.56999269,-0.3370531,0.566891,0.57702299,-0.35275473,0.568761,0.59397807,-0.37349515,0.580325
0.56984306,-0.43372107,0.583423,0.57021951,-0.38706819,0.581184,0.55923129,-0.42565799,0.584563,0.5395042,-0.39096054,0.577257,0.52773781,-0.38035275,0.589747,0.51979435,-0.37025958,0.592617,0.54185296,-0.34948628,0.58108,0.55775958,-0.33464082,0.609059,0.56563003,-0.32695913,0.623049,0.57273882,-0.31983511,0.635766,0.56056343,-0.34513788,0.578931,0.53447115,-0.32990327,0.570049,0.53335466,-0.34816769,0.564868,0.55040189,-0.37343245,0.577436,0.57533423,-0.3458891,0.577304,0.55156968,-0.30737987,0.569648,0.53901601,-0.29035708,0.565731,0.52969227,-0.28547988,0.56217,0.59730157,-0.34918463,0.575634,0.59258554,-0.31763652,0.574798,0.58694358,-0.30451986,0.574415,0.59510144,-0.30986673,0.585799
0.5645402,-0.42811851,0.57122,0.56611506,-0.38940163,0.574562,0.54451014,-0.41795846,0.571858,0.54140604,-0.38741704,0.568852,0.53426144,-0.37859867,0.5848,0.52967808,-0.37278412,0.592186,0.54659428,-0.3498687,0.577552,0.54155578,-0.3142728,0.577088,0.53898253,-0.29606047,0.576856,0.53661093,-0.27925628,0.576645,0.56945019,-0.35106824,0.577926,0.5681295,-0.31171063,0.580366,0.56733348,-0.2884747,0.581789,0.56675399,-0.27175203,0.582806,0.58696998,-0.35542648,0.578023,0.5724328,-0.31561088,0.573992,0.56484847,-0.2970264,0.57193,0.56046796,-0.28651225,0.570055,0.6118291,-0.36392698,0.577722,0.59683253,-0.33119966,0.572793,0.59396747,-0.32485709,0.570528,0.60821043,-0.33942363,0.581015
0.56587544,-0.42608068,0.568144,0.570962,-0.39125593,0.574048,0.54702418,-0.41612526,0.569696,0.54466421,-0.38801897,0.564118,0.53536094,-0.37773542,0.578225,0.53075021,-0.37252506,0.589903,0.55079417,-0.35233002,0.579845,0.5502078,-0.3164206,0.578492,0.54854768,-0.29879961,0.577815,0.54686564,-0.28319767,0.5772,0.57353433,-0.35273316,0.579992,0.5824498,-0.32354961,0.594794,0.58587802,-0.30466315,0.603428,0.58816531,-0.29075749,0.609596,0.5906683,-0.35610833,0.579739,0.59334353,-0.31532424,0.57843,0.59449616,-0.29593452,0.57952,0.59542168,-0.27833928,0.580512,0.61534648,-0.36373064,0.578701,0.6150664,-0.32857803,0.577207,0.61380715,-0.31310551,0.576521,0.61292081,-0.30225481,0.575915
0.54686225,-0.40679103,0.580267,0.56465535,-0.36751863,0.578893,0.53883536,-0.38883831,0.583231,0.54137792,-0.35941733,0.588899,0.54186111,-0.3371683,0.595932,0.54856733,-0.32130051,0.600147,0.56643355,-0.32105539,0.58157,0.56365854,-0.2825091,0.576432,0.56212921,-0.26314431,0.573864,0.55995863,-0.24690149,0.571529,0.58228522,-0.32854783,0.577509,0.59733468,-0.29107608,0.577766,0.60472785,-0.2683182,0.577916,0.60846253,-0.25340388,0.578023,0.59447286,-0.3372743,0.574256,0.60029121,-0.30030143,0.572914,0.6017203,-0.28158286,0.572227,0.59965354,-0.27801955,0.571603,0.60722294,-0.3528153,0.570527,0.6165423,-0.3217208,0.571838,0.62071551,-0.30718865,0.57244,0.62439254,-0.29439231,0.572972
0.54371709,-0.40316964,0.575841,0.56376144,-0.36601594,0.577647,0.5380575,-0.38750026,0.581621,0.54244689,-0.35965326,0.589562,0.54348513,-0.33767592,0.59735,0.55093173,-0.32272151,0.60287,0.57005466,-0.32303727,0.585843,0.57240164,-0.28602773,0.584264,0.57354572,-0.26716572,0.583475,0.58310565,-0.25176072,0.58849,0.58381537,-0.32887204,0.579464,0.59967229,-0.29150166,0.58155,0.60824943,-0.2691403,0.582767,0.61389669,-0.2521793,0.584608,0.59400905,-0.33606401,0.574102,0.60094316,-0.29589528,0.571855,0.60238735,-0.27831096,0.570705,0.60811054,-0.25734895,0.569659,0.60391763,-0.34941319,0.567451,0.61440062,-0.31830504,0.568401,0.61917112,-0.30385358,0.568837,0.62314279,-0.29114314,0.569223
0.54947514,-0.40408458,0.578618,0.56710079,-0.3656334,0.579589,0.54224727,-0.38834766,0.583687,0.54627651,-0.36111405,0.59279,0.54334711,-0.33672972,0.596912,0.55010073,-0.32110701,0.601787,0.56989134,-0.32221467,0.586372,0.57099274,-0.28301675,0.582193,0.57188671,-0.26352414,0.580103,0.57188066,-0.24661888,0.578204,0.58421875,-0.32611332,0.580569,0.59082859,-0.28283669,0.579893,0.5948878,-0.25886361,0.579499,0.59780738,-0.24162899,0.579217,0.59593763,-0.32888338,0.575734,0.60104981,-0.28863165,0.571111,0.60188087,-0.27299813,0.568746,0.60038412,-0.25677347,0.566596,0.60889911,-0.34024965,0.569817,0.61703472,-0.30735164,0.568305,0.62108501,-0.29242485,0.567906,0.62462606,-0.27922141,0.567555
0.56252564,-0.41675379,0.582053,0.57781534,-0.37530215,0.583451,0.5539623,-0.39638558,0.587718,0.55309027,-0.37567419,0.594629,0.54783524,-0.35174497,0.600208,0.54909898,-0.33402406,0.603015,0.57306209,-0.33404421,0.59124,0.5697774,-0.29681741,0.587652,0.57825274,-0.28273878,0.596289,0.58596234,-0.26912039,0.604141,0.58893929,-0.33308403,0.584862,0.57365759,-0.33208392,0.580448,0.56265764,-0.3391261,0.577873,0.5545239,-0.3445356,0.576098,0.59988823,-0.33914227,0.579527,0.59604354,-0.29950143,0.576374,0.59379801,-0.27902445,0.57476,0.5980584,-0.26300476,0.579403,0.61394821,-0.34831646,0.572958,0.61508445,-0.31508043,0.568586,0.61401475,-0.29708147,0.566577,0.6133658,-0.28348733,0.564805
0.55630482,-0.40797871,0.580712,0.56981815,-0.36763147,0.580193,0.54564437,-0.39140534,0.58337,0.54120508,-0.36500725,0.5872,0.52622334,-0.33552677,0.581665,0.5248723,-0.31794416,0.583495,0.56587617,-0.321079,0.583065,0.55823619,-0.29033616,0.577352,0.55321475,-0.27142473,0.574495,0.55006753,-0.25504995,0.571898,0.58307809,-0.32685245,0.579668,0.57454578,-0.28473913,0.57269,0.57063862,-0.25996002,0.56862,0.56784963,-0.24204792,0.565713,0.59645802,-0.33264621,0.576907,0.5892775,-0.29160048,0.571193,0.58656292,-0.27332904,0.568269,0.58345074,-0.25421654,0.565611,0.61259259,-0.34301759,0.573661,0.61112562,-0.3084355,0.570546,0.61043532,-0.29245703,0.569114,0.61315018,-0.28167294,0.567851
0.55864881,-0.41074172,0.579714,0.56934688,-0.36766151,0.579686,0.54529377,-0.39161646,0.582574,0.53924556,-0.36617687,0.58603,0.5235212,-0.33673284,0.580269,0.52074152,-0.31769222,0.579072,0.56476223,-0.32515971,0.583128,0.55554264,-0.29060011,0.578015,0.55177966,-0.27302044,0.575459,0.54832976,-0.25668084,0.573135,0.58242638,-0.32918138,0.579657,0.57339194,-0.28654144,0.573164,0.56703124,-0.2636688,0.569376,0.56623425,-0.24420587,0.566671,0.59628068,-0.33468375,0.576803,0.58936769,-0.29374727,0.57144,0.58604647,-0.27284065,0.568696,0.58302545,-0.25374234,0.566202,0.61159044,-0.34377648,0.573385,0.61193828,-0.3108308,0.572924,0.61225108,-0.29548808,0.572712,0.61246619,-0.28200169,0.572525
0.55660218,-0.40873249,0.580531,0.56850846,-0.36729075,0.580034,0.5458897,-0.3926059,0.583413,0.53435167,-0.36681996,0.583854,0.51601436,-0.3367371,0.575168,0.51125911,-0.31634922,0.571778,0.56321184,-0.32616369,0.583192,0.55437062,-0.29077938,0.577836,0.54843812,-0.27375978,0.575158,0.54644995,-0.25666034,0.572723,0.58142633,-0.32851662,0.579532,0.57066483,-0.28867467,0.572636,0.56569108,-0.26445394,0.568613,0.5621269,-0.24687646,0.56574,0.5948748,-0.3350934,0.576553,0.58688165,-0.29225379,0.570874,0.58326762,-0.27116962,0.567968,0.58086523,-0.25312818,0.565326,0.60981627,-0.34662209,0.573043,0.60306962,-0.30905098,0.566733,0.59995931,-0.2926594,0.563834,0.60529087,-0.28118738,0.56815
0.55771144,-0.41009845,0.582145,0.56754078,-0.3683762,0.57996,0.54752081,-0.39439954,0.585663,0.52984855,-0.36533241,0.58158,0.51429389,-0.33592163,0.574183,0.51077176,-0.31645648,0.572689,0.56138734,-0.32496401,0.582765,0.55097112,-0.2907018,0.576793,0.54600362,-0.27273553,0.573807,0.54144903,-0.25609781,0.571093,0.57656372,-0.32824164,0.577755,0.56702155,-0.28739641,0.569584,0.56143439,-0.26303862,0.564817,0.55743374,-0.24538583,0.561412,0.58931483,-0.33301634,0.573772,0.579876,-0.29236903,0.567666,0.57360773,-0.27263091,0.564542,0.56927229,-0.25362409,0.561702,0.60398876,-0.34405444,0.569267,0.59696235,-0.30757078,0.562272,0.59414415,-0.2907039,0.559058,0.58902959,-0.27994472,0.556222
0.55720452,-0.41015532,0.581972,0.56688657,-0.36834069,0.579665,0.54702842,-0.39452817,0.585531,0.52963584,-0.36522364,0.581496,0.51366975,-0.3356684,0.573955,0.51044798,-0.31646084,0.573056,0.56063619,-0.32487321,0.582439,0.55013643,-0.29038257,0.576456,0.54510545,-0.27238249,0.573465,0.54049129,-0.25571772,0.570745,0.57574139,-0.32802843,0.577336,0.56621145,-0.28726894,0.569073,0.56063303,-0.26295149,0.564253,0.55663899,-0.24532234,0.56081,0.58838898,-0.33282194,0.573284,0.5788216,-0.29241972,0.567125,0.57303061,-0.27235661,0.563974,0.5686713,-0.25335634,0.561109,0.60292503,-0.34387944,0.568711,0.59604654,-0.30739662,0.561667,0.593231,-0.29055286,0.55843,0.58834443,-0.27961909,0.555575
0.54939354,-0.40603879,0.574387,0.55240537,-0.37394656,0.57268,0.53709501,-0.39125057,0.578141,0.52191876,-0.36786095,0.574431,0.51109468,-0.33568027,0.571892,0.51278253,-0.31889113,0.575613,0.54363234,-0.32877032,0.576088,0.53613531,-0.29019146,0.571232,0.53236773,-0.27065748,0.568805,0.53277675,-0.25304632,0.566598,0.56024576,-0.33139316,0.570956,0.55810962,-0.2854976,0.563266,0.55414998,-0.26100474,0.558779,0.55120111,-0.24295639,0.555575,0.5736429,-0.33623597,0.566843,0.56781731,-0.29462755,0.561212,0.56648172,-0.27084674,0.558332,0.56284506,-0.25190145,0.555713,0.58909458,-0.347418,0.562122,0.58961024,-0.3148314,0.559206,0.58842149,-0.30129628,0.557866,0.58586526,-0.30100788,0.556683
0.54851749,-0.40660418,0.573138,0.55160379,-0.37340394,0.571849,0.53585904,-0.39287262,0.577036,0.52113375,-0.36730766,0.573567,0.51132076,-0.33636073,0.572016,0.51371392,-0.32012419,0.576616,0.54327564,-0.3285546,0.57571,0.53613718,-0.29019247,0.571234,0.53254556,-0.27074789,0.568995,0.53215688,-0.25313497,0.566961,0.55984542,-0.33115635,0.570548,0.55738889,-0.28588135,0.56326,0.55401189,-0.261143,0.559009,0.5514351,-0.24307991,0.555973,0.57317738,-0.33596311,0.566383,0.56773232,-0.29458345,0.561128,0.56618166,-0.27150878,0.55844,0.56295259,-0.25252152,0.555996,0.58849408,-0.34706386,0.561549,0.589819,-0.31494287,0.559404,0.58900478,-0.30159495,0.558419,0.58677771,-0.30147668,0.55755
0.54453827,-0.4056787,0.570649,0.54862227,-0.37079518,0.570165,0.53141472,-0.39351655,0.574739,0.51536679,-0.36193538,0.571616,0.50929811,-0.3350481,0.57007,0.51297488,-0.31957005,0.575969,0.54166764,-0.32655342,0.574794,0.53512275,-0.28889728,0.57081,0.53182379,-0.26973319,0.568818,0.52880877,-0.2521093,0.567007,0.55811621,-0.32931938,0.569677,0.55444037,-0.2857341,0.563141,0.55380136,-0.26070143,0.559328,0.55174011,-0.2428017,0.556605,0.57127979,-0.33422197,0.565498,0.5668039,-0.29338385,0.560826,0.56567656,-0.27127796,0.558436,0.56296647,-0.25235261,0.556263,0.58624137,-0.34535692,0.560548,0.59191247,-0.30786108,0.559812,0.592849,-0.29272725,0.559474,0.59834448,-0.28149394,0.563149
0.54287453,-0.40695329,0.570398,0.54779374,-0.36993973,0.570008,0.53015206,-0.39342516,0.574405,0.51497099,-0.36165742,0.571177,0.50808778,-0.3342647,0.568942,0.51219006,-0.31901077,0.575225,0.54111195,-0.32570447,0.574598,0.53466989,-0.288279,0.570656,0.53142074,-0.2692038,0.568685,0.52844988,-0.25164435,0.566893,0.55761781,-0.32861815,0.569614,0.55409311,-0.28510495,0.563133,0.55345021,-0.26029162,0.559353,0.55154663,-0.24240731,0.556653,0.57081957,-0.33363797,0.565538,0.56658297,-0.29290966,0.560916,0.565457,-0.27118032,0.55855,0.56293368,-0.25222075,0.5564,0.58579851,-0.34490647,0.5607,0.59188259,-0.30884803,0.560548,0.59341763,-0.29388785,0.560478,0.59925589,-0.28303626,0.564427
0.53805638,-0.40415585,0.566146,0.54558263,-0.36826885,0.568149,0.52782063,-0.39232932,0.572658,0.51597854,-0.36283037,0.573199,0.51292842,-0.3372948,0.576261,0.51756008,-0.32239685,0.583518,0.54344891,-0.32678324,0.577363,0.5397559,-0.29081355,0.576365,0.53797049,-0.27235683,0.575975,0.5363704,-0.25527912,0.575672,0.55786517,-0.32849882,0.570171,0.55720523,-0.28642907,0.566567,0.55667353,-0.2617325,0.564465,0.55702544,-0.24510119,0.562963,0.56907004,-0.33240627,0.56413,0.56770818,-0.29376287,0.56248,0.56622973,-0.27272079,0.561636,0.5662732,-0.25447493,0.561398,0.58117533,-0.34205397,0.556637,0.58649995,-0.30901667,0.558263,0.5910904,-0.29320672,0.55901,0.59502114,-0.28188685,0.561525
0.53953098,-0.4078787,0.569528,0.54661654,-0.36972576,0.569684,0.52670997,-0.39396262,0.573286,0.51267948,-0.36132753,0.569774,0.50639085,-0.33376078,0.568117,0.51067767,-0.3186873,0.574527,0.54021931,-0.32541475,0.574336,0.53440506,-0.28788509,0.570501,0.53146728,-0.26879881,0.568584,0.53116943,-0.25204043,0.566841,0.55720856,-0.32879171,0.569842,0.55464384,-0.28549065,0.563762,0.55486243,-0.26075339,0.560215,0.55292304,-0.24302081,0.557682,0.57076553,-0.33417506,0.566135,0.56760714,-0.29390742,0.561744,0.5673957,-0.27264971,0.559498,0.56452046,-0.25317736,0.557456,0.58717224,-0.34785549,0.56167,0.58411089,-0.31363808,0.556153,0.5839695,-0.29843132,0.553619,0.58381915,-0.27997879,0.551382
