sluyters/QuantumLeap/backend/src/datasets/dynamic/HandGestureDataset_SHREC2017_csv/Gesture14/finger_2/subject_22_essai_4_skeletons_world.csv
Wrist_x,Wrist_y,Wrist_z,Palm_x,Palm_y,Palm_z,thumb_base_x,thumb_base_y,thumb_base_z,thumb_first_joint_x,thumb_first_joint_y,thumb_first_joint_z,thumb_second_joint_x,thumb_second_joint_y,thumb_second_joint_z,thumb_tip_x,thumb_tip_y,thumb_tip_z,index_base_x,index_base_y,index_base_z,index_first_joint_x,index_first_joint_y,index_first_joint_z,index_second_joint_x,index_second_joint_y,index_second_joint_z,index_tip_x,index_tip_y,index_tip_z,middle_base_x,middle_base_y,middle_base_z,middle_first_joint_x,middle_first_joint_y,middle_first_joint_z,middle_second_joint_x,middle_second_joint_y,middle_second_joint_z,middle_tip_x,middle_tip_y,middle_tip_z,ring_base_x,ring_base_y,ring_base_z,ring_first_joint_x,ring_first_joint_y,ring_first_joint_z,ring_second_joint_x,ring_second_joint_y,ring_second_joint_z,ring_tip_x,ring_tip_y,ring_tip_z,pinky_base_x,pinky_base_y,pinky_base_z,pinky_first_joint_x,pinky_first_joint_y,pinky_first_joint_z,pinky_second_joint_x,pinky_second_joint_y,pinky_second_joint_z,pinky_tip_x,pinky_tip_y,pinky_tip_z,
0.419304417,-0.309227458,0.53073,0.423757221,-0.268584904,0.533486,0.40438886,-0.307410201,0.532823,0.373795712,-0.29617475,0.534898,0.343936993,-0.283605035,0.531297,0.327894701,-0.271125913,0.530304,0.403109048,-0.251602592,0.537586,0.399459773,-0.213005814,0.536314,0.397273739,-0.193545116,0.535679,0.395270521,-0.175681106,0.535101,0.425830384,-0.249750956,0.534775,0.427293887,-0.206589484,0.529928,0.428159065,-0.181326684,0.527101,0.428781566,-0.163242169,0.525081,0.443945171,-0.25400045,0.532063,0.446461308,-0.211722423,0.527185,0.447657725,-0.190102912,0.524689,0.448763645,-0.170335301,0.52242,0.46275367,-0.267965124,0.528463,0.4762781,-0.234570347,0.525405,0.48248733,-0.219233825,0.523999,0.487985052,-0.205625617,0.522759
0.419304417,-0.309227458,0.53073,0.423756427,-0.268584401,0.533485,0.404389619,-0.307410778,0.532824,0.373794315,-0.296173643,0.534896,0.343936993,-0.283605035,0.531297,0.327894083,-0.271125402,0.530303,0.403108298,-0.251602124,0.537585,0.399460517,-0.213006211,0.536315,0.397273739,-0.193545116,0.535679,0.395271259,-0.175681435,0.535102,0.425829587,-0.249750489,0.534774,0.427292274,-0.206588704,0.529926,0.428156628,-0.181325652,0.527098,0.428779116,-0.163241236,0.525078,0.443944337,-0.253999973,0.532062,0.446459614,-0.21172162,0.527183,0.447655165,-0.190101825,0.524686,0.448760209,-0.170333997,0.522416,0.46275367,-0.267965124,0.528463,0.476277194,-0.2345699,0.525404,0.482486409,-0.219233407,0.523998,0.487984118,-0.205625223,0.522758
0.418489211,-0.30900049,0.53058,0.423311637,-0.268293674,0.533085,0.403514026,-0.306889768,0.532523,0.366616296,-0.293525362,0.53467,0.335856938,-0.281574207,0.530438,0.327184138,-0.27110415,0.530464,0.40271697,-0.250865184,0.536876,0.398964243,-0.212331209,0.535726,0.39675023,-0.192896142,0.535151,0.394721422,-0.175056911,0.534628,0.42556108,-0.24941775,0.53426,0.427000705,-0.206252974,0.52928,0.427853493,-0.180975439,0.526375,0.42846861,-0.162874755,0.5243,0.443737842,-0.254010092,0.531744,0.44628937,-0.211706041,0.526753,0.447505133,-0.190079162,0.524199,0.448631205,-0.170295967,0.521878,0.462545924,-0.268374578,0.528416,0.475926405,-0.2348967,0.525229,0.48207303,-0.219518037,0.523765,0.487513901,-0.205878157,0.522473
0.419581706,-0.310010306,0.532009,0.422985808,-0.268076754,0.532296,0.404749089,-0.307901503,0.534186,0.374606898,-0.296918464,0.536153,0.343535505,-0.283392584,0.530826,0.326601088,-0.270729918,0.529684,0.402238032,-0.250277556,0.535646,0.398654729,-0.211949941,0.534874,0.396681882,-0.193071777,0.534488,0.394562648,-0.174849486,0.534137,0.424563338,-0.248724041,0.532432,0.427527922,-0.205102362,0.525183,0.427846995,-0.179537564,0.520955,0.427606602,-0.162456271,0.522412,0.442490859,-0.253352512,0.529739,0.44603401,-0.212241028,0.52231,0.446833367,-0.190210668,0.518509,0.447590204,-0.170027733,0.515053,0.461388707,-0.267971847,0.526727,0.477193951,-0.237646562,0.52163,0.483002255,-0.222083711,0.519288,0.485482601,-0.205359076,0.519783
0.418942766,-0.309991584,0.531814,0.422396564,-0.267754635,0.531334,0.404532554,-0.307927151,0.534491,0.374358701,-0.296917832,0.537322,0.340880906,-0.277367385,0.530892,0.327248747,-0.270064988,0.529744,0.402351473,-0.24985708,0.535155,0.399011348,-0.208622522,0.528914,0.395373819,-0.188302986,0.525794,0.392059952,-0.169733183,0.522957,0.423989993,-0.248284033,0.531107,0.428624591,-0.205729157,0.523043,0.429161891,-0.18028702,0.518339,0.431720357,-0.163587782,0.517958,0.443328411,-0.255088953,0.527836,0.446789975,-0.213563499,0.519148,0.450746463,-0.193708115,0.514703,0.45287443,-0.173871021,0.510662,0.460132295,-0.27139727,0.524368,0.473356648,-0.237814184,0.518219,0.478779909,-0.222212716,0.515394,0.482650616,-0.210000051,0.512902
0.419154156,-0.310182679,0.533417,0.419956486,-0.265451854,0.5276,0.404391334,-0.307146053,0.535391,0.369181133,-0.281068064,0.537892,0.345544623,-0.267970383,0.539122,0.340425871,-0.258907838,0.546457,0.410375755,-0.236011704,0.528466,0.418958956,-0.203409458,0.534515,0.42171972,-0.185360486,0.53754,0.424238228,-0.168484189,0.540289,0.430621449,-0.241955088,0.524858,0.431892153,-0.197662272,0.512474,0.431311136,-0.172840562,0.50525,0.428823849,-0.158108418,0.50009,0.441971392,-0.253162993,0.522712,0.448761759,-0.20956798,0.510243,0.45035579,-0.187472039,0.503864,0.452298128,-0.167560287,0.498606,0.459142527,-0.271850366,0.521701,0.471758016,-0.240508605,0.511239,0.476212306,-0.225666822,0.506432,0.475651986,-0.210580148,0.50219
0.413944362,-0.305865142,0.527125,0.423366466,-0.25840589,0.521062,0.401148113,-0.303443192,0.53113,0.383259141,-0.271761563,0.535062,0.371250267,-0.256164836,0.543071,0.360743915,-0.238753514,0.541185,0.416428247,-0.233913072,0.524869,0.427688449,-0.199704168,0.530262,0.433675275,-0.1828178,0.533412,0.439152502,-0.167489426,0.53632,0.434087572,-0.239162321,0.518205,0.439745494,-0.19566086,0.505217,0.442750591,-0.170494345,0.497641,0.440540405,-0.157127315,0.492229,0.446673039,-0.249369064,0.513571,0.455732709,-0.208085248,0.500414,0.460257392,-0.187150405,0.493682,0.459480025,-0.172684659,0.487563,0.457339418,-0.270060399,0.509895,0.470941716,-0.23829495,0.498328,0.477211738,-0.223677685,0.493013,0.482755069,-0.210767856,0.488323
0.412761964,-0.304254574,0.525469,0.429161662,-0.258311525,0.519766,0.402340777,-0.302725237,0.53212,0.391570014,-0.270309118,0.537282,0.372848266,-0.247258141,0.536036,0.371270755,-0.232754364,0.540838,0.425416898,-0.235843996,0.527649,0.435852353,-0.200127537,0.524548,0.436672282,-0.181493021,0.522997,0.437471697,-0.164097839,0.521588,0.436012925,-0.239036142,0.517079,0.447694378,-0.197283139,0.503765,0.448397012,-0.173636558,0.495999,0.449016461,-0.156425249,0.490451,0.445291871,-0.247676296,0.509172,0.461961547,-0.210028528,0.497798,0.469271587,-0.190485708,0.491979,0.475941495,-0.17268668,0.486689,0.452031925,-0.266349026,0.501833,0.467300851,-0.237595782,0.488205,0.47354238,-0.224020712,0.481943,0.476183743,-0.212926789,0.476418
0.412246351,-0.30266368,0.525014,0.429611304,-0.25564266,0.512753,0.407972621,-0.291005524,0.532681,0.407256025,-0.260279088,0.542831,0.405306342,-0.240826193,0.552797,0.406710501,-0.224495986,0.556738,0.43735653,-0.230475237,0.51981,0.441969373,-0.190067562,0.509671,0.444279425,-0.169855058,0.504602,0.443656358,-0.151543306,0.499994,0.442752781,-0.239124193,0.506976,0.451864758,-0.198447686,0.490558,0.457128661,-0.174793887,0.480982,0.460742052,-0.157893045,0.474141,0.444317358,-0.251370528,0.498136,0.452927162,-0.214486504,0.47815,0.45739434,-0.195551713,0.467924,0.457823388,-0.17849691,0.458629,0.441447649,-0.273041181,0.491284,0.452002971,-0.245142833,0.473153,0.455850564,-0.232234072,0.464823,0.457173869,-0.220951046,0.457472
0.409685877,-0.295743197,0.520236,0.431767981,-0.250624509,0.50693,0.410584146,-0.279089748,0.52835,0.411494634,-0.250179067,0.536662,0.408001148,-0.226932128,0.542012,0.409804012,-0.209409988,0.544293,0.440091679,-0.222691463,0.51428,0.448887497,-0.183884957,0.502932,0.45287859,-0.164381536,0.497258,0.456515707,-0.146634464,0.4921,0.444461977,-0.230758839,0.50066,0.454425292,-0.192629409,0.480511,0.456914939,-0.169958981,0.468758,0.458798737,-0.153624927,0.460362,0.445228656,-0.242551249,0.49132,0.454922795,-0.208513632,0.468229,0.459837936,-0.191132041,0.456415,0.4583893,-0.175107846,0.445675,0.441576229,-0.263832896,0.484162,0.451572146,-0.239935623,0.463936,0.454644079,-0.228694908,0.454644,0.45173586,-0.217140849,0.446444
0.408080956,-0.289473419,0.517649,0.433511706,-0.245120482,0.505541,0.407924322,-0.275078192,0.524373,0.406315183,-0.246385174,0.531614,0.395107875,-0.219131655,0.532486,0.389315411,-0.198767651,0.52856,0.434067745,-0.216368623,0.511245,0.44432057,-0.177914454,0.502326,0.449177578,-0.15865856,0.497866,0.455843014,-0.144153495,0.49382,0.443035456,-0.227997096,0.499836,0.457595979,-0.191520413,0.484131,0.466398079,-0.167718189,0.475285,0.472876079,-0.152527149,0.468967,0.44613119,-0.24067659,0.492149,0.462468099,-0.206317389,0.473654,0.470704189,-0.189936024,0.464192,0.474249766,-0.175020867,0.455589,0.444917223,-0.262952177,0.486525,0.459008086,-0.236800222,0.468124,0.465037511,-0.225728195,0.45967,0.470411233,-0.215932754,0.45221
0.406387698,-0.292161853,0.516342,0.426532547,-0.243922157,0.509021,0.400272556,-0.280584652,0.521656,0.383628136,-0.253471244,0.524111,0.358439104,-0.226501426,0.513191,0.350753652,-0.207859412,0.511624,0.419202045,-0.219433412,0.514333,0.420966916,-0.178224865,0.504781,0.419939672,-0.158051064,0.500006,0.419041667,-0.139480894,0.495664,0.43414018,-0.225100114,0.505572,0.448443079,-0.18568801,0.495078,0.456630887,-0.162928519,0.488956,0.457078379,-0.148871055,0.484584,0.444128391,-0.235407532,0.499388,0.461527785,-0.198637861,0.489615,0.470313845,-0.179967136,0.484614,0.469734555,-0.168845332,0.480069,0.451483366,-0.255933295,0.494305,0.468774816,-0.228778518,0.480445,0.477071386,-0.216528356,0.474486,0.484608061,-0.205824218,0.469449
0.39871744,-0.285634229,0.506094,0.40482271,-0.243188584,0.501924,0.388404191,-0.277318155,0.510688,0.357733996,-0.261458738,0.510895,0.328911047,-0.237691853,0.501533,0.319510585,-0.223060299,0.502322,0.389525822,-0.222916697,0.507288,0.383245189,-0.187128861,0.501143,0.378914784,-0.175508373,0.49807,0.374878848,-0.16442093,0.495276,0.40835969,-0.223449455,0.499959,0.414470233,-0.181814491,0.493416,0.41644737,-0.157757588,0.4896,0.415798092,-0.151741849,0.486873,0.422661359,-0.22976195,0.494508,0.436302938,-0.194859465,0.492569,0.440508416,-0.179617728,0.491577,0.441507905,-0.168956008,0.490675,0.436709683,-0.246250118,0.489502,0.450988218,-0.21414949,0.47886,0.450828151,-0.20458712,0.47397,0.448654055,-0.198137457,0.469656
0.387717563,-0.280201516,0.493764,0.386937087,-0.243466905,0.49177,0.368624648,-0.277851334,0.494908,0.334724578,-0.260162869,0.492294,0.309087541,-0.241747324,0.48952,0.295647447,-0.224760657,0.486444,0.366837326,-0.221541995,0.492756,0.359775775,-0.180826515,0.487096,0.356115269,-0.160597446,0.484266,0.352774817,-0.142054593,0.481693,0.390104438,-0.223484824,0.490824,0.39639487,-0.183274873,0.491579,0.400051105,-0.159910412,0.492019,0.402588844,-0.142580093,0.492334,0.408404506,-0.231028296,0.489512,0.415497354,-0.191378846,0.490335,0.419121859,-0.171120348,0.490756,0.422702613,-0.152823759,0.491474,0.427132086,-0.249003527,0.48853,0.43986837,-0.215750834,0.484011,0.445840652,-0.200377652,0.481934,0.450721056,-0.187684883,0.480102
0.371872221,-0.278393111,0.484869,0.36548968,-0.237986487,0.485878,0.352630285,-0.277095108,0.48671,0.314843977,-0.263386064,0.486958,0.282576111,-0.246992067,0.478735,0.264654777,-0.231141897,0.472482,0.344273752,-0.219727576,0.488973,0.33570201,-0.1812694,0.486984,0.331433859,-0.162134713,0.485989,0.327013044,-0.145051116,0.485085,0.367198581,-0.21831386,0.486361,0.368540897,-0.175567577,0.481954,0.368968102,-0.150512899,0.479384,0.369210461,-0.132446816,0.477547,0.385594341,-0.222928151,0.484064,0.390938488,-0.183262059,0.483351,0.393410692,-0.16245938,0.482986,0.39570593,-0.143189588,0.482654,0.405041666,-0.237365745,0.481315,0.417284258,-0.203916722,0.476942,0.421909894,-0.189824477,0.474933,0.425706454,-0.177830203,0.47316
0.361114941,-0.280025497,0.481551,0.352098518,-0.240275478,0.480578,0.340882031,-0.278498333,0.483267,0.305162594,-0.266732939,0.481741,0.272711144,-0.250253142,0.472432,0.253897673,-0.234186037,0.464534,0.328857073,-0.22283479,0.482773,0.315273942,-0.182652078,0.476142,0.307685221,-0.163297634,0.472827,0.300707479,-0.145438797,0.469813,0.351602278,-0.219826705,0.480112,0.34849091,-0.175892497,0.473883,0.34649194,-0.150281389,0.470249,0.345066051,-0.131936857,0.467654,0.370558094,-0.22337332,0.478054,0.375478733,-0.183507528,0.478863,0.377956218,-0.163045226,0.479277,0.380209574,-0.144429729,0.479653,0.391649423,-0.237032013,0.476019,0.399311043,-0.201114857,0.470823,0.402780081,-0.184756279,0.468436,0.405157387,-0.171461391,0.466329
0.351224828,-0.281189994,0.478118,0.349475156,-0.24303734,0.480423,0.335719464,-0.279489145,0.479651,0.297521721,-0.276736989,0.480664,0.264618849,-0.264596666,0.473703,0.247889654,-0.253848947,0.47337,0.324324754,-0.229763852,0.48353,0.309626925,-0.191638728,0.479742,0.30222924,-0.172428911,0.477849,0.295474059,-0.154877414,0.476127,0.347368924,-0.226317241,0.481539,0.343654874,-0.184015883,0.47878,0.341349108,-0.159309894,0.477171,0.339173938,-0.141550063,0.476022,0.36638046,-0.229137761,0.479572,0.367188252,-0.188558376,0.479106,0.367598743,-0.167905902,0.478868,0.367253373,-0.148727616,0.478651,0.387296407,-0.241502484,0.476889,0.394959625,-0.206988951,0.475268,0.398182158,-0.190842969,0.474523,0.400760122,-0.176587287,0.473865
0.354833742,-0.280753057,0.478351,0.349091061,-0.242101141,0.479715,0.335496296,-0.279954972,0.479421,0.299214869,-0.275906827,0.479978,0.265852741,-0.264957882,0.472785,0.249056824,-0.255278535,0.473051,0.325402624,-0.22552227,0.481793,0.308458683,-0.188640454,0.476984,0.300435378,-0.169711768,0.474579,0.293068479,-0.152301865,0.472392,0.34887776,-0.222265433,0.480376,0.342770318,-0.180596557,0.476375,0.339984571,-0.155544875,0.474042,0.337732365,-0.137558885,0.472375,0.369688728,-0.22359504,0.479015,0.362994377,-0.183251381,0.473246,0.360851762,-0.158021959,0.470295,0.361646927,-0.142764198,0.471445,0.391548094,-0.236457937,0.477211,0.3995462,-0.201676718,0.473994,0.398050766,-0.187568518,0.472516,0.403190784,-0.173321978,0.471212
0.362315847,-0.282149385,0.483456,0.358021788,-0.238174619,0.480703,0.343015134,-0.281088645,0.483902,0.312058125,-0.26968985,0.482046,0.280230118,-0.258001519,0.476621,0.25858939,-0.24043533,0.470182,0.334776373,-0.220559294,0.480358,0.317346707,-0.181779279,0.471934,0.308517016,-0.16204245,0.467722,0.298647021,-0.143744474,0.463892,0.360297332,-0.216438589,0.479364,0.35268401,-0.176135513,0.476129,0.351228335,-0.151243756,0.474243,0.350027435,-0.133282812,0.472895,0.38024985,-0.220984246,0.478929,0.370193379,-0.178352672,0.46943,0.368936878,-0.154171536,0.464571,0.374488985,-0.139613943,0.471742,0.402780499,-0.235826043,0.479074,0.410547823,-0.200510478,0.471569,0.405931587,-0.195137219,0.468121,0.403209772,-0.192527598,0.465078
0.359919253,-0.280345325,0.480597,0.358734012,-0.235112509,0.476766,0.341387137,-0.279034895,0.481414,0.310568513,-0.261431276,0.481247,0.278185276,-0.248940981,0.475886,0.259102511,-0.232707164,0.466388,0.337784685,-0.213329928,0.476575,0.329178239,-0.175360359,0.475658,0.324767219,-0.156278417,0.475199,0.322067022,-0.141163245,0.477247,0.361308439,-0.213676534,0.474902,0.35977537,-0.169399823,0.467246,0.358777306,-0.143637155,0.46278,0.357776117,-0.125302832,0.45959,0.377814399,-0.219631396,0.474058,0.37855993,-0.175712415,0.463326,0.377549658,-0.152986704,0.457835,0.37663229,-0.132319941,0.452843,0.399760247,-0.235050598,0.473999,0.409535931,-0.200951748,0.467105,0.413145773,-0.188830604,0.463938,0.41527641,-0.175016961,0.461143
0.361387911,-0.281175265,0.482171,0.375199643,-0.237226187,0.477567,0.347646398,-0.276861891,0.483536,0.329654095,-0.254646549,0.490341,0.302137852,-0.232318286,0.482454,0.291384057,-0.21889777,0.480841,0.358052852,-0.212431383,0.477905,0.351135765,-0.17080019,0.46849,0.347677994,-0.149881176,0.463783,0.344305847,-0.130978698,0.459503,0.379889006,-0.217525367,0.475328,0.391749775,-0.179126474,0.474889,0.397988923,-0.155662907,0.474634,0.402745239,-0.142371968,0.474451,0.396473569,-0.227653609,0.473845,0.403210879,-0.18562565,0.462323,0.406668812,-0.164096189,0.456427,0.409820595,-0.144508043,0.451068,0.412365432,-0.248441826,0.47326,0.426726718,-0.216283582,0.464326,0.430702499,-0.204735526,0.460221,0.435322463,-0.193432183,0.456599
0.374046659,-0.276569271,0.482757,0.395061358,-0.230337872,0.476003,0.368729842,-0.267452562,0.486901,0.352495502,-0.242635906,0.491323,0.347373739,-0.230202481,0.504903,0.349854618,-0.219520778,0.514586,0.384240121,-0.204524272,0.479665,0.385740067,-0.164786274,0.470579,0.382568005,-0.146913366,0.466037,0.379700727,-0.130158144,0.461907,0.40150389,-0.2100305,0.472718,0.416990416,-0.170796673,0.466705,0.42666037,-0.148257835,0.463954,0.433608645,-0.132177379,0.462036,0.413834439,-0.220376782,0.467933,0.430122529,-0.182454456,0.459651,0.43842633,-0.163093831,0.455413,0.44634742,-0.145645878,0.451955,0.424373244,-0.241142025,0.464206,0.442245458,-0.213317371,0.451837,0.448012309,-0.201901792,0.446154,0.453342709,-0.191641934,0.441139
0.387558684,-0.269679723,0.485516,0.409028822,-0.227856648,0.475976,0.379361912,-0.261830598,0.490925,0.374943813,-0.233912939,0.501172,0.379422961,-0.221349543,0.517333,0.377259108,-0.204829297,0.520979,0.405827762,-0.200126605,0.480491,0.410948066,-0.159679322,0.469615,0.413395571,-0.139735913,0.464176,0.408334158,-0.126934937,0.459232,0.417829206,-0.209367637,0.471335,0.432173564,-0.17096598,0.457283,0.437370541,-0.148671126,0.449087,0.441278528,-0.132453952,0.443232,0.425077002,-0.222222748,0.465117,0.442586204,-0.187925062,0.450598,0.45062671,-0.170379742,0.44317,0.45809606,-0.154278534,0.436417,0.428835568,-0.24471329,0.460446,0.44414491,-0.221355674,0.444845,0.451277005,-0.210557706,0.437676,0.457331956,-0.201101396,0.431352
0.391867095,-0.269632405,0.486802,0.418314358,-0.230914149,0.475952,0.388763971,-0.257555033,0.491964,0.383870012,-0.227133288,0.49329,0.37794554,-0.201678742,0.497108,0.373484355,-0.180421951,0.491889,0.41659351,-0.202573426,0.479625,0.424924163,-0.163531475,0.468026,0.428971095,-0.144058774,0.462226,0.432226581,-0.126256522,0.456954,0.427911669,-0.212908087,0.470674,0.44233146,-0.176257726,0.454308,0.45042841,-0.154843449,0.444762,0.456254563,-0.13950353,0.437943,0.434397903,-0.226514648,0.464808,0.451738485,-0.194370466,0.448286,0.460669287,-0.177880302,0.439832,0.468561521,-0.16282899,0.432147,0.437049329,-0.249715796,0.460822,0.453938292,-0.2283522,0.444353,0.460343577,-0.218854189,0.436787,0.465963397,-0.210456144,0.43011
0.393912412,-0.268329075,0.48676,0.420380589,-0.230401057,0.474943,0.390999216,-0.256103923,0.491824,0.392064807,-0.224249169,0.496453,0.392997636,-0.202080036,0.504884,0.400524493,-0.187958488,0.510685,0.425320581,-0.201672738,0.478117,0.433125913,-0.162735772,0.465778,0.437022295,-0.143277538,0.459608,0.432529237,-0.126652487,0.453999,0.434435896,-0.213937231,0.469194,0.449975528,-0.178258797,0.452966,0.458709402,-0.157368655,0.4435,0.459045729,-0.140793429,0.436738,0.438720504,-0.228704074,0.463486,0.456607102,-0.198177397,0.445791,0.46489289,-0.18245284,0.436737,0.472585802,-0.168050864,0.428506,0.437234466,-0.250875756,0.459893,0.455358822,-0.233727583,0.442761,0.462225956,-0.225077802,0.43489,0.46846698,-0.217391037,0.427945
0.394907352,-0.26787888,0.486033,0.420900162,-0.231126779,0.473831,0.392893806,-0.256411835,0.492016,0.394148476,-0.225658337,0.496257,0.39853948,-0.203764217,0.504383,0.400752738,-0.186510099,0.507545,0.42654608,-0.203658913,0.478224,0.437196986,-0.167478247,0.465176,0.440564958,-0.148254565,0.458653,0.443700081,-0.130646184,0.452722,0.434041079,-0.215269547,0.467896,0.448828855,-0.18223094,0.448639,0.457325587,-0.162044857,0.43781,0.461256681,-0.147405217,0.430075,0.437009942,-0.229469061,0.461083,0.452875721,-0.202023664,0.439607,0.458826559,-0.186792084,0.428619,0.464415353,-0.172839791,0.41863,0.435219763,-0.252623879,0.456362,0.450396146,-0.238190447,0.437896,0.456663884,-0.230545311,0.429411,0.462387764,-0.223761077,0.421925
0.395992359,-0.267394888,0.48592,0.423090037,-0.231632224,0.47279,0.394105716,-0.255889406,0.491838,0.398155348,-0.226355164,0.497423,0.399316557,-0.202431635,0.504211,0.401991456,-0.185532793,0.506952,0.428119578,-0.20448667,0.476747,0.437438484,-0.166628542,0.462838,0.440784469,-0.147554917,0.455883,0.443904449,-0.130084127,0.44956,0.433763265,-0.21521213,0.466403,0.448194159,-0.182130854,0.446314,0.45687502,-0.162426748,0.435422,0.462008276,-0.148206803,0.427641,0.436393317,-0.229610654,0.459707,0.451659476,-0.202112514,0.437442,0.457424464,-0.187154375,0.42605,0.462825352,-0.173467919,0.415694,0.434345706,-0.252979161,0.455325,0.448661048,-0.238963056,0.436207,0.454559368,-0.231764023,0.427423,0.459953004,-0.225382106,0.419673
0.396622409,-0.267866626,0.486325,0.421358859,-0.233363271,0.47088,0.394520141,-0.256235466,0.491905,0.398050029,-0.226974392,0.497461,0.398847781,-0.20241841,0.503123,0.40412111,-0.185192972,0.505389,0.423909276,-0.20543917,0.473495,0.434027538,-0.170473097,0.457774,0.437167086,-0.151939738,0.449914,0.440317982,-0.131681205,0.442768,0.429886363,-0.220435746,0.463367,0.442234273,-0.185734412,0.442456,0.451135728,-0.16617179,0.43202,0.45916408,-0.149065516,0.425345,0.431441611,-0.235762304,0.457173,0.445041876,-0.20827832,0.433034,0.450137412,-0.194100285,0.420684,0.454900115,-0.181151018,0.409457,0.428399455,-0.259945709,0.453867,0.44052366,-0.245375875,0.43337,0.446305736,-0.238662954,0.423953,0.450652443,-0.232716587,0.415644
0.399224534,-0.270174211,0.489836,0.417749805,-0.233468607,0.471511,0.396163024,-0.258130797,0.494568,0.387673819,-0.230332891,0.497801,0.382717556,-0.205146795,0.501482,0.392083184,-0.192237798,0.508632,0.414664264,-0.205744652,0.471822,0.418000986,-0.167091903,0.452409,0.417979744,-0.148130411,0.442703,0.412723667,-0.133661444,0.433878,0.422645857,-0.218202127,0.462597,0.4415151,-0.185854191,0.444255,0.450571132,-0.166404293,0.433556,0.448944176,-0.153460826,0.425914,0.429338974,-0.234730888,0.457551,0.443148004,-0.205611799,0.43698,0.450831662,-0.191289021,0.426456,0.462343315,-0.17762481,0.416888,0.429211578,-0.25993879,0.456158,0.44001944,-0.243782616,0.434381,0.444941003,-0.236360961,0.424375,0.450889935,-0.228544662,0.415547
0.385894072,-0.27381434,0.484805,0.403443731,-0.244305943,0.476506,0.374476401,-0.270840705,0.489385,0.362015896,-0.246275656,0.490253,0.352518558,-0.223377055,0.494473,0.346047311,-0.203640452,0.489742,0.397271805,-0.217039447,0.480246,0.400297488,-0.175926246,0.470256,0.40172843,-0.155631981,0.46526,0.406268604,-0.132417944,0.460719,0.412168941,-0.225329345,0.472468,0.425100789,-0.186452713,0.456822,0.423135352,-0.17152119,0.447696,0.419609693,-0.163005101,0.441177,0.421794323,-0.237471147,0.467213,0.44859469,-0.21009355,0.462244,0.460993379,-0.19584025,0.459701,0.472802531,-0.182410171,0.45739,0.431437079,-0.261088381,0.46332,0.44647359,-0.235413354,0.449397,0.453486496,-0.224978408,0.443,0.459246498,-0.215979497,0.437356
0.379536381,-0.291128802,0.4863,0.388612796,-0.257943579,0.486156,0.362510192,-0.292996296,0.492354,0.345316242,-0.267571911,0.49441,0.329930261,-0.244541748,0.495156,0.32275911,-0.225083156,0.48846,0.379413429,-0.237479297,0.495049,0.381226044,-0.199252556,0.492635,0.382014855,-0.180374037,0.491427,0.390843568,-0.166880416,0.500745,0.396052228,-0.239273045,0.486086,0.406762707,-0.198636836,0.478037,0.402535188,-0.186802335,0.473343,0.399503223,-0.177868684,0.469989,0.407428724,-0.24599794,0.478711,0.424582163,-0.208872119,0.47498,0.433388465,-0.189825116,0.473071,0.439422069,-0.172926897,0.471336,0.416481548,-0.261942518,0.470644,0.435852839,-0.234209725,0.461743,0.440922362,-0.222721431,0.457653,0.445651809,-0.212315734,0.454045
0.374855997,-0.287231912,0.480635,0.380671506,-0.245540756,0.483089,0.362229193,-0.280911393,0.483185,0.331772385,-0.265127967,0.484149,0.308716211,-0.250019942,0.486293,0.293453593,-0.232534968,0.481515,0.361487395,-0.226419437,0.48775,0.354307549,-0.186853294,0.484549,0.350709727,-0.167099385,0.482948,0.348219007,-0.149489965,0.482571,0.383774952,-0.225621117,0.484295,0.390492662,-0.186063634,0.486109,0.394398942,-0.163088412,0.487168,0.39702381,-0.145933621,0.487923,0.401194855,-0.230591437,0.481103,0.411932924,-0.19451056,0.485087,0.417580126,-0.174916337,0.487126,0.422708052,-0.156788382,0.488979,0.418869466,-0.245138765,0.47704,0.43463777,-0.213604807,0.473444,0.441194698,-0.200472947,0.471792,0.447205955,-0.1885391,0.470334
0.373602026,-0.287767799,0.480574,0.379366129,-0.247518274,0.483515,0.356466562,-0.285333009,0.482481,0.326608902,-0.26965782,0.48436,0.30128845,-0.25489112,0.484511,0.285850848,-0.23859041,0.480695,0.359901669,-0.227684776,0.487407,0.348965295,-0.190161237,0.484535,0.344144925,-0.170639666,0.483099,0.339755554,-0.152858398,0.481793,0.382933393,-0.227661609,0.484975,0.383260422,-0.18754872,0.483433,0.384252975,-0.163045587,0.482534,0.390044967,-0.145363767,0.483737,0.400914768,-0.233223614,0.482561,0.405417584,-0.194984333,0.482585,0.40849496,-0.174353312,0.482596,0.414867428,-0.155376032,0.483319,0.41908211,-0.248383927,0.479244,0.430578566,-0.217481068,0.476409,0.436706548,-0.202434784,0.475106,0.446343173,-0.189606572,0.473957
0.370760897,-0.29205094,0.481648,0.372232873,-0.256471645,0.484691,0.35614581,-0.288162704,0.483692,0.322801867,-0.276775244,0.483546,0.297109824,-0.261186836,0.482823,0.284970085,-0.24263941,0.481768,0.351900161,-0.238489125,0.488821,0.343805516,-0.199721545,0.485598,0.339686534,-0.180015287,0.483987,0.335908474,-0.161887834,0.482522,0.37448767,-0.236463617,0.48622,0.375446986,-0.193633939,0.481776,0.375869127,-0.168665032,0.479183,0.375620429,-0.150849837,0.477332,0.392616087,-0.240265926,0.483655,0.398055356,-0.199825067,0.482907,0.400811644,-0.179092231,0.482524,0.403105712,-0.15996616,0.482176,0.411827647,-0.253450266,0.480148,0.425433096,-0.220177964,0.477452,0.431610794,-0.204849708,0.476213,0.439968359,-0.190483556,0.47512
0.372493547,-0.290955397,0.482735,0.374126648,-0.25246494,0.484607,0.355304343,-0.288506731,0.484337,0.318780505,-0.27345514,0.484229,0.290553162,-0.25953085,0.481901,0.279563233,-0.246118881,0.481586,0.351873813,-0.230924221,0.487654,0.341101178,-0.192133171,0.483494,0.335651327,-0.172436646,0.481414,0.332033486,-0.158073219,0.479523,0.374389475,-0.233422756,0.485552,0.37315307,-0.187390807,0.48026,0.375059615,-0.16353871,0.480866,0.379890081,-0.147910538,0.481299,0.392776052,-0.238156166,0.48356,0.3983639,-0.197906645,0.483122,0.401115825,-0.17717199,0.482897,0.406139996,-0.157273186,0.482694,0.412221482,-0.252536667,0.480946,0.425439444,-0.219270885,0.477512,0.431173981,-0.203963474,0.475934,0.438297699,-0.190045877,0.474542
0.368102963,-0.292057213,0.481772,0.373245041,-0.252363053,0.484309,0.353509565,-0.288120704,0.483868,0.318474238,-0.272749812,0.485358,0.289364144,-0.256669611,0.480848,0.273925548,-0.241825989,0.478494,0.355300047,-0.230484206,0.488328,0.345568333,-0.191626614,0.485148,0.340668951,-0.172038313,0.483559,0.336062688,-0.154422327,0.482113,0.375170785,-0.23307831,0.485596,0.376947981,-0.189366683,0.481179,0.379497237,-0.165613588,0.481852,0.381135612,-0.148422224,0.482332,0.392787323,-0.23831931,0.482995,0.399970554,-0.199578287,0.484469,0.403488229,-0.179274606,0.485223,0.406529023,-0.160520954,0.485909,0.410784822,-0.25310757,0.47956,0.424454733,-0.221221996,0.476206,0.43043437,-0.20479159,0.474666,0.437170466,-0.190650618,0.473306
0.372398942,-0.292723419,0.48534,0.375956893,-0.24977815,0.48414,0.356647142,-0.290402086,0.488461,0.328187154,-0.269108614,0.48783,0.304073907,-0.249039724,0.487739,0.294081275,-0.233738688,0.486139,0.360869445,-0.228192641,0.48825,0.363009841,-0.193800207,0.486342,0.358598841,-0.182611706,0.485388,0.354379934,-0.171829282,0.484521,0.381870243,-0.227646417,0.483531,0.38963398,-0.18697354,0.484365,0.393739859,-0.163551774,0.484852,0.39660378,-0.146432511,0.4852,0.397503421,-0.234439521,0.479802,0.407528863,-0.194612877,0.470161,0.403308228,-0.182418755,0.465228,0.399473921,-0.170781182,0.460743,0.411030329,-0.249938234,0.475955,0.429623552,-0.219191052,0.468931,0.436712604,-0.204751242,0.465703,0.438023353,-0.194855618,0.462855
0.371687849,-0.291655142,0.484813,0.373891084,-0.24370801,0.475542,0.355830065,-0.286864932,0.487029,0.335214914,-0.257448342,0.492034,0.322867404,-0.242464612,0.500891,0.323666864,-0.231244389,0.508811,0.363303597,-0.214644737,0.475296,0.357699919,-0.17166391,0.46168,0.34906796,-0.16704741,0.454872,0.341065641,-0.162754252,0.448683,0.383090264,-0.220602105,0.470839,0.392642606,-0.1787975,0.463897,0.398228767,-0.154377331,0.459848,0.402224434,-0.136918099,0.456955,0.398123112,-0.231419238,0.468435,0.415322175,-0.193840185,0.465029,0.424138146,-0.174583497,0.463286,0.432163206,-0.157059678,0.461702,0.41265326,-0.252935227,0.467845,0.427883079,-0.223603227,0.455221,0.434928878,-0.210085412,0.449421,0.441172019,-0.198135043,0.444303
0.371796575,-0.290930372,0.4847,0.383022846,-0.243058485,0.47675,0.362052334,-0.283554531,0.488533,0.347208174,-0.252222946,0.493056,0.330810844,-0.229640859,0.494249,0.321371203,-0.210301191,0.490761,0.37653228,-0.216037287,0.479366,0.373971702,-0.174422644,0.467891,0.370012826,-0.155580259,0.462153,0.366429242,-0.138049103,0.456937,0.39314773,-0.221866443,0.472717,0.400419315,-0.179770738,0.459553,0.404669492,-0.155198247,0.451874,0.404497905,-0.139242444,0.446389,0.405164713,-0.232412155,0.468323,0.414467117,-0.192629674,0.452261,0.419185284,-0.17233196,0.444043,0.41800447,-0.157181307,0.436572,0.413013868,-0.252494023,0.465244,0.43112217,-0.225736591,0.452176,0.438364444,-0.212881987,0.446172,0.441268842,-0.199017243,0.440874
0.371053457,-0.289495543,0.484869,0.389374531,-0.240726033,0.475136,0.364537087,-0.275934616,0.491029,0.359261199,-0.241291159,0.495516,0.351390008,-0.218001759,0.500272,0.349735464,-0.199642987,0.501194,0.39132135,-0.211493882,0.480482,0.39649738,-0.171282636,0.469681,0.394516499,-0.152446105,0.46428,0.392777802,-0.134921916,0.459371,0.402615339,-0.219649962,0.470199,0.412072549,-0.179280194,0.453137,0.417427084,-0.155810693,0.443183,0.416376703,-0.141143269,0.436074,0.409329259,-0.231558263,0.463051,0.420811974,-0.195240337,0.444027,0.426218128,-0.176740444,0.434294,0.43008838,-0.160111968,0.425446,0.410640028,-0.251131033,0.457331,0.42631351,-0.229968178,0.440738,0.432804104,-0.219217455,0.433114,0.434875308,-0.210857999,0.426387
0.375071315,-0.28622991,0.486751,0.396017215,-0.238831039,0.474798,0.37062262,-0.27179489,0.492886,0.373518654,-0.239359032,0.501814,0.373391857,-0.217635669,0.510397,0.376749723,-0.200729822,0.513631,0.400329653,-0.210355054,0.479274,0.402602364,-0.170939185,0.465803,0.403525593,-0.151038945,0.459067,0.404436512,-0.132764463,0.452944,0.408758942,-0.219943501,0.468735,0.419914105,-0.182175705,0.449656,0.424174629,-0.160061669,0.438527,0.427328366,-0.144133583,0.430578,0.410566015,-0.231862525,0.461681,0.424502439,-0.199563374,0.440328,0.430395178,-0.182518752,0.429403,0.43444078,-0.166934441,0.419471,0.412689949,-0.253991978,0.456559,0.426814594,-0.235327139,0.438158,0.43198682,-0.226102602,0.429703,0.435928864,-0.217939169,0.422243
0.378492959,-0.280966393,0.488299,0.401590691,-0.237608016,0.47392,0.37688198,-0.266737578,0.494367,0.381111557,-0.23511656,0.501867,0.380122496,-0.211787946,0.508721,0.382217257,-0.193660353,0.510261,0.407872567,-0.208120723,0.477385,0.410074153,-0.168668405,0.46267,0.411262832,-0.148746954,0.455313,0.41239821,-0.130514418,0.448625,0.414650477,-0.21876529,0.466627,0.424831799,-0.18211247,0.445758,0.42860611,-0.160608032,0.433585,0.426248141,-0.14366732,0.42489,0.417648617,-0.232467707,0.459724,0.427956733,-0.199774939,0.436682,0.435352366,-0.183951644,0.42698,0.442223856,-0.169468128,0.418161,0.414526232,-0.255121075,0.455309,0.429376941,-0.237426856,0.435228,0.430327678,-0.226580839,0.426002,0.433340455,-0.218601405,0.417861
0.381645641,-0.278436574,0.487736,0.406177101,-0.238363768,0.472839,0.379721579,-0.266708716,0.494648,0.38631413,-0.236169998,0.499624,0.384627564,-0.210290262,0.503327,0.386697452,-0.19123836,0.503101,0.412627614,-0.21167591,0.477345,0.416435606,-0.17213468,0.462007,0.418376929,-0.152294537,0.454339,0.420163369,-0.134214292,0.447367,0.41553413,-0.220014315,0.465283,0.424463841,-0.18309509,0.443604,0.431195868,-0.16338754,0.430957,0.429375182,-0.146119468,0.421924,0.417332283,-0.233243067,0.457377,0.426111261,-0.200704447,0.433344,0.432954086,-0.187180833,0.422029,0.437523743,-0.169992339,0.412516,0.415231055,-0.255822455,0.45197,0.427096653,-0.24080428,0.430367,0.427861826,-0.23285612,0.420441,0.428804313,-0.222006424,0.411683
0.384428209,-0.2787541,0.490306,0.406047966,-0.238372841,0.471941,0.384943342,-0.265110804,0.496657,0.388920563,-0.231461073,0.501391,0.39125437,-0.206865511,0.507298,0.392450421,-0.190712501,0.506524,0.412118422,-0.210151062,0.474322,0.41558239,-0.170995479,0.458818,0.417373025,-0.151303772,0.451065,0.419039114,-0.133331813,0.444018,0.416032166,-0.221473648,0.462626,0.42263793,-0.187721053,0.437902,0.426166859,-0.167428685,0.42348,0.428523117,-0.152848943,0.413179,0.416912259,-0.235634278,0.455496,0.422831705,-0.20772945,0.428497,0.427167186,-0.193157236,0.415637,0.431219907,-0.179855155,0.403946,0.414136995,-0.259218035,0.451717,0.418473992,-0.245180494,0.428128,0.421288797,-0.23798609,0.417289,0.422119729,-0.231445248,0.407726
0.385557884,-0.278271887,0.491067,0.406326831,-0.238668045,0.471993,0.386109711,-0.264577569,0.497312,0.389404432,-0.231286106,0.501944,0.391762167,-0.206597561,0.507737,0.397868351,-0.189373164,0.509619,0.412520889,-0.209944009,0.473952,0.415796187,-0.170940254,0.457706,0.417268257,-0.151334619,0.449583,0.418650689,-0.13342977,0.442199,0.415895748,-0.221766736,0.462318,0.42184816,-0.18782353,0.436982,0.425054384,-0.167561838,0.422203,0.427254405,-0.153027947,0.411646,0.416342259,-0.236255049,0.455337,0.4215979,-0.208262868,0.427781,0.425310297,-0.193751119,0.414498,0.428790619,-0.180508576,0.402423,0.411336996,-0.261173246,0.451881,0.416958468,-0.245758877,0.427882,0.419055977,-0.238600665,0.416855,0.420144508,-0.232186235,0.407126
0.384197332,-0.278926045,0.490883,0.404246071,-0.238709604,0.471892,0.384316674,-0.265337262,0.497209,0.38853871,-0.2331942,0.502116,0.389992638,-0.208395993,0.507612,0.394810078,-0.190588469,0.508987,0.412295851,-0.210292546,0.474002,0.41547262,-0.171433719,0.457215,0.418184443,-0.152402342,0.448821,0.417918364,-0.13408434,0.44119,0.415206765,-0.22227999,0.46226,0.420943963,-0.188186428,0.437,0.424256848,-0.167869548,0.422265,0.42657333,-0.153308917,0.41174,0.414579608,-0.237743415,0.455178,0.42025287,-0.208845957,0.427661,0.422045951,-0.19491989,0.413583,0.426560387,-0.180885879,0.401641,0.409786212,-0.261521878,0.451591,0.413800858,-0.246833437,0.427567,0.415436626,-0.239790131,0.41653,0.418194227,-0.232661624,0.406791
0.384235785,-0.27933139,0.491253,0.399675502,-0.241108394,0.47502,0.382591029,-0.268073435,0.497873,0.376286407,-0.237271735,0.500207,0.368780658,-0.209943645,0.497978,0.365517086,-0.189021242,0.493028,0.400971559,-0.212503582,0.478596,0.408905158,-0.175498521,0.463756,0.411839463,-0.152479677,0.456336,0.405820378,-0.1417031,0.44959,0.40822687,-0.225707474,0.466787,0.415992697,-0.188843329,0.443922,0.42050693,-0.167353858,0.430584,0.426728402,-0.149933314,0.421057,0.413354938,-0.240175799,0.459272,0.418382093,-0.208073385,0.433988,0.422329296,-0.192016599,0.421053,0.42772506,-0.178149383,0.411009,0.411793667,-0.263067368,0.454593,0.415296269,-0.243339225,0.432447,0.418120046,-0.234478411,0.422272,0.425377337,-0.226672646,0.413294
0.385813831,-0.279780368,0.493271,0.393016407,-0.24349217,0.479752,0.374955071,-0.273956964,0.498781,0.361223754,-0.244653077,0.501791,0.350362722,-0.219468363,0.502778,0.351285494,-0.202633381,0.505805,0.391732304,-0.213830858,0.482725,0.396263412,-0.173366882,0.470938,0.393585072,-0.154752046,0.465044,0.391204115,-0.137441893,0.459686,0.403017954,-0.222773135,0.472895,0.410246664,-0.181529143,0.453769,0.414278462,-0.157655232,0.442613,0.411557221,-0.143454703,0.434644,0.41007003,-0.235494906,0.46664,0.416521885,-0.201506759,0.445072,0.417564799,-0.184354584,0.434038,0.418726392,-0.168531854,0.424006,0.41121228,-0.260483836,0.462747,0.421679302,-0.236030608,0.444026,0.426648383,-0.224712764,0.435424,0.433711443,-0.21314326,0.427835
0.372407099,-0.282120497,0.486314,0.381454529,-0.251997704,0.484016,0.353951827,-0.285016039,0.491084,0.336499209,-0.259003147,0.493559,0.320453114,-0.235983943,0.494506,0.319990153,-0.222156363,0.500865,0.372716549,-0.227339791,0.490127,0.379335617,-0.193522113,0.492823,0.380819557,-0.175114605,0.494171,0.382179145,-0.157918418,0.495396,0.389947801,-0.232086986,0.482851,0.39587687,-0.189336709,0.474766,0.39937969,-0.164261916,0.47005,0.401902887,-0.146286986,0.466682,0.401763075,-0.241308098,0.477164,0.414062211,-0.201558491,0.467072,0.424813118,-0.183382683,0.466933,0.434723882,-0.166629444,0.466806,0.411089327,-0.260153354,0.471399,0.427757687,-0.230808388,0.462368,0.435406283,-0.217238531,0.458219,0.442254087,-0.205165824,0.454558
0.372418485,-0.287341128,0.489173,0.380748837,-0.252698662,0.486532,0.355332495,-0.287775004,0.492071,0.328888869,-0.271971961,0.493769,0.302836064,-0.254263069,0.491318,0.290501042,-0.239138296,0.491313,0.361259331,-0.229129059,0.489775,0.351603603,-0.188827443,0.483344,0.346143735,-0.170086682,0.480129,0.341097723,-0.155911802,0.477206,0.382136598,-0.230787956,0.485192,0.380617113,-0.186566381,0.476206,0.379503301,-0.160927683,0.470964,0.37873313,-0.142421581,0.46722,0.398201015,-0.237865533,0.481775,0.400988295,-0.195054691,0.472087,0.402482898,-0.173150703,0.467234,0.40386847,-0.153142393,0.462822,0.414249749,-0.255026237,0.478591,0.4251473,-0.22084607,0.47043,0.430189246,-0.205082989,0.46668,0.431052899,-0.196279238,0.463372
0.371135282,-0.288342789,0.487909,0.379189348,-0.252723359,0.486562,0.354457207,-0.28822415,0.490292,0.326320974,-0.272371925,0.490994,0.295005901,-0.255566112,0.483393,0.284787394,-0.239212835,0.485196,0.359225013,-0.230037768,0.489539,0.344597593,-0.191578782,0.483848,0.338179315,-0.17169992,0.481002,0.332325048,-0.153544359,0.478415,0.380895432,-0.231288466,0.485878,0.381257085,-0.190102051,0.485198,0.382366977,-0.165762547,0.484801,0.383165336,-0.148276482,0.484517,0.397751456,-0.238012089,0.483044,0.398700855,-0.196575876,0.480854,0.399636973,-0.175462137,0.479734,0.400160598,-0.156543971,0.478716,0.414815101,-0.254762505,0.480215,0.422580566,-0.218014386,0.473247,0.4240745,-0.205507401,0.470046,0.425536552,-0.194105487,0.467221
0.364791819,-0.294396326,0.486108,0.363983292,-0.257306892,0.487383,0.350573233,-0.288966097,0.488046,0.313604019,-0.27981247,0.488396,0.280992578,-0.261097712,0.477837,0.263253117,-0.244589826,0.470892,0.34391603,-0.236815296,0.490693,0.331706903,-0.197814269,0.486508,0.325469524,-0.178278963,0.484416,0.319774356,-0.160425798,0.482513,0.36657009,-0.236285145,0.488033,0.362144159,-0.192711549,0.482578,0.35956237,-0.167193565,0.479397,0.357717215,-0.148919503,0.477124,0.384609474,-0.241493845,0.485664,0.385822784,-0.199907068,0.48337,0.386425835,-0.178581871,0.482196,0.386976863,-0.159160506,0.481129,0.403444154,-0.256439279,0.482765,0.411571048,-0.220806795,0.478195,0.415119743,-0.204635641,0.476095,0.418297248,-0.19023538,0.474242
0.367132546,-0.293690918,0.488447,0.364135476,-0.257107998,0.488833,0.351133998,-0.291317629,0.489803,0.31444031,-0.281820756,0.488646,0.280858249,-0.267303835,0.47741,0.262740116,-0.248592085,0.471355,0.34181844,-0.237587755,0.490959,0.324934505,-0.199655567,0.485472,0.317491152,-0.180211698,0.482729,0.31449144,-0.160995036,0.480235,0.364954721,-0.235849694,0.489029,0.360165767,-0.191753429,0.482246,0.357253277,-0.166073145,0.478288,0.355035484,-0.147788668,0.475462,0.38187717,-0.23790513,0.487385,0.383785819,-0.197505238,0.482583,0.383378157,-0.176050257,0.480126,0.383020106,-0.156375822,0.477892,0.403603206,-0.250501547,0.485484,0.412375299,-0.215349559,0.480722,0.415906037,-0.204070613,0.478534,0.418520066,-0.190931071,0.476603
0.367055803,-0.294585336,0.488865,0.363964233,-0.256884781,0.489019,0.35097231,-0.292444326,0.490229,0.314894032,-0.282647269,0.489001,0.280890017,-0.26733407,0.477464,0.262588153,-0.249942663,0.471543,0.341135646,-0.237855133,0.491069,0.324865566,-0.199613207,0.485369,0.317353035,-0.180133301,0.482519,0.313021574,-0.161338205,0.479928,0.364220197,-0.235577564,0.489097,0.359448378,-0.191403068,0.482054,0.356505733,-0.165710064,0.477945,0.354218396,-0.147443701,0.47501,0.381928099,-0.237936858,0.48745,0.382895225,-0.196598456,0.482051,0.382244488,-0.175152599,0.479288,0.381670507,-0.155433496,0.476777,0.403697148,-0.250559853,0.485597,0.412328118,-0.21532492,0.480667,0.415344447,-0.203476471,0.478402,0.417719013,-0.190766389,0.476403
0.364919611,-0.296733113,0.488051,0.36319734,-0.256679461,0.488469,0.349902219,-0.292827386,0.489758,0.314711284,-0.28343775,0.489629,0.279477409,-0.267062999,0.476676,0.261455356,-0.252924494,0.472333,0.340825851,-0.237988644,0.49112,0.327634283,-0.199095697,0.485709,0.324159457,-0.178641103,0.483004,0.314769266,-0.161469139,0.480545,0.363575737,-0.235486429,0.488682,0.359691728,-0.191501543,0.481923,0.35710726,-0.166026534,0.477981,0.355112499,-0.147829148,0.475164,0.38229486,-0.239102745,0.486614,0.382106923,-0.196366693,0.480978,0.381678729,-0.174808447,0.478094,0.381177749,-0.155170173,0.475472,0.402930824,-0.252386061,0.484238,0.411813134,-0.217258102,0.479322,0.414904322,-0.202830067,0.477063,0.417742332,-0.18980579,0.47507
0.3641535,-0.296866207,0.488005,0.36306382,-0.256568189,0.488494,0.349942002,-0.293793599,0.490933,0.316043484,-0.284593684,0.492613,0.27946189,-0.264784949,0.476532,0.261144469,-0.24950048,0.470785,0.342171391,-0.238464318,0.492954,0.334097123,-0.197451115,0.487619,0.336098218,-0.178823726,0.490687,0.336428636,-0.162342048,0.493476,0.363732365,-0.235394877,0.488743,0.361962343,-0.192118007,0.481756,0.360159145,-0.166662318,0.477681,0.358865515,-0.148320695,0.47477,0.381246915,-0.238526285,0.485202,0.386861975,-0.19679559,0.477,0.391841812,-0.176194259,0.475508,0.396388752,-0.156151673,0.474151,0.400271221,-0.251166236,0.481184,0.411907967,-0.22002615,0.475719,0.424027228,-0.206165043,0.473208,0.425710867,-0.19737257,0.470993
0.363924618,-0.294788058,0.487149,0.363151171,-0.256317717,0.488278,0.348929498,-0.293467666,0.490149,0.3148662,-0.280906443,0.491728,0.279304439,-0.25935807,0.474842,0.261313993,-0.242610875,0.467934,0.342701308,-0.238130586,0.493085,0.341682191,-0.19540821,0.487722,0.340540585,-0.174161366,0.485041,0.336935688,-0.155871238,0.482604,0.364289994,-0.235309652,0.488853,0.366374804,-0.191674388,0.482288,0.373603376,-0.16769195,0.483741,0.380335123,-0.14956373,0.484779,0.381685971,-0.238603548,0.485209,0.396823822,-0.201236949,0.486378,0.403427037,-0.182034835,0.486977,0.408118428,-0.161749012,0.487521,0.400339376,-0.251336054,0.480934,0.417023553,-0.221398522,0.475918,0.4272465,-0.207978156,0.473613,0.434121286,-0.197485265,0.47158
0.364230831,-0.296285499,0.487522,0.380632366,-0.253059987,0.487798,0.350218945,-0.293195987,0.49066,0.32909981,-0.2730104,0.493486,0.301024766,-0.252377116,0.486886,0.284477772,-0.237472431,0.482927,0.36493212,-0.230023109,0.492486,0.366088806,-0.193682092,0.494678,0.365125174,-0.175077498,0.495774,0.363027173,-0.159253589,0.49677,0.385812556,-0.231744133,0.487939,0.394887486,-0.190434986,0.487029,0.399328451,-0.166412338,0.486497,0.402513354,-0.149194979,0.486118,0.401576837,-0.238720444,0.484151,0.406786367,-0.196734808,0.476907,0.409487652,-0.175080088,0.473201,0.411983806,-0.155255604,0.469832,0.415694281,-0.254794297,0.479907,0.430798553,-0.222713886,0.474062,0.440098829,-0.208038873,0.471376,0.444007984,-0.197438788,0.469007
0.368480312,-0.293423831,0.485812,0.385268794,-0.250043007,0.487721,0.358642354,-0.288113036,0.489891,0.340654374,-0.270449737,0.494507,0.309965731,-0.251787911,0.48692,0.289998648,-0.235674172,0.482408,0.370564264,-0.229191333,0.494389,0.366148011,-0.19041464,0.491574,0.365240957,-0.168826605,0.490166,0.359702573,-0.153778808,0.488887,0.392953156,-0.227139167,0.488701,0.397441512,-0.184228015,0.483062,0.400071399,-0.159146015,0.479773,0.402003259,-0.145116363,0.481493,0.40817471,-0.232093138,0.48375,0.41855585,-0.191753795,0.480188,0.423857212,-0.171099091,0.478366,0.428548078,-0.152157402,0.476709,0.423114264,-0.246576783,0.477855,0.440453313,-0.215437833,0.472569,0.448392946,-0.201165043,0.47014,0.446685683,-0.194903501,0.467996
0.368756123,-0.296317437,0.488822,0.386826897,-0.250597123,0.488667,0.363170387,-0.289136539,0.492455,0.340611742,-0.269964401,0.49466,0.310598947,-0.250142405,0.48688,0.294996039,-0.233309223,0.48189,0.371051392,-0.229052962,0.493903,0.368027659,-0.188039067,0.488621,0.363976301,-0.168884431,0.485979,0.360252657,-0.151102667,0.483579,0.391157273,-0.229431637,0.488587,0.397775754,-0.185403499,0.482248,0.400038118,-0.160369825,0.47855,0.401051571,-0.142813213,0.475909,0.406606447,-0.235382897,0.484224,0.417026492,-0.192495457,0.477396,0.421368198,-0.17151071,0.473902,0.424310531,-0.156405047,0.470726,0.424011796,-0.249243294,0.479437,0.440691358,-0.218046264,0.472825,0.447403989,-0.206535356,0.469787,0.447380606,-0.195207912,0.467106
0.371135352,-0.298247866,0.491951,0.391388574,-0.251996558,0.490767,0.367427477,-0.289594766,0.494782,0.341982629,-0.270528563,0.496212,0.311454852,-0.249228632,0.486898,0.296522383,-0.232161553,0.482325,0.374731184,-0.229325625,0.494433,0.370793005,-0.189532147,0.488786,0.366970354,-0.170354383,0.485963,0.361680029,-0.151393421,0.483397,0.396354102,-0.231845158,0.490155,0.400702954,-0.188428716,0.481957,0.404642149,-0.165259516,0.477175,0.402794977,-0.145749113,0.473759,0.414293469,-0.241306904,0.486787,0.419297199,-0.196837598,0.47834,0.422631683,-0.175534925,0.474018,0.424079551,-0.157169142,0.470089,0.429260481,-0.259077871,0.483324,0.443586683,-0.224175696,0.476438,0.449888316,-0.209774003,0.473274,0.453557437,-0.196815346,0.470482
0.373022138,-0.297624141,0.491934,0.391864974,-0.252697983,0.49084,0.367658251,-0.289684216,0.494731,0.34203914,-0.270312625,0.496075,0.311783613,-0.248692495,0.486752,0.297219509,-0.231535964,0.482435,0.375565311,-0.229680721,0.494492,0.371239758,-0.189793184,0.488954,0.367518692,-0.170422954,0.486185,0.362660642,-0.151651155,0.483667,0.397217239,-0.23243517,0.490275,0.401621605,-0.189074504,0.482191,0.404896547,-0.165363415,0.477475,0.404150958,-0.146357294,0.474107,0.414427939,-0.241385226,0.486945,0.419765133,-0.197669398,0.47867,0.422901149,-0.176346683,0.474436,0.424642507,-0.157658853,0.470587,0.429420346,-0.259174357,0.483504,0.443674227,-0.224958617,0.476701,0.449895562,-0.210476095,0.473575,0.45403557,-0.197415576,0.470817
0.374683539,-0.297306737,0.492125,0.392259981,-0.253188883,0.491021,0.367987376,-0.289882006,0.494933,0.342222713,-0.270301477,0.49621,0.312106773,-0.248471258,0.486861,0.29773638,-0.231237335,0.482661,0.376185383,-0.22996695,0.494685,0.371552139,-0.1899692,0.489155,0.367863042,-0.170489841,0.486389,0.363283648,-0.151820364,0.483876,0.397742341,-0.232784854,0.490451,0.402123027,-0.189417306,0.482358,0.405034771,-0.165419866,0.477638,0.404816613,-0.146656975,0.474266,0.414566665,-0.241466028,0.487108,0.420013044,-0.198091557,0.478851,0.42301977,-0.176746287,0.474627,0.424878804,-0.157886745,0.470786,0.429555344,-0.259255834,0.483656,0.443720276,-0.225351549,0.476835,0.449876751,-0.210816907,0.473702,0.454244191,-0.197741259,0.470937
0.376325211,-0.296975268,0.492292,0.39253868,-0.253525962,0.491161,0.368245313,-0.290041234,0.495108,0.34236376,-0.270308735,0.496327,0.31234495,-0.248341707,0.486969,0.298090558,-0.231045475,0.482827,0.376608969,-0.23016398,0.494827,0.371743754,-0.190076965,0.489281,0.368067049,-0.170528784,0.486508,0.363677448,-0.151924247,0.483987,0.398073897,-0.233004294,0.490577,0.402421346,-0.189621845,0.482455,0.405101762,-0.165447226,0.477717,0.40519191,-0.146828073,0.474333,0.41466539,-0.241523531,0.487224,0.420156851,-0.198342412,0.478954,0.42307438,-0.17697925,0.474723,0.424994025,-0.158013536,0.470876,0.42965304,-0.259314797,0.483766,0.443749361,-0.225588175,0.476917,0.449858605,-0.211018232,0.473771,0.454360981,-0.197948465,0.470994
0.37827256,-0.296562148,0.492489,0.392775277,-0.253790951,0.491308,0.368492152,-0.290202711,0.495311,0.342494464,-0.270337564,0.496454,0.312545174,-0.248273008,0.487093,0.298360534,-0.230921492,0.482973,0.376931808,-0.230317105,0.494955,0.371879124,-0.190152694,0.489375,0.368201263,-0.170553906,0.486585,0.363944877,-0.15199269,0.484048,0.398322475,-0.233166731,0.490695,0.402621396,-0.189758776,0.482521,0.40513229,-0.165459694,0.477753,0.405415926,-0.146932647,0.474347,0.414764966,-0.241581529,0.487341,0.420257381,-0.198511813,0.479028,0.423100954,-0.177130485,0.474776,0.425047323,-0.158089284,0.47091,0.429762281,-0.259380729,0.483889,0.443793231,-0.225758422,0.476998,0.449860746,-0.211159176,0.473832,0.45444752,-0.198097725,0.471038
0.380413146,-0.296223935,0.492656,0.39296049,-0.253994701,0.491428,0.368693902,-0.290336026,0.495482,0.342594379,-0.270360672,0.496552,0.312715314,-0.248237234,0.487217,0.298572032,-0.230835376,0.483097,0.377176273,-0.230433348,0.495054,0.371970398,-0.190204047,0.489435,0.368286539,-0.170566956,0.486626,0.364129015,-0.152037139,0.484072,0.398505503,-0.233285942,0.490786,0.40276253,-0.189855754,0.482566,0.405147554,-0.165465928,0.477771,0.405567409,-0.147004251,0.474347,0.414841563,-0.241626143,0.487431,0.420327551,-0.198632031,0.479079,0.423112918,-0.177235602,0.474806,0.425074307,-0.158139259,0.470922,0.429848431,-0.259432725,0.483986,0.443827508,-0.225881537,0.477059,0.449862659,-0.211260042,0.473876,0.454509527,-0.198208314,0.471068
0.382402474,-0.295919213,0.492825,0.393124291,-0.254165942,0.491546,0.36887931,-0.290461531,0.495651,0.34269405,-0.270395953,0.49666,0.312869193,-0.248226466,0.487347,0.298750509,-0.230779135,0.483216,0.377383204,-0.230534034,0.495153,0.372043413,-0.190244895,0.489486,0.368347673,-0.170575453,0.486653,0.364261875,-0.152067452,0.484077,0.398662072,-0.23338665,0.490878,0.402870255,-0.1899294,0.482602,0.405150098,-0.165466967,0.477774,0.405663037,-0.147051432,0.474326,0.414920713,-0.241672245,0.487524,0.42038521,-0.19872455,0.479123,0.423118795,-0.17731313,0.474825,0.425082834,-0.15817236,0.470918,0.429941686,-0.259489008,0.484091,0.443869259,-0.225982065,0.477122,0.449874548,-0.211340611,0.47392,0.454561266,-0.198295857,0.471095
0.383167597,-0.296006865,0.492903,0.393223001,-0.254282033,0.4916,0.369671437,-0.290481852,0.495734,0.342745199,-0.270401614,0.496705,0.312990402,-0.248216282,0.487448,0.298887598,-0.23072972,0.483302,0.377528002,-0.230601907,0.495205,0.372092113,-0.190272513,0.489515,0.36839217,-0.170580639,0.48667,0.364370383,-0.152092593,0.484084,0.398759012,-0.23345045,0.490919,0.402939062,-0.189979594,0.482612,0.405144162,-0.165464543,0.477767,0.40573427,-0.147086989,0.474306,0.414950501,-0.241689595,0.487559,0.420409702,-0.198786883,0.479134,0.423108393,-0.177367182,0.474823,0.425079593,-0.158194434,0.470904,0.429971883,-0.259507233,0.484125,0.443866335,-0.226042276,0.477133,0.449852248,-0.211388458,0.473921,0.454573114,-0.198352967,0.471086
