sluyters/QuantumLeap/backend/src/datasets/dynamic/HandGestureDataset_SHREC2017_csv/Gesture14/finger_2/subject_14_essai_1_skeletons_world.csv
Wrist_x,Wrist_y,Wrist_z,Palm_x,Palm_y,Palm_z,thumb_base_x,thumb_base_y,thumb_base_z,thumb_first_joint_x,thumb_first_joint_y,thumb_first_joint_z,thumb_second_joint_x,thumb_second_joint_y,thumb_second_joint_z,thumb_tip_x,thumb_tip_y,thumb_tip_z,index_base_x,index_base_y,index_base_z,index_first_joint_x,index_first_joint_y,index_first_joint_z,index_second_joint_x,index_second_joint_y,index_second_joint_z,index_tip_x,index_tip_y,index_tip_z,middle_base_x,middle_base_y,middle_base_z,middle_first_joint_x,middle_first_joint_y,middle_first_joint_z,middle_second_joint_x,middle_second_joint_y,middle_second_joint_z,middle_tip_x,middle_tip_y,middle_tip_z,ring_base_x,ring_base_y,ring_base_z,ring_first_joint_x,ring_first_joint_y,ring_first_joint_z,ring_second_joint_x,ring_second_joint_y,ring_second_joint_z,ring_tip_x,ring_tip_y,ring_tip_z,pinky_base_x,pinky_base_y,pinky_base_z,pinky_first_joint_x,pinky_first_joint_y,pinky_first_joint_z,pinky_second_joint_x,pinky_second_joint_y,pinky_second_joint_z,pinky_tip_x,pinky_tip_y,pinky_tip_z,
0.57608117,-0.34436021,0.629714,0.5783887,-0.30519958,0.633527,0.56152626,-0.33645259,0.635562,0.53619876,-0.30615212,0.63965,0.50869993,-0.274837,0.635295,0.50156858,-0.250095,0.631227,0.56094775,-0.26767054,0.643731,0.55229542,-0.22816609,0.642001,0.54745221,-0.20840082,0.641136,0.54254458,-0.19097653,0.640349,0.57996846,-0.26454622,0.637157,0.5821318,-0.22431259,0.643164,0.58222113,-0.19962044,0.646667,0.58156921,-0.18155122,0.64917,0.59536525,-0.26550603,0.631333,0.59829414,-0.22357723,0.636434,0.59934189,-0.20157228,0.639045,0.60284408,-0.18265222,0.641417,0.61309711,-0.27319188,0.623856,0.61995148,-0.23238155,0.620633,0.61774619,-0.21313837,0.619152,0.6178794,-0.19664998,0.617845
0.58192175,-0.34087789,0.630753,0.57843393,-0.29578205,0.634859,0.5647045,-0.33449489,0.63658,0.5313724,-0.30292237,0.638177,0.50317487,-0.27346932,0.633043,0.48640022,-0.25153984,0.629388,0.55886278,-0.25963752,0.645238,0.5495737,-0.22195343,0.643089,0.54667601,-0.2047095,0.642015,0.54230263,-0.18689952,0.641039,0.57852169,-0.25486481,0.638771,0.57585301,-0.21997775,0.64274,0.57404458,-0.19913558,0.645055,0.57557167,-0.18368648,0.646709,0.59460408,-0.25428744,0.633002,0.59849361,-0.22221986,0.639594,0.59972984,-0.20176145,0.642967,0.60235071,-0.18281968,0.646033,0.61362128,-0.25982159,0.625535,0.61757372,-0.23010799,0.622443,0.6181315,-0.21368521,0.621022,0.61849744,-0.19904558,0.619769
0.57698408,-0.36748882,0.618762,0.57905026,-0.33069502,0.627587,0.55777814,-0.35356567,0.624432,0.53007278,-0.31810064,0.630559,0.50257816,-0.28238225,0.628326,0.49080777,-0.25171559,0.627999,0.5580429,-0.27068161,0.640964,0.55163191,-0.22851069,0.643117,0.54533337,-0.20493899,0.644194,0.54196643,-0.18634706,0.645173,0.57867573,-0.26744953,0.635991,0.57316046,-0.22117859,0.639812,0.57069544,-0.19683732,0.642042,0.56880826,-0.17913768,0.643634,0.59453782,-0.26623361,0.630946,0.59663721,-0.22306663,0.638663,0.59588725,-0.20087019,0.642611,0.59628719,-0.18382606,0.6462,0.61283716,-0.27214727,0.62343,0.6175079,-0.22859179,0.624749,0.61882447,-0.20885272,0.625355,0.62265971,-0.19694243,0.625889
0.57108343,-0.36682847,0.617346,0.57370918,-0.32954024,0.625466,0.5525762,-0.35240426,0.623197,0.51855042,-0.31227872,0.624327,0.49197339,-0.2765338,0.622773,0.48656404,-0.25345539,0.627102,0.55291094,-0.27060425,0.6386,0.54072751,-0.22557156,0.64068,0.53538383,-0.2035158,0.64172,0.5351438,-0.18443901,0.643532,0.57314804,-0.26763722,0.633199,0.56412644,-0.2200117,0.635142,0.55942183,-0.19193166,0.636275,0.55901719,-0.17254839,0.637084,0.58925869,-0.2667859,0.627877,0.58455376,-0.22470573,0.635998,0.58227458,-0.20066742,0.640153,0.58157076,-0.18492682,0.643931,0.60891741,-0.27068196,0.620173,0.6060977,-0.22757845,0.620942,0.60555848,-0.20780782,0.621295,0.60501543,-0.19093935,0.621607
0.57011616,-0.35162612,0.626326,0.56646379,-0.31767382,0.6308,0.55263752,-0.34270346,0.63139,0.51838624,-0.30882101,0.636167,0.49262593,-0.27292417,0.630692,0.48398611,-0.24878319,0.629039,0.54855048,-0.26062505,0.640435,0.54398231,-0.22687388,0.641858,0.54146318,-0.20762916,0.64257,0.54095551,-0.19192755,0.643217,0.56918535,-0.25949545,0.635061,0.56790498,-0.21894425,0.637405,0.56435737,-0.19305872,0.638773,0.56180972,-0.17324637,0.639749,0.58577393,-0.26083884,0.630154,0.5856153,-0.22410587,0.636873,0.58415898,-0.20229308,0.64031,0.58637987,-0.18502538,0.643434,0.60543057,-0.26744743,0.623618,0.60743641,-0.23390168,0.621086,0.60835856,-0.21840163,0.619922,0.60908604,-0.20478255,0.618895
0.57233144,-0.3530608,0.62584,0.56810242,-0.31709395,0.631012,0.55324658,-0.34088448,0.631395,0.51951704,-0.30943247,0.635945,0.49586733,-0.27671937,0.631672,0.48638566,-0.25167861,0.632133,0.54944298,-0.26126466,0.641759,0.54249067,-0.2267853,0.642458,0.53977853,-0.21023638,0.643476,0.53955145,-0.19500222,0.644401,0.56972139,-0.25924037,0.635937,0.56787871,-0.21816357,0.640786,0.56648667,-0.19335974,0.643614,0.56681367,-0.17555052,0.645634,0.58600915,-0.25981558,0.630586,0.58728295,-0.22389428,0.638862,0.58697555,-0.20323127,0.643096,0.59079468,-0.18621354,0.646945,0.60532934,-0.26544101,0.623403,0.60698482,-0.2322947,0.621423,0.60776346,-0.21685877,0.620514,0.60841321,-0.20317735,0.619712
0.572471,-0.35374159,0.626513,0.56781783,-0.31643706,0.63016,0.55333385,-0.341464,0.631991,0.52089818,-0.31023442,0.6371,0.49437359,-0.27588563,0.629967,0.48363542,-0.25016189,0.628907,0.54766162,-0.26048921,0.639772,0.54234062,-0.22691346,0.642475,0.53971792,-0.21043038,0.643826,0.53913332,-0.19519091,0.645055,0.56757458,-0.25809749,0.633633,0.56688993,-0.21768974,0.640278,0.5662651,-0.19348257,0.644154,0.56700292,-0.1760496,0.646923,0.58372262,-0.25842685,0.628185,0.58573886,-0.22288037,0.63727,0.58603779,-0.20288801,0.641918,0.58937213,-0.18601217,0.646144,0.60320267,-0.26385603,0.621176,0.60325832,-0.23038923,0.617875,0.60330025,-0.21482064,0.616359,0.60331397,-0.20101235,0.615021
0.56707061,-0.35417792,0.624584,0.56535886,-0.31501868,0.627518,0.54962568,-0.34161825,0.629451,0.51243414,-0.3036873,0.627349,0.47986882,-0.26957395,0.621754,0.46632945,-0.24568647,0.621384,0.54410905,-0.25852091,0.635849,0.54045895,-0.22593645,0.640577,0.53811059,-0.208513,0.642941,0.53671508,-0.1945489,0.64509,0.56449236,-0.25646613,0.630312,0.56484983,-0.21670397,0.638087,0.56488981,-0.19303387,0.642622,0.56546563,-0.17540288,0.645862,0.5811119,-0.25710149,0.625436,0.58318035,-0.22082217,0.634512,0.58422445,-0.20216868,0.639156,0.58561673,-0.18488867,0.643377,0.60128539,-0.26294505,0.619225,0.60022857,-0.22910107,0.615362,0.59974834,-0.21365966,0.613586,0.59933917,-0.19987608,0.61202
0.56654678,-0.35418279,0.624304,0.56490182,-0.31473521,0.627063,0.54892852,-0.34139701,0.629085,0.51198652,-0.30342202,0.626801,0.47968281,-0.26946945,0.621513,0.46637297,-0.24570941,0.621442,0.5434059,-0.25801918,0.635164,0.53967913,-0.22548367,0.639874,0.53736441,-0.2082316,0.642229,0.53581592,-0.19402117,0.64437,0.5638716,-0.25604594,0.629691,0.56472761,-0.21653541,0.638017,0.56507762,-0.19298119,0.642873,0.56578879,-0.17551549,0.646342,0.58056794,-0.25675897,0.624887,0.58282937,-0.2204988,0.634149,0.58396961,-0.20183952,0.638888,0.58538482,-0.18466612,0.643196,0.60085129,-0.26271181,0.618792,0.59963506,-0.2292912,0.614781,0.59909086,-0.21392782,0.612938,0.5986255,-0.20020039,0.611312
0.56484012,-0.35498887,0.623381,0.56420106,-0.31432558,0.62632,0.54695869,-0.34147032,0.628187,0.51133143,-0.30303379,0.625999,0.47933628,-0.26927478,0.621064,0.46615609,-0.24559514,0.621153,0.54282304,-0.25763043,0.634574,0.53904889,-0.22512963,0.639285,0.53676496,-0.20800485,0.641641,0.53512655,-0.19363676,0.643782,0.56331539,-0.25570114,0.629118,0.5645502,-0.21638618,0.637862,0.5651333,-0.19291676,0.642963,0.56594713,-0.1755739,0.646606,0.58000742,-0.25644315,0.624308,0.58240971,-0.22021294,0.633705,0.58361939,-0.20155758,0.638512,0.58504956,-0.18444841,0.642883,0.60024111,-0.26241612,0.618173,0.5991703,-0.22936399,0.614321,0.5986981,-0.21408997,0.612551,0.59829791,-0.2004297,0.61099
0.56439358,-0.35665953,0.623082,0.56242794,-0.31354035,0.624747,0.54545537,-0.34213324,0.627224,0.5091218,-0.30162772,0.623661,0.48160823,-0.26912521,0.622182,0.47292894,-0.24603038,0.623689,0.53885229,-0.25544283,0.631273,0.5378954,-0.22464233,0.638197,0.53668985,-0.20803981,0.641659,0.53596549,-0.1939491,0.644806,0.56039231,-0.2544228,0.626333,0.56224229,-0.21535866,0.636337,0.56351854,-0.19236355,0.642173,0.56465018,-0.17523631,0.646341,0.5775531,-0.255405,0.622086,0.58002669,-0.21899498,0.631398,0.58134958,-0.2001536,0.636162,0.58275909,-0.18340768,0.640493,0.59859833,-0.26176301,0.616843,0.59608901,-0.22937402,0.611867,0.59510473,-0.21421083,0.60958,0.59425478,-0.20062938,0.607563
0.56198201,-0.35488541,0.620845,0.56268602,-0.31349186,0.625351,0.54259686,-0.33911759,0.625328,0.51434235,-0.3053807,0.630469,0.49107625,-0.27368497,0.627429,0.48128512,-0.24938191,0.626904,0.54178606,-0.25706583,0.63425,0.53870162,-0.2247252,0.639336,0.5368018,-0.20782612,0.64188,0.53542915,-0.19150503,0.644192,0.56310229,-0.25551305,0.629642,0.5638647,-0.2160497,0.637808,0.56424005,-0.19245402,0.642571,0.56482822,-0.17513849,0.645974,0.58035843,-0.25652282,0.625362,0.58242189,-0.22023804,0.633899,0.58364205,-0.20198159,0.638266,0.58533542,-0.18490811,0.642237,0.60099085,-0.2627344,0.619547,0.6021052,-0.22892106,0.617083,0.60254223,-0.21417062,0.615951,0.60296736,-0.20049414,0.614953
0.56122019,-0.3541349,0.619962,0.56236567,-0.31310246,0.624778,0.54269234,-0.33993745,0.624378,0.51383063,-0.30434521,0.627762,0.49196084,-0.27433422,0.626779,0.48261621,-0.24989241,0.627699,0.54167271,-0.25690378,0.6338,0.53873252,-0.22461498,0.639198,0.5369521,-0.2078065,0.641898,0.53560263,-0.19320058,0.644352,0.56312685,-0.25543102,0.629365,0.56341599,-0.21608604,0.636999,0.56380659,-0.19194032,0.641452,0.5634193,-0.17465761,0.644633,0.58047432,-0.25649976,0.625193,0.58284879,-0.22096128,0.633828,0.58499756,-0.20526953,0.638246,0.58628184,-0.18933072,0.642262,0.60115988,-0.2627666,0.619446,0.60246017,-0.22914001,0.617267,0.60294935,-0.21430065,0.616265,0.6033837,-0.20062357,0.615382
0.55936154,-0.35182792,0.617965,0.56364232,-0.31385001,0.624738,0.54296291,-0.33940347,0.62459,0.51894726,-0.30843604,0.631035,0.49412485,-0.27525625,0.630091,0.48466156,-0.25047113,0.630964,0.55071002,-0.27239505,0.637965,0.53936673,-0.22484865,0.639686,0.53790003,-0.20539914,0.642045,0.5354827,-0.18574315,0.64419,0.56933078,-0.26758955,0.631188,0.57102897,-0.21974156,0.641442,0.56905553,-0.1931405,0.647423,0.56936025,-0.17390635,0.651696,0.58436624,-0.26611779,0.624878,0.58329836,-0.21992282,0.634024,0.58817098,-0.19277038,0.638703,0.5894684,-0.17037929,0.643078,0.60218366,-0.26952276,0.61628,0.61091467,-0.22503015,0.622622,0.61423475,-0.20330531,0.625536,0.6140869,-0.18842271,0.628107
0.55929349,-0.35139048,0.616702,0.56495455,-0.31439248,0.62514,0.54281488,-0.33933724,0.623208,0.52015178,-0.30934781,0.631747,0.49334227,-0.27519826,0.628466,0.48283497,-0.25020492,0.628421,0.55189955,-0.27298342,0.639343,0.54110554,-0.22552328,0.641624,0.53879224,-0.20501974,0.642765,0.53541485,-0.18438903,0.643802,0.57112485,-0.26843278,0.633177,0.56663832,-0.21813646,0.63545,0.55936144,-0.18946753,0.636776,0.55612008,-0.16943161,0.637723,0.58652742,-0.26710198,0.627189,0.58464112,-0.21956513,0.634921,0.58874654,-0.19295901,0.639328,0.58970306,-0.17044711,0.643334,0.60450238,-0.27056057,0.618653,0.60962734,-0.22455597,0.62131,0.61128404,-0.20232866,0.622531,0.60968833,-0.18707308,0.623608
0.56372624,-0.35379496,0.620883,0.56700478,-0.31518861,0.626643,0.5451976,-0.34040993,0.625259,0.5208678,-0.30910279,0.631239,0.49316218,-0.27479804,0.627421,0.48281373,-0.25033405,0.627845,0.54511938,-0.25784917,0.636253,0.5422822,-0.22245645,0.640323,0.53905344,-0.20342407,0.642357,0.53643215,-0.18619625,0.644207,0.56688699,-0.2563575,0.632129,0.56248606,-0.21494155,0.635846,0.56061374,-0.18983056,0.638015,0.55830607,-0.17195684,0.639564,0.58443571,-0.25733212,0.628112,0.58994096,-0.22194248,0.636562,0.58689261,-0.20261938,0.640886,0.58771928,-0.18600404,0.644817,0.6063086,-0.26175878,0.622366,0.6094652,-0.22503201,0.621078,0.61026614,-0.21021797,0.620486,0.60856341,-0.1996856,0.619964
0.56368092,-0.35307127,0.619965,0.56906662,-0.3156744,0.628083,0.54533084,-0.33974029,0.624635,0.52153974,-0.3086262,0.630598,0.49432571,-0.27488376,0.626955,0.48324843,-0.25045153,0.627298,0.55091447,-0.25604943,0.639676,0.54438411,-0.22017606,0.642262,0.54009527,-0.20346296,0.643554,0.5369265,-0.18638342,0.644729,0.57274625,-0.25408136,0.635814,0.56591553,-0.21686708,0.637308,0.56341361,-0.20093969,0.638179,0.56109635,-0.1873383,0.638802,0.5901875,-0.25427573,0.631758,0.58523318,-0.21886084,0.634672,0.58428998,-0.20143426,0.637304,0.58361006,-0.18472423,0.639697,0.61022757,-0.25588563,0.625525,0.61484012,-0.2263225,0.627256,0.61528757,-0.21104484,0.628051,0.61677931,-0.19815531,0.628753
0.56506978,-0.3530957,0.621018,0.56768153,-0.31334385,0.627866,0.54612616,-0.33931879,0.625144,0.51069032,-0.30189635,0.624102,0.47971776,-0.26799631,0.61952,0.46894432,-0.24591218,0.619921,0.54711844,-0.25036229,0.637889,0.54174919,-0.21606574,0.641266,0.53905329,-0.19886723,0.642955,0.5369995,-0.18310792,0.64449,0.56931348,-0.24883829,0.634387,0.56167226,-0.2148353,0.634373,0.55918379,-0.1973306,0.634365,0.55651534,-0.1835282,0.634359,0.58715288,-0.24938639,0.630765,0.58411744,-0.21736674,0.633269,0.58083785,-0.19850707,0.63455,0.58100641,-0.18253001,0.636621,0.60840761,-0.25438136,0.625274,0.60997663,-0.22291092,0.625013,0.61090634,-0.20810283,0.624893,0.61213167,-0.19252025,0.624787
0.56438014,-0.35182688,0.619461,0.56872768,-0.31399934,0.62749,0.54587284,-0.33832302,0.624149,0.51812467,-0.30481684,0.628929,0.49043581,-0.27252902,0.62352,0.47947089,-0.24844653,0.623655,0.5479601,-0.25105992,0.639048,0.54284248,-0.21743567,0.641508,0.53980342,-0.20083395,0.642738,0.53645182,-0.18387838,0.643857,0.56980942,-0.24920899,0.635137,0.56499413,-0.21654726,0.636395,0.56188712,-0.19843486,0.637129,0.55971846,-0.18485415,0.637654,0.58725356,-0.24943853,0.631051,0.58384552,-0.21718816,0.633477,0.58179098,-0.19970279,0.634719,0.58131686,-0.18398951,0.636862,0.60784148,-0.25396624,0.624799,0.61346588,-0.22494714,0.626776,0.61589628,-0.21066316,0.627684,0.6167246,-0.19667561,0.628485
0.565411,-0.35163219,0.619794,0.56924951,-0.31358662,0.627459,0.54669246,-0.33799366,0.624382,0.51876401,-0.3048602,0.629526,0.49130653,-0.27268759,0.624464,0.48012026,-0.24853916,0.624431,0.54753324,-0.2510205,0.638639,0.54266119,-0.21718653,0.64128,0.53979078,-0.20053898,0.642601,0.53664411,-0.18377079,0.643802,0.56938171,-0.24909891,0.634759,0.56449138,-0.21652108,0.635574,0.56106824,-0.19822033,0.63605,0.5587646,-0.1846734,0.63639,0.58687849,-0.24928389,0.630737,0.58402856,-0.21687833,0.633591,0.58213964,-0.19986638,0.635052,0.58144733,-0.18439108,0.636996,0.60762399,-0.25378592,0.624629,0.61387363,-0.22500822,0.627109,0.61677362,-0.21076657,0.628249,0.61816125,-0.19721153,0.629254
0.56652785,-0.35114436,0.619831,0.56986994,-0.3118598,0.627415,0.54766178,-0.33744764,0.624395,0.52010541,-0.30477509,0.630103,0.49313868,-0.27287683,0.625214,0.48187015,-0.248821,0.625483,0.54732167,-0.25096389,0.638509,0.54236735,-0.21679812,0.640924,0.53948634,-0.20004258,0.642131,0.53637293,-0.18334789,0.643229,0.56917467,-0.24894019,0.634638,0.56423785,-0.21651991,0.635317,0.56081136,-0.19815886,0.635713,0.55849966,-0.18478402,0.635996,0.58669722,-0.24904375,0.630633,0.58644945,-0.21772923,0.635104,0.58542552,-0.20094347,0.637391,0.58451383,-0.18565917,0.639471,0.60751251,-0.25345059,0.624558,0.61449872,-0.22487216,0.6275,0.61783825,-0.20844729,0.628851,0.62087524,-0.1979047,0.630044
0.56776088,-0.35089743,0.619978,0.56989031,-0.31148931,0.627334,0.54860051,-0.33702105,0.624398,0.52032576,-0.30449629,0.630216,0.49374307,-0.27185385,0.625178,0.4822554,-0.24822517,0.625438,0.54690749,-0.25055447,0.638086,0.5419512,-0.2157011,0.640808,0.53965326,-0.19873538,0.642168,0.53691747,-0.18244696,0.643405,0.56886742,-0.24855018,0.63434,0.56360833,-0.21601905,0.63474,0.56027646,-0.19756223,0.634973,0.55792258,-0.18414144,0.63514,0.58651045,-0.2486784,0.630463,0.5873143,-0.21826646,0.63553,0.58837114,-0.20093777,0.638122,0.58613975,-0.18534238,0.640479,0.60752484,-0.25312887,0.624579,0.61476479,-0.22461715,0.627747,0.61820767,-0.20860127,0.629203,0.62132187,-0.19784275,0.630488
0.56806951,-0.35035987,0.619589,0.57058278,-0.31266663,0.627382,0.54900184,-0.33649518,0.624241,0.52195155,-0.30462894,0.631067,0.49436322,-0.27141067,0.625621,0.48239513,-0.24766498,0.625525,0.54765279,-0.25083795,0.638733,0.54146725,-0.21579121,0.639523,0.53792308,-0.19805455,0.639919,0.53473773,-0.18048297,0.640278,0.5694651,-0.24877507,0.634804,0.56555065,-0.2172064,0.635667,0.56245693,-0.19850758,0.63617,0.56041027,-0.18515181,0.636529,0.58693456,-0.24883716,0.63073,0.58884817,-0.21835916,0.635777,0.58999661,-0.20089639,0.63836,0.58978922,-0.18480213,0.640708,0.60765003,-0.25317689,0.624535,0.61558557,-0.22500109,0.627954,0.61887541,-0.21050055,0.629524,0.62194928,-0.19822654,0.63091
0.56918883,-0.35020287,0.620825,0.57068173,-0.31115685,0.627589,0.55006943,-0.33594485,0.625636,0.52253279,-0.30468657,0.631691,0.49439717,-0.27074139,0.625897,0.48259417,-0.24678413,0.624639,0.5475661,-0.2506653,0.638449,0.5407204,-0.21515985,0.638301,0.53749381,-0.1961646,0.638226,0.53490085,-0.180328,0.639466,0.56892087,-0.24842446,0.634032,0.56395967,-0.21626368,0.634116,0.56106522,-0.19774446,0.634165,0.55841682,-0.18386148,0.6342,0.58608604,-0.24837919,0.629665,0.58880872,-0.21810268,0.635264,0.59042183,-0.20080597,0.638129,0.59057879,-0.18482598,0.640733,0.60660725,-0.25266135,0.623325,0.61130207,-0.22243969,0.622897,0.61590026,-0.20645785,0.6227,0.61644254,-0.19645844,0.622527
0.56813294,-0.3485199,0.619491,0.57065895,-0.31090955,0.627422,0.54882869,-0.33384552,0.624232,0.52309054,-0.30474082,0.632183,0.4961032,-0.27188164,0.627684,0.48558908,-0.24581031,0.622943,0.54815159,-0.25077878,0.638983,0.54846808,-0.2170339,0.640329,0.54659183,-0.20081271,0.641001,0.54037011,-0.18189201,0.641613,0.56989173,-0.24867099,0.634976,0.56748522,-0.21751433,0.63764,0.56842479,-0.1990009,0.639195,0.5677125,-0.18590686,0.640305,0.58728717,-0.2486893,0.630821,0.58895709,-0.21673172,0.634857,0.58975067,-0.19977159,0.636922,0.58939469,-0.18367822,0.638799,0.6078924,-0.25296813,0.624508,0.61386607,-0.22292985,0.625366,0.61650035,-0.20865143,0.625761,0.61900867,-0.19621695,0.626108
0.57132113,-0.35139207,0.623323,0.57327429,-0.3227167,0.629134,0.55158112,-0.33591457,0.627637,0.52535437,-0.3081329,0.631986,0.49825327,-0.27441407,0.625786,0.48966848,-0.24656623,0.619789,0.55531893,-0.25362426,0.638698,0.54768914,-0.21564103,0.637757,0.54463282,-0.19843577,0.637286,0.53896623,-0.17994875,0.636859,0.57676971,-0.25402402,0.634668,0.57809129,-0.21582204,0.641452,0.5788528,-0.19345373,0.64541,0.57939223,-0.17743901,0.648237,0.59392507,-0.25585658,0.630723,0.5975587,-0.21385833,0.637922,0.59941953,-0.19238584,0.641606,0.60111081,-0.17287351,0.644954,0.61430938,-0.26212301,0.625052,0.61770432,-0.22952573,0.623799,0.61862745,-0.21894637,0.623223,0.61938179,-0.21003004,0.622715
0.56933103,-0.35154376,0.621664,0.57517524,-0.32422118,0.630268,0.55210474,-0.33702605,0.628455,0.52997567,-0.31060933,0.634066,0.50606185,-0.27687551,0.630291,0.49394859,-0.24865886,0.623155,0.56600695,-0.2589876,0.644955,0.56328609,-0.22456201,0.647261,0.55977347,-0.20993997,0.648414,0.55653976,-0.19852202,0.649463,0.58480535,-0.25833591,0.638463,0.58305906,-0.21798206,0.641106,0.5788643,-0.19318842,0.642648,0.5777421,-0.17621326,0.64375,0.59737464,-0.25780895,0.632189,0.59597026,-0.21347282,0.634557,0.59697304,-0.19147659,0.637595,0.59761601,-0.17107608,0.640357,0.61438166,-0.26268753,0.62329,0.62485019,-0.23245675,0.624333,0.62300535,-0.22014954,0.624813,0.62403258,-0.21131474,0.625235
0.57121207,-0.35287491,0.621607,0.59038307,-0.3264985,0.631772,0.5562852,-0.34434529,0.627501,0.55041802,-0.31492157,0.638301,0.52500402,-0.28285428,0.635213,0.52317942,-0.26414932,0.643512,0.57028795,-0.26624134,0.646351,0.56583766,-0.22715563,0.649537,0.56322276,-0.21041794,0.65113,0.5621762,-0.19273082,0.652579,0.58919303,-0.26156086,0.641453,0.60655739,-0.23696722,0.66424,0.61570042,-0.22121763,0.677533,0.62221606,-0.2098651,0.687028,0.60517369,-0.26169661,0.636324,0.60357949,-0.22959884,0.652046,0.60183978,-0.21273742,0.660091,0.60000983,-0.19554956,0.667404,0.62584105,-0.26467858,0.628459,0.62866986,-0.23229339,0.631039,0.63132679,-0.21333584,0.632224,0.62719885,-0.19850637,0.63327
0.57802546,-0.35672904,0.627299,0.58887411,-0.32189847,0.629386,0.5581436,-0.33941553,0.630795,0.54611536,-0.30346129,0.635153,0.52378979,-0.2702657,0.636589,0.51895743,-0.25135193,0.642956,0.56533921,-0.25034285,0.635357,0.55616433,-0.21553059,0.630007,0.55151555,-0.19767028,0.627332,0.54725186,-0.18115674,0.6249,0.58652106,-0.24927978,0.631374,0.59087518,-0.21211208,0.641175,0.59326243,-0.18974852,0.646892,0.59471137,-0.17296262,0.650976,0.6039998,-0.25000098,0.627869,0.61132723,-0.21510625,0.638016,0.61500765,-0.19675925,0.643208,0.61834475,-0.17994503,0.647928,0.62582297,-0.25507449,0.623408,0.62543729,-0.22228313,0.618873,0.62514757,-0.20723749,0.616789,0.62490996,-0.1938188,0.61495
0.58287254,-0.3604504,0.631721,0.5863036,-0.32440152,0.631574,0.55964145,-0.34121825,0.631959,0.54121278,-0.2989675,0.628256,0.51857146,-0.25988731,0.623435,0.51292611,-0.24017502,0.628656,0.56192994,-0.25073665,0.631785,0.57508466,-0.22393425,0.645651,0.58178764,-0.20931604,0.652584,0.58788698,-0.19584934,0.658887,0.58365868,-0.2579538,0.631434,0.5796905,-0.21216059,0.622993,0.57673079,-0.18645228,0.618069,0.5752732,-0.16879921,0.614552,0.60381217,-0.2608663,0.631161,0.60926155,-0.22121765,0.632327,0.61116371,-0.20036292,0.632923,0.61300809,-0.1811705,0.633465,0.63013569,-0.27150732,0.630872,0.63158653,-0.24524381,0.623446,0.63241191,-0.23276669,0.620035,0.6332274,-0.22152666,0.617024
0.5882919,-0.36389689,0.63665,0.59615243,-0.32499855,0.636631,0.56624007,-0.34456232,0.637953,0.54778393,-0.29510174,0.629875,0.51841483,-0.25756874,0.621908,0.51034636,-0.23563505,0.624059,0.58036168,-0.25551844,0.638317,0.60051844,-0.23583602,0.663757,0.61047519,-0.22364449,0.676477,0.6194915,-0.21217814,0.688041,0.60290263,-0.25866766,0.636614,0.5953968,-0.21954318,0.628557,0.59105605,-0.19664546,0.623857,0.58814551,-0.18806054,0.6205,0.62157844,-0.26284132,0.635214,0.61587046,-0.22018822,0.628116,0.62473172,-0.20240898,0.636495,0.63281806,-0.18562742,0.644111,0.64470148,-0.27200102,0.633592,0.64563365,-0.24736446,0.626354,0.64622673,-0.23561914,0.623029,0.64684143,-0.22501494,0.620094
0.58079614,-0.3597996,0.628079,0.59369916,-0.32506522,0.635622,0.56182385,-0.34146846,0.631926,0.54929384,-0.29435518,0.631934,0.53073109,-0.26308591,0.6365,0.53148763,-0.23745245,0.639039,0.58695213,-0.25797741,0.645754,0.58942454,-0.22319873,0.649233,0.59118651,-0.20597586,0.650973,0.588704,-0.1923768,0.653943,0.60845862,-0.26161162,0.642806,0.61250373,-0.22000708,0.643597,0.61519498,-0.1949388,0.644058,0.61714433,-0.17672703,0.644387,0.6253271,-0.26584124,0.639566,0.62879748,-0.22570732,0.640508,0.63059241,-0.20488224,0.640991,0.63224216,-0.18574131,0.641429,0.64459842,-0.27446254,0.634387,0.65106303,-0.24768619,0.634083,0.65457495,-0.23394936,0.633944,0.65774147,-0.22157374,0.633821
0.59208482,-0.37407393,0.626399,0.5921701,-0.34581227,0.632545,0.57102557,-0.3655003,0.629249,0.54561345,-0.32334405,0.627021,0.5105775,-0.29606266,0.623958,0.50261785,-0.2695727,0.623322,0.56284887,-0.2803755,0.64043,0.55682578,-0.24533394,0.639551,0.55515778,-0.22847544,0.639111,0.55361315,-0.21277199,0.638712,0.58561938,-0.2804803,0.638398,0.57557069,-0.24084714,0.637397,0.57124054,-0.21673188,0.636813,0.56899945,-0.19931781,0.636396,0.6038965,-0.28188393,0.636062,0.60988601,-0.24315302,0.634603,0.61345068,-0.22346009,0.633857,0.61712713,-0.20615443,0.633179,0.62594245,-0.28716874,0.632196,0.62435784,-0.27562602,0.629944,0.6236498,-0.27000731,0.62891,0.62240931,-0.26570191,0.627997
0.59329989,-0.42205091,0.641955,0.58590118,-0.37764741,0.639286,0.56875446,-0.4014427,0.641888,0.54788137,-0.35440329,0.631086,0.514741,-0.31977675,0.624929,0.50634766,-0.29429524,0.625595,0.5511767,-0.30440646,0.637387,0.53167061,-0.27333418,0.627554,0.52177572,-0.25745884,0.622637,0.51269401,-0.24281818,0.618168,0.57532532,-0.30483163,0.636745,0.57692498,-0.26914391,0.647119,0.57797927,-0.24730002,0.65317,0.57887822,-0.2312957,0.657492,0.59581078,-0.30704169,0.636504,0.59313661,-0.26387955,0.626324,0.59172518,-0.2426104,0.621115,0.59038049,-0.2240544,0.616381,0.62221417,-0.3143583,0.636725,0.60714438,-0.31199859,0.626567,0.60011268,-0.31097023,0.6219,0.60933637,-0.32843464,0.63232
0.58855282,-0.41482015,0.640433,0.57679506,-0.36415235,0.637661,0.56075387,-0.3918511,0.636504,0.53922601,-0.33397568,0.620696,0.49914805,-0.30997788,0.615971,0.49911261,-0.28813378,0.619403,0.53683561,-0.28784318,0.630661,0.53548464,-0.25219199,0.620565,0.53488164,-0.23405573,0.615517,0.53437794,-0.21737787,0.610928,0.56463205,-0.29151655,0.63502,0.55618475,-0.2479279,0.626945,0.55124182,-0.22203705,0.622234,0.54770424,-0.20332345,0.618869,0.58811051,-0.29639489,0.638909,0.5893635,-0.25324767,0.62925,0.59334215,-0.2431713,0.624308,0.59451775,-0.23232121,0.619816,0.61795413,-0.30682939,0.643944,0.61209163,-0.29346212,0.632231,0.59811038,-0.30187947,0.62685,0.60108939,-0.31491309,0.636639
0.57326391,-0.39831597,0.629016,0.56137776,-0.35712638,0.632886,0.54608497,-0.37894128,0.627412,0.50895018,-0.33422226,0.616911,0.47009728,-0.3259064,0.617371,0.45638878,-0.30337187,0.618608,0.51513354,-0.29251703,0.633423,0.50819649,-0.25637781,0.62995,0.50470617,-0.238128,0.628213,0.50177269,-0.22149296,0.626635,0.541753,-0.29222889,0.636571,0.53281462,-0.24936637,0.632754,0.53761505,-0.22884705,0.642456,0.54098284,-0.21374329,0.649387,0.56383877,-0.29338485,0.638746,0.55092191,-0.25323403,0.634647,0.55415085,-0.24311903,0.63255,0.56077075,-0.24296715,0.630643,0.59156195,-0.29836322,0.640544,0.58408276,-0.29076349,0.634729,0.57540128,-0.30119193,0.632058,0.58209356,-0.31733285,0.643576
0.56348552,-0.38392008,0.623781,0.55018464,-0.34366336,0.634052,0.53635307,-0.37100444,0.625468,0.49704649,-0.33847598,0.630686,0.46316613,-0.31399022,0.630762,0.45019304,-0.30143978,0.637615,0.5027794,-0.29176253,0.643224,0.48394374,-0.26405688,0.646185,0.47442316,-0.25006264,0.647666,0.46819287,-0.23852419,0.652475,0.52701176,-0.28514168,0.643834,0.50830328,-0.25050139,0.647176,0.49790784,-0.22980942,0.649713,0.4913955,-0.21532011,0.651525,0.54691851,-0.2806802,0.64323,0.52723876,-0.24714019,0.646003,0.51791728,-0.22980863,0.647421,0.50946793,-0.21378887,0.64871,0.57174933,-0.27813938,0.640598,0.56094937,-0.2500945,0.642695,0.55595315,-0.23713191,0.643658,0.55158031,-0.225585,0.644508
0.58058672,-0.36745817,0.624819,0.57224684,-0.34412678,0.634907,0.55725739,-0.36996081,0.626754,0.51879261,-0.33877598,0.631245,0.48450963,-0.31410372,0.63099,0.47144117,-0.30162368,0.638004,0.52439406,-0.29224016,0.644277,0.5055469,-0.26442833,0.647094,0.49602351,-0.25038542,0.648502,0.49045496,-0.23907364,0.653978,0.54844197,-0.28544328,0.644515,0.52952162,-0.25069918,0.647687,0.5186991,-0.22974717,0.649537,0.51212191,-0.2151,0.650859,0.56817563,-0.28085169,0.643623,0.54859806,-0.24725572,0.646305,0.5394985,-0.22989986,0.647678,0.53128913,-0.21385972,0.648925,0.59280406,-0.27818019,0.640692,0.58196881,-0.25008088,0.64266,0.57695919,-0.23709764,0.643565,0.57259708,-0.22553425,0.644363
0.58039443,-0.36699111,0.621849,0.58339091,-0.33793426,0.632204,0.55895411,-0.35628733,0.624755,0.53378096,-0.32015052,0.630267,0.50910172,-0.28853872,0.631538,0.50266547,-0.27303245,0.63951,0.55577369,-0.27602277,0.643019,0.54664292,-0.24404197,0.646412,0.54203159,-0.22792519,0.648108,0.54364959,-0.21551431,0.6567,0.57995622,-0.27498079,0.642065,0.57287829,-0.2366768,0.645749,0.5690644,-0.21346571,0.647897,0.56720637,-0.19700447,0.649432,0.59925528,-0.27525241,0.640163,0.59099213,-0.23743539,0.643469,0.58832248,-0.21844818,0.645161,0.58654786,-0.20158461,0.646699,0.62210638,-0.27884281,0.63601,0.62036548,-0.24875238,0.638317,0.6195588,-0.23486676,0.639378,0.61891856,-0.22248553,0.640313
0.59130071,-0.37566048,0.622029,0.60489419,-0.33800535,0.632337,0.57337837,-0.35962173,0.624895,0.55534701,-0.32029072,0.630543,0.53020883,-0.28850125,0.631456,0.52387492,-0.27315754,0.639803,0.57660177,-0.2760438,0.643068,0.56752079,-0.24403706,0.646399,0.56293607,-0.22791007,0.648065,0.56599034,-0.21594291,0.658006,0.60090655,-0.27501848,0.642153,0.59368561,-0.23668633,0.645775,0.58993148,-0.21346274,0.647888,0.58834051,-0.19699386,0.649397,0.62029936,-0.27530701,0.64029,0.61213965,-0.23746011,0.643536,0.60979021,-0.21846037,0.645197,0.60840538,-0.2015871,0.646707,0.64439617,-0.27813632,0.636189,0.64160288,-0.24882954,0.638515,0.64083177,-0.23494243,0.639584,0.64024713,-0.22256024,0.640528
0.58736822,-0.35760026,0.628819,0.60090477,-0.32551584,0.642754,0.56652425,-0.33624525,0.629565,0.55646246,-0.2923745,0.632733,0.54772407,-0.25179877,0.63181,0.54950771,-0.22537775,0.633995,0.58039334,-0.2620076,0.653189,0.58558177,-0.24114795,0.657826,0.58822095,-0.22977136,0.660145,0.60468016,-0.22402691,0.677986,0.60778644,-0.2650285,0.656026,0.61174056,-0.22538773,0.663369,0.61441407,-0.20136972,0.667653,0.6164529,-0.18370971,0.670713,0.62936995,-0.26845585,0.656861,0.63671708,-0.22990601,0.663377,0.64119787,-0.20970761,0.66671,0.64543998,-0.19090007,0.669741,0.65400538,-0.27545,0.65521,0.6641002,-0.25525757,0.658332,0.67283677,-0.24339476,0.659766,0.67954485,-0.23409991,0.662149
0.58243974,-0.3849376,0.635474,0.5905655,-0.34031435,0.640814,0.56060545,-0.3544266,0.630188,0.54951931,-0.30298371,0.627381,0.53088557,-0.26507409,0.626079,0.52403932,-0.24321697,0.629449,0.57950909,-0.25958869,0.637555,0.58071772,-0.22455316,0.633107,0.58148982,-0.20656361,0.630883,0.59762963,-0.19489745,0.645477,0.60839732,-0.2722748,0.6459,0.62634734,-0.27464868,0.642727,0.62981493,-0.29385796,0.640876,0.64678875,-0.31848173,0.656445,0.6316226,-0.28234118,0.652196,0.63052549,-0.24505696,0.654202,0.63187716,-0.22448715,0.655228,0.63423735,-0.20550959,0.65616,0.65756888,-0.30259524,0.658501,0.66510452,-0.27518794,0.652701,0.66876821,-0.26222117,0.650036,0.67235236,-0.25104005,0.647684
0.5812188,-0.38873054,0.635313,0.59264406,-0.35621047,0.644464,0.56007028,-0.3607687,0.631965,0.54637465,-0.31487939,0.626309,0.52830669,-0.27598398,0.624246,0.52249833,-0.25336232,0.627208,0.58463631,-0.28075944,0.646317,0.60003353,-0.26022642,0.646392,0.60828676,-0.24921665,0.64643,0.6242542,-0.26090853,0.662921,0.61349558,-0.29302413,0.65318,0.62987923,-0.28959754,0.654503,0.63524287,-0.30456608,0.655274,0.65275699,-0.32802364,0.672104,0.63628467,-0.30440635,0.657845,0.63645513,-0.26326698,0.656752,0.64319052,-0.24456054,0.662754,0.65170042,-0.22769492,0.670098,0.66181849,-0.32166122,0.66154,0.66268537,-0.316227,0.659381,0.65785614,-0.32721959,0.658389,0.66507356,-0.34499585,0.670258
0.58023568,-0.39015742,0.630413,0.58993856,-0.35632077,0.63929,0.5567014,-0.36756774,0.628443,0.54985185,-0.32275833,0.624392,0.52829071,-0.2897777,0.629119,0.51922455,-0.2692249,0.630788,0.57306579,-0.28472998,0.642751,0.56569331,-0.24915574,0.641424,0.56199037,-0.23127175,0.640761,0.57199181,-0.22010462,0.655489,0.60026222,-0.2934379,0.647744,0.62478965,-0.28989431,0.650549,0.63052907,-0.31444799,0.652186,0.6516944,-0.3394938,0.669773,0.6217363,-0.30184337,0.650898,0.63096273,-0.27108519,0.660449,0.64494142,-0.2563705,0.665335,0.65808898,-0.24220448,0.669777,0.64622776,-0.31545133,0.652891,0.6534294,-0.31229867,0.650931,0.65035683,-0.32482701,0.650031,0.65973456,-0.3434933,0.662224
0.58418451,-0.37048923,0.628029,0.57396089,-0.33343767,0.634362,0.55980533,-0.36166884,0.630891,0.52407057,-0.31994267,0.627176,0.48693974,-0.31450609,0.630753,0.47434881,-0.30361202,0.639177,0.52889511,-0.27941229,0.64239,0.50538988,-0.25589605,0.64207,0.50288151,-0.24818458,0.641909,0.51497559,-0.24828732,0.659147,0.55129895,-0.27296118,0.640394,0.5333162,-0.23601323,0.639601,0.52665828,-0.21701623,0.639139,0.53595366,-0.20839395,0.656256,0.56981126,-0.26885723,0.638067,0.54900374,-0.24275345,0.642348,0.54999206,-0.23486366,0.644538,0.55976186,-0.2398989,0.64653,0.59330745,-0.26712265,0.634176,0.58532763,-0.26275632,0.632074,0.58659024,-0.27553355,0.631108,0.60209633,-0.29148226,0.643639
0.58422256,-0.37024795,0.62818,0.58410758,-0.33572191,0.634279,0.55953365,-0.35611181,0.630901,0.53653955,-0.30699773,0.626907,0.50613465,-0.2952981,0.632473,0.49777688,-0.28176167,0.641729,0.55330907,-0.26782348,0.641965,0.53758239,-0.24065301,0.643147,0.53806435,-0.23217982,0.643737,0.55340971,-0.23110002,0.661313,0.57647519,-0.26719422,0.640088,0.56804968,-0.22756122,0.639005,0.56660751,-0.20691744,0.638373,0.58107301,-0.19679246,0.655431,0.59522388,-0.26798067,0.637885,0.58287341,-0.23785725,0.642842,0.58695786,-0.22928795,0.645378,0.5961226,-0.23543462,0.647683,0.61802635,-0.27248123,0.634181,0.61142535,-0.26535856,0.631837,0.60918817,-0.2779133,0.630759,0.62211425,-0.29480701,0.643237
0.58381384,-0.36831567,0.627764,0.58194699,-0.32057014,0.633342,0.56241545,-0.3443378,0.630331,0.53594119,-0.29610275,0.625936,0.50671205,-0.28626409,0.630795,0.50038787,-0.27236844,0.640769,0.5522558,-0.25715429,0.640474,0.53686626,-0.2302928,0.642069,0.53758785,-0.22385759,0.642867,0.55295603,-0.22002375,0.66053,0.57548193,-0.25653865,0.638655,0.56650801,-0.21682322,0.636963,0.56475705,-0.19583006,0.635975,0.57911981,-0.1852054,0.652902,0.59433621,-0.2573603,0.636556,0.58035381,-0.22675159,0.63973,0.5842283,-0.21735638,0.641354,0.59200108,-0.22307849,0.64283,0.61736889,-0.26193703,0.633072,0.61032567,-0.25418016,0.630257,0.60788352,-0.26657082,0.628964,0.62070957,-0.28332907,0.641335
0.64272301,-0.40492551,0.630613,0.63017381,-0.36693046,0.634443,0.61546712,-0.39197364,0.632798,0.6057352,-0.34686393,0.62725,0.557907,-0.32183311,0.617226,0.55414124,-0.29694319,0.62027,0.58352189,-0.3074385,0.63989,0.56999257,-0.27248056,0.63654,0.56338535,-0.25518347,0.634865,0.56894757,-0.2447081,0.646244,0.60633784,-0.30152242,0.638091,0.59413876,-0.26528374,0.637176,0.59253173,-0.25565285,0.636642,0.60757599,-0.25518361,0.653735,0.62547151,-0.29805077,0.636197,0.60070327,-0.26394195,0.633285,0.60609353,-0.26663309,0.631795,0.61685305,-0.28127999,0.63044,0.65016729,-0.29753547,0.633279,0.63450862,-0.26947191,0.628958,0.63336111,-0.26595852,0.626972,0.65133777,-0.2800922,0.638981
0.59410262,-0.36293464,0.627659,0.61050513,-0.32267626,0.637533,0.57816282,-0.3386112,0.632283,0.56920037,-0.29489831,0.632335,0.55492262,-0.25691882,0.632446,0.55560532,-0.2343678,0.638461,0.59740603,-0.26064621,0.650261,0.58766062,-0.22960463,0.654399,0.59043027,-0.23082139,0.656468,0.60766868,-0.2376927,0.674638,0.61886999,-0.26026716,0.646938,0.62392478,-0.22023688,0.650119,0.62687519,-0.19685744,0.651975,0.6411299,-0.1836239,0.665917,0.63578099,-0.26112703,0.643137,0.62401748,-0.22424651,0.646985,0.62335824,-0.20472134,0.648953,0.62281548,-0.1865842,0.650743,0.65530959,-0.26557063,0.636869,0.67166277,-0.23761115,0.639399,0.67924032,-0.22462887,0.640561,0.69519573,-0.21951722,0.653864
0.60836596,-0.36410986,0.63601,0.61406052,-0.32780442,0.64015,0.58795192,-0.34542119,0.634659,0.56225549,-0.30133999,0.62458,0.53852765,-0.26356321,0.620161,0.53317116,-0.23616618,0.6188,0.58394941,-0.26262704,0.641202,0.58357471,-0.22669777,0.636854,0.58208487,-0.22336886,0.634681,0.59733714,-0.22652051,0.650774,0.61150554,-0.26506552,0.644094,0.60887178,-0.22141351,0.64002,0.6073358,-0.19595202,0.637644,0.61876878,-0.18144033,0.649091,0.6342793,-0.26854192,0.646029,0.62660724,-0.22864917,0.641439,0.62674405,-0.2186796,0.639091,0.62753247,-0.2251119,0.636957,0.66225754,-0.27662093,0.647497,0.66356552,-0.24383204,0.643221,0.66461424,-0.23126873,0.641256,0.67982449,-0.22462828,0.653184
0.5867844,-0.37053307,0.634591,0.58805028,-0.32986548,0.64026,0.55871751,-0.34821098,0.629904,0.5539242,-0.29039137,0.616378,0.53504154,-0.24563199,0.604243,0.54172068,-0.2198444,0.602135,0.55637744,-0.26299683,0.638003,0.54994122,-0.23112424,0.631766,0.54670449,-0.21462878,0.628648,0.55900721,-0.20487828,0.643373,0.58725095,-0.26947698,0.645659,0.58665342,-0.2278211,0.642899,0.58703734,-0.20339182,0.641289,0.5891556,-0.18907447,0.640139,0.6126832,-0.27613668,0.651352,0.59852624,-0.23565484,0.646484,0.59905772,-0.21946506,0.643993,0.60482634,-0.22208846,0.641729,0.64348527,-0.28767461,0.656895,0.63855588,-0.27689261,0.651522,0.63631518,-0.2905319,0.649053,0.64730501,-0.30872102,0.660098
0.58129125,-0.37590573,0.632613,0.57435708,-0.3383096,0.63729,0.55534621,-0.35733848,0.630893,0.52526572,-0.31355067,0.628105,0.50293817,-0.29041983,0.635998,0.49908063,-0.28288827,0.646312,0.54337087,-0.27047377,0.638225,0.54043456,-0.23484845,0.634532,0.53959074,-0.21823771,0.632685,0.55421229,-0.20885398,0.64889,0.57090563,-0.27436846,0.641744,0.58109867,-0.24721397,0.661861,0.58702287,-0.23127257,0.673596,0.59428675,-0.21764146,0.681978,0.59347746,-0.27904475,0.644138,0.58284999,-0.23828706,0.640252,0.58454642,-0.22088804,0.638265,0.58649618,-0.22012238,0.636457,0.62084507,-0.28857227,0.646037,0.61495199,-0.28385714,0.640813,0.61407502,-0.2976116,0.638413,0.62654153,-0.31632171,0.650044
0.57090187,-0.36354021,0.620849,0.55720218,-0.33199923,0.633183,0.54212827,-0.35322424,0.623689,0.51688772,-0.31640733,0.631322,0.484463,-0.29229016,0.631675,0.47508549,-0.27634396,0.639321,0.52137103,-0.27498733,0.645257,0.5085428,-0.24714562,0.650611,0.5015959,-0.23266529,0.653288,0.50724926,-0.22468997,0.671688,0.54534453,-0.27008862,0.64493,0.53707725,-0.23639881,0.654904,0.53221839,-0.21666292,0.660723,0.52806789,-0.20155965,0.664879,0.56473515,-0.26707724,0.643332,0.55285833,-0.23305065,0.648573,0.54682978,-0.21574778,0.651254,0.54083875,-0.19906259,0.653692,0.58818122,-0.2665175,0.639158,0.58878239,-0.24241405,0.646878,0.58908897,-0.2314671,0.650425,0.58890179,-0.22169492,0.653555
0.55818236,-0.37048009,0.621801,0.55775119,-0.33543935,0.634983,0.53903922,-0.35680522,0.628499,0.51306772,-0.32426564,0.637037,0.48853289,-0.2999859,0.642722,0.48568534,-0.28962239,0.654649,0.53585389,-0.28193395,0.652658,0.53044007,-0.26041206,0.666306,0.52614722,-0.24850427,0.67313,0.53231109,-0.24215039,0.692565,0.55575957,-0.27535136,0.647537,0.56093362,-0.2472168,0.666129,0.56472078,-0.23088498,0.676975,0.56560001,-0.21703598,0.684722,0.57139599,-0.27091745,0.641899,0.56902635,-0.24408602,0.654612,0.56781328,-0.22891967,0.661116,0.564608,-0.21510313,0.667029,0.58761069,-0.27056279,0.632878,0.58409509,-0.24512372,0.639342,0.58392513,-0.23408845,0.643874,0.5837764,-0.22205814,0.647872
0.56462423,-0.36777345,0.621372,0.56681565,-0.33801156,0.632948,0.54343434,-0.3553566,0.627816,0.52103454,-0.32092037,0.6311,0.49365579,-0.29335203,0.633609,0.4949685,-0.28262667,0.648322,0.54142023,-0.27804449,0.649202,0.53876588,-0.25901178,0.664658,0.53517939,-0.24740252,0.672386,0.54162873,-0.24103102,0.691987,0.56102115,-0.2727133,0.643973,0.56901739,-0.24561129,0.664076,0.57344384,-0.22940653,0.675803,0.57485444,-0.21566755,0.684179,0.5765537,-0.26944382,0.63842,0.56823472,-0.23688227,0.644813,0.56238804,-0.21903915,0.648084,0.5590451,-0.21157642,0.651057,0.59497997,-0.26883831,0.629799,0.59177148,-0.24351413,0.63672,0.59199329,-0.23259667,0.641716,0.59217872,-0.2229344,0.646124
0.58810796,-0.38647031,0.650032,0.5764286,-0.34208286,0.637362,0.56244909,-0.36631286,0.648953,0.53971044,-0.31474274,0.633853,0.52327627,-0.2809052,0.637826,0.5198558,-0.26269534,0.643377,0.5541144,-0.2669267,0.627354,0.56777704,-0.24818986,0.653293,0.57371701,-0.23693708,0.666263,0.57883671,-0.22605619,0.678054,0.57561672,-0.26873171,0.625295,0.54849764,-0.24139616,0.603524,0.5712702,-0.2734761,0.62911,0.5884354,-0.29671304,0.645016,0.59484908,-0.27246603,0.624965,0.57114259,-0.24689788,0.606465,0.56512158,-0.25740576,0.596999,0.58042065,-0.28035332,0.608084,0.62116781,-0.28236958,0.626964,0.59333197,-0.25689778,0.609285,0.58723083,-0.26168991,0.601161,0.59981043,-0.27697765,0.608819
0.5754838,-0.37993826,0.630139,0.59769805,-0.34433313,0.632375,0.57140556,-0.36098301,0.629827,0.55852205,-0.31676761,0.632103,0.54213073,-0.28132814,0.634092,0.54089921,-0.26307448,0.641164,0.58132007,-0.27364142,0.633485,0.59766156,-0.25581368,0.6565,0.60521173,-0.24654042,0.668008,0.61471564,-0.25276258,0.67847,0.60638269,-0.27770138,0.634504,0.60541321,-0.23384407,0.628616,0.60417702,-0.2086237,0.625181,0.62010294,-0.19809631,0.641127,0.62712382,-0.28263363,0.635102,0.61518351,-0.240894,0.629379,0.60925372,-0.22002012,0.626451,0.60381962,-0.20075987,0.62379,0.65243397,-0.29276321,0.635376,0.64167602,-0.26376385,0.631308,0.6377334,-0.25006331,0.629439,0.64888948,-0.24538361,0.641511
0.56491164,-0.36983068,0.624426,0.58283338,-0.32731327,0.63407,0.55608221,-0.3405384,0.629582,0.55274082,-0.29317248,0.638815,0.54292603,-0.25467823,0.641198,0.54829819,-0.23305033,0.648651,0.59117392,-0.25278139,0.647334,0.5937136,-0.2112057,0.651926,0.59496961,-0.1900795,0.654221,0.59610448,-0.17067727,0.656308,0.61046202,-0.2571096,0.643254,0.6185932,-0.21010667,0.646725,0.62238836,-0.18140503,0.648749,0.6251229,-0.16053469,0.650195,0.6253066,-0.26152791,0.638855,0.63270569,-0.2208109,0.642065,0.63648649,-0.20002313,0.643707,0.6420437,-0.18175182,0.64734,0.64159467,-0.27002744,0.631937,0.65490512,-0.24059612,0.634875,0.66014216,-0.22421834,0.636225,0.66360057,-0.21025399,0.637416
0.55868728,-0.37337195,0.626129,0.56680565,-0.33845958,0.632656,0.54276967,-0.3565271,0.62989,0.54167385,-0.29855878,0.627484,0.53880262,-0.25569122,0.625449,0.54917532,-0.23725834,0.63571,0.58133151,-0.26988409,0.641986,0.59352529,-0.22821951,0.641048,0.59977549,-0.2069022,0.640579,0.59655342,-0.19405352,0.640153,0.60041888,-0.2753554,0.638872,0.60539963,-0.226145,0.638524,0.60835878,-0.19694248,0.638321,0.61025506,-0.17737447,0.639074,0.61543324,-0.2807735,0.635604,0.61468309,-0.23803165,0.635982,0.61416523,-0.21597082,0.636176,0.61422642,-0.20231072,0.636352,0.63229982,-0.29049004,0.630584,0.63819807,-0.26190509,0.629807,0.63666299,-0.24848627,0.629451,0.6333395,-0.24775506,0.629136
0.57124031,-0.37827962,0.628994,0.59225086,-0.35910784,0.646914,0.55053387,-0.36107261,0.63371,0.55620986,-0.31892581,0.637233,0.55451078,-0.27955424,0.644863,0.55896647,-0.25728355,0.65487,0.58656805,-0.30132524,0.665225,0.59342404,-0.27380382,0.67637,0.5967061,-0.25844808,0.681942,0.59590822,-0.26400449,0.687008,0.60956751,-0.30286507,0.663981,0.61656582,-0.25952967,0.676732,0.62568524,-0.23465212,0.689887,0.6324305,-0.21596971,0.699648,0.6269832,-0.30430328,0.661025,0.63261221,-0.2898352,0.672231,0.63518769,-0.28123876,0.677964,0.64656022,-0.30151292,0.697252,0.64575307,-0.30770162,0.654225,0.65797577,-0.27439566,0.662244,0.66055714,-0.26379627,0.665928,0.66002383,-0.26793032,0.669179
0.56311498,-0.37665891,0.626424,0.57959406,-0.35833626,0.645649,0.54577613,-0.3595517,0.631656,0.54324055,-0.31748103,0.636465,0.54034883,-0.27837705,0.641281,0.54461868,-0.25608866,0.651105,0.57474658,-0.30198868,0.665517,0.57847872,-0.26957131,0.678297,0.58062853,-0.25452329,0.684686,0.5830328,-0.24289913,0.690496,0.59736601,-0.30290385,0.663958,0.60575933,-0.26134897,0.678356,0.61071958,-0.23513609,0.687049,0.61423032,-0.21543404,0.693329,0.61436657,-0.30375443,0.660603,0.62095324,-0.28997761,0.673333,0.62399239,-0.28169592,0.679845,0.63702955,-0.30229166,0.699314,0.63246234,-0.30630792,0.653095,0.64719418,-0.27366493,0.662435,0.64972093,-0.26391489,0.666726,0.6486015,-0.26851858,0.670513
0.56242715,-0.37405166,0.625228,0.56412775,-0.34315096,0.636808,0.54358089,-0.35886707,0.629735,0.50519927,-0.3246138,0.630293,0.47431647,-0.29876261,0.631386,0.47098661,-0.27294259,0.6338,0.53375308,-0.29052161,0.650541,0.51633137,-0.25534102,0.655795,0.50645889,-0.23591447,0.658422,0.49909016,-0.22095104,0.66081,0.5548588,-0.28416274,0.647836,0.53874511,-0.24200112,0.653288,0.52881833,-0.21618565,0.656468,0.52227522,-0.20124,0.65874,0.57168625,-0.279343,0.644361,0.55738954,-0.24306004,0.649518,0.54987865,-0.2240927,0.652157,0.55744189,-0.21421995,0.670528,0.59224066,-0.27416293,0.63815,0.58515647,-0.24295756,0.641798,0.58345042,-0.22854168,0.644749,0.58181631,-0.21726902,0.647352
0.56311775,-0.37550944,0.626007,0.56624208,-0.34289685,0.634688,0.54670418,-0.36156707,0.633012,0.51499705,-0.32441994,0.636026,0.49786255,-0.2980804,0.641523,0.49650638,-0.29210131,0.655588,0.54606995,-0.29169503,0.649707,0.52820751,-0.25639157,0.6542,0.51904282,-0.23832849,0.656447,0.51078536,-0.22166489,0.658489,0.56380327,-0.28565696,0.642956,0.55198528,-0.2399403,0.645941,0.54217712,-0.21499617,0.647682,0.53643566,-0.19849178,0.648926,0.57779419,-0.28125334,0.636461,0.56346085,-0.2451599,0.640807,0.55580558,-0.22602337,0.643031,0.56482805,-0.21406009,0.660908,0.59465065,-0.27821018,0.62729,0.5799264,-0.24892317,0.629021,0.57294667,-0.23511616,0.629817,0.56666632,-0.2227376,0.630519
0.56307896,-0.37905838,0.625985,0.57052859,-0.35693557,0.63411,0.54500202,-0.36062165,0.629923,0.52828852,-0.31716557,0.628356,0.51804844,-0.28700493,0.637416,0.51970813,-0.27477544,0.648941,0.56320093,-0.29110336,0.644757,0.56215091,-0.24964133,0.646797,0.56159315,-0.2284204,0.647817,0.56202004,-0.20903253,0.648744,0.58396351,-0.29634579,0.641849,0.59104337,-0.24893319,0.643305,0.59651565,-0.22157936,0.644154,0.60128016,-0.2042985,0.644761,0.60016474,-0.30126734,0.638578,0.61328403,-0.28445413,0.640462,0.61629401,-0.30656859,0.641426,0.63232249,-0.33633586,0.659137,0.61876038,-0.30973004,0.633255,0.61625491,-0.27704191,0.633031,0.61506182,-0.26142719,0.632928,0.61306608,-0.25039382,0.632837
0.54783183,-0.3620904,0.613238,0.57609497,-0.34149616,0.636148,0.53754974,-0.33621151,0.619832,0.55352872,-0.28872864,0.628235,0.57310714,-0.25163187,0.635974,0.58975515,-0.23269605,0.64433,0.60500882,-0.29467126,0.66029,0.63625989,-0.26279048,0.677697,0.65262213,-0.24520192,0.686493,0.66795564,-0.22826547,0.694504,0.62333106,-0.30584969,0.657966,0.66378679,-0.26881691,0.677063,0.68009012,-0.26614376,0.688203,0.68527972,-0.28586445,0.699819,0.63579988,-0.31469234,0.653583,0.66968902,-0.29898004,0.670626,0.6751723,-0.321735,0.679345,0.68908164,-0.35214289,0.69918,0.64624834,-0.32585265,0.644189,0.66736009,-0.29707145,0.65729,0.67745777,-0.28305811,0.66331,0.68649537,-0.27015273,0.668621
0.54713932,-0.36046567,0.613173,0.5769724,-0.33810967,0.63481,0.53880106,-0.3300145,0.617811,0.52907448,-0.28212383,0.62299,0.52917513,-0.23938863,0.62409,0.53197605,-0.21425093,0.628008,0.60396903,-0.28398247,0.655542,0.63934827,-0.25796121,0.671266,0.65817666,-0.24324185,0.679171,0.67610951,-0.22881062,0.686481,0.62329878,-0.29796249,0.655416,0.66926217,-0.26661493,0.672562,0.69712044,-0.24703268,0.682564,0.70641303,-0.24745135,0.689708,0.63595633,-0.31182857,0.65298,0.6698068,-0.29718205,0.667652,0.67391497,-0.31974515,0.675158,0.68706911,-0.34990792,0.694686,0.64825666,-0.3252389,0.646086,0.66931949,-0.29597306,0.657233,0.68219493,-0.28077926,0.662354,0.68833139,-0.26863444,0.666874
0.56619163,-0.37283632,0.629387,0.58544806,-0.33503716,0.638937,0.5500385,-0.3414065,0.632014,0.53857115,-0.2949785,0.629209,0.53307844,-0.25666883,0.63392,0.53601666,-0.23745762,0.642083,0.58440125,-0.27121774,0.648843,0.59063012,-0.23357745,0.651249,0.59387013,-0.21356283,0.652452,0.59689304,-0.1946251,0.653545,0.60651564,-0.27851837,0.648033,0.62403393,-0.23350791,0.650743,0.63436605,-0.20690349,0.652324,0.64061166,-0.19205055,0.653453,0.62372234,-0.28512945,0.646336,0.63692788,-0.26813542,0.648039,0.63991875,-0.2878256,0.648911,0.65924312,-0.31452635,0.666547,0.643054,-0.29557511,0.642571,0.6508574,-0.25994203,0.643429,0.654476,-0.24339618,0.643823,0.65768702,-0.22870515,0.644171
0.59784644,-0.39589241,0.623929,0.59784339,-0.36338637,0.632889,0.57127677,-0.37663857,0.624619,0.54374501,-0.33924616,0.629422,0.52063636,-0.30464056,0.630887,0.51326861,-0.28692803,0.637395,0.56524575,-0.30103266,0.639871,0.55901797,-0.26809167,0.64088,0.55566696,-0.25050645,0.641385,0.5524714,-0.23381969,0.641844,0.59090403,-0.30158779,0.641421,0.59026368,-0.25187025,0.643293,0.59365131,-0.22919168,0.649834,0.59787492,-0.2160873,0.654507,0.61165206,-0.3026328,0.641733,0.61824415,-0.28611854,0.643877,0.63080552,-0.30499093,0.644974,0.65540248,-0.33255014,0.662772,0.6367606,-0.30621899,0.64041,0.63001509,-0.27051248,0.640528,0.62689508,-0.25399959,0.640582,0.62413161,-0.23937313,0.64063
0.56440918,-0.3809208,0.623931,0.57482089,-0.35372183,0.634928,0.54113676,-0.36129268,0.624133,0.51851995,-0.33142561,0.629923,0.49196496,-0.29864393,0.630591,0.48555277,-0.27060437,0.629831,0.54767296,-0.28988507,0.642657,0.53639622,-0.25744866,0.64478,0.53100519,-0.24091026,0.645841,0.52811834,-0.22810079,0.646805,0.57406366,-0.2900391,0.645401,0.57282137,-0.24402775,0.649713,0.57205681,-0.21680611,0.652229,0.57526957,-0.2039481,0.654026,0.59536495,-0.29069577,0.646475,0.60097655,-0.2770209,0.65125,0.61337224,-0.29853927,0.653693,0.63385737,-0.32157581,0.672003,0.62084734,-0.29375431,0.645654,0.61254265,-0.26132816,0.648073,0.60880347,-0.24667197,0.649184,0.60554306,-0.23386333,0.650164
0.56203716,-0.37787448,0.622796,0.56191472,-0.34594815,0.635261,0.54000428,-0.36282921,0.625864,0.50836496,-0.32993914,0.632494,0.47695956,-0.29789852,0.631358,0.47010518,-0.26836651,0.627091,0.53246532,-0.28862637,0.647721,0.51609696,-0.2536206,0.653222,0.50761962,-0.23559159,0.655973,0.4997691,-0.21895387,0.658474,0.55538704,-0.28424394,0.647133,0.54135684,-0.24175938,0.653236,0.53629645,-0.21576559,0.656796,0.53047686,-0.19843957,0.659339,0.57371152,-0.28106063,0.645305,0.56072739,-0.24413893,0.650673,0.55389356,-0.22481223,0.65342,0.56151024,-0.21328397,0.671841,0.59676794,-0.28191696,0.64084,0.58840561,-0.24599651,0.644683,0.58502749,-0.23064701,0.646448,0.58149005,-0.21727383,0.648006
0.56124663,-0.37591015,0.61964,0.57091936,-0.35197469,0.631888,0.54181647,-0.3650203,0.623859,0.5166935,-0.32814756,0.624289,0.49015013,-0.29358323,0.62209,0.48182063,-0.2722523,0.627164,0.54269278,-0.29797104,0.645699,0.52560791,-0.29227021,0.651516,0.51599288,-0.28901042,0.654424,0.50656243,-0.28578391,0.657068,0.56300423,-0.28786988,0.643552,0.54258743,-0.25193187,0.649682,0.53148671,-0.22992708,0.653257,0.52240685,-0.22057985,0.655811,0.5791625,-0.28319074,0.640464,0.5661191,-0.2474094,0.645965,0.55909543,-0.22835898,0.64878,0.55071615,-0.20885978,0.651338,0.59312453,-0.27828928,0.634578,0.58652254,-0.25033851,0.637735,0.5803942,-0.23693683,0.639185,0.57460373,-0.2251362,0.640465
0.58905488,-0.39015769,0.630935,0.58548028,-0.35570283,0.640876,0.56237689,-0.37332736,0.631135,0.5316601,-0.32549368,0.625316,0.50137898,-0.29033278,0.621715,0.4852048,-0.26978192,0.624813,0.55091099,-0.30127675,0.647886,0.54090567,-0.28306925,0.648657,0.53572753,-0.27572526,0.649043,0.53094449,-0.2703128,0.649393,0.57626672,-0.29780148,0.650343,0.55927237,-0.25526775,0.653022,0.54933393,-0.23011541,0.654584,0.54468938,-0.21668434,0.6557,0.59696336,-0.29534788,0.651296,0.5849586,-0.25962617,0.653151,0.57848704,-0.24047087,0.6541,0.5723996,-0.22251149,0.654963,0.62393688,-0.29511458,0.650533,0.6023278,-0.28317687,0.650188,0.59257224,-0.27777454,0.65003,0.58365217,-0.27283451,0.64989
0.59437504,-0.37649776,0.631808,0.5970155,-0.34336595,0.650634,0.57092284,-0.36736943,0.637319,0.55282418,-0.31949636,0.642329,0.53372887,-0.28160163,0.643384,0.52626076,-0.2605268,0.650594,0.5632803,-0.30128758,0.670596,0.56068083,-0.2936629,0.683483,0.5685138,-0.29515504,0.689927,0.57658379,-0.30219356,0.697938,0.58307244,-0.29118508,0.668565,0.57872516,-0.28321972,0.682565,0.5875336,-0.29456839,0.690732,0.61109008,-0.31570279,0.710204,0.59835158,-0.28282921,0.664863,0.59250201,-0.2774106,0.677386,0.58849024,-0.27399693,0.683806,0.58429913,-0.27053008,0.6898,0.6160144,-0.27384691,0.657027,0.60815386,-0.27060674,0.666157,0.60385267,-0.26882211,0.670351,0.59966448,-0.26707882,0.674052
0.58083836,-0.37226885,0.626324,0.58820769,-0.3339778,0.637101,0.55950241,-0.34668689,0.628502,0.5330165,-0.29927368,0.625591,0.51651191,-0.25398262,0.612714,0.51393961,-0.2256428,0.611901,0.57733006,-0.26107611,0.647254,0.59366037,-0.23407923,0.671374,0.60179162,-0.22034653,0.683433,0.60916255,-0.2076098,0.694397,0.60195319,-0.26432473,0.647363,0.60281333,-0.21901303,0.651362,0.60440354,-0.19238843,0.653694,0.62164452,-0.18516565,0.67178,0.62141071,-0.26772011,0.646292,0.62502267,-0.22792526,0.649915,0.62686954,-0.20774389,0.651768,0.62869574,-0.18858452,0.653454,0.64388595,-0.27459059,0.643023,0.65046806,-0.24187101,0.646094,0.6538993,-0.22525264,0.647506,0.6569828,-0.21040095,0.648751
0.57184682,-0.37193216,0.620752,0.58235394,-0.33359419,0.633085,0.55527238,-0.34485713,0.624732,0.5338762,-0.29906597,0.624872,0.51956169,-0.25391227,0.614651,0.5189151,-0.22721774,0.61591,0.5774786,-0.26638234,0.646644,0.57859887,-0.22583313,0.652429,0.57908485,-0.2058834,0.655322,0.5795535,-0.18848048,0.657951,0.60002526,-0.26923717,0.644831,0.60398859,-0.22484817,0.650997,0.60630699,-0.19909636,0.654595,0.61416044,-0.18151056,0.66394,0.61751161,-0.27221299,0.642008,0.62162969,-0.23159658,0.647642,0.62372935,-0.21059174,0.650524,0.62702947,-0.18991728,0.653145,0.63712833,-0.2784281,0.636414,0.6455371,-0.24661361,0.639869,0.64737265,-0.24016747,0.641456,0.6490029,-0.23415175,0.642856
0.58402768,-0.38618813,0.624499,0.58599488,-0.35122991,0.634444,0.55780974,-0.3656948,0.624193,0.52714097,-0.32031257,0.617735,0.50281309,-0.27591691,0.60628,0.49381807,-0.25142444,0.60844,0.55538684,-0.2776911,0.640797,0.55954366,-0.23588379,0.644125,0.56181313,-0.21582853,0.645788,0.56390575,-0.19688541,0.647301,0.58294659,-0.27922813,0.643915,0.57401695,-0.23259852,0.646516,0.56876454,-0.20521835,0.648032,0.56687657,-0.18619876,0.651278,0.6051772,-0.28126739,0.645411,0.61694342,-0.24828894,0.66,0.62296234,-0.23139848,0.667464,0.6284332,-0.21603341,0.674249,0.63179289,-0.2865863,0.645278,0.62911346,-0.25639095,0.646875,0.63189126,-0.24799755,0.647609,0.63443035,-0.24022278,0.648257
0.56796749,-0.3793437,0.615345,0.57162112,-0.35174945,0.630596,0.54451385,-0.36354999,0.618401,0.51768235,-0.32490117,0.618527,0.49460572,-0.28737362,0.615668,0.48873086,-0.26791959,0.623031,0.54447217,-0.29382593,0.64493,0.55150417,-0.25597281,0.653389,0.5549111,-0.23617039,0.657618,0.55800732,-0.2179802,0.661463,0.56950154,-0.29330525,0.645119,0.56470852,-0.25097552,0.654407,0.56188606,-0.22619068,0.659824,0.55985927,-0.20844694,0.663694,0.58905369,-0.29324811,0.643632,0.58480913,-0.25683907,0.651772,0.58418013,-0.23429582,0.655937,0.58253616,-0.21557923,0.659723,0.61158574,-0.29521686,0.639039,0.61165467,-0.26219021,0.645521,0.61168055,-0.24697762,0.6485,0.61169856,-0.23353438,0.651127
0.56149127,-0.39264785,0.60795,0.5680092,-0.37384834,0.625053,0.53714771,-0.38481791,0.611026,0.51222511,-0.34161394,0.612,0.48819991,-0.30441431,0.610088,0.48465154,-0.28204705,0.616075,0.54083724,-0.31102057,0.640671,0.54971388,-0.27419099,0.651303,0.55404843,-0.25489429,0.656619,0.55798727,-0.23708953,0.661452,0.56616718,-0.31085819,0.641341,0.56331064,-0.26954225,0.652782,0.56157103,-0.24517596,0.659456,0.56029602,-0.22765438,0.664223,0.58580712,-0.31097183,0.640049,0.5843956,-0.27350127,0.650013,0.58352471,-0.25373228,0.655111,0.5826446,-0.23540693,0.659745,0.60810775,-0.31295694,0.635334,0.60985031,-0.28077864,0.643503,0.61063217,-0.2658787,0.647257,0.61131169,-0.25267198,0.650569
0.56136156,-0.3958578,0.609713,0.56371194,-0.37062057,0.623921,0.53406489,-0.37545112,0.609539,0.50756391,-0.3304678,0.605084,0.47710765,-0.30107914,0.605372,0.4781637,-0.27930224,0.612355,0.52572517,-0.29877561,0.633343,0.50956907,-0.26276758,0.638318,0.50220931,-0.24402287,0.640805,0.49726386,-0.22643875,0.643066,0.55368511,-0.30125595,0.637453,0.54884055,-0.25704197,0.644977,0.54657398,-0.23040941,0.649366,0.54360758,-0.21328869,0.652501,0.57580709,-0.30376603,0.639306,0.5811653,-0.26416751,0.646904,0.5838938,-0.24354201,0.650791,0.58636724,-0.22457723,0.654325,0.60158528,-0.30902527,0.638786,0.60830011,-0.27543923,0.645508,0.61138645,-0.25985486,0.648596,0.61306372,-0.24949717,0.651321
0.57266788,-0.39029624,0.6186,0.57160075,-0.35762889,0.632141,0.54467889,-0.37117296,0.619682,0.50797658,-0.32904609,0.616506,0.48353807,-0.30011609,0.621087,0.47841504,-0.27656218,0.626495,0.53259273,-0.29587856,0.642743,0.52177995,-0.25885541,0.648243,0.51606414,-0.23954923,0.650992,0.50885181,-0.22698962,0.653492,0.5589697,-0.29425477,0.645036,0.54631242,-0.25338559,0.651979,0.54195481,-0.23078208,0.656028,0.54814309,-0.21858233,0.671853,0.58005876,-0.29334164,0.645465,0.58517159,-0.25566115,0.652284,0.58574762,-0.23285967,0.655773,0.58576964,-0.21347001,0.658945,0.60514801,-0.2943321,0.643418,0.60240923,-0.26886806,0.655952,0.60118187,-0.25723468,0.661711,0.60011398,-0.24700299,0.666792
0.56494989,-0.39609799,0.614105,0.57455531,-0.36694592,0.628955,0.53853904,-0.36808609,0.610057,0.53319588,-0.31534137,0.601366,0.5063416,-0.29232034,0.6089,0.50820152,-0.26626109,0.610778,0.55183788,-0.28913418,0.633767,0.5512235,-0.24799047,0.63725,0.55259417,-0.22692841,0.638991,0.55746161,-0.20832264,0.640574,0.58121872,-0.30117461,0.643099,0.59040351,-0.25705577,0.651062,0.60043499,-0.23293391,0.660842,0.60761518,-0.21535292,0.667828,0.60415609,-0.31154567,0.649183,0.63402982,-0.30479619,0.653141,0.65051935,-0.33716681,0.672457,0.65434428,-0.36186777,0.678576,0.62981068,-0.32625568,0.653454,0.63574296,-0.29144158,0.656946,0.6384807,-0.27528055,0.658551,0.6429592,-0.26177133,0.662085
0.56842615,-0.39370562,0.616121,0.57972217,-0.35929515,0.62786,0.54487114,-0.36177965,0.61404,0.55881202,-0.31059292,0.606172,0.53778389,-0.27837175,0.609808,0.54418011,-0.25148689,0.607751,0.57139296,-0.28846876,0.633121,0.58796041,-0.25263102,0.633867,0.59665697,-0.23377247,0.63424,0.60481653,-0.21604828,0.634578,0.59754944,-0.3015527,0.63904,0.62479633,-0.2851404,0.643469,0.64512114,-0.32464752,0.670125,0.65229012,-0.34965293,0.689164,0.61798201,-0.31283061,0.642649,0.64245126,-0.30084763,0.644527,0.66448021,-0.33166599,0.665358,0.67233461,-0.35585898,0.672921,0.64074518,-0.32865454,0.644632,0.64796254,-0.3141214,0.644987,0.64168231,-0.32642522,0.64515,0.6481653,-0.34402473,0.657645
0.5659187,-0.35928734,0.615704,0.57812165,-0.32944008,0.628229,0.5451065,-0.33441132,0.615086,0.55147575,-0.27489188,0.609337,0.51965958,-0.24387632,0.60447,0.5285243,-0.22062339,0.60949,0.56847993,-0.26213766,0.635928,0.58387218,-0.22269027,0.641034,0.59285899,-0.20266533,0.643587,0.60149179,-0.18414983,0.645908,0.5952385,-0.27336214,0.640158,0.61066153,-0.22912208,0.645669,0.62242684,-0.20228249,0.648884,0.64822902,-0.19413141,0.666899,0.61569134,-0.28291395,0.64229,0.61596409,-0.24667798,0.645602,0.64588781,-0.24405909,0.666708,0.66037726,-0.25343454,0.673803,0.63857,-0.29648385,0.642412,0.65767791,-0.26578118,0.646348,0.66761748,-0.25170611,0.648157,0.68864542,-0.24463204,0.661633
0.55078392,-0.35048916,0.610654,0.56089371,-0.3233835,0.62295,0.53023308,-0.32328542,0.608273,0.52289759,-0.27854462,0.614684,0.51275338,-0.24703365,0.620904,0.52665263,-0.22649403,0.622471,0.55217147,-0.25863304,0.628198,0.56450478,-0.22146838,0.630974,0.57098508,-0.20167159,0.632362,0.57707148,-0.1829192,0.633624,0.58013179,-0.27035896,0.63466,0.59448933,-0.2264026,0.639706,0.60548621,-0.19967531,0.64265,0.62976911,-0.19176419,0.660206,0.60053065,-0.27943156,0.638657,0.60040335,-0.24283935,0.640913,0.63001905,-0.24212919,0.661542,0.64381644,-0.25151613,0.668873,0.62712994,-0.29491528,0.640985,0.64618226,-0.2647599,0.644994,0.65587335,-0.25087781,0.646837,0.67611336,-0.24378304,0.660065
0.53791104,-0.3432437,0.598657,0.56260754,-0.3261055,0.625006,0.5213246,-0.31935164,0.600247,0.54966791,-0.28303355,0.616008,0.57447306,-0.24906367,0.624954,0.59763013,-0.23351767,0.637818,0.56718844,-0.27762109,0.644968,0.59632384,-0.25102004,0.661869,0.61167774,-0.2358547,0.67032,0.62620282,-0.22091172,0.678078,0.5940108,-0.28896595,0.6501,0.63172553,-0.25377295,0.672527,0.6462788,-0.27180398,0.685609,0.6581679,-0.30205058,0.704896,0.61371165,-0.29798534,0.651487,0.64075055,-0.26339706,0.669246,0.66750794,-0.26375615,0.687214,0.67099809,-0.27899669,0.687646,0.63321602,-0.30931772,0.648144,0.66182406,-0.28517463,0.662435,0.65559751,-0.29177178,0.669001,0.65751,-0.30137668,0.683025
0.56321285,-0.3893414,0.619037,0.55881092,-0.35332543,0.626288,0.53696369,-0.36762482,0.619284,0.51167473,-0.31438896,0.616475,0.48808598,-0.2750019,0.612841,0.47938753,-0.25519219,0.617656,0.54001714,-0.27317783,0.631532,0.54221555,-0.23077536,0.630949,0.54335024,-0.20902652,0.630658,0.54440239,-0.18892643,0.630393,0.56428313,-0.28074111,0.633193,0.57835475,-0.23432948,0.633008,0.58332215,-0.24067637,0.6329,0.59520801,-0.26778414,0.650132,0.58176922,-0.28828665,0.633778,0.58544813,-0.24750133,0.63276,0.58651725,-0.22601538,0.632239,0.58752762,-0.20594932,0.631765,0.60568505,-0.2994474,0.633096,0.60697218,-0.29321277,0.630622,0.62176421,-0.31884374,0.647533,0.62751607,-0.33836768,0.65496
0.56283007,-0.39656291,0.621551,0.55026958,-0.36094947,0.631251,0.52830139,-0.37001868,0.624162,0.50523851,-0.33175402,0.626335,0.47675417,-0.29219001,0.619782,0.46688744,-0.27447919,0.626032,0.52138604,-0.28918996,0.641238,0.51095957,-0.24904276,0.643761,0.50563221,-0.22859038,0.645023,0.5007208,-0.20977411,0.646169,0.54463599,-0.29114032,0.640489,0.54087546,-0.24429667,0.643372,0.54048575,-0.21633901,0.645054,0.54017559,-0.19587006,0.646255,0.56288976,-0.29344354,0.638828,0.57624129,-0.25502123,0.64115,0.58334906,-0.23439676,0.642338,0.5941553,-0.21240846,0.643417,0.58428236,-0.29893293,0.635075,0.5887589,-0.29356434,0.635498,0.6083673,-0.31828783,0.652438,0.61788588,-0.33667224,0.658857
0.56248106,-0.3976184,0.62335,0.55093285,-0.3613229,0.632087,0.52952188,-0.37302537,0.626425,0.49871018,-0.33396305,0.625337,0.46993099,-0.29978996,0.623612,0.45996741,-0.28452248,0.631255,0.52183379,-0.28908734,0.642022,0.51106819,-0.24854325,0.643967,0.50557398,-0.22789627,0.64494,0.50051297,-0.20890523,0.645824,0.5443586,-0.29068568,0.640407,0.53994071,-0.24335786,0.642322,0.53923631,-0.21519613,0.643439,0.53870555,-0.19459811,0.644237,0.56204379,-0.29274425,0.638135,0.57451052,-0.2539063,0.639137,0.58115731,-0.23312608,0.63965,0.58999755,-0.21201095,0.640116,0.58287586,-0.2980343,0.633855,0.58727522,-0.29267955,0.633718,0.60689276,-0.31742256,0.650679,0.61659042,-0.33591525,0.657303
0.54767531,-0.38634449,0.607873,0.56054487,-0.3629629,0.625602,0.53148468,-0.37071733,0.618433,0.5124465,-0.34080312,0.630292,0.48616384,-0.30462247,0.627271,0.47796532,-0.29412195,0.636474,0.54866357,-0.31009503,0.651393,0.54719212,-0.2803773,0.667243,0.54645532,-0.26551724,0.675167,0.54578642,-0.2520082,0.682372,0.56559084,-0.30781672,0.642486,0.57068511,-0.26866845,0.656837,0.57452236,-0.24395301,0.665208,0.57722008,-0.22594727,0.671187,0.57757914,-0.3059821,0.633241,0.59328809,-0.268702,0.642568,0.6015042,-0.24859014,0.64734,0.60908299,-0.22967567,0.651679,0.58987961,-0.30523273,0.619177,0.59745076,-0.29505617,0.630016,0.61573414,-0.31686286,0.645319,0.621192,-0.33124132,0.647438
0.54570789,-0.38680266,0.605843,0.57198514,-0.36792457,0.625889,0.53919658,-0.37382147,0.615416,0.52539078,-0.33967934,0.626771,0.50511458,-0.30209257,0.625701,0.50303207,-0.28877703,0.636439,0.56835266,-0.3178915,0.651968,0.57849781,-0.29115884,0.67507,0.58351105,-0.27756693,0.686621,0.58803597,-0.26508668,0.697122,0.58609098,-0.31978464,0.64498,0.59983993,-0.28250281,0.661621,0.60929889,-0.25874086,0.671328,0.61606271,-0.2414318,0.678261,0.59845434,-0.32114484,0.637065,0.62352021,-0.28648186,0.649099,0.63663707,-0.26809165,0.655256,0.64821164,-0.24978142,0.660853,0.61045398,-0.32384471,0.62411,0.62385292,-0.3124296,0.636286,0.6411685,-0.33433473,0.65167,0.64485785,-0.34828935,0.65335
0.53922893,-0.34397697,0.604,0.56736688,-0.33082444,0.635885,0.53102185,-0.32630842,0.614496,0.55430771,-0.29409938,0.64158,0.58168343,-0.26462389,0.660787,0.60079665,-0.25334848,0.676627,0.59457143,-0.30039524,0.671206,0.62531953,-0.26969238,0.700344,0.64088038,-0.25268603,0.714913,0.65518996,-0.23621805,0.728158,0.61252037,-0.30454508,0.666251,0.6504573,-0.27102598,0.697593,0.67143822,-0.25374997,0.715875,0.68669741,-0.23972246,0.728934,0.62395934,-0.30705809,0.658736,0.65259907,-0.28805756,0.687218,0.66395749,-0.28104656,0.701791,0.66892046,-0.29712408,0.718261,0.63066859,-0.30842955,0.644018,0.65234456,-0.29357097,0.667179,0.66620775,-0.31234106,0.679658,0.66446729,-0.32285421,0.676346
0.54320422,-0.31415588,0.614336,0.58098332,-0.30963563,0.643477,0.5383631,-0.2994468,0.623716,0.55540297,-0.25997197,0.639245,0.56978858,-0.22506944,0.650901,0.58594108,-0.2063022,0.659736,0.60957799,-0.2811594,0.67548,0.64514419,-0.25532907,0.700778,0.66372178,-0.24024463,0.71346,0.68034396,-0.22577051,0.724988,0.62676769,-0.28947768,0.67123,0.67103914,-0.25763488,0.698724,0.69880229,-0.2359283,0.715304,0.71943124,-0.21880602,0.727245,0.6377425,-0.29551276,0.664589,0.67857519,-0.27559087,0.689516,0.70061651,-0.26328888,0.702269,0.72456796,-0.27507422,0.722176,0.64560343,-0.30223809,0.651403,0.67112255,-0.28289164,0.671403,0.68522927,-0.30121301,0.685029,0.68391586,-0.31187588,0.683274
0.58152941,-0.36447607,0.621243,0.58624981,-0.33168494,0.629437,0.56207896,-0.34514388,0.625957,0.54439904,-0.29815413,0.625498,0.51712197,-0.26490258,0.62475,0.51252646,-0.23965065,0.627418,0.56797249,-0.26855624,0.641141,0.5685236,-0.2272576,0.642465,0.5690223,-0.20631868,0.643126,0.56961876,-0.18708695,0.643728,0.58832026,-0.26954207,0.637241,0.59272943,-0.24793066,0.637723,0.61876462,-0.27244664,0.665229,0.62578402,-0.29585236,0.673689,0.60429469,-0.27101079,0.633147,0.60037366,-0.23155754,0.635573,0.5982607,-0.21067372,0.636815,0.61922808,-0.20765171,0.654589,0.62309001,-0.27533018,0.626854,0.61962196,-0.2515266,0.62705,0.63561653,-0.24757553,0.643902,0.64138746,-0.24009848,0.650368
0.57470789,-0.39503443,0.619873,0.58923115,-0.35793735,0.636031,0.55904795,-0.36746789,0.624041,0.54397759,-0.32109692,0.626045,0.51413462,-0.28403935,0.620451,0.51183844,-0.2600019,0.625035,0.56872333,-0.29240559,0.652432,0.566144,-0.25707639,0.662044,0.56486564,-0.23945281,0.66685,0.56371064,-0.22345473,0.67122,0.59215229,-0.29499679,0.651421,0.59376718,-0.25430892,0.662001,0.59526871,-0.23090083,0.668778,0.60981549,-0.21760778,0.688004,0.61057878,-0.29711267,0.648846,0.61747692,-0.25911074,0.658281,0.6213058,-0.23845707,0.663108,0.64157802,-0.23825112,0.682193,0.62878292,-0.30459419,0.642821,0.63359876,-0.26916908,0.649137,0.63542732,-0.25335434,0.652039,0.64822237,-0.24331383,0.666104
0.5652349,-0.38866756,0.613558,0.57337896,-0.35598367,0.634675,0.54127736,-0.36919838,0.615526,0.50980989,-0.33045027,0.61972,0.48462094,-0.29397066,0.61776,0.47782274,-0.26544635,0.616333,0.53994438,-0.30192141,0.651576,0.5398682,-0.27210822,0.664559,0.53935007,-0.25561527,0.67105,0.54174282,-0.24487663,0.676952,0.56697597,-0.30019222,0.654786,0.57124622,-0.25972943,0.671591,0.57355082,-0.23525274,0.681394,0.57638632,-0.21955793,0.688396,0.58791745,-0.29874191,0.655154,0.58610331,-0.2638849,0.667889,0.58478884,-0.24486618,0.674404,0.60248225,-0.2433155,0.693294,0.61157799,-0.29820087,0.651612,0.62404915,-0.2665038,0.664661,0.62978203,-0.25137712,0.670656,0.63484249,-0.23773431,0.675946
0.56244555,-0.39624438,0.623126,0.55550811,-0.3618951,0.633865,0.53777261,-0.37634227,0.624799,0.50569146,-0.33189093,0.621208,0.47852027,-0.29431928,0.620087,0.47067243,-0.27696046,0.627611,0.52734511,-0.2960772,0.643336,0.51537207,-0.25731504,0.646658,0.50926812,-0.23761197,0.648319,0.50362819,-0.2133439,0.649829,0.55003701,-0.29391431,0.644093,0.55045995,-0.24985734,0.648118,0.5488195,-0.22391037,0.650466,0.5481457,-0.20505805,0.652143,0.56868673,-0.29508732,0.643558,0.55764957,-0.25700245,0.646446,0.55095166,-0.23736791,0.647923,0.55916714,-0.22489203,0.665793,0.59652772,-0.29692242,0.64092,0.59561985,-0.26181346,0.64303,0.59516638,-0.24521942,0.644,0.5947456,-0.23032797,0.644855
0.55432427,-0.39609656,0.621891,0.54954686,-0.36256371,0.632938,0.52846954,-0.37507568,0.622119,0.49682587,-0.33477423,0.626098,0.47002308,-0.30894809,0.631416,0.47409728,-0.28112351,0.632671,0.51844253,-0.29436523,0.640737,0.5107239,-0.25561336,0.643753,0.5031302,-0.23481141,0.645261,0.49826995,-0.21604957,0.646632,0.54593661,-0.29415084,0.643459,0.53956901,-0.25073032,0.647459,0.53628741,-0.22374558,0.649792,0.53897912,-0.20631547,0.657623,0.56696577,-0.29720865,0.644511,0.55874698,-0.25798109,0.646963,0.55341241,-0.23748709,0.648218,0.56265525,-0.22411355,0.665819,0.59171842,-0.30347465,0.643655,0.59139052,-0.26871429,0.64556,0.59116474,-0.25188119,0.646435,0.59392283,-0.23402596,0.647208
0.5555945,-0.39726301,0.624213,0.55258419,-0.36125971,0.631039,0.53156791,-0.3775492,0.626027,0.51459285,-0.33659048,0.634075,0.49669733,-0.30505147,0.640932,0.49547739,-0.29154057,0.650466,0.53086684,-0.29695711,0.638036,0.52891257,-0.25961832,0.637516,0.52677752,-0.23940753,0.637255,0.52399938,-0.22186695,0.637019,0.55608733,-0.29836603,0.63754,0.54618615,-0.25564225,0.637045,0.54008459,-0.22925886,0.636756,0.53815751,-0.22643853,0.63655,0.57484091,-0.2991653,0.636395,0.56592594,-0.2581414,0.635949,0.56127034,-0.23670269,0.63572,0.55796626,-0.21733508,0.636635,0.59758657,-0.3027661,0.633783,0.58904508,-0.27028474,0.631609,0.58500321,-0.25479277,0.63061,0.58137151,-0.24080917,0.629728
0.5474344,-0.39498317,0.626803,0.55980763,-0.35696889,0.633232,0.53584587,-0.37899498,0.634618,0.53477623,-0.33041512,0.649461,0.53203138,-0.30493008,0.663415,0.53941969,-0.29331872,0.674346,0.56709984,-0.29308602,0.647777,0.55955758,-0.25366849,0.646798,0.55565354,-0.23318697,0.646308,0.55035906,-0.21543505,0.645863,0.58100045,-0.29005766,0.639356,0.56808123,-0.24766243,0.640185,0.56025058,-0.22133465,0.640668,0.55235474,-0.21846943,0.641014,0.59145289,-0.28926745,0.631729,0.5845584,-0.24866627,0.633389,0.57994841,-0.2281292,0.634238,0.57506369,-0.20971337,0.63501,0.60360124,-0.29048699,0.621667,0.59380689,-0.2586266,0.622137,0.58912906,-0.24343169,0.622353,0.58490367,-0.22971955,0.622543
0.58021376,-0.36932682,0.631997,0.58958647,-0.34021554,0.649888,0.56385917,-0.34995953,0.637784,0.56037243,-0.30672705,0.652101,0.56166465,-0.26907152,0.661974,0.57499827,-0.24353036,0.668614,0.59151074,-0.27812454,0.669574,0.59153865,-0.26695415,0.681548,0.59393722,-0.25985759,0.687536,0.59413496,-0.27634215,0.696016,0.6127719,-0.28016803,0.666927,0.61765206,-0.26691554,0.679909,0.61989105,-0.25757138,0.687482,0.63220651,-0.27948301,0.706825,0.63060322,-0.28293258,0.662819,0.63093182,-0.2451633,0.674624,0.63201416,-0.22575953,0.680664,0.63298708,-0.20752725,0.686155,0.64795548,-0.2870711,0.654688,0.64250271,-0.27755358,0.663161,0.64110362,-0.27542354,0.667055,0.63984213,-0.27494658,0.67049
0.58010534,-0.37478612,0.631674,0.59640183,-0.34082551,0.648626,0.56260835,-0.34917404,0.636651,0.5574656,-0.30540214,0.640098,0.5479878,-0.27021901,0.650678,0.54504674,-0.25151658,0.662845,0.59870199,-0.2769276,0.666619,0.60053108,-0.23987323,0.677396,0.6067824,-0.2209468,0.686516,0.61245793,-0.20289854,0.694807,0.62078172,-0.27999353,0.664771,0.62925554,-0.24039157,0.676461,0.63406064,-0.21477858,0.68328,0.65070458,-0.19947342,0.702504,0.63739066,-0.28289961,0.661422,0.64572348,-0.24440922,0.671953,0.6499361,-0.22351487,0.677341,0.6537968,-0.20380492,0.682304,0.65268368,-0.28798134,0.654348,0.6660706,-0.25457202,0.66251,0.67121709,-0.23850288,0.66626,0.67577716,-0.22408399,0.669569
0.58532194,-0.36931132,0.629698,0.59945289,-0.34003156,0.645641,0.5662837,-0.34883905,0.633325,0.55125335,-0.30432999,0.63451,0.53149635,-0.27233499,0.641116,0.52743702,-0.24746217,0.646556,0.58561214,-0.27664158,0.66119,0.59201122,-0.24214316,0.670445,0.59520212,-0.22349971,0.675072,0.59809264,-0.20559448,0.679315,0.60898177,-0.2783813,0.660825,0.61761663,-0.23410499,0.671035,0.62216339,-0.20651255,0.676991,0.62544177,-0.18594863,0.681245,0.62730218,-0.28076081,0.658807,0.63839305,-0.24906381,0.667626,0.64361816,-0.23166985,0.672137,0.64850047,-0.21482367,0.676323,0.64915549,-0.28633819,0.653467,0.65106769,-0.26562659,0.659375,0.652325,-0.25627997,0.662089,0.65325854,-0.24770546,0.6645
0.58593897,-0.37942865,0.633636,0.59839657,-0.3410494,0.645639,0.56410289,-0.35059411,0.635655,0.53983674,-0.31333525,0.635275,0.5183713,-0.27530659,0.634301,0.52181654,-0.24664608,0.627963,0.57437034,-0.27523751,0.656418,0.57493197,-0.24392088,0.660737,0.57507473,-0.2268458,0.662896,0.57520454,-0.21045304,0.66496,0.59963809,-0.27706781,0.65707,0.60410257,-0.23049419,0.662463,0.60725464,-0.20322765,0.665609,0.61312594,-0.18367561,0.669619,0.61958614,-0.27918778,0.656313,0.62286792,-0.24883941,0.660536,0.62455214,-0.23187046,0.662736,0.62617179,-0.21553471,0.664852,0.64324118,-0.28510365,0.653179,0.65106083,-0.25642647,0.655202,0.65505702,-0.24273812,0.656131,0.65870917,-0.23015902,0.656966
0.59059489,-0.37904018,0.635095,0.59291264,-0.34220049,0.644105,0.56596031,-0.35341464,0.634026,0.53026907,-0.31800361,0.628119,0.4972183,-0.28578803,0.625386,0.49351542,-0.2548467,0.618367,0.54298545,-0.27780979,0.64883,0.55635492,-0.2505439,0.671325,0.56358214,-0.23698309,0.68326,0.57021977,-0.22456686,0.694214,0.57064211,-0.27735693,0.652685,0.56916805,-0.23238982,0.654124,0.57274211,-0.21498454,0.654964,0.57545007,-0.20158079,0.655563,0.5931434,-0.27772203,0.654889,0.59676596,-0.25252958,0.654793,0.59883498,-0.23844839,0.654785,0.60095535,-0.22489238,0.65491,0.62068378,-0.28079973,0.655753,0.62660557,-0.25587742,0.654203,0.6285954,-0.24520231,0.653491,0.62985528,-0.23638018,0.652863
0.60160995,-0.38464919,0.650791,0.57872754,-0.34977556,0.647587,0.56775751,-0.3612602,0.643142,0.51913968,-0.32657743,0.634468,0.47957353,-0.29188018,0.624664,0.47590186,-0.26086072,0.618076,0.51326044,-0.27726217,0.635449,0.507125,-0.23424992,0.627805,0.50577442,-0.21294899,0.626108,0.51125059,-0.20704413,0.624566,0.54356389,-0.27971404,0.644536,0.53300479,-0.23235693,0.631987,0.53123145,-0.20768603,0.624667,0.53162076,-0.19130296,0.619438,0.56953033,-0.28296508,0.652363,0.55887322,-0.24313004,0.639637,0.55342861,-0.22208729,0.633125,0.55077121,-0.2040914,0.627206,0.60353571,-0.29022828,0.662052,0.59517041,-0.26902624,0.64891,0.59440824,-0.25852613,0.642872,0.58880169,-0.24632851,0.637545
0.53928292,-0.3870144,0.612764,0.55063602,-0.35462945,0.624745,0.51804419,-0.36706233,0.613782,0.5079708,-0.32868114,0.618909,0.48183802,-0.30393912,0.623469,0.47892271,-0.29083487,0.635848,0.52189065,-0.29302537,0.634205,0.51193751,-0.2547586,0.638654,0.50681732,-0.23646979,0.640878,0.50192259,-0.21917663,0.6429,0.54762885,-0.291448,0.636155,0.53529377,-0.24791387,0.641296,0.53058615,-0.22172924,0.644296,0.52719314,-0.20291285,0.646438,0.56838113,-0.29065714,0.636469,0.55914807,-0.25094614,0.640496,0.55254177,-0.23285046,0.642557,0.54899615,-0.21413854,0.64443,0.59327307,-0.29200022,0.634582,0.58771794,-0.26154157,0.638131,0.58748358,-0.24404692,0.639761,0.58561573,-0.23249047,0.641199
0.58347463,-0.40429514,0.626714,0.57173524,-0.36575952,0.630255,0.55703415,-0.38914483,0.630095,0.52963808,-0.34641178,0.626094,0.49018257,-0.31329566,0.618166,0.48014881,-0.29287812,0.624666,0.52504205,-0.29629064,0.637063,0.51341879,-0.25463164,0.632833,0.50636339,-0.23451916,0.630718,0.49982697,-0.21579398,0.628795,0.54618984,-0.29117609,0.633628,0.54810452,-0.26224563,0.656961,0.54869966,-0.2446551,0.670573,0.54908501,-0.2320066,0.680295,0.56373748,-0.28795451,0.630418,0.5536061,-0.24439478,0.62645,0.5468046,-0.2206475,0.62442,0.54451646,-0.20449482,0.622575,0.58628216,-0.2872398,0.626025,0.57852688,-0.25345615,0.622311,0.57440186,-0.23772772,0.620604,0.57070753,-0.22352518,0.619098
0.58065174,-0.40453516,0.622139,0.57912853,-0.36716099,0.625354,0.55293205,-0.38424331,0.621416,0.52601718,-0.33793369,0.611793,0.49669389,-0.31226145,0.616044,0.48714494,-0.29054626,0.621119,0.54431097,-0.28594602,0.626595,0.54185231,-0.24084139,0.622685,0.54062536,-0.21817898,0.62073,0.53747488,-0.19670818,0.618953,0.57065603,-0.28806749,0.628416,0.57772478,-0.24856823,0.638228,0.57864049,-0.2226786,0.643952,0.58467136,-0.20652044,0.64804,0.59227252,-0.29099274,0.629569,0.58710625,-0.25140891,0.636081,0.58462656,-0.23188982,0.639413,0.58400561,-0.21688342,0.644412,0.61891195,-0.29820597,0.630303,0.60975454,-0.26285951,0.629924,0.60475024,-0.24548751,0.629749,0.6008218,-0.23086118,0.629596
0.57751808,-0.4036091,0.626243,0.57443881,-0.3575798,0.624587,0.55475865,-0.38253218,0.624606,0.52279991,-0.32407352,0.612076,0.50138295,-0.28995094,0.615001,0.49529925,-0.26919449,0.621263,0.54601861,-0.27187603,0.621329,0.54643381,-0.22827227,0.612465,0.54675751,-0.20591303,0.608034,0.54712214,-0.18524211,0.604005,0.5719622,-0.27631848,0.623009,0.57852918,-0.23735024,0.636637,0.58246505,-0.21417493,0.644586,0.5879837,-0.1985851,0.650265,0.59370345,-0.28141309,0.624571,0.57694615,-0.23743357,0.614785,0.5687341,-0.21500949,0.609779,0.56148258,-0.19461325,0.605227,0.62108779,-0.29177493,0.626696,0.61267989,-0.25790908,0.629454,0.60730705,-0.24408615,0.630721,0.60429728,-0.23011707,0.631839
0.56663587,-0.38809291,0.617238,0.57476825,-0.34805514,0.627304,0.54726406,-0.36022911,0.619897,0.53098083,-0.31238996,0.617339,0.50961447,-0.26603469,0.605276,0.50868649,-0.24151554,0.611848,0.5606458,-0.27112799,0.637602,0.56624469,-0.23360777,0.640219,0.5690612,-0.2163428,0.641528,0.56884644,-0.21319958,0.642717,0.58464137,-0.2742707,0.636891,0.58817939,-0.22938409,0.640131,0.59284255,-0.20247536,0.642021,0.59151975,-0.18117801,0.643371,0.60360156,-0.27770585,0.63522,0.60901721,-0.23747292,0.638105,0.6100478,-0.21615583,0.639582,0.61308226,-0.19441987,0.640923,0.62551397,-0.28500183,0.631389,0.63923957,-0.25598062,0.638915,0.64552048,-0.24277508,0.642373,0.65143423,-0.22898349,0.645424
0.57976502,-0.37446093,0.622901,0.58754729,-0.33611629,0.631284,0.55744174,-0.35519304,0.626212,0.54534661,-0.3076117,0.62388,0.51948365,-0.26260737,0.612036,0.51262776,-0.24198517,0.615943,0.568797,-0.26426682,0.641288,0.57243008,-0.22950643,0.645303,0.57287746,-0.21631676,0.64731,0.57468294,-0.2155282,0.649135,0.59176067,-0.26573806,0.639267,0.59750188,-0.2206336,0.643023,0.60088504,-0.1923793,0.645214,0.60332619,-0.17166672,0.646779,0.6100016,-0.26785828,0.6367,0.61396506,-0.22478749,0.637569,0.61601736,-0.20240308,0.638013,0.61789842,-0.18184564,0.638417,0.63149686,-0.27365186,0.632145,0.64180961,-0.23850838,0.633722,0.64670458,-0.22183595,0.634447,0.65103357,-0.20716999,0.635086
0.58885072,-0.38217551,0.632636,0.5914887,-0.34114855,0.635639,0.56252758,-0.36001509,0.631963,0.54796588,-0.31114605,0.629362,0.5199943,-0.26966227,0.621151,0.51443784,-0.24269932,0.618794,0.56336771,-0.26425612,0.636801,0.55740024,-0.22176879,0.631981,0.55614111,-0.20065099,0.629571,0.55501852,-0.18095663,0.627381,0.58938302,-0.26741159,0.638499,0.58622107,-0.2270083,0.642542,0.59089477,-0.20426203,0.6449,0.59423074,-0.18571115,0.646585,0.60897375,-0.27318012,0.639573,0.60541921,-0.23286955,0.634641,0.60553605,-0.20825941,0.632118,0.60490479,-0.18787699,0.629824,0.63263132,-0.27991978,0.640256,0.63674024,-0.25115749,0.634117,0.63761773,-0.23670385,0.631297,0.63445419,-0.22192623,0.628808
0.57581069,-0.38510829,0.622112,0.57853016,-0.34828492,0.629096,0.55358988,-0.35967641,0.622987,0.53785233,-0.32038249,0.628855,0.51516991,-0.28374947,0.627905,0.51355825,-0.24929201,0.620056,0.55811755,-0.27160164,0.634977,0.55353819,-0.23129404,0.634527,0.55045795,-0.21160071,0.634303,0.54756232,-0.19305625,0.634098,0.583193,-0.27415401,0.635747,0.57925028,-0.22644515,0.636937,0.57659978,-0.19796939,0.637631,0.57466388,-0.17725353,0.638127,0.60355037,-0.27722864,0.635628,0.59709615,-0.23388662,0.635054,0.59390462,-0.21190892,0.63476,0.59063477,-0.19247498,0.634493,0.62800729,-0.28427011,0.634177,0.62835472,-0.24560018,0.633665,0.62863126,-0.22891744,0.633429,0.62837499,-0.213768,0.633221
0.5855947,-0.39126774,0.631447,0.58438681,-0.35190959,0.635768,0.56132786,-0.36626127,0.632061,0.53641994,-0.32670584,0.6329,0.50752381,-0.28870598,0.627624,0.50186474,-0.25944286,0.625109,0.55138486,-0.2775788,0.6395,0.54306838,-0.23589336,0.636306,0.53881964,-0.21439506,0.634709,0.53490187,-0.19445172,0.633257,0.57618007,-0.2777992,0.639883,0.56762428,-0.22834272,0.636384,0.56295457,-0.20277464,0.634344,0.55953152,-0.18375534,0.632886,0.596629,-0.27901093,0.639732,0.59138304,-0.23671155,0.636569,0.58871407,-0.21503114,0.634951,0.58628044,-0.19506035,0.633481,0.62206736,-0.28382244,0.638745,0.62137021,-0.24578055,0.635951,0.62106223,-0.22809038,0.634668,0.62079683,-0.21236804,0.633536
0.57270561,-0.39295468,0.622904,0.57579656,-0.35495063,0.629052,0.54983805,-0.37186018,0.624812,0.53356783,-0.32685862,0.630211,0.50757781,-0.29078231,0.628166,0.5037214,-0.26260641,0.627906,0.54942259,-0.27749404,0.635713,0.54238554,-0.23655152,0.634598,0.53875531,-0.21533361,0.634041,0.53538633,-0.19558972,0.633534,0.57448134,-0.2806903,0.634908,0.56670993,-0.23221425,0.633686,0.56187077,-0.20343001,0.632974,0.5588892,-0.18433139,0.632465,0.59374017,-0.28301788,0.633583,0.58725728,-0.23756549,0.632512,0.58465499,-0.21589369,0.631965,0.58042036,-0.1975701,0.631732,0.61703377,-0.28921673,0.630889,0.61580368,-0.25182898,0.629352,0.61517229,-0.23559653,0.628646,0.61461634,-0.2209625,0.628023
0.58213415,-0.39211281,0.628546,0.57949849,-0.35158574,0.631747,0.55877955,-0.36694858,0.629187,0.53668712,-0.32581652,0.631475,0.51052922,-0.29290472,0.631492,0.50732129,-0.26836256,0.63468,0.54962699,-0.27629546,0.634756,0.53896366,-0.23465202,0.630407,0.53356662,-0.21518734,0.628232,0.52724147,-0.20543973,0.626255,0.57673385,-0.27477584,0.634796,0.5629488,-0.22786943,0.630064,0.55592306,-0.20764309,0.627304,0.55038147,-0.19330779,0.625333,0.59818375,-0.27678968,0.634484,0.58407511,-0.23390717,0.630225,0.57897789,-0.21199992,0.628046,0.57424644,-0.19438279,0.628192,0.62427785,-0.28227892,0.63352,0.61417966,-0.24337861,0.62897,0.61181924,-0.23288147,0.626879,0.60933101,-0.21950851,0.625034
0.57683506,-0.38762694,0.623493,0.5800136,-0.35341675,0.631912,0.55839505,-0.36924142,0.63013,0.5434904,-0.3284869,0.637841,0.52334867,-0.2913782,0.638157,0.51745363,-0.27508903,0.64545,0.56628194,-0.28454674,0.646274,0.56529265,-0.24637633,0.648143,0.56013037,-0.23559438,0.649077,0.55828978,-0.24515648,0.649927,0.58550371,-0.27915265,0.639931,0.58262976,-0.23130887,0.642094,0.57703709,-0.20774573,0.643355,0.57082386,-0.18786141,0.644256,0.59945507,-0.27755118,0.6338,0.59613247,-0.23922181,0.636097,0.59130519,-0.21761114,0.637273,0.59124561,-0.19676748,0.638342,0.61670053,-0.28033584,0.6251,0.61956355,-0.24443131,0.626229,0.617746,-0.22994383,0.626747,0.6149184,-0.21988001,0.627204
0.57937426,-0.38900051,0.626085,0.58186995,-0.35101846,0.6327,0.55937463,-0.36766591,0.629852,0.54229341,-0.32750192,0.636521,0.52268072,-0.29120356,0.638276,0.51783086,-0.27319123,0.645528,0.56342369,-0.27621916,0.642098,0.56483257,-0.23990306,0.649566,0.56314723,-0.22598537,0.6533,0.56384286,-0.23186445,0.656694,0.58321549,-0.27615952,0.638999,0.57422681,-0.22831742,0.63866,0.5679488,-0.20247881,0.638463,0.56535906,-0.1849256,0.638321,0.60062744,-0.27660168,0.635735,0.59024287,-0.23531959,0.635676,0.58661304,-0.21382051,0.635646,0.58496174,-0.19554471,0.635618,0.62173966,-0.28043867,0.630703,0.62237989,-0.24489629,0.63002,0.61759716,-0.22632269,0.629707,0.61705966,-0.21182907,0.62943
0.58069915,-0.38813822,0.627052,0.58280839,-0.35113444,0.633425,0.56038116,-0.36692427,0.630611,0.54274038,-0.32759805,0.637102,0.52266003,-0.29129054,0.638717,0.51801148,-0.27223797,0.645557,0.56343324,-0.27633895,0.642386,0.56512474,-0.24002715,0.649902,0.56345755,-0.22610989,0.65366,0.56417085,-0.23199933,0.657076,0.58387265,-0.27617994,0.639494,0.57466632,-0.22818595,0.638881,0.56844947,-0.20196045,0.638524,0.56518833,-0.18418718,0.638268,0.60144253,-0.27666604,0.636425,0.5912003,-0.23517331,0.636106,0.587201,-0.21354873,0.635943,0.58489795,-0.1950489,0.635794,0.62280664,-0.28057433,0.631665,0.62262645,-0.2446707,0.630741,0.61865823,-0.22654698,0.630317,0.61765839,-0.21228197,0.629943
0.58242474,-0.38862351,0.628102,0.58424191,-0.3516058,0.634404,0.56162307,-0.36748304,0.631358,0.54296472,-0.32781654,0.637462,0.5219638,-0.29118475,0.638173,0.51618952,-0.27051543,0.643009,0.56273298,-0.27833399,0.642924,0.55549902,-0.23658906,0.642028,0.55093952,-0.22181726,0.64158,0.54681713,-0.2110388,0.641172,0.58469028,-0.27781636,0.640406,0.57448631,-0.23043617,0.639678,0.56878461,-0.20306749,0.639254,0.56560475,-0.18397902,0.638951,0.60250363,-0.27835049,0.637653,0.59412528,-0.23616284,0.637083,0.59003936,-0.21538555,0.636791,0.58740713,-0.19475346,0.636526,0.62420013,-0.28230148,0.633273,0.62054234,-0.24518682,0.632191,0.61925733,-0.22756232,0.631694,0.6179187,-0.21312266,0.631255
0.58250289,-0.39009299,0.62892,0.58436727,-0.35177134,0.6346,0.56061013,-0.3683383,0.630986,0.5422849,-0.32737713,0.636721,0.52124577,-0.29078269,0.637399,0.51557384,-0.26734539,0.641043,0.56115082,-0.27766057,0.641149,0.55214087,-0.23719072,0.639553,0.54610636,-0.21771164,0.638755,0.54312208,-0.1963537,0.638029,0.58430941,-0.27780953,0.64001,0.57340313,-0.22999204,0.638309,0.56828774,-0.20228058,0.637317,0.5638981,-0.18238355,0.636609,0.60324458,-0.27892301,0.638459,0.59483993,-0.23636382,0.636983,0.58962138,-0.21524402,0.636228,0.58643688,-0.19455293,0.635541,0.6264504,-0.28361694,0.635592,0.6224077,-0.24627622,0.633769,0.62056322,-0.22928704,0.632932,0.61811879,-0.2140409,0.632192
