sluyters/QuantumLeap/backend/src/datasets/dynamic/HandGestureDataset_SHREC2017_csv/Gesture14/finger_2/subject_22_essai_3_skeletons_world.csv
Wrist_x,Wrist_y,Wrist_z,Palm_x,Palm_y,Palm_z,thumb_base_x,thumb_base_y,thumb_base_z,thumb_first_joint_x,thumb_first_joint_y,thumb_first_joint_z,thumb_second_joint_x,thumb_second_joint_y,thumb_second_joint_z,thumb_tip_x,thumb_tip_y,thumb_tip_z,index_base_x,index_base_y,index_base_z,index_first_joint_x,index_first_joint_y,index_first_joint_z,index_second_joint_x,index_second_joint_y,index_second_joint_z,index_tip_x,index_tip_y,index_tip_z,middle_base_x,middle_base_y,middle_base_z,middle_first_joint_x,middle_first_joint_y,middle_first_joint_z,middle_second_joint_x,middle_second_joint_y,middle_second_joint_z,middle_tip_x,middle_tip_y,middle_tip_z,ring_base_x,ring_base_y,ring_base_z,ring_first_joint_x,ring_first_joint_y,ring_first_joint_z,ring_second_joint_x,ring_second_joint_y,ring_second_joint_z,ring_tip_x,ring_tip_y,ring_tip_z,pinky_base_x,pinky_base_y,pinky_base_z,pinky_first_joint_x,pinky_first_joint_y,pinky_first_joint_z,pinky_second_joint_x,pinky_second_joint_y,pinky_second_joint_z,pinky_tip_x,pinky_tip_y,pinky_tip_z,
0.310150445,-0.324660186,0.450468,0.307719748,-0.275998588,0.440347,0.296074829,-0.31663989,0.454084,0.271531069,-0.286452066,0.449957,0.251508684,-0.262438544,0.448237,0.242635719,-0.243055326,0.446039,0.288279568,-0.241632123,0.439961,0.27057475,-0.200956835,0.427487,0.26131362,-0.180880543,0.421249,0.252849363,-0.162482729,0.415579,0.305820134,-0.240744857,0.432834,0.292967845,-0.19543397,0.416484,0.284416677,-0.169860018,0.406947,0.27803124,-0.151630361,0.400134,0.320609086,-0.245005345,0.428035,0.308450953,-0.198135861,0.412705,0.299779273,-0.177288109,0.404862,0.291837034,-0.15797757,0.397732,0.338349792,-0.258601504,0.424344,0.331888827,-0.217657797,0.410155,0.325232902,-0.204767234,0.403636,0.319322244,-0.193134692,0.397884
0.310396104,-0.324611788,0.450729,0.308094988,-0.275974621,0.440521,0.296332451,-0.316469168,0.454307,0.271642816,-0.286111893,0.449925,0.25168063,-0.262155946,0.448294,0.242702336,-0.242721573,0.445957,0.288700949,-0.241402212,0.439999,0.272554317,-0.198461987,0.427497,0.261681418,-0.180755841,0.421246,0.253025409,-0.162631141,0.415564,0.306255235,-0.240667289,0.43289,0.293441591,-0.195225426,0.416571,0.284851355,-0.169658667,0.407052,0.278418238,-0.151465045,0.400252,0.321034247,-0.245046501,0.428107,0.308880245,-0.198233772,0.412749,0.300325205,-0.177265507,0.404892,0.292493407,-0.157854338,0.397749,0.338725237,-0.258766571,0.424437,0.33237232,-0.21775295,0.410198,0.3257795,-0.204798796,0.403656,0.319926768,-0.193111294,0.397883
0.310338425,-0.323695188,0.450302,0.308267098,-0.275288284,0.440281,0.296296647,-0.315531736,0.453897,0.272658194,-0.283959579,0.450771,0.251632524,-0.261454431,0.448017,0.242620193,-0.24212918,0.44577,0.289750735,-0.238978561,0.439877,0.276310861,-0.195439691,0.427698,0.264023069,-0.178727591,0.421608,0.253690582,-0.162672508,0.416072,0.307454913,-0.238747883,0.432789,0.295782336,-0.193116192,0.416521,0.287686473,-0.167665319,0.407031,0.281621255,-0.149563129,0.400253,0.322248486,-0.243493532,0.428004,0.310309398,-0.196958744,0.412577,0.305390755,-0.175219561,0.404684,0.29482378,-0.156178339,0.397509,0.339765959,-0.257524737,0.424299,0.334761725,-0.216635539,0.410202,0.328501734,-0.204508306,0.403725,0.320733987,-0.193082633,0.39801
0.310217521,-0.322854129,0.450052,0.308509382,-0.274648608,0.440205,0.29623794,-0.31462951,0.453677,0.272653064,-0.283277451,0.450612,0.252838009,-0.259395642,0.449145,0.242746159,-0.241317626,0.445712,0.292415397,-0.237252203,0.43993,0.277166355,-0.194837416,0.428097,0.264999092,-0.178641772,0.422181,0.254734881,-0.162711532,0.416803,0.308004801,-0.238266689,0.432843,0.296501175,-0.192741423,0.417004,0.289441543,-0.165640594,0.407765,0.282638999,-0.149100099,0.401165,0.322753101,-0.243071133,0.428041,0.31094786,-0.196706044,0.41275,0.305947287,-0.17439492,0.404927,0.299421007,-0.154064214,0.397815,0.33940514,-0.257885623,0.424284,0.335268033,-0.216505217,0.410375,0.329181557,-0.204269379,0.403984,0.321786232,-0.193036526,0.398345
0.310636138,-0.322190831,0.450213,0.30915808,-0.274154861,0.440401,0.296456978,-0.313631814,0.453485,0.27468897,-0.280818711,0.45113,0.254360053,-0.256810828,0.44916,0.243606126,-0.23880895,0.445542,0.292822212,-0.236584828,0.439657,0.27753651,-0.194469119,0.427458,0.269351102,-0.176104977,0.421359,0.257483105,-0.159671619,0.415814,0.310837187,-0.237107486,0.433039,0.298732372,-0.191221348,0.417488,0.291572064,-0.164297663,0.408416,0.285775011,-0.14587064,0.401937,0.325785141,-0.242426721,0.428618,0.314923649,-0.195130263,0.413589,0.307780811,-0.173330917,0.4059,0.30056798,-0.154498778,0.39891,0.34329927,-0.257053408,0.425289,0.335095423,-0.217706419,0.411406,0.332251244,-0.203531614,0.405027,0.327523767,-0.191149622,0.399399
0.311021215,-0.321053959,0.449269,0.313021853,-0.270859946,0.440078,0.297312614,-0.313008582,0.453214,0.280321587,-0.282549606,0.448554,0.260110165,-0.259404976,0.447672,0.244551649,-0.238683594,0.445035,0.297115949,-0.236621785,0.440544,0.282770234,-0.195260263,0.428128,0.273902691,-0.176405564,0.42192,0.262913848,-0.160336827,0.416277,0.312451544,-0.235939748,0.433182,0.300975874,-0.190426815,0.418099,0.293067311,-0.164884626,0.4093,0.285128214,-0.148966273,0.403015,0.327559783,-0.240219243,0.428083,0.318261436,-0.193391909,0.413364,0.31110517,-0.171644061,0.405833,0.303376032,-0.152109544,0.398987,0.347860367,-0.250891925,0.42386,0.34389396,-0.212288749,0.410297,0.334021911,-0.201506853,0.404066,0.327814712,-0.190454642,0.398567
0.311493679,-0.319817068,0.449163,0.315003923,-0.271108626,0.441525,0.296508477,-0.310095219,0.450955,0.281567518,-0.274509421,0.451754,0.260369496,-0.248063559,0.446126,0.253828083,-0.2283184,0.444602,0.302408248,-0.231262666,0.43993,0.289344256,-0.191822343,0.427972,0.28275323,-0.171694036,0.421994,0.276416182,-0.153465542,0.416559,0.319802845,-0.236002609,0.43577,0.318725805,-0.188108382,0.421453,0.313179169,-0.163832979,0.413102,0.309230603,-0.146116566,0.407136,0.335858415,-0.242184726,0.433144,0.331196026,-0.196328434,0.419549,0.327999127,-0.172745345,0.412594,0.322150537,-0.154524182,0.406271,0.353021761,-0.258497107,0.43149,0.359083742,-0.220852088,0.419221,0.356214105,-0.208249064,0.413583,0.353742104,-0.196837057,0.408609
0.311638289,-0.318197418,0.448757,0.319992472,-0.26845774,0.439989,0.299635956,-0.306026967,0.451225,0.285728285,-0.268118358,0.452176,0.273194938,-0.244108437,0.455175,0.273931591,-0.228235905,0.459696,0.315334003,-0.227584857,0.438701,0.306588118,-0.187304261,0.42658,0.302215154,-0.166808177,0.42052,0.29823961,-0.147951799,0.415011,0.332616904,-0.234060915,0.433384,0.331939909,-0.188267108,0.418634,0.331496105,-0.161728335,0.41003,0.324022646,-0.152315645,0.403884,0.345873255,-0.243983286,0.429923,0.353594844,-0.201393296,0.422143,0.357467434,-0.179814578,0.418162,0.355905429,-0.164682038,0.414544,0.359470695,-0.263455925,0.427509,0.367163105,-0.227412168,0.414191,0.369317445,-0.211845573,0.408072,0.371302606,-0.197974825,0.402673
0.313513291,-0.313742876,0.450452,0.331670254,-0.26012062,0.440687,0.305562939,-0.292396947,0.454215,0.297602856,-0.25236227,0.455029,0.287078401,-0.22374793,0.453573,0.280830253,-0.202167419,0.446875,0.332178359,-0.220670599,0.440592,0.331095025,-0.179537446,0.428848,0.330584881,-0.158827826,0.422976,0.330139922,-0.139912429,0.417637,0.345062766,-0.230615544,0.43333,0.352018587,-0.187730403,0.417582,0.354159303,-0.163352324,0.408396,0.355780448,-0.145749513,0.401834,0.353837472,-0.242900175,0.428371,0.362945272,-0.202378301,0.411807,0.367571652,-0.181692886,0.403333,0.360553739,-0.171543771,0.395629,0.35884166,-0.262861379,0.424409,0.373322294,-0.234145752,0.409733,0.379133612,-0.220290874,0.40299,0.384299778,-0.208034679,0.397041
0.312407886,-0.298498461,0.445512,0.336410934,-0.252945102,0.433829,0.3084481,-0.279046884,0.450637,0.304957621,-0.238767046,0.446687,0.297350853,-0.207750747,0.442618,0.298756954,-0.187070274,0.43997,0.342545854,-0.214017017,0.434539,0.351135685,-0.174759741,0.421625,0.35532845,-0.155310149,0.415168,0.355297285,-0.138610124,0.409298,0.351625305,-0.225067251,0.425028,0.362843521,-0.186377784,0.406355,0.369368375,-0.163828938,0.395462,0.375051783,-0.148140246,0.388751,0.356904408,-0.237908838,0.418416,0.369528735,-0.201787948,0.398699,0.3759034,-0.183379823,0.388612,0.37327756,-0.170232414,0.379441,0.359353857,-0.25923561,0.412893,0.372788873,-0.23500297,0.395554,0.379109607,-0.223800449,0.387588,0.378913733,-0.21586742,0.380559
0.315680697,-0.291617957,0.445984,0.337592053,-0.251765823,0.432676,0.315178887,-0.273802689,0.450871,0.308942006,-0.238649167,0.449226,0.309970516,-0.209823519,0.452341,0.316178952,-0.192126774,0.454307,0.34355499,-0.212445768,0.432229,0.355915872,-0.173816825,0.415971,0.358424112,-0.15491498,0.407841,0.357902807,-0.138553409,0.400451,0.351908055,-0.223888701,0.42265,0.366278945,-0.187202317,0.40209,0.371696835,-0.165939373,0.390097,0.370298085,-0.148392366,0.381531,0.356722039,-0.237059817,0.416154,0.367806909,-0.201574394,0.394723,0.373415748,-0.183468057,0.383758,0.381068041,-0.169959391,0.37379,0.358848536,-0.258770263,0.411057,0.370634796,-0.235568239,0.392374,0.377055823,-0.228135713,0.38379,0.375254874,-0.217205828,0.376215
0.31724053,-0.289752753,0.447502,0.337272919,-0.249825666,0.431541,0.317193624,-0.271588303,0.452499,0.317142852,-0.229702928,0.450558,0.316962911,-0.200199402,0.450249,0.319368144,-0.179557004,0.446702,0.346793546,-0.209647943,0.429862,0.35575155,-0.171952864,0.412213,0.362424842,-0.153208438,0.403389,0.36570473,-0.136397264,0.395367,0.350599071,-0.222055413,0.419516,0.363132591,-0.185886197,0.396575,0.370712513,-0.166956253,0.383193,0.374838917,-0.152468467,0.373634,0.353994596,-0.235402876,0.412665,0.365105276,-0.202371355,0.38812,0.370907566,-0.188810814,0.375562,0.374930049,-0.17424226,0.364146,0.354741489,-0.257273003,0.407637,0.361486977,-0.238987861,0.386597,0.365873628,-0.229919813,0.37693,0.366633596,-0.21945681,0.3684
0.31774377,-0.284695482,0.448296,0.328805951,-0.238671868,0.430125,0.314310886,-0.262421955,0.452495,0.307635705,-0.224151492,0.450632,0.30771174,-0.195784154,0.452194,0.311363535,-0.17594429,0.450627,0.334803774,-0.197985261,0.426247,0.35027248,-0.163049895,0.413224,0.35778792,-0.145828964,0.406713,0.353349791,-0.135879037,0.400794,0.341302761,-0.210845942,0.416436,0.352971625,-0.177914287,0.393718,0.356766281,-0.15508052,0.380466,0.356914625,-0.141007372,0.371,0.3448447,-0.225146026,0.410256,0.354212923,-0.19375596,0.383307,0.356494804,-0.178133658,0.36952,0.3521777,-0.165610457,0.356985,0.34596168,-0.248131895,0.406401,0.354925789,-0.227804167,0.383835,0.359134641,-0.218443545,0.373467,0.35374548,-0.212120113,0.364319
0.316080261,-0.28655526,0.448781,0.31941151,-0.23485308,0.430172,0.3117742,-0.267168088,0.453009,0.286954473,-0.233573084,0.450878,0.275426022,-0.206752101,0.45062,0.277856941,-0.189805281,0.452958,0.31296487,-0.193126064,0.426104,0.316408048,-0.151035667,0.40684,0.308991237,-0.135358024,0.397208,0.301460624,-0.121644424,0.388451,0.324866543,-0.201033084,0.416152,0.327458397,-0.155142941,0.393435,0.319531614,-0.134147385,0.380183,0.306361149,-0.129087385,0.370718,0.333754915,-0.212062764,0.409902,0.333458156,-0.174261227,0.382547,0.331206638,-0.156075154,0.368551,0.323626396,-0.143201284,0.355828,0.342694596,-0.232675942,0.406046,0.346973514,-0.206040327,0.382973,0.349026872,-0.193753098,0.372372,0.342883677,-0.187160529,0.363019
0.306219639,-0.290738893,0.448029,0.298227872,-0.243190644,0.432198,0.282533695,-0.281782593,0.450398,0.257025014,-0.248429385,0.442349,0.232942531,-0.222283311,0.434878,0.221530787,-0.200983776,0.428445,0.283380464,-0.203242199,0.427115,0.282738929,-0.165978373,0.423102,0.273661629,-0.159897333,0.421095,0.266978439,-0.15813192,0.419271,0.299917947,-0.206633648,0.420272,0.304594138,-0.162006512,0.40569,0.292150851,-0.150192013,0.397184,0.281507709,-0.142963925,0.391109,0.313464755,-0.214467342,0.416291,0.299445237,-0.177725464,0.392268,0.290560848,-0.160151919,0.379977,0.282499433,-0.143800052,0.368803,0.3291426,-0.232459935,0.414552,0.333983277,-0.194181318,0.395275,0.33585618,-0.177072705,0.386418,0.32987695,-0.167531981,0.378604
0.277460654,-0.285763941,0.430465,0.270172191,-0.241921939,0.422819,0.256322676,-0.282236547,0.434678,0.227396613,-0.259387461,0.43331,0.199609001,-0.237313274,0.42681,0.190831024,-0.222490587,0.42908,0.250588526,-0.20900009,0.424417,0.236797388,-0.170716313,0.421053,0.229884873,-0.151521909,0.419371,0.223590314,-0.134041164,0.417841,0.269341046,-0.207298423,0.417059,0.269810662,-0.165282123,0.415674,0.269737529,-0.140615903,0.414866,0.267827019,-0.123345553,0.414288,0.284692981,-0.210613454,0.411798,0.287855922,-0.170442619,0.412077,0.287879083,-0.149735605,0.412219,0.287898088,-0.130376607,0.412348,0.30254631,-0.222554317,0.407107,0.302197217,-0.188280226,0.393971,0.300144201,-0.174862946,0.387936,0.297398741,-0.164260746,0.382611
0.271458521,-0.285406789,0.426942,0.266315774,-0.243223974,0.422865,0.250585159,-0.280535013,0.429409,0.21683455,-0.262474097,0.427547,0.189221989,-0.246177728,0.425646,0.172604417,-0.229450394,0.421026,0.240790048,-0.2123095,0.423996,0.221036923,-0.173539251,0.416419,0.210004313,-0.154943264,0.41263,0.199848073,-0.137799313,0.409185,0.261267317,-0.210870878,0.419778,0.253967329,-0.166946189,0.414538,0.249681975,-0.141277307,0.411481,0.246618825,-0.122917103,0.409298,0.27841233,-0.214310821,0.416729,0.270725842,-0.169348498,0.407669,0.266794692,-0.146375089,0.403034,0.263088975,-0.125522077,0.39882,0.298680602,-0.226335913,0.413942,0.301436669,-0.187751071,0.404596,0.298923812,-0.173334199,0.400302,0.296726763,-0.160259972,0.396514
0.264375113,-0.290335413,0.427869,0.253017733,-0.249128834,0.423409,0.247817314,-0.283231741,0.4299,0.208923642,-0.27379566,0.429772,0.178568285,-0.260731683,0.426757,0.159646665,-0.245948718,0.421805,0.226961106,-0.218635034,0.423757,0.207075561,-0.179138428,0.415162,0.196417548,-0.159885397,0.410865,0.186664474,-0.142251654,0.406959,0.248377838,-0.215496324,0.420023,0.235935363,-0.170455918,0.410763,0.228661762,-0.144155937,0.405362,0.223463337,-0.125353349,0.401504,0.266653721,-0.217515459,0.417411,0.260988672,-0.173518983,0.411129,0.257871702,-0.151238837,0.407914,0.252267595,-0.134224546,0.404992,0.28886852,-0.22779185,0.415197,0.286857053,-0.188838411,0.40565,0.28592319,-0.171013953,0.401264,0.282934168,-0.159568525,0.397394
0.262530959,-0.290505988,0.426912,0.250916932,-0.248357821,0.422255,0.246213391,-0.284472329,0.429606,0.208493466,-0.276657484,0.430454,0.174538554,-0.267484841,0.424477,0.155847979,-0.255114525,0.421949,0.224768963,-0.219174484,0.423361,0.199816053,-0.182668917,0.415089,0.188202918,-0.163834324,0.410952,0.177572645,-0.146582744,0.407192,0.245047588,-0.214706298,0.418705,0.229108132,-0.17045617,0.410728,0.221271703,-0.144595932,0.406075,0.215662241,-0.126070333,0.402751,0.262574973,-0.215612242,0.415354,0.253591338,-0.171264696,0.410022,0.249025625,-0.149317292,0.407294,0.244843039,-0.129134069,0.404814,0.281647863,-0.222958177,0.412319,0.27890961,-0.183791837,0.402428,0.277335062,-0.166003176,0.397883,0.275949586,-0.15027129,0.393873
0.261770675,-0.291796259,0.426774,0.250716536,-0.249668866,0.42216,0.243182916,-0.28767304,0.429165,0.20750622,-0.281928557,0.430395,0.172912605,-0.273375303,0.422706,0.155506946,-0.259000864,0.422251,0.223115274,-0.221457913,0.42288,0.199188596,-0.184591325,0.414673,0.187121073,-0.165984746,0.41057,0.175929649,-0.149068025,0.406839,0.244630528,-0.215924917,0.41863,0.230008976,-0.172219801,0.410733,0.221943038,-0.14646404,0.406126,0.216162895,-0.127986167,0.402835,0.262335585,-0.216846526,0.415608,0.253257826,-0.17347555,0.410195,0.248749827,-0.15153572,0.407425,0.240790906,-0.136170505,0.404906,0.284364801,-0.225875617,0.412944,0.281280806,-0.186694041,0.403189,0.277352448,-0.168362677,0.398707,0.277420918,-0.154562211,0.394753
0.262742712,-0.287423377,0.4224,0.255791636,-0.245528987,0.419865,0.243717313,-0.283944509,0.42504,0.213516205,-0.281634854,0.426195,0.177627924,-0.269411685,0.415963,0.158403361,-0.259238728,0.414537,0.22795284,-0.219530028,0.422007,0.20549252,-0.185951356,0.415217,0.190863588,-0.166087107,0.411821,0.17842442,-0.150340475,0.408735,0.248059522,-0.214256529,0.417925,0.235764722,-0.170339702,0.410796,0.22624639,-0.144697204,0.406638,0.219831111,-0.1272812,0.403668,0.265462636,-0.214333177,0.414826,0.256455461,-0.171428933,0.410341,0.249250761,-0.150446326,0.408047,0.244986895,-0.128690157,0.405961,0.287668876,-0.218303927,0.4117,0.289647511,-0.18019245,0.404108,0.286567089,-0.163901745,0.40062,0.281186719,-0.150458988,0.397542
0.264056936,-0.287687626,0.422301,0.264552047,-0.242140886,0.418514,0.247697669,-0.279730155,0.421111,0.216157519,-0.270372947,0.416735,0.185835934,-0.260452827,0.414655,0.170327609,-0.251409047,0.417931,0.23599117,-0.213006129,0.414943,0.218091754,-0.173729877,0.411543,0.208594925,-0.155699147,0.409843,0.19986574,-0.139115201,0.408297,0.259796063,-0.209806018,0.415596,0.254744511,-0.168209813,0.414953,0.251775291,-0.143844496,0.414578,0.249648894,-0.126392701,0.41431,0.28282992,-0.213622337,0.416525,0.273073581,-0.169601391,0.409406,0.269527415,-0.14704603,0.405947,0.266238214,-0.126562789,0.402802,0.309515751,-0.226680091,0.418272,0.306766412,-0.188415397,0.410248,0.307979368,-0.172277137,0.406561,0.305020274,-0.161170062,0.403308
0.270954689,-0.283912607,0.418148,0.275024004,-0.24572352,0.416322,0.259280083,-0.285060668,0.42169,0.231633519,-0.270171575,0.420953,0.198380906,-0.250822378,0.411025,0.183845959,-0.23786215,0.412126,0.249560535,-0.218893342,0.420003,0.234885239,-0.183669557,0.420471,0.22750722,-0.165961883,0.420705,0.220776047,-0.149808068,0.420917,0.269738042,-0.212770041,0.414908,0.260900569,-0.16920938,0.409069,0.255715002,-0.143558653,0.405662,0.251997323,-0.125124126,0.403229,0.285508346,-0.211098604,0.410899,0.288243642,-0.17142939,0.412888,0.288842907,-0.150921888,0.413906,0.289385543,-0.131929071,0.414831,0.308129214,-0.218686887,0.406588,0.312872361,-0.181710995,0.398818,0.310134779,-0.173068659,0.395247,0.306262489,-0.166693855,0.392097
0.275169943,-0.28654065,0.422013,0.288144056,-0.237955332,0.417805,0.263485346,-0.278220314,0.423169,0.236947753,-0.250991921,0.418098,0.212693514,-0.231248236,0.416691,0.200946813,-0.21426745,0.415967,0.269846991,-0.206196237,0.417083,0.257914687,-0.165440387,0.407979,0.248493119,-0.152307399,0.403428,0.239591172,-0.139787753,0.39929,0.290866305,-0.207110955,0.414547,0.287670949,-0.16132484,0.40342,0.285762737,-0.135000758,0.396929,0.279807962,-0.120590547,0.392293,0.309554077,-0.212529697,0.412891,0.306819978,-0.167567864,0.401679,0.304586977,-0.145438218,0.395942,0.301653376,-0.125747877,0.390727,0.327557553,-0.228671773,0.411723,0.343709097,-0.194374033,0.408671,0.350571357,-0.180068248,0.407268,0.352118316,-0.168933912,0.406031
0.288229248,-0.286381222,0.418951,0.305373416,-0.241812303,0.415095,0.287125838,-0.275478207,0.423303,0.261192594,-0.250300273,0.421621,0.23726128,-0.225820764,0.416806,0.227847248,-0.207475067,0.415934,0.291490104,-0.206699908,0.418758,0.2901776,-0.166921031,0.414533,0.287228425,-0.147233795,0.412421,0.283771614,-0.129493177,0.4105,0.309684718,-0.208461239,0.41211,0.313197426,-0.16389377,0.402363,0.315220615,-0.137989941,0.396677,0.316168111,-0.119502196,0.392616,0.324055288,-0.214332581,0.407031,0.331821846,-0.171133632,0.394079,0.332000947,-0.151801178,0.387452,0.332358057,-0.133672614,0.381428,0.339599863,-0.228730808,0.401841,0.358139111,-0.198173972,0.397513,0.366677728,-0.184107506,0.395524,0.374224031,-0.17168214,0.39377
0.29445962,-0.280822177,0.420147,0.314275205,-0.230429121,0.413782,0.288735913,-0.258150667,0.422806,0.273172348,-0.22774606,0.423739,0.260049343,-0.202103638,0.424959,0.260067552,-0.18517882,0.428802,0.307875423,-0.190738309,0.413886,0.310165893,-0.149424304,0.40302,0.307785596,-0.131996149,0.397587,0.305260489,-0.116258449,0.392649,0.325495044,-0.198647807,0.408854,0.33522505,-0.156667408,0.394952,0.339510479,-0.132857232,0.386843,0.34270177,-0.115608048,0.38105,0.338494711,-0.20934063,0.405363,0.352348929,-0.17060127,0.390633,0.359235808,-0.151021177,0.383097,0.363650471,-0.134303205,0.376245,0.350983107,-0.228977011,0.402457,0.370610119,-0.20445607,0.391319,0.379532947,-0.193284111,0.386201,0.387602533,-0.18330623,0.381686
0.30314371,-0.266788745,0.419871,0.324740493,-0.223498949,0.410537,0.293589806,-0.252224809,0.422469,0.290846791,-0.216243472,0.426907,0.28615336,-0.19158231,0.432498,0.28318951,-0.170810852,0.430285,0.323653829,-0.182420353,0.408981,0.327315679,-0.141322634,0.397785,0.328857708,-0.120900171,0.392187,0.330260383,-0.102332101,0.387098,0.338622853,-0.193676346,0.40331,0.353497434,-0.154939666,0.388319,0.360656925,-0.133094832,0.379575,0.365960194,-0.117259576,0.373328,0.348978123,-0.206789997,0.399598,0.364008299,-0.171581853,0.381963,0.371564101,-0.153666063,0.372941,0.379568692,-0.137756078,0.365806,0.357662842,-0.228590051,0.396963,0.377858303,-0.208340363,0.383284,0.38729925,-0.198975715,0.377,0.391978657,-0.193201605,0.371454
0.307007835,-0.268202675,0.423394,0.328302679,-0.227479501,0.412917,0.298545423,-0.252924808,0.425977,0.299614375,-0.216989763,0.427815,0.294411511,-0.18753056,0.427278,0.295054046,-0.16664764,0.424557,0.332898578,-0.189112789,0.410734,0.340371823,-0.150168699,0.396976,0.344072002,-0.130762334,0.390098,0.342304694,-0.116763051,0.383844,0.345694688,-0.201968857,0.404806,0.360319247,-0.165403811,0.386997,0.368547782,-0.144198122,0.376608,0.377119555,-0.129980012,0.371844,0.354081237,-0.216215085,0.401,0.370964391,-0.185229454,0.381957,0.37961625,-0.169362648,0.372214,0.388742641,-0.15540974,0.364509,0.360135655,-0.239031942,0.398458,0.380102798,-0.221512316,0.383759,0.38855655,-0.21393074,0.377005,0.395191726,-0.207697534,0.371046
0.308622585,-0.268540311,0.424548,0.331703018,-0.231335696,0.413903,0.30452913,-0.250588601,0.427759,0.30158078,-0.217475965,0.428979,0.298307069,-0.188944186,0.430055,0.301384346,-0.169440825,0.429687,0.336296059,-0.190719858,0.412454,0.346975967,-0.153026348,0.398649,0.347513118,-0.132766642,0.391746,0.351931263,-0.116887398,0.385471,0.347908387,-0.203521309,0.405661,0.362703579,-0.167343279,0.387642,0.370851171,-0.146353773,0.377131,0.376305106,-0.131411826,0.369623,0.355235041,-0.21764447,0.401158,0.371823335,-0.186974446,0.381637,0.380341134,-0.17126208,0.371649,0.389084186,-0.157350547,0.363473,0.359950433,-0.240196845,0.397842,0.378988118,-0.222951916,0.382451,0.387191645,-0.215354409,0.375379,0.394128772,-0.208860604,0.369139
0.310857783,-0.269040751,0.42606,0.332538263,-0.231164433,0.412634,0.307025406,-0.25105332,0.429031,0.311158642,-0.216176537,0.43004,0.309865098,-0.186784203,0.430165,0.312392622,-0.16624764,0.427477,0.342737648,-0.191328744,0.409392,0.351085481,-0.153511069,0.393407,0.353562646,-0.13502576,0.385415,0.355942457,-0.118015502,0.378149,0.352292436,-0.205274643,0.40224,0.366612587,-0.170394379,0.381657,0.372755682,-0.150592286,0.36965,0.377332613,-0.136294062,0.361074,0.355577939,-0.218666743,0.397729,0.372892335,-0.191135023,0.375646,0.380065905,-0.176369428,0.364348,0.387121112,-0.163070609,0.354465,0.359246767,-0.241753832,0.394895,0.376992475,-0.229503802,0.377314,0.383885157,-0.223271814,0.369235,0.390229019,-0.217750969,0.362108
0.311896903,-0.269309416,0.42707,0.332828268,-0.2317264,0.412287,0.308332485,-0.251291124,0.429943,0.307622873,-0.216482727,0.429842,0.309819528,-0.187480597,0.432097,0.311173957,-0.168913425,0.431389,0.342223508,-0.192047253,0.408192,0.350312967,-0.154536453,0.391953,0.353486761,-0.135986381,0.383833,0.356452649,-0.119003707,0.376451,0.35093859,-0.206357088,0.400841,0.364288131,-0.175003918,0.37902,0.371592411,-0.155765162,0.366291,0.374962326,-0.138405603,0.357199,0.355966146,-0.221547062,0.396305,0.369166916,-0.196514185,0.372979,0.376377957,-0.182591994,0.361045,0.383621926,-0.170192477,0.350773,0.358182676,-0.245074823,0.393684,0.370762255,-0.234409794,0.375017,0.377241397,-0.228566862,0.366441,0.383181168,-0.223403543,0.358873
0.311083307,-0.272520317,0.427573,0.331113481,-0.233057971,0.412582,0.30628495,-0.253752061,0.430614,0.302199439,-0.219326496,0.430839,0.298949257,-0.190942764,0.432221,0.303125995,-0.172105482,0.432819,0.334453462,-0.195797047,0.408597,0.341827118,-0.156850533,0.39444,0.345536616,-0.13507104,0.387362,0.351656832,-0.118068241,0.380927,0.343280704,-0.209746914,0.400976,0.354441478,-0.175177409,0.378958,0.361037116,-0.154946237,0.366114,0.365792105,-0.140462096,0.35694,0.348490195,-0.224695952,0.396239,0.362270861,-0.194731399,0.372643,0.372536616,-0.181131077,0.36388,0.386651905,-0.168352324,0.355914,0.353727512,-0.247587564,0.393422,0.363576114,-0.231975029,0.374357,0.369643367,-0.224560244,0.365597,0.375001721,-0.218059774,0.357868
0.314035046,-0.280393657,0.436146,0.315897834,-0.239029741,0.414252,0.29965404,-0.262206456,0.433335,0.278215794,-0.229953538,0.42829,0.273481118,-0.204234661,0.432505,0.262368843,-0.184245418,0.427062,0.303935935,-0.191555256,0.398907,0.291543944,-0.155152685,0.374579,0.284376818,-0.13803362,0.362415,0.277676888,-0.122545933,0.351358,0.321676579,-0.204721409,0.397302,0.340469484,-0.167865151,0.388602,0.351469552,-0.146317118,0.383526,0.356603573,-0.132838801,0.379901,0.3357167,-0.220202709,0.398227,0.350164402,-0.184084047,0.379465,0.355847409,-0.167152853,0.369866,0.358251059,-0.154206564,0.361139,0.350938931,-0.246332333,0.403186,0.363187629,-0.223040599,0.382598,0.368821639,-0.212337107,0.373139,0.373795386,-0.202891184,0.364792
0.295998458,-0.284208166,0.420609,0.304503829,-0.251570986,0.419423,0.284679683,-0.280068041,0.426359,0.262301988,-0.252718145,0.425789,0.242512784,-0.228339975,0.424277,0.235377551,-0.209645084,0.423953,0.298896832,-0.216863897,0.426345,0.301625965,-0.181754852,0.42691,0.296184563,-0.175352701,0.427193,0.290799274,-0.169025626,0.42745,0.315374971,-0.220107527,0.418506,0.324153139,-0.177417844,0.411886,0.329210493,-0.15269743,0.408025,0.327693866,-0.138477629,0.405267,0.327454662,-0.226900474,0.412171,0.341654602,-0.186986154,0.401737,0.344807617,-0.168104554,0.396398,0.346831559,-0.151182783,0.391545,0.338955887,-0.241927651,0.405055,0.359368964,-0.21420697,0.39614,0.366419772,-0.202109572,0.392043,0.37289679,-0.191202076,0.388429
0.293296409,-0.297496191,0.427265,0.292825371,-0.253001006,0.422048,0.279723785,-0.287392396,0.43046,0.250831812,-0.266455076,0.431444,0.225066364,-0.245109203,0.427617,0.213374022,-0.227399643,0.426145,0.273654441,-0.218312678,0.423455,0.26310606,-0.176295738,0.414385,0.255252161,-0.158172083,0.409849,0.247976258,-0.141250578,0.405727,0.293611703,-0.218503198,0.417995,0.291052681,-0.172689385,0.405156,0.288924402,-0.146473577,0.397666,0.285739847,-0.129917721,0.392316,0.309838285,-0.223178241,0.414033,0.321963598,-0.183411364,0.411726,0.327541218,-0.162956918,0.410545,0.332713547,-0.144051806,0.409472,0.32833684,-0.236379323,0.410375,0.340598264,-0.203259345,0.399826,0.344793176,-0.190021269,0.394979,0.348689452,-0.178087971,0.390702
0.29133254,-0.297966115,0.427307,0.291082841,-0.253768819,0.42254,0.276817452,-0.288004934,0.429843,0.24261921,-0.267857085,0.428596,0.216593875,-0.248684555,0.426362,0.204528576,-0.232178321,0.425932,0.271573413,-0.218608575,0.423311,0.253717806,-0.178661717,0.415353,0.24580522,-0.158577476,0.411375,0.238020493,-0.140644789,0.407758,0.292207008,-0.219299831,0.418822,0.289808517,-0.17594063,0.413898,0.289568894,-0.150394083,0.411026,0.289399448,-0.132127338,0.408975,0.309019818,-0.224379903,0.415611,0.307494935,-0.180277796,0.403106,0.306374688,-0.159197178,0.396709,0.304836001,-0.140589765,0.390893,0.328206203,-0.238071993,0.412738,0.335395424,-0.20272045,0.402947,0.338970348,-0.187186775,0.398449,0.342198578,-0.173346219,0.39448
0.288850308,-0.299662155,0.427693,0.281319576,-0.25910781,0.423669,0.271293724,-0.291823837,0.430437,0.235421575,-0.273443372,0.428959,0.209912774,-0.254947382,0.427815,0.197907555,-0.238740961,0.427768,0.26130766,-0.224737826,0.425098,0.245464304,-0.184577682,0.4174,0.236392492,-0.16551182,0.41355,0.228044164,-0.147919982,0.410051,0.281818591,-0.224380561,0.420517,0.276492642,-0.178717521,0.411153,0.272023852,-0.152943942,0.40569,0.268560189,-0.13451785,0.401789,0.298662821,-0.228578801,0.417153,0.302125829,-0.186243157,0.413775,0.303765016,-0.164571751,0.412047,0.305260027,-0.144829408,0.410475,0.318140212,-0.241271388,0.413969,0.324793039,-0.204694055,0.404693,0.327495409,-0.188205153,0.400431,0.32991298,-0.173580061,0.396671
0.28821458,-0.300476975,0.428325,0.281549372,-0.258437527,0.424776,0.270233131,-0.292584483,0.430411,0.23510326,-0.275669239,0.429343,0.20553577,-0.262456274,0.426886,0.189950998,-0.247668179,0.425518,0.259677603,-0.22476223,0.425589,0.23723257,-0.187095448,0.41806,0.22684353,-0.168118626,0.414296,0.217322905,-0.150707805,0.410874,0.280767769,-0.223782548,0.421985,0.271495264,-0.177991848,0.414795,0.266412213,-0.152389913,0.410601,0.262761535,-0.133901961,0.407605,0.296457864,-0.225132492,0.419377,0.293635876,-0.180886406,0.411596,0.29164984,-0.158474738,0.407615,0.289851243,-0.137935071,0.403996,0.317732586,-0.23612658,0.416983,0.323857963,-0.198806619,0.408457,0.324766894,-0.183457192,0.40454,0.325652458,-0.169631101,0.401083
0.287580585,-0.300470306,0.428127,0.281037821,-0.257940729,0.424938,0.269980194,-0.293342896,0.43076,0.234701695,-0.278895941,0.429715,0.205068737,-0.264340333,0.426999,0.189241302,-0.250058968,0.425867,0.256715198,-0.225452379,0.426655,0.235973859,-0.187992091,0.419379,0.22548742,-0.169024126,0.415741,0.215883359,-0.151635312,0.412433,0.277354433,-0.222409292,0.422423,0.269413426,-0.178111776,0.41563,0.261140067,-0.152158493,0.411668,0.260316368,-0.133997216,0.408838,0.2948223,-0.224337183,0.419261,0.292649678,-0.180698861,0.413227,0.288114814,-0.157759632,0.41014,0.289067787,-0.138291145,0.407334,0.315916395,-0.234329228,0.416159,0.318081271,-0.195303014,0.407677,0.319037782,-0.178486317,0.40378,0.322479097,-0.166412269,0.400342
0.287174334,-0.30051337,0.428054,0.280717464,-0.257633052,0.424921,0.269646144,-0.293669141,0.430729,0.234716239,-0.279278508,0.429788,0.204920874,-0.26497856,0.427053,0.189031249,-0.250890976,0.426043,0.256190822,-0.225608782,0.426723,0.235361901,-0.188139436,0.41948,0.224836157,-0.16917792,0.415858,0.215200077,-0.151802488,0.412566,0.276809152,-0.222344824,0.422449,0.268633158,-0.178096102,0.415779,0.261279623,-0.152239808,0.411888,0.259412573,-0.133983117,0.409109,0.294294076,-0.224085104,0.419247,0.292206715,-0.180565635,0.413608,0.288525062,-0.157984267,0.410724,0.288558873,-0.138291889,0.408101,0.315467743,-0.233846612,0.41609,0.318057864,-0.195288642,0.407647,0.31902751,-0.17848057,0.403767,0.321625618,-0.165447063,0.400344
0.287044793,-0.299758144,0.427559,0.282451076,-0.25617862,0.424389,0.271079548,-0.291920525,0.429987,0.234969855,-0.277388812,0.428888,0.204916838,-0.264750239,0.426326,0.188625986,-0.250860799,0.425116,0.257331074,-0.224418807,0.42585,0.235229536,-0.186755633,0.418445,0.224425129,-0.168105674,0.414743,0.214506795,-0.150964193,0.411377,0.277016811,-0.221012013,0.42189,0.268386196,-0.176769075,0.415078,0.261375919,-0.150680298,0.411104,0.258601546,-0.132726179,0.408266,0.294695859,-0.222779249,0.41895,0.291795882,-0.178669716,0.413735,0.289575791,-0.156740914,0.411067,0.288335566,-0.138212119,0.408641,0.31588115,-0.231565013,0.416103,0.321937027,-0.190806361,0.407778,0.319840927,-0.177877187,0.403953,0.321511378,-0.165036336,0.400578
0.286579959,-0.299488798,0.426839,0.282346203,-0.255980826,0.423711,0.27051101,-0.291672823,0.429164,0.235323727,-0.277534864,0.428841,0.205040885,-0.264213484,0.425619,0.188969475,-0.250289648,0.424589,0.259426176,-0.223588083,0.425058,0.240189151,-0.185472694,0.418041,0.227585295,-0.167193869,0.414532,0.218004204,-0.150349674,0.411342,0.281052529,-0.223141912,0.421244,0.272317238,-0.178068484,0.414613,0.266611743,-0.152623944,0.410745,0.259099434,-0.133014135,0.407983,0.298536006,-0.22653993,0.41842,0.295309701,-0.181762394,0.413049,0.290935277,-0.158748873,0.410301,0.288480769,-0.138291351,0.407803,0.319165135,-0.238260379,0.4157,0.322994733,-0.198432366,0.407302,0.322835456,-0.180128797,0.403443,0.321614669,-0.165124166,0.400039
0.286682882,-0.298359533,0.425849,0.286846307,-0.253075222,0.422086,0.270869892,-0.291104031,0.428704,0.243826069,-0.270421139,0.429045,0.21433951,-0.256212819,0.424331,0.198122824,-0.23977947,0.424914,0.261288997,-0.222475116,0.423787,0.244485035,-0.181885908,0.415857,0.235386615,-0.162395025,0.411892,0.227069326,-0.144554702,0.408288,0.282308914,-0.219039546,0.419122,0.277166594,-0.170203596,0.408912,0.272453782,-0.143936205,0.402957,0.267503457,-0.129533928,0.398703,0.30113251,-0.218347026,0.415663,0.298382576,-0.173285597,0.406719,0.2969607,-0.150392522,0.402143,0.294415931,-0.130682721,0.397983,0.322525925,-0.228137779,0.412318,0.330119672,-0.191447737,0.403298,0.331967399,-0.177629922,0.399154,0.331318134,-0.169121076,0.395497
0.288631819,-0.300069846,0.4285,0.294790407,-0.251751888,0.421941,0.272357363,-0.291953798,0.430156,0.248709055,-0.265643555,0.428122,0.219461538,-0.246427514,0.424274,0.202005747,-0.229872097,0.41922,0.273457227,-0.215360778,0.420554,0.262304097,-0.175691608,0.415424,0.253647296,-0.15498162,0.412859,0.247126414,-0.13711344,0.410527,0.294620028,-0.21621701,0.416768,0.290837326,-0.170399021,0.405305,0.287005996,-0.141244607,0.398619,0.284713906,-0.127764181,0.393842,0.312083371,-0.221525028,0.414315,0.309735973,-0.173321569,0.400624,0.304990357,-0.155205532,0.393619,0.302022932,-0.136947376,0.387251,0.334707716,-0.233695207,0.412627,0.342130045,-0.19673505,0.401746,0.344686293,-0.181253447,0.396746,0.342677423,-0.171720462,0.392335
0.285769311,-0.296255455,0.423582,0.297921301,-0.248266463,0.419522,0.274078516,-0.285684445,0.426058,0.251133624,-0.256396257,0.424645,0.225949827,-0.235303543,0.421915,0.215672096,-0.218698548,0.422658,0.28546559,-0.209927699,0.420562,0.274246914,-0.168822454,0.413296,0.268842853,-0.148465775,0.409983,0.263943218,-0.129978404,0.406988,0.30600669,-0.213116855,0.41632,0.307666934,-0.169075773,0.409679,0.307655492,-0.143630336,0.405806,0.305733947,-0.128577135,0.403039,0.322197447,-0.220119556,0.413238,0.324697709,-0.175715185,0.401936,0.325761576,-0.153230263,0.396153,0.326744931,-0.132734017,0.390896,0.339770452,-0.235844219,0.410382,0.353652177,-0.20280612,0.401289,0.359964387,-0.187713436,0.397112,0.361794885,-0.179382243,0.393426
0.29666566,-0.294644642,0.427925,0.312290614,-0.246167062,0.420778,0.284966399,-0.282628869,0.429974,0.266297809,-0.251345031,0.427558,0.2419621,-0.226506744,0.422124,0.235961229,-0.209285854,0.424433,0.298207165,-0.206728635,0.419567,0.291573652,-0.164044606,0.408626,0.285030252,-0.14602524,0.403156,0.279001723,-0.129165635,0.398183,0.317476065,-0.211675462,0.415114,0.319353983,-0.167123808,0.40072,0.320462016,-0.141100287,0.392324,0.31844153,-0.125251608,0.386327,0.332753023,-0.220176205,0.412168,0.340133538,-0.176796319,0.397266,0.340030162,-0.158254397,0.389642,0.339246203,-0.14207379,0.382711,0.349365517,-0.237731402,0.410008,0.365079936,-0.207623326,0.398633,0.372284022,-0.193818978,0.393406,0.378672758,-0.181610389,0.388795
0.297781364,-0.293322555,0.426939,0.313065859,-0.246510877,0.418329,0.286157908,-0.280129466,0.428026,0.26955014,-0.250939022,0.428856,0.251710782,-0.225521539,0.427224,0.237636435,-0.20672153,0.422348,0.303430402,-0.207134223,0.415046,0.295012576,-0.164549219,0.403267,0.290803243,-0.143270766,0.397377,0.286976903,-0.123935632,0.392023,0.323001798,-0.214662955,0.411477,0.328790005,-0.170878542,0.400936,0.332160127,-0.145354714,0.394787,0.33456449,-0.127131586,0.390395,0.338153767,-0.225106345,0.409402,0.347317466,-0.183000872,0.397811,0.35193429,-0.161593536,0.39188,0.354947968,-0.143894797,0.386489,0.354020735,-0.244547466,0.4085,0.370594773,-0.216582824,0.396446,0.378311259,-0.203656776,0.390908,0.385175894,-0.192207779,0.386021
0.302764575,-0.293298624,0.42882,0.324567987,-0.247837121,0.418505,0.296141683,-0.276902297,0.430529,0.281205013,-0.242440385,0.42791,0.264080071,-0.215139338,0.425261,0.261264742,-0.196236948,0.426523,0.317668169,-0.205207369,0.415104,0.314957469,-0.162687301,0.40305,0.313986369,-0.141708494,0.397532,0.313099837,-0.12265471,0.392515,0.334939701,-0.214570778,0.410296,0.342070108,-0.171406001,0.394794,0.34548408,-0.146951798,0.385751,0.347994349,-0.129354228,0.379292,0.34776756,-0.226405297,0.407373,0.360520531,-0.186767766,0.393491,0.366949076,-0.166613636,0.386389,0.370570241,-0.151066272,0.379932,0.360322714,-0.247324728,0.405786,0.376285254,-0.219653092,0.391641,0.38248217,-0.208454957,0.385141,0.388172298,-0.198439683,0.379406
0.306977313,-0.292136514,0.42986,0.328436406,-0.248242046,0.419391,0.299829042,-0.275915329,0.431831,0.296144852,-0.241558081,0.436071,0.278938521,-0.21252192,0.431083,0.270466092,-0.190709428,0.424741,0.328283309,-0.206002803,0.416213,0.329842098,-0.163825767,0.403206,0.328671563,-0.143807834,0.396702,0.32766203,-0.125383809,0.39079,0.34365258,-0.217228229,0.411011,0.354608655,-0.176211493,0.395214,0.360427976,-0.152653744,0.385999,0.364389904,-0.135901254,0.379417,0.354713429,-0.23029006,0.407773,0.367756147,-0.191772326,0.390608,0.372957674,-0.173432535,0.381826,0.377898649,-0.156538355,0.373842,0.364776345,-0.252008411,0.405839,0.382851946,-0.227998221,0.391449,0.390534824,-0.217837579,0.384838,0.396899311,-0.209413018,0.379004
0.314362862,-0.289839367,0.43141,0.334349927,-0.246851548,0.418328,0.308641485,-0.272117924,0.433203,0.302633314,-0.234448973,0.43184,0.288397767,-0.203853483,0.426334,0.289020009,-0.183958496,0.426347,0.336495049,-0.202636107,0.413424,0.339052168,-0.161136913,0.397671,0.340224639,-0.140621489,0.389795,0.337086916,-0.126132387,0.382635,0.35061458,-0.214684688,0.407774,0.365536335,-0.176847916,0.392683,0.374234665,-0.154783049,0.38388,0.380327253,-0.139075795,0.377592,0.36057339,-0.228373587,0.404419,0.377902484,-0.19528574,0.387828,0.386841937,-0.178303408,0.37934,0.39501495,-0.162829972,0.371623,0.369350959,-0.250858205,0.402792,0.386141418,-0.231791546,0.386441,0.394094391,-0.222964216,0.378928,0.401249726,-0.21513692,0.372299
0.316617657,-0.28998442,0.432522,0.338711729,-0.247697891,0.417869,0.311014918,-0.271810788,0.433876,0.304338491,-0.23367688,0.43044,0.297453239,-0.202586471,0.426257,0.2939982,-0.180457503,0.420116,0.339672909,-0.205675319,0.411491,0.347318122,-0.165880885,0.397192,0.349501856,-0.14687885,0.390043,0.35158391,-0.129418543,0.383543,0.352838275,-0.218988031,0.405994,0.366831535,-0.181748373,0.386867,0.373356556,-0.161357803,0.37571,0.377761738,-0.146992321,0.36774,0.361955235,-0.233526176,0.402916,0.378100988,-0.202569545,0.38317,0.386229685,-0.18689525,0.373067,0.393680482,-0.172628424,0.363883,0.369671152,-0.25666875,0.40187,0.385479298,-0.240141271,0.384492,0.392966126,-0.232555547,0.376507,0.399747103,-0.225833401,0.369462
0.318063516,-0.289674369,0.433191,0.339002996,-0.247442982,0.416816,0.314660446,-0.269242204,0.433848,0.307428273,-0.231303878,0.429453,0.29877459,-0.200222958,0.42566,0.298500231,-0.179142193,0.422208,0.340184823,-0.203929799,0.408576,0.350552076,-0.164713138,0.392276,0.353645929,-0.145609875,0.384126,0.355872904,-0.128538188,0.376717,0.352996904,-0.218046851,0.403545,0.371916095,-0.184455362,0.385162,0.38132839,-0.164830273,0.374438,0.388105466,-0.150773976,0.366779,0.361890903,-0.233267497,0.401021,0.379424552,-0.204898652,0.379366,0.386832844,-0.190537672,0.368287,0.393723944,-0.177410243,0.358214,0.369454287,-0.257286991,0.400917,0.384229574,-0.24125413,0.382429,0.391159283,-0.233937128,0.373934,0.39743168,-0.227461414,0.366439
0.318466001,-0.289069571,0.432837,0.339194435,-0.247757104,0.416375,0.31533104,-0.269083988,0.433995,0.307349822,-0.230831696,0.428841,0.299247656,-0.19986276,0.425422,0.300067732,-0.179151912,0.422976,0.343426474,-0.204465073,0.408738,0.350272543,-0.165378141,0.391768,0.352851957,-0.146317078,0.383282,0.354928113,-0.129104858,0.375569,0.353355259,-0.218425533,0.403034,0.370734308,-0.184713839,0.384172,0.379630481,-0.164957855,0.373169,0.386034438,-0.150808295,0.36531,0.361465481,-0.233495541,0.399963,0.378621578,-0.20534746,0.378679,0.386264431,-0.190973001,0.367789,0.39336671,-0.177835832,0.35789,0.368036436,-0.257240981,0.399239,0.382884401,-0.243460235,0.38046,0.389610421,-0.236705788,0.371832,0.395721471,-0.230731803,0.364219
0.318219976,-0.288670837,0.431936,0.338701765,-0.248465206,0.415917,0.313233166,-0.270343934,0.433401,0.304814251,-0.232658815,0.428491,0.298173406,-0.201756114,0.425151,0.299433737,-0.18002717,0.422741,0.341090021,-0.205396445,0.408925,0.344939101,-0.166394673,0.393154,0.346940571,-0.147145666,0.385268,0.353042912,-0.129762293,0.378099,0.352840021,-0.219240164,0.402935,0.368762879,-0.185063887,0.383604,0.376071848,-0.165581989,0.372327,0.380885014,-0.149396768,0.364272,0.36075061,-0.234150338,0.399586,0.376962746,-0.205769339,0.378264,0.384597324,-0.191100737,0.367355,0.391662985,-0.177705862,0.357437,0.367023689,-0.257668455,0.398461,0.381506042,-0.2441002,0.379868,0.388266637,-0.237432695,0.371326,0.394421938,-0.231534342,0.363788
0.319301057,-0.290213569,0.433829,0.332123068,-0.250288781,0.415529,0.31075857,-0.273890446,0.43547,0.300125464,-0.235628832,0.430194,0.28924976,-0.204951257,0.42604,0.29336138,-0.183418015,0.423808,0.329096211,-0.208077324,0.407498,0.332940405,-0.16754555,0.389393,0.333537888,-0.148029126,0.38034,0.334123098,-0.130210219,0.372111,0.34071463,-0.220954476,0.400698,0.352338735,-0.184134221,0.379779,0.358289075,-0.163159963,0.367576,0.36261678,-0.148110078,0.358859,0.348854912,-0.235288599,0.396907,0.361174203,-0.20461382,0.374197,0.367564148,-0.188873722,0.362578,0.373433426,-0.174533231,0.352016,0.356000813,-0.258548063,0.395664,0.366555293,-0.242765456,0.374947,0.371673817,-0.235493735,0.365429,0.376348937,-0.229064748,0.35703
0.319893753,-0.290105331,0.433885,0.327174913,-0.248914566,0.415407,0.312259108,-0.273459325,0.43582,0.295758004,-0.238483727,0.431203,0.281918087,-0.20698072,0.425751,0.284392152,-0.184891393,0.424757,0.327848475,-0.207104381,0.407661,0.331763771,-0.166549897,0.390117,0.332147095,-0.147128422,0.381345,0.331193364,-0.127317653,0.37337,0.339314766,-0.219512409,0.400432,0.349935737,-0.182165181,0.379193,0.353147411,-0.158856487,0.366803,0.359275109,-0.145544628,0.357953,0.347379238,-0.233510933,0.396307,0.358825809,-0.201960872,0.373072,0.362501901,-0.183956182,0.361184,0.36942652,-0.171546608,0.350377,0.354535788,-0.256477993,0.394705,0.3640521,-0.240147687,0.373589,0.368695197,-0.232620457,0.363888,0.372951513,-0.225963211,0.355327
0.319659725,-0.29011529,0.434138,0.320764188,-0.248247405,0.415473,0.310963208,-0.275548597,0.437589,0.29134716,-0.240348767,0.433571,0.276415354,-0.210126029,0.428398,0.275177129,-0.188287999,0.424937,0.315793716,-0.204111357,0.409592,0.319049175,-0.164180327,0.393754,0.320026686,-0.143736216,0.386526,0.32234186,-0.124518259,0.383055,0.328407726,-0.216212962,0.400346,0.337187211,-0.177351681,0.380102,0.342330856,-0.154658081,0.368293,0.346016092,-0.138436043,0.359858,0.335617451,-0.228820948,0.394576,0.345342242,-0.194277876,0.371112,0.348644835,-0.177340471,0.359107,0.351809486,-0.161824161,0.348194,0.342074541,-0.250603142,0.391097,0.348535639,-0.230462717,0.368367,0.351699714,-0.22116723,0.357923,0.354610029,-0.212941326,0.348709
0.313820499,-0.293848255,0.436426,0.309665807,-0.249458022,0.415462,0.296583699,-0.277476824,0.437123,0.274607565,-0.241595141,0.430919,0.262327107,-0.213675358,0.430315,0.256826628,-0.192245967,0.426612,0.300394564,-0.202724093,0.404724,0.294095597,-0.160564751,0.38159,0.288322925,-0.142187684,0.370024,0.281056177,-0.127933977,0.359509,0.315065516,-0.213044751,0.398472,0.322040801,-0.172514394,0.380436,0.326196081,-0.148746093,0.369915,0.329207332,-0.131705898,0.3624,0.326388166,-0.225831617,0.395395,0.333001163,-0.189732217,0.37283,0.336360487,-0.171281652,0.361285,0.339499406,-0.154429533,0.350789,0.338451626,-0.248337157,0.395442,0.342283184,-0.226004317,0.372819,0.34426744,-0.215665191,0.362425,0.346151708,-0.206494944,0.353253
0.306666418,-0.292772205,0.432604,0.30758141,-0.250305705,0.415759,0.293145673,-0.277776317,0.435697,0.270532443,-0.245787539,0.431803,0.25378941,-0.216652093,0.427283,0.246757939,-0.195012134,0.422548,0.29848458,-0.206811507,0.410425,0.298577634,-0.164058732,0.397386,0.294656506,-0.14460332,0.390867,0.29111106,-0.126591805,0.384941,0.311700764,-0.215360363,0.402107,0.316235288,-0.173045798,0.382048,0.318830496,-0.148440972,0.370347,0.318126158,-0.132366278,0.361989,0.32167875,-0.226611733,0.396922,0.331604718,-0.18992237,0.374561,0.335158555,-0.171120022,0.36312,0.337930756,-0.154291712,0.35272,0.334467049,-0.247210542,0.393808,0.33765673,-0.222440802,0.37296,0.340530689,-0.211001024,0.363382,0.345487943,-0.204150899,0.35493
0.297580118,-0.293051883,0.430219,0.302610827,-0.251411465,0.417309,0.285937755,-0.279278536,0.433602,0.26012838,-0.251853276,0.431303,0.242026569,-0.225820054,0.429576,0.240072088,-0.208054893,0.432334,0.288391209,-0.208518937,0.414537,0.283099195,-0.166387314,0.405724,0.279464016,-0.145682449,0.401317,0.276156987,-0.126772411,0.397311,0.3039837,-0.214438222,0.406847,0.307231274,-0.170151192,0.39258,0.309124665,-0.144320802,0.384258,0.310475862,-0.125871985,0.378313,0.316098965,-0.223681482,0.401791,0.322224539,-0.18097488,0.381984,0.321579498,-0.162001509,0.37185,0.321172522,-0.144432739,0.362638,0.329041812,-0.242088221,0.398146,0.337540096,-0.212472927,0.380561,0.34156295,-0.198768199,0.372481,0.344853949,-0.186887364,0.365352
0.296710498,-0.294556588,0.43059,0.296978204,-0.252498732,0.420262,0.283041101,-0.284399784,0.435005,0.253306215,-0.261937992,0.432898,0.228299022,-0.237458716,0.42754,0.216226423,-0.218039053,0.423839,0.276766217,-0.21347536,0.420265,0.265212386,-0.170337415,0.408574,0.258916156,-0.149219752,0.402728,0.2502356,-0.133518074,0.397414,0.293648925,-0.214534816,0.411891,0.295373154,-0.169011424,0.400162,0.293292824,-0.144056505,0.39332,0.291855173,-0.125873654,0.388433,0.307329192,-0.219931963,0.406017,0.314115348,-0.176601876,0.393063,0.314760241,-0.156288152,0.386435,0.315492938,-0.137395122,0.38041,0.323023157,-0.234114261,0.400976,0.330240483,-0.201558387,0.384826,0.333626933,-0.186520223,0.377406,0.329292381,-0.180650637,0.370859
0.298093384,-0.297853926,0.434681,0.291751551,-0.253530069,0.423011,0.279734488,-0.288598347,0.436802,0.244808088,-0.266230326,0.433478,0.215372649,-0.24580189,0.426921,0.199771943,-0.227463586,0.421889,0.267353062,-0.213652502,0.419281,0.249871585,-0.171523291,0.405635,0.240379997,-0.151267389,0.398812,0.230254483,-0.135412448,0.39261,0.286543748,-0.215151858,0.413545,0.280737548,-0.168704173,0.400939,0.275291896,-0.143342879,0.393585,0.271397736,-0.12490454,0.388332,0.302539679,-0.220974582,0.409975,0.296346147,-0.175720356,0.394297,0.292968139,-0.152732609,0.386275,0.289912069,-0.131730526,0.378983,0.321551864,-0.235770862,0.407841,0.321296556,-0.200396759,0.392128,0.321263691,-0.183959595,0.384908,0.321283085,-0.169350453,0.378537
0.295262741,-0.299706094,0.435027,0.287305347,-0.255519478,0.425119,0.278200755,-0.290188501,0.436962,0.240602012,-0.273245782,0.433449,0.210742603,-0.254597282,0.42798,0.192802526,-0.236926771,0.421126,0.260813644,-0.219041551,0.422115,0.239667271,-0.179183723,0.410005,0.228534216,-0.159739276,0.40395,0.218336676,-0.14189265,0.398446,0.280487245,-0.218743969,0.417068,0.269109255,-0.172782041,0.403975,0.262184325,-0.146112154,0.396337,0.257231654,-0.126984088,0.390881,0.297261815,-0.223100735,0.41389,0.287363625,-0.176582958,0.399125,0.281182022,-0.153995995,0.39157,0.275555385,-0.133259531,0.384703,0.317773416,-0.236266602,0.411907,0.319379676,-0.196867566,0.397773,0.31702094,-0.183131845,0.39128,0.315013067,-0.170738609,0.38555
0.297001711,-0.299697124,0.435965,0.283794166,-0.256404607,0.426111,0.278105167,-0.291441924,0.438057,0.240018568,-0.280337233,0.436008,0.206714452,-0.264748528,0.428533,0.187644135,-0.249354768,0.423362,0.254476454,-0.220847306,0.423322,0.231143432,-0.181353088,0.411096,0.219083062,-0.161948183,0.404983,0.207726582,-0.144594143,0.399426,0.27432541,-0.218581026,0.418078,0.263135559,-0.172997422,0.406957,0.256420041,-0.146465725,0.40047,0.251617581,-0.12745825,0.395837,0.291643939,-0.221194055,0.41473,0.282647988,-0.175987487,0.403602,0.277831533,-0.152988138,0.397909,0.273449636,-0.132006789,0.392733,0.313434565,-0.23205446,0.412537,0.31036017,-0.193679473,0.398381,0.308960377,-0.175997559,0.391877,0.305788224,-0.164513921,0.386138
0.29648363,-0.300257459,0.436203,0.282958057,-0.256193292,0.426379,0.277331503,-0.292294635,0.438088,0.238615314,-0.281179385,0.435718,0.204274394,-0.265419285,0.426901,0.185184525,-0.25040624,0.422157,0.253667626,-0.220687776,0.42333,0.229204059,-0.182300129,0.410978,0.216648684,-0.16327082,0.404803,0.204982878,-0.146028786,0.399188,0.273614151,-0.217902693,0.41836,0.260691241,-0.17215046,0.40638,0.249270649,-0.145975607,0.399391,0.241777337,-0.128461369,0.394399,0.291061138,-0.220148395,0.415236,0.28177647,-0.17514853,0.404343,0.276769648,-0.152259772,0.39877,0.272212522,-0.131347708,0.393704,0.313148696,-0.230734296,0.413296,0.309382832,-0.192091467,0.399232,0.305663715,-0.172191162,0.39277,0.303223161,-0.165157522,0.387068
0.296004144,-0.300640215,0.436298,0.282507723,-0.256059,0.426466,0.276774293,-0.292899018,0.438103,0.238130203,-0.281443366,0.435593,0.203431549,-0.26560637,0.426297,0.184321579,-0.250699344,0.421658,0.253376019,-0.220614679,0.423294,0.228541146,-0.182603338,0.41091,0.215821793,-0.163702838,0.404718,0.2040557,-0.146501285,0.399089,0.273357216,-0.217660898,0.418422,0.260048458,-0.171980114,0.406449,0.249316211,-0.146002288,0.399464,0.24182454,-0.128486449,0.394476,0.290847317,-0.219785405,0.415376,0.281470158,-0.174859087,0.404567,0.276401407,-0.152009084,0.399037,0.271786794,-0.131121541,0.39401,0.313037564,-0.230281659,0.413529,0.309033794,-0.191547045,0.399487,0.305869944,-0.172307339,0.393035,0.302334189,-0.165357122,0.387342
0.294945585,-0.302580067,0.437217,0.282673576,-0.257111845,0.426896,0.275558259,-0.295221432,0.438379,0.238037808,-0.289142473,0.436332,0.201003941,-0.273501838,0.424012,0.18070321,-0.25928762,0.418743,0.253125154,-0.22133803,0.422608,0.226694748,-0.184557706,0.410011,0.212025459,-0.171926491,0.403712,0.198603239,-0.157085745,0.397987,0.273458564,-0.218642614,0.41844,0.258609938,-0.173617216,0.407031,0.247794014,-0.151690859,0.400376,0.241898108,-0.130346888,0.395623,0.291341301,-0.221015153,0.416022,0.281637825,-0.176132052,0.405188,0.276430671,-0.153274117,0.399645,0.27168955,-0.132382224,0.394606,0.314158154,-0.231903887,0.414986,0.309748823,-0.192922973,0.400783,0.307671876,-0.175055031,0.394257,0.303397191,-0.164819561,0.388499
0.293843486,-0.302851784,0.435694,0.284576759,-0.257159822,0.426721,0.27584753,-0.295465133,0.437265,0.245363141,-0.289983334,0.434323,0.208086484,-0.2737383,0.421993,0.184338266,-0.259623372,0.418032,0.256419157,-0.226089297,0.423711,0.229287916,-0.190890469,0.411868,0.215118399,-0.174272114,0.405946,0.202011342,-0.158876405,0.400563,0.277333878,-0.220679878,0.419354,0.260630464,-0.176078399,0.407213,0.249180066,-0.151831444,0.400131,0.242049613,-0.131002696,0.395072,0.293586646,-0.221888334,0.416645,0.282065085,-0.176374151,0.405453,0.276457368,-0.153514198,0.399726,0.271350748,-0.132620499,0.39452,0.315152355,-0.230669705,0.415036,0.310810313,-0.190594948,0.401848,0.308371112,-0.173081949,0.395789,0.305359352,-0.160157386,0.390442
0.293607942,-0.303581825,0.435247,0.286056915,-0.257564701,0.426,0.276987687,-0.294805616,0.436919,0.245208206,-0.289558836,0.434987,0.207914095,-0.272852591,0.422525,0.186025322,-0.259337916,0.418912,0.260056057,-0.223553624,0.422965,0.232431616,-0.191294051,0.411459,0.218607907,-0.174017713,0.405706,0.20374955,-0.158797959,0.400476,0.278413993,-0.219825515,0.418406,0.264179771,-0.172619705,0.402608,0.253080367,-0.149665123,0.393392,0.24302678,-0.132104332,0.389014,0.295758363,-0.221865746,0.415559,0.288757025,-0.176742832,0.40242,0.280665856,-0.153617021,0.395698,0.274949711,-0.133519184,0.389587,0.318771454,-0.229442875,0.413836,0.313666312,-0.194051671,0.400311,0.31171132,-0.177037649,0.394097,0.304489392,-0.164968994,0.388614
0.294788241,-0.304627183,0.43583,0.292484357,-0.257945385,0.426777,0.276254947,-0.29515244,0.435429,0.247227907,-0.281867598,0.430194,0.211583596,-0.263974225,0.418834,0.196183017,-0.251279855,0.419695,0.266937544,-0.221843225,0.421164,0.241516708,-0.184266827,0.408191,0.228492084,-0.166301727,0.401705,0.216552199,-0.153089574,0.395808,0.290001136,-0.219467121,0.419344,0.270720765,-0.173363542,0.403863,0.261644923,-0.146557538,0.394832,0.258129384,-0.129006709,0.392973,0.308953641,-0.225035151,0.418733,0.292279793,-0.178478293,0.403394,0.284003822,-0.154604488,0.395547,0.277185454,-0.134289227,0.388413,0.333173232,-0.236713517,0.419576,0.326766125,-0.198658323,0.406427,0.324424503,-0.177795532,0.400386,0.318563707,-0.17130864,0.395055
0.297402208,-0.3068536,0.43818,0.298130653,-0.260720099,0.427595,0.279195921,-0.298384058,0.438813,0.251793647,-0.284217459,0.434762,0.215613393,-0.264426375,0.421888,0.19875234,-0.250245573,0.419899,0.27015181,-0.223194656,0.422431,0.24994389,-0.186205267,0.408673,0.238010481,-0.168850465,0.401793,0.226977431,-0.152733398,0.395539,0.290903836,-0.220352167,0.418862,0.277784249,-0.177175938,0.401998,0.268697417,-0.150567927,0.39216,0.264917579,-0.132868646,0.389123,0.308894784,-0.224776749,0.416957,0.299652817,-0.179005023,0.399832,0.29406289,-0.156125719,0.39107,0.28592337,-0.13765158,0.384378,0.332390055,-0.236754889,0.416553,0.331239976,-0.200492517,0.402185,0.329126285,-0.18785017,0.395584,0.324834767,-0.173751457,0.389759
0.298704133,-0.307329138,0.43758,0.300509783,-0.261810643,0.428375,0.287105018,-0.301744825,0.438647,0.255990469,-0.282886248,0.434778,0.222748445,-0.264585209,0.426094,0.204214033,-0.248394447,0.420486,0.276665113,-0.224926474,0.424536,0.258650164,-0.187433819,0.411761,0.248113121,-0.168335408,0.405374,0.232962227,-0.155045062,0.399568,0.29699112,-0.22384822,0.420756,0.287638149,-0.177835137,0.405025,0.277597371,-0.154635012,0.395849,0.267666148,-0.135256632,0.389295,0.314567736,-0.227530671,0.418542,0.30887252,-0.180249119,0.402645,0.303296912,-0.15718406,0.394512,0.291462728,-0.13993555,0.387118,0.336508429,-0.239987869,0.41754,0.339305252,-0.200984267,0.404187,0.332811119,-0.187914681,0.398051,0.329928528,-0.17591289,0.392638
0.305945081,-0.308914773,0.436462,0.306802631,-0.262477274,0.428155,0.288107187,-0.300602312,0.437516,0.267350052,-0.28116084,0.439819,0.238106408,-0.262804318,0.43564,0.224101652,-0.247273509,0.435157,0.285995593,-0.223354045,0.424791,0.267882207,-0.184240378,0.412546,0.25763513,-0.166307902,0.406424,0.248166484,-0.149635276,0.400858,0.306310019,-0.223639104,0.421255,0.297292084,-0.176908031,0.40629,0.28879359,-0.153342483,0.39756,0.282677011,-0.136072594,0.391325,0.323707778,-0.228401917,0.419153,0.312981397,-0.18144975,0.404559,0.308027682,-0.158440706,0.397092,0.301002757,-0.141104988,0.390305,0.345054911,-0.242053792,0.418125,0.348056332,-0.20274551,0.405643,0.347853832,-0.186194323,0.399907,0.342598987,-0.180522738,0.394847
0.310184355,-0.311441583,0.440206,0.313731342,-0.263354129,0.430523,0.293698591,-0.302674414,0.441393,0.272211914,-0.278063291,0.439696,0.244003015,-0.257149744,0.434768,0.229266871,-0.239419444,0.43131,0.289776836,-0.224002534,0.426531,0.276600993,-0.182216235,0.41296,0.267639929,-0.164108435,0.406175,0.25938419,-0.147272311,0.400007,0.313158352,-0.224266256,0.422456,0.303304905,-0.177055581,0.406292,0.296026025,-0.152581966,0.396863,0.290822826,-0.134762267,0.390128,0.330609753,-0.229212597,0.420042,0.322324454,-0.183211657,0.403775,0.316806843,-0.163022713,0.395452,0.311151941,-0.146558497,0.387887,0.351648865,-0.242941755,0.418883,0.351621863,-0.207245661,0.405157,0.351086069,-0.192043376,0.398851,0.350708184,-0.178397194,0.393286
0.310033834,-0.309740306,0.438008,0.315254008,-0.262704914,0.430065,0.296379951,-0.301153067,0.44064,0.273046428,-0.275434104,0.438122,0.249308862,-0.252646345,0.435415,0.236933462,-0.234811675,0.433755,0.296425726,-0.224071105,0.428936,0.281795722,-0.183365534,0.417263,0.276712234,-0.162111731,0.411426,0.269962055,-0.143322079,0.40612,0.316069504,-0.22421971,0.423448,0.311006388,-0.177351699,0.408584,0.30677786,-0.150393216,0.399913,0.302532232,-0.132602262,0.39372,0.332335962,-0.228759749,0.419702,0.330562828,-0.181975363,0.404478,0.325809066,-0.162809337,0.396689,0.321539747,-0.144876751,0.389608,0.351555503,-0.241821274,0.416695,0.353286318,-0.20657078,0.403986,0.353126423,-0.192031552,0.398146,0.35262268,-0.179741406,0.392994
0.311789602,-0.310427831,0.438631,0.319481323,-0.263467978,0.430105,0.300215485,-0.301656505,0.44152,0.277691841,-0.275527754,0.43967,0.252441869,-0.254239729,0.437172,0.241007232,-0.236707457,0.436471,0.306333728,-0.225477606,0.428957,0.290958878,-0.186155163,0.418325,0.282951767,-0.166488394,0.413009,0.273469038,-0.146200334,0.408176,0.32459116,-0.227029811,0.422979,0.317873906,-0.181002641,0.408637,0.312190966,-0.155791524,0.400272,0.305551913,-0.135130298,0.394296,0.33960145,-0.232744829,0.418881,0.335043171,-0.187429779,0.404073,0.331663482,-0.165263652,0.396496,0.324557634,-0.145558794,0.389609,0.357105383,-0.247306316,0.41556,0.358897171,-0.210872845,0.402347,0.359256563,-0.194559722,0.396276,0.356323206,-0.180146249,0.390919
0.314135125,-0.31141183,0.440428,0.322981109,-0.263825202,0.430888,0.30362606,-0.301006828,0.442318,0.28484993,-0.273694989,0.445106,0.259958388,-0.25104524,0.441778,0.246386464,-0.235060304,0.438724,0.30640309,-0.223300435,0.427849,0.293454433,-0.180810213,0.415304,0.285567862,-0.161617697,0.409032,0.275307625,-0.145225938,0.40333,0.325488101,-0.225955523,0.422889,0.318240936,-0.179787458,0.407237,0.312501067,-0.154441539,0.398106,0.308377141,-0.136116464,0.391584,0.341221425,-0.232599249,0.419726,0.335845367,-0.186983247,0.404056,0.331990815,-0.165003244,0.396038,0.325610478,-0.145144769,0.388749,0.359597665,-0.248271578,0.417664,0.361791505,-0.211003114,0.40383,0.362118918,-0.19477548,0.397473,0.361254065,-0.182378424,0.391865
0.316806268,-0.311884627,0.441493,0.323954876,-0.263984224,0.431458,0.30490576,-0.300925394,0.443072,0.284882568,-0.273726349,0.445157,0.259980749,-0.251066834,0.441816,0.247099466,-0.234147341,0.439067,0.306597277,-0.222698366,0.427718,0.292989489,-0.180523741,0.414646,0.284924861,-0.161253789,0.408111,0.275513681,-0.144349286,0.402169,0.325911754,-0.225682657,0.42302,0.318417341,-0.179411782,0.406838,0.312616146,-0.153996801,0.397398,0.308436741,-0.135654611,0.390656,0.341852798,-0.232611848,0.420119,0.336058019,-0.186803507,0.403984,0.331969404,-0.164851243,0.395729,0.326055254,-0.144902393,0.388224,0.36049418,-0.248638057,0.418441,0.362708816,-0.21102208,0.404275,0.36297323,-0.194796815,0.397767,0.361647826,-0.183093998,0.392024
0.320994109,-0.314527335,0.444962,0.325989956,-0.270294556,0.434656,0.304176713,-0.303446967,0.445804,0.284833393,-0.276443703,0.445732,0.26144228,-0.252100751,0.442645,0.250428918,-0.232829949,0.440123,0.30662888,-0.228137978,0.429808,0.294816708,-0.188627977,0.416401,0.288626955,-0.168163753,0.409698,0.280026848,-0.145784511,0.403604,0.326241886,-0.23495189,0.42599,0.319890977,-0.189621727,0.40973,0.316176196,-0.16306719,0.400244,0.312692306,-0.138938196,0.393469,0.342569378,-0.243056609,0.423841,0.337809533,-0.198109004,0.407694,0.335151952,-0.175392868,0.399433,0.330988026,-0.151133672,0.391923,0.361374841,-0.260091411,0.423084,0.363196948,-0.224457325,0.408787,0.363935222,-0.208270091,0.402217,0.36402221,-0.195064511,0.396421
0.323265278,-0.315794158,0.446275,0.326366071,-0.271555808,0.435611,0.306845168,-0.304295531,0.447211,0.285346915,-0.277051121,0.446353,0.262238612,-0.252681061,0.443171,0.251506347,-0.23320366,0.440531,0.307131611,-0.229328749,0.430659,0.295217442,-0.188884373,0.416967,0.288924954,-0.168337376,0.410121,0.280978658,-0.146806555,0.403898,0.326722836,-0.235298259,0.426618,0.320134567,-0.18976612,0.410042,0.316278101,-0.163119747,0.400373,0.31290317,-0.140219274,0.393466,0.342953296,-0.243329003,0.424316,0.337902334,-0.198163428,0.407806,0.335089861,-0.175360375,0.399359,0.331268919,-0.15236867,0.39168,0.361678916,-0.260310263,0.42344,0.363251145,-0.224490819,0.408848,0.363868265,-0.208231773,0.402143,0.363844065,-0.19496905,0.396227
