sluyters/QuantumLeap/src/datasets/gesture/HandGestureDataset_SHREC2017_csv/Gesture3/finger_1/subject_25_essai_3_skeletons_world.csv
Wrist_x,Wrist_y,Wrist_z,Palm_x,Palm_y,Palm_z,thumb_base_x,thumb_base_y,thumb_base_z,thumb_first_joint_x,thumb_first_joint_y,thumb_first_joint_z,thumb_second_joint_x,thumb_second_joint_y,thumb_second_joint_z,thumb_tip_x,thumb_tip_y,thumb_tip_z,index_base_x,index_base_y,index_base_z,index_first_joint_x,index_first_joint_y,index_first_joint_z,index_second_joint_x,index_second_joint_y,index_second_joint_z,index_tip_x,index_tip_y,index_tip_z,middle_base_x,middle_base_y,middle_base_z,middle_first_joint_x,middle_first_joint_y,middle_first_joint_z,middle_second_joint_x,middle_second_joint_y,middle_second_joint_z,middle_tip_x,middle_tip_y,middle_tip_z,ring_base_x,ring_base_y,ring_base_z,ring_first_joint_x,ring_first_joint_y,ring_first_joint_z,ring_second_joint_x,ring_second_joint_y,ring_second_joint_z,ring_tip_x,ring_tip_y,ring_tip_z,pinky_base_x,pinky_base_y,pinky_base_z,pinky_first_joint_x,pinky_first_joint_y,pinky_first_joint_z,pinky_second_joint_x,pinky_second_joint_y,pinky_second_joint_z,pinky_tip_x,pinky_tip_y,pinky_tip_z,r
0.391591647,-0.361835785,0.475481,0.375250339,-0.308686041,0.456993,0.36574509,-0.348638785,0.468951,0.35253964,-0.323967449,0.460684,0.337462497,-0.296394786,0.449865,0.337953554,-0.27774176,0.442039,0.33237507,-0.262223758,0.436648,0.329220486,-0.224257249,0.427902,0.32652579,-0.225022065,0.423529,0.335494853,-0.250213578,0.435486,0.36090599,-0.261190899,0.440049,0.339408547,-0.235515859,0.415713,0.33184222,-0.247877686,0.401517,0.33951789,-0.266590885,0.40815,0.385970703,-0.267381987,0.444739,0.365781517,-0.252224417,0.421187,0.362404342,-0.264116797,0.409138,0.370945851,-0.2768924,0.416103,0.418632544,-0.284629594,0.453511,0.398810352,-0.283129165,0.432606,0.405482399,-0.306580103,0.444675,0.412439427,-0.324456284,0.456712
0.392255015,-0.362033164,0.476025,0.376378204,-0.308340573,0.457677,0.365421013,-0.348042835,0.468259,0.352000611,-0.322048666,0.458702,0.335759962,-0.293690489,0.44723,0.335376472,-0.274251252,0.438922,0.332149171,-0.258095558,0.43582,0.329199922,-0.223330402,0.427576,0.326907254,-0.223938313,0.423454,0.335354371,-0.245739974,0.435435,0.361472187,-0.260380005,0.440861,0.341150924,-0.235908154,0.4165,0.333562289,-0.249162583,0.40229,0.340495634,-0.266566196,0.40875,0.387761105,-0.26849186,0.446885,0.368588934,-0.253732899,0.42285,0.364744972,-0.265583055,0.410553,0.372510747,-0.278075686,0.417195,0.422453191,-0.286017236,0.457186,0.399675708,-0.286318488,0.435991,0.399907823,-0.304054214,0.447871,0.409073724,-0.313928688,0.460626
0.392949701,-0.362376194,0.476173,0.376994606,-0.308897224,0.458122,0.366136989,-0.34866329,0.468492,0.352533544,-0.321824885,0.458758,0.33630707,-0.293564428,0.447776,0.335771572,-0.273887882,0.439566,0.332697909,-0.258701556,0.436567,0.3291682,-0.222760534,0.427355,0.326626822,-0.22293849,0.422749,0.334941533,-0.244281724,0.434423,0.362019923,-0.261176893,0.441579,0.342503853,-0.236435238,0.417478,0.335036659,-0.250263919,0.403419,0.341779002,-0.267178952,0.410006,0.388263267,-0.269005009,0.44755,0.370073582,-0.25454167,0.42377,0.366222884,-0.266539616,0.411604,0.373867454,-0.279096064,0.418383,0.422879703,-0.286140418,0.457735,0.399861886,-0.28661769,0.436739,0.400639115,-0.304610223,0.44869,0.409732681,-0.31443438,0.461368
0.394005384,-0.362895226,0.476621,0.377727334,-0.309520793,0.458645,0.367275879,-0.349577479,0.469138,0.353109911,-0.322184878,0.458971,0.336875587,-0.294171539,0.448319,0.336689905,-0.274691009,0.43998,0.333321757,-0.259935401,0.437395,0.326474483,-0.220165904,0.42287,0.322254723,-0.223678292,0.415608,0.327978934,-0.244449101,0.4254,0.362479466,-0.26260738,0.442171,0.34345521,-0.237326827,0.418154,0.337426475,-0.252890011,0.404144,0.342699403,-0.268063047,0.410799,0.388551447,-0.26936618,0.44794,0.371073803,-0.255510748,0.424305,0.367241176,-0.267592253,0.412213,0.374815989,-0.280055001,0.419083,0.423008158,-0.286101022,0.457876,0.399710225,-0.287740812,0.436982,0.403280249,-0.30728875,0.448986,0.410201925,-0.314950044,0.46163
0.39403839,-0.363608145,0.476802,0.377570961,-0.310168473,0.458778,0.367197227,-0.350262194,0.469195,0.353234655,-0.322187925,0.458775,0.336798033,-0.294177788,0.448073,0.336780581,-0.274801027,0.439573,0.333270073,-0.260093154,0.437337,0.326005112,-0.220132848,0.422283,0.321573522,-0.223181601,0.414756,0.327331664,-0.243852703,0.424324,0.362536407,-0.262651711,0.442259,0.343749463,-0.237687145,0.418189,0.337522841,-0.253384081,0.404148,0.342839427,-0.268281979,0.41076,0.388734218,-0.269408335,0.448154,0.371540335,-0.256019673,0.424431,0.367631521,-0.268084468,0.412294,0.375054774,-0.280400734,0.419109,0.42291356,-0.28673541,0.458245,0.39984123,-0.287932673,0.437287,0.403254116,-0.307323423,0.449258,0.410479568,-0.315241122,0.461809
0.395147873,-0.36431618,0.477071,0.374603708,-0.307727258,0.454821,0.367966552,-0.350947925,0.469248,0.35351183,-0.32227308,0.458982,0.330647647,-0.288667204,0.439594,0.327338341,-0.26697963,0.426993,0.327742213,-0.256334459,0.430383,0.313186291,-0.212090415,0.405253,0.305077193,-0.211938038,0.392688,0.306877105,-0.226959472,0.397465,0.35585045,-0.257512795,0.43443,0.334484357,-0.231291192,0.406813,0.325279956,-0.243960646,0.390704,0.330252225,-0.258428352,0.395627,0.381459658,-0.263928191,0.440036,0.36095761,-0.247578904,0.413253,0.355590742,-0.258168095,0.39955,0.362156803,-0.270413384,0.404663,0.415715172,-0.281235354,0.450548,0.390766324,-0.279546026,0.427089,0.393154223,-0.298384954,0.438138,0.400913098,-0.307429759,0.450679
0.394580298,-0.362942202,0.475023,0.372400438,-0.305100463,0.45175,0.367769469,-0.350219654,0.467795,0.353429542,-0.320573378,0.457515,0.330466753,-0.28760589,0.438051,0.327235589,-0.266464002,0.426591,0.325375164,-0.254083051,0.427425,0.310371204,-0.208148376,0.40174,0.300646286,-0.205260976,0.388897,0.304311933,-0.222115228,0.39338,0.352616594,-0.254300227,0.430422,0.331549693,-0.228916513,0.402047,0.320915321,-0.240706153,0.385494,0.325643098,-0.253698904,0.390081,0.377669758,-0.259335173,0.435267,0.35712859,-0.240460162,0.408074,0.351687086,-0.251112962,0.394161,0.356283465,-0.264072585,0.399011,0.411894774,-0.273679392,0.445078,0.390104922,-0.268329604,0.421233,0.392191401,-0.287599839,0.43212,0.396930631,-0.302410014,0.444734
0.391907152,-0.359287304,0.470598,0.36982117,-0.298607447,0.447505,0.365201925,-0.346847458,0.463476,0.34979397,-0.313380099,0.452799,0.327020935,-0.280716102,0.433046,0.325073104,-0.264412493,0.423111,0.322010261,-0.247540008,0.423432,0.305937444,-0.20188031,0.397899,0.297329457,-0.199093563,0.385133,0.300622444,-0.215761321,0.38971,0.349271496,-0.247045562,0.426341,0.327791524,-0.224310827,0.398125,0.317334843,-0.23684024,0.381665,0.322575917,-0.25091092,0.386345,0.374338278,-0.252093792,0.431095,0.353670701,-0.235200209,0.404072,0.34831688,-0.245976414,0.390247,0.352941986,-0.258251059,0.395202,0.408315471,-0.267789316,0.440768,0.385216895,-0.264974789,0.417057,0.387410509,-0.283964073,0.428004,0.394428982,-0.296486784,0.440595
0.390377044,-0.357104792,0.468837,0.368459514,-0.296859086,0.445871,0.363505601,-0.34447745,0.461507,0.347659539,-0.311263732,0.450271,0.325829453,-0.279124593,0.430822,0.322726847,-0.259141005,0.418642,0.320485649,-0.246001736,0.421611,0.304446421,-0.200424521,0.396102,0.29564345,-0.19545383,0.383348,0.29931927,-0.212828523,0.387936,0.347963789,-0.245702033,0.424824,0.326510131,-0.22296244,0.396684,0.31638498,-0.235827613,0.380269,0.321598281,-0.250348236,0.384972,0.373224455,-0.250899796,0.429817,0.352533382,-0.234005935,0.40278,0.347153244,-0.244793739,0.388947,0.353281453,-0.258085129,0.393902,0.407430107,-0.266759674,0.439743,0.384091141,-0.264186839,0.416036,0.386287323,-0.283107356,0.426988,0.393565571,-0.295181981,0.439578
0.38961312,-0.355304598,0.467642,0.367929239,-0.295791365,0.444939,0.362747263,-0.342763776,0.460303,0.346838879,-0.310205856,0.448895,0.325013367,-0.278003099,0.428841,0.321936798,-0.257960944,0.416537,0.320287822,-0.245202695,0.420836,0.304459181,-0.198389214,0.395526,0.296737086,-0.191863392,0.38287,0.300717193,-0.205460071,0.38757,0.347811201,-0.245022759,0.424133,0.326504978,-0.220683575,0.396205,0.317696679,-0.233598772,0.379914,0.322045855,-0.247912915,0.384729,0.37306704,-0.250300233,0.429167,0.35271796,-0.233489513,0.402303,0.347344097,-0.244343858,0.388559,0.353412456,-0.257537994,0.393622,0.407189337,-0.26621951,0.439095,0.38398507,-0.263808947,0.415531,0.386192881,-0.282711746,0.426548,0.3934493,-0.29448544,0.439113
0.387592193,-0.351192122,0.464135,0.367910378,-0.292896101,0.443251,0.361764868,-0.339787299,0.457963,0.352635803,-0.314341868,0.442437,0.320783368,-0.285974798,0.417653,0.303022762,-0.263977279,0.40577,0.324188746,-0.244643332,0.421828,0.307356839,-0.199243628,0.39811,0.302792868,-0.180913121,0.38625,0.307920814,-0.172152271,0.390304,0.350988712,-0.24356295,0.424111,0.330516989,-0.217609882,0.397832,0.322802174,-0.231840868,0.382503,0.326656973,-0.247409549,0.388239,0.375401313,-0.247921802,0.428125,0.357090975,-0.231884965,0.403053,0.35003158,-0.244117567,0.390226,0.356743375,-0.259209284,0.396338,0.408073925,-0.262372275,0.436539,0.383764593,-0.262988607,0.414375,0.386027034,-0.282190503,0.425975,0.392559332,-0.29370171,0.438273
0.386723854,-0.348513789,0.462666,0.369430041,-0.288834516,0.441939,0.362015206,-0.335329773,0.457065,0.345189431,-0.309169193,0.439429,0.309855557,-0.280228104,0.414539,0.29153042,-0.258047374,0.403274,0.327365604,-0.238257529,0.421357,0.314654726,-0.193436264,0.397876,0.308366742,-0.173009075,0.386135,0.314814488,-0.161133476,0.390553,0.352900802,-0.240316995,0.422944,0.332345464,-0.214841997,0.396883,0.322882099,-0.230357115,0.38168,0.328627159,-0.244488402,0.387544,0.376751057,-0.244698621,0.426368,0.356253055,-0.220563278,0.401688,0.350553427,-0.231763178,0.389061,0.359511388,-0.250520227,0.395363,0.408436205,-0.258999754,0.434068,0.381924646,-0.261620325,0.412188,0.383823515,-0.280568191,0.423876,0.390283174,-0.291009313,0.43611
0.379406829,-0.339969963,0.453536,0.368152393,-0.283495989,0.438273,0.355775914,-0.326690545,0.448628,0.33067047,-0.296701752,0.430965,0.295405425,-0.271053211,0.408935,0.279105929,-0.25086018,0.397862,0.329554125,-0.23670972,0.422103,0.32376729,-0.192096734,0.40305,0.320223828,-0.172907304,0.393524,0.321443686,-0.161255393,0.394462,0.356622084,-0.237615489,0.424286,0.341489533,-0.216744764,0.402915,0.333114715,-0.234405006,0.390448,0.339090912,-0.250951378,0.398483,0.380354488,-0.243283119,0.427643,0.364881036,-0.230850931,0.4071,0.361330666,-0.244413691,0.396589,0.368948054,-0.260979957,0.405102,0.409690034,-0.258800678,0.434286,0.385634677,-0.263800543,0.415814,0.388208932,-0.283376919,0.428664,0.394771209,-0.294086708,0.441287
0.387463287,-0.345235351,0.46288,0.371054081,-0.284943615,0.441588,0.36276138,-0.331951398,0.457329,0.334271633,-0.300606375,0.436885,0.298067794,-0.273723303,0.413021,0.279855437,-0.251774091,0.398552,0.328911691,-0.235266584,0.420707,0.318532781,-0.189120188,0.396795,0.312888593,-0.169098189,0.384839,0.317825981,-0.158487668,0.388885,0.355234947,-0.235884775,0.422074,0.335933123,-0.212768459,0.395559,0.324874279,-0.228085121,0.380091,0.328807825,-0.24266166,0.385723,0.378802257,-0.241650564,0.425375,0.359354761,-0.226350906,0.400337,0.353529495,-0.238266279,0.387527,0.359143505,-0.253234815,0.393606,0.409011903,-0.257899195,0.433034,0.381239645,-0.260568554,0.410853,0.382532976,-0.27898079,0.42241,0.388737087,-0.289421012,0.434698
0.387644329,-0.343437613,0.462809,0.37098242,-0.28441571,0.441419,0.362869782,-0.331152926,0.457382,0.333844974,-0.300628782,0.437067,0.297971438,-0.273710562,0.413021,0.279814136,-0.251817073,0.398367,0.329080164,-0.234896351,0.420636,0.318368132,-0.189065483,0.396677,0.312684687,-0.169038551,0.384698,0.318067128,-0.158132073,0.388612,0.355253174,-0.235493901,0.421815,0.336001654,-0.212587256,0.39524,0.324930107,-0.227812036,0.379738,0.328863999,-0.242250767,0.385339,0.378675942,-0.241250423,0.424972,0.359133532,-0.225709877,0.399792,0.353194013,-0.23760587,0.38691,0.358970266,-0.252575011,0.392931,0.408790602,-0.257475957,0.43248,0.380875392,-0.260144446,0.410288,0.381997355,-0.278393709,0.421829,0.388106309,-0.288818854,0.434114
0.391523967,-0.345413306,0.467857,0.371227196,-0.283143499,0.442287,0.363240467,-0.330131133,0.459245,0.322260815,-0.296945482,0.434585,0.287242024,-0.272238965,0.409586,0.266205275,-0.249082181,0.394139,0.32583001,-0.224731538,0.414693,0.332952172,-0.189406792,0.412741,0.336817728,-0.171874599,0.411765,0.340467707,-0.155573416,0.410878,0.353661354,-0.232120921,0.418854,0.332054796,-0.208498031,0.388467,0.317542606,-0.22212312,0.370741,0.319397275,-0.23487964,0.374065,0.378749532,-0.240651675,0.424892,0.357034508,-0.222811409,0.395566,0.347750048,-0.233956401,0.380562,0.351008484,-0.246848495,0.384003,0.412611333,-0.259795299,0.436504,0.381597375,-0.260273355,0.41098,0.381218242,-0.277165448,0.421017,0.387892413,-0.288458047,0.433892
0.391587758,-0.34426504,0.468567,0.371318757,-0.281988268,0.442837,0.36372829,-0.325315337,0.460055,0.322734035,-0.296677023,0.43548,0.287327706,-0.27173043,0.410057,0.266012527,-0.248456935,0.394343,0.325619837,-0.224220632,0.415268,0.332534974,-0.188873786,0.413423,0.336292893,-0.171317388,0.4125,0.339840792,-0.154992843,0.411661,0.353645392,-0.228384306,0.419256,0.333174472,-0.204879613,0.388753,0.318772257,-0.218236225,0.370959,0.320245422,-0.233745676,0.374229,0.379319796,-0.239473129,0.425169,0.357390636,-0.222713027,0.395821,0.34797777,-0.233789316,0.380805,0.352570223,-0.24533667,0.384215,0.412591919,-0.259441783,0.436662,0.382579365,-0.258513809,0.411082,0.381379546,-0.27483583,0.421091,0.387683961,-0.287747037,0.433975
0.391083025,-0.342791045,0.468453,0.370978959,-0.281416509,0.442866,0.36318471,-0.324718898,0.460062,0.322791475,-0.296495204,0.435643,0.287299572,-0.271507491,0.410133,0.265946434,-0.248247102,0.394408,0.325615993,-0.224096023,0.415544,0.332447354,-0.188725389,0.413714,0.336162251,-0.17115429,0.412799,0.339670143,-0.154816877,0.411968,0.353546821,-0.228135602,0.419415,0.333138466,-0.204191707,0.389038,0.318910664,-0.217593433,0.371318,0.320570724,-0.233449737,0.374676,0.379172291,-0.238962564,0.425217,0.357711998,-0.22269987,0.396084,0.348322657,-0.233792895,0.381178,0.352684094,-0.245106389,0.384711,0.412365294,-0.259043336,0.436556,0.382382933,-0.257884566,0.411089,0.381371128,-0.274296736,0.42116,0.387613382,-0.287261251,0.434029
0.390598601,-0.341305566,0.468396,0.370743951,-0.28101385,0.442896,0.362761023,-0.324257137,0.460048,0.322796114,-0.296382219,0.435692,0.287237922,-0.271351141,0.410103,0.265869959,-0.248101682,0.394376,0.325618776,-0.22403694,0.415688,0.332407963,-0.188653706,0.413865,0.336101461,-0.171075034,0.412954,0.339587737,-0.154730229,0.412125,0.353524144,-0.22802843,0.419526,0.333157746,-0.203870691,0.389224,0.319023144,-0.217301089,0.371548,0.320764049,-0.233175281,0.374954,0.37910249,-0.238620558,0.425291,0.357972353,-0.222709633,0.396306,0.348597957,-0.233806943,0.381476,0.352782161,-0.24495396,0.385083,0.412282067,-0.258792024,0.436572,0.382308702,-0.257479742,0.411165,0.381420092,-0.273951297,0.42127,0.387544396,-0.286772245,0.43413
0.390068626,-0.339861402,0.468357,0.370557175,-0.280703858,0.442906,0.362414406,-0.32388264,0.460016,0.322763791,-0.296282218,0.435674,0.287150511,-0.271209709,0.410013,0.265777013,-0.247970578,0.394287,0.325591947,-0.223981881,0.415738,0.332366986,-0.188600864,0.413934,0.336053574,-0.171021681,0.413033,0.339533207,-0.154675926,0.412213,0.353500748,-0.227957826,0.419581,0.333155114,-0.203669395,0.389319,0.319073397,-0.217113799,0.371666,0.320849869,-0.232905331,0.375096,0.379049752,-0.238363925,0.425346,0.358155467,-0.222709378,0.396459,0.348785815,-0.23380034,0.381679,0.352826676,-0.24481972,0.38533,0.412246851,-0.258610653,0.436618,0.382268832,-0.257186741,0.411239,0.381462719,-0.273696456,0.421359,0.387325492,-0.286275968,0.434215
0.390035952,-0.339693747,0.469437,0.371091063,-0.280749306,0.443506,0.362887974,-0.32400992,0.46065,0.323225002,-0.296131387,0.435741,0.28760721,-0.270977539,0.410046,0.269972162,-0.248380263,0.394404,0.325457372,-0.223716887,0.415452,0.332246146,-0.188411603,0.413832,0.335941789,-0.170848794,0.413021,0.339430168,-0.154508102,0.412285,0.353734664,-0.227840791,0.419742,0.334313517,-0.220192914,0.389049,0.318947468,-0.231345191,0.371145,0.319604422,-0.235242585,0.374268,0.379250354,-0.23686137,0.425922,0.358581406,-0.223216301,0.396592,0.349274515,-0.233682423,0.381586,0.352458097,-0.244434722,0.3849,0.413580821,-0.258731594,0.437764,0.389152811,-0.249999964,0.411996,0.388626637,-0.268494106,0.421894,0.388174906,-0.286181039,0.434801
0.389059258,-0.338616423,0.468757,0.370870616,-0.280295461,0.443212,0.36206039,-0.322778716,0.460051,0.323184162,-0.29568468,0.43529,0.287528659,-0.270430889,0.409493,0.269511825,-0.247913037,0.393842,0.325568259,-0.223669929,0.415512,0.332203079,-0.188300932,0.413813,0.335822519,-0.170705241,0.412964,0.339236854,-0.154333737,0.412191,0.353855474,-0.227727222,0.419802,0.334636617,-0.220405721,0.389425,0.319428711,-0.231694255,0.371705,0.320593738,-0.236902273,0.375022,0.379355767,-0.236671307,0.425944,0.359109111,-0.223738347,0.396905,0.3498558,-0.23422512,0.382048,0.353088051,-0.244768422,0.385566,0.413641766,-0.258127889,0.437671,0.389283159,-0.250083703,0.412134,0.388871662,-0.268663388,0.42216,0.388988871,-0.286036465,0.435035
0.388279015,-0.337819956,0.468263,0.370503043,-0.279554307,0.442989,0.361412037,-0.32193614,0.459661,0.323231374,-0.295421353,0.435057,0.287553362,-0.270100259,0.409198,0.268507312,-0.24753644,0.393472,0.325682776,-0.223656223,0.415597,0.332199064,-0.188233951,0.413834,0.335758082,-0.170610294,0.412952,0.339116153,-0.154214007,0.41215,0.353928385,-0.22763061,0.419826,0.334870349,-0.220559667,0.389697,0.319786231,-0.231953559,0.372121,0.321011019,-0.23764175,0.375589,0.379372924,-0.236490133,0.425891,0.359660973,-0.224252806,0.397148,0.350337541,-0.234745672,0.382442,0.353451548,-0.244860794,0.386137,0.413341999,-0.257562904,0.437479,0.389268991,-0.250074601,0.412119,0.388946275,-0.268714937,0.422241,0.389436631,-0.285862433,0.435092
0.387051153,-0.336695244,0.467485,0.370176571,-0.27881785,0.442922,0.36062038,-0.32096619,0.459312,0.323420431,-0.295306242,0.435299,0.287783149,-0.26994713,0.409425,0.268075033,-0.247525709,0.393459,0.326459379,-0.223979977,0.416543,0.332369593,-0.18811525,0.413954,0.335632278,-0.170515068,0.412659,0.338718145,-0.154313899,0.411482,0.354453429,-0.227781775,0.420411,0.335684483,-0.227271123,0.39126,0.321222837,-0.234198576,0.374256,0.322603355,-0.240658966,0.378223,0.379586874,-0.236456852,0.426105,0.362830017,-0.228937251,0.398482,0.353204488,-0.238856986,0.38435,0.355298368,-0.246036807,0.388634,0.41284503,-0.25692154,0.437135,0.389219684,-0.250234407,0.412288,0.389057251,-0.268967219,0.422686,0.390075224,-0.285810904,0.435463
0.385448843,-0.335244893,0.466253,0.369403283,-0.277745456,0.44232,0.359660843,-0.319846832,0.458749,0.32364552,-0.295281439,0.435592,0.287947586,-0.269806263,0.409579,0.267591894,-0.247469684,0.393374,0.327012754,-0.224191748,0.417213,0.332451451,-0.187989315,0.413982,0.335484001,-0.170414702,0.412366,0.338358304,-0.154375312,0.410897,0.354458652,-0.227635981,0.420387,0.336575043,-0.227874066,0.392298,0.322406659,-0.23578293,0.375913,0.324187725,-0.242172397,0.380402,0.379017586,-0.235969125,0.425445,0.363485417,-0.230032425,0.399144,0.354328639,-0.24022649,0.385688,0.357056624,-0.247410072,0.390622,0.411244871,-0.255595434,0.435622,0.38818748,-0.249685388,0.411327,0.388247889,-0.26851287,0.422001,0.389691084,-0.285008101,0.434691
0.385065126,-0.334466625,0.46575,0.36924472,-0.277256704,0.442152,0.359572084,-0.319362006,0.4586,0.323946163,-0.295055659,0.435902,0.288278584,-0.269542178,0.409877,0.268314776,-0.247560613,0.39346,0.327355234,-0.224139685,0.417719,0.332366426,-0.187672869,0.413996,0.335194951,-0.170167039,0.412135,0.337881475,-0.154337489,0.410443,0.35451481,-0.227354891,0.420526,0.336876186,-0.228077951,0.392649,0.322655539,-0.236444813,0.376388,0.324555954,-0.242668076,0.381048,0.378778706,-0.235473507,0.425248,0.364303703,-0.231005157,0.400004,0.355545376,-0.241458132,0.387089,0.358571257,-0.248309403,0.392464,0.410573518,-0.254787142,0.434974,0.387772047,-0.24949454,0.410975,0.387931914,-0.268364392,0.421787,0.389689387,-0.284581039,0.434426
0.384983752,-0.334155756,0.465598,0.369271393,-0.277056816,0.442109,0.359518237,-0.319071767,0.458465,0.323981115,-0.294728041,0.435803,0.288371685,-0.269172752,0.409767,0.26883845,-0.247555269,0.393153,0.327472253,-0.224006499,0.417768,0.332220486,-0.187381534,0.413694,0.334930192,-0.169989805,0.411658,0.337508632,-0.154406592,0.409806,0.354641632,-0.227230361,0.420583,0.337005738,-0.228165663,0.3928,0.32271834,-0.236832994,0.376593,0.324643216,-0.242890642,0.381303,0.378901707,-0.235349214,0.425301,0.364457182,-0.231427234,0.400145,0.35566604,-0.241830275,0.387275,0.358804233,-0.248692038,0.392705,0.410666166,-0.254647853,0.435002,0.387800354,-0.249567269,0.411068,0.387961841,-0.268435127,0.421912,0.390102735,-0.284664065,0.434539
