sluyters/QuantumLeap/backend/src/datasets/dynamic/HandGestureDataset_SHREC2017_csv/Gesture10/finger_1/subject_26_essai_3_skeletons_world.csv
Wrist_x,Wrist_y,Wrist_z,Palm_x,Palm_y,Palm_z,thumb_base_x,thumb_base_y,thumb_base_z,thumb_first_joint_x,thumb_first_joint_y,thumb_first_joint_z,thumb_second_joint_x,thumb_second_joint_y,thumb_second_joint_z,thumb_tip_x,thumb_tip_y,thumb_tip_z,index_base_x,index_base_y,index_base_z,index_first_joint_x,index_first_joint_y,index_first_joint_z,index_second_joint_x,index_second_joint_y,index_second_joint_z,index_tip_x,index_tip_y,index_tip_z,middle_base_x,middle_base_y,middle_base_z,middle_first_joint_x,middle_first_joint_y,middle_first_joint_z,middle_second_joint_x,middle_second_joint_y,middle_second_joint_z,middle_tip_x,middle_tip_y,middle_tip_z,ring_base_x,ring_base_y,ring_base_z,ring_first_joint_x,ring_first_joint_y,ring_first_joint_z,ring_second_joint_x,ring_second_joint_y,ring_second_joint_z,ring_tip_x,ring_tip_y,ring_tip_z,pinky_base_x,pinky_base_y,pinky_base_z,pinky_first_joint_x,pinky_first_joint_y,pinky_first_joint_z,pinky_second_joint_x,pinky_second_joint_y,pinky_second_joint_z,pinky_tip_x,pinky_tip_y,pinky_tip_z,
0.33115796,-0.239331932,0.45503,0.334797359,-0.19335042,0.447907,0.313732816,-0.225447799,0.45471,0.293722876,-0.19089342,0.443595,0.273054146,-0.159771831,0.429105,0.267749166,-0.138307409,0.418519,0.313641565,-0.14665752,0.443036,0.302275381,-0.103555539,0.430899,0.303221884,-0.0836083546,0.434483,0.304023209,-0.0643830452,0.437775,0.335434784,-0.149743358,0.441314,0.321184355,-0.123157313,0.427292,0.311934604,-0.139594767,0.419112,0.316773305,-0.15988064,0.430518,0.35338512,-0.155953519,0.440502,0.336604394,-0.148010671,0.42777,0.321894556,-0.161794168,0.421256,0.322069895,-0.184559745,0.433831,0.374654585,-0.170108695,0.440647,0.355842248,-0.161126186,0.427902,0.374211258,-0.185810883,0.443323,0.386836787,-0.202178338,0.453787
0.331286798,-0.238815072,0.45519,0.33450641,-0.192702679,0.447924,0.313805156,-0.224942371,0.454837,0.293532665,-0.190555734,0.443651,0.272920414,-0.159568141,0.429136,0.26736845,-0.137952982,0.418526,0.31335254,-0.146640012,0.442922,0.301816779,-0.103527651,0.430674,0.302895415,-0.0836465231,0.434525,0.303788224,-0.0644536783,0.438025,0.335148307,-0.149671377,0.441198,0.320742182,-0.123059393,0.427032,0.311485734,-0.139391168,0.418768,0.316790033,-0.16018494,0.430125,0.353118431,-0.155840854,0.440396,0.336494931,-0.147273686,0.427537,0.321810467,-0.160853512,0.420958,0.321988227,-0.183477517,0.433485,0.374447114,-0.169957233,0.440575,0.355539578,-0.16095656,0.427721,0.373705881,-0.18526692,0.443124,0.386698166,-0.201489872,0.45362
0.330962201,-0.238624817,0.455075,0.333710804,-0.192509718,0.447773,0.313415053,-0.224852092,0.45474,0.292357131,-0.191236928,0.443571,0.272242613,-0.159812202,0.429126,0.266559827,-0.138003298,0.418539,0.311480846,-0.147435661,0.442771,0.299502137,-0.104352915,0.430598,0.29703225,-0.0862726837,0.43514,0.301777334,-0.0655551509,0.43927,0.333928644,-0.150039163,0.441014,0.319372431,-0.123319281,0.426816,0.310457672,-0.139479144,0.418534,0.316135687,-0.160578868,0.429878,0.351927518,-0.156045495,0.440187,0.33543565,-0.147070236,0.427314,0.320885263,-0.160827195,0.420727,0.32122477,-0.183669755,0.433245,0.373347497,-0.169967444,0.440342,0.354444032,-0.160900551,0.427474,0.371929592,-0.183998605,0.442871,0.38596968,-0.201059309,0.45337
0.330643957,-0.238428199,0.454886,0.333114929,-0.192356222,0.447629,0.313049165,-0.22473184,0.454561,0.291919294,-0.191207077,0.443412,0.271683077,-0.159942877,0.429001,0.265886977,-0.138007214,0.418446,0.310733458,-0.147803606,0.442667,0.298622591,-0.104730805,0.430526,0.297025424,-0.0862707011,0.43513,0.300781951,-0.0659866207,0.439315,0.333203504,-0.150262548,0.440912,0.318600937,-0.123494298,0.426753,0.309858098,-0.139576482,0.418494,0.315801811,-0.160892885,0.429852,0.351230401,-0.156175765,0.440083,0.334853408,-0.146971529,0.427248,0.320401851,-0.160847154,0.420682,0.320851249,-0.183832596,0.433214,0.372710721,-0.169983886,0.440229,0.35384427,-0.160892981,0.427395,0.371404873,-0.183967318,0.442797,0.385554667,-0.200808987,0.453287
0.333605383,-0.242215301,0.45783,0.333076751,-0.194078856,0.448561,0.314800591,-0.226492801,0.457056,0.291795029,-0.194416197,0.444912,0.273777634,-0.165226689,0.429332,0.266258764,-0.138890917,0.419681,0.307201866,-0.150116082,0.441773,0.293997595,-0.106666613,0.427848,0.295977427,-0.0874066434,0.43361,0.297596192,-0.0686930119,0.438848,0.329079874,-0.151931077,0.439981,0.312300648,-0.124650099,0.424004,0.298894904,-0.125938429,0.414684,0.306028251,-0.147471714,0.425393,0.347437002,-0.157167364,0.439294,0.326682822,-0.153070082,0.424699,0.315940669,-0.161337752,0.417232,0.317220005,-0.182412035,0.429064,0.371870427,-0.170013417,0.439916,0.348323878,-0.166386717,0.425571,0.367361564,-0.185145583,0.440701,0.383498566,-0.202043331,0.451615
0.336083626,-0.243858043,0.46196,0.331318793,-0.204164985,0.449658,0.316840185,-0.23166538,0.460297,0.294764995,-0.207579014,0.446404,0.276067739,-0.176880297,0.432528,0.268010031,-0.1491948,0.425816,0.303956617,-0.161936902,0.439848,0.290060968,-0.118034494,0.423299,0.294175377,-0.0999293545,0.431405,0.297629037,-0.0821904744,0.438774,0.326034378,-0.162969503,0.438271,0.306038044,-0.13618317,0.41941,0.294189477,-0.13517798,0.408407,0.305729421,-0.156979756,0.418043,0.344936619,-0.167724108,0.438017,0.323483643,-0.162360656,0.420673,0.309155926,-0.17225941,0.411799,0.309436841,-0.193079606,0.422483,0.368710234,-0.180637127,0.439621,0.346109873,-0.176092776,0.422938,0.363851636,-0.198955132,0.437589,0.379853487,-0.212383024,0.44954
0.337252835,-0.253125487,0.461186,0.331155204,-0.21632885,0.449134,0.316828072,-0.247696188,0.459641,0.292916445,-0.219990738,0.445949,0.271669404,-0.19043826,0.430332,0.262421656,-0.16706469,0.421492,0.303805969,-0.171720833,0.43963,0.289989018,-0.12789185,0.423194,0.293953077,-0.110148111,0.431079,0.297272241,-0.0927924012,0.438248,0.325817156,-0.172768667,0.437979,0.306005209,-0.146584841,0.419365,0.29426151,-0.145980425,0.408507,0.30071653,-0.167789586,0.418234,0.344643671,-0.177555491,0.437645,0.323390598,-0.172834452,0.420552,0.309162683,-0.182921916,0.411808,0.309518872,-0.204319564,0.422595,0.368284174,-0.190535899,0.439113,0.345867642,-0.186492783,0.422642,0.363639605,-0.209673367,0.437334,0.379274773,-0.226575751,0.448827
0.338014993,-0.275456376,0.462364,0.332114737,-0.233616868,0.450357,0.3188559,-0.271030668,0.46127,0.294102558,-0.239938398,0.448196,0.271526678,-0.211571206,0.432379,0.26108392,-0.188488503,0.42293,0.304556749,-0.188850229,0.441448,0.289515541,-0.145524857,0.425225,0.291922736,-0.128293562,0.432002,0.29375413,-0.111558816,0.438163,0.326110451,-0.189366998,0.439243,0.304723885,-0.165496889,0.420777,0.292292492,-0.166493783,0.410004,0.298906626,-0.189226178,0.419739,0.344619285,-0.193787887,0.438449,0.322333687,-0.191654826,0.421666,0.308034599,-0.202700054,0.413079,0.308387971,-0.225510588,0.423925,0.367966719,-0.20645532,0.439368,0.344660869,-0.204560726,0.423134,0.362752926,-0.228063274,0.437808,0.378800004,-0.244593477,0.449211
0.333035453,-0.288131814,0.458109,0.326998584,-0.2439216,0.44584,0.312357929,-0.273517372,0.455166,0.286491723,-0.247164473,0.439581,0.265578667,-0.218432414,0.427837,0.258991363,-0.192191766,0.423167,0.299845826,-0.196337715,0.434442,0.281209187,-0.152511701,0.417186,0.282331728,-0.136189963,0.424272,0.283082903,-0.119957676,0.430714,0.323248257,-0.19948524,0.434484,0.307795619,-0.181051745,0.415373,0.295459541,-0.186802674,0.404225,0.298537242,-0.2103249,0.413847,0.343063162,-0.206077936,0.435562,0.324845298,-0.2010819,0.417483,0.309835282,-0.214284979,0.408233,0.310188252,-0.237058186,0.418754,0.367617268,-0.221347084,0.438729,0.346827232,-0.21681492,0.421503,0.36173883,-0.241636196,0.436176,0.374777049,-0.261436867,0.447927
0.326108338,-0.296267606,0.451784,0.324738844,-0.252451281,0.442759,0.306063026,-0.281397739,0.44936,0.283555642,-0.25530733,0.435076,0.261443869,-0.225867904,0.421176,0.250953551,-0.202321081,0.413678,0.299571822,-0.206038922,0.434045,0.282614606,-0.163210141,0.419271,0.283856273,-0.147285331,0.426563,0.284711547,-0.131411671,0.433192,0.323188738,-0.209373479,0.434404,0.309954923,-0.192878274,0.418287,0.298866398,-0.199861414,0.408886,0.302713259,-0.224463088,0.419636,0.342987549,-0.216020719,0.435466,0.326862923,-0.212936722,0.420076,0.312846863,-0.227028626,0.412201,0.313983068,-0.251169632,0.423877,0.367101113,-0.231148439,0.438113,0.348225228,-0.228278816,0.423202,0.363565039,-0.253768795,0.438378,0.376102369,-0.273375866,0.449511
0.312445662,-0.311097799,0.432856,0.316472932,-0.267915926,0.431489,0.294711667,-0.298044385,0.432694,0.275730222,-0.271088742,0.423069,0.256861512,-0.245319217,0.413794,0.24870959,-0.224167918,0.409979,0.297075419,-0.225867286,0.430428,0.284762167,-0.186465009,0.422457,0.284866426,-0.170670911,0.428081,0.284757554,-0.15510524,0.433262,0.320078894,-0.228972688,0.430224,0.312389141,-0.217787628,0.421572,0.304449229,-0.228021112,0.416524,0.30994284,-0.255030834,0.429658,0.338818606,-0.235091033,0.430173,0.328289188,-0.237288786,0.421909,0.317005241,-0.253799821,0.41768,0.319927514,-0.281043953,0.431902,0.360573761,-0.248878514,0.430323,0.346998458,-0.247798075,0.421513,0.362777849,-0.274679814,0.437505,0.373578973,-0.293988077,0.446807
0.326229214,-0.334419915,0.45258,0.322185537,-0.292158073,0.441545,0.304245892,-0.327467789,0.448397,0.2866614,-0.303564703,0.431454,0.261305407,-0.274429769,0.417722,0.249906745,-0.252466218,0.413705,0.293717352,-0.242621595,0.429358,0.27244506,-0.201391022,0.411999,0.270376027,-0.186493422,0.416632,0.268149405,-0.171794163,0.420844,0.318644373,-0.24674532,0.43133,0.306893704,-0.232065941,0.413086,0.29611864,-0.243222432,0.402444,0.299730833,-0.267925529,0.412386,0.339706637,-0.254264237,0.433891,0.324465189,-0.255008696,0.416023,0.310226182,-0.269290464,0.406881,0.311467281,-0.295653837,0.417557,0.365615581,-0.270810257,0.438614,0.34738709,-0.269134916,0.42168,0.362113306,-0.295857441,0.436468,0.374548721,-0.316998206,0.448161
0.33495876,-0.352827949,0.457031,0.328803927,-0.304214063,0.440681,0.319374398,-0.343869254,0.453901,0.288346232,-0.320368659,0.437384,0.259533939,-0.298130492,0.421234,0.243194154,-0.276033909,0.411818,0.295208338,-0.254404576,0.426484,0.263249899,-0.21768153,0.406527,0.255170713,-0.205598015,0.409475,0.247145006,-0.19368114,0.412156,0.31759309,-0.255724355,0.425546,0.289898742,-0.25078134,0.402841,0.27564513,-0.267417923,0.389597,0.28299563,-0.284359873,0.39767,0.337472136,-0.261247602,0.426163,0.309456053,-0.267023423,0.405046,0.293889928,-0.28054771,0.394242,0.293858284,-0.30663221,0.403223,0.363526588,-0.276081753,0.429417,0.326288042,-0.27551229,0.409561,0.328551752,-0.293911078,0.423431,0.342699217,-0.301423995,0.436006
0.324358207,-0.405539129,0.478119,0.318890251,-0.348639522,0.455764,0.30376662,-0.385787638,0.472369,0.288442577,-0.363614575,0.451596,0.266637628,-0.333677896,0.435168,0.257148384,-0.309407933,0.427632,0.290055108,-0.290902216,0.434503,0.264553091,-0.248460771,0.408967,0.260702636,-0.235257254,0.410215,0.256903912,-0.222359197,0.41135,0.313333912,-0.297906181,0.435071,0.283661504,-0.303482013,0.406714,0.26614008,-0.307310379,0.390173,0.263391685,-0.329299273,0.395579,0.333233834,-0.308321726,0.437438,0.303428595,-0.313674186,0.410527,0.287995763,-0.3168938,0.396759,0.282118825,-0.339562913,0.40276,0.358108055,-0.329250638,0.443682,0.325950676,-0.331706561,0.419116,0.331800652,-0.357976504,0.431437,0.338748934,-0.384055055,0.444861
0.327440321,-0.430125447,0.482217,0.320704655,-0.373996684,0.461625,0.306312924,-0.41140698,0.47676,0.282735953,-0.385818183,0.456585,0.261691363,-0.362930271,0.436003,0.250676802,-0.340068546,0.424186,0.290454558,-0.317616649,0.441841,0.264175886,-0.274356927,0.417568,0.258976017,-0.260732898,0.41824,0.253937539,-0.247569768,0.41885,0.314161099,-0.323658428,0.442566,0.28841949,-0.324279383,0.415753,0.269994702,-0.336717871,0.400112,0.270644009,-0.354259116,0.406324,0.334508499,-0.333251609,0.444911,0.306434364,-0.340865677,0.419423,0.291873811,-0.345352936,0.406383,0.287520815,-0.369678314,0.413233,0.360051779,-0.353132428,0.450859,0.329200915,-0.357576707,0.427449,0.335959772,-0.384934914,0.440267,0.343227017,-0.411517756,0.453477
0.317142243,-0.420163062,0.466777,0.313305511,-0.373956223,0.45187,0.297574852,-0.403467775,0.46301,0.275414299,-0.385387438,0.445884,0.255563118,-0.365764345,0.42792,0.246305495,-0.346676105,0.419266,0.286302794,-0.322941301,0.437778,0.261987567,-0.284017458,0.41824,0.253650911,-0.270124582,0.415206,0.245965996,-0.25817922,0.412949,0.309464692,-0.328378547,0.438072,0.286672942,-0.333738021,0.416478,0.270808975,-0.348851643,0.403882,0.27380361,-0.36851274,0.412496,0.329083357,-0.337067659,0.439581,0.304570968,-0.349160312,0.419117,0.291636177,-0.356410886,0.408647,0.289828316,-0.383488134,0.418084,0.353160401,-0.355065938,0.443662,0.325246278,-0.36321722,0.424422,0.333888754,-0.391049083,0.438594,0.341380602,-0.412411676,0.450861
0.32990202,-0.464086827,0.48786,0.316599979,-0.406191217,0.464092,0.317257576,-0.447261454,0.489702,0.297690986,-0.432701489,0.479811,0.277765387,-0.417919191,0.463984,0.271280912,-0.40445821,0.458055,0.292890594,-0.351318831,0.4515,0.26585658,-0.312739527,0.426819,0.257504098,-0.30001127,0.423535,0.248996158,-0.288590687,0.420549,0.304172349,-0.354058478,0.442091,0.256333598,-0.358094125,0.414166,0.241960615,-0.36701507,0.397877,0.243089052,-0.385470387,0.401158,0.314865699,-0.361212764,0.436366,0.270548904,-0.359341299,0.413858,0.247103416,-0.365840992,0.402342,0.246708803,-0.382646075,0.407259,0.330033402,-0.37876215,0.433294,0.283727829,-0.377258839,0.412072,0.290307721,-0.398526068,0.422212,0.309136154,-0.408505136,0.433613
0.329352929,-0.473310962,0.488071,0.315883882,-0.423294754,0.463216,0.31792592,-0.46500992,0.490659,0.291927786,-0.458322334,0.481998,0.264370013,-0.438841372,0.472041,0.253173919,-0.419424399,0.46801,0.29481821,-0.367270764,0.45088,0.26595756,-0.330659717,0.42591,0.255945909,-0.320117383,0.422518,0.246436106,-0.310124461,0.419435,0.303876651,-0.37020626,0.440208,0.255041787,-0.350135372,0.412722,0.232232312,-0.359115907,0.396688,0.230060654,-0.377888685,0.399145,0.31267372,-0.377620799,0.433537,0.264174006,-0.380794723,0.41104,0.239565754,-0.384748483,0.399531,0.23663563,-0.400901544,0.403431,0.325498782,-0.395669588,0.429516,0.278167264,-0.393499662,0.408328,0.286686617,-0.413986745,0.417455,0.306057741,-0.424837807,0.42846
0.32724421,-0.492075395,0.491712,0.312550759,-0.43942863,0.468077,0.310902566,-0.480488099,0.493227,0.286741388,-0.473177722,0.482788,0.259932316,-0.452925628,0.470969,0.249500201,-0.434054797,0.467102,0.29046172,-0.383045406,0.455156,0.264450163,-0.346514983,0.430196,0.256100293,-0.336639345,0.427207,0.248152349,-0.327252,0.42449,0.30229274,-0.386579287,0.446199,0.256967071,-0.367843802,0.419087,0.235115667,-0.377563786,0.403273,0.233663573,-0.398120257,0.406999,0.31322723,-0.394452754,0.440834,0.267389968,-0.398956859,0.418139,0.243618291,-0.40374542,0.406527,0.240563768,-0.421742122,0.411628,0.328304298,-0.412974178,0.438166,0.282858624,-0.412180421,0.416786,0.29164362,-0.434112542,0.427155,0.310553155,-0.445065823,0.438762
0.322767328,-0.503184703,0.491967,0.31288562,-0.449163845,0.468748,0.311020891,-0.485213179,0.493693,0.285587107,-0.481631349,0.483594,0.258764408,-0.462765031,0.471663,0.248633635,-0.445119251,0.467997,0.293537325,-0.391942325,0.456355,0.265418127,-0.35772175,0.431423,0.257727628,-0.349418747,0.429897,0.250320127,-0.341448073,0.42851,0.304219794,-0.396291693,0.447256,0.257197796,-0.378534538,0.420546,0.233926127,-0.387401718,0.404965,0.232012279,-0.407979688,0.408868,0.314096832,-0.404893801,0.441741,0.266478036,-0.407988527,0.419462,0.242389738,-0.412713016,0.408063,0.241399836,-0.429086818,0.413362,0.32768388,-0.424383004,0.43883,0.282097628,-0.414676969,0.417795,0.276457439,-0.432418936,0.42826,0.287438527,-0.443668152,0.439721
0.322914159,-0.507964736,0.49447,0.313477913,-0.452325166,0.470062,0.312345217,-0.489656868,0.496564,0.284584177,-0.474109459,0.487066,0.259108364,-0.464470164,0.473004,0.247074373,-0.446734589,0.465147,0.296217846,-0.394416657,0.457386,0.267486031,-0.360765394,0.432419,0.259410984,-0.352614022,0.430664,0.249185243,-0.351057931,0.429068,0.306557653,-0.40180413,0.44747,0.256171686,-0.385982516,0.420058,0.23167912,-0.392884555,0.404067,0.231547886,-0.410063163,0.407064,0.314282417,-0.411600462,0.441382,0.265275254,-0.408125145,0.418713,0.241440142,-0.406045199,0.407115,0.22933875,-0.425400002,0.411524,0.324924455,-0.432483914,0.43798,0.277501383,-0.420597557,0.416633,0.274984204,-0.43243436,0.426308,0.286062987,-0.443553034,0.437572
0.321953525,-0.508729965,0.494139,0.313373232,-0.452943063,0.470047,0.311963904,-0.490244109,0.496341,0.284553795,-0.474058842,0.487014,0.258787529,-0.464256331,0.472655,0.246627471,-0.447397068,0.464334,0.297096722,-0.395221591,0.457706,0.268232524,-0.361857248,0.432842,0.260071716,-0.353815009,0.431084,0.249428,-0.351399933,0.429486,0.306747423,-0.402052862,0.447747,0.256510762,-0.386493413,0.420614,0.232091372,-0.393583657,0.404786,0.232047883,-0.410948639,0.407943,0.314436219,-0.411801888,0.441598,0.265341806,-0.408889582,0.419201,0.24096528,-0.407243195,0.407741,0.229784026,-0.426225943,0.412323,0.324994932,-0.432577722,0.438075,0.277713855,-0.420919593,0.416952,0.275187412,-0.433526305,0.426733,0.28632573,-0.444628504,0.437959
0.322296109,-0.508103231,0.495125,0.314993196,-0.453312184,0.472028,0.313728002,-0.490274562,0.49833,0.287524197,-0.476984033,0.490648,0.260144435,-0.466592462,0.475298,0.245724476,-0.456533458,0.462908,0.305678643,-0.393450607,0.461573,0.271402144,-0.365107266,0.437317,0.261689395,-0.356175379,0.434069,0.250422177,-0.349625216,0.431117,0.308698056,-0.40227901,0.450649,0.25913263,-0.38654683,0.42472,0.234661886,-0.389567399,0.409595,0.235703967,-0.412076636,0.412929,0.315706053,-0.4112487,0.443621,0.266779265,-0.412972138,0.422646,0.242805228,-0.415525682,0.411915,0.240660474,-0.435115482,0.416768,0.324569651,-0.432924993,0.438908,0.271911559,-0.415883168,0.418974,0.260763096,-0.426894469,0.428678,0.251693741,-0.43866606,0.439457
0.325564496,-0.506260551,0.497564,0.31642637,-0.447897693,0.472991,0.316320064,-0.487434304,0.499817,0.288653031,-0.468308334,0.490585,0.259745933,-0.455596661,0.476792,0.245677854,-0.445851493,0.46373,0.304324251,-0.390275958,0.460412,0.26986306,-0.359723811,0.434449,0.261725734,-0.355200161,0.433753,0.252067662,-0.350433866,0.433121,0.30854716,-0.397085845,0.450246,0.258629732,-0.380346721,0.422792,0.233761554,-0.386380125,0.406778,0.230298637,-0.404397554,0.409593,0.316596562,-0.406413695,0.443967,0.267087522,-0.410256716,0.421339,0.242577201,-0.41031274,0.409762,0.239839778,-0.42998145,0.413999,0.327829542,-0.426552011,0.440365,0.273756516,-0.41430545,0.419056,0.262597411,-0.425507525,0.42855,0.254070926,-0.437962666,0.439731
0.327545615,-0.508006099,0.501116,0.317921031,-0.444043092,0.474813,0.319203104,-0.482119249,0.502612,0.291018523,-0.463246059,0.492195,0.264549697,-0.454348137,0.477907,0.250312582,-0.438620271,0.467,0.302063075,-0.382616008,0.460194,0.270928576,-0.355482423,0.433559,0.260429439,-0.34970641,0.431153,0.251661743,-0.34295335,0.428966,0.308985012,-0.391893141,0.450466,0.25828772,-0.378951724,0.421428,0.231956688,-0.383254832,0.40449,0.225263702,-0.396461257,0.406472,0.317590448,-0.401745874,0.444693,0.268453073,-0.405023124,0.420424,0.243907857,-0.405545566,0.408007,0.239728,-0.4253291,0.411312,0.329238975,-0.426140126,0.441956,0.277618858,-0.413296568,0.419327,0.273967211,-0.431963746,0.428296,0.275097791,-0.449514169,0.439737
0.326710477,-0.505769486,0.500592,0.318400657,-0.443133385,0.475568,0.318444083,-0.480547406,0.50256,0.290890197,-0.463101873,0.492872,0.265693656,-0.449727002,0.479377,0.250957581,-0.438083939,0.46713,0.304423582,-0.383153946,0.462347,0.273392411,-0.354385724,0.435967,0.262805161,-0.348625579,0.432138,0.252337514,-0.341743738,0.428657,0.312934452,-0.390430867,0.452405,0.260067976,-0.384136431,0.424494,0.233445679,-0.385834427,0.408212,0.227873453,-0.400243684,0.410855,0.319461155,-0.400513294,0.446348,0.271370621,-0.400747834,0.423225,0.246712339,-0.396466096,0.411395,0.239896692,-0.412570979,0.415431,0.330835856,-0.424269483,0.443079,0.279986691,-0.414426357,0.42136,0.275162062,-0.433376773,0.430775,0.276219319,-0.451110693,0.442069
0.326510513,-0.50430731,0.500144,0.319257065,-0.442677283,0.475808,0.31783546,-0.481526144,0.50185,0.290788527,-0.462849938,0.491719,0.264065749,-0.45076538,0.476921,0.250156494,-0.436603923,0.465347,0.305697301,-0.38322019,0.462688,0.274947862,-0.354567316,0.437193,0.265014626,-0.347543951,0.433706,0.253693133,-0.340480376,0.430536,0.314610216,-0.39072837,0.453281,0.261923476,-0.382855769,0.425741,0.234583716,-0.386312496,0.409675,0.230135001,-0.404128795,0.412886,0.32261765,-0.401596967,0.447607,0.273373616,-0.400809264,0.424656,0.248452689,-0.397704374,0.412914,0.240776066,-0.414498844,0.417507,0.333215644,-0.423057395,0.444681,0.28381116,-0.4152067,0.423095,0.278883156,-0.437388119,0.433021,0.289674447,-0.451553518,0.444466
0.325091295,-0.50003068,0.499605,0.320639482,-0.441607323,0.477074,0.316075153,-0.47792686,0.500984,0.289787989,-0.461142894,0.490352,0.263385911,-0.446549621,0.475144,0.252962558,-0.444380897,0.458715,0.31135404,-0.382206409,0.464676,0.279254788,-0.355069702,0.441179,0.269236217,-0.348271247,0.438483,0.257569229,-0.343002526,0.436033,0.321117768,-0.390264337,0.456219,0.270057784,-0.385234314,0.429879,0.238887862,-0.389991987,0.414515,0.233701847,-0.409242958,0.41895,0.329579869,-0.40161033,0.451172,0.285305579,-0.394998364,0.429033,0.261119302,-0.392831848,0.417707,0.249677149,-0.410970605,0.423516,0.340234605,-0.423705249,0.448708,0.294288876,-0.41323574,0.427788,0.290104172,-0.435443342,0.438727,0.293247131,-0.457388036,0.450331
0.326247358,-0.501419415,0.502663,0.322925315,-0.441594007,0.479079,0.317610326,-0.478365017,0.503779,0.290501476,-0.459091937,0.492711,0.265917084,-0.439168364,0.480331,0.252550387,-0.436037728,0.465168,0.312963271,-0.382677782,0.46569,0.280310148,-0.355117819,0.441829,0.270080252,-0.348276834,0.439141,0.258495062,-0.344958245,0.436697,0.32278486,-0.390871371,0.45725,0.273250612,-0.38387098,0.430009,0.24320692,-0.386545624,0.414118,0.232659407,-0.406040532,0.418019,0.331278126,-0.402408976,0.452307,0.285422168,-0.396270203,0.429327,0.260818053,-0.393871533,0.41757,0.249208971,-0.411356837,0.422811,0.341953022,-0.424901655,0.450127,0.294965964,-0.414559214,0.42851,0.290484472,-0.436405636,0.439088,0.293415771,-0.457974313,0.450797
0.325327563,-0.498227551,0.502854,0.323308203,-0.441332126,0.479625,0.316759102,-0.475975706,0.503867,0.290238298,-0.458002641,0.492645,0.265016357,-0.442551495,0.477277,0.256227004,-0.444794962,0.460792,0.31495909,-0.381223098,0.466329,0.283504607,-0.353063546,0.443774,0.274443313,-0.346109664,0.443552,0.265291702,-0.342153152,0.443351,0.323846205,-0.390890849,0.458124,0.274706131,-0.383805564,0.431107,0.245018406,-0.386962052,0.415347,0.235512586,-0.406048806,0.419494,0.332442068,-0.402658995,0.453344,0.28629023,-0.397367158,0.430497,0.261725066,-0.395336041,0.418808,0.250316571,-0.412866826,0.42429,0.343055563,-0.425336269,0.451302,0.297414922,-0.413372523,0.429795,0.29258317,-0.435344119,0.44058,0.294416638,-0.459092269,0.452331
0.325590622,-0.498468288,0.504064,0.324097432,-0.441561045,0.48078,0.317066053,-0.476265437,0.505124,0.2903269,-0.455478441,0.493972,0.265276738,-0.4377884,0.479754,0.252618502,-0.435079555,0.463753,0.31574765,-0.38135416,0.467507,0.285470227,-0.350254061,0.445583,0.276178083,-0.342834404,0.444437,0.267203869,-0.335688189,0.443396,0.325878728,-0.390033182,0.459227,0.276368658,-0.382924797,0.432187,0.246191298,-0.387106483,0.416413,0.238440976,-0.403813064,0.420512,0.334363263,-0.401885124,0.454391,0.287033505,-0.397843111,0.431547,0.262448601,-0.3959704,0.419859,0.251027567,-0.413372058,0.425296,0.343933651,-0.425463176,0.452292,0.29771388,-0.414614203,0.430786,0.29279759,-0.436495232,0.441527,0.293233606,-0.45883876,0.45326
0.325361208,-0.496066702,0.50447,0.325662456,-0.438739674,0.481536,0.316555405,-0.473987718,0.50536,0.290320029,-0.449401428,0.493956,0.265423417,-0.433207415,0.47836,0.252959348,-0.431938493,0.461753,0.317829252,-0.377703416,0.468271,0.287967207,-0.348404809,0.446569,0.278786178,-0.340907198,0.445337,0.269180449,-0.334917187,0.444218,0.328140749,-0.387119733,0.460309,0.279064213,-0.38021974,0.433466,0.249736742,-0.384041863,0.417807,0.241324321,-0.402851544,0.422166,0.335917866,-0.401329191,0.455704,0.288449092,-0.398239617,0.432942,0.263830984,-0.396482195,0.421296,0.252476253,-0.413974359,0.426981,0.346082323,-0.425090163,0.453822,0.300290936,-0.413047369,0.432386,0.294733257,-0.434736042,0.443353,0.293170706,-0.456422119,0.45515
0.324110597,-0.492374322,0.503282,0.326567831,-0.433390247,0.481399,0.315003286,-0.470357119,0.503711,0.290779899,-0.442394139,0.491646,0.267245939,-0.421631895,0.476336,0.255870015,-0.421593096,0.459774,0.319963289,-0.374319442,0.468212,0.290739365,-0.345801284,0.447052,0.281538938,-0.338162345,0.445493,0.270982133,-0.332266875,0.444076,0.331125397,-0.384537505,0.461144,0.283135741,-0.379897794,0.434933,0.257879576,-0.386566181,0.419644,0.248800493,-0.403159056,0.424724,0.340218962,-0.397448935,0.457185,0.299036555,-0.390389315,0.434728,0.276774844,-0.388091826,0.423237,0.264263857,-0.406584331,0.429608,0.350677234,-0.420999624,0.455903,0.304682668,-0.411597217,0.434727,0.29889448,-0.433406536,0.446304,0.296421324,-0.45701554,0.458246
0.324634407,-0.492417414,0.504465,0.327433444,-0.433250805,0.482363,0.314458302,-0.468339471,0.503684,0.289497255,-0.442173959,0.489804,0.263367384,-0.425593495,0.47094,0.251414559,-0.424080543,0.452931,0.319284003,-0.373248312,0.467516,0.289900412,-0.344787086,0.4459,0.281097796,-0.337755533,0.444859,0.271303007,-0.33198292,0.443913,0.331942804,-0.384484322,0.461904,0.286984465,-0.379234596,0.435097,0.259282498,-0.385208875,0.41946,0.253926538,-0.403045083,0.424691,0.342292985,-0.398287333,0.459164,0.301832108,-0.398887014,0.435695,0.280093177,-0.400490419,0.423687,0.273143845,-0.423436294,0.43009,0.35424216,-0.422981871,0.45935,0.310004953,-0.412659701,0.437354,0.30364281,-0.434310025,0.449211,0.298688487,-0.457404171,0.46155
0.323789387,-0.49072261,0.505584,0.327898167,-0.431391561,0.483095,0.313203661,-0.464189754,0.504124,0.288272073,-0.442048317,0.489225,0.263088712,-0.423270894,0.470989,0.253064725,-0.419272427,0.453189,0.318218017,-0.371099865,0.467151,0.288921901,-0.342095143,0.44487,0.280711811,-0.335387256,0.444332,0.272522737,-0.32961558,0.443843,0.331999322,-0.38265766,0.462279,0.286725174,-0.378093354,0.434946,0.258803738,-0.38370047,0.419001,0.253642499,-0.400913338,0.424149,0.34325191,-0.396746812,0.460181,0.30070192,-0.395514288,0.435991,0.279244996,-0.398593346,0.423616,0.272079814,-0.421430381,0.429863,0.356242237,-0.421837176,0.461184,0.310637969,-0.412945192,0.438603,0.304112553,-0.434579885,0.450482,0.299474903,-0.457796871,0.463036
0.322680034,-0.488151297,0.504904,0.327149518,-0.430109343,0.48267,0.312312078,-0.462656721,0.503477,0.287856597,-0.441086126,0.488647,0.263822557,-0.420978104,0.471275,0.254422001,-0.416101879,0.453811,0.316694162,-0.369514795,0.466927,0.287824734,-0.33785031,0.44488,0.279321993,-0.329080089,0.442926,0.271161369,-0.320673401,0.441149,0.331340503,-0.381569032,0.462089,0.287082469,-0.376111228,0.434968,0.259338407,-0.381702036,0.419147,0.254380837,-0.399610214,0.424421,0.342665632,-0.395585762,0.459996,0.300470869,-0.395110129,0.435993,0.278301915,-0.395903273,0.423713,0.271899278,-0.420507975,0.430092,0.355700979,-0.420552978,0.460966,0.310398048,-0.411935041,0.438542,0.304072225,-0.4337134,0.450506,0.300627855,-0.455574968,0.463038
0.32226122,-0.487127595,0.504734,0.326811491,-0.429472638,0.482632,0.311847317,-0.461797595,0.503308,0.287692789,-0.440613697,0.488487,0.264116256,-0.420669406,0.471131,0.255013839,-0.415668647,0.453673,0.316448267,-0.369035393,0.466973,0.287755666,-0.337425546,0.445,0.279338002,-0.32868793,0.443245,0.271249296,-0.320301021,0.44165,0.331076319,-0.38107062,0.462174,0.286853647,-0.375660424,0.435159,0.259306697,-0.381358519,0.4194,0.254862349,-0.398927434,0.424742,0.342452352,-0.395072586,0.460102,0.29994893,-0.393904621,0.436185,0.278229581,-0.395687682,0.423948,0.271808815,-0.420142309,0.430396,0.355528369,-0.420012649,0.461077,0.309860812,-0.41079778,0.438725,0.3041208,-0.433360405,0.450737,0.300914064,-0.455171907,0.463261
0.321804172,-0.485571199,0.504913,0.326667613,-0.429146064,0.482749,0.311606178,-0.461307519,0.503371,0.287580028,-0.440282614,0.48838,0.264230804,-0.420385273,0.470934,0.255283894,-0.415269014,0.453438,0.316236708,-0.368673136,0.466906,0.287554372,-0.337017755,0.444802,0.279266288,-0.328398117,0.443278,0.271287977,-0.3201085,0.441892,0.33090257,-0.380741117,0.462234,0.28662434,-0.375269443,0.435134,0.259147595,-0.380946612,0.419325,0.255000993,-0.398189572,0.424653,0.342384057,-0.394815723,0.460272,0.299905654,-0.393934477,0.436236,0.27811035,-0.395461717,0.423939,0.271616469,-0.41970943,0.43036,0.35559445,-0.419866344,0.461386,0.30995668,-0.410651521,0.438937,0.304194374,-0.433183841,0.450952,0.301171171,-0.455004446,0.463512
