sluyters/QuantumLeap/backend/src/datasets/dynamic/HandGestureDataset_SHREC2017_csv/Gesture10/finger_1/subject_9_essai_1_skeletons_world.csv
Wrist_x,Wrist_y,Wrist_z,Palm_x,Palm_y,Palm_z,thumb_base_x,thumb_base_y,thumb_base_z,thumb_first_joint_x,thumb_first_joint_y,thumb_first_joint_z,thumb_second_joint_x,thumb_second_joint_y,thumb_second_joint_z,thumb_tip_x,thumb_tip_y,thumb_tip_z,index_base_x,index_base_y,index_base_z,index_first_joint_x,index_first_joint_y,index_first_joint_z,index_second_joint_x,index_second_joint_y,index_second_joint_z,index_tip_x,index_tip_y,index_tip_z,middle_base_x,middle_base_y,middle_base_z,middle_first_joint_x,middle_first_joint_y,middle_first_joint_z,middle_second_joint_x,middle_second_joint_y,middle_second_joint_z,middle_tip_x,middle_tip_y,middle_tip_z,ring_base_x,ring_base_y,ring_base_z,ring_first_joint_x,ring_first_joint_y,ring_first_joint_z,ring_second_joint_x,ring_second_joint_y,ring_second_joint_z,ring_tip_x,ring_tip_y,ring_tip_z,pinky_base_x,pinky_base_y,pinky_base_z,pinky_first_joint_x,pinky_first_joint_y,pinky_first_joint_z,pinky_second_joint_x,pinky_second_joint_y,pinky_second_joint_z,pinky_tip_x,pinky_tip_y,pinky_tip_z,
0.64283542,-0.4346853,0.635498,0.64172472,-0.37941136,0.606024,0.63702531,-0.42026215,0.639049,0.60725766,-0.37663883,0.628776,0.58486914,-0.3422934,0.61953,0.57335413,-0.31424278,0.610548,0.61601931,-0.32204789,0.590636,0.60193092,-0.27382659,0.575031,0.5948897,-0.24965328,0.567228,0.58849132,-0.22763959,0.560135,0.62569505,-0.32773043,0.577953,0.60488221,-0.27680691,0.542877,0.60289792,-0.2977937,0.554779,0.60910695,-0.32381945,0.571203,0.63479253,-0.33801379,0.570686,0.5897026,-0.30788319,0.535544,0.59231855,-0.33353763,0.544694,0.60991608,-0.3601324,0.562539,0.64760045,-0.35999948,0.567791,0.59596019,-0.35191898,0.539709,0.6005865,-0.370681,0.546767,0.60466965,-0.38723264,0.552995
0.64395522,-0.43133188,0.634549,0.63700932,-0.37589525,0.606633,0.63806841,-0.41665106,0.638747,0.6116323,-0.37436047,0.629542,0.58836233,-0.34183341,0.622596,0.58030494,-0.31626616,0.615724,0.61831478,-0.32064174,0.593145,0.61294149,-0.27103637,0.585543,0.6092177,-0.24831228,0.581742,0.6058344,-0.22744419,0.578286,0.62797924,-0.32196438,0.580045,0.58437493,-0.28932116,0.542161,0.58212994,-0.32025386,0.554826,0.59716403,-0.34202037,0.572504,0.63733778,-0.33097264,0.572267,0.58943377,-0.30580194,0.535347,0.59342644,-0.33163939,0.545136,0.61175672,-0.36034187,0.563954,0.65050847,-0.35157514,0.568485,0.60199893,-0.34166773,0.544991,0.59824851,-0.35761297,0.552491,0.59495293,-0.37167018,0.559109
0.63880666,-0.42750604,0.629289,0.63281229,-0.37021942,0.603795,0.62948887,-0.41403759,0.632059,0.60320649,-0.37030584,0.622622,0.57982846,-0.33515162,0.612636,0.57230448,-0.3121337,0.607918,0.61079224,-0.31572306,0.590092,0.60949932,-0.27312445,0.591654,0.61031918,-0.25235957,0.592435,0.61617423,-0.23316175,0.593145,0.62394408,-0.31997061,0.579514,0.58799134,-0.26857839,0.543583,0.60235266,-0.2803778,0.560376,0.61542412,-0.30890478,0.578644,0.635899,-0.32905654,0.573551,0.6029401,-0.28399876,0.544791,0.61658461,-0.29435931,0.558172,0.63295719,-0.32334262,0.57513,0.65023322,-0.3460353,0.571422,0.60968752,-0.33399514,0.547999,0.6129706,-0.35491372,0.557965,0.61574801,-0.37359696,0.566758
0.63020817,-0.4213386,0.621065,0.62404443,-0.36425211,0.598356,0.62007506,-0.40512659,0.622603,0.5890436,-0.36299076,0.609264,0.56380622,-0.32894618,0.592307,0.55271987,-0.30375698,0.579666,0.60122013,-0.31096174,0.584941,0.609142,-0.27173122,0.591743,0.61285178,-0.25173626,0.595145,0.61616368,-0.23307957,0.598237,0.61713267,-0.31553215,0.576729,0.58989533,-0.2700391,0.546192,0.57284212,-0.24421813,0.528378,0.57431068,-0.25270466,0.533669,0.63124832,-0.3247404,0.572414,0.60510043,-0.28532715,0.547196,0.62126821,-0.29738301,0.563053,0.63679846,-0.3264303,0.579571,0.64967286,-0.34530742,0.571674,0.61779208,-0.32296753,0.548995,0.62600431,-0.32694143,0.560799,0.63145207,-0.33085643,0.571215
0.6289915,-0.41817836,0.618692,0.62094589,-0.36193984,0.593542,0.61426819,-0.39997958,0.616955,0.58540505,-0.36008134,0.598388,0.55870729,-0.32529769,0.577268,0.54700361,-0.29968571,0.56246,0.59084947,-0.30323039,0.574203,0.59573721,-0.26306347,0.578144,0.59819607,-0.24224662,0.580115,0.60051418,-0.22304726,0.581906,0.6099549,-0.31090635,0.56959,0.58110304,-0.26545419,0.535685,0.56938938,-0.24029513,0.515907,0.57350815,-0.24970995,0.520373,0.62758157,-0.32175669,0.568502,0.59998086,-0.28185971,0.539723,0.62370362,-0.29615519,0.555502,0.63674111,-0.32454729,0.573427,0.65090146,-0.34465831,0.571966,0.62350468,-0.3222173,0.546059,0.6346295,-0.32746659,0.557728,0.64281896,-0.33262525,0.568023
0.62895752,-0.41859648,0.618101,0.62093688,-0.36837333,0.592086,0.61262818,-0.40102033,0.616195,0.58431134,-0.36989911,0.59727,0.55732037,-0.33498446,0.575835,0.54567522,-0.3094413,0.561094,0.58852189,-0.31164099,0.571941,0.59049483,-0.27149678,0.572801,0.59150236,-0.25063998,0.573231,0.59250367,-0.23153194,0.573622,0.60844631,-0.31783963,0.567311,0.58123596,-0.27405174,0.532578,0.56542615,-0.24835305,0.512316,0.56898292,-0.25786947,0.516267,0.62856777,-0.32810303,0.566302,0.59980761,-0.29019203,0.536269,0.61933827,-0.30453119,0.551614,0.63852398,-0.33562259,0.56987,0.651371,-0.35211922,0.570021,0.62061932,-0.33073195,0.543532,0.63137861,-0.33628869,0.554871,0.63925874,-0.34173088,0.564877
0.62231714,-0.41211854,0.607227,0.62634517,-0.3620648,0.586624,0.60340445,-0.39774199,0.601998,0.57787027,-0.36255529,0.579457,0.55097468,-0.33179843,0.561119,0.53956186,-0.30712531,0.551429,0.58337719,-0.30673686,0.565823,0.5769073,-0.26217103,0.555758,0.57372165,-0.23940024,0.550726,0.57085536,-0.21839723,0.546151,0.61110316,-0.31081653,0.567002,0.58909203,-0.27058781,0.536472,0.57646566,-0.24666408,0.518664,0.58884639,-0.25971438,0.525669,0.63601434,-0.31992096,0.570192,0.61353837,-0.28724549,0.543163,0.60217025,-0.27022773,0.529334,0.61719421,-0.28565641,0.536436,0.66871241,-0.34082522,0.577768,0.64460419,-0.31669359,0.553073,0.63358264,-0.3054862,0.541726,0.62394813,-0.29555437,0.531763
0.61917119,-0.41141177,0.601488,0.61670226,-0.36046859,0.577096,0.6031134,-0.39986443,0.596138,0.57027683,-0.35936018,0.572691,0.54089762,-0.32541811,0.550974,0.52835529,-0.30060577,0.536366,0.57627443,-0.30557946,0.553566,0.57587494,-0.26257776,0.548283,0.57575292,-0.24046162,0.545641,0.57174279,-0.21860304,0.543239,0.60248176,-0.31202755,0.553866,0.57704334,-0.25501811,0.519707,0.55782368,-0.25873921,0.499781,0.56137076,-0.28028043,0.504808,0.62613432,-0.32326884,0.556742,0.60087528,-0.28413234,0.526839,0.58495807,-0.26253132,0.51154,0.59697031,-0.27555228,0.51678,0.65741115,-0.34707625,0.564665,0.6310269,-0.31654102,0.53754,0.61894004,-0.30241587,0.525077,0.60572887,-0.28779594,0.51408
0.61778547,-0.41044664,0.599117,0.60894948,-0.35783894,0.569158,0.59542414,-0.39273459,0.590566,0.59055444,-0.35900648,0.562166,0.57156931,-0.32015912,0.535873,0.57467823,-0.298616,0.527088,0.56537119,-0.29271503,0.537678,0.56926601,-0.25058633,0.535946,0.57131468,-0.22879239,0.53508,0.56968467,-0.21248982,0.534293,0.59368583,-0.30245957,0.540626,0.5662003,-0.2500666,0.500812,0.54104829,-0.25505798,0.477587,0.53898501,-0.27434614,0.478932,0.61925375,-0.3165838,0.546282,0.58846059,-0.27029587,0.510727,0.57290355,-0.26190694,0.492536,0.57619035,-0.27984522,0.493915,0.65152167,-0.34363375,0.558478,0.61946928,-0.31895133,0.52685,0.60414354,-0.30741882,0.512318,0.59063016,-0.29722945,0.499496
0.61358488,-0.40734451,0.594494,0.59941881,-0.34978959,0.559729,0.59279629,-0.39038638,0.582942,0.58097676,-0.35604573,0.550615,0.55464328,-0.31729312,0.524616,0.54353913,-0.29166447,0.516446,0.5511501,-0.28569161,0.521078,0.54455723,-0.24136372,0.505168,0.54140246,-0.21870697,0.497213,0.53862458,-0.19779581,0.489981,0.58168874,-0.29619223,0.52662,0.55404522,-0.25256397,0.482437,0.5262483,-0.26059848,0.456664,0.51855432,-0.27784646,0.453782,0.60931412,-0.3109267,0.53493,0.57833528,-0.27543286,0.494867,0.56208156,-0.26919344,0.474369,0.56035312,-0.28661247,0.471341,0.64567439,-0.33895303,0.551111,0.60501978,-0.33721397,0.516049,0.5775309,-0.33791116,0.499939,0.56807805,-0.33980478,0.496969
0.61633513,-0.40992345,0.592302,0.60299605,-0.36179974,0.554408,0.59228503,-0.39122275,0.581353,0.58503124,-0.37167579,0.549869,0.55683729,-0.33397743,0.524261,0.54365239,-0.30726495,0.514165,0.55168478,-0.2969905,0.514417,0.54051983,-0.25299079,0.495788,0.53505102,-0.23056003,0.486473,0.53015406,-0.20989189,0.478006,0.5812061,-0.30770915,0.518318,0.54593816,-0.26521167,0.471847,0.51266884,-0.27244823,0.444739,0.50075305,-0.287294,0.439234,0.60851302,-0.32275885,0.525615,0.57050437,-0.28842986,0.484076,0.54976845,-0.2827573,0.462823,0.54278307,-0.29887015,0.457347,0.64533492,-0.35138945,0.541206,0.59687991,-0.34938837,0.504976,0.56909417,-0.34776407,0.488329,0.55892355,-0.34700191,0.483513
0.59739342,-0.41236158,0.584903,0.59211637,-0.37049281,0.550547,0.58395187,-0.38934805,0.575448,0.5697296,-0.37298857,0.545593,0.56516651,-0.35436022,0.521522,0.57735515,-0.34546672,0.514133,0.56089127,-0.30495611,0.514905,0.54383251,-0.26491398,0.48788,0.53487329,-0.24620804,0.474368,0.5268642,-0.22894903,0.462084,0.58554529,-0.3232167,0.517827,0.56082524,-0.2789769,0.474152,0.51864717,-0.28471188,0.448675,0.50412498,-0.29933723,0.446732,0.60702227,-0.34387674,0.523936,0.57843495,-0.3027376,0.485071,0.55247824,-0.30256204,0.465187,0.54233093,-0.31933213,0.463324,0.63375634,-0.37785977,0.537485,0.57496682,-0.36445808,0.503225,0.53814615,-0.35311861,0.487484,0.51957048,-0.35162154,0.485345
0.58986247,-0.42626071,0.577227,0.58175065,-0.38448572,0.540909,0.56892021,-0.41048772,0.56696,0.55633516,-0.3825424,0.536137,0.54489388,-0.35771791,0.508931,0.54827369,-0.34285987,0.49567,0.54779014,-0.31753522,0.502878,0.5289414,-0.27763069,0.474521,0.51905826,-0.25909348,0.460342,0.51018085,-0.24205591,0.447452,0.57253457,-0.33597441,0.506321,0.54529749,-0.29105822,0.461024,0.50237826,-0.29487688,0.434601,0.48616982,-0.30751967,0.430821,0.59443197,-0.35694368,0.513069,0.56364111,-0.31509283,0.472665,0.53680841,-0.31391459,0.451993,0.52470515,-0.32895449,0.448266,0.62225408,-0.39160798,0.52773,0.56249684,-0.3767192,0.492311,0.52551059,-0.36411639,0.476038,0.50583571,-0.36129242,0.472515
0.5837908,-0.4421339,0.571476,0.58193008,-0.40173879,0.535039,0.56576918,-0.41438699,0.561617,0.56340434,-0.40141005,0.538256,0.55571762,-0.38359185,0.513686,0.55321498,-0.36262119,0.49494,0.55788025,-0.33242389,0.497458,0.49774231,-0.3189441,0.456848,0.46021739,-0.31856788,0.436543,0.44895874,-0.32251518,0.43304,0.57802512,-0.35520698,0.500337,0.59084764,-0.31336663,0.473286,0.57188159,-0.30636938,0.457505,0.56540943,-0.32186737,0.465829,0.59566155,-0.37987358,0.506635,0.55128695,-0.351426,0.466358,0.52858301,-0.33687103,0.445751,0.50794227,-0.32363874,0.427017,0.61746066,-0.41905072,0.520794,0.61038698,-0.36943199,0.492218,0.60063372,-0.35582579,0.479088,0.58523377,-0.3507767,0.467504
0.57765726,-0.45321407,0.564699,0.58416926,-0.41278288,0.535874,0.56583063,-0.42670179,0.559012,0.56750542,-0.41524017,0.539013,0.56156204,-0.40665182,0.513529,0.56869031,-0.39658948,0.501266,0.57010201,-0.34887122,0.508894,0.51902285,-0.34169554,0.475772,0.48487073,-0.3444522,0.45921,0.47949532,-0.35305347,0.462167,0.58780321,-0.36911787,0.508421,0.56780337,-0.33473006,0.470147,0.52011204,-0.33335389,0.447821,0.50483844,-0.34482919,0.450196,0.60239268,-0.39113187,0.511137,0.57456174,-0.360606,0.477915,0.54485626,-0.3613674,0.460918,0.51309905,-0.36413062,0.445466,0.61904252,-0.42620532,0.519709,0.60594269,-0.38665818,0.489832,0.59989404,-0.3685082,0.476105,0.5834892,-0.36347471,0.463993
0.55752893,-0.45299318,0.541951,0.5723276,-0.41968777,0.519204,0.54523382,-0.42655216,0.536177,0.54909014,-0.41883785,0.512483,0.55318567,-0.40041969,0.494237,0.56430976,-0.38376885,0.486522,0.56270782,-0.35682298,0.496239,0.54846994,-0.32674267,0.467083,0.52344993,-0.33474954,0.452505,0.51884695,-0.35180057,0.458617,0.58202112,-0.37781231,0.497541,0.55168006,-0.36629468,0.464849,0.53423031,-0.35999526,0.445779,0.52587163,-0.37769018,0.45165,0.59721111,-0.40011484,0.501065,0.61154524,-0.35731502,0.49075,0.61183681,-0.35814899,0.485473,0.60104674,-0.36954484,0.480675,0.61340496,-0.43508508,0.509431,0.60186777,-0.39859701,0.483156,0.59665759,-0.38176932,0.471084,0.58468587,-0.3807618,0.460432
0.55194889,-0.4691815,0.533239,0.56524293,-0.43470298,0.509132,0.53927034,-0.45209044,0.525205,0.56362717,-0.44044758,0.513597,0.58714947,-0.43159774,0.503869,0.60365212,-0.41658684,0.497646,0.55338581,-0.36945431,0.4823,0.54020925,-0.33936683,0.450574,0.51248915,-0.34647869,0.434711,0.50533073,-0.35955879,0.439462,0.57453346,-0.39237984,0.486174,0.53728711,-0.39042267,0.451821,0.51448222,-0.39046128,0.431782,0.52104413,-0.40868664,0.436602,0.59126561,-0.41633263,0.491962,0.60869357,-0.37519475,0.48452,0.61377396,-0.37811747,0.480712,0.60525682,-0.39455529,0.479553,0.60927924,-0.4532898,0.503212,0.57085172,-0.43958664,0.475261,0.53929229,-0.43307021,0.462419,0.52862921,-0.43581541,0.465262
0.55265234,-0.49103512,0.532818,0.5646201,-0.4549577,0.508571,0.53922311,-0.47319359,0.525159,0.57471761,-0.47143034,0.523703,0.60074039,-0.47012725,0.51453,0.62552032,-0.46335958,0.512975,0.55319305,-0.38923476,0.482132,0.54020805,-0.35966868,0.450573,0.512587,-0.36643372,0.434794,0.50550666,-0.37919874,0.439615,0.57371214,-0.41189279,0.485479,0.53636551,-0.41023527,0.451046,0.51350159,-0.41044899,0.430959,0.52006195,-0.42980839,0.435779,0.58992674,-0.43567523,0.490848,0.60791593,-0.39469032,0.483901,0.61330665,-0.39859071,0.480346,0.60548148,-0.41584421,0.479731,0.60737347,-0.47253271,0.501638,0.56900918,-0.45903744,0.473727,0.53752427,-0.45207585,0.460903,0.52693855,-0.45447163,0.463774
0.55300315,-0.45574385,0.52605,0.57856318,-0.44481381,0.49703,0.57412707,-0.4399385,0.524085,0.59260464,-0.42693417,0.509561,0.61555213,-0.40442313,0.499501,0.62861313,-0.39793138,0.48854,0.60191652,-0.40886181,0.474764,0.56858116,-0.37279577,0.444635,0.52442969,-0.36152228,0.42957,0.51757705,-0.3686502,0.43274,0.59241177,-0.4302152,0.469391,0.54704779,-0.38810709,0.432021,0.48818605,-0.3623465,0.410223,0.47543022,-0.36354587,0.412169,0.58299643,-0.4498578,0.468093,0.55094871,-0.41829529,0.437104,0.54332983,-0.41832616,0.450764,0.54870023,-0.42879333,0.468734,0.56901403,-0.47613221,0.472042,0.52925832,-0.43029356,0.443872,0.50154218,-0.40198018,0.430929,0.49494753,-0.39680046,0.432144
0.55609179,-0.46734768,0.525138,0.57827217,-0.45499175,0.49678,0.57275552,-0.44409597,0.522833,0.59120442,-0.43671264,0.508357,0.61388108,-0.41409704,0.498145,0.62693267,-0.40773412,0.487234,0.60161225,-0.41882623,0.474524,0.56840086,-0.38298559,0.444494,0.5243186,-0.37123865,0.429479,0.5179837,-0.37844849,0.43308,0.59289263,-0.44084243,0.469772,0.54810258,-0.39918573,0.432854,0.48948916,-0.37288263,0.411318,0.47729771,-0.37422712,0.413788,0.58402145,-0.4610326,0.468916,0.55224193,-0.42984036,0.43813,0.54519089,-0.43049345,0.452308,0.55065513,-0.44100596,0.470404,0.5704726,-0.48788648,0.473252,0.53090379,-0.44201653,0.445252,0.50324026,-0.41326188,0.432388,0.49501515,-0.40728192,0.433956
0.55249044,-0.46471359,0.519575,0.58058832,-0.467956,0.496302,0.57439949,-0.45331004,0.521587,0.59016857,-0.44488456,0.508914,0.61921116,-0.42697071,0.503305,0.63184054,-0.42166375,0.493695,0.61694731,-0.44797695,0.483119,0.59371337,-0.41142549,0.460205,0.55460044,-0.39016185,0.448748,0.55157756,-0.39782017,0.455128,0.60002709,-0.46411925,0.474137,0.55962349,-0.41788331,0.443291,0.50810265,-0.38978074,0.425297,0.49612367,-0.39131567,0.430087,0.58383885,-0.4781309,0.469248,0.55573598,-0.44060579,0.444961,0.55045619,-0.44376997,0.46034,0.55022158,-0.45624365,0.476291,0.56092219,-0.49552354,0.467948,0.52943042,-0.45254283,0.445234,0.51281978,-0.43276627,0.434798,0.50014482,-0.43185276,0.43836
0.55408145,-0.47736207,0.52025,0.57961019,-0.477241,0.495512,0.57624155,-0.46231734,0.52053,0.58593948,-0.45203363,0.505009,0.61596178,-0.43511265,0.500339,0.62864025,-0.43057686,0.49094,0.6116375,-0.4543657,0.47908,0.58529189,-0.41575691,0.453616,0.57977828,-0.41814416,0.469082,0.58860502,-0.43489955,0.4858,0.59707156,-0.47218817,0.471952,0.5543196,-0.42425415,0.439117,0.50177202,-0.39460902,0.419963,0.4894635,-0.39775428,0.424305,0.58301629,-0.4878802,0.468749,0.55227534,-0.44827627,0.442191,0.54715672,-0.45178717,0.457565,0.54804854,-0.46514695,0.474431,0.56280722,-0.50766154,0.46968,0.52936339,-0.46268423,0.445109,0.51161987,-0.44199871,0.43382,0.49842856,-0.44067741,0.43693
0.55491772,-0.48463449,0.520709,0.57861254,-0.4892434,0.496633,0.5784863,-0.47507494,0.52344,0.59708853,-0.46223714,0.511832,0.62765815,-0.44571868,0.509528,0.643792,-0.43923967,0.501627,0.61540578,-0.47015962,0.483845,0.58956514,-0.43215198,0.457924,0.58266749,-0.43318434,0.472374,0.59105751,-0.44938693,0.489098,0.59669574,-0.48520695,0.473705,0.55286555,-0.4365108,0.439108,0.49947391,-0.40509381,0.418927,0.48555952,-0.40626829,0.422007,0.57924324,-0.49824546,0.467949,0.53983098,-0.4531978,0.436317,0.53311863,-0.45592495,0.450425,0.53691624,-0.47105042,0.468833,0.55523738,-0.51450933,0.465794,0.52955198,-0.47385752,0.443097,0.51529833,-0.45485308,0.432668,0.50272223,-0.45288521,0.435712
0.55488926,-0.49136617,0.521409,0.57638527,-0.49086272,0.4953,0.57897668,-0.47914036,0.524167,0.59764583,-0.46547763,0.512459,0.62975548,-0.45440412,0.511679,0.64416115,-0.443316,0.502148,0.61207895,-0.47584222,0.481165,0.57895251,-0.43170592,0.450488,0.57211025,-0.42670831,0.46341,0.57379137,-0.43736421,0.480678,0.59119891,-0.48961627,0.470435,0.543677,-0.43682399,0.433936,0.49060031,-0.40082774,0.412645,0.4754248,-0.40041169,0.414203,0.57226577,-0.5015693,0.464412,0.52840996,-0.45168891,0.430069,0.5221578,-0.45006599,0.442755,0.52710345,-0.46573757,0.461689,0.54709478,-0.51654684,0.46233,0.51961165,-0.4733165,0.438586,0.50456142,-0.4530793,0.427676,0.49327534,-0.4478576,0.429662
0.55629645,-0.49327468,0.522096,0.57651801,-0.49214958,0.495608,0.57979721,-0.48165723,0.525052,0.59898702,-0.46746316,0.513659,0.63107116,-0.45535347,0.512748,0.6453722,-0.44542662,0.50317,0.61247075,-0.47614682,0.481473,0.57496335,-0.42873134,0.447384,0.56770854,-0.42388459,0.459709,0.57069488,-0.43500395,0.478084,0.59113105,-0.48956007,0.470381,0.54319714,-0.43643844,0.433553,0.489455,-0.40087256,0.41207,0.47389905,-0.40000247,0.413209,0.57188378,-0.5012345,0.464102,0.52668861,-0.45021748,0.428668,0.5193177,-0.4487918,0.440878,0.52470417,-0.46471795,0.460063,0.54645932,-0.51594687,0.461793,0.51891502,-0.47268194,0.437998,0.50384176,-0.45243307,0.427066,0.49145028,-0.44736657,0.428788
0.55909213,-0.49679091,0.524525,0.5774733,-0.4944005,0.496876,0.58182316,-0.48850324,0.527662,0.60281244,-0.47795479,0.516563,0.63448657,-0.46417595,0.514977,0.65209281,-0.46064736,0.507637,0.61287619,-0.47744444,0.482188,0.57237694,-0.42818796,0.446067,0.56408064,-0.42356839,0.457262,0.56735655,-0.4338559,0.475988,0.59078278,-0.49033132,0.470542,0.5411645,-0.43633167,0.432703,0.48585645,-0.40143916,0.41063,0.47020867,-0.39837439,0.410687,0.57109055,-0.50166113,0.463933,0.52426001,-0.44968951,0.427465,0.51439778,-0.44852124,0.438597,0.52016995,-0.46440184,0.457769,0.54545278,-0.51618453,0.461458,0.51722767,-0.47264989,0.437242,0.50185241,-0.45228411,0.426116,0.48701523,-0.44732599,0.427108
0.55981814,-0.49817673,0.525067,0.57754966,-0.49532789,0.49721,0.58210913,-0.48950366,0.528121,0.60318121,-0.47824717,0.516879,0.63447794,-0.46416964,0.51497,0.65198234,-0.46056932,0.507551,0.61273228,-0.47782371,0.482273,0.57182783,-0.42847021,0.445987,0.56339191,-0.42378729,0.457085,0.56675902,-0.43409718,0.475837,0.5906798,-0.49077567,0.470679,0.5406126,-0.43665009,0.432648,0.48517791,-0.40165745,0.410464,0.46940115,-0.39858203,0.410399,0.57104585,-0.50218266,0.464134,0.5238493,-0.45011137,0.427517,0.51385401,-0.44886831,0.438552,0.51972688,-0.46475967,0.457746,0.54552059,-0.51684243,0.461773,0.51701943,-0.47321191,0.4374,0.50152024,-0.45280334,0.426202,0.48656823,-0.44775081,0.427097
0.56287602,-0.50012907,0.525771,0.57771926,-0.4960485,0.497535,0.58255866,-0.49038888,0.528662,0.60349045,-0.47849236,0.517144,0.63441264,-0.46412187,0.514917,0.65180764,-0.46044591,0.507415,0.61239826,-0.47785797,0.482129,0.57099101,-0.42825873,0.445543,0.56235091,-0.42344543,0.456469,0.5658348,-0.43380778,0.475271,0.59047093,-0.49092,0.470644,0.53984339,-0.43648646,0.432264,0.4841931,-0.40130888,0.409875,0.46816165,-0.39812298,0.409593,0.57098755,-0.50246786,0.464229,0.52334816,-0.45014497,0.42734,0.51315339,-0.44874856,0.438205,0.51912974,-0.46467723,0.45744,0.54571245,-0.51738039,0.46209,0.51680979,-0.47347129,0.437423,0.50112759,-0.45293969,0.426089,0.48597877,-0.44770911,0.426808
0.58816154,-0.46274641,0.535784,0.59166777,-0.47849821,0.508404,0.60426741,-0.453919,0.528643,0.58929515,-0.4549695,0.502375,0.61985606,-0.45720297,0.491937,0.62353542,-0.46833377,0.481514,0.61009585,-0.47611658,0.480513,0.57167542,-0.430892,0.447115,0.56956597,-0.42769442,0.462177,0.57548879,-0.43771498,0.481374,0.58873838,-0.4913867,0.482328,0.54101268,-0.436411,0.445079,0.49331334,-0.392836,0.42335,0.49116233,-0.39464908,0.426506,0.57189145,-0.50315939,0.486774,0.5298225,-0.45396795,0.453743,0.52975269,-0.44857795,0.468784,0.54462456,-0.46351691,0.488633,0.55179601,-0.51417204,0.49708,0.52751173,-0.47112982,0.467453,0.50515571,-0.43904202,0.45384,0.50012318,-0.42699992,0.455544
0.58600335,-0.46104841,0.533818,0.58623635,-0.47463631,0.504603,0.60097198,-0.45144351,0.52576,0.58532135,-0.45149366,0.49807,0.61643759,-0.45468153,0.489224,0.62044438,-0.46601211,0.479127,0.60199393,-0.46983294,0.474271,0.56130828,-0.42334661,0.439126,0.55847221,-0.41916976,0.453137,0.56549602,-0.42956602,0.472602,0.58196639,-0.48573451,0.47678,0.53204684,-0.42917865,0.437703,0.5307625,-0.42265757,0.455488,0.54751565,-0.43992899,0.475441,0.56627561,-0.49821849,0.481994,0.52218476,-0.44742371,0.447202,0.5211699,-0.44131032,0.461189,0.53623617,-0.45637775,0.481107,0.54786302,-0.51050721,0.493537,0.52192914,-0.4661439,0.462506,0.49893254,-0.43363332,0.448249,0.49292123,-0.42085096,0.448984
0.58428247,-0.45927823,0.53195,0.58317154,-0.4724213,0.503217,0.59943236,-0.44980339,0.524186,0.58662909,-0.45087513,0.496931,0.61695347,-0.45403626,0.489258,0.62158225,-0.46561198,0.479536,0.60134274,-0.4678715,0.473595,0.56257503,-0.42288551,0.43897,0.56075391,-0.41895423,0.45328,0.57121956,-0.42719537,0.47266,0.58156653,-0.48425701,0.475852,0.53932626,-0.43293026,0.437254,0.53318129,-0.42326512,0.455416,0.549094,-0.43464953,0.475079,0.56572555,-0.49659572,0.480808,0.52922509,-0.45143329,0.446503,0.5233346,-0.44209632,0.460788,0.53632909,-0.45455384,0.48041,0.54703209,-0.50867831,0.491961,0.52148561,-0.46464776,0.461313,0.49876961,-0.4322987,0.447231,0.49313004,-0.41936166,0.448237
0.58521729,-0.45980498,0.532651,0.58377265,-0.47230451,0.503382,0.60015665,-0.45001187,0.524721,0.58717091,-0.45079478,0.497185,0.61695227,-0.45326639,0.489054,0.62143047,-0.46455117,0.47913,0.60115695,-0.46615634,0.473179,0.56192619,-0.42227129,0.438091,0.55999041,-0.41799446,0.452097,0.57043412,-0.42802447,0.471538,0.5817802,-0.48345108,0.475506,0.53838498,-0.4319334,0.436401,0.53295096,-0.42244658,0.454175,0.54770133,-0.43355872,0.473899,0.56618152,-0.49606594,0.480577,0.52863443,-0.45075072,0.445814,0.52355673,-0.44179941,0.459794,0.53570013,-0.45310124,0.479415,0.54782216,-0.50862006,0.491964,0.52166421,-0.46421642,0.460948,0.49889139,-0.43169222,0.446697,0.49311103,-0.41811024,0.447432
0.58551616,-0.45991504,0.532833,0.58401376,-0.47213782,0.503378,0.60032815,-0.44993966,0.524812,0.58725931,-0.45056497,0.497137,0.61697952,-0.45282578,0.488954,0.62147201,-0.46401503,0.478989,0.60087338,-0.46666863,0.47293,0.56175337,-0.42204023,0.437658,0.55981166,-0.41758326,0.451549,0.57044431,-0.42783013,0.471017,0.58194019,-0.48299506,0.475325,0.53797537,-0.43152437,0.436039,0.53309408,-0.42217776,0.453669,0.54713001,-0.43311032,0.473413,0.56649414,-0.49578296,0.480472,0.52837767,-0.45047228,0.445534,0.52392227,-0.44181661,0.4594,0.53557821,-0.45244451,0.479046,0.54831507,-0.50860294,0.491983,0.52188163,-0.4640564,0.460827,0.49911692,-0.43146017,0.446513,0.49331814,-0.41754268,0.447146
0.5859167,-0.46008852,0.53295,0.58414186,-0.47192979,0.503153,0.60063856,-0.44997516,0.524862,0.58750899,-0.45050381,0.497062,0.6170418,-0.45250326,0.488719,0.62167674,-0.46372701,0.47882,0.60040598,-0.46579832,0.472387,0.56198089,-0.42178257,0.43685,0.55958507,-0.41685096,0.450546,0.56970169,-0.42678124,0.470041,0.58175912,-0.48236814,0.474774,0.5406458,-0.43580832,0.435174,0.53635355,-0.42308314,0.452554,0.54683169,-0.43238003,0.472334,0.56641425,-0.49525712,0.479952,0.52729894,-0.44930402,0.444746,0.52318484,-0.44091354,0.458416,0.53465522,-0.45127473,0.478093,0.54840399,-0.50828667,0.491563,0.52139148,-0.46266165,0.46019,0.4998562,-0.42943098,0.445776,0.49430738,-0.41456443,0.446239
0.5838561,-0.45656624,0.529951,0.58403968,-0.46929294,0.501493,0.59805453,-0.44633699,0.521468,0.58901183,-0.44780701,0.49335,0.60568494,-0.46844266,0.484004,0.58217954,-0.47598519,0.470004,0.60015818,-0.4634439,0.471121,0.56401985,-0.42182956,0.436163,0.56972243,-0.4103318,0.450464,0.58578402,-0.4239138,0.470326,0.58273466,-0.48101704,0.47439,0.5437394,-0.43578153,0.435931,0.54500738,-0.42734937,0.454113,0.54983819,-0.43316752,0.473732,0.56814384,-0.49442625,0.480149,0.5288179,-0.44986993,0.445667,0.52831946,-0.44304236,0.459951,0.53795582,-0.45063332,0.479581,0.55070626,-0.50780538,0.492182,0.52606663,-0.45990038,0.46144,0.50367934,-0.42769402,0.447314,0.49732594,-0.41575241,0.4483
0.57671429,-0.44932985,0.522543,0.57717577,-0.46112508,0.494184,0.59412739,-0.44202755,0.517169,0.59646434,-0.44154517,0.493091,0.61634272,-0.45609728,0.483742,0.59892036,-0.46230891,0.46944,0.59554784,-0.46099152,0.46793,0.57364601,-0.42065993,0.435349,0.57354414,-0.41102637,0.450038,0.58645326,-0.41207381,0.468763,0.57423542,-0.47350064,0.467176,0.54368284,-0.42539827,0.42939,0.54749381,-0.41684012,0.447946,0.55095331,-0.42404196,0.467439,0.55733867,-0.48113466,0.469611,0.52649856,-0.43615206,0.436892,0.52366737,-0.43158931,0.451533,0.52895485,-0.44132987,0.470594,0.53746074,-0.48853915,0.477769,0.52303039,-0.45122296,0.448291,0.51602499,-0.43222403,0.434748,0.51873453,-0.41729015,0.436242
0.57999602,-0.43734598,0.518971,0.57668618,-0.44577257,0.49021,0.59702631,-0.43129264,0.513351,0.59231943,-0.42784416,0.488893,0.61425258,-0.4434201,0.481233,0.5980148,-0.45038383,0.467849,0.59328169,-0.4468573,0.463363,0.56811322,-0.40657165,0.430334,0.57229824,-0.39794159,0.44481,0.58099385,-0.39803278,0.463626,0.5716155,-0.45889849,0.462819,0.5386273,-0.41144197,0.424619,0.54226729,-0.40254856,0.442908,0.54877887,-0.40847008,0.462466,0.55405006,-0.467581,0.465471,0.52188538,-0.42231602,0.432333,0.52101258,-0.41619418,0.446762,0.52786504,-0.42467059,0.465906,0.53391673,-0.47524093,0.473955,0.51901717,-0.4376122,0.444144,0.51178221,-0.4185088,0.430448,0.51423776,-0.40349787,0.431735
0.57441591,-0.43105214,0.513002,0.56928211,-0.44000737,0.482395,0.59301499,-0.42672465,0.508993,0.59203096,-0.42596382,0.48659,0.61870049,-0.44370754,0.482212,0.60504378,-0.45146195,0.470521,0.58834677,-0.44502729,0.456393,0.56201629,-0.40014412,0.423546,0.56466687,-0.3906356,0.436777,0.57267928,-0.3909003,0.455024,0.56371206,-0.45336949,0.453247,0.53093952,-0.39942092,0.413874,0.53311537,-0.3880971,0.430495,0.53659285,-0.39639077,0.449953,0.54403141,-0.45908285,0.453954,0.5132298,-0.40874555,0.420578,0.51112367,-0.40129985,0.433739,0.51486042,-0.41172017,0.452474,0.52202274,-0.46347918,0.460528,0.50819924,-0.42196699,0.430459,0.50133741,-0.40121887,0.416644,0.50291044,-0.38545993,0.417106
0.57491285,-0.42188287,0.511564,0.56946628,-0.42980251,0.481008,0.5927522,-0.41787624,0.507056,0.5913456,-0.41306642,0.48395,0.61373417,-0.42598934,0.475838,0.59781644,-0.43045866,0.462082,0.58576594,-0.43306076,0.454391,0.56174677,-0.38784671,0.421156,0.56445198,-0.37843842,0.434499,0.57254624,-0.37928962,0.452944,0.56204672,-0.44192895,0.451908,0.52909222,-0.38801199,0.412434,0.53153273,-0.37671418,0.429217,0.53787425,-0.38404631,0.448764,0.54307626,-0.44807849,0.453157,0.51190944,-0.39758416,0.419496,0.50998768,-0.39024904,0.432775,0.51620451,-0.40011077,0.451672,0.52181984,-0.45294582,0.460349,0.50773291,-0.41128849,0.430064,0.50074179,-0.39051168,0.416149,0.50233653,-0.37487816,0.41663
0.57287381,-0.4270554,0.512732,0.55386338,-0.43554154,0.480905,0.59012494,-0.4209087,0.507578,0.58821895,-0.41221207,0.483485,0.6039713,-0.41595852,0.469186,0.58694473,-0.40625719,0.452276,0.56762053,-0.43961419,0.452582,0.53426364,-0.38550837,0.418065,0.52788074,-0.38325561,0.430647,0.5333055,-0.39704574,0.449214,0.54402766,-0.44681706,0.450595,0.51109243,-0.38582189,0.409875,0.52058942,-0.37119321,0.425698,0.5317089,-0.3790454,0.445394,0.52534059,-0.4516629,0.452388,0.49766797,-0.3943284,0.417509,0.50842,-0.38222572,0.430028,0.51967254,-0.38464437,0.449113,0.50481213,-0.45507964,0.460451,0.49711729,-0.42000176,0.429199,0.49270284,-0.4030121,0.414877,0.48718369,-0.38654032,0.402239
0.57323216,-0.42217991,0.51468,0.55445536,-0.42573071,0.481419,0.59063083,-0.41869891,0.509693,0.58848432,-0.40311482,0.485785,0.60498144,-0.40251457,0.470877,0.58879403,-0.39647777,0.453701,0.56731576,-0.4293917,0.452339,0.53309432,-0.37485008,0.41715,0.52544878,-0.37173708,0.428663,0.53069485,-0.38532423,0.447015,0.54299658,-0.43588806,0.449741,0.50863096,-0.37411981,0.407901,0.5164829,-0.35822822,0.42234,0.52556396,-0.36401002,0.442007,0.52394591,-0.44027785,0.451187,0.49530425,-0.38250736,0.415526,0.50480454,-0.36941193,0.42697,0.51600219,-0.37181904,0.445941,0.50334851,-0.44341365,0.459116,0.49484366,-0.40777833,0.427236,0.4900854,-0.39059352,0.412673,0.48425748,-0.37397565,0.399823
0.57049283,-0.41574159,0.516188,0.5553567,-0.41608422,0.482897,0.58935095,-0.41015233,0.511476,0.59017477,-0.39370549,0.487959,0.60641444,-0.39261665,0.472862,0.59011706,-0.38637373,0.455612,0.5686278,-0.42034406,0.454155,0.53469773,-0.36617367,0.419181,0.52695474,-0.3630563,0.43062,0.53208291,-0.37653907,0.44888,0.54385933,-0.42639129,0.451191,0.50957194,-0.36494921,0.409408,0.51728635,-0.34878799,0.423743,0.5263157,-0.35451199,0.443356,0.52447159,-0.43038209,0.452338,0.49601891,-0.37304896,0.416837,0.50542087,-0.35976026,0.428204,0.51652415,-0.36209593,0.447081,0.50353794,-0.43303278,0.459928,0.49511142,-0.39757208,0.42817,0.49047233,-0.38053442,0.413729,0.48475883,-0.36406148,0.400987
0.57142603,-0.3989257,0.518636,0.55907432,-0.40335851,0.483749,0.58880832,-0.39698952,0.513242,0.58214827,-0.38501384,0.48877,0.61127691,-0.39481992,0.478779,0.60814869,-0.3987931,0.466901,0.57046609,-0.40732584,0.453035,0.53068501,-0.35064169,0.416638,0.522291,-0.34666426,0.426879,0.53010348,-0.3620755,0.444866,0.5443333,-0.4127383,0.450523,0.50714953,-0.35432123,0.407298,0.51169373,-0.33780366,0.420114,0.52211554,-0.3346026,0.439772,0.52431375,-0.41625122,0.452214,0.49085653,-0.35695743,0.415341,0.4947433,-0.34573184,0.425511,0.51194482,-0.36384177,0.444363,0.50350295,-0.41853031,0.460735,0.49397742,-0.38695793,0.427909,0.48732676,-0.36986076,0.412827,0.47959568,-0.35303768,0.399519
0.57172519,-0.385666,0.516861,0.55811735,-0.39242076,0.482928,0.588372,-0.38334106,0.510558,0.57684522,-0.36156472,0.484806,0.57347928,-0.34981386,0.463763,0.56390605,-0.34577882,0.446324,0.56878632,-0.39604021,0.451678,0.52713629,-0.33851002,0.413872,0.51989687,-0.33540014,0.42495,0.52841219,-0.35124358,0.443453,0.54447291,-0.40270196,0.450611,0.50418651,-0.33877376,0.407878,0.51165396,-0.32182343,0.421885,0.52362163,-0.32127626,0.441739,0.52570838,-0.40715635,0.453389,0.49222896,-0.34810964,0.416508,0.49711968,-0.33767373,0.42759,0.51334551,-0.35739346,0.446553,0.50599304,-0.41030882,0.462992,0.49653366,-0.37868389,0.430172,0.48998,-0.36163549,0.415093,0.48229065,-0.3448188,0.401787
0.57249878,-0.38098477,0.517568,0.55836929,-0.38232313,0.483146,0.58854595,-0.37314247,0.510729,0.57617772,-0.35054857,0.484245,0.56481482,-0.33488232,0.460694,0.54966793,-0.32815638,0.441513,0.56776379,-0.38531018,0.450866,0.53068097,-0.33099606,0.413535,0.52310602,-0.32638548,0.424307,0.53097023,-0.34100934,0.443255,0.54417204,-0.39237062,0.450362,0.50324088,-0.32834592,0.407113,0.51017558,-0.31095264,0.420666,0.52223002,-0.31037865,0.440565,0.52602028,-0.39719351,0.453658,0.49182596,-0.33792303,0.416167,0.49629888,-0.32733028,0.426884,0.51018954,-0.34298372,0.445979,0.50704329,-0.40081251,0.463953,0.49398014,-0.36379736,0.430666,0.4854863,-0.34447454,0.415409,0.47590343,-0.32586846,0.401948
0.57726898,-0.38254785,0.522289,0.56037385,-0.38444811,0.486174,0.59618701,-0.38256722,0.518046,0.59622894,-0.36390455,0.495355,0.57602971,-0.33902292,0.476006,0.53976062,-0.32295632,0.461277,0.57191556,-0.39040633,0.456125,0.54449579,-0.33499134,0.420151,0.53579644,-0.32651075,0.428877,0.53754489,-0.34257376,0.446559,0.54405014,-0.3920109,0.451778,0.51256644,-0.32837779,0.408054,0.51530768,-0.30917872,0.418883,0.52183789,-0.30881728,0.438098,0.52147474,-0.38929342,0.452091,0.49250245,-0.32527773,0.41534,0.50256946,-0.30996728,0.42398,0.51471452,-0.31405873,0.442271,0.50024058,-0.38668153,0.459242,0.48982682,-0.36251973,0.426535,0.48132421,-0.34186011,0.411507,0.47270983,-0.3229354,0.398247
0.57489295,-0.41439968,0.518674,0.55467938,-0.39354382,0.479153,0.59535856,-0.40823176,0.516706,0.58618228,-0.37010531,0.500875,0.58070524,-0.34015527,0.488064,0.56990132,-0.32175092,0.474486,0.57370415,-0.38039906,0.449755,0.54143589,-0.31622323,0.416684,0.51694278,-0.30557137,0.414192,0.51482248,-0.31685471,0.426246,0.54043649,-0.37789951,0.441513,0.50115387,-0.30830238,0.398865,0.48070478,-0.28320791,0.395286,0.48679948,-0.28748223,0.409589,0.51506437,-0.37737646,0.438986,0.47296499,-0.30835262,0.404435,0.46668434,-0.28548859,0.401821,0.474097,-0.28550466,0.414728,0.48607023,-0.37643264,0.443481,0.47878584,-0.34449482,0.413322,0.46912552,-0.32143134,0.399465,0.46046227,-0.30133475,0.387239
0.60011127,-0.41673818,0.538435,0.57855707,-0.39716556,0.497225,0.61859433,-0.41489365,0.533053,0.60935239,-0.37463857,0.512513,0.59592741,-0.34218276,0.497107,0.5793454,-0.32450211,0.481476,0.58737489,-0.38933825,0.462235,0.5397277,-0.31487082,0.425491,0.52035764,-0.3092982,0.421912,0.52501084,-0.33031172,0.430675,0.5537329,-0.3833738,0.457978,0.5027615,-0.30174371,0.41312,0.48085315,-0.29348909,0.408269,0.49007933,-0.31638265,0.421087,0.53088181,-0.38134532,0.458914,0.49006954,-0.30911038,0.421285,0.4871548,-0.28596494,0.417613,0.50442881,-0.27635504,0.43134,0.5095845,-0.38177653,0.467746,0.50211537,-0.3600227,0.435236,0.48208383,-0.33035859,0.420299,0.46460841,-0.30541976,0.407119
0.60587758,-0.4160717,0.541677,0.57908291,-0.39644528,0.50034,0.62264685,-0.41424852,0.534813,0.6103774,-0.36868344,0.512959,0.59629435,-0.33350103,0.497647,0.58033999,-0.31193235,0.482744,0.58121619,-0.38460129,0.463334,0.53890695,-0.31331048,0.425889,0.51836385,-0.30676381,0.420699,0.52161811,-0.32694122,0.428397,0.55107341,-0.37959854,0.460972,0.50482796,-0.30128895,0.416249,0.48160818,-0.29195024,0.409404,0.48994556,-0.31433966,0.421524,0.52975827,-0.37717657,0.463483,0.49222797,-0.30588957,0.425431,0.48912738,-0.2818445,0.420162,0.50711268,-0.274757,0.433422,0.51104888,-0.37735804,0.474167,0.50110989,-0.35572185,0.441523,0.48247832,-0.32628742,0.426525,0.46615442,-0.30156883,0.413291
0.61507328,-0.41362548,0.546618,0.5829764,-0.39673349,0.505242,0.62961523,-0.41284664,0.537986,0.61189219,-0.36797332,0.514045,0.59734984,-0.33188159,0.497856,0.579797,-0.30905519,0.481571,0.58156113,-0.38479583,0.465905,0.53845112,-0.31106355,0.427281,0.51883704,-0.30590066,0.421414,0.52094498,-0.32554647,0.428462,0.55114438,-0.37720744,0.465837,0.50794131,-0.2994596,0.420924,0.48551053,-0.29025184,0.413284,0.49299956,-0.31242132,0.425121,0.53217201,-0.37435089,0.47024,0.49763652,-0.30371703,0.431357,0.49554103,-0.27965399,0.425427,0.51456187,-0.27248788,0.438759,0.51659047,-0.37420162,0.483128,0.5048826,-0.35256704,0.449949,0.48775944,-0.32335298,0.434704,0.47342148,-0.30277623,0.420842
0.6200478,-0.41534726,0.550553,0.58680634,-0.39723819,0.509886,0.63140191,-0.41394389,0.539534,0.61118521,-0.36745006,0.513147,0.59706023,-0.32947837,0.496036,0.57600346,-0.3058536,0.47774,0.56735061,-0.38404012,0.46792,0.53702143,-0.31261,0.428403,0.51799832,-0.3056394,0.421413,0.51956619,-0.32511503,0.428458,0.54364158,-0.3762517,0.471155,0.51155446,-0.3000285,0.426896,0.49049921,-0.29228788,0.417928,0.49625965,-0.31366687,0.428789,0.52863352,-0.37187016,0.478201,0.50392271,-0.30642932,0.438926,0.50237001,-0.2820276,0.431901,0.5236314,-0.27234466,0.444952,0.51898378,-0.37031393,0.494023,0.50248411,-0.34934715,0.46078,0.48915365,-0.3211312,0.445506,0.47715623,-0.29741194,0.432029
0.61824051,-0.41389095,0.549083,0.58254294,-0.39574137,0.508813,0.62794252,-0.41459819,0.538255,0.60998096,-0.36705433,0.512657,0.59324634,-0.32868027,0.494099,0.57472718,-0.30470012,0.477383,0.56585129,-0.38253995,0.467367,0.53204693,-0.31072116,0.428628,0.51484876,-0.30412422,0.420772,0.51582394,-0.32276467,0.427228,0.5417529,-0.37490096,0.470461,0.5071354,-0.29771858,0.427011,0.48777228,-0.28935243,0.416939,0.49246184,-0.31118972,0.426514,0.5264078,-0.37072043,0.477349,0.49956211,-0.30298509,0.438827,0.49838602,-0.27864649,0.430934,0.52029357,-0.27025636,0.443336,0.51632762,-0.36953327,0.492914,0.50048789,-0.34809092,0.460379,0.48730556,-0.32012092,0.445431,0.47545681,-0.29662454,0.432242
0.62059778,-0.41426042,0.550212,0.58313055,-0.3940331,0.510548,0.63067107,-0.41337382,0.538649,0.61013579,-0.3665854,0.512557,0.5930886,-0.32697145,0.493842,0.57463352,-0.30268477,0.477845,0.56413982,-0.38051401,0.468555,0.530579,-0.30882422,0.429951,0.51360904,-0.30311547,0.421483,0.51421493,-0.32163117,0.426505,0.54098244,-0.37355953,0.472772,0.50411801,-0.29504564,0.430048,0.48820415,-0.29034728,0.419233,0.49030865,-0.30972953,0.426247,0.52671345,-0.37010085,0.48052,0.5003932,-0.30273205,0.442303,0.49853991,-0.27802227,0.433809,0.52211709,-0.27051168,0.445847,0.51959152,-0.37084392,0.496969,0.50049873,-0.3474118,0.46481,0.48786052,-0.31980904,0.450035,0.47845046,-0.29797425,0.436934
0.6243516,-0.41662793,0.55304,0.58583217,-0.39669445,0.513835,0.63242852,-0.41500302,0.539973,0.6090403,-0.36764896,0.511821,0.589901,-0.32662113,0.491689,0.57019506,-0.30196516,0.474786,0.55824896,-0.38403437,0.470196,0.52640424,-0.31229191,0.430632,0.51311261,-0.30406794,0.422624,0.51390296,-0.32344194,0.428975,0.54035548,-0.37574213,0.476498,0.50704565,-0.29943301,0.433755,0.48982853,-0.29524748,0.423589,0.49160635,-0.31197021,0.428271,0.52848033,-0.37294885,0.485912,0.50443373,-0.30643093,0.447062,0.5052829,-0.28285374,0.439044,0.52746074,-0.2735403,0.451528,0.52348633,-0.37374164,0.504209,0.50218278,-0.35050202,0.471586,0.49034384,-0.32301289,0.456597,0.48302224,-0.30168769,0.442834
0.62640134,-0.41789534,0.554514,0.5867533,-0.39789227,0.515345,0.63265492,-0.41713572,0.541056,0.60957756,-0.36707226,0.512228,0.5894289,-0.32577932,0.491261,0.56960942,-0.30066732,0.474652,0.55901407,-0.38465139,0.47122,0.52674225,-0.31257585,0.431252,0.51369629,-0.30522862,0.423607,0.5139926,-0.3241704,0.429567,0.54096346,-0.37734931,0.47804,0.50790072,-0.30088523,0.435109,0.49145704,-0.29702429,0.425419,0.47963997,-0.3053142,0.418499,0.52960764,-0.3747447,0.487878,0.50543582,-0.30770597,0.448708,0.50428221,-0.28551948,0.441056,0.52791726,-0.27877764,0.453816,0.52525334,-0.37575391,0.50666,0.50340153,-0.35232519,0.473762,0.4916142,-0.32472691,0.458646,0.48253566,-0.30222971,0.445237
0.62865132,-0.41927614,0.556958,0.58679452,-0.39882972,0.517626,0.63494216,-0.41873039,0.543457,0.61163202,-0.36830358,0.514365,0.591373,-0.327124,0.493355,0.5713513,-0.30159734,0.477045,0.56094256,-0.38639436,0.473335,0.52856625,-0.31423019,0.433086,0.51657457,-0.30668307,0.425771,0.51784382,-0.32543122,0.432516,0.54116077,-0.3801305,0.480166,0.5086397,-0.30357322,0.436922,0.49318883,-0.2986136,0.427653,0.47886349,-0.30840601,0.421032,0.53127201,-0.37662629,0.490031,0.50595254,-0.3089748,0.450582,0.50653573,-0.28757101,0.443261,0.52990641,-0.28343281,0.456265,0.52678427,-0.37735701,0.508874,0.50561748,-0.35366732,0.475709,0.49357565,-0.32594762,0.460471,0.48265866,-0.30264197,0.447026
0.62985962,-0.41998594,0.55839,0.58745804,-0.39961382,0.518885,0.63716084,-0.41897711,0.545009,0.61221394,-0.36981794,0.515941,0.59083004,-0.32903601,0.495615,0.57206441,-0.30339972,0.480312,0.56219219,-0.38746214,0.474633,0.5298139,-0.31525687,0.434278,0.51775921,-0.30741119,0.427129,0.51950164,-0.32621809,0.434412,0.5422194,-0.38104865,0.481261,0.50950186,-0.30430246,0.437792,0.49392018,-0.29938191,0.428728,0.47965611,-0.30920657,0.422253,0.53189497,-0.37748969,0.490977,0.50659424,-0.30977316,0.451391,0.50751442,-0.28851307,0.444234,0.53090257,-0.2846733,0.457359,0.52716185,-0.37793217,0.509681,0.50641129,-0.35409766,0.476373,0.49422088,-0.3263289,0.46107,0.48317565,-0.30298708,0.447567
0.63165428,-0.42065182,0.560187,0.58841786,-0.40099896,0.520475,0.63911117,-0.42074209,0.547259,0.61019958,-0.37460283,0.518789,0.58831406,-0.33347862,0.498343,0.57103298,-0.31056489,0.486694,0.56377133,-0.38962001,0.476673,0.53200667,-0.31791571,0.436552,0.51956908,-0.30948618,0.429261,0.52243205,-0.32823855,0.437546,0.54310551,-0.38248449,0.482654,0.51076623,-0.30573411,0.439117,0.49412411,-0.30109914,0.429852,0.48018383,-0.31020942,0.423233,0.53117938,-0.3788343,0.49186,0.50680475,-0.31151826,0.452407,0.50825338,-0.29015918,0.445102,0.53177758,-0.28609878,0.458114,0.52690959,-0.37821306,0.510009,0.50656923,-0.3544055,0.476791,0.49449584,-0.32671376,0.461529,0.48354915,-0.30343636,0.448062
0.6365256,-0.42388643,0.56496,0.59079736,-0.40530207,0.526042,0.64251009,-0.42395057,0.551073,0.61082409,-0.37869822,0.521712,0.58677114,-0.3365579,0.499698,0.56968486,-0.31160927,0.487382,0.55660348,-0.39349195,0.48153,0.52872501,-0.32295705,0.441396,0.52102615,-0.31367159,0.433859,0.52530293,-0.33053326,0.444369,0.53854958,-0.38599931,0.488977,0.51718562,-0.31095272,0.446181,0.49964884,-0.30590557,0.43665,0.48592349,-0.31542544,0.429842,0.53289841,-0.38366247,0.499305,0.51322699,-0.31707306,0.460065,0.51526316,-0.29563254,0.452528,0.53941505,-0.29108525,0.465361,0.52991641,-0.38298167,0.518607,0.50541146,-0.3573854,0.485676,0.49902593,-0.33192524,0.470546,0.49135344,-0.30940085,0.457195
0.63903105,-0.42607317,0.567558,0.59171997,-0.40756936,0.529967,0.64303976,-0.42555567,0.552347,0.60959389,-0.37842502,0.521744,0.58305703,-0.33500021,0.498189,0.56341872,-0.31121827,0.485414,0.5581265,-0.3944624,0.484633,0.53023416,-0.32382043,0.444596,0.51840955,-0.31562138,0.436937,0.52148474,-0.33273368,0.444345,0.54227376,-0.38868933,0.494168,0.51637188,-0.31471739,0.452564,0.50400723,-0.31078041,0.442945,0.49036436,-0.31960159,0.436075,0.53443497,-0.38608654,0.50607,0.51313355,-0.3202591,0.467254,0.51366203,-0.29738362,0.459612,0.54552404,-0.29443691,0.472233,0.53436406,-0.38679978,0.526951,0.51220715,-0.36231821,0.494514,0.50227976,-0.33553269,0.479611,0.49315044,-0.31296247,0.466461
