sluyters/QuantumLeap/backend/src/datasets/dynamic/HandGestureDataset_SHREC2017_csv/Gesture10/finger_1/subject_18_essai_1_skeletons_world.csv
Wrist_x,Wrist_y,Wrist_z,Palm_x,Palm_y,Palm_z,thumb_base_x,thumb_base_y,thumb_base_z,thumb_first_joint_x,thumb_first_joint_y,thumb_first_joint_z,thumb_second_joint_x,thumb_second_joint_y,thumb_second_joint_z,thumb_tip_x,thumb_tip_y,thumb_tip_z,index_base_x,index_base_y,index_base_z,index_first_joint_x,index_first_joint_y,index_first_joint_z,index_second_joint_x,index_second_joint_y,index_second_joint_z,index_tip_x,index_tip_y,index_tip_z,middle_base_x,middle_base_y,middle_base_z,middle_first_joint_x,middle_first_joint_y,middle_first_joint_z,middle_second_joint_x,middle_second_joint_y,middle_second_joint_z,middle_tip_x,middle_tip_y,middle_tip_z,ring_base_x,ring_base_y,ring_base_z,ring_first_joint_x,ring_first_joint_y,ring_first_joint_z,ring_second_joint_x,ring_second_joint_y,ring_second_joint_z,ring_tip_x,ring_tip_y,ring_tip_z,pinky_base_x,pinky_base_y,pinky_base_z,pinky_first_joint_x,pinky_first_joint_y,pinky_first_joint_z,pinky_second_joint_x,pinky_second_joint_y,pinky_second_joint_z,pinky_tip_x,pinky_tip_y,pinky_tip_z,
0.6186356,-0.43724736,0.667147,0.61788361,-0.39750238,0.668646,0.60075712,-0.42879542,0.666353,0.59417512,-0.40045017,0.668183,0.59185074,-0.37687308,0.669408,0.59732387,-0.36094362,0.669643,0.59460655,-0.36836456,0.668233,0.58692845,-0.3359791,0.662812,0.59266067,-0.3246962,0.667512,0.59537105,-0.31254682,0.67525,0.61636346,-0.37186734,0.669613,0.62154144,-0.35254133,0.66438,0.62442038,-0.34852568,0.661327,0.62488245,-0.35657664,0.659147,0.63464237,-0.37709594,0.670623,0.63994575,-0.37267556,0.665219,0.65572042,-0.40145861,0.682836,0.66298392,-0.42021104,0.694756,0.65639494,-0.39069935,0.671579,0.64890691,-0.38057195,0.665645,0.64542768,-0.37576736,0.662918,0.642419,-0.37149039,0.660597
0.61831478,-0.43726019,0.667047,0.6183973,-0.39792933,0.669053,0.60115608,-0.43001099,0.666135,0.60430817,-0.40707746,0.671141,0.59984779,-0.38306458,0.670868,0.60413137,-0.36432933,0.671002,0.59597648,-0.36983755,0.668692,0.59109903,-0.34265569,0.6635,0.59601282,-0.33227724,0.670886,0.60079227,-0.31906105,0.6776,0.61845371,-0.37260543,0.670346,0.62316096,-0.35261162,0.66551,0.62593255,-0.34727962,0.662689,0.62640963,-0.35582932,0.660674,0.63698645,-0.37849716,0.671539,0.64196285,-0.37323763,0.666404,0.66068118,-0.40173867,0.684008,0.66498942,-0.42059898,0.69526,0.65848847,-0.39120802,0.672633,0.65098742,-0.38174581,0.666961,0.6469001,-0.37831958,0.664356,0.64376642,-0.37480814,0.662315
0.614762,-0.43311534,0.663055,0.6231067,-0.38363412,0.667875,0.59426042,-0.41525279,0.660739,0.60787187,-0.38498938,0.65924,0.60647684,-0.35867259,0.652534,0.60705396,-0.3424183,0.653787,0.59667958,-0.35649283,0.666849,0.59268713,-0.32206631,0.66249,0.5983375,-0.30980534,0.670681,0.60341626,-0.29810122,0.678127,0.62114894,-0.36121876,0.670983,0.63638325,-0.34433261,0.668303,0.64369459,-0.34301327,0.66674,0.64522444,-0.35484081,0.665872,0.64376756,-0.36621136,0.67398,0.65454659,-0.36094879,0.670153,0.66991993,-0.38879667,0.687413,0.66885377,-0.41021773,0.695853,0.66683811,-0.37921171,0.676761,0.66512695,-0.37135426,0.672351,0.66472909,-0.36992855,0.670487,0.66432395,-0.36728534,0.668842
0.61492617,-0.43163092,0.663064,0.62263144,-0.38289958,0.666541,0.59790058,-0.41091673,0.659932,0.60766913,-0.38430647,0.657975,0.60394403,-0.35740974,0.650948,0.60314066,-0.34130009,0.652133,0.5979377,-0.3542218,0.663921,0.59036742,-0.3202838,0.658214,0.59667823,-0.30835244,0.666657,0.60236844,-0.29691412,0.674332,0.62262922,-0.3586292,0.668782,0.63406857,-0.34257108,0.664882,0.6410208,-0.33908083,0.662607,0.64275254,-0.34877486,0.660982,0.64303425,-0.36540596,0.672492,0.65269173,-0.35942541,0.667297,0.66797272,-0.38712586,0.684399,0.67375568,-0.40949456,0.693329,0.66706935,-0.37896423,0.676304,0.66422701,-0.37101225,0.670801,0.66353165,-0.36873177,0.668272,0.66263495,-0.36577723,0.666041
0.61433494,-0.42970074,0.662342,0.62233823,-0.38261608,0.666038,0.5986218,-0.41038061,0.659052,0.60626526,-0.38349472,0.656722,0.60128738,-0.35644327,0.649624,0.60014284,-0.34020531,0.650513,0.59753233,-0.35388778,0.663305,0.59033518,-0.320095,0.65764,0.59698891,-0.30829597,0.666265,0.60299739,-0.29696229,0.674107,0.62239697,-0.35842674,0.668421,0.63423917,-0.34247594,0.664691,0.64155326,-0.33791941,0.662515,0.6457413,-0.34366289,0.660961,0.64294069,-0.36530254,0.672322,0.6530581,-0.35785252,0.66721,0.66850074,-0.38539554,0.684252,0.67427026,-0.40771428,0.693124,0.66712573,-0.37896075,0.676324,0.66463044,-0.37132715,0.670912,0.66406362,-0.36882609,0.668425,0.66331823,-0.36590523,0.666243
0.6164903,-0.42951351,0.664651,0.62321985,-0.38266056,0.666966,0.60084935,-0.41151688,0.66086,0.60853432,-0.38619659,0.659785,0.59970209,-0.36237478,0.647694,0.60181178,-0.3431072,0.648339,0.59766167,-0.35318972,0.663028,0.597717,-0.31654984,0.657309,0.60638074,-0.303558,0.664525,0.6143208,-0.29124689,0.671085,0.62276319,-0.35760467,0.668458,0.63378749,-0.34175342,0.663518,0.64167011,-0.33502398,0.660637,0.64463166,-0.34265007,0.658579,0.64357157,-0.36449424,0.672734,0.652959,-0.35692846,0.666418,0.6680995,-0.38438807,0.683368,0.67414003,-0.40691243,0.69269,0.66817188,-0.37836815,0.67738,0.66526068,-0.37217106,0.670956,0.66400581,-0.36926144,0.668005,0.66303384,-0.36670751,0.66549
0.62303984,-0.43309949,0.67015,0.62303287,-0.38259399,0.666652,0.60280729,-0.41666127,0.662264,0.60596683,-0.38493184,0.656475,0.60284769,-0.36044591,0.648566,0.59958445,-0.34173664,0.646692,0.59273465,-0.34779452,0.655089,0.59054452,-0.31848652,0.642339,0.59897333,-0.30841713,0.646731,0.60683595,-0.29870287,0.650723,0.61970032,-0.35503004,0.664396,0.63402457,-0.34434395,0.654406,0.64256456,-0.33814706,0.648579,0.65657571,-0.35575749,0.657705,0.64322993,-0.36415617,0.672354,0.65195419,-0.36261409,0.660278,0.66225115,-0.38924937,0.675589,0.66640607,-0.40980914,0.686582,0.67240439,-0.38096705,0.682162,0.66734146,-0.37512825,0.671131,0.66780946,-0.37655092,0.666063,0.66792952,-0.37584706,0.662236
0.62132481,-0.43171674,0.667881,0.60574294,-0.38429831,0.651868,0.59769811,-0.41848923,0.660429,0.60312822,-0.39438686,0.651135,0.6075051,-0.37011842,0.648313,0.60738156,-0.35018543,0.650614,0.57558151,-0.34423206,0.635788,0.57072728,-0.31681536,0.616462,0.57751418,-0.30777528,0.616497,0.5839584,-0.29918946,0.616529,0.59962228,-0.35155807,0.641542,0.6013393,-0.3379108,0.621873,0.60280149,-0.32988456,0.6104,0.61339728,-0.34648638,0.616821,0.62024811,-0.36179998,0.647627,0.62380705,-0.35916881,0.630129,0.63703874,-0.3853304,0.645048,0.64849453,-0.40927507,0.658073,0.64599697,-0.38135162,0.657113,0.63336688,-0.37293266,0.638858,0.62763184,-0.36909235,0.630471,0.62676805,-0.37852276,0.634749
0.62997818,-0.43741339,0.675766,0.61292454,-0.39237389,0.648898,0.60081438,-0.43004652,0.665726,0.60719682,-0.41355939,0.650046,0.58125669,-0.38626799,0.632476,0.58168476,-0.37009778,0.624705,0.57313489,-0.35311772,0.625086,0.55808475,-0.32481968,0.598311,0.56300318,-0.31762495,0.598107,0.56770246,-0.31077083,0.597923,0.59924992,-0.35650265,0.631571,0.58913421,-0.34688417,0.603393,0.58341936,-0.34134357,0.586955,0.58735431,-0.35712571,0.588702,0.62267262,-0.36393577,0.639174,0.60743824,-0.36714763,0.611154,0.61678963,-0.39169717,0.622319,0.63077365,-0.41849829,0.638094,0.65348097,-0.3809398,0.652047,0.63556437,-0.37782983,0.627466,0.62599723,-0.37758889,0.616172,0.62765784,-0.38448952,0.616777
0.61835243,-0.44860422,0.659124,0.60329567,-0.40619,0.638704,0.5951627,-0.44611828,0.650367,0.59466517,-0.42549093,0.63663,0.57231465,-0.40077118,0.622746,0.57466866,-0.3862289,0.61717,0.56769865,-0.36950036,0.619157,0.55672011,-0.34398564,0.596848,0.56378917,-0.3386056,0.598942,0.57047677,-0.33337724,0.600845,0.59352281,-0.37289037,0.625535,0.58787275,-0.36630842,0.602101,0.58488646,-0.36260681,0.588431,0.5916315,-0.38049997,0.592989,0.61617677,-0.38000928,0.632506,0.60739455,-0.38170798,0.608881,0.62065138,-0.40778859,0.622336,0.63536768,-0.43434888,0.63725,0.64509658,-0.39605094,0.643681,0.63073483,-0.39518441,0.622698,0.62283358,-0.39599959,0.613058,0.62676028,-0.40471561,0.615895
0.63135415,-0.47355072,0.672983,0.61182224,-0.42206211,0.647731,0.60712421,-0.46022632,0.663438,0.60610862,-0.44410923,0.648881,0.58067404,-0.41699707,0.631842,0.58139983,-0.40117104,0.624399,0.57325041,-0.38307638,0.625212,0.55928895,-0.35559901,0.599602,0.56485379,-0.34953301,0.600073,0.57015016,-0.34372417,0.600501,0.59913226,-0.38640558,0.631447,0.59010961,-0.37782408,0.604392,0.58506339,-0.372922,0.588609,0.58980968,-0.38968313,0.591163,0.62221865,-0.39376796,0.638708,0.61192839,-0.3902165,0.61189,0.62493519,-0.4150673,0.623797,0.63953982,-0.43887161,0.639382,0.65237154,-0.41062949,0.65094,0.63536787,-0.40827435,0.627272,0.62622684,-0.40837187,0.616398,0.62855743,-0.41629383,0.617661
0.63085975,-0.48868172,0.672456,0.6116201,-0.44217855,0.647517,0.60663096,-0.4855416,0.662899,0.60605911,-0.46493196,0.648828,0.58102326,-0.4380045,0.632222,0.58166986,-0.42220337,0.624689,0.57315598,-0.40293501,0.625109,0.55940555,-0.3757296,0.599727,0.5647879,-0.3700658,0.600003,0.56991564,-0.36464973,0.600254,0.59911993,-0.40637915,0.631434,0.59031562,-0.39820675,0.604603,0.58540433,-0.3935622,0.588952,0.59026763,-0.4107114,0.591622,0.6222508,-0.41385435,0.638741,0.61216741,-0.41062651,0.612129,0.62526078,-0.43623386,0.624122,0.64187911,-0.46390999,0.639659,0.65241363,-0.43088155,0.650982,0.6355664,-0.42878249,0.627468,0.62649708,-0.42898655,0.616664,0.62891869,-0.43738051,0.618016
0.6285078,-0.50660827,0.670487,0.61111794,-0.45471648,0.645868,0.60453616,-0.49153384,0.661132,0.60626199,-0.46851323,0.65009,0.60703022,-0.44779023,0.642148,0.61339743,-0.43198499,0.63812,0.57428192,-0.41042555,0.623851,0.5613737,-0.39041811,0.598352,0.57261614,-0.39245522,0.604181,0.5832181,-0.39419033,0.60948,0.59999632,-0.41690998,0.629992,0.58897744,-0.41523492,0.603402,0.58272171,-0.41444924,0.587891,0.58847913,-0.43157113,0.590752,0.62278679,-0.42714168,0.637122,0.60846153,-0.42443028,0.610698,0.62227742,-0.44743388,0.62287,0.64003292,-0.46782524,0.638402,0.6523899,-0.44792308,0.649108,0.63588128,-0.44239171,0.625803,0.62774088,-0.44403752,0.615096,0.63179545,-0.45358355,0.616606
0.61467004,-0.5118883,0.655384,0.60947719,-0.46309087,0.6355,0.59346102,-0.49525991,0.648164,0.60447974,-0.47975334,0.640719,0.60086726,-0.45364766,0.633508,0.59810179,-0.43434085,0.630072,0.58066547,-0.41893419,0.618149,0.56874002,-0.4033043,0.596262,0.58616547,-0.41182561,0.609513,0.60243282,-0.4195334,0.62156,0.60518171,-0.42798283,0.622678,0.59527896,-0.40633155,0.599731,0.58215536,-0.41432836,0.586345,0.58662564,-0.4325327,0.591498,0.62616584,-0.44004166,0.628081,0.61426759,-0.43537284,0.60546,0.63323004,-0.46005811,0.619592,0.65264904,-0.48571743,0.634372,0.65209991,-0.46246503,0.637346,0.63540861,-0.44913825,0.61707,0.62884685,-0.44896232,0.607754,0.63075171,-0.454364,0.611159
0.62016245,-0.52354173,0.657597,0.61580496,-0.47022167,0.635858,0.59799674,-0.50449771,0.648773,0.60894712,-0.48874331,0.639911,0.60197539,-0.46300585,0.628902,0.59814996,-0.44366707,0.623927,0.58482959,-0.42550326,0.615692,0.57014902,-0.41447826,0.59186,0.58641984,-0.42611851,0.604169,0.60159916,-0.43696587,0.615359,0.61102695,-0.43533403,0.621839,0.59893195,-0.41932785,0.597388,0.58485487,-0.42926698,0.583125,0.58434895,-0.44475252,0.587205,0.63350388,-0.44803997,0.628731,0.61823457,-0.42129382,0.604267,0.61972583,-0.43179307,0.601249,0.63453076,-0.45757986,0.613485,0.66127257,-0.47118698,0.640011,0.64224257,-0.46246308,0.618317,0.63431844,-0.4637648,0.60835,0.63932031,-0.47527353,0.610825
0.62409665,-0.53035718,0.66086,0.61734452,-0.48166221,0.637668,0.60319596,-0.51449569,0.651512,0.6091716,-0.49944335,0.640118,0.60466938,-0.47453986,0.627347,0.60529101,-0.4574131,0.624198,0.58501808,-0.43586781,0.616238,0.56961179,-0.42431011,0.591339,0.58550324,-0.43610451,0.603101,0.60034286,-0.44711564,0.613793,0.61154028,-0.44585066,0.622713,0.5986424,-0.42931139,0.597164,0.58414703,-0.43875548,0.582261,0.58300443,-0.45366018,0.585655,0.63442971,-0.458799,0.629997,0.61823554,-0.43143859,0.604433,0.60955308,-0.43477851,0.591353,0.61346287,-0.45451535,0.594597,0.6629434,-0.48244818,0.64195,0.64329203,-0.47331339,0.619374,0.63510241,-0.4743932,0.609001,0.63966354,-0.48570609,0.610917
0.62339174,-0.53378881,0.655858,0.61787174,-0.48185795,0.635475,0.60088076,-0.51449499,0.646711,0.60945831,-0.49699867,0.636657,0.61756046,-0.47394794,0.629836,0.62483008,-0.45852552,0.628664,0.58633562,-0.43591311,0.615442,0.57566129,-0.43206909,0.59216,0.59302675,-0.44782762,0.604601,0.6092725,-0.46273528,0.615911,0.61316613,-0.44649338,0.62233,0.60652381,-0.42690703,0.598877,0.59666898,-0.43058845,0.585197,0.59228267,-0.44798517,0.58963,0.63619544,-0.45988144,0.629717,0.62753099,-0.43981081,0.605957,0.62045165,-0.44201975,0.593801,0.6236148,-0.45806604,0.598091,0.6646825,-0.4839861,0.641374,0.64897113,-0.48163653,0.620316,0.64029147,-0.48392228,0.61064,0.64328727,-0.49174792,0.613361
0.62324068,-0.54121433,0.653218,0.61935616,-0.49299213,0.634258,0.60081901,-0.52162573,0.644333,0.6109601,-0.50603832,0.634445,0.61506702,-0.48262837,0.627293,0.62165487,-0.46709455,0.626724,0.58811257,-0.44617696,0.615138,0.57626401,-0.44255918,0.59278,0.59399682,-0.45910503,0.60559,0.61058223,-0.47476146,0.617235,0.61486676,-0.45715733,0.62203,0.60731985,-0.43763148,0.599663,0.5981158,-0.44190314,0.586616,0.59436048,-0.45977633,0.591598,0.63782099,-0.47093288,0.629302,0.6281306,-0.45046984,0.606536,0.62158848,-0.45315089,0.594889,0.63023223,-0.47160737,0.599751,0.66623167,-0.49563095,0.640611,0.64903599,-0.49208303,0.620378,0.64075494,-0.49472083,0.611082,0.64527616,-0.50724901,0.614238
0.62192047,-0.54767633,0.649334,0.61795427,-0.50204937,0.632832,0.59959009,-0.53290358,0.64068,0.60886543,-0.51478142,0.632285,0.61009277,-0.4903271,0.626427,0.61187752,-0.47217511,0.623804,0.58796698,-0.45594899,0.615008,0.57758073,-0.45362992,0.594148,0.59579273,-0.47106533,0.607431,0.61282219,-0.48756744,0.619506,0.615008,-0.46723621,0.622191,0.61075925,-0.44763054,0.601718,0.59952483,-0.45520173,0.589776,0.60004767,-0.47475003,0.595583,0.6380022,-0.48114122,0.629494,0.63001188,-0.46211418,0.608385,0.62437228,-0.46556876,0.597585,0.63391061,-0.48506038,0.60328,0.66608486,-0.50575931,0.640475,0.65035435,-0.50348661,0.621643,0.64275791,-0.50673559,0.612991,0.64796804,-0.52007187,0.616791
0.61612856,-0.54909019,0.643809,0.6101435,-0.49818939,0.624285,0.59067421,-0.52766903,0.631055,0.59930571,-0.51752055,0.618952,0.58116622,-0.48925316,0.59973,0.57995343,-0.47295316,0.593725,0.57754859,-0.45899504,0.599961,0.56830708,-0.45275572,0.575399,0.58642452,-0.4680309,0.585637,0.6037685,-0.48506703,0.594944,0.60770619,-0.4693327,0.611695,0.59918204,-0.42885637,0.589037,0.59639271,-0.43530579,0.57582,0.59572717,-0.4519167,0.578781,0.63317162,-0.48202468,0.623,0.6240438,-0.43953974,0.599163,0.61935694,-0.44373054,0.586967,0.61929148,-0.46157947,0.589438,0.6642514,-0.50450126,0.639101,0.65069344,-0.507484,0.617939,0.63867645,-0.51069732,0.608215,0.63846658,-0.52205509,0.609561
0.61947047,-0.54884212,0.647875,0.60628977,-0.49621623,0.620771,0.59166592,-0.53007957,0.632157,0.59693331,-0.5157703,0.615674,0.57481802,-0.48659684,0.593029,0.56938107,-0.46767448,0.582537,0.56790337,-0.45387573,0.58956,0.55615757,-0.4432876,0.560074,0.57451936,-0.46467454,0.565136,0.58970453,-0.48794852,0.578794,0.5986436,-0.4636279,0.603292,0.58588647,-0.41944999,0.575744,0.58087084,-0.42409966,0.559674,0.57568443,-0.43615956,0.557421,0.62521872,-0.4761438,0.616881,0.62140307,-0.43247227,0.600055,0.62543812,-0.43665072,0.591446,0.62803993,-0.45564569,0.59478,0.65525064,-0.49515798,0.636775,0.64074643,-0.50133712,0.61183,0.62845335,-0.50361969,0.600368,0.62432461,-0.51191044,0.597537
0.61626311,-0.55037896,0.643979,0.60204548,-0.4945655,0.614938,0.58923967,-0.52900082,0.628825,0.59750275,-0.51716409,0.614075,0.59073053,-0.49120449,0.590237,0.59390253,-0.47593578,0.578509,0.56279295,-0.44858178,0.583666,0.54820716,-0.44616962,0.553333,0.56069597,-0.4634926,0.558595,0.57841626,-0.49114499,0.572667,0.59277836,-0.45846871,0.596211,0.58628933,-0.41893413,0.567108,0.57287936,-0.42508396,0.550132,0.56526095,-0.43097831,0.54765,0.6189488,-0.47131118,0.608984,0.62464647,-0.43297529,0.595379,0.62468212,-0.43509071,0.588418,0.62799596,-0.45473201,0.59304,0.65717125,-0.50018004,0.628215,0.6309486,-0.49853676,0.60225,0.61890029,-0.497803,0.590319,0.60951805,-0.50426267,0.587355
0.61494528,-0.54940468,0.640821,0.60212355,-0.4936776,0.612129,0.58827295,-0.53054431,0.625645,0.59313623,-0.51183388,0.60614,0.59288149,-0.48960602,0.582031,0.59880188,-0.48126796,0.570379,0.56190076,-0.44467186,0.580972,0.54626731,-0.44408954,0.550799,0.5578994,-0.46147012,0.556168,0.57533143,-0.48844784,0.57022,0.59447882,-0.45671509,0.593627,0.58585956,-0.41699854,0.564767,0.57166589,-0.42090014,0.547932,0.56392076,-0.43052433,0.545594,0.62193413,-0.47157638,0.606462,0.62376308,-0.43068907,0.593555,0.62696216,-0.43294279,0.586951,0.62830695,-0.45252364,0.59157,0.65691051,-0.49803799,0.625713,0.63778541,-0.493865,0.599908,0.62790644,-0.49208798,0.588052,0.61692838,-0.49604955,0.585195
0.61428703,-0.5489614,0.638862,0.60206011,-0.49301791,0.610749,0.5875912,-0.52981495,0.623617,0.59327141,-0.51143272,0.605127,0.5922591,-0.48909204,0.58142,0.59675974,-0.47885267,0.568389,0.56151367,-0.44369736,0.579738,0.54549493,-0.44329436,0.549828,0.55691822,-0.46075531,0.55531,0.57419892,-0.48745998,0.569303,0.59411655,-0.45582874,0.59262,0.58626425,-0.4180754,0.564179,0.57180621,-0.42596673,0.547589,0.56424904,-0.43553877,0.545443,0.6217277,-0.47079028,0.605594,0.62387301,-0.43020821,0.593333,0.62753766,-0.43244255,0.587061,0.62942638,-0.45211014,0.59174,0.65686669,-0.49735746,0.624921,0.63723895,-0.49344186,0.599394,0.62677266,-0.49206638,0.587665,0.61540802,-0.49788931,0.584949
0.6167554,-0.55146667,0.640567,0.60275117,-0.49372974,0.611722,0.58978823,-0.53192545,0.625116,0.59248913,-0.51089713,0.60396,0.59042365,-0.48812936,0.579919,0.59570634,-0.47831213,0.567689,0.56225102,-0.44421106,0.580149,0.5454255,-0.44355708,0.549863,0.55587414,-0.46069316,0.554726,0.57266559,-0.48737529,0.568619,0.59362127,-0.45615715,0.59312,0.58792478,-0.42177011,0.56427,0.57325775,-0.42899121,0.547441,0.56373652,-0.43610344,0.544709,0.62119958,-0.47100175,0.606229,0.62378401,-0.43034184,0.593319,0.62713107,-0.43219586,0.586713,0.62884311,-0.45133828,0.59086,0.65795342,-0.49831112,0.625823,0.63906933,-0.49378754,0.600011,0.63013397,-0.49194492,0.588152,0.61800807,-0.49719918,0.584976
0.61473199,-0.54951862,0.637067,0.60421043,-0.49350339,0.609616,0.58767618,-0.52968324,0.621445,0.59477631,-0.5099011,0.602193,0.5971866,-0.48535026,0.578559,0.59520884,-0.47629599,0.565427,0.56207307,-0.44265297,0.578387,0.54897842,-0.43737175,0.548743,0.55544115,-0.45955764,0.553851,0.57189549,-0.48613771,0.567589,0.59394979,-0.45510232,0.591913,0.58838923,-0.42266961,0.564082,0.57474812,-0.43054017,0.547847,0.56667055,-0.44111118,0.545559,0.6219534,-0.47038956,0.605361,0.62410114,-0.43001971,0.593696,0.62878519,-0.43134901,0.587728,0.63175078,-0.45113395,0.592128,0.65761066,-0.49738124,0.625142,0.63939236,-0.49330081,0.600008,0.62974221,-0.49203833,0.588459,0.61986357,-0.49806072,0.585609
0.61542305,-0.55115992,0.634118,0.60324537,-0.49226528,0.607626,0.58821685,-0.52956171,0.618196,0.59588403,-0.50655972,0.597755,0.59278415,-0.48036814,0.573558,0.59832626,-0.47187697,0.562102,0.56139492,-0.44096027,0.5764,0.54796049,-0.43547153,0.547199,0.55461303,-0.45648858,0.552098,0.57067641,-0.48248643,0.565579,0.59379942,-0.45384994,0.590541,0.58813385,-0.42480185,0.563516,0.57761455,-0.43452481,0.547751,0.56930272,-0.44406482,0.5455,0.62230502,-0.46953485,0.604415,0.62099663,-0.42949354,0.582981,0.61609672,-0.43406023,0.572014,0.60710805,-0.44948441,0.572947,0.65867085,-0.49707956,0.62455,0.64189409,-0.49195227,0.599955,0.63146826,-0.49136112,0.588655,0.62091509,-0.49821089,0.585811
0.60872199,-0.54468837,0.626649,0.60283119,-0.48944136,0.605456,0.58222303,-0.52334666,0.61134,0.58851546,-0.49259335,0.591845,0.58742795,-0.4670535,0.568679,0.58952033,-0.4598657,0.553535,0.5642262,-0.43222232,0.577169,0.55407167,-0.42759142,0.550862,0.56089855,-0.44694495,0.557967,0.57893079,-0.46936352,0.571187,0.59596816,-0.44724735,0.591789,0.59307872,-0.41816843,0.568416,0.58853112,-0.42390865,0.554782,0.58584391,-0.43898118,0.555147,0.62378538,-0.46903255,0.605611,0.62210733,-0.4273264,0.583666,0.61464774,-0.42895065,0.572438,0.6104362,-0.44034366,0.572927,0.65808399,-0.49685461,0.624897,0.64578918,-0.49009431,0.6029,0.63648262,-0.48999577,0.592793,0.62756982,-0.49951646,0.591982
0.60791501,-0.54280804,0.622409,0.600912,-0.48095355,0.602137,0.58017313,-0.52043678,0.607015,0.58779822,-0.48934163,0.590077,0.58715679,-0.46023945,0.56685,0.58768674,-0.45224681,0.551674,0.56197412,-0.42866008,0.574116,0.55191941,-0.42359713,0.54831,0.55879776,-0.44252674,0.555416,0.57621781,-0.466517,0.568438,0.59418818,-0.44416189,0.589065,0.59322651,-0.41374461,0.566434,0.5900677,-0.41612379,0.553233,0.59043132,-0.43207821,0.553778,0.62203024,-0.46179788,0.60308,0.61225139,-0.42026228,0.579343,0.60781036,-0.42571074,0.567198,0.60520314,-0.43676331,0.567121,0.65629344,-0.49338168,0.622455,0.64334705,-0.48461348,0.600982,0.6345132,-0.48401269,0.591116,0.62884294,-0.49338816,0.590436
0.59936005,-0.53239512,0.613474,0.6056817,-0.47297535,0.604604,0.57908039,-0.50894079,0.601764,0.58975913,-0.4786047,0.591228,0.59750359,-0.45864817,0.577156,0.60258704,-0.45033212,0.565127,0.57455008,-0.42803305,0.585946,0.57243306,-0.42953034,0.568099,0.5894152,-0.45096369,0.579825,0.59777433,-0.4800736,0.591552,0.60563253,-0.4414301,0.598885,0.6145799,-0.42360551,0.584655,0.60672065,-0.43714806,0.576354,0.60361038,-0.45421078,0.582502,0.63156892,-0.4566439,0.610285,0.63639589,-0.45248349,0.59328,0.63268657,-0.46433942,0.58458,0.63891053,-0.48560668,0.590078,0.66231832,-0.48199417,0.624911,0.65507295,-0.48062289,0.610056,0.64920095,-0.48239923,0.603231,0.64742856,-0.49550579,0.607073
0.6016717,-0.5198938,0.609555,0.60473388,-0.46193159,0.602553,0.57863639,-0.49553602,0.598559,0.59007781,-0.47004189,0.590102,0.59177795,-0.45133829,0.569853,0.593445,-0.44244883,0.555291,0.57390515,-0.41888252,0.585568,0.57286586,-0.41995041,0.56917,0.59045294,-0.4412704,0.581455,0.59748288,-0.46610199,0.592833,0.60521008,-0.43136312,0.598037,0.61526819,-0.41165786,0.585281,0.60879316,-0.42702312,0.577839,0.60823525,-0.44458455,0.584769,0.63128832,-0.44570171,0.608893,0.63613422,-0.4422301,0.593376,0.63267289,-0.45496959,0.585437,0.64013761,-0.47672211,0.591791,0.66209478,-0.46980835,0.622606,0.65842866,-0.47036262,0.608959,0.65499908,-0.4764413,0.602688,0.65740538,-0.49258942,0.607175
0.60662365,-0.50469371,0.611885,0.61034019,-0.44905334,0.605644,0.58523651,-0.47779929,0.603568,0.59510274,-0.45204449,0.597768,0.59300554,-0.42636117,0.594957,0.5899372,-0.40886003,0.594407,0.58375153,-0.40710452,0.592415,0.58253076,-0.40624059,0.577754,0.59924163,-0.42929682,0.591866,0.60986419,-0.45301198,0.603289,0.61215681,-0.4192525,0.601619,0.61940957,-0.41250584,0.589354,0.61186019,-0.42783705,0.582199,0.61232115,-0.44608539,0.590634,0.63562519,-0.43322187,0.609724,0.63968945,-0.4333126,0.595583,0.63337676,-0.44373978,0.588348,0.63954749,-0.46726206,0.596579,0.66307702,-0.45673318,0.620111,0.65790635,-0.45561004,0.607315,0.65320959,-0.46290284,0.601436,0.65739636,-0.48018823,0.607258
0.60732452,-0.49186513,0.612054,0.61044802,-0.43896565,0.605751,0.58512306,-0.47256294,0.603451,0.59361743,-0.44179296,0.596083,0.59004927,-0.415379,0.591399,0.58689415,-0.39745753,0.590179,0.58346872,-0.39700024,0.592128,0.58205486,-0.39569249,0.577282,0.59859871,-0.41812092,0.591231,0.60923035,-0.44145026,0.602662,0.61222498,-0.40928825,0.601686,0.61835747,-0.40815383,0.589371,0.60833326,-0.42348192,0.582187,0.60794394,-0.44017417,0.590488,0.63600256,-0.42336328,0.610086,0.63992145,-0.42300819,0.595799,0.63648106,-0.4355361,0.58849,0.64426022,-0.45873954,0.596548,0.66384477,-0.4469887,0.620829,0.65858342,-0.44550537,0.60794,0.65384169,-0.4526894,0.602018,0.65789434,-0.46978554,0.607718
0.60774964,-0.47759645,0.611465,0.61115318,-0.42285571,0.606813,0.58606973,-0.45980093,0.603452,0.59454518,-0.42828295,0.595934,0.58516761,-0.40219099,0.589781,0.57830558,-0.38397017,0.587153,0.58441762,-0.38375208,0.594619,0.58880878,-0.37256297,0.58109,0.60347535,-0.39940457,0.595354,0.6071808,-0.41455777,0.606391,0.61259141,-0.3937174,0.603813,0.62070697,-0.39487233,0.592862,0.61178608,-0.41211543,0.586474,0.61179382,-0.42768376,0.595339,0.63582352,-0.40576433,0.611775,0.64247763,-0.40751884,0.598847,0.63990514,-0.42062824,0.592232,0.64770069,-0.44380946,0.600909,0.66293633,-0.42675005,0.621759,0.66000354,-0.42802009,0.609993,0.65642017,-0.43501826,0.604586,0.66054292,-0.45210591,0.610757
0.60294093,-0.46493221,0.607644,0.61121984,-0.42253371,0.606495,0.58368819,-0.44731814,0.601093,0.5951667,-0.41846699,0.594626,0.5938639,-0.39240409,0.592806,0.59217393,-0.37595439,0.593237,0.59269927,-0.38269138,0.597603,0.60398618,-0.36849269,0.587024,0.61510633,-0.39125519,0.601936,0.61403858,-0.40973661,0.612067,0.61817293,-0.39700577,0.605754,0.63156137,-0.39221947,0.597748,0.62289013,-0.40748246,0.593077,0.62216679,-0.42525766,0.603132,0.63850551,-0.41218805,0.612563,0.64832037,-0.40949091,0.602642,0.64691413,-0.42261676,0.597567,0.65524016,-0.44683421,0.607571,0.66109172,-0.43609526,0.62068,0.66209599,-0.43011171,0.611388,0.65976319,-0.43628962,0.607118,0.66434765,-0.45395466,0.614297
0.59665825,-0.4567593,0.602058,0.60905049,-0.41059063,0.604176,0.57785731,-0.43532556,0.59625,0.59317529,-0.40674271,0.592854,0.5929578,-0.38148717,0.59212,0.59202407,-0.36561768,0.593302,0.59245908,-0.37269039,0.597564,0.60624268,-0.35969765,0.589448,0.61750881,-0.38215309,0.604524,0.615498,-0.39996592,0.61375,0.61773202,-0.3868147,0.605542,0.63401414,-0.38334256,0.60032,0.62703303,-0.39960023,0.597273,0.62705317,-0.41790715,0.608112,0.6367992,-0.40373882,0.611932,0.65193677,-0.39964127,0.604627,0.65146847,-0.41238058,0.600889,0.65977825,-0.43689109,0.611715,0.65959618,-0.42479991,0.619075,0.66306087,-0.42098968,0.612007,0.66184807,-0.42606024,0.60876,0.66650469,-0.44379271,0.616588
0.59044979,-0.43742995,0.599257,0.60631361,-0.40007733,0.608968,0.57384483,-0.41518961,0.599389,0.5903853,-0.39167853,0.603335,0.59607388,-0.37094571,0.610324,0.59824754,-0.3599998,0.615854,0.59518126,-0.37413743,0.613077,0.60544827,-0.35821438,0.61339,0.62702278,-0.35888309,0.6297,0.63139743,-0.36684828,0.636093,0.61757648,-0.38304208,0.615231,0.63178474,-0.37145363,0.617035,0.63314325,-0.38637878,0.618087,0.64142798,-0.41040381,0.631459,0.63482055,-0.39267602,0.616187,0.6499671,-0.38264223,0.617029,0.6537177,-0.39711055,0.61746,0.66973111,-0.42240352,0.631421,0.6528364,-0.40815325,0.615857,0.65794923,-0.39726244,0.615367,0.66062646,-0.40764165,0.615143,0.67322081,-0.42720438,0.625319
0.56965942,-0.41159771,0.58387,0.60253,-0.39503593,0.603917,0.56211664,-0.40408167,0.589688,0.57713919,-0.37894651,0.596643,0.58704457,-0.35969233,0.604489,0.59515398,-0.35409439,0.611682,0.61080478,-0.38070994,0.61953,0.61774221,-0.36644422,0.630562,0.63055655,-0.36393644,0.645815,0.62285687,-0.36901941,0.647555,0.62795378,-0.3852607,0.616844,0.63801131,-0.37153724,0.628756,0.63825523,-0.3825609,0.635704,0.64856825,-0.40764907,0.650538,0.63931845,-0.39020326,0.612945,0.65182732,-0.37781573,0.624518,0.65586192,-0.39136038,0.630438,0.67013033,-0.41282178,0.646289,0.64459288,-0.39971014,0.60541,0.65110648,-0.38561197,0.613961,0.65683872,-0.39972975,0.61789,0.67107953,-0.41918008,0.629583
0.57676163,-0.39718414,0.601228,0.61164653,-0.38295582,0.613005,0.57456106,-0.39194733,0.609552,0.57885186,-0.36706441,0.615813,0.58114519,-0.34283602,0.615248,0.58734753,-0.32723808,0.614335,0.62270672,-0.37152349,0.628489,0.62725079,-0.35366833,0.636262,0.64061344,-0.35004825,0.651545,0.63432659,-0.3550275,0.654583,0.63361678,-0.37427178,0.6206,0.63792624,-0.35368397,0.626211,0.63163416,-0.36383091,0.629485,0.63799273,-0.38579912,0.642767,0.63997227,-0.37774964,0.613113,0.64845885,-0.35991515,0.620386,0.64767897,-0.37277612,0.624107,0.6584199,-0.39195382,0.638824,0.64268145,-0.38405327,0.602621,0.63627917,-0.36304083,0.607184,0.62404261,-0.36338782,0.60928,0.62228069,-0.37410267,0.619971
0.64295136,-0.43709549,0.658451,0.62829177,-0.3859393,0.639472,0.64372337,-0.42964518,0.668904,0.63393223,-0.40711516,0.672933,0.63719686,-0.38817344,0.677322,0.63326794,-0.37017144,0.674521,0.62346057,-0.35614995,0.645222,0.59834095,-0.32207294,0.627784,0.58576803,-0.30499577,0.619065,0.57503806,-0.28980417,0.611892,0.61880255,-0.35331627,0.627234,0.56785181,-0.35456572,0.607517,0.57072139,-0.37395621,0.609169,0.58708708,-0.3794615,0.613911,0.61621567,-0.35523052,0.614022,0.56283872,-0.34724703,0.590527,0.56180992,-0.36416572,0.591653,0.57945706,-0.37648265,0.599664,0.61544048,-0.36502559,0.601426,0.57866919,-0.36195408,0.593459,0.56733272,-0.36808059,0.594726,0.56987431,-0.37518018,0.598021
0.66756374,-0.42754574,0.67126,0.63807276,-0.37862027,0.646869,0.66310044,-0.41937245,0.679533,0.64406427,-0.40191277,0.679502,0.63848961,-0.37976177,0.680294,0.63032797,-0.36011878,0.674225,0.62054513,-0.34861616,0.647619,0.59759813,-0.31221699,0.629391,0.58901243,-0.29548283,0.623329,0.58118574,-0.28016195,0.617819,0.61908954,-0.34729052,0.63114,0.56609074,-0.34482844,0.607452,0.56775411,-0.36370878,0.607481,0.57896834,-0.36649036,0.607502,0.62038043,-0.35028695,0.619626,0.56518425,-0.33824439,0.592895,0.56124743,-0.35509559,0.592694,0.58113519,-0.37020237,0.603407,0.62632081,-0.36104797,0.609819,0.60970285,-0.32472542,0.594382,0.59404302,-0.32037723,0.589275,0.58796575,-0.3305681,0.590793
0.66871987,-0.42471933,0.67175,0.63967783,-0.37650156,0.648231,0.66440743,-0.4169598,0.680391,0.6460111,-0.39615239,0.681087,0.63925927,-0.37402364,0.682246,0.63237392,-0.35798426,0.676515,0.62248666,-0.34721578,0.649808,0.59861396,-0.31039847,0.631217,0.58914493,-0.29098627,0.625576,0.58240406,-0.27851314,0.620448,0.6209791,-0.34557933,0.633065,0.56895977,-0.33601587,0.609947,0.56982041,-0.35588806,0.61046,0.58093318,-0.35985509,0.610826,0.62233889,-0.34532769,0.62126,0.56872932,-0.32920348,0.594978,0.56370294,-0.34611957,0.595176,0.58234785,-0.36244589,0.605868,0.62832506,-0.3553626,0.610983,0.60737602,-0.32126443,0.597218,0.59195136,-0.3155788,0.592247,0.58499414,-0.32472915,0.593041
0.67123385,-0.4233626,0.672018,0.64560905,-0.37352552,0.65142,0.66722772,-0.4165114,0.681314,0.65321239,-0.39658709,0.683467,0.64454884,-0.3762117,0.685696,0.63787239,-0.35994987,0.681705,0.6311388,-0.34475654,0.655025,0.60580049,-0.30821604,0.638378,0.59738413,-0.29211652,0.634533,0.59037867,-0.27886745,0.631037,0.6303655,-0.34050031,0.638138,0.58134625,-0.33847328,0.616362,0.58676762,-0.36088695,0.620773,0.60030065,-0.36637479,0.623923,0.63204759,-0.3410494,0.625969,0.59711329,-0.30881889,0.608032,0.59092046,-0.32474517,0.611872,0.60257704,-0.34439031,0.620649,0.63815389,-0.34888789,0.614831,0.61334358,-0.31834416,0.603431,0.59867431,-0.31099457,0.598897,0.59183521,-0.31895019,0.599719
0.67062206,-0.41906836,0.670197,0.64827311,-0.36198955,0.651423,0.66801599,-0.41051334,0.679897,0.65369215,-0.38696097,0.68373,0.64757564,-0.36749984,0.687008,0.64125658,-0.35014026,0.684309,0.63244464,-0.33587815,0.656286,0.6065718,-0.30034144,0.640495,0.598331,-0.28487189,0.637571,0.59078215,-0.27066076,0.634913,0.63156825,-0.33143886,0.639316,0.58352597,-0.32971439,0.618705,0.59020455,-0.35303602,0.624464,0.60474316,-0.35928289,0.628577,0.6330293,-0.33176538,0.626926,0.59908982,-0.29991768,0.609867,0.5937609,-0.31615318,0.614821,0.60527327,-0.33593932,0.623689,0.6386204,-0.33920452,0.615258,0.61361957,-0.30862201,0.603676,0.59900074,-0.29878489,0.598354,0.59028212,-0.30342599,0.598652
0.68265598,-0.42062726,0.67976,0.65238237,-0.36926283,0.655627,0.67612759,-0.4134294,0.687337,0.65747671,-0.39685769,0.687335,0.64572073,-0.37603961,0.687414,0.63882959,-0.35543937,0.682783,0.63061146,-0.34382876,0.655587,0.61288773,-0.3083038,0.647101,0.60378566,-0.2917863,0.642859,0.59548046,-0.27668694,0.639001,0.63157017,-0.34074822,0.640065,0.58024249,-0.32842406,0.615337,0.58357277,-0.35132713,0.620083,0.59236531,-0.36504524,0.623473,0.63510664,-0.34225615,0.629317,0.60305955,-0.30661567,0.609415,0.59363722,-0.31654179,0.613582,0.60380711,-0.34008887,0.623283,0.64413281,-0.35121486,0.620365,0.62075903,-0.3223109,0.609933,0.60978352,-0.31164556,0.60514,0.59475915,-0.30561629,0.600911
0.68560013,-0.42524502,0.684898,0.65573255,-0.37050586,0.659105,0.67613847,-0.41576311,0.689362,0.6585127,-0.39777014,0.685974,0.64174076,-0.37827088,0.68198,0.63258621,-0.35770374,0.67664,0.63180985,-0.33549249,0.654386,0.62419885,-0.30673273,0.6565,0.61970069,-0.29177294,0.657557,0.61555054,-0.27800166,0.658518,0.63874973,-0.33545068,0.642472,0.59228953,-0.33057575,0.619096,0.59541349,-0.35599488,0.62891,0.61348773,-0.37169393,0.640447,0.64578777,-0.33926794,0.634835,0.61359895,-0.30375057,0.616076,0.60843876,-0.31249305,0.622595,0.61486654,-0.33756219,0.633801,0.65807637,-0.3514681,0.629761,0.63891708,-0.32270008,0.62211,0.62929819,-0.31031132,0.618595,0.61878994,-0.30294812,0.615493
0.68911749,-0.42086855,0.683453,0.66706878,-0.37324233,0.662329,0.68152178,-0.41365734,0.688447,0.66750206,-0.42792788,0.684603,0.63654729,-0.41458592,0.677866,0.6237213,-0.40220956,0.677096,0.63897477,-0.34775312,0.660186,0.63013433,-0.31746414,0.6606,0.6255972,-0.3020578,0.660807,0.6214188,-0.2878867,0.660995,0.64500425,-0.34043977,0.648707,0.60271705,-0.34357138,0.628414,0.61399867,-0.37191514,0.641177,0.63052419,-0.38418235,0.652523,0.65261787,-0.34210165,0.641035,0.62478354,-0.29823279,0.619896,0.6163536,-0.30190502,0.622881,0.62387576,-0.32263222,0.635508,0.66802577,-0.34828921,0.635224,0.64313015,-0.31837792,0.624409,0.6317322,-0.30470667,0.61944,0.61879285,-0.3001818,0.615055
0.6937812,-0.41666415,0.682213,0.66689756,-0.36312005,0.662159,0.68307671,-0.40986908,0.687032,0.66589132,-0.41667035,0.682951,0.63611627,-0.40419598,0.677407,0.62461944,-0.3926838,0.678071,0.63882386,-0.33848202,0.660224,0.62881231,-0.30790849,0.660279,0.62370954,-0.29238603,0.660306,0.61902109,-0.27813032,0.66033,0.64557666,-0.33249216,0.649227,0.60302775,-0.3351735,0.629526,0.61588708,-0.36289763,0.643149,0.63246554,-0.3751628,0.654551,0.6539815,-0.33204093,0.641861,0.62606456,-0.2890449,0.621167,0.61410046,-0.29084264,0.620604,0.62054978,-0.31069546,0.63212,0.6691037,-0.3387201,0.636249,0.64400358,-0.30872594,0.625257,0.63251442,-0.29502148,0.620207,0.61993623,-0.28788403,0.615751
0.69177315,-0.41875263,0.682659,0.66900299,-0.36823501,0.663818,0.68287497,-0.41181488,0.687088,0.66465548,-0.41718383,0.682484,0.6333136,-0.40413186,0.675414,0.62122753,-0.3929527,0.675938,0.64174884,-0.34019996,0.661873,0.63327607,-0.31064828,0.6625,0.63033451,-0.29817191,0.662813,0.62325575,-0.28298166,0.663098,0.64930209,-0.33413483,0.651667,0.61091815,-0.33329924,0.632577,0.61999906,-0.36311474,0.647252,0.63494992,-0.38101812,0.658764,0.65836075,-0.33319538,0.644851,0.64888887,-0.30224945,0.647125,0.63828884,-0.29017575,0.648289,0.63927888,-0.29672184,0.660211,0.67397951,-0.33942611,0.6397,0.65244434,-0.30874477,0.628731,0.64198463,-0.29516389,0.623691,0.63183994,-0.2845879,0.619244
