sluyters/QuantumLeap/backend/src/datasets/dynamic/HandGestureDataset_SHREC2017_csv/Gesture10/finger_1/subject_13_essai_3_skeletons_world.csv
Wrist_x,Wrist_y,Wrist_z,Palm_x,Palm_y,Palm_z,thumb_base_x,thumb_base_y,thumb_base_z,thumb_first_joint_x,thumb_first_joint_y,thumb_first_joint_z,thumb_second_joint_x,thumb_second_joint_y,thumb_second_joint_z,thumb_tip_x,thumb_tip_y,thumb_tip_z,index_base_x,index_base_y,index_base_z,index_first_joint_x,index_first_joint_y,index_first_joint_z,index_second_joint_x,index_second_joint_y,index_second_joint_z,index_tip_x,index_tip_y,index_tip_z,middle_base_x,middle_base_y,middle_base_z,middle_first_joint_x,middle_first_joint_y,middle_first_joint_z,middle_second_joint_x,middle_second_joint_y,middle_second_joint_z,middle_tip_x,middle_tip_y,middle_tip_z,ring_base_x,ring_base_y,ring_base_z,ring_first_joint_x,ring_first_joint_y,ring_first_joint_z,ring_second_joint_x,ring_second_joint_y,ring_second_joint_z,ring_tip_x,ring_tip_y,ring_tip_z,pinky_base_x,pinky_base_y,pinky_base_z,pinky_first_joint_x,pinky_first_joint_y,pinky_first_joint_z,pinky_second_joint_x,pinky_second_joint_y,pinky_second_joint_z,pinky_tip_x,pinky_tip_y,pinky_tip_z,
0.46699914,-0.34531624,0.516012,0.47580946,-0.30395487,0.521655,0.44868031,-0.33195082,0.517881,0.43594581,-0.29184593,0.520173,0.42147674,-0.26186718,0.518232,0.41579366,-0.23932014,0.515504,0.46152338,-0.25687558,0.528571,0.45629503,-0.21225992,0.526557,0.46087661,-0.19329738,0.533106,0.46529364,-0.17528625,0.539198,0.48575836,-0.25996997,0.528324,0.49032911,-0.24946777,0.526456,0.48422986,-0.27737767,0.525367,0.49496693,-0.29924052,0.541803,0.50531494,-0.26345393,0.527684,0.51303918,-0.24662754,0.52565,0.51027024,-0.26777774,0.52461,0.52284073,-0.29854324,0.543013,0.52808137,-0.27564759,0.526085,0.52500274,-0.26603456,0.52232,0.5239769,-0.28500645,0.52059,0.5370045,-0.31371388,0.534457
0.47228997,-0.34849116,0.521526,0.47198799,-0.30079917,0.517265,0.45293319,-0.33390363,0.522351,0.43839635,-0.29348646,0.523097,0.41779901,-0.25958217,0.51371,0.41031297,-0.23616559,0.508709,0.4493705,-0.24950628,0.514784,0.43780411,-0.20315309,0.505026,0.43279516,-0.18099025,0.500146,0.44171444,-0.16584193,0.511178,0.47090074,-0.251325,0.512229,0.46571188,-0.23694311,0.500025,0.48529811,-0.27798958,0.526526,0.49264284,-0.29783546,0.539259,0.48881821,-0.2548531,0.510457,0.48724065,-0.23489109,0.499221,0.47999147,-0.2525948,0.493472,0.49002913,-0.2805374,0.509034,0.51090644,-0.26668263,0.508975,0.49901846,-0.25371176,0.496842,0.49402761,-0.26966157,0.491268,0.50512929,-0.29509262,0.502733
0.47119198,-0.34587412,0.51982,0.47279772,-0.29595113,0.515974,0.45253814,-0.32888524,0.520864,0.43790852,-0.29165245,0.521437,0.41712281,-0.25799254,0.512227,0.40967337,-0.23490723,0.50773,0.44882275,-0.24630712,0.514102,0.43816083,-0.2012787,0.504794,0.43325891,-0.18020646,0.500141,0.44267772,-0.16521156,0.511533,0.47046345,-0.24847076,0.511429,0.46963088,-0.22315698,0.499691,0.49174224,-0.26133721,0.526234,0.49857061,-0.28478079,0.538811,0.48839253,-0.25323487,0.509528,0.48776557,-0.23592514,0.498781,0.47996245,-0.25295282,0.493282,0.489917,-0.28094106,0.509002,0.51034909,-0.26473726,0.507831,0.49987349,-0.24998159,0.496126,0.49364309,-0.26834928,0.490748,0.50527444,-0.29110352,0.502341
0.47104977,-0.34455125,0.519456,0.473053,-0.29519994,0.51566,0.45242272,-0.32670335,0.520382,0.43785334,-0.29086153,0.520832,0.41680198,-0.25720889,0.511507,0.40920384,-0.23419241,0.507055,0.44865331,-0.24567196,0.513684,0.43786106,-0.20062135,0.504318,0.4331022,-0.17955362,0.499635,0.44255081,-0.16456706,0.510929,0.47043713,-0.24783741,0.511174,0.46941002,-0.22305204,0.499456,0.49154601,-0.26123292,0.526024,0.49837722,-0.28467032,0.538602,0.48850485,-0.25259515,0.509403,0.48771879,-0.23604504,0.49862,0.47989218,-0.25316471,0.493103,0.4896953,-0.28112599,0.508828,0.5106679,-0.26407592,0.507854,0.4998977,-0.24973229,0.496126,0.49371606,-0.26772779,0.490738,0.50527369,-0.29069088,0.502337
0.47280975,-0.34548648,0.521158,0.47398941,-0.29556061,0.516297,0.45392137,-0.32872455,0.521537,0.43816873,-0.29109079,0.520978,0.41669368,-0.25730439,0.511351,0.40875884,-0.2341779,0.506652,0.44796795,-0.24592362,0.512778,0.43588488,-0.20042264,0.502268,0.43103153,-0.17826888,0.497013,0.43989957,-0.16330661,0.50749,0.47004615,-0.24747278,0.510552,0.46751441,-0.2227951,0.497644,0.48949472,-0.26097371,0.524096,0.49680667,-0.28454344,0.537068,0.48843876,-0.25232423,0.509097,0.48595453,-0.23633557,0.497071,0.47788311,-0.2538458,0.490918,0.48712969,-0.28019741,0.506236,0.51120213,-0.26401462,0.508082,0.49822651,-0.25112947,0.495266,0.49236481,-0.26687086,0.489377,0.50331589,-0.29077305,0.500647
0.46621746,-0.33905504,0.512919,0.47401582,-0.29837443,0.517689,0.44834979,-0.32455705,0.515103,0.42769106,-0.28981953,0.51312,0.41158081,-0.25683652,0.506441,0.40878598,-0.23487254,0.507157,0.4582326,-0.2522694,0.524274,0.4538105,-0.20788998,0.521861,0.45503006,-0.18720075,0.520654,0.46444384,-0.17092348,0.532292,0.48197674,-0.25568258,0.523325,0.48989627,-0.23662869,0.520609,0.51139106,-0.27702667,0.547823,0.51445806,-0.30130426,0.558696,0.50108047,-0.26123965,0.522175,0.50971779,-0.25487734,0.519545,0.50423695,-0.27634397,0.518199,0.51489186,-0.30331152,0.536461,0.52257563,-0.27589654,0.520097,0.51890028,-0.26326345,0.515761,0.5167844,-0.28192914,0.513768,0.53009153,-0.30698925,0.527504
0.46942966,-0.34028715,0.516167,0.4708979,-0.29667148,0.514239,0.44724616,-0.32265605,0.513596,0.42257101,-0.28688209,0.505344,0.4006497,-0.25352902,0.494289,0.39215498,-0.23002735,0.488733,0.44756043,-0.24318605,0.509507,0.43959923,-0.19651423,0.498844,0.43617847,-0.1735205,0.493513,0.44599771,-0.16052509,0.504344,0.47410453,-0.24935695,0.511959,0.47709469,-0.23474796,0.501403,0.49664004,-0.27655299,0.528159,0.50088732,-0.2958482,0.541634,0.49540694,-0.25806193,0.514127,0.49504077,-0.24937763,0.502785,0.48634687,-0.27214645,0.496983,0.49168685,-0.29574805,0.512619,0.52034436,-0.27585792,0.516996,0.51166136,-0.26264168,0.505105,0.50382422,-0.2792712,0.499642,0.51353031,-0.30196896,0.511264
0.47065545,-0.33983184,0.516586,0.46927111,-0.29759744,0.512261,0.4482908,-0.32208966,0.513993,0.42199851,-0.28716523,0.503582,0.39738472,-0.25412959,0.489198,0.38716583,-0.22992944,0.481922,0.44575033,-0.24142319,0.505539,0.43558889,-0.1943343,0.493178,0.43228734,-0.17235115,0.486998,0.43959461,-0.15664853,0.4935,0.47164007,-0.24686366,0.507151,0.47110694,-0.23227147,0.494147,0.49063532,-0.27408894,0.520718,0.49542149,-0.2935131,0.534337,0.4930927,-0.25465971,0.508812,0.49080314,-0.24932044,0.495394,0.47919514,-0.26886802,0.488529,0.48413911,-0.29220139,0.503512,0.51906717,-0.2704328,0.511432,0.50724554,-0.26215255,0.497629,0.49806109,-0.27865216,0.491287,0.50572011,-0.29884818,0.502351
0.4757286,-0.34329011,0.521503,0.47225227,-0.29865301,0.513109,0.45025199,-0.32307847,0.515446,0.41800437,-0.28652979,0.497228,0.39323333,-0.25319128,0.485453,0.38321363,-0.22985072,0.479501,0.4431668,-0.23759379,0.498805,0.43246137,-0.19252777,0.481219,0.42661756,-0.17028957,0.472427,0.43044456,-0.15397664,0.473384,0.4712209,-0.2448811,0.503189,0.47096193,-0.24109348,0.485707,0.48686113,-0.28305213,0.511229,0.4908185,-0.30346762,0.525564,0.49300403,-0.2543858,0.507447,0.49237001,-0.2512439,0.488617,0.47482937,-0.2693816,0.478983,0.47431702,-0.29012952,0.491785,0.52214199,-0.27254877,0.513766,0.51068486,-0.26901805,0.49537,0.49751929,-0.28396611,0.486918,0.50236493,-0.30369683,0.496267
0.47402304,-0.34248616,0.519308,0.4669142,-0.29623097,0.505853,0.44524899,-0.31969078,0.509202,0.40695009,-0.28380233,0.485555,0.37878266,-0.25022755,0.469474,0.36564973,-0.22559765,0.460568,0.43045704,-0.22986408,0.482438,0.41617047,-0.18518351,0.458768,0.40942463,-0.16303106,0.446933,0.41426843,-0.14774465,0.446859,0.46004072,-0.23991732,0.489951,0.45619112,-0.23761715,0.466808,0.46894838,-0.27797099,0.490204,0.47293604,-0.29494239,0.506337,0.48497189,-0.25197063,0.497176,0.47867047,-0.24916183,0.472015,0.45727872,-0.26518255,0.459142,0.45349658,-0.28437645,0.468787,0.51668526,-0.27242883,0.507781,0.50076267,-0.26444993,0.484066,0.48499509,-0.27762526,0.47317,0.48731099,-0.29883585,0.480053
0.46588011,-0.33793557,0.510074,0.45769448,-0.29383606,0.494873,0.43716105,-0.31905669,0.499735,0.40166605,-0.28333395,0.475555,0.37266354,-0.25043561,0.460014,0.36138126,-0.22540127,0.455168,0.42220656,-0.22674253,0.469742,0.41105056,-0.18241503,0.444745,0.40555292,-0.16002357,0.432247,0.40996823,-0.14449532,0.436473,0.45140765,-0.23601514,0.47691,0.44753402,-0.23418934,0.452468,0.46088572,-0.27465066,0.475495,0.46202698,-0.29211938,0.491564,0.47618564,-0.24749061,0.483985,0.46936792,-0.24432501,0.457256,0.44689459,-0.25966649,0.443581,0.44039705,-0.27997032,0.452549,0.5073138,-0.26871644,0.49467,0.49163994,-0.26411972,0.46955,0.47513126,-0.2766868,0.458008,0.47453101,-0.29421084,0.464336
0.46557216,-0.33918404,0.509696,0.45608051,-0.29291899,0.489302,0.43631518,-0.3191473,0.498558,0.39904103,-0.28244293,0.472816,0.36780964,-0.24877496,0.454125,0.35211961,-0.22374697,0.443978,0.41922486,-0.22080856,0.458937,0.40523551,-0.17918015,0.430036,0.3983482,-0.15812488,0.415585,0.40163345,-0.14291046,0.411942,0.44816164,-0.23080917,0.465202,0.43324376,-0.23278632,0.435781,0.44392391,-0.27147391,0.457198,0.44971309,-0.28791205,0.474563,0.47283109,-0.24309011,0.471937,0.45519299,-0.24401141,0.440653,0.42843445,-0.25727312,0.424647,0.42230802,-0.27275475,0.431326,0.50395665,-0.26568369,0.482986,0.47831284,-0.26403199,0.453786,0.45796366,-0.27493383,0.44037,0.45656806,-0.28937031,0.444834
0.45672044,-0.3350154,0.499762,0.44998784,-0.28944249,0.478169,0.42803729,-0.31691092,0.486775,0.3922763,-0.28332008,0.458888,0.35822793,-0.25049891,0.437935,0.34116779,-0.22549288,0.426029,0.41110786,-0.21907578,0.444556,0.39577436,-0.17908994,0.413755,0.38836614,-0.15937986,0.398355,0.39206345,-0.14512236,0.394765,0.44172486,-0.22904939,0.452653,0.42666833,-0.23190962,0.421686,0.43575242,-0.26973583,0.441853,0.43896894,-0.28496008,0.459384,0.46800304,-0.24138756,0.460987,0.4489468,-0.24373989,0.427836,0.42012345,-0.25567074,0.410876,0.40957593,-0.26990524,0.416184,0.5014045,-0.26419994,0.47412,0.47465361,-0.26411635,0.443495,0.45250856,-0.27413991,0.429424,0.44660779,-0.28885214,0.432858
0.45249947,-0.33776889,0.493418,0.45036046,-0.29166748,0.471637,0.42720594,-0.31781918,0.481304,0.39420711,-0.2842639,0.454339,0.35850418,-0.24941555,0.43467,0.34237943,-0.22453277,0.423568,0.41173528,-0.22161325,0.438939,0.394995,-0.18154722,0.408547,0.38516313,-0.15955989,0.393351,0.38935023,-0.14571123,0.390684,0.44180358,-0.23127598,0.445898,0.4241924,-0.23384678,0.414839,0.43386208,-0.27211084,0.435383,0.43832769,-0.28795327,0.453066,0.467687,-0.24339068,0.453311,0.44638506,-0.24562874,0.420419,0.41716814,-0.25729868,0.40359,0.40696545,-0.27188193,0.409243,0.50071572,-0.2660062,0.465373,0.47167268,-0.2656576,0.434873,0.44853019,-0.27504805,0.42086,0.44260083,-0.28897072,0.424537
0.44896133,-0.33859772,0.486702,0.44786609,-0.2913535,0.463848,0.4234637,-0.3163281,0.472914,0.38663591,-0.27982513,0.444046,0.35271531,-0.24705259,0.420981,0.33805413,-0.2214897,0.412814,0.405319,-0.21838472,0.428217,0.38781322,-0.17987673,0.396145,0.37931514,-0.16093151,0.380108,0.38040778,-0.1469042,0.374098,0.43697072,-0.22858921,0.43684,0.41839043,-0.23352446,0.404356,0.42430475,-0.26762525,0.423647,0.43150158,-0.28610463,0.441453,0.46426848,-0.24120108,0.445705,0.43912114,-0.24294599,0.411203,0.40890618,-0.25364643,0.393551,0.39971238,-0.2698373,0.397905,0.4968069,-0.26361011,0.459656,0.46658303,-0.26384121,0.427915,0.44260923,-0.27249148,0.41333,0.43778246,-0.28782229,0.416023
0.44603358,-0.33863342,0.480097,0.44141094,-0.29068515,0.454427,0.42047242,-0.31710293,0.465624,0.38150454,-0.28830286,0.435794,0.34495479,-0.25550672,0.412577,0.32611595,-0.22989049,0.400566,0.39853321,-0.21998175,0.415649,0.37930768,-0.18209828,0.381431,0.36980446,-0.16299704,0.364322,0.37069222,-0.14932683,0.357892,0.42912608,-0.23013863,0.42409,0.41008276,-0.23869991,0.389993,0.41552296,-0.27299471,0.407896,0.42169678,-0.28960121,0.425849,0.45544273,-0.2427011,0.433024,0.43186362,-0.24930074,0.396048,0.3986907,-0.2572808,0.37713,0.38695052,-0.27038057,0.379837,0.4890176,-0.26589038,0.447475,0.45637466,-0.26782088,0.413599,0.43483811,-0.27304789,0.398035,0.42383318,-0.28539418,0.399421
0.44197611,-0.34012437,0.471345,0.43325428,-0.29180074,0.444684,0.41412661,-0.31644838,0.456428,0.37266367,-0.28933407,0.42607,0.33672226,-0.25730322,0.40263,0.32095383,-0.22979471,0.393897,0.39126591,-0.21996863,0.404549,0.37288582,-0.18387828,0.369477,0.36383177,-0.16568255,0.35194,0.36367912,-0.152378,0.343536,0.42174162,-0.23096486,0.413176,0.40018763,-0.24080697,0.378009,0.40359671,-0.27359326,0.3952,0.40943638,-0.28516256,0.413317,0.44785325,-0.24420237,0.42234,0.42182918,-0.25205272,0.384425,0.38689141,-0.25819511,0.365027,0.37382835,-0.26527742,0.366999,0.48096605,-0.26815665,0.437212,0.44640847,-0.27085946,0.402555,0.42366445,-0.27573133,0.386631,0.41138478,-0.28663976,0.387444
0.43509832,-0.34873576,0.463013,0.42854116,-0.30527812,0.436244,0.40760492,-0.32227714,0.448545,0.36725815,-0.29399969,0.418851,0.33265918,-0.25665431,0.396819,0.31505176,-0.23035982,0.384428,0.39119583,-0.22888153,0.396572,0.37184298,-0.1919732,0.361692,0.36229436,-0.17337661,0.344252,0.36294573,-0.1604542,0.336977,0.42064968,-0.24187283,0.40461,0.39553224,-0.25153179,0.369647,0.39645174,-0.28292429,0.387086,0.40195961,-0.29842594,0.405207,0.44567509,-0.25672159,0.413298,0.41599948,-0.264054,0.375495,0.37850823,-0.26750002,0.356154,0.36437039,-0.27741695,0.358324,0.4770052,-0.28254288,0.427617,0.43923315,-0.28353137,0.393003,0.41458418,-0.2866564,0.377099,0.40087696,-0.29615641,0.378052
0.42865475,-0.35754513,0.452921,0.42468366,-0.30798322,0.426926,0.40087222,-0.33075673,0.43754,0.36113362,-0.30012918,0.407312,0.3231465,-0.26754412,0.381316,0.30496814,-0.24226687,0.368878,0.38262023,-0.23541329,0.38677,0.36399909,-0.19735367,0.351845,0.35481033,-0.17819621,0.334383,0.35350111,-0.16391483,0.324903,0.41416883,-0.24612901,0.396207,0.39419089,-0.26135986,0.363629,0.39594772,-0.29058421,0.380908,0.40084799,-0.30498088,0.398116,0.44109078,-0.25901464,0.405985,0.41375579,-0.27092396,0.368451,0.37703119,-0.27326098,0.349248,0.36376136,-0.28340631,0.351285,0.47252312,-0.2803597,0.421491,0.43837249,-0.28774458,0.387176,0.4126521,-0.29183266,0.37141,0.39866326,-0.30179207,0.372281
0.43691691,-0.36729576,0.454236,0.42798753,-0.31778196,0.427082,0.40808048,-0.34300462,0.439295,0.36588308,-0.31278434,0.409328,0.32656141,-0.28071064,0.38319,0.30709168,-0.25599509,0.369082,0.3822533,-0.24650695,0.386514,0.36328033,-0.20754201,0.351133,0.35398681,-0.18836109,0.333442,0.35244662,-0.17425072,0.323627,0.41351297,-0.2553685,0.394991,0.39208221,-0.27055664,0.361022,0.39509209,-0.29929495,0.378078,0.40134,-0.31404595,0.395719,0.44043091,-0.26674734,0.40407,0.41263714,-0.27940644,0.366223,0.376755,-0.28101238,0.34686,0.36436187,-0.29137494,0.348706,0.47472776,-0.28822345,0.418914,0.43666613,-0.29439488,0.383922,0.41020522,-0.29819195,0.367845,0.39664398,-0.30879829,0.368449
0.42465884,-0.35914423,0.445519,0.41793014,-0.31353744,0.418603,0.39733696,-0.33800642,0.428403,0.35197798,-0.30987617,0.396165,0.31490135,-0.28014488,0.36904,0.2951672,-0.25498888,0.354643,0.37540962,-0.24517422,0.375564,0.35579,-0.20786834,0.339191,0.35228339,-0.19251389,0.326751,0.35002781,-0.17579309,0.318667,0.40564696,-0.25225145,0.386795,0.39238361,-0.2717749,0.354026,0.39185273,-0.29870564,0.369527,0.39528252,-0.31674468,0.386246,0.43327079,-0.26444866,0.39812,0.43320151,-0.27284917,0.369478,0.41055067,-0.28040014,0.354824,0.400128,-0.27880458,0.358331,0.46813955,-0.28676733,0.415607,0.43365159,-0.2936503,0.380345,0.40921394,-0.30013333,0.364143,0.3972558,-0.31261123,0.363784
0.42042765,-0.36163934,0.4383,0.41088212,-0.31999258,0.41012,0.39131917,-0.34121984,0.42054,0.34674708,-0.3188717,0.387683,0.3068841,-0.28908152,0.361414,0.28564107,-0.2641395,0.347891,0.3666652,-0.24752815,0.365255,0.34943095,-0.2150163,0.32831,0.34531687,-0.20121418,0.313768,0.34211729,-0.18858364,0.300662,0.39750416,-0.2561711,0.376818,0.38500868,-0.27138542,0.343049,0.38635132,-0.30184493,0.357367,0.39028426,-0.32207471,0.374077,0.42384079,-0.26739843,0.388515,0.42741445,-0.27357568,0.359004,0.39494426,-0.28044915,0.343905,0.37847309,-0.27788215,0.346369,0.45717007,-0.28871945,0.406631,0.43945689,-0.29052824,0.370436,0.41482564,-0.29388884,0.353806,0.39573071,-0.29745632,0.352572
0.40822608,-0.36461072,0.426338,0.40219158,-0.31808767,0.401514,0.38065258,-0.34690955,0.408037,0.33642816,-0.31957005,0.37526,0.29766502,-0.29004885,0.348987,0.27820628,-0.26664075,0.337208,0.36107268,-0.25191217,0.358736,0.34682585,-0.22009916,0.323134,0.34467921,-0.20695238,0.309579,0.34250368,-0.19159951,0.298812,0.39307633,-0.261555,0.372178,0.38652184,-0.27954962,0.342264,0.38830623,-0.31119982,0.357286,0.38969267,-0.32587707,0.372821,0.42013281,-0.27347061,0.38516,0.42210469,-0.27720258,0.352843,0.38812838,-0.28254558,0.336308,0.37011141,-0.27543857,0.338242,0.45376311,-0.29536004,0.404313,0.44059756,-0.29883137,0.370393,0.41794083,-0.30330367,0.354808,0.39478372,-0.30385856,0.354471
0.40431753,-0.37176342,0.421099,0.39731011,-0.33010406,0.395988,0.37536771,-0.35339034,0.402327,0.33187392,-0.32720903,0.369069,0.29314742,-0.29778906,0.342101,0.27345621,-0.27421602,0.329707,0.35645352,-0.25916733,0.352399,0.34049317,-0.22322987,0.316483,0.33829729,-0.21446891,0.300723,0.33774115,-0.21294517,0.286395,0.38854921,-0.26878657,0.366314,0.38229479,-0.28711312,0.336359,0.38313243,-0.31789983,0.350716,0.38482235,-0.33703918,0.366057,0.41565912,-0.28067479,0.379708,0.41702301,-0.28438978,0.346437,0.3822646,-0.28829131,0.329415,0.36375429,-0.28399692,0.330599,0.44930464,-0.30250982,0.399394,0.4365209,-0.30645265,0.365248,0.4139221,-0.31087188,0.34956,0.39515275,-0.3149396,0.348799
0.40210491,-0.37970264,0.418976,0.39451661,-0.33692705,0.392539,0.37259925,-0.36114863,0.398722,0.32788129,-0.33305517,0.364322,0.28868477,-0.3036178,0.337206,0.26981547,-0.28123818,0.326024,0.35208381,-0.26859349,0.346046,0.33899561,-0.24142495,0.308731,0.33620938,-0.23036423,0.293073,0.33497387,-0.22235375,0.278839,0.38480702,-0.27706282,0.361296,0.37847044,-0.29584895,0.330862,0.37454819,-0.32107727,0.342635,0.37546927,-0.33924542,0.357339,0.41250416,-0.28790769,0.375892,0.41376061,-0.29354033,0.341991,0.37807735,-0.29507422,0.324647,0.35709814,-0.28797735,0.323862,0.44693532,-0.30830937,0.397207,0.43316407,-0.3142184,0.362171,0.41009226,-0.31865696,0.346074,0.3895321,-0.3206249,0.343668
0.39985413,-0.38659724,0.416656,0.392901,-0.33947824,0.391324,0.37146721,-0.36418609,0.39787,0.33338479,-0.3371821,0.36404,0.30019941,-0.30647887,0.337485,0.28305608,-0.28189165,0.324448,0.35219826,-0.27196857,0.347537,0.33417779,-0.24138946,0.311417,0.33061493,-0.22919873,0.296725,0.32932413,-0.23566315,0.283368,0.38340109,-0.28315377,0.361389,0.37649801,-0.30184673,0.331204,0.37594537,-0.32503387,0.345473,0.37711394,-0.34076131,0.360871,0.41096425,-0.29443039,0.374748,0.41348372,-0.30133883,0.343181,0.38023922,-0.30443782,0.327031,0.36253014,-0.29573483,0.328681,0.44517428,-0.31537503,0.394425,0.42407781,-0.32326277,0.360122,0.39672608,-0.32596567,0.34436,0.37783814,-0.32621052,0.343515
0.39389654,-0.39107688,0.414029,0.3818818,-0.34706969,0.386291,0.36478261,-0.36773048,0.394147,0.32438776,-0.34097379,0.359259,0.29266163,-0.30998685,0.331331,0.27832252,-0.28167289,0.319006,0.34206391,-0.27683115,0.339186,0.32841311,-0.24801269,0.301434,0.32791355,-0.23849561,0.287823,0.32525029,-0.24718811,0.27545,0.37523887,-0.2882706,0.35351,0.36209237,-0.30186817,0.318509,0.35985656,-0.33163244,0.330189,0.36098372,-0.33918584,0.346516,0.40318176,-0.30151488,0.367445,0.39668111,-0.30836343,0.331666,0.36043765,-0.30573563,0.31336,0.34165256,-0.2952937,0.312137,0.43759101,-0.32470001,0.388164,0.41396613,-0.33204191,0.352197,0.38203072,-0.33119512,0.335672,0.36155722,-0.32732665,0.333106
0.39457174,-0.39454129,0.413001,0.38974742,-0.35572657,0.38198,0.36494454,-0.37472255,0.394065,0.33171057,-0.35071726,0.35977,0.29721257,-0.31915479,0.332419,0.27971309,-0.29286432,0.317737,0.34414566,-0.28356057,0.333346,0.32374373,-0.25440501,0.294021,0.32064158,-0.24562913,0.280351,0.3157607,-0.25471315,0.267923,0.37718068,-0.29482179,0.345321,0.3574138,-0.30825089,0.309303,0.35515223,-0.33665253,0.320776,0.3587991,-0.34358298,0.337406,0.40548257,-0.30807071,0.357577,0.3946992,-0.31747144,0.322716,0.3583492,-0.31290161,0.304881,0.34134815,-0.30079489,0.303837,0.44118338,-0.33156065,0.376781,0.40908027,-0.3369048,0.338678,0.37400306,-0.33280954,0.321172,0.35336589,-0.32635574,0.317922
0.39609499,-0.40974055,0.409358,0.3877945,-0.36433871,0.380066,0.36659625,-0.38529045,0.390988,0.32934654,-0.35860957,0.357206,0.29740208,-0.3309081,0.329169,0.28034719,-0.30588743,0.313175,0.34435007,-0.29388023,0.333544,0.32525112,-0.26586214,0.29539,0.32013263,-0.25572467,0.279906,0.31329399,-0.2631691,0.26583,0.37732268,-0.30516957,0.345451,0.35921067,-0.31998532,0.310858,0.3587007,-0.35023421,0.323981,0.36220944,-0.35702,0.340613,0.40541453,-0.31833344,0.357517,0.39752078,-0.3302741,0.325023,0.36248299,-0.32614656,0.308398,0.34732719,-0.31515582,0.309159,0.44054756,-0.34150302,0.376238,0.40977963,-0.34780839,0.339257,0.37527702,-0.34378809,0.322266,0.35588118,-0.33813659,0.320185
0.39342151,-0.41219466,0.406595,0.3849345,-0.3719696,0.377263,0.36493105,-0.39391414,0.389212,0.32851489,-0.36806957,0.356304,0.29739846,-0.34127115,0.329165,0.28084849,-0.31674815,0.313735,0.34266933,-0.30254749,0.331916,0.32455854,-0.27554673,0.294761,0.31665459,-0.26331789,0.276865,0.30712664,-0.2682286,0.260597,0.37420755,-0.31280243,0.342599,0.35527835,-0.32655564,0.307455,0.35603132,-0.35776983,0.32157,0.36018897,-0.36514301,0.338713,0.40104193,-0.32510324,0.353661,0.39381004,-0.33762588,0.321989,0.35941174,-0.33293696,0.305785,0.34547461,-0.3225186,0.30751,0.43463789,-0.34720238,0.371191,0.40378012,-0.35289262,0.33429,0.39974887,-0.37669346,0.343281,0.39986158,-0.39055065,0.359754
0.39282072,-0.4221539,0.405814,0.38235833,-0.38010725,0.374192,0.36393419,-0.40345292,0.387933,0.33034124,-0.38114414,0.357874,0.29784357,-0.35280969,0.329279,0.27764824,-0.32394457,0.309802,0.33749655,-0.30818991,0.32636,0.31776835,-0.28003834,0.287963,0.30816869,-0.26655453,0.268765,0.29700957,-0.26954742,0.251311,0.3685734,-0.31828816,0.336822,0.34701917,-0.32910667,0.299633,0.34603832,-0.35800191,0.311918,0.35071399,-0.36581342,0.329226,0.39524408,-0.33061986,0.347881,0.38178864,-0.34445139,0.314642,0.34557732,-0.33411106,0.297636,0.33130246,-0.31951949,0.2977,0.42909325,-0.35306648,0.365745,0.39629164,-0.35657923,0.327356,0.39096282,-0.37901545,0.335024,0.39143606,-0.39312187,0.351508
0.38971209,-0.42148508,0.402523,0.38058794,-0.37805295,0.372088,0.36148999,-0.40237021,0.385101,0.32954801,-0.3795548,0.356404,0.30473538,-0.36047687,0.327863,0.28874786,-0.3375336,0.308474,0.33785105,-0.30776353,0.325791,0.31762559,-0.27059108,0.287771,0.30787998,-0.25522489,0.268762,0.29711569,-0.25485127,0.25148,0.36860766,-0.31781193,0.336121,0.34805071,-0.32957565,0.299881,0.34816256,-0.35978125,0.313347,0.35271211,-0.36753958,0.330682,0.39486433,-0.33000362,0.346979,0.38712441,-0.34166546,0.314625,0.34905411,-0.33492904,0.298072,0.33521698,-0.32245586,0.299185,0.42794494,-0.35208611,0.364429,0.39606501,-0.35624909,0.326824,0.39174211,-0.37957851,0.335349,0.39221707,-0.39370255,0.351889
0.38767322,-0.42121282,0.400811,0.37843494,-0.37632495,0.370578,0.35915432,-0.40103995,0.38311,0.32954564,-0.37966454,0.355931,0.31297132,-0.37002385,0.327295,0.30246817,-0.35340968,0.308257,0.3356052,-0.30593727,0.324103,0.31502296,-0.26914774,0.285977,0.30501828,-0.25306096,0.266914,0.29455823,-0.25321313,0.249584,0.36673036,-0.31642656,0.334849,0.34726102,-0.32799089,0.29895,0.34756101,-0.35873312,0.312265,0.3518163,-0.36678063,0.32943,0.39330841,-0.32896236,0.346034,0.38627468,-0.34004379,0.314156,0.35192154,-0.33472857,0.297846,0.33571342,-0.32283641,0.298984,0.42676174,-0.35142478,0.363843,0.39492516,-0.35565651,0.326327,0.39113138,-0.37951776,0.334737,0.39141491,-0.39494513,0.351201
0.3876453,-0.42276316,0.401686,0.37800797,-0.37661269,0.3709,0.35908438,-0.40174462,0.384007,0.32997417,-0.3803609,0.357183,0.31301933,-0.37209245,0.328781,0.30343033,-0.35750994,0.309737,0.33533387,-0.30594629,0.324,0.31476205,-0.2714178,0.285874,0.30446433,-0.25356037,0.266811,0.29376299,-0.25576211,0.249482,0.36626561,-0.31677851,0.334518,0.3448623,-0.32832495,0.298054,0.34326554,-0.35851528,0.311066,0.34958761,-0.36616442,0.32834,0.39269122,-0.3295965,0.345558,0.38486639,-0.33935792,0.313048,0.35030643,-0.334343,0.296416,0.33408474,-0.32238006,0.297175,0.42626704,-0.35296413,0.363276,0.38895076,-0.36070393,0.32542,0.38429863,-0.38409668,0.333613,0.38710844,-0.399186,0.350113
0.38739241,-0.42339703,0.402071,0.37784539,-0.37659425,0.371176,0.35894151,-0.40185686,0.384501,0.32952802,-0.38065738,0.357589,0.3103428,-0.37463058,0.329271,0.30106448,-0.36290779,0.310201,0.33558727,-0.30607772,0.32432,0.31488215,-0.27041083,0.286294,0.30476806,-0.25417884,0.267282,0.29390347,-0.25647862,0.249998,0.36638881,-0.31708035,0.334665,0.34480785,-0.32791045,0.298039,0.34266888,-0.35865072,0.311089,0.34904477,-0.36637965,0.328434,0.39268592,-0.33002214,0.345572,0.38460839,-0.33912411,0.312844,0.34997175,-0.33433627,0.2961,0.33393906,-0.32269382,0.296827,0.42577644,-0.35293232,0.363147,0.38611705,-0.3597533,0.325237,0.38060288,-0.38209925,0.333461,0.38060916,-0.39752206,0.349992
0.38829692,-0.42486846,0.403323,0.37899108,-0.37597359,0.372282,0.35902114,-0.39948753,0.384642,0.32753818,-0.37895817,0.356012,0.30775509,-0.37333531,0.327383,0.29810104,-0.36203466,0.308341,0.33521657,-0.30552129,0.323945,0.31352636,-0.27509032,0.284907,0.30363864,-0.26367076,0.265389,0.29097771,-0.2663524,0.247644,0.36750482,-0.3179898,0.335599,0.34164355,-0.32567633,0.295871,0.33947707,-0.35427696,0.307427,0.34555605,-0.36306868,0.325424,0.39513297,-0.33215027,0.347592,0.38186993,-0.33635524,0.3105,0.34476118,-0.32935138,0.291522,0.3265849,-0.31571743,0.290017,0.42988921,-0.35655941,0.366486,0.38640033,-0.36221366,0.328382,0.37834352,-0.38199651,0.335664,0.38081745,-0.39782186,0.351899
0.38715095,-0.42383863,0.402376,0.37841397,-0.37533235,0.371781,0.35744582,-0.39784495,0.383164,0.3302432,-0.38043788,0.356646,0.32087702,-0.38081131,0.327991,0.3152175,-0.37215294,0.309348,0.33450461,-0.30447094,0.323159,0.31267035,-0.2724321,0.28383,0.30242511,-0.26225616,0.264165,0.28924884,-0.26479437,0.246288,0.36766827,-0.31785004,0.335625,0.34258112,-0.32607058,0.296377,0.33946341,-0.35421148,0.307517,0.34519769,-0.36268509,0.325211,0.39603888,-0.33272732,0.348253,0.37988293,-0.332647,0.308987,0.3418798,-0.32629211,0.288898,0.32280891,-0.3119376,0.286423,0.43162721,-0.35792945,0.367836,0.38815014,-0.36340993,0.329992,0.37955812,-0.38273909,0.336977,0.37919227,-0.39578904,0.353005
0.34037112,-0.39110468,0.367725,0.36228586,-0.34693012,0.35914,0.32500964,-0.35510059,0.355392,0.35015096,-0.33212703,0.350268,0.37029856,-0.32591267,0.335327,0.3936339,-0.32255265,0.333462,0.35829968,-0.27290357,0.336986,0.35379668,-0.27910223,0.315498,0.35253929,-0.28348049,0.304754,0.34627366,-0.29962096,0.294987,0.38511198,-0.2983301,0.348994,0.39528134,-0.30630444,0.330804,0.40006429,-0.35028281,0.353064,0.39669157,-0.35950675,0.36663,0.40691664,-0.32661158,0.359538,0.41142994,-0.32885961,0.337654,0.37638568,-0.33230958,0.326457,0.36510467,-0.33767401,0.336092,0.42892319,-0.35893049,0.373381,0.42339117,-0.36604426,0.353008,0.42907032,-0.39642405,0.368246,0.4273781,-0.42723469,0.381325
0.33185452,-0.37898359,0.359375,0.35810891,-0.34060657,0.355814,0.32003137,-0.34658977,0.350348,0.34253256,-0.31663283,0.344815,0.36926908,-0.31386305,0.336812,0.39133675,-0.30646773,0.335175,0.36290695,-0.27398815,0.341831,0.36625826,-0.280072,0.325862,0.36937719,-0.2861464,0.317877,0.36355921,-0.29723686,0.310618,0.38687639,-0.297904,0.351607,0.40343412,-0.31068326,0.338727,0.40970244,-0.35641617,0.363059,0.40440202,-0.36419069,0.375356,0.40501179,-0.32061366,0.359925,0.41833308,-0.33096032,0.343895,0.38690011,-0.33772757,0.335693,0.37804926,-0.34637992,0.34832,0.4234076,-0.35360263,0.370371,0.4246749,-0.36427848,0.354955,0.43250222,-0.40016923,0.371789,0.43143994,-0.42380106,0.383742
0.32791328,-0.3702065,0.355388,0.3561799,-0.32622725,0.354705,0.31710841,-0.33520522,0.347544,0.34469886,-0.30827416,0.345211,0.3676957,-0.30360044,0.333363,0.39591357,-0.30594078,0.337976,0.3652317,-0.26349883,0.344529,0.37247718,-0.27410207,0.331395,0.37758449,-0.28123546,0.32494,0.37345409,-0.29359138,0.319072,0.38828783,-0.28727361,0.353897,0.40855891,-0.30164828,0.34413,0.41462438,-0.34657163,0.368913,0.40861073,-0.35407804,0.380866,0.40540799,-0.30960762,0.361658,0.42355777,-0.32062586,0.348764,0.39422672,-0.32922735,0.342167,0.38596039,-0.3394125,0.355925,0.42210725,-0.34162184,0.371012,0.42769446,-0.35289934,0.358353,0.43594543,-0.38883467,0.375569,0.43633277,-0.41535124,0.386699
0.32724779,-0.36569498,0.354157,0.35770662,-0.32543984,0.357226,0.3184821,-0.33387436,0.349349,0.34705864,-0.30873397,0.350328,0.37476263,-0.30220315,0.346402,0.40024685,-0.29603961,0.348477,0.36544081,-0.26340083,0.353846,0.37675819,-0.27227866,0.345369,0.3843052,-0.27850712,0.341473,0.38336364,-0.29139528,0.337931,0.38858965,-0.2844352,0.360852,0.41228029,-0.29550563,0.355292,0.42362583,-0.34424306,0.381204,0.41800606,-0.35971334,0.391349,0.40579962,-0.30441359,0.366378,0.42813194,-0.31273569,0.358331,0.40333562,-0.32599571,0.354213,0.39973862,-0.3471875,0.370047,0.42266216,-0.33342299,0.372513,0.43200024,-0.34321791,0.363963,0.44414603,-0.38119418,0.382088,0.44591172,-0.40841351,0.392125
0.33036471,-0.35661086,0.35687,0.35696969,-0.31250614,0.357474,0.3197849,-0.32732501,0.351075,0.34775157,-0.29706697,0.353754,0.37568655,-0.29195369,0.347256,0.40697167,-0.28965558,0.354332,0.36236212,-0.25148656,0.350865,0.37081614,-0.25735709,0.339922,0.3764024,-0.26158809,0.334451,0.37377192,-0.27240788,0.329476,0.3857198,-0.27254287,0.358187,0.40602923,-0.28011174,0.349905,0.41744043,-0.3274054,0.375638,0.41159494,-0.34011559,0.387038,0.4033474,-0.2926841,0.364164,0.41636996,-0.30177192,0.353384,0.4194123,-0.33733174,0.375948,0.41591341,-0.35155096,0.392994,0.42117467,-0.32220463,0.371202,0.42757179,-0.32871509,0.360232,0.43959865,-0.36571892,0.378176,0.44235239,-0.39331433,0.388995
0.33563321,-0.36289338,0.360598,0.35997202,-0.3144886,0.359077,0.32553062,-0.3352839,0.356338,0.29325737,-0.30832595,0.344537,0.26410009,-0.28915799,0.317894,0.24596279,-0.26912843,0.30304,0.35580023,-0.25295883,0.352607,0.36612769,-0.25019269,0.341702,0.36982548,-0.25328832,0.33625,0.36668318,-0.2635806,0.331293,0.38047606,-0.26817133,0.357279,0.39491855,-0.26973573,0.346928,0.42067177,-0.32044086,0.373327,0.42155126,-0.3520173,0.385357,0.39975248,-0.28381983,0.36124,0.41178109,-0.28759555,0.349326,0.41973383,-0.32751916,0.372528,0.41468536,-0.3457414,0.388649,0.4207327,-0.3086002,0.366189,0.42024182,-0.31250438,0.353965,0.43252585,-0.3486286,0.372382,0.43660043,-0.3765324,0.383825
0.36197265,-0.36650269,0.37356,0.37250694,-0.31953435,0.3673,0.33969441,-0.34399624,0.368276,0.30985224,-0.31571714,0.352945,0.27991825,-0.29823717,0.324504,0.26089581,-0.2788634,0.307847,0.35829663,-0.25355445,0.355693,0.35879706,-0.24685137,0.341196,0.36374216,-0.2518308,0.333947,0.36188714,-0.26138385,0.327357,0.38419837,-0.26394089,0.359903,0.38913738,-0.26866668,0.344769,0.40992232,-0.32117568,0.370709,0.4171841,-0.35161441,0.384325,0.40575685,-0.27734513,0.363851,0.40897229,-0.27797577,0.347298,0.41828905,-0.32225702,0.370105,0.41856911,-0.33988786,0.386819,0.43086644,-0.30023321,0.369485,0.41948862,-0.30318947,0.35306,0.43121231,-0.33839493,0.371058,0.43662327,-0.37179341,0.383818
0.36096254,-0.36081972,0.370718,0.37553246,-0.31372382,0.36743,0.34128046,-0.33882992,0.368486,0.31295228,-0.3082178,0.35695,0.28552723,-0.29003323,0.332286,0.26754506,-0.26935248,0.317255,0.36404327,-0.2495058,0.361999,0.36762575,-0.24112479,0.351011,0.37038655,-0.24457696,0.345518,0.37298219,-0.25343866,0.340524,0.38800717,-0.26349408,0.363544,0.39193826,-0.26197325,0.351735,0.41665518,-0.31208629,0.378445,0.42380729,-0.35013222,0.3911,0.40706475,-0.27548082,0.365071,0.41373044,-0.2702672,0.352773,0.42524544,-0.31131449,0.376309,0.42507825,-0.33075067,0.3911,0.42854082,-0.29617765,0.367377,0.42033072,-0.29403614,0.354546,0.43307104,-0.3295319,0.373201,0.43758912,-0.3577254,0.38495
0.37259202,-0.36072663,0.379042,0.38369666,-0.30642141,0.377267,0.35562792,-0.33391367,0.377298,0.32089547,-0.30392492,0.366481,0.29582388,-0.28628187,0.344491,0.2783845,-0.26541218,0.330481,0.37168884,-0.24699629,0.373673,0.37655816,-0.23611953,0.364235,0.38026691,-0.23807321,0.359516,0.38399212,-0.24557566,0.355226,0.39588062,-0.25732309,0.375168,0.40164212,-0.25602657,0.364927,0.42739978,-0.30412011,0.391794,0.4310051,-0.33531144,0.403932,0.41524149,-0.26906061,0.376536,0.4235506,-0.2636322,0.365805,0.43601028,-0.30418814,0.389479,0.4353106,-0.32467009,0.403378,0.43729116,-0.28941227,0.378429,0.43067384,-0.28755911,0.367011,0.44434029,-0.32271267,0.38581,0.44913209,-0.35067008,0.397118
0.38999572,-0.35621906,0.392801,0.3915417,-0.29867779,0.382322,0.36607826,-0.33079343,0.384419,0.32607567,-0.29463478,0.368276,0.29475213,-0.26829175,0.344758,0.27606364,-0.24521792,0.331429,0.36122382,-0.23270132,0.363459,0.36987858,-0.22416413,0.346884,0.37597823,-0.22023831,0.33878,0.38286317,-0.21767261,0.331414,0.38847012,-0.24118603,0.369937,0.40209764,-0.23454876,0.351967,0.42263271,-0.28117333,0.376612,0.42956803,-0.31217156,0.390848,0.4110542,-0.25183029,0.376079,0.42677314,-0.25160442,0.359608,0.44032118,-0.29133221,0.381432,0.43802237,-0.30930047,0.397152,0.43851563,-0.2716052,0.384953,0.43083448,-0.27257749,0.364101,0.43933705,-0.30259649,0.380988,0.4430578,-0.32911806,0.394874
0.50003208,-0.31589621,0.411443,0.44611068,-0.29212845,0.39793,0.48652756,-0.33035752,0.422634,0.47452095,-0.35938879,0.438994,0.45293025,-0.38278117,0.433253,0.43301648,-0.39282841,0.431219,0.38664704,-0.29040693,0.400575,0.3308482,-0.26328285,0.377539,0.31652815,-0.2701155,0.366021,0.3049933,-0.27782903,0.355551,0.38370663,-0.26451141,0.381961,0.3734812,-0.29034085,0.359888,0.40988612,-0.30598682,0.372655,0.42560069,-0.30134821,0.384646,0.38512151,-0.24515049,0.367694,0.3686455,-0.2663685,0.339631,0.3986469,-0.28080838,0.350573,0.41178239,-0.27388185,0.36052,0.39425745,-0.22558763,0.352683,0.38716918,-0.25875184,0.342342,0.40877949,-0.27444949,0.351651,0.42247739,-0.27052528,0.359864
0.47261734,-0.33459091,0.426969,0.43225611,-0.28097081,0.397099,0.43659274,-0.32202438,0.415085,0.38928419,-0.29889866,0.398062,0.34934951,-0.27912892,0.384196,0.32522662,-0.25950369,0.373986,0.35698737,-0.22418691,0.358053,0.33702651,-0.17915736,0.338584,0.33264017,-0.16972326,0.328849,0.33090339,-0.18005129,0.319999,0.38504429,-0.21961756,0.361799,0.3633032,-0.229751,0.323161,0.38144813,-0.25801465,0.339899,0.39873944,-0.28012627,0.359212,0.41172482,-0.21968846,0.367196,0.38781127,-0.23088287,0.328433,0.40193411,-0.26043886,0.343201,0.40710085,-0.26855647,0.356626,0.45031179,-0.22732424,0.378051,0.40266645,-0.18749612,0.349501,0.38266216,-0.17126792,0.336383,0.36917282,-0.16170826,0.324808
0.46596836,-0.33237125,0.43289,0.42373415,-0.27747065,0.40539,0.42379741,-0.31507106,0.424258,0.38050293,-0.29165639,0.405009,0.34287276,-0.27082102,0.388923,0.32092523,-0.25075976,0.37824,0.36345801,-0.22512236,0.372273,0.3325156,-0.17349223,0.339146,0.32173416,-0.16029002,0.322582,0.31562239,-0.16972706,0.307524,0.38867872,-0.2208228,0.372891,0.34785766,-0.16160312,0.336866,0.33302099,-0.1456786,0.315852,0.34429644,-0.16057916,0.319045,0.41173835,-0.22097786,0.37553,0.3650041,-0.16935893,0.339491,0.34651254,-0.15189431,0.321052,0.36029346,-0.16630003,0.324617,0.44370425,-0.22822099,0.382746,0.40086002,-0.18747462,0.352275,0.38185053,-0.16970439,0.338274,0.3686703,-0.15940087,0.32592
0.45786566,-0.32622867,0.43909,0.42916664,-0.2730252,0.414658,0.42774725,-0.31463584,0.429984,0.38343943,-0.28470055,0.41102,0.34686742,-0.26275104,0.395652,0.32618074,-0.2426886,0.386228,0.37106872,-0.21887241,0.383474,0.34293151,-0.16688031,0.353212,0.3338886,-0.152259,0.338081,0.32737507,-0.15785655,0.324326,0.39764991,-0.2157224,0.385786,0.35944876,-0.15681988,0.352564,0.34671097,-0.13900986,0.333185,0.36017176,-0.15245085,0.338018,0.42166382,-0.21685622,0.389581,0.3775062,-0.16408243,0.355986,0.36062416,-0.14502188,0.338798,0.37684485,-0.15734846,0.344168,0.45439936,-0.22535989,0.397721,0.41658778,-0.18210931,0.373019,0.39989122,-0.16296795,0.36167,0.38706078,-0.14809822,0.351656
0.45784553,-0.32578893,0.440976,0.43535313,-0.27600325,0.423465,0.42882105,-0.31429132,0.433043,0.38524087,-0.28231207,0.417673,0.35118928,-0.25939009,0.405497,0.33281603,-0.23975527,0.399046,0.37985966,-0.21819813,0.399392,0.35670012,-0.1664775,0.375615,0.3503236,-0.14954472,0.363727,0.34715905,-0.15328975,0.352919,0.40723087,-0.21616796,0.402772,0.37441282,-0.15907203,0.376473,0.36511514,-0.13826698,0.361132,0.38209411,-0.14907613,0.369395,0.43150632,-0.21820448,0.406909,0.39220163,-0.16469006,0.379673,0.37796417,-0.14328547,0.365738,0.39777867,-0.15197597,0.374774,0.46380186,-0.22776568,0.414434,0.43064253,-0.18383994,0.395785,0.41609464,-0.16416135,0.387216,0.40518539,-0.14814686,0.379656
0.45641665,-0.32492162,0.448521,0.42762555,-0.27122454,0.432278,0.42323716,-0.30896554,0.440001,0.38118237,-0.27636541,0.42914,0.35142377,-0.25215905,0.42001,0.33657922,-0.23216966,0.415985,0.38185796,-0.2149026,0.408522,0.36576194,-0.16386061,0.386788,0.3621709,-0.14553334,0.37592,0.36101466,-0.14073228,0.366041,0.41018666,-0.2154709,0.413082,0.38198647,-0.15888743,0.388168,0.37671386,-0.14163416,0.373635,0.39340481,-0.14454182,0.382367,0.4347043,-0.21959458,0.418092,0.39428933,-0.16459074,0.391669,0.37695914,-0.13922259,0.37815,0.3934307,-0.1396977,0.387537,0.4661949,-0.23151803,0.426469,0.43446117,-0.18580474,0.401202,0.41793632,-0.16480112,0.389592,0.40452776,-0.14721601,0.379348
0.47377118,-0.33952416,0.469576,0.4444286,-0.28178795,0.449267,0.43236194,-0.31691081,0.459359,0.39632607,-0.28034833,0.439179,0.36342429,-0.25020002,0.426474,0.34934632,-0.2302225,0.423198,0.39446867,-0.21457885,0.4201,0.39223832,-0.17042218,0.413907,0.39564438,-0.15843501,0.41081,0.39919649,-0.14676866,0.407995,0.4237253,-0.21899447,0.425266,0.40135984,-0.16648637,0.395449,0.39100925,-0.17435098,0.378056,0.39711438,-0.1966095,0.384571,0.44954266,-0.22667563,0.431091,0.4225235,-0.17457999,0.400302,0.41431775,-0.18232204,0.384549,0.42298791,-0.20706942,0.391618,0.48364793,-0.24378052,0.441041,0.45026173,-0.19990337,0.412219,0.44500643,-0.20268869,0.398977,0.43980735,-0.21184918,0.387293
0.46670007,-0.34111664,0.479632,0.43949151,-0.28288976,0.457977,0.43622702,-0.3212369,0.469007,0.38938458,-0.27941046,0.451152,0.36121205,-0.25011527,0.440144,0.34822091,-0.22771595,0.433834,0.39089714,-0.2154016,0.427206,0.39835963,-0.17342736,0.423135,0.40103423,-0.15627058,0.4211,0.40623867,-0.14046645,0.41925,0.41999656,-0.22050027,0.432386,0.40560641,-0.16905286,0.418939,0.4023391,-0.14577525,0.411095,0.42058315,-0.14561639,0.424246,0.4456257,-0.22875195,0.438326,0.42713187,-0.17887966,0.406274,0.41265278,-0.19086427,0.389876,0.41640866,-0.21511021,0.396204,0.47934164,-0.24654382,0.448613,0.44936976,-0.2070712,0.4187,0.44183071,-0.21445913,0.404956,0.43423055,-0.22385666,0.392829
0.47280529,-0.34476769,0.489415,0.44451914,-0.2780602,0.468696,0.43462235,-0.31903965,0.480277,0.39775841,-0.2779722,0.463328,0.36519331,-0.24631657,0.44775,0.34945348,-0.22282583,0.439322,0.39484074,-0.21161448,0.440517,0.3971569,-0.16904929,0.432777,0.39820603,-0.1501437,0.428907,0.39932896,-0.13247097,0.425389,0.42282391,-0.21532045,0.444212,0.40698083,-0.16404351,0.42948,0.40032755,-0.14311711,0.420886,0.41375071,-0.13327181,0.433736,0.4478554,-0.22241299,0.448859,0.42415624,-0.21015671,0.41833,0.40059727,-0.22459428,0.40271,0.4023856,-0.23501763,0.409967,0.48150235,-0.23890295,0.457464,0.45705829,-0.20321396,0.428762,0.44273667,-0.21411423,0.415575,0.42956006,-0.22456759,0.403939
0.46570324,-0.33841399,0.492766,0.4483818,-0.2783617,0.47467,0.43794737,-0.3186287,0.485714,0.40112322,-0.27554445,0.472195,0.37020353,-0.24490976,0.45966,0.35584254,-0.22245157,0.453244,0.40068349,-0.21197645,0.451197,0.40455432,-0.16999105,0.447114,0.40579401,-0.15065656,0.445073,0.40698656,-0.13249073,0.443218,0.42716119,-0.21447898,0.453286,0.41380425,-0.16492101,0.442603,0.4071876,-0.14316179,0.436371,0.41977084,-0.13227031,0.450533,0.45081296,-0.22043406,0.456407,0.42640829,-0.20544962,0.429101,0.40547619,-0.22165962,0.415131,0.41075358,-0.23510204,0.424124,0.4825712,-0.23529714,0.462806,0.45731149,-0.19782701,0.436799,0.44409434,-0.20861372,0.424849,0.43229282,-0.2195689,0.414306
0.47502858,-0.33733393,0.505277,0.45313016,-0.27315014,0.48711,0.44251438,-0.31534172,0.493881,0.40060882,-0.27176484,0.476644,0.37003662,-0.24396491,0.465943,0.35594835,-0.22335028,0.457818,0.3995397,-0.20931018,0.458252,0.40746936,-0.17135864,0.463518,0.41460313,-0.15309288,0.466151,0.42172185,-0.13670408,0.468545,0.43025893,-0.21268648,0.46564,0.42244882,-0.16847164,0.46605,0.4238396,-0.14490019,0.466289,0.42488902,-0.12692268,0.466459,0.45752499,-0.2193332,0.473127,0.44408332,-0.2045943,0.443461,0.42475577,-0.22092801,0.428282,0.42279388,-0.23906642,0.435711,0.49379933,-0.23491255,0.484742,0.47379533,-0.23276017,0.457076,0.46570418,-0.24331962,0.444365,0.46990179,-0.24803403,0.449467
0.47795713,-0.33639476,0.509556,0.45627523,-0.27349045,0.491948,0.44507007,-0.31212653,0.499327,0.40553387,-0.2695532,0.484405,0.37831915,-0.24228949,0.477258,0.36266031,-0.22470273,0.470679,0.40377716,-0.2105655,0.46498,0.41136309,-0.17255235,0.472067,0.41840625,-0.15409277,0.475611,0.4280925,-0.13850592,0.478832,0.43357508,-0.21330491,0.47114,0.42540969,-0.16919471,0.473697,0.42667337,-0.14534156,0.475189,0.43064271,-0.12836528,0.476254,0.46001089,-0.21939823,0.477573,0.44359742,-0.19976928,0.448929,0.42535175,-0.21628335,0.434275,0.42803128,-0.23699215,0.442427,0.4952204,-0.23424442,0.487848,0.47268236,-0.22737234,0.46097,0.46592871,-0.23870418,0.448621,0.47324081,-0.24779107,0.454268
0.48059021,-0.33747645,0.51461,0.45894655,-0.27575755,0.497155,0.44742065,-0.31351401,0.504332,0.40552552,-0.27097547,0.487659,0.37875117,-0.24362406,0.480744,0.36771847,-0.2247814,0.47954,0.40551023,-0.21127292,0.470252,0.41664326,-0.17524224,0.478513,0.42435555,-0.15680104,0.482644,0.43173862,-0.13956894,0.486399,0.43535657,-0.21450983,0.476527,0.43252228,-0.17588314,0.482918,0.43682275,-0.15351872,0.486647,0.43962317,-0.13350741,0.48931,0.46184499,-0.22098435,0.483043,0.44662027,-0.20389162,0.454498,0.4293189,-0.22053427,0.439894,0.43225675,-0.24002434,0.448084,0.49713265,-0.23626364,0.493394,0.47639129,-0.2304977,0.466612,0.47061133,-0.24184536,0.454307,0.47836083,-0.25088293,0.459987
0.48280457,-0.33530266,0.519374,0.4615803,-0.27667522,0.502826,0.4508037,-0.31501748,0.509018,0.40837472,-0.27293517,0.493319,0.38196616,-0.24554555,0.486673,0.37100502,-0.22607796,0.483634,0.40844886,-0.21410837,0.476569,0.41939365,-0.18099849,0.488459,0.42832307,-0.16302359,0.494404,0.43996652,-0.14453892,0.499809,0.43851965,-0.21751991,0.48327,0.43736479,-0.17926351,0.491837,0.4381336,-0.155762,0.496835,0.44532635,-0.13852825,0.500405,0.46515543,-0.22407954,0.490065,0.45095435,-0.20761728,0.462219,0.43543719,-0.22423744,0.447972,0.43808736,-0.24261847,0.456463,0.50056309,-0.23935007,0.500616,0.48142478,-0.23207109,0.474479,0.4766369,-0.24373453,0.46247,0.48445566,-0.25265305,0.468401
0.48481329,-0.33583976,0.522972,0.46315959,-0.27811147,0.508427,0.4519192,-0.31377595,0.513192,0.4124007,-0.2750535,0.500485,0.38724401,-0.25045539,0.499773,0.37803399,-0.23064815,0.496363,0.41087004,-0.2169846,0.48452,0.42380003,-0.18427644,0.497419,0.42847197,-0.16624328,0.503869,0.440498,-0.14862709,0.509732,0.44096351,-0.21949401,0.491239,0.44021361,-0.18302314,0.502351,0.4401016,-0.15950577,0.508832,0.44225018,-0.1416567,0.513462,0.46445358,-0.22392421,0.497895,0.44934715,-0.20672276,0.471983,0.43573738,-0.22352233,0.458726,0.444091,-0.24638534,0.468163,0.49999254,-0.23746734,0.507983,0.48032775,-0.22919008,0.483539,0.47736498,-0.24148367,0.472309,0.4893233,-0.25342154,0.479001
0.48486202,-0.33569105,0.524368,0.4629973,-0.27860061,0.511274,0.45247303,-0.31453002,0.51523,0.41530745,-0.27734114,0.504807,0.38928239,-0.25010198,0.498737,0.37921372,-0.23114672,0.497966,0.4104161,-0.22015024,0.489341,0.4239246,-0.18863322,0.503731,0.43242461,-0.17078034,0.510926,0.44028604,-0.15341657,0.517466,0.4401508,-0.2221141,0.495799,0.43843698,-0.18645296,0.506577,0.4420261,-0.16378795,0.512865,0.44480076,-0.14682093,0.517356,0.46645749,-0.22726684,0.502127,0.45355144,-0.21016534,0.47774,0.44102076,-0.22731886,0.465262,0.44894117,-0.24999917,0.47545,0.50136065,-0.24043715,0.511609,0.48374741,-0.2322796,0.488482,0.48153012,-0.24487147,0.477856,0.49334589,-0.25633474,0.485145
