sluyters/QuantumLeap/backend/src/datasets/dynamic/HandGestureDataset_SHREC2017_csv/Gesture10/finger_1/subject_8_essai_1_skeletons_world.csv
Wrist_x,Wrist_y,Wrist_z,Palm_x,Palm_y,Palm_z,thumb_base_x,thumb_base_y,thumb_base_z,thumb_first_joint_x,thumb_first_joint_y,thumb_first_joint_z,thumb_second_joint_x,thumb_second_joint_y,thumb_second_joint_z,thumb_tip_x,thumb_tip_y,thumb_tip_z,index_base_x,index_base_y,index_base_z,index_first_joint_x,index_first_joint_y,index_first_joint_z,index_second_joint_x,index_second_joint_y,index_second_joint_z,index_tip_x,index_tip_y,index_tip_z,middle_base_x,middle_base_y,middle_base_z,middle_first_joint_x,middle_first_joint_y,middle_first_joint_z,middle_second_joint_x,middle_second_joint_y,middle_second_joint_z,middle_tip_x,middle_tip_y,middle_tip_z,ring_base_x,ring_base_y,ring_base_z,ring_first_joint_x,ring_first_joint_y,ring_first_joint_z,ring_second_joint_x,ring_second_joint_y,ring_second_joint_z,ring_tip_x,ring_tip_y,ring_tip_z,pinky_base_x,pinky_base_y,pinky_base_z,pinky_first_joint_x,pinky_first_joint_y,pinky_first_joint_z,pinky_second_joint_x,pinky_second_joint_y,pinky_second_joint_z,pinky_tip_x,pinky_tip_y,pinky_tip_z,
0.52496965,-0.30338225,0.556113,0.50495195,-0.24802622,0.527738,0.4965127,-0.28700768,0.543345,0.47893259,-0.25781016,0.514299,0.45500266,-0.23163145,0.50243,0.44735275,-0.21096312,0.489046,0.45837439,-0.20005344,0.496124,0.45177761,-0.16528294,0.498242,0.44834059,-0.14732039,0.499301,0.44513335,-0.13064551,0.500264,0.48863474,-0.20548437,0.505031,0.47194523,-0.17408905,0.472708,0.48813398,-0.20036842,0.485643,0.50003896,-0.2229647,0.501396,0.51581371,-0.2147716,0.514943,0.49147782,-0.17660078,0.483122,0.48171743,-0.18327522,0.466841,0.48174356,-0.19961671,0.466824,0.55153655,-0.23442275,0.531094,0.52794054,-0.21181211,0.503017,0.51713045,-0.20138214,0.490116,0.51072486,-0.20410834,0.478734
0.53678805,-0.31722269,0.558252,0.5064236,-0.26057359,0.529116,0.50443324,-0.29801968,0.545736,0.48036495,-0.26973934,0.516852,0.45072044,-0.24012407,0.497316,0.4424266,-0.21906815,0.48362,0.45818312,-0.21314601,0.497418,0.44521555,-0.17768955,0.491062,0.43861038,-0.15939899,0.487885,0.43252913,-0.14242205,0.484996,0.48794638,-0.21734733,0.505799,0.47092816,-0.18815616,0.472885,0.48677652,-0.21610699,0.485649,0.49314591,-0.23536776,0.501562,0.51491506,-0.22567031,0.515349,0.49065221,-0.19393371,0.483146,0.48217862,-0.19790344,0.46667,0.48269495,-0.21412712,0.46645,0.550793,-0.24426167,0.531198,0.52717578,-0.22211538,0.502768,0.51662045,-0.21173618,0.489706,0.51035603,-0.21399112,0.47818
0.52067668,-0.30811588,0.542104,0.48017609,-0.25835943,0.505546,0.49799815,-0.29552231,0.539348,0.47189204,-0.28405289,0.522658,0.44087542,-0.26104959,0.512758,0.42733365,-0.24301517,0.509408,0.43240618,-0.2200371,0.482391,0.41788382,-0.18210445,0.470159,0.41058095,-0.16275879,0.464043,0.40391579,-0.14493392,0.458483,0.44974405,-0.2190986,0.476289,0.40934502,-0.18607484,0.440227,0.41202279,-0.21121866,0.447437,0.42751341,-0.23155258,0.462744,0.46768935,-0.22277733,0.474589,0.42546457,-0.19429205,0.443761,0.40372794,-0.18407191,0.427988,0.39695829,-0.19468208,0.424725,0.49522168,-0.23508609,0.478492,0.45214488,-0.21094675,0.450773,0.43329198,-0.20674995,0.438037,0.4219799,-0.21316826,0.4268
0.528155,-0.3194008,0.546498,0.48285003,-0.27930424,0.508582,0.49888027,-0.32007045,0.542972,0.47434675,-0.30666999,0.525427,0.442441,-0.28274321,0.514727,0.42826385,-0.26396617,0.510543,0.43404937,-0.23896832,0.48371,0.4179198,-0.20166341,0.469759,0.40976562,-0.18272572,0.462784,0.4023226,-0.16527062,0.456442,0.45202251,-0.23882498,0.478239,0.40582305,-0.22224873,0.441207,0.41092618,-0.24842492,0.447003,0.42915205,-0.26355886,0.462218,0.47058137,-0.24330661,0.477182,0.42516133,-0.21795847,0.44531,0.40986106,-0.22812319,0.429004,0.41124458,-0.23657876,0.424551,0.49898559,-0.25683432,0.482053,0.45519918,-0.23252979,0.453551,0.43592087,-0.22793927,0.440456,0.42409739,-0.23392149,0.428901
0.52043962,-0.33606196,0.546366,0.48051377,-0.28931769,0.508246,0.49761093,-0.32503999,0.542598,0.47177971,-0.31699715,0.52473,0.44111642,-0.29404767,0.515595,0.42548338,-0.27435045,0.509823,0.43118096,-0.24875995,0.482954,0.41499841,-0.21182669,0.469251,0.40681147,-0.19307252,0.462399,0.39933608,-0.17578184,0.45617,0.4493679,-0.24865016,0.47774,0.40302851,-0.23206858,0.440508,0.40820212,-0.25820403,0.446188,0.42650506,-0.27333395,0.461439,0.4681572,-0.25318397,0.476913,0.42244455,-0.22782841,0.444789,0.40723373,-0.23761151,0.428353,0.40862456,-0.24558784,0.423756,0.49692313,-0.26681985,0.482086,0.45288316,-0.24246486,0.453386,0.4335415,-0.23786308,0.440199,0.42177035,-0.24365031,0.428564
0.51962777,-0.34644921,0.546457,0.4805497,-0.29947127,0.508284,0.49667974,-0.33534514,0.542592,0.47165114,-0.32738837,0.524587,0.4409051,-0.30430346,0.515348,0.42511199,-0.28436019,0.509378,0.43107829,-0.258587,0.482839,0.41493385,-0.2218371,0.469178,0.4067666,-0.20318109,0.462348,0.39930894,-0.18598201,0.456139,0.44936414,-0.25860426,0.477736,0.40296172,-0.24194105,0.440435,0.40813534,-0.26813454,0.446115,0.4264607,-0.2833168,0.461391,0.46824653,-0.26326867,0.477004,0.4224417,-0.23780859,0.444786,0.40718619,-0.24727457,0.428303,0.40855223,-0.25491587,0.423681,0.49714166,-0.27710504,0.482298,0.45301901,-0.25259186,0.453522,0.43364196,-0.24793852,0.440301,0.42184022,-0.25355464,0.428635
0.51747223,-0.35725581,0.547356,0.48438646,-0.30692212,0.5079,0.49543957,-0.33848481,0.542206,0.46095966,-0.31228491,0.521379,0.43622758,-0.29648007,0.503615,0.42181559,-0.27744185,0.489411,0.44209836,-0.25737569,0.480115,0.41316468,-0.22759967,0.462642,0.39852241,-0.21243342,0.453905,0.38509911,-0.19846703,0.445963,0.46006385,-0.26367807,0.476324,0.41792458,-0.22772166,0.437971,0.41332953,-0.25112736,0.442393,0.42342626,-0.27580012,0.457654,0.47799156,-0.27389023,0.476789,0.43125143,-0.25794993,0.443257,0.41014968,-0.26577606,0.426102,0.4071787,-0.27270634,0.42031,0.50446839,-0.29492487,0.483688,0.46640789,-0.26093838,0.455313,0.44738561,-0.25332605,0.442276,0.43215852,-0.25795511,0.430773
0.51265651,-0.37052342,0.555472,0.48511336,-0.32980571,0.517621,0.47555852,-0.35832576,0.540012,0.45979601,-0.34324602,0.511766,0.44813943,-0.3317345,0.488573,0.44337046,-0.31944058,0.470487,0.43917007,-0.2878726,0.477467,0.42095398,-0.25285321,0.457826,0.41184351,-0.23504552,0.448005,0.40356022,-0.21866333,0.439077,0.47019342,-0.29523781,0.48733,0.44761965,-0.25489877,0.449683,0.4480042,-0.27290194,0.445099,0.45617033,-0.2947906,0.456781,0.49775385,-0.30525414,0.498891,0.47131355,-0.28706632,0.462114,0.45717692,-0.29013105,0.443298,0.44728517,-0.299765,0.433664,0.53329364,-0.32402614,0.518494,0.50028349,-0.33532044,0.486967,0.48558625,-0.3274202,0.472482,0.47780696,-0.32378415,0.464765
0.50433741,-0.38404667,0.556343,0.48596996,-0.35070648,0.518535,0.47618906,-0.37908004,0.540728,0.45824709,-0.36244897,0.510042,0.44433839,-0.34938028,0.484429,0.43948509,-0.33705706,0.466364,0.43984888,-0.30831457,0.478205,0.42120224,-0.27329861,0.458096,0.41187661,-0.25552405,0.448041,0.40339753,-0.23919229,0.4389,0.47110905,-0.3160158,0.488279,0.44883704,-0.27565601,0.450906,0.44520807,-0.29145134,0.442321,0.45113407,-0.31188302,0.451738,0.4988693,-0.32632018,0.500009,0.47265371,-0.30832361,0.463428,0.45863519,-0.31128557,0.444712,0.44819899,-0.31996098,0.43455,0.53464103,-0.34544869,0.519804,0.50187485,-0.35619413,0.488516,0.48729126,-0.34728062,0.474141,0.47912288,-0.34264376,0.466045
0.49316906,-0.39552668,0.547022,0.4755821,-0.35815901,0.510181,0.46529677,-0.37958607,0.530974,0.45024689,-0.36993145,0.500656,0.43932317,-0.35514578,0.47475,0.43679768,-0.34205153,0.457222,0.43222897,-0.31323733,0.469812,0.41480324,-0.27939733,0.447279,0.40613097,-0.26224322,0.436012,0.39827389,-0.24649442,0.425769,0.46347881,-0.32207335,0.480698,0.44437785,-0.28075439,0.443779,0.44039801,-0.29739819,0.435275,0.44461367,-0.31669081,0.444501,0.49087519,-0.33346899,0.493009,0.46475602,-0.29047813,0.458,0.45320071,-0.2907215,0.440089,0.45055854,-0.3047468,0.436091,0.52563276,-0.35415118,0.513325,0.4941868,-0.36413867,0.482158,0.47871173,-0.35817342,0.467838,0.47034052,-0.35546028,0.460321
0.48332204,-0.39110317,0.534745,0.46721359,-0.35253555,0.497844,0.45511313,-0.38129577,0.518517,0.44282675,-0.36762217,0.48668,0.43996764,-0.36152708,0.463709,0.4365027,-0.34892816,0.445694,0.42648357,-0.31210259,0.457212,0.40762283,-0.27985899,0.433013,0.39823834,-0.26354051,0.420913,0.38973784,-0.24857477,0.409913,0.45782286,-0.32013432,0.468312,0.4413068,-0.29242819,0.431965,0.4411076,-0.31517367,0.430035,0.44781366,-0.33451761,0.442577,0.48200119,-0.32797207,0.480805,0.46079362,-0.29825738,0.444864,0.44565659,-0.30466161,0.426475,0.43297034,-0.31003051,0.415771,0.51681879,-0.34814999,0.501344,0.49637416,-0.30991859,0.470578,0.48667838,-0.31315406,0.456442,0.4825602,-0.31878735,0.448171
0.48008109,-0.41718836,0.527994,0.46487814,-0.36982008,0.491985,0.45209592,-0.40028285,0.511402,0.44044643,-0.38525904,0.479714,0.43340271,-0.3749415,0.455684,0.4269862,-0.35965276,0.438015,0.42061501,-0.32339706,0.451366,0.40272325,-0.2952555,0.426525,0.39385811,-0.28102451,0.414104,0.38585447,-0.26798002,0.402813,0.45240547,-0.33224275,0.463168,0.43633816,-0.30387605,0.427115,0.43800165,-0.32770703,0.42668,0.44424356,-0.3455612,0.439585,0.48033777,-0.3437998,0.476158,0.45852595,-0.32299895,0.440266,0.44286909,-0.32856629,0.421902,0.43143907,-0.33426753,0.412167,0.51585541,-0.3649683,0.497135,0.49176268,-0.32554848,0.466284,0.48211141,-0.32887743,0.45211,0.47906234,-0.33545898,0.444774
0.48100783,-0.42275121,0.527758,0.46568928,-0.37882764,0.491925,0.45266673,-0.4056545,0.510991,0.43792499,-0.39141853,0.479063,0.43403874,-0.38197179,0.454466,0.4276642,-0.36284802,0.437127,0.42007478,-0.33096778,0.451175,0.40201425,-0.30407656,0.426006,0.39306969,-0.29049538,0.413421,0.38499643,-0.27805745,0.40198,0.45217341,-0.33947955,0.463249,0.43690659,-0.31406401,0.427714,0.43709879,-0.33680938,0.425965,0.44324622,-0.35473996,0.438271,0.48050058,-0.35094719,0.476446,0.45990977,-0.33364855,0.440956,0.4449847,-0.3389266,0.422798,0.43322681,-0.34354677,0.412315,0.51673491,-0.37236259,0.497636,0.49081122,-0.3261825,0.466479,0.48165056,-0.3283759,0.452164,0.47746745,-0.33578805,0.445762
0.47319056,-0.45848747,0.509688,0.45627705,-0.40249514,0.47845,0.44298021,-0.4388926,0.491757,0.43035282,-0.41150716,0.463177,0.42524684,-0.3910381,0.436134,0.42235691,-0.37227284,0.421054,0.40848271,-0.34887033,0.438672,0.39463961,-0.32064779,0.418798,0.38781144,-0.30628787,0.408861,0.38166601,-0.29306713,0.399827,0.44235966,-0.35856711,0.453451,0.43028577,-0.32565965,0.42069,0.43946328,-0.35149049,0.422897,0.44727076,-0.37336009,0.435441,0.47231911,-0.37148001,0.468457,0.45547881,-0.34681942,0.434654,0.4451899,-0.35170962,0.417359,0.43888181,-0.36037974,0.409832,0.51072639,-0.39552804,0.491021,0.48402127,-0.34835381,0.462102,0.47876619,-0.34277643,0.448815,0.47974825,-0.35251596,0.444672
0.47355914,-0.46399942,0.510085,0.45683494,-0.41309673,0.479035,0.44327658,-0.44426698,0.492086,0.42983622,-0.42117458,0.462621,0.42496018,-0.40086309,0.43584,0.42181524,-0.38184052,0.420514,0.40904049,-0.3591267,0.439271,0.3951805,-0.3311075,0.419372,0.38834451,-0.31686292,0.409423,0.38219199,-0.30375583,0.400378,0.44307668,-0.3690843,0.454186,0.43122368,-0.33635238,0.421607,0.44033307,-0.36241841,0.423734,0.448036,-0.38430859,0.436186,0.47315696,-0.38221895,0.469288,0.45648166,-0.35771973,0.435611,0.44627898,-0.36246854,0.41838,0.43995269,-0.37089664,0.410832,0.51167499,-0.40653675,0.491933,0.48380487,-0.35679767,0.463354,0.47853076,-0.34962525,0.450223,0.48152103,-0.35698319,0.446904
0.46913751,-0.46363617,0.506352,0.4527265,-0.41338536,0.475126,0.43906082,-0.44434042,0.488078,0.42649625,-0.42450455,0.457496,0.42871666,-0.40866394,0.433073,0.42697878,-0.38993397,0.416457,0.40654922,-0.36675218,0.434914,0.39078022,-0.33844609,0.410756,0.38300395,-0.32416704,0.398677,0.37602205,-0.31112739,0.387696,0.44013921,-0.37546599,0.450136,0.43277898,-0.34470158,0.418006,0.43898169,-0.36923697,0.417912,0.44418167,-0.38938082,0.429505,0.46957205,-0.38728415,0.465507,0.45154505,-0.35451346,0.432166,0.44262738,-0.35892587,0.415108,0.43411175,-0.36203611,0.40621,0.50747866,-0.40658339,0.488495,0.48113311,-0.3577754,0.45979,0.47828301,-0.35968466,0.446601,0.4754418,-0.36783605,0.440398
0.4649822,-0.46911988,0.503282,0.44957031,-0.42424817,0.472656,0.43530891,-0.45013238,0.484908,0.42323366,-0.43051427,0.454328,0.42546247,-0.4138853,0.429719,0.42385854,-0.39084985,0.413257,0.40460452,-0.37249287,0.432639,0.39033551,-0.3438792,0.409452,0.38332275,-0.32942936,0.397858,0.37634967,-0.31352313,0.387318,0.43824462,-0.38207078,0.448147,0.43171158,-0.35050704,0.416396,0.43841302,-0.37563707,0.4168,0.44325245,-0.39234134,0.428412,0.46762055,-0.39466719,0.463699,0.45057526,-0.36388046,0.430613,0.44230822,-0.36817971,0.413686,0.43263815,-0.36856377,0.405171,0.5046637,-0.41791194,0.486801,0.48068779,-0.36923717,0.458434,0.47704966,-0.36713046,0.445401,0.47430291,-0.37536176,0.439311
0.46295319,-0.4758613,0.501764,0.44687332,-0.42568572,0.470183,0.43327644,-0.45686142,0.483539,0.42268514,-0.43638844,0.453354,0.42395382,-0.41521548,0.428232,0.42235419,-0.39581608,0.41194,0.39769268,-0.37415173,0.429844,0.38496168,-0.34818518,0.40656,0.37875664,-0.3350981,0.394918,0.37322399,-0.32313022,0.384334,0.43218744,-0.3848312,0.44491,0.42156909,-0.36496234,0.412634,0.43284351,-0.38676037,0.411979,0.44423061,-0.41356358,0.423449,0.46277643,-0.39861009,0.460184,0.44714834,-0.36345552,0.426762,0.43666143,-0.37100126,0.409663,0.424587,-0.37052752,0.400384,0.50207722,-0.4237845,0.483116,0.47709268,-0.37282707,0.454333,0.47198473,-0.37107769,0.441108,0.46821165,-0.37509578,0.434551
0.50682242,-0.39970159,0.437187,0.45138585,-0.37967247,0.42723,0.49080438,-0.40212946,0.428022,0.46596539,-0.4189824,0.437852,0.42799476,-0.41154845,0.426856,0.40653705,-0.40784216,0.426078,0.40926401,-0.37182667,0.410124,0.4010798,-0.40690519,0.4194,0.40845621,-0.42262272,0.424038,0.43030733,-0.44711349,0.439667,0.41258171,-0.3650273,0.419261,0.3871572,-0.37886939,0.402372,0.42497839,-0.40681526,0.422299,0.45474343,-0.41099991,0.434664,0.41921917,-0.36004865,0.42769,0.39329561,-0.37242981,0.409652,0.39902351,-0.37295711,0.400423,0.4249301,-0.37452017,0.408487,0.43474257,-0.35550327,0.43914,0.41344026,-0.37379586,0.422661,0.4201165,-0.37691015,0.415089,0.43947578,-0.37851539,0.420788
0.49827293,-0.40038019,0.430343,0.44696704,-0.38692009,0.424243,0.48859044,-0.40592709,0.426706,0.467541,-0.43271494,0.437757,0.43358422,-0.43759711,0.430973,0.41567921,-0.44084091,0.433361,0.41430584,-0.38152875,0.416301,0.41201573,-0.41881093,0.42361,0.42627348,-0.43090498,0.427264,0.45863347,-0.44278809,0.443266,0.4113459,-0.37226225,0.419361,0.39035884,-0.39406808,0.406345,0.43214004,-0.42632059,0.428797,0.4615549,-0.42990203,0.440552,0.41251715,-0.36559944,0.422435,0.39081186,-0.38532526,0.409612,0.40019441,-0.38391234,0.403051,0.42910047,-0.3823342,0.414173,0.42097524,-0.35969258,0.42701,0.40366854,-0.3827072,0.414568,0.40711441,-0.39153001,0.408851,0.42330836,-0.41208855,0.41681
0.49175491,-0.39501639,0.42331,0.4457574,-0.3799183,0.420871,0.48580266,-0.40145782,0.422151,0.47445605,-0.42478266,0.437578,0.44503098,-0.43273904,0.434924,0.42647051,-0.43538469,0.437389,0.42516288,-0.37941202,0.418075,0.41954842,-0.4148485,0.420298,0.42525668,-0.43077907,0.42141,0.45452627,-0.44633753,0.436557,0.41716572,-0.37091595,0.418919,0.39937502,-0.39925004,0.409551,0.43742348,-0.4381436,0.432639,0.46459292,-0.43755587,0.443275,0.41182439,-0.36401324,0.419837,0.3952679,-0.39116903,0.410932,0.40243157,-0.3957414,0.406377,0.43114859,-0.39391462,0.418954,0.41551644,-0.35686326,0.421301,0.40065887,-0.38246594,0.41211,0.40476266,-0.39310264,0.407888,0.42296669,-0.41414357,0.416964
0.47165154,-0.37778203,0.404458,0.44630515,-0.37610366,0.41631,0.47477912,-0.39034331,0.410973,0.47197283,-0.42013865,0.435063,0.44922187,-0.4259609,0.436928,0.43647899,-0.43171204,0.44518,0.43937258,-0.38846866,0.431033,0.41872867,-0.41415299,0.437595,0.42309112,-0.43610163,0.440876,0.45481939,-0.4605066,0.456703,0.42765734,-0.37183717,0.425795,0.42558337,-0.41459184,0.431199,0.45884646,-0.45882666,0.453642,0.48236853,-0.46084221,0.458732,0.41925433,-0.36037075,0.420406,0.39094224,-0.38116404,0.426574,0.4037062,-0.40106304,0.429729,0.43831714,-0.41671914,0.445875,0.41347274,-0.34711814,0.4122,0.40699224,-0.38352752,0.415852,0.4138289,-0.40204325,0.417529,0.42367642,-0.41641509,0.41901
0.46311974,-0.37035864,0.396091,0.4501998,-0.37832992,0.419103,0.47169877,-0.38666068,0.407237,0.4728924,-0.42018606,0.435605,0.45726603,-0.43363937,0.444324,0.44953732,-0.44453244,0.45785,0.45491359,-0.40098685,0.445759,0.452585,-0.44724822,0.46423,0.4687162,-0.47603819,0.473466,0.50532214,-0.49747953,0.490219,0.43975233,-0.38239929,0.43752,0.4495239,-0.43794912,0.455054,0.47991967,-0.47965231,0.474094,0.49873605,-0.47710857,0.473728,0.42783905,-0.36781587,0.428644,0.40970624,-0.39951241,0.446643,0.42866665,-0.4259101,0.455851,0.46534766,-0.44247895,0.472907,0.41629179,-0.34958038,0.414569,0.41788387,-0.39594531,0.428588,0.42251769,-0.41694789,0.435544,0.43285866,-0.43846481,0.441681
0.46250787,-0.36982876,0.395246,0.44989678,-0.37789046,0.418944,0.47137355,-0.3859594,0.406615,0.47250638,-0.41991282,0.43574,0.45325058,-0.43049429,0.441281,0.44464273,-0.44027851,0.453726,0.45517021,-0.4007919,0.446252,0.45005608,-0.44525108,0.465432,0.46713685,-0.47719096,0.475022,0.49841118,-0.4994338,0.491774,0.43869746,-0.38379909,0.437908,0.44981399,-0.43876047,0.456198,0.48007604,-0.48027355,0.474948,0.49862141,-0.47796721,0.474218,0.42750269,-0.36782244,0.428884,0.40991146,-0.39999246,0.447597,0.42911202,-0.4268029,0.457171,0.46579895,-0.44345628,0.474226,0.41390534,-0.34936119,0.414525,0.41646929,-0.39430273,0.429179,0.42156143,-0.41691951,0.436159,0.43177967,-0.43846332,0.442318
0.46327743,-0.37041513,0.395674,0.45011386,-0.37796201,0.41922,0.47214945,-0.38628479,0.407041,0.47259999,-0.42003784,0.436121,0.45322044,-0.43079783,0.441682,0.44457064,-0.44050093,0.454084,0.45521834,-0.40058176,0.446444,0.45039514,-0.4457407,0.465509,0.4661191,-0.47707421,0.475042,0.49849328,-0.50044278,0.491788,0.43879379,-0.38357827,0.438062,0.4493993,-0.43862064,0.456203,0.47969342,-0.48016969,0.474989,0.49835482,-0.47829297,0.474324,0.42735229,-0.36784108,0.429022,0.40958865,-0.3998176,0.44761,0.42866754,-0.42658614,0.457121,0.46531807,-0.44327279,0.474167,0.41416263,-0.34944535,0.414667,0.41597217,-0.39395274,0.429209,0.42092682,-0.41659754,0.436037,0.43096226,-0.4379977,0.442061
0.46189405,-0.36956778,0.393745,0.45122696,-0.37666876,0.418371,0.47285931,-0.38661435,0.406104,0.47102655,-0.41799489,0.43416,0.4530467,-0.42962529,0.44116,0.4460045,-0.44014583,0.454902,0.46517877,-0.39564686,0.447449,0.45941556,-0.4412256,0.46823,0.47205065,-0.47644808,0.478621,0.50457632,-0.50421969,0.495227,0.44854111,-0.37798808,0.438078,0.45293334,-0.43676902,0.457686,0.48013539,-0.47977403,0.475528,0.49792696,-0.47784386,0.474036,0.4356681,-0.36320236,0.428125,0.41881386,-0.39421442,0.448329,0.43791029,-0.42225572,0.458666,0.47020837,-0.44324995,0.475535,0.42224841,-0.34557842,0.412529,0.41799248,-0.39041692,0.428484,0.42136761,-0.41492835,0.435814,0.43148292,-0.43691071,0.44247
0.46154351,-0.36950547,0.392757,0.45125554,-0.37601704,0.417413,0.47279376,-0.38646464,0.405344,0.47097727,-0.41768801,0.433639,0.4524454,-0.42849638,0.440047,0.44540788,-0.43845676,0.453511,0.46489496,-0.3955271,0.446798,0.45816002,-0.44013045,0.467815,0.46823003,-0.47067273,0.478323,0.49956122,-0.50239255,0.494878,0.44796078,-0.37761445,0.437144,0.45277783,-0.43530816,0.456879,0.47918636,-0.478318,0.474539,0.49683222,-0.476843,0.472943,0.4348484,-0.36262694,0.426955,0.41818182,-0.39383424,0.447357,0.43739879,-0.4220117,0.457796,0.47061221,-0.44183898,0.474601,0.42114723,-0.34477231,0.411079,0.41746977,-0.38864957,0.427202,0.42072875,-0.4131527,0.434609,0.43053346,-0.43510848,0.441275
0.46163117,-0.36914708,0.391951,0.45591626,-0.37471441,0.41612,0.47239783,-0.38556596,0.404186,0.47383287,-0.41694253,0.433786,0.45992218,-0.4233728,0.441377,0.45115932,-0.4334013,0.4543,0.46337668,-0.39338981,0.444794,0.45608343,-0.43724416,0.465119,0.46352724,-0.46650323,0.475281,0.49620396,-0.49902951,0.491897,0.44715118,-0.37549922,0.435463,0.45243886,-0.43030998,0.454569,0.47733619,-0.47164582,0.472613,0.49540307,-0.47515612,0.471366,0.43468528,-0.36054259,0.425583,0.41746235,-0.39114416,0.445322,0.43611607,-0.41905133,0.455421,0.47302155,-0.43735657,0.472299,0.42524698,-0.34027072,0.410148,0.417297,-0.37749639,0.425685,0.41821719,-0.39981332,0.432824,0.42222374,-0.42090455,0.439123
0.46299709,-0.37043044,0.391903,0.45388081,-0.37465633,0.416528,0.47259622,-0.38534026,0.403902,0.47207393,-0.41645507,0.43348,0.4575665,-0.42241921,0.439933,0.44870495,-0.43177289,0.452812,0.46353711,-0.39327157,0.445144,0.45635651,-0.43721305,0.465592,0.46379828,-0.46651203,0.475816,0.49660131,-0.49901348,0.492494,0.44791965,-0.37559924,0.436235,0.45357299,-0.43063574,0.455691,0.47837917,-0.47234642,0.473798,0.49644347,-0.47598769,0.472444,0.43592424,-0.36077037,0.426662,0.41880721,-0.39155267,0.446594,0.43744407,-0.41962336,0.456792,0.47450083,-0.43832011,0.473756,0.42361885,-0.34305679,0.411511,0.41342645,-0.37410658,0.427238,0.41089426,-0.3935701,0.434464,0.41220807,-0.41357642,0.44084
0.46425425,-0.37000017,0.391665,0.45593659,-0.37294122,0.416018,0.47372134,-0.38437245,0.403547,0.47476295,-0.41325607,0.433173,0.4576796,-0.42167717,0.440378,0.4500619,-0.4280793,0.453313,0.4627717,-0.39014866,0.444337,0.45523533,-0.43347522,0.464472,0.46149709,-0.46273289,0.474539,0.49214954,-0.49451163,0.491232,0.4478516,-0.37221744,0.435507,0.45320702,-0.42637144,0.454646,0.47745838,-0.46852408,0.472902,0.49554975,-0.47462115,0.47171,0.43649089,-0.35719534,0.426024,0.41905475,-0.38744845,0.445646,0.43708984,-0.41544981,0.455686,0.47342339,-0.43620873,0.472664,0.42504191,-0.33929745,0.411023,0.41285941,-0.3715303,0.426474,0.41143544,-0.39159832,0.433573,0.41481435,-0.4120087,0.439837
0.46551795,-0.37029522,0.391969,0.45667793,-0.37066192,0.416316,0.47585517,-0.38535664,0.404823,0.47548019,-0.41342859,0.434345,0.45802253,-0.4216159,0.441185,0.4502773,-0.42794436,0.454013,0.46299736,-0.38746803,0.445881,0.45075965,-0.42501363,0.466921,0.45273367,-0.45271559,0.477442,0.47854223,-0.48568717,0.49392,0.44701711,-0.36875352,0.435801,0.45270449,-0.42472566,0.455353,0.4768024,-0.46732077,0.472866,0.49461805,-0.47350157,0.471291,0.43479354,-0.35317823,0.425289,0.41914967,-0.38741116,0.44565,0.43813704,-0.41558962,0.456067,0.47419265,-0.43562395,0.472774,0.42273142,-0.33686396,0.409086,0.41127467,-0.36949327,0.425157,0.4105393,-0.39003412,0.432541,0.41487696,-0.41083209,0.439056
0.48050034,-0.38206224,0.404695,0.45976123,-0.37017279,0.422848,0.48877132,-0.39598387,0.416345,0.47329204,-0.40918011,0.440328,0.46161223,-0.42852064,0.457972,0.45142854,-0.43264335,0.468779,0.45455828,-0.38047277,0.447543,0.45374581,-0.42361478,0.462955,0.45346853,-0.44750135,0.47066,0.46564034,-0.48062342,0.486917,0.44333776,-0.35983108,0.437376,0.43897777,-0.40387166,0.450465,0.46334773,-0.44626306,0.469885,0.48469134,-0.45524037,0.471247,0.43562036,-0.34344503,0.427355,0.4188784,-0.37470686,0.441896,0.43507729,-0.40034055,0.449335,0.47118308,-0.42277041,0.465764,0.42947932,-0.3254607,0.412724,0.41940581,-0.35932929,0.423589,0.41973629,-0.37799949,0.42858,0.42986315,-0.39402992,0.432985
0.46773128,-0.37111091,0.405113,0.44069258,-0.35964648,0.424048,0.45936537,-0.38021961,0.413545,0.45170088,-0.39751264,0.440192,0.44117105,-0.40501721,0.457985,0.43417471,-0.40689086,0.472102,0.43362881,-0.37641833,0.445031,0.42989604,-0.41505641,0.458185,0.43409784,-0.43870712,0.464762,0.44888088,-0.4724388,0.481424,0.42744944,-0.35592958,0.439201,0.41661293,-0.39216012,0.451851,0.45428781,-0.42862096,0.472957,0.47597598,-0.43826602,0.475006,0.42382877,-0.33919995,0.43268,0.41209944,-0.37181547,0.445564,0.43491076,-0.39156976,0.452156,0.47244363,-0.40909889,0.469187,0.42241117,-0.32000053,0.422011,0.41201283,-0.35180314,0.431574,0.40652998,-0.3673601,0.436007,0.41572997,-0.38554916,0.440286
0.49292473,-0.4115699,0.45309,0.44528632,-0.37129346,0.43796,0.47514481,-0.41597646,0.45663,0.44620997,-0.41377411,0.457925,0.42272282,-0.407617,0.462863,0.40451249,-0.39763392,0.461972,0.39922849,-0.35634649,0.434385,0.38725013,-0.37629969,0.421342,0.41705028,-0.40161138,0.436661,0.4401838,-0.41161367,0.447965,0.40824894,-0.33998584,0.425852,0.3938333,-0.35898445,0.407085,0.43092896,-0.38934113,0.42605,0.45155545,-0.39405078,0.44011,0.42006911,-0.32992298,0.420202,0.40195703,-0.34397836,0.405556,0.42838377,-0.37575577,0.421225,0.44927778,-0.38634236,0.433399,0.44188223,-0.32430904,0.416038,0.41938774,-0.34169224,0.401554,0.43120391,-0.36429311,0.413458,0.44376157,-0.37046206,0.423172
0.49023833,-0.40463706,0.452395,0.44398542,-0.36111215,0.439319,0.47195863,-0.40846442,0.455299,0.44712933,-0.40228991,0.458025,0.4229683,-0.39807474,0.463167,0.40519661,-0.38852455,0.462836,0.39868685,-0.34685264,0.436029,0.38065902,-0.36152427,0.423613,0.40587732,-0.39256031,0.439799,0.42560477,-0.40179141,0.451165,0.40919787,-0.33184882,0.428855,0.3800048,-0.33909608,0.411493,0.4170088,-0.37582413,0.431592,0.4411626,-0.38554528,0.444181,0.42208373,-0.32265382,0.424136,0.38593532,-0.31947418,0.410357,0.41330946,-0.35064713,0.42693,0.44157541,-0.36657226,0.439114,0.44476689,-0.31767302,0.42073,0.42280044,-0.33672481,0.407009,0.43653761,-0.35242003,0.419643,0.45071651,-0.35783074,0.431064
0.49337426,-0.40533384,0.458381,0.44800759,-0.36172344,0.44557,0.47436063,-0.4044566,0.463157,0.449131,-0.39876496,0.467307,0.42588602,-0.39224559,0.472656,0.40892932,-0.38124481,0.472218,0.40405563,-0.34164914,0.444824,0.3854705,-0.3571864,0.434207,0.40821164,-0.3877993,0.449679,0.42686179,-0.39668345,0.46005,0.41341156,-0.32662815,0.435317,0.38329379,-0.3335343,0.418861,0.41719085,-0.37009337,0.437998,0.44369417,-0.38525344,0.449958,0.42496645,-0.31764741,0.428654,0.38979375,-0.3137849,0.41637,0.41457677,-0.34460331,0.432191,0.4435091,-0.36545945,0.443472,0.44624249,-0.31627766,0.422934,0.42412264,-0.3358083,0.410443,0.43434765,-0.34706242,0.422508,0.45033161,-0.35568335,0.433091
0.49736159,-0.40026623,0.465653,0.45831555,-0.35632567,0.46061,0.47826342,-0.40337801,0.467757,0.45870582,-0.39382581,0.475581,0.43685729,-0.39448328,0.483027,0.420619,-0.38595562,0.48453,0.41630757,-0.34589858,0.460604,0.40256871,-0.3574075,0.452435,0.42978476,-0.38959057,0.47042,0.44943013,-0.40141823,0.481544,0.42929832,-0.3307718,0.456574,0.40909402,-0.33842858,0.445668,0.44968658,-0.37474418,0.468145,0.4716566,-0.38409031,0.479145,0.4435856,-0.32101957,0.453714,0.4122128,-0.31577821,0.444829,0.44158664,-0.344793,0.463286,0.46889284,-0.36063074,0.474247,0.46668678,-0.31462536,0.451185,0.45038897,-0.33394561,0.441767,0.46606277,-0.35332497,0.455987,0.48062673,-0.36131105,0.467837
0.48333094,-0.43867746,0.503786,0.46187553,-0.38645388,0.486142,0.48158533,-0.43198285,0.515144,0.46582289,-0.41166347,0.522225,0.47125285,-0.39150905,0.529275,0.46602496,-0.3720507,0.528456,0.44855499,-0.35099828,0.49125,0.41879028,-0.31605899,0.474411,0.40800663,-0.33177678,0.478387,0.4155915,-0.35215615,0.4867,0.44431291,-0.34369769,0.472021,0.3961201,-0.35419489,0.454389,0.40813134,-0.37530548,0.459716,0.42836069,-0.37900298,0.466539,0.44368012,-0.34546139,0.457793,0.40291705,-0.35703019,0.447477,0.41052263,-0.37596585,0.452167,0.43029143,-0.38066413,0.458175,0.44595954,-0.35389071,0.444014,0.40644068,-0.35491452,0.435169,0.39870327,-0.36638512,0.43864,0.40534398,-0.37533,0.443099
0.48194072,-0.43348146,0.502602,0.46345256,-0.37648543,0.485433,0.48205846,-0.42715086,0.514757,0.46693259,-0.40176623,0.521563,0.46971541,-0.37972924,0.526778,0.46338465,-0.35913658,0.524264,0.45558519,-0.34092804,0.491823,0.43127329,-0.30372192,0.477343,0.41612404,-0.31457894,0.478637,0.41941704,-0.3339262,0.484867,0.44890303,-0.33509992,0.471694,0.40111986,-0.34313667,0.457954,0.40862933,-0.36404174,0.459695,0.42448911,-0.36583871,0.460939,0.44508555,-0.33498661,0.456683,0.40670366,-0.30920468,0.446701,0.39837508,-0.3272693,0.448279,0.41026153,-0.34573319,0.45294,0.44368348,-0.34328474,0.441911,0.40460086,-0.34107651,0.434851,0.39603006,-0.35172517,0.435986,0.40219956,-0.36172991,0.438912
0.47584672,-0.42391636,0.494507,0.46158674,-0.37074837,0.481993,0.47840896,-0.41929895,0.508168,0.4625733,-0.40792723,0.514562,0.45655345,-0.3899936,0.524902,0.44474844,-0.37648477,0.524681,0.46017326,-0.33640385,0.492811,0.43844777,-0.30544225,0.493039,0.42660457,-0.31767378,0.496656,0.43023662,-0.339221,0.498011,0.45012912,-0.32785711,0.471978,0.39820469,-0.33038031,0.455686,0.40780442,-0.35455552,0.45921,0.42552512,-0.36294577,0.461727,0.44456704,-0.32397106,0.455964,0.40862121,-0.30243681,0.448895,0.39946459,-0.32010758,0.452219,0.40925678,-0.33735857,0.4564,0.43815294,-0.33047889,0.43927,0.40075412,-0.32868553,0.435254,0.39645575,-0.34269814,0.437855,0.40330334,-0.35460779,0.440277
0.5328114,-0.42089776,0.519742,0.4954427,-0.37975372,0.505497,0.53093825,-0.4180596,0.532614,0.51162456,-0.44182386,0.542952,0.48759245,-0.43065611,0.547131,0.46894551,-0.43274261,0.546806,0.47344974,-0.35454967,0.514374,0.45229068,-0.32081672,0.512786,0.43290768,-0.32430703,0.511991,0.43060004,-0.3429237,0.515373,0.46575697,-0.34711212,0.494098,0.42516573,-0.36656577,0.47597,0.44707603,-0.38020045,0.480388,0.46262406,-0.38988137,0.483544,0.46283211,-0.34471389,0.478699,0.42637941,-0.31466525,0.469025,0.40324244,-0.31529139,0.464075,0.39757635,-0.33229935,0.464716,0.46550397,-0.34856797,0.463003,0.43364451,-0.36301938,0.457241,0.44001059,-0.36832095,0.460367,0.44598843,-0.37330151,0.463607
0.52546438,-0.42319833,0.518587,0.49301489,-0.38161401,0.506996,0.52611867,-0.42053774,0.53241,0.50112636,-0.44537646,0.544748,0.48392854,-0.43529511,0.553585,0.46934699,-0.43581822,0.55351,0.47675967,-0.35630726,0.518519,0.44669238,-0.32966826,0.514434,0.43253091,-0.34286179,0.512391,0.43929214,-0.35998325,0.515278,0.46719699,-0.34856805,0.497721,0.42699583,-0.36854919,0.488464,0.44798843,-0.38644654,0.493346,0.46769768,-0.38675083,0.496833,0.46228154,-0.34596345,0.481651,0.43616602,-0.31407396,0.4818,0.42004065,-0.32510656,0.481876,0.42488441,-0.34524758,0.485398,0.45644158,-0.34940773,0.464745,0.42350703,-0.3616374,0.461116,0.4327279,-0.36986928,0.464339,0.44043446,-0.37675808,0.466866
0.50141778,-0.4436682,0.523723,0.48987874,-0.38472958,0.519062,0.50886918,-0.4264225,0.539894,0.49011611,-0.44326518,0.557756,0.4837052,-0.4316205,0.570862,0.46549601,-0.42781644,0.572362,0.49590537,-0.35838691,0.537316,0.46541178,-0.33074084,0.531774,0.44596045,-0.33832703,0.529002,0.44586243,-0.35439837,0.529551,0.48181029,-0.34961987,0.515332,0.44192096,-0.36500724,0.513321,0.4562989,-0.38806693,0.51669,0.47426589,-0.39681811,0.519097,0.47112511,-0.34639239,0.497656,0.44633823,-0.31196195,0.49209,0.42757531,-0.32138745,0.489242,0.42917296,-0.34339237,0.489808,0.46027164,-0.34969972,0.477756,0.42973755,-0.35704942,0.480166,0.42257925,-0.36426381,0.482558,0.41550332,-0.36913939,0.482637
0.50281986,-0.4394164,0.527014,0.49231435,-0.3862573,0.522799,0.51021322,-0.42841636,0.543204,0.49120226,-0.44390793,0.560931,0.48522783,-0.43225313,0.574256,0.4677755,-0.42651723,0.575893,0.498574,-0.36031449,0.541317,0.46785438,-0.33225626,0.535477,0.44844134,-0.33998883,0.532557,0.44856186,-0.3564984,0.533511,0.48496201,-0.35107623,0.519426,0.44511413,-0.36617003,0.517587,0.45383137,-0.39017291,0.521751,0.46698421,-0.40566524,0.524726,0.47459623,-0.34746932,0.501786,0.45058366,-0.31376716,0.497339,0.43244094,-0.32379326,0.495063,0.43535835,-0.34167517,0.496475,0.46397905,-0.35035752,0.481856,0.4332757,-0.35804242,0.484327,0.42672829,-0.36632572,0.487228,0.41955182,-0.37184227,0.487484
0.50354953,-0.43191378,0.529963,0.49534857,-0.38822635,0.526852,0.51213365,-0.43063174,0.54641,0.49346456,-0.44625088,0.564707,0.49067121,-0.43769089,0.581605,0.47656389,-0.43294945,0.586648,0.50092977,-0.36276102,0.546293,0.47126075,-0.33575618,0.541968,0.4526135,-0.34395465,0.539805,0.45392419,-0.36153948,0.541298,0.48808486,-0.35218344,0.524363,0.44949495,-0.36753583,0.523522,0.45744286,-0.39413098,0.527892,0.46966226,-0.41074196,0.531013,0.47823253,-0.34743481,0.50659,0.44227454,-0.35963635,0.507044,0.44906571,-0.37566642,0.507336,0.4687812,-0.37882064,0.510353,0.46801666,-0.34893023,0.486328,0.43757149,-0.3571336,0.489577,0.43132495,-0.36691218,0.492626,0.42433751,-0.37467139,0.492665
0.50145512,-0.4290089,0.528429,0.49548729,-0.38768683,0.530145,0.51110568,-0.42905166,0.545995,0.49508755,-0.4476674,0.567145,0.49431055,-0.44194711,0.586976,0.48197983,-0.43710787,0.594812,0.49951596,-0.36415409,0.553613,0.46922869,-0.34856533,0.556788,0.45884124,-0.36477102,0.558376,0.46758227,-0.38272218,0.561844,0.48499999,-0.35198952,0.531518,0.44905,-0.36831301,0.535339,0.45439176,-0.3955215,0.539599,0.46481628,-0.41365771,0.542642,0.47378698,-0.34561749,0.513172,0.44839402,-0.32740599,0.520527,0.43778932,-0.3434661,0.52429,0.44617142,-0.36428102,0.52912,0.46199341,-0.34463079,0.491463,0.43539095,-0.35773652,0.498419,0.43114024,-0.36913697,0.501477,0.42948901,-0.37938487,0.500215
0.50314312,-0.42978635,0.530611,0.49457986,-0.3868504,0.530253,0.51222587,-0.4295623,0.547601,0.49474408,-0.44732613,0.567099,0.49044316,-0.43908965,0.583012,0.47485242,-0.43150362,0.586586,0.49794057,-0.36300562,0.551867,0.46604481,-0.3462002,0.55301,0.45490181,-0.36163924,0.553582,0.46362752,-0.37948517,0.557092,0.48358382,-0.35096173,0.529966,0.4458407,-0.36568073,0.531513,0.45191685,-0.39336723,0.53666,0.46284101,-0.41189984,0.540336,0.47267538,-0.3448066,0.511968,0.44526533,-0.3251215,0.516895,0.43371863,-0.34027246,0.519415,0.44199826,-0.36087381,0.524171,0.46155723,-0.34430542,0.490999,0.43333462,-0.35604695,0.496065,0.42956863,-0.36779138,0.499649,0.42786022,-0.37804469,0.499256
0.50449245,-0.43028363,0.532159,0.49510821,-0.38697452,0.531286,0.51342717,-0.4300799,0.549008,0.49558293,-0.44765816,0.56813,0.49012869,-0.4389615,0.583686,0.47519992,-0.43155148,0.586977,0.50040128,-0.36414676,0.552443,0.46682672,-0.34645928,0.553534,0.45566388,-0.36187754,0.554079,0.46446536,-0.37978189,0.557681,0.48444293,-0.35128181,0.530587,0.44625132,-0.3656288,0.531595,0.45244524,-0.3933879,0.536878,0.46344955,-0.41198028,0.540651,0.47361215,-0.34518304,0.512673,0.44648984,-0.32478716,0.517385,0.4349461,-0.33992028,0.519796,0.44367253,-0.36043516,0.524597,0.46266586,-0.34481051,0.491885,0.43403803,-0.3562388,0.496508,0.4325184,-0.36872267,0.50017,0.42867085,-0.37818635,0.499963
