sluyters/QuantumLeap/src/datasets/gesture/HandGestureDataset_SHREC2017_csv/Gesture7/finger_2/subject_5_essai_3_skeletons_world.csv
Wrist_x,Wrist_y,Wrist_z,Palm_x,Palm_y,Palm_z,thumb_base_x,thumb_base_y,thumb_base_z,thumb_first_joint_x,thumb_first_joint_y,thumb_first_joint_z,thumb_second_joint_x,thumb_second_joint_y,thumb_second_joint_z,thumb_tip_x,thumb_tip_y,thumb_tip_z,index_base_x,index_base_y,index_base_z,index_first_joint_x,index_first_joint_y,index_first_joint_z,index_second_joint_x,index_second_joint_y,index_second_joint_z,index_tip_x,index_tip_y,index_tip_z,middle_base_x,middle_base_y,middle_base_z,middle_first_joint_x,middle_first_joint_y,middle_first_joint_z,middle_second_joint_x,middle_second_joint_y,middle_second_joint_z,middle_tip_x,middle_tip_y,middle_tip_z,ring_base_x,ring_base_y,ring_base_z,ring_first_joint_x,ring_first_joint_y,ring_first_joint_z,ring_second_joint_x,ring_second_joint_y,ring_second_joint_z,ring_tip_x,ring_tip_y,ring_tip_z,pinky_base_x,pinky_base_y,pinky_base_z,pinky_first_joint_x,pinky_first_joint_y,pinky_first_joint_z,pinky_second_joint_x,pinky_second_joint_y,pinky_second_joint_z,pinky_tip_x,pinky_tip_y,pinky_tip_z,
0.53143578,-0.44139058,0.578088,0.54248319,-0.40270127,0.583406,0.51807924,-0.42887295,0.581508,0.51010237,-0.40434859,0.590526,0.49715994,-0.37811573,0.588771,0.4980625,-0.36097559,0.591973,0.53277896,-0.36507528,0.590818,0.53235935,-0.32815661,0.589673,0.53244623,-0.30973488,0.5891,0.53189173,-0.29353395,0.588579,0.55253135,-0.36791081,0.588298,0.55398179,-0.32727625,0.5868,0.55490364,-0.30325004,0.585926,0.5554358,-0.28621445,0.585302,0.56816951,-0.37295846,0.585852,0.56924835,-0.33343201,0.584572,0.56979155,-0.31314463,0.583917,0.57026972,-0.29472108,0.583322,0.58554531,-0.38416198,0.582233,0.59550654,-0.3553501,0.587592,0.59982229,-0.34092665,0.590055,0.60465539,-0.32970856,0.592228
0.53217699,-0.44129151,0.578088,0.5424429,-0.40231845,0.583074,0.51913525,-0.42934599,0.582061,0.51149827,-0.40536246,0.590572,0.49757149,-0.37837169,0.588801,0.49678383,-0.36145964,0.591432,0.53269549,-0.36518489,0.590965,0.53242938,-0.32824218,0.589704,0.53223223,-0.30975527,0.589073,0.53176831,-0.29344747,0.5885,0.55177668,-0.36725784,0.587659,0.55328502,-0.32647732,0.586006,0.55404839,-0.30276707,0.585041,0.55460292,-0.28572053,0.584353,0.56673999,-0.37100779,0.58459,0.56801409,-0.33231977,0.583143,0.56986318,-0.31131948,0.582402,0.56925033,-0.29349523,0.581729,0.5838334,-0.38103301,0.580274,0.59461223,-0.35291089,0.586157,0.59881606,-0.3399638,0.58886,0.60303619,-0.32810153,0.591245
0.5332623,-0.44147704,0.578461,0.54276446,-0.40220412,0.583131,0.52002055,-0.4296775,0.582422,0.51221532,-0.40576935,0.59093,0.4978396,-0.3785186,0.588661,0.49669157,-0.36103325,0.590564,0.53234635,-0.36511213,0.590817,0.5320777,-0.32806763,0.589268,0.53185589,-0.30957914,0.588493,0.53136313,-0.29327885,0.587788,0.55140349,-0.36685905,0.587426,0.55269103,-0.3261694,0.585491,0.55339168,-0.3023957,0.584362,0.55389981,-0.28530643,0.583555,0.56639948,-0.37023708,0.584309,0.56760392,-0.33168969,0.58256,0.56914205,-0.31092552,0.581665,0.56860144,-0.29300765,0.580852,0.58347635,-0.38038886,0.579977,0.59427573,-0.35234151,0.585813,0.59861084,-0.33953452,0.588494,0.60290283,-0.32775896,0.59086
0.533264,-0.44052944,0.577599,0.54281831,-0.40165942,0.582885,0.52015413,-0.42915469,0.581906,0.51213807,-0.4056977,0.590985,0.49770015,-0.37839422,0.588559,0.49626091,-0.36051658,0.589889,0.53259717,-0.36518038,0.591367,0.53313979,-0.32947145,0.59037,0.53381976,-0.31122888,0.589872,0.53292707,-0.29356964,0.589419,0.55152223,-0.36659053,0.587745,0.55360885,-0.32627724,0.586444,0.55477231,-0.30273899,0.585685,0.55560959,-0.28582584,0.585143,0.56645725,-0.37002928,0.584396,0.56826078,-0.33114433,0.583252,0.569264,-0.31145703,0.582667,0.57009699,-0.29318645,0.582134,0.58330172,-0.37974904,0.579706,0.59361924,-0.35140778,0.585052,0.59860485,-0.33827107,0.587508,0.60302507,-0.32666753,0.589675
0.53404775,-0.44043191,0.577557,0.54278634,-0.40120692,0.582455,0.52020235,-0.42872689,0.581251,0.51159204,-0.40536275,0.590411,0.49746511,-0.37825732,0.588213,0.49566656,-0.35987048,0.588701,0.53121562,-0.36421764,0.589951,0.53628172,-0.33115358,0.593617,0.53927101,-0.31409535,0.59545,0.54194208,-0.29860717,0.597117,0.55074567,-0.36584754,0.58696,0.55259617,-0.32533987,0.585139,0.553613,-0.30177568,0.584077,0.55434107,-0.28488486,0.583319,0.56634203,-0.36990724,0.584156,0.56783319,-0.33075535,0.582472,0.56861194,-0.31061196,0.58161,0.56931217,-0.29229426,0.580826,0.58397317,-0.37995413,0.580168,0.59361303,-0.35114021,0.584784,0.59830452,-0.33798174,0.586904,0.60246561,-0.32639096,0.588776
0.5377152,-0.4434432,0.580701,0.54326733,-0.40176796,0.582504,0.52229705,-0.43063589,0.582902,0.51122577,-0.40731642,0.588157,0.49409814,-0.37906345,0.583441,0.4942157,-0.35940049,0.586567,0.52723546,-0.36411017,0.586299,0.5400388,-0.33472013,0.594915,0.54545795,-0.31868297,0.599223,0.54804836,-0.30229732,0.603139,0.54901811,-0.36490701,0.584163,0.54775854,-0.32278973,0.57927,0.54859032,-0.3001552,0.576415,0.55055877,-0.2832608,0.578902,0.5653128,-0.36988264,0.58228,0.56357558,-0.32892217,0.577603,0.56630464,-0.31556617,0.57521,0.56597301,-0.30465396,0.573035,0.58414228,-0.38131037,0.579798,0.59749391,-0.35584024,0.583941,0.60326569,-0.34240058,0.585844,0.60646132,-0.32906061,0.587524
0.53436058,-0.44120528,0.577096,0.54267163,-0.40165303,0.581558,0.51980295,-0.42888957,0.580037,0.50904541,-0.40437993,0.58723,0.49495862,-0.37738345,0.584914,0.48873034,-0.35786676,0.579102,0.53113986,-0.36380633,0.587864,0.54177734,-0.33411829,0.595141,0.54653949,-0.31761239,0.598779,0.5498114,-0.30185503,0.602087,0.55376622,-0.37018623,0.585662,0.56845734,-0.33543268,0.593068,0.57580751,-0.31484746,0.597389,0.58106071,-0.30011819,0.600475,0.56964805,-0.37569536,0.583538,0.57435642,-0.33809225,0.581356,0.57620093,-0.31801378,0.58024,0.57802181,-0.29974595,0.579225,0.58775973,-0.39067791,0.580416,0.59141083,-0.35481713,0.578981,0.59350375,-0.34434713,0.578322,0.59633017,-0.33306626,0.577741
0.53715199,-0.44377973,0.579991,0.54181907,-0.40110236,0.580214,0.52220506,-0.43094077,0.582507,0.50828234,-0.40409893,0.586378,0.49441142,-0.37726793,0.584152,0.48826761,-0.35713301,0.578241,0.53259657,-0.36207926,0.583442,0.53403415,-0.32452138,0.577922,0.53458564,-0.30575945,0.575162,0.53512655,-0.28913859,0.572653,0.5498542,-0.36646906,0.58042,0.55381753,-0.32331747,0.574228,0.55522978,-0.30127165,0.570617,0.55624665,-0.28706393,0.568037,0.56507384,-0.3720568,0.577917,0.56603834,-0.33182399,0.572328,0.56611988,-0.31113211,0.569468,0.56629257,-0.2923825,0.566868,0.58242938,-0.38417141,0.574908,0.58486616,-0.35531504,0.568893,0.58542565,-0.34225367,0.566129,0.58589129,-0.3313486,0.56369
0.53703616,-0.44395422,0.579746,0.54171682,-0.40110713,0.579674,0.52187501,-0.4307378,0.581928,0.5080117,-0.40371548,0.586183,0.49276113,-0.37550549,0.580415,0.48887908,-0.35543712,0.575229,0.53171811,-0.36114113,0.582313,0.53270351,-0.32371277,0.576482,0.53310317,-0.30491153,0.573567,0.53350337,-0.28826156,0.570916,0.54960697,-0.36575457,0.579608,0.55278668,-0.32287114,0.573076,0.55399978,-0.30108468,0.569266,0.55485667,-0.28714705,0.566545,0.56501314,-0.37170641,0.577388,0.56538396,-0.33098428,0.571464,0.56539287,-0.31054584,0.568433,0.56553925,-0.29225945,0.565677,0.58258423,-0.38428181,0.574754,0.58432642,-0.35498714,0.568368,0.58470696,-0.34183351,0.565434,0.58501301,-0.33085189,0.562845
0.53762594,-0.44431574,0.580596,0.5402675,-0.39952797,0.577637,0.52040079,-0.42897323,0.580258,0.51260661,-0.38989824,0.58108,0.50163738,-0.35656305,0.570698,0.50301045,-0.33621724,0.566089,0.52997102,-0.35004001,0.575436,0.55304171,-0.32253906,0.586298,0.56497162,-0.30812095,0.591728,0.57603987,-0.29471299,0.596666,0.55049725,-0.35741854,0.574915,0.55152031,-0.31374192,0.565304,0.55126066,-0.29856483,0.559697,0.54968438,-0.2940123,0.555693,0.56479398,-0.36878054,0.574693,0.56927571,-0.32984651,0.565493,0.57066275,-0.31064648,0.560786,0.57203498,-0.2928933,0.556507,0.58322445,-0.38404743,0.574822,0.58172828,-0.35223974,0.56551,0.5805839,-0.33848365,0.561232,0.5795532,-0.32699571,0.557457
0.53720319,-0.44705148,0.579478,0.54416783,-0.41610625,0.570696,0.52213069,-0.43303437,0.578939,0.53598305,-0.42080918,0.585123,0.52442457,-0.3879801,0.579272,0.53238168,-0.37091458,0.580245,0.53325606,-0.36839593,0.564738,0.56933827,-0.34984437,0.580603,0.57336518,-0.34746832,0.588536,0.57000646,-0.36069648,0.595748,0.55075906,-0.37479306,0.56262,0.55860212,-0.33585418,0.561555,0.55556461,-0.32005365,0.560934,0.55031971,-0.31633315,0.560491,0.56519826,-0.3833814,0.561492,0.56041791,-0.34616021,0.547695,0.55682308,-0.32767572,0.540637,0.55163572,-0.3122668,0.53422,0.58221184,-0.40011784,0.561314,0.57438523,-0.36014375,0.552122,0.56759583,-0.34825705,0.547899,0.56156393,-0.33761079,0.544173
0.53823504,-0.44404868,0.580596,0.55438137,-0.39496631,0.572219,0.5224507,-0.42787311,0.580407,0.53461839,-0.3902991,0.583796,0.52934542,-0.3588234,0.577485,0.53187157,-0.33852181,0.573208,0.54737406,-0.34640769,0.566934,0.5509204,-0.31199846,0.554593,0.55217464,-0.29526156,0.548422,0.55345052,-0.2798026,0.542812,0.56475088,-0.35546713,0.564515,0.57820622,-0.31950932,0.563268,0.57838874,-0.31384884,0.562541,0.57263989,-0.32501071,0.562021,0.57851735,-0.36603597,0.56311,0.57996295,-0.32355436,0.553984,0.57470674,-0.32114355,0.549314,0.56561063,-0.33400305,0.54507,0.59378655,-0.38462719,0.562549,0.59342341,-0.35165283,0.550042,0.5853475,-0.35046573,0.544295,0.57817213,-0.34948378,0.539224
0.56034082,-0.45735267,0.597174,0.57373734,-0.41204171,0.579026,0.55465387,-0.43773723,0.591805,0.55234663,-0.40832984,0.586298,0.53909828,-0.37335907,0.572659,0.53876629,-0.35280621,0.564696,0.55580392,-0.35590275,0.56148,0.55280596,-0.32157352,0.53987,0.55011224,-0.3059531,0.529065,0.54757592,-0.29188149,0.519242,0.57616682,-0.36794877,0.562336,0.57883329,-0.32760236,0.550048,0.58052808,-0.30377181,0.54288,0.58176622,-0.28670367,0.53776,0.59308851,-0.38140642,0.56431,0.58777617,-0.34298438,0.542113,0.56871797,-0.34811814,0.530756,0.56644507,-0.36819515,0.53834,0.61333585,-0.40423279,0.569071,0.60914143,-0.36388483,0.548722,0.59698889,-0.36353184,0.539372,0.58099525,-0.36941808,0.531122
0.58195487,-0.45943247,0.597963,0.5935958,-0.40366123,0.577246,0.57655717,-0.43293917,0.592632,0.56973424,-0.39537707,0.584079,0.56019749,-0.36159787,0.576156,0.56010394,-0.34134881,0.573445,0.57309128,-0.34565714,0.558197,0.56225328,-0.31535682,0.534892,0.55698137,-0.30002928,0.52324,0.55227309,-0.28599211,0.512647,0.59283655,-0.35679778,0.558193,0.58022882,-0.32211514,0.532848,0.57306694,-0.30163605,0.518064,0.5651548,-0.29122918,0.507503,0.60953206,-0.36967717,0.55964,0.59511776,-0.33592337,0.535835,0.57464742,-0.34422361,0.523656,0.57370845,-0.36455446,0.530239,0.6301431,-0.39224765,0.564112,0.61493347,-0.3505968,0.542383,0.60214267,-0.35282598,0.532399,0.5884973,-0.35988216,0.523589
0.59554582,-0.4537748,0.595154,0.60277923,-0.40062321,0.57535,0.58250633,-0.43210384,0.593134,0.58319908,-0.39505432,0.585999,0.5712716,-0.36016175,0.576641,0.56994062,-0.33951661,0.573288,0.58769394,-0.34564839,0.560922,0.58478925,-0.30625355,0.54071,0.58301254,-0.28721829,0.530604,0.58078628,-0.27112281,0.521416,0.60337873,-0.35481702,0.557137,0.59289372,-0.32188663,0.533336,0.58704584,-0.30236508,0.519452,0.5797878,-0.29383326,0.509534,0.61638044,-0.36584509,0.555408,0.59905243,-0.35299974,0.534233,0.57188146,-0.35986216,0.5234,0.57126204,-0.36995276,0.530596,0.63211953,-0.38576142,0.555978,0.60884714,-0.3685528,0.536286,0.5974873,-0.37747661,0.527238,0.58806993,-0.38206821,0.519255
0.59472128,-0.44960166,0.581942,0.60901395,-0.40810334,0.566482,0.59246468,-0.4366525,0.582688,0.59241509,-0.40252494,0.580231,0.58551248,-0.36976085,0.574705,0.587063,-0.35049713,0.573118,0.60087244,-0.35705325,0.558076,0.6025298,-0.31939054,0.540462,0.59855212,-0.30552763,0.531656,0.59380551,-0.29414462,0.52365,0.61415957,-0.36527501,0.552264,0.61233199,-0.32543898,0.532668,0.61140169,-0.30201635,0.521236,0.60395527,-0.29388073,0.513071,0.62487971,-0.37532572,0.548564,0.60953288,-0.36019878,0.531932,0.58496,-0.36861501,0.523422,0.58685088,-0.38282316,0.532382,0.6372865,-0.39370586,0.546211,0.62120989,-0.36087287,0.530248,0.61326566,-0.3509564,0.522913,0.60495609,-0.35376331,0.516442
0.61622999,-0.45506205,0.589252,0.62379192,-0.39891587,0.56337,0.62154887,-0.42786167,0.591994,0.61630736,-0.39549743,0.587419,0.61213062,-0.36321097,0.582053,0.61036561,-0.34193727,0.574598,0.62228001,-0.34683299,0.55113,0.63365898,-0.31086063,0.539468,0.62157469,-0.3008063,0.533637,0.61046134,-0.29150286,0.528336,0.62387054,-0.35499283,0.539568,0.61554664,-0.31060982,0.513616,0.60687089,-0.28577943,0.498477,0.59702271,-0.26955977,0.487664,0.62529153,-0.36511571,0.531865,0.58575815,-0.34389401,0.511229,0.56074709,-0.35229835,0.500671,0.5626028,-0.36505946,0.502888,0.62717063,-0.38374913,0.526128,0.58968166,-0.35800137,0.506913,0.5681927,-0.36131076,0.498084,0.56678022,-0.37336163,0.499031
0.61486402,-0.4397489,0.577235,0.62735569,-0.39593004,0.559445,0.61346737,-0.42082325,0.580465,0.6190002,-0.39195476,0.580178,0.61720374,-0.3614645,0.577327,0.61954232,-0.3420485,0.572823,0.62856548,-0.34703471,0.552686,0.64561716,-0.31601428,0.540961,0.64364499,-0.30148106,0.535099,0.64161674,-0.28813594,0.529769,0.6338497,-0.35514881,0.543085,0.62986021,-0.31332818,0.522072,0.62155052,-0.29144546,0.509815,0.61295819,-0.27691305,0.501059,0.63790395,-0.36509159,0.536429,0.6492303,-0.32674415,0.52395,0.65009063,-0.30722204,0.517565,0.64479926,-0.29267442,0.51176,0.64203231,-0.38317085,0.530866,0.64611905,-0.34707191,0.523092,0.64783446,-0.33061903,0.51952,0.64670601,-0.31683732,0.516369
0.62638015,-0.43792249,0.579695,0.64411845,-0.39389191,0.56387,0.62500949,-0.41880579,0.582642,0.63829574,-0.38514129,0.583732,0.63732684,-0.35516505,0.577277,0.64059135,-0.33648126,0.571065,0.65187952,-0.34712367,0.557947,0.66815967,-0.31683648,0.543694,0.66696043,-0.30233084,0.536567,0.6660602,-0.28888398,0.530088,0.65673451,-0.35788255,0.549316,0.66354565,-0.31720244,0.530254,0.65186268,-0.29945005,0.519134,0.63542004,-0.29343726,0.511191,0.65991061,-0.36964496,0.543321,0.66446011,-0.32818792,0.526966,0.66096274,-0.30885315,0.518598,0.64775741,-0.29390829,0.510991,0.6619856,-0.38913779,0.538284,0.65764971,-0.34994891,0.52344,0.65557745,-0.33210435,0.516619,0.65164746,-0.31744985,0.510601
0.62921582,-0.43518662,0.579389,0.65009268,-0.39462331,0.565855,0.63626977,-0.41442422,0.585115,0.65266214,-0.38587653,0.588429,0.65950129,-0.3581255,0.587924,0.6695625,-0.34202208,0.587413,0.66995186,-0.35108737,0.564731,0.68788219,-0.32196198,0.550998,0.69190373,-0.30597872,0.544132,0.69577767,-0.29124084,0.53789,0.67070611,-0.36056294,0.553409,0.68313155,-0.32326538,0.537277,0.66586478,-0.31130094,0.527866,0.64391975,-0.3152088,0.521145,0.67008577,-0.37097076,0.545039,0.67723237,-0.33172472,0.529679,0.68090721,-0.31162623,0.521821,0.67831187,-0.29486417,0.514677,0.66693025,-0.38829214,0.53687,0.66840617,-0.35153569,0.525012,0.66815585,-0.33489211,0.519564,0.66635296,-0.32087322,0.514757
0.63200991,-0.4347782,0.580508,0.65214955,-0.39492276,0.566507,0.63818619,-0.41445702,0.585774,0.6529029,-0.38592657,0.588473,0.66010027,-0.35834413,0.588199,0.67049033,-0.34240745,0.587922,0.6699852,-0.35111947,0.564536,0.68853449,-0.32236016,0.551246,0.69289486,-0.30651998,0.544602,0.69708633,-0.29190319,0.538561,0.67118422,-0.36088927,0.553631,0.68252075,-0.32269643,0.536937,0.66378976,-0.31143418,0.527199,0.64139077,-0.31568465,0.520244,0.67097759,-0.37157697,0.545638,0.67791224,-0.33189304,0.5292,0.68593217,-0.31363341,0.52291,0.68698134,-0.29707249,0.517191,0.66838324,-0.38929957,0.537978,0.66930568,-0.35215365,0.525571,0.66906,-0.33528811,0.51987,0.66748257,-0.32091119,0.51484
0.63985638,-0.43304053,0.582261,0.66640936,-0.39541926,0.567572,0.6449713,-0.41423696,0.586673,0.66415184,-0.38626232,0.588898,0.67076162,-0.35834907,0.588074,0.6800305,-0.34150484,0.58657,0.68014366,-0.35109413,0.564137,0.69578415,-0.32265734,0.547,0.69565224,-0.30737284,0.538431,0.68646381,-0.29629074,0.530641,0.68234143,-0.36143692,0.554063,0.69203058,-0.32214417,0.536471,0.67184248,-0.31142338,0.526208,0.64492069,-0.31486095,0.518878,0.68303648,-0.37266216,0.546803,0.69573817,-0.33634045,0.531914,0.696106,-0.31748276,0.524296,0.68739071,-0.30116099,0.517371,0.68163038,-0.39114426,0.540107,0.68148029,-0.35333396,0.526779,0.6810206,-0.33613059,0.520655,0.67952805,-0.32129196,0.515251
0.66759272,-0.44283497,0.594506,0.68741228,-0.40616281,0.578598,0.67776722,-0.42729777,0.600228,0.68916343,-0.39934841,0.602488,0.69699153,-0.37191021,0.602064,0.70763254,-0.35616676,0.601474,0.7028588,-0.36276345,0.576036,0.71749783,-0.33351825,0.558405,0.71700895,-0.3167057,0.54959,0.70617833,-0.30373742,0.541575,0.70123589,-0.37123297,0.563968,0.71553515,-0.33690413,0.545642,0.69612893,-0.32110712,0.534951,0.67046181,-0.32119026,0.527315,0.6989337,-0.38098199,0.555151,0.71322802,-0.34562974,0.540973,0.71429053,-0.32578248,0.53372,0.70575124,-0.31097437,0.527126,0.69424968,-0.39783388,0.546764,0.71000911,-0.36850929,0.53965,0.71711141,-0.35517193,0.536382,0.71523546,-0.34359374,0.533498
0.68227313,-0.44593206,0.60049,0.70029547,-0.40693369,0.582547,0.68755792,-0.42832943,0.605325,0.69871548,-0.39460727,0.604525,0.70221053,-0.36515156,0.600789,0.70932828,-0.34719428,0.597297,0.71673528,-0.36357938,0.577668,0.73200936,-0.3336907,0.561451,0.7308894,-0.31676535,0.553342,0.73002252,-0.30118686,0.545971,0.71407245,-0.37347876,0.566045,0.73478989,-0.34242803,0.552349,0.74680493,-0.32435761,0.544361,0.74396609,-0.31062762,0.538654,0.71089083,-0.38427551,0.557736,0.72563984,-0.34944179,0.543507,0.72617827,-0.32996944,0.536226,0.72168751,-0.31352228,0.529608,0.70513781,-0.40212421,0.550225,0.71580203,-0.37240136,0.534263,0.70414305,-0.36143939,0.52693,0.68311446,-0.36017547,0.520459
0.6845465,-0.44578524,0.602788,0.70277491,-0.40872276,0.585726,0.68984828,-0.42784053,0.607109,0.70165029,-0.39529887,0.606611,0.71072027,-0.36709208,0.60422,0.713285,-0.34830063,0.598059,0.72023039,-0.36578729,0.580747,0.73590079,-0.33537314,0.565509,0.73591924,-0.31833476,0.557891,0.73609243,-0.30264696,0.550965,0.71842581,-0.37660171,0.570035,0.73784656,-0.3442834,0.555911,0.74877566,-0.32516329,0.547672,0.75241128,-0.30917201,0.541787,0.71581788,-0.38808137,0.562415,0.73056734,-0.35358608,0.547221,0.71682033,-0.34281595,0.539448,0.69155196,-0.34333565,0.532381,0.71046705,-0.40658327,0.555606,0.72156146,-0.37654622,0.540458,0.71225369,-0.36481813,0.533499,0.69345268,-0.36240157,0.527357
0.69309527,-0.45083302,0.609749,0.70779893,-0.41217586,0.589848,0.69625454,-0.43133877,0.612161,0.70628312,-0.39823334,0.609841,0.71194134,-0.36938939,0.605578,0.71793644,-0.35130614,0.599954,0.71995485,-0.36638205,0.58081,0.73578212,-0.33606825,0.567137,0.73515015,-0.31962126,0.5603,0.73488601,-0.30587796,0.554085,0.72012393,-0.37813048,0.571545,0.73660215,-0.34400998,0.556174,0.74303789,-0.32269783,0.547207,0.7474482,-0.30881836,0.540802,0.71944362,-0.39058638,0.565315,0.73004839,-0.35387534,0.547148,0.71523515,-0.34094382,0.537853,0.68937358,-0.33953082,0.529403,0.71620845,-0.4111421,0.560538,0.72308686,-0.37825387,0.543248,0.71351783,-0.36541376,0.535303,0.694408,-0.36325043,0.528294
0.69696952,-0.45270447,0.613198,0.7111503,-0.41442282,0.593467,0.70005448,-0.43305784,0.615461,0.71038645,-0.40101545,0.613565,0.7136195,-0.37062553,0.607464,0.71612569,-0.351086,0.600082,0.72348112,-0.36881712,0.584348,0.74031385,-0.33893033,0.571661,0.74094813,-0.32257491,0.565317,0.74075862,-0.30774408,0.55955,0.7239123,-0.38088922,0.575321,0.73764493,-0.34500104,0.558905,0.74472384,-0.32362468,0.549329,0.74879438,-0.30917179,0.542488,0.72340661,-0.39356482,0.569274,0.73435688,-0.35720302,0.551133,0.72153892,-0.34181275,0.541852,0.69796996,-0.33804803,0.533414,0.72126814,-0.41382551,0.564693,0.72772488,-0.38052248,0.547545,0.7176347,-0.36813049,0.539666,0.69871826,-0.36550479,0.532714
0.69236143,-0.44905181,0.609253,0.71217818,-0.41433613,0.594464,0.69786113,-0.43110878,0.613608,0.71135275,-0.400831,0.614727,0.71586964,-0.37164911,0.609664,0.71993405,-0.35282999,0.603267,0.73046575,-0.37157001,0.590899,0.75218345,-0.34419909,0.58104,0.7561253,-0.32845049,0.576111,0.75973077,-0.31387059,0.571629,0.72994031,-0.3826723,0.580864,0.74253506,-0.34703196,0.563172,0.74902259,-0.32541148,0.553054,0.75301689,-0.31067527,0.545827,0.72819094,-0.39427976,0.573642,0.74503382,-0.36141548,0.559774,0.73725511,-0.34600448,0.552679,0.71729711,-0.34168787,0.546229,0.724139,-0.41390287,0.567005,0.73509414,-0.38272605,0.55359,0.72646083,-0.37192811,0.547426,0.71012941,-0.37090031,0.541988
0.69908954,-0.4533214,0.61546,0.71615657,-0.41675756,0.598125,0.70397053,-0.43483203,0.619235,0.71592042,-0.40386711,0.619061,0.72000158,-0.37412993,0.613925,0.72587244,-0.35650382,0.607969,0.73170908,-0.37275333,0.592311,0.75540833,-0.34653359,0.583846,0.76005299,-0.3314822,0.579614,0.76460156,-0.31719984,0.575766,0.73114683,-0.38368573,0.582183,0.74077673,-0.3465691,0.562377,0.74353759,-0.32376108,0.550824,0.74613865,-0.30859809,0.542571,0.72958964,-0.39528217,0.575063,0.74365647,-0.36091154,0.559059,0.73683749,-0.34330473,0.550871,0.71811637,-0.33590153,0.543428,0.72553274,-0.41398542,0.568885,0.73494945,-0.38257506,0.553866,0.7253142,-0.37126601,0.546966,0.70797211,-0.36990648,0.540877
0.70068547,-0.45423747,0.617121,0.71756872,-0.41760645,0.599689,0.70631499,-0.43620507,0.62153,0.71858727,-0.40515324,0.622009,0.72277933,-0.37591838,0.616176,0.72891042,-0.35759937,0.610294,0.73378912,-0.37406054,0.594596,0.75564528,-0.34717669,0.58465,0.75900069,-0.3314357,0.579677,0.76165492,-0.31679249,0.575155,0.73259544,-0.38462939,0.583657,0.74153321,-0.34739006,0.564085,0.74645815,-0.32523978,0.552668,0.7505087,-0.30936203,0.544513,0.73023292,-0.39573417,0.575877,0.74358797,-0.36096632,0.559591,0.73576489,-0.34431055,0.551258,0.7164066,-0.33738331,0.543683,0.72521866,-0.41381649,0.568926,0.72870282,-0.37904333,0.554311,0.71773004,-0.36843889,0.547596,0.70744544,-0.3699615,0.541671
0.70252137,-0.45533534,0.618937,0.71894391,-0.41844457,0.601051,0.70757727,-0.43692631,0.622816,0.71959714,-0.40610706,0.622558,0.72292435,-0.37579222,0.615939,0.72914739,-0.3581268,0.610334,0.73418313,-0.37450644,0.595033,0.75594143,-0.34746807,0.585081,0.75913021,-0.33175214,0.580105,0.76187118,-0.31712087,0.575582,0.73337381,-0.38497961,0.584603,0.74269577,-0.34850623,0.564453,0.75240605,-0.32958368,0.557023,0.76038477,-0.31415865,0.551715,0.73182655,-0.39667502,0.577273,0.74390127,-0.36110184,0.560554,0.73649836,-0.34461421,0.552,0.71795931,-0.33593471,0.544224,0.72758692,-0.41518211,0.570918,0.73423578,-0.38176604,0.555719,0.71799501,-0.37048027,0.548736,0.70183296,-0.37171611,0.542574
0.69694117,-0.4511699,0.614603,0.71831849,-0.41757291,0.600986,0.70235024,-0.43308833,0.61869,0.71348901,-0.3996905,0.618381,0.71945772,-0.37127764,0.613521,0.73156821,-0.35831365,0.613236,0.73778595,-0.3757854,0.597796,0.75345643,-0.33947839,0.589227,0.7590034,-0.32222742,0.584942,0.7641999,-0.30633716,0.581046,0.73801012,-0.38705037,0.588463,0.75424133,-0.35375183,0.571527,0.74798629,-0.33612607,0.561648,0.72790697,-0.33254408,0.554592,0.7369444,-0.39893124,0.581736,0.7512383,-0.36311988,0.56971,0.75443384,-0.34474105,0.563557,0.75098256,-0.33100094,0.557964,0.73274871,-0.41761686,0.575534,0.74835641,-0.38983948,0.56797,0.75608395,-0.37688292,0.564495,0.75669016,-0.36696394,0.561429
0.69836597,-0.45099174,0.61604,0.72019461,-0.41859636,0.60277,0.70401789,-0.4329509,0.620164,0.71343672,-0.40092089,0.618974,0.70949184,-0.36948253,0.608511,0.72317218,-0.35455849,0.606905,0.74018363,-0.37697501,0.599837,0.75289009,-0.340462,0.588912,0.75643386,-0.32289767,0.58345,0.75979355,-0.3067399,0.578484,0.74058522,-0.38851323,0.590567,0.75662473,-0.3554378,0.57391,0.75134031,-0.33795177,0.564193,0.73208977,-0.33486485,0.557252,0.73959081,-0.40056452,0.583869,0.75429589,-0.36535418,0.572048,0.75841466,-0.34688799,0.566,0.7566735,-0.33263549,0.560502,0.73494271,-0.41956859,0.577654,0.75178075,-0.39219092,0.570207,0.75943826,-0.37913054,0.566786,0.75939685,-0.37006468,0.563767
0.69666118,-0.45061432,0.615981,0.71280681,-0.42023238,0.606519,0.69643055,-0.42907726,0.618301,0.70121474,-0.40134146,0.617164,0.70689961,-0.37053871,0.608505,0.71984756,-0.35538881,0.606645,0.72886727,-0.37825941,0.603665,0.74288175,-0.34614343,0.591098,0.74974524,-0.33003735,0.584814,0.76130423,-0.31562123,0.579102,0.73635348,-0.39215417,0.597817,0.75246439,-0.3571943,0.583473,0.76057199,-0.33708524,0.575106,0.76109595,-0.32593178,0.569129,0.74624792,-0.40699745,0.593668,0.75670519,-0.37452655,0.584298,0.76175653,-0.36074381,0.579505,0.77265343,-0.34471005,0.575147,0.74682349,-0.42798828,0.589983,0.76111632,-0.39789473,0.578757,0.76695038,-0.38388925,0.5736,0.77581764,-0.37573506,0.573793
0.67729792,-0.4444939,0.614212,0.70181012,-0.41429586,0.6074,0.67848226,-0.4245614,0.615839,0.68724531,-0.39048308,0.613426,0.68990047,-0.36030832,0.601874,0.69464715,-0.34646103,0.591418,0.7266865,-0.37778276,0.605286,0.73815455,-0.34549579,0.595406,0.74623943,-0.32981601,0.590466,0.75377628,-0.3153929,0.585975,0.73021597,-0.39189335,0.601128,0.74957802,-0.35939129,0.588755,0.76503564,-0.34058811,0.581538,0.76957074,-0.32836734,0.576383,0.73451649,-0.40667723,0.598183,0.75352026,-0.37468516,0.586709,0.76344366,-0.35990701,0.580839,0.7728906,-0.3443408,0.575502,0.73569205,-0.42795911,0.59558,0.75642757,-0.40370159,0.588876,0.76580469,-0.39265703,0.585796,0.781106,-0.38239699,0.583079
0.67951317,-0.44448376,0.618101,0.7024619,-0.41258999,0.607412,0.67410344,-0.418277,0.616751,0.68575252,-0.3888508,0.610738,0.6888387,-0.35838334,0.601066,0.69735184,-0.34106702,0.600172,0.71772096,-0.3678035,0.599297,0.72413129,-0.33556882,0.58556,0.72720544,-0.31969541,0.578691,0.730219,-0.30504014,0.572447,0.72681105,-0.38758058,0.597569,0.75018027,-0.3590242,0.588957,0.75814738,-0.34704797,0.583933,0.74977556,-0.34742914,0.580345,0.73360908,-0.40408734,0.596895,0.74569066,-0.36632368,0.581775,0.75159821,-0.34781997,0.574039,0.75975245,-0.33413759,0.567006,0.73837782,-0.42790345,0.597509,0.74855108,-0.39508236,0.583224,0.75302717,-0.38070786,0.57666,0.7631141,-0.37058287,0.570868
0.66923142,-0.43703282,0.616346,0.68916516,-0.40799724,0.60767,0.6678163,-0.4151627,0.61675,0.67190899,-0.38519286,0.607527,0.6786559,-0.35554738,0.600686,0.68978978,-0.34106895,0.600781,0.70274191,-0.37181278,0.602925,0.71004792,-0.34219606,0.590203,0.71406602,-0.32702678,0.583841,0.7179502,-0.3130101,0.578058,0.71282605,-0.385993,0.59968,0.7109923,-0.35490146,0.585431,0.68006709,-0.35753513,0.577119,0.68025937,-0.37447528,0.587387,0.71969371,-0.39971171,0.597616,0.73544224,-0.36545613,0.584305,0.73639146,-0.34923249,0.577495,0.73748111,-0.33419864,0.571304,0.7248533,-0.41995427,0.596309,0.73732416,-0.38926134,0.58388,0.74284848,-0.37532369,0.57817,0.74761201,-0.36311276,0.573131
0.66494927,-0.4367694,0.612253,0.68324607,-0.40548831,0.602232,0.66008079,-0.41649501,0.611325,0.65477131,-0.39051304,0.600158,0.64075102,-0.35609027,0.57931,0.63931781,-0.33422203,0.569006,0.68340623,-0.35968535,0.595039,0.69503337,-0.32728005,0.580231,0.69548825,-0.31390643,0.572827,0.69612978,-0.30152359,0.566096,0.69876936,-0.37290314,0.593004,0.70288951,-0.33454405,0.577306,0.7046003,-0.31316938,0.568149,0.72608451,-0.30715146,0.57803,0.71057824,-0.38655247,0.59203,0.71598888,-0.34965763,0.577415,0.71896772,-0.33052912,0.569937,0.72180941,-0.31298062,0.563139,0.72289355,-0.40817906,0.5922,0.72802403,-0.37513359,0.57848,0.73044491,-0.35988346,0.572177,0.73261487,-0.34638985,0.566615
0.66342029,-0.43680083,0.610357,0.68083748,-0.4033055,0.599902,0.65651744,-0.4158452,0.608367,0.64801696,-0.38698118,0.595752,0.62763982,-0.35202679,0.574399,0.62234011,-0.33030348,0.561152,0.67726153,-0.35303264,0.591142,0.67781084,-0.31592134,0.577019,0.67653149,-0.30163206,0.569958,0.67553995,-0.28838724,0.563539,0.69455564,-0.36639369,0.590274,0.69846469,-0.32587754,0.573969,0.69934646,-0.30879922,0.564458,0.72024109,-0.30354311,0.574204,0.70811515,-0.38029754,0.590291,0.70968922,-0.34185027,0.575147,0.71065773,-0.32194006,0.567398,0.71164412,-0.3036898,0.560355,0.72255127,-0.40516378,0.591698,0.72521458,-0.36804281,0.57733,0.72635206,-0.35216946,0.570729,0.72889018,-0.34174298,0.564904
0.65358535,-0.43700456,0.601589,0.66371885,-0.40427828,0.595995,0.64355674,-0.41854647,0.601063,0.62870144,-0.39011998,0.591006,0.61298445,-0.35576631,0.571814,0.61096499,-0.3349767,0.561295,0.65896851,-0.35665315,0.59197,0.66833575,-0.32107317,0.581257,0.67160373,-0.30647112,0.575901,0.67402539,-0.29429809,0.571031,0.67759188,-0.36779796,0.590844,0.68911658,-0.32979061,0.578917,0.69598273,-0.30744446,0.571959,0.70351235,-0.29246255,0.569057,0.69211549,-0.37985779,0.590309,0.69461559,-0.3385179,0.579337,0.69717693,-0.31792411,0.574772,0.69963978,-0.29931867,0.570622,0.70777441,-0.3997895,0.590414,0.71276441,-0.36456729,0.579428,0.71390705,-0.35377814,0.57438,0.71270679,-0.34905364,0.569926
0.63955021,-0.43862493,0.594573,0.65395598,-0.40840879,0.596505,0.62893726,-0.42513217,0.598279,0.62212132,-0.39663524,0.59504,0.61975457,-0.36980347,0.58925,0.62294461,-0.35120097,0.583855,0.65741372,-0.36810934,0.602227,0.65888614,-0.34931773,0.599764,0.66003109,-0.3393998,0.598761,0.66132438,-0.33003379,0.597985,0.67381432,-0.37635931,0.598285,0.69063989,-0.34005461,0.593628,0.69072544,-0.33141912,0.590912,0.69902172,-0.34841841,0.604047,0.68604997,-0.38569373,0.594906,0.69145783,-0.34887651,0.591798,0.69436337,-0.33061873,0.590207,0.6969172,-0.31648506,0.588761,0.69810097,-0.40170897,0.590626,0.69680826,-0.36613551,0.586215,0.69692899,-0.35351234,0.584189,0.69648062,-0.35541939,0.582401
0.63343714,-0.45069194,0.602339,0.63143139,-0.40491841,0.594437,0.61615667,-0.42923799,0.59797,0.60688718,-0.39907774,0.593678,0.59434823,-0.3637383,0.575982,0.59712503,-0.34402291,0.569108,0.6118368,-0.35384989,0.584295,0.60807984,-0.31409178,0.570156,0.6062227,-0.29415441,0.563087,0.61634375,-0.28137936,0.567523,0.6353168,-0.36332281,0.58716,0.63637005,-0.32630292,0.572577,0.63750592,-0.30516437,0.56407,0.6572517,-0.29831539,0.57439,0.6545207,-0.37430478,0.59007,0.64935402,-0.33113967,0.575349,0.6482769,-0.31170932,0.567818,0.64819677,-0.29620288,0.560971,0.67714139,-0.39353407,0.594584,0.66730031,-0.36094469,0.580655,0.66559075,-0.36855634,0.574255,0.67445635,-0.38663164,0.58195
0.62274667,-0.44353833,0.595961,0.61712943,-0.39269083,0.588445,0.59945213,-0.42394262,0.592595,0.59641335,-0.3932834,0.590681,0.57919057,-0.35808101,0.573016,0.58150108,-0.3396313,0.565147,0.5953226,-0.3438344,0.579769,0.59566986,-0.30558108,0.566809,0.59586825,-0.2880087,0.560329,0.5961553,-0.27182183,0.554439,0.61907264,-0.35088868,0.581524,0.61319269,-0.3060971,0.567431,0.6097356,-0.28007614,0.55921,0.61943635,-0.26678741,0.564439,0.63874268,-0.35993633,0.583493,0.63024799,-0.32225294,0.569575,0.62599305,-0.30258407,0.562455,0.62218217,-0.28445488,0.555982,0.66225862,-0.37695041,0.586835,0.65381296,-0.33742041,0.573514,0.65116549,-0.32378233,0.567394,0.66440866,-0.32017941,0.575343
0.60283086,-0.43413872,0.592847,0.60104788,-0.38667846,0.585127,0.57835309,-0.41292364,0.590963,0.56544649,-0.37877896,0.586305,0.56028753,-0.35846883,0.593589,0.56975094,-0.35208773,0.606751,0.58611043,-0.33749582,0.578148,0.57430817,-0.30070685,0.565716,0.56841583,-0.28198991,0.5595,0.56306444,-0.2647742,0.553849,0.6073999,-0.3457224,0.578017,0.61112771,-0.30338257,0.571529,0.61390389,-0.28026614,0.567744,0.61804049,-0.26528894,0.565041,0.62465489,-0.35568069,0.578449,0.61424355,-0.31055753,0.565184,0.60889221,-0.28771117,0.558398,0.60442156,-0.26803346,0.552229,0.64457315,-0.37364913,0.579987,0.63786362,-0.33478402,0.569511,0.63475273,-0.31711254,0.564698,0.63595728,-0.30351084,0.563967
0.58717685,-0.42640425,0.58448,0.5886088,-0.37990163,0.578108,0.57306411,-0.4109588,0.585715,0.55524945,-0.37725325,0.578771,0.54784756,-0.36942796,0.590874,0.55086346,-0.35491942,0.597805,0.56932707,-0.33522132,0.575778,0.56284087,-0.2948304,0.564821,0.55964183,-0.27471222,0.559343,0.5578955,-0.25688518,0.555511,0.58818865,-0.3377113,0.57224,0.59066283,-0.29944573,0.571608,0.59460827,-0.2824419,0.57124,0.59757536,-0.26971694,0.570977,0.60376781,-0.342921,0.569775,0.59599364,-0.29997241,0.558407,0.59326247,-0.28313591,0.552591,0.59087409,-0.26745843,0.547304,0.62254661,-0.35519614,0.567684,0.61608212,-0.32043336,0.557019,0.61350661,-0.30645638,0.552119,0.61127942,-0.29394852,0.547796
0.57807308,-0.42120503,0.579849,0.5718214,-0.37300687,0.576933,0.55971894,-0.4056656,0.580021,0.54587859,-0.37355414,0.580904,0.52855422,-0.34253369,0.573615,0.52676846,-0.32684435,0.577389,0.55300181,-0.32956119,0.575384,0.56467936,-0.2974175,0.583576,0.57055045,-0.28104275,0.587673,0.57590433,-0.26598143,0.591396,0.57421241,-0.33304599,0.574248,0.57057717,-0.28979332,0.564799,0.5683687,-0.26794591,0.559286,0.56667351,-0.25415695,0.555349,0.59171291,-0.33896872,0.573518,0.60181226,-0.30423763,0.576954,0.60780458,-0.28649852,0.578712,0.6133539,-0.26991429,0.58031,0.61257751,-0.35192155,0.573035,0.61151777,-0.31494816,0.564438,0.61083271,-0.30297482,0.560489,0.61016848,-0.29312661,0.557003
0.5562,-0.41542787,0.57668,0.55703968,-0.3742193,0.576599,0.53307235,-0.40035011,0.578502,0.53074051,-0.37155274,0.582725,0.51813137,-0.34032299,0.576746,0.52015048,-0.32515996,0.581782,0.54709904,-0.33156908,0.57879,0.55419622,-0.29698681,0.582916,0.55776648,-0.27944566,0.584979,0.56102427,-0.26335378,0.586854,0.566628,-0.33676747,0.576524,0.56675649,-0.29400371,0.569905,0.56709081,-0.27225245,0.566044,0.57104125,-0.25705784,0.563286,0.58210043,-0.34391155,0.574666,0.58082719,-0.3034395,0.56965,0.58019048,-0.28259184,0.567084,0.57961996,-0.26355408,0.564751,0.59935593,-0.3579194,0.572464,0.6002578,-0.32276561,0.566018,0.60079301,-0.3089391,0.563056,0.60133171,-0.29652174,0.560443
0.55760273,-0.41553792,0.578559,0.55996133,-0.37312262,0.57885,0.54250536,-0.40139483,0.580148,0.52957622,-0.37227738,0.583121,0.50979161,-0.34412069,0.577358,0.50573323,-0.32401376,0.573709,0.54637382,-0.33154009,0.580978,0.54784154,-0.29521016,0.584013,0.54967978,-0.27834848,0.58553,0.55136129,-0.26261549,0.58691,0.56424479,-0.33230957,0.579117,0.55840606,-0.28929001,0.572765,0.55503597,-0.26730052,0.569059,0.55263409,-0.25124205,0.566413,0.58117426,-0.33690871,0.577565,0.57779745,-0.29627041,0.571586,0.57610513,-0.27812914,0.568527,0.57460316,-0.26120397,0.565746,0.60116155,-0.34801734,0.575679,0.59876123,-0.31155793,0.569748,0.59788474,-0.29693625,0.567022,0.59705388,-0.28625531,0.564618
0.55669388,-0.41372049,0.579641,0.55990558,-0.3683571,0.580953,0.53724421,-0.39825873,0.580884,0.52297893,-0.36710561,0.584491,0.50216588,-0.33726765,0.572967,0.50075337,-0.3205545,0.571666,0.54152602,-0.32381794,0.583276,0.53890547,-0.2876201,0.583387,0.53757197,-0.26927815,0.583443,0.53634761,-0.25244171,0.583494,0.56277413,-0.32688645,0.582168,0.55823511,-0.28572427,0.576647,0.55559426,-0.2613643,0.573426,0.55371204,-0.24380122,0.571126,0.58006487,-0.33228878,0.581167,0.57528719,-0.29110941,0.575907,0.57289725,-0.27033369,0.573216,0.57072559,-0.25133794,0.570769,0.60015624,-0.34427253,0.5798,0.59824614,-0.30825063,0.574655,0.59756357,-0.29250639,0.572291,0.596974,-0.27851924,0.570206
0.55381698,-0.41158998,0.577903,0.55479229,-0.36575286,0.58036,0.53626104,-0.39773154,0.580757,0.5242202,-0.36979551,0.586747,0.5060285,-0.34121502,0.57929,0.50393081,-0.32658546,0.584844,0.53691424,-0.32855052,0.585361,0.53211017,-0.29070514,0.58175,0.52964973,-0.27171289,0.579945,0.53025641,-0.25260015,0.579129,0.5568219,-0.32919091,0.582653,0.55400845,-0.28819434,0.580173,0.55200521,-0.26499057,0.578727,0.55526951,-0.24740863,0.577694,0.5731051,-0.33251123,0.580256,0.57289256,-0.29180531,0.576426,0.56819508,-0.27329419,0.574466,0.56656812,-0.25572752,0.572684,0.59479976,-0.34226729,0.577078,0.59109022,-0.30699897,0.573126,0.59055442,-0.29101569,0.571311,0.59326285,-0.27760462,0.569709
0.54820248,-0.40888008,0.577527,0.55103266,-0.36551904,0.580971,0.53505658,-0.39699858,0.581588,0.51503288,-0.36594535,0.586672,0.49946719,-0.33985392,0.584851,0.4965042,-0.32263014,0.586971,0.53828996,-0.32773946,0.588053,0.53095805,-0.28783986,0.585917,0.52760021,-0.26990695,0.584849,0.52848892,-0.25504205,0.583879,0.55705545,-0.32837507,0.584184,0.55536282,-0.28774334,0.582559,0.55415578,-0.26434757,0.581612,0.55329076,-0.24746334,0.580935,0.57217218,-0.33163279,0.580765,0.56591439,-0.2911961,0.578385,0.56344287,-0.27105855,0.577168,0.56550251,-0.25495435,0.576061,0.58953013,-0.34078979,0.576238,0.59018303,-0.30655355,0.573196,0.59048096,-0.29083108,0.571798,0.59294154,-0.27753474,0.570564
0.54709612,-0.40972637,0.578719,0.54703717,-0.36711322,0.582107,0.53180417,-0.39673011,0.582394,0.51578872,-0.36995627,0.589408,0.50069241,-0.34337904,0.587343,0.49772781,-0.32530783,0.588355,0.53684043,-0.33066029,0.588687,0.52945734,-0.29339318,0.586303,0.52740848,-0.27249404,0.585111,0.52730976,-0.25608188,0.584028,0.5526019,-0.33275725,0.585278,0.55588711,-0.29163988,0.584885,0.55576239,-0.26697483,0.584656,0.55549144,-0.25022085,0.584492,0.56773678,-0.33703027,0.582243,0.56751268,-0.29509607,0.580985,0.56601149,-0.27519355,0.580342,0.56464103,-0.25698018,0.579757,0.58491465,-0.34743557,0.578181,0.58413871,-0.31210587,0.574828,0.58377431,-0.29598185,0.573288,0.58308794,-0.28272292,0.571929
0.54468316,-0.4092439,0.580543,0.54612653,-0.36627374,0.58299,0.52796538,-0.39556345,0.584189,0.5096341,-0.36489042,0.588231,0.49231457,-0.3364731,0.582335,0.49448178,-0.32249598,0.585782,0.53538169,-0.32546932,0.588956,0.52924831,-0.29003571,0.586079,0.52505304,-0.27372557,0.584641,0.51857774,-0.26397742,0.583333,0.5538473,-0.3269123,0.58528,0.54674432,-0.28497677,0.581321,0.54381288,-0.26101704,0.579012,0.5509249,-0.24805622,0.582725,0.56540429,-0.33047834,0.582088,0.56351916,-0.29080985,0.57871,0.56048616,-0.27045056,0.576981,0.55857075,-0.25383633,0.57541,0.58203971,-0.34053908,0.577962,0.58038284,-0.305221,0.573844,0.57934269,-0.28920068,0.571952,0.57680175,-0.27888588,0.570282
0.54025251,-0.40612508,0.57742,0.54105615,-0.36215663,0.581959,0.52296448,-0.39279847,0.583114,0.50734489,-0.36356372,0.58632,0.49232232,-0.33739265,0.584017,0.49427355,-0.32187678,0.588427,0.53357026,-0.32549606,0.591718,0.52680644,-0.2892503,0.591401,0.52415559,-0.27156669,0.591299,0.52173804,-0.25514025,0.591259,0.55034608,-0.32595876,0.586208,0.54846627,-0.28564177,0.584644,0.54705113,-0.26204801,0.583732,0.5495092,-0.24660023,0.586837,0.56358942,-0.328991,0.581365,0.56312375,-0.29121369,0.582372,0.56220962,-0.27220563,0.582887,0.56363893,-0.25524376,0.583355,0.57825873,-0.33772462,0.574997,0.57843899,-0.30413422,0.573142,0.57835449,-0.2887791,0.57229,0.57705821,-0.28011019,0.571538
0.54513243,-0.41014135,0.583851,0.54307474,-0.36516495,0.583378,0.52548973,-0.39489701,0.586662,0.50988314,-0.36594367,0.589472,0.49119749,-0.33760068,0.583594,0.48937182,-0.31956334,0.583874,0.5283586,-0.32281349,0.58653,0.51784188,-0.28567345,0.581385,0.51299758,-0.26741851,0.578813,0.50855308,-0.2505576,0.576474,0.54684014,-0.32430268,0.582936,0.54015766,-0.28173348,0.576243,0.53602702,-0.25709021,0.572339,0.5378084,-0.24159176,0.574638,0.56192072,-0.32838619,0.580011,0.56263371,-0.29142635,0.582282,0.5623287,-0.27312764,0.583444,0.56197605,-0.25675381,0.584501,0.57959421,-0.33881684,0.576583,0.57464377,-0.30335469,0.570236,0.57100345,-0.28751937,0.56732,0.56795779,-0.28006667,0.564747
0.54431558,-0.40979783,0.583923,0.54268328,-0.36481586,0.583237,0.5250967,-0.39473633,0.586712,0.50979198,-0.36615888,0.589476,0.49119317,-0.33808662,0.584044,0.48881742,-0.31972917,0.583983,0.52782121,-0.32273414,0.58623,0.51741086,-0.28588467,0.580917,0.51247833,-0.2676936,0.578261,0.50795279,-0.25088604,0.575846,0.54630213,-0.32419413,0.582594,0.53944582,-0.28157213,0.575712,0.53525295,-0.25688075,0.571698,0.53712087,-0.24140436,0.574052,0.561392,-0.32826191,0.579649,0.56192822,-0.29129365,0.58176,0.56153725,-0.27317624,0.58284,0.56109459,-0.25713266,0.583822,0.57910575,-0.33868727,0.576226,0.57370953,-0.30347211,0.569738,0.57010112,-0.28784987,0.566757,0.56691999,-0.28065587,0.564126
0.54286148,-0.40847428,0.584267,0.54262513,-0.3647195,0.583361,0.52504518,-0.39479391,0.587004,0.5098874,-0.36639593,0.589652,0.49121512,-0.33839488,0.584343,0.48849343,-0.31986946,0.58411,0.52759505,-0.32274548,0.586157,0.51718284,-0.28598329,0.580669,0.51216465,-0.26780284,0.577924,0.50756268,-0.25100581,0.57543,0.54609675,-0.32419865,0.582514,0.53905488,-0.28149421,0.575432,0.53477692,-0.25674949,0.571301,0.53675294,-0.24131194,0.573748,0.56121642,-0.32827009,0.579578,0.56155464,-0.29123951,0.581498,0.56106472,-0.27320642,0.58248,0.56052456,-0.25734196,0.583372,0.57899589,-0.33871655,0.576194,0.5732583,-0.30360068,0.569548,0.56966849,-0.28802476,0.566494,0.56638436,-0.28094265,0.563799
0.54243733,-0.40839488,0.58438,0.54251046,-0.3646015,0.583371,0.52489194,-0.394751,0.587095,0.50989452,-0.3665134,0.589704,0.49123622,-0.3386048,0.58455,0.48824475,-0.31995829,0.58418,0.52741604,-0.32273578,0.586077,0.51702717,-0.286032,0.580499,0.511966,-0.26786289,0.57771,0.50732296,-0.25107487,0.575174,0.54592733,-0.32418237,0.582426,0.53879865,-0.28144453,0.57525,0.53448547,-0.2566744,0.571064,0.53650825,-0.2412506,0.573546,0.56106191,-0.32825367,0.579492,0.56127733,-0.29118866,0.581294,0.56072664,-0.27321524,0.582216,0.56012714,-0.25747381,0.583054,0.57887274,-0.33870688,0.576123,0.57293897,-0.30367674,0.569403,0.56938749,-0.28811897,0.566315,0.56605108,-0.28110893,0.563591
0.53972142,-0.40713576,0.583315,0.54194364,-0.36332265,0.583511,0.52338346,-0.39342427,0.585605,0.50866105,-0.36570232,0.588491,0.48993644,-0.33867938,0.584261,0.48550478,-0.31910122,0.582619,0.52680325,-0.32246384,0.586436,0.51763467,-0.2858487,0.581329,0.51291023,-0.26764559,0.578775,0.50856863,-0.25087465,0.576454,0.546311,-0.32432774,0.583695,0.53995655,-0.28199633,0.577441,0.53618103,-0.25733565,0.573793,0.53679632,-0.24121738,0.574369,0.56259857,-0.32891533,0.581426,0.56086474,-0.29109019,0.581531,0.55885284,-0.2739416,0.581585,0.55745382,-0.25909167,0.581634,0.58117369,-0.33970754,0.578693,0.57754151,-0.30270026,0.572709,0.57630635,-0.28596044,0.569959,0.57321728,-0.27714327,0.567533
0.5380985,-0.4063486,0.583385,0.54216361,-0.36328739,0.583872,0.52325229,-0.39317199,0.585616,0.50846296,-0.36561656,0.588422,0.48945678,-0.33863229,0.58409,0.48475248,-0.31896839,0.582118,0.52695173,-0.32248574,0.586904,0.51809266,-0.28573088,0.581949,0.51352736,-0.2674603,0.579471,0.50932584,-0.25066601,0.577218,0.5466499,-0.32438585,0.584329,0.54045662,-0.28213069,0.578312,0.53678122,-0.25749464,0.574802,0.53656226,-0.24099007,0.574505,0.56307327,-0.32901466,0.582177,0.5607821,-0.29113388,0.581943,0.55851726,-0.27429275,0.581823,0.55696444,-0.25971445,0.581714,0.58181936,-0.33982557,0.579546,0.57839058,-0.30266649,0.573778,0.57715239,-0.28580978,0.571128,0.57458752,-0.27725866,0.56879
0.53872364,-0.40663616,0.584494,0.54366241,-0.36389931,0.585301,0.52267545,-0.39275813,0.585516,0.50877602,-0.36549505,0.588311,0.48987867,-0.33830171,0.583703,0.48602069,-0.31970587,0.582471,0.52689004,-0.32240379,0.587047,0.51764974,-0.28530808,0.581708,0.51290484,-0.26690426,0.579039,0.5085419,-0.25003141,0.576612,0.54810917,-0.32502002,0.586056,0.54168673,-0.28272941,0.580036,0.53652442,-0.25680809,0.576525,0.53516513,-0.24033928,0.574016,0.56552495,-0.33003646,0.585186,0.56107794,-0.29133977,0.58329,0.55554574,-0.27507799,0.582319,0.55595524,-0.25959009,0.581437,0.58554542,-0.3396779,0.584043,0.58126866,-0.30143768,0.578061,0.57914951,-0.29745653,0.575312,0.57649957,-0.30665563,0.572887
0.53925062,-0.40610075,0.584995,0.5442338,-0.36412557,0.585791,0.52292384,-0.39224494,0.585855,0.50926619,-0.36568418,0.588544,0.49040891,-0.33869562,0.584186,0.48492209,-0.31897157,0.581545,0.52704972,-0.32255796,0.587333,0.51859643,-0.28544838,0.581934,0.5139386,-0.26734242,0.579234,0.50915776,-0.25030318,0.57678,0.54884249,-0.3254021,0.586537,0.54286824,-0.28324091,0.580473,0.53924585,-0.25859888,0.576936,0.53609972,-0.24077323,0.574409,0.56639011,-0.3304756,0.585827,0.56836618,-0.28947874,0.579899,0.56713639,-0.28352865,0.576867,0.56170759,-0.29524681,0.574109,0.58709638,-0.34211013,0.584877,0.5813389,-0.30254095,0.578596,0.57940855,-0.29870873,0.57571,0.57696969,-0.30803616,0.573163
0.54084242,-0.40646981,0.586189,0.54473573,-0.36396572,0.586332,0.52419562,-0.39266812,0.586946,0.50950543,-0.36561309,0.588631,0.49024903,-0.33895134,0.584484,0.48477227,-0.31927431,0.581512,0.52695215,-0.32227643,0.587348,0.51756639,-0.28307443,0.581408,0.51291992,-0.26640652,0.578437,0.50856149,-0.24969468,0.575737,0.548328,-0.32478282,0.586467,0.54147476,-0.2820934,0.579811,0.53745086,-0.25749811,0.575929,0.53457576,-0.23986438,0.573156,0.56539238,-0.32825984,0.585732,0.56814415,-0.29447246,0.589921,0.57111714,-0.27242529,0.592065,0.57187996,-0.2589861,0.594013,0.5862742,-0.33886442,0.584836,0.58117533,-0.30207739,0.578099,0.57850481,-0.2979611,0.575003,0.5759554,-0.30746474,0.572272
0.5412776,-0.40609576,0.586169,0.54497598,-0.36368377,0.586453,0.52456293,-0.392453,0.58697,0.50971964,-0.36546092,0.588542,0.4905358,-0.3393324,0.58498,0.48486722,-0.31948421,0.5813,0.52698804,-0.32218167,0.587608,0.51800893,-0.28271934,0.581771,0.51350349,-0.2664459,0.578853,0.50931529,-0.24988076,0.5762,0.54839173,-0.32455865,0.586719,0.54165869,-0.28190925,0.580195,0.53771778,-0.25746315,0.576389,0.53490319,-0.23994329,0.573671,0.56538534,-0.32761093,0.585968,0.57036431,-0.29519753,0.592231,0.5743679,-0.27397592,0.595435,0.57764238,-0.26030424,0.598348,0.58652144,-0.33856176,0.585036,0.5813039,-0.30181422,0.578405,0.5787657,-0.2979543,0.575358,0.57629719,-0.30763226,0.57267
0.54144307,-0.4054054,0.586261,0.54527822,-0.36313672,0.586782,0.52462334,-0.39174969,0.586991,0.51169128,-0.36251957,0.589088,0.49170826,-0.33256497,0.585222,0.48611512,-0.31821245,0.582649,0.52660833,-0.32028199,0.587997,0.51934926,-0.28004659,0.58231,0.51429746,-0.26408261,0.579466,0.51025476,-0.24972315,0.576881,0.54831298,-0.32285088,0.587271,0.54265256,-0.27916806,0.580939,0.53854392,-0.25598738,0.577246,0.5359225,-0.2397633,0.574608,0.56615616,-0.32752557,0.586637,0.57020591,-0.28788617,0.580347,0.5714172,-0.27689263,0.577129,0.56592156,-0.2852403,0.574203,0.58735552,-0.33867316,0.585814,0.58203935,-0.3019035,0.579197,0.57969186,-0.29776014,0.576156,0.5773148,-0.30710869,0.573473
0.54119278,-0.40442178,0.585914,0.54510105,-0.36228059,0.58659,0.52466745,-0.39104038,0.587,0.51065072,-0.36135986,0.588486,0.49131475,-0.33334091,0.585963,0.48436002,-0.31763599,0.580698,0.52708604,-0.31996957,0.588335,0.51992486,-0.2796479,0.582935,0.51515913,-0.26412415,0.580236,0.51137504,-0.24967275,0.577781,0.54840373,-0.32244281,0.587223,0.54306734,-0.27880631,0.581103,0.53914454,-0.2557152,0.577533,0.53641827,-0.23939076,0.574983,0.56590449,-0.32701423,0.586263,0.57207462,-0.29181161,0.592475,0.57521854,-0.27416096,0.595654,0.57861591,-0.26034507,0.598544,0.58661972,-0.33800607,0.585029,0.58141328,-0.30136747,0.578647,0.57924376,-0.29732037,0.575714,0.57701425,-0.3066395,0.573127
