sluyters/QuantumLeap/src/datasets/gesture/HandGestureDataset_SHREC2017_csv/Gesture4/finger_1/subject_19_essai_2_skeletons_world.csv
Wrist_x,Wrist_y,Wrist_z,Palm_x,Palm_y,Palm_z,thumb_base_x,thumb_base_y,thumb_base_z,thumb_first_joint_x,thumb_first_joint_y,thumb_first_joint_z,thumb_second_joint_x,thumb_second_joint_y,thumb_second_joint_z,thumb_tip_x,thumb_tip_y,thumb_tip_z,index_base_x,index_base_y,index_base_z,index_first_joint_x,index_first_joint_y,index_first_joint_z,index_second_joint_x,index_second_joint_y,index_second_joint_z,index_tip_x,index_tip_y,index_tip_z,middle_base_x,middle_base_y,middle_base_z,middle_first_joint_x,middle_first_joint_y,middle_first_joint_z,middle_second_joint_x,middle_second_joint_y,middle_second_joint_z,middle_tip_x,middle_tip_y,middle_tip_z,ring_base_x,ring_base_y,ring_base_z,ring_first_joint_x,ring_first_joint_y,ring_first_joint_z,ring_second_joint_x,ring_second_joint_y,ring_second_joint_z,ring_tip_x,ring_tip_y,ring_tip_z,pinky_base_x,pinky_base_y,pinky_base_z,pinky_first_joint_x,pinky_first_joint_y,pinky_first_joint_z,pinky_second_joint_x,pinky_second_joint_y,pinky_second_joint_z,pinky_tip_x,pinky_tip_y,pinky_tip_z,r
0.39572448,-0.34470398,0.453423,0.39388216,-0.2938919,0.452389,0.37409873,-0.33155416,0.452175,0.3478917,-0.3034223,0.441969,0.31674526,-0.28137388,0.430993,0.30104577,-0.26474827,0.428117,0.36767342,-0.25395954,0.450136,0.36105859,-0.20982085,0.441596,0.36476604,-0.19150165,0.445902,0.36890067,-0.17455568,0.450743,0.39328082,-0.25592911,0.4515,0.39968811,-0.23857163,0.442772,0.39937592,-0.26026523,0.437681,0.40753153,-0.28688618,0.451536,0.41449246,-0.26185772,0.452731,0.42019974,-0.25521389,0.443695,0.41237968,-0.27420168,0.439073,0.4178017,-0.29452166,0.45411,0.43825843,-0.2769317,0.454346,0.43814793,-0.26950673,0.444654,0.46025455,-0.2986745,0.461757,0.46905668,-0.31735164,0.4718
0.39625756,-0.33841393,0.45245,0.40571479,-0.28831423,0.45227,0.37752223,-0.32600797,0.450883,0.35247115,-0.30167804,0.441314,0.31745503,-0.27672117,0.425059,0.30044032,-0.26155647,0.422829,0.37962712,-0.24956069,0.450116,0.36809048,-0.20578572,0.441933,0.36837038,-0.18915777,0.44557,0.3700142,-0.17330504,0.450025,0.40530119,-0.25213706,0.452116,0.41698861,-0.23926101,0.444568,0.41575214,-0.26086639,0.440165,0.4266014,-0.29032711,0.454314,0.42631326,-0.25856595,0.453783,0.43710904,-0.25423008,0.445884,0.42731916,-0.27481937,0.441843,0.43130471,-0.29518153,0.457199,0.45073423,-0.27351608,0.455747,0.45541003,-0.27181489,0.449077,0.47793075,-0.30124405,0.466344,0.48597547,-0.31723095,0.475387
0.3988201,-0.33674744,0.452375,0.40637091,-0.2874902,0.452055,0.3811365,-0.32306013,0.450497,0.36176406,-0.29983377,0.439781,0.32783304,-0.27432776,0.420774,0.30980525,-0.25590535,0.413967,0.37899992,-0.24907985,0.449409,0.36494893,-0.20660906,0.440898,0.36621369,-0.18954087,0.445474,0.36944837,-0.17285142,0.449633,0.40507581,-0.25124679,0.45178,0.41595412,-0.23856615,0.444154,0.41544208,-0.25971604,0.439706,0.4272565,-0.28918423,0.453812,0.42656882,-0.25735877,0.453765,0.43649671,-0.2530614,0.445504,0.42699071,-0.27368631,0.441277,0.43132097,-0.2938823,0.456496,0.45177786,-0.27198897,0.456125,0.45496927,-0.26997162,0.448388,0.47781291,-0.29916276,0.465571,0.486606,-0.31515644,0.474957
0.40241379,-0.33078547,0.451273,0.40647282,-0.28322196,0.451372,0.38351046,-0.31921693,0.449707,0.35611314,-0.29114878,0.440035,0.32022816,-0.26747232,0.424826,0.29997154,-0.25444977,0.419908,0.37948444,-0.24189873,0.449385,0.36888109,-0.19923484,0.441274,0.37072394,-0.18114226,0.445436,0.3726227,-0.17084502,0.450744,0.40566869,-0.24477039,0.451457,0.41557829,-0.23750946,0.444209,0.41645923,-0.25829987,0.439982,0.42955821,-0.28785298,0.454209,0.42677864,-0.25357411,0.453152,0.43716494,-0.25035936,0.446597,0.43111472,-0.27192324,0.443242,0.43615924,-0.29515142,0.459,0.45209726,-0.26799065,0.4551,0.44281844,-0.25784932,0.446155,0.44696292,-0.27985219,0.46328,0.44659724,-0.2969105,0.473069
0.40275519,-0.32917235,0.450775,0.40610944,-0.28194372,0.451017,0.38383287,-0.31769889,0.449481,0.35618112,-0.29120436,0.440119,0.319898,-0.26719655,0.424388,0.30092852,-0.25349105,0.420309,0.37955791,-0.24194556,0.449472,0.36920627,-0.19941048,0.441663,0.37113175,-0.18134152,0.445926,0.37307343,-0.16975361,0.450714,0.40546112,-0.24464514,0.451226,0.41523357,-0.23689127,0.444069,0.41675602,-0.25745724,0.439895,0.4304834,-0.28702922,0.454164,0.4264716,-0.2525424,0.452644,0.43667138,-0.24931756,0.446148,0.4313804,-0.27093088,0.442825,0.43704258,-0.29473449,0.45862,0.45147068,-0.26693991,0.454245,0.44219018,-0.25748349,0.445522,0.44638502,-0.27949036,0.462681,0.4459704,-0.29649375,0.472405
0.4030699,-0.32807679,0.450498,0.40591106,-0.28129243,0.450821,0.38400125,-0.31664598,0.449275,0.35609614,-0.29113488,0.440014,0.31972764,-0.26705426,0.424162,0.30140603,-0.25301061,0.420508,0.37951059,-0.24191541,0.449416,0.36925141,-0.19943486,0.441717,0.37117669,-0.18136348,0.44598,0.37313558,-0.16891521,0.450405,0.4053461,-0.24457574,0.451098,0.41505105,-0.23653422,0.444011,0.41696675,-0.25697111,0.439877,0.43107002,-0.28655423,0.454169,0.42637359,-0.25205978,0.452449,0.43649652,-0.24883791,0.445997,0.43159111,-0.27048291,0.442696,0.43768532,-0.29455856,0.458508,0.45129501,-0.266496,0.453956,0.44199465,-0.25736963,0.445325,0.4462046,-0.27937739,0.462494,0.44576648,-0.29635819,0.472189
0.40331418,-0.32726085,0.450299,0.40577276,-0.28088814,0.450682,0.38411593,-0.3158883,0.449121,0.35602897,-0.29107997,0.439931,0.31958895,-0.26693841,0.423978,0.30166718,-0.25270101,0.420592,0.37947431,-0.24189227,0.449373,0.36928151,-0.19945111,0.441753,0.37119417,-0.18137202,0.446001,0.37315925,-0.16830626,0.450159,0.40526882,-0.24452912,0.451012,0.41493748,-0.23630081,0.443981,0.41712159,-0.25665552,0.43988,0.43147747,-0.28624762,0.454189,0.4263044,-0.25176416,0.452321,0.43639515,-0.24855214,0.44591,0.43172784,-0.27022027,0.442629,0.43813557,-0.29445505,0.458455,0.45117608,-0.26622165,0.453769,0.44187455,-0.2572997,0.445204,0.44609462,-0.27930853,0.46238,0.44563904,-0.29627346,0.472054
0.40052055,-0.3237899,0.446836,0.39996367,-0.2750964,0.444893,0.38199193,-0.31097283,0.444953,0.3507276,-0.2868622,0.433741,0.3208607,-0.26528682,0.416426,0.30092549,-0.24566349,0.405991,0.36718539,-0.23380804,0.441265,0.35788975,-0.19014488,0.432133,0.36601507,-0.17798947,0.44022,0.37201649,-0.16292271,0.447572,0.39337441,-0.23481426,0.443224,0.39929082,-0.22493057,0.433847,0.40330155,-0.24168374,0.428377,0.42018995,-0.2702305,0.442015,0.41544863,-0.23998514,0.44504,0.42015999,-0.2356108,0.436492,0.41029593,-0.25641527,0.432118,0.41649091,-0.27971007,0.44726,0.44223172,-0.2536343,0.447498,0.43231541,-0.24443649,0.436846,0.43782126,-0.26633656,0.453837,0.438132,-0.28998003,0.464174
0.40105195,-0.32323572,0.446944,0.39910558,-0.2745046,0.444514,0.38043653,-0.31149744,0.444459,0.35111473,-0.28673259,0.432413,0.32453898,-0.26561727,0.412651,0.30189471,-0.2450661,0.40311,0.36449781,-0.23456602,0.439807,0.35566246,-0.19055956,0.430254,0.36352035,-0.17660276,0.437788,0.36910014,-0.1611891,0.444638,0.39104337,-0.23504848,0.442426,0.39709214,-0.22363351,0.432672,0.40136438,-0.23983442,0.426983,0.41840003,-0.26810425,0.440466,0.41359291,-0.23983583,0.444836,0.41968418,-0.23508625,0.436134,0.41094063,-0.25600508,0.431682,0.41715271,-0.27972358,0.44672,0.44122121,-0.25310456,0.448071,0.43167699,-0.24510309,0.436803,0.43841183,-0.26679098,0.453694,0.43824574,-0.28945132,0.464209
0.40197017,-0.32148977,0.446592,0.39692807,-0.27319511,0.442814,0.37947676,-0.31049351,0.443279,0.35306909,-0.28751153,0.429894,0.32224272,-0.26473729,0.413168,0.30362823,-0.24557019,0.40383,0.35866158,-0.23428224,0.436212,0.34931651,-0.18965608,0.425406,0.35243429,-0.17117765,0.429496,0.35670703,-0.1533954,0.433602,0.38558745,-0.23399259,0.439567,0.39219559,-0.2215098,0.428579,0.39588164,-0.23773595,0.422169,0.41229699,-0.26571392,0.435216,0.40874678,-0.23824532,0.442724,0.41601666,-0.23342403,0.433075,0.4073476,-0.2540634,0.428138,0.41329851,-0.27751078,0.442779,0.43758334,-0.25105215,0.44707,0.42852637,-0.24397543,0.434447,0.43558357,-0.26563578,0.451132,0.43577341,-0.2847566,0.462044
0.40249792,-0.31953187,0.445657,0.38984866,-0.2684663,0.438232,0.37849376,-0.30788054,0.440746,0.34867801,-0.28391064,0.424536,0.32017411,-0.26112645,0.408055,0.3015067,-0.2426962,0.399893,0.34628557,-0.23092735,0.427352,0.33165012,-0.18447939,0.412774,0.33204678,-0.16537154,0.415103,0.33297086,-0.14761434,0.417988,0.37565364,-0.22959728,0.431852,0.37884667,-0.21515867,0.417415,0.38197607,-0.23088655,0.408993,0.39863895,-0.25702195,0.420783,0.39984133,-0.23370957,0.436334,0.40504267,-0.22728907,0.423758,0.39686051,-0.24719662,0.417323,0.40212972,-0.26986412,0.430726,0.43090604,-0.24669177,0.442878,0.4189895,-0.23877722,0.426902,0.42722873,-0.26052718,0.442998,0.42895031,-0.28082199,0.454862
0.40024731,-0.31723439,0.443046,0.38079585,-0.26888296,0.433626,0.3749088,-0.30515815,0.43671,0.34261469,-0.2863377,0.418396,0.31992491,-0.26260145,0.406374,0.30334153,-0.24281232,0.397361,0.33309308,-0.2333456,0.419682,0.31498439,-0.18637775,0.403431,0.31812639,-0.17113832,0.404862,0.32112151,-0.15619526,0.406163,0.36065752,-0.23163178,0.425531,0.36591358,-0.21574415,0.409409,0.3732674,-0.22727652,0.400004,0.38948009,-0.25186307,0.410973,0.38537214,-0.23496965,0.431331,0.39347906,-0.22631767,0.417572,0.38939571,-0.24408758,0.410532,0.39452298,-0.26601684,0.423177,0.4179284,-0.24713787,0.439765,0.41113809,-0.23593739,0.421806,0.42069885,-0.25805952,0.437363,0.42327286,-0.27847928,0.449716
0.39695901,-0.31464554,0.439913,0.37539145,-0.26988317,0.431843,0.37122758,-0.30272344,0.433284,0.34125597,-0.27615197,0.415034,0.3188683,-0.24790459,0.403634,0.30186434,-0.22685061,0.396218,0.33092821,-0.23154563,0.418328,0.31212053,-0.18685423,0.401525,0.3115475,-0.17581843,0.39918,0.31249744,-0.16370838,0.397048,0.35943291,-0.23079775,0.424908,0.3645731,-0.21533361,0.41031,0.36866558,-0.2262566,0.401795,0.38981141,-0.25391705,0.413158,0.38490233,-0.23479301,0.431169,0.3842057,-0.21222286,0.413098,0.37615993,-0.22974405,0.403853,0.38000536,-0.25093269,0.415167,0.41827672,-0.24757419,0.439893,0.40831212,-0.23609437,0.422853,0.41784704,-0.25910248,0.438456,0.42272624,-0.27931544,0.450503
0.39463772,-0.31287259,0.437768,0.37402568,-0.26746456,0.430994,0.36694717,-0.29991598,0.429025,0.33443021,-0.26526901,0.412572,0.3076111,-0.23348658,0.39463,0.29935597,-0.21202081,0.388067,0.32724195,-0.22647419,0.415498,0.31486587,-0.18888491,0.398979,0.34260243,-0.21139493,0.416652,0.36045774,-0.23649808,0.430231,0.35849802,-0.22825576,0.425173,0.36359165,-0.21438002,0.409677,0.36667014,-0.22780069,0.400638,0.38048854,-0.25334452,0.411091,0.38680925,-0.23488865,0.433848,0.38663751,-0.21376594,0.415901,0.37883923,-0.23137707,0.406719,0.38192387,-0.25245552,0.417342,0.42288279,-0.24941499,0.445134,0.41128111,-0.23629747,0.428497,0.42101091,-0.25947718,0.443403,0.42697108,-0.28193709,0.455039
0.39164606,-0.31141625,0.43488,0.37272912,-0.26935899,0.429532,0.36411711,-0.29912725,0.426457,0.33231054,-0.2699499,0.407179,0.3071242,-0.24018738,0.391228,0.29397303,-0.21872473,0.383289,0.3278989,-0.23057725,0.41531,0.31524709,-0.19738681,0.39935,0.34319956,-0.22058297,0.41718,0.36089224,-0.24578269,0.430601,0.35886506,-0.23190517,0.424936,0.36393024,-0.22245316,0.410876,0.36828802,-0.23401565,0.402674,0.38110024,-0.26034316,0.413619,0.38636374,-0.23740358,0.433421,0.3874721,-0.21601769,0.416853,0.38066085,-0.2338321,0.408376,0.38531272,-0.25831497,0.419528,0.4219406,-0.25170075,0.444229,0.41056302,-0.24417344,0.428779,0.42322167,-0.26577701,0.443881,0.42658355,-0.28477877,0.455174
0.38244063,-0.30540301,0.425401,0.36650007,-0.2661605,0.423347,0.35368898,-0.29704002,0.417568,0.32301744,-0.26612724,0.399929,0.29905875,-0.23640174,0.384791,0.28939714,-0.2151345,0.37728,0.32439636,-0.22895637,0.411878,0.31366835,-0.19656357,0.398096,0.34171507,-0.22014618,0.416163,0.35856485,-0.24506546,0.428819,0.35535708,-0.23064286,0.421582,0.3631882,-0.21746212,0.410877,0.37025208,-0.23049453,0.404632,0.38682307,-0.26050214,0.416585,0.38137513,-0.23842429,0.429788,0.38664433,-0.21978811,0.416382,0.38161092,-0.23560404,0.409523,0.38607584,-0.25846619,0.421741,0.41609077,-0.25305818,0.439673,0.40838883,-0.24391035,0.426973,0.419646,-0.26795023,0.442378,0.42388246,-0.28778395,0.45282
0.37798668,-0.30358684,0.42169,0.35663658,-0.26485908,0.4178,0.34750732,-0.29557015,0.413222,0.31482863,-0.26351388,0.394362,0.29005725,-0.23300798,0.377734,0.28271958,-0.21088203,0.369778,0.31350488,-0.22567854,0.404396,0.30647862,-0.19878044,0.388843,0.33351021,-0.22562316,0.406613,0.34770555,-0.2493655,0.419849,0.3447644,-0.22832184,0.414456,0.34737817,-0.20709993,0.401868,0.35411862,-0.21685382,0.394525,0.37050636,-0.24319218,0.405805,0.3697605,-0.23457765,0.423147,0.37612018,-0.21584549,0.407844,0.37018252,-0.23374076,0.400014,0.37501755,-0.25591181,0.411479,0.40510969,-0.24978387,0.433928,0.39860525,-0.24054406,0.419614,0.40938601,-0.26453805,0.434727,0.41535165,-0.28616367,0.445624
0.37603972,-0.30433596,0.420765,0.35454272,-0.26463817,0.416486,0.34522408,-0.2952502,0.411662,0.31434571,-0.26475678,0.394908,0.28872463,-0.23592015,0.37958,0.28294418,-0.21405641,0.373378,0.30862827,-0.2253626,0.402019,0.30526082,-0.19932764,0.387951,0.3321343,-0.22599307,0.40548,0.34584732,-0.24926791,0.418034,0.34040054,-0.22815954,0.412808,0.34508949,-0.20691897,0.399822,0.35160905,-0.21645891,0.392247,0.36772325,-0.24247706,0.403166,0.36848086,-0.23479101,0.42214,0.37181651,-0.21582251,0.406236,0.36581173,-0.23367389,0.398099,0.37058952,-0.25563902,0.409104,0.40457293,-0.25032559,0.433735,0.39527325,-0.24096063,0.41897,0.40576576,-0.26504068,0.433774,0.41209111,-0.28700955,0.444711
0.37209184,-0.30350256,0.417821,0.35285489,-0.26404683,0.415074,0.34266601,-0.29428338,0.409481,0.31087166,-0.26265135,0.391117,0.28468345,-0.23305265,0.374395,0.27738044,-0.21077966,0.366999,0.30888965,-0.22597348,0.402526,0.30664477,-0.20068004,0.389929,0.3339275,-0.22764989,0.407852,0.34734082,-0.25075839,0.419983,0.34018763,-0.22839607,0.412713,0.34618425,-0.20797195,0.401292,0.35358838,-0.21806089,0.394629,0.37038691,-0.24460723,0.406224,0.36769232,-0.23463003,0.421389,0.37249335,-0.21656701,0.407155,0.36731826,-0.23497299,0.399873,0.37242454,-0.25754475,0.411659,0.40278495,-0.24950921,0.431945,0.394765,-0.24096827,0.418571,0.40562974,-0.26528842,0.433749,0.41125558,-0.28709856,0.44434
0.36910508,-0.30344735,0.415928,0.351537,-0.26366307,0.414131,0.3405772,-0.29356962,0.407798,0.30755284,-0.26297745,0.389951,0.28203939,-0.23372318,0.373274,0.272023,-0.21105513,0.364719,0.30844886,-0.22610138,0.402428,0.30700789,-0.20129414,0.390808,0.33441156,-0.22836579,0.408821,0.34753976,-0.25131652,0.420602,0.33971508,-0.22848802,0.412587,0.34748503,-0.21548648,0.402139,0.35524451,-0.22958468,0.396045,0.37404613,-0.25649875,0.407934,0.36710545,-0.23463791,0.42114,0.37280757,-0.21705952,0.40784,0.36811329,-0.2357991,0.401036,0.37328338,-0.25867983,0.413138,0.4018947,-0.24931483,0.431382,0.39468935,-0.2412414,0.418817,0.40565407,-0.26564683,0.434084,0.41084303,-0.28738064,0.444427
0.36648504,-0.30379349,0.414675,0.35057055,-0.26334046,0.413398,0.33905739,-0.2931267,0.406631,0.30615502,-0.26264302,0.389041,0.28063597,-0.23355145,0.372473,0.2706223,-0.21109251,0.364013,0.30799328,-0.22603814,0.40212,0.30697557,-0.20149954,0.391018,0.3344195,-0.22860342,0.409058,0.34738807,-0.25145614,0.420646,0.33925825,-0.2284267,0.412301,0.34770018,-0.21561991,0.402388,0.35574682,-0.22990931,0.396605,0.37373007,-0.25722317,0.408641,0.36660296,-0.23454642,0.420818,0.37278437,-0.21723232,0.40802,0.36834918,-0.23614126,0.401472,0.37349505,-0.25918893,0.413727,0.40124795,-0.24912803,0.430923,0.39448574,-0.24130886,0.418797,0.4054917,-0.26574641,0.434096,0.41039272,-0.28744678,0.444296
