sluyters/QuantumLeap/src/datasets/gesture/HandGestureDataset_SHREC2017_csv/Gesture4/finger_1/subject_26_essai_2_skeletons_world.csv
Wrist_x,Wrist_y,Wrist_z,Palm_x,Palm_y,Palm_z,thumb_base_x,thumb_base_y,thumb_base_z,thumb_first_joint_x,thumb_first_joint_y,thumb_first_joint_z,thumb_second_joint_x,thumb_second_joint_y,thumb_second_joint_z,thumb_tip_x,thumb_tip_y,thumb_tip_z,index_base_x,index_base_y,index_base_z,index_first_joint_x,index_first_joint_y,index_first_joint_z,index_second_joint_x,index_second_joint_y,index_second_joint_z,index_tip_x,index_tip_y,index_tip_z,middle_base_x,middle_base_y,middle_base_z,middle_first_joint_x,middle_first_joint_y,middle_first_joint_z,middle_second_joint_x,middle_second_joint_y,middle_second_joint_z,middle_tip_x,middle_tip_y,middle_tip_z,ring_base_x,ring_base_y,ring_base_z,ring_first_joint_x,ring_first_joint_y,ring_first_joint_z,ring_second_joint_x,ring_second_joint_y,ring_second_joint_z,ring_tip_x,ring_tip_y,ring_tip_z,pinky_base_x,pinky_base_y,pinky_base_z,pinky_first_joint_x,pinky_first_joint_y,pinky_first_joint_z,pinky_second_joint_x,pinky_second_joint_y,pinky_second_joint_z,pinky_tip_x,pinky_tip_y,pinky_tip_z,r
0.404527132,-0.319432136,0.53194,0.395123386,-0.268379532,0.516862,0.385386375,-0.307608329,0.531708,0.343522975,-0.279490935,0.519126,0.303134141,-0.252097363,0.500147,0.283191313,-0.230503031,0.490947,0.36548809,-0.222823283,0.507,0.343179715,-0.173574964,0.487677,0.330109613,-0.153319195,0.478016,0.3180516,-0.134914225,0.469232,0.386410094,-0.222807061,0.503009,0.366754608,-0.17175737,0.480192,0.356251857,-0.15343044,0.466882,0.346672467,-0.153295675,0.457375,0.404655421,-0.229372286,0.501147,0.388010726,-0.177504856,0.47891,0.375498822,-0.169960816,0.467533,0.364589975,-0.163765684,0.45719,0.4277729,-0.243543484,0.501504,0.416557687,-0.197172735,0.48259,0.408724867,-0.193897745,0.473901,0.40027171,-0.204614771,0.466233
0.407659414,-0.323235016,0.53766,0.394509233,-0.270375692,0.518273,0.384184248,-0.308004755,0.531731,0.333117277,-0.275325066,0.508656,0.292516285,-0.245581275,0.485458,0.271577005,-0.221551115,0.472303,0.351106667,-0.219558912,0.498395,0.346451193,-0.17556152,0.492843,0.338696988,-0.153658229,0.490067,0.336036144,-0.131966169,0.487543,0.377081938,-0.222045754,0.500463,0.355485799,-0.166220643,0.472277,0.342359681,-0.163592223,0.455835,0.334053461,-0.163271607,0.444091,0.403750321,-0.229816422,0.503996,0.377667399,-0.18144323,0.476387,0.36781954,-0.174906608,0.462261,0.359228235,-0.187999843,0.44942,0.429222662,-0.245633552,0.51139,0.405175283,-0.200529751,0.485802,0.397566263,-0.204466703,0.474046,0.390819762,-0.215681577,0.463673
0.405539578,-0.322907333,0.536117,0.396393212,-0.272152368,0.521327,0.382935441,-0.308436323,0.53134,0.336726633,-0.277565706,0.512278,0.298037894,-0.251151681,0.495224,0.282463487,-0.230533695,0.490358,0.359978833,-0.224475664,0.505837,0.349459714,-0.178073575,0.497599,0.341185349,-0.157673484,0.49348,0.337621496,-0.136034713,0.491429,0.385880797,-0.22672012,0.507739,0.369618208,-0.179913578,0.484114,0.358985433,-0.191471957,0.470333,0.36468642,-0.215200472,0.479632,0.409760716,-0.23376295,0.510701,0.383180225,-0.193989017,0.487531,0.379141979,-0.206801523,0.475676,0.378307255,-0.224182854,0.468783,0.439041716,-0.250735942,0.516653,0.411500302,-0.210733836,0.494772,0.406996342,-0.21910853,0.484719,0.404379231,-0.231516876,0.477115
0.402344878,-0.321662512,0.533014,0.393561556,-0.270536988,0.517941,0.379984112,-0.30744485,0.528466,0.33335567,-0.276784874,0.508181,0.299335517,-0.249859873,0.488439,0.277730712,-0.225636667,0.478172,0.357336116,-0.223269536,0.502565,0.34675534,-0.177421799,0.494822,0.339748466,-0.156669782,0.490951,0.337282363,-0.133209803,0.487732,0.384196902,-0.225391134,0.504093,0.367005529,-0.178344844,0.480239,0.356193668,-0.189890866,0.466325,0.361850332,-0.213488933,0.475537,0.40744436,-0.231871323,0.506775,0.380401109,-0.192343352,0.483511,0.376245591,-0.205138495,0.471608,0.389098908,-0.23052605,0.481677,0.435418576,-0.248434446,0.512447,0.40843645,-0.208864612,0.490462,0.403821803,-0.217224839,0.480361,0.413561972,-0.236643809,0.487355
0.402146033,-0.321881949,0.533269,0.39311053,-0.270571691,0.517844,0.379389389,-0.307474191,0.528256,0.333308279,-0.276504343,0.507257,0.298584174,-0.249232716,0.487213,0.277692855,-0.225296728,0.476508,0.355780874,-0.223087899,0.501648,0.345527711,-0.17698852,0.493398,0.338868143,-0.155749057,0.489272,0.335944183,-0.13265843,0.485522,0.383355311,-0.225343006,0.503672,0.366477055,-0.177988721,0.479396,0.355449749,-0.18946351,0.465234,0.360964574,-0.212953643,0.474251,0.407121615,-0.231963367,0.506795,0.380103697,-0.192113095,0.482971,0.375703245,-0.204814978,0.470783,0.388353263,-0.230066938,0.480594,0.435561976,-0.248762431,0.513042,0.408732725,-0.208915533,0.490608,0.4039339,-0.217226638,0.480301,0.4135161,-0.236573935,0.487102
0.405490233,-0.32414749,0.537788,0.395997095,-0.272351329,0.52216,0.382636081,-0.309952488,0.533001,0.339517292,-0.279158488,0.512265,0.302044546,-0.251582418,0.494526,0.28142567,-0.228638506,0.484241,0.356941596,-0.223843704,0.506127,0.346393399,-0.177823121,0.494917,0.33876369,-0.156081829,0.489312,0.331280294,-0.13567749,0.484217,0.382207226,-0.223948831,0.507803,0.355208896,-0.215636852,0.483374,0.344498653,-0.235790981,0.469124,0.353975116,-0.247034944,0.478086,0.40483565,-0.22960283,0.510658,0.37640276,-0.195502796,0.486805,0.368471354,-0.208262731,0.474601,0.381007684,-0.23377001,0.484388,0.434259536,-0.241372398,0.516627,0.405457174,-0.216595044,0.494146,0.397460804,-0.230009408,0.483816,0.405971791,-0.24879452,0.490592
0.389946218,-0.311124672,0.516996,0.386991108,-0.264428557,0.509937,0.370352189,-0.299764004,0.515912,0.335381513,-0.270724467,0.502416,0.300460684,-0.248306321,0.489125,0.281815962,-0.226929532,0.482075,0.355758953,-0.220628197,0.504072,0.342877416,-0.175673803,0.489844,0.332726263,-0.154959857,0.482761,0.323233833,-0.135766962,0.476322,0.379126017,-0.219477239,0.503451,0.357230005,-0.210303246,0.488119,0.350007494,-0.233974298,0.479175,0.363456692,-0.252067752,0.491608,0.399383477,-0.222752965,0.503606,0.377471746,-0.196888228,0.489073,0.373207901,-0.211635693,0.481637,0.389481842,-0.23923137,0.495342,0.424856182,-0.23430375,0.504974,0.401037761,-0.213539417,0.4904,0.396601499,-0.228422625,0.483704,0.408315223,-0.248905305,0.493547
0.400843477,-0.318703124,0.530139,0.393918449,-0.270458016,0.52016,0.381603558,-0.308427621,0.530536,0.354555018,-0.283748285,0.51846,0.317724806,-0.25866961,0.50182,0.29044845,-0.233635077,0.489665,0.361247247,-0.2284222,0.514337,0.340872048,-0.186799679,0.497972,0.330885953,-0.164590633,0.48979,0.329024762,-0.144218962,0.490245,0.383985227,-0.22439563,0.510992,0.354247661,-0.214277437,0.493184,0.351702032,-0.236515619,0.482796,0.36532242,-0.253166925,0.494133,0.402664159,-0.225245936,0.50918,0.364827221,-0.186643673,0.493208,0.361036286,-0.197885762,0.485036,0.381607151,-0.222749129,0.497842,0.427297839,-0.23506126,0.508738,0.399112808,-0.213701294,0.492771,0.396524627,-0.22916908,0.485434,0.408189411,-0.24932995,0.494525
0.392252246,-0.310554052,0.517199,0.387610421,-0.265881891,0.511946,0.374406153,-0.302002339,0.51922,0.348851019,-0.279071405,0.510714,0.314496005,-0.255052393,0.497005,0.290225221,-0.232000838,0.486583,0.357487052,-0.229539958,0.511197,0.341089549,-0.187611197,0.499451,0.332572201,-0.166103555,0.493578,0.329168473,-0.145739672,0.492424,0.379736307,-0.223789693,0.50712,0.354180031,-0.215124435,0.49437,0.353802567,-0.239050707,0.486933,0.369200417,-0.256220637,0.499921,0.397065764,-0.223752379,0.504259,0.364073382,-0.186934081,0.493295,0.362100003,-0.199270587,0.487686,0.384146097,-0.225091461,0.502313,0.420805615,-0.231513736,0.501794,0.393640292,-0.213421698,0.490138,0.393682307,-0.228516267,0.484782,0.407964728,-0.249892463,0.49532
0.409357377,-0.323002333,0.538226,0.391421654,-0.268397907,0.517042,0.387002942,-0.311742192,0.535412,0.353377047,-0.282272629,0.516416,0.315573158,-0.254183165,0.496481,0.295966359,-0.23138251,0.485356,0.349969537,-0.22538435,0.500005,0.32363149,-0.178753256,0.473433,0.309969759,-0.16006683,0.460147,0.307173351,-0.146146679,0.463511,0.3740574,-0.221320517,0.49758,0.336031803,-0.20479831,0.468438,0.356722135,-0.242394068,0.489892,0.374638548,-0.260530883,0.507167,0.392370134,-0.222307714,0.497583,0.34783633,-0.179302192,0.470641,0.33969473,-0.187524132,0.456857,0.355610362,-0.209020283,0.464415,0.420180437,-0.231523284,0.501148,0.382989649,-0.21667387,0.475822,0.377287727,-0.228983652,0.464185,0.387797646,-0.241663394,0.469159
0.408925567,-0.321722822,0.535992,0.390410211,-0.267752889,0.515722,0.386755217,-0.311264284,0.533634,0.353032862,-0.281788425,0.515452,0.31599886,-0.253657296,0.496041,0.296822136,-0.230814526,0.485251,0.350013518,-0.22574802,0.499847,0.324346873,-0.179521159,0.474252,0.310850869,-0.160521831,0.461455,0.306850611,-0.145993126,0.463024,0.373429456,-0.22122613,0.497099,0.336582863,-0.20548254,0.468906,0.357193406,-0.243100742,0.490708,0.375126549,-0.261228753,0.507749,0.391590703,-0.222082318,0.49675,0.348200545,-0.179842373,0.470807,0.340440394,-0.188227894,0.457533,0.356733649,-0.210006083,0.465589,0.418952797,-0.231082129,0.49975,0.38253488,-0.216416587,0.475257,0.377140611,-0.228894364,0.464004,0.387820052,-0.243016011,0.469363
0.409038377,-0.321058396,0.534515,0.395132802,-0.271434271,0.521077,0.38734117,-0.311157053,0.532766,0.354141895,-0.282139238,0.516774,0.323628272,-0.255156684,0.503281,0.30748745,-0.232499139,0.495259,0.3588686,-0.230914808,0.510316,0.340047489,-0.194083466,0.490542,0.326107915,-0.185313895,0.480655,0.326056773,-0.184445004,0.491132,0.382290074,-0.228069246,0.508731,0.353308077,-0.216539227,0.487046,0.373007195,-0.256503949,0.51137,0.389475224,-0.272556653,0.526849,0.403621189,-0.230657004,0.508695,0.369568989,-0.194616904,0.488492,0.363545132,-0.20684313,0.478156,0.383553653,-0.234616184,0.489389,0.430773261,-0.244858354,0.510912,0.400048847,-0.214117367,0.491383,0.392862868,-0.227673635,0.48241,0.403337655,-0.247340344,0.490275
0.410945492,-0.321880328,0.535528,0.397844025,-0.273349985,0.523371,0.389549796,-0.312408523,0.534289,0.356400993,-0.283528503,0.51932,0.330329306,-0.255647654,0.508619,0.31656496,-0.232577623,0.501418,0.365804682,-0.234078903,0.514075,0.345146052,-0.196786482,0.495665,0.33203285,-0.18782517,0.486461,0.332785389,-0.186719259,0.497495,0.387987161,-0.231793147,0.512202,0.360522702,-0.220770358,0.491869,0.379009999,-0.261134694,0.516516,0.394091066,-0.277184006,0.531607,0.407817279,-0.234380066,0.511808,0.374560997,-0.196997359,0.492972,0.369344169,-0.209273531,0.483336,0.388309367,-0.236621504,0.495146,0.433763544,-0.24707175,0.51339,0.405188365,-0.216238043,0.495023,0.397624759,-0.229410451,0.486585,0.407405647,-0.249701084,0.494903
0.41431954,-0.324232182,0.538746,0.402144268,-0.277124495,0.526737,0.393309181,-0.31510095,0.538088,0.36263555,-0.285135983,0.523998,0.343692644,-0.256111489,0.515901,0.334136403,-0.23359145,0.514145,0.371431543,-0.237900473,0.518278,0.351095326,-0.201092672,0.500587,0.337551651,-0.198059067,0.491741,0.336670766,-0.203686637,0.502954,0.393006273,-0.235762792,0.515705,0.363399883,-0.223842068,0.495664,0.381750343,-0.263680756,0.520273,0.397064208,-0.279954515,0.535247,0.412194969,-0.238478799,0.51472,0.378255859,-0.199461947,0.49639,0.372639102,-0.211790182,0.487011,0.390492752,-0.237005173,0.498938,0.436670309,-0.249775251,0.515586,0.408375727,-0.224972674,0.49762,0.399369753,-0.238231975,0.489365,0.409699599,-0.254559416,0.497767
0.416369069,-0.32518702,0.539958,0.403085441,-0.27788621,0.527426,0.394973178,-0.315849104,0.538781,0.364858245,-0.285077393,0.523816,0.342902413,-0.255739785,0.514177,0.327642337,-0.232751914,0.507609,0.370546282,-0.236977659,0.51797,0.349253567,-0.200360096,0.499475,0.33641153,-0.194239819,0.490227,0.334753752,-0.196262027,0.501176,0.392506925,-0.234945414,0.515912,0.363410792,-0.224011894,0.495235,0.381632287,-0.263820898,0.519765,0.397223357,-0.280339911,0.534944,0.412132051,-0.237775642,0.515401,0.379570625,-0.201230154,0.496303,0.373702726,-0.213559081,0.486531,0.390468042,-0.237702524,0.498198,0.437857953,-0.249354047,0.51691,0.409241214,-0.22268445,0.498307,0.401471173,-0.234437225,0.48976,0.410110453,-0.254426774,0.497962
0.416545316,-0.324689947,0.538801,0.411935137,-0.282821697,0.535132,0.396268805,-0.316204483,0.538893,0.370205136,-0.28541875,0.527995,0.345764117,-0.255990421,0.516178,0.334743296,-0.232850314,0.511926,0.387199101,-0.241747824,0.532922,0.361250324,-0.216008259,0.522688,0.34967744,-0.213754782,0.517571,0.357282913,-0.23349007,0.53175,0.409360761,-0.239354342,0.531761,0.385966733,-0.214404198,0.520077,0.401916571,-0.252614578,0.546388,0.415957552,-0.275271609,0.558873,0.428579258,-0.241424766,0.531153,0.403861144,-0.22114611,0.520236,0.401181796,-0.23711234,0.514651,0.421546821,-0.264211972,0.529629,0.452682455,-0.25131348,0.531057,0.418279555,-0.249781359,0.519599,0.425863472,-0.274558296,0.537171,0.442987348,-0.285971751,0.550305
0.419431659,-0.326489533,0.540762,0.41412945,-0.283007495,0.536462,0.399343583,-0.318234791,0.541061,0.375118908,-0.284969315,0.530282,0.350005243,-0.25657779,0.517621,0.334850303,-0.232337201,0.507714,0.38840346,-0.243517918,0.534116,0.361423536,-0.217578798,0.523578,0.349395153,-0.215712703,0.518309,0.356740912,-0.235733196,0.532353,0.41013135,-0.240546212,0.532512,0.385426149,-0.216010341,0.520246,0.401807433,-0.254498477,0.54645,0.416418982,-0.277164415,0.559113,0.429126947,-0.242171343,0.531598,0.403461122,-0.222706591,0.520278,0.399533287,-0.23804035,0.514486,0.41919461,-0.265860866,0.529294,0.453216428,-0.251590417,0.53125,0.41806543,-0.251463713,0.519415,0.425256499,-0.276202211,0.536911,0.442426506,-0.287803288,0.550356
0.421720132,-0.328302736,0.543031,0.415733112,-0.283316998,0.537634,0.401680969,-0.319859584,0.543252,0.376795923,-0.286340774,0.532064,0.351446125,-0.258021836,0.519632,0.33683736,-0.233711244,0.50933,0.38878986,-0.244099326,0.534493,0.360930806,-0.217770374,0.523077,0.348502952,-0.215870654,0.51737,0.355579209,-0.235828881,0.531088,0.410321843,-0.240905034,0.532676,0.384502986,-0.216128319,0.519299,0.400933898,-0.254594225,0.545332,0.415939545,-0.277372884,0.558343,0.429263328,-0.242394348,0.531689,0.402630029,-0.222840945,0.519392,0.397950598,-0.23773359,0.5131,0.417109184,-0.265588524,0.527542,0.453503509,-0.251743258,0.531442,0.417502591,-0.251727213,0.518743,0.424487171,-0.276380141,0.536108,0.441559915,-0.28797007,0.549527
0.429314439,-0.33428368,0.551947,0.422629803,-0.285490523,0.5435,0.409807683,-0.325878531,0.552385,0.384986524,-0.291877921,0.540732,0.370574547,-0.267515515,0.543074,0.360319821,-0.243439401,0.53628,0.392216475,-0.246875308,0.538701,0.362930373,-0.220902866,0.525238,0.349737862,-0.219220613,0.518507,0.3562066,-0.239305406,0.531314,0.413009826,-0.243258052,0.53574,0.384984815,-0.219005932,0.519426,0.401276632,-0.257526508,0.5448,0.416722285,-0.279105921,0.558666,0.431503297,-0.24455238,0.5341,0.405371766,-0.233533356,0.519408,0.399954402,-0.24940525,0.511891,0.417854667,-0.276354104,0.525284,0.455583577,-0.253922027,0.533601,0.418016773,-0.254780685,0.518761,0.424307823,-0.278970864,0.535646,0.441164245,-0.288996095,0.548888
0.435953833,-0.33840042,0.558562,0.428779844,-0.289234776,0.548845,0.417752145,-0.328069753,0.556889,0.405788532,-0.302890262,0.557644,0.377065294,-0.272256521,0.549192,0.366152248,-0.248311433,0.542619,0.394413819,-0.249397407,0.540541,0.364616827,-0.22494251,0.524426,0.351458288,-0.223604265,0.516368,0.358671558,-0.24385699,0.528412,0.416712064,-0.245691719,0.539918,0.390476005,-0.217219057,0.521839,0.405276348,-0.253313464,0.547143,0.419981744,-0.280106009,0.561624,0.438220364,-0.249620816,0.540321,0.410508498,-0.237180988,0.523201,0.409608051,-0.255418859,0.514442,0.428807331,-0.280249129,0.527123,0.46507368,-0.259554854,0.542428,0.430631074,-0.257785941,0.52561,0.437161793,-0.282390106,0.542383,0.4471357,-0.292317209,0.554806
0.43991704,-0.340573947,0.561839,0.431657548,-0.291133673,0.551789,0.42156003,-0.330448448,0.560393,0.406930115,-0.30470868,0.559844,0.379375313,-0.274686922,0.551922,0.368172161,-0.250787905,0.545394,0.397412095,-0.253195684,0.543564,0.366465112,-0.227240646,0.52739,0.353475022,-0.225998093,0.519303,0.3610384,-0.246311687,0.531286,0.419708211,-0.249475405,0.542556,0.391536473,-0.218875641,0.524205,0.406504967,-0.256552844,0.549421,0.422253518,-0.281168637,0.563974,0.439901661,-0.250715827,0.542674,0.412553069,-0.239209325,0.525424,0.410801134,-0.256988594,0.516598,0.430005985,-0.281780751,0.529191,0.466760752,-0.260117999,0.544503,0.431619775,-0.259192938,0.527551,0.435686449,-0.284923837,0.544265,0.448819964,-0.295114691,0.556713
0.440593519,-0.340238317,0.561185,0.4346459,-0.293817068,0.554438,0.419809199,-0.330336928,0.559329,0.403636638,-0.302866766,0.558014,0.379376352,-0.273944992,0.550789,0.368943955,-0.250147472,0.544349,0.400618028,-0.255997859,0.547785,0.373694072,-0.237673824,0.533705,0.363723725,-0.238917846,0.526666,0.374673664,-0.260972237,0.539566,0.424151142,-0.252657203,0.54824,0.39839442,-0.230089701,0.53305,0.417784229,-0.268207572,0.558927,0.43151218,-0.287651359,0.572544,0.444684816,-0.254680343,0.549251,0.419842994,-0.240088293,0.5345,0.416668115,-0.253613295,0.526954,0.436327981,-0.285199466,0.540622,0.47274553,-0.263376306,0.551568,0.437114692,-0.264205714,0.536871,0.44208187,-0.287712676,0.554067,0.45313824,-0.303620623,0.565907
0.443646496,-0.341638606,0.563766,0.435819972,-0.294947819,0.556312,0.421739651,-0.331777083,0.561574,0.404459988,-0.303470401,0.559168,0.380522302,-0.274327515,0.551773,0.370385829,-0.250427291,0.545167,0.401266052,-0.256496875,0.54878,0.373839712,-0.237766453,0.533913,0.363595271,-0.238833469,0.52648,0.374345214,-0.260743461,0.539093,0.42500588,-0.253449178,0.549463,0.398731491,-0.230284374,0.533501,0.418023421,-0.268361128,0.559247,0.432363578,-0.288653864,0.573102,0.445850984,-0.255666622,0.550729,0.420373983,-0.240391941,0.535176,0.416877653,-0.253740834,0.527219,0.436346796,-0.284264672,0.540586,0.474049001,-0.264842238,0.553465,0.4376011,-0.264794049,0.538085,0.442965129,-0.288287512,0.555174,0.452888318,-0.304803418,0.567214
0.447740522,-0.343852559,0.567517,0.438890938,-0.297696325,0.56026,0.426799932,-0.334119087,0.56544,0.406458113,-0.305194132,0.561748,0.383678561,-0.276227545,0.554216,0.373988626,-0.252306733,0.547639,0.404898219,-0.259616981,0.553002,0.377368349,-0.238772412,0.538371,0.366511901,-0.234480072,0.531056,0.370998397,-0.252578018,0.543755,0.428640138,-0.257229446,0.553593,0.402697882,-0.231940395,0.53785,0.421535712,-0.269710973,0.563635,0.435937005,-0.291141248,0.577423,0.449680364,-0.259448978,0.554765,0.423702824,-0.241279677,0.539449,0.418173782,-0.249806891,0.531613,0.439081606,-0.281157681,0.545069,0.476880497,-0.269808613,0.557356,0.440211649,-0.267700756,0.542177,0.446486653,-0.291358804,0.559298,0.455472162,-0.307884663,0.571279
0.449910197,-0.344943106,0.569097,0.439720598,-0.298736664,0.561339,0.427988766,-0.335422854,0.566983,0.407347449,-0.306022019,0.562847,0.38485036,-0.276882141,0.555456,0.375452094,-0.252893484,0.548904,0.405810793,-0.260472652,0.553715,0.377790709,-0.238425235,0.538685,0.366589888,-0.234529965,0.531169,0.371853105,-0.252847256,0.543714,0.429474198,-0.258111251,0.554211,0.403139135,-0.231879576,0.537964,0.421670877,-0.269347005,0.563661,0.436296692,-0.29145373,0.577604,0.450467591,-0.260375793,0.555353,0.423801457,-0.240830948,0.539592,0.418106919,-0.249766949,0.531528,0.438336755,-0.280127208,0.544811,0.477656028,-0.270831291,0.557993,0.440552089,-0.268275391,0.542421,0.446743122,-0.291914559,0.559475,0.455263419,-0.308635452,0.571568
0.440970147,-0.338397418,0.557273,0.432092732,-0.295081402,0.551788,0.42178042,-0.33066491,0.557914,0.407953176,-0.306640698,0.56241,0.382461167,-0.27406349,0.547879,0.369735007,-0.248005299,0.538245,0.41013429,-0.259560792,0.549128,0.387260976,-0.256842629,0.537994,0.392738483,-0.273405651,0.532427,0.413003608,-0.296688311,0.546186,0.429871712,-0.257172239,0.546749,0.40051034,-0.237223928,0.533392,0.417861574,-0.267806944,0.559359,0.432332716,-0.291477501,0.572342,0.444504007,-0.25811977,0.545309,0.417713923,-0.257117252,0.533214,0.432225066,-0.291460643,0.555529,0.448829381,-0.310110089,0.569328,0.467412331,-0.267242927,0.544545,0.43193595,-0.263205325,0.531992,0.438697533,-0.286909235,0.54932,0.444581365,-0.304500123,0.560457
0.440909436,-0.338860649,0.55725,0.439023476,-0.299835886,0.560245,0.424582471,-0.333104894,0.561351,0.408646908,-0.307136613,0.56283,0.391394121,-0.280377333,0.559707,0.381279483,-0.255712732,0.554337,0.423771624,-0.268191422,0.567387,0.407100045,-0.27000047,0.565555,0.416499284,-0.289946779,0.564639,0.439373906,-0.315631873,0.58106,0.442645628,-0.264814278,0.562996,0.419821325,-0.248661904,0.55911,0.436986805,-0.280685572,0.58551,0.449419881,-0.303752876,0.595203,0.456392991,-0.264923424,0.559099,0.436035822,-0.26839501,0.556602,0.450725356,-0.303935871,0.579307,0.470896857,-0.32535719,0.59732,0.475859289,-0.27233376,0.554034,0.446269645,-0.272060871,0.549769,0.453326094,-0.296649074,0.567583,0.459633079,-0.31484075,0.578925
0.442398726,-0.340456539,0.559046,0.440561624,-0.30087314,0.561763,0.427989819,-0.335978467,0.565446,0.411999532,-0.30994378,0.565813,0.393899559,-0.282282234,0.562618,0.38331182,-0.257920213,0.558102,0.427207086,-0.27042834,0.571668,0.409263618,-0.270207955,0.569109,0.418161065,-0.290155493,0.56783,0.440681501,-0.31455306,0.583475,0.443871539,-0.265586885,0.564259,0.421503145,-0.250772173,0.560837,0.43627764,-0.284580405,0.586387,0.449458891,-0.309325622,0.595644,0.455944663,-0.264609328,0.557903,0.442327167,-0.267135668,0.556689,0.467849869,-0.301890743,0.57871,0.493652333,-0.320281188,0.598729,0.472726738,-0.270671004,0.550008,0.4440814,-0.271286562,0.546859,0.450241549,-0.294958415,0.564152,0.455748721,-0.313083788,0.574991
0.445796485,-0.343299838,0.563249,0.443037342,-0.302553949,0.564586,0.431205568,-0.33853702,0.569323,0.414433034,-0.31174511,0.56879,0.396254748,-0.284043654,0.565533,0.385855107,-0.259688382,0.561465,0.428471098,-0.2712599,0.5732,0.406180013,-0.26756322,0.565093,0.41281803,-0.285978695,0.561039,0.434078042,-0.308847353,0.575069,0.445212153,-0.266408649,0.565815,0.421665462,-0.251424898,0.560797,0.436544064,-0.285385246,0.586296,0.450208171,-0.3103548,0.596115,0.457690803,-0.265586848,0.559609,0.441491282,-0.26663085,0.555637,0.466911275,-0.301285094,0.577549,0.492613462,-0.319607169,0.597469,0.474760917,-0.271922481,0.552122,0.444841357,-0.27165822,0.547726,0.450629795,-0.295458836,0.564962,0.455894351,-0.313863934,0.575896
0.448406105,-0.346389973,0.567564,0.443935985,-0.30315992,0.565472,0.432374817,-0.340112598,0.571549,0.413201865,-0.310798125,0.566841,0.395094427,-0.283264215,0.563558,0.385377557,-0.259131394,0.559699,0.425581964,-0.269449482,0.56924,0.401019812,-0.263803455,0.558075,0.425624294,-0.294559386,0.578731,0.449108066,-0.318925889,0.59519,0.443499557,-0.265395577,0.56355,0.417058369,-0.249007507,0.554518,0.432272657,-0.282967054,0.580293,0.447071117,-0.308497423,0.591651,0.45749561,-0.265448095,0.559064,0.438710295,-0.264951322,0.552137,0.464316196,-0.29961056,0.574339,0.490183659,-0.318030715,0.594522,0.476673992,-0.273080272,0.554166,0.443441928,-0.270737849,0.545954,0.449085011,-0.294636688,0.563276,0.454196168,-0.313223031,0.574311
0.459654983,-0.356041101,0.582294,0.444618999,-0.304117561,0.565096,0.437353021,-0.344661629,0.578511,0.41490526,-0.31197305,0.569981,0.392899064,-0.281702298,0.561735,0.38241406,-0.256669724,0.554381,0.408888356,-0.260455849,0.54935,0.387235788,-0.263967157,0.525213,0.405802343,-0.294197076,0.543934,0.42308574,-0.301453673,0.560952,0.433347354,-0.260233303,0.549296,0.409463092,-0.263379448,0.523583,0.429618034,-0.30167398,0.546781,0.444731331,-0.313428729,0.56335,0.455189877,-0.264782674,0.550876,0.433183275,-0.269426413,0.526141,0.451597174,-0.302107544,0.546051,0.468105129,-0.314234851,0.564151,0.483845771,-0.278720041,0.555616,0.447867892,-0.279416516,0.532483,0.452185052,-0.30193449,0.547693,0.457799532,-0.32110442,0.561732
0.462710227,-0.358931374,0.58605,0.445807691,-0.304957606,0.566888,0.439329955,-0.346598447,0.580985,0.416248048,-0.313078825,0.571396,0.393969894,-0.282357443,0.562638,0.383072785,-0.257063443,0.555053,0.406944795,-0.260057327,0.548257,0.384612281,-0.26284087,0.52266,0.402775392,-0.2926673,0.540799,0.419986794,-0.303379719,0.557289,0.432246734,-0.260222055,0.549284,0.407186802,-0.262924484,0.521469,0.42682789,-0.300575807,0.543912,0.441360603,-0.311740788,0.559942,0.455014565,-0.265185433,0.551939,0.431600897,-0.268757049,0.524986,0.449516184,-0.301031655,0.544239,0.465372506,-0.312807206,0.561743,0.48206912,-0.277006941,0.558268,0.447823664,-0.279669974,0.533206,0.45166852,-0.30195148,0.547854,0.457633919,-0.321428819,0.562354
0.46327095,-0.359888824,0.586646,0.446368761,-0.305732414,0.567101,0.439801675,-0.347349233,0.581468,0.416907318,-0.313670631,0.571872,0.394821666,-0.282855582,0.563228,0.383782887,-0.257491722,0.5558,0.406436947,-0.260013806,0.548081,0.383986723,-0.26263473,0.522146,0.402071429,-0.292377903,0.540162,0.418974934,-0.303134841,0.55654,0.431772432,-0.260153877,0.549144,0.406573848,-0.262865619,0.52095,0.426121347,-0.300365296,0.543239,0.440517756,-0.311374708,0.55916,0.454602039,-0.265113787,0.551865,0.431130511,-0.268569283,0.52467,0.448958566,-0.300763822,0.543799,0.464668658,-0.312469921,0.561189,0.482388544,-0.277360666,0.558336,0.447401155,-0.279500012,0.532962,0.451159273,-0.301731866,0.547499,0.457175189,-0.321253825,0.562066
0.464041291,-0.36081038,0.587686,0.445995171,-0.306327172,0.566746,0.44020382,-0.347964654,0.582125,0.41712449,-0.314061025,0.572165,0.394986603,-0.28316457,0.563437,0.383712233,-0.257673878,0.555913,0.404243874,-0.25932087,0.546351,0.381034038,-0.261428287,0.519086,0.398783503,-0.290970689,0.536628,0.415400493,-0.301827674,0.552575,0.429623085,-0.259401122,0.547509,0.403602196,-0.26169039,0.517951,0.422769639,-0.29869455,0.539655,0.436772713,-0.309326028,0.555158,0.452612576,-0.26436572,0.550438,0.425751275,-0.260702015,0.52193,0.443386265,-0.293793475,0.540559,0.462804188,-0.311191204,0.559783,0.481519121,-0.277083436,0.557387,0.44561988,-0.277940294,0.530903,0.448942659,-0.300045087,0.54502,0.45500874,-0.319818836,0.559815
0.464086712,-0.361168385,0.587808,0.445914923,-0.306700345,0.566509,0.440143015,-0.348214598,0.58217,0.417105498,-0.31427389,0.572134,0.394990346,-0.283358222,0.563416,0.383564971,-0.257804608,0.555915,0.403280765,-0.259130965,0.545789,0.379938141,-0.261165882,0.518168,0.397610824,-0.290707669,0.535582,0.414104695,-0.301803573,0.551413,0.428658869,-0.25914561,0.546942,0.402512406,-0.261432664,0.517039,0.421608555,-0.298290036,0.538587,0.435489767,-0.308777026,0.553979,0.451681748,-0.264070226,0.549901,0.425050568,-0.260272948,0.521071,0.44257259,-0.293254323,0.539567,0.461467471,-0.310277299,0.558677,0.481098437,-0.277019841,0.556946,0.444988799,-0.277277806,0.530189,0.448157634,-0.299397386,0.544194,0.454178377,-0.319287859,0.559042
