sluyters/QuantumLeap/src/datasets/gesture/HandGestureDataset_SHREC2017_csv/Gesture4/finger_1/subject_27_essai_4_skeletons_world.csv
Wrist_x,Wrist_y,Wrist_z,Palm_x,Palm_y,Palm_z,thumb_base_x,thumb_base_y,thumb_base_z,thumb_first_joint_x,thumb_first_joint_y,thumb_first_joint_z,thumb_second_joint_x,thumb_second_joint_y,thumb_second_joint_z,thumb_tip_x,thumb_tip_y,thumb_tip_z,index_base_x,index_base_y,index_base_z,index_first_joint_x,index_first_joint_y,index_first_joint_z,index_second_joint_x,index_second_joint_y,index_second_joint_z,index_tip_x,index_tip_y,index_tip_z,middle_base_x,middle_base_y,middle_base_z,middle_first_joint_x,middle_first_joint_y,middle_first_joint_z,middle_second_joint_x,middle_second_joint_y,middle_second_joint_z,middle_tip_x,middle_tip_y,middle_tip_z,ring_base_x,ring_base_y,ring_base_z,ring_first_joint_x,ring_first_joint_y,ring_first_joint_z,ring_second_joint_x,ring_second_joint_y,ring_second_joint_z,ring_tip_x,ring_tip_y,ring_tip_z,pinky_base_x,pinky_base_y,pinky_base_z,pinky_first_joint_x,pinky_first_joint_y,pinky_first_joint_z,pinky_second_joint_x,pinky_second_joint_y,pinky_second_joint_z,pinky_tip_x,pinky_tip_y,pinky_tip_z,r
0.341882027,-0.342752887,0.470604,0.319848589,-0.285676943,0.444703,0.311245977,-0.324433617,0.459529,0.252644933,-0.294555192,0.434157,0.212291156,-0.274429508,0.409966,0.188841032,-0.254413486,0.393513,0.274357088,-0.223916195,0.412315,0.269221757,-0.178476443,0.393793,0.268500912,-0.156410962,0.384531,0.266910367,-0.136342328,0.376368,0.300977374,-0.229942924,0.416993,0.276167228,-0.209965671,0.382433,0.260754791,-0.225660782,0.362273,0.265016664,-0.236699247,0.365805,0.325281295,-0.237046045,0.422747,0.29645913,-0.248925947,0.38795,0.277657771,-0.250872574,0.370146,0.278807973,-0.254094757,0.373922,0.356619353,-0.253403765,0.433247,0.326679154,-0.225650877,0.40332,0.318431359,-0.233448398,0.389571,0.324632353,-0.246888501,0.391584
0.338242453,-0.343367609,0.471155,0.317656565,-0.285783832,0.44512,0.308299812,-0.321415567,0.45934,0.250627742,-0.294196952,0.433276,0.207210353,-0.274036884,0.408627,0.185122805,-0.253684483,0.39255,0.273336031,-0.222938673,0.411725,0.270428037,-0.177709632,0.39346,0.269517418,-0.154761787,0.384404,0.267730947,-0.135687977,0.376171,0.30095984,-0.228879989,0.417264,0.276291078,-0.210025942,0.382506,0.261952506,-0.225653707,0.36223,0.264441316,-0.236405694,0.365508,0.325579985,-0.237372653,0.423738,0.297914602,-0.248756947,0.388457,0.277395842,-0.250775315,0.370406,0.277778337,-0.253896102,0.373813,0.357400741,-0.254530555,0.435114,0.326890756,-0.228056032,0.404863,0.319338667,-0.237528253,0.390964,0.324932092,-0.247692691,0.392726
0.337068647,-0.343009085,0.471265,0.316963963,-0.285608308,0.445273,0.30705243,-0.320914595,0.459253,0.249956253,-0.294079441,0.432985,0.206413157,-0.273723116,0.408343,0.183853867,-0.253321686,0.392167,0.272921482,-0.222513828,0.411669,0.270626458,-0.177386294,0.393597,0.270049569,-0.154485097,0.384713,0.268638095,-0.135506698,0.376637,0.30080567,-0.228706078,0.417464,0.276492656,-0.21015885,0.382726,0.262044179,-0.225798592,0.362463,0.264346062,-0.23646706,0.365707,0.325561082,-0.237436689,0.424144,0.297913858,-0.248675811,0.388795,0.277394516,-0.250844083,0.37071,0.2773867,-0.253984262,0.374053,0.357429738,-0.254932166,0.435761,0.326907148,-0.228901999,0.405474,0.319330289,-0.238623292,0.391559,0.325111067,-0.248371802,0.39328
0.336279023,-0.342784924,0.471691,0.316772784,-0.28540703,0.445554,0.305294231,-0.319172836,0.459407,0.249533517,-0.293754831,0.433039,0.205900745,-0.273654912,0.408554,0.179971605,-0.252674522,0.391899,0.272876839,-0.22127665,0.411511,0.273108834,-0.17560802,0.394452,0.273684307,-0.153342912,0.386068,0.274201764,-0.134317919,0.378446,0.301068763,-0.228480501,0.41759,0.277500742,-0.211110283,0.382701,0.26205072,-0.226287076,0.362348,0.26405586,-0.236471837,0.365442,0.325910651,-0.237539366,0.424515,0.298005036,-0.248659613,0.388925,0.278166437,-0.250793053,0.370716,0.276913867,-0.253731906,0.373865,0.358553467,-0.255271418,0.436444,0.327645248,-0.230351314,0.405988,0.319170977,-0.240861616,0.391994,0.325323734,-0.249713702,0.393578
0.334959151,-0.341895708,0.472026,0.316623324,-0.285251628,0.445737,0.304705957,-0.31887556,0.459564,0.249272617,-0.293551571,0.433059,0.205497232,-0.273486338,0.40849,0.179517438,-0.25257245,0.391845,0.272983609,-0.220858015,0.411367,0.273883429,-0.175321267,0.394505,0.274607372,-0.153131631,0.386145,0.275259009,-0.13413267,0.378546,0.301213852,-0.228271599,0.417612,0.277641843,-0.211533828,0.382574,0.261960562,-0.226553006,0.362135,0.263735127,-0.236382004,0.3651,0.326090802,-0.237552295,0.424684,0.297977599,-0.248570764,0.388897,0.277907849,-0.250654122,0.370587,0.276463946,-0.253448783,0.373579,0.358734201,-0.255619208,0.436809,0.327838849,-0.23084137,0.40621,0.319531725,-0.241216659,0.39215,0.325283174,-0.250007418,0.393623
0.333670864,-0.340758343,0.472419,0.31656769,-0.2851859,0.445954,0.304294666,-0.318693125,0.459757,0.249085209,-0.293400234,0.433049,0.205189003,-0.273321558,0.408369,0.179181443,-0.252457358,0.391736,0.273023935,-0.220529919,0.41121,0.274330845,-0.175138262,0.394512,0.275143948,-0.15299528,0.386167,0.275875082,-0.134012669,0.378581,0.301333797,-0.22811453,0.417639,0.277703127,-0.211806105,0.382429,0.261831126,-0.226698234,0.36189,0.263392759,-0.23622809,0.364705,0.32627853,-0.237594389,0.424876,0.297947021,-0.248495802,0.388863,0.277674783,-0.250514625,0.370438,0.27603978,-0.253156786,0.373247,0.358978895,-0.255968881,0.437223,0.327855059,-0.231618583,0.406459,0.31981388,-0.241479375,0.392324,0.324999526,-0.250259334,0.393667
0.332026239,-0.340125888,0.472781,0.316564117,-0.285170538,0.446179,0.303945634,-0.318526472,0.459882,0.248889929,-0.293219744,0.432935,0.204880811,-0.273086419,0.408107,0.178867957,-0.252271353,0.391497,0.273023445,-0.220259099,0.411046,0.274565898,-0.174976068,0.394426,0.27545479,-0.152878412,0.386116,0.276254844,-0.133917713,0.378562,0.3014712,-0.228020204,0.417718,0.277786602,-0.212038841,0.382372,0.261769127,-0.226844183,0.361753,0.263144343,-0.2361273,0.364424,0.32652415,-0.237439418,0.425165,0.298003282,-0.248504248,0.388941,0.277557176,-0.250463527,0.370407,0.275742028,-0.252959083,0.373032,0.359130491,-0.256386549,0.437781,0.328221697,-0.232020943,0.406868,0.320185556,-0.241793154,0.392665,0.32514587,-0.250582879,0.39388
0.331500988,-0.340772877,0.474805,0.316000611,-0.285336798,0.448059,0.302368027,-0.318512662,0.461847,0.247982111,-0.292855562,0.434283,0.203917979,-0.273175993,0.408776,0.178304649,-0.252579274,0.391505,0.273547248,-0.220398962,0.412748,0.273960257,-0.175680814,0.394724,0.274851531,-0.153085403,0.386196,0.275431042,-0.133975392,0.378443,0.302273062,-0.228294055,0.419443,0.273928169,-0.233988481,0.383965,0.256992168,-0.242402799,0.363269,0.258523473,-0.242004614,0.365849,0.327228482,-0.238285856,0.42692,0.29830341,-0.249574477,0.390563,0.277244117,-0.251348837,0.371961,0.27523254,-0.253630258,0.374484,0.35951039,-0.257941365,0.439592,0.328612503,-0.232488693,0.408576,0.31936586,-0.239609234,0.394325,0.32528066,-0.25215113,0.395466
0.329423216,-0.34027735,0.474772,0.315530542,-0.28500247,0.447908,0.301746721,-0.317983522,0.461723,0.247272847,-0.292290707,0.434093,0.203265267,-0.272783967,0.408409,0.177604091,-0.252447902,0.390936,0.273140388,-0.220015225,0.412399,0.273934897,-0.174935379,0.394371,0.274561039,-0.152789763,0.385681,0.275099409,-0.1336635,0.377781,0.301904432,-0.228022084,0.419167,0.273652076,-0.233752643,0.383578,0.256673111,-0.242101855,0.362818,0.258141181,-0.241646749,0.365308,0.326880925,-0.238135843,0.426711,0.297664584,-0.249492112,0.390225,0.276518075,-0.251124523,0.371558,0.274460855,-0.253203222,0.373976,0.359174085,-0.257934851,0.439481,0.328204686,-0.232130379,0.408369,0.318815639,-0.239470437,0.394074,0.324644219,-0.251835613,0.39514
0.327766244,-0.339710736,0.474813,0.315163455,-0.284743125,0.4478,0.300210532,-0.31709079,0.461596,0.246654447,-0.291754816,0.43376,0.202616689,-0.272289194,0.407839,0.176936497,-0.252189664,0.390244,0.272721656,-0.219633136,0.411979,0.273602216,-0.174636369,0.393904,0.274273832,-0.152522738,0.385192,0.274849133,-0.133421301,0.377272,0.301419409,-0.227474139,0.4189,0.273361714,-0.233504617,0.383171,0.256327171,-0.241775554,0.362329,0.257703064,-0.241236627,0.364688,0.326407877,-0.237908372,0.426583,0.296840322,-0.249204015,0.389911,0.275873336,-0.250886468,0.371149,0.273724928,-0.252751685,0.373407,0.358637556,-0.258095908,0.439537,0.327948692,-0.231893399,0.408291,0.318470804,-0.239394514,0.393934,0.323840458,-0.251596447,0.394887
0.326867618,-0.339160112,0.474781,0.314578828,-0.284310528,0.447647,0.299370956,-0.316398397,0.46144,0.246206863,-0.291371898,0.433538,0.202172422,-0.271993023,0.407532,0.175842642,-0.252094071,0.389792,0.27240648,-0.219084115,0.411585,0.27358476,-0.174147374,0.393401,0.274450677,-0.152053548,0.38469,0.275198299,-0.133044307,0.376771,0.30115852,-0.227142358,0.418617,0.273078487,-0.233262685,0.382774,0.255998917,-0.241465935,0.361865,0.257300986,-0.24086024,0.364119,0.326168227,-0.237751754,0.4264,0.296382165,-0.24914264,0.389582,0.275173488,-0.2506548,0.370745,0.272845019,-0.252272229,0.372878,0.358376111,-0.258138978,0.439491,0.327649987,-0.232020252,0.408138,0.31814514,-0.240021378,0.393733,0.323462647,-0.251527363,0.394597
0.326360309,-0.338620764,0.474952,0.314203835,-0.283867376,0.447706,0.298864337,-0.315761909,0.461497,0.245858069,-0.29113818,0.433456,0.201562177,-0.271764336,0.407363,0.175243614,-0.252296532,0.389325,0.272108259,-0.218573135,0.411422,0.273217746,-0.17370015,0.392883,0.274041774,-0.151667743,0.383987,0.27474396,-0.132700264,0.3759,0.300920421,-0.226776208,0.418555,0.272941345,-0.233208629,0.382607,0.255882849,-0.24112071,0.361637,0.257031022,-0.24024655,0.363794,0.325975311,-0.237503127,0.426429,0.295952411,-0.249007063,0.389478,0.274638524,-0.25060078,0.370572,0.272128792,-0.252483249,0.372589,0.358222227,-0.258026913,0.439645,0.327479096,-0.23181553,0.408195,0.319195398,-0.241011439,0.393745,0.323028712,-0.251313193,0.394526
0.325956631,-0.338202137,0.475132,0.313873249,-0.283506208,0.447802,0.298536219,-0.315353508,0.461723,0.245601105,-0.290608488,0.432747,0.203096488,-0.266589088,0.406942,0.176859509,-0.249935118,0.387965,0.271914261,-0.218235903,0.411515,0.270845327,-0.172579914,0.39154,0.271389862,-0.150759644,0.382085,0.273159972,-0.13183441,0.373833,0.300667652,-0.226460675,0.418563,0.272754808,-0.23305352,0.382544,0.2558033,-0.240820864,0.361533,0.256918892,-0.239828017,0.363666,0.325661625,-0.237202322,0.426373,0.295478229,-0.248796081,0.389384,0.274142691,-0.250398555,0.37046,0.271606117,-0.25238019,0.372459,0.356343754,-0.257367101,0.439524,0.324564867,-0.238367079,0.408038,0.316809044,-0.247607709,0.393571,0.322507453,-0.251559332,0.394337
0.325382985,-0.337894742,0.474974,0.313645057,-0.283534202,0.448251,0.297300676,-0.314483704,0.460565,0.245781116,-0.288618665,0.428325,0.205088328,-0.257344857,0.402263,0.188110639,-0.241866764,0.381664,0.269878743,-0.217391991,0.411179,0.266344538,-0.171352847,0.390254,0.261103807,-0.153551316,0.379791,0.259281067,-0.137505525,0.37028,0.299637632,-0.226284419,0.419661,0.274299497,-0.233767058,0.384155,0.257366507,-0.241823088,0.363443,0.258101482,-0.240711866,0.365473,0.325519896,-0.237569469,0.428607,0.298094437,-0.248504437,0.391614,0.275500529,-0.251691935,0.372688,0.272543127,-0.253662983,0.374418,0.358746492,-0.258743711,0.443026,0.331677945,-0.249276881,0.411657,0.320464289,-0.256677212,0.397244,0.320832062,-0.258079043,0.39785
0.325280334,-0.337995934,0.47536,0.31333387,-0.283485363,0.448579,0.296735786,-0.31431692,0.460351,0.245955851,-0.287956111,0.427621,0.204484898,-0.257501623,0.401256,0.187189229,-0.241704844,0.380116,0.269186527,-0.21718795,0.410729,0.264166753,-0.171009009,0.390599,0.260508641,-0.153749409,0.380533,0.25880974,-0.137736313,0.371383,0.299422057,-0.226215653,0.419926,0.276833422,-0.230469502,0.384372,0.257759682,-0.241519216,0.363632,0.25804009,-0.240382697,0.365358,0.324263445,-0.235915607,0.429464,0.298174623,-0.247960315,0.392184,0.275553379,-0.251729938,0.373111,0.272102207,-0.253607531,0.374432,0.358179735,-0.256586965,0.444598,0.332697573,-0.249602172,0.413067,0.321631241,-0.257047936,0.39858,0.322657876,-0.258040741,0.398906
0.327656547,-0.338877376,0.476932,0.314538514,-0.283876257,0.449923,0.297785976,-0.314630281,0.46048,0.257981955,-0.286082892,0.425863,0.214166076,-0.258398863,0.398321,0.197226052,-0.240197994,0.378107,0.268403531,-0.217033088,0.410138,0.255114685,-0.17352786,0.38824,0.250701249,-0.154913518,0.377291,0.250771943,-0.136823531,0.367337,0.298292246,-0.225023229,0.421028,0.278281638,-0.230370336,0.385345,0.260932592,-0.23913559,0.364531,0.258307739,-0.23984311,0.365362,0.324542635,-0.229638474,0.431974,0.30390994,-0.236436907,0.394004,0.283088431,-0.242648875,0.374577,0.272664589,-0.25287088,0.374734,0.362018019,-0.246269419,0.448819,0.336438985,-0.251261519,0.416916,0.324870148,-0.258365298,0.402257,0.324198562,-0.258665485,0.401785
0.328848821,-0.338527927,0.476773,0.314908592,-0.283511682,0.450072,0.29870245,-0.314801169,0.4604,0.2579971,-0.286099686,0.425888,0.214258018,-0.258509794,0.398492,0.197330375,-0.240325047,0.378307,0.268394855,-0.217407803,0.410608,0.253643295,-0.173373032,0.385725,0.248750118,-0.158926445,0.373283,0.244332277,-0.146202158,0.361972,0.298337883,-0.224825073,0.421506,0.279197361,-0.23047956,0.386097,0.262145615,-0.239289522,0.365441,0.259296564,-0.24013083,0.366461,0.324891239,-0.229885138,0.432438,0.30446376,-0.23686777,0.394722,0.283729311,-0.243198205,0.375425,0.273572759,-0.253129496,0.375786,0.362343079,-0.246490547,0.449222,0.337243812,-0.251292764,0.417518,0.325565543,-0.258287834,0.402951,0.324914679,-0.258474729,0.402628
0.344601605,-0.337621722,0.475248,0.321556055,-0.281638514,0.450202,0.312409042,-0.319050671,0.460571,0.263010349,-0.288546149,0.430974,0.225112149,-0.259220118,0.405163,0.202299699,-0.242025689,0.384768,0.267236858,-0.220650196,0.414018,0.24543468,-0.177000476,0.387917,0.237651401,-0.1680166,0.374866,0.230727137,-0.160837791,0.363002,0.298106428,-0.224882892,0.423406,0.281046946,-0.230945049,0.389422,0.265889029,-0.240598316,0.369598,0.263992346,-0.241820196,0.372271,0.324319953,-0.229636082,0.432973,0.305067194,-0.237661273,0.397113,0.286079024,-0.244890252,0.378767,0.282526798,-0.253366041,0.381095,0.360744734,-0.244444504,0.447898,0.336706759,-0.250685263,0.417505,0.325592878,-0.257971245,0.403541,0.326226387,-0.258949934,0.404608
0.332192562,-0.331443551,0.466616,0.315099935,-0.279668959,0.44575,0.305446621,-0.314382927,0.454626,0.265722377,-0.283920345,0.428113,0.227585158,-0.254258828,0.40289,0.205837013,-0.229699787,0.386853,0.268447682,-0.221323865,0.415897,0.244232548,-0.174882146,0.386644,0.23601575,-0.167766766,0.372017,0.228761432,-0.162689305,0.35872,0.296649207,-0.223300997,0.423427,0.281809371,-0.222348066,0.393384,0.271316065,-0.237291046,0.37586,0.271784718,-0.245563064,0.381376,0.322477204,-0.228136795,0.431157,0.306674954,-0.238367255,0.399662,0.289714182,-0.247251609,0.383549,0.288812362,-0.25834734,0.389166,0.35667965,-0.241211906,0.443304,0.335380387,-0.24948326,0.41623,0.325515764,-0.25766626,0.40379,0.328109669,-0.260095076,0.407223
0.340360169,-0.331334853,0.46787,0.319286965,-0.278381585,0.446807,0.309826831,-0.314842985,0.455537,0.268565249,-0.282274827,0.429526,0.231335163,-0.254436753,0.405933,0.209872516,-0.229815852,0.390112,0.268861665,-0.221070372,0.416391,0.231774664,-0.177838212,0.386678,0.229555298,-0.184800958,0.371821,0.241534603,-0.203285515,0.376463,0.29692721,-0.222954797,0.424273,0.282737689,-0.221702704,0.394029,0.272263419,-0.236598853,0.376387,0.2729276,-0.244155295,0.381701,0.321865719,-0.226373182,0.432308,0.30614646,-0.236045635,0.400502,0.290348661,-0.245278515,0.384229,0.289376924,-0.257998836,0.389589,0.356958205,-0.23860546,0.444848,0.335038447,-0.247023242,0.417553,0.326150856,-0.256348438,0.405012,0.328703948,-0.259320308,0.408265
0.340873187,-0.330853289,0.468005,0.319485205,-0.277904293,0.446933,0.310171315,-0.314413852,0.455551,0.269041144,-0.281742991,0.429607,0.232099574,-0.253948308,0.406083,0.210754878,-0.229330467,0.390321,0.268566266,-0.220875342,0.416361,0.232518485,-0.179462172,0.386568,0.230735228,-0.187151335,0.371672,0.242491862,-0.205153867,0.376246,0.296797769,-0.22248667,0.424388,0.283050206,-0.222484855,0.39413,0.272467303,-0.236999074,0.37648,0.273133292,-0.243783709,0.381745,0.322032646,-0.225844504,0.432544,0.306494414,-0.235470329,0.400675,0.290674821,-0.243393196,0.38437,0.290118365,-0.255601725,0.389661,0.357229162,-0.238107956,0.445228,0.335429465,-0.246630035,0.417895,0.326284055,-0.256055898,0.405337,0.328792294,-0.259042945,0.408543
0.341236705,-0.330505824,0.468097,0.31962399,-0.277560555,0.447019,0.310444769,-0.314134781,0.455601,0.269302714,-0.281501529,0.429685,0.232502891,-0.253726156,0.406194,0.211216538,-0.229108586,0.390462,0.268364262,-0.220747513,0.41639,0.232790523,-0.180023981,0.386569,0.231151362,-0.187954063,0.371658,0.242831558,-0.205793239,0.376207,0.296702994,-0.222150378,0.424467,0.283221766,-0.222887626,0.394202,0.272583809,-0.237211439,0.376547,0.273293028,-0.243528993,0.381794,0.322116711,-0.225515557,0.432664,0.306697363,-0.235120145,0.400771,0.290722602,-0.243006945,0.384454,0.290098551,-0.254787957,0.389719,0.357345163,-0.237777936,0.445398,0.335623831,-0.24636418,0.41805,0.326311319,-0.255793218,0.405485,0.328795289,-0.25878493,0.408673
0.344442982,-0.332828646,0.472021,0.32148788,-0.278833978,0.449576,0.31350616,-0.316626296,0.459673,0.270433421,-0.280475807,0.438589,0.240400485,-0.256863886,0.413262,0.215047922,-0.23192705,0.39532,0.268433571,-0.221854863,0.418138,0.233013738,-0.182394692,0.387557,0.231335381,-0.190570667,0.372266,0.242527991,-0.206675529,0.376435,0.297182755,-0.222538952,0.425563,0.282481647,-0.222346317,0.394028,0.271554769,-0.236246017,0.375632,0.27225635,-0.242273116,0.380378,0.322367223,-0.225671935,0.433324,0.306145057,-0.234515237,0.40045,0.289837937,-0.242087527,0.38363,0.28904032,-0.253335524,0.388425,0.357393333,-0.237660515,0.44573,0.335094115,-0.24388832,0.417541,0.32467554,-0.25365666,0.404589,0.327398496,-0.256954206,0.407413
0.34512026,-0.332875593,0.472581,0.321901576,-0.278863564,0.450036,0.314147958,-0.316768882,0.460268,0.271060017,-0.280664769,0.439259,0.241271692,-0.257084294,0.414126,0.217817712,-0.231921468,0.396561,0.26860112,-0.222006718,0.418567,0.233028876,-0.181932118,0.387944,0.231383613,-0.190965402,0.372633,0.242712117,-0.20723332,0.376784,0.297322031,-0.222556038,0.425915,0.28246202,-0.222162366,0.394287,0.271597913,-0.236090176,0.375838,0.272434421,-0.242094614,0.380553,0.322563002,-0.225689851,0.43362,0.306258319,-0.234351561,0.400684,0.289938101,-0.241946282,0.383834,0.289175728,-0.253015647,0.388604,0.357565647,-0.237612486,0.445973,0.335011822,-0.245346531,0.417729,0.324620645,-0.253678225,0.404751,0.327476786,-0.257544021,0.407556
0.345600028,-0.332853193,0.472944,0.322236159,-0.278890287,0.450409,0.31462597,-0.316847105,0.460692,0.271381809,-0.280844237,0.439665,0.241685514,-0.257288347,0.414625,0.218789171,-0.232286481,0.397222,0.268509598,-0.222222808,0.419022,0.233302829,-0.182431188,0.388443,0.231599386,-0.191356336,0.373154,0.243043162,-0.207782941,0.37734,0.297505605,-0.222623685,0.4263,0.282600588,-0.222150915,0.394685,0.27181501,-0.236140688,0.376243,0.272786002,-0.242137046,0.380985,0.322787198,-0.225757412,0.433946,0.306486562,-0.234338384,0.401047,0.290187376,-0.241993688,0.384215,0.289487652,-0.252959885,0.389021,0.357752415,-0.237614706,0.446227,0.335133759,-0.245441543,0.418006,0.324713903,-0.253799407,0.40504,0.327417492,-0.256993356,0.407868
0.34244615,-0.329238865,0.46868,0.322332283,-0.278554381,0.451035,0.313407517,-0.315072814,0.459094,0.273673986,-0.283576979,0.436015,0.24362056,-0.256921221,0.416314,0.225860237,-0.233346336,0.401699,0.269848876,-0.219814191,0.426468,0.243157764,-0.197361314,0.400657,0.240950573,-0.208269238,0.387752,0.253695447,-0.227573977,0.394788,0.299786798,-0.223576358,0.432157,0.280546313,-0.227343765,0.405348,0.271154656,-0.2410891,0.389709,0.276392823,-0.24586993,0.397202,0.325331802,-0.226737906,0.438136,0.305550559,-0.234492354,0.410338,0.298686917,-0.248718163,0.396115,0.30077072,-0.262536983,0.404072,0.358577093,-0.238343194,0.447743,0.335496067,-0.245511827,0.423503,0.329919418,-0.257373023,0.412365,0.334831108,-0.262696949,0.417483
0.341807618,-0.328049878,0.467858,0.320443245,-0.276505642,0.44888,0.312214212,-0.313329313,0.457531,0.270246859,-0.279478056,0.430784,0.239997752,-0.252132907,0.409525,0.223081449,-0.22894307,0.395364,0.267298882,-0.21773701,0.422438,0.239905399,-0.194721501,0.395298,0.237207237,-0.205033629,0.381728,0.24934882,-0.223674896,0.388024,0.296899676,-0.221153588,0.428577,0.277145966,-0.224588256,0.400435,0.293602153,-0.261047624,0.421971,0.306285127,-0.272461137,0.44016,0.322676042,-0.224931198,0.435025,0.302176634,-0.231903062,0.405807,0.294375268,-0.245289238,0.390859,0.2963141,-0.258424701,0.397997,0.356371886,-0.237021163,0.445377,0.331699281,-0.243632478,0.420024,0.326324229,-0.254722926,0.408376,0.330852349,-0.259461089,0.412898
0.340516054,-0.327141361,0.467202,0.31977152,-0.275785421,0.448761,0.31102825,-0.312214952,0.456907,0.269828319,-0.278681295,0.430269,0.239694067,-0.251231693,0.408647,0.223049705,-0.227989926,0.394471,0.267493769,-0.217895762,0.422746,0.240310835,-0.195050554,0.395966,0.237734187,-0.205489107,0.382576,0.250011353,-0.224269212,0.389055,0.296945902,-0.221008633,0.429031,0.27781247,-0.225128365,0.401398,0.294380043,-0.261739262,0.423089,0.307083267,-0.273171135,0.441307,0.322802977,-0.225054026,0.435558,0.302896692,-0.232455666,0.406774,0.294999064,-0.245935059,0.392048,0.297415984,-0.258676107,0.399403,0.356408248,-0.236919849,0.445931,0.331902217,-0.244232565,0.42094,0.326874228,-0.255272818,0.409458,0.331705073,-0.26007355,0.414144
0.340573797,-0.327185293,0.467954,0.319702563,-0.275520586,0.449259,0.310942713,-0.311951653,0.457469,0.269944583,-0.278541681,0.430563,0.239689049,-0.250837392,0.408398,0.223122912,-0.227450346,0.394042,0.267545655,-0.217938028,0.422828,0.240188214,-0.19495105,0.395764,0.237521046,-0.205304875,0.382233,0.249684264,-0.223975801,0.388546,0.29691183,-0.220855337,0.429258,0.277791707,-0.225111539,0.401368,0.294256193,-0.261629145,0.422911,0.306932267,-0.273036811,0.44109,0.322859837,-0.225121124,0.435924,0.30295105,-0.232497382,0.406847,0.294723127,-0.245805879,0.39197,0.297284569,-0.257902759,0.399145,0.356494758,-0.23685285,0.446497,0.331858931,-0.244471632,0.421281,0.326811748,-0.255320585,0.409695,0.331666287,-0.259968319,0.414252
0.340374585,-0.327515863,0.468579,0.319531406,-0.27556457,0.449729,0.310647212,-0.311937963,0.457944,0.26997726,-0.278056759,0.430832,0.239549927,-0.250413588,0.407989,0.222994909,-0.226880961,0.393417,0.267654489,-0.218026681,0.423,0.240174255,-0.19493972,0.395741,0.237445235,-0.205239346,0.382111,0.249530037,-0.223837454,0.388306,0.296978218,-0.220808838,0.429561,0.277891371,-0.225192303,0.401512,0.294280545,-0.261650797,0.422946,0.306923221,-0.273028764,0.441077,0.322815354,-0.225178608,0.436346,0.303119337,-0.232626532,0.407073,0.29441938,-0.245617458,0.392095,0.297308413,-0.257500111,0.399143,0.356597866,-0.237202278,0.447084,0.331995795,-0.244753329,0.421719,0.326648028,-0.255364827,0.410065,0.331771675,-0.260171232,0.414531
0.340241369,-0.327910586,0.469296,0.319385642,-0.275630246,0.450234,0.3104044,-0.311976969,0.458496,0.270044036,-0.277607868,0.431155,0.239440175,-0.250089998,0.407673,0.222864052,-0.226418728,0.392887,0.267749402,-0.218103996,0.42315,0.240120241,-0.19489588,0.395652,0.237315983,-0.205127625,0.381903,0.249303837,-0.223634545,0.387954,0.297059866,-0.220794981,0.42984,0.277936358,-0.225228759,0.401577,0.294236015,-0.261611204,0.422882,0.306841807,-0.272956341,0.44096,0.322756052,-0.22522556,0.436747,0.30323401,-0.232714538,0.407227,0.294083114,-0.245502703,0.392124,0.297303475,-0.257439097,0.399016,0.356692024,-0.237545865,0.44766,0.332151678,-0.244997575,0.422106,0.326429106,-0.255365985,0.410366,0.331804954,-0.26031769,0.41472
0.340116505,-0.328314253,0.470026,0.31924034,-0.275696151,0.450739,0.31017073,-0.312025033,0.459061,0.270117915,-0.277167171,0.431489,0.239344704,-0.249827771,0.40741,0.222731088,-0.226027746,0.39242,0.267837354,-0.218175641,0.423289,0.240054089,-0.194842187,0.395543,0.237171817,-0.205003013,0.381671,0.249059002,-0.223414919,0.387573,0.297153358,-0.220804865,0.430104,0.277963351,-0.225250632,0.401616,0.294167132,-0.261549959,0.422783,0.306736733,-0.272862871,0.440809,0.322684204,-0.225263578,0.43713,0.303328579,-0.232787113,0.407354,0.293721598,-0.245366783,0.392119,0.297268611,-0.257352235,0.398849,0.356770957,-0.237879408,0.448217,0.332324131,-0.245221843,0.422467,0.32618537,-0.255347783,0.410636,0.331808621,-0.26044089,0.414872
0.339508015,-0.328451526,0.470226,0.318926176,-0.27561095,0.450984,0.309543724,-0.311821582,0.459172,0.270123549,-0.277172952,0.431498,0.239387259,-0.249742044,0.407402,0.222844173,-0.225937614,0.392433,0.267943657,-0.218262233,0.423457,0.240139662,-0.194911643,0.395684,0.237250735,-0.205071228,0.381798,0.249122621,-0.223471987,0.387672,0.29715831,-0.220564893,0.430397,0.278191055,-0.225435156,0.401945,0.294374477,-0.261734313,0.423081,0.306907217,-0.273014527,0.441054,0.322759215,-0.225260786,0.437522,0.303613772,-0.233005983,0.407737,0.293774548,-0.245539067,0.392498,0.297654877,-0.257625518,0.399203,0.3569285,-0.238192545,0.448721,0.331941533,-0.245619361,0.422974,0.326286244,-0.255698537,0.411144,0.332225271,-0.260848638,0.415366
