sluyters/QuantumLeap/src/datasets/gesture/HandGestureDataset_SHREC2017_csv/Gesture4/finger_1/subject_2_essai_4_skeletons_world.csv
Wrist_x,Wrist_y,Wrist_z,Palm_x,Palm_y,Palm_z,thumb_base_x,thumb_base_y,thumb_base_z,thumb_first_joint_x,thumb_first_joint_y,thumb_first_joint_z,thumb_second_joint_x,thumb_second_joint_y,thumb_second_joint_z,thumb_tip_x,thumb_tip_y,thumb_tip_z,index_base_x,index_base_y,index_base_z,index_first_joint_x,index_first_joint_y,index_first_joint_z,index_second_joint_x,index_second_joint_y,index_second_joint_z,index_tip_x,index_tip_y,index_tip_z,middle_base_x,middle_base_y,middle_base_z,middle_first_joint_x,middle_first_joint_y,middle_first_joint_z,middle_second_joint_x,middle_second_joint_y,middle_second_joint_z,middle_tip_x,middle_tip_y,middle_tip_z,ring_base_x,ring_base_y,ring_base_z,ring_first_joint_x,ring_first_joint_y,ring_first_joint_z,ring_second_joint_x,ring_second_joint_y,ring_second_joint_z,ring_tip_x,ring_tip_y,ring_tip_z,pinky_base_x,pinky_base_y,pinky_base_z,pinky_first_joint_x,pinky_first_joint_y,pinky_first_joint_z,pinky_second_joint_x,pinky_second_joint_y,pinky_second_joint_z,pinky_tip_x,pinky_tip_y,pinky_tip_z,r
0.28315911,-0.32525774,0.394308,0.28015319,-0.27338247,0.38621,0.26336938,-0.31129823,0.39109,0.23476732,-0.27909179,0.377074,0.20569405,-0.25039429,0.362279,0.19380082,-0.23267862,0.359573,0.25387702,-0.23118857,0.377742,0.23974092,-0.1893157,0.363768,0.23599843,-0.17318338,0.356781,0.23504786,-0.16061195,0.353278,0.27582668,-0.23386091,0.379379,0.27648966,-0.21660181,0.365113,0.29226108,-0.25369926,0.387589,0.29534074,-0.27411706,0.399804,0.29374271,-0.23903683,0.381339,0.29683733,-0.2250591,0.367013,0.28886434,-0.24157935,0.359684,0.29085948,-0.25971099,0.371437,0.31602155,-0.25192798,0.38479,0.3096176,-0.24276052,0.370206,0.31623626,-0.26878949,0.385376,0.31775298,-0.27945521,0.396391
0.28413306,-0.32477927,0.394614,0.28005743,-0.27343976,0.386368,0.26428572,-0.31105182,0.391454,0.23530186,-0.27960125,0.377483,0.20572077,-0.25073982,0.362257,0.19348974,-0.23318775,0.359528,0.25316407,-0.23111721,0.377888,0.23955957,-0.18947221,0.363858,0.23578082,-0.17321763,0.356843,0.23481106,-0.16049982,0.35339,0.27508474,-0.23350613,0.379411,0.27541032,-0.2146118,0.364987,0.29168144,-0.25317725,0.387445,0.29578794,-0.27524173,0.399712,0.29328715,-0.23888453,0.381287,0.29462123,-0.22609292,0.367139,0.28897984,-0.24166859,0.3599,0.29068502,-0.26041667,0.371701,0.31558697,-0.25157712,0.38466,0.3094963,-0.23693065,0.370002,0.31790669,-0.26077287,0.385161,0.31896838,-0.27706469,0.396197
0.28480273,-0.32395544,0.394499,0.27994028,-0.27344262,0.386432,0.26507103,-0.31065128,0.391624,0.23586863,-0.28017655,0.378042,0.20570891,-0.25103869,0.362167,0.19316828,-0.23368489,0.359464,0.2531563,-0.23155192,0.378408,0.23990396,-0.18997847,0.364666,0.23620893,-0.17368347,0.357796,0.23469732,-0.16046074,0.353583,0.27490013,-0.2336418,0.379627,0.2751873,-0.21437431,0.365313,0.29149199,-0.25299396,0.387817,0.29557421,-0.27421121,0.400059,0.2929395,-0.23876532,0.38124,0.29451895,-0.22619273,0.367548,0.28945655,-0.24206236,0.360542,0.29168865,-0.26105896,0.372509,0.31502637,-0.25112694,0.384276,0.30940993,-0.23595547,0.369856,0.31788381,-0.26117053,0.385059,0.32065665,-0.27693774,0.396029
0.28588506,-0.32360904,0.395014,0.28013678,-0.27379607,0.386926,0.26605205,-0.31051734,0.39212,0.23825166,-0.28341097,0.37851,0.20463367,-0.25692168,0.358127,0.19146716,-0.23665339,0.356792,0.25315157,-0.23201718,0.378866,0.24010691,-0.1902196,0.3651,0.2362501,-0.17370707,0.358217,0.23529423,-0.1609566,0.354462,0.27495447,-0.23399315,0.380102,0.27505942,-0.21454156,0.365771,0.29122478,-0.25308697,0.388271,0.29537765,-0.2734294,0.400518,0.29305922,-0.23903063,0.381731,0.29374919,-0.23564833,0.368028,0.28494542,-0.25113757,0.361017,0.28970593,-0.27181508,0.372979,0.31524609,-0.25130068,0.384789,0.30912487,-0.23888598,0.370347,0.31711466,-0.26641464,0.385546,0.32210265,-0.28021695,0.396522
0.2860489,-0.32344191,0.395441,0.27993988,-0.27361371,0.38723,0.26609872,-0.31048659,0.392503,0.23723181,-0.28205775,0.378816,0.20513628,-0.25433518,0.359793,0.19185894,-0.23502569,0.357671,0.25261879,-0.23212416,0.379047,0.23981989,-0.18991321,0.365171,0.23617976,-0.17343364,0.358233,0.23530572,-0.16099144,0.35461,0.27448787,-0.23390739,0.380303,0.2738569,-0.21352848,0.365862,0.29098463,-0.25286194,0.388341,0.29525176,-0.27321898,0.40062,0.29246662,-0.23851969,0.381957,0.29309783,-0.23605719,0.368153,0.28500123,-0.25163998,0.361091,0.28856615,-0.26643966,0.373012,0.31490602,-0.25051902,0.385061,0.30927756,-0.23799725,0.37052,0.31753011,-0.26509243,0.385701,0.32266717,-0.27838903,0.396706
0.28542518,-0.32270805,0.394836,0.27932366,-0.27319881,0.386871,0.26577451,-0.31027452,0.39238,0.23788438,-0.28313349,0.379342,0.20385415,-0.25668973,0.358194,0.1906823,-0.23546937,0.355965,0.2526588,-0.23231474,0.379424,0.24014612,-0.19011505,0.36601,0.23626142,-0.17314035,0.359303,0.23434686,-0.16024428,0.353206,0.27419442,-0.23374966,0.380151,0.27451569,-0.2146328,0.365843,0.29100081,-0.25401639,0.38838,0.2951059,-0.27354814,0.40063,0.29205535,-0.23833765,0.381352,0.29231987,-0.23606335,0.367506,0.28450828,-0.25167535,0.360423,0.28759982,-0.26780926,0.372365,0.31392247,-0.25004466,0.383886,0.30606655,-0.24549004,0.369711,0.31443797,-0.27127443,0.384953,0.31975227,-0.28493155,0.395852
0.285569,-0.32238159,0.394843,0.27907148,-0.27289459,0.386786,0.26579613,-0.31010834,0.392329,0.23881285,-0.28544321,0.379203,0.20355004,-0.25631134,0.356805,0.18913278,-0.23686706,0.3532,0.25202049,-0.23215436,0.379216,0.23962627,-0.18974438,0.365713,0.23566417,-0.17240007,0.358962,0.23364672,-0.15948849,0.352824,0.27362462,-0.23340346,0.379988,0.27501704,-0.21865121,0.365602,0.29146097,-0.25648674,0.388123,0.2949315,-0.273924,0.400395,0.29157277,-0.23784755,0.381232,0.29269646,-0.23488927,0.367326,0.28530034,-0.25102508,0.360211,0.28891336,-0.26757042,0.372127,0.31359386,-0.24939747,0.383831,0.30635429,-0.24437718,0.36957,0.31455592,-0.26985904,0.384798,0.3206073,-0.28128537,0.395722
0.28569333,-0.32212075,0.394745,0.27887194,-0.27278483,0.386762,0.26577812,-0.30998375,0.392106,0.23887466,-0.28561186,0.378834,0.20336646,-0.25620342,0.35595,0.1869707,-0.2372535,0.349174,0.25143555,-0.2322022,0.379077,0.23893273,-0.18967554,0.365541,0.2351488,-0.17211647,0.358773,0.23316176,-0.1589599,0.35262,0.27317,-0.23333723,0.380027,0.27363856,-0.22297789,0.365741,0.29094873,-0.262977,0.38827,0.29457615,-0.27799279,0.400509,0.29089578,-0.23759063,0.381413,0.29255206,-0.23538411,0.367661,0.28611927,-0.25172288,0.360625,0.29001013,-0.2689396,0.37259,0.31314461,-0.24893617,0.384168,0.30785342,-0.23875913,0.369903,0.31661334,-0.26518373,0.385132,0.32139537,-0.2793997,0.396057
0.28578007,-0.3220365,0.394832,0.27841799,-0.27251562,0.386526,0.26560477,-0.30984462,0.391891,0.23855342,-0.28547833,0.378183,0.20292925,-0.25610714,0.355242,0.18633786,-0.2370832,0.348216,0.24994846,-0.23186792,0.378287,0.23646283,-0.18959244,0.364364,0.23000019,-0.17104991,0.357402,0.23030167,-0.15695244,0.351073,0.27184934,-0.2328822,0.379519,0.27254097,-0.22339543,0.364988,0.28834912,-0.26521053,0.387451,0.29339954,-0.2789895,0.399758,0.29013189,-0.23715402,0.38116,0.2916658,-0.23576255,0.367261,0.28529802,-0.25197999,0.360149,0.29026408,-0.26703842,0.372034,0.31243163,-0.2484119,0.384263,0.30714302,-0.23836132,0.369658,0.31677272,-0.26354254,0.384829,0.32113956,-0.27936589,0.395851
0.28665939,-0.32278313,0.395972,0.2782662,-0.27252217,0.386712,0.26573178,-0.31001082,0.392084,0.23832154,-0.28613669,0.377031,0.20260995,-0.25588687,0.354441,0.18597124,-0.2369281,0.347391,0.24881401,-0.23092208,0.376768,0.23500608,-0.1886884,0.36163,0.23034948,-0.17121827,0.354061,0.2332154,-0.15950236,0.355199,0.2712762,-0.23241471,0.3789,0.27163706,-0.22315644,0.363667,0.2874262,-0.26434174,0.3859,0.29185824,-0.27911932,0.398389,0.29015267,-0.23712971,0.381355,0.29160401,-0.23589548,0.367064,0.28495269,-0.2518423,0.359753,0.28949342,-0.2663853,0.371391,0.31362513,-0.2491491,0.385554,0.307581,-0.23826074,0.369933,0.31681491,-0.26384917,0.384903,0.32148338,-0.27973988,0.396205
0.28584229,-0.32221247,0.395543,0.27746837,-0.2721801,0.386477,0.26482655,-0.30941865,0.391457,0.23741803,-0.28428443,0.376194,0.20182687,-0.25507823,0.353236,0.18544201,-0.23621672,0.346578,0.24788023,-0.23060437,0.376392,0.233871,-0.18794345,0.361262,0.22919306,-0.17084222,0.353697,0.23242435,-0.15912883,0.354486,0.26990565,-0.23169801,0.378828,0.27144512,-0.22505373,0.363831,0.28711043,-0.26480187,0.386069,0.2910476,-0.28049192,0.398474,0.28859241,-0.2361489,0.381519,0.29186985,-0.23621209,0.367557,0.28527201,-0.25226638,0.360414,0.28853949,-0.26836225,0.372144,0.31132454,-0.24753089,0.38597,0.30786407,-0.23695038,0.370398,0.31775952,-0.26101467,0.385364,0.32210153,-0.27914923,0.396648
0.28478007,-0.32153207,0.395013,0.27618571,-0.27139411,0.385685,0.26320968,-0.30811974,0.390008,0.23567351,-0.28396593,0.373585,0.19973878,-0.25381233,0.350375,0.18283349,-0.23483385,0.342927,0.24420196,-0.22869381,0.374311,0.22959778,-0.18642363,0.358465,0.22491061,-0.16842379,0.350543,0.23086439,-0.15816916,0.352856,0.26679455,-0.23039766,0.377816,0.2701832,-0.22471348,0.362802,0.28549103,-0.26426616,0.384845,0.28856786,-0.28047283,0.397195,0.28528391,-0.23537508,0.381406,0.29161407,-0.23540056,0.367774,0.28535068,-0.25215904,0.3608,0.2884534,-0.26836597,0.372497,0.30932015,-0.247921,0.386957,0.30737778,-0.23568293,0.370859,0.31711676,-0.26089548,0.385655,0.32195511,-0.27943743,0.397058
0.28367066,-0.32094087,0.394595,0.27446629,-0.27064875,0.385339,0.26200895,-0.30745814,0.389373,0.2345498,-0.28343571,0.372703,0.19851625,-0.25323535,0.349263,0.18166473,-0.23439572,0.341919,0.24168544,-0.22773338,0.373733,0.22857833,-0.18595251,0.357857,0.22401729,-0.16796749,0.349919,0.22960889,-0.15751963,0.351894,0.2638531,-0.22969759,0.377531,0.26945977,-0.22463419,0.362646,0.28476195,-0.26418306,0.384651,0.28770056,-0.2805095,0.396942,0.28321354,-0.2351334,0.381355,0.29119099,-0.23480838,0.367944,0.28514879,-0.25158476,0.361082,0.28829115,-0.26839353,0.372814,0.3072234,-0.24799386,0.387175,0.30537999,-0.23343908,0.371044,0.3159649,-0.26065727,0.385806,0.32144661,-0.27954064,0.397207
0.28422967,-0.32223432,0.39645,0.27403916,-0.27076055,0.3856,0.26147841,-0.3075822,0.389731,0.23339325,-0.28226422,0.371008,0.19814847,-0.25293453,0.348255,0.18102854,-0.2336875,0.3402,0.23853212,-0.22590242,0.371251,0.22554893,-0.18402863,0.353635,0.22163015,-0.17250896,0.344827,0.22144853,-0.16571891,0.33682,0.26250188,-0.22906404,0.376446,0.26630478,-0.2235183,0.360441,0.28208422,-0.26226819,0.381826,0.28519531,-0.27881092,0.394327,0.28281195,-0.2352328,0.381542,0.28865945,-0.23288265,0.367495,0.28309561,-0.25014285,0.360309,0.28669591,-0.26689985,0.371468,0.30828791,-0.24915873,0.389088,0.30497947,-0.23354846,0.371377,0.3148444,-0.25925745,0.385645,0.32094013,-0.27877046,0.397411
0.28201227,-0.32046791,0.394494,0.26955827,-0.26936413,0.384924,0.25906546,-0.30557492,0.387392,0.23174832,-0.2804127,0.368478,0.19744454,-0.25189514,0.34674,0.18077582,-0.23297211,0.339118,0.23671286,-0.22551565,0.370803,0.22614892,-0.18502162,0.354655,0.22324954,-0.17472217,0.346581,0.22316445,-0.1694306,0.339241,0.26136225,-0.22915955,0.37685,0.26059272,-0.21452023,0.362219,0.2752711,-0.25278599,0.383611,0.27900819,-0.26998,0.395617,0.28301372,-0.23568665,0.38255,0.28571337,-0.23482211,0.370117,0.27426095,-0.25186485,0.363756,0.27665414,-0.26422756,0.375351,0.30910796,-0.24997643,0.390633,0.29850576,-0.24357889,0.373654,0.3097289,-0.27013248,0.387922,0.32189096,-0.28494394,0.39943
0.28110215,-0.319915,0.394134,0.26907969,-0.26909559,0.384747,0.25804774,-0.30500719,0.386911,0.23144742,-0.28021937,0.367896,0.19832422,-0.25129057,0.346005,0.18206018,-0.23245251,0.338588,0.23624054,-0.22523026,0.370575,0.22608881,-0.18533885,0.354563,0.2235102,-0.17526767,0.346558,0.22335409,-0.17047558,0.33928,0.26177136,-0.22901888,0.376827,0.26090016,-0.21485755,0.362416,0.27551871,-0.25316702,0.383776,0.27916397,-0.27021107,0.395693,0.28279464,-0.23564927,0.382682,0.28521103,-0.23557136,0.37053,0.27478403,-0.25246884,0.364312,0.27718559,-0.26476117,0.375961,0.309114,-0.25004419,0.390923,0.29895682,-0.24403567,0.374031,0.31012502,-0.27060287,0.388273,0.32140059,-0.28536155,0.399741
0.2768743,-0.31599539,0.389591,0.26800208,-0.26751267,0.382381,0.2535333,-0.30058845,0.381627,0.23072405,-0.2762255,0.362253,0.21003487,-0.24866668,0.335852,0.1966604,-0.22618806,0.322074,0.23470691,-0.22385683,0.368484,0.22540597,-0.18509098,0.353545,0.22318739,-0.17530583,0.346076,0.22321137,-0.1709962,0.339285,0.26116155,-0.22861391,0.376298,0.26210831,-0.21752823,0.36431,0.27642285,-0.25594751,0.385456,0.2822851,-0.2771008,0.39643,0.28303959,-0.23593146,0.383274,0.28596823,-0.23860848,0.373986,0.27840094,-0.25597563,0.369234,0.28126288,-0.26871369,0.381502,0.31027913,-0.25100006,0.392536,0.30141203,-0.24527425,0.376924,0.31249156,-0.27187281,0.391009,0.32260019,-0.28502973,0.401965
0.27866349,-0.31918523,0.393543,0.26896441,-0.26881302,0.384086,0.25556248,-0.30410942,0.386223,0.23122549,-0.27967781,0.367084,0.19777722,-0.24960613,0.344908,0.18094829,-0.23126515,0.337485,0.23542378,-0.22474198,0.369755,0.22562907,-0.18666443,0.353538,0.22307875,-0.17634601,0.34543,0.22243228,-0.17247279,0.338058,0.26090731,-0.22863083,0.376108,0.2613709,-0.22153332,0.36166,0.27588357,-0.26040992,0.382974,0.28083615,-0.27614663,0.39489,0.28206308,-0.23533991,0.382051,0.28287015,-0.23638868,0.369896,0.27426816,-0.25249359,0.363677,0.27863056,-0.26549563,0.375295,0.3085961,-0.24984315,0.390406,0.29897868,-0.24206078,0.373437,0.31185097,-0.2659067,0.387644,0.32020383,-0.28242921,0.399125
0.280832,-0.32111049,0.395991,0.27051346,-0.26990395,0.385463,0.25721575,-0.30584127,0.388243,0.24466563,-0.2843684,0.368412,0.20835541,-0.25426991,0.344004,0.18659267,-0.23402431,0.336134,0.23603767,-0.22649235,0.37001,0.22440776,-0.19127192,0.352526,0.22136028,-0.17949717,0.343784,0.2207812,-0.17249153,0.335836,0.26126502,-0.22916988,0.376581,0.2614851,-0.21923696,0.361221,0.27980441,-0.2607488,0.382253,0.28277543,-0.27767108,0.394411,0.28266892,-0.23578858,0.382785,0.28580818,-0.23519572,0.369813,0.28323195,-0.25065905,0.363177,0.28230213,-0.26592566,0.374392,0.30974334,-0.25028127,0.391598,0.29996471,-0.24188147,0.373777,0.31586476,-0.26653538,0.387768,0.32220539,-0.28254598,0.399464
0.28027188,-0.32001279,0.394641,0.26968124,-0.26930839,0.38457,0.25621161,-0.30455466,0.386339,0.24488522,-0.28317513,0.365984,0.2101258,-0.25218167,0.340458,0.19180314,-0.23485298,0.334371,0.23560235,-0.22603004,0.368675,0.22323759,-0.1912725,0.351031,0.22014768,-0.17952161,0.342209,0.21966119,-0.17254892,0.334189,0.26094832,-0.22904209,0.376072,0.26197077,-0.22011925,0.361354,0.28027013,-0.26071609,0.38217,0.28297362,-0.2774952,0.394028,0.28285298,-0.23583589,0.382922,0.28679353,-0.23587297,0.370843,0.28457731,-0.25234824,0.364663,0.28294381,-0.26674794,0.375973,0.31062269,-0.25050861,0.392434,0.30141337,-0.24349856,0.374762,0.31759522,-0.26873972,0.388587,0.32313032,-0.28584777,0.400167
0.27986224,-0.31861097,0.392747,0.26908497,-0.2686773,0.38343,0.25549046,-0.30321985,0.384167,0.24390533,-0.28149949,0.363668,0.21096874,-0.25062801,0.337793,0.19444307,-0.22993913,0.327071,0.23491009,-0.2258154,0.367606,0.22254816,-0.19121319,0.350235,0.21953451,-0.17952788,0.34155,0.21922482,-0.17285274,0.333655,0.26022695,-0.22894744,0.37557,0.26204021,-0.21954707,0.361702,0.28054934,-0.25964385,0.382427,0.28314173,-0.27701978,0.393949,0.28249666,-0.23573698,0.382829,0.28762253,-0.23643685,0.371762,0.28489643,-0.25284405,0.3661,0.28385454,-0.26739612,0.377618,0.31077492,-0.25034219,0.392722,0.30234211,-0.24364711,0.37549,0.31815308,-0.26975755,0.389248,0.32423021,-0.28628688,0.400647
0.28160133,-0.31945894,0.393677,0.2698451,-0.26931701,0.384093,0.25665536,-0.30392657,0.384615,0.24402494,-0.28147332,0.363542,0.21262763,-0.2515471,0.338722,0.19673311,-0.22970496,0.326471,0.23452805,-0.22861308,0.367519,0.22362976,-0.19157938,0.351039,0.22475593,-0.19752738,0.342799,0.23090201,-0.21931219,0.351333,0.26021242,-0.22948503,0.376007,0.26136398,-0.21857219,0.362052,0.28059232,-0.25921785,0.382491,0.28284419,-0.27616144,0.393954,0.28289612,-0.23629102,0.383716,0.287665,-0.23712499,0.372736,0.28070175,-0.25420726,0.367118,0.28377078,-0.26785874,0.378469,0.31186519,-0.25094705,0.394179,0.30336725,-0.24446937,0.376641,0.31871664,-0.27044744,0.390182,0.3238333,-0.28747897,0.401605
0.28284031,-0.31967175,0.393896,0.27034957,-0.26968633,0.384375,0.25774936,-0.30449429,0.38491,0.24418141,-0.28131805,0.363933,0.2134999,-0.2515955,0.339686,0.19651132,-0.23050705,0.328688,0.23430598,-0.22909997,0.367933,0.22470087,-0.19335501,0.351887,0.22543704,-0.20453069,0.343864,0.23098987,-0.22292779,0.352556,0.2601403,-0.22996988,0.376343,0.26204137,-0.22084964,0.362423,0.27910071,-0.25889513,0.38291,0.28347324,-0.27607657,0.394375,0.28284093,-0.23645148,0.383984,0.28724041,-0.23731781,0.373012,0.28020945,-0.25442305,0.367398,0.28334477,-0.26791489,0.378783,0.31192735,-0.2506967,0.394357,0.30350997,-0.24459835,0.376882,0.31595484,-0.27052434,0.390459,0.32435887,-0.28750947,0.401874
0.28407331,-0.31979012,0.394108,0.27089702,-0.26997241,0.384663,0.25886685,-0.30497029,0.385214,0.24439004,-0.28118611,0.364349,0.21403753,-0.25142903,0.340259,0.19705337,-0.23037924,0.329418,0.23422402,-0.22870206,0.368374,0.22552747,-0.19387351,0.352495,0.22589582,-0.20252127,0.344555,0.23125936,-0.22407998,0.353331,0.26014807,-0.23037741,0.376694,0.26173556,-0.22062291,0.362813,0.27948017,-0.25861365,0.383356,0.28423112,-0.27589864,0.394825,0.28284432,-0.23654064,0.384254,0.28693581,-0.23744617,0.373291,0.28039821,-0.25445539,0.367682,0.28298773,-0.26790681,0.379107,0.31201257,-0.25038079,0.394521,0.30366052,-0.24464233,0.37712,0.31735754,-0.27010214,0.39074,0.32602221,-0.28665574,0.402145
0.28608113,-0.32085725,0.395387,0.27167288,-0.27051869,0.385243,0.26029907,-0.30588517,0.385968,0.24436192,-0.28091747,0.364399,0.21520845,-0.25102898,0.340512,0.19858747,-0.22963285,0.329317,0.23360655,-0.22841667,0.367918,0.21724571,-0.19888333,0.350811,0.22266143,-0.20006534,0.342258,0.23182588,-0.21933842,0.350469,0.25994467,-0.23059596,0.376685,0.25778873,-0.22673729,0.36231,0.27380937,-0.26202019,0.382506,0.28208492,-0.27550161,0.394045,0.28298383,-0.23675287,0.384667,0.28551763,-0.23716759,0.37337,0.28107243,-0.2539381,0.36759,0.28346439,-0.26882113,0.378694,0.3127964,-0.25020793,0.395531,0.30401243,-0.24470816,0.377521,0.31695772,-0.27036885,0.390878,0.32649271,-0.28684228,0.402395
0.28570905,-0.3193101,0.393407,0.27716329,-0.27569789,0.392424,0.26112309,-0.30606515,0.38585,0.24702408,-0.28348254,0.368425,0.22525821,-0.26033609,0.356133,0.21280078,-0.24224407,0.350953,0.24274031,-0.23738086,0.382462,0.24012797,-0.22270661,0.37365,0.24772997,-0.23227979,0.369245,0.26256595,-0.25466949,0.380216,0.27014913,-0.239972,0.391595,0.27396232,-0.23588522,0.382848,0.28912874,-0.27686811,0.403866,0.29738867,-0.29001917,0.414626,0.29360759,-0.2457133,0.399185,0.29605112,-0.24559262,0.387592,0.29112264,-0.2625477,0.381661,0.29435026,-0.27952236,0.393004,0.3229614,-0.25847534,0.408306,0.31852403,-0.25689756,0.39725,0.32880957,-0.28375624,0.411436,0.33775127,-0.29976923,0.420827
0.28654684,-0.3193685,0.393102,0.27783471,-0.27633212,0.392784,0.26172508,-0.30623196,0.385399,0.24671213,-0.28301861,0.368002,0.22521544,-0.26031219,0.355308,0.2127513,-0.24194106,0.350843,0.24297584,-0.2383948,0.383007,0.23980737,-0.22366975,0.373142,0.24703949,-0.23291723,0.36821,0.26154847,-0.25498256,0.378739,0.27068376,-0.24102774,0.392516,0.27364248,-0.24029803,0.384393,0.29028817,-0.2796838,0.405244,0.29616335,-0.29379634,0.416932,0.29439423,-0.24670698,0.400365,0.2976021,-0.24649076,0.38925,0.29354973,-0.26463995,0.383563,0.29646982,-0.28194098,0.394909,0.32410298,-0.25933488,0.409699,0.31943484,-0.25892955,0.399102,0.32772137,-0.2870528,0.413178,0.33561982,-0.30256705,0.422365
0.28224229,-0.31359085,0.385853,0.27665257,-0.27508741,0.390696,0.25919333,-0.30265505,0.380443,0.24584029,-0.28200179,0.366901,0.22713256,-0.26177608,0.358796,0.21684023,-0.24603759,0.357536,0.24459001,-0.24094217,0.386618,0.24466006,-0.22897032,0.381215,0.25361981,-0.23984918,0.378513,0.26942448,-0.26343154,0.390657,0.27197718,-0.24279116,0.394782,0.27840716,-0.24491081,0.391593,0.29575006,-0.28537337,0.413211,0.30273331,-0.30311168,0.427667,0.29469753,-0.24730264,0.401134,0.30101464,-0.2495938,0.395178,0.29886045,-0.26978032,0.39213,0.30481163,-0.29020113,0.40536,0.322589,-0.25804023,0.407975,0.32107602,-0.26042391,0.401788,0.33018398,-0.28846228,0.416498,0.33733935,-0.30544219,0.426353
0.28659692,-0.31900309,0.392253,0.27793384,-0.27691568,0.393023,0.26201274,-0.3065468,0.385119,0.24707099,-0.28318851,0.36861,0.22544895,-0.26126383,0.356709,0.2132356,-0.24309915,0.352425,0.24281044,-0.23992501,0.384556,0.24095106,-0.22588057,0.375693,0.24859873,-0.23545746,0.371262,0.2634279,-0.25794521,0.382213,0.27082798,-0.24234372,0.393674,0.2746299,-0.24184164,0.38658,0.29165402,-0.28167428,0.407691,0.29921962,-0.30016748,0.42277,0.29430994,-0.24753597,0.401119,0.29760469,-0.24705858,0.391115,0.29402279,-0.2655089,0.385997,0.29905517,-0.28525402,0.397815,0.32370808,-0.25945523,0.409823,0.31939727,-0.25918479,0.400162,0.3284682,-0.28659083,0.414441,0.33490204,-0.30309891,0.423377
0.28684124,-0.31987576,0.393137,0.27805564,-0.27760611,0.393771,0.2621304,-0.30727145,0.385911,0.2472271,-0.28343248,0.369268,0.22599485,-0.26104398,0.357015,0.21330831,-0.24297248,0.35234,0.243091,-0.24038719,0.385113,0.24218512,-0.22840795,0.376883,0.25237669,-0.24327609,0.372767,0.26486434,-0.26107878,0.383882,0.27086844,-0.24298237,0.394307,0.27484583,-0.24220096,0.387084,0.29188546,-0.28206697,0.40815,0.29949025,-0.30082252,0.423197,0.29442079,-0.24824832,0.401824,0.2977843,-0.24743514,0.391673,0.29426261,-0.26579993,0.386479,0.29898596,-0.28644091,0.398226,0.32395035,-0.26026597,0.410633,0.31965115,-0.2594863,0.40085,0.3289346,-0.28677369,0.415094,0.3353926,-0.30346075,0.42406
0.28696843,-0.32026927,0.393641,0.27828037,-0.2781054,0.39443,0.26257875,-0.30801671,0.386924,0.24794719,-0.28427385,0.370857,0.22704529,-0.26150798,0.359201,0.21466892,-0.24350776,0.353934,0.24389536,-0.24124871,0.38649,0.25096097,-0.23770823,0.383809,0.26390882,-0.25373489,0.382469,0.27608979,-0.27458209,0.395419,0.27104296,-0.24364307,0.395095,0.27606544,-0.24199144,0.388024,0.29303029,-0.28277075,0.4094,0.30214104,-0.30093082,0.424668,0.29438069,-0.24860011,0.402116,0.2982499,-0.24772691,0.392298,0.29496772,-0.26616854,0.387275,0.29964459,-0.28799789,0.399331,0.32343136,-0.26024994,0.410317,0.31950804,-0.2591904,0.400767,0.33041698,-0.28643581,0.415236,0.3379006,-0.3021398,0.424207
0.28740872,-0.32098804,0.394406,0.27887728,-0.2789048,0.395358,0.2629858,-0.30864897,0.387668,0.24829978,-0.28442576,0.371624,0.22746319,-0.26167905,0.359685,0.21550508,-0.24307954,0.354529,0.24474628,-0.24209071,0.387483,0.25475087,-0.24091109,0.384979,0.26550023,-0.25547716,0.383727,0.27803319,-0.27657834,0.396704,0.27192171,-0.24472814,0.396161,0.27688381,-0.24354481,0.389244,0.29423919,-0.28370722,0.410589,0.30260573,-0.30253555,0.425835,0.29516913,-0.24957092,0.403231,0.29899307,-0.24848759,0.393537,0.29610624,-0.26689723,0.388577,0.30104231,-0.28961695,0.400642,0.32435361,-0.26158909,0.411465,0.32013871,-0.25982245,0.402032,0.33292657,-0.28728812,0.416481,0.33965262,-0.30284672,0.425404
0.28803092,-0.32179794,0.395246,0.27973663,-0.27984323,0.396491,0.26338241,-0.3091373,0.388235,0.24849025,-0.28446265,0.371984,0.22761873,-0.26129471,0.359737,0.21608201,-0.2424841,0.354341,0.24567861,-0.24307251,0.388437,0.25286184,-0.23888671,0.385034,0.26231187,-0.25130068,0.383332,0.27549342,-0.27207612,0.395899,0.2731368,-0.24605535,0.397541,0.27828873,-0.24463868,0.390897,0.2955295,-0.28473475,0.41203,0.30314421,-0.30407236,0.427125,0.29664432,-0.25150938,0.40494,0.29997456,-0.24929081,0.39537,0.29887917,-0.26651326,0.390475,0.30304513,-0.29127486,0.402421,0.32608709,-0.26367716,0.413522,0.32155187,-0.26136984,0.404242,0.33231596,-0.28896756,0.418544,0.34036255,-0.30418691,0.427356
0.28801182,-0.32175896,0.395206,0.27976059,-0.27983274,0.39646,0.26334627,-0.30898971,0.38816,0.24840793,-0.28400646,0.371874,0.22762767,-0.26052637,0.35945,0.21632781,-0.2415233,0.353865,0.24559386,-0.24275047,0.388367,0.25417236,-0.23957176,0.38634,0.26614037,-0.25428147,0.385326,0.27961679,-0.27666872,0.398285,0.27319237,-0.2459407,0.397518,0.27905057,-0.24161863,0.390883,0.29655874,-0.28139018,0.411991,0.30340401,-0.30360429,0.427068,0.2966897,-0.25141088,0.404955,0.30095968,-0.24679045,0.395379,0.30087554,-0.26103972,0.39048,0.30385933,-0.29151554,0.402406,0.32603736,-0.2632299,0.413581,0.32126497,-0.26137761,0.4043,0.33319557,-0.28887562,0.418584,0.33963391,-0.30426164,0.427389
0.28894465,-0.32268418,0.396287,0.28075642,-0.28074815,0.397642,0.26404099,-0.30960694,0.388936,0.24873319,-0.28399682,0.372362,0.22779285,-0.26015629,0.359803,0.21673346,-0.24113462,0.354293,0.24637854,-0.24338866,0.389223,0.24672962,-0.2312734,0.381873,0.25557009,-0.24262521,0.378199,0.2706362,-0.26528236,0.389434,0.27411953,-0.24664359,0.398784,0.28022919,-0.24163863,0.392243,0.29780795,-0.28124223,0.413128,0.30455709,-0.30431673,0.428046,0.29788583,-0.25231473,0.40655,0.30229265,-0.24719766,0.396934,0.30221222,-0.26150654,0.392014,0.30532227,-0.29205729,0.403771,0.32766884,-0.26473939,0.415552,0.32268655,-0.26260036,0.406278,0.33397358,-0.29009697,0.420405,0.34003949,-0.30517993,0.429147
0.2896136,-0.32333298,0.39698,0.28141122,-0.28146237,0.398436,0.26470906,-0.31028422,0.389647,0.24923205,-0.28450865,0.373121,0.22832825,-0.2606056,0.360549,0.217316,-0.24155455,0.35502,0.24702806,-0.24416373,0.390097,0.24807334,-0.23240505,0.381912,0.25575726,-0.24229374,0.37782,0.27098659,-0.2659842,0.388803,0.27476694,-0.24741774,0.399665,0.28026517,-0.24415319,0.393221,0.29932949,-0.28080868,0.414104,0.30563346,-0.30505222,0.429021,0.29852455,-0.25308287,0.407429,0.3024016,-0.24946812,0.397903,0.3030731,-0.26209121,0.39303,0.30664037,-0.29254589,0.404809,0.32828936,-0.26548723,0.416414,0.32353293,-0.26320992,0.407221,0.33484615,-0.29070494,0.421349,0.34083944,-0.30552442,0.430062
0.29003082,-0.32340648,0.397445,0.28185053,-0.28162071,0.398996,0.26503583,-0.3102534,0.389971,0.24929851,-0.28418545,0.373327,0.22871793,-0.25982151,0.360521,0.21734758,-0.24096224,0.354904,0.24737643,-0.24426131,0.390533,0.24809771,-0.23192307,0.382161,0.25662655,-0.24165106,0.377975,0.27116127,-0.26521973,0.388827,0.27522638,-0.24765066,0.400304,0.28184596,-0.24128078,0.393951,0.30032328,-0.27945476,0.41472,0.30638642,-0.30496284,0.429556,0.29908234,-0.25342013,0.408228,0.30397712,-0.24727019,0.398725,0.30369221,-0.26231064,0.393863,0.30769661,-0.29241676,0.405566,0.32897176,-0.26593932,0.41739,0.32440848,-0.26347401,0.408238,0.33566604,-0.2908982,0.422285,0.34156631,-0.30544621,0.430953
0.29083746,-0.32397938,0.398339,0.28249557,-0.28202125,0.399691,0.2658174,-0.31080357,0.390841,0.24984171,-0.28454746,0.374118,0.22884405,-0.26032099,0.361177,0.21784416,-0.24110679,0.355396,0.24792465,-0.24455878,0.391089,0.24953319,-0.23280216,0.383307,0.2582577,-0.24354134,0.379416,0.27302069,-0.26717414,0.390458,0.27574314,-0.24794119,0.400831,0.28158974,-0.24375489,0.394289,0.30023645,-0.28085538,0.41507,0.3071218,-0.30498485,0.429914,0.29957615,-0.25371391,0.408746,0.30369562,-0.24898129,0.399071,0.30382736,-0.26258624,0.394121,0.30844595,-0.29216427,0.405788,0.32945277,-0.26625073,0.417925,0.32484742,-0.26389209,0.408618,0.33608935,-0.29132024,0.422671,0.34198796,-0.30551391,0.431395
0.29163279,-0.32427085,0.399028,0.28329351,-0.28221327,0.400275,0.26661978,-0.31106116,0.391535,0.25036888,-0.28454826,0.374787,0.22911903,-0.26018601,0.361863,0.21799367,-0.24098171,0.356162,0.24874086,-0.24466982,0.391621,0.25117436,-0.23350969,0.384449,0.26010754,-0.24459692,0.380863,0.27474876,-0.26833796,0.392101,0.27654492,-0.24806701,0.401327,0.28231259,-0.24438125,0.394685,0.3000487,-0.28412317,0.415485,0.30794072,-0.30538641,0.430342,0.30036407,-0.25385773,0.40922,0.30473117,-0.24766047,0.399461,0.30417371,-0.26284114,0.394468,0.3093594,-0.29195099,0.406126,0.33022299,-0.26642628,0.418387,0.32548804,-0.26426808,0.409003,0.33669272,-0.29170783,0.423067,0.34261445,-0.30551617,0.431823
0.29256071,-0.32470916,0.399898,0.2841944,-0.28245588,0.400942,0.26755066,-0.31143815,0.392404,0.25102124,-0.28463118,0.375596,0.22960646,-0.26003109,0.362529,0.21838433,-0.24073385,0.356768,0.24964699,-0.24475829,0.392173,0.25377737,-0.236144,0.385911,0.26297742,-0.24781255,0.382779,0.27702742,-0.27047713,0.394312,0.27742575,-0.24817801,0.401822,0.28321519,-0.24551927,0.394986,0.30087439,-0.28422311,0.415813,0.30875083,-0.30572462,0.430689,0.30122252,-0.25399863,0.409683,0.30521549,-0.24780326,0.399757,0.3040735,-0.26389921,0.394678,0.31004742,-0.29155803,0.406313,0.33105824,-0.26662353,0.418841,0.3262127,-0.26430736,0.409303,0.3373914,-0.29174382,0.423384,0.34332579,-0.30552377,0.4322
0.29296795,-0.32467712,0.400278,0.28474279,-0.28240643,0.401322,0.26802095,-0.31139651,0.392847,0.25155365,-0.28439664,0.376104,0.23032755,-0.25968149,0.363121,0.21909783,-0.24038229,0.357528,0.25054069,-0.24414208,0.392633,0.25399502,-0.2349878,0.386306,0.26318577,-0.24676718,0.383142,0.27744578,-0.2700967,0.394684,0.27818327,-0.24789156,0.402202,0.28367907,-0.24410211,0.395367,0.30153558,-0.28379688,0.416238,0.30943722,-0.30604559,0.431147,0.30184557,-0.25394638,0.409999,0.30584956,-0.24732885,0.400098,0.30470339,-0.26331768,0.395032,0.31069197,-0.29122575,0.406705,0.33161062,-0.26658615,0.41908,0.32698041,-0.26372268,0.409556,0.33813907,-0.29113647,0.423669,0.34383024,-0.30567058,0.432492
0.29329226,-0.32450995,0.400651,0.2851469,-0.28212555,0.401591,0.26834853,-0.31115555,0.393214,0.25181287,-0.2841097,0.376437,0.23047166,-0.25934922,0.363482,0.21904519,-0.24008163,0.358019,0.25093242,-0.24398349,0.392837,0.25426666,-0.23494307,0.386302,0.26333335,-0.24675248,0.383034,0.27735938,-0.26919075,0.394524,0.27869182,-0.24748269,0.402383,0.28394205,-0.24380291,0.395448,0.30177396,-0.28348365,0.41633,0.30975302,-0.30594465,0.431246,0.30232111,-0.25363269,0.410168,0.30607854,-0.24721047,0.400179,0.30476662,-0.2632813,0.395069,0.31094367,-0.29047389,0.406727,0.33209007,-0.26633923,0.41925,0.32696076,-0.26414057,0.409647,0.33807251,-0.29156983,0.423764,0.34406721,-0.30574302,0.432618
0.29341905,-0.32398458,0.400753,0.28547364,-0.28160951,0.40174,0.26857142,-0.31065681,0.393431,0.25208777,-0.28371455,0.376787,0.23076416,-0.25906603,0.364068,0.21921294,-0.23990612,0.35886,0.2524705,-0.24266766,0.393157,0.25442621,-0.23393299,0.386249,0.26322121,-0.24561667,0.382795,0.27734498,-0.26856714,0.39422,0.28026205,-0.24630354,0.402573,0.28434074,-0.24345807,0.395684,0.30219086,-0.28317967,0.41664,0.31027288,-0.30588086,0.431609,0.30322972,-0.25270022,0.410247,0.30645251,-0.24676817,0.400344,0.30504062,-0.26293186,0.395277,0.31120044,-0.29006971,0.40701,0.33263548,-0.26560803,0.419192,0.32721433,-0.2636024,0.40965,0.33832135,-0.29105381,0.423822,0.34432983,-0.30545363,0.432675
0.29351236,-0.32367823,0.400808,0.28567777,-0.28117842,0.401677,0.26877297,-0.3103829,0.393631,0.25224699,-0.2835437,0.377102,0.23084074,-0.25896578,0.364554,0.21918923,-0.23985693,0.359479,0.25263037,-0.24236635,0.393208,0.25460479,-0.23383082,0.386247,0.26333372,-0.24559001,0.382767,0.27735025,-0.26802,0.394252,0.28029928,-0.24588678,0.40241,0.28370271,-0.24122954,0.395409,0.30184839,-0.28081501,0.416478,0.31021941,-0.30452661,0.431527,0.30395314,-0.251817,0.409917,0.3063661,-0.2462556,0.399975,0.30471454,-0.26255363,0.394888,0.31080019,-0.28949831,0.406692,0.33307936,-0.26477398,0.41868,0.32699237,-0.26296366,0.409082,0.33810432,-0.2904496,0.423333,0.34420557,-0.30509822,0.432236
