sluyters/QuantumLeap/src/datasets/gesture/HandGestureDataset_SHREC2017_csv/Gesture4/finger_2/subject_24_essai_1_skeletons_world.csv
Wrist_x,Wrist_y,Wrist_z,Palm_x,Palm_y,Palm_z,thumb_base_x,thumb_base_y,thumb_base_z,thumb_first_joint_x,thumb_first_joint_y,thumb_first_joint_z,thumb_second_joint_x,thumb_second_joint_y,thumb_second_joint_z,thumb_tip_x,thumb_tip_y,thumb_tip_z,index_base_x,index_base_y,index_base_z,index_first_joint_x,index_first_joint_y,index_first_joint_z,index_second_joint_x,index_second_joint_y,index_second_joint_z,index_tip_x,index_tip_y,index_tip_z,middle_base_x,middle_base_y,middle_base_z,middle_first_joint_x,middle_first_joint_y,middle_first_joint_z,middle_second_joint_x,middle_second_joint_y,middle_second_joint_z,middle_tip_x,middle_tip_y,middle_tip_z,ring_base_x,ring_base_y,ring_base_z,ring_first_joint_x,ring_first_joint_y,ring_first_joint_z,ring_second_joint_x,ring_second_joint_y,ring_second_joint_z,ring_tip_x,ring_tip_y,ring_tip_z,pinky_base_x,pinky_base_y,pinky_base_z,pinky_first_joint_x,pinky_first_joint_y,pinky_first_joint_z,pinky_second_joint_x,pinky_second_joint_y,pinky_second_joint_z,pinky_tip_x,pinky_tip_y,pinky_tip_z,
0.40622314,-0.375218826,0.562615,0.403678298,-0.323674334,0.551278,0.388411466,-0.356842535,0.561086,0.354538639,-0.33801068,0.552148,0.319025717,-0.318709222,0.528018,0.299012726,-0.30025391,0.514678,0.378594137,-0.271927873,0.541488,0.367813247,-0.233231726,0.534935,0.362416221,-0.213847641,0.531658,0.357362899,-0.198193695,0.52868,0.400769931,-0.275910279,0.53972,0.400641617,-0.232849481,0.531134,0.399234285,-0.2086142,0.526126,0.398053955,-0.192534729,0.522548,0.419140171,-0.283842219,0.539183,0.423351205,-0.243082695,0.530273,0.424719232,-0.223208521,0.525715,0.425507579,-0.204982988,0.521571,0.441898829,-0.299066005,0.54025,0.454625728,-0.269076938,0.529113,0.4604502,-0.255810332,0.52417,0.464927479,-0.246004461,0.520938
0.402911488,-0.368290931,0.558313,0.396703474,-0.316133571,0.546383,0.384231493,-0.351892449,0.556912,0.348608257,-0.332215668,0.54754,0.312393852,-0.313990545,0.522387,0.294247476,-0.296999471,0.508433,0.373690195,-0.263988324,0.536334,0.363553958,-0.224710297,0.528239,0.358478982,-0.205014718,0.524192,0.353074721,-0.187748521,0.520512,0.395195146,-0.268953355,0.534213,0.395595119,-0.225487046,0.52562,0.393761368,-0.201603131,0.520608,0.393478858,-0.187919972,0.517028,0.413142495,-0.276823517,0.533432,0.41860287,-0.236627131,0.524855,0.421275835,-0.219003499,0.521187,0.422840891,-0.201554256,0.517853,0.434786218,-0.293210088,0.534299,0.4513293,-0.266838046,0.525448,0.458122645,-0.254265964,0.521382,0.4633234,-0.24455354,0.518454
0.401732019,-0.366972195,0.557705,0.395976362,-0.315246176,0.545763,0.38307033,-0.350406237,0.556235,0.347891044,-0.331355135,0.546711,0.311692244,-0.313083834,0.52145,0.292999635,-0.295803085,0.507041,0.373042908,-0.263023218,0.535614,0.362980954,-0.223749188,0.527435,0.357942201,-0.204046825,0.523346,0.352726791,-0.186608801,0.519628,0.394583276,-0.268091317,0.533572,0.394956432,-0.224529886,0.524639,0.393003085,-0.200733785,0.519429,0.392200563,-0.186792646,0.515707,0.412553796,-0.276045039,0.532857,0.417878114,-0.235767146,0.523904,0.420857738,-0.217911224,0.520409,0.422799797,-0.200517922,0.517232,0.434209094,-0.292527752,0.533802,0.450463168,-0.266152598,0.524543,0.457235405,-0.253622278,0.520289,0.462829883,-0.243890754,0.517443
0.397620634,-0.361557382,0.552861,0.391058648,-0.308059279,0.538215,0.376069015,-0.339846606,0.550249,0.344693761,-0.326269655,0.541454,0.308706853,-0.309062425,0.516208,0.28796466,-0.291611515,0.500826,0.368294566,-0.250569638,0.524749,0.35916585,-0.212588535,0.519984,0.354579309,-0.193462735,0.517601,0.350386548,-0.180988786,0.515435,0.390279533,-0.256084023,0.523247,0.39034795,-0.212829944,0.513591,0.390353987,-0.187567751,0.507958,0.39036533,-0.169488168,0.503935,0.408753516,-0.264482107,0.523194,0.417454466,-0.225580182,0.51686,0.422102053,-0.205816058,0.513875,0.426325353,-0.187854888,0.511162,0.431285156,-0.281655922,0.52533,0.446140806,-0.255314318,0.513146,0.452891402,-0.243270026,0.507547,0.462675626,-0.240441967,0.513184
0.396255722,-0.359792692,0.551302,0.389670114,-0.306235059,0.536043,0.376776893,-0.342032387,0.54836,0.341631496,-0.321129147,0.536604,0.30545575,-0.304798895,0.511316,0.284405585,-0.28744542,0.495781,0.364880087,-0.249529369,0.521737,0.356961779,-0.211555457,0.517128,0.352981683,-0.192406345,0.514824,0.349376493,-0.178949209,0.513365,0.387122144,-0.254784167,0.520442,0.388188174,-0.211903861,0.511565,0.388802371,-0.186826803,0.506386,0.389250042,-0.168874958,0.502688,0.405877784,-0.263009158,0.520608,0.416030466,-0.224752859,0.514797,0.421250472,-0.205206489,0.511861,0.425994063,-0.187441833,0.509192,0.428896392,-0.280070012,0.523094,0.444800965,-0.254639835,0.511206,0.452020619,-0.243021045,0.505744,0.462264211,-0.239216095,0.510989
0.390039487,-0.351621788,0.547389,0.388206034,-0.301085881,0.533068,0.371745163,-0.334414241,0.544592,0.339211388,-0.317801797,0.533122,0.303487488,-0.301851159,0.507203,0.281898462,-0.283819065,0.490097,0.365210557,-0.246101247,0.519581,0.355122404,-0.208441291,0.513113,0.351247409,-0.188252393,0.509878,0.346493216,-0.171347448,0.506992,0.386183669,-0.253082021,0.518406,0.387472416,-0.21028616,0.509756,0.388224256,-0.185255863,0.50471,0.388769074,-0.167339356,0.501106,0.404624961,-0.261897856,0.518596,0.414624146,-0.223543385,0.512278,0.419825027,-0.203983471,0.509158,0.424550853,-0.186205396,0.506321,0.42698605,-0.279526009,0.52097,0.443352337,-0.254607656,0.509514,0.45081393,-0.243200499,0.50425,0.458263521,-0.233643614,0.500588
0.389998078,-0.35165136,0.544657,0.382843299,-0.295972655,0.524853,0.368853753,-0.330948809,0.540049,0.334541369,-0.31043055,0.524357,0.299085039,-0.294867999,0.499117,0.277003228,-0.277269973,0.481761,0.358557172,-0.237798392,0.505276,0.347987847,-0.19893344,0.49734,0.342680568,-0.179335703,0.493373,0.339713645,-0.163115109,0.493324,0.380941432,-0.244738111,0.504563,0.383079193,-0.202163083,0.496697,0.384349077,-0.177220039,0.492109,0.386198715,-0.163645233,0.495038,0.397452888,-0.254796928,0.505572,0.408462888,-0.217206057,0.499399,0.417349523,-0.197567169,0.49624,0.420346559,-0.181090698,0.494832,0.420315851,-0.274097637,0.509739,0.435496377,-0.24858207,0.49437,0.441137162,-0.23712437,0.487309,0.445338351,-0.228366483,0.481079
0.384882897,-0.346369616,0.537414,0.380259208,-0.290658879,0.517918,0.364942486,-0.325666029,0.534134,0.332375104,-0.306731312,0.518746,0.300641246,-0.29138252,0.493846,0.282011245,-0.277138863,0.475335,0.354255694,-0.234189792,0.500206,0.345960425,-0.196646362,0.495014,0.341772556,-0.177568804,0.492418,0.337908495,-0.161042736,0.490523,0.375140663,-0.240149395,0.497943,0.379068019,-0.198664002,0.491297,0.381221176,-0.174296741,0.487421,0.382652631,-0.156794223,0.484652,0.392853114,-0.249029542,0.497652,0.404201579,-0.211660432,0.489863,0.411004333,-0.191907331,0.485878,0.415199316,-0.175393675,0.482521,0.414849161,-0.267043004,0.50023,0.424974293,-0.245120955,0.483644,0.4300131,-0.235610998,0.476023,0.434549669,-0.22717667,0.469299
0.379197323,-0.340376439,0.531883,0.375589765,-0.287729069,0.512629,0.362351276,-0.320949895,0.53009,0.333069276,-0.305270777,0.516612,0.301441263,-0.289642425,0.49251,0.283214329,-0.273529489,0.474199,0.352092895,-0.232156452,0.496934,0.343468597,-0.194797164,0.491595,0.339113471,-0.175810354,0.488925,0.335097065,-0.158384867,0.486497,0.371167806,-0.237646828,0.492903,0.376145378,-0.196937546,0.486885,0.379710272,-0.172321803,0.483375,0.380767454,-0.155645035,0.480868,0.386680913,-0.24552204,0.491137,0.394174991,-0.207152516,0.477156,0.397486208,-0.190052941,0.470004,0.400641831,-0.172614459,0.463501,0.406574588,-0.263207565,0.491931,0.410226295,-0.245365693,0.473855,0.412545889,-0.236140502,0.46555,0.414720485,-0.227934324,0.458222
0.376899005,-0.337784443,0.529198,0.373329639,-0.286493127,0.510079,0.360281884,-0.319163951,0.527319,0.332118901,-0.303509571,0.513739,0.303556254,-0.287103112,0.489521,0.286847592,-0.270044381,0.471173,0.350321051,-0.23082206,0.494371,0.341924503,-0.193885023,0.489591,0.337676442,-0.175067175,0.487202,0.333759892,-0.157763702,0.485029,0.369210605,-0.236546239,0.49049,0.372734611,-0.195460395,0.481528,0.375032873,-0.171155711,0.476301,0.375477889,-0.153039521,0.472567,0.384702972,-0.244899124,0.488838,0.389954664,-0.207760158,0.473254,0.392493852,-0.188399064,0.465281,0.394569512,-0.170862958,0.458033,0.404413055,-0.262849596,0.489746,0.406990137,-0.244914817,0.471595,0.408698164,-0.235908492,0.463256,0.410338274,-0.227890873,0.455897
0.375180399,-0.335213433,0.527297,0.372007912,-0.285605844,0.508984,0.357484664,-0.316882009,0.524459,0.330760228,-0.302167783,0.509725,0.300649596,-0.283012336,0.484607,0.28996309,-0.271242669,0.466201,0.348875492,-0.229532629,0.492648,0.341094006,-0.192755342,0.488392,0.337154169,-0.174003557,0.486265,0.333522865,-0.156748767,0.48433,0.368861993,-0.236036105,0.490221,0.370262798,-0.193946362,0.478336,0.371246679,-0.169607225,0.471404,0.37171001,-0.151749632,0.466452,0.385350501,-0.245035428,0.4897,0.386718782,-0.206831152,0.470037,0.386415,-0.187745641,0.459976,0.386190618,-0.170536308,0.450831,0.406080183,-0.263732111,0.491828,0.416020114,-0.241461374,0.474427,0.410798138,-0.238301058,0.466432,0.394026384,-0.242721209,0.459378
0.374028114,-0.334508317,0.526297,0.37107904,-0.284977726,0.508189,0.356187874,-0.315926325,0.523179,0.329947778,-0.301700936,0.508114,0.299582299,-0.281334899,0.482773,0.289726352,-0.271155786,0.464428,0.348018753,-0.228743783,0.49165,0.340717973,-0.192102894,0.487847,0.337017905,-0.173403982,0.485946,0.333608627,-0.156186592,0.484218,0.368324962,-0.23550083,0.489637,0.36956874,-0.193473485,0.47744,0.37049854,-0.169072593,0.470325,0.370909194,-0.151348013,0.465244,0.385127388,-0.244727902,0.48944,0.385581536,-0.206622897,0.469012,0.38502358,-0.18758345,0.458561,0.38439454,-0.170564864,0.44906,0.406126505,-0.263641572,0.491922,0.415957072,-0.24193183,0.474683,0.410739557,-0.238855292,0.466762,0.394365191,-0.242929915,0.459773
0.377747114,-0.337620839,0.531818,0.372067111,-0.285913661,0.509917,0.358034184,-0.317480371,0.525758,0.330642035,-0.303175026,0.506773,0.305614953,-0.290038923,0.481587,0.2977392,-0.284052581,0.464768,0.344105406,-0.22648936,0.487069,0.337415551,-0.190256197,0.483931,0.333025458,-0.173353282,0.482362,0.331001264,-0.154759334,0.480935,0.366135184,-0.234501895,0.487478,0.364146447,-0.193959127,0.472638,0.361594909,-0.171068418,0.463981,0.365294249,-0.150696912,0.45936,0.385363063,-0.245353555,0.48958,0.378390757,-0.211560013,0.464449,0.375549647,-0.193272337,0.451592,0.373018685,-0.176563012,0.439904,0.409189004,-0.265682688,0.495355,0.410114349,-0.244671673,0.475085,0.407758847,-0.239179348,0.465772,0.392588778,-0.242338808,0.457555
0.377048047,-0.337007112,0.531588,0.371651292,-0.285726856,0.509628,0.357027441,-0.316511551,0.525031,0.330206207,-0.302777329,0.505454,0.304687803,-0.289159026,0.480126,0.296660397,-0.28302337,0.463084,0.343048207,-0.22644915,0.486123,0.336327128,-0.190177426,0.482802,0.331991339,-0.173048038,0.481142,0.329902647,-0.154575003,0.479633,0.365662771,-0.234650912,0.487128,0.363146412,-0.194206302,0.471981,0.360943388,-0.170760187,0.463145,0.363404835,-0.150811705,0.45777,0.385320096,-0.245639183,0.489726,0.378504002,-0.211623329,0.464588,0.375661915,-0.193330114,0.451727,0.373129767,-0.176615591,0.440035,0.409676127,-0.266192124,0.496098,0.410088302,-0.2444485,0.475505,0.407309159,-0.239397642,0.466044,0.392772009,-0.242703607,0.457695
0.377487856,-0.336965577,0.532605,0.371332207,-0.285542792,0.50921,0.356664147,-0.315594361,0.524787,0.329508318,-0.301959252,0.503618,0.30403543,-0.288391668,0.478518,0.295145728,-0.281427519,0.460854,0.340493732,-0.225548811,0.483134,0.335142565,-0.189791517,0.480984,0.331985797,-0.172718016,0.479909,0.329843983,-0.154534989,0.478932,0.364207416,-0.234075663,0.48524,0.362257893,-0.194180037,0.470875,0.360695815,-0.170725649,0.462495,0.362108886,-0.150911864,0.456509,0.384368453,-0.245397882,0.48886,0.377283557,-0.210792908,0.462621,0.374135525,-0.192284421,0.449405,0.371310456,-0.175399293,0.437391,0.410165794,-0.266700049,0.496658,0.396803192,-0.249945545,0.473685,0.390631993,-0.241411127,0.463131,0.378202569,-0.244834536,0.453817
0.378010442,-0.336672796,0.532683,0.371148894,-0.28527759,0.508754,0.357425149,-0.315686657,0.525371,0.334884439,-0.304158353,0.504751,0.306427521,-0.289245526,0.480006,0.29700886,-0.281572296,0.462337,0.340407184,-0.225835555,0.482932,0.332023524,-0.190367357,0.476992,0.328170233,-0.17149879,0.474022,0.324637504,-0.154105405,0.471322,0.363438375,-0.234185562,0.484236,0.359740816,-0.194118981,0.468079,0.357712282,-0.169905634,0.458655,0.356312425,-0.152417244,0.451923,0.383098121,-0.245298685,0.487239,0.375667654,-0.210266433,0.460555,0.371972067,-0.191620051,0.446903,0.370592528,-0.175560011,0.4368,0.407975027,-0.266269831,0.494385,0.390057543,-0.25445765,0.471317,0.381136768,-0.248079566,0.460718,0.367757036,-0.25221759,0.451367
0.378274628,-0.336345659,0.533095,0.371073775,-0.285189501,0.508815,0.357622154,-0.315348288,0.525692,0.335888031,-0.30440604,0.504941,0.307495856,-0.289410856,0.480323,0.29771112,-0.28126421,0.462579,0.340240509,-0.225983496,0.482636,0.331458405,-0.190260713,0.475905,0.327281646,-0.171375431,0.47254,0.323451108,-0.153971042,0.469481,0.363268075,-0.234346647,0.483939,0.359345566,-0.193961649,0.467326,0.356923522,-0.169887338,0.457635,0.355243143,-0.152490431,0.450712,0.38297872,-0.2454728,0.486969,0.375259742,-0.210264497,0.460004,0.371345149,-0.191566435,0.446208,0.369922736,-0.175543846,0.436164,0.407966217,-0.266433889,0.494201,0.389733127,-0.254246014,0.470925,0.380733889,-0.247817334,0.460231,0.367290991,-0.251897965,0.450795
0.381450969,-0.338594283,0.537547,0.37197999,-0.285939832,0.510097,0.359517726,-0.316579611,0.528464,0.345892663,-0.300642564,0.505585,0.327567071,-0.285478017,0.482076,0.315699712,-0.26656293,0.465065,0.33791639,-0.225760731,0.479612,0.329058876,-0.189440761,0.470848,0.324164384,-0.171450365,0.466466,0.319738551,-0.1542434,0.462483,0.361814091,-0.233623245,0.481972,0.35616458,-0.192715091,0.463221,0.352304365,-0.170636215,0.452283,0.349162584,-0.154200559,0.44447,0.382389495,-0.245248582,0.486128,0.36872178,-0.21392783,0.456535,0.360958326,-0.197829553,0.441395,0.353637816,-0.183704704,0.427631,0.408910815,-0.267075133,0.495169,0.388919576,-0.253362319,0.469766,0.379162431,-0.246379269,0.458094,0.365053071,-0.250071054,0.447796
0.383008812,-0.338644844,0.538902,0.373446404,-0.286677371,0.511841,0.359902016,-0.316251807,0.528531,0.344753813,-0.299274887,0.504226,0.326015897,-0.2834599,0.479918,0.313894315,-0.26440465,0.462841,0.337666816,-0.226428828,0.480029,0.324065313,-0.189197036,0.461683,0.318890172,-0.174001735,0.45251,0.313100439,-0.159097396,0.444172,0.363264204,-0.234824077,0.484115,0.351183496,-0.194960761,0.458534,0.342572943,-0.174440904,0.443612,0.338050599,-0.156090672,0.432953,0.385188471,-0.246971479,0.48966,0.371318479,-0.21538226,0.460103,0.363807345,-0.199529285,0.444981,0.356808566,-0.185532186,0.431233,0.41316928,-0.26879646,0.500289,0.386893182,-0.240733544,0.474672,0.377811504,-0.248600447,0.462903,0.371871041,-0.251857375,0.452517
0.385939851,-0.339478117,0.541454,0.374707382,-0.287310956,0.512939,0.362129951,-0.31734732,0.530672,0.357553952,-0.304663829,0.509332,0.329905004,-0.27806405,0.484308,0.313417257,-0.255108079,0.469553,0.335863615,-0.232594301,0.479601,0.322309751,-0.195697209,0.457194,0.315014366,-0.178965615,0.445991,0.308390347,-0.163586984,0.435806,0.362694701,-0.236206524,0.483724,0.343277322,-0.201426458,0.451582,0.332169816,-0.17914727,0.432833,0.324241992,-0.163203172,0.41944,0.385093548,-0.247140448,0.489416,0.369109034,-0.215910711,0.458722,0.357284613,-0.202336347,0.443017,0.352697323,-0.185555585,0.428741,0.413882841,-0.269269884,0.500438,0.387076377,-0.241469377,0.473998,0.377413151,-0.248915529,0.461849,0.371054937,-0.252570712,0.45113
0.390151353,-0.341339717,0.545538,0.37689475,-0.28878005,0.515235,0.3651127,-0.318937444,0.533547,0.357384232,-0.304677515,0.509862,0.332022139,-0.284032579,0.484932,0.318957984,-0.265679706,0.469252,0.335057873,-0.232430524,0.479143,0.32970003,-0.193517098,0.458131,0.324291118,-0.182776082,0.447625,0.316626856,-0.181087033,0.438074,0.362883038,-0.236822707,0.484187,0.350915496,-0.190490475,0.457247,0.334518038,-0.180979825,0.441532,0.323480229,-0.185528213,0.430307,0.386128109,-0.248374157,0.490781,0.365990312,-0.218219299,0.458528,0.355398895,-0.202859974,0.442027,0.345646608,-0.189433916,0.427025,0.416340509,-0.270791158,0.503141,0.388079725,-0.245978703,0.475522,0.376783065,-0.256059709,0.462833,0.371076077,-0.254740012,0.451636
0.394065689,-0.342930179,0.549602,0.378385504,-0.289842571,0.516794,0.367555043,-0.319956089,0.535936,0.354321857,-0.304661896,0.51147,0.332073974,-0.284261786,0.486356,0.319782656,-0.265949504,0.47093,0.33334205,-0.231697752,0.476871,0.329462041,-0.193645124,0.456765,0.323227405,-0.189401197,0.446713,0.312737995,-0.195410914,0.437574,0.361136189,-0.240165891,0.483181,0.347595491,-0.193441737,0.45568,0.334637128,-0.182249655,0.439638,0.321658436,-0.187207601,0.42818,0.386453181,-0.250291947,0.491019,0.361752384,-0.226032459,0.456649,0.349174155,-0.213870699,0.439065,0.33738078,-0.20403608,0.423079,0.418068409,-0.272868442,0.505228,0.389102889,-0.239762109,0.476084,0.376824101,-0.238663952,0.462693,0.368775942,-0.248082613,0.450878
0.396585243,-0.343643765,0.551752,0.379874739,-0.290708625,0.518123,0.369732654,-0.320808341,0.537863,0.358321234,-0.306209556,0.513163,0.3403023,-0.290006516,0.488765,0.324706877,-0.271106328,0.472379,0.33406782,-0.232098365,0.477349,0.331043759,-0.194292889,0.45766,0.325068711,-0.189920701,0.447816,0.31466319,-0.196011957,0.438867,0.362368,-0.239453982,0.483669,0.347806175,-0.193782667,0.455679,0.334050721,-0.185644217,0.439352,0.321627234,-0.191650273,0.427689,0.386952176,-0.251013669,0.491581,0.362174295,-0.227783295,0.456689,0.3491459,-0.216323924,0.438837,0.336932595,-0.20714106,0.422608,0.419044842,-0.27367292,0.506001,0.390328476,-0.239536542,0.476462,0.37779326,-0.238956089,0.46289,0.368695167,-0.247246075,0.450915
0.400723832,-0.345764013,0.556459,0.383485507,-0.292960958,0.522038,0.373241096,-0.322712555,0.541847,0.361387008,-0.308003975,0.516678,0.344035975,-0.289466624,0.491671,0.332675018,-0.270157312,0.475847,0.34374151,-0.233705231,0.479812,0.328895963,-0.207427937,0.450689,0.3215216,-0.194192968,0.436128,0.309578761,-0.197826804,0.42289,0.371632296,-0.244204995,0.486772,0.354925136,-0.210861042,0.450172,0.332170092,-0.22049932,0.428822,0.324401267,-0.230404291,0.426337,0.396138415,-0.256796183,0.495275,0.365357916,-0.229693816,0.459714,0.35145678,-0.217914709,0.44152,0.338524428,-0.208483676,0.42498,0.425805982,-0.278683361,0.510514,0.401422234,-0.247392523,0.480513,0.388823104,-0.243609421,0.466728,0.373448419,-0.250652428,0.454566
0.402191984,-0.345886009,0.557693,0.385020283,-0.293817755,0.523292,0.375137767,-0.323518433,0.543725,0.363241252,-0.309262568,0.518712,0.346346299,-0.290492501,0.494043,0.334985915,-0.270756026,0.478259,0.345301892,-0.235341718,0.481879,0.327610131,-0.206983001,0.448751,0.318768016,-0.192796031,0.432187,0.305540297,-0.195401448,0.417129,0.372666257,-0.245477907,0.488046,0.356046636,-0.211905666,0.451465,0.333312509,-0.221527377,0.430125,0.325709102,-0.231643996,0.427893,0.396679702,-0.257767059,0.495895,0.366863535,-0.241350109,0.460571,0.351444589,-0.234089443,0.442499,0.337302431,-0.228850632,0.426069,0.426384144,-0.279216414,0.510357,0.401458635,-0.247920955,0.480485,0.388976701,-0.242360031,0.46676,0.37444866,-0.247244637,0.45465
0.403834316,-0.346678709,0.559518,0.387136892,-0.295168339,0.525489,0.376542724,-0.324304537,0.545237,0.364412127,-0.309977365,0.520062,0.347204804,-0.290619768,0.494903,0.336233337,-0.270889396,0.479501,0.347148929,-0.235696725,0.483947,0.322457682,-0.211571914,0.45025,0.309744735,-0.200141057,0.433401,0.295578933,-0.204958693,0.418085,0.374927055,-0.246278177,0.490625,0.358397417,-0.212555873,0.454289,0.33580299,-0.221856458,0.433094,0.328142189,-0.232582258,0.43098,0.399291938,-0.258986169,0.498863,0.368958882,-0.228026931,0.463619,0.353975582,-0.234673306,0.445587,0.340239279,-0.239665548,0.429194,0.429689284,-0.281174222,0.51373,0.404331044,-0.250530627,0.483948,0.391774065,-0.244446231,0.470264,0.377931774,-0.249053316,0.45819
0.404871361,-0.346944437,0.560495,0.388537986,-0.295999539,0.526721,0.377983998,-0.325116818,0.546788,0.365934615,-0.311118848,0.522025,0.348811611,-0.291787067,0.497044,0.338077316,-0.272072364,0.481874,0.348819164,-0.236506593,0.48607,0.337312065,-0.204946688,0.453418,0.322867709,-0.2065312,0.437093,0.305172733,-0.213743446,0.422251,0.376165773,-0.246887071,0.492118,0.354259273,-0.208662093,0.455968,0.333635738,-0.21615452,0.43488,0.329449127,-0.232776454,0.433123,0.400119903,-0.259427878,0.499817,0.370611107,-0.229670665,0.464916,0.354947532,-0.235949935,0.447059,0.341308668,-0.24101887,0.430826,0.430167977,-0.281475521,0.514008,0.404668738,-0.251416772,0.484446,0.392152522,-0.244747658,0.470864,0.378811964,-0.248997995,0.458879
0.40748267,-0.348735419,0.563862,0.390577553,-0.297336945,0.528888,0.380342155,-0.326806367,0.549829,0.368875073,-0.312604849,0.52517,0.352186466,-0.291985987,0.500295,0.341766343,-0.271726443,0.485395,0.349627611,-0.236645653,0.486993,0.337271539,-0.205773101,0.453827,0.321807226,-0.208496618,0.437245,0.303746753,-0.215258383,0.422169,0.376985717,-0.247096133,0.493055,0.351160532,-0.220259427,0.456092,0.32932216,-0.231096885,0.43453,0.324485507,-0.240924764,0.431908,0.401029931,-0.25976745,0.500863,0.370686971,-0.230888446,0.465225,0.354610794,-0.238731793,0.446992,0.340934442,-0.241954973,0.430416,0.431483346,-0.282190461,0.515362,0.405340259,-0.251997149,0.485252,0.392580499,-0.24513059,0.471418,0.379359161,-0.249175227,0.459211
0.408562353,-0.349163174,0.565058,0.391766288,-0.2978754,0.529709,0.381291083,-0.326961246,0.55063,0.371258588,-0.311849595,0.526747,0.357018846,-0.28912424,0.501706,0.349238471,-0.269733934,0.487566,0.350197496,-0.23557935,0.487061,0.331847955,-0.210180794,0.453181,0.314297623,-0.219923694,0.436241,0.308056918,-0.225397472,0.433239,0.377769747,-0.246304034,0.493491,0.352095545,-0.218868774,0.456279,0.330133103,-0.229616412,0.434571,0.327116114,-0.235492466,0.431555,0.401924964,-0.25961761,0.501633,0.372214507,-0.225459707,0.465668,0.355659524,-0.23448633,0.447268,0.341406302,-0.240825927,0.43054,0.433498812,-0.282650512,0.516583,0.406419399,-0.252169025,0.486253,0.39354958,-0.245478491,0.472318,0.381302831,-0.249573359,0.460022
0.41025195,-0.35010519,0.567656,0.393695265,-0.298640961,0.531763,0.383187271,-0.327737719,0.553256,0.375494061,-0.310387468,0.530214,0.364262002,-0.291152042,0.50557,0.358380457,-0.27306712,0.490892,0.352095159,-0.235464839,0.48877,0.332916662,-0.211652058,0.454293,0.314599213,-0.221028326,0.437055,0.305718219,-0.230071961,0.433609,0.379231422,-0.246536496,0.494989,0.352969112,-0.219999627,0.457429,0.330815676,-0.23080209,0.435519,0.326941531,-0.237228648,0.43214,0.403437779,-0.259451275,0.503001,0.373057002,-0.230909893,0.466783,0.356128885,-0.23864601,0.448254,0.342414801,-0.241121607,0.431408,0.434843782,-0.282882581,0.517878,0.407585812,-0.252357704,0.487353,0.394613435,-0.245697423,0.473328,0.382359986,-0.249879785,0.460953
0.411671413,-0.350772765,0.569567,0.396359133,-0.299284023,0.533859,0.385241398,-0.328470852,0.555755,0.378572794,-0.30986512,0.532915,0.366810706,-0.291958752,0.508644,0.360906706,-0.273719677,0.493871,0.355967498,-0.234142249,0.491725,0.323755847,-0.20995759,0.457555,0.310124971,-0.218941903,0.44047,0.307794211,-0.232330307,0.437417,0.382759435,-0.244711101,0.497274,0.35508153,-0.220493178,0.459841,0.332536338,-0.231139906,0.438005,0.328959537,-0.237977843,0.434965,0.405921441,-0.258447542,0.504719,0.375344639,-0.230030121,0.468803,0.357954349,-0.240356476,0.450427,0.344222474,-0.242158265,0.433721,0.436142577,-0.282769651,0.518898,0.409441876,-0.251243204,0.488557,0.395932072,-0.24600283,0.474616,0.383679013,-0.250330752,0.462316
0.413681075,-0.351751243,0.571306,0.398888829,-0.300020094,0.535951,0.387160933,-0.329126719,0.557263,0.380691629,-0.310612186,0.534502,0.368956201,-0.290859949,0.509939,0.362269772,-0.273382974,0.495408,0.358144117,-0.234366135,0.493778,0.325155595,-0.210949006,0.459648,0.312014564,-0.219931967,0.442583,0.309469988,-0.233570766,0.439644,0.384940027,-0.245411204,0.499727,0.357839043,-0.219402963,0.462515,0.33507706,-0.229684438,0.440808,0.331070913,-0.239522886,0.43793,0.408997748,-0.258372539,0.507474,0.378090084,-0.230391145,0.471644,0.361208717,-0.240670524,0.453312,0.347514292,-0.242146978,0.436647,0.440457987,-0.281773815,0.521957,0.41365724,-0.250642005,0.491699,0.400734844,-0.242679482,0.477797,0.387689886,-0.249020934,0.46553
0.415353115,-0.352359149,0.572654,0.400059599,-0.300321047,0.537087,0.388825166,-0.329661232,0.558603,0.381810973,-0.311102372,0.535493,0.368536564,-0.291657289,0.510934,0.362599575,-0.273385311,0.496355,0.358106795,-0.234827712,0.494754,0.324369999,-0.211902394,0.460535,0.31164262,-0.220868734,0.443425,0.309507603,-0.234307647,0.44035,0.385172347,-0.245445357,0.500646,0.357429986,-0.219550324,0.463297,0.334904536,-0.229827054,0.44151,0.330768582,-0.240409332,0.438485,0.409344322,-0.258153967,0.508362,0.378336228,-0.23056895,0.472425,0.361226829,-0.240519006,0.454039,0.347446248,-0.243229745,0.437324,0.441350604,-0.280713664,0.522841,0.413713698,-0.25008093,0.492502,0.400339258,-0.242218249,0.478563,0.387759542,-0.249716542,0.466263
0.416906669,-0.35285529,0.573524,0.40115396,-0.300333227,0.537858,0.390294298,-0.330130845,0.559535,0.382765673,-0.311599003,0.536446,0.369144636,-0.291896009,0.511955,0.363112862,-0.273608095,0.497388,0.358225286,-0.235196911,0.495534,0.324208123,-0.212530398,0.461307,0.311701011,-0.221510574,0.444194,0.309720604,-0.234942194,0.441089,0.385371545,-0.245496379,0.501316,0.357292381,-0.219704686,0.463905,0.334915865,-0.229991265,0.442082,0.330492664,-0.241055143,0.439011,0.409571371,-0.258005826,0.508949,0.378502765,-0.230691283,0.472988,0.361327493,-0.240487902,0.454588,0.347755601,-0.243073984,0.437862,0.44163122,-0.280350209,0.523345,0.413746862,-0.249743794,0.492983,0.400213248,-0.242031029,0.479032,0.388032594,-0.249414025,0.466723
0.418329827,-0.353066526,0.574375,0.402080935,-0.300101373,0.538626,0.391685566,-0.3303783,0.560538,0.382085109,-0.312407069,0.53651,0.363656166,-0.293942017,0.511874,0.353771555,-0.273747522,0.494573,0.358258647,-0.235481813,0.496433,0.321954454,-0.214164039,0.462252,0.31103419,-0.222710004,0.445162,0.309931942,-0.235830034,0.442078,0.385391434,-0.245507617,0.502,0.354178243,-0.218535762,0.46454,0.332696014,-0.228335407,0.442689,0.32989947,-0.241406416,0.439612,0.409406158,-0.256745545,0.509463,0.377494425,-0.230034164,0.473517,0.360797754,-0.2398054,0.455127,0.347893646,-0.241971081,0.438408,0.441427058,-0.278391187,0.523669,0.412335447,-0.250546118,0.493308,0.3984563,-0.248516229,0.479358,0.38757489,-0.250566686,0.467049
0.420190112,-0.353371321,0.575675,0.403205915,-0.300112582,0.539643,0.393838059,-0.331132697,0.562508,0.386265548,-0.31367609,0.540932,0.36828036,-0.288373943,0.517334,0.355982245,-0.266001358,0.502343,0.359023348,-0.236331312,0.498084,0.322667363,-0.215343967,0.464151,0.311044653,-0.224530798,0.447184,0.31052399,-0.237783092,0.444218,0.38558315,-0.245785195,0.502727,0.353861592,-0.218293655,0.46512,0.332372502,-0.228168637,0.443182,0.329808742,-0.24074381,0.440111,0.40920501,-0.2576514,0.509452,0.376147074,-0.230171027,0.473633,0.359663781,-0.239791216,0.455307,0.347632966,-0.241962083,0.438647,0.440483701,-0.2798268,0.522826,0.411144874,-0.25121841,0.492516,0.396135604,-0.242540917,0.478589,0.385692009,-0.248684251,0.466301
0.421922594,-0.353631137,0.5768,0.404208831,-0.300072576,0.540564,0.395262783,-0.331413887,0.563488,0.386893534,-0.313977932,0.541705,0.37082322,-0.291276781,0.517942,0.357724038,-0.267542185,0.504776,0.357887114,-0.236993494,0.498681,0.322456675,-0.215869628,0.464591,0.310906529,-0.225036963,0.447546,0.310284582,-0.238181693,0.444384,0.384896775,-0.246071039,0.503438,0.351990355,-0.217005002,0.465695,0.332356998,-0.228131781,0.443679,0.329762023,-0.240589966,0.44042,0.409406445,-0.257442334,0.510274,0.375617699,-0.230375457,0.474301,0.360218323,-0.24088873,0.455896,0.347749755,-0.242306393,0.439165,0.440868451,-0.278237928,0.52381,0.410520142,-0.249049463,0.493392,0.396527508,-0.242469955,0.479416,0.386299183,-0.246841118,0.467085
0.423545691,-0.353763774,0.577796,0.405149348,-0.29999265,0.541444,0.396450169,-0.331486789,0.564162,0.386231794,-0.313731754,0.54092,0.371203677,-0.294932766,0.516855,0.362130618,-0.276331268,0.502162,0.357294036,-0.237002206,0.499081,0.32221781,-0.215998747,0.464775,0.310696826,-0.225117696,0.447623,0.309917279,-0.238225111,0.444241,0.384318767,-0.245445301,0.5042,0.352052221,-0.218559507,0.46637,0.333464515,-0.231527532,0.444303,0.329845265,-0.241012581,0.440864,0.408668534,-0.256718285,0.511343,0.375951128,-0.230898065,0.475191,0.360044879,-0.240872134,0.456694,0.348085323,-0.242624779,0.439879,0.441288215,-0.278281133,0.525261,0.411394815,-0.249292412,0.494729,0.397665012,-0.241812626,0.480701,0.386555147,-0.246390482,0.468323
0.424782955,-0.353863737,0.578449,0.405711804,-0.299951991,0.542004,0.397526835,-0.331768536,0.564872,0.386487262,-0.314171896,0.541391,0.371271599,-0.295487175,0.517365,0.361443878,-0.276195213,0.502612,0.357461054,-0.237296188,0.499647,0.322345461,-0.216291102,0.465337,0.310896769,-0.225428834,0.448182,0.310068938,-0.238602142,0.444765,0.384444318,-0.245623841,0.504664,0.352092664,-0.219495838,0.46678,0.333025714,-0.232179464,0.44468,0.329584453,-0.241148577,0.441191,0.408768845,-0.256802951,0.511732,0.375976197,-0.231140892,0.475558,0.360101609,-0.241086806,0.457051,0.348176163,-0.242755752,0.440226,0.44137805,-0.278253887,0.525573,0.411467883,-0.249131178,0.495021,0.39766764,-0.241611311,0.480984,0.386562497,-0.246177505,0.468599
0.425930997,-0.354258343,0.579452,0.406185957,-0.300036646,0.542833,0.398741061,-0.332489074,0.566254,0.388437561,-0.315425465,0.544114,0.369782038,-0.289788365,0.520547,0.356954031,-0.267044321,0.505182,0.357906198,-0.23766784,0.500824,0.321861939,-0.216287113,0.466653,0.310593186,-0.225505388,0.449568,0.310329782,-0.239096764,0.446197,0.38453882,-0.245695109,0.505315,0.352049261,-0.219903995,0.467343,0.331340859,-0.229946659,0.445193,0.328712212,-0.241315742,0.441686,0.408553495,-0.256623541,0.511962,0.3747772,-0.231085946,0.475859,0.359532618,-0.240784116,0.457388,0.347886593,-0.24246572,0.440596,0.440792338,-0.277771732,0.525333,0.409842777,-0.246989859,0.494811,0.397070662,-0.241256209,0.480787,0.386078966,-0.24595806,0.468414
0.426270891,-0.354418606,0.579953,0.406034112,-0.300168774,0.543389,0.39905584,-0.333018801,0.567011,0.388655091,-0.315992018,0.545289,0.369588207,-0.290585727,0.521969,0.356736905,-0.267806134,0.506675,0.356313874,-0.238162732,0.501737,0.320878144,-0.215791464,0.467728,0.30816643,-0.223134725,0.450724,0.309826376,-0.239933522,0.447495,0.382785252,-0.245690353,0.505927,0.351273625,-0.21862628,0.468007,0.331063163,-0.227958678,0.445886,0.32763796,-0.241208465,0.442488,0.407093311,-0.25625485,0.512324,0.374117725,-0.23146451,0.47635,0.358456693,-0.241072292,0.457945,0.347205335,-0.242434158,0.441214,0.439198079,-0.276986255,0.525387,0.409078971,-0.246960513,0.494948,0.395284333,-0.241172662,0.480962,0.385019365,-0.246205192,0.468622
