sluyters/QuantumLeap/src/datasets/gesture/HandGestureDataset_SHREC2017_csv/Gesture4/finger_2/subject_13_essai_4_skeletons_world.csv
Wrist_x,Wrist_y,Wrist_z,Palm_x,Palm_y,Palm_z,thumb_base_x,thumb_base_y,thumb_base_z,thumb_first_joint_x,thumb_first_joint_y,thumb_first_joint_z,thumb_second_joint_x,thumb_second_joint_y,thumb_second_joint_z,thumb_tip_x,thumb_tip_y,thumb_tip_z,index_base_x,index_base_y,index_base_z,index_first_joint_x,index_first_joint_y,index_first_joint_z,index_second_joint_x,index_second_joint_y,index_second_joint_z,index_tip_x,index_tip_y,index_tip_z,middle_base_x,middle_base_y,middle_base_z,middle_first_joint_x,middle_first_joint_y,middle_first_joint_z,middle_second_joint_x,middle_second_joint_y,middle_second_joint_z,middle_tip_x,middle_tip_y,middle_tip_z,ring_base_x,ring_base_y,ring_base_z,ring_first_joint_x,ring_first_joint_y,ring_first_joint_z,ring_second_joint_x,ring_second_joint_y,ring_second_joint_z,ring_tip_x,ring_tip_y,ring_tip_z,pinky_base_x,pinky_base_y,pinky_base_z,pinky_first_joint_x,pinky_first_joint_y,pinky_first_joint_z,pinky_second_joint_x,pinky_second_joint_y,pinky_second_joint_z,pinky_tip_x,pinky_tip_y,pinky_tip_z,
0.44200478,-0.34321485,0.497944,0.45436812,-0.30466467,0.502478,0.43293227,-0.3303377,0.505947,0.41480212,-0.29907941,0.507679,0.39362495,-0.26829332,0.503269,0.38638433,-0.24546751,0.500071,0.45473686,-0.25645679,0.516257,0.44929121,-0.21605481,0.516374,0.4463921,-0.19524059,0.516432,0.44369971,-0.17591549,0.516485,0.47030676,-0.25546759,0.508421,0.47126257,-0.20920076,0.50702,0.4663589,-0.18358621,0.506202,0.46260625,-0.16484569,0.505618,0.48266625,-0.25729748,0.501662,0.48696572,-0.21134461,0.500501,0.48436559,-0.18821397,0.499908,0.48144609,-0.16694775,0.499368,0.49644746,-0.26439045,0.492915,0.50479352,-0.22482464,0.49036,0.50581275,-0.2058398,0.489186,0.50559928,-0.1899943,0.488151
0.4423604,-0.34285376,0.497628,0.45450484,-0.30434032,0.502268,0.43326412,-0.33023984,0.505764,0.41486616,-0.29913814,0.507703,0.3933213,-0.26838234,0.503091,0.38596955,-0.24565181,0.500032,0.45467703,-0.2565336,0.516306,0.44914384,-0.21630948,0.516588,0.44628116,-0.19552077,0.51673,0.44361923,-0.17621299,0.516858,0.47015753,-0.25525181,0.508352,0.47116919,-0.20906242,0.5071,0.46613228,-0.18359903,0.506369,0.46227556,-0.16494679,0.505848,0.4824518,-0.25682779,0.501487,0.48678013,-0.21089651,0.500471,0.48408253,-0.18786035,0.499951,0.4812858,-0.16649991,0.499478,0.49613536,-0.26410633,0.4926,0.50453361,-0.22450806,0.49016,0.50570231,-0.20553297,0.48904,0.50510611,-0.18939286,0.488051
0.44258921,-0.34274042,0.497428,0.45456101,-0.30425335,0.502109,0.43352791,-0.33035319,0.505686,0.4150076,-0.29943206,0.507809,0.39312222,-0.26864643,0.502963,0.38583018,-0.24608058,0.500284,0.45464186,-0.25679775,0.516332,0.44898557,-0.21671271,0.5167,0.44605463,-0.19597782,0.516884,0.4433286,-0.17671005,0.517052,0.4699824,-0.25525987,0.508246,0.47080002,-0.20908728,0.507075,0.46574287,-0.18360945,0.506392,0.46202066,-0.1647806,0.505905,0.48217019,-0.25661511,0.501271,0.48639469,-0.21066578,0.500317,0.48354219,-0.18770298,0.499829,0.48088055,-0.16617539,0.499385,0.49574787,-0.2636078,0.492245,0.50447038,-0.22412738,0.489832,0.50548791,-0.20521293,0.488724,0.50446498,-0.18940928,0.487745
0.44282426,-0.34259294,0.497183,0.45461125,-0.30413163,0.501909,0.43381112,-0.33044649,0.505589,0.41523185,-0.29971555,0.507931,0.39304122,-0.26889746,0.502873,0.38579781,-0.24647289,0.50049,0.45460431,-0.25702601,0.516349,0.44886715,-0.21705702,0.516798,0.44589146,-0.19636806,0.517023,0.44312087,-0.17713388,0.517227,0.46978794,-0.25522415,0.508104,0.47044584,-0.20907786,0.507027,0.46541733,-0.18355923,0.506398,0.46171613,-0.16470872,0.505949,0.4818518,-0.25635179,0.500995,0.48593881,-0.21037224,0.500103,0.4830927,-0.1873867,0.499647,0.4804368,-0.1658446,0.499232,0.4953006,-0.2630502,0.491801,0.50411353,-0.22345956,0.489425,0.50514021,-0.2045743,0.488333,0.50379178,-0.18908633,0.48737
0.44321578,-0.34267179,0.497221,0.45471111,-0.30411937,0.501829,0.43419661,-0.33068808,0.505691,0.41540496,-0.30013616,0.508114,0.39259911,-0.26914519,0.502496,0.38508633,-0.24669104,0.499902,0.45445885,-0.25721117,0.51624,0.44848457,-0.21731832,0.51664,0.44538677,-0.1966654,0.516841,0.44238191,-0.17754277,0.517023,0.46949792,-0.25517799,0.50787,0.46968483,-0.20897748,0.5067,0.46462126,-0.18335297,0.506017,0.46089854,-0.16444491,0.505529,0.48145923,-0.25611126,0.500666,0.48518929,-0.21004484,0.499695,0.48223175,-0.18702826,0.499199,0.47947334,-0.16547092,0.498747,0.49482814,-0.26257072,0.491375,0.50356553,-0.22283903,0.488933,0.50440776,-0.20402673,0.487812,0.50190376,-0.1881676,0.486822
0.44341251,-0.34259976,0.49704,0.45475026,-0.30406644,0.501682,0.43439257,-0.33078533,0.505572,0.41541047,-0.30043597,0.508092,0.39211629,-0.26936521,0.502067,0.3843263,-0.24687821,0.499251,0.4543742,-0.25743042,0.5162,0.44824716,-0.21764958,0.516649,0.44506754,-0.19704436,0.516874,0.44186434,-0.1780408,0.517078,0.46933003,-0.25519805,0.507768,0.46918393,-0.20899302,0.506654,0.46416321,-0.18328004,0.506004,0.46047346,-0.16432116,0.505539,0.48123405,-0.25595986,0.500511,0.4847321,-0.20984402,0.499588,0.48172371,-0.18680674,0.499116,0.47891816,-0.16523818,0.498686,0.49456021,-0.26220006,0.491152,0.5033244,-0.22235411,0.488739,0.50402554,-0.20362043,0.48763,0.50138594,-0.18825153,0.486652
0.44383291,-0.34257893,0.496758,0.45458989,-0.30379859,0.500985,0.43391073,-0.330293,0.504461,0.41440237,-0.30055092,0.505722,0.38496776,-0.26506003,0.488708,0.37398827,-0.2404528,0.478094,0.45263192,-0.2566591,0.514123,0.44583636,-0.21742027,0.51441,0.44102833,-0.19813416,0.514554,0.43671763,-0.179804,0.514685,0.46838508,-0.25478306,0.506525,0.46669711,-0.20839948,0.504723,0.4595053,-0.18330176,0.503672,0.45727227,-0.16373532,0.502921,0.48102803,-0.2558456,0.499982,0.48340709,-0.2095112,0.498713,0.47986747,-0.18625965,0.498063,0.47710144,-0.16494928,0.497472,0.49717753,-0.26460013,0.491539,0.50339529,-0.22220497,0.488994,0.49957162,-0.20782299,0.487825,0.49851913,-0.19081349,0.486793
0.43582823,-0.33620838,0.487497,0.45014463,-0.30067888,0.495709,0.42907075,-0.32651489,0.498624,0.41747195,-0.2994138,0.505432,0.40044116,-0.26531754,0.500591,0.39587152,-0.24335559,0.501791,0.45514671,-0.25820233,0.516607,0.45252892,-0.22098467,0.522046,0.44916928,-0.20441551,0.524766,0.45125559,-0.18633933,0.531843,0.46874947,-0.2550562,0.506473,0.47154831,-0.21073814,0.50979,0.46884785,-0.18584705,0.511725,0.46677807,-0.16729436,0.513107,0.48259504,-0.25733708,0.497569,0.48593306,-0.21079385,0.501469,0.48520912,-0.18857724,0.503464,0.48433151,-0.16775108,0.505279,0.49396473,-0.26258021,0.485737,0.50191189,-0.22140939,0.487516,0.50075054,-0.20944912,0.488333,0.50080926,-0.19707545,0.490033
0.44447249,-0.34137532,0.495508,0.45914725,-0.30136394,0.499011,0.43083793,-0.32680377,0.49943,0.41974622,-0.28948672,0.495301,0.38844843,-0.24917928,0.471478,0.38179759,-0.22712302,0.470551,0.4468294,-0.2532442,0.506931,0.4379743,-0.21359916,0.504835,0.43161661,-0.19516639,0.503786,0.42598907,-0.17709388,0.502833,0.46651866,-0.25341562,0.503603,0.46230392,-0.20650456,0.499984,0.45621548,-0.18114933,0.497874,0.45229254,-0.16304031,0.496366,0.48751783,-0.25318536,0.500622,0.4818907,-0.20869282,0.497713,0.47797548,-0.18548548,0.496226,0.47445032,-0.16428924,0.494873,0.50872249,-0.26106211,0.496557,0.50672258,-0.22284687,0.492103,0.50348278,-0.21089148,0.490057,0.4995523,-0.20010238,0.488252
0.44591727,-0.34127741,0.495554,0.45539953,-0.30196481,0.498528,0.43214282,-0.32700638,0.499809,0.42023103,-0.29064289,0.496056,0.39118701,-0.25124661,0.474711,0.38005441,-0.2261702,0.46795,0.4464488,-0.25312085,0.506369,0.43683881,-0.21369602,0.5041,0.43212135,-0.19344568,0.502965,0.42587048,-0.17630836,0.501934,0.46576919,-0.25299025,0.502428,0.4607507,-0.20605908,0.498368,0.45479696,-0.18078708,0.496,0.45131289,-0.16461573,0.494309,0.48471431,-0.25625219,0.49898,0.47977826,-0.21183412,0.495881,0.47443508,-0.19021231,0.494296,0.47125757,-0.16747921,0.492855,0.5059769,-0.26233764,0.494426,0.49515211,-0.23045042,0.489746,0.49028739,-0.21386569,0.487595,0.48591246,-0.19874918,0.485698
0.45339828,-0.34587513,0.502279,0.45755575,-0.30325722,0.50074,0.43699643,-0.33001698,0.504312,0.4329794,-0.28819502,0.496946,0.41413844,-0.24818969,0.483317,0.41684603,-0.22983005,0.489628,0.44233615,-0.25094367,0.501789,0.42875122,-0.21092867,0.494883,0.42181786,-0.19278665,0.491429,0.41776942,-0.17345075,0.490942,0.46249679,-0.2512068,0.498723,0.45254028,-0.20402118,0.489635,0.44415778,-0.17792507,0.484333,0.43874351,-0.16074888,0.480547,0.47943158,-0.25415859,0.496308,0.46849405,-0.21301362,0.488239,0.46250896,-0.19251756,0.484112,0.45740868,-0.17464398,0.480359,0.5037898,-0.26321708,0.493619,0.48797625,-0.22746816,0.484488,0.48058747,-0.21051832,0.480293,0.47407076,-0.19544193,0.476591
0.45386142,-0.34520382,0.501181,0.4574097,-0.30263134,0.499607,0.43709829,-0.32953013,0.503298,0.43227304,-0.2881999,0.496041,0.41443647,-0.24880801,0.48358,0.41775028,-0.23075089,0.490608,0.44133881,-0.2506124,0.500724,0.42792169,-0.21102749,0.49382,0.4209788,-0.19278127,0.490367,0.41542031,-0.17395863,0.487229,0.46158546,-0.25078506,0.497543,0.45116031,-0.2036398,0.488441,0.44311377,-0.17810257,0.483131,0.43886081,-0.16099916,0.479338,0.47857928,-0.25363869,0.495035,0.46742584,-0.21290837,0.486992,0.46145842,-0.19245498,0.482877,0.45637623,-0.17462075,0.479137,0.50215407,-0.26332988,0.492241,0.48608715,-0.22696439,0.483126,0.47854574,-0.21017381,0.478937,0.47191723,-0.19532076,0.475242
0.45753228,-0.3465699,0.50354,0.45949988,-0.30132708,0.498787,0.43976475,-0.33055921,0.505201,0.43365615,-0.28796223,0.496982,0.41517946,-0.24825381,0.484106,0.4169555,-0.22968046,0.49007,0.43686719,-0.246964,0.496459,0.42095095,-0.20599994,0.487241,0.41392884,-0.18806813,0.482632,0.40736015,-0.1708827,0.478443,0.45650168,-0.24718984,0.492556,0.44217902,-0.19869655,0.480258,0.43369244,-0.17365818,0.473085,0.4276477,-0.15620481,0.467961,0.47420818,-0.24863417,0.489675,0.45969423,-0.20781885,0.478804,0.45288637,-0.18764631,0.473242,0.44673296,-0.17106739,0.468186,0.49763044,-0.25671364,0.486873,0.47863485,-0.22872699,0.475251,0.46999658,-0.21703709,0.469911,0.46250421,-0.20710072,0.4652
0.45964816,-0.34698518,0.504061,0.45834663,-0.30159559,0.498502,0.44116323,-0.33092802,0.505494,0.43380072,-0.28852168,0.496887,0.41508752,-0.24869762,0.483795,0.41547083,-0.22674441,0.483953,0.4367802,-0.24793261,0.495165,0.420656,-0.2070819,0.484721,0.41344018,-0.18790239,0.4795,0.40827741,-0.18247296,0.474752,0.45617376,-0.2472457,0.491215,0.44145389,-0.19816765,0.478086,0.43179251,-0.17513759,0.470428,0.42379548,-0.17205589,0.464958,0.47283812,-0.24963455,0.488351,0.45397134,-0.21227563,0.476698,0.44329529,-0.19263113,0.470736,0.43337579,-0.17404789,0.465315,0.49637518,-0.25676904,0.48568,0.47731085,-0.22730834,0.473375,0.46759783,-0.21566961,0.467722,0.45900461,-0.20543401,0.462733
0.45977019,-0.34578011,0.502275,0.45820117,-0.30073562,0.497165,0.44089859,-0.3299727,0.503791,0.43258657,-0.28799193,0.49534,0.41384541,-0.24825272,0.482225,0.41534764,-0.22639925,0.48209,0.43592899,-0.24766152,0.494337,0.42067612,-0.20698076,0.484135,0.41393411,-0.18741632,0.479034,0.40797212,-0.18233652,0.474397,0.45575691,-0.24685785,0.490466,0.44144396,-0.19796247,0.477788,0.4319197,-0.17557119,0.470393,0.42393494,-0.1721125,0.465111,0.47270863,-0.24914021,0.487636,0.45367708,-0.21213803,0.476389,0.44320018,-0.1925898,0.470635,0.43345868,-0.17408118,0.465404,0.49573892,-0.25622494,0.484944,0.47711855,-0.22695455,0.472997,0.46731298,-0.21545146,0.467507,0.45858693,-0.20521374,0.462664
0.46086764,-0.3453988,0.501682,0.45941437,-0.30092416,0.497421,0.43925557,-0.32812723,0.500647,0.42682459,-0.28457942,0.488878,0.41010814,-0.24641924,0.478007,0.41006823,-0.22326641,0.47257,0.43332471,-0.24747258,0.492291,0.41849865,-0.21211467,0.481171,0.41052634,-0.19435117,0.475611,0.40049629,-0.19035938,0.470556,0.45711223,-0.2486357,0.491835,0.44135377,-0.20096617,0.479368,0.42961257,-0.18500896,0.472096,0.42080888,-0.18293628,0.466902,0.47721809,-0.25148699,0.491755,0.45660396,-0.21439819,0.479563,0.44580743,-0.19462747,0.473324,0.43578913,-0.17594079,0.467653,0.5027688,-0.26111839,0.492249,0.47340811,-0.22492025,0.479672,0.45991443,-0.20817797,0.473893,0.44790863,-0.19322578,0.468794
0.46132957,-0.34478946,0.50094,0.45883816,-0.30011079,0.496257,0.43967418,-0.32802182,0.500264,0.42666247,-0.28473792,0.488912,0.40994931,-0.24623524,0.477041,0.41103969,-0.22301539,0.471604,0.43151334,-0.24752766,0.491176,0.4161112,-0.20970927,0.479949,0.40842514,-0.19370382,0.474336,0.39834203,-0.18982592,0.469233,0.45517665,-0.24780243,0.490119,0.43865285,-0.20114099,0.477318,0.42669494,-0.18324317,0.46985,0.41776008,-0.18006864,0.464516,0.47474327,-0.25045904,0.489575,0.45389996,-0.21373906,0.477262,0.44326194,-0.19461389,0.470962,0.43363804,-0.17966442,0.465235,0.50004896,-0.25874773,0.489568,0.47032127,-0.2254696,0.476849,0.45691524,-0.21249941,0.471005,0.44519358,-0.19911566,0.465848
0.4479807,-0.33396012,0.484692,0.45263573,-0.29557705,0.488601,0.43528226,-0.32434793,0.493815,0.43373006,-0.29039272,0.497129,0.42838921,-0.25795347,0.497687,0.43914744,-0.23822536,0.502883,0.44248367,-0.25360539,0.503162,0.43518409,-0.22212297,0.503039,0.43074116,-0.20573113,0.503065,0.4201482,-0.21008062,0.503088,0.4590381,-0.24758404,0.493725,0.44726607,-0.21476813,0.492112,0.4397756,-0.19343653,0.492182,0.43226399,-0.19777171,0.492232,0.4729433,-0.24710422,0.485693,0.45848534,-0.22105454,0.486973,0.45050555,-0.20629556,0.488012,0.44271528,-0.1918255,0.48908,0.48760655,-0.25028575,0.475503,0.46508148,-0.22032041,0.474273,0.45426192,-0.20590412,0.473708,0.44447296,-0.1928307,0.473231
0.44965981,-0.33582859,0.486325,0.45332366,-0.29654107,0.489309,0.43603741,-0.32559472,0.494507,0.4332326,-0.29031925,0.496331,0.42621243,-0.25605392,0.490831,0.43849319,-0.23784615,0.501043,0.44159203,-0.25322592,0.501892,0.43226739,-0.22174387,0.500598,0.42754619,-0.20543575,0.501383,0.41913467,-0.20974352,0.502096,0.45861635,-0.2474775,0.49322,0.44476301,-0.21610069,0.490376,0.43430617,-0.19898448,0.488717,0.42639618,-0.2058496,0.487532,0.47260552,-0.24699146,0.48588,0.45772625,-0.22266636,0.485716,0.45013635,-0.21224477,0.485631,0.4431922,-0.20023062,0.486605,0.48838388,-0.25069464,0.476651,0.46480008,-0.2193612,0.47418,0.45356159,-0.20439096,0.473044,0.44343426,-0.19086834,0.472055
0.45448416,-0.33894899,0.490289,0.45843149,-0.29957808,0.493463,0.43832701,-0.32706791,0.495705,0.43938229,-0.29399002,0.493583,0.43000782,-0.2598676,0.491488,0.43855827,-0.2384603,0.498881,0.44992258,-0.25721747,0.502885,0.4324934,-0.25010871,0.501733,0.44082983,-0.25664965,0.522445,0.45165418,-0.2755993,0.531173,0.46305327,-0.25123191,0.497624,0.44377196,-0.23948912,0.494082,0.42853758,-0.23162615,0.492015,0.43978664,-0.25416876,0.507536,0.47927653,-0.25055146,0.493076,0.46085651,-0.22595025,0.491083,0.44795961,-0.21797879,0.491709,0.4424483,-0.20493514,0.492279,0.49931241,-0.25562148,0.487174,0.47093402,-0.23218426,0.483252,0.45640408,-0.22241351,0.48145,0.44324608,-0.21354391,0.479926
0.45512988,-0.33898309,0.489733,0.45960305,-0.30000061,0.493365,0.43888075,-0.32725723,0.494919,0.43843747,-0.29404102,0.492539,0.4301467,-0.26068108,0.491171,0.43837425,-0.23912902,0.497293,0.44971252,-0.25790761,0.502928,0.43255766,-0.2508648,0.501894,0.44104945,-0.25747365,0.522681,0.45194355,-0.27644181,0.531393,0.46429921,-0.2518323,0.498127,0.44456054,-0.2405943,0.494974,0.42962365,-0.23282799,0.493135,0.44109056,-0.25551191,0.508816,0.47989816,-0.25150074,0.493926,0.46039544,-0.23010909,0.492152,0.44791124,-0.21857721,0.491526,0.43948388,-0.20561319,0.490956,0.5001997,-0.25624869,0.488378,0.47234128,-0.23353598,0.484672,0.45801573,-0.22382419,0.483052,0.44504687,-0.21500731,0.481709
0.456192,-0.33922484,0.489649,0.46060052,-0.30017752,0.493112,0.44027107,-0.32797038,0.495099,0.43889698,-0.29457722,0.493061,0.43165585,-0.26195953,0.492657,0.44022866,-0.24081053,0.499553,0.44954919,-0.25808411,0.502838,0.43253883,-0.25109362,0.501901,0.44101154,-0.25768359,0.522628,0.45188069,-0.27662532,0.531279,0.46460445,-0.25180764,0.497652,0.44404528,-0.24054174,0.494405,0.4291168,-0.232758,0.492511,0.44054858,-0.25539417,0.508116,0.47954914,-0.2508638,0.493146,0.45970806,-0.22998817,0.491412,0.4472052,-0.21843957,0.490708,0.43780934,-0.20584909,0.490067,0.49927558,-0.25542203,0.487255,0.47126923,-0.23322463,0.483564,0.45692401,-0.22349849,0.481868,0.44393307,-0.2146672,0.480448
0.45686562,-0.33958767,0.489294,0.46205067,-0.30007074,0.492569,0.44163059,-0.32900162,0.495322,0.4401362,-0.29523631,0.494072,0.43452501,-0.26377953,0.495788,0.44207832,-0.24206697,0.502691,0.44998815,-0.25822729,0.502822,0.43331942,-0.25116313,0.502226,0.44171989,-0.25753825,0.522818,0.45244607,-0.27630994,0.531279,0.46700193,-0.25236392,0.496863,0.44388075,-0.2400452,0.493601,0.4290033,-0.23212027,0.491698,0.44036,-0.25459692,0.507177,0.47945395,-0.2503754,0.491735,0.46515556,-0.22034493,0.490247,0.44732691,-0.2175576,0.489486,0.43796683,-0.2202151,0.488795,0.49858704,-0.25321183,0.485121,0.47092462,-0.23158734,0.481608,0.45600273,-0.22273227,0.479993,0.4437492,-0.21460938,0.478907
0.45775099,-0.33986546,0.489271,0.46320622,-0.30040611,0.492375,0.44262457,-0.32945501,0.495268,0.44023267,-0.29519719,0.493951,0.43479648,-0.26399694,0.496002,0.44238313,-0.24247856,0.502988,0.44991412,-0.2581195,0.502435,0.4331688,-0.25084565,0.501703,0.44159962,-0.2571326,0.522286,0.4523762,-0.27587026,0.530798,0.46690973,-0.25222465,0.496446,0.44368051,-0.23969256,0.493006,0.42875144,-0.23163854,0.491,0.44008621,-0.25402604,0.506429,0.47972197,-0.2501521,0.491304,0.46415839,-0.22059252,0.489656,0.4474529,-0.21705575,0.488813,0.43729661,-0.2198781,0.488047,0.49851268,-0.25287568,0.484699,0.47051247,-0.23129892,0.481043,0.45591931,-0.22250212,0.479363,0.44371587,-0.21461194,0.478065
0.45804485,-0.3398112,0.488588,0.46376974,-0.30051447,0.491544,0.44324708,-0.32973882,0.494787,0.44017485,-0.29530669,0.493739,0.43448421,-0.26405429,0.49561,0.44356089,-0.24361286,0.503571,0.44939362,-0.25789758,0.501711,0.43274263,-0.25065187,0.501046,0.44114481,-0.25690941,0.521567,0.45189933,-0.27561766,0.530028,0.46610443,-0.25184086,0.495418,0.44285591,-0.23928711,0.491894,0.4279198,-0.23122195,0.489838,0.43922098,-0.25356484,0.505192,0.47981528,-0.24930668,0.490037,0.46252952,-0.22062585,0.488411,0.44757648,-0.21558249,0.487578,0.43554867,-0.21205316,0.488308,0.49720476,-0.25207088,0.483165,0.46850105,-0.23104316,0.479513,0.45478328,-0.22203189,0.477835,0.44259204,-0.21432384,0.476354
0.45911226,-0.34024012,0.488605,0.46377138,-0.30056406,0.491395,0.44437032,-0.33025602,0.494739,0.4401243,-0.29537887,0.493577,0.43442883,-0.26420606,0.49552,0.44340709,-0.24382223,0.503467,0.44914469,-0.25780955,0.501331,0.43237717,-0.25047805,0.500506,0.44079676,-0.25673647,0.521026,0.45161921,-0.27547416,0.529549,0.46587467,-0.25175334,0.495051,0.4424858,-0.23911573,0.491343,0.42747675,-0.23100592,0.489181,0.43876061,-0.25332638,0.50449,0.47965213,-0.24921337,0.489692,0.46162777,-0.22055132,0.487885,0.44726328,-0.21503253,0.48696,0.43456915,-0.21156172,0.486855,0.49711007,-0.25191298,0.482869,0.4682169,-0.23088736,0.479059,0.45450871,-0.22195802,0.477308,0.44237544,-0.21440168,0.475763
0.46031019,-0.3406388,0.488578,0.46374799,-0.3005853,0.491257,0.44565133,-0.330771,0.494677,0.44008337,-0.29543107,0.493452,0.43430338,-0.26427406,0.495356,0.44304135,-0.24446156,0.503258,0.44896336,-0.25774662,0.501052,0.4321272,-0.25036168,0.500129,0.44055668,-0.25661895,0.520645,0.45142302,-0.275375,0.529206,0.46569693,-0.2516848,0.49477,0.44222105,-0.23899411,0.490944,0.42716601,-0.23085553,0.488713,0.43844003,-0.25316178,0.503992,0.47951864,-0.24913741,0.489417,0.46117783,-0.22057343,0.487496,0.44705114,-0.21462052,0.486514,0.43380489,-0.21117875,0.485733,0.49701758,-0.2517782,0.482616,0.46799159,-0.23076449,0.478706,0.45430016,-0.22190135,0.47691,0.44221802,-0.21446264,0.475325
0.46160752,-0.34090568,0.488787,0.4639265,-0.30072939,0.491358,0.44680609,-0.33115509,0.494745,0.44000984,-0.29544376,0.493308,0.43407079,-0.264248,0.495074,0.44257641,-0.24481379,0.502755,0.44886621,-0.25772289,0.500884,0.43188286,-0.25024225,0.499778,0.44034309,-0.25651192,0.520317,0.45128731,-0.27530819,0.528959,0.46572584,-0.25172183,0.494729,0.44212349,-0.2389581,0.490754,0.42700032,-0.23077967,0.488436,0.43827361,-0.25308166,0.5037,0.48003231,-0.24924513,0.489487,0.46149835,-0.220412,0.487381,0.44701519,-0.21435542,0.486303,0.43386368,-0.21119889,0.485592,0.49760516,-0.25166581,0.482835,0.46814539,-0.23083117,0.478768,0.45442344,-0.22199674,0.4769,0.44234388,-0.21463056,0.475251
0.46317943,-0.34137427,0.489285,0.46420465,-0.30093241,0.491582,0.44829892,-0.33176233,0.49515,0.44026793,-0.29566676,0.493548,0.43482038,-0.26508645,0.495673,0.44312086,-0.245718,0.503671,0.44878438,-0.25770156,0.500745,0.43159301,-0.25009199,0.499388,0.44005834,-0.25635995,0.51992,0.45109051,-0.27520092,0.528658,0.46565095,-0.25169847,0.494592,0.44179231,-0.23879245,0.490321,0.42653085,-0.23053685,0.487829,0.43774938,-0.25279169,0.503017,0.47998291,-0.24923007,0.489371,0.46111422,-0.22025334,0.486979,0.4462875,-0.21413615,0.485754,0.43316159,-0.21085036,0.484641,0.4979942,-0.2514514,0.482783,0.46792273,-0.23071405,0.478464,0.45412951,-0.2218813,0.47648,0.44201387,-0.21455597,0.474729
0.46287192,-0.34125031,0.488735,0.46391112,-0.30084389,0.491076,0.4479579,-0.3316429,0.494588,0.43988884,-0.29556602,0.492975,0.43441882,-0.26505158,0.49523,0.4425233,-0.24557763,0.502998,0.44847255,-0.25765948,0.500267,0.43135157,-0.25001861,0.498929,0.43985869,-0.25627216,0.519468,0.45091408,-0.27509935,0.528202,0.46538064,-0.25166309,0.494146,0.44162021,-0.23874873,0.489915,0.42641695,-0.23048467,0.487447,0.43768323,-0.25274495,0.502651,0.47974768,-0.24919748,0.488949,0.46073764,-0.22009203,0.486584,0.44647902,-0.21369134,0.485374,0.43328922,-0.2114375,0.484274,0.49779952,-0.2514155,0.482382,0.46779051,-0.23064371,0.47809,0.45412606,-0.22196277,0.476118,0.44218824,-0.21487913,0.474377
0.46254354,-0.34097682,0.488163,0.46361653,-0.30060991,0.490549,0.44762694,-0.33138367,0.494021,0.43952984,-0.29534073,0.492421,0.43405468,-0.26490727,0.494837,0.44194319,-0.24531362,0.502355,0.44820871,-0.25748258,0.499787,0.43113456,-0.24981539,0.498481,0.43966167,-0.25604652,0.519024,0.45071715,-0.27485179,0.527746,0.46513036,-0.25148292,0.493677,0.44143536,-0.23856265,0.489492,0.42626799,-0.23029103,0.48705,0.43756359,-0.25254984,0.502268,0.47950818,-0.24901201,0.488487,0.46033603,-0.21991464,0.486162,0.44662675,-0.21310207,0.484972,0.43335871,-0.21188237,0.48389,0.49756974,-0.25121751,0.481922,0.46760389,-0.23041587,0.477665,0.45405973,-0.22188914,0.475709,0.44229392,-0.21505043,0.473983
