sluyters/QuantumLeap/src/datasets/gesture/HandGestureDataset_SHREC2017_csv/Gesture4/finger_2/subject_25_essai_3_skeletons_world.csv
Wrist_x,Wrist_y,Wrist_z,Palm_x,Palm_y,Palm_z,thumb_base_x,thumb_base_y,thumb_base_z,thumb_first_joint_x,thumb_first_joint_y,thumb_first_joint_z,thumb_second_joint_x,thumb_second_joint_y,thumb_second_joint_z,thumb_tip_x,thumb_tip_y,thumb_tip_z,index_base_x,index_base_y,index_base_z,index_first_joint_x,index_first_joint_y,index_first_joint_z,index_second_joint_x,index_second_joint_y,index_second_joint_z,index_tip_x,index_tip_y,index_tip_z,middle_base_x,middle_base_y,middle_base_z,middle_first_joint_x,middle_first_joint_y,middle_first_joint_z,middle_second_joint_x,middle_second_joint_y,middle_second_joint_z,middle_tip_x,middle_tip_y,middle_tip_z,ring_base_x,ring_base_y,ring_base_z,ring_first_joint_x,ring_first_joint_y,ring_first_joint_z,ring_second_joint_x,ring_second_joint_y,ring_second_joint_z,ring_tip_x,ring_tip_y,ring_tip_z,pinky_base_x,pinky_base_y,pinky_base_z,pinky_first_joint_x,pinky_first_joint_y,pinky_first_joint_z,pinky_second_joint_x,pinky_second_joint_y,pinky_second_joint_z,pinky_tip_x,pinky_tip_y,pinky_tip_z,
0.389618094,-0.341186628,0.515844,0.385192635,-0.294827896,0.504845,0.369563225,-0.330504306,0.514727,0.346543703,-0.31327204,0.501867,0.314069372,-0.283293754,0.476824,0.298451117,-0.261282471,0.465512,0.355033508,-0.256997317,0.496452,0.344706278,-0.216140419,0.484219,0.336514748,-0.199540987,0.478103,0.329861976,-0.187628548,0.472543,0.379175068,-0.253458046,0.494953,0.365367151,-0.210861468,0.477807,0.358522077,-0.184476007,0.467805,0.352506239,-0.166568612,0.460661,0.399484301,-0.256741584,0.494853,0.38607123,-0.212993532,0.478463,0.379137325,-0.196422729,0.470077,0.372901122,-0.18182001,0.462454,0.42439128,-0.271730509,0.496721,0.412370104,-0.244958306,0.481429,0.407130821,-0.229429844,0.474402,0.401497601,-0.220591059,0.468203
0.388674233,-0.340930105,0.513915,0.383684083,-0.29359146,0.50407,0.368970246,-0.33062618,0.51327,0.342440589,-0.310559715,0.501263,0.311667836,-0.284201517,0.475866,0.293092448,-0.260429704,0.465469,0.355339916,-0.255993297,0.497019,0.342813392,-0.213105543,0.483783,0.335069044,-0.197910952,0.477165,0.325362811,-0.18173971,0.471149,0.379160275,-0.251615233,0.495216,0.366829733,-0.206853859,0.479173,0.3594338,-0.182887689,0.469815,0.354383461,-0.167944136,0.463131,0.399337075,-0.256935193,0.494746,0.386833055,-0.21365531,0.479422,0.380286388,-0.196964915,0.471581,0.373923075,-0.181334535,0.464453,0.423768985,-0.271513167,0.495977,0.415431548,-0.242202772,0.481647,0.407143646,-0.226887561,0.475063,0.402453345,-0.213502605,0.469253
0.391335912,-0.342610396,0.515811,0.384501007,-0.294252209,0.504371,0.370357904,-0.33159407,0.513668,0.347367042,-0.313038771,0.49946,0.311684676,-0.284211163,0.473976,0.295064725,-0.26291918,0.462394,0.353451454,-0.252794586,0.494368,0.341993313,-0.212335653,0.483561,0.335528921,-0.198232527,0.478158,0.327809676,-0.183851646,0.473246,0.378317467,-0.251561814,0.494082,0.367694471,-0.206478814,0.480364,0.361508335,-0.184554815,0.472362,0.356104467,-0.166893638,0.466646,0.399650801,-0.257314756,0.495027,0.385509597,-0.213004436,0.477956,0.377919806,-0.19524194,0.469222,0.371264754,-0.179473533,0.461283,0.4259243,-0.27260919,0.498188,0.415125085,-0.242213797,0.482194,0.407596381,-0.227693407,0.474845,0.402431832,-0.215231078,0.468361
0.390232633,-0.341471375,0.512704,0.384741995,-0.295025364,0.50364,0.370175734,-0.331696468,0.511938,0.343514367,-0.313724143,0.499972,0.308448045,-0.287416293,0.474229,0.292581717,-0.266128126,0.462084,0.3544123,-0.256584381,0.496926,0.342821901,-0.215989627,0.485099,0.336058172,-0.19873655,0.479186,0.328770139,-0.184481283,0.47381,0.378692515,-0.254716337,0.495489,0.366090117,-0.209818801,0.480102,0.359142804,-0.182638226,0.471127,0.353792775,-0.166678746,0.464715,0.39962935,-0.257760466,0.495241,0.387317505,-0.214145568,0.480404,0.380720221,-0.19595895,0.472814,0.374875425,-0.177686158,0.465913,0.424618628,-0.271652723,0.496588,0.417477598,-0.239247395,0.482887,0.410850477,-0.224004628,0.476592,0.406270781,-0.211916539,0.471037
0.38980576,-0.340880022,0.51055,0.384270106,-0.294636255,0.502655,0.370535147,-0.332062665,0.51092,0.344008614,-0.314812179,0.500644,0.307982599,-0.290754916,0.47457,0.291242543,-0.26842017,0.460595,0.355702145,-0.257164422,0.498154,0.343050329,-0.216514262,0.485766,0.335862878,-0.198396868,0.479572,0.328829579,-0.182780799,0.473941,0.379285574,-0.253575558,0.495555,0.367912799,-0.20749541,0.481327,0.361115395,-0.185383264,0.473027,0.355179072,-0.167719048,0.467099,0.398945322,-0.257496035,0.494229,0.387499325,-0.214133087,0.480511,0.38130148,-0.195289347,0.473493,0.375798486,-0.177495383,0.467113,0.422828494,-0.270248018,0.494112,0.418423103,-0.235977963,0.48177,0.413893695,-0.221069882,0.476099,0.411086265,-0.208065705,0.471095
0.389440966,-0.340696048,0.508997,0.383971911,-0.294661118,0.501776,0.370493612,-0.332279754,0.509858,0.343834431,-0.315035448,0.500362,0.307772818,-0.290804768,0.474414,0.290280104,-0.268734802,0.459804,0.356109958,-0.257223954,0.498339,0.343465534,-0.217031109,0.486584,0.336533626,-0.199044619,0.480707,0.329433496,-0.183025437,0.475365,0.379053403,-0.253861968,0.495283,0.368089762,-0.208191806,0.481693,0.361528719,-0.185456217,0.473766,0.355752229,-0.167757552,0.468104,0.398351283,-0.25734556,0.493511,0.387431709,-0.214200019,0.480395,0.381565587,-0.194910567,0.473685,0.376147955,-0.17721228,0.467585,0.421826401,-0.269542943,0.492755,0.417610639,-0.235228087,0.48102,0.414116914,-0.220615195,0.475628,0.411487207,-0.207780738,0.47087
0.389780362,-0.340438493,0.508692,0.383678687,-0.294238308,0.50115,0.370251839,-0.331700279,0.508851,0.343711964,-0.313838974,0.4984,0.306379815,-0.289719663,0.472021,0.286945652,-0.269450459,0.456655,0.354832886,-0.252849952,0.496598,0.344752851,-0.212970144,0.489518,0.335062973,-0.192016312,0.485978,0.329094842,-0.175341512,0.48276,0.378586936,-0.252726532,0.494367,0.366977997,-0.20726019,0.480516,0.358754892,-0.182396294,0.472437,0.353387347,-0.164642947,0.466665,0.398190249,-0.256512959,0.493309,0.386499473,-0.212687627,0.47995,0.380569182,-0.190630335,0.473115,0.37461635,-0.172940266,0.466901,0.422706488,-0.26823593,0.493439,0.415101703,-0.236940828,0.481155,0.411346764,-0.222671878,0.475511,0.407244376,-0.210777714,0.470531
0.391725668,-0.341230263,0.510788,0.382108971,-0.290211292,0.500342,0.369667583,-0.330434478,0.507674,0.354046048,-0.312740344,0.492552,0.318056325,-0.284603738,0.464722,0.301352134,-0.264475977,0.450326,0.348372783,-0.245275029,0.489706,0.337699279,-0.207334774,0.483721,0.332262468,-0.188307702,0.480728,0.327078436,-0.171943421,0.478008,0.374499124,-0.245808577,0.490948,0.365235049,-0.2015142,0.480034,0.360654506,-0.173627598,0.473667,0.355856166,-0.157831034,0.469119,0.397118595,-0.251013946,0.493049,0.382247419,-0.206641333,0.47648,0.374690373,-0.184555404,0.468003,0.367852059,-0.164665614,0.460296,0.425238671,-0.265489753,0.497375,0.416052747,-0.235213968,0.481664,0.408381777,-0.222859398,0.474445,0.404909576,-0.20958052,0.468076
0.39220985,-0.340445712,0.511125,0.381659468,-0.286242302,0.500164,0.370112812,-0.329791313,0.508046,0.354222362,-0.312776879,0.492839,0.318098036,-0.284748268,0.465089,0.301486688,-0.264859466,0.450637,0.347202705,-0.244230907,0.489248,0.335947129,-0.206237494,0.482239,0.330217215,-0.187168739,0.478735,0.324731848,-0.170863261,0.475549,0.373130293,-0.244562103,0.490306,0.36399001,-0.1983285,0.479196,0.358546427,-0.175389341,0.472716,0.354574477,-0.162973475,0.468087,0.395674615,-0.249622393,0.492308,0.380604363,-0.20551726,0.475339,0.372913265,-0.18371601,0.466657,0.367412086,-0.167647245,0.458764,0.423222718,-0.262716922,0.496612,0.410666654,-0.23167781,0.480561,0.4028776,-0.215108794,0.473186,0.400786378,-0.206042429,0.466679
0.39269487,-0.339607536,0.511497,0.381065773,-0.285398931,0.49986,0.370399756,-0.328949191,0.50824,0.354128558,-0.312638282,0.492659,0.317917001,-0.28465711,0.464957,0.30186652,-0.265320728,0.451813,0.345383771,-0.242003015,0.488286,0.3344437,-0.205085473,0.480675,0.328476173,-0.185161572,0.47687,0.322888773,-0.169759782,0.473411,0.371285939,-0.242317265,0.489394,0.363127698,-0.197479936,0.477924,0.358057804,-0.172808022,0.471233,0.35391703,-0.156605774,0.466453,0.393930873,-0.247395159,0.491507,0.379596029,-0.204185291,0.473945,0.371919373,-0.182528943,0.46496,0.365959333,-0.166196654,0.456792,0.422439946,-0.261850821,0.496062,0.408911542,-0.231149339,0.479508,0.401126774,-0.215843275,0.471903,0.398633063,-0.206127087,0.465192
0.393002966,-0.3385294,0.512277,0.381290323,-0.285401974,0.500529,0.370444211,-0.327797715,0.5087,0.354011913,-0.312792793,0.492719,0.318609087,-0.28558016,0.464948,0.304376091,-0.268905765,0.446436,0.345531521,-0.241879547,0.48847,0.334209571,-0.204758222,0.48079,0.328202657,-0.185672956,0.47695,0.322503802,-0.169527151,0.473459,0.371763689,-0.242425469,0.489963,0.362753499,-0.197421674,0.477887,0.357200165,-0.173628389,0.470842,0.353118703,-0.156092875,0.46581,0.395145752,-0.248613706,0.492405,0.380262983,-0.204587588,0.474805,0.372651026,-0.182960819,0.4658,0.366581923,-0.16619757,0.457614,0.423864924,-0.263300434,0.497361,0.400006631,-0.233830617,0.480617,0.389374597,-0.220629932,0.472924,0.379924981,-0.208829369,0.466136
0.399051149,-0.342614076,0.520442,0.383363686,-0.287260281,0.503795,0.374491574,-0.330474944,0.514552,0.365561336,-0.304861144,0.500085,0.332214817,-0.271534887,0.475434,0.317483951,-0.250909483,0.467883,0.343790097,-0.241425621,0.485641,0.324332639,-0.203471456,0.46495,0.315199248,-0.184283876,0.454604,0.30807129,-0.176779554,0.445199,0.371169792,-0.242820013,0.488825,0.351281803,-0.201016693,0.465985,0.340621384,-0.177955291,0.452662,0.333185682,-0.162561746,0.443146,0.39547404,-0.249045433,0.493163,0.377128977,-0.202863006,0.470957,0.369585815,-0.191650407,0.459596,0.363455599,-0.200086453,0.449268,0.42673435,-0.265368569,0.501208,0.399813759,-0.235445785,0.480536,0.388041243,-0.2219736,0.471038,0.377609441,-0.209986084,0.462657
0.401684591,-0.343728394,0.523878,0.383540973,-0.286763471,0.502978,0.375277978,-0.33008711,0.515572,0.376498134,-0.305493289,0.502406,0.342601886,-0.273370831,0.478003,0.322355617,-0.252255911,0.469447,0.342076906,-0.239811081,0.479001,0.333319269,-0.204491806,0.456296,0.327641317,-0.186738013,0.444943,0.322506782,-0.170469844,0.434623,0.370762155,-0.242118207,0.484182,0.355340511,-0.205261628,0.457549,0.344702957,-0.183739617,0.442012,0.337124847,-0.168168546,0.430915,0.39657495,-0.249253987,0.490604,0.370953865,-0.208399629,0.463902,0.356357414,-0.187939345,0.45024,0.348524841,-0.186266028,0.43782,0.430333561,-0.266979841,0.501838,0.407572223,-0.231894212,0.47778,0.391951374,-0.219931519,0.466727,0.377310658,-0.209384533,0.456973
0.41002596,-0.349435903,0.534585,0.38980285,-0.291139455,0.510466,0.382658054,-0.335131055,0.525439,0.373500252,-0.309701254,0.509706,0.34429067,-0.277374169,0.486691,0.329713792,-0.256869469,0.479827,0.343030832,-0.240842872,0.483367,0.322414522,-0.212321512,0.456813,0.313052278,-0.213366947,0.443536,0.306951615,-0.223318301,0.431466,0.371659128,-0.242916373,0.488775,0.3504939,-0.221270849,0.459323,0.336290283,-0.208056312,0.442142,0.328672991,-0.214835906,0.429871,0.39872999,-0.250402641,0.495717,0.373284849,-0.202143285,0.466721,0.359733482,-0.198020827,0.451886,0.35239324,-0.206992799,0.438399,0.434661357,-0.269106573,0.508135,0.408489975,-0.235616751,0.481917,0.39466062,-0.222934676,0.469871,0.380501627,-0.211050403,0.459242
0.411830046,-0.349593322,0.536719,0.391340244,-0.292080514,0.511976,0.384521457,-0.335538624,0.527776,0.373255534,-0.310186417,0.511662,0.341027667,-0.278476899,0.489949,0.326997396,-0.255966488,0.480519,0.344078023,-0.241436378,0.484747,0.322122745,-0.212779875,0.457502,0.312299696,-0.213670234,0.44388,0.306012074,-0.223434396,0.431496,0.372686263,-0.243486417,0.489724,0.349902341,-0.221570271,0.459782,0.335126607,-0.208247458,0.442316,0.327222821,-0.21492,0.429841,0.399443469,-0.250731887,0.496373,0.372465495,-0.203454338,0.466925,0.358679931,-0.198072839,0.451859,0.351084743,-0.206934599,0.438162,0.434424327,-0.268997964,0.508565,0.405971642,-0.237695568,0.482044,0.394179335,-0.223973256,0.469858,0.380751939,-0.21231445,0.459106
0.411623221,-0.349406465,0.53778,0.399494562,-0.299644379,0.52477,0.384365141,-0.335346221,0.528838,0.364797899,-0.302557616,0.512077,0.355091079,-0.272484304,0.498818,0.347557672,-0.24919024,0.491437,0.359614176,-0.2527497,0.504945,0.341676397,-0.225460123,0.484579,0.338564284,-0.218894198,0.474396,0.338384735,-0.227486171,0.465139,0.387231155,-0.257215228,0.513069,0.381274403,-0.243051993,0.493118,0.378206496,-0.234804178,0.48148,0.376532193,-0.235905359,0.473167,0.413947294,-0.266179269,0.521101,0.409323654,-0.260415457,0.499907,0.405264293,-0.274858857,0.489063,0.409528807,-0.288002815,0.497108,0.447387074,-0.285686589,0.532783,0.434341883,-0.273386866,0.513554,0.428417307,-0.267691214,0.504719,0.428499472,-0.274672499,0.496923
0.410538817,-0.349565406,0.537473,0.396915082,-0.299004716,0.523317,0.383496174,-0.335474771,0.52869,0.364211213,-0.303638979,0.511631,0.353856623,-0.27342086,0.498614,0.346097769,-0.250113272,0.491345,0.35728491,-0.25165718,0.502977,0.340345831,-0.224881831,0.481963,0.336763808,-0.21887434,0.471455,0.335995046,-0.227413925,0.461903,0.388664454,-0.255959276,0.510587,0.378971044,-0.24306775,0.489631,0.375092993,-0.234773234,0.477407,0.372716345,-0.235811505,0.468675,0.412673692,-0.266454254,0.518313,0.406050217,-0.257298197,0.496321,0.401783427,-0.271558539,0.48507,0.406406002,-0.285745813,0.492837,0.445818695,-0.286230814,0.529846,0.431701906,-0.273771305,0.509905,0.42527273,-0.268010675,0.500743,0.424779957,-0.274914782,0.492658
0.413466053,-0.352333454,0.541744,0.393542981,-0.295649627,0.519673,0.382825239,-0.335193445,0.528224,0.362555031,-0.300862001,0.509952,0.340713538,-0.265520441,0.482079,0.330873865,-0.240937052,0.4688,0.343621869,-0.24212247,0.488184,0.325846646,-0.214352418,0.460482,0.322032433,-0.209055752,0.446631,0.317611696,-0.214357352,0.434039,0.373837216,-0.245888567,0.499824,0.365037336,-0.220296707,0.472014,0.357866511,-0.224906515,0.455791,0.358076593,-0.244959007,0.458845,0.402880666,-0.25593117,0.511685,0.393907232,-0.247088933,0.482173,0.386260829,-0.258218427,0.467074,0.386508176,-0.272073941,0.469604,0.441203296,-0.277399333,0.529452,0.418192947,-0.265145603,0.503544,0.407603104,-0.259531387,0.49164,0.390149003,-0.263688154,0.481137
0.413690107,-0.352902473,0.542506,0.393045001,-0.295542501,0.519961,0.382973602,-0.335686886,0.528889,0.362913354,-0.301159352,0.510456,0.341103669,-0.265824473,0.482631,0.330979027,-0.241013629,0.468949,0.342466209,-0.241429921,0.488048,0.326120339,-0.213901379,0.460238,0.322721589,-0.209059911,0.446333,0.318300741,-0.214517093,0.433692,0.373734001,-0.245820678,0.499686,0.364626682,-0.22004888,0.471483,0.357149481,-0.224909355,0.455031,0.357301669,-0.244428884,0.457852,0.402809017,-0.255885654,0.511594,0.393455352,-0.246309183,0.481716,0.385578913,-0.257118549,0.46643,0.385401575,-0.271455691,0.468712,0.441244129,-0.277425006,0.529501,0.41798283,-0.265012383,0.503291,0.40727811,-0.259324455,0.491248,0.389731395,-0.263405908,0.480622
0.413044819,-0.352813928,0.542082,0.391757059,-0.295093503,0.51933,0.382160927,-0.335479856,0.528214,0.362199082,-0.300871278,0.509813,0.341307025,-0.265839896,0.481939,0.331091504,-0.240948155,0.468132,0.340143628,-0.239792441,0.48696,0.325652877,-0.213584261,0.459363,0.323679225,-0.210062622,0.445565,0.31903709,-0.21596508,0.433021,0.372576657,-0.245485442,0.498869,0.363274899,-0.220925096,0.47051,0.355725903,-0.226560112,0.453967,0.355863381,-0.245319142,0.456573,0.401849975,-0.255555073,0.511022,0.392413492,-0.245426597,0.480924,0.384208673,-0.254824511,0.465525,0.383824838,-0.270511009,0.467554,0.440627698,-0.277113306,0.52925,0.417232646,-0.264507222,0.502884,0.406466163,-0.258728595,0.490769,0.388945083,-0.262818014,0.48008
0.412534543,-0.352679651,0.54157,0.390583857,-0.294539488,0.51859,0.381488424,-0.335212641,0.527477,0.361761011,-0.300629541,0.509152,0.341426212,-0.265921284,0.481263,0.330984966,-0.241008492,0.467463,0.340504804,-0.240183502,0.485784,0.325199239,-0.213182188,0.458276,0.323171423,-0.210319603,0.444522,0.319875377,-0.216831072,0.432019,0.371965904,-0.244953845,0.497924,0.361685836,-0.222206496,0.469393,0.354018659,-0.230167634,0.45275,0.354805067,-0.245675546,0.455143,0.401393908,-0.255126379,0.510291,0.3919159,-0.245726171,0.479969,0.383663599,-0.255339123,0.464456,0.382673001,-0.269812397,0.466237,0.440395709,-0.276836808,0.528809,0.416869789,-0.264296787,0.50228,0.406044364,-0.258550412,0.490091,0.388455706,-0.26261646,0.479336
0.411966868,-0.352222847,0.540753,0.389752687,-0.293816334,0.518001,0.380928735,-0.334764421,0.526678,0.361225013,-0.300257405,0.508371,0.341214216,-0.265749323,0.480458,0.330647938,-0.240845775,0.466676,0.339702776,-0.239540342,0.485362,0.325240271,-0.213127758,0.457986,0.323158834,-0.210663853,0.444298,0.319885308,-0.217300598,0.431855,0.371735385,-0.244724445,0.497539,0.361741996,-0.222383168,0.469197,0.354194329,-0.230352894,0.452665,0.354849788,-0.246359576,0.455157,0.401167907,-0.254899455,0.509913,0.39174956,-0.24545171,0.479758,0.383581394,-0.255209288,0.46433,0.382606108,-0.269840848,0.466213,0.440135428,-0.276594764,0.528399,0.416728799,-0.264219164,0.50201,0.405958495,-0.258550003,0.489886,0.388403897,-0.262659047,0.479188
0.41010334,-0.351601923,0.539369,0.389046634,-0.293172251,0.517071,0.379046726,-0.334005357,0.525222,0.360217231,-0.299468491,0.506935,0.34040578,-0.265115117,0.478983,0.329884826,-0.240344942,0.465392,0.339125603,-0.239066131,0.484625,0.325040073,-0.212931544,0.457426,0.322915778,-0.210740419,0.443826,0.319682568,-0.217471362,0.431463,0.371383427,-0.244441025,0.497017,0.361788203,-0.222513063,0.469065,0.354389881,-0.230515617,0.45276,0.355051694,-0.246935965,0.455387,0.400907918,-0.254678703,0.509522,0.391683007,-0.245282306,0.479671,0.383654034,-0.255203885,0.464399,0.382730694,-0.269982842,0.466406,0.439921403,-0.276407947,0.528077,0.416741902,-0.264235333,0.501959,0.406075901,-0.258660977,0.48996,0.388597731,-0.26284192,0.479371
0.406790066,-0.349828815,0.536412,0.388320509,-0.293660808,0.516145,0.375869036,-0.332214223,0.52216,0.358210212,-0.298214702,0.50417,0.337982687,-0.263756961,0.476242,0.327616418,-0.239432065,0.463418,0.33904506,-0.239458907,0.484846,0.328538494,-0.214668078,0.458428,0.324931649,-0.212753847,0.445219,0.321407283,-0.218240115,0.43321,0.371734537,-0.245249038,0.497919,0.364739612,-0.223414579,0.47171,0.357342906,-0.23875025,0.456421,0.354991484,-0.253475141,0.459734,0.40145037,-0.255637403,0.510775,0.393823644,-0.246880322,0.482365,0.386452375,-0.257173449,0.46783,0.385848431,-0.272735317,0.470503,0.44039512,-0.277365968,0.529372,0.418868132,-0.266007073,0.504511,0.408965402,-0.260810949,0.493088,0.392020836,-0.265383044,0.483009
0.404355971,-0.348818074,0.534604,0.387460638,-0.293229241,0.515226,0.373509698,-0.331151454,0.520226,0.356663886,-0.297236931,0.502038,0.336209698,-0.262768407,0.474243,0.325791294,-0.23865127,0.461753,0.338495677,-0.23942082,0.484322,0.329004831,-0.214994529,0.458248,0.325522543,-0.212785897,0.44521,0.321840776,-0.218230567,0.433358,0.371402139,-0.245462586,0.497798,0.365459217,-0.223886233,0.47237,0.358215866,-0.239333498,0.457536,0.356031593,-0.254217811,0.461081,0.40121093,-0.255945479,0.510893,0.394378031,-0.24743384,0.483102,0.387294869,-0.257818399,0.468884,0.386694208,-0.273765556,0.471767,0.440138664,-0.277699295,0.529608,0.419528798,-0.266743958,0.5053,0.410053905,-0.261736848,0.494132,0.393405486,-0.266489582,0.484277
0.397304371,-0.342424521,0.525092,0.389651813,-0.29486265,0.518495,0.369645881,-0.327556568,0.514652,0.351899686,-0.293504002,0.495366,0.336960104,-0.263663115,0.475691,0.328176454,-0.240832532,0.465853,0.349435712,-0.247438542,0.500771,0.347848717,-0.227323703,0.483911,0.348110712,-0.227281036,0.47548,0.347704658,-0.235512683,0.467817,0.382222864,-0.252960876,0.512561,0.38578806,-0.236365302,0.498424,0.383771285,-0.256407749,0.490177,0.385511389,-0.275267318,0.499259,0.410415263,-0.262183793,0.52295,0.413054415,-0.258980169,0.506187,0.410999273,-0.273669746,0.497611,0.415008787,-0.294183389,0.506511,0.445272824,-0.281327904,0.536214,0.432611516,-0.275316114,0.521052,0.426791614,-0.272607509,0.514085,0.413310426,-0.280110744,0.508423
0.393971875,-0.338842446,0.520377,0.387772479,-0.293153941,0.516417,0.366842918,-0.324580867,0.510449,0.348025291,-0.290460391,0.489939,0.33305835,-0.260853937,0.470491,0.324207244,-0.238263256,0.460788,0.349515326,-0.247757486,0.501023,0.349811091,-0.228617083,0.486223,0.350902449,-0.228899952,0.478823,0.351105231,-0.237609654,0.472096,0.382286993,-0.253281005,0.512855,0.388057665,-0.23777615,0.501178,0.387050953,-0.258598982,0.494366,0.389352149,-0.278009742,0.504233,0.410248801,-0.262370686,0.523007,0.414873564,-0.260164058,0.508538,0.413787783,-0.275272811,0.501135,0.418104103,-0.296969292,0.510857,0.444412706,-0.281095216,0.53552,0.433671198,-0.276193834,0.522324,0.428741449,-0.274002892,0.51626,0.416174825,-0.282162682,0.51166
0.394004009,-0.339188919,0.520505,0.38761327,-0.293435231,0.516436,0.366794088,-0.324877814,0.510397,0.347796077,-0.290604041,0.489683,0.332653079,-0.260885868,0.47012,0.323514838,-0.238282277,0.46046,0.349128294,-0.247917577,0.50074,0.349717454,-0.228564067,0.48578,0.350786616,-0.228666207,0.4783,0.35101484,-0.237561721,0.4715,0.381958473,-0.253498018,0.512776,0.388090667,-0.238174073,0.501,0.386866966,-0.258476056,0.494131,0.389092701,-0.277824488,0.503897,0.409982403,-0.26264104,0.523107,0.414783453,-0.260463948,0.508489,0.413659985,-0.275351182,0.501011,0.417724225,-0.297175912,0.510607,0.444244367,-0.281436653,0.535847,0.433843581,-0.276609754,0.522542,0.429083972,-0.274457454,0.516429,0.416597873,-0.282637062,0.511766
0.394061881,-0.339557488,0.520667,0.387465336,-0.293725037,0.51647,0.366769012,-0.32519582,0.510378,0.347584598,-0.290762267,0.489452,0.332261505,-0.26092793,0.469768,0.322833294,-0.238308143,0.460146,0.348741895,-0.248078255,0.500458,0.349564005,-0.228470129,0.485324,0.350602093,-0.228419606,0.477757,0.350905906,-0.237501227,0.470879,0.381629113,-0.253714576,0.512696,0.388110407,-0.238563637,0.500805,0.38666184,-0.258339006,0.493869,0.388806999,-0.277620504,0.503527,0.4097152,-0.26291089,0.523206,0.414681189,-0.260755795,0.508425,0.413512386,-0.275416366,0.500863,0.41731885,-0.297364764,0.510326,0.444079435,-0.281780132,0.536178,0.434009313,-0.277021237,0.522752,0.429413906,-0.274903742,0.516583,0.417001932,-0.283098385,0.511849
0.394303111,-0.340060132,0.521081,0.387536819,-0.294093655,0.51668,0.366932548,-0.325603393,0.510594,0.347588055,-0.291010841,0.489419,0.331848553,-0.260994582,0.469672,0.322134298,-0.238363441,0.460093,0.348602299,-0.248230022,0.500282,0.349409119,-0.228373997,0.484915,0.350825769,-0.228266633,0.477231,0.350866328,-0.237027486,0.470246,0.38154722,-0.253962143,0.512721,0.388348391,-0.238541736,0.500645,0.386452016,-0.258198817,0.493601,0.388496588,-0.27739886,0.503125,0.409694135,-0.263251373,0.523419,0.414767261,-0.261157731,0.508408,0.413481102,-0.275588783,0.500729,0.416972631,-0.297622224,0.510033,0.444151352,-0.282249383,0.536645,0.434368774,-0.277564194,0.523041,0.42991777,-0.275485048,0.51679,0.417537479,-0.283666008,0.511959
0.394540553,-0.340559569,0.52149,0.387587517,-0.294521862,0.516971,0.367086632,-0.326037801,0.510819,0.34756547,-0.291249091,0.489436,0.331391739,-0.261002622,0.469651,0.321478277,-0.238365457,0.46011,0.348429322,-0.248522827,0.500259,0.349692506,-0.228574437,0.484727,0.351063608,-0.228143151,0.47696,0.350891101,-0.236565292,0.4699,0.381433844,-0.254330025,0.512907,0.388589981,-0.238554472,0.500727,0.386468458,-0.258209802,0.493622,0.388427865,-0.27734979,0.503036,0.409642227,-0.263685969,0.523787,0.414883949,-0.261567039,0.508623,0.413551559,-0.275763026,0.500864,0.416781233,-0.297935457,0.510033,0.444199096,-0.282771147,0.537247,0.434752233,-0.278107974,0.523531,0.430468005,-0.276041374,0.517229,0.418156882,-0.284223485,0.512323
