sluyters/QuantumLeap/backend/src/datasets/gesture/HandGestureDataset_SHREC2017_csv/Gesture4/finger_2/subject_5_essai_2_skeletons_world.csv
Wrist_x,Wrist_y,Wrist_z,Palm_x,Palm_y,Palm_z,thumb_base_x,thumb_base_y,thumb_base_z,thumb_first_joint_x,thumb_first_joint_y,thumb_first_joint_z,thumb_second_joint_x,thumb_second_joint_y,thumb_second_joint_z,thumb_tip_x,thumb_tip_y,thumb_tip_z,index_base_x,index_base_y,index_base_z,index_first_joint_x,index_first_joint_y,index_first_joint_z,index_second_joint_x,index_second_joint_y,index_second_joint_z,index_tip_x,index_tip_y,index_tip_z,middle_base_x,middle_base_y,middle_base_z,middle_first_joint_x,middle_first_joint_y,middle_first_joint_z,middle_second_joint_x,middle_second_joint_y,middle_second_joint_z,middle_tip_x,middle_tip_y,middle_tip_z,ring_base_x,ring_base_y,ring_base_z,ring_first_joint_x,ring_first_joint_y,ring_first_joint_z,ring_second_joint_x,ring_second_joint_y,ring_second_joint_z,ring_tip_x,ring_tip_y,ring_tip_z,pinky_base_x,pinky_base_y,pinky_base_z,pinky_first_joint_x,pinky_first_joint_y,pinky_first_joint_z,pinky_second_joint_x,pinky_second_joint_y,pinky_second_joint_z,pinky_tip_x,pinky_tip_y,pinky_tip_z,
0.52166924,-0.3636663,0.549866,0.52143361,-0.32189591,0.551278,0.50315735,-0.35082696,0.550265,0.47557391,-0.3235408,0.543722,0.4477596,-0.29882905,0.528417,0.44132532,-0.28410958,0.532216,0.49894794,-0.27860999,0.552719,0.48627396,-0.2395373,0.548372,0.47998354,-0.21885864,0.546198,0.4760985,-0.2039522,0.544222,0.52128032,-0.27965832,0.552736,0.51763179,-0.23902621,0.553845,0.51611666,-0.21423095,0.554491,0.51472606,-0.19909686,0.555504,0.54000631,-0.28205868,0.552665,0.54291132,-0.24760588,0.558125,0.54549854,-0.22803403,0.560919,0.54727999,-0.21372219,0.564599,0.56210159,-0.291353,0.552409,0.57345552,-0.26120546,0.556135,0.57801038,-0.24754976,0.557846,0.58244619,-0.2361804,0.559357
0.52174997,-0.36365051,0.549509,0.52122526,-0.32188422,0.550869,0.50346153,-0.35106444,0.55024,0.47497477,-0.32332905,0.542917,0.44671989,-0.29813516,0.52719,0.44002199,-0.28341081,0.530676,0.49875763,-0.27865529,0.552674,0.48573142,-0.23915808,0.547824,0.47933097,-0.21843371,0.545398,0.47518807,-0.20302265,0.543193,0.52071114,-0.27935008,0.552272,0.51697946,-0.23854414,0.553133,0.5154477,-0.21359855,0.553636,0.51393842,-0.19849075,0.5545,0.53909087,-0.28137752,0.551859,0.54237149,-0.24716773,0.557698,0.5450944,-0.22772436,0.560685,0.54695808,-0.21313666,0.564345,0.56084291,-0.29021361,0.551198,0.5724128,-0.26031547,0.555216,0.57771793,-0.24661911,0.557061,0.58214241,-0.23554285,0.55869
0.52037029,-0.36214513,0.5477,0.52027374,-0.32117474,0.549771,0.50235888,-0.34989359,0.548844,0.47437377,-0.32306674,0.54214,0.44613267,-0.29774325,0.526497,0.43938918,-0.28308791,0.529932,0.49843354,-0.27859399,0.552555,0.48576412,-0.23908446,0.547912,0.47953851,-0.21843257,0.545591,0.47555295,-0.20311473,0.543481,0.52017711,-0.27904553,0.551906,0.51669552,-0.23832331,0.552951,0.51521228,-0.21354108,0.553561,0.51326881,-0.19757471,0.553997,0.53827782,-0.28092562,0.551246,0.54194125,-0.24681802,0.557358,0.54476745,-0.22748206,0.560485,0.54640199,-0.21192076,0.563501,0.55974587,-0.28939539,0.550202,0.5715176,-0.2595967,0.554417,0.57691779,-0.2459386,0.556353,0.58164468,-0.23446119,0.558062
0.52008295,-0.36131982,0.54688,0.51979572,-0.3203743,0.54904,0.50184767,-0.34901376,0.547879,0.47326135,-0.32219605,0.541004,0.44528531,-0.29717774,0.525497,0.43672811,-0.28154319,0.526761,0.49758312,-0.2777567,0.55171,0.48503173,-0.23820551,0.547068,0.47882704,-0.21803405,0.544748,0.47504249,-0.20248909,0.542638,0.51949854,-0.27821027,0.551266,0.51665934,-0.23772483,0.552838,0.51526314,-0.21359339,0.553754,0.51387282,-0.19720907,0.554409,0.53764727,-0.28057511,0.550771,0.54148712,-0.24600689,0.556817,0.54410551,-0.22712343,0.55991,0.54595429,-0.2109184,0.562723,0.55938773,-0.28901506,0.549914,0.57107953,-0.25915496,0.554046,0.57644238,-0.24547195,0.555944,0.58142943,-0.23365771,0.55762
0.51951619,-0.36072344,0.54595,0.5180173,-0.31904568,0.546911,0.49984014,-0.34740124,0.545406,0.48155584,-0.32143615,0.540636,0.46164538,-0.30401953,0.544603,0.4568987,-0.28939024,0.548783,0.49314654,-0.27482087,0.546909,0.47952496,-0.23514341,0.540739,0.47511764,-0.21983177,0.537654,0.46935396,-0.2005597,0.53485,0.51625964,-0.27595136,0.547903,0.51529089,-0.2367406,0.551255,0.5145856,-0.21357737,0.553211,0.51413735,-0.19693779,0.554608,0.53546094,-0.27940572,0.548662,0.53962365,-0.24476584,0.554729,0.54202328,-0.22641085,0.557833,0.54391362,-0.20915607,0.560654,0.55886422,-0.28863201,0.549458,0.56824497,-0.25810241,0.551446,0.57201079,-0.24220568,0.552359,0.57598905,-0.22980924,0.553165
0.51817456,-0.35995769,0.544423,0.51735677,-0.31873296,0.546167,0.4984979,-0.34663891,0.543893,0.47844531,-0.31769295,0.535055,0.46107818,-0.3032584,0.542116,0.45679636,-0.28601338,0.541029,0.49302724,-0.27484467,0.546713,0.48171206,-0.23604712,0.543338,0.47714906,-0.21752146,0.541651,0.47288435,-0.20081719,0.540117,0.51641248,-0.27610904,0.547965,0.51349438,-0.23551422,0.549307,0.51258222,-0.21183028,0.550091,0.51269485,-0.19605175,0.552929,0.53581182,-0.2796544,0.548889,0.53787306,-0.24391066,0.552999,0.53874601,-0.22464541,0.555102,0.54036432,-0.20720168,0.557014,0.55937359,-0.28895456,0.549789,0.56363314,-0.25580878,0.54737,0.56562855,-0.23967446,0.546258,0.56765968,-0.22868491,0.545277
0.52105162,-0.36212854,0.547586,0.51647834,-0.31829407,0.545268,0.49984866,-0.34773528,0.54548,0.47863008,-0.31749807,0.53415,0.46414821,-0.3050773,0.543499,0.46000353,-0.28739587,0.543654,0.48817175,-0.2721264,0.541156,0.47679572,-0.23378599,0.537456,0.47282385,-0.21371571,0.535605,0.46907463,-0.20025681,0.533924,0.51179413,-0.27364772,0.542878,0.50703936,-0.23341693,0.542102,0.50449157,-0.20822125,0.54165,0.50319155,-0.19237229,0.543227,0.53163766,-0.27751066,0.544434,0.52286824,-0.23532811,0.535334,0.51757924,-0.21345785,0.530677,0.51550066,-0.19653361,0.526444,0.5562475,-0.28742576,0.546585,0.55577169,-0.25223243,0.539277,0.55835958,-0.23802059,0.53592,0.56019019,-0.23480053,0.532957
0.5421729,-0.37532133,0.569373,0.52581549,-0.32139536,0.553389,0.50831152,-0.35270527,0.554079,0.50037963,-0.33598277,0.526719,0.47918459,-0.32236972,0.518317,0.47739862,-0.31293275,0.508514,0.4798668,-0.26793079,0.524105,0.47206346,-0.23161183,0.522813,0.46805824,-0.21289489,0.522167,0.46142051,-0.19673992,0.52158,0.50811739,-0.27123461,0.536909,0.49468297,-0.22770164,0.523628,0.48545158,-0.20224831,0.51588,0.47996043,-0.18480191,0.510346,0.53715723,-0.28006742,0.548409,0.51093022,-0.23091473,0.524646,0.50125517,-0.21621182,0.512489,0.49892164,-0.21837638,0.501436,0.57627676,-0.29159553,0.56416,0.55941723,-0.25319476,0.542955,0.55471519,-0.23684224,0.533212,0.55153091,-0.23059662,0.524616
0.54457094,-0.37724818,0.57232,0.52375102,-0.32350125,0.552935,0.51099103,-0.3550532,0.557071,0.50027348,-0.33028589,0.529305,0.47838346,-0.31002248,0.52049,0.45820013,-0.28981828,0.509859,0.47689746,-0.26879745,0.521394,0.45959065,-0.23388594,0.51036,0.45203082,-0.21564022,0.504843,0.44510492,-0.1987278,0.499828,0.50666854,-0.27637147,0.532948,0.48884267,-0.22715391,0.517367,0.48867589,-0.21323266,0.508278,0.49153645,-0.21303675,0.501786,0.53215419,-0.28164748,0.543625,0.52566719,-0.2916651,0.516598,0.53355713,-0.31408492,0.52971,0.54494139,-0.33711668,0.545862,0.56748303,-0.29675924,0.558798,0.54983316,-0.26265973,0.535142,0.54220877,-0.24613081,0.524273,0.53922341,-0.22799809,0.514683
0.5432934,-0.37919417,0.57157,0.52210738,-0.3370742,0.55248,0.51024423,-0.35721877,0.556754,0.50167138,-0.33901316,0.529421,0.48050806,-0.32240967,0.521268,0.45917251,-0.30045535,0.510941,0.47665232,-0.28101486,0.521662,0.45929347,-0.24369495,0.51003,0.45146672,-0.22544048,0.504213,0.44430168,-0.20854211,0.498926,0.50652594,-0.28619866,0.532798,0.48858122,-0.23895944,0.517012,0.48822017,-0.2230712,0.507804,0.49098887,-0.22302973,0.501227,0.53229073,-0.29343706,0.543113,0.52548504,-0.30161207,0.516419,0.53375355,-0.32427049,0.529905,0.54515104,-0.34740803,0.546072,0.56543655,-0.30818687,0.557817,0.54906463,-0.27238728,0.534394,0.54292134,-0.25657793,0.524962,0.53751871,-0.2425743,0.51664
0.55536967,-0.40474414,0.587583,0.53387424,-0.35626092,0.565023,0.52293277,-0.38388845,0.570297,0.51449797,-0.35864561,0.551994,0.48705781,-0.32621427,0.52848,0.46965265,-0.3038275,0.518636,0.47871533,-0.29682376,0.528872,0.4696417,-0.25778163,0.525066,0.47863641,-0.25431387,0.523163,0.48738714,-0.2510255,0.521433,0.5086348,-0.30126576,0.541763,0.48951982,-0.25751135,0.532539,0.49561977,-0.24602268,0.527158,0.50315563,-0.25301569,0.523315,0.53497469,-0.30806907,0.553732,0.53259729,-0.30087216,0.524032,0.53904014,-0.32683309,0.534935,0.5502246,-0.35150424,0.551283,0.57000326,-0.32267679,0.570842,0.55501344,-0.30046687,0.545126,0.54821692,-0.29019777,0.533311,0.54227169,-0.28109841,0.522885
0.55047471,-0.38967129,0.58085,0.52730889,-0.34215097,0.560896,0.51744686,-0.36499137,0.565921,0.50686214,-0.3384689,0.554508,0.48824803,-0.30165903,0.536205,0.47633395,-0.27918607,0.529027,0.47557494,-0.27890158,0.529353,0.467698,-0.24437309,0.515819,0.47216997,-0.25270609,0.509052,0.48445225,-0.27439273,0.519223,0.5050368,-0.28733668,0.540322,0.49714314,-0.24591365,0.518439,0.49676037,-0.24791923,0.505674,0.49673648,-0.24952141,0.496556,0.53076396,-0.29744692,0.550552,0.52513201,-0.28899983,0.523236,0.53987898,-0.31734073,0.536554,0.5531435,-0.3459693,0.552905,0.56452945,-0.31782655,0.565258,0.55181914,-0.30100957,0.541299,0.54711225,-0.29798203,0.530291,0.54242011,-0.29295724,0.520578
0.53592636,-0.37903252,0.567123,0.52287454,-0.32595984,0.553361,0.5059008,-0.35792889,0.554418,0.49891372,-0.3240045,0.545303,0.48366702,-0.28695004,0.520136,0.48354419,-0.26541478,0.507545,0.47616422,-0.26791989,0.528705,0.46151509,-0.24006428,0.505422,0.46081061,-0.24333445,0.493781,0.47826547,-0.2536364,0.499482,0.50499396,-0.27912947,0.539171,0.49754014,-0.2431746,0.518276,0.4964129,-0.24578773,0.506087,0.49516424,-0.25007394,0.497381,0.53078248,-0.28950632,0.548614,0.52798208,-0.27754428,0.526304,0.54558013,-0.30601225,0.541581,0.55775708,-0.32989759,0.556693,0.56672546,-0.30914579,0.561624,0.55002366,-0.29615888,0.541817,0.53780617,-0.30648441,0.532716,0.53894461,-0.31479921,0.536968
0.53088162,-0.37562164,0.562585,0.52943447,-0.32693844,0.559582,0.50346647,-0.3523519,0.5515,0.50204075,-0.31118053,0.533428,0.50069044,-0.28087767,0.516647,0.50451134,-0.26124617,0.507895,0.49120737,-0.27195081,0.544186,0.49706503,-0.24858011,0.528689,0.49207885,-0.25554349,0.520941,0.50699335,-0.26992412,0.528855,0.52216876,-0.2787593,0.556486,0.53459287,-0.25388571,0.545672,0.53381723,-0.26452057,0.539364,0.53755058,-0.27107818,0.534859,0.54826842,-0.28912463,0.566785,0.55766308,-0.28389183,0.552927,0.57442029,-0.31338941,0.568535,0.58196419,-0.34145,0.580366,0.58072814,-0.30700079,0.579522,0.57880872,-0.30153118,0.567118,0.56916254,-0.31428362,0.561418,0.57014625,-0.32371876,0.567686
0.5363974,-0.37684844,0.568491,0.52747128,-0.32505712,0.558755,0.5088205,-0.35616852,0.557675,0.51255366,-0.3271534,0.550222,0.50598272,-0.29810411,0.532502,0.50948324,-0.27917147,0.526566,0.48653787,-0.27004639,0.53911,0.48338366,-0.24082173,0.519346,0.47840985,-0.2497507,0.509463,0.49359872,-0.26512517,0.516975,0.51655974,-0.27611228,0.548717,0.51444085,-0.24172564,0.53148,0.51171765,-0.25385231,0.521425,0.51156808,-0.26066295,0.514244,0.53939313,-0.2829157,0.557208,0.53963675,-0.27077305,0.538437,0.56271276,-0.29946957,0.554908,0.57377891,-0.32209134,0.569068,0.57069401,-0.29849959,0.568588,0.5634626,-0.29341465,0.551697,0.57141127,-0.31556728,0.564112,0.57667609,-0.32712217,0.574871
0.54102617,-0.37976007,0.57439,0.52720909,-0.32475816,0.5602,0.51450286,-0.35766912,0.564291,0.52026714,-0.33379272,0.560441,0.51386993,-0.30571799,0.5427,0.52212337,-0.28967544,0.541864,0.48456582,-0.27030866,0.538394,0.47364768,-0.23911677,0.51633,0.46609932,-0.24814031,0.505298,0.47515234,-0.26530865,0.512415,0.51264922,-0.2742379,0.545569,0.50152013,-0.24039333,0.524327,0.49362439,-0.25557438,0.511935,0.4879853,-0.26641983,0.503084,0.53690786,-0.28044843,0.552331,0.52172255,-0.26344839,0.53074,0.51533276,-0.25520581,0.519693,0.53145592,-0.27377108,0.52724,0.56567954,-0.2924675,0.562171,0.55115524,-0.29455555,0.54267,0.56139292,-0.31364857,0.555187,0.56913408,-0.32316245,0.56733
0.54284159,-0.38069067,0.576952,0.52709419,-0.32446504,0.561493,0.51640584,-0.35875585,0.567109,0.52164768,-0.33509414,0.562425,0.51557165,-0.30745467,0.545,0.52339899,-0.29125057,0.543817,0.48362811,-0.27020034,0.539134,0.47384599,-0.23879942,0.516484,0.4657878,-0.24818976,0.505159,0.47428065,-0.26603648,0.512114,0.51087149,-0.27341845,0.545555,0.50053799,-0.2394741,0.523214,0.49205743,-0.25423668,0.510183,0.48599395,-0.26475573,0.500874,0.53443093,-0.27904702,0.551772,0.52058801,-0.26239793,0.529439,0.51380347,-0.2538322,0.518012,0.52972905,-0.27216444,0.525344,0.56492612,-0.29185984,0.561113,0.54962297,-0.29271225,0.540922,0.55921666,-0.31167068,0.553401,0.56728959,-0.3221252,0.565345
0.54062379,-0.3804465,0.57565,0.525967,-0.32384918,0.560489,0.51390858,-0.35828432,0.565971,0.5214237,-0.33515813,0.562432,0.51534108,-0.30767975,0.545008,0.52306292,-0.29149811,0.543783,0.48291196,-0.26993384,0.538529,0.47374942,-0.2386114,0.516358,0.46583183,-0.24828502,0.505273,0.47437796,-0.26649573,0.512432,0.51014881,-0.27308251,0.544858,0.50015989,-0.23914359,0.52279,0.49184173,-0.25394953,0.509917,0.48589733,-0.26451045,0.500722,0.53369285,-0.27864047,0.550981,0.52012591,-0.26200567,0.52892,0.51347246,-0.25346304,0.517632,0.52955661,-0.27183646,0.525112,0.56413487,-0.29134169,0.560172,0.54901543,-0.29187472,0.540204,0.55852783,-0.3115424,0.552762,0.56668957,-0.32179058,0.564659
0.53988206,-0.37951996,0.575001,0.52535623,-0.32523675,0.560294,0.51304966,-0.36081229,0.565467,0.52043909,-0.3351096,0.561811,0.51329204,-0.30827899,0.544237,0.51838769,-0.28986291,0.542007,0.48260976,-0.27049261,0.538817,0.47357745,-0.2391975,0.517032,0.4658514,-0.24897963,0.506139,0.47453087,-0.26736821,0.513479,0.50988824,-0.27355375,0.54513,0.49982964,-0.23904391,0.523471,0.49194741,-0.25359875,0.510836,0.4863219,-0.26401774,0.501811,0.53346373,-0.27902609,0.551214,0.52000378,-0.26244982,0.529522,0.51346263,-0.25390479,0.518424,0.52976641,-0.27229341,0.526083,0.56392086,-0.29159662,0.560302,0.54905554,-0.29191745,0.540645,0.55862731,-0.31312224,0.553292,0.56692782,-0.32222082,0.565126
