sluyters/QuantumLeap/backend/src/datasets/gesture/HandGestureDataset_SHREC2017_csv/Gesture4/finger_2/subject_24_essai_4_skeletons_world.csv
Wrist_x,Wrist_y,Wrist_z,Palm_x,Palm_y,Palm_z,thumb_base_x,thumb_base_y,thumb_base_z,thumb_first_joint_x,thumb_first_joint_y,thumb_first_joint_z,thumb_second_joint_x,thumb_second_joint_y,thumb_second_joint_z,thumb_tip_x,thumb_tip_y,thumb_tip_z,index_base_x,index_base_y,index_base_z,index_first_joint_x,index_first_joint_y,index_first_joint_z,index_second_joint_x,index_second_joint_y,index_second_joint_z,index_tip_x,index_tip_y,index_tip_z,middle_base_x,middle_base_y,middle_base_z,middle_first_joint_x,middle_first_joint_y,middle_first_joint_z,middle_second_joint_x,middle_second_joint_y,middle_second_joint_z,middle_tip_x,middle_tip_y,middle_tip_z,ring_base_x,ring_base_y,ring_base_z,ring_first_joint_x,ring_first_joint_y,ring_first_joint_z,ring_second_joint_x,ring_second_joint_y,ring_second_joint_z,ring_tip_x,ring_tip_y,ring_tip_z,pinky_base_x,pinky_base_y,pinky_base_z,pinky_first_joint_x,pinky_first_joint_y,pinky_first_joint_z,pinky_second_joint_x,pinky_second_joint_y,pinky_second_joint_z,pinky_tip_x,pinky_tip_y,pinky_tip_z,
0.428165452,-0.32040077,0.536863,0.427420162,-0.273015874,0.532879,0.40854914,-0.308077021,0.535845,0.373462201,-0.289226396,0.53157,0.333878303,-0.27347782,0.517216,0.320450749,-0.256683638,0.51177,0.403600565,-0.227562441,0.528912,0.392627609,-0.189717619,0.523848,0.387203237,-0.170948183,0.521316,0.382239935,-0.153719909,0.519015,0.428689106,-0.230582918,0.529024,0.428749159,-0.190008104,0.526648,0.428903095,-0.16616088,0.525262,0.429149326,-0.148937097,0.524272,0.449262297,-0.237158699,0.529487,0.453791744,-0.198860024,0.526113,0.456150088,-0.179271402,0.524386,0.458313009,-0.161441911,0.522817,0.473224843,-0.252224764,0.530696,0.487876957,-0.227279308,0.529041,0.494476075,-0.215080464,0.52828,0.500926479,-0.20408894,0.527609
0.42716351,-0.319435774,0.536985,0.426748917,-0.272427033,0.532697,0.407673164,-0.306924035,0.535959,0.373012289,-0.289228607,0.531951,0.33377179,-0.273390576,0.517051,0.319402935,-0.257045016,0.511528,0.402973951,-0.226824012,0.528513,0.392135759,-0.188939781,0.523457,0.38675631,-0.170121035,0.520928,0.381837952,-0.152865453,0.51863,0.427984758,-0.229921277,0.528545,0.428298279,-0.189284543,0.526019,0.428587815,-0.165406368,0.524545,0.428915135,-0.148165225,0.523492,0.448496887,-0.236569646,0.528971,0.453696555,-0.198452202,0.52576,0.456390841,-0.178956813,0.524117,0.458870295,-0.161196926,0.522623,0.472387957,-0.251734448,0.530187,0.487720044,-0.226853281,0.528385,0.494456135,-0.21464782,0.527557,0.500670357,-0.203710043,0.526827
0.427719933,-0.319441685,0.53879,0.427355137,-0.272699346,0.533923,0.408389765,-0.306902737,0.537926,0.373785036,-0.290079422,0.533786,0.336793515,-0.275865654,0.521732,0.322676832,-0.260551121,0.51781,0.403537685,-0.226865208,0.529555,0.39341102,-0.189165973,0.52535,0.388364,-0.170375571,0.523247,0.383745122,-0.153131257,0.521336,0.428295192,-0.22988543,0.529208,0.429576581,-0.189473592,0.527535,0.430428374,-0.165662457,0.52656,0.431148466,-0.148440623,0.525863,0.448604969,-0.236494122,0.529375,0.454499699,-0.198541442,0.526517,0.457547607,-0.179117666,0.525055,0.460359878,-0.161404531,0.523726,0.472289476,-0.251650286,0.530384,0.48877263,-0.227112901,0.529407,0.496304698,-0.214894444,0.528958,0.503051424,-0.204090735,0.528562
0.427757151,-0.318583842,0.539015,0.426552708,-0.271955389,0.532752,0.408494552,-0.306196087,0.538308,0.376370639,-0.290873004,0.533979,0.339772502,-0.271907819,0.515047,0.322431718,-0.256829086,0.509773,0.40197558,-0.226027071,0.527648,0.391278868,-0.188049388,0.522514,0.385951509,-0.169148809,0.519946,0.381086897,-0.151847274,0.517613,0.426189005,-0.228659513,0.526687,0.42591582,-0.185698634,0.522802,0.426426205,-0.161465303,0.520536,0.42642846,-0.146472711,0.520068,0.446144191,-0.234982199,0.526479,0.452776485,-0.197459813,0.524233,0.456204709,-0.178226587,0.523084,0.45938481,-0.160653564,0.52204,0.469616826,-0.249858176,0.527279,0.482558227,-0.221574837,0.520445,0.489051657,-0.209367641,0.517305,0.499789501,-0.200982076,0.514534
0.426598646,-0.316978023,0.538293,0.425230881,-0.270970112,0.531294,0.407704964,-0.304765412,0.537971,0.375270126,-0.29140283,0.53565,0.336574488,-0.275764047,0.514508,0.314315258,-0.259375356,0.507615,0.400703804,-0.225139408,0.52618,0.390111165,-0.187336372,0.521352,0.384152561,-0.166324526,0.518938,0.380010272,-0.151277775,0.516743,0.424309517,-0.227471705,0.524511,0.424622587,-0.184926591,0.52131,0.425399948,-0.160837098,0.519443,0.425785504,-0.145837038,0.519223,0.443769229,-0.233552871,0.523788,0.451605726,-0.196625645,0.522612,0.455675401,-0.177628865,0.52201,0.459456935,-0.160230215,0.521463,0.466710764,-0.248144065,0.524107,0.482845436,-0.221361786,0.516618,0.490453933,-0.210241782,0.513178,0.497149568,-0.20092551,0.510142
0.426614097,-0.316606917,0.539274,0.423976314,-0.27040594,0.530012,0.408224237,-0.304633904,0.539557,0.378139641,-0.293859121,0.538022,0.334828767,-0.279434829,0.514287,0.311118859,-0.262833103,0.501111,0.399003583,-0.224333157,0.524146,0.38820716,-0.185321232,0.520194,0.384011188,-0.168266713,0.518219,0.379446752,-0.151163652,0.516423,0.421366233,-0.226080256,0.521033,0.423519164,-0.184719922,0.519677,0.425336496,-0.160996114,0.518887,0.425519712,-0.145591269,0.518396,0.439869895,-0.231723765,0.51933,0.44748398,-0.193723224,0.516293,0.453133114,-0.174828966,0.51474,0.457625971,-0.157410299,0.513327,0.461911743,-0.245867798,0.518874,0.472697339,-0.225568499,0.508838,0.478512208,-0.215171301,0.504227,0.483800347,-0.205867729,0.500159
0.425687974,-0.315965668,0.538606,0.422390525,-0.269455653,0.528475,0.407717624,-0.304224679,0.539374,0.374685075,-0.2916444,0.533114,0.338894168,-0.278633026,0.508243,0.31460409,-0.2602363,0.490739,0.397532716,-0.223450126,0.52264,0.387154469,-0.185081416,0.519126,0.382968176,-0.167626437,0.517369,0.378477162,-0.150593261,0.515771,0.419134543,-0.224868495,0.518652,0.420088348,-0.183482767,0.515454,0.421060827,-0.159364872,0.513589,0.423055177,-0.142601028,0.513858,0.436376914,-0.229592499,0.516309,0.44228357,-0.191645805,0.508328,0.446270231,-0.17327318,0.504245,0.449126841,-0.156333379,0.500533,0.458210673,-0.243763482,0.515246,0.469194475,-0.223566415,0.504434,0.474811918,-0.213308939,0.499466,0.479921978,-0.204138072,0.495083
0.424406946,-0.315430967,0.537942,0.419570738,-0.267888826,0.525683,0.406931315,-0.30388738,0.53926,0.37368186,-0.292431838,0.529863,0.340378052,-0.278108501,0.505084,0.315395956,-0.259458314,0.48675,0.394431954,-0.22164486,0.519118,0.384844379,-0.184186077,0.516424,0.379433156,-0.166159918,0.515076,0.376535956,-0.149591086,0.513852,0.414790396,-0.222571914,0.513799,0.415672218,-0.181693527,0.510298,0.41715283,-0.158238487,0.508255,0.418115051,-0.140886978,0.506797,0.431259109,-0.227546024,0.510557,0.433507131,-0.189046644,0.498208,0.434287902,-0.170147478,0.49189,0.435050924,-0.153369167,0.486147,0.451592039,-0.241650189,0.508795,0.457392428,-0.223472193,0.495512,0.460979612,-0.214438436,0.489409,0.46102838,-0.20900104,0.484025
0.421741458,-0.313770637,0.535214,0.417053893,-0.266489823,0.523126,0.404673381,-0.302349266,0.536848,0.373626184,-0.291813644,0.527886,0.341148956,-0.277346586,0.503282,0.321143843,-0.261607667,0.484722,0.392509654,-0.220556356,0.517078,0.383094814,-0.183659513,0.514437,0.376841874,-0.165721542,0.513116,0.373625944,-0.149403307,0.511916,0.412149532,-0.221112943,0.511408,0.412488767,-0.180953703,0.506653,0.412535252,-0.156306165,0.503879,0.412958985,-0.138769811,0.501898,0.428311212,-0.226666921,0.507861,0.428773634,-0.188127786,0.4952,0.429610991,-0.168171221,0.488722,0.430743636,-0.151128574,0.482833,0.448064462,-0.240725034,0.505713,0.45477985,-0.221477219,0.49231,0.458435977,-0.212342495,0.486153,0.456002297,-0.208238501,0.480719
0.420152012,-0.312707549,0.533702,0.414935727,-0.265233131,0.520976,0.403424626,-0.30132791,0.53558,0.377925149,-0.291447478,0.526834,0.349747938,-0.275395791,0.502597,0.327086618,-0.259945412,0.4842,0.39048108,-0.2192978,0.514809,0.3796464,-0.183173952,0.511146,0.373317074,-0.165058877,0.509314,0.368071603,-0.148152164,0.507649,0.409554081,-0.220311678,0.508639,0.408452422,-0.178974316,0.502125,0.407881627,-0.154578711,0.498326,0.407635869,-0.136931538,0.495612,0.424892123,-0.225397196,0.504741,0.419094427,-0.184741708,0.486526,0.41947853,-0.165222628,0.480767,0.421451877,-0.148630094,0.475531,0.444457045,-0.239175018,0.502286,0.449980627,-0.21860903,0.48799,0.452798631,-0.209049741,0.481421,0.446028236,-0.207172163,0.475626
0.42905636,-0.318903471,0.54441,0.416606288,-0.266212669,0.522926,0.406870778,-0.303640796,0.539664,0.383202997,-0.288197537,0.521429,0.352436771,-0.269567324,0.496374,0.337661485,-0.254830836,0.477966,0.380664829,-0.214414201,0.502457,0.372717137,-0.180326623,0.503113,0.367761246,-0.162969374,0.503442,0.363692902,-0.146891891,0.50374,0.403881605,-0.217299919,0.502096,0.396341147,-0.173091662,0.487272,0.390575743,-0.15013982,0.478625,0.38671247,-0.134240002,0.472449,0.424183522,-0.224430709,0.503792,0.411084706,-0.189763817,0.479535,0.404286103,-0.172866933,0.467124,0.398166283,-0.157318904,0.455842,0.451487826,-0.241609323,0.509361,0.438551451,-0.223397963,0.488952,0.432061923,-0.216455131,0.479575,0.419738653,-0.220946958,0.471301
0.429892715,-0.319219584,0.544783,0.416493728,-0.266248062,0.522603,0.406917943,-0.303611992,0.539175,0.393309979,-0.290822243,0.519836,0.362617741,-0.265512097,0.494514,0.345857396,-0.244121417,0.47965,0.378755766,-0.213897215,0.500574,0.366174047,-0.177467751,0.495402,0.359835424,-0.160409504,0.492816,0.353956097,-0.144475991,0.490465,0.402520255,-0.216990931,0.501101,0.392280855,-0.172174451,0.483411,0.382414095,-0.154472362,0.473091,0.376698809,-0.140795848,0.46572,0.424082748,-0.224310811,0.503592,0.409586342,-0.190034288,0.478788,0.40207673,-0.172836019,0.466098,0.395295815,-0.157031753,0.454561,0.452484718,-0.241712947,0.510211,0.439638695,-0.224248051,0.489145,0.433006844,-0.217672818,0.479466,0.421334827,-0.221449434,0.470926
0.435457318,-0.322664131,0.550475,0.419517581,-0.268397955,0.525971,0.411248691,-0.306597819,0.54373,0.394820457,-0.29127293,0.522795,0.364652529,-0.26768062,0.497457,0.348261429,-0.2472615,0.483758,0.376965136,-0.218432316,0.500933,0.361189439,-0.182193991,0.488374,0.352575422,-0.170680514,0.482095,0.344597208,-0.15987456,0.476386,0.403318531,-0.218693233,0.502213,0.389975561,-0.173164123,0.482237,0.378652217,-0.164907391,0.470584,0.371309588,-0.158052716,0.462261,0.425836401,-0.225720183,0.50554,0.405319844,-0.19654763,0.479034,0.395164372,-0.180395528,0.465473,0.385950441,-0.16556591,0.453145,0.455745559,-0.243231473,0.513527,0.440840193,-0.22669232,0.490913,0.433584427,-0.222121149,0.480523,0.421652026,-0.223705435,0.471355
0.437423747,-0.323693014,0.552319,0.420776932,-0.269487032,0.52747,0.411931667,-0.30706075,0.544101,0.394515616,-0.291484716,0.52146,0.3638249,-0.267843516,0.495525,0.347700745,-0.24815418,0.482397,0.376265584,-0.22133297,0.500329,0.36192985,-0.185727302,0.485732,0.352234819,-0.168330232,0.478433,0.347915924,-0.15024421,0.471798,0.404094379,-0.220437146,0.503378,0.379815178,-0.187613022,0.474521,0.365955293,-0.16673051,0.457688,0.356177924,-0.154305804,0.445665,0.428253984,-0.226856037,0.508193,0.404160934,-0.185769903,0.480974,0.393017383,-0.176516498,0.467049,0.383444923,-0.178189786,0.454389,0.460193989,-0.244842232,0.517983,0.435336912,-0.217576651,0.494731,0.425750124,-0.21459326,0.484047,0.423044185,-0.222497224,0.474621
0.438867119,-0.324036731,0.552976,0.421288378,-0.270026307,0.527778,0.412957802,-0.307607762,0.54444,0.395433873,-0.29179267,0.521407,0.37303807,-0.273621331,0.495909,0.356334457,-0.254202058,0.480293,0.375907659,-0.221329998,0.499999,0.361026977,-0.185512337,0.485036,0.352080437,-0.16799394,0.477554,0.344602074,-0.153353389,0.470753,0.403987081,-0.220097134,0.503347,0.379251544,-0.188570071,0.474181,0.365243085,-0.168342732,0.457168,0.355369306,-0.156457968,0.445015,0.428236975,-0.227296392,0.508442,0.403718924,-0.185625737,0.480884,0.392425486,-0.176423828,0.466785,0.382749942,-0.178132313,0.453968,0.460737806,-0.245045028,0.518618,0.435365861,-0.217566162,0.495098,0.425680957,-0.214621099,0.484291,0.4222523,-0.222194259,0.474756
0.441784649,-0.324684965,0.555309,0.423433061,-0.270991392,0.530266,0.414660582,-0.30802476,0.545573,0.396562441,-0.291138259,0.52126,0.373986554,-0.271804323,0.495197,0.35768813,-0.252648712,0.479667,0.37609972,-0.220097499,0.501068,0.352280884,-0.189980256,0.475352,0.341992505,-0.175187087,0.462494,0.332628509,-0.161608379,0.450804,0.405320211,-0.220358678,0.505986,0.380582147,-0.189533613,0.476811,0.366912373,-0.169928963,0.459792,0.35724013,-0.158194301,0.447635,0.430614817,-0.22764661,0.512358,0.39885436,-0.185041442,0.484413,0.386943999,-0.180805495,0.470115,0.377465916,-0.18453948,0.457117,0.4625901,-0.240152957,0.524009,0.435404144,-0.248590125,0.500231,0.424767354,-0.252521844,0.489307,0.42591139,-0.259738441,0.491165
0.448493934,-0.328058066,0.562309,0.426673891,-0.272789569,0.533992,0.420988343,-0.311887258,0.55267,0.40729645,-0.292440393,0.528115,0.379255556,-0.267024481,0.502739,0.361411624,-0.247205718,0.490902,0.376558163,-0.22196228,0.502716,0.352432911,-0.19467392,0.473512,0.341200552,-0.180740555,0.458909,0.330986321,-0.168000913,0.445634,0.404928787,-0.22218801,0.506539,0.378665187,-0.187996025,0.474879,0.362963043,-0.179635602,0.45641,0.352527234,-0.187565949,0.443218,0.430532956,-0.228431966,0.512312,0.398296133,-0.186656518,0.482421,0.386740507,-0.186411207,0.467127,0.376240055,-0.190947291,0.453224,0.464867942,-0.244212327,0.523806,0.434189894,-0.249112346,0.498455,0.422900667,-0.252310857,0.486808,0.422874311,-0.259537059,0.487615
0.451436504,-0.328751608,0.564539,0.426756103,-0.272283329,0.533492,0.422695505,-0.312277173,0.553647,0.408639292,-0.289736352,0.527563,0.383711343,-0.262210814,0.502338,0.369646596,-0.241100464,0.490222,0.374170369,-0.217492461,0.49879,0.348540585,-0.192615892,0.467573,0.337853804,-0.180742834,0.454196,0.328127532,-0.169851376,0.442035,0.402820073,-0.21974033,0.503392,0.374254046,-0.186085071,0.469608,0.357690549,-0.179432622,0.449901,0.347156115,-0.187070311,0.435825,0.428625353,-0.227037261,0.510059,0.402079008,-0.215390288,0.478051,0.38830731,-0.210946123,0.461675,0.375787021,-0.20693259,0.446787,0.46429096,-0.243482876,0.523057,0.432869429,-0.247248061,0.496114,0.420704651,-0.250420905,0.483735,0.41940243,-0.257307078,0.483285
0.454268087,-0.329589694,0.566944,0.427913151,-0.272615697,0.534479,0.42470354,-0.313118135,0.555364,0.40802161,-0.290929283,0.528505,0.384687544,-0.26353786,0.503616,0.370108068,-0.242060144,0.490834,0.373705357,-0.217452427,0.497951,0.348051313,-0.201901159,0.465775,0.335137994,-0.194692207,0.449687,0.323392154,-0.188136759,0.435061,0.402381962,-0.219611198,0.503004,0.372963747,-0.18583745,0.468163,0.355954419,-0.181612248,0.447839,0.345332079,-0.187285793,0.433322,0.428741604,-0.22685382,0.510175,0.401276618,-0.215597658,0.477097,0.387044844,-0.210899843,0.460174,0.374106527,-0.206649026,0.444789,0.465270519,-0.244232658,0.524,0.433364915,-0.24729449,0.496268,0.420760854,-0.250467476,0.483526,0.418733197,-0.257144473,0.48235
0.458075642,-0.33113252,0.570688,0.429990133,-0.273476135,0.536653,0.427528732,-0.314603788,0.55831,0.409129399,-0.291462988,0.530621,0.386318194,-0.265221665,0.505899,0.370670562,-0.243137072,0.491712,0.373851797,-0.217263679,0.498056,0.348307675,-0.202429143,0.464719,0.335358187,-0.195774031,0.448051,0.323583821,-0.189726321,0.432898,0.402807565,-0.219870191,0.503656,0.374263973,-0.200210186,0.467694,0.359427245,-0.212023811,0.446716,0.348699439,-0.217447111,0.431732,0.429864283,-0.227090064,0.511423,0.401606809,-0.215487855,0.477196,0.386907886,-0.210620841,0.459685,0.373545476,-0.206212491,0.443765,0.467288012,-0.244599534,0.526209,0.434945325,-0.247782076,0.497645,0.421821043,-0.250871742,0.484521,0.418891064,-0.257144888,0.482464
0.459234315,-0.331373265,0.571538,0.430418452,-0.273631501,0.537002,0.428557207,-0.315091833,0.559152,0.410180995,-0.292065352,0.531461,0.386549317,-0.266003687,0.506911,0.369583868,-0.245105301,0.493293,0.373524446,-0.217235514,0.498059,0.347801082,-0.203229569,0.464469,0.33524336,-0.19869414,0.447675,0.323490409,-0.193766086,0.432407,0.402546546,-0.219934257,0.50352,0.372838464,-0.200010555,0.467223,0.357863444,-0.212106482,0.44605,0.347144583,-0.216355002,0.430926,0.429594532,-0.226927398,0.511218,0.400843067,-0.215193868,0.476729,0.385904557,-0.210314624,0.459083,0.37232491,-0.205895456,0.443041,0.467100734,-0.244126234,0.526008,0.434617711,-0.247455246,0.497243,0.421337175,-0.250548215,0.484027,0.418158521,-0.256726352,0.481742
0.459482197,-0.330818764,0.571332,0.430217802,-0.273245483,0.536701,0.428611278,-0.314721543,0.558808,0.409216617,-0.291449582,0.530981,0.386089889,-0.266200485,0.50647,0.370081275,-0.244104288,0.491849,0.372909721,-0.217497841,0.497517,0.34598388,-0.206147504,0.463908,0.332810235,-0.201574255,0.447104,0.320827384,-0.197522912,0.431827,0.401770069,-0.219299539,0.503126,0.371680702,-0.199986419,0.466761,0.356869507,-0.212175376,0.445548,0.346274689,-0.216473099,0.430396,0.428873027,-0.225636999,0.510955,0.400076548,-0.214921115,0.476366,0.385053655,-0.210056332,0.458669,0.371397634,-0.205650508,0.442581,0.466704972,-0.242959325,0.525914,0.434399472,-0.24719911,0.497083,0.421055454,-0.250320396,0.483837,0.417776503,-0.256474647,0.481467
0.460275373,-0.3310345,0.572107,0.430377215,-0.273176267,0.536948,0.429284406,-0.315084076,0.559566,0.409845197,-0.293212954,0.531736,0.386114467,-0.271204372,0.507115,0.37003031,-0.248206634,0.492316,0.372541675,-0.217437553,0.497387,0.34463852,-0.209669052,0.463541,0.331323292,-0.205748995,0.446619,0.31921658,-0.202279466,0.431234,0.401488978,-0.219370917,0.502861,0.369716557,-0.201295209,0.46615,0.355167309,-0.213579061,0.444736,0.345329954,-0.217065439,0.42944,0.428661216,-0.226036781,0.510628,0.399158002,-0.215163917,0.475766,0.383146534,-0.210776276,0.457929,0.370135581,-0.205969679,0.441714,0.466531708,-0.243297102,0.525602,0.433931531,-0.24712693,0.496566,0.420534283,-0.250184412,0.483225,0.417063425,-0.256180215,0.480602
0.461650911,-0.332115981,0.573868,0.430426805,-0.273387333,0.537332,0.430422969,-0.316121459,0.561198,0.410493218,-0.2961853,0.533325,0.386914271,-0.275799811,0.508953,0.369394863,-0.254608747,0.493312,0.370557916,-0.219434012,0.496681,0.342559506,-0.212328412,0.462209,0.328944519,-0.20916937,0.444973,0.316580178,-0.20679865,0.429304,0.399306806,-0.220076366,0.50191,0.366367089,-0.204418112,0.464332,0.352056564,-0.216240963,0.442412,0.352399461,-0.223596485,0.438771,0.42698652,-0.225851083,0.509602,0.394825302,-0.217913258,0.474032,0.379520872,-0.214851128,0.455833,0.36640088,-0.217269908,0.439288,0.465421153,-0.242709673,0.524718,0.432515973,-0.246787891,0.495165,0.418946414,-0.249680581,0.481586,0.414866365,-0.255242951,0.478228
0.461636878,-0.331693003,0.573317,0.430111684,-0.273141134,0.537058,0.430517349,-0.316048543,0.56093,0.411286358,-0.294024912,0.533315,0.386855085,-0.272051752,0.509318,0.370817801,-0.250374624,0.494872,0.369647645,-0.219827801,0.496954,0.342105981,-0.2124731,0.462736,0.328567912,-0.209335533,0.445627,0.316301103,-0.207124755,0.430074,0.398348192,-0.219906625,0.501904,0.365656935,-0.204198732,0.464505,0.352003416,-0.214877939,0.442689,0.352409905,-0.223507645,0.439345,0.426363797,-0.225189925,0.509343,0.394503997,-0.216555109,0.474004,0.378794655,-0.214831714,0.455924,0.365480336,-0.213348808,0.439488,0.464506848,-0.24188673,0.524113,0.431891242,-0.246521414,0.494712,0.418357868,-0.249667308,0.481204,0.414451549,-0.255547616,0.478076
0.462958609,-0.332716281,0.574485,0.431236409,-0.274120458,0.538407,0.432296003,-0.317581541,0.562867,0.413442108,-0.295391687,0.536023,0.389436241,-0.27326814,0.512932,0.373056138,-0.251923761,0.49806,0.370954888,-0.221704741,0.499402,0.343530468,-0.210075859,0.465669,0.32985334,-0.217708948,0.448802,0.329244325,-0.226431087,0.445926,0.3991213,-0.221000323,0.503429,0.36623262,-0.205526725,0.466185,0.352619428,-0.217439566,0.44446,0.353885126,-0.224895155,0.44146,0.426078289,-0.22592508,0.510091,0.394803576,-0.217160152,0.475136,0.379421873,-0.215787199,0.457252,0.366504511,-0.217093874,0.440994,0.464210483,-0.241803952,0.52392,0.431762944,-0.246556848,0.494758,0.417847952,-0.250407082,0.481359,0.414460297,-0.256473214,0.478526
0.462274932,-0.332318243,0.573433,0.430585376,-0.273842312,0.537767,0.431741766,-0.317384942,0.562044,0.412425553,-0.29497203,0.535414,0.389295875,-0.273229882,0.512221,0.373689267,-0.253599015,0.4966,0.370104876,-0.221804969,0.499331,0.341054879,-0.208002262,0.465892,0.329519527,-0.21749135,0.449173,0.329297704,-0.22639769,0.446656,0.398245741,-0.220785455,0.50319,0.36477672,-0.20608694,0.466223,0.352278477,-0.217674328,0.444658,0.354018198,-0.225450939,0.442004,0.424617179,-0.225732416,0.509676,0.393456666,-0.21764346,0.475012,0.378841255,-0.215830795,0.457277,0.366096023,-0.217283254,0.441154,0.462847057,-0.240564142,0.523229,0.431010205,-0.245953184,0.494271,0.417505969,-0.249791139,0.480965,0.413980359,-0.256440527,0.478395
0.462764198,-0.332301956,0.573414,0.430518247,-0.27404647,0.53783,0.432198143,-0.317690438,0.562141,0.412233547,-0.295356234,0.535629,0.389504384,-0.273527275,0.512459,0.374398248,-0.254012799,0.496759,0.370014519,-0.221867309,0.499595,0.341120885,-0.208030349,0.466256,0.329620339,-0.217558791,0.449586,0.329510309,-0.226520445,0.447164,0.398012165,-0.220803649,0.503332,0.364520096,-0.206253756,0.466425,0.352136164,-0.217883164,0.444897,0.354039861,-0.22583116,0.442325,0.424302677,-0.225591472,0.509708,0.393124202,-0.217521642,0.475132,0.378576621,-0.215929382,0.457441,0.36594171,-0.217450513,0.441359,0.462053694,-0.240164518,0.52312,0.430454248,-0.245918604,0.494221,0.416999179,-0.249909649,0.480943,0.413570839,-0.256644645,0.478439
0.463175786,-0.332149477,0.573394,0.430451986,-0.274168186,0.537987,0.432541219,-0.31783516,0.562189,0.411886297,-0.295549043,0.53574,0.389503326,-0.273700579,0.512529,0.375160248,-0.255116682,0.496519,0.369976723,-0.221990341,0.499958,0.341190559,-0.208173542,0.46673,0.329737987,-0.21775028,0.450116,0.329756238,-0.226791395,0.447832,0.397461239,-0.221349573,0.50366,0.363708046,-0.205859765,0.466872,0.352616393,-0.217150679,0.445413,0.3538056,-0.225508876,0.442978,0.424191661,-0.225600651,0.509992,0.392404388,-0.217567777,0.475531,0.37856602,-0.216161836,0.457899,0.366030541,-0.217749652,0.441871,0.46141986,-0.239890508,0.523323,0.429716438,-0.245979418,0.494506,0.416794747,-0.24988845,0.481266,0.414013335,-0.255520194,0.478864
0.463724055,-0.332109025,0.573583,0.430817434,-0.274563236,0.538754,0.433052425,-0.318109933,0.562492,0.411692297,-0.295297262,0.536142,0.389526116,-0.274198115,0.512848,0.375916805,-0.255261546,0.496677,0.370704897,-0.222334807,0.501258,0.342198374,-0.20852256,0.46834,0.330865016,-0.218233536,0.451881,0.331197913,-0.227517932,0.449997,0.398684804,-0.221289084,0.504988,0.365794408,-0.208432119,0.468583,0.353949185,-0.222303878,0.447347,0.354560414,-0.224960839,0.445325,0.424296229,-0.225291793,0.511289,0.392936786,-0.217572353,0.477163,0.379238487,-0.216243624,0.459703,0.366952586,-0.216646212,0.44383,0.461736318,-0.239685321,0.524486,0.430203415,-0.245732809,0.495916,0.417414148,-0.250233512,0.482789,0.414950701,-0.256646873,0.48069
0.463601753,-0.331704641,0.57314,0.430561375,-0.274686219,0.538927,0.432970794,-0.31809469,0.562224,0.410709089,-0.294998173,0.536046,0.389198027,-0.274547471,0.512683,0.376021378,-0.255331036,0.496435,0.370026583,-0.222641592,0.502065,0.3431415,-0.211009104,0.469516,0.331589279,-0.219994461,0.453241,0.332209298,-0.228792693,0.451785,0.397454178,-0.221508924,0.505756,0.365541839,-0.210028143,0.469774,0.354208495,-0.223469697,0.448784,0.355684754,-0.225884475,0.447196,0.423714451,-0.225521155,0.511969,0.392334406,-0.216990587,0.47823,0.375810993,-0.212759112,0.460969,0.362742514,-0.211787724,0.445276,0.461159728,-0.239414837,0.524959,0.429408575,-0.245867504,0.496674,0.41692595,-0.249927225,0.483678,0.414872604,-0.255180327,0.481901
0.462684056,-0.330701814,0.571845,0.429600268,-0.274243891,0.538235,0.43237897,-0.317611443,0.561406,0.409464318,-0.294486691,0.535738,0.38822429,-0.274331136,0.51194,0.375549835,-0.254965722,0.49565,0.369515175,-0.222315098,0.502386,0.341166498,-0.19483632,0.470383,0.329134922,-0.205110808,0.454382,0.329132636,-0.215605339,0.453434,0.396604364,-0.22096549,0.50565,0.365387832,-0.210496229,0.470121,0.354462628,-0.223064986,0.449396,0.356154102,-0.226215225,0.448278,0.422214744,-0.224498843,0.511454,0.392817842,-0.217553492,0.478237,0.378697972,-0.216479011,0.461241,0.367687207,-0.217100711,0.445791,0.459149899,-0.238055462,0.523866,0.427985506,-0.244994946,0.495953,0.415378383,-0.248684089,0.483127,0.413896559,-0.251935568,0.481716
0.463020395,-0.330402213,0.572546,0.428851062,-0.273236168,0.538674,0.432776818,-0.317605475,0.562312,0.408731088,-0.294019203,0.536869,0.376830118,-0.270599906,0.514873,0.361988485,-0.251455686,0.499041,0.367567623,-0.220996867,0.502909,0.340181416,-0.195656128,0.470908,0.328214761,-0.205944946,0.454908,0.328283872,-0.216717211,0.453875,0.393430896,-0.219067121,0.505835,0.363918791,-0.210412121,0.470153,0.353587223,-0.221848682,0.449338,0.354956917,-0.224809748,0.448092,0.419136084,-0.222496873,0.511385,0.390450988,-0.216346248,0.478121,0.375295762,-0.214226576,0.461101,0.363664945,-0.215233457,0.445629,0.455918074,-0.235600115,0.523543,0.424532236,-0.242593301,0.495582,0.412835579,-0.245669741,0.482736,0.412937247,-0.250861015,0.481245
0.463316017,-0.32975286,0.57299,0.428600621,-0.272938821,0.538871,0.432990626,-0.317145292,0.562765,0.408630735,-0.294034775,0.537334,0.37717557,-0.270847973,0.515345,0.362345366,-0.251703594,0.499533,0.367078618,-0.220678098,0.502952,0.339682078,-0.195831546,0.470847,0.327699627,-0.206092645,0.454795,0.327710384,-0.216896753,0.453621,0.392961421,-0.218618879,0.505793,0.363200177,-0.210295162,0.469948,0.352929482,-0.221630093,0.449039,0.354202382,-0.224362084,0.447638,0.418630368,-0.221988197,0.511297,0.389805496,-0.216106762,0.477909,0.374659018,-0.214180684,0.460826,0.362927251,-0.215072751,0.445297,0.455423225,-0.23503241,0.52344,0.423927592,-0.242015622,0.495385,0.412258521,-0.245086578,0.482495,0.412267268,-0.250126551,0.480895
0.457948865,-0.32551921,0.566997,0.429137301,-0.272909597,0.540392,0.430254993,-0.314771672,0.559907,0.407847277,-0.293544183,0.538363,0.376921349,-0.270801651,0.523427,0.362665245,-0.252543959,0.511432,0.373036661,-0.224007274,0.513506,0.35062567,-0.203029657,0.486973,0.340680667,-0.215255787,0.473707,0.344175535,-0.228046048,0.477062,0.398840178,-0.221288477,0.514599,0.371808005,-0.216941163,0.484574,0.365093738,-0.229465023,0.46706,0.371496192,-0.235279267,0.470116,0.423131553,-0.223712257,0.517966,0.402292095,-0.224273,0.490278,0.387952055,-0.230778021,0.476112,0.382447749,-0.230147525,0.463771,0.457072185,-0.235128122,0.526351,0.42893254,-0.244405519,0.502603,0.419129138,-0.248660206,0.491691,0.421771535,-0.254749202,0.493478
0.455573553,-0.323353842,0.564589,0.427214741,-0.271500475,0.538345,0.429038597,-0.313461438,0.558909,0.408086325,-0.293549317,0.539053,0.378039669,-0.271605116,0.52498,0.364120354,-0.253557232,0.513484,0.372840647,-0.223703336,0.513491,0.350662979,-0.203585762,0.4876,0.340974868,-0.21604135,0.474654,0.344780547,-0.228597822,0.47829,0.397310693,-0.22026801,0.512902,0.370427942,-0.216162003,0.483358,0.363947936,-0.228934251,0.466124,0.370564459,-0.234661291,0.469403,0.420366311,-0.222078949,0.514851,0.399463511,-0.223705374,0.487935,0.386365574,-0.229834284,0.474165,0.379808575,-0.230391739,0.462177,0.452668502,-0.232681268,0.521511,0.425022908,-0.242108232,0.498431,0.432694895,-0.256604649,0.507946,0.443968819,-0.267973766,0.519758
0.45606956,-0.323163862,0.565408,0.427422117,-0.271295815,0.539217,0.429672757,-0.313448043,0.559988,0.408942958,-0.293949329,0.540448,0.378842474,-0.272175068,0.526761,0.365531454,-0.254413476,0.51517,0.373582347,-0.224041973,0.514727,0.350210216,-0.20457958,0.489086,0.340694776,-0.217180086,0.476266,0.345529389,-0.229235051,0.479979,0.397753403,-0.220397944,0.513824,0.369825098,-0.21662933,0.484387,0.363884969,-0.230223815,0.467216,0.371138664,-0.235043356,0.470525,0.420593909,-0.222039473,0.515509,0.397834504,-0.225729536,0.488886,0.386632229,-0.230919677,0.475265,0.37737394,-0.235573879,0.462883,0.452705992,-0.232451038,0.521851,0.424224542,-0.241329237,0.498892,0.432207122,-0.255887001,0.508418,0.444108606,-0.267803522,0.520192
0.456591698,-0.322991021,0.56626,0.427439934,-0.270970164,0.539851,0.430200562,-0.313355915,0.560929,0.409574223,-0.294240793,0.54148,0.379410699,-0.272579906,0.527884,0.36638058,-0.254941382,0.516215,0.373908985,-0.224162004,0.51533,0.350082127,-0.204783472,0.489624,0.340572662,-0.217384254,0.476771,0.345496156,-0.229313259,0.480396,0.397888002,-0.220390075,0.514248,0.369617636,-0.217066719,0.484659,0.363722652,-0.230391958,0.467398,0.370947747,-0.234937184,0.470598,0.420615993,-0.221937021,0.515807,0.39761778,-0.226033616,0.489076,0.3864284,-0.231260335,0.4754,0.377267757,-0.236241076,0.462967,0.452682333,-0.232260474,0.522036,0.423931183,-0.241095474,0.499009,0.431993369,-0.255655879,0.508462,0.443969482,-0.26752843,0.520232
0.457432912,-0.322815445,0.567394,0.428056547,-0.270853297,0.54121,0.431817783,-0.313883122,0.563196,0.412161983,-0.294126744,0.545153,0.383828909,-0.275164231,0.534501,0.366537214,-0.257638112,0.533352,0.375482707,-0.224856936,0.518279,0.346473292,-0.220930784,0.493356,0.348035868,-0.23034466,0.480894,0.358461132,-0.234433226,0.484715,0.398427359,-0.220330048,0.515824,0.370736442,-0.217932856,0.4866,0.364622981,-0.231060135,0.469552,0.371700285,-0.235561595,0.472815,0.420259093,-0.221256037,0.516232,0.397951941,-0.224342359,0.489997,0.387166463,-0.231590736,0.476574,0.378469983,-0.237013213,0.464537,0.451236492,-0.230818554,0.521073,0.422428058,-0.23964705,0.498595,0.431420571,-0.254948736,0.50805,0.442932934,-0.266223676,0.519628
0.443609576,-0.312492561,0.550317,0.418152965,-0.264259419,0.529241,0.420131448,-0.304937885,0.548098,0.403542961,-0.287214484,0.532999,0.378534568,-0.270982592,0.527436,0.363899613,-0.255784149,0.529514,0.370965656,-0.222091626,0.512256,0.344842601,-0.219890964,0.491034,0.347695716,-0.230119534,0.480424,0.359761225,-0.235283486,0.486473,0.392812228,-0.217104361,0.508807,0.368370443,-0.216697951,0.483848,0.364253959,-0.230849965,0.469289,0.37312561,-0.236352427,0.474841,0.413292215,-0.217401942,0.507923,0.394304429,-0.222466429,0.485693,0.385191934,-0.230335768,0.47432,0.378554686,-0.237079102,0.464704,0.441826785,-0.225722491,0.510397,0.415968708,-0.235665383,0.491175,0.426098389,-0.251530423,0.501977,0.437496932,-0.262658134,0.513392
0.455986853,-0.320517712,0.565549,0.425341304,-0.26831326,0.538654,0.43015629,-0.311606026,0.561111,0.411319838,-0.292196252,0.542723,0.382598547,-0.273613868,0.53332,0.366110443,-0.257338135,0.532731,0.372790161,-0.223136832,0.514941,0.343885396,-0.219280596,0.489671,0.34524373,-0.228496707,0.477036,0.355387647,-0.23242317,0.480559,0.395571521,-0.218534953,0.512579,0.367420854,-0.216260343,0.482875,0.387024628,-0.245300677,0.498801,0.403793819,-0.255531813,0.514544,0.417369927,-0.219400565,0.51313,0.394723527,-0.2233872,0.486503,0.383919612,-0.22952236,0.472879,0.375092888,-0.234920171,0.460499,0.448500827,-0.22890867,0.518257,0.419384977,-0.237372121,0.495356,0.428185491,-0.252548726,0.504588,0.439816787,-0.263810756,0.516228
