sluyters/QuantumLeap/backend/src/datasets/gesture/HandGestureDataset_SHREC2017_csv/Gesture4/finger_2/subject_27_essai_6_skeletons_world.csv
Wrist_x,Wrist_y,Wrist_z,Palm_x,Palm_y,Palm_z,thumb_base_x,thumb_base_y,thumb_base_z,thumb_first_joint_x,thumb_first_joint_y,thumb_first_joint_z,thumb_second_joint_x,thumb_second_joint_y,thumb_second_joint_z,thumb_tip_x,thumb_tip_y,thumb_tip_z,index_base_x,index_base_y,index_base_z,index_first_joint_x,index_first_joint_y,index_first_joint_z,index_second_joint_x,index_second_joint_y,index_second_joint_z,index_tip_x,index_tip_y,index_tip_z,middle_base_x,middle_base_y,middle_base_z,middle_first_joint_x,middle_first_joint_y,middle_first_joint_z,middle_second_joint_x,middle_second_joint_y,middle_second_joint_z,middle_tip_x,middle_tip_y,middle_tip_z,ring_base_x,ring_base_y,ring_base_z,ring_first_joint_x,ring_first_joint_y,ring_first_joint_z,ring_second_joint_x,ring_second_joint_y,ring_second_joint_z,ring_tip_x,ring_tip_y,ring_tip_z,pinky_base_x,pinky_base_y,pinky_base_z,pinky_first_joint_x,pinky_first_joint_y,pinky_first_joint_z,pinky_second_joint_x,pinky_second_joint_y,pinky_second_joint_z,pinky_tip_x,pinky_tip_y,pinky_tip_z,
0.403597733,-0.386130905,0.486689,0.387633776,-0.327076533,0.46161,0.382064818,-0.372470336,0.481591,0.351011814,-0.364617237,0.461185,0.309809675,-0.350484404,0.435567,0.287081288,-0.33451981,0.418712,0.338221171,-0.276350391,0.438085,0.320915949,-0.22855996,0.408039,0.307387256,-0.218543553,0.393016,0.309266123,-0.236837418,0.397292,0.364289132,-0.27721606,0.436847,0.335092727,-0.220625694,0.411936,0.319934308,-0.202392613,0.397405,0.326337663,-0.216775726,0.405728,0.385700679,-0.28070384,0.438067,0.364951714,-0.221500868,0.405081,0.353789327,-0.21358384,0.388205,0.356499483,-0.234833276,0.392952,0.41459253,-0.292975517,0.443561,0.407326385,-0.278731581,0.415015,0.404793842,-0.273398985,0.401898,0.408901468,-0.2889443,0.405909
0.401266838,-0.382163424,0.483728,0.386061394,-0.326574222,0.461589,0.381861328,-0.371494403,0.481703,0.344643977,-0.362764051,0.465733,0.310778264,-0.354537238,0.440443,0.286292943,-0.339485608,0.425426,0.341381904,-0.281498857,0.443947,0.321072259,-0.23140679,0.419924,0.312457983,-0.211481435,0.407913,0.319672461,-0.213527355,0.415393,0.36271328,-0.277826457,0.439731,0.337859845,-0.224662947,0.417834,0.321982509,-0.198760646,0.405061,0.330174634,-0.20522689,0.414268,0.381839018,-0.279049378,0.438237,0.358903547,-0.226132864,0.407294,0.349897755,-0.211994108,0.391462,0.359721066,-0.225403504,0.397348,0.40740196,-0.288107304,0.440061,0.410587251,-0.274797291,0.417128,0.413527374,-0.269405992,0.406591,0.425065715,-0.285127378,0.413231
0.401145144,-0.381130372,0.482095,0.39233584,-0.332345351,0.463646,0.383208316,-0.371992171,0.482145,0.348801615,-0.365451927,0.469468,0.310218774,-0.355390739,0.443964,0.284361801,-0.337773386,0.424273,0.360838264,-0.28746756,0.451134,0.337878763,-0.235411837,0.428808,0.326523094,-0.221164664,0.417646,0.328588461,-0.217800383,0.425243,0.380946885,-0.28524169,0.445429,0.363228094,-0.230387065,0.418271,0.352579177,-0.211575996,0.402429,0.360971784,-0.209481027,0.409347,0.398479261,-0.287714743,0.442381,0.38743754,-0.238941867,0.414007,0.381747828,-0.214070059,0.399489,0.37339635,-0.210149132,0.386356,0.422839474,-0.299852428,0.441779,0.427689996,-0.282250569,0.420076,0.431283159,-0.274817417,0.410105,0.439004733,-0.291142218,0.417452
0.398850643,-0.38234779,0.479971,0.391797742,-0.333831295,0.463781,0.382811613,-0.371824678,0.481694,0.349518896,-0.367555766,0.471686,0.309207252,-0.354812791,0.446625,0.28312736,-0.339106327,0.426976,0.36382656,-0.289059441,0.454921,0.342698023,-0.241067213,0.435178,0.33191257,-0.223711428,0.425306,0.322786765,-0.203986687,0.418494,0.382417736,-0.287801598,0.447796,0.367692289,-0.234616505,0.422605,0.357370973,-0.214613535,0.40791,0.365885178,-0.210299294,0.415472,0.397417929,-0.293572058,0.443377,0.389951058,-0.24118098,0.416518,0.390298761,-0.218298071,0.407095,0.384975437,-0.213617381,0.398528,0.417075074,-0.306876865,0.440794,0.424235412,-0.281047402,0.418871,0.42469287,-0.268428174,0.408798,0.430281827,-0.283762822,0.416033
0.398485907,-0.380741315,0.479719,0.388056851,-0.337188422,0.463967,0.381686761,-0.371786155,0.481139,0.339409158,-0.368404968,0.470975,0.299726055,-0.355488227,0.445494,0.276286656,-0.336148054,0.425803,0.362477266,-0.288757093,0.455022,0.340648583,-0.243495321,0.435798,0.329801737,-0.221882679,0.426186,0.320260169,-0.202925158,0.418074,0.38137808,-0.288422248,0.448413,0.367987731,-0.235172505,0.423675,0.357934665,-0.214790279,0.409244,0.366708225,-0.210006224,0.417132,0.396210342,-0.294058916,0.44438,0.390477997,-0.24245474,0.418304,0.395277196,-0.222060774,0.414024,0.396717341,-0.208409263,0.410133,0.416145715,-0.307753063,0.442181,0.415177676,-0.278294236,0.420555,0.417769683,-0.269222165,0.410618,0.424903596,-0.277949434,0.417914
0.398785615,-0.380684977,0.48014,0.387834977,-0.337951937,0.464611,0.381990501,-0.37171312,0.481921,0.341093826,-0.367577468,0.472075,0.303983786,-0.355044417,0.446777,0.279285387,-0.337315415,0.427049,0.363068634,-0.289385619,0.456274,0.341435253,-0.244449627,0.437158,0.331611257,-0.223582915,0.4276,0.320663099,-0.20346857,0.418911,0.381505999,-0.289405816,0.449279,0.368911749,-0.23594142,0.42474,0.358812383,-0.214815318,0.410425,0.367037189,-0.207567585,0.418313,0.396103814,-0.295088383,0.444907,0.39040613,-0.243281081,0.418781,0.394103097,-0.22225986,0.413108,0.394409784,-0.210505941,0.407951,0.415516035,-0.308901751,0.442274,0.420297162,-0.280689985,0.420744,0.422869887,-0.267528726,0.410851,0.430858021,-0.278658495,0.418214
0.399322819,-0.380861325,0.481046,0.388068117,-0.3368515,0.464859,0.382180529,-0.37151798,0.48274,0.341666021,-0.367334119,0.47269,0.30459585,-0.355426416,0.447601,0.279801126,-0.337736137,0.427951,0.362508909,-0.288919905,0.455965,0.340583464,-0.244027103,0.436367,0.329810123,-0.22272627,0.426569,0.319444597,-0.203054034,0.417661,0.38075798,-0.289249672,0.448877,0.367898276,-0.235652066,0.42369,0.357617883,-0.213653956,0.408998,0.36566789,-0.206159631,0.41657,0.395395355,-0.294971829,0.444488,0.389344564,-0.242786258,0.417831,0.392201294,-0.222157272,0.412126,0.393559733,-0.206827292,0.40694,0.414767378,-0.309028815,0.441941,0.415970701,-0.280515394,0.419693,0.416842673,-0.268186838,0.409471,0.428255178,-0.274672949,0.416498
0.399065618,-0.381123883,0.481146,0.386382574,-0.333576476,0.464047,0.381696268,-0.371493616,0.482865,0.342095316,-0.364677586,0.472748,0.305117016,-0.353660893,0.448104,0.280459723,-0.337829529,0.428621,0.359498013,-0.286715348,0.454561,0.336208943,-0.241886819,0.434299,0.325598082,-0.220796585,0.424169,0.315318238,-0.201577851,0.414959,0.376817806,-0.287468674,0.447163,0.368020809,-0.235840822,0.425234,0.359734801,-0.212635868,0.412443,0.353548211,-0.19580054,0.403306,0.392320433,-0.293318524,0.442601,0.383452834,-0.241946466,0.415113,0.383708369,-0.220294353,0.406612,0.383064424,-0.202418416,0.398884,0.411489515,-0.30754353,0.439997,0.41118943,-0.27759583,0.416745,0.412344233,-0.265514159,0.406062,0.422299727,-0.272424986,0.41262
0.394309166,-0.379857121,0.478661,0.380728616,-0.328620621,0.4601,0.377103068,-0.369055001,0.480141,0.33977151,-0.359282306,0.469529,0.304319709,-0.347581343,0.445383,0.282770906,-0.333369814,0.426128,0.35332117,-0.279441456,0.449317,0.329553026,-0.236909606,0.427853,0.317780446,-0.216070617,0.41712,0.31046139,-0.199179597,0.410199,0.369398962,-0.280862362,0.441773,0.360133333,-0.230168233,0.417693,0.348419316,-0.2065725,0.403647,0.337681152,-0.192058842,0.393614,0.38522025,-0.287364309,0.437221,0.381009252,-0.239679923,0.413959,0.376954266,-0.218205441,0.402057,0.372702986,-0.199834147,0.391237,0.404224623,-0.302448807,0.434866,0.402736791,-0.273359506,0.410228,0.400315328,-0.256906229,0.398909,0.403875744,-0.266316881,0.404739
0.392711134,-0.37842609,0.476016,0.378302535,-0.325105482,0.456818,0.374664012,-0.366394136,0.476348,0.344475862,-0.356119388,0.463999,0.307924481,-0.336615377,0.439102,0.288404506,-0.319834432,0.419902,0.349150554,-0.275687816,0.444153,0.324209967,-0.232496449,0.422018,0.312528324,-0.213334701,0.41095,0.299927691,-0.195964806,0.400889,0.365591675,-0.276184815,0.437863,0.353864476,-0.22070497,0.413869,0.341966806,-0.204815238,0.399873,0.332641106,-0.192761052,0.389876,0.382408251,-0.278004998,0.4344,0.369428568,-0.232103397,0.405969,0.359658332,-0.213380636,0.391424,0.350864992,-0.196089412,0.3782,0.406655054,-0.292765887,0.433429,0.393406639,-0.266419827,0.408991,0.387534237,-0.254095448,0.397762,0.388223711,-0.267716191,0.403472
0.396375341,-0.383264151,0.480637,0.381263168,-0.32449549,0.456882,0.373663974,-0.366348238,0.475297,0.339136428,-0.347729021,0.454695,0.30322624,-0.322230319,0.428386,0.283087171,-0.30155525,0.409525,0.340158362,-0.267623297,0.433954,0.305851631,-0.227459174,0.407,0.290561244,-0.213214635,0.393523,0.276546943,-0.200116963,0.381271,0.363505324,-0.269469096,0.433427,0.333501708,-0.21375195,0.401954,0.31749158,-0.199619707,0.383594,0.306356427,-0.19366043,0.37048,0.384517292,-0.272936472,0.435114,0.360763893,-0.229484373,0.403695,0.348386691,-0.215572287,0.38762,0.336958923,-0.207079931,0.373007,0.413773509,-0.288826087,0.440944,0.385896223,-0.268990964,0.412578,0.373065522,-0.259855074,0.399546,0.376005939,-0.262092266,0.403378
0.389847213,-0.377965136,0.472644,0.379136742,-0.321582596,0.454499,0.36897186,-0.362212522,0.46933,0.338671707,-0.343251327,0.452082,0.306739224,-0.324146854,0.433835,0.289826618,-0.306343654,0.419689,0.341394084,-0.267600056,0.437952,0.311753942,-0.231244781,0.415694,0.298141537,-0.218077574,0.404564,0.28558774,-0.205869927,0.394447,0.364858288,-0.26798244,0.436584,0.33991734,-0.216301061,0.410579,0.326594709,-0.203586419,0.395409,0.317592172,-0.200941073,0.384573,0.385605095,-0.272932015,0.437078,0.366440984,-0.232283598,0.410961,0.356503744,-0.219659024,0.397598,0.347345838,-0.212371147,0.385451,0.412823413,-0.287306674,0.440596,0.389328827,-0.270322312,0.416908,0.378499004,-0.262477462,0.406024,0.383645261,-0.266092964,0.412258
0.395975571,-0.384261362,0.481227,0.381289717,-0.322774765,0.457244,0.372523715,-0.366003521,0.475098,0.353721392,-0.339913929,0.453453,0.32257472,-0.310279333,0.426886,0.306838784,-0.286969715,0.41408,0.338298906,-0.265656743,0.433165,0.305135969,-0.228948655,0.405482,0.288896296,-0.212086161,0.39164,0.279561006,-0.216573362,0.379057,0.362801971,-0.267828348,0.433563,0.332694265,-0.211367666,0.401718,0.316478104,-0.196675549,0.383142,0.30540526,-0.193265469,0.369874,0.384636206,-0.272677463,0.436032,0.360323288,-0.229227716,0.404381,0.347752216,-0.215399086,0.388187,0.336192418,-0.207079087,0.373465,0.414730311,-0.289054341,0.44282,0.386323166,-0.268032489,0.413937,0.373256891,-0.258570734,0.400667,0.375989341,-0.260447521,0.404315
0.396480482,-0.383848179,0.481814,0.381934802,-0.323147287,0.458172,0.373142628,-0.366265071,0.476165,0.35260083,-0.340313472,0.455174,0.317157276,-0.309341039,0.430131,0.300398883,-0.285818766,0.417902,0.339645201,-0.267266609,0.434931,0.305412901,-0.22602001,0.407811,0.290624136,-0.213603468,0.39425,0.282196762,-0.219672556,0.381923,0.363492318,-0.268602664,0.434827,0.333163527,-0.210893742,0.403383,0.316918041,-0.194982118,0.385041,0.30627839,-0.19528399,0.371939,0.385026052,-0.273416697,0.436853,0.352108495,-0.231012199,0.406451,0.338267287,-0.223617642,0.390896,0.327908998,-0.228716544,0.376756,0.414625285,-0.289260744,0.443064,0.386755609,-0.268169739,0.414623,0.373937499,-0.258754702,0.401556,0.376907354,-0.260673102,0.405403
0.396682142,-0.382425042,0.481278,0.38153633,-0.325677285,0.459563,0.372501709,-0.364771943,0.474928,0.34770624,-0.338304001,0.453277,0.315271119,-0.308291604,0.428413,0.299485627,-0.285619283,0.417208,0.333515049,-0.27133619,0.436754,0.305737057,-0.226901429,0.40969,0.291465831,-0.216295941,0.396159,0.282613168,-0.222179788,0.383857,0.361897702,-0.271237809,0.438123,0.327633442,-0.21605965,0.408246,0.310130655,-0.194767127,0.390817,0.300338342,-0.197670265,0.378369,0.385047662,-0.276902069,0.441189,0.355593438,-0.233947191,0.41153,0.342353935,-0.226764306,0.396356,0.33191731,-0.232311276,0.382561,0.417774456,-0.292214368,0.448312,0.37502275,-0.25367951,0.420812,0.358150424,-0.238681937,0.408177,0.343803869,-0.226965254,0.397028
0.398537091,-0.383432941,0.484028,0.373068909,-0.321609652,0.463111,0.373545502,-0.365788335,0.477241,0.34045702,-0.329211445,0.455154,0.316466577,-0.297388687,0.431759,0.306699327,-0.273470063,0.417664,0.328740824,-0.266183804,0.440293,0.293590897,-0.225801436,0.413966,0.283349818,-0.225872742,0.400802,0.278862213,-0.233981927,0.388834,0.354651582,-0.267683683,0.442459,0.324914728,-0.213697564,0.413224,0.308974522,-0.201665975,0.39617,0.300365564,-0.210003149,0.383988,0.378119617,-0.273715583,0.44611,0.343893436,-0.234721303,0.417073,0.333154784,-0.236693502,0.402218,0.327240651,-0.247856221,0.388712,0.409682477,-0.289811433,0.453791,0.372250638,-0.255381796,0.42664,0.356367483,-0.242927132,0.414164,0.345903365,-0.231650475,0.403157
0.400089747,-0.384547221,0.486877,0.372742187,-0.323337016,0.465743,0.37511181,-0.367702999,0.480687,0.340954087,-0.331967736,0.459314,0.31277334,-0.300176289,0.439604,0.301757901,-0.276183004,0.427585,0.328956525,-0.268253357,0.44353,0.293669077,-0.227970534,0.417434,0.283248225,-0.228117577,0.404387,0.278716318,-0.236311629,0.392525,0.354186349,-0.269284865,0.444875,0.32420115,-0.215267388,0.41555,0.307871645,-0.203219704,0.398443,0.299103783,-0.211515458,0.386224,0.377057272,-0.274937899,0.44787,0.340666317,-0.240716451,0.419017,0.330253805,-0.244991985,0.404255,0.324666904,-0.256683036,0.390834,0.407886389,-0.29058315,0.454815,0.370188168,-0.256251294,0.427772,0.354137739,-0.243838353,0.415347,0.340296717,-0.233781435,0.404384
0.399222415,-0.383780287,0.486799,0.372242062,-0.323655772,0.466243,0.373920127,-0.367319051,0.480596,0.340174773,-0.331481007,0.459287,0.313310409,-0.299333545,0.439897,0.302770522,-0.275424243,0.428403,0.32870624,-0.268876221,0.444406,0.29357285,-0.228865045,0.418742,0.281386067,-0.229335409,0.40591,0.278825782,-0.237466327,0.394244,0.354069632,-0.269988789,0.445946,0.324346667,-0.216237833,0.417139,0.30609352,-0.204630817,0.400336,0.299506788,-0.212801637,0.388333,0.377034023,-0.275678229,0.449048,0.34165479,-0.241637287,0.420628,0.33176505,-0.246826313,0.406087,0.326664888,-0.258876926,0.392868,0.407922907,-0.291317686,0.456027,0.368104531,-0.255753691,0.429366,0.351848616,-0.242674294,0.417117,0.33779974,-0.232001207,0.406308
0.400092752,-0.383941128,0.488319,0.372629807,-0.323814789,0.467609,0.370280591,-0.366319711,0.481996,0.337309157,-0.329382401,0.460514,0.309321563,-0.296351143,0.443914,0.301040763,-0.273514227,0.430709,0.327584444,-0.268692667,0.445516,0.292131557,-0.228677924,0.419704,0.281568198,-0.228885156,0.406798,0.278607506,-0.237271064,0.395065,0.352949566,-0.269829503,0.44716,0.322919004,-0.216076873,0.418193,0.306371454,-0.204144082,0.401295,0.299337646,-0.212609487,0.389226,0.375952476,-0.275541711,0.450363,0.342126015,-0.241252115,0.421754,0.332271168,-0.246650511,0.407117,0.327217127,-0.258758009,0.393811,0.40694108,-0.291219231,0.457484,0.368280822,-0.253344981,0.430668,0.351804052,-0.239426192,0.418347,0.337553123,-0.227991276,0.407476
0.393598068,-0.38380486,0.493196,0.372267352,-0.324486101,0.470688,0.367660392,-0.367931119,0.486983,0.336764203,-0.32968214,0.465402,0.310570981,-0.29805701,0.44772,0.299463454,-0.274189842,0.437101,0.326518793,-0.266420859,0.447509,0.292662428,-0.228578379,0.420661,0.279398812,-0.226244433,0.407236,0.27251443,-0.234592643,0.395032,0.351090715,-0.267505284,0.448464,0.322436746,-0.21656513,0.417904,0.302118319,-0.21931138,0.400077,0.290058164,-0.230030632,0.387344,0.373570917,-0.273272644,0.451259,0.339840976,-0.240871135,0.421354,0.321552787,-0.244886295,0.406054,0.313069659,-0.25741046,0.392144,0.404198457,-0.289230168,0.458192,0.365494405,-0.249919787,0.430228,0.348657253,-0.236242924,0.41738,0.334924912,-0.226094148,0.406043
0.393347541,-0.383958845,0.494516,0.370118028,-0.322169538,0.471601,0.367581163,-0.367909441,0.48837,0.337238973,-0.330064588,0.466823,0.31159258,-0.298663669,0.448966,0.300573573,-0.27478366,0.438417,0.326617858,-0.265860788,0.448228,0.292606932,-0.229235341,0.421178,0.277171949,-0.227882535,0.407653,0.268396315,-0.236644032,0.395358,0.350856109,-0.267095284,0.448974,0.32229527,-0.216971765,0.418066,0.301327028,-0.218655998,0.400036,0.288928135,-0.229241224,0.387157,0.373089656,-0.273017771,0.451635,0.336476789,-0.243609027,0.421465,0.320655546,-0.251605284,0.406029,0.31247828,-0.260324451,0.391996,0.40346603,-0.289232912,0.458475,0.362116849,-0.249006025,0.430274,0.344503949,-0.234839755,0.417317,0.329006197,-0.222839107,0.405884
0.393058544,-0.383962044,0.495323,0.3700294,-0.322157854,0.472138,0.367334541,-0.367703805,0.489109,0.33741178,-0.330192507,0.467445,0.311937131,-0.29880694,0.449349,0.300930958,-0.274898959,0.438786,0.326601334,-0.265527975,0.448496,0.292368424,-0.229515901,0.421233,0.27683254,-0.228649279,0.407602,0.26806999,-0.237373166,0.395209,0.350752534,-0.266900905,0.449246,0.322131675,-0.217197515,0.418085,0.30097749,-0.218375363,0.399908,0.288424764,-0.228877467,0.386924,0.372939011,-0.272956166,0.451932,0.3364235,-0.244288867,0.42152,0.320601844,-0.251563146,0.405961,0.31217823,-0.261201077,0.391816,0.403300619,-0.28937888,0.458846,0.361752818,-0.249329489,0.43044,0.343807079,-0.234783672,0.417388,0.328033171,-0.222509267,0.405872
0.39280513,-0.383928857,0.495883,0.370010364,-0.322180584,0.472504,0.367112666,-0.367512631,0.489614,0.337542571,-0.330295744,0.467856,0.312144083,-0.298892927,0.449579,0.301136956,-0.274960273,0.438995,0.326593989,-0.265330699,0.44866,0.292174992,-0.229698139,0.421239,0.276629915,-0.229005444,0.407528,0.267858399,-0.237694549,0.395063,0.350699713,-0.266791397,0.449421,0.321998648,-0.217348437,0.418078,0.300765989,-0.218208384,0.399795,0.288120013,-0.228653468,0.386736,0.372868176,-0.272933525,0.452134,0.336394821,-0.244627511,0.421545,0.320548932,-0.251521628,0.405894,0.311981465,-0.261598329,0.391667,0.40323811,-0.289493097,0.459111,0.361595852,-0.249508686,0.430553,0.343465874,-0.234760455,0.417432,0.327538589,-0.222338609,0.405855
0.392592912,-0.383888403,0.4963,0.370017945,-0.322213376,0.472774,0.366925387,-0.367349175,0.489987,0.337649872,-0.330384219,0.468158,0.312289453,-0.298957273,0.449743,0.301280972,-0.275007146,0.439144,0.32659331,-0.265202768,0.448775,0.292021957,-0.229828522,0.421232,0.276492312,-0.229205819,0.40746,0.267707467,-0.237865918,0.39494,0.350670262,-0.266722829,0.449545,0.321891215,-0.217456755,0.418063,0.300617913,-0.21809286,0.399699,0.28790655,-0.228494785,0.386582,0.372829437,-0.272924655,0.452279,0.336372824,-0.244827281,0.421554,0.320501548,-0.251484447,0.405834,0.311836773,-0.261813583,0.391544,0.403210533,-0.289579496,0.459304,0.361511011,-0.249622708,0.430632,0.3432609,-0.234746284,0.417458,0.327233442,-0.222230396,0.405834
0.392415294,-0.383848418,0.496624,0.370034347,-0.322246409,0.472981,0.36676857,-0.367211454,0.490276,0.337738206,-0.330458868,0.46839,0.312398786,-0.299008472,0.449868,0.301388385,-0.275044735,0.439257,0.326594229,-0.265112554,0.448859,0.291899106,-0.229926884,0.421221,0.276391332,-0.229331683,0.407401,0.267593324,-0.237968042,0.394838,0.350651959,-0.266675892,0.449637,0.321804222,-0.217538866,0.418047,0.300507211,-0.218007136,0.399619,0.287747692,-0.228375829,0.386457,0.372806196,-0.272921556,0.452388,0.336355735,-0.244958751,0.421557,0.320460481,-0.251452224,0.405782,0.311724401,-0.261943441,0.391442,0.403200467,-0.289648224,0.459453,0.361458896,-0.249701829,0.43069,0.343123206,-0.23473613,0.417474,0.327025268,-0.222155002,0.405814
0.391739552,-0.383736779,0.497464,0.370338921,-0.322525706,0.47351,0.366138591,-0.366888213,0.491021,0.338103608,-0.330807521,0.468979,0.31262402,-0.299183912,0.450168,0.3015988,-0.275191369,0.439531,0.326692421,-0.265124101,0.449056,0.291764678,-0.229977053,0.42116,0.276219601,-0.229338854,0.407212,0.267353818,-0.237900352,0.394532,0.350758291,-0.26673204,0.44986,0.321690561,-0.217574845,0.417977,0.300290651,-0.217846176,0.399379,0.287431205,-0.228129729,0.386095,0.372944684,-0.273033392,0.452659,0.336328297,-0.245041539,0.42154,0.320331755,-0.251351218,0.405619,0.311465661,-0.261885984,0.391145,0.403426441,-0.28986756,0.459831,0.361500164,-0.249812637,0.430825,0.343035176,-0.234735918,0.417498,0.32682775,-0.222067951,0.405739
0.390502302,-0.382719478,0.497266,0.369863457,-0.322102432,0.473241,0.365569979,-0.366075184,0.491402,0.338040902,-0.331031015,0.470094,0.313493974,-0.300370663,0.450847,0.303311958,-0.277027637,0.440451,0.326645181,-0.264512533,0.44947,0.291850192,-0.230241871,0.42196,0.27598161,-0.230392093,0.408205,0.267117157,-0.239311802,0.3957,0.349883185,-0.265933644,0.44952,0.320311741,-0.213145888,0.417696,0.294524821,-0.2119587,0.399132,0.286121752,-0.226992267,0.385872,0.371362732,-0.272086164,0.451707,0.330836901,-0.253688491,0.420891,0.309247937,-0.249313791,0.405124,0.289785543,-0.25997907,0.390791,0.400967266,-0.28875409,0.458169,0.353893401,-0.244569296,0.429383,0.333554565,-0.229729629,0.416157,0.316132997,-0.219989878,0.404487
0.389618881,-0.382048678,0.497517,0.369772507,-0.32201581,0.473396,0.365021394,-0.365263709,0.491799,0.338123924,-0.331279269,0.470669,0.313703104,-0.300998173,0.450984,0.302878856,-0.27741819,0.440984,0.326864665,-0.264420095,0.449742,0.291673767,-0.230219765,0.422283,0.275731061,-0.230447442,0.408554,0.266745301,-0.23954082,0.396073,0.349839767,-0.265805434,0.44958,0.319869753,-0.212898198,0.417703,0.294507111,-0.211945954,0.399108,0.285444146,-0.226358396,0.385826,0.371105661,-0.271935915,0.451599,0.33076773,-0.25363545,0.420803,0.30918916,-0.249266405,0.405047,0.28973586,-0.259934498,0.390724,0.400466841,-0.288599072,0.457881,0.353661804,-0.244409243,0.429102,0.333331744,-0.229576166,0.415879,0.315918066,-0.219840312,0.404212
0.388822333,-0.38168315,0.497744,0.369165396,-0.321602971,0.473542,0.364503403,-0.364696633,0.492096,0.338133945,-0.331422794,0.471051,0.31373487,-0.301458909,0.450971,0.302813349,-0.277871022,0.44094,0.327013671,-0.26432462,0.449923,0.291500739,-0.230419829,0.422471,0.27548216,-0.230445166,0.408745,0.266391824,-0.23966022,0.396266,0.349819809,-0.265714056,0.449647,0.318983056,-0.212401233,0.417716,0.294493829,-0.211936396,0.39909,0.284915842,-0.225864648,0.385786,0.370955254,-0.271856261,0.45158,0.330741791,-0.253615559,0.42077,0.309158626,-0.249241789,0.405007,0.289701008,-0.25990323,0.390677,0.40017238,-0.288551582,0.457772,0.353557956,-0.244337476,0.428976,0.333225143,-0.229502746,0.415746,0.315808647,-0.21976417,0.404072
0.388431035,-0.381395426,0.497706,0.368945005,-0.321337657,0.473534,0.364331327,-0.364321321,0.492147,0.337930488,-0.331315667,0.471219,0.313735853,-0.301759265,0.450847,0.30285555,-0.278267173,0.440398,0.327162858,-0.264017852,0.450047,0.291307722,-0.230691171,0.422679,0.275348675,-0.23049818,0.408995,0.266200196,-0.239837133,0.396555,0.349756978,-0.265470903,0.449668,0.31903422,-0.212435301,0.417783,0.294562455,-0.211985783,0.399183,0.284600557,-0.225554929,0.385898,0.370721244,-0.27167038,0.451514,0.330750437,-0.25362219,0.420781,0.309197557,-0.249273174,0.405058,0.28976478,-0.259960443,0.390763,0.399730257,-0.288449717,0.457598,0.353465646,-0.244273683,0.428864,0.333157015,-0.229455824,0.415661,0.315761753,-0.219731537,0.404012
0.388016715,-0.381050024,0.497477,0.368690827,-0.321098171,0.473416,0.364139081,-0.363973591,0.492052,0.337652825,-0.331228698,0.471309,0.313709596,-0.302183594,0.450621,0.302710144,-0.278697966,0.440002,0.327270736,-0.263852726,0.450173,0.291340788,-0.230634478,0.422972,0.275149196,-0.230578307,0.409371,0.265925974,-0.240113709,0.397007,0.349654982,-0.265311588,0.449659,0.319123565,-0.212494794,0.4179,0.294703396,-0.212087214,0.399374,0.284184228,-0.225135381,0.386141,0.370441895,-0.271513909,0.451384,0.330778734,-0.253643888,0.420817,0.309288423,-0.249346407,0.405177,0.289910862,-0.2600915,0.39096,0.399226246,-0.288298209,0.457309,0.353337073,-0.244184828,0.428708,0.333082474,-0.229404486,0.415568,0.315731272,-0.219710326,0.403973
0.387312713,-0.3799016,0.496622,0.368407861,-0.320396748,0.473041,0.363440058,-0.362619158,0.491013,0.336722094,-0.329788907,0.470081,0.318729871,-0.300424459,0.448255,0.302102207,-0.279354574,0.436305,0.327226481,-0.263192468,0.449894,0.293079368,-0.231101717,0.422841,0.277582861,-0.231460049,0.409315,0.265507919,-0.240355542,0.397018,0.349783724,-0.264954301,0.449759,0.319444665,-0.21280657,0.418378,0.295166235,-0.212503064,0.400072,0.281611011,-0.222773257,0.386997,0.370722721,-0.271389768,0.451753,0.331517087,-0.253644078,0.421421,0.310181086,-0.249217404,0.405903,0.290784329,-0.25999008,0.391795,0.399663219,-0.288432901,0.457916,0.354269073,-0.244254947,0.429534,0.334047119,-0.229125599,0.416493,0.317300535,-0.211740335,0.404987
0.387324713,-0.379456402,0.496685,0.368434074,-0.319964583,0.473063,0.363607558,-0.362131321,0.491145,0.336827284,-0.329365679,0.470299,0.318738403,-0.300432501,0.448267,0.303079066,-0.279107645,0.436373,0.327443873,-0.26274351,0.449975,0.294137885,-0.230613944,0.42295,0.277864239,-0.231780085,0.409437,0.265174505,-0.240671479,0.397153,0.349819929,-0.264526687,0.44974,0.319382703,-0.212835405,0.418338,0.295091217,-0.212508333,0.400021,0.281386404,-0.222682486,0.386936,0.370621088,-0.270984963,0.451656,0.331639249,-0.253333699,0.421337,0.31036404,-0.248758854,0.405826,0.290913512,-0.259473069,0.391724,0.399410382,-0.28806909,0.457733,0.354302447,-0.243868412,0.429357,0.334067567,-0.228467368,0.41632,0.317166559,-0.211650931,0.404816
0.387398338,-0.379071488,0.496827,0.368485991,-0.319554603,0.473118,0.363851298,-0.361719738,0.49138,0.3370249,-0.329032911,0.470646,0.3188991,-0.300583969,0.448493,0.304029936,-0.279122401,0.436737,0.327683737,-0.262312916,0.450087,0.295211855,-0.230137158,0.42308,0.278157364,-0.232109657,0.409577,0.26485134,-0.240994436,0.397301,0.349846046,-0.264091355,0.449708,0.319292664,-0.212828088,0.418251,0.294974626,-0.212468884,0.399901,0.281147555,-0.22255893,0.386794,0.370480869,-0.270551665,0.451512,0.331663859,-0.253049886,0.421189,0.310429067,-0.248357303,0.405674,0.290935669,-0.259018376,0.39157,0.399090161,-0.287656425,0.457473,0.354213263,-0.243500219,0.429086,0.333965325,-0.227894235,0.416044,0.3169464,-0.211504015,0.404535
