sluyters/QuantumLeap/backend/src/datasets/dynamic/HandGestureDataset_SHREC2017_csv/Gesture5/finger_2/subject_5_essai_4_skeletons_world.csv
Wrist_x,Wrist_y,Wrist_z,Palm_x,Palm_y,Palm_z,thumb_base_x,thumb_base_y,thumb_base_z,thumb_first_joint_x,thumb_first_joint_y,thumb_first_joint_z,thumb_second_joint_x,thumb_second_joint_y,thumb_second_joint_z,thumb_tip_x,thumb_tip_y,thumb_tip_z,index_base_x,index_base_y,index_base_z,index_first_joint_x,index_first_joint_y,index_first_joint_z,index_second_joint_x,index_second_joint_y,index_second_joint_z,index_tip_x,index_tip_y,index_tip_z,middle_base_x,middle_base_y,middle_base_z,middle_first_joint_x,middle_first_joint_y,middle_first_joint_z,middle_second_joint_x,middle_second_joint_y,middle_second_joint_z,middle_tip_x,middle_tip_y,middle_tip_z,ring_base_x,ring_base_y,ring_base_z,ring_first_joint_x,ring_first_joint_y,ring_first_joint_z,ring_second_joint_x,ring_second_joint_y,ring_second_joint_z,ring_tip_x,ring_tip_y,ring_tip_z,pinky_base_x,pinky_base_y,pinky_base_z,pinky_first_joint_x,pinky_first_joint_y,pinky_first_joint_z,pinky_second_joint_x,pinky_second_joint_y,pinky_second_joint_z,pinky_tip_x,pinky_tip_y,pinky_tip_z,
0.52699634,-0.39830212,0.560633,0.53725592,-0.36288489,0.570828,0.51279576,-0.38762136,0.564903,0.49589424,-0.36052393,0.563755,0.47423406,-0.33330864,0.552725,0.47241982,-0.31885981,0.55997,0.5263425,-0.32774664,0.582405,0.52367306,-0.29188891,0.585521,0.52298989,-0.27448384,0.587079,0.52231365,-0.25818068,0.588495,0.54704533,-0.32916465,0.580557,0.54792114,-0.28962553,0.58409,0.54937463,-0.26683796,0.586152,0.55082063,-0.25129517,0.587624,0.56340503,-0.33251629,0.578366,0.56610712,-0.296344,0.581725,0.56888449,-0.27834261,0.583444,0.57406576,-0.26337927,0.587837,0.58129972,-0.34271249,0.57445,0.59466712,-0.31559048,0.585479,0.6025569,-0.30365849,0.590546,0.61119552,-0.29367535,0.596828
0.53574301,-0.40475178,0.569766,0.53937062,-0.36424504,0.573,0.5174818,-0.39107857,0.569884,0.49768789,-0.36296273,0.56178,0.46846673,-0.32888239,0.539975,0.46155039,-0.31066328,0.539618,0.51983431,-0.32381703,0.575165,0.51069238,-0.28448884,0.570849,0.50683728,-0.26581586,0.568691,0.50330308,-0.24857193,0.566729,0.54281927,-0.32654144,0.576086,0.54283166,-0.2871449,0.57882,0.54379976,-0.26433563,0.580415,0.54494143,-0.24890662,0.581555,0.56170652,-0.33138582,0.576631,0.55843535,-0.29164188,0.572538,0.56152867,-0.27357679,0.570444,0.56272908,-0.26213708,0.56854,0.58416495,-0.34230083,0.57687,0.58247719,-0.30817592,0.573258,0.58471283,-0.29497422,0.571598,0.58686262,-0.28370962,0.570133
0.53785876,-0.4061917,0.572014,0.53857224,-0.36355774,0.572143,0.51826753,-0.39152995,0.570707,0.49875447,-0.36221366,0.56017,0.47589247,-0.32747448,0.533841,0.46547046,-0.30408447,0.523156,0.51575228,-0.32106216,0.570632,0.50387564,-0.28040191,0.563104,0.49985455,-0.26071436,0.55934,0.49602811,-0.25054525,0.555919,0.53923615,-0.32416171,0.572267,0.53955372,-0.28511075,0.575338,0.54183866,-0.26341358,0.577129,0.54393795,-0.24990407,0.578409,0.55876259,-0.32942695,0.573604,0.55399855,-0.28807469,0.566335,0.55404049,-0.27130768,0.562615,0.55400568,-0.25970088,0.559234,0.5824302,-0.34108316,0.575186,0.5783705,-0.303817,0.567271,0.57821775,-0.29471547,0.563634,0.57819514,-0.28645942,0.560425
0.5364021,-0.40466896,0.570337,0.53776554,-0.36261094,0.571149,0.51820208,-0.39107339,0.570464,0.50121711,-0.36273628,0.561927,0.4771564,-0.32728205,0.535743,0.46613496,-0.30343892,0.524187,0.51695339,-0.3213514,0.571811,0.50638823,-0.28129764,0.56575,0.50203378,-0.26273619,0.562719,0.49850386,-0.24623786,0.559964,0.53905118,-0.32358169,0.571924,0.53821026,-0.2835989,0.573614,0.54017099,-0.26142184,0.5746,0.54290768,-0.24832855,0.575305,0.55743296,-0.32774279,0.571963,0.55392341,-0.28714205,0.565844,0.55456104,-0.27125902,0.562713,0.55510859,-0.26000636,0.559867,0.5794137,-0.33825766,0.571908,0.57647003,-0.30343169,0.565016,0.57668618,-0.30054101,0.56185,0.5766367,-0.2981125,0.559056
0.54345723,-0.41024713,0.578432,0.53865715,-0.36310095,0.572191,0.52036595,-0.39268224,0.573237,0.4972061,-0.35832275,0.556687,0.47109308,-0.32155623,0.534895,0.46248677,-0.29960435,0.523879,0.50953549,-0.31294259,0.561959,0.50512043,-0.27579013,0.562171,0.51194356,-0.26869772,0.562277,0.51573475,-0.27977739,0.562373,0.53417268,-0.31981954,0.566235,0.53312125,-0.27949457,0.56704,0.53913559,-0.25595929,0.567509,0.54719632,-0.25259546,0.567844,0.555802,-0.32696756,0.570164,0.54773158,-0.28176447,0.556666,0.55154497,-0.26758309,0.54976,0.55122129,-0.25348251,0.543482,0.58307641,-0.34110114,0.575654,0.57588644,-0.3041385,0.562204,0.57359522,-0.29771759,0.556025,0.57169134,-0.29302579,0.550572
0.53341255,-0.40286151,0.568204,0.53658949,-0.36167243,0.570176,0.51410342,-0.38800816,0.566674,0.49675576,-0.35757183,0.5562,0.46876667,-0.31996705,0.532234,0.4597317,-0.29770889,0.521941,0.51617234,-0.31687211,0.569544,0.51953497,-0.28034956,0.572508,0.52572528,-0.26174282,0.57399,0.53166256,-0.24975899,0.575337,0.53978059,-0.32244827,0.572058,0.53541775,-0.27988782,0.568595,0.53922987,-0.25529361,0.566574,0.54470297,-0.2513836,0.565131,0.55973635,-0.32861171,0.573997,0.55437293,-0.28992098,0.573211,0.55106628,-0.26809888,0.57281,0.55733308,-0.25563183,0.572444,0.5835885,-0.34080637,0.576063,0.56944408,-0.30344293,0.569278,0.568435,-0.29261459,0.56616,0.56760725,-0.28279361,0.56341
0.53997886,-0.40812342,0.575895,0.53812425,-0.36260591,0.571919,0.51784519,-0.39083789,0.571275,0.49705104,-0.35639018,0.555824,0.46982991,-0.32047228,0.533352,0.45886538,-0.29666168,0.52324,0.51147964,-0.3132652,0.563804,0.5074987,-0.26805501,0.552036,0.5065113,-0.2528385,0.546152,0.50587553,-0.24044876,0.540802,0.53679673,-0.31975269,0.568125,0.53564825,-0.27719997,0.566328,0.54075713,-0.25435923,0.565279,0.54495255,-0.25180858,0.56453,0.55810425,-0.32733786,0.571942,0.56052085,-0.28259257,0.560102,0.55903653,-0.28352032,0.554044,0.55041816,-0.29779272,0.548537,0.58449875,-0.34200264,0.57701,0.59610733,-0.30801746,0.567427,0.59689412,-0.30589694,0.563025,0.58983617,-0.31321714,0.55914
0.53139549,-0.40153859,0.567756,0.53267701,-0.35656877,0.566133,0.51111161,-0.38519795,0.564506,0.49235884,-0.34914571,0.551179,0.47031501,-0.31916012,0.53324,0.46249047,-0.29734536,0.52685,0.51593893,-0.30467596,0.561157,0.51915671,-0.26407588,0.552227,0.52101346,-0.24972919,0.547762,0.52241351,-0.2395741,0.543703,0.53816491,-0.31406397,0.564583,0.55051168,-0.2716526,0.563292,0.55887955,-0.2510135,0.562539,0.56240324,-0.25052745,0.562001,0.55724429,-0.32302557,0.567509,0.57158111,-0.28217384,0.558488,0.57500371,-0.27457719,0.553873,0.56874579,-0.28457629,0.549713,0.57959464,-0.33803536,0.571213,0.57551809,-0.30310886,0.561428,0.57425217,-0.28936773,0.556933,0.57446638,-0.28281814,0.555666
0.53835867,-0.40752762,0.577301,0.53534186,-0.36002118,0.569309,0.51720851,-0.38969853,0.572683,0.49725678,-0.35466982,0.556577,0.47222405,-0.32066794,0.534135,0.46259318,-0.29815223,0.524154,0.51985443,-0.30839451,0.558685,0.5109683,-0.26165522,0.544014,0.50915693,-0.24599198,0.536679,0.50486045,-0.24490554,0.530011,0.54308337,-0.31790511,0.561682,0.53916687,-0.26989871,0.546417,0.53714818,-0.26350504,0.537512,0.52993351,-0.2744594,0.531152,0.5618255,-0.32865731,0.564674,0.56133983,-0.28411634,0.550094,0.56260442,-0.27121398,0.542634,0.55511481,-0.27924171,0.535853,0.583405,-0.34718873,0.569266,0.57116892,-0.30363187,0.554912,0.56936081,-0.30608759,0.548316,0.56710773,-0.30656635,0.542497
0.53708905,-0.40581708,0.576314,0.54593012,-0.35772087,0.567,0.52112334,-0.39001381,0.576107,0.510391,-0.35327009,0.565739,0.48790756,-0.32453418,0.545068,0.47337624,-0.30250991,0.530894,0.53510481,-0.30800896,0.560926,0.53470219,-0.26626553,0.552086,0.53082049,-0.24886578,0.547666,0.52002927,-0.24977125,0.543648,0.55235205,-0.31576991,0.558112,0.54983264,-0.26819182,0.542622,0.53521498,-0.26041814,0.533587,0.52515954,-0.27020943,0.527133,0.56638072,-0.32519594,0.556409,0.56678724,-0.28095228,0.542473,0.55664994,-0.26788275,0.535343,0.54754194,-0.27502481,0.528862,0.5826024,-0.34236293,0.555558,0.57260868,-0.3007961,0.542293,0.56343965,-0.29957653,0.536198,0.55508864,-0.29926976,0.53082
0.54268057,-0.40835078,0.581757,0.54516482,-0.35562995,0.56389,0.53040044,-0.38491245,0.58171,0.51847057,-0.3501906,0.571099,0.49625385,-0.32337865,0.553195,0.48596036,-0.30367707,0.540426,0.53993445,-0.30284349,0.552664,0.54351972,-0.26186505,0.541666,0.53863718,-0.24444043,0.536167,0.5249853,-0.24321127,0.531168,0.55093222,-0.31234614,0.54684,0.55003294,-0.26489849,0.526362,0.52985696,-0.2545494,0.514417,0.50783279,-0.26081577,0.50763,0.55996357,-0.32331719,0.543223,0.55811333,-0.27942197,0.523624,0.54384603,-0.26801083,0.513597,0.52247903,-0.27266463,0.504481,0.57053836,-0.34253205,0.541173,0.56150803,-0.29960596,0.523315,0.54622657,-0.29685571,0.51511,0.53266696,-0.29445251,0.507871
0.54036187,-0.40575753,0.579748,0.54537415,-0.35553924,0.563599,0.53144602,-0.38363904,0.581472,0.51961488,-0.35045691,0.573599,0.49828292,-0.3216887,0.560629,0.49002821,-0.30148678,0.547545,0.5431535,-0.30466259,0.555607,0.5492168,-0.26452402,0.541068,0.53428512,-0.25636074,0.533799,0.51523174,-0.26298707,0.52719,0.55213585,-0.31339764,0.548189,0.55133314,-0.26596244,0.52775,0.53045132,-0.25497513,0.515828,0.52374923,-0.2688325,0.523116,0.55932717,-0.32363481,0.543148,0.55848801,-0.27977783,0.526853,0.54383017,-0.26160487,0.518515,0.52738736,-0.26406801,0.510936,0.56738296,-0.34176348,0.539177,0.56129818,-0.30009348,0.523246,0.54655324,-0.29702178,0.515927,0.53328119,-0.29485404,0.509468
0.54474074,-0.4080937,0.584529,0.54843781,-0.35715319,0.565715,0.53913757,-0.38488583,0.585901,0.52393477,-0.35227205,0.577501,0.50745416,-0.32110212,0.566032,0.49655988,-0.29951851,0.555207,0.54470484,-0.305094,0.555628,0.55244716,-0.2655689,0.541735,0.53756186,-0.25802285,0.534789,0.5188091,-0.26543585,0.528474,0.55299361,-0.31367876,0.547762,0.55926044,-0.27031254,0.524835,0.53808597,-0.25724791,0.51146,0.53091286,-0.26849968,0.517396,0.55975526,-0.32387485,0.542527,0.56610797,-0.28599578,0.5192,0.55241239,-0.27255769,0.507265,0.52945564,-0.26880528,0.496415,0.56760026,-0.34214533,0.538663,0.56029687,-0.29968678,0.521203,0.54478665,-0.29576707,0.513181,0.53078747,-0.29303325,0.506102
0.55217818,-0.41306501,0.593057,0.55093533,-0.35863035,0.567428,0.54493318,-0.38815874,0.591855,0.52686831,-0.35182434,0.579746,0.51007363,-0.31965523,0.56685,0.50371487,-0.29624878,0.557303,0.54518264,-0.30363857,0.549944,0.55612944,-0.26633931,0.533938,0.54105038,-0.25863642,0.525935,0.515615,-0.26360062,0.51866,0.55326257,-0.31366483,0.542972,0.55112982,-0.27071785,0.514325,0.52079424,-0.26276032,0.497615,0.50946793,-0.27524115,0.500498,0.56015821,-0.32524131,0.538921,0.55864695,-0.28446771,0.511742,0.53912268,-0.27607535,0.497837,0.51006953,-0.27702966,0.485195,0.56875621,-0.3455929,0.537338,0.54228939,-0.31272024,0.515146,0.52206162,-0.31636602,0.504949,0.50901859,-0.32314842,0.495953
0.54885302,-0.40445612,0.590894,0.55096845,-0.34544554,0.563071,0.53904307,-0.3656176,0.586894,0.5264426,-0.32745452,0.570621,0.51550926,-0.29350618,0.556405,0.51343465,-0.27156152,0.545816,0.54724994,-0.28954651,0.540805,0.55597861,-0.25797341,0.519618,0.55433292,-0.24336308,0.509025,0.53714207,-0.23763517,0.499394,0.55590797,-0.30373942,0.536521,0.5568436,-0.25970334,0.510389,0.54568121,-0.23948434,0.495146,0.54223058,-0.24504304,0.500462,0.56289625,-0.31847934,0.534826,0.55629418,-0.28311322,0.506759,0.53392209,-0.27382539,0.492399,0.50555852,-0.27292365,0.479345,0.56764659,-0.34121581,0.536339,0.53899489,-0.31045053,0.511499,0.51775621,-0.31371882,0.500085,0.50348386,-0.31949879,0.490015
0.54938943,-0.4078964,0.591826,0.54780489,-0.35609429,0.56348,0.5408227,-0.38149517,0.587797,0.52727846,-0.33832018,0.571527,0.51617263,-0.30422796,0.557121,0.51392756,-0.28216128,0.54634,0.5472975,-0.29944665,0.540852,0.55550247,-0.2676427,0.519173,0.55357932,-0.25302996,0.508333,0.53615791,-0.2472705,0.498479,0.55581472,-0.31363742,0.536431,0.55679124,-0.26944909,0.510341,0.54565476,-0.24934141,0.495122,0.54217099,-0.25521779,0.500407,0.56022098,-0.32668918,0.534657,0.55819183,-0.29167495,0.506267,0.53390235,-0.28427272,0.491741,0.50470528,-0.27738596,0.478536,0.56958889,-0.34992534,0.536143,0.53908262,-0.32029937,0.511063,0.51791788,-0.32383384,0.49954,0.50338366,-0.32906004,0.489372
0.55384344,-0.40737248,0.597088,0.55160485,-0.3569466,0.565203,0.54405058,-0.37578443,0.590937,0.53980925,-0.32928991,0.574917,0.53342324,-0.29451338,0.560166,0.53262835,-0.27268833,0.547925,0.55509431,-0.29895024,0.537777,0.53478091,-0.26922271,0.507513,0.50485098,-0.26413598,0.492381,0.47433608,-0.26354482,0.478625,0.56242608,-0.31564467,0.534777,0.54947048,-0.27296906,0.499975,0.53115159,-0.25340754,0.479674,0.53425274,-0.2468733,0.479692,0.56828552,-0.33233304,0.534406,0.5588236,-0.29508213,0.502884,0.52835939,-0.28939956,0.486757,0.49893024,-0.28565105,0.472096,0.57371665,-0.35572644,0.538018,0.53947,-0.32807907,0.510296,0.51561863,-0.33086165,0.497559,0.49953057,-0.33059934,0.486321
0.55620524,-0.41089064,0.600356,0.5556252,-0.36103301,0.567578,0.54707916,-0.38410582,0.594215,0.54267255,-0.34127793,0.578044,0.5356503,-0.30592292,0.562489,0.53447705,-0.28376444,0.549738,0.5565619,-0.30894581,0.539605,0.53511139,-0.27997424,0.508458,0.50519163,-0.27375665,0.492884,0.47397621,-0.27196346,0.478726,0.56389445,-0.32540511,0.5363,0.54986239,-0.28338695,0.50092,0.53174238,-0.26375139,0.480282,0.52402068,-0.25243736,0.470413,0.56982608,-0.3419728,0.535736,0.54777774,-0.30587017,0.504714,0.52379743,-0.29729872,0.488842,0.49772095,-0.29368175,0.474413,0.57657836,-0.36775347,0.53923,0.52703769,-0.34096384,0.511181,0.49749077,-0.33044846,0.498293,0.48767915,-0.33149586,0.497569
0.55423206,-0.40809434,0.597704,0.56203688,-0.36934971,0.568957,0.54537449,-0.38250819,0.591804,0.55121091,-0.34214694,0.57775,0.55024849,-0.30910622,0.565067,0.55201636,-0.28893939,0.553768,0.56717083,-0.31888054,0.543799,0.51830359,-0.30559127,0.516643,0.48700452,-0.30309819,0.503065,0.47728381,-0.31138941,0.505973,0.57330086,-0.33745225,0.541526,0.56079823,-0.3008722,0.508976,0.56002301,-0.28265011,0.495634,0.55499373,-0.27136316,0.486103,0.57777859,-0.35530557,0.541546,0.56116211,-0.3194424,0.51271,0.53775915,-0.31152992,0.497957,0.51219955,-0.30809015,0.484545,0.58189215,-0.38161725,0.545226,0.53328901,-0.35427802,0.518946,0.50581602,-0.33796786,0.506872,0.49811125,-0.33797186,0.508154
0.57979798,-0.39844301,0.604286,0.57292591,-0.36250017,0.563717,0.57334759,-0.37103096,0.593204,0.56120799,-0.32882471,0.568218,0.55383339,-0.29406745,0.54925,0.55055088,-0.2733885,0.533886,0.55959928,-0.30750004,0.524853,0.50694375,-0.28954856,0.489496,0.4807522,-0.28054805,0.471818,0.45595742,-0.27902528,0.465214,0.56555959,-0.32843455,0.525005,0.54749852,-0.29090387,0.483944,0.5475711,-0.27456894,0.469298,0.5296074,-0.26844292,0.458837,0.57105281,-0.34824674,0.527796,0.54243468,-0.31738757,0.490636,0.52780727,-0.30159015,0.471623,0.49578957,-0.2935039,0.454339,0.57547359,-0.3761147,0.536293,0.51651573,-0.34537106,0.503666,0.48733001,-0.33043964,0.488675,0.47212123,-0.32129943,0.482551
0.58071255,-0.39851846,0.606162,0.57372968,-0.36247477,0.565222,0.57483605,-0.37121515,0.595346,0.56372385,-0.32901448,0.5703,0.55571407,-0.29396532,0.550247,0.55105891,-0.27360885,0.534059,0.56101679,-0.3075605,0.526449,0.50767598,-0.28932304,0.49135,0.48008098,-0.28029578,0.4738,0.45471315,-0.27820553,0.466603,0.56621832,-0.32832023,0.526155,0.54624774,-0.29121747,0.485124,0.53855823,-0.27349087,0.468021,0.51638658,-0.26660073,0.455804,0.57109211,-0.34797701,0.528604,0.54944547,-0.31075604,0.491627,0.51249123,-0.29852855,0.472708,0.47854705,-0.29715696,0.45551,0.57622946,-0.37616572,0.536739,0.51606476,-0.34598741,0.50431,0.48674459,-0.33337514,0.489411,0.47046885,-0.32222207,0.482811
0.57922161,-0.39852856,0.60238,0.57585257,-0.36987878,0.561399,0.57497774,-0.37187446,0.592237,0.57429211,-0.33608452,0.567559,0.56883683,-0.30205219,0.547379,0.56340635,-0.28257309,0.530592,0.56721482,-0.3172696,0.523422,0.51068796,-0.29332807,0.488967,0.48063803,-0.28096897,0.471739,0.45337353,-0.27677443,0.464356,0.56785459,-0.33789093,0.522293,0.54526014,-0.3009114,0.481542,0.53906161,-0.28312063,0.463875,0.51515305,-0.27333405,0.451255,0.56896432,-0.35731185,0.524058,0.54833146,-0.32057811,0.487608,0.51220236,-0.30781317,0.468959,0.47523647,-0.29801471,0.452006,0.57131427,-0.38519107,0.531381,0.50880878,-0.34997715,0.499394,0.48165601,-0.33145318,0.484698,0.46532441,-0.31989682,0.477923
0.52279011,-0.3494057,0.563881,0.53448311,-0.34353509,0.52903,0.54003135,-0.34125594,0.561424,0.56013681,-0.3208602,0.552553,0.5771942,-0.30243403,0.545828,0.58290341,-0.28606081,0.535809,0.55772437,-0.32920204,0.504252,0.53090552,-0.2849735,0.478485,0.4961727,-0.27650987,0.465601,0.4836573,-0.28511521,0.462884,0.54237452,-0.33676588,0.495774,0.51026805,-0.28401151,0.461212,0.49141019,-0.2792104,0.46695,0.48217134,-0.28908123,0.471048,0.52915451,-0.34375601,0.491089,0.50095641,-0.2945698,0.462544,0.46532233,-0.27785294,0.447939,0.4397268,-0.27627675,0.434662,0.51194211,-0.35350652,0.489922,0.48631824,-0.30477982,0.464112,0.45863358,-0.29013697,0.452254,0.4444577,-0.2941377,0.44887
0.51370934,-0.34081388,0.553969,0.52520644,-0.34021097,0.521983,0.53415146,-0.33698197,0.554488,0.56125268,-0.32691161,0.550531,0.58532366,-0.31570641,0.548443,0.5943858,-0.30206893,0.540295,0.55125173,-0.34046219,0.502623,0.56452452,-0.31363085,0.481085,0.54043072,-0.29399609,0.470315,0.51912646,-0.29290158,0.468377,0.52972813,-0.34313275,0.491461,0.53249928,-0.31131721,0.460347,0.52606636,-0.2942168,0.465537,0.52167883,-0.29704284,0.478421,0.51152631,-0.34535231,0.48438,0.51578998,-0.31064187,0.459816,0.49631034,-0.28653922,0.447248,0.46485086,-0.27375472,0.435822,0.48864253,-0.34800802,0.479985,0.47718462,-0.3009655,0.457505,0.45640644,-0.28195496,0.447177,0.44684218,-0.2693656,0.444353
0.52453283,-0.34095014,0.562559,0.52964475,-0.34163996,0.526797,0.5424483,-0.33653956,0.559267,0.57400468,-0.32009601,0.548597,0.59537667,-0.30893935,0.540171,0.60075715,-0.29663908,0.528948,0.54893425,-0.33960068,0.500431,0.55182527,-0.31265142,0.473549,0.52269137,-0.29058894,0.460107,0.50385686,-0.28656279,0.456872,0.52844944,-0.34388044,0.492671,0.52030448,-0.31626409,0.457195,0.51618507,-0.29796929,0.462576,0.51803052,-0.29750941,0.477097,0.50697013,-0.3464394,0.488638,0.50399052,-0.31474892,0.45904,0.48236415,-0.28869188,0.443897,0.45025221,-0.271417,0.430131,0.48449719,-0.34905021,0.488365,0.47001753,-0.30271774,0.461708,0.4560258,-0.28212084,0.44946,0.44706656,-0.2684572,0.445689
0.53910742,-0.33417915,0.567883,0.53291476,-0.3437215,0.529892,0.5560634,-0.33297242,0.561566,0.58053894,-0.32642766,0.545716,0.59830035,-0.31420756,0.532441,0.59826665,-0.30129947,0.51843,0.54545995,-0.348412,0.498448,0.54291922,-0.32156554,0.467861,0.51309855,-0.29619819,0.452568,0.49180665,-0.29024311,0.448335,0.52276542,-0.35140249,0.49364,0.51156577,-0.32503097,0.455463,0.50991244,-0.30555588,0.460839,0.51386229,-0.30189908,0.476336,0.504698,-0.35345918,0.492183,0.49691399,-0.32218942,0.459198,0.47477546,-0.29394494,0.442322,0.44498784,-0.27145596,0.42698,0.48412779,-0.35504261,0.495272,0.47199648,-0.30683766,0.465854,0.45749775,-0.2843655,0.452337,0.44912566,-0.27001385,0.447872
0.52868244,-0.39186944,0.56836,0.53266659,-0.37476989,0.531338,0.55806973,-0.39139362,0.565285,0.5512115,-0.36024991,0.555948,0.54772602,-0.33911337,0.55706,0.52877948,-0.33478525,0.554596,0.55211561,-0.35117128,0.504448,0.54810662,-0.32512151,0.47377,0.52184961,-0.29519004,0.458431,0.50747157,-0.27839831,0.452879,0.52602932,-0.35221343,0.49601,0.51981307,-0.32830971,0.462474,0.50246545,-0.29992085,0.45504,0.49868874,-0.29789829,0.464224,0.50512333,-0.35361934,0.491501,0.49547255,-0.31439904,0.463992,0.4725773,-0.28611833,0.449917,0.44529244,-0.27101375,0.437122,0.48245534,-0.36092206,0.49082,0.45389019,-0.31037695,0.46659,0.44093832,-0.28834537,0.455457,0.43005119,-0.27089143,0.447231
0.52018447,-0.38346355,0.545101,0.53193396,-0.36450562,0.51354,0.54379069,-0.38049364,0.547097,0.55165178,-0.34874729,0.544005,0.53803494,-0.32389479,0.542886,0.51332996,-0.32152635,0.53703,0.56595329,-0.35027038,0.496246,0.52963004,-0.30108917,0.477686,0.50390056,-0.28263741,0.468406,0.48325084,-0.28502772,0.463654,0.53969036,-0.34593427,0.483424,0.49646401,-0.28587372,0.454739,0.47260772,-0.28282586,0.45417,0.47501414,-0.30211705,0.464367,0.51750853,-0.3436614,0.47495,0.48956788,-0.28910128,0.453178,0.4562159,-0.28035835,0.442039,0.43975545,-0.28894756,0.436216,0.489876,-0.34343874,0.468836,0.46826626,-0.29561598,0.449049,0.45810671,-0.2758019,0.439958,0.44949691,-0.26959053,0.434959
0.51845841,-0.38149264,0.542152,0.52989362,-0.36299879,0.511613,0.54276986,-0.37949058,0.544918,0.55054969,-0.34805584,0.543057,0.53766451,-0.32365134,0.542576,0.51368094,-0.32052971,0.536925,0.56543563,-0.34983932,0.495898,0.53052615,-0.30154185,0.478579,0.50545338,-0.283471,0.469919,0.48471025,-0.28591481,0.465483,0.53862626,-0.34506685,0.482473,0.50364178,-0.28520359,0.454903,0.47965521,-0.27840666,0.454321,0.47931067,-0.2956698,0.46411,0.51594954,-0.34238211,0.473436,0.48949742,-0.28897141,0.452864,0.45958475,-0.27437979,0.442339,0.43991048,-0.27696071,0.436827,0.48764379,-0.34156796,0.466517,0.46690739,-0.29480017,0.447739,0.45730302,-0.27517692,0.439111,0.44889213,-0.2691367,0.434355
0.52054553,-0.38440296,0.545124,0.53002673,-0.36616419,0.513384,0.54408162,-0.38231071,0.546943,0.54963736,-0.3509553,0.543376,0.53547802,-0.32585508,0.541531,0.51224288,-0.31988731,0.535195,0.56036993,-0.35899056,0.495764,0.53303322,-0.30762954,0.476801,0.51025924,-0.28617039,0.467319,0.48331389,-0.2843366,0.462814,0.53449373,-0.35379979,0.483097,0.49657028,-0.29246194,0.454042,0.47295064,-0.28483792,0.454035,0.47475685,-0.30377242,0.464543,0.51261474,-0.35066188,0.474764,0.48835004,-0.29607402,0.4526,0.45630131,-0.28024079,0.441261,0.43752956,-0.285909,0.4357,0.48529947,-0.34908459,0.468839,0.4657521,-0.30129423,0.448686,0.45670884,-0.28087156,0.439426,0.44887402,-0.27100164,0.434614
0.51942197,-0.38464729,0.544715,0.52610253,-0.37121066,0.513278,0.54312649,-0.38326705,0.546726,0.54865752,-0.35458819,0.543297,0.53747992,-0.32832242,0.54117,0.51250795,-0.31993781,0.534557,0.56026291,-0.36194162,0.496079,0.53549699,-0.31316849,0.477321,0.51269349,-0.28862355,0.467943,0.48827982,-0.28600258,0.46379,0.53448581,-0.35638907,0.483279,0.49820306,-0.29497326,0.4544,0.47553856,-0.28901903,0.45487,0.4760436,-0.30571642,0.465464,0.51264984,-0.35285885,0.474815,0.48739669,-0.2982352,0.452849,0.45482653,-0.28577791,0.441611,0.43693109,-0.28739924,0.436414,0.48531499,-0.35063201,0.468697,0.46678291,-0.30289769,0.448677,0.45816592,-0.28247927,0.439478,0.44988955,-0.27598541,0.434935
0.51774098,-0.38412149,0.543466,0.5253188,-0.37108634,0.51255,0.54174973,-0.38339151,0.54586,0.548763,-0.3549442,0.542989,0.53844476,-0.32886419,0.541054,0.51331978,-0.32033392,0.534449,0.56025265,-0.362814,0.496145,0.53633607,-0.31351551,0.47797,0.51559838,-0.29122767,0.468882,0.49045383,-0.28701849,0.464976,0.53433801,-0.35696566,0.483049,0.50304249,-0.29765909,0.454691,0.48431235,-0.28821503,0.455311,0.47847848,-0.30373685,0.465763,0.51235317,-0.3531419,0.474308,0.48729994,-0.29889778,0.452905,0.45551502,-0.28596421,0.441954,0.43701486,-0.28828766,0.437005,0.4847699,-0.35046667,0.467791,0.46715834,-0.30290621,0.448233,0.45895018,-0.28249707,0.439247,0.45026468,-0.2731574,0.434892
0.51715835,-0.38462786,0.543417,0.52495762,-0.37157145,0.512525,0.54115812,-0.38412069,0.545822,0.54842052,-0.35553488,0.542944,0.53820433,-0.32946827,0.540931,0.51363888,-0.32046834,0.53426,0.55960675,-0.36462327,0.496147,0.53569862,-0.31357978,0.477976,0.51474768,-0.29003964,0.468891,0.49247372,-0.28644905,0.465028,0.53408079,-0.35744632,0.483046,0.50345093,-0.29783882,0.454692,0.48128759,-0.28938602,0.455379,0.4784472,-0.30548141,0.465851,0.51216128,-0.35362874,0.474299,0.48346723,-0.30269364,0.4529,0.45233224,-0.28690008,0.441952,0.43333156,-0.29046296,0.437047,0.48463758,-0.35096259,0.467772,0.46718721,-0.30322485,0.448213,0.45905086,-0.28269247,0.439227,0.45044462,-0.27343339,0.434904
0.51610025,-0.38454646,0.542728,0.52445022,-0.37189153,0.512236,0.54033684,-0.38446315,0.545414,0.54841138,-0.35608424,0.542923,0.53849671,-0.33005708,0.540942,0.51418907,-0.32068416,0.534188,0.55973699,-0.36547911,0.496451,0.53466118,-0.31501037,0.4787,0.51023675,-0.29521853,0.469824,0.48952897,-0.28808506,0.466181,0.53387926,-0.35935131,0.48314,0.50446578,-0.29879982,0.455163,0.48438794,-0.28901869,0.456027,0.47976165,-0.30412367,0.466418,0.51189597,-0.35523483,0.474193,0.48411942,-0.30239628,0.4532,0.4522877,-0.28791913,0.44246,0.43331948,-0.29144593,0.437779,0.48413993,-0.35127104,0.467376,0.46732342,-0.3036884,0.448147,0.45946904,-0.2831799,0.439311,0.45102132,-0.27397791,0.435158
0.51187219,-0.38232478,0.538995,0.5184507,-0.37008473,0.507668,0.53528089,-0.38213945,0.540978,0.54185613,-0.35535772,0.537191,0.52998734,-0.32806106,0.534306,0.50805884,-0.31828788,0.527189,0.54741276,-0.36912027,0.490503,0.52150345,-0.31733606,0.471538,0.50261613,-0.29201794,0.462055,0.482194,-0.2832347,0.45843,0.52143179,-0.36161033,0.477774,0.49866154,-0.29897904,0.448713,0.47873035,-0.28591965,0.450114,0.47459574,-0.30054696,0.461066,0.49952041,-0.35624995,0.469361,0.47398379,-0.29915935,0.447196,0.44312411,-0.28501968,0.435856,0.42482155,-0.28783221,0.431214,0.47227978,-0.35141513,0.463289,0.46144619,-0.30183631,0.443041,0.45415871,-0.2808075,0.433738,0.44558202,-0.27148714,0.429598
0.51189081,-0.38325694,0.539661,0.51683604,-0.37260013,0.508114,0.53342249,-0.38440024,0.541372,0.54124856,-0.35714144,0.536951,0.53041515,-0.33051496,0.533591,0.507279,-0.31825946,0.52633,0.54705795,-0.37028239,0.490481,0.52072322,-0.31814379,0.470997,0.50242779,-0.29429387,0.461255,0.48275802,-0.28492792,0.457886,0.52133228,-0.3632335,0.478011,0.49812195,-0.30282043,0.448502,0.47951164,-0.28703533,0.45053,0.47561269,-0.30117336,0.461841,0.49963282,-0.35823727,0.469825,0.47354759,-0.30290248,0.447166,0.44211024,-0.28655962,0.435572,0.42282523,-0.28918409,0.431206,0.4726477,-0.35380457,0.464052,0.45907971,-0.30567055,0.44335,0.45259599,-0.28462846,0.433838,0.44676976,-0.27319298,0.429896
0.51436965,-0.38599907,0.542837,0.5208499,-0.37391956,0.511497,0.53811619,-0.38686303,0.544913,0.54632358,-0.35792345,0.541556,0.53641693,-0.33176272,0.539285,0.51332962,-0.32071008,0.532528,0.55121748,-0.37256057,0.494439,0.52578805,-0.3206566,0.475767,0.50754295,-0.29592267,0.466432,0.48628524,-0.28631357,0.462361,0.52481862,-0.36530319,0.481591,0.50060167,-0.30355907,0.452789,0.4792662,-0.2885795,0.453354,0.47732269,-0.30329998,0.46395,0.50255626,-0.36010512,0.473082,0.47539209,-0.30498701,0.451199,0.44633004,-0.28868411,0.440003,0.42592196,-0.29146159,0.43489,0.47488456,-0.35537433,0.466896,0.462105,-0.30752541,0.446939,0.45701385,-0.28522896,0.43777,0.44926054,-0.27458981,0.433289
0.51267457,-0.38601026,0.54234,0.51998408,-0.37376335,0.511141,0.53653665,-0.38740567,0.544538,0.5460142,-0.35793276,0.54142,0.53626709,-0.33192797,0.539382,0.51393911,-0.32127245,0.532757,0.55095709,-0.3721154,0.49432,0.52579502,-0.32036911,0.475868,0.5077604,-0.29595471,0.466642,0.48700127,-0.28678983,0.462544,0.52436852,-0.36480981,0.48137,0.49975088,-0.30332812,0.452765,0.4790072,-0.28861992,0.453193,0.47708622,-0.30317464,0.463675,0.50195136,-0.35955737,0.472767,0.47504559,-0.3046167,0.451096,0.44599851,-0.28865187,0.440009,0.42555271,-0.29131541,0.434864,0.47410304,-0.35473713,0.466452,0.46149471,-0.30703964,0.446682,0.45642767,-0.28515586,0.437599,0.44906857,-0.27533299,0.433097
0.51103902,-0.38615693,0.541881,0.51874943,-0.37410157,0.51083,0.5350253,-0.3880838,0.544197,0.54574889,-0.35802735,0.541291,0.53557676,-0.33317005,0.539468,0.51428996,-0.32217378,0.532967,0.55079381,-0.37202563,0.494245,0.52679342,-0.31950547,0.475996,0.5081296,-0.29627595,0.466871,0.48739956,-0.28884081,0.462785,0.52405375,-0.36466503,0.481199,0.50001211,-0.30419724,0.452776,0.47876253,-0.29002397,0.453139,0.47671731,-0.30338064,0.463535,0.50151153,-0.35935605,0.472508,0.47483392,-0.3045657,0.451033,0.44579328,-0.28876766,0.440046,0.42535089,-0.29136804,0.43491,0.47351265,-0.3544463,0.466068,0.46113533,-0.30691697,0.446467,0.45520263,-0.2861425,0.437461,0.44913285,-0.27543924,0.432968
0.51013074,-0.38614408,0.541632,0.51828532,-0.37409473,0.510659,0.5341834,-0.38840889,0.54401,0.54556009,-0.35811838,0.541211,0.53546158,-0.33323506,0.539473,0.51448555,-0.32263092,0.533013,0.55068933,-0.37196876,0.494199,0.52706887,-0.31964939,0.476053,0.50833517,-0.29647165,0.466981,0.48741507,-0.2892951,0.462904,0.52386353,-0.36458215,0.481103,0.49968994,-0.30412302,0.452773,0.47855599,-0.29025884,0.453109,0.47678488,-0.30347284,0.463462,0.50125097,-0.35924519,0.472366,0.47469278,-0.3045317,0.450991,0.44562129,-0.28884289,0.440056,0.42518432,-0.2913971,0.434929,0.47316897,-0.35428969,0.465861,0.46091868,-0.30685057,0.446346,0.45504795,-0.28609893,0.43738,0.44896537,-0.27542252,0.432895
0.50949044,-0.3862035,0.54155,0.51742478,-0.37447413,0.510642,0.53363244,-0.38864607,0.543982,0.54451895,-0.35786716,0.541285,0.53223138,-0.33154133,0.539681,0.51164267,-0.32211386,0.533305,0.55067061,-0.37176023,0.494287,0.52725366,-0.31964689,0.476238,0.50843253,-0.29653719,0.467214,0.48645611,-0.29035102,0.463131,0.52374264,-0.36439805,0.481148,0.50069267,-0.30360847,0.452905,0.48153667,-0.28904702,0.45319,0.47732795,-0.30293578,0.463496,0.50104659,-0.35908022,0.47237,0.47447587,-0.3044576,0.451089,0.44500853,-0.28906519,0.440201,0.42501866,-0.29146602,0.435066,0.4728717,-0.35414965,0.465809,0.46063641,-0.30678436,0.446376,0.45477845,-0.28604839,0.437447,0.44876408,-0.27540227,0.432957
0.50896466,-0.38634908,0.541589,0.51734833,-0.37449308,0.510727,0.53318758,-0.38895895,0.544062,0.5441664,-0.35767766,0.541457,0.53128755,-0.33107046,0.539982,0.51107966,-0.32262787,0.533688,0.55081138,-0.37164311,0.494451,0.52755209,-0.31969505,0.476484,0.50866336,-0.29664287,0.4675,0.48661334,-0.29062412,0.46339,0.52384685,-0.36430534,0.481277,0.50126667,-0.30381057,0.453108,0.48197032,-0.28944482,0.453316,0.47743509,-0.3028584,0.46357,0.50111783,-0.35900878,0.472467,0.47453899,-0.30446096,0.451265,0.44547032,-0.28905579,0.440417,0.42503225,-0.29157203,0.435253,0.4728989,-0.35410662,0.465862,0.46067444,-0.30679711,0.4465,0.45482681,-0.28607383,0.437604,0.44855157,-0.27560048,0.433094
0.50872301,-0.38609431,0.541547,0.51712527,-0.37464408,0.510863,0.53309487,-0.38894447,0.544149,0.54398862,-0.35752798,0.541726,0.52852793,-0.32884088,0.540346,0.512007,-0.32285166,0.53408,0.55214391,-0.37053315,0.494854,0.53246054,-0.31645343,0.47708,0.51697804,-0.2938872,0.468193,0.48940216,-0.28922146,0.464172,0.52521757,-0.36331985,0.481582,0.50471316,-0.3032985,0.453587,0.48489786,-0.28912589,0.453855,0.47917268,-0.30188109,0.464065,0.50249638,-0.35814384,0.472681,0.47566578,-0.30419611,0.451666,0.44573638,-0.28967834,0.440915,0.42554469,-0.29245855,0.435839,0.47422838,-0.35378226,0.465943,0.46171523,-0.30652359,0.446735,0.45574517,-0.2858314,0.437909,0.44895984,-0.27581135,0.433467
0.50884563,-0.38594583,0.541939,0.516964,-0.37455076,0.511098,0.53314369,-0.38881144,0.544424,0.54174774,-0.35444885,0.541824,0.52873161,-0.32805165,0.540332,0.50978884,-0.32133712,0.534022,0.55202255,-0.36861567,0.494851,0.53587708,-0.31625757,0.476894,0.51830618,-0.29271005,0.467916,0.49595121,-0.28621501,0.463836,0.52491765,-0.36278587,0.481668,0.50933582,-0.30270323,0.453509,0.49380142,-0.28588239,0.453759,0.48584421,-0.29803294,0.464023,0.50223846,-0.35764578,0.47285,0.47515954,-0.30363538,0.451659,0.4452338,-0.28899897,0.440817,0.4247751,-0.29151089,0.435683,0.47379949,-0.35332881,0.466233,0.46138165,-0.30610295,0.446877,0.45545687,-0.28539054,0.437984,0.44878873,-0.2750972,0.433497
0.50867079,-0.385224,0.541663,0.51688176,-0.37389334,0.510937,0.53305627,-0.38806949,0.544247,0.54190827,-0.35398515,0.541857,0.52913599,-0.32775325,0.540612,0.50977284,-0.32116581,0.53445,0.55226132,-0.36808042,0.494882,0.53648832,-0.31612879,0.477116,0.51920346,-0.292573,0.468233,0.49680075,-0.28589039,0.464108,0.52496909,-0.36195767,0.481617,0.51030207,-0.30284013,0.453631,0.49376986,-0.28586412,0.45373,0.48664824,-0.29724853,0.463884,0.50220998,-0.35688635,0.472725,0.47517937,-0.30322209,0.451717,0.44683837,-0.2847083,0.440969,0.42567771,-0.28544018,0.435786,0.47364485,-0.3527546,0.466002,0.46132203,-0.30573531,0.446812,0.45544885,-0.28508292,0.437994,0.44876191,-0.27460731,0.433473
0.5193845,-0.39194023,0.552556,0.52219107,-0.37655296,0.515959,0.5393973,-0.39084364,0.550159,0.54713261,-0.35827629,0.533063,0.55118005,-0.33743227,0.517705,0.54739748,-0.32613954,0.502836,0.54879726,-0.35635156,0.490163,0.53337557,-0.3086643,0.46559,0.51139432,-0.28278941,0.453303,0.48707877,-0.27197477,0.445781,0.52534179,-0.3580725,0.481037,0.47590629,-0.29422837,0.447322,0.45637381,-0.27526869,0.444864,0.4561092,-0.27005197,0.456288,0.50527779,-0.35977467,0.475935,0.47122336,-0.30224146,0.448457,0.43886774,-0.28410752,0.434398,0.41522807,-0.28307198,0.425815,0.48098299,-0.36063526,0.474492,0.45193895,-0.31019205,0.450091,0.43165254,-0.29181668,0.43888,0.41716392,-0.27823457,0.431799
0.53125092,-0.39879275,0.563933,0.53296733,-0.37915722,0.525212,0.55546665,-0.38473939,0.558709,0.54527125,-0.35356607,0.5434,0.53829704,-0.32855231,0.53155,0.52483745,-0.31441373,0.518439,0.55162189,-0.3570914,0.494643,0.53377552,-0.30817526,0.465627,0.50765689,-0.28167082,0.451119,0.4838633,-0.27232165,0.444571,0.52866391,-0.36036021,0.488262,0.46997879,-0.29395267,0.450952,0.46155222,-0.27309969,0.451936,0.46461499,-0.27311447,0.465742,0.50992587,-0.3641836,0.485559,0.45999475,-0.30276302,0.453913,0.43356471,-0.28513331,0.437722,0.41784339,-0.27459535,0.430262,0.4827214,-0.36941877,0.487252,0.45355843,-0.3147379,0.459177,0.43793278,-0.29731996,0.446278,0.42932166,-0.28670885,0.439984
0.53012478,-0.3955926,0.561226,0.53109825,-0.37674167,0.522795,0.55543755,-0.38305317,0.556665,0.55810209,-0.35742505,0.543469,0.57452006,-0.34113766,0.531949,0.58383566,-0.33604359,0.5202,0.55174375,-0.36204267,0.493214,0.53165862,-0.31029549,0.465285,0.51555529,-0.28576529,0.45132,0.49907605,-0.26643436,0.444153,0.52962995,-0.36455001,0.486122,0.47847389,-0.29582984,0.449655,0.47259002,-0.2734115,0.449186,0.47277588,-0.27381235,0.46223,0.5128685,-0.36237926,0.482814,0.4888923,-0.31068285,0.452175,0.47860113,-0.28452233,0.436499,0.46167742,-0.26303669,0.428363,0.48169405,-0.36620431,0.483748,0.45954507,-0.31215433,0.456597,0.4427728,-0.2958635,0.444122,0.4295596,-0.28528451,0.43734
0.53485073,-0.38425235,0.557684,0.54226907,-0.36489755,0.521498,0.5571467,-0.37728161,0.554934,0.56288726,-0.3496254,0.543333,0.56946637,-0.33039298,0.533592,0.57479509,-0.32086783,0.52295,0.56643761,-0.3478425,0.495529,0.53436678,-0.29732923,0.469456,0.50870351,-0.27321145,0.45642,0.488145,-0.26589988,0.451887,0.54426001,-0.35197573,0.486968,0.49190618,-0.29170544,0.451941,0.48717768,-0.27259347,0.454892,0.48203849,-0.27585417,0.468489,0.52577394,-0.35636387,0.482304,0.49588664,-0.30329672,0.453396,0.48056099,-0.27684325,0.438607,0.46273188,-0.2644483,0.433168,0.50315582,-0.36346068,0.481331,0.47064396,-0.3113298,0.455377,0.44371881,-0.30178482,0.443452,0.43220872,-0.30792776,0.43866
0.54206811,-0.38760938,0.563606,0.54737725,-0.36777124,0.526272,0.56261452,-0.37885596,0.559345,0.56365689,-0.35111843,0.54533,0.56727327,-0.33023613,0.533476,0.57087674,-0.31964761,0.521746,0.56822387,-0.34669308,0.497743,0.53733624,-0.2982504,0.469664,0.51806726,-0.27367693,0.455624,0.49827076,-0.26200048,0.450855,0.547407,-0.3525879,0.490646,0.50445296,-0.29277619,0.454093,0.485043,-0.28536685,0.457523,0.49200455,-0.30367562,0.471822,0.53013779,-0.35861133,0.487262,0.49707142,-0.30470619,0.456501,0.45949555,-0.28350195,0.440763,0.43885528,-0.28374363,0.435136,0.50917362,-0.36799895,0.487965,0.47764341,-0.31558595,0.46046,0.44885688,-0.30518328,0.447823,0.4368356,-0.31099041,0.442879
0.53692353,-0.39022721,0.561443,0.54783222,-0.36751882,0.52634,0.56193226,-0.38085806,0.559962,0.56939637,-0.35500527,0.550458,0.57637393,-0.33546996,0.542703,0.58313724,-0.32541868,0.532932,0.5722621,-0.33871506,0.502595,0.52304199,-0.29119054,0.478321,0.49926848,-0.2686363,0.466184,0.48030737,-0.26236351,0.461795,0.55057697,-0.34424502,0.492845,0.51267981,-0.28806908,0.45925,0.49012836,-0.28688032,0.461667,0.49537478,-0.30438826,0.474577,0.53253224,-0.35043635,0.487131,0.50175802,-0.29858402,0.459905,0.46544288,-0.28582012,0.445975,0.44498884,-0.28722128,0.440641,0.51053899,-0.36097625,0.484765,0.47508672,-0.31370679,0.460233,0.44910393,-0.30667008,0.448962,0.4380822,-0.31315049,0.444261
0.5346074,-0.3909229,0.559417,0.54847364,-0.36904977,0.52884,0.55939275,-0.38727064,0.561706,0.56074275,-0.35330543,0.557907,0.556015,-0.32411261,0.554054,0.55244393,-0.30365852,0.545953,0.57216473,-0.33824658,0.512518,0.52468093,-0.29752015,0.493837,0.50181568,-0.27809158,0.484497,0.48430878,-0.27582746,0.48191,0.55012842,-0.34188523,0.499661,0.53611756,-0.2968872,0.470899,0.50964217,-0.26612578,0.454122,0.48701155,-0.25679286,0.449229,0.53418649,-0.35001727,0.491095,0.50946272,-0.30403037,0.469223,0.47921717,-0.2820931,0.458033,0.46089059,-0.27921355,0.454472,0.50949989,-0.35867778,0.484744,0.47824158,-0.31575025,0.464645,0.4563346,-0.3037379,0.45541,0.45661335,-0.30981783,0.452069
0.53868474,-0.3957411,0.562848,0.54886401,-0.37300223,0.531317,0.5608638,-0.39123584,0.564517,0.5617922,-0.35694956,0.559933,0.55758921,-0.32703438,0.555641,0.5534849,-0.30624581,0.547228,0.57144547,-0.3388227,0.513644,0.54669173,-0.29657429,0.494055,0.51836237,-0.27960355,0.484261,0.50133125,-0.28250891,0.481052,0.55030138,-0.34307936,0.50123,0.51279026,-0.29070911,0.471637,0.47073379,-0.27775268,0.454374,0.46433987,-0.28574575,0.448907,0.5346945,-0.35067459,0.49309,0.51532542,-0.30025402,0.470333,0.50700578,-0.27560571,0.45869,0.48744024,-0.26178227,0.454494,0.51152275,-0.3606004,0.48737,0.47101266,-0.3186824,0.466567,0.45745422,-0.3055558,0.45703,0.45665781,-0.31105509,0.453444
0.54281661,-0.40118402,0.566285,0.55139136,-0.37504325,0.535859,0.56294234,-0.39378323,0.568092,0.55285705,-0.35898933,0.562853,0.5452625,-0.32986495,0.557433,0.53935918,-0.30970589,0.548473,0.56762734,-0.33316499,0.519044,0.54387237,-0.29547056,0.499474,0.51492445,-0.28102443,0.489689,0.49767152,-0.2833491,0.48827,0.55498582,-0.34486828,0.506825,0.51691484,-0.29384629,0.477428,0.47433834,-0.2823378,0.46028,0.46811051,-0.29057976,0.456634,0.53880813,-0.35166168,0.498773,0.52067465,-0.30334571,0.476097,0.51163041,-0.27905553,0.464515,0.4848086,-0.26307464,0.453986,0.52264171,-0.36471205,0.493017,0.48255078,-0.32799584,0.472116,0.46356976,-0.31587553,0.462513,0.46328723,-0.3167315,0.460082
0.5528239,-0.42159383,0.605889,0.56021067,-0.38507663,0.573759,0.55319134,-0.3962513,0.600414,0.53982064,-0.35748975,0.582594,0.53033123,-0.32157754,0.56691,0.5208,-0.30292048,0.551543,0.56396384,-0.33242503,0.547004,0.55666895,-0.28957253,0.518809,0.53440021,-0.27803921,0.504712,0.52332522,-0.28019025,0.505567,0.56632582,-0.35059035,0.543099,0.50489245,-0.32831617,0.508372,0.46571227,-0.32381203,0.488114,0.46734606,-0.32660213,0.487809,0.56793473,-0.36812473,0.541999,0.51580329,-0.34662908,0.511759,0.48142047,-0.33649785,0.496288,0.45264646,-0.3293391,0.483787,0.56908639,-0.39406937,0.544771,0.51910172,-0.36547972,0.517346,0.51416164,-0.36425399,0.524924,0.52822391,-0.3730163,0.537514
0.5582993,-0.4167684,0.601611,0.55505386,-0.37770753,0.568392,0.54791387,-0.39178851,0.59572,0.52668038,-0.35488433,0.57726,0.51209772,-0.31717384,0.560538,0.50133091,-0.29847121,0.545349,0.55232871,-0.31772709,0.540449,0.53171215,-0.28043658,0.510663,0.52142054,-0.2617577,0.49577,0.51190988,-0.26339486,0.495653,0.55815942,-0.33432982,0.536693,0.54159822,-0.29882049,0.501127,0.51194742,-0.28545559,0.48038,0.49291026,-0.28661666,0.479352,0.56289832,-0.35090953,0.535787,0.53866552,-0.31869779,0.503075,0.52042307,-0.30480835,0.486338,0.49317197,-0.29796318,0.471123,0.56833077,-0.37644755,0.538929,0.51626728,-0.34873366,0.510872,0.50892886,-0.34896781,0.517887,0.52040304,-0.35755392,0.530482
0.54838582,-0.41686761,0.602724,0.55036854,-0.36934032,0.570916,0.54504468,-0.39052737,0.596245,0.51835988,-0.3516405,0.576682,0.50056705,-0.31511605,0.55804,0.49069386,-0.29735476,0.542264,0.54555754,-0.3116321,0.543138,0.52532517,-0.27771336,0.512576,0.5152485,-0.26069214,0.497295,0.51067712,-0.26463211,0.497918,0.55453569,-0.3280473,0.540564,0.53831039,-0.29333597,0.505705,0.50481073,-0.28529208,0.485371,0.48891205,-0.2935767,0.485497,0.56182643,-0.34457739,0.540537,0.54077662,-0.31427761,0.508096,0.52547887,-0.30107804,0.491498,0.5001253,-0.29795573,0.47641,0.57024128,-0.37030358,0.54455,0.52722821,-0.34723125,0.516679,0.51717449,-0.3514191,0.524714,0.52669547,-0.35981969,0.537638
0.55077379,-0.41822458,0.607037,0.55346107,-0.36928813,0.574779,0.54591407,-0.39096514,0.599579,0.51944569,-0.35208019,0.578648,0.50209912,-0.31509783,0.560232,0.49238953,-0.29846935,0.544272,0.54700391,-0.3103065,0.545526,0.52434531,-0.27816536,0.512942,0.51300472,-0.26207469,0.49665,0.50801882,-0.26371132,0.49665,0.55664011,-0.32409323,0.543997,0.52164764,-0.2957021,0.508537,0.50124286,-0.27909866,0.487852,0.48745253,-0.28485507,0.487791,0.56535711,-0.34082649,0.54486,0.53251578,-0.31085802,0.512062,0.50183572,-0.31533522,0.495281,0.49502857,-0.32604883,0.495396,0.57562855,-0.36714795,0.549995,0.5283925,-0.3394851,0.521431,0.52004619,-0.34088188,0.529393,0.52292095,-0.34939368,0.542534
0.54592253,-0.4150564,0.601524,0.55193291,-0.36800087,0.572971,0.54182583,-0.38926071,0.596148,0.51627452,-0.35301894,0.577886,0.49038202,-0.31990116,0.557887,0.47894225,-0.30062533,0.541692,0.54622795,-0.3090743,0.54857,0.53490233,-0.27183347,0.519794,0.50896099,-0.26932116,0.505406,0.49774538,-0.28155388,0.507804,0.55694224,-0.32378497,0.545724,0.52608838,-0.29612277,0.513471,0.50799679,-0.27679214,0.494657,0.49769983,-0.28709768,0.496727,0.56565031,-0.33902576,0.545259,0.53462758,-0.31283624,0.5153,0.50551421,-0.31836101,0.499973,0.50076356,-0.33056956,0.502273,0.57757897,-0.36090389,0.548334,0.53149809,-0.33902882,0.522414,0.52444486,-0.34425323,0.531879,0.53169459,-0.36042177,0.544671
0.54528284,-0.41523085,0.601196,0.55138083,-0.36791805,0.572953,0.54041223,-0.38936044,0.595785,0.5123003,-0.35526641,0.577451,0.48765371,-0.32086868,0.557175,0.47585606,-0.30230356,0.540744,0.54228765,-0.30887564,0.548705,0.53427883,-0.27220867,0.52021,0.50854943,-0.2698328,0.505962,0.49751394,-0.28216863,0.508579,0.55592147,-0.32352381,0.546003,0.52571211,-0.29575297,0.513963,0.50812006,-0.2794437,0.495273,0.49839237,-0.28685622,0.497535,0.56516717,-0.33860171,0.545636,0.5341674,-0.31338448,0.51593,0.50525451,-0.31901116,0.500732,0.50065467,-0.33130994,0.503249,0.57596747,-0.36293807,0.54879,0.53205856,-0.33915711,0.52299,0.52508759,-0.34543822,0.532604,0.53126852,-0.36049382,0.545412
0.53263293,-0.40627769,0.586861,0.5473487,-0.36548652,0.569085,0.53059818,-0.38366828,0.58555,0.50558013,-0.36281947,0.573057,0.48706317,-0.33836319,0.56313,0.47799455,-0.31835747,0.553,0.54569617,-0.31303538,0.556377,0.518247,-0.29157535,0.538426,0.50583199,-0.2806768,0.529451,0.5099173,-0.27907436,0.537606,0.55743445,-0.32479263,0.552123,0.53331831,-0.29269635,0.529331,0.52048662,-0.27442459,0.516035,0.51616596,-0.28442728,0.523201,0.56539996,-0.33498279,0.549793,0.54494507,-0.3033399,0.530348,0.5316911,-0.29248365,0.5204,0.53539865,-0.2959213,0.528543,0.57665039,-0.35509165,0.549267,0.53792567,-0.33608813,0.530753,0.53564302,-0.35220314,0.543384,0.54000441,-0.36677343,0.554797
0.53427177,-0.40759729,0.588012,0.54770343,-0.3650497,0.570503,0.53025241,-0.38439752,0.58568,0.50359932,-0.36168385,0.571719,0.48279436,-0.33619951,0.559837,0.47274442,-0.31558456,0.549256,0.53423513,-0.30755444,0.556716,0.51195625,-0.28549041,0.538051,0.50062815,-0.27457672,0.528718,0.5076331,-0.27587729,0.536926,0.54999842,-0.31739441,0.553795,0.53005062,-0.28629827,0.530909,0.51680942,-0.27061682,0.517559,0.51728863,-0.28502665,0.524962,0.56290598,-0.32870998,0.552542,0.54114086,-0.30573283,0.532581,0.53183824,-0.29364932,0.522368,0.53742259,-0.29506504,0.530631,0.57810545,-0.3485913,0.553272,0.54287286,-0.33606823,0.534368,0.53940411,-0.35020383,0.547247,0.54216342,-0.36577106,0.558894
0.53452596,-0.40802532,0.587542,0.5475101,-0.36515477,0.571227,0.52949993,-0.38511684,0.585314,0.5029047,-0.36294934,0.571558,0.48206226,-0.33782715,0.560064,0.47189391,-0.31711632,0.549828,0.52760333,-0.30915947,0.558314,0.50730104,-0.28679715,0.540371,0.50009281,-0.27583736,0.531399,0.50611627,-0.27430503,0.540057,0.54494899,-0.31706993,0.555659,0.52969916,-0.28653246,0.533772,0.51742377,-0.27078652,0.521004,0.51983799,-0.28598441,0.528912,0.56214988,-0.32836387,0.554547,0.54188489,-0.3053836,0.535397,0.53149483,-0.29333104,0.525599,0.53969509,-0.29259804,0.534352,0.57852856,-0.34740672,0.555293,0.54472565,-0.3340637,0.537086,0.54194933,-0.35126907,0.550258,0.54521061,-0.36707539,0.561774
0.53487309,-0.40854879,0.587355,0.54672523,-0.36497311,0.57115,0.52876265,-0.38568239,0.58491,0.50164464,-0.36628391,0.570853,0.48013225,-0.34150701,0.559029,0.47209269,-0.31867989,0.550262,0.5270598,-0.30936141,0.558041,0.50679068,-0.28661002,0.539982,0.49859433,-0.27556092,0.530952,0.50475365,-0.27398304,0.539627,0.54471262,-0.31752855,0.555687,0.52873298,-0.28666996,0.533832,0.51713888,-0.26996732,0.521082,0.51996885,-0.28481231,0.52905,0.56131482,-0.32835447,0.554816,0.54138766,-0.30504321,0.535596,0.53116611,-0.29290448,0.525763,0.54007407,-0.29387438,0.53455,0.57832297,-0.34731158,0.555836,0.54442873,-0.33625911,0.537582,0.54209952,-0.35257696,0.550806,0.54573219,-0.36708493,0.562358
0.53324639,-0.40801664,0.58529,0.54246217,-0.36572353,0.573364,0.52358318,-0.38851531,0.582724,0.49799753,-0.37150718,0.568831,0.47569716,-0.34669618,0.553516,0.46755342,-0.32382355,0.545217,0.51810341,-0.31476281,0.562783,0.50901132,-0.28971162,0.546419,0.50190974,-0.27825259,0.538237,0.51187468,-0.27687599,0.548105,0.53835504,-0.32136219,0.561984,0.5267455,-0.2872231,0.543676,0.52013249,-0.26667596,0.532997,0.5297878,-0.27385678,0.542613,0.55519482,-0.32995219,0.562111,0.54147713,-0.3017976,0.545579,0.53460799,-0.28988012,0.537121,0.54995496,-0.29507078,0.547443,0.57563797,-0.34645177,0.563779,0.56099615,-0.3319185,0.547888,0.57530201,-0.33745506,0.561066,0.57801988,-0.35300779,0.573065
0.52840441,-0.40638658,0.578707,0.52384027,-0.3613771,0.559803,0.51260991,-0.38954566,0.572412,0.4951646,-0.37216636,0.55295,0.45866149,-0.33486283,0.531634,0.44879774,-0.31194196,0.52318,0.48982985,-0.31109399,0.540316,0.472089,-0.26602451,0.517281,0.4653071,-0.25415811,0.505764,0.47688043,-0.25735205,0.512652,0.51239819,-0.31547374,0.541765,0.49427891,-0.26467687,0.516802,0.48536155,-0.23988004,0.50224,0.49675177,-0.24461899,0.509055,0.53170339,-0.32242585,0.544199,0.5130309,-0.27740671,0.520838,0.50548125,-0.26056206,0.508885,0.51656472,-0.27245894,0.516091,0.55630675,-0.33727949,0.549514,0.53666619,-0.29966426,0.528049,0.55433928,-0.31100398,0.540726,0.57171457,-0.3274441,0.553196
0.52849275,-0.40843166,0.577751,0.52197645,-0.3665102,0.560728,0.50776864,-0.39553869,0.569781,0.49043905,-0.36957321,0.548347,0.45573681,-0.33315232,0.528055,0.44656461,-0.31062945,0.520024,0.48803876,-0.31179022,0.540374,0.47035051,-0.27389367,0.517879,0.4643984,-0.25500084,0.506632,0.45577879,-0.23848452,0.496442,0.51308718,-0.31779134,0.544485,0.49553895,-0.27145278,0.520842,0.48769393,-0.2485731,0.507051,0.50069174,-0.24617849,0.514322,0.53450257,-0.32608282,0.548985,0.5134053,-0.27807659,0.526725,0.50638498,-0.26009687,0.515336,0.51940092,-0.26228187,0.523116,0.56163227,-0.3425835,0.55653,0.54844761,-0.31017959,0.535515,0.54325826,-0.29472044,0.525859,0.5528324,-0.28838237,0.530901
0.52591239,-0.40786307,0.574892,0.52053718,-0.36699148,0.560251,0.5048011,-0.39553333,0.567293,0.48754697,-0.36155949,0.54658,0.46554413,-0.32635859,0.531856,0.46241753,-0.30993488,0.536038,0.48801719,-0.31299938,0.541839,0.47149191,-0.27615334,0.521014,0.46417281,-0.25771908,0.510601,0.45754742,-0.24079509,0.501136,0.51350229,-0.31929955,0.546281,0.49762877,-0.27394684,0.524743,0.48994579,-0.24935246,0.512178,0.48520358,-0.23366008,0.506803,0.5352015,-0.32778399,0.550898,0.51383539,-0.27965575,0.52978,0.50356989,-0.2641694,0.518976,0.51951305,-0.26606888,0.527282,0.56111572,-0.34529747,0.558279,0.54979076,-0.30806315,0.538804,0.54538599,-0.29012811,0.529855,0.54243504,-0.27960871,0.52196
0.52623521,-0.41256978,0.572686,0.51893828,-0.36923617,0.5597,0.50242694,-0.39862773,0.564479,0.48923625,-0.38194827,0.543244,0.44992332,-0.34823085,0.521987,0.43826948,-0.33118051,0.521435,0.48299153,-0.32027434,0.541579,0.4695039,-0.27914533,0.521994,0.46240306,-0.26050188,0.512201,0.45802694,-0.24295252,0.503299,0.51087754,-0.32308439,0.547308,0.49936558,-0.27574324,0.527157,0.49132337,-0.24980974,0.515403,0.49044102,-0.23960771,0.507007,0.53468658,-0.33069742,0.552874,0.51243378,-0.28235508,0.532713,0.50486368,-0.26512016,0.522399,0.51726031,-0.26691793,0.530977,0.56338198,-0.34741609,0.561179,0.55305212,-0.30828526,0.543617,0.54931166,-0.29127064,0.535549,0.54577533,-0.27631607,0.528429
0.52597094,-0.4133534,0.572009,0.51887731,-0.36992344,0.559544,0.50218185,-0.39932943,0.563846,0.48878055,-0.38159251,0.542738,0.45018104,-0.34843032,0.522286,0.43922177,-0.33190012,0.522568,0.48319219,-0.3204074,0.541804,0.46967109,-0.28010104,0.522614,0.46277868,-0.26147332,0.513019,0.45818699,-0.24399255,0.504296,0.51084961,-0.32404298,0.54765,0.49990225,-0.27645856,0.528014,0.4927439,-0.2505736,0.516559,0.49153638,-0.24021212,0.508377,0.53462291,-0.33146142,0.553279,0.51267019,-0.28319089,0.533546,0.50520797,-0.26539155,0.523451,0.51783458,-0.26662867,0.532196,0.56347251,-0.34783418,0.561592,0.55373784,-0.30858682,0.544602,0.54995118,-0.29129651,0.536795,0.54654633,-0.27615252,0.529907
0.52329721,-0.41102882,0.569465,0.51727835,-0.3692656,0.558114,0.49958878,-0.39804797,0.561296,0.48601991,-0.3798449,0.540344,0.44741424,-0.34601596,0.51926,0.43686363,-0.32911023,0.519191,0.48312407,-0.31770833,0.541062,0.46957244,-0.28006893,0.5227,0.46304692,-0.26170286,0.513518,0.45851848,-0.24454638,0.505172,0.51041491,-0.32387364,0.547282,0.49869949,-0.27684225,0.528594,0.49002714,-0.24907793,0.517693,0.4872797,-0.23067805,0.515952,0.53427417,-0.33160304,0.553146,0.51288756,-0.28348557,0.534318,0.50449798,-0.26455625,0.524685,0.51738279,-0.26394408,0.533745,0.56326909,-0.34806666,0.561599,0.55497957,-0.30895765,0.546073,0.55059173,-0.29016745,0.53894,0.54741036,-0.27435039,0.532646
0.52196669,-0.41128537,0.56661,0.5165682,-0.36747289,0.556231,0.4986539,-0.39732627,0.558996,0.48149676,-0.36391385,0.538852,0.45278397,-0.33207166,0.525201,0.44505813,-0.32101143,0.531037,0.48137825,-0.31925284,0.540464,0.46936924,-0.28019714,0.523024,0.46329793,-0.26159946,0.514304,0.45902268,-0.2444193,0.506376,0.50846327,-0.32415676,0.546327,0.49394642,-0.27500354,0.528561,0.49112262,-0.24970217,0.523949,0.4891191,-0.2314417,0.520656,0.53204969,-0.33097593,0.551833,0.51646292,-0.28501937,0.537927,0.50958511,-0.26300247,0.530813,0.50591946,-0.24448342,0.524345,0.56132537,-0.34575311,0.559734,0.55830522,-0.30315292,0.550448,0.5576155,-0.28591814,0.546961,0.55749483,-0.27410645,0.543885
0.5203843,-0.41188132,0.564369,0.51482331,-0.36788228,0.554815,0.49814728,-0.397545,0.558231,0.46983917,-0.3636493,0.539996,0.44679099,-0.3334696,0.530136,0.44447894,-0.31938919,0.533063,0.48184648,-0.31998751,0.541362,0.46872011,-0.2806193,0.524984,0.46118897,-0.25994721,0.516795,0.45541651,-0.24122368,0.509351,0.50764134,-0.32397631,0.545699,0.4993594,-0.27907794,0.538029,0.49824762,-0.25554074,0.539536,0.49851937,-0.23859011,0.540613,0.53000441,-0.33003799,0.549894,0.51601997,-0.28492362,0.537485,0.50986428,-0.26322244,0.531136,0.50575336,-0.24432217,0.525365,0.5576604,-0.34392593,0.556125,0.55316278,-0.30569301,0.545407,0.5557703,-0.28875955,0.545452,0.55833986,-0.27530682,0.545492
0.52056128,-0.4134124,0.563386,0.51545082,-0.36851326,0.555298,0.49771322,-0.39744835,0.55701,0.46888196,-0.36375062,0.538714,0.44610585,-0.33480135,0.529863,0.44188126,-0.31943414,0.532391,0.48189434,-0.32145497,0.542471,0.47053386,-0.28247109,0.52708,0.46314229,-0.26125494,0.519384,0.45968304,-0.24350533,0.512388,0.50875276,-0.32514683,0.54758,0.50224045,-0.28174014,0.542408,0.49946515,-0.25610779,0.539391,0.49897717,-0.23767801,0.537236,0.53132179,-0.33167541,0.552315,0.51605119,-0.28541061,0.538278,0.51010349,-0.265247,0.531096,0.50663538,-0.25092485,0.524567,0.56015477,-0.34541582,0.559004,0.56933475,-0.31313361,0.56211,0.5767195,-0.30031684,0.565331,0.58323331,-0.28901523,0.568173
0.53619231,-0.40168969,0.544755,0.52505453,-0.36007569,0.545691,0.51016521,-0.38921816,0.539767,0.47958444,-0.36463152,0.537728,0.45757323,-0.34543769,0.536288,0.44631868,-0.32589643,0.534899,0.48757632,-0.32083631,0.540196,0.47628198,-0.28491519,0.53271,0.47044525,-0.26561857,0.528967,0.4683306,-0.24856298,0.525565,0.51403766,-0.32001394,0.546585,0.50114257,-0.27971222,0.540161,0.4965649,-0.25398419,0.536414,0.49329653,-0.23562931,0.533738,0.53754347,-0.32677774,0.551779,0.52467319,-0.28540988,0.544604,0.51636619,-0.26221493,0.540934,0.51767461,-0.25243307,0.537597,0.568028,-0.33387388,0.557869,0.57713181,-0.3056872,0.565133,0.58319899,-0.29386182,0.570322,0.58855132,-0.28343604,0.5749
0.53669331,-0.40206502,0.545264,0.52550964,-0.3603878,0.546164,0.51077861,-0.38968615,0.540416,0.48040141,-0.36601065,0.538926,0.45801606,-0.34577199,0.536807,0.4473623,-0.3279758,0.536931,0.48813683,-0.32120514,0.540817,0.4768668,-0.2851828,0.533425,0.47094799,-0.26584578,0.529729,0.46826849,-0.24877706,0.526369,0.5139102,-0.32110373,0.547023,0.50212926,-0.27955981,0.540696,0.49704029,-0.25390956,0.537005,0.4987585,-0.23815853,0.540165,0.53751921,-0.32626098,0.552069,0.52474991,-0.28494349,0.545006,0.51680434,-0.26243743,0.541393,0.517897,-0.25246399,0.538108,0.56814713,-0.33394391,0.557986,0.57744737,-0.30585434,0.565442,0.58359064,-0.29405917,0.570705,0.58901098,-0.28365741,0.575349
0.52661696,-0.41167173,0.555747,0.52879556,-0.36593138,0.552256,0.50291261,-0.39617586,0.549458,0.48244035,-0.37077543,0.542833,0.45225507,-0.34896706,0.535825,0.44806849,-0.33386428,0.541524,0.48643796,-0.32224704,0.542409,0.47501046,-0.28566914,0.531192,0.47157273,-0.2696019,0.525584,0.46650204,-0.24999002,0.520485,0.5130902,-0.32489049,0.548925,0.49969622,-0.27893744,0.538442,0.49210815,-0.25226902,0.532327,0.49709639,-0.23834945,0.539237,0.53503427,-0.33237837,0.554515,0.52137253,-0.28678065,0.543667,0.51353031,-0.26375639,0.538116,0.51022803,-0.24807614,0.533071,0.56738697,-0.34209882,0.561641,0.57436439,-0.30850514,0.564089,0.57738434,-0.29435306,0.565213,0.57965188,-0.28274408,0.566205
0.53615033,-0.40329873,0.546381,0.5280607,-0.36127113,0.548018,0.51157601,-0.39195923,0.54264,0.48334137,-0.36929925,0.541296,0.45770147,-0.34868314,0.538133,0.44801354,-0.3346293,0.541321,0.49044467,-0.32451194,0.544481,0.48071008,-0.28716954,0.538822,0.47637196,-0.26794267,0.535992,0.47172106,-0.25045795,0.533419,0.51645952,-0.3244126,0.54958,0.5054779,-0.28154571,0.544373,0.49999967,-0.25490584,0.541336,0.49948562,-0.23980474,0.543543,0.53956445,-0.3256024,0.553667,0.52578052,-0.28610335,0.547897,0.51945885,-0.265347,0.544945,0.51370296,-0.24804054,0.542262,0.56791271,-0.33329551,0.558345,0.57933484,-0.30621951,0.567066,0.58586828,-0.2945508,0.572338,0.5917342,-0.28431203,0.577089
0.5375458,-0.40275511,0.546322,0.52865648,-0.36124716,0.548239,0.51300741,-0.39177761,0.54273,0.48413615,-0.36967436,0.541442,0.45878915,-0.34988318,0.539269,0.44877065,-0.33567762,0.542154,0.49116819,-0.32488184,0.545058,0.48188378,-0.28753086,0.539913,0.47767374,-0.26825244,0.53734,0.47326427,-0.25071134,0.535002,0.51698607,-0.32449669,0.550067,0.50626551,-0.28175954,0.545284,0.50396122,-0.25714603,0.546076,0.50200325,-0.24104311,0.546641,0.53971982,-0.32565476,0.554062,0.52659299,-0.28626476,0.548686,0.52042739,-0.26560177,0.545935,0.51480646,-0.24767741,0.543435,0.56786753,-0.33301465,0.558594,0.58084142,-0.30669978,0.568429,0.58778856,-0.29518958,0.573918,0.59399096,-0.28506944,0.578832
0.52246629,-0.40772134,0.549643,0.51560076,-0.3678922,0.55087,0.50307172,-0.3960919,0.547363,0.47946396,-0.3739701,0.544822,0.45156503,-0.34958399,0.537674,0.4436008,-0.33710461,0.543104,0.48774642,-0.32847711,0.548859,0.47824683,-0.29028791,0.543178,0.4747185,-0.27157047,0.540338,0.47593737,-0.25337868,0.537756,0.51247295,-0.32902624,0.552042,0.50522263,-0.28741492,0.549346,0.50489891,-0.25894984,0.547774,0.50195149,-0.24755728,0.546651,0.53367163,-0.33246699,0.55458,0.52398255,-0.29056637,0.548782,0.51998811,-0.26631894,0.545816,0.51438798,-0.24838284,0.54312,0.55889809,-0.34250561,0.557457,0.5700193,-0.31143225,0.563038,0.57585771,-0.29823395,0.566421,0.58101054,-0.28658031,0.569406
0.53740886,-0.40499719,0.548953,0.53222908,-0.36360426,0.552327,0.51465756,-0.39249045,0.544458,0.48605489,-0.37087269,0.543801,0.46289925,-0.3538236,0.544107,0.44899588,-0.33697488,0.544167,0.49596659,-0.3261759,0.548946,0.48334008,-0.28865733,0.544109,0.47332076,-0.26697085,0.54169,0.47584712,-0.2539466,0.539492,0.52302044,-0.32656969,0.555535,0.51186622,-0.28345394,0.551693,0.50546155,-0.2585744,0.549452,0.50408736,-0.24187659,0.547851,0.54560614,-0.32892664,0.560733,0.53395623,-0.28914251,0.555696,0.52705955,-0.26979596,0.553119,0.52173689,-0.25163854,0.550776,0.57295569,-0.33779504,0.566515,0.586664,-0.30963053,0.574595,0.59231849,-0.29723363,0.578308,0.59690887,-0.28640473,0.581584
0.53855104,-0.40532955,0.550029,0.53301524,-0.3640855,0.553397,0.51558173,-0.39280572,0.545423,0.48678542,-0.37125274,0.54476,0.46383985,-0.3542036,0.545501,0.44991066,-0.33771305,0.545357,0.4971292,-0.32639978,0.549876,0.48351165,-0.28846,0.544715,0.47370959,-0.26719016,0.542135,0.47565667,-0.25419682,0.539789,0.52416401,-0.32697849,0.556599,0.51270192,-0.28376829,0.552625,0.50606263,-0.2588843,0.550307,0.50488534,-0.24228564,0.548651,0.54678992,-0.32956334,0.561908,0.53482935,-0.28969652,0.556619,0.52790062,-0.2701181,0.553912,0.52244246,-0.25178386,0.551452,0.57427958,-0.33857555,0.567824,0.58788299,-0.31067523,0.576189,0.59364986,-0.29827403,0.580033,0.59885986,-0.28729752,0.583424
0.53922203,-0.40542501,0.550644,0.53346605,-0.36435368,0.554046,0.51618052,-0.39297066,0.546047,0.48740376,-0.37159788,0.545553,0.46422602,-0.35429538,0.546128,0.45060271,-0.33827255,0.546259,0.49797695,-0.32657047,0.550559,0.48380374,-0.28843462,0.545319,0.47420241,-0.26746813,0.542699,0.47582065,-0.25451902,0.540317,0.52490744,-0.32722461,0.557281,0.51333954,-0.2840323,0.553331,0.50661276,-0.25916718,0.551026,0.50549611,-0.24267337,0.54938,0.54747588,-0.32993069,0.562588,0.53545851,-0.29009523,0.557284,0.52859507,-0.2703892,0.554571,0.52310668,-0.25196483,0.552104,0.57495922,-0.33897624,0.568496,0.58849668,-0.3112398,0.57703,0.59432881,-0.29883813,0.580951,0.59991751,-0.28777405,0.584411
0.53397905,-0.40556297,0.549352,0.52375809,-0.37103343,0.553899,0.51156965,-0.39438485,0.546497,0.4804877,-0.37150166,0.543346,0.46013857,-0.35155303,0.542711,0.45089919,-0.33821503,0.546676,0.50065116,-0.32861399,0.553248,0.48504551,-0.29004373,0.548411,0.4774293,-0.26995354,0.545993,0.47656725,-0.25631318,0.543794,0.52798541,-0.3347612,0.558222,0.52298629,-0.29421475,0.559655,0.52011495,-0.27085423,0.560491,0.5175006,-0.24966648,0.561087,0.54894956,-0.33983346,0.562014,0.53771113,-0.29879217,0.557926,0.53302691,-0.27803614,0.555835,0.52684829,-0.2575823,0.553934,0.57366528,-0.35092407,0.565967,0.57915792,-0.31909081,0.569654,0.58167883,-0.30451858,0.571348,0.58314312,-0.28841922,0.572842
0.53530768,-0.40495402,0.548585,0.53189383,-0.36675185,0.554508,0.51529086,-0.3961566,0.548664,0.48544807,-0.37796605,0.55018,0.46496706,-0.35560268,0.549174,0.45299246,-0.34089715,0.549874,0.50328562,-0.3376779,0.558279,0.49383112,-0.29822648,0.556489,0.48819036,-0.27915703,0.555594,0.48471781,-0.26236205,0.554781,0.52837108,-0.33630285,0.560122,0.52339899,-0.29563114,0.561251,0.5205141,-0.27201534,0.561909,0.51847967,-0.25131097,0.56238,0.54756667,-0.33881022,0.561246,0.53910504,-0.29915892,0.559597,0.53557796,-0.27901964,0.558754,0.53007014,-0.25684044,0.557987,0.57058864,-0.34656918,0.561834,0.58386174,-0.32126915,0.573633,0.59389178,-0.3124094,0.582488,0.60216688,-0.30458541,0.5903
0.53480262,-0.40528218,0.549116,0.53070585,-0.36517384,0.553311,0.51505291,-0.3964673,0.549427,0.48375107,-0.37456175,0.550955,0.46162408,-0.35266818,0.549555,0.45298233,-0.3393146,0.550367,0.50335689,-0.32855584,0.556287,0.4896788,-0.29225376,0.553219,0.48331942,-0.27294204,0.551685,0.48191992,-0.25929788,0.55029,0.52406824,-0.32782531,0.557277,0.51793045,-0.28678311,0.558358,0.51374207,-0.26303345,0.558988,0.51390835,-0.24801343,0.559438,0.54235362,-0.32841918,0.557812,0.53177704,-0.29027019,0.554673,0.52690243,-0.27016059,0.553067,0.52293039,-0.25239313,0.551607,0.56573114,-0.33987497,0.557915,0.58146919,-0.31396302,0.571564,0.58847022,-0.30556869,0.577835,0.59696656,-0.29315764,0.583368
0.53386172,-0.40802606,0.552239,0.52622495,-0.37019618,0.555179,0.50776309,-0.39842647,0.55032,0.48288576,-0.37370617,0.553933,0.46169201,-0.35117775,0.552427,0.45263725,-0.33451255,0.551282,0.50102766,-0.32851198,0.554656,0.4855898,-0.28989683,0.549153,0.47835809,-0.27085548,0.546401,0.477686,-0.25884937,0.5439,0.52528211,-0.32953734,0.557959,0.52017025,-0.28999872,0.559898,0.51707894,-0.26667616,0.561029,0.51675521,-0.25002163,0.561837,0.54572446,-0.33600126,0.56048,0.5330775,-0.29281769,0.555276,0.52740977,-0.27217808,0.552613,0.52214942,-0.25252798,0.550192,0.57122993,-0.34723404,0.563116,0.57535462,-0.31684457,0.568959,0.57861759,-0.30298929,0.571644,0.5825136,-0.29130196,0.575018
0.52572305,-0.40881774,0.549878,0.52358278,-0.36930586,0.55459,0.5071965,-0.39866243,0.551095,0.48331484,-0.37534706,0.556202,0.46186408,-0.35184112,0.55327,0.45327659,-0.33491981,0.552626,0.50162135,-0.33068723,0.558984,0.49204392,-0.29360461,0.556482,0.48642862,-0.2744447,0.555231,0.48493053,-0.26107308,0.554094,0.52535918,-0.33210458,0.559034,0.5187869,-0.28969682,0.559757,0.5153829,-0.2659256,0.560179,0.5154521,-0.24985316,0.56048,0.54233682,-0.335059,0.558762,0.53395103,-0.29348402,0.556247,0.52963653,-0.27343083,0.554961,0.5257964,-0.25476778,0.553791,0.562346,-0.34310127,0.557832,0.57383179,-0.31617327,0.567301,0.57877487,-0.30342399,0.571651,0.58770499,-0.29419098,0.578698
0.52308023,-0.41352325,0.553739,0.52132076,-0.37569782,0.557333,0.50460308,-0.40187706,0.554126,0.48199053,-0.37907162,0.559768,0.46288454,-0.3530198,0.555299,0.45472953,-0.33562686,0.554622,0.50090749,-0.33616008,0.560018,0.49181986,-0.29628273,0.556195,0.48649719,-0.27655654,0.554283,0.48378828,-0.26143079,0.552545,0.52550986,-0.33864413,0.560713,0.52414664,-0.29736964,0.562493,0.52255157,-0.27378135,0.563532,0.52155041,-0.25604921,0.564273,0.54207799,-0.34534419,0.561045,0.53384825,-0.30428751,0.557242,0.52986613,-0.28345847,0.555296,0.52721346,-0.25991131,0.553527,0.56387824,-0.35666075,0.560981,0.57556593,-0.32838897,0.569,0.58093002,-0.31545926,0.572685,0.5876992,-0.30513979,0.577942
