sluyters/QuantumLeap/backend/src/datasets/dynamic/HandGestureDataset_SHREC2017_csv/Gesture5/finger_2/subject_13_essai_4_skeletons_world.csv
Wrist_x,Wrist_y,Wrist_z,Palm_x,Palm_y,Palm_z,thumb_base_x,thumb_base_y,thumb_base_z,thumb_first_joint_x,thumb_first_joint_y,thumb_first_joint_z,thumb_second_joint_x,thumb_second_joint_y,thumb_second_joint_z,thumb_tip_x,thumb_tip_y,thumb_tip_z,index_base_x,index_base_y,index_base_z,index_first_joint_x,index_first_joint_y,index_first_joint_z,index_second_joint_x,index_second_joint_y,index_second_joint_z,index_tip_x,index_tip_y,index_tip_z,middle_base_x,middle_base_y,middle_base_z,middle_first_joint_x,middle_first_joint_y,middle_first_joint_z,middle_second_joint_x,middle_second_joint_y,middle_second_joint_z,middle_tip_x,middle_tip_y,middle_tip_z,ring_base_x,ring_base_y,ring_base_z,ring_first_joint_x,ring_first_joint_y,ring_first_joint_z,ring_second_joint_x,ring_second_joint_y,ring_second_joint_z,ring_tip_x,ring_tip_y,ring_tip_z,pinky_base_x,pinky_base_y,pinky_base_z,pinky_first_joint_x,pinky_first_joint_y,pinky_first_joint_z,pinky_second_joint_x,pinky_second_joint_y,pinky_second_joint_z,pinky_tip_x,pinky_tip_y,pinky_tip_z,
0.43908009,-0.31659833,0.487414,0.44724207,-0.28076691,0.4954,0.42718411,-0.30840011,0.497023,0.40345212,-0.28472188,0.501499,0.37938363,-0.25937115,0.495952,0.36961965,-0.239528,0.494853,0.44588357,-0.24492878,0.51416,0.44025714,-0.20076497,0.517154,0.43762736,-0.18132872,0.518651,0.43508367,-0.1630085,0.520012,0.46243495,-0.24015718,0.505649,0.46108922,-0.19484755,0.508259,0.45546722,-0.16423245,0.509781,0.45458218,-0.14449951,0.510869,0.4710344,-0.23537438,0.498077,0.47542959,-0.19092399,0.499607,0.47618707,-0.1687861,0.50039,0.47512045,-0.14827131,0.501102,0.48614432,-0.23872456,0.487869,0.49771376,-0.20088715,0.488149,0.49863664,-0.18249562,0.488278,0.49938312,-0.16694225,0.488391
0.44610359,-0.32262557,0.495574,0.4500986,-0.28318821,0.49852,0.43210112,-0.31250884,0.503004,0.40569899,-0.28564123,0.503752,0.3793356,-0.254521,0.491804,0.36880625,-0.23734974,0.492659,0.43780885,-0.2391752,0.510145,0.43423885,-0.19841962,0.510368,0.43051673,-0.17886213,0.51048,0.42699719,-0.16052089,0.510581,0.45933394,-0.23881439,0.502302,0.4550129,-0.19131957,0.499135,0.45626647,-0.16459822,0.497288,0.45558575,-0.14476703,0.495968,0.47331292,-0.23958757,0.495639,0.46951174,-0.19534526,0.493673,0.46866209,-0.17345477,0.492667,0.46868241,-0.1573672,0.491753,0.4891918,-0.25005155,0.487235,0.48856093,-0.2145761,0.483904,0.48835033,-0.19728248,0.482373,0.48821126,-0.1814537,0.481023
0.44534108,-0.32303365,0.495089,0.44981329,-0.28363542,0.49816,0.43120036,-0.31241514,0.502215,0.40518963,-0.28496529,0.502554,0.37826517,-0.25345689,0.490561,0.36822464,-0.23598466,0.491219,0.43770195,-0.23891236,0.509529,0.43345865,-0.19846151,0.509734,0.42975777,-0.17902612,0.509836,0.42625633,-0.16078436,0.509929,0.45913863,-0.238802,0.502103,0.45559156,-0.19124121,0.498957,0.45611416,-0.16454327,0.497122,0.45544245,-0.1447215,0.495812,0.47345881,-0.24035809,0.495774,0.46975521,-0.19544656,0.493929,0.4689646,-0.17356673,0.492985,0.46903982,-0.15748721,0.492128,0.48971088,-0.25031688,0.487752,0.48917882,-0.21484747,0.484516,0.48901446,-0.19755078,0.483029,0.48891563,-0.18171549,0.481717
0.44089409,-0.32077757,0.491116,0.44745947,-0.28274124,0.495967,0.42692407,-0.30984651,0.498075,0.40217173,-0.27662927,0.498419,0.37628232,-0.24205169,0.484883,0.36733232,-0.21960377,0.480972,0.4367746,-0.23798344,0.508723,0.43371329,-0.19855663,0.509951,0.43062386,-0.17954717,0.510565,0.4276791,-0.16172471,0.511123,0.45576303,-0.23622742,0.502194,0.45696322,-0.19406574,0.500769,0.45630678,-0.17256226,0.499938,0.45574175,-0.15798537,0.499344,0.47345799,-0.24073912,0.496477,0.47225196,-0.19567692,0.496235,0.47219397,-0.17377947,0.496111,0.4728893,-0.1591625,0.495998,0.48990231,-0.25047698,0.488936,0.49055006,-0.21611273,0.48713,0.49087431,-0.19939237,0.4863,0.49120589,-0.18400344,0.485568
0.44207145,-0.32260859,0.493403,0.44771538,-0.28349375,0.496665,0.42734497,-0.31068375,0.49941,0.40202326,-0.27652715,0.498235,0.37661096,-0.24161044,0.483673,0.36729667,-0.21836341,0.478413,0.43539119,-0.23697809,0.506848,0.43018293,-0.19644423,0.505949,0.42830782,-0.17737137,0.5055,0.42664217,-0.16470237,0.505091,0.45478459,-0.23592558,0.500851,0.45309494,-0.19138171,0.497537,0.45203605,-0.17161893,0.495605,0.45084419,-0.15780797,0.494224,0.47230003,-0.24037863,0.495684,0.46947574,-0.1948373,0.493489,0.46874128,-0.17188588,0.492366,0.46851794,-0.15748806,0.491345,0.48949635,-0.25030065,0.489029,0.48538687,-0.21706674,0.485506,0.4825691,-0.20375237,0.483888,0.48288547,-0.18727459,0.48246
0.44262965,-0.32399374,0.495005,0.44780121,-0.28413953,0.497175,0.42746836,-0.31130703,0.500401,0.40203698,-0.27653658,0.498252,0.37701261,-0.24142376,0.482753,0.3673773,-0.21787041,0.476979,0.4345832,-0.23628704,0.505644,0.42818986,-0.19536941,0.503542,0.42583871,-0.17672131,0.502491,0.42366633,-0.16390691,0.501536,0.45421553,-0.23583523,0.49996,0.45213063,-0.18967493,0.495372,0.44928385,-0.17119389,0.492696,0.44733896,-0.15953693,0.490784,0.47150311,-0.24012498,0.495128,0.46777866,-0.1939958,0.49168,0.46648073,-0.17075627,0.489916,0.46566557,-0.15698184,0.488312,0.48919674,-0.2501662,0.489029,0.48391552,-0.21704359,0.484363,0.48087214,-0.20316419,0.482219,0.47873795,-0.18951619,0.480327
0.44128145,-0.32398679,0.494435,0.44702703,-0.28422704,0.496689,0.42654958,-0.31117408,0.500141,0.40258107,-0.27636555,0.498424,0.37853597,-0.24038931,0.481519,0.36908552,-0.21639439,0.475191,0.43480939,-0.23613033,0.505608,0.42893494,-0.19596964,0.504116,0.42531281,-0.17783998,0.50337,0.42188546,-0.16316511,0.502692,0.45414858,-0.23597624,0.499581,0.45195556,-0.18944584,0.49517,0.44929152,-0.17123575,0.492597,0.44740499,-0.15984636,0.490759,0.47074486,-0.23980362,0.494462,0.46753755,-0.19372943,0.491328,0.46642628,-0.17044729,0.489725,0.46573312,-0.15720817,0.488268,0.488068,-0.24955102,0.488006,0.48310846,-0.21689553,0.483572,0.4803802,-0.20284274,0.481535,0.4783288,-0.1892853,0.479738
0.44787866,-0.32918079,0.50167,0.44926326,-0.28569711,0.498597,0.43084682,-0.31430325,0.504903,0.41640062,-0.27669766,0.499217,0.39259695,-0.24106336,0.486797,0.38070075,-0.2189776,0.482754,0.434046,-0.23372471,0.499769,0.43461404,-0.19010076,0.490864,0.42919872,-0.17464614,0.486411,0.42421209,-0.16000197,0.482363,0.45356163,-0.23472585,0.494653,0.45102621,-0.18594535,0.48426,0.44438645,-0.16596229,0.478197,0.43959744,-0.15086943,0.473866,0.4698713,-0.23746811,0.490665,0.45951436,-0.18939653,0.482199,0.45630632,-0.1727598,0.477868,0.45199827,-0.16584814,0.47393,0.49012131,-0.24829541,0.486318,0.4756716,-0.21299213,0.476671,0.46531479,-0.19585831,0.472238,0.46432162,-0.18512772,0.468327
0.44661713,-0.32815026,0.49986,0.45081545,-0.28532034,0.496814,0.43041526,-0.31361477,0.503909,0.41703286,-0.27681179,0.499331,0.39373407,-0.24116583,0.487169,0.38376653,-0.2199354,0.48465,0.43766799,-0.2327179,0.498998,0.43571659,-0.19033784,0.490599,0.4306816,-0.17495146,0.486399,0.42604681,-0.1603554,0.482581,0.45659877,-0.23280363,0.492905,0.45103103,-0.18589599,0.482784,0.44456825,-0.16663289,0.47688,0.43982007,-0.15238637,0.472663,0.47217701,-0.23568346,0.488111,0.45843823,-0.188575,0.480231,0.45621022,-0.17276026,0.476199,0.45224398,-0.16593258,0.472534,0.48786565,-0.24630281,0.482793,0.47266338,-0.21194114,0.473617,0.46543114,-0.20178549,0.4694,0.45977929,-0.19364985,0.46568
0.44743149,-0.32864463,0.500372,0.45197316,-0.28548321,0.496599,0.43172241,-0.31417683,0.504938,0.41869678,-0.27770718,0.501006,0.39553299,-0.24191784,0.488884,0.39016097,-0.22181679,0.489004,0.43792777,-0.2326944,0.498761,0.43622996,-0.19039142,0.490439,0.43130579,-0.17500749,0.486277,0.42677567,-0.16041143,0.482494,0.4559855,-0.23245825,0.491757,0.45013436,-0.18544779,0.481103,0.44342357,-0.16633062,0.474888,0.43847201,-0.15231691,0.470449,0.47081495,-0.23507802,0.486266,0.45714774,-0.1877585,0.478189,0.45488867,-0.17222327,0.474057,0.45087518,-0.16537102,0.4703,0.48610808,-0.24492477,0.480216,0.47053216,-0.21458611,0.470828,0.4638809,-0.20769638,0.466514,0.45861074,-0.20207224,0.462709
0.44211854,-0.32452292,0.494558,0.44988419,-0.28334707,0.493518,0.42808834,-0.31087835,0.500669,0.41849357,-0.2738846,0.499139,0.39970707,-0.23608054,0.489842,0.39351924,-0.21812356,0.489029,0.44109464,-0.23307556,0.499989,0.44990106,-0.19082476,0.49266,0.44477444,-0.17892532,0.488996,0.44001822,-0.167545,0.485665,0.45834873,-0.23284598,0.492184,0.45614942,-0.18574663,0.484677,0.45059677,-0.17470645,0.480298,0.4465525,-0.16630498,0.477171,0.47222313,-0.23532254,0.485838,0.46739942,-0.19900648,0.48081,0.46362153,-0.17889619,0.478238,0.45719489,-0.16542734,0.475899,0.4878226,-0.24315397,0.478377,0.47399863,-0.21760009,0.471809,0.46677944,-0.20537252,0.468792,0.46203073,-0.19793865,0.466129
0.44097153,-0.32256394,0.493259,0.45530605,-0.28330865,0.497115,0.42852656,-0.30976255,0.50085,0.41844781,-0.26713601,0.501936,0.405545,-0.23599357,0.500655,0.40488698,-0.21794492,0.502257,0.45640404,-0.23257467,0.509747,0.465724,-0.19106697,0.507155,0.46002003,-0.18408665,0.50586,0.47068827,-0.18137786,0.521041,0.47182109,-0.23568439,0.502063,0.47074903,-0.19871342,0.499851,0.46840318,-0.17689348,0.499789,0.4664518,-0.16265408,0.499745,0.48532909,-0.23893051,0.495467,0.47947362,-0.22052218,0.488227,0.47718531,-0.23888522,0.484523,0.49384721,-0.27008025,0.500212,0.49820857,-0.24787153,0.487014,0.48829702,-0.22377375,0.484838,0.48374881,-0.21346514,0.483838,0.47931176,-0.20466258,0.482956
0.43816737,-0.31965719,0.491084,0.45364818,-0.27988464,0.495715,0.42573005,-0.30620908,0.500331,0.41633848,-0.26291155,0.503854,0.40701946,-0.23210832,0.504939,0.40646555,-0.21328002,0.505893,0.46359714,-0.23310221,0.511043,0.48046242,-0.19454661,0.508592,0.4720847,-0.18815036,0.507366,0.47857965,-0.18768367,0.522119,0.47546685,-0.23461498,0.501659,0.47266056,-0.19914399,0.500542,0.46989256,-0.17774646,0.500912,0.46793592,-0.16349004,0.501177,0.48510391,-0.2384385,0.493608,0.47717477,-0.21962073,0.486587,0.47322218,-0.238338,0.482995,0.48859712,-0.26965137,0.498223,0.49521319,-0.24651533,0.483301,0.48550463,-0.22138535,0.4827,0.481531,-0.21141653,0.482423,0.47845183,-0.20416416,0.482179
0.44283055,-0.32228617,0.495943,0.44869159,-0.27766786,0.490004,0.42708393,-0.30582882,0.498654,0.4137184,-0.26238021,0.497446,0.40306646,-0.2316971,0.497456,0.3999687,-0.20914307,0.495689,0.44232883,-0.21484299,0.487987,0.4252198,-0.2067087,0.475156,0.41640074,-0.20252157,0.468741,0.42455546,-0.21002196,0.481123,0.46063698,-0.2198029,0.482382,0.45578518,-0.16835502,0.469067,0.44471702,-0.16061642,0.4613,0.43663138,-0.15483615,0.455752,0.47539634,-0.2269426,0.478197,0.46256187,-0.18862652,0.467002,0.4559243,-0.16765273,0.461274,0.46867521,-0.17801769,0.476029,0.49247237,-0.2416771,0.474018,0.47109327,-0.21399559,0.462073,0.46099449,-0.20061433,0.456584,0.45150654,-0.19172679,0.453117
0.4463724,-0.32411662,0.500458,0.44980874,-0.27411488,0.491916,0.42800238,-0.30349871,0.501618,0.41066877,-0.25813215,0.49759,0.39854308,-0.2258353,0.494874,0.39766068,-0.20518445,0.493183,0.44098508,-0.21228372,0.485699,0.4228092,-0.19966844,0.472676,0.4130269,-0.19388134,0.466164,0.42109761,-0.20645606,0.478426,0.45951612,-0.21824826,0.480954,0.4470036,-0.17367301,0.464699,0.43259112,-0.16465847,0.455217,0.42204179,-0.15795625,0.448444,0.47461432,-0.22628207,0.477663,0.45811996,-0.19229035,0.463538,0.44971029,-0.17390391,0.456311,0.4595304,-0.18849491,0.470106,0.49235097,-0.24226179,0.474923,0.46888213,-0.21296044,0.460337,0.45754002,-0.2009918,0.453635,0.44634138,-0.2011971,0.447721
0.43425374,-0.31473331,0.49334,0.44378574,-0.27000885,0.48653,0.42572259,-0.29647258,0.499761,0.4112654,-0.2558866,0.499056,0.40124373,-0.22382946,0.497837,0.39827445,-0.20249271,0.4948,0.45085183,-0.21356621,0.488228,0.44400148,-0.17483828,0.477009,0.43535125,-0.15835731,0.4714,0.43621275,-0.15552588,0.482925,0.45814894,-0.21719842,0.477791,0.45629685,-0.17179062,0.46498,0.43886537,-0.15869752,0.457507,0.42596903,-0.14888911,0.45217,0.46759261,-0.22314721,0.469693,0.4570073,-0.18578911,0.458077,0.45584575,-0.16576009,0.452134,0.45580958,-0.17286515,0.465264,0.47726656,-0.23797756,0.460946,0.44456105,-0.21486809,0.450686,0.42845217,-0.20446776,0.446241,0.41262756,-0.19603035,0.442341
0.43264156,-0.3132802,0.494359,0.44123337,-0.26890204,0.48599,0.42554006,-0.29646502,0.501018,0.41090477,-0.25602527,0.499881,0.40115435,-0.2238461,0.498689,0.39937452,-0.2023503,0.496318,0.44669973,-0.21227081,0.486585,0.44016507,-0.1740251,0.474219,0.43048754,-0.15760128,0.468036,0.43000151,-0.15480066,0.478727,0.45613834,-0.2163584,0.475249,0.44861009,-0.17127811,0.461133,0.43019903,-0.16114153,0.452898,0.42020778,-0.14877463,0.449062,0.46522346,-0.22342465,0.466525,0.45213149,-0.18649546,0.453735,0.4432273,-0.16818439,0.44719,0.44446937,-0.17085844,0.45941,0.47204379,-0.23689915,0.457247,0.4353064,-0.21488208,0.446163,0.41847486,-0.20486286,0.441808,0.40649294,-0.19598661,0.439252
0.42337326,-0.31112981,0.495065,0.43000188,-0.26563614,0.480587,0.41782428,-0.29121344,0.499485,0.40165048,-0.24879193,0.496946,0.39620325,-0.21591575,0.496018,0.39718317,-0.19649309,0.492397,0.43480475,-0.20473378,0.473018,0.41424638,-0.17104731,0.454192,0.40387475,-0.15347825,0.444779,0.40111485,-0.15000102,0.452774,0.44308368,-0.21191213,0.462004,0.43304905,-0.1622676,0.441573,0.41068342,-0.14989856,0.429654,0.41121065,-0.1478122,0.437903,0.44920281,-0.2208289,0.453983,0.433653,-0.18227454,0.433265,0.42586644,-0.16156922,0.422664,0.41651732,-0.1638261,0.431604,0.45518507,-0.23764859,0.44641,0.41329424,-0.21512967,0.430082,0.39372262,-0.2046054,0.42258,0.38443434,-0.20616157,0.429758
0.42012253,-0.30966981,0.493905,0.42656517,-0.26355963,0.477543,0.41821461,-0.29127356,0.49979,0.40952433,-0.24799883,0.500128,0.40569183,-0.21558112,0.500175,0.40210616,-0.19271945,0.494666,0.43485325,-0.20248628,0.470067,0.4101461,-0.16814759,0.449037,0.39766759,-0.150377,0.438522,0.38474185,-0.15442287,0.444207,0.43955856,-0.20897967,0.456543,0.43203644,-0.15742418,0.435283,0.40657923,-0.14854332,0.422881,0.40178287,-0.15092569,0.42922,0.44355839,-0.21738705,0.446592,0.42438965,-0.17604566,0.421682,0.41517233,-0.15421032,0.408937,0.40517644,-0.15568005,0.414747,0.44477532,-0.23414893,0.436971,0.39715138,-0.2105324,0.420732,0.37503978,-0.19975721,0.413271,0.36440866,-0.19741072,0.419033
0.41486756,-0.30936078,0.497858,0.42524221,-0.26363426,0.480072,0.41396486,-0.28825252,0.502662,0.4067508,-0.24313278,0.501411,0.40310697,-0.20962428,0.499322,0.40404531,-0.18854115,0.493543,0.43588333,-0.20204841,0.470017,0.42132889,-0.16161121,0.446992,0.41305311,-0.14127642,0.43548,0.4029385,-0.14024648,0.440639,0.44046036,-0.20949793,0.457244,0.42739707,-0.1604078,0.434278,0.39826179,-0.15080758,0.420882,0.3896855,-0.15295069,0.426825,0.44355441,-0.21865683,0.448012,0.4141959,-0.18336002,0.423632,0.39964034,-0.16392195,0.411158,0.38486565,-0.16840614,0.417202,0.44487722,-0.23675332,0.439454,0.39674538,-0.21128567,0.421615,0.37395574,-0.19995537,0.413418,0.36327468,-0.19704944,0.418786
0.41147021,-0.30771683,0.499823,0.42465348,-0.26324392,0.480319,0.41250193,-0.28571462,0.504177,0.40887515,-0.24278245,0.502315,0.40471141,-0.20876138,0.499035,0.40420014,-0.18674374,0.492247,0.43730518,-0.20064262,0.468186,0.41935984,-0.16104267,0.444462,0.41009607,-0.1407537,0.4326,0.39853332,-0.13946854,0.436997,0.43983052,-0.20905743,0.455286,0.4238569,-0.15976973,0.430743,0.38835617,-0.15681119,0.416426,0.37563432,-0.16628958,0.421377,0.44121917,-0.21902682,0.446074,0.40928365,-0.1830981,0.420701,0.39018813,-0.16467494,0.40772,0.37691237,-0.16754129,0.412841,0.43942771,-0.23843111,0.437783,0.39034131,-0.21093453,0.418726,0.36395485,-0.19952972,0.409969,0.35717146,-0.19519411,0.414512
0.41091538,-0.30733671,0.50071,0.42396871,-0.2629904,0.480432,0.41275585,-0.28534343,0.505198,0.40959383,-0.24297067,0.503248,0.40558146,-0.20890752,0.499976,0.40513717,-0.1864171,0.493106,0.43714602,-0.20050574,0.46777,0.41804949,-0.16079085,0.443447,0.40827686,-0.14046366,0.431285,0.39581841,-0.13895065,0.434976,0.43875207,-0.20894045,0.454405,0.42197934,-0.15947808,0.429353,0.38604706,-0.15617593,0.414739,0.37277459,-0.16535706,0.419014,0.43856314,-0.21969413,0.444866,0.40433094,-0.18315207,0.418499,0.38682982,-0.16357999,0.405009,0.36892489,-0.16696984,0.409236,0.43581783,-0.23894857,0.436291,0.38551941,-0.21084619,0.416983,0.36157665,-0.19862544,0.408111,0.35194426,-0.19414341,0.412123
0.41498347,-0.30779705,0.499613,0.41901206,-0.25952611,0.474281,0.41799886,-0.2880523,0.50486,0.42539729,-0.24248747,0.504111,0.42132773,-0.20943209,0.502456,0.41925311,-0.18529495,0.495431,0.44068771,-0.19793118,0.458028,0.42285223,-0.15424092,0.431678,0.39560545,-0.13723706,0.418503,0.3745501,-0.13549969,0.416485,0.43101433,-0.2057117,0.441768,0.40933175,-0.15256474,0.41417,0.36921765,-0.1496562,0.398071,0.35051606,-0.15598027,0.396461,0.42259392,-0.21516926,0.43021,0.36535765,-0.17792383,0.402563,0.33209892,-0.16577808,0.388418,0.309516,-0.16988332,0.386529,0.41151189,-0.23261015,0.419928,0.35804118,-0.20006676,0.399809,0.33428863,-0.1856311,0.390565,0.31930668,-0.1770767,0.389907
0.41389675,-0.30684463,0.498446,0.41831187,-0.2592715,0.472999,0.41750416,-0.28693634,0.503521,0.42370848,-0.24347701,0.502492,0.4189987,-0.21031759,0.500486,0.41755753,-0.18620021,0.493455,0.43899758,-0.19854511,0.456437,0.4200716,-0.15465912,0.42904,0.39201832,-0.13906988,0.415341,0.36860616,-0.13765215,0.41316,0.42980733,-0.20648285,0.440339,0.40771221,-0.15340969,0.412519,0.36494723,-0.15022023,0.39629,0.34795726,-0.15604767,0.39477,0.42181118,-0.21609239,0.428922,0.36983892,-0.17505492,0.400294,0.33796629,-0.15969087,0.385647,0.31526709,-0.16086045,0.383625,0.41129197,-0.23376422,0.418827,0.35743531,-0.20147382,0.398466,0.33350286,-0.18713977,0.389111,0.31848638,-0.17877103,0.388513
0.40902672,-0.3039309,0.49302,0.41329511,-0.26007201,0.467039,0.41687351,-0.28627208,0.499166,0.43015523,-0.25218876,0.49754,0.42261002,-0.22427287,0.498722,0.42106709,-0.2012735,0.491998,0.42974434,-0.20324868,0.451296,0.41592183,-0.15641467,0.425988,0.39039915,-0.13699181,0.413334,0.36713212,-0.13314283,0.407833,0.41391042,-0.20795314,0.433694,0.38593998,-0.15604803,0.407442,0.34551505,-0.1412589,0.392129,0.32130804,-0.13863641,0.38703,0.40067622,-0.21501031,0.421077,0.35612439,-0.16898755,0.397069,0.33350735,-0.14571608,0.384786,0.30693949,-0.14330039,0.379748,0.38433351,-0.22981622,0.40962,0.33318044,-0.19666973,0.391419,0.31076156,-0.18216977,0.383056,0.294624,-0.17154873,0.379643
0.40727288,-0.30406848,0.49326,0.40789388,-0.26418428,0.466101,0.41655574,-0.28593936,0.498673,0.42760445,-0.25196487,0.495667,0.41997939,-0.22439882,0.496785,0.41779938,-0.20137994,0.489303,0.42662626,-0.20318926,0.448419,0.40989083,-0.15764171,0.422173,0.38305836,-0.13951033,0.40905,0.35578998,-0.13601333,0.40215,0.40997221,-0.2081402,0.431243,0.38409932,-0.15594255,0.40418,0.34401968,-0.13924437,0.388394,0.31888366,-0.13481898,0.381935,0.39356335,-0.21688958,0.419062,0.34643591,-0.16998804,0.393912,0.32267782,-0.14650205,0.381044,0.29906524,-0.14225099,0.374403,0.37561526,-0.23206962,0.408293,0.32457132,-0.19769567,0.389463,0.3023989,-0.18280087,0.380812,0.28889613,-0.17076997,0.376248
0.40248023,-0.30263825,0.490616,0.39653034,-0.26734033,0.462859,0.41134895,-0.28496493,0.495596,0.419581,-0.25541953,0.49237,0.41617717,-0.22376995,0.492969,0.41420404,-0.20091022,0.485479,0.41901298,-0.20835213,0.444118,0.40621259,-0.16060933,0.419882,0.3795462,-0.14201756,0.407764,0.35379243,-0.13724739,0.401046,0.40068517,-0.21262101,0.427233,0.3808687,-0.15738968,0.399671,0.34055955,-0.13796105,0.383593,0.31528042,-0.13245099,0.376578,0.38537242,-0.21929395,0.415334,0.34402969,-0.17004516,0.392135,0.32192848,-0.14636755,0.380265,0.29729924,-0.14192909,0.373753,0.3664663,-0.23358389,0.404987,0.31940023,-0.19610851,0.385728,0.29763863,-0.18064143,0.37688,0.28118088,-0.1687452,0.371835
0.39956861,-0.30349669,0.489545,0.39601529,-0.26845809,0.461982,0.41198889,-0.28891454,0.494676,0.41913192,-0.25651498,0.491379,0.41401684,-0.22781109,0.492459,0.41215711,-0.20359616,0.484795,0.4190818,-0.20984295,0.443596,0.40616612,-0.1647199,0.419134,0.38002373,-0.14524117,0.406902,0.35468901,-0.13896992,0.400105,0.40058081,-0.21403284,0.426605,0.38101417,-0.16095547,0.399278,0.34268352,-0.14022428,0.383337,0.31590978,-0.13279821,0.376373,0.38510279,-0.22062043,0.414605,0.3437067,-0.17111159,0.391643,0.32203495,-0.14721659,0.379895,0.29674725,-0.14239595,0.373439,0.36595557,-0.23476494,0.404109,0.31842032,-0.19680413,0.385072,0.29693054,-0.18112651,0.376325,0.28067059,-0.16903845,0.371332
0.36206924,-0.2924402,0.459632,0.36579833,-0.25330745,0.440028,0.37034728,-0.2796702,0.469508,0.36691132,-0.25089433,0.476276,0.35092226,-0.22652289,0.47443,0.34698491,-0.20738078,0.472047,0.40329199,-0.20476696,0.434489,0.40572029,-0.16353225,0.417525,0.38118227,-0.14911143,0.409042,0.36062213,-0.15762019,0.408153,0.38517005,-0.20419866,0.414866,0.37882802,-0.15303168,0.394849,0.34226369,-0.13950292,0.383173,0.32093636,-0.13502662,0.381941,0.36920685,-0.20653033,0.40013,0.32785625,-0.16630761,0.387636,0.30683615,-0.14588296,0.381243,0.28621568,-0.14807969,0.382097,0.34789764,-0.21491247,0.38523,0.30380323,-0.18346708,0.372414,0.28438089,-0.17125878,0.366526,0.27562959,-0.16686441,0.366487
0.34849921,-0.29144546,0.458933,0.36274665,-0.25276315,0.437837,0.36946699,-0.27851694,0.468265,0.36553028,-0.25021459,0.474894,0.34878682,-0.22805567,0.474208,0.34371474,-0.20925898,0.471336,0.39949124,-0.20390371,0.430308,0.40271618,-0.16191947,0.412307,0.37389712,-0.14969116,0.403307,0.35380205,-0.15566886,0.400728,0.38006712,-0.20391989,0.410759,0.37346205,-0.15473528,0.389775,0.33458292,-0.14219206,0.377534,0.31447882,-0.13363621,0.374634,0.36067721,-0.20893466,0.396192,0.31839756,-0.16812981,0.382787,0.2970293,-0.14754842,0.375928,0.27853259,-0.14673977,0.374955,0.33705037,-0.21819557,0.381705,0.29473953,-0.18487471,0.368244,0.27860523,-0.17051055,0.362059,0.26541788,-0.16523544,0.360636
0.34215383,-0.28967135,0.457128,0.34878015,-0.25265985,0.434355,0.36279054,-0.27632154,0.464863,0.34844613,-0.24466995,0.468333,0.33203988,-0.21866183,0.466738,0.32941386,-0.19730618,0.463574,0.38929704,-0.20709875,0.423397,0.36050211,-0.16469023,0.411388,0.3363642,-0.15163861,0.405383,0.31866777,-0.14570943,0.406212,0.36914676,-0.20753798,0.405126,0.35246834,-0.15282965,0.381322,0.31221311,-0.14494679,0.367436,0.29166724,-0.14256203,0.365427,0.35141674,-0.21051667,0.39173,0.31039105,-0.16526583,0.3752,0.28853991,-0.14371142,0.366744,0.27071369,-0.14349582,0.366651,0.3277713,-0.21929618,0.378883,0.28825559,-0.18143742,0.362568,0.26830555,-0.17552932,0.355072,0.25863051,-0.17606888,0.354262
0.33798522,-0.28865412,0.455814,0.34639938,-0.25224772,0.433007,0.35898444,-0.27545565,0.463432,0.34573534,-0.24402099,0.46662,0.33018494,-0.21878894,0.466249,0.3255269,-0.19694423,0.461062,0.3867314,-0.20664055,0.421879,0.35304461,-0.16620312,0.409942,0.32826267,-0.1548251,0.403973,0.3105508,-0.1506283,0.40506,0.36672965,-0.20730856,0.403736,0.34997662,-0.15272349,0.37976,0.30972327,-0.14472318,0.365774,0.28937199,-0.14237161,0.363959,0.34912192,-0.21046886,0.390447,0.30628821,-0.16569942,0.373708,0.2860964,-0.1433868,0.365144,0.26644251,-0.14374888,0.365253,0.32562537,-0.21945251,0.377734,0.284061,-0.18079695,0.361216,0.26608793,-0.17531173,0.353627,0.25655294,-0.17581499,0.352965
0.32646432,-0.28780856,0.455121,0.33819213,-0.251343,0.428912,0.34689944,-0.27317302,0.46021,0.32478453,-0.24209728,0.459617,0.31435446,-0.21145406,0.459178,0.31613693,-0.19115093,0.453888,0.36896637,-0.20251577,0.411684,0.31946749,-0.17280626,0.395565,0.2952868,-0.15830488,0.387506,0.27893791,-0.14814462,0.387532,0.35058371,-0.20678462,0.395273,0.31851543,-0.15101764,0.367225,0.27957166,-0.13390618,0.350864,0.25862996,-0.12915212,0.348124,0.33453978,-0.21299944,0.383653,0.28530762,-0.16921708,0.362485,0.26083529,-0.14756221,0.351655,0.24119262,-0.14745896,0.350621,0.31336563,-0.22581912,0.373422,0.26998118,-0.18331184,0.35309,0.25387678,-0.17553906,0.343748,0.24773556,-0.17127484,0.342168
0.33773773,-0.29249802,0.460843,0.34298041,-0.25384877,0.432185,0.35565699,-0.27582275,0.463997,0.33074361,-0.24719614,0.46064,0.30882175,-0.22182538,0.456725,0.29976581,-0.19936376,0.448889,0.36939187,-0.2022326,0.410428,0.31772427,-0.17100503,0.391293,0.29261602,-0.15585043,0.381725,0.27586775,-0.14532143,0.380812,0.35224239,-0.20820915,0.395402,0.31584953,-0.15220563,0.364483,0.27447825,-0.13837998,0.346447,0.25281649,-0.13447956,0.342882,0.33742893,-0.21599701,0.385097,0.28433992,-0.17578246,0.360755,0.25728278,-0.15489087,0.348302,0.23753044,-0.15460034,0.346255,0.32007157,-0.23419224,0.376788,0.27236952,-0.1909519,0.353751,0.25561448,-0.18147942,0.343167,0.24602414,-0.17500593,0.340787
0.33688296,-0.29315163,0.460222,0.34140802,-0.25559496,0.43153,0.354268,-0.27586574,0.463107,0.32812363,-0.24888909,0.459155,0.30194176,-0.22761201,0.453942,0.29116343,-0.20561559,0.4456,0.36775175,-0.20158349,0.409418,0.31550288,-0.17106955,0.389869,0.2885884,-0.15681813,0.380094,0.27341442,-0.14622765,0.379517,0.35150614,-0.20826705,0.394703,0.31262645,-0.15475666,0.363475,0.27274553,-0.13653811,0.345258,0.25290375,-0.12885983,0.342075,0.33855066,-0.21827061,0.384657,0.28264574,-0.17710651,0.359909,0.25344812,-0.15917911,0.347248,0.23537159,-0.15720111,0.345593,0.32093442,-0.2350333,0.376663,0.27164423,-0.19256785,0.353237,0.25439191,-0.18308333,0.342474,0.2459716,-0.17957014,0.340385
0.33999739,-0.29664186,0.465012,0.34316059,-0.26045779,0.433066,0.35561357,-0.27740251,0.465339,0.32743859,-0.24878859,0.458089,0.30083432,-0.22579959,0.450875,0.28887733,-0.20379006,0.440838,0.36368352,-0.20604652,0.404953,0.3074649,-0.17131143,0.381684,0.28064818,-0.15622747,0.370049,0.26269891,-0.14609574,0.367669,0.34703978,-0.21618261,0.392063,0.30875746,-0.16119171,0.357332,0.27030392,-0.13709356,0.337072,0.24789359,-0.12325266,0.332225,0.33300831,-0.22734572,0.38375,0.27417428,-0.18400479,0.3551,0.24530463,-0.16278618,0.340442,0.22673663,-0.15818525,0.336817,0.31543016,-0.24627986,0.378295,0.2656413,-0.19981209,0.351624,0.25018019,-0.18530208,0.339369,0.24201136,-0.17847682,0.335758
0.33437735,-0.29795566,0.464884,0.33792867,-0.26455973,0.432606,0.35067289,-0.2784307,0.465214,0.32683176,-0.24864389,0.458284,0.30061101,-0.22368911,0.45164,0.29015669,-0.2007546,0.441765,0.35875952,-0.21101912,0.404201,0.30327806,-0.17819411,0.380997,0.27665554,-0.16244547,0.369395,0.26049575,-0.14946603,0.366377,0.34121292,-0.21962714,0.391177,0.30279349,-0.1650867,0.356425,0.26404047,-0.14056238,0.336153,0.24591829,-0.12425837,0.330632,0.32630899,-0.22958179,0.382778,0.2748206,-0.17997211,0.354166,0.24336136,-0.16231627,0.339527,0.22151388,-0.16044351,0.335177,0.30739595,-0.24717606,0.377266,0.2587102,-0.20003223,0.350692,0.23965268,-0.1878347,0.338483,0.23733504,-0.19239043,0.334328
0.33363015,-0.29957948,0.466115,0.33304859,-0.2675754,0.433889,0.34911028,-0.28028569,0.466326,0.32386746,-0.24558098,0.459057,0.29950159,-0.21948476,0.452199,0.29080193,-0.19593993,0.442246,0.35782645,-0.21177523,0.405386,0.30270305,-0.17893348,0.381976,0.27616577,-0.16312537,0.370271,0.2599443,-0.15085958,0.367548,0.34124071,-0.22048447,0.392526,0.30380761,-0.16592507,0.357631,0.26515044,-0.14133858,0.337275,0.24737788,-0.12710071,0.332077,0.32706702,-0.23056085,0.384259,0.27490101,-0.18226556,0.35545,0.24404617,-0.163028,0.34071,0.2215848,-0.1616343,0.336699,0.30888388,-0.24838496,0.378898,0.25970984,-0.20117986,0.352121,0.23999644,-0.18892715,0.339819,0.23741531,-0.1936491,0.335916
0.33199072,-0.30179067,0.467413,0.32946585,-0.26886801,0.435135,0.34208089,-0.28326286,0.467327,0.31989536,-0.24676146,0.459423,0.29840055,-0.21644331,0.452182,0.28804401,-0.19407368,0.441764,0.35419392,-0.21266761,0.406227,0.29912157,-0.18003371,0.38237,0.27252607,-0.16426967,0.370441,0.25477187,-0.15380753,0.368048,0.33862365,-0.22197007,0.393707,0.29903166,-0.16912287,0.358477,0.25890034,-0.1462182,0.337925,0.23823947,-0.13551368,0.333106,0.32524015,-0.23254887,0.385723,0.27297962,-0.18483438,0.356474,0.23872805,-0.16685919,0.34151,0.21849126,-0.16407647,0.337884,0.30866287,-0.25048072,0.380707,0.25563128,-0.20495922,0.353515,0.23792508,-0.19099133,0.341021,0.2367171,-0.19511901,0.337403
0.33168083,-0.30334926,0.468743,0.32874291,-0.26958884,0.43552,0.34378932,-0.28426398,0.46822,0.32025594,-0.24818758,0.460182,0.29940876,-0.21889679,0.453074,0.2904392,-0.19514829,0.442775,0.3497621,-0.21257862,0.40524,0.29360967,-0.18027466,0.380866,0.26661233,-0.16478055,0.36868,0.24785431,-0.15424923,0.365136,0.33363034,-0.22215874,0.39288,0.28813453,-0.16776104,0.357077,0.25075778,-0.14207232,0.336192,0.23312186,-0.13213579,0.330203,0.31991597,-0.23300542,0.385095,0.26751711,-0.18356496,0.355272,0.23504972,-0.16601882,0.340015,0.21105173,-0.16573646,0.335096,0.30245833,-0.25185606,0.380452,0.25253233,-0.20467109,0.352874,0.23374369,-0.19343467,0.340203,0.2321178,-0.1982214,0.33561
0.32433146,-0.30636436,0.469103,0.32645972,-0.27136664,0.436395,0.3396577,-0.28745056,0.468982,0.31877872,-0.25052559,0.461387,0.29950515,-0.22202637,0.454541,0.28980404,-0.19620246,0.444414,0.3484687,-0.21485366,0.407062,0.29224359,-0.18304248,0.383217,0.26522866,-0.16784087,0.371294,0.24652277,-0.1576907,0.368153,0.33170541,-0.224295,0.394416,0.28876914,-0.17043473,0.359102,0.25164192,-0.14479357,0.338502,0.23346577,-0.13364022,0.332896,0.31749329,-0.23500291,0.386358,0.26571699,-0.18544496,0.357089,0.23308128,-0.16865503,0.342113,0.20974663,-0.16934955,0.337638,0.29950955,-0.25363016,0.381316,0.2500793,-0.20678411,0.35418,0.23181303,-0.19621156,0.341712,0.23161333,-0.1997024,0.337456
0.32592182,-0.31285525,0.475342,0.32521137,-0.27760353,0.441745,0.34029961,-0.29197907,0.474504,0.31817658,-0.25701895,0.466101,0.29444819,-0.22945735,0.458542,0.28179167,-0.20721742,0.447839,0.34379998,-0.22142453,0.41075,0.28644273,-0.18942052,0.385965,0.25914112,-0.17411964,0.373572,0.24313396,-0.16188371,0.369754,0.32616583,-0.23142207,0.398624,0.28849437,-0.17554369,0.362449,0.24827131,-0.15182015,0.341346,0.23006782,-0.13683559,0.335102,0.31135047,-0.24255312,0.391059,0.2703089,-0.18734534,0.36081,0.2360683,-0.18191934,0.345333,0.22690153,-0.19464248,0.340115,0.2928958,-0.26159653,0.386733,0.24448669,-0.21358176,0.358811,0.22803492,-0.20222614,0.345982,0.22917598,-0.20473408,0.34116
0.32520311,-0.31318697,0.476089,0.32002451,-0.27792487,0.440754,0.34100344,-0.29142455,0.474013,0.3174194,-0.25582316,0.46484,0.29625684,-0.22585761,0.457168,0.28578693,-0.20228989,0.446175,0.33954329,-0.2214318,0.406707,0.28524846,-0.18478573,0.380671,0.26127043,-0.16605651,0.367654,0.24135503,-0.15390456,0.361605,0.31795042,-0.23365724,0.3954,0.27747251,-0.17845012,0.358095,0.24246475,-0.15015751,0.336333,0.22338822,-0.13431419,0.327891,0.30079449,-0.24455133,0.388633,0.26271101,-0.18729759,0.357082,0.22666554,-0.17626985,0.340939,0.21166342,-0.18416973,0.33324,0.2799547,-0.26281749,0.385509,0.23596994,-0.21141968,0.3567,0.22417627,-0.19976213,0.343463,0.22308938,-0.2030651,0.336775
0.31470101,-0.30384403,0.462028,0.30931978,-0.26910074,0.427057,0.33025112,-0.28292912,0.460007,0.30734857,-0.24754352,0.450304,0.29051703,-0.21468566,0.441959,0.27974549,-0.19117313,0.430749,0.32780168,-0.21452589,0.393401,0.27314804,-0.17833351,0.367142,0.24932847,-0.15997746,0.354012,0.23217085,-0.14796622,0.349066,0.30677081,-0.22531444,0.382171,0.26617012,-0.1711508,0.344685,0.2296396,-0.14417843,0.322818,0.21202787,-0.1298305,0.315515,0.29004313,-0.2357772,0.375441,0.24991807,-0.17990294,0.343669,0.21685202,-0.168931,0.327414,0.20320127,-0.17716187,0.320959,0.26985828,-0.25344871,0.37231,0.22615727,-0.20304454,0.343181,0.21204869,-0.19019465,0.329798,0.21174867,-0.19350976,0.324035
0.31904465,-0.31099157,0.472675,0.31327024,-0.27568966,0.436804,0.33512576,-0.28981068,0.470172,0.31459434,-0.25337501,0.461071,0.29780609,-0.22042162,0.453504,0.2861195,-0.19761845,0.44267,0.33151689,-0.22640728,0.401761,0.27953195,-0.18272514,0.375593,0.25631252,-0.16350288,0.362509,0.23753565,-0.14992924,0.355192,0.30853508,-0.23498378,0.390763,0.27212236,-0.17631883,0.353416,0.23576471,-0.1481834,0.33163,0.21750813,-0.13170498,0.321927,0.28951794,-0.24456842,0.384287,0.25521755,-0.18487349,0.35262,0.22055081,-0.16797749,0.336418,0.20104305,-0.16741088,0.327305,0.26649955,-0.26098911,0.381589,0.22928817,-0.20780595,0.352834,0.21569222,-0.19435884,0.339622,0.21540988,-0.19751205,0.331883
0.31799851,-0.31082717,0.472616,0.31233369,-0.27599618,0.436775,0.33446703,-0.29001872,0.470142,0.31450373,-0.25329913,0.461039,0.29758096,-0.22052676,0.453516,0.28593673,-0.19771447,0.442693,0.33154577,-0.22642701,0.401796,0.27962144,-0.18291853,0.375635,0.25619625,-0.16352858,0.362554,0.23756329,-0.14970545,0.355319,0.30854298,-0.2349898,0.390773,0.27173231,-0.17674179,0.353425,0.23569916,-0.14822219,0.331639,0.21727948,-0.1316329,0.322017,0.28950965,-0.24456142,0.384276,0.25460599,-0.18501336,0.352614,0.22054884,-0.16797599,0.336415,0.20060672,-0.16799138,0.327393,0.26647022,-0.26096038,0.381547,0.22848009,-0.20758666,0.352787,0.21515225,-0.19406225,0.339572,0.21468439,-0.1971786,0.3319
0.31510712,-0.30717603,0.468232,0.31486152,-0.2723893,0.432041,0.33186221,-0.28730248,0.465367,0.31980349,-0.24708697,0.45582,0.29804925,-0.21775451,0.449909,0.28590758,-0.194736,0.439693,0.342228,-0.23930551,0.396276,0.30054983,-0.18653587,0.369675,0.28088118,-0.16244837,0.356374,0.26714894,-0.14372485,0.348835,0.31380924,-0.242453,0.38559,0.27437699,-0.17755836,0.347889,0.24800075,-0.14225608,0.325897,0.22953278,-0.12642056,0.316004,0.28730396,-0.2432475,0.379395,0.25584724,-0.18188328,0.347291,0.2344177,-0.15730245,0.330866,0.20986008,-0.15264224,0.321516,0.26291734,-0.2572734,0.377078,0.23102249,-0.19917838,0.347969,0.21334277,-0.19199266,0.334594,0.20767263,-0.19367239,0.326674
0.31567955,-0.30286607,0.465916,0.31537902,-0.26621092,0.428017,0.33333548,-0.28239891,0.460152,0.35120914,-0.24119607,0.444505,0.35749162,-0.20882622,0.432453,0.35755264,-0.18807786,0.418944,0.33229641,-0.22810607,0.387219,0.28983213,-0.17520495,0.358862,0.26996702,-0.15148436,0.344683,0.2544914,-0.13466394,0.333243,0.30408165,-0.2326018,0.379375,0.25276942,-0.16987359,0.340974,0.22526437,-0.13791435,0.318573,0.20837101,-0.1180676,0.305052,0.28118397,-0.23815707,0.37564,0.24706375,-0.17404544,0.342,0.22177227,-0.14806146,0.324788,0.20147743,-0.14421177,0.31118,0.25446001,-0.24841337,0.376513,0.22443523,-0.19156571,0.346615,0.21095638,-0.19045802,0.332878,0.19935513,-0.19129472,0.321801
0.31670148,-0.28725634,0.461702,0.30823591,-0.25261288,0.423026,0.33724307,-0.26803544,0.453315,0.34470224,-0.22470594,0.434854,0.34787909,-0.19144166,0.419592,0.34711311,-0.17128201,0.404467,0.3165755,-0.20912435,0.378358,0.26462571,-0.16181053,0.348319,0.24075184,-0.14056001,0.333299,0.21996494,-0.1230653,0.319706,0.29105524,-0.21880915,0.373386,0.2395304,-0.15695345,0.334458,0.2098649,-0.12637466,0.311749,0.19055789,-0.1077232,0.296403,0.27084051,-0.2287647,0.372069,0.22242896,-0.16920556,0.33701,0.19987124,-0.14255479,0.319073,0.18199425,-0.12292815,0.30318,0.24829649,-0.2445176,0.375951,0.21554715,-0.18854328,0.345178,0.20766088,-0.188148,0.331039,0.19995034,-0.1881858,0.318281
0.3209014,-0.2817803,0.462105,0.30927929,-0.25274093,0.423414,0.33830431,-0.26638024,0.453663,0.34549251,-0.2247316,0.435014,0.34731749,-0.19082956,0.419773,0.34578144,-0.17016428,0.404679,0.31776145,-0.20907851,0.378667,0.26565916,-0.16177665,0.348588,0.24130758,-0.14113351,0.333549,0.22001405,-0.12460356,0.319922,0.29232914,-0.21878877,0.373755,0.23980126,-0.15725753,0.33481,0.21010863,-0.1276072,0.312093,0.19090649,-0.10969551,0.296721,0.27215785,-0.22878249,0.372488,0.22357118,-0.16920266,0.337395,0.20091751,-0.14254726,0.31944,0.18291438,-0.122926,0.303513,0.25121556,-0.24586216,0.376433,0.21667568,-0.18861821,0.345636,0.20780401,-0.18800179,0.331485,0.20005391,-0.18810034,0.318702
0.32156183,-0.28118856,0.462211,0.30960736,-0.25276728,0.423516,0.33874445,-0.26547751,0.453714,0.34575079,-0.2247369,0.435061,0.34716649,-0.19064546,0.419877,0.345408,-0.16982639,0.404832,0.31809465,-0.20902237,0.378696,0.26593682,-0.16172468,0.34859,0.24142351,-0.1412839,0.333537,0.21994125,-0.12506228,0.319864,0.29273208,-0.21876554,0.37385,0.23987691,-0.15734882,0.334907,0.21017858,-0.12800467,0.312191,0.19099138,-0.11032176,0.29678,0.27260493,-0.22879468,0.372638,0.22395339,-0.16920243,0.337525,0.20126578,-0.14254409,0.319561,0.18319786,-0.12290942,0.303585,0.25121098,-0.24563531,0.376649,0.21708652,-0.1886727,0.345843,0.20784054,-0.1878502,0.331689,0.20004483,-0.18796077,0.318871
0.31866295,-0.2779588,0.457543,0.30474932,-0.24868226,0.4167,0.3341946,-0.26117279,0.447301,0.33987434,-0.22083732,0.42753,0.34012239,-0.18672765,0.411498,0.33753299,-0.16587907,0.395891,0.30913508,-0.20300142,0.367851,0.25460489,-0.15472775,0.333563,0.22909132,-0.13410605,0.316418,0.20965478,-0.11945088,0.304927,0.2853963,-0.21312532,0.364277,0.23001926,-0.15090251,0.32114,0.19926458,-0.12152481,0.295977,0.18208435,-0.10544957,0.282905,0.2666453,-0.22361529,0.364266,0.21558289,-0.16273925,0.324695,0.19187758,-0.13577597,0.304449,0.17569257,-0.11777493,0.290957,0.246702,-0.24109518,0.37002,0.21040451,-0.1827187,0.334981,0.1997533,-0.18041376,0.318883,0.19304415,-0.18128795,0.307845
0.32093831,-0.28341874,0.462589,0.31018428,-0.25492651,0.423638,0.33946634,-0.26517079,0.453945,0.34641021,-0.2255757,0.435107,0.34673858,-0.19114613,0.42,0.34315559,-0.16962725,0.405284,0.31942799,-0.20993393,0.378413,0.26684878,-0.16221879,0.347899,0.24327186,-0.14622093,0.332642,0.22051683,-0.13330958,0.319151,0.29418166,-0.21970449,0.373645,0.24325817,-0.16093297,0.334266,0.21043971,-0.12887666,0.311295,0.19117198,-0.11064608,0.296074,0.27506195,-0.23106209,0.372515,0.22501057,-0.16969294,0.336958,0.20207856,-0.14280529,0.318766,0.18355155,-0.12307404,0.302995,0.25217048,-0.24627122,0.37666,0.21857128,-0.18923813,0.345434,0.20703378,-0.18670274,0.331086,0.19960926,-0.18723455,0.318412
0.3205135,-0.27867169,0.459132,0.30827998,-0.25182399,0.420548,0.33744574,-0.26282068,0.450714,0.34621213,-0.22441779,0.433105,0.34703069,-0.18970966,0.419463,0.34586157,-0.16894363,0.405245,0.31699126,-0.20897384,0.375923,0.26601047,-0.16234148,0.345998,0.24345321,-0.13963745,0.331035,0.22044107,-0.1213809,0.317303,0.29169649,-0.21872182,0.371024,0.2386289,-0.15755739,0.332265,0.20909087,-0.12874188,0.309655,0.18973915,-0.11031823,0.294181,0.27236909,-0.22952569,0.369761,0.22308207,-0.16918625,0.334842,0.20041549,-0.14250411,0.316976,0.1822355,-0.12271146,0.300933,0.2496505,-0.2447137,0.373695,0.21583136,-0.18830493,0.343068,0.19967902,-0.16863492,0.328997,0.18671672,-0.14933078,0.316132
0.32534993,-0.27937085,0.46186,0.32217608,-0.25477109,0.422146,0.34127333,-0.26239388,0.452425,0.35737195,-0.22254948,0.433567,0.34821516,-0.18896769,0.420523,0.34638472,-0.16758745,0.406286,0.32735616,-0.21127741,0.375282,0.27500549,-0.16012283,0.343371,0.24919573,-0.13856096,0.327415,0.2239446,-0.12079126,0.314238,0.30242136,-0.22209903,0.371173,0.24321453,-0.15942747,0.330504,0.21229203,-0.12906343,0.306781,0.19525799,-0.11148576,0.291949,0.28012124,-0.23396244,0.37064,0.22745549,-0.1718683,0.33363,0.20320772,-0.14519974,0.314694,0.18318002,-0.12549144,0.299298,0.26138808,-0.24957115,0.37561,0.22123057,-0.19058388,0.343063,0.20678905,-0.16928395,0.328109,0.19302336,-0.16165196,0.315695
0.34186848,-0.27911211,0.460051,0.33199101,-0.25386464,0.420644,0.35718648,-0.26201695,0.450499,0.36772527,-0.22227026,0.433023,0.36132397,-0.18596017,0.420958,0.35868901,-0.1636213,0.407534,0.33714757,-0.21050725,0.373914,0.2842432,-0.15967889,0.342419,0.25725166,-0.1394683,0.326672,0.23381097,-0.12491058,0.312945,0.31256446,-0.22143663,0.370066,0.2554732,-0.15949646,0.330011,0.22357748,-0.12944634,0.306646,0.2010949,-0.11183982,0.291298,0.29324422,-0.23234429,0.369726,0.23991713,-0.17119833,0.333223,0.21418168,-0.14528514,0.314548,0.19287371,-0.12837745,0.298552,0.27201458,-0.24908744,0.374882,0.23286717,-0.19246988,0.342876,0.21616877,-0.16931594,0.328171,0.20143994,-0.16146352,0.315327
0.34643754,-0.28005338,0.462384,0.33338435,-0.25598133,0.422089,0.36032517,-0.26249832,0.450726,0.36967833,-0.22319447,0.43215,0.36292267,-0.18667081,0.419549,0.35893638,-0.16395205,0.404815,0.33467762,-0.21835665,0.372016,0.28038037,-0.1652146,0.338313,0.25420044,-0.13934574,0.321461,0.23155655,-0.12293654,0.307316,0.31017024,-0.22920647,0.370371,0.25462163,-0.16148142,0.32887,0.22309928,-0.13061105,0.304661,0.20363588,-0.11292262,0.28916,0.29112745,-0.23978753,0.371908,0.23920186,-0.17460694,0.333301,0.21396592,-0.14780554,0.313548,0.19396955,-0.12832813,0.297179,0.27299692,-0.25387303,0.379439,0.2353377,-0.19462572,0.345697,0.22170945,-0.1839841,0.330194,0.21381197,-0.18688184,0.317068
0.34833814,-0.27944244,0.460466,0.33340017,-0.25613667,0.420482,0.3651596,-0.26234421,0.447899,0.37113337,-0.22377757,0.428698,0.36312527,-0.18733293,0.416464,0.35717585,-0.16382157,0.402821,0.3321982,-0.2177269,0.369586,0.2785038,-0.16435824,0.335793,0.25372548,-0.14064283,0.318896,0.23020828,-0.12187122,0.303919,0.30832861,-0.22889719,0.369164,0.25402332,-0.1619516,0.328185,0.22340639,-0.13076618,0.30428,0.20401073,-0.11285442,0.288103,0.28990892,-0.2397733,0.371682,0.23912762,-0.17508401,0.33318,0.21469716,-0.14814717,0.313481,0.19486902,-0.12818969,0.29624,0.26853842,-0.25492022,0.380348,0.23649336,-0.19535858,0.34687,0.22363448,-0.18473695,0.331488,0.21548842,-0.18740824,0.317739
0.35685957,-0.27969816,0.460964,0.34547269,-0.25809003,0.420826,0.37203437,-0.26334431,0.447736,0.37723361,-0.21810998,0.428278,0.37312152,-0.18105284,0.414552,0.36969304,-0.15794808,0.399845,0.33878858,-0.21976615,0.368993,0.28455204,-0.1653667,0.334589,0.25957796,-0.14137645,0.317388,0.23472011,-0.12204843,0.302305,0.31197289,-0.22963299,0.36931,0.25624079,-0.16476549,0.328004,0.22635099,-0.13259016,0.303908,0.20640751,-0.1145646,0.287718,0.29401674,-0.24071714,0.372449,0.24669879,-0.17600169,0.333389,0.22370188,-0.14756285,0.313405,0.20545927,-0.12619553,0.296081,0.27585219,-0.25600077,0.38188,0.24466412,-0.19544554,0.347951,0.23316146,-0.18641999,0.332362,0.22576941,-0.18996342,0.318552
0.36256678,-0.27912807,0.460346,0.34638349,-0.25753368,0.420406,0.37836651,-0.26371976,0.446985,0.37776168,-0.21747292,0.427337,0.37072302,-0.18007055,0.413404,0.36586075,-0.15626754,0.399046,0.33951848,-0.2197249,0.368588,0.28616535,-0.16498025,0.334347,0.26154787,-0.14084845,0.317227,0.2400033,-0.12155845,0.301908,0.31541128,-0.23031785,0.369144,0.26121603,-0.16470394,0.32815,0.23503331,-0.13171696,0.304237,0.21698993,-0.11523284,0.287843,0.29721044,-0.24058539,0.372465,0.24808073,-0.17567373,0.333627,0.22520953,-0.14735186,0.313757,0.20677182,-0.126384,0.29618,0.27826374,-0.25522048,0.382086,0.24633751,-0.19445656,0.348401,0.23526894,-0.18613143,0.332924,0.22759155,-0.18966519,0.318936
0.37567498,-0.27932675,0.461352,0.35843839,-0.25788294,0.421603,0.38706701,-0.2638083,0.447641,0.38976044,-0.21760138,0.427576,0.38069419,-0.18024305,0.414494,0.36940485,-0.15647261,0.401242,0.35000076,-0.22041583,0.369533,0.29643908,-0.16521141,0.335289,0.27168761,-0.14095073,0.318166,0.24599204,-0.12208682,0.302574,0.32590171,-0.23068576,0.370586,0.27132984,-0.16481328,0.329847,0.24136898,-0.13326773,0.306083,0.21997702,-0.11624988,0.289482,0.30781965,-0.24067402,0.374302,0.25845775,-0.17567839,0.335547,0.23558231,-0.1484377,0.315718,0.21640819,-0.12731907,0.297861,0.28973264,-0.25562223,0.38437,0.25746868,-0.19412151,0.350822,0.24767805,-0.18690251,0.335408,0.23980121,-0.19047522,0.321222
0.38542084,-0.27821161,0.464325,0.36347502,-0.259732,0.426464,0.39860486,-0.2622132,0.447976,0.36423556,-0.2277313,0.416124,0.34524382,-0.20146856,0.386952,0.33631315,-0.19133646,0.36631,0.34761814,-0.23078051,0.372883,0.30044242,-0.17208234,0.338662,0.27635916,-0.1441693,0.321552,0.25314815,-0.12555447,0.304497,0.3262771,-0.24063057,0.377869,0.27946513,-0.17198259,0.339232,0.25156074,-0.13870463,0.316694,0.23168567,-0.11948804,0.29917,0.31079196,-0.2497403,0.384685,0.26654085,-0.18235448,0.346641,0.24425587,-0.15359853,0.327177,0.22427729,-0.13109075,0.307887,0.2964744,-0.26260636,0.398204,0.26588862,-0.20255219,0.365712,0.25228045,-0.17764708,0.350783,0.23732485,-0.15853094,0.335623
0.38693579,-0.2764609,0.464039,0.36307394,-0.25862373,0.426673,0.39498159,-0.26161791,0.447394,0.3659441,-0.22631503,0.416024,0.3520964,-0.19903685,0.387125,0.34018348,-0.19053857,0.366496,0.34570616,-0.22688347,0.373177,0.30014209,-0.16922191,0.339201,0.27739998,-0.14361911,0.322213,0.25433633,-0.12576526,0.304951,0.32514843,-0.23878996,0.378715,0.27837862,-0.17039648,0.34066,0.25241052,-0.13777918,0.318461,0.23611878,-0.11835056,0.30081,0.30803304,-0.24533591,0.385949,0.26709945,-0.1818135,0.348278,0.24501794,-0.14844668,0.329004,0.22632657,-0.12994427,0.309513,0.29401815,-0.25817934,0.399899,0.2664695,-0.20124329,0.367804,0.2533535,-0.17651297,0.353058,0.23859962,-0.15751345,0.337767
0.38905171,-0.27583744,0.465516,0.3637095,-0.25859493,0.427997,0.39712083,-0.26163427,0.449032,0.36690106,-0.22313325,0.419103,0.35434329,-0.19931391,0.390448,0.34730427,-0.19030169,0.370026,0.34653384,-0.22968414,0.374558,0.30104584,-0.17000063,0.340567,0.27864744,-0.14412315,0.323571,0.25595983,-0.12659895,0.306366,0.32522154,-0.23925783,0.379842,0.27902065,-0.17152018,0.341633,0.25350496,-0.13821127,0.319345,0.23709305,-0.11902413,0.301714,0.30977176,-0.24815718,0.386878,0.26773958,-0.18177325,0.349144,0.25066155,-0.15109074,0.329839,0.23618162,-0.12892495,0.310398,0.29417944,-0.25911264,0.400612,0.26630383,-0.20100564,0.368439,0.25283703,-0.17659548,0.353656,0.23816251,-0.15770418,0.338396
0.4079475,-0.27700524,0.481191,0.38460887,-0.25517167,0.44162,0.41674407,-0.25919871,0.464928,0.38504045,-0.22222975,0.43552,0.37424884,-0.20045285,0.407454,0.36992734,-0.19220084,0.386806,0.37164425,-0.2309544,0.386618,0.31669392,-0.17403148,0.349816,0.29066813,-0.14815716,0.331415,0.26492128,-0.13130873,0.315134,0.35090878,-0.24320405,0.390831,0.29506515,-0.17853641,0.349724,0.2636831,-0.14458222,0.325745,0.2414897,-0.12291886,0.309115,0.33566626,-0.2539642,0.397134,0.28341776,-0.1902615,0.356979,0.26065857,-0.15979218,0.336435,0.24217286,-0.13402758,0.318232,0.32106891,-0.26816711,0.410278,0.28170296,-0.20833422,0.375699,0.26117674,-0.18287307,0.359811,0.24424729,-0.16140655,0.345399
0.41030348,-0.2772478,0.485706,0.38726234,-0.25674902,0.445388,0.42122794,-0.26042332,0.472059,0.39198975,-0.22643496,0.443813,0.38518227,-0.2039762,0.417516,0.3864686,-0.19354872,0.397617,0.38625966,-0.22973389,0.392887,0.33055419,-0.17403482,0.356183,0.30397778,-0.14857273,0.337831,0.27472217,-0.13457793,0.32226,0.36371018,-0.24092146,0.393641,0.30696236,-0.17668185,0.351972,0.27393788,-0.14314059,0.327665,0.24703411,-0.12301384,0.311575,0.34622399,-0.25106397,0.397151,0.29505401,-0.18740413,0.357601,0.27034337,-0.15743495,0.337365,0.24687254,-0.13347386,0.320109,0.32750901,-0.26497135,0.407054,0.28657189,-0.20564345,0.372699,0.2640467,-0.1817538,0.356915,0.24802216,-0.16158173,0.343153
0.41189552,-0.27717111,0.488561,0.39088072,-0.25665248,0.447864,0.42479018,-0.25667739,0.476807,0.39765911,-0.22814782,0.449844,0.39839107,-0.20023826,0.425761,0.3997216,-0.18961268,0.406274,0.39877162,-0.22254144,0.397317,0.34041982,-0.16906529,0.360878,0.3126898,-0.14452289,0.342658,0.28404159,-0.13443241,0.32842,0.37568937,-0.23411444,0.39563,0.3154264,-0.17146111,0.353353,0.27973084,-0.1391315,0.328692,0.25476369,-0.12253393,0.313711,0.35751872,-0.24483087,0.39716,0.30168639,-0.18231454,0.357819,0.27215731,-0.15569935,0.337691,0.24934253,-0.13320212,0.321905,0.33744556,-0.25993641,0.404742,0.2922588,-0.20192018,0.370268,0.27052694,-0.17859688,0.354429,0.25097162,-0.16032855,0.341721
0.4128069,-0.27586331,0.488997,0.40261122,-0.24664784,0.449061,0.42770634,-0.25564242,0.479194,0.41385815,-0.21972486,0.455442,0.41627675,-0.19344946,0.433005,0.41908544,-0.1816991,0.414239,0.4077768,-0.20691363,0.401555,0.34264164,-0.16139727,0.367098,0.31085816,-0.14199655,0.349869,0.28433508,-0.1274241,0.336064,0.38555832,-0.22084932,0.397803,0.32240008,-0.16401463,0.356773,0.28312426,-0.13928246,0.332838,0.25977373,-0.12371648,0.318037,0.36817157,-0.23380217,0.397581,0.30596962,-0.1772009,0.360107,0.27626834,-0.15306725,0.340934,0.2550338,-0.13545433,0.32554,0.34912138,-0.25221261,0.402953,0.30312033,-0.19729251,0.370007,0.27845303,-0.1793634,0.354869,0.25873125,-0.16577278,0.342455
0.39432941,-0.2793189,0.470646,0.39861205,-0.24791067,0.436691,0.41840361,-0.26402439,0.46988,0.41678472,-0.22789985,0.457135,0.4181712,-0.19582126,0.444782,0.42076858,-0.17652758,0.43105,0.41963744,-0.19590704,0.405463,0.36182134,-0.16115233,0.383027,0.33338086,-0.14641798,0.37181,0.3079644,-0.13661028,0.362842,0.39759835,-0.20492678,0.39311,0.3328486,-0.15579821,0.3594,0.2896115,-0.14160142,0.339736,0.26624991,-0.13172254,0.328218,0.3794589,-0.21485551,0.385383,0.31781781,-0.1697694,0.357661,0.28834284,-0.1484815,0.343477,0.26370172,-0.14200432,0.332469,0.35766989,-0.23167171,0.380914,0.30336015,-0.18998519,0.355858,0.28017074,-0.17234721,0.344346,0.26143529,-0.15805565,0.335253
0.39845735,-0.27955747,0.47192,0.39926014,-0.24831374,0.437401,0.4189466,-0.26431489,0.470605,0.4166609,-0.22776002,0.457749,0.41748303,-0.19529882,0.445421,0.41974008,-0.1756571,0.431687,0.41916343,-0.19568575,0.405005,0.36060276,-0.16060958,0.381737,0.33185029,-0.14574576,0.370103,0.30674082,-0.13561197,0.361027,0.3975852,-0.20492,0.393097,0.33213827,-0.15546572,0.358633,0.28937191,-0.14328239,0.33853,0.26372445,-0.13663979,0.326948,0.37984586,-0.21507461,0.385776,0.31873752,-0.16870587,0.357191,0.28934572,-0.14671156,0.342566,0.26422364,-0.1406945,0.331452,0.35856943,-0.23225437,0.381872,0.30354087,-0.19009838,0.35607,0.28006415,-0.17228164,0.344215,0.26126217,-0.15795099,0.335031
0.40385353,-0.28097509,0.474697,0.41236655,-0.25145979,0.439866,0.42329096,-0.26607151,0.473326,0.42864529,-0.22996951,0.459509,0.42993831,-0.19862255,0.447652,0.42805953,-0.17768264,0.43443,0.43208761,-0.19843577,0.407123,0.37178924,-0.1627262,0.382916,0.34219075,-0.14758633,0.370812,0.31850295,-0.13725945,0.363041,0.41046434,-0.20773218,0.395161,0.33895963,-0.16049227,0.359604,0.29583613,-0.15143555,0.338863,0.27184118,-0.14801007,0.328593,0.39270403,-0.21795827,0.387818,0.33114209,-0.16995499,0.358185,0.30133688,-0.14707613,0.343023,0.27763428,-0.14116396,0.333366,0.37142966,-0.23526557,0.383933,0.31435541,-0.19221717,0.357025,0.2900131,-0.17404752,0.344662,0.27174055,-0.16015927,0.336541
0.41979042,-0.29822066,0.491223,0.42090474,-0.26525303,0.462527,0.43661582,-0.28083535,0.49468,0.40928981,-0.25417326,0.492111,0.3983951,-0.22195279,0.490259,0.39143319,-0.19720342,0.483071,0.43778912,-0.20231173,0.441103,0.38086562,-0.17724622,0.422483,0.35649429,-0.1837074,0.413173,0.35898767,-0.19694927,0.411668,0.4237111,-0.20949434,0.425695,0.3506365,-0.17833473,0.395157,0.31720538,-0.18448613,0.377344,0.31840246,-0.19535939,0.373124,0.41200796,-0.21869727,0.415078,0.36935655,-0.17457158,0.391239,0.33463119,-0.17350943,0.379043,0.32662771,-0.1857718,0.376313,0.39761749,-0.23627067,0.4064,0.33842658,-0.20328744,0.383865,0.31851001,-0.20468737,0.373511,0.3166634,-0.21374666,0.370625
0.41550181,-0.29482855,0.488202,0.4201466,-0.26130731,0.462488,0.43375006,-0.28075007,0.493746,0.40893046,-0.2492073,0.493897,0.39206144,-0.22044542,0.492833,0.38066319,-0.19718887,0.486217,0.44248545,-0.19937639,0.446252,0.41077431,-0.15927677,0.43087,0.38971854,-0.14155737,0.423179,0.36943851,-0.14120835,0.423243,0.42716601,-0.20373237,0.429483,0.38848391,-0.15047182,0.402119,0.35168797,-0.12986844,0.386157,0.33107034,-0.136454,0.383419,0.41417234,-0.21044127,0.417534,0.39404509,-0.15608248,0.397135,0.36202729,-0.14354997,0.386698,0.34315889,-0.15614764,0.385695,0.39770754,-0.22471231,0.406838,0.34159486,-0.19468587,0.38718,0.32369176,-0.2051532,0.378149,0.32212056,-0.21634067,0.376602
0.41755166,-0.29916626,0.489654,0.42916875,-0.26236042,0.470948,0.4350928,-0.28362236,0.497174,0.41152249,-0.25707896,0.498395,0.38856323,-0.2284342,0.496029,0.37683644,-0.20520332,0.489441,0.45445899,-0.20623325,0.46336,0.43102253,-0.16831195,0.451959,0.41370864,-0.15151627,0.446258,0.39641521,-0.1523966,0.451969,0.44694429,-0.20989938,0.44694,0.41629332,-0.15926542,0.42498,0.38431332,-0.14024799,0.41217,0.36922169,-0.1501366,0.415442,0.44003468,-0.2159885,0.434774,0.41739378,-0.16545672,0.419277,0.38873772,-0.15865624,0.411349,0.37945256,-0.177932,0.416842,0.43016881,-0.22944419,0.422829,0.3766573,-0.20481833,0.407027,0.35988211,-0.21569452,0.399767,0.36105573,-0.23185307,0.403189
0.41826779,-0.30168876,0.486768,0.44268598,-0.2655574,0.473649,0.43348301,-0.28876475,0.497991,0.42193492,-0.26717196,0.504957,0.40202353,-0.24126002,0.505176,0.38829107,-0.21991714,0.499438,0.47118377,-0.21403122,0.475529,0.43537596,-0.18981688,0.470965,0.41964855,-0.20559575,0.468683,0.43270983,-0.2242417,0.475953,0.46245655,-0.21418875,0.456811,0.42900757,-0.17026462,0.441529,0.40283158,-0.14888436,0.432615,0.38785299,-0.15715554,0.437226,0.45429224,-0.21725108,0.442354,0.43336092,-0.17136257,0.433944,0.40895617,-0.16325674,0.429642,0.39797503,-0.1839932,0.43676,0.44246713,-0.22678587,0.426873,0.39390114,-0.20692166,0.417228,0.37554307,-0.21750155,0.412796,0.37416467,-0.23757376,0.417545
0.41834253,-0.30206094,0.485887,0.44433551,-0.26786057,0.476437,0.43432934,-0.29033018,0.498626,0.4230637,-0.26950007,0.507786,0.40480857,-0.2441414,0.509613,0.39263073,-0.22280605,0.504966,0.47641466,-0.22288871,0.483428,0.44976605,-0.19466759,0.482211,0.43179263,-0.21022518,0.481602,0.44458232,-0.23073299,0.490353,0.46894525,-0.22126192,0.464309,0.43656882,-0.17928959,0.452845,0.41740514,-0.15431702,0.446159,0.40248777,-0.16001906,0.452304,0.46150835,-0.22260117,0.449259,0.44590108,-0.17844585,0.444583,0.42234387,-0.16878193,0.44219,0.41100718,-0.18594539,0.450988,0.44916748,-0.22968865,0.432549,0.40695037,-0.20923143,0.426119,0.39162899,-0.22215928,0.423164,0.38802769,-0.24135951,0.429244
0.41028302,-0.29448813,0.47756,0.44347886,-0.26666006,0.476392,0.42719611,-0.28608738,0.49105,0.40970838,-0.26477057,0.500825,0.39275382,-0.24119402,0.504988,0.38963174,-0.22162503,0.504213,0.47617122,-0.22415944,0.491683,0.45964724,-0.19940345,0.495312,0.44501383,-0.21669779,0.497127,0.46100577,-0.23995789,0.510247,0.4752753,-0.2231315,0.474893,0.4585728,-0.1808233,0.470626,0.43871892,-0.16311226,0.468136,0.43100077,-0.16653262,0.479218,0.47286365,-0.22464227,0.461166,0.46522684,-0.18672137,0.462459,0.4484417,-0.17542471,0.463121,0.43727468,-0.19368187,0.477018,0.4665537,-0.23117772,0.444873,0.47470713,-0.19044894,0.443545,0.45925661,-0.18745199,0.442935,0.45852927,-0.20535524,0.453004
0.42568784,-0.30733797,0.485692,0.44895068,-0.27110507,0.482845,0.42952609,-0.29035376,0.493625,0.40717242,-0.27327091,0.494581,0.38461026,-0.24650964,0.491331,0.37654046,-0.22526257,0.490371,0.45471396,-0.21986984,0.489909,0.44446187,-0.17800148,0.487139,0.43470959,-0.18150158,0.485754,0.44014201,-0.19581085,0.499952,0.46559522,-0.22225631,0.479191,0.45867356,-0.17345987,0.470652,0.44855048,-0.1492779,0.465671,0.45125891,-0.14934228,0.478616,0.47381784,-0.2271621,0.470579,0.47018315,-0.17878593,0.465755,0.45971645,-0.16587058,0.463287,0.46688059,-0.18112752,0.478665,0.48208754,-0.23894116,0.460655,0.48509152,-0.19612382,0.454003,0.47513836,-0.19154096,0.450947,0.48045479,-0.19313835,0.462107
0.43031466,-0.31040983,0.486075,0.45044532,-0.27191469,0.48403,0.43041002,-0.29179333,0.49399,0.40919234,-0.27411972,0.494967,0.38661884,-0.24844894,0.492764,0.37746341,-0.22740195,0.49141,0.45605266,-0.22038798,0.491788,0.44470102,-0.17897253,0.48948,0.43532755,-0.1825111,0.488327,0.44130792,-0.19685372,0.502811,0.46751749,-0.22203069,0.481405,0.45436119,-0.17429964,0.473609,0.44120061,-0.15301512,0.469062,0.44309537,-0.1566865,0.482361,0.47630967,-0.22632646,0.473012,0.47143135,-0.17827259,0.468776,0.46071089,-0.16624249,0.46661,0.46889321,-0.18282231,0.482334,0.48603281,-0.23451403,0.463237,0.48665047,-0.19185411,0.457412,0.4768491,-0.18737348,0.454736,0.48348925,-0.1918616,0.466251
0.42972462,-0.31004583,0.486223,0.44908303,-0.271796,0.482998,0.4289723,-0.29210677,0.492644,0.40499267,-0.27172402,0.491374,0.37375409,-0.24050446,0.477777,0.36091722,-0.21769041,0.471333,0.45161448,-0.21990784,0.487896,0.43851406,-0.17855084,0.483563,0.42932397,-0.17025443,0.481396,0.43380151,-0.16621178,0.495654,0.46430242,-0.22178568,0.47886,0.45871984,-0.17389267,0.469378,0.44671959,-0.15167932,0.463846,0.4542819,-0.14018855,0.477068,0.47428196,-0.22628824,0.471659,0.4757035,-0.18109815,0.46329,0.46625821,-0.16305563,0.459008,0.47632313,-0.1519384,0.473898,0.48513233,-0.23766677,0.463479,0.49036624,-0.19614849,0.454251,0.48288199,-0.18213516,0.45001,0.49183829,-0.17491777,0.460945
0.43507092,-0.31508959,0.492026,0.44890386,-0.27910294,0.48961,0.43059667,-0.3005102,0.496096,0.39760905,-0.27449958,0.491609,0.37143062,-0.24061818,0.477425,0.36075158,-0.21859482,0.472146,0.43660158,-0.22628706,0.49238,0.43332238,-0.18214838,0.485026,0.42779193,-0.16853743,0.481349,0.43435592,-0.16198994,0.495478,0.45460843,-0.22822017,0.486508,0.45386508,-0.17881191,0.47701,0.45132047,-0.15340135,0.47147,0.46212238,-0.14051785,0.48546,0.4692532,-0.23274022,0.481851,0.47543914,-0.18558028,0.471357,0.47254818,-0.16507008,0.465988,0.48616014,-0.15266218,0.481089,0.48637341,-0.2440972,0.476608,0.49578778,-0.19904229,0.467158,0.4947497,-0.18396635,0.462816,0.49501696,-0.16757928,0.458984
0.43402265,-0.3165542,0.489667,0.44302734,-0.28188146,0.488708,0.42416667,-0.3032764,0.493545,0.39426377,-0.27455464,0.488961,0.36699524,-0.24294865,0.476236,0.359323,-0.21880029,0.4711,0.43546671,-0.22840554,0.492547,0.4274019,-0.18649182,0.486359,0.4250906,-0.16738076,0.483265,0.43487126,-0.15657334,0.497906,0.45447661,-0.23086808,0.487478,0.45067552,-0.18413692,0.47935,0.44573423,-0.15879239,0.474609,0.46337363,-0.14287621,0.489138,0.46986562,-0.23576474,0.483376,0.4711716,-0.18978054,0.47438,0.47410544,-0.16637829,0.469777,0.49075034,-0.15152273,0.485517,0.48771165,-0.24745389,0.478593,0.49671016,-0.20635682,0.470569,0.49758579,-0.18851679,0.466882,0.49848338,-0.17235132,0.463629
0.4312765,-0.31497182,0.487791,0.441985,-0.28186769,0.487959,0.42164657,-0.30321905,0.491832,0.39224968,-0.27428999,0.487602,0.36487381,-0.24287821,0.475215,0.35529446,-0.21932355,0.469644,0.43533391,-0.22918264,0.493,0.42823868,-0.18704855,0.487959,0.4233576,-0.16805022,0.485438,0.43562936,-0.15706521,0.500467,0.45467415,-0.23177698,0.488175,0.45172036,-0.18449683,0.481206,0.44733659,-0.15903571,0.477141,0.4645206,-0.14406777,0.492033,0.47026591,-0.236734,0.484194,0.47182929,-0.19007223,0.476907,0.47084965,-0.16629266,0.473179,0.48973742,-0.15016464,0.489491,0.48820835,-0.2483942,0.479396,0.4972617,-0.20738561,0.47248,0.49728481,-0.19055446,0.469302,0.50013763,-0.17282981,0.466498
0.42866563,-0.31392074,0.484816,0.44059662,-0.28141902,0.486769,0.41894668,-0.30257088,0.489473,0.38936009,-0.27533697,0.4863,0.35924792,-0.24451051,0.473231,0.34769586,-0.22265656,0.468306,0.4347842,-0.23144576,0.49415,0.42779936,-0.18916373,0.491223,0.41932199,-0.17213258,0.489759,0.43263562,-0.15924692,0.5054,0.45428421,-0.23374872,0.489278,0.45298513,-0.18563987,0.484261,0.44805241,-0.15921912,0.481335,0.46288506,-0.1462125,0.496744,0.4705366,-0.23736126,0.48513,0.47157465,-0.19040383,0.479947,0.47087043,-0.16638364,0.477295,0.46996352,-0.14436884,0.474884,0.48818663,-0.24852639,0.479881,0.49839905,-0.20816732,0.474672,0.49755952,-0.18958177,0.472279,0.50233488,-0.17379106,0.470168
0.43243001,-0.31870779,0.487253,0.44246361,-0.28289836,0.489409,0.41964551,-0.30404819,0.490657,0.38909667,-0.27610951,0.48586,0.35804991,-0.24731886,0.471179,0.34635957,-0.22638394,0.467569,0.42676557,-0.23089997,0.495456,0.41955637,-0.18798687,0.491413,0.41652669,-0.17140219,0.489391,0.42562832,-0.16013337,0.504878,0.44834529,-0.23206209,0.49218,0.4448762,-0.18366134,0.487031,0.44071209,-0.15750594,0.484027,0.45740626,-0.1442445,0.499579,0.46602346,-0.23585419,0.489331,0.46763566,-0.18813238,0.483761,0.466458,-0.16495325,0.480911,0.46804723,-0.14442041,0.47832,0.48691987,-0.24612828,0.48561,0.49518693,-0.20575008,0.480888,0.49723781,-0.18776771,0.478719,0.50166435,-0.17324292,0.476804
0.4341241,-0.3205751,0.486998,0.44289889,-0.28328291,0.489579,0.41978422,-0.30481002,0.490308,0.39107937,-0.28517965,0.486117,0.35661676,-0.25590236,0.469656,0.3425098,-0.23554045,0.464847,0.4269531,-0.23274456,0.495891,0.41880937,-0.18992499,0.492031,0.41353348,-0.17077515,0.4901,0.42468753,-0.16050701,0.505657,0.44896176,-0.23331806,0.492896,0.44394713,-0.18514324,0.488154,0.43928151,-0.15885081,0.485387,0.45180794,-0.14446686,0.501064,0.46707301,-0.23659951,0.490248,0.46689062,-0.18861053,0.485106,0.46558232,-0.16466317,0.482475,0.46437475,-0.14243082,0.480083,0.48865815,-0.24621605,0.486709,0.49574981,-0.20616948,0.482458,0.49720485,-0.18878449,0.480505,0.49859211,-0.17295174,0.478782
0.43277256,-0.32007353,0.485113,0.44208034,-0.28337114,0.488773,0.41783838,-0.30601812,0.488799,0.38950432,-0.28552785,0.48521,0.35584512,-0.25663538,0.469405,0.34205776,-0.23654022,0.465331,0.42732284,-0.23427108,0.496504,0.41785856,-0.19362142,0.49383,0.41243638,-0.17332123,0.492493,0.42282641,-0.16302353,0.50837,0.44930512,-0.23470527,0.493476,0.44294849,-0.18820588,0.489924,0.43781349,-0.16170544,0.487852,0.44945223,-0.14785144,0.50382,0.46734284,-0.23783796,0.490724,0.46542901,-0.19126038,0.486972,0.46358286,-0.16705756,0.485052,0.46178731,-0.14481378,0.483307,0.48996372,-0.24834418,0.486908,0.49629711,-0.20819189,0.483642,0.49505706,-0.19539982,0.482141,0.49663179,-0.1776839,0.480817
