sluyters/QuantumLeap/backend/src/datasets/dynamic/HandGestureDataset_SHREC2017_csv/Gesture5/finger_2/subject_17_essai_3_skeletons_world.csv
Wrist_x,Wrist_y,Wrist_z,Palm_x,Palm_y,Palm_z,thumb_base_x,thumb_base_y,thumb_base_z,thumb_first_joint_x,thumb_first_joint_y,thumb_first_joint_z,thumb_second_joint_x,thumb_second_joint_y,thumb_second_joint_z,thumb_tip_x,thumb_tip_y,thumb_tip_z,index_base_x,index_base_y,index_base_z,index_first_joint_x,index_first_joint_y,index_first_joint_z,index_second_joint_x,index_second_joint_y,index_second_joint_z,index_tip_x,index_tip_y,index_tip_z,middle_base_x,middle_base_y,middle_base_z,middle_first_joint_x,middle_first_joint_y,middle_first_joint_z,middle_second_joint_x,middle_second_joint_y,middle_second_joint_z,middle_tip_x,middle_tip_y,middle_tip_z,ring_base_x,ring_base_y,ring_base_z,ring_first_joint_x,ring_first_joint_y,ring_first_joint_z,ring_second_joint_x,ring_second_joint_y,ring_second_joint_z,ring_tip_x,ring_tip_y,ring_tip_z,pinky_base_x,pinky_base_y,pinky_base_z,pinky_first_joint_x,pinky_first_joint_y,pinky_first_joint_z,pinky_second_joint_x,pinky_second_joint_y,pinky_second_joint_z,pinky_tip_x,pinky_tip_y,pinky_tip_z,
0.57209077,-0.4374907,0.595403,0.55780831,-0.38956092,0.586313,0.55334036,-0.4319933,0.598042,0.53046247,-0.41364691,0.589785,0.49096819,-0.38455386,0.566163,0.47305682,-0.36241244,0.553053,0.52108266,-0.35063138,0.583052,0.50046021,-0.30910212,0.574924,0.49998813,-0.30882966,0.570859,0.49722789,-0.30614749,0.567165,0.54209413,-0.34199709,0.576969,0.51969082,-0.29296301,0.561081,0.51333548,-0.28517335,0.551813,0.52946123,-0.30217365,0.562551,0.56014779,-0.34064553,0.572898,0.54584904,-0.29941367,0.554502,0.5701302,-0.32174621,0.574346,0.58627131,-0.35328892,0.589701,0.58218472,-0.34363177,0.569801,0.56740667,-0.34756562,0.556653,0.58012347,-0.36469348,0.571867,0.58357254,-0.38437283,0.582394
0.57442564,-0.437673,0.596088,0.55858362,-0.38961973,0.586622,0.55544052,-0.43263992,0.598508,0.53073769,-0.41249883,0.589873,0.49149345,-0.38273828,0.567472,0.47404735,-0.36099451,0.554459,0.52057245,-0.35063813,0.582804,0.49818671,-0.30797363,0.572655,0.4968688,-0.30734087,0.56758,0.49606566,-0.3076545,0.562966,0.54164189,-0.34188681,0.576892,0.5187877,-0.29278217,0.560462,0.51280515,-0.28619379,0.550877,0.52859902,-0.30732529,0.561461,0.55952386,-0.34013474,0.573001,0.54519577,-0.29854541,0.554318,0.56947881,-0.32062563,0.574137,0.58613137,-0.3510117,0.589598,0.58241617,-0.3432406,0.570182,0.56652542,-0.34658044,0.556676,0.57885682,-0.36386769,0.571858,0.58335411,-0.38373506,0.582498
0.58508372,-0.44399585,0.605017,0.5617023,-0.39130713,0.589247,0.5603938,-0.43606578,0.603109,0.52874785,-0.41037982,0.587487,0.49304231,-0.38281994,0.566632,0.47520879,-0.36085543,0.553779,0.51359017,-0.34627367,0.575257,0.49586171,-0.30661507,0.569947,0.49645404,-0.30751225,0.567292,0.49736345,-0.30912577,0.564879,0.53771817,-0.33958992,0.573038,0.51003783,-0.29597248,0.550416,0.49821963,-0.28018505,0.537219,0.51023547,-0.29614673,0.545755,0.55909311,-0.33978706,0.572836,0.54019526,-0.29673677,0.549798,0.56064864,-0.32192072,0.568877,0.58168338,-0.35048392,0.585802,0.58792885,-0.34613755,0.575477,0.56866835,-0.32777901,0.555835,0.58584416,-0.35354536,0.570191,0.59939057,-0.36986624,0.582671
0.58641171,-0.44383051,0.604812,0.56166792,-0.39103491,0.58877,0.56091843,-0.43589217,0.602254,0.5272793,-0.40889769,0.585751,0.49214769,-0.38153236,0.5653,0.47457022,-0.35959156,0.55238,0.512059,-0.34549467,0.573744,0.49590462,-0.30669791,0.569971,0.4970315,-0.30817658,0.568085,0.49839805,-0.31024718,0.56637,0.53676397,-0.33913105,0.572281,0.50907708,-0.29565217,0.549271,0.49711647,-0.28001253,0.535849,0.50905271,-0.29607089,0.544278,0.55877883,-0.33952929,0.572729,0.54023986,-0.29732249,0.550184,0.56105369,-0.3221533,0.569288,0.58153902,-0.35092168,0.586024,0.58870876,-0.34638468,0.576179,0.56891799,-0.3279229,0.556079,0.58606096,-0.35367619,0.570402,0.59975987,-0.37009413,0.58303
0.58916672,-0.4450004,0.606384,0.56193015,-0.39110049,0.588745,0.561868,-0.43621195,0.60214,0.52957086,-0.41067114,0.587982,0.49376406,-0.38276271,0.566465,0.47667876,-0.36038398,0.552888,0.50844122,-0.34393712,0.570384,0.49515698,-0.30643536,0.569252,0.49682734,-0.30895997,0.568685,0.49963241,-0.31154207,0.56817,0.53420106,-0.33851695,0.570613,0.50602,-0.29540271,0.545843,0.49420946,-0.28610984,0.531394,0.50591213,-0.30408697,0.539116,0.55752274,-0.33916662,0.572619,0.53719854,-0.29721043,0.548413,0.55855183,-0.32095212,0.567111,0.5791233,-0.35040429,0.584355,0.59066468,-0.34743245,0.578179,0.56890978,-0.32804198,0.556359,0.58572665,-0.35357046,0.570316,0.59993384,-0.37026794,0.583407
0.59026326,-0.4448275,0.60644,0.5619179,-0.39080321,0.588513,0.56244522,-0.43609467,0.601806,0.52940859,-0.41054269,0.587577,0.49385498,-0.38281697,0.566075,0.47685196,-0.36046512,0.552356,0.50744822,-0.34346906,0.56944,0.49491148,-0.30643897,0.569079,0.49687723,-0.30927032,0.568898,0.49985588,-0.31209201,0.568734,0.53306146,-0.33817317,0.570086,0.5052876,-0.29573993,0.544988,0.49323573,-0.28554612,0.530347,0.50479542,-0.30341576,0.537926,0.5572223,-0.3389396,0.572465,0.53651548,-0.29710944,0.547952,0.5578302,-0.32065509,0.566559,0.57837111,-0.35030767,0.583891,0.59094422,-0.34752312,0.578514,0.56875839,-0.3280166,0.556355,0.58551537,-0.35349096,0.57023,0.59982902,-0.37023646,0.583409
0.58888514,-0.4431378,0.604162,0.56107236,-0.39011457,0.587466,0.56139268,-0.4349777,0.599928,0.52852469,-0.40955807,0.586564,0.49428051,-0.38089498,0.564942,0.47851551,-0.35870926,0.550402,0.50771941,-0.34361759,0.569809,0.49385768,-0.30538265,0.567497,0.4954802,-0.30845869,0.566341,0.49727917,-0.31200658,0.56529,0.53321824,-0.3382058,0.570305,0.50697621,-0.29676283,0.546376,0.49464224,-0.27899173,0.532418,0.50607892,-0.29388647,0.540528,0.55716225,-0.33880303,0.572433,0.53848858,-0.2973039,0.549097,0.55948312,-0.3218442,0.568063,0.57914764,-0.35206708,0.585062,0.59042669,-0.34720904,0.577964,0.5692376,-0.32886874,0.556755,0.58619892,-0.35457731,0.570927,0.60024574,-0.37102329,0.583886
0.58935709,-0.44261258,0.603888,0.56099171,-0.3897124,0.587158,0.56141984,-0.4344242,0.599272,0.52900134,-0.40856471,0.586704,0.49791142,-0.37768787,0.565023,0.48412904,-0.35479643,0.550793,0.50672052,-0.34331424,0.568984,0.49312431,-0.30525711,0.566779,0.49460909,-0.30856396,0.565677,0.4961967,-0.3120893,0.564675,0.53259804,-0.33791321,0.569961,0.50683315,-0.29670212,0.545933,0.49453129,-0.27911582,0.531916,0.50583946,-0.29351918,0.539986,0.55695058,-0.33850066,0.572489,0.53842175,-0.29734956,0.549015,0.55996406,-0.32085381,0.567956,0.57902386,-0.35088955,0.585001,0.59100157,-0.34753954,0.578493,0.56965053,-0.32949146,0.557113,0.58651834,-0.35521977,0.571259,0.6005904,-0.3715894,0.584269
0.58753305,-0.44033631,0.601304,0.5606544,-0.3890262,0.586561,0.56098924,-0.43344899,0.598168,0.52860022,-0.4091046,0.586923,0.49458065,-0.37985408,0.566433,0.48028638,-0.35672682,0.553039,0.50898052,-0.34501927,0.571743,0.49475296,-0.30621676,0.568626,0.49561519,-0.30926832,0.567067,0.49641661,-0.31091922,0.56565,0.53372813,-0.33856486,0.571407,0.51323138,-0.29036246,0.556023,0.50845913,-0.28785572,0.547049,0.5236553,-0.30999742,0.558497,0.55692016,-0.33817609,0.572649,0.54061514,-0.29856866,0.551303,0.56271536,-0.32226723,0.570787,0.58100587,-0.35217306,0.58719,0.58926305,-0.34655741,0.576789,0.5698104,-0.32991394,0.557291,0.58711183,-0.35596554,0.571903,0.60068031,-0.37198768,0.584431
0.58652077,-0.43963518,0.60046,0.55994147,-0.38865565,0.586154,0.56068634,-0.43334673,0.598106,0.52884092,-0.40820043,0.588136,0.49486923,-0.38025528,0.568498,0.47944838,-0.35767647,0.555639,0.50933039,-0.34552457,0.572662,0.49347326,-0.30557336,0.567476,0.49338872,-0.30803685,0.564883,0.4932899,-0.30991403,0.562526,0.53331569,-0.33848457,0.57145,0.51112896,-0.29023169,0.555188,0.50479278,-0.28986122,0.545702,0.51917203,-0.3130207,0.556806,0.5558014,-0.33759474,0.571926,0.53938594,-0.29907584,0.551115,0.56186848,-0.32255144,0.570683,0.57961168,-0.35256029,0.586903,0.58719588,-0.34532827,0.575091,0.5683436,-0.32948704,0.556205,0.58570664,-0.35557629,0.570901,0.5990928,-0.3714253,0.583247
0.58499278,-0.43868987,0.599416,0.55914751,-0.38812383,0.585732,0.55981424,-0.43281196,0.597744,0.52502098,-0.40629361,0.588514,0.49388081,-0.37779894,0.569489,0.47938417,-0.35699765,0.555854,0.50981128,-0.34568272,0.573572,0.49279869,-0.30487279,0.566826,0.49202213,-0.30690009,0.563453,0.49145689,-0.3090458,0.560386,0.53324398,-0.3382971,0.571667,0.50951716,-0.28892297,0.553592,0.50359727,-0.28629553,0.543048,0.51737257,-0.30980734,0.553448,0.55516498,-0.33709893,0.571509,0.53972749,-0.29858148,0.551377,0.56199335,-0.322074,0.571054,0.57951089,-0.35222512,0.587044,0.5857109,-0.34440739,0.57382,0.56756367,-0.3291781,0.555633,0.5849673,-0.35533162,0.570435,0.5980978,-0.37100833,0.582576
0.58181231,-0.43661409,0.596726,0.55723638,-0.38693448,0.584187,0.55868374,-0.43218562,0.597154,0.52524336,-0.40651532,0.589626,0.4947749,-0.37844046,0.571185,0.4823977,-0.35721303,0.55738,0.51120752,-0.34658456,0.57556,0.49241828,-0.30430289,0.566406,0.48991669,-0.30538169,0.561829,0.48876835,-0.30741877,0.557668,0.53258029,-0.33785767,0.571297,0.50722465,-0.28753808,0.551869,0.50060949,-0.28549671,0.540535,0.51301193,-0.30940546,0.550201,0.55252989,-0.33551131,0.56908,0.53629995,-0.29365552,0.549596,0.55782768,-0.31064948,0.56923,0.57466054,-0.34452589,0.584941,0.5803347,-0.34131598,0.568778,0.55177314,-0.31747835,0.552289,0.57054036,-0.33048371,0.56715,0.59143251,-0.34860281,0.578715
0.58063301,-0.43606778,0.596176,0.55657962,-0.38660924,0.583989,0.55834702,-0.43218306,0.597475,0.52546286,-0.40677323,0.590433,0.49501979,-0.37875323,0.571967,0.48209101,-0.35726247,0.558659,0.51191423,-0.34695288,0.576739,0.49153351,-0.30355255,0.565535,0.4886555,-0.3046689,0.559932,0.48617062,-0.30602238,0.554839,0.53243677,-0.33770621,0.571462,0.50765363,-0.28769217,0.552386,0.50100163,-0.28679459,0.541259,0.51351545,-0.3099752,0.55093,0.55156786,-0.33492631,0.568373,0.53522168,-0.29382146,0.548897,0.55692963,-0.30896589,0.568408,0.5734057,-0.33761195,0.584066,0.57823273,-0.34017974,0.566989,0.55057925,-0.3170464,0.55115,0.56917937,-0.33013598,0.565958,0.58973675,-0.34816818,0.577275
0.57915257,-0.43516182,0.595234,0.55572976,-0.38602647,0.583501,0.55750352,-0.43164981,0.597171,0.52562883,-0.40678432,0.590882,0.49519768,-0.37888181,0.572445,0.4827091,-0.35689076,0.559458,0.51224272,-0.34694242,0.577403,0.4909079,-0.30286541,0.564885,0.48743238,-0.3038612,0.558626,0.4844028,-0.30512709,0.552935,0.53220455,-0.33738082,0.571441,0.50830098,-0.28785579,0.553003,0.50164268,-0.2880224,0.542248,0.51448055,-0.31069368,0.552042,0.55076998,-0.33432494,0.567741,0.53647489,-0.29741649,0.548475,0.55870728,-0.32127016,0.567925,0.57498248,-0.35096526,0.583474,0.57659953,-0.33920314,0.56556,0.54984199,-0.31696673,0.550332,0.56856583,-0.3303998,0.565128,0.58881159,-0.34809088,0.576224
0.57786788,-0.43440602,0.594458,0.55497342,-0.38545007,0.583003,0.55711437,-0.43143724,0.597315,0.52584088,-0.40685854,0.591229,0.49523505,-0.37892095,0.572574,0.48409837,-0.35723626,0.558606,0.51291526,-0.34701729,0.57829,0.48865099,-0.30066902,0.56205,0.48353118,-0.30103647,0.553929,0.47892825,-0.30175648,0.546547,0.53196169,-0.33692928,0.571228,0.50843656,-0.28772458,0.553064,0.50295709,-0.28838582,0.542468,0.51472864,-0.31094476,0.552171,0.549652,-0.33343922,0.566594,0.53517462,-0.29691911,0.547455,0.55725743,-0.32081308,0.566683,0.57338934,-0.35067331,0.582093,0.57427007,-0.33777174,0.563272,0.5485639,-0.31640819,0.548696,0.56723422,-0.32999974,0.563361,0.58713068,-0.34745139,0.574177
0.58173116,-0.43786088,0.599127,0.55571405,-0.38611336,0.584056,0.56011674,-0.43411688,0.601215,0.52780649,-0.40826673,0.593576,0.49687245,-0.37966627,0.57497,0.48587574,-0.35814774,0.561461,0.51067351,-0.34512793,0.575709,0.48380548,-0.29773953,0.55656,0.47749815,-0.29741058,0.546986,0.47187635,-0.29744921,0.538282,0.52961239,-0.33521853,0.568564,0.50858999,-0.29719438,0.545478,0.49704356,-0.28134472,0.53201,0.50793514,-0.29584339,0.53987,0.54752438,-0.33208715,0.564235,0.52880336,-0.2912435,0.541903,0.54906182,-0.30335619,0.56026,0.56818412,-0.32749964,0.576611,0.5730224,-0.33722789,0.561929,0.55325136,-0.32324761,0.544665,0.56403064,-0.3300094,0.558595,0.58298276,-0.34541416,0.570073
0.5812163,-0.43851162,0.599021,0.55534484,-0.38608712,0.583312,0.55819064,-0.43320835,0.599504,0.52551144,-0.40582237,0.591039,0.50180824,-0.37031206,0.573205,0.494295,-0.34742407,0.56176,0.51939248,-0.34257997,0.572437,0.4943504,-0.29327154,0.5526,0.4887555,-0.2920341,0.542682,0.48377074,-0.29103359,0.533666,0.54071101,-0.33784972,0.567165,0.52344607,-0.29500383,0.543596,0.51457727,-0.27868238,0.529847,0.52516948,-0.29480997,0.537808,0.56002958,-0.33916157,0.564444,0.54227972,-0.29231329,0.541763,0.53544698,-0.28506182,0.530159,0.54837284,-0.30113708,0.538972,0.58623231,-0.34992548,0.564131,0.55975872,-0.32564876,0.545646,0.57979813,-0.33564293,0.55974,0.59796695,-0.34908759,0.571711
0.57963802,-0.43850167,0.59782,0.55653763,-0.38814935,0.582302,0.55676847,-0.43282618,0.598333,0.52548636,-0.40553209,0.59014,0.50107404,-0.37041048,0.572321,0.49359003,-0.34756447,0.560901,0.51869115,-0.34273,0.571606,0.49389909,-0.29358471,0.552011,0.48840757,-0.29241818,0.542213,0.48351782,-0.29148412,0.533306,0.53998931,-0.33802333,0.566352,0.52291237,-0.29532553,0.542965,0.51414875,-0.27908179,0.529322,0.52481419,-0.29527139,0.537365,0.55926838,-0.33933824,0.563625,0.54177204,-0.29266761,0.541182,0.53505955,-0.28549441,0.5297,0.5480886,-0.30165346,0.538621,0.58538318,-0.35007799,0.563271,0.56267716,-0.32759966,0.544921,0.57915264,-0.33596634,0.55906,0.59728289,-0.34942168,0.571001
0.57837054,-0.43947217,0.597686,0.56828057,-0.39811738,0.590886,0.55821677,-0.43483456,0.600789,0.52899961,-0.40663885,0.593674,0.51228071,-0.37732694,0.584751,0.50692583,-0.35577122,0.575761,0.54560343,-0.35319382,0.589895,0.52813606,-0.336002,0.57865,0.52806411,-0.35262042,0.573028,0.52803881,-0.36781058,0.567942,0.56648418,-0.3525652,0.583896,0.55360205,-0.32045276,0.570551,0.54639523,-0.29832132,0.562766,0.55771396,-0.31157059,0.574385,0.58413867,-0.35678765,0.579657,0.57930781,-0.31870107,0.566393,0.57211558,-0.30955042,0.559607,0.58136602,-0.32223424,0.572238,0.60572199,-0.37031264,0.575948,0.58922435,-0.34749075,0.564557,0.58049286,-0.34538009,0.559323,0.58685542,-0.35786789,0.568642
0.57763196,-0.44068852,0.59762,0.56776761,-0.39843393,0.589841,0.55783579,-0.43532402,0.600825,0.54396552,-0.4077898,0.601819,0.53611701,-0.37989144,0.599531,0.53969617,-0.36485263,0.589712,0.54376705,-0.35323676,0.588265,0.52354265,-0.31709986,0.577934,0.51976252,-0.32519558,0.572769,0.51636016,-0.33298661,0.568072,0.56430933,-0.35200561,0.581844,0.54779909,-0.31037985,0.567743,0.53801512,-0.31032443,0.559517,0.5486084,-0.33437258,0.570792,0.58181252,-0.3557945,0.57736,0.57574446,-0.3163291,0.563197,0.56873418,-0.30596265,0.555951,0.57762854,-0.31915095,0.568158,0.60347522,-0.36890007,0.573541,0.58154424,-0.3521122,0.561548,0.57562956,-0.35382894,0.556037,0.58707273,-0.36864577,0.565071
0.57087883,-0.43781369,0.591472,0.55985843,-0.39387464,0.579934,0.5520503,-0.4316488,0.594955,0.53772588,-0.40055503,0.593851,0.53028913,-0.3723211,0.590467,0.53255928,-0.35799052,0.579879,0.54461353,-0.34572445,0.575965,0.52690693,-0.32406273,0.561568,0.51813545,-0.31296122,0.55459,0.51017179,-0.30265991,0.548347,0.56286751,-0.34742645,0.568075,0.54915652,-0.2968868,0.550686,0.53424017,-0.30026438,0.540543,0.54094024,-0.32395024,0.550276,0.57821066,-0.35381321,0.562767,0.57314856,-0.31068728,0.545927,0.56343021,-0.30094664,0.537312,0.56314503,-0.31062194,0.547998,0.59682943,-0.37032784,0.558673,0.58930899,-0.34872492,0.543664,0.58605709,-0.33851871,0.536767,0.59849024,-0.33792117,0.544494
0.57013641,-0.43487834,0.588603,0.56368044,-0.37540276,0.564624,0.55195869,-0.42259148,0.589502,0.55964286,-0.39546861,0.583817,0.53470235,-0.36410701,0.578348,0.52446502,-0.33942716,0.57244,0.52720079,-0.31761451,0.548232,0.48862444,-0.31326947,0.52549,0.50278526,-0.3426332,0.539599,0.51738969,-0.37184821,0.554209,0.54434961,-0.3188877,0.539976,0.49970059,-0.30548298,0.511229,0.48022764,-0.32025633,0.494461,0.48884246,-0.33079765,0.498568,0.56083313,-0.32564692,0.53565,0.51880131,-0.30398416,0.510669,0.50211584,-0.31539031,0.497888,0.51211448,-0.3366666,0.503331,0.58427812,-0.34393851,0.534972,0.54861101,-0.3339996,0.511857,0.53167592,-0.32981499,0.501237,0.51667929,-0.32616897,0.491883
0.56797565,-0.43253563,0.584989,0.57226888,-0.37563423,0.562052,0.56288794,-0.41301654,0.586231,0.56798172,-0.38902933,0.581008,0.55154336,-0.35452334,0.576178,0.54773977,-0.329817,0.57095,0.54995538,-0.31546126,0.546862,0.51284133,-0.30028854,0.525734,0.52169015,-0.32771941,0.54026,0.53024716,-0.35462522,0.5544,0.56496763,-0.32185295,0.538475,0.52228096,-0.30261126,0.510681,0.49598134,-0.31621178,0.494469,0.50200132,-0.32875611,0.499093,0.57845741,-0.3326398,0.533933,0.54128781,-0.3053911,0.509887,0.52036698,-0.3147217,0.497584,0.52570843,-0.33727096,0.503593,0.59613285,-0.35528122,0.532812,0.56205959,-0.34056865,0.510463,0.54577229,-0.33403564,0.500195,0.53136402,-0.32829568,0.491165
0.55460237,-0.41721662,0.566277,0.55646266,-0.36428473,0.541673,0.54441357,-0.39613673,0.563058,0.54386318,-0.37254311,0.555058,0.52718058,-0.33796189,0.548652,0.52454588,-0.31587637,0.545657,0.53483879,-0.30368454,0.519531,0.49039701,-0.2965773,0.493874,0.49413146,-0.32247128,0.50886,0.49952444,-0.34822008,0.524971,0.55391604,-0.31555786,0.516382,0.53553507,-0.26822026,0.484853,0.52476035,-0.24070441,0.466462,0.50913545,-0.23586352,0.457039,0.57103044,-0.33086687,0.516324,0.55627017,-0.27566939,0.485826,0.53439706,-0.26383179,0.470222,0.5357232,-0.26349394,0.474869,0.59309691,-0.35870278,0.520744,0.56783973,-0.31270098,0.495127,0.55620062,-0.29181416,0.483357,0.54703949,-0.27408988,0.473949
0.5556132,-0.41624389,0.565252,0.55913906,-0.36387155,0.537898,0.54626431,-0.39055027,0.560503,0.5454149,-0.36376938,0.549574,0.53459161,-0.32656977,0.541034,0.53467644,-0.30480944,0.537709,0.54129218,-0.29965536,0.511778,0.49326621,-0.28906098,0.483392,0.49255587,-0.31125777,0.497298,0.49358452,-0.33163592,0.514055,0.55832392,-0.31652735,0.509781,0.54455276,-0.27293147,0.47597,0.53647469,-0.24754431,0.456247,0.51585179,-0.23993452,0.442159,0.57309862,-0.33565816,0.510955,0.56396738,-0.28390014,0.478001,0.54184891,-0.27135899,0.461141,0.54329879,-0.27069017,0.464246,0.59124204,-0.36731664,0.517315,0.57112579,-0.32234395,0.489451,0.56179534,-0.30186745,0.476648,0.5539968,-0.28415471,0.465758
0.56378828,-0.4262981,0.575974,0.56568591,-0.3765033,0.542879,0.55502525,-0.39906355,0.571589,0.55701752,-0.37462245,0.555632,0.54715061,-0.3331666,0.539359,0.54867112,-0.30970595,0.532181,0.55486094,-0.31203198,0.513028,0.53476684,-0.26958597,0.481887,0.5324523,-0.28181568,0.492283,0.53668326,-0.29753567,0.508724,0.56499332,-0.33064998,0.508861,0.5405328,-0.29248917,0.471475,0.52630467,-0.27019647,0.449667,0.49844184,-0.26265795,0.434089,0.57376459,-0.35100505,0.508841,0.53673721,-0.31380181,0.474549,0.50023593,-0.31585324,0.457004,0.48486815,-0.3281924,0.456842,0.58445918,-0.38383746,0.514854,0.56285579,-0.33777493,0.48427,0.55744837,-0.31975062,0.474329,0.55267702,-0.30382864,0.465557
0.56353852,-0.41835298,0.569426,0.57043702,-0.37470487,0.536199,0.55812731,-0.39307931,0.566949,0.56126952,-0.37402745,0.552318,0.55443929,-0.3340074,0.537247,0.55653599,-0.31082975,0.528703,0.56613034,-0.31378045,0.508702,0.54209282,-0.26776745,0.479093,0.53603687,-0.27850626,0.488666,0.53434877,-0.29369865,0.504174,0.56928871,-0.33189291,0.502045,0.58019796,-0.29459345,0.476769,0.55196794,-0.28075343,0.462024,0.52160872,-0.28043906,0.451492,0.57224262,-0.35155947,0.499989,0.5307143,-0.3088816,0.466963,0.49532434,-0.30429132,0.450066,0.47903391,-0.31980475,0.449519,0.57600418,-0.38298076,0.503647,0.5552519,-0.33624001,0.474082,0.54556628,-0.31504151,0.460497,0.54357575,-0.29948879,0.455988
0.57222771,-0.42166431,0.575705,0.57289638,-0.37944571,0.539051,0.56433614,-0.3958178,0.571184,0.56070657,-0.37655199,0.551893,0.55310384,-0.3393984,0.533843,0.55272763,-0.31149151,0.523248,0.56634281,-0.32179236,0.506418,0.54265629,-0.2776303,0.473662,0.5329222,-0.28815813,0.48088,0.53323987,-0.3036482,0.496689,0.56891192,-0.34268692,0.501374,0.54155824,-0.30693283,0.461649,0.49052965,-0.29399436,0.438476,0.47140523,-0.29541392,0.434646,0.57152366,-0.36423113,0.500998,0.53746547,-0.32158832,0.464786,0.4962365,-0.31567735,0.446258,0.48001088,-0.32323425,0.442883,0.57521321,-0.39708998,0.507245,0.55861392,-0.35580328,0.478781,0.55093246,-0.33690019,0.465703,0.54412348,-0.32025973,0.454164
0.55846971,-0.41164734,0.561753,0.56186819,-0.37670129,0.528199,0.54923246,-0.38452763,0.554536,0.54981482,-0.37110413,0.537523,0.54483215,-0.35826303,0.51606,0.54623173,-0.34440405,0.501485,0.55948737,-0.32012049,0.494369,0.53202053,-0.2792901,0.46086,0.52561767,-0.29322425,0.471357,0.52741583,-0.31126515,0.488774,0.565746,-0.34409914,0.493707,0.5704016,-0.31148424,0.460066,0.54362169,-0.29530246,0.440442,0.53261807,-0.29806808,0.443353,0.57079732,-0.36798484,0.49662,0.57258079,-0.32511365,0.465237,0.56064237,-0.30566142,0.449181,0.56161474,-0.30481828,0.452953,0.57610751,-0.4030567,0.506141,0.55904377,-0.36068311,0.474002,0.54810911,-0.34227897,0.459236,0.53654845,-0.32678158,0.446206
0.55751178,-0.41139851,0.560853,0.56151079,-0.3781311,0.52768,0.5493671,-0.38448881,0.55373,0.5529951,-0.37315383,0.536703,0.5441217,-0.35832608,0.515096,0.54514348,-0.3454589,0.500259,0.56006091,-0.32204998,0.494252,0.53348559,-0.2809742,0.461002,0.52726213,-0.29457169,0.471757,0.52895698,-0.31215077,0.489174,0.5657593,-0.3460555,0.493581,0.57184046,-0.31459158,0.460845,0.54589356,-0.29819525,0.441749,0.53558884,-0.30085686,0.445235,0.57025363,-0.36990799,0.496446,0.57332915,-0.32793953,0.465653,0.56206486,-0.30845446,0.449898,0.5637111,-0.30747879,0.45406,0.57474043,-0.40482894,0.505843,0.55856344,-0.3624796,0.473925,0.54801722,-0.34399017,0.45926,0.53678585,-0.3283637,0.44632
0.55675941,-0.41108304,0.560147,0.56143242,-0.37862163,0.527551,0.54967704,-0.38445308,0.553341,0.55118281,-0.3721481,0.536908,0.54441669,-0.35922375,0.515688,0.54457446,-0.3467212,0.500201,0.56099587,-0.32274385,0.494952,0.5408242,-0.28060075,0.462222,0.53586834,-0.29230269,0.473345,0.53497958,-0.31077919,0.490705,0.56625073,-0.34663099,0.494045,0.5692693,-0.31377705,0.459315,0.5332024,-0.29777709,0.439056,0.51723032,-0.30045886,0.441075,0.57029234,-0.37031796,0.496657,0.57356869,-0.32850089,0.46587,0.56236253,-0.30893658,0.450119,0.56384094,-0.30772509,0.454144,0.57410317,-0.4049138,0.505652,0.55855254,-0.36283965,0.474147,0.54828961,-0.34443639,0.459671,0.53730397,-0.32886552,0.446899
0.55695608,-0.41116669,0.560043,0.56164531,-0.37907347,0.527553,0.55013785,-0.38451765,0.553164,0.55313038,-0.3731446,0.536668,0.54409817,-0.359497,0.51528,0.54414518,-0.34747391,0.499767,0.56133423,-0.32306798,0.494937,0.54165605,-0.28124084,0.462208,0.53681894,-0.29300515,0.473403,0.53677844,-0.31029822,0.49079,0.56661146,-0.34708369,0.494156,0.56862899,-0.31393844,0.458833,0.53282084,-0.2981146,0.438228,0.51640124,-0.30052677,0.439844,0.57064614,-0.37085467,0.49686,0.56923176,-0.32666385,0.462667,0.54938257,-0.3090745,0.445173,0.54098515,-0.30922923,0.446521,0.57440589,-0.40550328,0.505945,0.55901436,-0.36354862,0.474459,0.54907081,-0.34511796,0.459993,0.53852544,-0.32945411,0.447229
0.56596093,-0.41658523,0.568182,0.56742754,-0.3819573,0.532212,0.56324885,-0.38942361,0.560802,0.55771854,-0.37521097,0.540601,0.5483659,-0.36051005,0.519188,0.54854546,-0.34797142,0.503871,0.56387638,-0.32375567,0.496407,0.54157865,-0.28127504,0.461649,0.53352505,-0.29170543,0.47029,0.53216746,-0.30881045,0.487457,0.56849748,-0.34764941,0.495239,0.531974,-0.31633533,0.455072,0.47937466,-0.30087098,0.431641,0.46075421,-0.30015558,0.428882,0.57240096,-0.37146829,0.497983,0.57143168,-0.32954243,0.463108,0.55703054,-0.31558844,0.445265,0.54970762,-0.316275,0.446736,0.57675322,-0.40651944,0.507749,0.55927684,-0.36509135,0.474487,0.55377926,-0.35070033,0.460319,0.54781144,-0.33621625,0.447817
0.56656596,-0.41629522,0.568718,0.56829913,-0.38181931,0.532583,0.56483579,-0.38946961,0.561706,0.55922374,-0.37559526,0.541936,0.55034597,-0.35643741,0.521,0.55046762,-0.34431934,0.506067,0.56501365,-0.32387525,0.497128,0.5411259,-0.28202896,0.462572,0.53128154,-0.29278262,0.471025,0.53279059,-0.30897838,0.488038,0.56891221,-0.34748575,0.495438,0.53076889,-0.31567791,0.455253,0.4777366,-0.30041599,0.431812,0.46044033,-0.29973002,0.428893,0.5722543,-0.37099724,0.497771,0.57052361,-0.32934508,0.462745,0.55522554,-0.31439858,0.444825,0.54493497,-0.31282521,0.446024,0.57604047,-0.40557064,0.507085,0.55856383,-0.36410972,0.473927,0.54878375,-0.34642047,0.458692,0.54192632,-0.33229422,0.446668
0.56912222,-0.417422,0.570677,0.56967487,-0.38120558,0.533755,0.56739075,-0.39016005,0.563697,0.56057544,-0.37603944,0.543183,0.55169239,-0.35648893,0.522417,0.55141296,-0.34162985,0.507309,0.56597516,-0.32408151,0.497767,0.5397695,-0.28219565,0.462914,0.52815253,-0.2936075,0.470623,0.5318095,-0.30904412,0.487456,0.56944323,-0.34759237,0.495803,0.5292637,-0.31615193,0.455131,0.4758057,-0.30085385,0.431405,0.4584838,-0.29954926,0.427786,0.57252898,-0.37099228,0.49799,0.56986301,-0.32940366,0.462249,0.55053562,-0.31422825,0.443963,0.53509343,-0.31743889,0.444389,0.57622039,-0.40541111,0.507279,0.55153817,-0.36765734,0.473846,0.54027967,-0.35118958,0.458485,0.53032843,-0.33667074,0.444931
0.57107183,-0.41708281,0.57115,0.56997768,-0.38106908,0.533751,0.56825866,-0.38990371,0.564073,0.55908825,-0.37531378,0.54287,0.54965155,-0.35480467,0.522015,0.54951956,-0.34089334,0.506725,0.56564791,-0.32369561,0.497289,0.53768309,-0.28235,0.462179,0.52700054,-0.29331947,0.469419,0.52873623,-0.30970119,0.486166,0.56899442,-0.34723543,0.495308,0.52642971,-0.3162744,0.454322,0.47252838,-0.30104782,0.430413,0.45650905,-0.2990723,0.426355,0.57205109,-0.37063851,0.497531,0.56955676,-0.32967023,0.461997,0.55072758,-0.31469746,0.443816,0.54143605,-0.31384554,0.444464,0.57584451,-0.40503181,0.506948,0.55089072,-0.36784474,0.473307,0.53944991,-0.35136602,0.45785,0.52933778,-0.33683859,0.444212
0.5715663,-0.41655371,0.571527,0.57029691,-0.38164295,0.533759,0.5690415,-0.38938928,0.564266,0.55652889,-0.37378179,0.542005,0.54370223,-0.35328543,0.520963,0.54124762,-0.33815521,0.505226,0.56505343,-0.32321391,0.49679,0.53602207,-0.28236793,0.461404,0.52476819,-0.29323119,0.468282,0.5259537,-0.30934199,0.484993,0.56842502,-0.34687716,0.494937,0.52371931,-0.31673768,0.453686,0.46967917,-0.30137905,0.429622,0.45450555,-0.29835123,0.425222,0.57155852,-0.37037067,0.497302,0.5668228,-0.32991104,0.460804,0.54724812,-0.31435946,0.44213,0.53681956,-0.31227236,0.441894,0.57555093,-0.40485258,0.506954,0.54958104,-0.36762612,0.473106,0.53792836,-0.35110465,0.457555,0.52762684,-0.33653974,0.443833
0.57197191,-0.41601634,0.571661,0.5704501,-0.38154011,0.5336,0.56957083,-0.38891236,0.564363,0.55773381,-0.37446432,0.54184,0.54343521,-0.35277458,0.520916,0.54090398,-0.33668017,0.50497,0.56342635,-0.32152249,0.496368,0.53602735,-0.28146473,0.460852,0.52453337,-0.29191865,0.467409,0.52708905,-0.30744284,0.484043,0.56739939,-0.34603214,0.494476,0.51908509,-0.31574783,0.453049,0.46523013,-0.30094106,0.428884,0.4519705,-0.29829075,0.42419,0.57081556,-0.36980156,0.496839,0.56372816,-0.32789504,0.459919,0.54334871,-0.3119906,0.441029,0.53314525,-0.3113672,0.440226,0.57496863,-0.40424764,0.506542,0.54865155,-0.36684933,0.472589,0.53681457,-0.35030516,0.456989,0.52634958,-0.33572147,0.443224
0.57267707,-0.41536161,0.57195,0.5706043,-0.38111048,0.533666,0.57009703,-0.38824594,0.564521,0.55822905,-0.37425816,0.542106,0.54735403,-0.35319981,0.521059,0.54583405,-0.33646985,0.505242,0.56188989,-0.32044968,0.496105,0.53554197,-0.28145238,0.460415,0.52373315,-0.29171708,0.466738,0.52537131,-0.30714644,0.483348,0.56692312,-0.34542819,0.494314,0.51795609,-0.31525234,0.452729,0.4654298,-0.30090746,0.428472,0.4514302,-0.29763017,0.423561,0.57027247,-0.36964527,0.496784,0.55450638,-0.32577872,0.45805,0.52891792,-0.30979413,0.438232,0.51053758,-0.30945835,0.434176,0.57486823,-0.40410325,0.506651,0.54894939,-0.36643492,0.472572,0.53717337,-0.34983597,0.456914,0.52934707,-0.33336212,0.443838
0.57395879,-0.4147964,0.57268,0.57112372,-0.38050312,0.534047,0.57145303,-0.38788074,0.565496,0.55891845,-0.37425549,0.542951,0.54866479,-0.3535042,0.522346,0.54694272,-0.33630594,0.506292,0.56185699,-0.32013916,0.496544,0.53456925,-0.28002621,0.460936,0.52225767,-0.29011909,0.466779,0.52327938,-0.30749393,0.483164,0.56516263,-0.34381908,0.494335,0.51729474,-0.31440299,0.452637,0.46349808,-0.30015465,0.428313,0.45028576,-0.29715013,0.422994,0.56964487,-0.36829346,0.496498,0.55368851,-0.32423295,0.457615,0.52793431,-0.30796791,0.437722,0.50816585,-0.30665686,0.432495,0.57416299,-0.40245689,0.506069,0.54532327,-0.36490654,0.472023,0.52531158,-0.34708426,0.45638,0.50804427,-0.33393618,0.442578
0.57484608,-0.41387255,0.573017,0.57177807,-0.37910394,0.53435,0.57229806,-0.38709121,0.565961,0.55719922,-0.37309203,0.543321,0.54622618,-0.3519526,0.522816,0.54404828,-0.33427223,0.506785,0.56128952,-0.31907831,0.496989,0.53327987,-0.27817568,0.461473,0.52199792,-0.28897324,0.467241,0.52274204,-0.30684606,0.48356,0.56489172,-0.34256495,0.494605,0.51643883,-0.31317908,0.452929,0.4635547,-0.29970427,0.428618,0.45032899,-0.29704707,0.423242,0.56859213,-0.36642862,0.496626,0.55297936,-0.3228048,0.457109,0.52680849,-0.30624014,0.43689,0.50675034,-0.30468786,0.431402,0.5736418,-0.40066888,0.506039,0.54282872,-0.36179359,0.472052,0.52682039,-0.3456352,0.456436,0.51169899,-0.33175932,0.442657
0.57590444,-0.41313001,0.573603,0.57213196,-0.37911179,0.534834,0.57319104,-0.38638901,0.56656,0.55741019,-0.37307367,0.543752,0.54539716,-0.35324258,0.523359,0.54362758,-0.33623856,0.507176,0.561666,-0.31887135,0.497414,0.53342825,-0.27798156,0.461879,0.52182065,-0.28874507,0.46751,0.52254968,-0.30654857,0.483782,0.56525897,-0.34233004,0.494983,0.50830259,-0.31160315,0.45326,0.46174696,-0.29947582,0.428922,0.44945615,-0.29709238,0.423428,0.56895647,-0.36616278,0.496977,0.5531704,-0.3224097,0.457307,0.52689201,-0.30575308,0.43701,0.50663542,-0.30406143,0.43136,0.57404319,-0.40045521,0.506376,0.54319788,-0.36170385,0.472373,0.52766355,-0.34537451,0.456749,0.51324397,-0.33124262,0.442964
0.5807486,-0.41623051,0.578583,0.5766158,-0.38177487,0.539443,0.57828202,-0.38967413,0.572064,0.56379108,-0.37660538,0.549092,0.55464838,-0.33623328,0.528236,0.55377448,-0.31109619,0.514525,0.56680694,-0.32168965,0.502423,0.54021918,-0.28139677,0.467225,0.52717925,-0.29203383,0.472159,0.52800767,-0.30930184,0.48802,0.5698326,-0.34478367,0.499211,0.50167905,-0.31793555,0.45749,0.45334049,-0.30790492,0.433153,0.44583822,-0.30466886,0.427103,0.57299674,-0.36765448,0.500599,0.55647246,-0.32288201,0.46068,0.53031115,-0.30608829,0.440256,0.5096418,-0.30522093,0.433922,0.57783537,-0.40065209,0.509359,0.54754804,-0.36440073,0.475573,0.53130857,-0.34708157,0.46005,0.51883602,-0.33148992,0.446353
0.58055334,-0.41579366,0.578677,0.57639974,-0.38139847,0.539715,0.57770656,-0.38920438,0.572072,0.56274541,-0.37609489,0.549218,0.5527102,-0.33639022,0.528322,0.55193755,-0.31136443,0.514663,0.56656734,-0.32158061,0.502715,0.54017953,-0.28129677,0.467487,0.52759562,-0.29215336,0.472712,0.52803203,-0.3097661,0.488701,0.56996567,-0.34473989,0.499666,0.50155611,-0.31820653,0.457993,0.4532984,-0.30820446,0.433685,0.44607538,-0.30514437,0.427876,0.57342378,-0.36766304,0.50117,0.55671136,-0.32280905,0.461436,0.53124827,-0.30595084,0.441107,0.51146628,-0.30423368,0.435079,0.57846331,-0.40127153,0.510032,0.54698613,-0.3635565,0.476227,0.53166126,-0.34705336,0.460695,0.5188467,-0.33152362,0.44699
0.58811127,-0.42098265,0.586753,0.58526332,-0.38704657,0.548564,0.58429679,-0.39351648,0.579255,0.5679837,-0.37739957,0.555598,0.56067831,-0.33791131,0.534561,0.55861479,-0.3137396,0.520044,0.57634703,-0.32723657,0.510985,0.54977096,-0.28737516,0.475273,0.52301011,-0.28969695,0.468682,0.51750577,-0.30358211,0.479381,0.58109115,-0.35178704,0.50931,0.51250097,-0.32490906,0.467759,0.46325115,-0.31471549,0.443521,0.45618959,-0.31252896,0.438716,0.58575904,-0.37596135,0.511866,0.58600756,-0.33784415,0.480064,0.55817623,-0.32779149,0.463793,0.54043012,-0.33587814,0.466409,0.59114981,-0.4078737,0.521816,0.52486095,-0.37610164,0.487731,0.49620123,-0.36157943,0.47207,0.47838055,-0.35053721,0.467791
0.59409793,-0.42655174,0.593728,0.59216807,-0.39462319,0.555681,0.58962618,-0.39846876,0.585721,0.57333487,-0.3775762,0.561236,0.56640187,-0.34236157,0.54123,0.56522896,-0.3172918,0.525789,0.57914543,-0.33745459,0.51755,0.51184892,-0.32258524,0.481505,0.50852442,-0.33637515,0.488181,0.52686457,-0.34903614,0.502976,0.58569195,-0.36212306,0.516572,0.52361154,-0.33713812,0.474971,0.47086336,-0.32067555,0.450704,0.46272768,-0.3183447,0.446077,0.59138424,-0.38644423,0.519687,0.57860574,-0.34303453,0.482535,0.54847328,-0.33095611,0.463527,0.52688221,-0.33799364,0.461617,0.59831431,-0.42193415,0.530263,0.53366869,-0.3844927,0.495981,0.50403277,-0.36852751,0.48023,0.48608141,-0.3573734,0.476055
0.59702684,-0.43019186,0.598141,0.58896576,-0.39991851,0.560964,0.59259017,-0.40227338,0.590577,0.5670171,-0.37720571,0.566742,0.55936816,-0.34670576,0.547296,0.55926009,-0.32450792,0.532494,0.57498741,-0.33695957,0.524041,0.50658052,-0.32493973,0.485515,0.5051205,-0.33901148,0.492888,0.52708268,-0.35082675,0.507083,0.58345716,-0.36075337,0.52275,0.52277792,-0.34064133,0.481772,0.47522403,-0.32872605,0.457868,0.46438559,-0.32585301,0.454056,0.59074448,-0.38433053,0.525519,0.57452122,-0.34012207,0.487031,0.54390962,-0.32983392,0.467339,0.52532563,-0.33839064,0.463665,0.60192489,-0.42250632,0.535532,0.5384215,-0.39086207,0.501736,0.50844605,-0.37517809,0.486208,0.49164006,-0.36408349,0.482701
0.59689863,-0.43081346,0.598851,0.59312196,-0.3945661,0.561579,0.59141372,-0.40271631,0.590913,0.56804131,-0.37700344,0.567262,0.55946827,-0.34657729,0.547818,0.55859484,-0.3238374,0.533041,0.57107514,-0.33038904,0.524103,0.50612027,-0.32366129,0.485552,0.50507596,-0.33812255,0.492881,0.52451144,-0.34963797,0.508693,0.58360983,-0.3530778,0.523266,0.52488844,-0.33794089,0.48214,0.47469117,-0.32911038,0.45815,0.46551501,-0.32523034,0.454264,0.59457864,-0.37601425,0.526418,0.57355372,-0.33083868,0.487234,0.54242474,-0.32306516,0.467186,0.52370756,-0.33630825,0.463264,0.60836935,-0.41035773,0.536896,0.54424389,-0.38761335,0.502898,0.51095466,-0.37596946,0.487277,0.49267872,-0.36692377,0.483685
0.60294278,-0.43740794,0.606944,0.59212734,-0.40284734,0.572253,0.58422034,-0.41363445,0.599125,0.56470488,-0.38629715,0.576591,0.55651721,-0.35425329,0.558822,0.55487805,-0.32938969,0.545612,0.5678551,-0.33414338,0.536821,0.51298726,-0.33000517,0.500063,0.51853064,-0.34862717,0.509634,0.53868634,-0.36131075,0.527449,0.58480516,-0.35465435,0.536594,0.53483059,-0.34208448,0.497203,0.48881205,-0.34026262,0.474225,0.48155455,-0.33904758,0.472484,0.59926602,-0.37630396,0.539983,0.58013566,-0.32779277,0.502662,0.55465501,-0.32141094,0.483568,0.53985841,-0.33561038,0.482039,0.61688445,-0.41012919,0.550267,0.56264206,-0.39417992,0.517356,0.53572503,-0.38597015,0.502234,0.51497418,-0.38253813,0.500326
0.59236493,-0.44551876,0.605286,0.58844726,-0.40277905,0.569826,0.57357601,-0.42249452,0.59671,0.56301921,-0.38789226,0.575982,0.55015868,-0.35301044,0.554623,0.54580784,-0.32748476,0.539092,0.56194015,-0.3336408,0.532858,0.50811433,-0.32929648,0.496048,0.51070707,-0.35049431,0.505059,0.53525367,-0.35945543,0.523184,0.58055419,-0.35368439,0.533377,0.58663941,-0.3102677,0.510957,0.58280661,-0.29334787,0.497879,0.59074139,-0.30230816,0.506606,0.59673986,-0.37535653,0.537458,0.57420294,-0.32513857,0.499282,0.54278565,-0.32267345,0.479751,0.53194757,-0.33479043,0.477487,0.61693475,-0.40997884,0.548692,0.55946763,-0.39131993,0.515137,0.52421298,-0.37734025,0.49972,0.5077119,-0.37301796,0.497273
0.59840531,-0.44893689,0.609914,0.59325688,-0.40376099,0.572948,0.57787089,-0.42639658,0.600126,0.56297332,-0.38782336,0.577169,0.54510762,-0.35324467,0.554609,0.53892497,-0.32891367,0.538315,0.56104882,-0.3310144,0.533321,0.50773847,-0.32850755,0.49585,0.50847011,-0.34983379,0.503527,0.52489952,-0.36814484,0.52138,0.58172398,-0.35086482,0.534951,0.58647968,-0.30305759,0.514309,0.58455964,-0.2851948,0.502268,0.59484617,-0.29413524,0.511769,0.60053742,-0.36892592,0.540102,0.56558942,-0.32833137,0.500476,0.53398022,-0.33190805,0.480202,0.52141071,-0.34382394,0.476393,0.62656932,-0.40368847,0.552859,0.56641522,-0.38509826,0.518233,0.53133961,-0.37386571,0.502324,0.51084507,-0.37232382,0.498743
0.59636149,-0.45231504,0.610804,0.58859436,-0.40382266,0.577465,0.58144496,-0.43098523,0.606379,0.55963714,-0.39409982,0.58768,0.54367644,-0.36104603,0.567612,0.53751629,-0.3378325,0.551936,0.56537028,-0.3356604,0.547382,0.55715482,-0.29491176,0.512896,0.55644373,-0.28106404,0.502799,0.57223738,-0.28003925,0.511242,0.58478418,-0.35244041,0.543196,0.54507489,-0.32073988,0.505627,0.50149841,-0.321983,0.483712,0.49321645,-0.32778223,0.482746,0.59331857,-0.36975209,0.543185,0.56364254,-0.33560069,0.508728,0.53169415,-0.33558995,0.491098,0.51849162,-0.34881623,0.490744,0.60990063,-0.40136054,0.549253,0.55570436,-0.38060011,0.51854,0.52342663,-0.37370333,0.504429,0.51091849,-0.37691669,0.503366
0.58867371,-0.45442107,0.606835,0.58072356,-0.40335971,0.576151,0.57553559,-0.43268481,0.603279,0.551395,-0.39900302,0.585376,0.5339939,-0.36606465,0.565063,0.52748303,-0.34248729,0.549967,0.55388605,-0.33585765,0.549127,0.54771715,-0.28875668,0.518527,0.56057666,-0.27659742,0.520106,0.5728243,-0.26489543,0.521542,0.57161635,-0.34807523,0.544611,0.54187103,-0.31912654,0.50922,0.50499675,-0.32497591,0.488575,0.49849514,-0.33252678,0.489387,0.58719078,-0.36376196,0.544054,0.55747715,-0.32735834,0.511228,0.53323014,-0.336627,0.494433,0.52566078,-0.35092163,0.495869,0.60716353,-0.39240006,0.549001,0.55612976,-0.37535726,0.519972,0.52507649,-0.36789789,0.506634,0.51015373,-0.36982485,0.507021
0.58768017,-0.45590407,0.60685,0.57749942,-0.40516047,0.578414,0.56716539,-0.43542414,0.602916,0.54516857,-0.40479494,0.585016,0.52494961,-0.37100913,0.56319,0.51736252,-0.3467256,0.548361,0.54382789,-0.33849019,0.55255,0.53561324,-0.28939161,0.523778,0.54820638,-0.27679873,0.526827,0.56013809,-0.26462253,0.529599,0.56476283,-0.34797761,0.549184,0.53888048,-0.31989617,0.515403,0.508164,-0.32906122,0.495698,0.5051942,-0.33844241,0.498002,0.58325192,-0.36152298,0.549343,0.55491678,-0.3259627,0.517357,0.53574378,-0.33772552,0.500992,0.53412202,-0.35306317,0.503834,0.60719734,-0.38782876,0.554716,0.56199957,-0.37774314,0.526644,0.53188324,-0.37203948,0.513747,0.51821324,-0.37600052,0.515271
0.58819089,-0.4602183,0.607469,0.57877619,-0.41060845,0.585112,0.56336144,-0.44103807,0.600944,0.53901058,-0.41478776,0.581952,0.51766175,-0.38566031,0.562511,0.50899239,-0.36336208,0.548488,0.53510263,-0.34808185,0.560366,0.55093602,-0.31094223,0.560682,0.55914344,-0.2944389,0.56084,0.56627225,-0.28164327,0.560983,0.56333795,-0.35503468,0.56213,0.54221501,-0.33016523,0.532825,0.5181473,-0.34380903,0.515731,0.52144301,-0.35587882,0.521215,0.58838674,-0.36645243,0.565885,0.56135452,-0.36360097,0.537457,0.53537122,-0.37245161,0.522912,0.5351963,-0.3796281,0.528978,0.62076165,-0.39014854,0.574349,0.58211039,-0.38842071,0.548686,0.55595147,-0.38783181,0.536894,0.5448861,-0.39749197,0.540718
0.58478708,-0.46401004,0.604884,0.57291019,-0.42021505,0.585698,0.56022957,-0.4529488,0.598797,0.53476082,-0.42081951,0.582541,0.5209703,-0.39086373,0.566633,0.51336841,-0.36789803,0.554115,0.53100921,-0.35871622,0.563836,0.54603872,-0.32215289,0.565998,0.5537512,-0.30360274,0.567079,0.56085172,-0.28648362,0.568062,0.5596778,-0.36405806,0.565976,0.54265071,-0.33813147,0.539516,0.52472013,-0.35121238,0.52408,0.52660342,-0.36660647,0.531005,0.58504775,-0.37407236,0.569715,0.56762647,-0.36518188,0.543856,0.54419072,-0.37613443,0.530626,0.54475411,-0.38712324,0.538201,0.6178311,-0.39600877,0.577581,0.58620203,-0.39179897,0.554067,0.56202684,-0.39241384,0.543264,0.55246421,-0.40339026,0.548243
0.58404249,-0.47331273,0.603236,0.57258204,-0.42344103,0.587466,0.55951245,-0.4619877,0.599669,0.53275109,-0.43233886,0.587179,0.51296809,-0.40762045,0.567326,0.50204755,-0.38457731,0.555626,0.53017972,-0.36920308,0.571344,0.53642121,-0.3294831,0.568203,0.53941885,-0.31021441,0.566633,0.54203284,-0.29321528,0.565206,0.55702045,-0.37157759,0.571257,0.53341805,-0.33651718,0.548284,0.52120575,-0.35147463,0.534883,0.53023932,-0.37248566,0.5434,0.58092326,-0.3789223,0.572811,0.56095554,-0.37259034,0.550883,0.54341116,-0.38665065,0.539664,0.54863294,-0.40198123,0.549136,0.61487013,-0.39662774,0.577501,0.57689672,-0.39697354,0.557159,0.55586814,-0.40112886,0.547812,0.55506205,-0.4152527,0.554213
0.58294272,-0.47215995,0.603452,0.5714928,-0.42408741,0.587463,0.55912173,-0.46293386,0.599892,0.5335456,-0.43237725,0.588224,0.5148237,-0.40748223,0.569134,0.50479514,-0.38451466,0.558098,0.52944707,-0.36910163,0.571187,0.5344076,-0.32907843,0.566794,0.53673414,-0.30976701,0.564597,0.53871612,-0.29280991,0.5626,0.55620357,-0.37142798,0.571027,0.53239832,-0.33625572,0.547858,0.52007322,-0.35111914,0.534342,0.52901966,-0.3720545,0.542771,0.58005178,-0.37874435,0.572542,0.56110095,-0.36599286,0.550451,0.54380234,-0.38018706,0.539148,0.55061204,-0.39837295,0.548533,0.61109693,-0.39711387,0.577228,0.57585075,-0.39667856,0.556745,0.55439569,-0.40108478,0.547334,0.55278625,-0.41505745,0.553667
0.58468776,-0.47586187,0.604103,0.57187382,-0.42453103,0.588128,0.55997124,-0.4633352,0.600519,0.53496232,-0.43455017,0.587846,0.51377531,-0.40823664,0.568872,0.50258576,-0.38518645,0.557806,0.52981908,-0.36961779,0.571831,0.53419921,-0.32932857,0.56717,0.53620957,-0.31019275,0.56484,0.53787618,-0.29364151,0.562721,0.55663081,-0.37173414,0.571707,0.53285623,-0.33771522,0.548546,0.52061247,-0.35256009,0.535035,0.52962579,-0.37429311,0.543469,0.5805568,-0.37884876,0.57325,0.56560112,-0.35720939,0.551156,0.54883241,-0.37073621,0.539852,0.55327989,-0.3951331,0.549238,0.61336232,-0.39675899,0.577967,0.57656074,-0.39707915,0.557483,0.55504569,-0.40141437,0.548072,0.55033624,-0.41561729,0.554407
0.58582319,-0.47547061,0.606319,0.57207941,-0.42502851,0.589232,0.56182986,-0.46200571,0.602457,0.53553545,-0.43574149,0.588221,0.51226615,-0.40995051,0.567764,0.49970107,-0.38695829,0.556458,0.52869782,-0.36935667,0.571765,0.52065217,-0.3287323,0.567886,0.51820695,-0.30839874,0.565947,0.51594091,-0.28986525,0.564185,0.55552545,-0.37135973,0.571667,0.52873376,-0.33927202,0.54746,0.51616079,-0.35384771,0.533339,0.52572336,-0.37482725,0.541308,0.57961395,-0.37843739,0.573348,0.56200639,-0.35661425,0.55026,0.5448532,-0.36996,0.538447,0.54775744,-0.39280914,0.547334,0.61124941,-0.39656895,0.578427,0.57503593,-0.39668772,0.557114,0.55310838,-0.40082285,0.547321,0.54810448,-0.41451646,0.553273
0.58638595,-0.4747933,0.607769,0.57230096,-0.4252952,0.590507,0.5622952,-0.46284644,0.603794,0.53379836,-0.4343388,0.588399,0.50616213,-0.40868058,0.569459,0.49044049,-0.3844333,0.558099,0.52534722,-0.3678284,0.572768,0.52309586,-0.32815974,0.570429,0.52196963,-0.30797571,0.56926,0.52092639,-0.28949632,0.568196,0.55224932,-0.36948643,0.572764,0.5265312,-0.34119328,0.54838,0.51421397,-0.35661948,0.534156,0.52483893,-0.3782636,0.542048,0.57647927,-0.37624866,0.574539,0.55899231,-0.35625247,0.551257,0.54214571,-0.36986862,0.539345,0.54754684,-0.39059127,0.548142,0.60840615,-0.39394827,0.57976,0.57368079,-0.39612355,0.558289,0.5532968,-0.40104016,0.548424,0.54839589,-0.41476287,0.554308
0.58676622,-0.47556022,0.608465,0.57233555,-0.42551403,0.591339,0.56233316,-0.46333869,0.604416,0.53513568,-0.43576614,0.5895,0.50913765,-0.40979914,0.569705,0.49762919,-0.38703741,0.557781,0.52534762,-0.36821887,0.573605,0.52495345,-0.32926862,0.573325,0.52559754,-0.30850695,0.574148,0.52649439,-0.29058097,0.574897,0.55240039,-0.36976635,0.573736,0.52688265,-0.34493096,0.549459,0.5151478,-0.3612241,0.535298,0.52432553,-0.38131873,0.543242,0.57676211,-0.37643904,0.575609,0.55949838,-0.35643392,0.552389,0.54292223,-0.37014772,0.540508,0.54808338,-0.39103344,0.54935,0.608863,-0.39403689,0.580919,0.57431464,-0.39616319,0.559506,0.55389309,-0.40148798,0.549668,0.5492225,-0.41519164,0.555588
0.58656874,-0.47729294,0.608589,0.56949725,-0.42494937,0.591924,0.56101753,-0.46484874,0.604404,0.53288798,-0.43467941,0.589048,0.50637043,-0.40927722,0.569392,0.4947648,-0.38681447,0.557091,0.52406911,-0.36804403,0.574351,0.52486225,-0.32957861,0.574348,0.52521245,-0.30911993,0.575221,0.52604451,-0.29117646,0.576014,0.55141655,-0.3695888,0.574794,0.52731876,-0.34646057,0.550902,0.5159076,-0.36303514,0.536965,0.52544109,-0.38337527,0.54509,0.57599238,-0.37624327,0.576875,0.56007828,-0.35715168,0.553928,0.54368487,-0.371111,0.542187,0.54898618,-0.39171906,0.551194,0.60829895,-0.39379691,0.582345,0.57397199,-0.39610905,0.561175,0.55215454,-0.401396,0.551448,0.55042783,-0.4162427,0.5575
0.58723522,-0.47912668,0.610001,0.5672602,-0.42325954,0.593102,0.56135782,-0.46348297,0.60516,0.52971296,-0.43135,0.59106,0.50564052,-0.40353647,0.574852,0.49213823,-0.38253418,0.561504,0.52048759,-0.36708356,0.574514,0.52238493,-0.32859351,0.576973,0.52335098,-0.30910306,0.578203,0.52570633,-0.29177924,0.579321,0.54850275,-0.36860159,0.57573,0.52786691,-0.34421996,0.551511,0.51701894,-0.36032722,0.537383,0.52651131,-0.38232797,0.545367,0.5736143,-0.37520973,0.578473,0.56010052,-0.35401885,0.554993,0.54452968,-0.36912769,0.54298,0.54804591,-0.39026631,0.551769,0.60652906,-0.39263991,0.584758,0.57519097,-0.39521225,0.563181,0.55339571,-0.40060365,0.553268,0.5494672,-0.41489447,0.559162
0.58617421,-0.47923704,0.610028,0.56726648,-0.422831,0.593794,0.56023271,-0.46415157,0.605334,0.5333,-0.43445793,0.590465,0.50777533,-0.4077984,0.570579,0.49795518,-0.38596012,0.55793,0.52130108,-0.36714078,0.575884,0.52034313,-0.32720528,0.577795,0.52048744,-0.30764256,0.578851,0.52068724,-0.28974531,0.579893,0.54936472,-0.36860788,0.577108,0.52821208,-0.34585943,0.553511,0.51823726,-0.36260392,0.539747,0.52846502,-0.38401649,0.548008,0.5744682,-0.37510963,0.579788,0.56067857,-0.35542155,0.556893,0.54549722,-0.3703885,0.54518,0.55003768,-0.39109795,0.554264,0.60726056,-0.39229336,0.585879,0.57647062,-0.39555917,0.564792,0.5549274,-0.40114164,0.555104,0.55109717,-0.41554458,0.561225
0.58354094,-0.47663287,0.608694,0.56358218,-0.41820357,0.593915,0.55772268,-0.46215452,0.604914,0.53326854,-0.43212775,0.591676,0.50646345,-0.40363445,0.572923,0.49325942,-0.38347716,0.558855,0.52188567,-0.36576798,0.578244,0.5181803,-0.32514349,0.57853,0.51395058,-0.30321677,0.578673,0.51457196,-0.28751376,0.578804,0.54929196,-0.36682338,0.578723,0.52507567,-0.33444126,0.556601,0.51461156,-0.35124996,0.543697,0.52442717,-0.37075736,0.552592,0.57362368,-0.37283962,0.580641,0.55909316,-0.35402064,0.559352,0.54463227,-0.36921778,0.54846,0.55211101,-0.39127172,0.558286,0.60508508,-0.38914617,0.585577,0.57525617,-0.39246744,0.565798,0.55466397,-0.40002122,0.55671,0.55235271,-0.41520359,0.563391
0.56887709,-0.46385478,0.594747,0.55496448,-0.41115435,0.585204,0.54526259,-0.4511412,0.592925,0.52241136,-0.42300947,0.579879,0.49514443,-0.394808,0.562284,0.48213925,-0.37373624,0.55028,0.51951254,-0.36333386,0.57588,0.51229034,-0.3209727,0.57261,0.50755981,-0.29929056,0.571437,0.50612305,-0.2826942,0.57037,0.54587382,-0.36389976,0.575395,0.52681273,-0.33521286,0.558441,0.51920591,-0.35398927,0.54855,0.53093574,-0.37501584,0.55945,0.56875099,-0.36912933,0.57598,0.55892951,-0.35391525,0.559846,0.5470565,-0.37090974,0.551591,0.55603132,-0.39325145,0.563636,0.59739339,-0.38376813,0.578403,0.57164803,-0.38997848,0.562919,0.55289117,-0.39755684,0.555804,0.55273136,-0.41492797,0.564188
