sluyters/QuantumLeap/backend/src/datasets/dynamic/HandGestureDataset_SHREC2017_csv/Gesture5/finger_2/subject_19_essai_2_skeletons_world.csv
Wrist_x,Wrist_y,Wrist_z,Palm_x,Palm_y,Palm_z,thumb_base_x,thumb_base_y,thumb_base_z,thumb_first_joint_x,thumb_first_joint_y,thumb_first_joint_z,thumb_second_joint_x,thumb_second_joint_y,thumb_second_joint_z,thumb_tip_x,thumb_tip_y,thumb_tip_z,index_base_x,index_base_y,index_base_z,index_first_joint_x,index_first_joint_y,index_first_joint_z,index_second_joint_x,index_second_joint_y,index_second_joint_z,index_tip_x,index_tip_y,index_tip_z,middle_base_x,middle_base_y,middle_base_z,middle_first_joint_x,middle_first_joint_y,middle_first_joint_z,middle_second_joint_x,middle_second_joint_y,middle_second_joint_z,middle_tip_x,middle_tip_y,middle_tip_z,ring_base_x,ring_base_y,ring_base_z,ring_first_joint_x,ring_first_joint_y,ring_first_joint_z,ring_second_joint_x,ring_second_joint_y,ring_second_joint_z,ring_tip_x,ring_tip_y,ring_tip_z,pinky_base_x,pinky_base_y,pinky_base_z,pinky_first_joint_x,pinky_first_joint_y,pinky_first_joint_z,pinky_second_joint_x,pinky_second_joint_y,pinky_second_joint_z,pinky_tip_x,pinky_tip_y,pinky_tip_z,
0.42516368,-0.3719865,0.500636,0.41605531,-0.32477227,0.48902,0.40785287,-0.36511258,0.502607,0.38198699,-0.35594764,0.49356,0.34559051,-0.33256012,0.470976,0.32577857,-0.3131547,0.456468,0.38634683,-0.29187754,0.484927,0.35773883,-0.24980396,0.471165,0.34422893,-0.23481252,0.464285,0.3334527,-0.22767169,0.458029,0.40694952,-0.28663836,0.479496,0.38196145,-0.2374151,0.461333,0.36829382,-0.21832324,0.450738,0.37368215,-0.22019699,0.460808,0.42459986,-0.28772237,0.476286,0.40026313,-0.24318144,0.459472,0.38869277,-0.22600318,0.45087,0.39870253,-0.23003524,0.46214,0.44881561,-0.30025919,0.474759,0.43292003,-0.26462592,0.458555,0.42575271,-0.24826672,0.451109,0.43247543,-0.25244883,0.459231
0.42602392,-0.37252477,0.49998,0.41564358,-0.32573606,0.488386,0.40849946,-0.36642614,0.501989,0.38140075,-0.35570743,0.492998,0.34517971,-0.33245425,0.47063,0.32551126,-0.31316032,0.456176,0.38564416,-0.29171789,0.484357,0.3570366,-0.2496517,0.470643,0.34347043,-0.23494246,0.463786,0.33286951,-0.2275285,0.457553,0.40618449,-0.28649831,0.478881,0.38147958,-0.23711559,0.460751,0.3678338,-0.21805055,0.450175,0.37322803,-0.21992939,0.460248,0.42391562,-0.28754805,0.475632,0.39951827,-0.24295007,0.458825,0.38803957,-0.22651399,0.450226,0.39719287,-0.23032615,0.461492,0.44799216,-0.29971002,0.474055,0.43189083,-0.26430863,0.457876,0.42462714,-0.24799276,0.450442,0.43147407,-0.25166081,0.458568
0.42637436,-0.37368334,0.49944,0.41545257,-0.32709291,0.488025,0.40851974,-0.36817636,0.501308,0.38057022,-0.35558278,0.492175,0.34509722,-0.33240978,0.470201,0.32738875,-0.31382755,0.455013,0.38435734,-0.29341931,0.483912,0.3554439,-0.25136439,0.470202,0.34261905,-0.24235962,0.463347,0.33166304,-0.23070899,0.457116,0.40474518,-0.28864318,0.478667,0.38159176,-0.23786144,0.460657,0.36731898,-0.21976166,0.450151,0.37155561,-0.22979813,0.460313,0.42333352,-0.28961112,0.475588,0.39930723,-0.24357571,0.458931,0.38744237,-0.23550612,0.450409,0.39489752,-0.23336587,0.461783,0.44682297,-0.30086875,0.474175,0.43079961,-0.26552668,0.458117,0.42323907,-0.24978753,0.45074,0.4311594,-0.25294864,0.458939
0.42658897,-0.3753769,0.499103,0.41517509,-0.32756345,0.487887,0.40843091,-0.36877981,0.501051,0.38035749,-0.35581748,0.492067,0.345214,-0.33254559,0.470149,0.32777634,-0.3139447,0.454972,0.38411249,-0.293961,0.483992,0.35523586,-0.25211282,0.470484,0.34206829,-0.24277593,0.463731,0.33136684,-0.23166143,0.457591,0.40441,-0.28911413,0.47869,0.38154096,-0.23839673,0.460886,0.36735701,-0.22079045,0.4505,0.37189301,-0.2300068,0.460731,0.4229351,-0.2899952,0.475543,0.39924539,-0.24399051,0.459069,0.38764108,-0.23562691,0.45064,0.39484753,-0.23434019,0.462083,0.44640139,-0.30105143,0.474014,0.43056298,-0.26575556,0.458137,0.42306504,-0.25038812,0.450843,0.43083576,-0.25381316,0.4591
0.42642925,-0.37610761,0.497685,0.41453484,-0.32912427,0.486874,0.40989691,-0.37264951,0.49945,0.3795933,-0.35615281,0.490329,0.34861315,-0.33499632,0.467755,0.32957149,-0.31460401,0.453612,0.37975293,-0.30076485,0.482973,0.35372219,-0.25542422,0.469593,0.34287201,-0.24771422,0.462903,0.33049063,-0.23481634,0.456821,0.4014426,-0.29145985,0.47801,0.37954819,-0.24051079,0.460524,0.36327167,-0.23079071,0.450323,0.37011369,-0.2305493,0.460735,0.41980591,-0.29197685,0.475099,0.39909689,-0.24341366,0.458584,0.38781462,-0.23569751,0.450135,0.39400854,-0.23819523,0.461668,0.44540949,-0.30081056,0.473765,0.43146137,-0.26483376,0.458094,0.42441881,-0.24964081,0.450893,0.43109665,-0.2572511,0.459307
0.42647131,-0.37720617,0.496822,0.41402432,-0.32928337,0.486296,0.40976124,-0.37295383,0.498704,0.37938363,-0.35630903,0.489802,0.34849806,-0.33538003,0.467214,0.32958064,-0.31484913,0.453157,0.37954928,-0.30060356,0.482714,0.35402854,-0.25605143,0.469442,0.34280016,-0.24766231,0.462806,0.33059293,-0.23539245,0.456774,0.40066267,-0.29171881,0.477666,0.37914188,-0.24080454,0.460476,0.36337332,-0.23085529,0.450449,0.36940114,-0.23093198,0.460959,0.41893859,-0.29180119,0.474653,0.39906251,-0.24304699,0.458321,0.38797144,-0.23577551,0.449966,0.39414239,-0.23894558,0.461573,0.44451567,-0.30034828,0.473148,0.43127485,-0.26437032,0.457712,0.4244428,-0.24945256,0.45062,0.43091554,-0.25777369,0.459118
0.42760148,-0.37767104,0.496242,0.41368699,-0.32943893,0.485916,0.40977091,-0.37329544,0.498264,0.37936816,-0.3565591,0.48959,0.34852804,-0.33565598,0.467061,0.32971567,-0.31513565,0.453031,0.37948716,-0.30055436,0.482635,0.35430558,-0.25649592,0.469474,0.34286535,-0.2477094,0.462894,0.33078396,-0.23586501,0.456912,0.40018737,-0.29186904,0.477451,0.37893173,-0.24100211,0.460488,0.36349029,-0.2309296,0.450594,0.36903024,-0.23119769,0.461165,0.41834618,-0.29164581,0.474304,0.39901901,-0.2427621,0.458104,0.38802305,-0.2357965,0.449816,0.39417794,-0.2393675,0.461464,0.44364637,-0.29977884,0.472608,0.43106213,-0.26396826,0.457343,0.42438773,-0.24926252,0.450329,0.43068855,-0.25808939,0.458879
0.42873768,-0.37881242,0.496278,0.41356761,-0.32970202,0.485812,0.41016059,-0.37393565,0.498387,0.37954825,-0.3569148,0.48979,0.34669161,-0.3342282,0.46836,0.32901539,-0.31507567,0.454035,0.3793118,-0.30055608,0.482564,0.35424008,-0.25671789,0.469271,0.34260105,-0.24769457,0.462624,0.33060209,-0.23608256,0.456581,0.39975062,-0.29194232,0.477232,0.37845109,-0.24097883,0.460166,0.36316936,-0.23083677,0.450211,0.36835485,-0.23119131,0.460717,0.41783043,-0.29149647,0.473978,0.39867608,-0.24238125,0.457612,0.38766565,-0.2356245,0.449238,0.39377475,-0.23945323,0.460795,0.44304396,-0.29948634,0.472185,0.43069347,-0.26354055,0.456812,0.4240651,-0.24896646,0.449749,0.42985591,-0.25894205,0.458243
0.42861788,-0.37938005,0.495586,0.41309342,-0.32961066,0.485284,0.41002153,-0.37482991,0.497775,0.37920485,-0.35674086,0.489321,0.34648294,-0.3340811,0.468049,0.32903179,-0.31501082,0.453793,0.37898302,-0.30037999,0.482237,0.35412846,-0.25682983,0.46904,0.34242689,-0.24767451,0.462441,0.33054559,-0.23630327,0.456443,0.39923963,-0.29184936,0.476838,0.37811683,-0.24096796,0.459947,0.36306777,-0.23083898,0.450094,0.36807781,-0.23131579,0.460654,0.41725569,-0.29124581,0.473511,0.39843778,-0.24209885,0.45726,0.38751446,-0.23556482,0.448946,0.3936804,-0.23963177,0.460544,0.44233903,-0.299099,0.471604,0.4301171,-0.26338225,0.45638,0.42356492,-0.249143,0.449385,0.4291687,-0.25977035,0.457923
0.42849615,-0.37972567,0.495088,0.4125862,-0.32995637,0.484819,0.40980251,-0.37527457,0.497216,0.37867556,-0.35775472,0.488691,0.34714789,-0.33583149,0.466732,0.32959337,-0.31575668,0.452658,0.37877261,-0.3002015,0.48171,0.35435991,-0.25801811,0.46842,0.34201325,-0.24749849,0.461775,0.32974983,-0.23670773,0.455733,0.39897345,-0.29189244,0.4764,0.3776844,-0.24108482,0.459522,0.36283117,-0.2306528,0.449676,0.36772078,-0.23111226,0.460256,0.41705815,-0.29133696,0.473144,0.39809099,-0.24215701,0.456859,0.3872898,-0.2357132,0.448528,0.3935631,-0.23986634,0.460135,0.44210684,-0.29921548,0.47131,0.43018959,-0.26309516,0.456079,0.42469007,-0.2485392,0.449081,0.4295029,-0.25999218,0.45764
0.42840898,-0.38022642,0.494531,0.4122023,-0.33051225,0.484394,0.40972583,-0.37596584,0.496725,0.37834031,-0.35777589,0.488316,0.34668205,-0.33588772,0.466447,0.32934026,-0.315947,0.452306,0.37871219,-0.30014524,0.481448,0.35424688,-0.2581112,0.468244,0.34197087,-0.24755594,0.461641,0.32985188,-0.23689752,0.45564,0.39878622,-0.29194029,0.476083,0.37747425,-0.24125633,0.459345,0.36282727,-0.23062476,0.449582,0.36764965,-0.23108379,0.460205,0.41682368,-0.29135126,0.472767,0.39797096,-0.24222086,0.456595,0.38721703,-0.2358906,0.448321,0.39360116,-0.24012758,0.459968,0.44145227,-0.29936723,0.47084,0.43027562,-0.26291486,0.455706,0.42515199,-0.2487482,0.448753,0.42969452,-0.26012332,0.457348
0.42842988,-0.38111034,0.4943,0.41143735,-0.33095169,0.483634,0.40957488,-0.37684935,0.496357,0.3777244,-0.35739134,0.487645,0.34650181,-0.33554033,0.465894,0.32948567,-0.31577519,0.451767,0.37776246,-0.2995112,0.480202,0.35278235,-0.25755864,0.466524,0.34035976,-0.24759114,0.459685,0.32894394,-0.23741168,0.453468,0.39781277,-0.29149123,0.474889,0.37511479,-0.24336239,0.457623,0.36103141,-0.22918087,0.447551,0.3656825,-0.22955027,0.457986,0.41591385,-0.29100074,0.471673,0.39581856,-0.24373535,0.455124,0.38563458,-0.23531782,0.446657,0.39193016,-0.2393622,0.458139,0.4403886,-0.29943454,0.469962,0.42769764,-0.27062472,0.45447,0.41966847,-0.25218284,0.447353,0.42894892,-0.26071542,0.455783
0.41873391,-0.37292122,0.483117,0.40746486,-0.32813738,0.479065,0.40156455,-0.37001136,0.486733,0.37706997,-0.3525893,0.481725,0.35236856,-0.33075971,0.468397,0.34189579,-0.31299275,0.459392,0.37902149,-0.29944128,0.481508,0.35740287,-0.26115095,0.473315,0.34700031,-0.25141202,0.469219,0.3368381,-0.24225105,0.465495,0.39838286,-0.29225977,0.475744,0.38060455,-0.24804013,0.464739,0.3700259,-0.23305567,0.45832,0.37558428,-0.22866466,0.470849,0.41560132,-0.29105545,0.471437,0.40139815,-0.24486782,0.460817,0.3931404,-0.23993017,0.455384,0.40137895,-0.24510779,0.469095,0.43778006,-0.29785301,0.467228,0.43230346,-0.26367445,0.457292,0.42867758,-0.25164017,0.452727,0.4348038,-0.26206845,0.463001
0.4250309,-0.37897387,0.490386,0.40858398,-0.32942231,0.480482,0.40515194,-0.37385662,0.491166,0.37651891,-0.35207402,0.481021,0.34518874,-0.32402019,0.458853,0.33062137,-0.30267144,0.444243,0.37433439,-0.29619534,0.475801,0.34864625,-0.25492421,0.462252,0.33639641,-0.24389233,0.455478,0.32498908,-0.23405592,0.449319,0.39540527,-0.29042483,0.472362,0.37316254,-0.2427625,0.455436,0.35989195,-0.22596417,0.445563,0.36453625,-0.22055576,0.456403,0.4147642,-0.29074283,0.470606,0.39588272,-0.24154673,0.454645,0.38542422,-0.23525268,0.446479,0.39237075,-0.23958229,0.45848,0.44073783,-0.30005933,0.470435,0.43074749,-0.26239714,0.455275,0.42500424,-0.24911545,0.44831,0.43010868,-0.25813918,0.457078
0.42450844,-0.37917652,0.490591,0.40822987,-0.32918976,0.480201,0.40439275,-0.37359833,0.491057,0.37557808,-0.3512225,0.480399,0.34394712,-0.32331548,0.458464,0.32935423,-0.30224756,0.444024,0.37361654,-0.29447657,0.474825,0.34692184,-0.25354799,0.460688,0.334404,-0.24198579,0.453619,0.32366421,-0.23373937,0.447193,0.39517435,-0.28988326,0.471682,0.37264812,-0.24188198,0.454223,0.35907546,-0.22298939,0.444038,0.36369925,-0.21903623,0.454713,0.41479478,-0.29063432,0.470224,0.39401821,-0.24298332,0.45389,0.3843972,-0.23471411,0.445533,0.39133307,-0.23853777,0.457401,0.44106021,-0.30052965,0.470487,0.43004618,-0.26239201,0.454838,0.42214261,-0.25230418,0.447648,0.42913379,-0.25711094,0.456241
0.42404,-0.37915435,0.490883,0.40513023,-0.32593467,0.476442,0.40297085,-0.3723141,0.490139,0.37179562,-0.34283779,0.477012,0.33994852,-0.31496281,0.456135,0.32657501,-0.29864772,0.441122,0.3729043,-0.28167252,0.467133,0.34282308,-0.23902056,0.449255,0.32864417,-0.22503754,0.440316,0.32242768,-0.23095549,0.442914,0.39347831,-0.28192928,0.464603,0.3692332,-0.23410047,0.443105,0.3537283,-0.2169726,0.430565,0.3572425,-0.21392302,0.439709,0.41375829,-0.28544684,0.46409,0.38989453,-0.23438069,0.444238,0.37540327,-0.22633062,0.434081,0.38062223,-0.23063642,0.444408,0.43765822,-0.29793906,0.466201,0.42042818,-0.26398036,0.447102,0.40955412,-0.25521306,0.438327,0.41606229,-0.26250956,0.445515
0.41651531,-0.37308678,0.483109,0.40043423,-0.32141693,0.470133,0.39900131,-0.36847947,0.486015,0.37740642,-0.33888014,0.477886,0.35039982,-0.30929659,0.458589,0.33919106,-0.28872302,0.445278,0.38335619,-0.27984374,0.466493,0.35934572,-0.23645001,0.452604,0.34589381,-0.22305318,0.44566,0.33672933,-0.21569268,0.443401,0.40121948,-0.27885338,0.459495,0.38203792,-0.22772945,0.440401,0.36637382,-0.21099566,0.429263,0.36891456,-0.21444131,0.438622,0.41685107,-0.283414,0.455143,0.39845917,-0.2345718,0.43838,0.38564374,-0.22564678,0.429804,0.39017616,-0.22768284,0.440591,0.43663797,-0.29820077,0.452553,0.41626501,-0.26221963,0.436416,0.40301149,-0.25132427,0.429002,0.40715121,-0.25892344,0.436654
0.40394829,-0.36508007,0.476348,0.39777492,-0.31264023,0.4624,0.38718266,-0.35411536,0.478408,0.36417103,-0.320402,0.468952,0.34135427,-0.28935625,0.450245,0.33148976,-0.26637752,0.437535,0.38599995,-0.26816321,0.45708,0.36708569,-0.22583072,0.441637,0.35622004,-0.20835452,0.433915,0.34810042,-0.19931057,0.43035,0.40285021,-0.27227239,0.450965,0.38718331,-0.22457053,0.430717,0.37158272,-0.2086792,0.418905,0.37358251,-0.21247187,0.427995,0.41672404,-0.28083695,0.447445,0.40191435,-0.23174282,0.429913,0.38893478,-0.22302051,0.420944,0.39404751,-0.22467546,0.431545,0.43155441,-0.29696535,0.445997,0.41142601,-0.26013626,0.428718,0.3995805,-0.25053702,0.420778,0.40161258,-0.25519587,0.428146
0.38334008,-0.35256352,0.466799,0.3926628,-0.30470809,0.451503,0.37473365,-0.33912558,0.470665,0.36093864,-0.30845221,0.463354,0.34073469,-0.27664016,0.44652,0.33234214,-0.25530464,0.433919,0.39459641,-0.26411711,0.447791,0.38001187,-0.22451381,0.433217,0.37034977,-0.20794486,0.42593,0.36147118,-0.19251254,0.419305,0.40562654,-0.27094753,0.438961,0.4005963,-0.22535658,0.41815,0.38508717,-0.20754277,0.40601,0.38601347,-0.2070127,0.414111,0.41376484,-0.28132679,0.433352,0.40485637,-0.23342063,0.416125,0.39010323,-0.22534932,0.407312,0.39319309,-0.22758287,0.417094,0.42151312,-0.30196407,0.429747,0.40481854,-0.26526721,0.412661,0.39083797,-0.25574417,0.404811,0.38927155,-0.25946767,0.411528
0.3803262,-0.3500125,0.466126,0.39238893,-0.3028649,0.447907,0.37187978,-0.33438969,0.468283,0.35668505,-0.29554989,0.458104,0.33873697,-0.26511109,0.440915,0.33155131,-0.24408897,0.427805,0.39072602,-0.25895335,0.440253,0.38076612,-0.21676398,0.421397,0.37082434,-0.20035868,0.41197,0.36174775,-0.18513843,0.403399,0.40219033,-0.26802136,0.43297,0.3903663,-0.22613538,0.408982,0.38234054,-0.2008443,0.39499,0.3786048,-0.20153228,0.402106,0.41081062,-0.28032462,0.428953,0.40593166,-0.23482445,0.407801,0.39014994,-0.22521737,0.39698,0.39336497,-0.22658107,0.405439,0.41925093,-0.30337896,0.427731,0.40174157,-0.26228055,0.407711,0.38761361,-0.25247802,0.398512,0.38999525,-0.26138457,0.404302
0.37054377,-0.3405332,0.460953,0.38501235,-0.29633858,0.439889,0.36512147,-0.32016429,0.463871,0.35432172,-0.28318804,0.454266,0.33865337,-0.25369952,0.437632,0.33225994,-0.23399649,0.42423,0.39285264,-0.2518315,0.431598,0.38316953,-0.21083876,0.412528,0.37342461,-0.19407614,0.402993,0.36454282,-0.17852999,0.394325,0.39644157,-0.2630955,0.422618,0.38414034,-0.22124523,0.396498,0.37589599,-0.19615442,0.381261,0.37065407,-0.1947191,0.386707,0.40114707,-0.27631212,0.417513,0.40146168,-0.23518137,0.395318,0.38513802,-0.22194183,0.383962,0.38320084,-0.2189227,0.390915,0.40182986,-0.3021296,0.415569,0.38173771,-0.26145802,0.394263,0.36504383,-0.25398,0.384473,0.35991177,-0.26535241,0.388984
0.35926012,-0.32805154,0.453167,0.37560182,-0.28644266,0.429575,0.35795598,-0.30650492,0.456465,0.35291808,-0.27098058,0.447078,0.34153058,-0.24112915,0.431562,0.33755915,-0.22190788,0.41871,0.38971498,-0.24532447,0.420329,0.37968628,-0.20573587,0.400116,0.37386159,-0.18607555,0.390009,0.36862706,-0.16797014,0.380821,0.39075184,-0.25834545,0.410232,0.38170889,-0.21496093,0.382209,0.3753775,-0.18975744,0.365862,0.36984784,-0.18825441,0.369711,0.38991274,-0.2729451,0.404481,0.38885874,-0.22847298,0.380838,0.36825833,-0.21739432,0.368742,0.35907592,-0.22413518,0.374077,0.3858099,-0.29690594,0.402266,0.35529598,-0.26335418,0.379744,0.33314102,-0.24762774,0.369396,0.3212634,-0.24753582,0.372656
0.34618859,-0.30991369,0.447585,0.36661595,-0.27879203,0.421087,0.35053891,-0.29133661,0.449001,0.34518613,-0.25359335,0.436638,0.33469261,-0.22480112,0.419279,0.33120049,-0.20658098,0.405082,0.38351524,-0.24055913,0.40768,0.37635321,-0.20344803,0.384027,0.37191052,-0.18490139,0.372201,0.3679842,-0.1678473,0.36145,0.38047108,-0.25695675,0.399362,0.37403909,-0.21825315,0.368229,0.36921295,-0.19557067,0.350068,0.36328779,-0.19246381,0.35277,0.3760676,-0.273515,0.395394,0.37846163,-0.23413738,0.368266,0.35662686,-0.22092776,0.354386,0.34511247,-0.22432122,0.358336,0.36737523,-0.29824062,0.395778,0.33861929,-0.26292593,0.370351,0.3178053,-0.24412861,0.358668,0.30871019,-0.23961007,0.360858
0.36696003,-0.32126248,0.472188,0.38646451,-0.29127119,0.442833,0.36103818,-0.28971897,0.461942,0.35066033,-0.25075977,0.436742,0.33917892,-0.21878808,0.41368,0.33635672,-0.20114153,0.398511,0.38383622,-0.24397578,0.412369,0.37842112,-0.21399001,0.378171,0.38384781,-0.20332205,0.368907,0.38406649,-0.19801383,0.360484,0.39803969,-0.26957602,0.418766,0.34057613,-0.26976573,0.384644,0.30802629,-0.26939738,0.364739,0.29210173,-0.27476044,0.366132,0.40658474,-0.29341291,0.427228,0.39766589,-0.26990251,0.391179,0.38245403,-0.26498586,0.372735,0.3736472,-0.27787088,0.373434,0.41485315,-0.32515611,0.442485,0.36319617,-0.30737489,0.409966,0.33964056,-0.29915368,0.395025,0.32562135,-0.29091878,0.394813
0.37389144,-0.26536457,0.440158,0.38672953,-0.24098912,0.409828,0.3577637,-0.24063062,0.423369,0.35887133,-0.24138771,0.400676,0.35451276,-0.23656481,0.375241,0.36309913,-0.23479491,0.36606,0.37155347,-0.19491235,0.370156,0.34034625,-0.19860757,0.332772,0.33647,-0.21539255,0.337323,0.3324098,-0.23003933,0.353893,0.39654139,-0.22111673,0.384961,0.38028957,-0.21835453,0.349151,0.34388579,-0.22371572,0.328262,0.32191395,-0.22453421,0.323682,0.41599969,-0.24566524,0.400454,0.40452906,-0.22691804,0.361941,0.36861707,-0.23083065,0.342236,0.34588536,-0.23022105,0.336172,0.43619241,-0.27898379,0.424002,0.38399025,-0.27244412,0.390675,0.36021319,-0.26926012,0.375362,0.34023106,-0.26054156,0.370304
0.37239315,-0.26092706,0.445232,0.37077188,-0.24448045,0.410129,0.36387483,-0.23749144,0.431747,0.33762376,-0.2280897,0.403016,0.32000403,-0.2190377,0.376829,0.31771317,-0.21193339,0.361008,0.36724412,-0.20795427,0.372071,0.3535428,-0.2050019,0.334909,0.32046255,-0.19637531,0.318164,0.30183122,-0.19389781,0.317906,0.37368629,-0.2369405,0.381349,0.36482527,-0.23005214,0.340969,0.31910881,-0.21665971,0.317414,0.29754668,-0.20744663,0.312738,0.3785723,-0.26212242,0.392809,0.30834211,-0.24178492,0.351631,0.27081226,-0.22787032,0.330564,0.25037494,-0.21507417,0.324942,0.38333828,-0.29325509,0.412599,0.3239987,-0.26059364,0.376484,0.29687649,-0.24158331,0.359891,0.28150782,-0.2298232,0.355002
0.34909829,-0.23357379,0.422439,0.35558824,-0.23553714,0.392352,0.34932262,-0.21313235,0.409266,0.34278101,-0.21009783,0.384213,0.33422041,-0.21089468,0.362568,0.33335551,-0.21521968,0.34932,0.36325966,-0.21687245,0.357597,0.34951787,-0.22232731,0.323463,0.31679715,-0.20571273,0.306396,0.29992686,-0.19597497,0.305248,0.35912131,-0.24260193,0.367684,0.343544,-0.24472678,0.331046,0.30040073,-0.22215092,0.309674,0.28627257,-0.20980102,0.30869,0.35516558,-0.2630262,0.379265,0.32610372,-0.25261339,0.341415,0.28573846,-0.23135799,0.322049,0.27452012,-0.22148586,0.320356,0.34952196,-0.28519496,0.398255,0.30125207,-0.2495612,0.364749,0.27975897,-0.22441019,0.349355,0.27081447,-0.2101046,0.347449
0.34204023,-0.22487404,0.411466,0.34733643,-0.2319329,0.383612,0.34967065,-0.20376907,0.398911,0.32452143,-0.20166416,0.372547,0.28093466,-0.19866314,0.347421,0.2609016,-0.20517831,0.337771,0.35611958,-0.22184791,0.35096,0.34530669,-0.23345712,0.319655,0.31956935,-0.21874617,0.304002,0.30828088,-0.20510276,0.305399,0.34739196,-0.24499694,0.360774,0.32278803,-0.24883516,0.325936,0.28453881,-0.21876776,0.305613,0.27680411,-0.20491839,0.306237,0.33995013,-0.26272896,0.371888,0.29212319,-0.24551724,0.335744,0.26122224,-0.21588579,0.317252,0.25787802,-0.20166912,0.317297,0.3309278,-0.28069498,0.389921,0.28679682,-0.24010363,0.357826,0.26611446,-0.21620432,0.34308,0.25779348,-0.20318509,0.34251
0.34266522,-0.2166493,0.406782,0.34372341,-0.23292929,0.379265,0.34851836,-0.20170343,0.393197,0.33863095,-0.21268714,0.3762,0.30113795,-0.21370939,0.349893,0.27227875,-0.21452216,0.336075,0.35144394,-0.22992284,0.345447,0.32307417,-0.23104349,0.311173,0.29386907,-0.20483977,0.294037,0.28630824,-0.18842108,0.29342,0.34067029,-0.25049678,0.356704,0.31806699,-0.24908001,0.322244,0.28060511,-0.21807178,0.302143,0.27269121,-0.20413625,0.302325,0.33197967,-0.26557343,0.36897,0.28744595,-0.25019259,0.332754,0.25972252,-0.21507712,0.314224,0.2612039,-0.20467554,0.313652,0.32226683,-0.27950168,0.388269,0.28457388,-0.2385416,0.356257,0.26634169,-0.21333622,0.341549,0.26373565,-0.19653159,0.340546
0.33410692,-0.20897713,0.39362,0.33426116,-0.22821531,0.370078,0.34404518,-0.19719979,0.38053,0.32886812,-0.19637144,0.360824,0.32843314,-0.1906387,0.334253,0.33444844,-0.1955185,0.324048,0.33698021,-0.23305892,0.339207,0.31083192,-0.23665652,0.30717,0.28646969,-0.20986826,0.291152,0.28230689,-0.19082757,0.292499,0.3238372,-0.24904867,0.350776,0.30129534,-0.2555315,0.319722,0.27189666,-0.22231928,0.301607,0.27104655,-0.20766818,0.304016,0.31367931,-0.25979731,0.362866,0.27560028,-0.2487836,0.329764,0.25537469,-0.21413781,0.312829,0.25514754,-0.2011631,0.314621,0.30334277,-0.26777619,0.381219,0.27314156,-0.22483045,0.351806,0.26216519,-0.19929257,0.338293,0.26334073,-0.18677882,0.339115
0.34343385,-0.21368254,0.403323,0.33783318,-0.23427301,0.376722,0.35472869,-0.20373747,0.391143,0.33185506,-0.19929257,0.364311,0.33495398,-0.19668417,0.341118,0.3400779,-0.20195241,0.330176,0.33775868,-0.24093701,0.345292,0.31250757,-0.2410666,0.311723,0.28845546,-0.21289656,0.294939,0.2843237,-0.19406458,0.295637,0.32156369,-0.25367647,0.354914,0.29983851,-0.25792158,0.321124,0.27049828,-0.22325163,0.301413,0.26858914,-0.20760167,0.302883,0.30945627,-0.26181119,0.365732,0.2742334,-0.24958308,0.330633,0.25202943,-0.21527044,0.312676,0.25359957,-0.20078752,0.313649,0.29767465,-0.26691682,0.383191,0.2718662,-0.22402575,0.351936,0.26094497,-0.19795817,0.337576,0.26193445,-0.18501195,0.337714
0.34438929,-0.21333968,0.403336,0.33716594,-0.23463707,0.377196,0.35623083,-0.20476966,0.391853,0.33205239,-0.19959356,0.364381,0.3363425,-0.19833303,0.342663,0.34512292,-0.20616661,0.335437,0.33887069,-0.24195247,0.346951,0.31670211,-0.25326018,0.314572,0.29743653,-0.23602772,0.298382,0.29271429,-0.21960759,0.299899,0.32183167,-0.2538048,0.355764,0.29160153,-0.25693469,0.32235,0.26844337,-0.22293773,0.302859,0.26752518,-0.20839077,0.304897,0.30913885,-0.26116536,0.365866,0.27455488,-0.25035653,0.331595,0.25296701,-0.21634615,0.31406,0.25483623,-0.20222183,0.315793,0.29683825,-0.26535685,0.382413,0.27117377,-0.22275636,0.35158,0.26069444,-0.19689631,0.337414,0.26225552,-0.1844112,0.33806
0.34595959,-0.21398669,0.404225,0.33466617,-0.23571822,0.377177,0.35663439,-0.20570447,0.39151,0.32990221,-0.20077838,0.362755,0.3361334,-0.20153143,0.343046,0.34376407,-0.21017435,0.335756,0.33568756,-0.24195073,0.34478,0.31312817,-0.25883217,0.315451,0.29589575,-0.24226524,0.300786,0.29526033,-0.22455415,0.303984,0.31990746,-0.25423078,0.355001,0.2880126,-0.25723256,0.320858,0.26320679,-0.22020947,0.300942,0.26400278,-0.20627167,0.301896,0.30828432,-0.26203038,0.366362,0.27139946,-0.25031548,0.330752,0.25105418,-0.21558904,0.312533,0.2519117,-0.20058805,0.312894,0.29734716,-0.26678819,0.38453,0.27163502,-0.22319326,0.35291,0.2613581,-0.19722019,0.338383,0.26247708,-0.18482202,0.338066
0.33675439,-0.2079437,0.392566,0.32768524,-0.23134141,0.369449,0.34898207,-0.20159771,0.38042,0.3223075,-0.19555944,0.352923,0.33339411,-0.20055426,0.34008,0.34395727,-0.21140034,0.336146,0.33093703,-0.23939219,0.340071,0.31031751,-0.2532988,0.310661,0.29291789,-0.23694714,0.295956,0.29056174,-0.22161968,0.29914,0.31560116,-0.25148376,0.350496,0.28677493,-0.25684659,0.319758,0.2653842,-0.22207092,0.301828,0.26641725,-0.20831722,0.30495,0.30401299,-0.2588753,0.361598,0.27002369,-0.24998119,0.329135,0.25100447,-0.21633744,0.312526,0.25360699,-0.20254827,0.315197,0.29267357,-0.2627456,0.37873,0.26915322,-0.22094657,0.349739,0.26010609,-0.19610782,0.336418,0.2626602,-0.18815065,0.337886
0.34628114,-0.21355603,0.402969,0.33422171,-0.23632441,0.376945,0.3593024,-0.20790803,0.391304,0.33239317,-0.20184779,0.363682,0.33538892,-0.20217272,0.342066,0.34333275,-0.21147979,0.335462,0.33706696,-0.24435448,0.346526,0.31351471,-0.25640113,0.314061,0.29461917,-0.23873378,0.297828,0.2906226,-0.22197736,0.299263,0.32001819,-0.25540256,0.355608,0.28837122,-0.2609627,0.322297,0.26614529,-0.22461106,0.302866,0.26624985,-0.20889242,0.304876,0.30746261,-0.26208127,0.365919,0.27205936,-0.25239851,0.331677,0.25219241,-0.21817326,0.314159,0.25322387,-0.2035363,0.315839,0.29560554,-0.2654418,0.382685,0.27077252,-0.2221237,0.351889,0.26129662,-0.19688933,0.337739,0.26331517,-0.18865604,0.338349
0.33800383,-0.2083069,0.392614,0.3281342,-0.23233945,0.369938,0.35040974,-0.20310287,0.381149,0.32462605,-0.19753986,0.354373,0.33257468,-0.20144355,0.338923,0.34382252,-0.21216263,0.335696,0.33217082,-0.24205892,0.341713,0.30968626,-0.25123641,0.311412,0.29086977,-0.22956247,0.296262,0.29039198,-0.21618302,0.299179,0.31628673,-0.25273311,0.351346,0.28844162,-0.2613415,0.320981,0.26811562,-0.22746911,0.303267,0.26813795,-0.21087347,0.306918,0.30406056,-0.25939752,0.361747,0.27075762,-0.2515228,0.329872,0.25185454,-0.21823635,0.313564,0.25460453,-0.2041314,0.316879,0.29212188,-0.26238982,0.377988,0.26903906,-0.22059489,0.349417,0.26048581,-0.19621238,0.33629,0.26388784,-0.18969638,0.338232
0.33863876,-0.20770264,0.391043,0.32939837,-0.23358799,0.370948,0.35067879,-0.20412602,0.380136,0.32833124,-0.20072633,0.354464,0.33908295,-0.20673318,0.344309,0.35190005,-0.22011388,0.343545,0.33764276,-0.24768731,0.344948,0.31642552,-0.25829352,0.316367,0.30184485,-0.23889809,0.302076,0.29779526,-0.22499969,0.3062,0.32095345,-0.25824647,0.354472,0.29936578,-0.27070616,0.326436,0.27940599,-0.23735501,0.310082,0.27734767,-0.22083038,0.315063,0.3071734,-0.26246501,0.364502,0.28108323,-0.2609978,0.334859,0.2635285,-0.22858843,0.319692,0.26311601,-0.20992714,0.324445,0.29496153,-0.26443776,0.379834,0.2747595,-0.22480529,0.35313,0.26780977,-0.20098501,0.340861,0.26973924,-0.1949332,0.343915
0.35047699,-0.21428112,0.402798,0.33625078,-0.239156,0.377734,0.3616405,-0.21078009,0.391434,0.33850466,-0.2060519,0.364272,0.34335725,-0.20869322,0.344535,0.34787607,-0.21668216,0.337117,0.34169627,-0.25054907,0.348267,0.31776556,-0.25562725,0.316391,0.29762584,-0.23172138,0.300452,0.29563169,-0.21776779,0.302439,0.32422351,-0.26065485,0.357185,0.29834192,-0.26927151,0.324706,0.27605975,-0.2340467,0.30576,0.27406793,-0.21751774,0.308372,0.31111687,-0.26557896,0.367257,0.2806023,-0.26001884,0.333603,0.26135325,-0.22622384,0.316385,0.25984783,-0.20811843,0.318655,0.29859605,-0.26744372,0.383567,0.27589552,-0.22520933,0.353447,0.26781343,-0.20061088,0.339608,0.26883562,-0.19267965,0.340725
0.35272641,-0.21581094,0.403777,0.3408122,-0.24422179,0.378542,0.36386456,-0.21344149,0.392133,0.34146499,-0.20786691,0.364676,0.34660687,-0.20910327,0.344778,0.35186325,-0.21891265,0.337527,0.34459039,-0.25293691,0.348607,0.32000686,-0.25641523,0.31676,0.30117798,-0.23510871,0.300836,0.29655764,-0.21761475,0.30266,0.32850435,-0.26407223,0.357853,0.29979474,-0.26978689,0.325229,0.27703299,-0.23379897,0.306198,0.27695177,-0.21850347,0.308599,0.31788612,-0.27258391,0.368214,0.28239061,-0.26189713,0.334325,0.262748,-0.22788856,0.316987,0.26310369,-0.21197923,0.318998,0.3060304,-0.27296042,0.384889,0.28089139,-0.22889171,0.354602,0.27193135,-0.20425978,0.340687,0.27327763,-0.19635187,0.341613
0.35508942,-0.21816447,0.404319,0.34557134,-0.24896031,0.378618,0.36841438,-0.21811498,0.392697,0.34625276,-0.21042334,0.365174,0.34991368,-0.21070728,0.344646,0.3558445,-0.21902826,0.33767,0.34920321,-0.25696049,0.348443,0.32405884,-0.25870083,0.316144,0.30307371,-0.2354265,0.299994,0.29953662,-0.21803211,0.301581,0.33199148,-0.26761414,0.357547,0.3032325,-0.27099186,0.324517,0.2784647,-0.23346748,0.305249,0.27733181,-0.21827354,0.307437,0.31921612,-0.27396042,0.367841,0.28630442,-0.26551395,0.333613,0.26604,-0.23109148,0.3161,0.26607843,-0.21513808,0.317896,0.30705092,-0.27688328,0.384526,0.28379843,-0.2321952,0.353945,0.27447514,-0.20736797,0.339895,0.27640838,-0.20020393,0.340651
0.35930513,-0.22149225,0.407047,0.34508794,-0.24848456,0.37657,0.3735787,-0.2220306,0.395543,0.35146783,-0.21275465,0.367395,0.34776552,-0.20903551,0.341314,0.34829667,-0.21403809,0.329244,0.34748326,-0.25552722,0.343797,0.32006884,-0.26513715,0.308385,0.30192141,-0.25340624,0.290679,0.29769584,-0.23810764,0.289937,0.32936641,-0.26520095,0.351583,0.29783906,-0.26518823,0.314532,0.2718057,-0.22659138,0.292919,0.26718963,-0.20925078,0.292609,0.31643925,-0.2712068,0.361311,0.28155995,-0.26056788,0.323693,0.25954085,-0.22538521,0.304447,0.25537574,-0.20688718,0.303681,0.30490122,-0.27455376,0.378238,0.279265,-0.22799986,0.344768,0.26705262,-0.20119215,0.32939,0.26600348,-0.19063949,0.328151
0.36652403,-0.22678715,0.410666,0.35019803,-0.25079692,0.378333,0.37731942,-0.22395058,0.397895,0.35380618,-0.21345562,0.368416,0.35202597,-0.2099207,0.342611,0.35386289,-0.2153436,0.3302,0.35023336,-0.2540503,0.342814,0.31658438,-0.25318641,0.306105,0.29632622,-0.23401524,0.28775,0.28865348,-0.21099296,0.285179,0.33355119,-0.26514553,0.351823,0.30049898,-0.26492737,0.313366,0.27311499,-0.22656911,0.290932,0.26699235,-0.20816445,0.288795,0.32182103,-0.27251492,0.362761,0.28860685,-0.25929905,0.323458,0.26198858,-0.22461244,0.30335,0.2559318,-0.20602093,0.300497,0.31170621,-0.2776966,0.38143,0.28394909,-0.22991569,0.346719,0.27114457,-0.20289382,0.33077,0.27001407,-0.19079223,0.327969
0.36997591,-0.2292172,0.413637,0.35285674,-0.2516663,0.380044,0.38085971,-0.22599651,0.400862,0.35688421,-0.21461271,0.371301,0.35722382,-0.20916608,0.34566,0.35954854,-0.21350674,0.332903,0.35493701,-0.25192313,0.343794,0.32241272,-0.24925761,0.306277,0.30015627,-0.22542686,0.287518,0.28897379,-0.20554983,0.284097,0.33834933,-0.26405595,0.352501,0.30488341,-0.25834814,0.31309,0.27636642,-0.220621,0.2901,0.2671614,-0.20501017,0.287092,0.32658676,-0.27248918,0.363328,0.2906777,-0.25777044,0.323222,0.26514259,-0.22145072,0.302702,0.25703273,-0.20487512,0.298938,0.31623828,-0.27925038,0.382105,0.28511309,-0.22992618,0.346739,0.27167873,-0.20276164,0.33049,0.26847205,-0.19002946,0.326992
0.37085508,-0.22971113,0.415161,0.35560527,-0.25184355,0.380842,0.38294445,-0.22718768,0.402601,0.35882496,-0.21518338,0.373196,0.35898973,-0.20708584,0.347647,0.36169176,-0.21289766,0.334822,0.35746592,-0.24959823,0.344458,0.32403226,-0.24830504,0.306587,0.30149678,-0.224295,0.287652,0.29315923,-0.20383219,0.283878,0.33958985,-0.26348616,0.352704,0.3060082,-0.25718164,0.312739,0.27688589,-0.21925688,0.289425,0.26970133,-0.20031365,0.286019,0.32757267,-0.27219537,0.36323,0.29389031,-0.25547854,0.322743,0.2670259,-0.21922704,0.302028,0.2584334,-0.20297694,0.297878,0.3168794,-0.27947084,0.381797,0.28683303,-0.22955064,0.346096,0.27245249,-0.20227916,0.329693,0.26801531,-0.18917901,0.325892
0.37571617,-0.23283702,0.419133,0.35929924,-0.249894,0.38317,0.38663068,-0.22850513,0.407326,0.36381849,-0.20732926,0.378569,0.36491221,-0.19901955,0.353505,0.36756932,-0.20090278,0.339913,0.36104203,-0.24033108,0.346831,0.33040187,-0.24377,0.30852,0.30613682,-0.22290628,0.289365,0.29543759,-0.20331252,0.284932,0.34344732,-0.25355033,0.353684,0.311048,-0.24419197,0.312502,0.27910885,-0.20570872,0.288479,0.26915047,-0.18780866,0.284214,0.33068415,-0.26339548,0.363241,0.29726876,-0.24274282,0.322032,0.2680642,-0.20751858,0.300949,0.25788385,-0.19224509,0.296004,0.31889654,-0.27271698,0.380997,0.28564514,-0.22588331,0.34464,0.27039123,-0.20002509,0.327935,0.26505216,-0.18621347,0.323504
0.38082972,-0.2358164,0.424328,0.36202604,-0.23769324,0.387361,0.38766401,-0.22595535,0.412244,0.35970756,-0.200006,0.383302,0.3616921,-0.18778125,0.358658,0.36454898,-0.18619711,0.343712,0.36498108,-0.22678271,0.350078,0.33875097,-0.22918088,0.31096,0.31295888,-0.20805031,0.291401,0.29815424,-0.18833815,0.285847,0.34988359,-0.24421567,0.357052,0.31933378,-0.23370788,0.315241,0.28191398,-0.19795945,0.290851,0.26927991,-0.18488725,0.285533,0.33873167,-0.2579303,0.366818,0.304514,-0.23653299,0.32503,0.27058216,-0.20671829,0.30365,0.25843744,-0.19146252,0.297567,0.32798881,-0.27242456,0.385004,0.28844737,-0.22883173,0.348207,0.2696334,-0.20105192,0.331301,0.26584432,-0.18792448,0.326006
0.38255295,-0.23690667,0.426401,0.36449271,-0.23728619,0.38963,0.3854949,-0.22038166,0.414336,0.35993513,-0.20198914,0.386086,0.36207715,-0.18766591,0.36109,0.36614134,-0.1843837,0.346311,0.36808898,-0.2173854,0.352487,0.34741056,-0.21808707,0.313585,0.31855339,-0.19929685,0.294134,0.30017608,-0.18227299,0.288807,0.35678266,-0.23894207,0.359483,0.33575685,-0.23785463,0.317793,0.29554517,-0.20826559,0.293474,0.27605007,-0.1911558,0.288351,0.34832463,-0.25646868,0.369245,0.31316887,-0.23519547,0.327777,0.27383655,-0.20806259,0.306561,0.26104598,-0.19380681,0.300752,0.33994261,-0.27613326,0.38739,0.29117813,-0.23307984,0.35067,0.27393883,-0.20542521,0.333798,0.2679625,-0.19144652,0.328661
0.37177696,-0.22653323,0.421716,0.36677798,-0.2369621,0.391271,0.38143065,-0.21220822,0.411621,0.37633016,-0.2111313,0.388994,0.38417671,-0.21053589,0.371384,0.38893592,-0.21392522,0.358694,0.3821964,-0.22793813,0.360377,0.36911329,-0.21659427,0.325602,0.33420581,-0.19523677,0.308215,0.31933613,-0.18756066,0.308235,0.36751699,-0.24668829,0.366309,0.34715355,-0.23953529,0.329307,0.31003597,-0.20970149,0.307723,0.29734304,-0.19666528,0.307999,0.3542971,-0.26044859,0.374507,0.32213555,-0.24030621,0.338115,0.28576411,-0.21411891,0.319496,0.27680212,-0.20531155,0.319728,0.34127977,-0.27614192,0.389662,0.30354573,-0.23608232,0.356545,0.27823106,-0.21121236,0.341329,0.26775332,-0.20452974,0.340668
0.36462307,-0.22511404,0.422624,0.36903759,-0.23874864,0.394107,0.37835992,-0.21291351,0.415812,0.38433907,-0.21517701,0.398336,0.40148894,-0.20801816,0.38535,0.40343152,-0.21698684,0.373729,0.38901054,-0.22481154,0.368661,0.37713125,-0.20242812,0.336863,0.34249977,-0.18606832,0.320964,0.32753942,-0.18516803,0.323241,0.37642341,-0.2454393,0.370725,0.36189042,-0.22535907,0.335649,0.32344348,-0.19870784,0.315188,0.30857592,-0.1916388,0.317362,0.36462211,-0.26211429,0.375528,0.34402634,-0.23745901,0.341249,0.30830676,-0.21578581,0.323711,0.28624278,-0.21109316,0.326083,0.34802346,-0.28060776,0.386406,0.31630313,-0.24303306,0.355513,0.28673747,-0.22604622,0.341318,0.27452712,-0.22396306,0.342434
0.31883627,-0.2288235,0.407708,0.34618449,-0.23250671,0.38784,0.33263061,-0.21373558,0.406251,0.34883705,-0.21209902,0.396595,0.3729389,-0.19833016,0.39028,0.38903653,-0.19439394,0.386033,0.37599263,-0.21481912,0.374459,0.37088908,-0.19065165,0.35241,0.35167221,-0.17588666,0.341385,0.33880512,-0.17594977,0.34886,0.36623622,-0.23470635,0.37155,0.36880716,-0.21177372,0.345013,0.33622128,-0.1920658,0.329533,0.32280642,-0.19250554,0.336335,0.35543336,-0.25137154,0.371315,0.35199268,-0.22609447,0.346856,0.32117425,-0.21281062,0.334342,0.30303846,-0.2190107,0.342212,0.33761553,-0.27159137,0.374764,0.32782695,-0.24266657,0.351686,0.30594441,-0.22089943,0.341083,0.30033294,-0.22077161,0.346334
0.32907355,-0.23991611,0.418553,0.35318813,-0.23594598,0.395227,0.34083108,-0.22283401,0.416904,0.35036604,-0.22084104,0.408991,0.36361152,-0.19850834,0.395908,0.37556212,-0.18674701,0.388093,0.37827785,-0.20541549,0.379598,0.37963735,-0.17673674,0.354731,0.34912521,-0.17014664,0.342298,0.33731344,-0.17927251,0.348072,0.3716358,-0.22704846,0.376102,0.37099352,-0.20320894,0.34645,0.33343324,-0.19018052,0.329152,0.31891026,-0.19157381,0.334243,0.36376012,-0.24613111,0.37576,0.34388371,-0.22178187,0.348,0.30659216,-0.21022821,0.333798,0.29478741,-0.21684931,0.339722,0.35037364,-0.27030643,0.379732,0.31587134,-0.24118369,0.354362,0.30966789,-0.25152847,0.366951,0.31337256,-0.26619203,0.380761
0.3479246,-0.25660696,0.442485,0.35777734,-0.23210122,0.407489,0.35456635,-0.23576103,0.438065,0.34738922,-0.21978584,0.420306,0.35256056,-0.19285007,0.406642,0.35810741,-0.1742158,0.394564,0.36134497,-0.18531785,0.38147,0.3000554,-0.16955898,0.344459,0.26639052,-0.16876605,0.325953,0.250178,-0.17547684,0.323673,0.36437352,-0.20774096,0.378796,0.31109765,-0.18399456,0.33925,0.26470097,-0.17454736,0.316181,0.24576147,-0.17562415,0.314128,0.36611515,-0.22969135,0.3804,0.33470376,-0.20818352,0.341843,0.29240297,-0.19527123,0.322116,0.28070343,-0.19293196,0.319904,0.36662256,-0.26119952,0.388803,0.32345836,-0.23223766,0.355546,0.3133949,-0.24398645,0.362692,0.3206205,-0.25966657,0.377168
0.34333849,-0.27014865,0.438138,0.35022786,-0.23756671,0.409177,0.33779062,-0.26044189,0.438787,0.33929224,-0.23712534,0.429079,0.34174861,-0.20701644,0.422515,0.34524731,-0.18518284,0.414511,0.34838801,-0.18793229,0.393335,0.29460573,-0.17879244,0.359708,0.26731953,-0.18461443,0.342895,0.25677317,-0.19832652,0.343297,0.35575964,-0.2031523,0.385432,0.33660832,-0.16631831,0.349625,0.29433703,-0.16592852,0.328737,0.28366984,-0.17556073,0.329379,0.3612326,-0.22031189,0.382073,0.33419936,-0.19394009,0.348092,0.29586447,-0.19165988,0.330707,0.28922806,-0.19877458,0.331715,0.36650621,-0.24835078,0.383621,0.33804576,-0.21156523,0.356371,0.33390178,-0.22929072,0.364837,0.34197264,-0.25068761,0.378186
0.33866811,-0.28313728,0.434447,0.35106104,-0.24679918,0.40888,0.33560226,-0.26330517,0.435341,0.33578474,-0.2502281,0.42572,0.33632875,-0.21772447,0.418344,0.3414818,-0.19772321,0.413517,0.35429381,-0.19926897,0.395319,0.31272163,-0.1798642,0.371722,0.28516938,-0.17531681,0.359924,0.27387515,-0.18651934,0.364678,0.3603753,-0.21397687,0.387918,0.33987293,-0.17650399,0.357317,0.30204497,-0.17222674,0.339467,0.29278735,-0.18398825,0.342901,0.36726486,-0.23149953,0.384604,0.33492357,-0.19771318,0.357693,0.30541251,-0.20116775,0.343924,0.30435129,-0.21909899,0.34858,0.36540358,-0.25877801,0.385568,0.35545486,-0.21889853,0.360322,0.32948406,-0.21784153,0.348722,0.32003243,-0.23153975,0.351457
0.38923557,-0.32965495,0.441755,0.36520412,-0.27723232,0.420708,0.37174696,-0.32206319,0.443817,0.34006669,-0.30155834,0.433033,0.31220167,-0.28719853,0.413971,0.30249093,-0.27848944,0.397514,0.32929963,-0.23886635,0.411298,0.29935451,-0.19359198,0.391462,0.28094431,-0.18876429,0.381544,0.2833419,-0.20809971,0.388542,0.34566005,-0.23531482,0.403452,0.31724236,-0.18522329,0.377014,0.29475855,-0.17183821,0.361592,0.29280877,-0.18827424,0.367287,0.36213016,-0.23794782,0.399279,0.3340515,-0.18526775,0.376195,0.31467498,-0.17957504,0.364384,0.31752796,-0.20085376,0.371433,0.38633186,-0.25082677,0.398407,0.34994768,-0.20598322,0.376564,0.33615224,-0.20927782,0.366528,0.34130686,-0.22629269,0.37117
0.38521413,-0.33046845,0.43636,0.36130619,-0.28503879,0.420129,0.36687773,-0.32465856,0.438212,0.33539448,-0.3108473,0.428007,0.30721549,-0.29157353,0.408739,0.29736474,-0.27563762,0.391511,0.32281438,-0.25223495,0.413218,0.288311,-0.20965414,0.396267,0.27330285,-0.20630043,0.387791,0.27079308,-0.21232068,0.396952,0.34138031,-0.24482082,0.406821,0.30802838,-0.19366714,0.38447,0.28754754,-0.17881736,0.371432,0.29185513,-0.19418098,0.379546,0.35953514,-0.24397967,0.403319,0.3290278,-0.19310977,0.382346,0.31347871,-0.18488577,0.371616,0.32341913,-0.2056683,0.380732,0.38780793,-0.25275923,0.402317,0.34911745,-0.21115225,0.383403,0.3413502,-0.21310035,0.374713,0.34983509,-0.23093781,0.381279
0.38509553,-0.33405035,0.43718,0.36098876,-0.28802016,0.421456,0.36519077,-0.33328405,0.438179,0.33418795,-0.31226167,0.426966,0.30597606,-0.29229992,0.408078,0.29553713,-0.2757036,0.390986,0.32206419,-0.25456652,0.41371,0.28989021,-0.21348151,0.399596,0.27571039,-0.21089735,0.392539,0.27398699,-0.21783154,0.403201,0.34153397,-0.24804115,0.408564,0.30848261,-0.1968834,0.386393,0.28795108,-0.18208877,0.37346,0.2923029,-0.19774315,0.381927,0.36049281,-0.24789976,0.406037,0.3300859,-0.1968136,0.385026,0.31434407,-0.18858934,0.374276,0.32416661,-0.20882201,0.383713,0.38746137,-0.2569728,0.406065,0.35090905,-0.21551555,0.387006,0.33991598,-0.21532301,0.378248,0.35055622,-0.23270334,0.385031
0.38457573,-0.335441,0.437067,0.36111296,-0.28910687,0.422097,0.36497704,-0.33418833,0.438526,0.33500099,-0.31374727,0.428068,0.306494,-0.29314664,0.408857,0.29595382,-0.27657644,0.391651,0.32307607,-0.25622801,0.415393,0.2892435,-0.21375043,0.398942,0.27430399,-0.21048082,0.390716,0.27198381,-0.21683985,0.400378,0.3422598,-0.24946082,0.409823,0.30867614,-0.20114792,0.388467,0.28869652,-0.18810795,0.376009,0.29367354,-0.2051519,0.384746,0.36085781,-0.24908328,0.406864,0.33118054,-0.19830757,0.386585,0.31578188,-0.19021065,0.37621,0.32539618,-0.21064529,0.385922,0.38719398,-0.25779308,0.406253,0.35144662,-0.21672715,0.38795,0.34012489,-0.21537139,0.379541,0.3452119,-0.22943862,0.386577
0.38852357,-0.34111862,0.443027,0.36428869,-0.29279262,0.426582,0.36541284,-0.33622021,0.440737,0.33222003,-0.31183889,0.425273,0.30439135,-0.29102982,0.406181,0.29423617,-0.27484008,0.389179,0.32206377,-0.25569096,0.414074,0.29131702,-0.21548257,0.401417,0.27759376,-0.21241892,0.395089,0.27981525,-0.22399414,0.406976,0.34453552,-0.25323139,0.413099,0.3107374,-0.20222889,0.389412,0.29436632,-0.19067417,0.375594,0.29674786,-0.20836416,0.383919,0.36661579,-0.25573182,0.414084,0.33569906,-0.20372177,0.391514,0.32321177,-0.20028857,0.379967,0.33167661,-0.22308446,0.389225,0.39750868,-0.26817793,0.418299,0.37262209,-0.22102159,0.397188,0.36094077,-0.21198818,0.387488,0.36630185,-0.22476199,0.393979
0.38845835,-0.34677692,0.44502,0.36533521,-0.29637791,0.428646,0.36352608,-0.3366139,0.439891,0.33417553,-0.31339842,0.424927,0.31661443,-0.28762257,0.400578,0.31377918,-0.27266748,0.382188,0.32151443,-0.25579438,0.412427,0.30125635,-0.2161495,0.403123,0.29272481,-0.21688575,0.398471,0.29875316,-0.22401019,0.411738,0.34932128,-0.25635735,0.415221,0.32536253,-0.20438661,0.391063,0.30847107,-0.18836003,0.376971,0.31313876,-0.20413004,0.385076,0.37624956,-0.26399196,0.419303,0.35096565,-0.21201654,0.395353,0.33711481,-0.20318914,0.3831,0.34357565,-0.22392076,0.39184,0.40925004,-0.28162335,0.427077,0.38768009,-0.230173,0.404912,0.37689194,-0.21922054,0.394728,0.3819159,-0.23096142,0.400821
0.3877336,-0.34787887,0.445277,0.36592764,-0.29735863,0.429284,0.36245751,-0.33699724,0.439592,0.33486976,-0.31325956,0.424609,0.31651897,-0.28696154,0.400303,0.31320876,-0.2714462,0.381942,0.3229099,-0.25590855,0.41255,0.30576577,-0.21835007,0.407956,0.29845234,-0.21892145,0.405659,0.30349254,-0.2286895,0.420327,0.35087751,-0.25719075,0.416172,0.32644828,-0.20489633,0.392284,0.30977049,-0.18883607,0.37835,0.31452872,-0.20454622,0.38651,0.37759075,-0.26479162,0.420895,0.35238562,-0.21271071,0.39695,0.33860585,-0.20377164,0.384698,0.34508988,-0.22441166,0.393419,0.41123636,-0.28287026,0.429337,0.38967716,-0.23133983,0.407167,0.37893527,-0.22029499,0.39698,0.38396915,-0.2319601,0.403046
0.38651776,-0.34778464,0.444173,0.36628237,-0.29764446,0.429089,0.36184745,-0.33710296,0.439052,0.3383542,-0.31361467,0.424499,0.31747832,-0.28686549,0.400828,0.3125471,-0.26981273,0.382579,0.32707463,-0.25678564,0.413626,0.31159736,-0.22026148,0.412212,0.30470375,-0.21997774,0.411505,0.30919393,-0.23080999,0.426991,0.35383502,-0.25818,0.416722,0.32858634,-0.2055516,0.393756,0.31213553,-0.18951274,0.380359,0.31709795,-0.20531334,0.388963,0.378541,-0.26482029,0.420914,0.35413837,-0.21314132,0.397998,0.34059833,-0.20369636,0.386274,0.34724796,-0.22382388,0.395518,0.41143001,-0.28245954,0.428572,0.39015088,-0.23146495,0.407117,0.3795029,-0.22105147,0.397259,0.38481582,-0.23333512,0.403671
0.38759118,-0.34687769,0.444904,0.36701562,-0.29791407,0.42938,0.36225147,-0.33771321,0.439601,0.33971176,-0.31377876,0.425443,0.31882404,-0.28688999,0.401819,0.31170465,-0.26547957,0.384715,0.3276387,-0.25622473,0.413422,0.31318668,-0.22021443,0.413138,0.30668411,-0.22010242,0.412996,0.31180501,-0.22845995,0.428748,0.35448882,-0.25772283,0.416652,0.32875461,-0.20514983,0.393252,0.312055,-0.18936296,0.379602,0.31689888,-0.20529725,0.388008,0.3793238,-0.26448259,0.421002,0.35452669,-0.21247931,0.397636,0.34118155,-0.2018248,0.385681,0.34709668,-0.22200443,0.394702,0.41246639,-0.2823365,0.428926,0.39056752,-0.23118299,0.407093,0.3796741,-0.22053937,0.397061,0.38479631,-0.23235983,0.4033
0.38546769,-0.347778,0.443174,0.36766588,-0.29798907,0.429488,0.3609953,-0.33676897,0.438097,0.34284285,-0.31286537,0.426111,0.32243581,-0.27988734,0.405302,0.31451041,-0.26204167,0.387864,0.33159273,-0.25599737,0.414889,0.3173201,-0.22058101,0.4154,0.31299758,-0.22051787,0.415656,0.31954183,-0.22948529,0.431585,0.35858567,-0.25771319,0.418268,0.33279683,-0.20651689,0.396609,0.31695642,-0.19127758,0.383974,0.32206665,-0.20782359,0.393104,0.38331971,-0.2645691,0.42254,0.36028073,-0.21178962,0.400775,0.34832553,-0.1987994,0.389639,0.3535568,-0.21987938,0.399418,0.41596632,-0.28240454,0.430029,0.40067897,-0.23190121,0.409852,0.39152765,-0.22175797,0.400581,0.39358142,-0.2333013,0.407524
0.38716135,-0.34946262,0.445086,0.36910694,-0.29858883,0.430554,0.36234698,-0.33799445,0.439646,0.34588769,-0.31268545,0.427785,0.32504935,-0.28110386,0.407994,0.31788723,-0.25952445,0.390883,0.3331333,-0.25478237,0.414986,0.31929937,-0.21969908,0.415968,0.31664442,-0.22076891,0.416458,0.32184972,-0.2299829,0.432489,0.36036379,-0.25673032,0.418639,0.33373292,-0.20598566,0.39614,0.31753907,-0.19106866,0.383015,0.32179618,-0.20747807,0.39177,0.38532638,-0.26384576,0.423229,0.35987231,-0.21242221,0.400586,0.34606776,-0.20328731,0.389002,0.35321098,-0.22703134,0.398355,0.41772963,-0.28269421,0.431244,0.40174619,-0.23177966,0.410592,0.39238798,-0.22150632,0.401104,0.39792381,-0.23371078,0.407817
0.38696585,-0.35073635,0.445568,0.36989026,-0.298769,0.430975,0.36220686,-0.3388847,0.440059,0.34664959,-0.31266772,0.428198,0.32561523,-0.28124331,0.408507,0.31848776,-0.25968326,0.391434,0.33373489,-0.25468803,0.41528,0.31993806,-0.21963446,0.416301,0.31707027,-0.22078252,0.416811,0.32293552,-0.23018279,0.432849,0.36103797,-0.2566961,0.41901,0.33425221,-0.20607251,0.396443,0.31810424,-0.19139215,0.38328,0.32257187,-0.20785648,0.392,0.3860576,-0.2638696,0.42367,0.36044902,-0.21253945,0.400941,0.34690654,-0.20386341,0.389312,0.35465109,-0.22725397,0.39862,0.41859784,-0.28273946,0.431777,0.40229022,-0.23184755,0.411031,0.39289165,-0.2215448,0.4015,0.39839076,-0.23371965,0.40817
