sluyters/QuantumLeap/backend/src/datasets/dynamic/HandGestureDataset_SHREC2017_csv/Gesture5/finger_2/subject_10_essai_2_skeletons_world.csv
Wrist_x,Wrist_y,Wrist_z,Palm_x,Palm_y,Palm_z,thumb_base_x,thumb_base_y,thumb_base_z,thumb_first_joint_x,thumb_first_joint_y,thumb_first_joint_z,thumb_second_joint_x,thumb_second_joint_y,thumb_second_joint_z,thumb_tip_x,thumb_tip_y,thumb_tip_z,index_base_x,index_base_y,index_base_z,index_first_joint_x,index_first_joint_y,index_first_joint_z,index_second_joint_x,index_second_joint_y,index_second_joint_z,index_tip_x,index_tip_y,index_tip_z,middle_base_x,middle_base_y,middle_base_z,middle_first_joint_x,middle_first_joint_y,middle_first_joint_z,middle_second_joint_x,middle_second_joint_y,middle_second_joint_z,middle_tip_x,middle_tip_y,middle_tip_z,ring_base_x,ring_base_y,ring_base_z,ring_first_joint_x,ring_first_joint_y,ring_first_joint_z,ring_second_joint_x,ring_second_joint_y,ring_second_joint_z,ring_tip_x,ring_tip_y,ring_tip_z,pinky_base_x,pinky_base_y,pinky_base_z,pinky_first_joint_x,pinky_first_joint_y,pinky_first_joint_z,pinky_second_joint_x,pinky_second_joint_y,pinky_second_joint_z,pinky_tip_x,pinky_tip_y,pinky_tip_z,
0.49278707,-0.41951165,0.547598,0.49727739,-0.3723808,0.544902,0.47341474,-0.40495144,0.546833,0.45289905,-0.38397865,0.536037,0.41435614,-0.35533386,0.507474,0.39208498,-0.33116995,0.492262,0.46962413,-0.32392097,0.542106,0.45654018,-0.28349771,0.532549,0.44683679,-0.26307317,0.527771,0.44468204,-0.24523557,0.523427,0.49371895,-0.32581012,0.542192,0.48175481,-0.27782791,0.531694,0.47527336,-0.25484001,0.52557,0.47221008,-0.23838913,0.521196,0.51534548,-0.33192262,0.54248,0.49977439,-0.28231356,0.532517,0.49489614,-0.26677414,0.52742,0.49354087,-0.2526628,0.522786,0.54025144,-0.3439264,0.543225,0.52965117,-0.30501163,0.532919,0.52614114,-0.29245199,0.528184,0.52312432,-0.28186224,0.524006
0.49410779,-0.41072393,0.539069,0.49493811,-0.36835071,0.540759,0.47649101,-0.40071586,0.541702,0.45709296,-0.38915402,0.536361,0.4225965,-0.36670195,0.515133,0.40350515,-0.34822437,0.508602,0.47214737,-0.33166973,0.54519,0.46371888,-0.29202531,0.540533,0.45338202,-0.27853571,0.538204,0.44835819,-0.26502085,0.536088,0.49346191,-0.32814917,0.542458,0.48244921,-0.28182537,0.537003,0.4737361,-0.26254884,0.533821,0.46931732,-0.2483869,0.531548,0.51106094,-0.32871159,0.540074,0.50091207,-0.28365852,0.535037,0.49754029,-0.2686995,0.532461,0.49466297,-0.25600568,0.530118,0.5331735,-0.33180396,0.536996,0.52197888,-0.29339411,0.531403,0.5197629,-0.28983602,0.528834,0.52146852,-0.28558467,0.526567
0.5021578,-0.41647288,0.54736,0.49562272,-0.37011004,0.542852,0.47320004,-0.40411692,0.545497,0.45623611,-0.38627981,0.532904,0.42133396,-0.35839238,0.503568,0.39789443,-0.33422852,0.486928,0.46516192,-0.32552901,0.53745,0.44029921,-0.28301219,0.525949,0.43127805,-0.26720361,0.520199,0.42295173,-0.25245312,0.514972,0.48876686,-0.32404411,0.53832,0.46848957,-0.2760373,0.525853,0.45907113,-0.25436576,0.51858,0.45234153,-0.23905553,0.513386,0.50936011,-0.32673625,0.539399,0.49023227,-0.28432549,0.527457,0.48263684,-0.26680794,0.521347,0.47779714,-0.25147561,0.515792,0.53651545,-0.33684836,0.541353,0.51599354,-0.29782402,0.529272,0.5128985,-0.28851384,0.523721,0.5084594,-0.2826592,0.518823
0.50644635,-0.41767838,0.550822,0.49458243,-0.36710203,0.542767,0.48137721,-0.40300145,0.546021,0.453766,-0.38333181,0.529016,0.41835407,-0.3572239,0.499541,0.39476198,-0.33460756,0.483377,0.45169165,-0.31906944,0.531286,0.42301419,-0.27557647,0.515697,0.41306426,-0.25963735,0.507902,0.41290801,-0.24843687,0.507155,0.47784569,-0.31713921,0.53467,0.45454968,-0.27026394,0.518291,0.44598998,-0.25113595,0.508736,0.43987051,-0.23704658,0.501911,0.50089265,-0.31918952,0.538104,0.47901665,-0.27719888,0.52209,0.47099453,-0.26017415,0.513897,0.46706256,-0.24889411,0.506448,0.53106856,-0.32847602,0.543379,0.5083986,-0.29138224,0.52768,0.50410837,-0.28398046,0.520467,0.50269575,-0.27917636,0.514103
0.50865533,-0.4176536,0.552303,0.49504456,-0.36634081,0.543109,0.48306856,-0.40317852,0.547199,0.45471823,-0.38313086,0.529594,0.41906779,-0.3574583,0.500456,0.3954391,-0.33508112,0.484229,0.45125982,-0.31775722,0.53047,0.42215363,-0.27667215,0.51364,0.41169561,-0.26488044,0.505224,0.40487747,-0.25824278,0.497574,0.47750732,-0.31601259,0.533866,0.45215075,-0.26820059,0.516351,0.44210113,-0.24932453,0.506133,0.43512013,-0.23603856,0.498835,0.50078518,-0.31826023,0.537402,0.47578586,-0.27395386,0.520254,0.46699737,-0.25805046,0.51148,0.45997132,-0.24504855,0.503504,0.53150236,-0.32790425,0.542966,0.51023126,-0.29392572,0.526369,0.5055947,-0.29242639,0.518743,0.50150552,-0.29042846,0.512015
0.51131626,-0.41588891,0.552732,0.49447059,-0.36529375,0.54242,0.48406527,-0.40308018,0.547664,0.45531819,-0.38358997,0.529889,0.4194054,-0.35884597,0.500891,0.39514258,-0.33798118,0.484186,0.44960314,-0.317168,0.529062,0.41977491,-0.27934067,0.511459,0.40754196,-0.26502679,0.502658,0.39961327,-0.25756201,0.494656,0.47547847,-0.31498421,0.532054,0.44841263,-0.26697518,0.513481,0.43570242,-0.24862765,0.502647,0.42770892,-0.2366304,0.494908,0.49856785,-0.31690607,0.535348,0.47188011,-0.27242741,0.517226,0.46033064,-0.26024138,0.507954,0.45264486,-0.24516584,0.499525,0.52929097,-0.32623501,0.540794,0.50661021,-0.29380218,0.523445,0.50145734,-0.29159717,0.515475,0.49705123,-0.28988345,0.508441
0.51837531,-0.41756365,0.557787,0.49793431,-0.36613398,0.545847,0.48956859,-0.40478895,0.551869,0.46767144,-0.38650766,0.532748,0.43219289,-0.36464037,0.502793,0.41067958,-0.34514117,0.485352,0.45013168,-0.31867899,0.530318,0.41541681,-0.28004674,0.511096,0.4060283,-0.27562794,0.501485,0.39987378,-0.27232642,0.492747,0.47642147,-0.31627794,0.533845,0.44470559,-0.26931118,0.513606,0.4313348,-0.25071057,0.5018,0.42257787,-0.23892203,0.493368,0.50004282,-0.31805446,0.537709,0.46523129,-0.27589888,0.517849,0.45226527,-0.26002257,0.507687,0.44659518,-0.2482648,0.49845,0.53173036,-0.32728497,0.544074,0.49949386,-0.29006599,0.525308,0.49172591,-0.28272634,0.516686,0.48581997,-0.27764467,0.509078
0.52161612,-0.41869146,0.560721,0.49784086,-0.36568404,0.545749,0.49269608,-0.40521262,0.553176,0.46748952,-0.38729731,0.531551,0.43256564,-0.36657298,0.501666,0.41061486,-0.34726326,0.483554,0.44565209,-0.3176336,0.52612,0.40860475,-0.28296887,0.503837,0.39836818,-0.27501853,0.492695,0.39033758,-0.26721126,0.482567,0.47252665,-0.31506057,0.530697,0.43780881,-0.26894769,0.507398,0.42296319,-0.24960752,0.493807,0.41445049,-0.23630473,0.484099,0.49752544,-0.31674758,0.535671,0.46114722,-0.27510437,0.512648,0.44911523,-0.26317,0.500869,0.43895575,-0.25236717,0.49016,0.52985726,-0.32510214,0.543805,0.49611124,-0.2909379,0.522433,0.48515994,-0.28519912,0.512614,0.4790925,-0.27706063,0.50395
0.52361299,-0.41652831,0.560081,0.49696141,-0.36441899,0.544397,0.49453898,-0.40447076,0.552723,0.46780026,-0.3883937,0.531207,0.43253011,-0.37138419,0.501465,0.40887546,-0.35293522,0.482711,0.44296679,-0.31911239,0.524516,0.40624049,-0.28101055,0.501943,0.39689792,-0.2745771,0.490657,0.38889151,-0.2676304,0.480397,0.47019922,-0.31401743,0.528632,0.43424063,-0.26734757,0.504697,0.4190387,-0.24839531,0.490734,0.41003679,-0.24046966,0.480762,0.49371006,-0.31465035,0.533283,0.45934915,-0.27581516,0.509825,0.44660838,-0.26215901,0.497823,0.43629959,-0.25157634,0.486913,0.52605913,-0.32130867,0.541141,0.4924116,-0.29054763,0.519365,0.48251646,-0.28319191,0.50936,0.47562642,-0.2760722,0.500533
0.52367058,-0.41503088,0.559339,0.49641933,-0.36192233,0.54353,0.4941962,-0.40313887,0.551578,0.46745161,-0.38681136,0.529557,0.43857289,-0.36675683,0.499626,0.41404352,-0.34857235,0.480764,0.44187518,-0.3173177,0.523061,0.40466556,-0.27966613,0.500175,0.39585096,-0.27414807,0.488732,0.38897209,-0.27104421,0.478329,0.46832492,-0.3132895,0.527638,0.43244279,-0.26617954,0.503535,0.41713497,-0.24745295,0.489475,0.40841801,-0.23813074,0.479432,0.49201214,-0.31335819,0.532679,0.45836556,-0.27477605,0.508952,0.44552689,-0.26117201,0.496812,0.43511124,-0.2506212,0.485776,0.52544152,-0.31935802,0.541016,0.49178955,-0.28931391,0.519018,0.48198548,-0.28221796,0.508911,0.4748132,-0.27572622,0.499993
0.52240311,-0.41285808,0.557472,0.49464251,-0.3601843,0.541541,0.49315702,-0.4015053,0.549959,0.47228266,-0.38434728,0.528215,0.43891895,-0.36423246,0.498366,0.41876799,-0.34494903,0.478668,0.43995252,-0.31613092,0.521295,0.40182805,-0.27711704,0.498567,0.39317767,-0.27191608,0.487203,0.38614817,-0.26696081,0.476873,0.46539996,-0.31177187,0.525525,0.42908819,-0.26995948,0.501339,0.41168781,-0.24636747,0.487231,0.40469287,-0.24118385,0.477154,0.48860755,-0.3101833,0.53029,0.45585778,-0.2730741,0.506681,0.44289941,-0.25940377,0.494602,0.4320646,-0.24832021,0.483621,0.52229929,-0.3158292,0.538319,0.48893615,-0.28767924,0.516326,0.47962792,-0.28137978,0.506221,0.47193519,-0.2764331,0.497305
0.52245269,-0.41114538,0.557566,0.49369009,-0.3593096,0.540628,0.49289086,-0.40013434,0.549716,0.47197757,-0.383894,0.527408,0.43827741,-0.36343353,0.497642,0.41886761,-0.34409264,0.477772,0.43689063,-0.31560777,0.519275,0.39661533,-0.27356059,0.495715,0.3896704,-0.26977883,0.483935,0.38127747,-0.2645604,0.473226,0.46229518,-0.30984427,0.5236,0.42636248,-0.26924129,0.498443,0.4059159,-0.24585981,0.483768,0.40099166,-0.2421733,0.473286,0.48642091,-0.30887648,0.528525,0.45265351,-0.27111134,0.504029,0.43846088,-0.25649052,0.491497,0.42647828,-0.24431213,0.480103,0.52041706,-0.31474481,0.536894,0.48584028,-0.28524872,0.514126,0.47669186,-0.27957002,0.503665,0.46872723,-0.27466909,0.494434
0.52197002,-0.40879523,0.556095,0.49180865,-0.35795066,0.538482,0.49197179,-0.39821696,0.547861,0.47266776,-0.38287691,0.524987,0.4448196,-0.36311684,0.495323,0.42950698,-0.34345151,0.474953,0.43402341,-0.3139291,0.516189,0.39525435,-0.27328659,0.492131,0.38602718,-0.26812645,0.480101,0.37828927,-0.26378773,0.469166,0.45965708,-0.30851794,0.520776,0.42344296,-0.26881021,0.494951,0.40268592,-0.2471489,0.479886,0.39668253,-0.24600846,0.469125,0.48402348,-0.30780414,0.525971,0.44868365,-0.26899325,0.500851,0.43328848,-0.25414265,0.487999,0.41992946,-0.240701,0.476316,0.51785983,-0.31380117,0.534761,0.48218226,-0.28453325,0.511421,0.47308857,-0.27972364,0.500698,0.46544666,-0.27398558,0.491236
0.51988584,-0.40566522,0.553194,0.48910277,-0.35527493,0.535282,0.49115701,-0.39644398,0.546363,0.47183383,-0.38294324,0.525159,0.44232849,-0.36308549,0.496019,0.42894969,-0.34550879,0.475574,0.43200517,-0.311781,0.51453,0.39414576,-0.27209109,0.490688,0.38501847,-0.26835668,0.478767,0.37715927,-0.26356434,0.46793,0.45678189,-0.30609327,0.517276,0.42104431,-0.26704398,0.491377,0.40025136,-0.24236,0.476269,0.39327043,-0.24164757,0.465477,0.48007417,-0.3050604,0.52098,0.44460949,-0.26677681,0.496175,0.42949364,-0.25229019,0.483484,0.41761756,-0.23978221,0.471946,0.51436736,-0.31203796,0.528047,0.47806867,-0.28274423,0.505024,0.46796524,-0.27839077,0.494445,0.45945831,-0.27275541,0.485111
0.51901603,-0.40331238,0.551169,0.4867073,-0.35227941,0.532041,0.490168,-0.39432667,0.544239,0.47104868,-0.38110502,0.52275,0.43954534,-0.36149663,0.493834,0.4273492,-0.34480333,0.473392,0.43268965,-0.30623645,0.510334,0.39219157,-0.26989178,0.485685,0.38212029,-0.27116291,0.473361,0.3712444,-0.26533914,0.462157,0.45781151,-0.30154923,0.512812,0.41982129,-0.24954786,0.4858,0.40251241,-0.23711018,0.470043,0.39731513,-0.24427122,0.458788,0.48141848,-0.30150267,0.516394,0.44528084,-0.26393403,0.490613,0.42908111,-0.24975706,0.477423,0.41175874,-0.23599235,0.465432,0.51477405,-0.30874376,0.5235,0.47748879,-0.27973085,0.49967,0.46627006,-0.27561066,0.488721,0.45502611,-0.27163901,0.47906
0.52023036,-0.40251035,0.551574,0.48653709,-0.34915327,0.529878,0.49134823,-0.39364993,0.544669,0.47077004,-0.38010415,0.522916,0.44065241,-0.36198215,0.494737,0.42840782,-0.34552081,0.474374,0.43336469,-0.30150835,0.506443,0.39054115,-0.26862406,0.480349,0.37933735,-0.26809772,0.467302,0.36913844,-0.2677731,0.455441,0.45802405,-0.29733362,0.508067,0.42068463,-0.24795923,0.48307,0.40448789,-0.2371375,0.468488,0.39956715,-0.24547105,0.458073,0.48132446,-0.29784814,0.511152,0.44409088,-0.25926126,0.483411,0.42679144,-0.24423841,0.469217,0.41112792,-0.23081228,0.456314,0.51447979,-0.30600905,0.518054,0.4761862,-0.27782941,0.492652,0.46670426,-0.27669734,0.480981,0.45311982,-0.2709968,0.470683
0.52360473,-0.40418988,0.554019,0.48885352,-0.35031916,0.530237,0.49331092,-0.39414458,0.545769,0.47081196,-0.37999212,0.522125,0.44123846,-0.36178329,0.493924,0.42800313,-0.34529668,0.473615,0.43734507,-0.30253298,0.503703,0.39426061,-0.27253004,0.475427,0.38290996,-0.2741101,0.461289,0.37259634,-0.27568552,0.448436,0.4632037,-0.30039381,0.50633,0.4251437,-0.25363141,0.479225,0.40474722,-0.23716813,0.463414,0.39465019,-0.23557401,0.45212,0.48759648,-0.30267971,0.51041,0.4483136,-0.26309664,0.480661,0.43030552,-0.24959233,0.46544,0.41467911,-0.2396264,0.451604,0.52215411,-0.31315577,0.518801,0.48634997,-0.27452455,0.491619,0.47496312,-0.27293923,0.479129,0.46515973,-0.27228469,0.46811
0.52609323,-0.40526636,0.555842,0.49202343,-0.35222018,0.532773,0.49558038,-0.39487656,0.547486,0.47256384,-0.38082923,0.523778,0.44019372,-0.36097342,0.495618,0.42305236,-0.34163434,0.476279,0.43983217,-0.30446021,0.506595,0.39708401,-0.27441424,0.478665,0.386801,-0.27717044,0.464699,0.37809076,-0.28045542,0.452003,0.46616275,-0.30252194,0.509583,0.43356666,-0.25127287,0.489147,0.42172759,-0.2487344,0.477226,0.41859632,-0.26015412,0.468711,0.49088046,-0.30493316,0.513901,0.46382806,-0.25213872,0.484742,0.45176977,-0.25010616,0.469824,0.43976497,-0.26151559,0.456262,0.52567575,-0.31548389,0.522469,0.49049185,-0.27753038,0.495672,0.47916653,-0.27534573,0.483361,0.46960934,-0.27473054,0.472497
0.52361543,-0.40329505,0.553032,0.49280483,-0.35126911,0.531063,0.49520715,-0.39409052,0.546845,0.47479832,-0.38231495,0.525988,0.44159135,-0.3613948,0.49823,0.4233962,-0.34201832,0.47893,0.44154225,-0.3055522,0.508335,0.40555623,-0.25873549,0.482595,0.39619523,-0.26188251,0.469725,0.38770837,-0.26490341,0.458025,0.46581166,-0.3021721,0.508978,0.43630977,-0.26237128,0.479595,0.4188278,-0.23886836,0.462455,0.40910242,-0.23976336,0.450212,0.48856016,-0.30337549,0.511279,0.4622334,-0.25175581,0.48341,0.45087306,-0.24987124,0.469152,0.43979303,-0.26158412,0.45619,0.52060618,-0.31237385,0.517291,0.49767827,-0.28181594,0.492025,0.48789285,-0.27850344,0.480416,0.47896414,-0.28714501,0.470173
0.52174685,-0.40232834,0.550648,0.49843409,-0.35484168,0.532819,0.49313317,-0.39231516,0.544064,0.47241963,-0.38031614,0.52318,0.43771797,-0.35788829,0.493998,0.4197496,-0.33833374,0.47437,0.45095332,-0.30796138,0.512432,0.42124432,-0.26340009,0.488878,0.40954445,-0.2543091,0.477101,0.39886364,-0.24596538,0.466395,0.47715541,-0.30659119,0.514897,0.45482245,-0.25262409,0.495249,0.4460008,-0.24770509,0.483788,0.43976106,-0.24422492,0.475601,0.50105317,-0.30945979,0.518363,0.47392944,-0.25625859,0.493709,0.46362815,-0.24695737,0.481096,0.45561122,-0.25650494,0.469629,0.53360428,-0.32047515,0.525137,0.51537895,-0.29047126,0.502261,0.50544424,-0.30012104,0.49175,0.49445387,-0.30666236,0.482476
0.52289142,-0.40436192,0.551983,0.49723348,-0.35454678,0.530878,0.49441139,-0.39344895,0.545346,0.47324442,-0.38107441,0.523997,0.43905712,-0.35861065,0.495737,0.4218729,-0.3392072,0.476301,0.45356437,-0.30402303,0.508183,0.43471992,-0.26049405,0.497788,0.42713215,-0.25581697,0.49259,0.422831,-0.26209348,0.487865,0.47898609,-0.30586879,0.509662,0.4584855,-0.25391388,0.48685,0.44639273,-0.23903291,0.473543,0.43776772,-0.22817457,0.464038,0.50200849,-0.31160318,0.512581,0.47704934,-0.26192387,0.485338,0.46451085,-0.24460367,0.4714,0.45273892,-0.24848425,0.458729,0.53306748,-0.32641681,0.519197,0.50003564,-0.29848889,0.494263,0.48981719,-0.30149029,0.482807,0.48310422,-0.30920449,0.472699
0.52294137,-0.40488645,0.552371,0.49699991,-0.35371966,0.530085,0.49533731,-0.39335041,0.546294,0.4721192,-0.37648898,0.525551,0.43647676,-0.3483445,0.498522,0.42036909,-0.32916383,0.480231,0.45717896,-0.29641024,0.507278,0.43751026,-0.25264799,0.492936,0.42749753,-0.25123291,0.485765,0.41777792,-0.25877453,0.479246,0.48144202,-0.3001485,0.507683,0.46259097,-0.24870344,0.483228,0.44542491,-0.23573291,0.468963,0.43586989,-0.22508074,0.458774,0.50129697,-0.30869226,0.509812,0.47692657,-0.25959832,0.481959,0.46399086,-0.24271184,0.467708,0.4507063,-0.2468598,0.454753,0.53100895,-0.32416512,0.515669,0.49723259,-0.29646487,0.490263,0.48570158,-0.29966214,0.47859,0.47769789,-0.30741453,0.46829
0.52392156,-0.40608088,0.553938,0.49678437,-0.35331784,0.52973,0.49657554,-0.39345862,0.547771,0.47193143,-0.37713974,0.526761,0.43638067,-0.35098035,0.500036,0.42008289,-0.33216068,0.481663,0.45476746,-0.29531833,0.505494,0.43635633,-0.25532572,0.48794,0.42727594,-0.2361702,0.479163,0.41726074,-0.23622213,0.471184,0.47726789,-0.30029441,0.505394,0.46119417,-0.24718918,0.481403,0.44800401,-0.23278496,0.467408,0.43755142,-0.22771111,0.457412,0.49887377,-0.30675723,0.507263,0.48065482,-0.2646832,0.477478,0.47130854,-0.24342933,0.462239,0.4512709,-0.24325086,0.448386,0.52829217,-0.32261416,0.5131,0.49868523,-0.30849187,0.486532,0.48300172,-0.30078345,0.474325,0.47025881,-0.3080157,0.463554
0.52321512,-0.40616733,0.553146,0.49729526,-0.35306636,0.529396,0.49867037,-0.39418751,0.549478,0.47363712,-0.3780137,0.531884,0.43187775,-0.34765418,0.507751,0.41258995,-0.32805931,0.490998,0.46524675,-0.29465218,0.508583,0.45581168,-0.25411882,0.499834,0.45060467,-0.23397266,0.495459,0.44052545,-0.23046403,0.491482,0.48216775,-0.29861875,0.505522,0.46942791,-0.24637576,0.482683,0.45160945,-0.23123692,0.469361,0.43778102,-0.22808962,0.459844,0.49944143,-0.30498024,0.504918,0.4862635,-0.25779086,0.476457,0.4678893,-0.24963233,0.461895,0.44577618,-0.25566142,0.448657,0.52508392,-0.32060384,0.507755,0.5051841,-0.30867516,0.48265,0.47883489,-0.31137398,0.471115,0.47260058,-0.31952965,0.474754
0.52083926,-0.40521405,0.551341,0.4982869,-0.35127399,0.526951,0.49929538,-0.39354841,0.549934,0.47381628,-0.37492358,0.535581,0.43813274,-0.34473143,0.513607,0.41811752,-0.3279902,0.496672,0.47527673,-0.29267965,0.508511,0.47221544,-0.25151263,0.501108,0.46824995,-0.23216733,0.497407,0.4566714,-0.22878484,0.494042,0.49011161,-0.29837065,0.502433,0.49022447,-0.24953775,0.485114,0.47823544,-0.23115818,0.475012,0.46241565,-0.23129738,0.467796,0.50380911,-0.30744402,0.499397,0.49097755,-0.26260576,0.471916,0.47209515,-0.25250292,0.457856,0.4444647,-0.25513131,0.445074,0.5226545,-0.32651224,0.499449,0.49957686,-0.31150453,0.475256,0.47186251,-0.30952492,0.464141,0.4657304,-0.31647453,0.467385
0.51253514,-0.40517756,0.548716,0.49437298,-0.34989798,0.523437,0.49520221,-0.38982299,0.546607,0.46133942,-0.35959493,0.53121,0.43028652,-0.33210271,0.509871,0.414074,-0.30994102,0.493606,0.48178616,-0.29148131,0.503515,0.47703206,-0.25034589,0.496243,0.47231974,-0.23127918,0.492607,0.46116861,-0.22918037,0.489301,0.49525574,-0.30077759,0.498024,0.48890436,-0.25495024,0.475343,0.4817696,-0.2301185,0.462112,0.4652814,-0.22404235,0.452662,0.5070369,-0.31280699,0.495544,0.49217951,-0.26858423,0.468284,0.47461617,-0.25473252,0.454337,0.44595476,-0.25565314,0.441657,0.5221294,-0.33542123,0.496388,0.50100148,-0.31609048,0.471318,0.47018457,-0.3100838,0.4598,0.46293202,-0.31306098,0.462698
0.49376738,-0.40547806,0.547573,0.49153843,-0.34931524,0.521076,0.48743301,-0.38449277,0.545131,0.45319115,-0.35035887,0.529249,0.42400493,-0.31903967,0.508774,0.41071171,-0.29241925,0.49396,0.48529496,-0.29456907,0.499907,0.48483295,-0.25247851,0.489068,0.47904461,-0.236349,0.483648,0.47281182,-0.22255896,0.47872,0.49639296,-0.30719025,0.49444,0.49517762,-0.26042631,0.470801,0.48393371,-0.24000802,0.457011,0.47010438,-0.23091807,0.447161,0.50560272,-0.32165766,0.492077,0.49146476,-0.27849073,0.464245,0.47435545,-0.26480251,0.450005,0.44797358,-0.2661523,0.437059,0.51651864,-0.34659286,0.493242,0.49153849,-0.32673033,0.467357,0.46236691,-0.31797437,0.455463,0.45056117,-0.31988317,0.45781
0.48756558,-0.40159487,0.544158,0.49169637,-0.35001013,0.518249,0.47875426,-0.37739472,0.541339,0.45047782,-0.34183739,0.524899,0.4233423,-0.30918928,0.503944,0.41203625,-0.28263017,0.489163,0.48459191,-0.29273702,0.497013,0.48914296,-0.25086765,0.485255,0.48286678,-0.23643252,0.479376,0.47157554,-0.22311621,0.474032,0.49560361,-0.30631399,0.492204,0.5005388,-0.26233989,0.469594,0.49317329,-0.24111529,0.456405,0.48242145,-0.23000962,0.446984,0.50459147,-0.32147222,0.490336,0.4921874,-0.27876703,0.46259,0.47568119,-0.26481597,0.448395,0.4490661,-0.2654853,0.43549,0.51492153,-0.34702697,0.491998,0.49076762,-0.326948,0.466193,0.46177598,-0.31744594,0.454337,0.45012626,-0.31905039,0.456996
0.48380844,-0.3974402,0.54147,0.49102322,-0.34802674,0.51682,0.47701061,-0.37392586,0.539726,0.45048312,-0.33980546,0.52487,0.42220546,-0.30731352,0.503553,0.41024728,-0.28086169,0.488382,0.48977993,-0.29188797,0.497782,0.49869178,-0.24924431,0.485751,0.49019811,-0.23778111,0.479735,0.47881347,-0.22650715,0.474266,0.49706437,-0.30592936,0.49204,0.48996654,-0.2598815,0.461651,0.4746913,-0.23863471,0.443924,0.4617307,-0.22306592,0.432086,0.5045465,-0.32087448,0.489302,0.493338,-0.28031459,0.463106,0.47757319,-0.26692745,0.449704,0.45117603,-0.26779222,0.43752,0.51267578,-0.3457784,0.489746,0.49141019,-0.30848806,0.465217,0.46882304,-0.30515014,0.453947,0.46034765,-0.31457681,0.457104
0.47931277,-0.39625118,0.542642,0.4877958,-0.34927922,0.514612,0.47333517,-0.37066353,0.538736,0.44730437,-0.33315522,0.520737,0.42239479,-0.29648444,0.499099,0.41242006,-0.26951617,0.48321,0.48993608,-0.2960262,0.490574,0.49271502,-0.25653279,0.473557,0.48872772,-0.24043927,0.465049,0.48448366,-0.22612603,0.457314,0.49719236,-0.31336613,0.486435,0.48927312,-0.27053614,0.452647,0.47040726,-0.2523441,0.432938,0.45063454,-0.24310672,0.418859,0.50254963,-0.33107774,0.48529,0.48625646,-0.29915878,0.45549,0.47814449,-0.28265066,0.440244,0.45154283,-0.27675455,0.426383,0.50757903,-0.35865282,0.488126,0.48418952,-0.32237746,0.460632,0.45960572,-0.31363605,0.447999,0.45540701,-0.32686302,0.449704
0.48987582,-0.40219315,0.550284,0.49341045,-0.35315753,0.517751,0.48210997,-0.37609386,0.545402,0.46678406,-0.33073397,0.526255,0.44891129,-0.29261288,0.508706,0.43760383,-0.27047831,0.493313,0.49292768,-0.29944486,0.489417,0.49817418,-0.25677317,0.468338,0.48598037,-0.24629546,0.457798,0.47486554,-0.23662961,0.448216,0.49795736,-0.31492047,0.485047,0.48234801,-0.27846333,0.447596,0.47200161,-0.25570121,0.42575,0.45151264,-0.24736064,0.410145,0.50363016,-0.33284716,0.484074,0.49230871,-0.29154247,0.451031,0.4660497,-0.28514807,0.434126,0.43711753,-0.28434159,0.418758,0.51257531,-0.36307693,0.487788,0.47197605,-0.33678978,0.457659,0.4492984,-0.32981999,0.443815,0.43845601,-0.33640012,0.443139
0.48380302,-0.39706981,0.547083,0.48879638,-0.35065085,0.514271,0.47827548,-0.36893883,0.541506,0.46040648,-0.32644619,0.521366,0.44131778,-0.29070608,0.500514,0.43578487,-0.26528179,0.48478,0.49653804,-0.30022345,0.484882,0.50324078,-0.26351801,0.462846,0.49469733,-0.24955085,0.451828,0.48702672,-0.23663606,0.441811,0.49914005,-0.32012833,0.481286,0.48021007,-0.2837891,0.443395,0.46925958,-0.26253981,0.421291,0.44402099,-0.25251494,0.405504,0.50072326,-0.33948104,0.480972,0.4908734,-0.3046201,0.447281,0.46167379,-0.29402689,0.430044,0.43093349,-0.28405681,0.414373,0.50140128,-0.36803862,0.485509,0.44921216,-0.33310371,0.454857,0.42303872,-0.31587462,0.440774,0.4095474,-0.30818695,0.439992
0.46431064,-0.37364321,0.516479,0.48282226,-0.33933807,0.488438,0.46789531,-0.35002306,0.514844,0.46021013,-0.30491074,0.504232,0.45969626,-0.27921513,0.501618,0.47010574,-0.26802585,0.504899,0.49440003,-0.29078167,0.467215,0.51597038,-0.26704625,0.450419,0.49807529,-0.25663487,0.442022,0.48163064,-0.2470544,0.434387,0.49636057,-0.3064779,0.460249,0.46638737,-0.26860563,0.427294,0.42061248,-0.26104647,0.408071,0.40928541,-0.26994496,0.409939,0.49723062,-0.32237194,0.456778,0.46785742,-0.2891079,0.42865,0.42945361,-0.28298085,0.414259,0.41714703,-0.29131244,0.417222,0.49664049,-0.34708097,0.45686,0.46046297,-0.30554245,0.43073,0.43102464,-0.2893269,0.418724,0.41811056,-0.28364617,0.420163
0.46776265,-0.36289259,0.545358,0.48688273,-0.34393138,0.517944,0.45980052,-0.33519303,0.527779,0.44947276,-0.29085246,0.498045,0.44585618,-0.25650257,0.478644,0.45128262,-0.2373551,0.468258,0.48823901,-0.29707004,0.477324,0.51241015,-0.27631072,0.459518,0.50300591,-0.2816769,0.450616,0.49447306,-0.28692157,0.442522,0.50637692,-0.32398968,0.490385,0.49150679,-0.32129522,0.455775,0.48411451,-0.31954178,0.435585,0.4619945,-0.32126508,0.421165,0.52055033,-0.35238062,0.503343,0.46186808,-0.34741683,0.467393,0.42187431,-0.3353344,0.449,0.40049361,-0.33047329,0.447308,0.52901574,-0.38196422,0.522798,0.48017703,-0.37822645,0.491329,0.4540376,-0.37034352,0.476871,0.44228122,-0.371669,0.475079
0.46929719,-0.36253077,0.547288,0.4878613,-0.34396387,0.518411,0.4639915,-0.33522589,0.531079,0.45546333,-0.29202378,0.501162,0.4532315,-0.25840126,0.476881,0.45792593,-0.23910108,0.463716,0.49179565,-0.29798973,0.478495,0.48628344,-0.28359418,0.44375,0.46929949,-0.28081501,0.426378,0.44795291,-0.27910447,0.410585,0.5054657,-0.32407451,0.489383,0.48353436,-0.32058956,0.453292,0.43642702,-0.31323694,0.432239,0.41793932,-0.31128677,0.431804,0.51656152,-0.35072692,0.500672,0.45845052,-0.34484034,0.464043,0.41791768,-0.33219612,0.445302,0.39726514,-0.32879718,0.444145,0.52125686,-0.38360815,0.518366,0.47577321,-0.36389116,0.486096,0.45473918,-0.35466575,0.471269,0.44093974,-0.34479987,0.469814
0.46713663,-0.35649075,0.5455,0.48658291,-0.3422079,0.517716,0.4649621,-0.33106902,0.530837,0.46873858,-0.28211536,0.503057,0.46325858,-0.25376127,0.477874,0.46780998,-0.23766932,0.46314,0.49823245,-0.30551751,0.480469,0.49053963,-0.29686364,0.447168,0.47240371,-0.29477153,0.430517,0.4503479,-0.29262748,0.41538,0.50306748,-0.33202233,0.489785,0.4752187,-0.33090297,0.456068,0.43035784,-0.32091873,0.4364,0.41222631,-0.31867712,0.437804,0.50567769,-0.35452323,0.499692,0.44980649,-0.34351369,0.464364,0.41234848,-0.32838771,0.44629,0.39338588,-0.32439151,0.446796,0.50611181,-0.38254463,0.515585,0.4626799,-0.36174366,0.484165,0.442578,-0.35196767,0.469728,0.43191543,-0.34151706,0.469484
0.4644058,-0.35086758,0.539913,0.47856928,-0.33635586,0.508407,0.46738203,-0.3251434,0.528238,0.47964251,-0.29150549,0.504104,0.48843575,-0.26452705,0.485381,0.49980114,-0.25336993,0.475452,0.49066951,-0.30229984,0.472328,0.48004856,-0.30022436,0.4388,0.452909,-0.2918349,0.422036,0.42084646,-0.27976024,0.406796,0.49045176,-0.32929315,0.476735,0.44988735,-0.31454948,0.439688,0.40306561,-0.29884272,0.418078,0.38782035,-0.29426809,0.418458,0.4887838,-0.35052019,0.482902,0.47194555,-0.3320434,0.446347,0.46356079,-0.32268197,0.427644,0.43349576,-0.31367203,0.410642,0.48537052,-0.3769505,0.494922,0.43440114,-0.34334546,0.462186,0.4097632,-0.32172598,0.447146,0.39970966,-0.31075454,0.446429
0.46637793,-0.34614944,0.540443,0.4787761,-0.33653629,0.508704,0.47126302,-0.32086594,0.528068,0.47937703,-0.290346,0.502119,0.49217614,-0.26691347,0.483677,0.50054721,-0.25507836,0.4733,0.49037877,-0.30622061,0.471596,0.47693347,-0.30727259,0.43808,0.45016753,-0.29797753,0.421322,0.41950416,-0.28172807,0.406088,0.4885501,-0.33120097,0.476798,0.44811482,-0.3165812,0.439764,0.40167964,-0.29952169,0.418161,0.38639059,-0.29379992,0.418285,0.48320566,-0.35347962,0.483638,0.46640448,-0.33753272,0.446732,0.45801113,-0.32948496,0.427849,0.43084296,-0.31640933,0.410684,0.47797788,-0.37829616,0.496491,0.43246697,-0.34369227,0.463418,0.40859314,-0.32154825,0.448222,0.39902951,-0.30995834,0.447199
0.4729199,-0.34230061,0.544678,0.48072925,-0.33732552,0.510837,0.47986802,-0.31988139,0.531355,0.49231772,-0.29177355,0.504596,0.49915725,-0.27219307,0.481532,0.49987469,-0.26482266,0.464314,0.4890987,-0.31005903,0.471111,0.46580648,-0.31031942,0.43601,0.43933719,-0.2989837,0.41846,0.41193765,-0.28150359,0.402505,0.48418788,-0.33403018,0.476817,0.42499711,-0.30916299,0.43824,0.38107596,-0.28649067,0.415736,0.36568745,-0.27701019,0.414253,0.47591286,-0.35403541,0.484242,0.45300665,-0.33706784,0.445635,0.4414106,-0.32847915,0.425883,0.40980142,-0.31361007,0.407926,0.46872839,-0.37660534,0.498101,0.41992602,-0.33872913,0.463711,0.39793372,-0.31359298,0.44791,0.38905391,-0.29973666,0.445548
0.46279174,-0.33227444,0.530991,0.47233634,-0.3317555,0.50207,0.46936898,-0.3110575,0.517319,0.48364141,-0.2914387,0.49266,0.48962886,-0.27448472,0.469772,0.4888842,-0.26828187,0.452538,0.48018347,-0.31655506,0.465275,0.45534283,-0.31594549,0.43262,0.42964747,-0.30408035,0.416293,0.40067571,-0.28533327,0.401449,0.47330523,-0.33956124,0.472996,0.41688283,-0.31147046,0.436796,0.37384537,-0.28460352,0.41568,0.36418243,-0.27699659,0.41655,0.46740632,-0.35806166,0.481681,0.40817581,-0.32596434,0.445891,0.37555358,-0.30231011,0.427784,0.34785464,-0.27841405,0.412119,0.46001063,-0.37907185,0.496298,0.41419797,-0.34078409,0.464419,0.3972526,-0.31522692,0.449773,0.39086622,-0.30240097,0.449513
0.49561747,-0.3419247,0.557128,0.48972098,-0.343834,0.519925,0.50360264,-0.32491497,0.541016,0.51025808,-0.30438894,0.509662,0.50374886,-0.28316909,0.481716,0.5017813,-0.2762178,0.462502,0.49076277,-0.3247606,0.47443,0.45754561,-0.31914044,0.436283,0.42831876,-0.30344626,0.41721,0.39728503,-0.28154604,0.399871,0.4827649,-0.34754275,0.482525,0.41056737,-0.29851614,0.440081,0.36894042,-0.26661336,0.415323,0.35344248,-0.25048522,0.409384,0.47674863,-0.36625162,0.492187,0.41275834,-0.32796145,0.451807,0.3765965,-0.29746045,0.431148,0.35813622,-0.28326218,0.424841,0.47062672,-0.38826063,0.5092,0.42039966,-0.34521925,0.472904,0.40184319,-0.31823088,0.456228,0.39140606,-0.30115475,0.450559
0.49314337,-0.33837617,0.552178,0.48611041,-0.34124755,0.515896,0.50150408,-0.32221442,0.53656,0.50514205,-0.30173112,0.505266,0.49932827,-0.28141014,0.477426,0.49755084,-0.27490908,0.458483,0.48769147,-0.3240756,0.471645,0.45787375,-0.31556787,0.432378,0.44479279,-0.30746287,0.412744,0.41585953,-0.28604913,0.394895,0.47840301,-0.34570485,0.479423,0.43020063,-0.3176821,0.437586,0.39089123,-0.28794978,0.41318,0.37230319,-0.27158151,0.408408,0.4699106,-0.36339088,0.488749,0.40480083,-0.30961399,0.447892,0.3736676,-0.28002524,0.426988,0.36088875,-0.2603512,0.421601,0.45845763,-0.38135246,0.505227,0.41369223,-0.34092069,0.469302,0.39619467,-0.31434097,0.452796,0.38826884,-0.29744233,0.448048
0.50148449,-0.33941158,0.555979,0.48851225,-0.34255039,0.51842,0.51046301,-0.32373177,0.539812,0.5131652,-0.30727282,0.507677,0.51125013,-0.29414119,0.480208,0.51071477,-0.29337433,0.462488,0.48250332,-0.32630104,0.472613,0.45766388,-0.31461158,0.432479,0.4437949,-0.30580922,0.412412,0.41262536,-0.2811387,0.394169,0.46898662,-0.34355617,0.480663,0.42020062,-0.31391751,0.438548,0.38349963,-0.27852704,0.413981,0.36785156,-0.2591619,0.407799,0.45928892,-0.35750099,0.490316,0.39997791,-0.29863832,0.448899,0.37191304,-0.26644909,0.427709,0.36251162,-0.24688105,0.420736,0.45049133,-0.37345103,0.507372,0.40308161,-0.33343689,0.470964,0.39001239,-0.30645496,0.454236,0.38770403,-0.29364029,0.448266
0.48859,-0.37776501,0.548223,0.47139509,-0.35947202,0.506942,0.50015883,-0.36194673,0.537856,0.50801236,-0.33417032,0.512787,0.5129681,-0.30962502,0.490027,0.51629268,-0.29807257,0.47113,0.47377827,-0.32719158,0.4658,0.44596822,-0.30620768,0.425701,0.43124641,-0.29450777,0.405651,0.40604313,-0.2697055,0.387424,0.45412732,-0.34109165,0.465443,0.40773886,-0.29130589,0.424184,0.36843234,-0.25463669,0.400116,0.34481679,-0.23402054,0.386066,0.43913747,-0.35413922,0.468477,0.38253795,-0.28885259,0.430896,0.35356598,-0.26181089,0.411669,0.33654059,-0.24265554,0.397255,0.42366471,-0.37245744,0.478248,0.38304496,-0.31379412,0.445713,0.3699465,-0.2897003,0.430765,0.36168858,-0.27369774,0.41928
0.49057103,-0.37944244,0.549776,0.47199275,-0.36108618,0.508859,0.50220187,-0.36435,0.53927,0.5101372,-0.33752252,0.514365,0.51512532,-0.31639286,0.491179,0.51588714,-0.30012695,0.472362,0.47365884,-0.32967386,0.467794,0.44018342,-0.3076564,0.427345,0.42377907,-0.29480813,0.40712,0.40318268,-0.26959692,0.388734,0.45339156,-0.34267446,0.467726,0.40760332,-0.29181659,0.427155,0.37007668,-0.25474838,0.403489,0.34673054,-0.23312784,0.388867,0.43800847,-0.35496354,0.47097,0.38240806,-0.29125386,0.433939,0.3575892,-0.26062616,0.414993,0.33538076,-0.23871211,0.399941,0.41859429,-0.37019057,0.480934,0.38531598,-0.3121929,0.448978,0.37179138,-0.28919265,0.434295,0.36182831,-0.27167579,0.422355
0.49100487,-0.38070489,0.550749,0.47264579,-0.36268455,0.511959,0.50290151,-0.36651019,0.540366,0.51206649,-0.34332928,0.516785,0.51714882,-0.32065301,0.494213,0.51392419,-0.30661618,0.4752,0.46874113,-0.33190142,0.472502,0.43431569,-0.30414185,0.431876,0.41649869,-0.28887464,0.411563,0.39279561,-0.260948,0.393097,0.44647065,-0.34112804,0.472965,0.40488703,-0.28615595,0.435756,0.37399805,-0.24972267,0.414051,0.3522478,-0.22712089,0.397702,0.42972718,-0.35040724,0.476474,0.38418125,-0.2865902,0.442397,0.36269596,-0.25789051,0.424962,0.34269273,-0.23701808,0.408,0.41299381,-0.36445259,0.486434,0.38519586,-0.30626544,0.457366,0.37605692,-0.28608368,0.44401,0.36706337,-0.27158691,0.430735
0.49007944,-0.38173827,0.549388,0.47226386,-0.36332871,0.513308,0.50275094,-0.37152027,0.53938,0.51122075,-0.35227264,0.516903,0.51685017,-0.32987118,0.495659,0.51463385,-0.31288656,0.47805,0.47029675,-0.33511757,0.476173,0.43274493,-0.29483249,0.436834,0.41498883,-0.27445178,0.417165,0.39619613,-0.2446641,0.399283,0.44409587,-0.33712836,0.477039,0.41177502,-0.27126625,0.44356,0.39228874,-0.23527996,0.424031,0.37370698,-0.21745519,0.406594,0.42606835,-0.34028888,0.48066,0.40195251,-0.27825459,0.449904,0.38766633,-0.24805196,0.434169,0.36686599,-0.2232368,0.415983,0.4082488,-0.3477932,0.490348,0.39029358,-0.29423323,0.464425,0.37203329,-0.2888446,0.452515,0.35583282,-0.29174099,0.438415
0.47629106,-0.38710216,0.539465,0.45352215,-0.3620431,0.507101,0.48639323,-0.38765997,0.53229,0.49816329,-0.35793106,0.514686,0.50984282,-0.33411259,0.500608,0.51014317,-0.31747163,0.485941,0.46537269,-0.33414109,0.476032,0.4310864,-0.30237725,0.435837,0.41413274,-0.27576464,0.415739,0.39540078,-0.24563027,0.397469,0.43681627,-0.3299862,0.474568,0.41464575,-0.27069821,0.446223,0.39821597,-0.23714392,0.429688,0.37883319,-0.22059975,0.411733,0.41690921,-0.330391,0.475972,0.40455034,-0.27324044,0.450057,0.39110498,-0.24771915,0.436798,0.37010428,-0.22380973,0.418047,0.39598105,-0.33565871,0.482478,0.39205226,-0.28715688,0.461382,0.38837939,-0.26576029,0.451689,0.3778524,-0.24471537,0.437389
0.47283722,-0.38903805,0.537849,0.45222618,-0.36223644,0.507114,0.4853549,-0.38814857,0.531503,0.49805332,-0.3598412,0.514143,0.50890795,-0.33901513,0.497525,0.50864213,-0.32403102,0.481659,0.46238717,-0.33307781,0.47819,0.4295534,-0.29984246,0.438542,0.4121956,-0.26794802,0.418718,0.39269085,-0.24212967,0.400696,0.4358006,-0.33010131,0.476217,0.41268855,-0.26887324,0.449959,0.40116509,-0.23914515,0.434641,0.38206553,-0.22209674,0.41658,0.41536186,-0.33024881,0.477071,0.40505816,-0.27422533,0.453498,0.39407559,-0.24916712,0.441437,0.37331843,-0.22571834,0.422683,0.39390166,-0.33522274,0.482682,0.39090811,-0.28784681,0.463441,0.38840638,-0.26709504,0.454601,0.37852263,-0.24605337,0.440276
0.46569213,-0.39403907,0.536719,0.45107443,-0.36315891,0.50855,0.48254553,-0.38862462,0.530962,0.49614483,-0.36341334,0.515083,0.50856139,-0.34143863,0.500362,0.50911088,-0.32549677,0.485667,0.4608261,-0.33380514,0.482114,0.43063595,-0.30044547,0.442436,0.41354723,-0.26838091,0.422598,0.39426409,-0.24300491,0.404562,0.43419782,-0.33057749,0.480233,0.41706169,-0.27197611,0.457091,0.40424116,-0.2420509,0.443591,0.38787327,-0.22578435,0.425365,0.41365402,-0.33056717,0.480956,0.40671938,-0.27627969,0.460589,0.39492376,-0.25128547,0.450168,0.37651756,-0.23055267,0.431313,0.39193878,-0.3354324,0.486028,0.39100799,-0.28997171,0.469377,0.39016466,-0.2702155,0.461727,0.38106736,-0.24933512,0.447309
0.46423197,-0.3949324,0.537177,0.44850064,-0.36406495,0.510004,0.48117863,-0.38951977,0.531542,0.49311932,-0.36514037,0.516805,0.50573492,-0.34293996,0.502194,0.50888795,-0.32613916,0.487584,0.45857782,-0.33402848,0.484401,0.42932323,-0.2978204,0.44542,0.41105568,-0.26279567,0.42593,0.39540633,-0.24305571,0.407672,0.43218703,-0.33057917,0.482687,0.41669485,-0.27247849,0.460716,0.40654977,-0.24395237,0.4479,0.38830969,-0.22659971,0.429632,0.41172802,-0.33044322,0.483468,0.40626737,-0.2768406,0.464126,0.3970036,-0.25319004,0.45423,0.37818709,-0.23297726,0.435301,0.38992017,-0.33526223,0.488458,0.39031541,-0.29078144,0.472751,0.38956836,-0.27151725,0.465535,0.38191352,-0.25143742,0.451088
0.47077635,-0.40151972,0.545786,0.45116389,-0.36667541,0.513931,0.48663803,-0.39485068,0.538611,0.49661785,-0.36757454,0.520753,0.50803769,-0.34426632,0.504851,0.51136866,-0.32585128,0.490218,0.45709946,-0.33280683,0.483209,0.42725655,-0.29441951,0.444752,0.4119863,-0.26482654,0.425523,0.39201081,-0.23769768,0.407132,0.43115659,-0.32976081,0.481909,0.41023654,-0.26835592,0.454184,0.39514045,-0.23837622,0.438011,0.37720335,-0.22259918,0.419968,0.41136434,-0.33021725,0.483407,0.4009478,-0.27337799,0.458639,0.3887497,-0.24896472,0.445966,0.36761995,-0.23110205,0.427293,0.39083902,-0.336234,0.489948,0.38706743,-0.28862025,0.469343,0.38416754,-0.26816833,0.459875,0.37427765,-0.24823751,0.445506
0.46295603,-0.39520755,0.5374,0.44765658,-0.36369274,0.510594,0.479695,-0.38950066,0.531627,0.49267752,-0.36427099,0.516963,0.50548635,-0.34220241,0.50281,0.50608255,-0.32567805,0.488453,0.45841821,-0.33314407,0.48507,0.42886766,-0.29460277,0.44697,0.41274974,-0.26340055,0.42792,0.3948828,-0.2383503,0.410602,0.43226668,-0.33005443,0.483647,0.41677405,-0.27214768,0.462078,0.40486054,-0.24413474,0.449496,0.38667181,-0.22862112,0.431189,0.41198621,-0.33021788,0.484637,0.40713246,-0.2770655,0.465573,0.39735176,-0.25414242,0.455819,0.37557883,-0.23668163,0.436818,0.39037112,-0.33540057,0.48982,0.3908018,-0.29104122,0.474389,0.38847074,-0.2716517,0.4673,0.37918486,-0.25214366,0.452811
0.47021213,-0.40166156,0.546317,0.45075664,-0.36612259,0.514572,0.48580517,-0.39466727,0.538906,0.49645242,-0.36682766,0.521131,0.50782394,-0.34358243,0.505434,0.50793517,-0.32725994,0.490422,0.45679525,-0.33159196,0.483632,0.42752272,-0.29321675,0.445838,0.4115254,-0.26218982,0.426941,0.393841,-0.23717779,0.409762,0.4311185,-0.32884521,0.48266,0.41006931,-0.26748332,0.455032,0.39495696,-0.23810119,0.438916,0.37701755,-0.22316674,0.42082,0.41154647,-0.32956649,0.484419,0.40201463,-0.27326797,0.459637,0.38963512,-0.24901145,0.446958,0.36802566,-0.23226165,0.428195,0.39129339,-0.33593379,0.491253,0.38747942,-0.28835064,0.470664,0.38312272,-0.26776488,0.461205,0.37340642,-0.24868592,0.446775
0.46258138,-0.39533508,0.537816,0.44731184,-0.3632616,0.510953,0.47915541,-0.389417,0.531905,0.49229702,-0.36360218,0.516906,0.50468086,-0.34132145,0.502504,0.50495521,-0.32559885,0.487665,0.45811769,-0.33230273,0.485219,0.42873834,-0.29377235,0.447268,0.41265915,-0.26265366,0.428292,0.3949295,-0.237506,0.411041,0.43209123,-0.32936496,0.483948,0.41637638,-0.27140354,0.462293,0.40436987,-0.24373378,0.44966,0.38619643,-0.2287731,0.431336,0.41192812,-0.32967265,0.485068,0.40750518,-0.27678705,0.465858,0.39754893,-0.25393583,0.45603,0.37549094,-0.2372046,0.436991,0.390479,-0.33506223,0.490414,0.39078064,-0.29066192,0.474881,0.3883839,-0.27135256,0.467744,0.37831526,-0.25221491,0.453232
0.45213477,-0.39113644,0.531121,0.4321461,-0.36344704,0.511259,0.46279254,-0.38816139,0.526693,0.47778864,-0.36802932,0.518541,0.49620598,-0.35086352,0.507945,0.49730885,-0.33568458,0.491953,0.45391521,-0.33816302,0.49216,0.42924173,-0.29447714,0.456668,0.42076592,-0.26726001,0.438923,0.40526201,-0.24271238,0.42279,0.42872807,-0.33319988,0.491293,0.41394676,-0.29868529,0.455635,0.40171499,-0.25968806,0.434834,0.38377266,-0.23889891,0.417984,0.40826078,-0.33158547,0.492181,0.41969938,-0.28536284,0.480262,0.41326983,-0.26396431,0.474165,0.39117715,-0.24706316,0.45535,0.38479934,-0.33426475,0.496204,0.39360488,-0.2953861,0.487243,0.39936787,-0.2792003,0.483126,0.38953576,-0.26072339,0.468943
0.45054643,-0.39165656,0.531577,0.43243011,-0.3636859,0.511595,0.46046361,-0.38881285,0.527216,0.47828988,-0.36841542,0.519085,0.49662311,-0.35115847,0.508372,0.4981125,-0.33622705,0.492748,0.45422694,-0.33839526,0.492498,0.42969478,-0.29478795,0.45715,0.42043,-0.26734818,0.439476,0.40522052,-0.24270068,0.423409,0.42891569,-0.33334569,0.491508,0.41374053,-0.29853648,0.455408,0.40126786,-0.25939901,0.43435,0.38346324,-0.2387063,0.417647,0.40836281,-0.33166834,0.492304,0.41944179,-0.28540825,0.480316,0.41321898,-0.26392186,0.474183,0.39113689,-0.2469996,0.455381,0.38482493,-0.33428698,0.496237,0.39357338,-0.29536246,0.487204,0.39865667,-0.27902803,0.483053,0.38902004,-0.26052621,0.468875
0.45030136,-0.39277702,0.533077,0.43282415,-0.36398445,0.512787,0.45594831,-0.39002556,0.528494,0.47695742,-0.36654553,0.518526,0.49406708,-0.34604927,0.509243,0.49798816,-0.33502079,0.493956,0.45360762,-0.33834426,0.493203,0.42418831,-0.29285348,0.457489,0.41082786,-0.26923636,0.439632,0.40067984,-0.24099124,0.423399,0.42832945,-0.33321926,0.49239,0.41386032,-0.29844663,0.457056,0.39629621,-0.25880522,0.436444,0.37658817,-0.24564901,0.419502,0.40791123,-0.33151828,0.493357,0.41643842,-0.28489093,0.480968,0.41275212,-0.26377803,0.47463,0.39113625,-0.24700389,0.455767,0.38470904,-0.33417343,0.497538,0.39411859,-0.29513327,0.48816,0.39671108,-0.27814119,0.483852,0.3894156,-0.26049267,0.469623
0.44916075,-0.39285834,0.53317,0.43255094,-0.3638773,0.512773,0.45580746,-0.38996344,0.528384,0.4769885,-0.36628339,0.518778,0.49597605,-0.34921591,0.509096,0.49846378,-0.33490578,0.494648,0.45275804,-0.33833838,0.492864,0.42340568,-0.29997631,0.456487,0.40992598,-0.27008556,0.438299,0.39853016,-0.24131649,0.421764,0.42766104,-0.33313464,0.49227,0.41305107,-0.29824387,0.456791,0.39654902,-0.25959343,0.436096,0.37693005,-0.24622123,0.419169,0.40742966,-0.33136778,0.493425,0.41832721,-0.28504686,0.480827,0.41276713,-0.26367436,0.474382,0.3908203,-0.24675601,0.45547,0.38451564,-0.33394488,0.497845,0.39443816,-0.29494717,0.488297,0.39885891,-0.2787486,0.48391,0.38947353,-0.2602118,0.469646
0.44722692,-0.39288255,0.533253,0.43242279,-0.36384314,0.512807,0.45585149,-0.39003617,0.528467,0.47699964,-0.36612039,0.518921,0.49611188,-0.34908065,0.50937,0.49877102,-0.3348512,0.495085,0.4524341,-0.33847385,0.492863,0.42325449,-0.29986919,0.456324,0.40981223,-0.27048971,0.438055,0.39786758,-0.24188947,0.421446,0.42730869,-0.33312175,0.492254,0.4125712,-0.29812614,0.456638,0.39652613,-0.25978616,0.435862,0.37697046,-0.24636398,0.418976,0.40708735,-0.33123399,0.493401,0.41792032,-0.28492046,0.480759,0.41218979,-0.26342444,0.47429,0.39027848,-0.24681542,0.455377,0.38423756,-0.33366705,0.497819,0.39450961,-0.29474511,0.48823,0.39873441,-0.27849378,0.483825,0.38943088,-0.2599274,0.469557
0.44512929,-0.39238181,0.532949,0.43241572,-0.36353992,0.513125,0.45581217,-0.38968915,0.528699,0.47637719,-0.36429339,0.519697,0.49580989,-0.34712844,0.51084,0.49833071,-0.33269455,0.496577,0.4533623,-0.33872395,0.494273,0.42404028,-0.29800813,0.457354,0.41044334,-0.27092298,0.438895,0.39798594,-0.24248195,0.422114,0.42778191,-0.3331271,0.493196,0.41198162,-0.29696049,0.457641,0.39738985,-0.25936656,0.436901,0.37787447,-0.2455789,0.420048,0.40718333,-0.33102075,0.493908,0.41506344,-0.28378114,0.482122,0.41182706,-0.2623632,0.476092,0.39084668,-0.24271325,0.457321,0.38386995,-0.3331522,0.497718,0.39470854,-0.29467074,0.488859,0.39798286,-0.27776854,0.484788,0.3895848,-0.25954676,0.470636
0.44500286,-0.39250974,0.533782,0.44597875,-0.36237938,0.51327,0.46325264,-0.38883104,0.529867,0.48524982,-0.35701403,0.521497,0.50495572,-0.3379122,0.515543,0.50801106,-0.32269647,0.502834,0.46438142,-0.33572288,0.494365,0.43353657,-0.29713815,0.456901,0.4126722,-0.26927479,0.43817,0.39927312,-0.24196458,0.421141,0.435054,-0.33310596,0.49265,0.41578212,-0.29777993,0.456485,0.39674711,-0.25799387,0.435389,0.37933684,-0.24271537,0.41882,0.41391519,-0.33233185,0.492892,0.41698938,-0.28401489,0.480669,0.41213671,-0.26226523,0.474416,0.39179194,-0.23774752,0.455715,0.39035504,-0.33595735,0.496248,0.39531967,-0.29449305,0.486947,0.39740402,-0.27728705,0.482674,0.38778763,-0.25813378,0.468552
0.45443461,-0.38771438,0.529602,0.45206024,-0.35591556,0.508991,0.47415266,-0.38146681,0.524605,0.49122001,-0.34353304,0.512093,0.50395901,-0.31824603,0.503416,0.50498111,-0.30087678,0.491512,0.46390591,-0.32105695,0.488673,0.42834211,-0.28465343,0.451071,0.40841887,-0.25731586,0.43227,0.38940475,-0.2334353,0.415178,0.43822084,-0.32313817,0.488271,0.41632713,-0.28446986,0.452269,0.39373346,-0.24625438,0.431268,0.37657989,-0.23647492,0.414473,0.4160485,-0.32988677,0.489603,0.41202604,-0.2804322,0.476695,0.40765963,-0.25510656,0.47009,0.38677778,-0.23451696,0.451126,0.39427104,-0.33664091,0.494264,0.3938512,-0.29353191,0.484453,0.39484476,-0.27556086,0.479945,0.38510593,-0.25619499,0.465639
0.4620177,-0.38683409,0.529236,0.45257653,-0.35505355,0.509276,0.47908744,-0.37893102,0.525314,0.49127303,-0.34144485,0.512834,0.50191553,-0.31239198,0.504512,0.50326793,-0.29741926,0.491791,0.46537175,-0.32060912,0.490739,0.44430962,-0.28139089,0.453987,0.42119089,-0.25139902,0.435611,0.39800606,-0.24034825,0.418906,0.43875636,-0.32288723,0.489211,0.41657574,-0.28421473,0.453662,0.39322342,-0.24624365,0.432925,0.37314654,-0.23240274,0.416135,0.41706135,-0.32859025,0.489563,0.41188256,-0.27883302,0.477664,0.40423409,-0.25407263,0.471576,0.38285355,-0.23357092,0.452832,0.39480398,-0.33667979,0.492966,0.39268131,-0.29311634,0.484122,0.3937589,-0.27529624,0.480058,0.3832656,-0.2562399,0.465957
0.4672522,-0.38529639,0.529294,0.45246707,-0.35558602,0.508373,0.48249735,-0.37606519,0.523685,0.48830345,-0.33974127,0.510105,0.50219941,-0.3152358,0.504263,0.50133641,-0.29498831,0.494247,0.46493622,-0.33138978,0.48708,0.44654804,-0.2836662,0.450288,0.43717602,-0.26004571,0.431892,0.42104156,-0.23193345,0.415168,0.43937715,-0.33104696,0.487341,0.41955542,-0.27799832,0.457809,0.40065205,-0.25236072,0.440582,0.38024003,-0.24812163,0.422489,0.41974713,-0.33295393,0.489243,0.40708001,-0.27957236,0.475416,0.39816375,-0.25403246,0.468342,0.38235755,-0.23239577,0.449157,0.39819969,-0.33874496,0.494626,0.39187149,-0.2928672,0.484303,0.39245361,-0.27525813,0.479559,0.38330721,-0.25535624,0.465153
0.46801968,-0.38506517,0.529799,0.45265773,-0.35577217,0.508389,0.48273796,-0.37609148,0.523576,0.48695091,-0.33910869,0.509178,0.50031532,-0.31618274,0.50253,0.49856408,-0.2952031,0.49184,0.46319294,-0.32949951,0.485999,0.4432554,-0.28078462,0.449594,0.43553684,-0.25824354,0.431392,0.41964537,-0.2303668,0.414844,0.43823818,-0.32954665,0.486866,0.41959722,-0.27805625,0.460755,0.40344065,-0.25342057,0.445523,0.38440908,-0.24833964,0.427125,0.4185368,-0.32950868,0.489306,0.40462282,-0.27843072,0.474675,0.3966261,-0.25335414,0.467189,0.38155203,-0.23190856,0.447878,0.39881858,-0.33884287,0.4954,0.39188533,-0.29287724,0.484408,0.39052108,-0.2745711,0.479358,0.38266571,-0.25484441,0.464854
0.48582954,-0.37122556,0.524814,0.46684429,-0.34892551,0.504265,0.5012615,-0.36707579,0.520051,0.5048502,-0.32831566,0.508253,0.51625961,-0.30041416,0.508755,0.51293894,-0.27823713,0.504107,0.47483928,-0.32771668,0.48428,0.46527776,-0.28129476,0.472737,0.46041184,-0.25994528,0.466965,0.44528088,-0.24960275,0.449402,0.4477623,-0.32587695,0.483608,0.4150619,-0.27482887,0.451636,0.4000642,-0.24575153,0.432986,0.38528782,-0.24085524,0.415301,0.42761426,-0.32626216,0.484712,0.40805834,-0.27519671,0.47171,0.40509032,-0.25212051,0.465057,0.39248324,-0.22985525,0.446061,0.40761498,-0.33016978,0.489094,0.38839584,-0.28993966,0.479429,0.39038668,-0.2714058,0.474988,0.38030831,-0.25196125,0.46072
0.48502665,-0.37064276,0.523756,0.46542904,-0.34788852,0.502539,0.49946816,-0.36577321,0.517969,0.5104075,-0.33188705,0.513604,0.51810454,-0.30139999,0.510314,0.5143739,-0.27919623,0.506162,0.47169576,-0.32552948,0.480825,0.46041457,-0.27732096,0.46801,0.45471467,-0.25504911,0.461603,0.43888295,-0.2401173,0.443786,0.44573289,-0.32440817,0.481211,0.41392468,-0.2740393,0.450199,0.39942664,-0.2452963,0.432109,0.38443085,-0.24026708,0.414202,0.42646169,-0.32541459,0.483239,0.40766592,-0.27572873,0.469335,0.4018921,-0.2506463,0.462221,0.39105734,-0.23125905,0.443082,0.40748277,-0.33012493,0.488816,0.38867043,-0.28949556,0.478173,0.38957182,-0.27050984,0.473283,0.37913877,-0.25069481,0.45884
0.50721415,-0.35440136,0.520538,0.46494328,-0.33794061,0.490447,0.50958697,-0.3521974,0.507097,0.49169064,-0.31534499,0.478374,0.47747178,-0.28410064,0.455146,0.46281851,-0.26518448,0.440607,0.43893429,-0.32440098,0.453142,0.42174288,-0.26662715,0.426985,0.41625339,-0.23921164,0.413907,0.40654233,-0.22143624,0.395726,0.42202964,-0.32152422,0.460198,0.39713401,-0.26600884,0.432882,0.3937985,-0.24555374,0.416948,0.38048167,-0.24359768,0.399075,0.41293985,-0.31714857,0.468431,0.37039545,-0.28112293,0.441388,0.36949748,-0.25391009,0.427552,0.36479025,-0.23987888,0.40825,0.40707775,-0.32221568,0.482687,0.37594577,-0.29245186,0.460618,0.37517298,-0.27092165,0.450479,0.37486579,-0.25386297,0.441532
0.52003048,-0.35270245,0.531726,0.48066858,-0.33854664,0.496845,0.52863289,-0.34472224,0.519743,0.51818514,-0.30045683,0.501296,0.5140109,-0.27071599,0.503348,0.50089871,-0.26306733,0.50745,0.46089277,-0.33761993,0.458075,0.43510169,-0.27634045,0.429003,0.42080768,-0.24852119,0.414467,0.40442201,-0.22441187,0.397018,0.43907017,-0.33393642,0.461781,0.41694688,-0.26838458,0.429313,0.40351098,-0.23269652,0.410373,0.39084639,-0.21143909,0.3927,0.42488701,-0.33138887,0.467643,0.39634177,-0.27742417,0.436921,0.39141096,-0.25001288,0.421202,0.38100837,-0.23943293,0.402483,0.4147776,-0.32927958,0.479807,0.37291539,-0.28959965,0.454147,0.37014548,-0.26704792,0.442357,0.36935362,-0.24915654,0.431954
0.52261623,-0.34400269,0.537467,0.48329506,-0.33943045,0.50012,0.53199279,-0.34459077,0.526662,0.51375104,-0.29497075,0.508387,0.50265056,-0.26763021,0.51083,0.48843535,-0.25123774,0.510641,0.47243251,-0.33553528,0.461125,0.44256493,-0.27403005,0.430615,0.42756901,-0.24503337,0.41536,0.41108337,-0.22384345,0.398887,0.44764522,-0.33546164,0.462575,0.41417483,-0.26780073,0.427265,0.39340966,-0.23189346,0.406668,0.37786877,-0.21081965,0.389628,0.43045304,-0.3356354,0.46678,0.39534206,-0.27785286,0.434148,0.38675509,-0.24872577,0.417453,0.37618994,-0.23707448,0.399648,0.41578258,-0.33634549,0.47735,0.37504784,-0.29643743,0.449732,0.36886555,-0.27230851,0.437043,0.36873453,-0.25445422,0.425847
0.52427828,-0.34361414,0.538894,0.48385143,-0.33721998,0.49818,0.53007325,-0.3401384,0.523913,0.5025835,-0.28633387,0.496596,0.47557724,-0.25284629,0.484317,0.45490958,-0.23490475,0.477566,0.47261349,-0.32392459,0.451689,0.42900296,-0.25856254,0.413578,0.40677702,-0.23051419,0.394523,0.3928765,-0.21249422,0.380837,0.45241128,-0.32977668,0.457252,0.40363263,-0.25997346,0.415387,0.37845942,-0.22209563,0.390966,0.36535984,-0.20335288,0.377196,0.43872347,-0.33504742,0.465113,0.39096882,-0.2744805,0.425093,0.37519414,-0.24146702,0.404618,0.36694962,-0.23107854,0.389937,0.42792571,-0.34213993,0.480517,0.38013832,-0.29691286,0.446182,0.37102721,-0.27050719,0.430406,0.36781457,-0.25181877,0.416203
0.52048078,-0.3395339,0.540538,0.48564794,-0.33474545,0.499016,0.5286482,-0.3343616,0.526283,0.49522035,-0.27832983,0.498723,0.46098829,-0.24491282,0.482925,0.43589815,-0.22743435,0.473199,0.47747238,-0.32039225,0.452875,0.43034309,-0.25762655,0.413977,0.40795287,-0.22743149,0.394528,0.39380283,-0.21098364,0.382376,0.45464913,-0.32883633,0.457276,0.40435,-0.25850198,0.413929,0.37689365,-0.22076798,0.388643,0.36391272,-0.20246778,0.376241,0.43997084,-0.33436818,0.464246,0.39434058,-0.27297617,0.423208,0.3736992,-0.23977823,0.402212,0.36499524,-0.2283631,0.389103,0.42742265,-0.3416141,0.478715,0.38013296,-0.29710409,0.443232,0.37199285,-0.271889,0.426767,0.36548638,-0.25057418,0.41224
0.52117391,-0.34053363,0.544351,0.49043239,-0.33360796,0.502351,0.5323811,-0.33587598,0.532553,0.50068098,-0.28254066,0.507707,0.46243093,-0.25131616,0.493855,0.4407548,-0.23105829,0.481123,0.48901116,-0.31488739,0.458939,0.44071193,-0.25229427,0.42125,0.41703848,-0.22314851,0.402405,0.40139291,-0.20979768,0.391259,0.46647301,-0.32247709,0.460131,0.41280034,-0.25380322,0.416515,0.37866247,-0.2334656,0.391072,0.36771625,-0.23692481,0.379247,0.4496243,-0.32933112,0.464498,0.40428281,-0.26914709,0.42422,0.37878555,-0.23805262,0.403612,0.36692856,-0.22356812,0.391423,0.43285616,-0.33852488,0.475955,0.40714272,-0.29865316,0.440864,0.38706098,-0.27127732,0.424741,0.3652891,-0.25020743,0.410514
0.48852452,-0.38024895,0.536458,0.48223869,-0.34037801,0.499507,0.50319267,-0.35872241,0.534947,0.482384,-0.31990396,0.5244,0.46692657,-0.28685641,0.51627,0.45374409,-0.26417915,0.505406,0.49941244,-0.30424028,0.472341,0.47128025,-0.25255171,0.445595,0.45721169,-0.22728672,0.432222,0.43250426,-0.21411861,0.424666,0.47665808,-0.3126161,0.462361,0.42189108,-0.25688232,0.425651,0.38262949,-0.24138836,0.404238,0.37402807,-0.24633144,0.394634,0.4582251,-0.32204864,0.457128,0.40932865,-0.27065034,0.426702,0.38186812,-0.2451964,0.411135,0.36048927,-0.23674935,0.402301,0.43691152,-0.33789877,0.456456,0.41802642,-0.28790978,0.429223,0.39101578,-0.27004658,0.41671,0.36806016,-0.26717064,0.405653
0.49062515,-0.37619791,0.535327,0.48158541,-0.34031201,0.498681,0.50224663,-0.3581801,0.534127,0.48037612,-0.32019512,0.523906,0.4612782,-0.28881605,0.516159,0.4501553,-0.26524284,0.505139,0.49889555,-0.30181095,0.472111,0.46969926,-0.2506418,0.445694,0.45275708,-0.22380777,0.432485,0.43044242,-0.21340835,0.425284,0.47693671,-0.31065539,0.461843,0.4211249,-0.25369875,0.425374,0.38174334,-0.24151195,0.404101,0.37381679,-0.24655963,0.394821,0.45913662,-0.32056466,0.456348,0.41205393,-0.27029116,0.426229,0.38140237,-0.24531104,0.410819,0.36042106,-0.23766995,0.402353,0.43852587,-0.33715123,0.45532,0.41843932,-0.28714173,0.428309,0.39107739,-0.2700619,0.415899,0.36834113,-0.26778102,0.404938
0.49751948,-0.38195213,0.544976,0.4909508,-0.34793292,0.508911,0.51198244,-0.36487662,0.544369,0.48778735,-0.32936885,0.534973,0.47104075,-0.30289315,0.530809,0.45962825,-0.27836782,0.521037,0.50499038,-0.30022116,0.483475,0.4776049,-0.25399759,0.457839,0.4625562,-0.22963908,0.445021,0.43782138,-0.2177539,0.438185,0.48415016,-0.30949841,0.472657,0.46606523,-0.26655864,0.436816,0.42017202,-0.24034835,0.41591,0.39842685,-0.23839696,0.406934,0.46744431,-0.32013805,0.466662,0.47345562,-0.28415446,0.437236,0.44164997,-0.25956885,0.422181,0.4157695,-0.25696905,0.416381,0.44950127,-0.34130042,0.464955,0.40196794,-0.28846095,0.438547,0.38730236,-0.27384698,0.426414,0.38576212,-0.27493892,0.419579
0.48903349,-0.3776437,0.539184,0.48697701,-0.34464574,0.504591,0.50494599,-0.36143337,0.539174,0.47019858,-0.33078379,0.529249,0.45040285,-0.30056985,0.520785,0.438849,-0.27756603,0.509344,0.50182227,-0.29692007,0.480906,0.47163064,-0.24957706,0.455473,0.45656594,-0.22617931,0.442756,0.43721735,-0.21802428,0.438868,0.48754842,-0.30663674,0.469817,0.46360882,-0.26271702,0.434171,0.41720761,-0.23927359,0.413378,0.3977504,-0.23989966,0.407351,0.47618184,-0.31920119,0.46348,0.4591572,-0.28332512,0.431289,0.4209536,-0.26334624,0.414819,0.39821749,-0.25985278,0.40894,0.46257341,-0.33999697,0.461148,0.44599649,-0.29971469,0.434607,0.41601404,-0.28663886,0.422413,0.40055965,-0.28879162,0.417897
0.48590053,-0.37730475,0.536451,0.48593492,-0.34359335,0.503594,0.49741205,-0.35957871,0.535552,0.46236624,-0.32803074,0.522939,0.43436044,-0.29993429,0.509466,0.41882243,-0.27852934,0.495915,0.49078449,-0.28708569,0.479991,0.45627616,-0.24558374,0.453619,0.43903836,-0.2248886,0.440433,0.42168802,-0.22557628,0.439666,0.48758623,-0.30405689,0.470564,0.46496009,-0.25914016,0.434822,0.4182721,-0.24081585,0.413972,0.40094448,-0.24603801,0.411325,0.48363444,-0.31605953,0.465456,0.45905302,-0.26797019,0.435623,0.43723789,-0.24694832,0.42036,0.42561578,-0.23768089,0.418815,0.47966881,-0.34054343,0.464319,0.45996041,-0.29442029,0.436938,0.44688617,-0.27447431,0.424357,0.42687799,-0.26189028,0.413257
0.48486939,-0.37793988,0.534626,0.48571007,-0.34318206,0.503193,0.49778053,-0.36063199,0.535799,0.46161206,-0.34057545,0.526612,0.43291037,-0.31559563,0.515558,0.41727573,-0.29347792,0.50354,0.4916496,-0.28765017,0.483141,0.45132507,-0.24593307,0.4596,0.43239115,-0.22583007,0.44783,0.41434457,-0.22791881,0.447172,0.48608602,-0.2997476,0.471595,0.45394879,-0.24813838,0.438023,0.40855027,-0.24119816,0.41844,0.39587428,-0.2511984,0.415648,0.48037074,-0.31106,0.464628,0.46017245,-0.260592,0.437465,0.4367398,-0.24015056,0.423567,0.42420496,-0.23707286,0.422054,0.47625003,-0.33603409,0.461076,0.442269,-0.28969455,0.435969,0.4239231,-0.27120212,0.424432,0.40192853,-0.26070676,0.414254
0.48528172,-0.38035073,0.535198,0.48798919,-0.34488148,0.506906,0.48692384,-0.36570559,0.535583,0.45023556,-0.3473411,0.524252,0.41862737,-0.32097414,0.508744,0.40058311,-0.30044512,0.495051,0.47572151,-0.28317253,0.488025,0.45063437,-0.24355272,0.457551,0.42942583,-0.22406166,0.442314,0.41684177,-0.22677726,0.442833,0.47883086,-0.29331211,0.478466,0.44443403,-0.24455985,0.446275,0.41414404,-0.2236266,0.427497,0.39873654,-0.23153103,0.428323,0.48192811,-0.30589293,0.472881,0.46071502,-0.25862289,0.443177,0.4393988,-0.24168736,0.42798,0.4267123,-0.23766869,0.429137,0.48640426,-0.32878146,0.470497,0.47282166,-0.27970165,0.44637,0.45333004,-0.26592305,0.435285,0.43179096,-0.26710373,0.425504
0.48705633,-0.38473828,0.537123,0.48819012,-0.34509318,0.50846,0.48589787,-0.36793397,0.536624,0.44888658,-0.34980923,0.523878,0.41398973,-0.33158051,0.506155,0.39393293,-0.31532876,0.490475,0.47308529,-0.28352892,0.488226,0.4488004,-0.24321635,0.456994,0.42465942,-0.22875028,0.441379,0.40959063,-0.23544412,0.441997,0.47849791,-0.29409943,0.479647,0.44571824,-0.24532994,0.446755,0.41634079,-0.22499505,0.427569,0.40191538,-0.23361712,0.42853,0.4836031,-0.30707237,0.474898,0.46067245,-0.26038094,0.445025,0.43740201,-0.24388583,0.42974,0.42782617,-0.24100826,0.431193,0.49067003,-0.33049985,0.47356,0.46518881,-0.28308116,0.447935,0.44409604,-0.27334551,0.436161,0.42436651,-0.27697347,0.425773
0.4920509,-0.38974141,0.542789,0.48600539,-0.34664345,0.513693,0.48062171,-0.37303763,0.538411,0.43973647,-0.35358363,0.51976,0.40295416,-0.33155723,0.49754,0.38431384,-0.31106235,0.480797,0.45721361,-0.28381787,0.488338,0.42368909,-0.24440321,0.460163,0.40692474,-0.22469025,0.446075,0.40042118,-0.23226356,0.448962,0.47272279,-0.29510323,0.484444,0.45916553,-0.24293499,0.455088,0.44291831,-0.22138156,0.437964,0.44285311,-0.22368322,0.443127,0.48928896,-0.3105706,0.483586,0.46255868,-0.26497902,0.452409,0.44093833,-0.24982926,0.436458,0.43795205,-0.24876427,0.438963,0.50479708,-0.33255228,0.486921,0.48955519,-0.28608649,0.464671,0.48000052,-0.26803416,0.454447,0.46623911,-0.26323144,0.445427
0.49074492,-0.39087045,0.541207,0.4863573,-0.34794433,0.516125,0.47681333,-0.37282656,0.53598,0.43516515,-0.35363289,0.516176,0.39443009,-0.33216961,0.492024,0.37618814,-0.31203612,0.475787,0.44717131,-0.28980175,0.492459,0.41696929,-0.24374302,0.465588,0.40066727,-0.22562717,0.452152,0.40403218,-0.23636548,0.457114,0.4686102,-0.29743885,0.49091,0.45119266,-0.24119456,0.462506,0.43657972,-0.22121254,0.445937,0.44385318,-0.21533299,0.452117,0.4874661,-0.30778417,0.491658,0.46036216,-0.25318488,0.462827,0.4442187,-0.23528306,0.448077,0.44686889,-0.23416243,0.453092,0.51191947,-0.3276327,0.496296,0.48578257,-0.27940485,0.469671,0.47243786,-0.26544843,0.457438,0.46364845,-0.26274253,0.446645
0.48915721,-0.39316867,0.538313,0.48185553,-0.34642679,0.516416,0.47505285,-0.37348144,0.534292,0.43389613,-0.35758039,0.51632,0.3951387,-0.33920099,0.490757,0.37336126,-0.31670728,0.475708,0.44229692,-0.28837372,0.49643,0.42019448,-0.24621981,0.470812,0.40642361,-0.22661297,0.458004,0.40729382,-0.23121306,0.464141,0.46373426,-0.29227439,0.494403,0.44820911,-0.23765005,0.469632,0.43381459,-0.21739432,0.455183,0.44087055,-0.21097793,0.463086,0.48314102,-0.29979524,0.4945,0.46823695,-0.24554745,0.469215,0.45530396,-0.23053687,0.456278,0.46279092,-0.22610146,0.463804,0.50924769,-0.31688998,0.497891,0.49503409,-0.26859049,0.473434,0.48244091,-0.26299446,0.462197,0.47131452,-0.25807042,0.452282
0.48405458,-0.39013054,0.530669,0.47940645,-0.34516827,0.514455,0.46904219,-0.37297883,0.528796,0.43052402,-0.36643581,0.517013,0.38789871,-0.34673015,0.491753,0.362308,-0.32636751,0.476893,0.44443631,-0.29208068,0.50103,0.42411825,-0.25076136,0.479784,0.41394895,-0.2298822,0.469162,0.39992418,-0.21734017,0.459505,0.46553515,-0.29434807,0.498156,0.44661812,-0.23938484,0.475264,0.43382984,-0.21636766,0.46191,0.44493536,-0.21104568,0.470657,0.48424025,-0.30028814,0.497099,0.47155154,-0.24719306,0.474851,0.46091047,-0.23149547,0.463469,0.46977051,-0.22228686,0.472611,0.50875452,-0.31502456,0.498272,0.4993309,-0.2689464,0.478482,0.491866,-0.25335347,0.469389,0.48619176,-0.24161742,0.461367
0.48497395,-0.39047681,0.530415,0.48025462,-0.34579663,0.515849,0.47057854,-0.37325204,0.529085,0.43401255,-0.36993009,0.520861,0.39156297,-0.35453227,0.495477,0.36602594,-0.33726603,0.48186,0.44391772,-0.29528663,0.504219,0.42448396,-0.25221022,0.484123,0.41441401,-0.2317957,0.474076,0.40445968,-0.21667229,0.464942,0.46684813,-0.29589536,0.501195,0.45419639,-0.24460976,0.485664,0.44564178,-0.22146984,0.476604,0.43952983,-0.20450823,0.470133,0.48555138,-0.30103731,0.499881,0.48237646,-0.2532414,0.490172,0.47886162,-0.22948041,0.485205,0.47585499,-0.21582078,0.480689,0.50899634,-0.31272696,0.500503,0.50285949,-0.2682943,0.483811,0.49892555,-0.24728489,0.476142,0.49445551,-0.24248789,0.469374
