sluyters/QuantumLeap/backend/src/datasets/dynamic/HandGestureDataset_SHREC2017_csv/Gesture5/finger_2/subject_24_essai_3_skeletons_world.csv
Wrist_x,Wrist_y,Wrist_z,Palm_x,Palm_y,Palm_z,thumb_base_x,thumb_base_y,thumb_base_z,thumb_first_joint_x,thumb_first_joint_y,thumb_first_joint_z,thumb_second_joint_x,thumb_second_joint_y,thumb_second_joint_z,thumb_tip_x,thumb_tip_y,thumb_tip_z,index_base_x,index_base_y,index_base_z,index_first_joint_x,index_first_joint_y,index_first_joint_z,index_second_joint_x,index_second_joint_y,index_second_joint_z,index_tip_x,index_tip_y,index_tip_z,middle_base_x,middle_base_y,middle_base_z,middle_first_joint_x,middle_first_joint_y,middle_first_joint_z,middle_second_joint_x,middle_second_joint_y,middle_second_joint_z,middle_tip_x,middle_tip_y,middle_tip_z,ring_base_x,ring_base_y,ring_base_z,ring_first_joint_x,ring_first_joint_y,ring_first_joint_z,ring_second_joint_x,ring_second_joint_y,ring_second_joint_z,ring_tip_x,ring_tip_y,ring_tip_z,pinky_base_x,pinky_base_y,pinky_base_z,pinky_first_joint_x,pinky_first_joint_y,pinky_first_joint_z,pinky_second_joint_x,pinky_second_joint_y,pinky_second_joint_z,pinky_tip_x,pinky_tip_y,pinky_tip_z,
0.406088703,-0.368247204,0.557969,0.394955611,-0.31900742,0.541571,0.383699791,-0.352854243,0.552762,0.351518771,-0.337668835,0.535584,0.319651595,-0.318610745,0.509293,0.301576302,-0.29920337,0.492096,0.351684592,-0.265701398,0.52337,0.318401754,-0.227746511,0.503619,0.305217038,-0.215755855,0.493744,0.296735061,-0.204609387,0.484766,0.376683348,-0.265207206,0.52442,0.356812741,-0.217956605,0.504473,0.346577578,-0.199672844,0.492838,0.342470172,-0.18563606,0.484527,0.39873094,-0.268779073,0.526603,0.38607,-0.222510674,0.505983,0.379957537,-0.206741481,0.495433,0.374443756,-0.192158477,0.485842,0.427668236,-0.280536589,0.531652,0.427398956,-0.244479406,0.516049,0.423994662,-0.240363321,0.508881,0.431679389,-0.242687486,0.515239
0.40472274,-0.366512884,0.555279,0.391492671,-0.31585611,0.538586,0.381244478,-0.351309959,0.549024,0.348147116,-0.335076836,0.530607,0.316963249,-0.317550946,0.503964,0.297889976,-0.298722421,0.486715,0.3442303,-0.264908017,0.518875,0.308163374,-0.226705577,0.498276,0.293880192,-0.21306985,0.487976,0.285062743,-0.201287996,0.478613,0.369894899,-0.26332146,0.521127,0.346393827,-0.215254052,0.502098,0.335422214,-0.193972707,0.490998,0.327526596,-0.178480083,0.483069,0.390251697,-0.264052567,0.524324,0.376073289,-0.21872784,0.503622,0.369498941,-0.202171723,0.49303,0.363550922,-0.186864987,0.483401,0.420884622,-0.273616273,0.53062,0.418683064,-0.236222611,0.515782,0.416775818,-0.231142542,0.508965,0.425542826,-0.232266164,0.5155
0.400655649,-0.362005536,0.548615,0.38716073,-0.312251106,0.533518,0.378065752,-0.34864335,0.542019,0.343467745,-0.332578839,0.523432,0.315299573,-0.316545002,0.496249,0.295119385,-0.298824616,0.478497,0.336907073,-0.262849221,0.514528,0.303181154,-0.225777241,0.494632,0.288923116,-0.212230525,0.484685,0.275791034,-0.199727736,0.475641,0.362944468,-0.259956914,0.517729,0.338814537,-0.212877642,0.500519,0.328557742,-0.193725731,0.49048,0.324422523,-0.179129721,0.48331,0.386240544,-0.261393221,0.521578,0.36810078,-0.215044611,0.502203,0.361225319,-0.197724558,0.49229,0.354983077,-0.181699539,0.483278,0.417371391,-0.270314144,0.528408,0.412977597,-0.231085679,0.515143,0.412435664,-0.223339958,0.509048,0.422237273,-0.221722088,0.516103
0.399406734,-0.359774719,0.546065,0.381502996,-0.307890141,0.530628,0.374970057,-0.345488643,0.539013,0.358680406,-0.329841339,0.519872,0.325092396,-0.30552006,0.492613,0.304442341,-0.285527899,0.47881,0.330635912,-0.260603492,0.510828,0.295876404,-0.224537673,0.490451,0.280878046,-0.211009723,0.480263,0.267071217,-0.19853944,0.471001,0.356787148,-0.257174572,0.514482,0.332595422,-0.211184562,0.495215,0.322214764,-0.189542578,0.483975,0.313953967,-0.174841507,0.475947,0.380357471,-0.258125361,0.518732,0.363310432,-0.213193286,0.49894,0.352496232,-0.193276374,0.488814,0.344854784,-0.175379831,0.479609,0.412113195,-0.266409543,0.526088,0.409375673,-0.229450091,0.512641,0.408614321,-0.221000439,0.506463,0.418132312,-0.218683355,0.513399
0.401186667,-0.356892667,0.545985,0.379366111,-0.304306529,0.529305,0.37510738,-0.344538493,0.539536,0.357494201,-0.328766961,0.520902,0.324736584,-0.308065578,0.494025,0.30001506,-0.296155708,0.476522,0.32939401,-0.26002754,0.509363,0.293922986,-0.223691136,0.489107,0.276517989,-0.21027497,0.47898,0.264438547,-0.198033591,0.469773,0.354656082,-0.255484604,0.51186,0.329367229,-0.209556932,0.492316,0.315962565,-0.185488739,0.480915,0.306647086,-0.169260277,0.472771,0.377448077,-0.255462485,0.515257,0.356476939,-0.210126661,0.494452,0.347277528,-0.190343681,0.483807,0.339014202,-0.172446518,0.47413,0.407121591,-0.261233774,0.521789,0.401791882,-0.224891095,0.506673,0.400493557,-0.214903406,0.499728,0.409678173,-0.211702244,0.506155
0.401764979,-0.355741595,0.54658,0.378932699,-0.303032011,0.528873,0.375806513,-0.344302799,0.539882,0.356827434,-0.32815917,0.520839,0.324375943,-0.308676404,0.494122,0.301211483,-0.295152174,0.476955,0.328291101,-0.259359787,0.507886,0.292817845,-0.223170039,0.488221,0.275789202,-0.209918354,0.478388,0.263285392,-0.197903335,0.46945,0.353455497,-0.254542349,0.510354,0.328436516,-0.209106657,0.491566,0.31502411,-0.184962272,0.480606,0.30569283,-0.168505134,0.472778,0.376206145,-0.254276379,0.513809,0.355280514,-0.209418533,0.493333,0.346056867,-0.189650655,0.482857,0.337807674,-0.171845254,0.473334,0.406179658,-0.259808339,0.520563,0.399874508,-0.223585347,0.504767,0.398396647,-0.213297145,0.497509,0.40743089,-0.209980861,0.503649
0.402403595,-0.352409722,0.545989,0.376985609,-0.300034937,0.527399,0.37556002,-0.343015721,0.538982,0.354548862,-0.324670119,0.519488,0.323544553,-0.303711637,0.492839,0.304028483,-0.285135341,0.478277,0.325773171,-0.257640558,0.505397,0.291526704,-0.221871136,0.486557,0.274953253,-0.208409656,0.477137,0.262443683,-0.196845011,0.468574,0.350904397,-0.252488104,0.507957,0.327092015,-0.207799983,0.489712,0.313962567,-0.183742366,0.47907,0.305027788,-0.167699779,0.471468,0.373658777,-0.251889442,0.511558,0.352747567,-0.208013573,0.490185,0.343179364,-0.188294359,0.47925,0.33533727,-0.1708211,0.469309,0.404443218,-0.256650682,0.518619,0.396994702,-0.222719355,0.501726,0.395170502,-0.211849884,0.493964,0.403961235,-0.208422341,0.499666
0.403353396,-0.352302624,0.547746,0.375600825,-0.298466809,0.525862,0.375882228,-0.3421602,0.539733,0.354009554,-0.32349088,0.518763,0.322618644,-0.30288001,0.492639,0.303744529,-0.285031669,0.478348,0.322460346,-0.254381924,0.500251,0.28819325,-0.216796103,0.481281,0.273221277,-0.20291881,0.471795,0.258770482,-0.193798505,0.463172,0.347514103,-0.24903491,0.502973,0.323808424,-0.204578255,0.484677,0.312976839,-0.180174878,0.474004,0.30525788,-0.166315015,0.466381,0.370255014,-0.249010119,0.506973,0.348387882,-0.205215113,0.483838,0.339688039,-0.186886233,0.472001,0.331287824,-0.170227437,0.461241,0.401499054,-0.254388701,0.515001,0.395699534,-0.227647872,0.495072,0.393304078,-0.215863514,0.485916,0.401733127,-0.217272907,0.490266
0.402593381,-0.350525744,0.545341,0.375788397,-0.296222016,0.5229,0.3756276,-0.340506025,0.538238,0.345839326,-0.325087636,0.518258,0.3112993,-0.31077719,0.492651,0.291553792,-0.294185006,0.478696,0.323165089,-0.250741325,0.498022,0.28991542,-0.214037643,0.478465,0.2758884,-0.200430619,0.468687,0.263455487,-0.190330383,0.459797,0.347350987,-0.24481155,0.49943,0.324498627,-0.199126101,0.479445,0.313985411,-0.179125897,0.467787,0.309979951,-0.168935166,0.45946,0.369469367,-0.243793353,0.502394,0.354824017,-0.199157425,0.479209,0.348293722,-0.186250438,0.467346,0.342413943,-0.174317339,0.456562,0.40331421,-0.249375426,0.509277,0.397081395,-0.227528148,0.488865,0.394335719,-0.217348576,0.479486,0.398819341,-0.22690746,0.483683
0.401828329,-0.348900767,0.544041,0.374109031,-0.296667508,0.520337,0.374403098,-0.338777122,0.536449,0.342231008,-0.322746549,0.515811,0.305266373,-0.303304253,0.490612,0.284862223,-0.287208009,0.473202,0.326977658,-0.242842608,0.493947,0.297763844,-0.205608951,0.478657,0.285257456,-0.19455995,0.471013,0.271262446,-0.186858749,0.464063,0.349626479,-0.24190685,0.495545,0.337473601,-0.196149645,0.482049,0.329360114,-0.179054616,0.474177,0.323478832,-0.166385474,0.468554,0.372105609,-0.242844535,0.498767,0.357724862,-0.203552761,0.472153,0.348757195,-0.189955758,0.458536,0.340593272,-0.178121557,0.446158,0.405625698,-0.25538476,0.506145,0.392268255,-0.2391683,0.483269,0.386149656,-0.231766411,0.472758,0.385736896,-0.24211107,0.475655
0.402038474,-0.348606959,0.544583,0.37496698,-0.296673484,0.518493,0.373966657,-0.337839332,0.536141,0.337925513,-0.319991454,0.514383,0.304192207,-0.300906585,0.489685,0.283553706,-0.282113551,0.472723,0.325632628,-0.240687027,0.489341,0.299525634,-0.204541729,0.477149,0.290977566,-0.19340701,0.471053,0.277459888,-0.184092259,0.465511,0.35068885,-0.240147054,0.491206,0.337491631,-0.196231109,0.472172,0.328158635,-0.178102947,0.461069,0.321422093,-0.165869959,0.453138,0.373494588,-0.243945162,0.49484,0.355904729,-0.211531706,0.466273,0.34572554,-0.196653514,0.451658,0.336451503,-0.183337789,0.438371,0.406341218,-0.259250972,0.503065,0.390631753,-0.245443285,0.478709,0.383456836,-0.23908529,0.467518,0.380241382,-0.248873265,0.469507
0.401370149,-0.347960566,0.544334,0.373648026,-0.295560765,0.518132,0.373313697,-0.336877715,0.535836,0.335883669,-0.316614624,0.514008,0.303819024,-0.29289536,0.489969,0.284177612,-0.276069744,0.473129,0.32527444,-0.240027331,0.488829,0.297145941,-0.202474303,0.472978,0.286874246,-0.192535903,0.465053,0.276750712,-0.188524003,0.457848,0.350376559,-0.239789098,0.490727,0.335388108,-0.194904871,0.470439,0.325489486,-0.178031096,0.458605,0.318344239,-0.167516432,0.450151,0.373199035,-0.243847992,0.494398,0.354658088,-0.210800516,0.465725,0.344439843,-0.196021846,0.451056,0.335129943,-0.182799193,0.43772,0.404418423,-0.256770148,0.502682,0.388397279,-0.245785831,0.478252,0.376970933,-0.243253046,0.467028,0.371862531,-0.255009085,0.468971
0.40001318,-0.347803931,0.544259,0.374883044,-0.296028565,0.517677,0.372046564,-0.335998268,0.53555,0.333084073,-0.313765682,0.513464,0.301777426,-0.291486343,0.489315,0.283346096,-0.270921655,0.47306,0.325336267,-0.239340106,0.487842,0.299734698,-0.200073601,0.469649,0.291635009,-0.19083386,0.460553,0.282565952,-0.184711108,0.452283,0.351425662,-0.240265175,0.489876,0.339847097,-0.195309003,0.467442,0.331293989,-0.179774166,0.454356,0.324983216,-0.171063871,0.445009,0.37421909,-0.245464275,0.493688,0.359710507,-0.214412177,0.464767,0.351237178,-0.200080872,0.44997,0.343521607,-0.187275813,0.436518,0.405609181,-0.26103996,0.502198,0.389416568,-0.252381666,0.477515,0.380458581,-0.249316681,0.466174,0.37285163,-0.257465956,0.467958
0.398096439,-0.348451258,0.545005,0.374426699,-0.296294751,0.517767,0.369743983,-0.334951511,0.535139,0.33066297,-0.313567009,0.511723,0.300000896,-0.294387407,0.486603,0.280623663,-0.272919612,0.469861,0.325469712,-0.237711025,0.486026,0.302713835,-0.19760962,0.468281,0.29473652,-0.185818541,0.459409,0.286197519,-0.176852976,0.451343,0.351564382,-0.239868192,0.489278,0.339920722,-0.194657826,0.467318,0.331739985,-0.179412475,0.454507,0.325753148,-0.170816573,0.445357,0.375039641,-0.245984285,0.494146,0.360969902,-0.212239684,0.464572,0.35174117,-0.202045966,0.449441,0.340537701,-0.210123922,0.435686,0.407110796,-0.262607475,0.504007,0.390559097,-0.252627996,0.478635,0.381345733,-0.249335858,0.466977,0.373914676,-0.258246597,0.468356
0.394325685,-0.348397103,0.542137,0.372312775,-0.296508705,0.516035,0.366794036,-0.334046404,0.532838,0.328948378,-0.312859156,0.510112,0.297319884,-0.290536966,0.484953,0.278491938,-0.269532185,0.46811,0.328136205,-0.237244789,0.485811,0.313391903,-0.197514055,0.468457,0.304814129,-0.183451533,0.45978,0.29703483,-0.171313142,0.451892,0.3571238,-0.2433486,0.488735,0.352299384,-0.196743961,0.470464,0.345882475,-0.192382493,0.459806,0.34120457,-0.189938448,0.452194,0.379631625,-0.25195968,0.493241,0.362218182,-0.20993454,0.464471,0.352065178,-0.202597679,0.449751,0.341346287,-0.209919795,0.43637,0.408828622,-0.270374786,0.502502,0.385081285,-0.266002965,0.477859,0.374214168,-0.264817414,0.466536,0.37498816,-0.276428213,0.468394
0.392713663,-0.35029665,0.54258,0.372223426,-0.295924898,0.515003,0.364734887,-0.333717794,0.531918,0.325310957,-0.310656753,0.507613,0.293743106,-0.286419181,0.482374,0.275358288,-0.264442688,0.466003,0.33561148,-0.236006584,0.482032,0.319520661,-0.19449162,0.466454,0.312215115,-0.183562387,0.458665,0.305498889,-0.173332871,0.451585,0.36178121,-0.243753361,0.48616,0.349258123,-0.207794885,0.458458,0.341904496,-0.18769258,0.442298,0.336709237,-0.173185673,0.430755,0.384347382,-0.254395091,0.491776,0.372980123,-0.217917732,0.461813,0.363085175,-0.214641076,0.446484,0.349055588,-0.222427431,0.432548,0.413126769,-0.275137509,0.502575,0.385305089,-0.275781941,0.4768,0.372512517,-0.276100827,0.464958,0.368832777,-0.286773133,0.466073
0.386979771,-0.354944684,0.544153,0.370492652,-0.296013954,0.513668,0.360640394,-0.333025058,0.531654,0.317736329,-0.30101482,0.505298,0.291875593,-0.284376609,0.479694,0.274942351,-0.263522573,0.462851,0.332732158,-0.233081142,0.476336,0.316741426,-0.197584133,0.454409,0.308166325,-0.179854985,0.443446,0.300316627,-0.164776361,0.43348,0.359382682,-0.242564887,0.481784,0.351992982,-0.198251124,0.455581,0.34200857,-0.188450821,0.440297,0.334141136,-0.195355998,0.429379,0.382403481,-0.254675942,0.48872,0.366694243,-0.227085646,0.456205,0.352861695,-0.230538581,0.43957,0.336867786,-0.239103751,0.424447,0.411781383,-0.277256682,0.50152,0.379925843,-0.281464478,0.473876,0.365544255,-0.282084252,0.461175,0.359660414,-0.29189929,0.46084
0.385321803,-0.352516299,0.541173,0.368968984,-0.294048064,0.510535,0.359733479,-0.331791595,0.529376,0.318690492,-0.298392757,0.503754,0.290783882,-0.280918844,0.478585,0.274577905,-0.261975979,0.461343,0.339902094,-0.231977933,0.473964,0.323091238,-0.196984835,0.452161,0.314627776,-0.179430236,0.44126,0.302762535,-0.164237146,0.43135,0.364981174,-0.244029135,0.478491,0.358384261,-0.200104423,0.452717,0.349219007,-0.190719779,0.437683,0.335396655,-0.194316402,0.426944,0.386365809,-0.258079521,0.484681,0.368781501,-0.229646164,0.452221,0.351147236,-0.230734184,0.435614,0.334232356,-0.2389543,0.420516,0.413101831,-0.282603139,0.49662,0.377216086,-0.280899229,0.469091,0.362118613,-0.281276455,0.456442,0.355665934,-0.290827653,0.456215
0.383727744,-0.34985281,0.537923,0.368349789,-0.294212884,0.509086,0.358071711,-0.329886947,0.527341,0.321539264,-0.295918748,0.503072,0.293665355,-0.276839681,0.477946,0.276759919,-0.258300842,0.460215,0.342541776,-0.232571911,0.475311,0.329527844,-0.191106489,0.454135,0.318102592,-0.180255686,0.443546,0.309834812,-0.167757535,0.43392,0.366837623,-0.244523683,0.478926,0.356708088,-0.209337124,0.446357,0.349932999,-0.188619907,0.427358,0.337050673,-0.188518469,0.413788,0.387414101,-0.258412257,0.48422,0.371365484,-0.230662365,0.453301,0.355325681,-0.234027497,0.437481,0.336763774,-0.240939885,0.4231,0.412896633,-0.282580623,0.494827,0.37968796,-0.282342783,0.468476,0.36320396,-0.281687983,0.456369,0.357098688,-0.291993668,0.457057
0.382288271,-0.350441005,0.538502,0.373401621,-0.297544224,0.509192,0.358202025,-0.330031346,0.528821,0.326292068,-0.295243088,0.505543,0.300038788,-0.271591727,0.481375,0.283356874,-0.254124843,0.463818,0.35156011,-0.234879316,0.476196,0.340742398,-0.191846571,0.456138,0.330649171,-0.184560988,0.446109,0.321387908,-0.177836615,0.436992,0.373942388,-0.24811999,0.478537,0.36202635,-0.214432327,0.445739,0.35512725,-0.19471825,0.426607,0.338576095,-0.191450126,0.412941,0.392775956,-0.262993438,0.482821,0.383740433,-0.238624956,0.451755,0.367515654,-0.238152503,0.435861,0.338355158,-0.241904151,0.421412,0.415874731,-0.28818745,0.4923,0.378752982,-0.282198153,0.466013,0.36253328,-0.282396888,0.453935,0.354994023,-0.291017238,0.454598
0.380064742,-0.350182671,0.537944,0.375487705,-0.299448569,0.508938,0.357456045,-0.329238729,0.52885,0.327666822,-0.295069432,0.506246,0.301227472,-0.269475447,0.48233,0.287473855,-0.248158497,0.465937,0.354188144,-0.236664522,0.47689,0.344939629,-0.19526334,0.454008,0.333584987,-0.188861414,0.442567,0.323189648,-0.183000892,0.432166,0.375622145,-0.250311282,0.478602,0.367119858,-0.219069028,0.44612,0.361263949,-0.199530243,0.427173,0.344026514,-0.197058627,0.413639,0.394647384,-0.268170337,0.482345,0.38674723,-0.244166603,0.451568,0.368868953,-0.240586064,0.435822,0.344228539,-0.245139066,0.421507,0.415583229,-0.294181502,0.491136,0.377479961,-0.290394016,0.465185,0.35885024,-0.28935636,0.453261,0.352191592,-0.293693818,0.454121
0.375726778,-0.348129549,0.53444,0.375072028,-0.300676245,0.505903,0.355954473,-0.32741955,0.527307,0.330927174,-0.294011311,0.507017,0.305406954,-0.267027402,0.48395,0.293158979,-0.244757348,0.467905,0.363708942,-0.242308604,0.476621,0.35383052,-0.201515489,0.451989,0.342461741,-0.189403617,0.439673,0.331995715,-0.178402995,0.428476,0.380068282,-0.258685101,0.476056,0.374232368,-0.224213072,0.444286,0.368981269,-0.205649228,0.425753,0.34893485,-0.201003963,0.412516,0.393357496,-0.275743618,0.477887,0.390968054,-0.248247681,0.447573,0.376088591,-0.243118905,0.432064,0.345949568,-0.244817215,0.417965,0.408767004,-0.302762695,0.48434,0.36750665,-0.298265903,0.459319,0.34837159,-0.296584548,0.447822,0.339652711,-0.303670723,0.449048
0.373847004,-0.347500114,0.533518,0.376000117,-0.302790394,0.504835,0.356010603,-0.326094597,0.5269,0.33540037,-0.291583125,0.507236,0.31137153,-0.261179872,0.484739,0.298712425,-0.241074631,0.468418,0.372178938,-0.243268703,0.476087,0.363492544,-0.203495245,0.451417,0.351551567,-0.191306474,0.439082,0.340543802,-0.180231815,0.427868,0.385767558,-0.260927683,0.474835,0.378895842,-0.228031999,0.443074,0.372746758,-0.210112684,0.424546,0.352494619,-0.205002978,0.411312,0.39657597,-0.278970834,0.476113,0.394972883,-0.251731507,0.445755,0.376968325,-0.243449223,0.430222,0.350010192,-0.243839081,0.416102,0.407674626,-0.30413295,0.481932,0.365863005,-0.297612507,0.457051,0.346448766,-0.295017211,0.44562,0.337342096,-0.301239796,0.446814
0.372792652,-0.346864749,0.533525,0.37608939,-0.301014073,0.504508,0.358092224,-0.32200941,0.526655,0.339134753,-0.283496421,0.506684,0.314747771,-0.255279537,0.48422,0.302548521,-0.23487223,0.46802,0.373695188,-0.241759074,0.475208,0.368635846,-0.201980843,0.449933,0.35700367,-0.190073532,0.437296,0.342580674,-0.179311594,0.425808,0.38685911,-0.259959826,0.474159,0.380369914,-0.227988441,0.4421,0.374417057,-0.21057535,0.423399,0.355380783,-0.207436091,0.410042,0.397258625,-0.27835939,0.47563,0.39583687,-0.252106362,0.444973,0.380249466,-0.245325303,0.429289,0.35063036,-0.24373997,0.41503,0.407994454,-0.304819792,0.481728,0.366195291,-0.296966392,0.456598,0.346741347,-0.293761671,0.445053,0.338824336,-0.297491906,0.446102
0.371854274,-0.345756723,0.533286,0.376574435,-0.300844299,0.50427,0.358454205,-0.320918227,0.526317,0.33895889,-0.283161002,0.506224,0.314584583,-0.254828363,0.483622,0.303234151,-0.233693425,0.467592,0.374250685,-0.241182614,0.474847,0.372631099,-0.20241797,0.452894,0.365795334,-0.188366149,0.441917,0.358067606,-0.176314857,0.431939,0.387309816,-0.259584102,0.473922,0.381083825,-0.227919765,0.441842,0.37717534,-0.211300439,0.423128,0.356256178,-0.207490843,0.409762,0.397596114,-0.278118665,0.475495,0.39635623,-0.25219241,0.44481,0.380822742,-0.245439682,0.429111,0.351391695,-0.243786928,0.414839,0.408285194,-0.305178966,0.481714,0.366605521,-0.296684145,0.456545,0.34717727,-0.293187553,0.444981,0.338891775,-0.297187316,0.446026
0.366856706,-0.340082134,0.526738,0.377878134,-0.297033819,0.499493,0.358807874,-0.310711729,0.519821,0.340684682,-0.274281915,0.499808,0.317174336,-0.247334811,0.476239,0.308470165,-0.225385637,0.459676,0.383883161,-0.238718306,0.471404,0.392144185,-0.202222021,0.452322,0.3844653,-0.19261683,0.442781,0.377504376,-0.183702539,0.434107,0.394754577,-0.259096086,0.470998,0.395462131,-0.231089183,0.440131,0.39589174,-0.214744603,0.422125,0.380989021,-0.209992623,0.409264,0.402752522,-0.278722447,0.472855,0.403505668,-0.255645782,0.443642,0.388232966,-0.249856478,0.428695,0.356085149,-0.245817804,0.415107,0.407622994,-0.305539541,0.479146,0.378091382,-0.293088702,0.454795,0.358641601,-0.291767594,0.443607,0.349993218,-0.301547307,0.44534
0.36905202,-0.340867959,0.529561,0.378288894,-0.298503543,0.499717,0.360716316,-0.310330919,0.52124,0.342670533,-0.2727054,0.49953,0.322744718,-0.24405235,0.47632,0.310492096,-0.224991425,0.458973,0.386844559,-0.243251846,0.468026,0.395762088,-0.208543791,0.448854,0.387215812,-0.199625537,0.439268,0.379233539,-0.191544173,0.430554,0.396008492,-0.26504845,0.468503,0.408219012,-0.239024085,0.44219,0.402136136,-0.228591966,0.426841,0.382875236,-0.226097122,0.415878,0.402637018,-0.285774345,0.471297,0.396977669,-0.267941683,0.439933,0.386191016,-0.260452875,0.423886,0.358817823,-0.255240963,0.409298,0.408699494,-0.315674849,0.479089,0.383206294,-0.304821322,0.453036,0.362341611,-0.296978556,0.441066,0.348328769,-0.29699164,0.441685
0.369181809,-0.340237505,0.530023,0.378844207,-0.298706301,0.499606,0.361179851,-0.309553455,0.521238,0.342976567,-0.271706968,0.498985,0.323201339,-0.241899903,0.475802,0.318182808,-0.217640215,0.460262,0.386181161,-0.243507707,0.466927,0.399596758,-0.211113128,0.451462,0.399098041,-0.202346226,0.443729,0.397452296,-0.192893591,0.4367,0.395593525,-0.265485854,0.467792,0.409287954,-0.241584869,0.443386,0.411857913,-0.232499526,0.429149,0.397172309,-0.230088945,0.41898,0.402439809,-0.286338188,0.470951,0.392106576,-0.271918008,0.439184,0.384653625,-0.262337536,0.422931,0.358059345,-0.257236476,0.408156,0.40879442,-0.31636746,0.479261,0.381863928,-0.305404153,0.452787,0.361619101,-0.29765012,0.440624,0.34805747,-0.296375662,0.440966
0.369163898,-0.338926097,0.53029,0.382426726,-0.298402485,0.499208,0.362525508,-0.306610374,0.520819,0.352834547,-0.265980458,0.497778,0.336851075,-0.236010503,0.474979,0.333958297,-0.214931796,0.459744,0.391997773,-0.246753987,0.465203,0.409262098,-0.217961646,0.449873,0.407897119,-0.208489134,0.442208,0.406885051,-0.199643033,0.43524,0.39935247,-0.269868947,0.466699,0.413104718,-0.250472521,0.441817,0.415620203,-0.240962999,0.427302,0.400267276,-0.237846018,0.416935,0.403245546,-0.289053839,0.47043,0.390088133,-0.27797043,0.438178,0.379809729,-0.2714754,0.421677,0.354750754,-0.261919601,0.406676,0.408692998,-0.319274738,0.479519,0.379879238,-0.307851691,0.452515,0.360651173,-0.298556309,0.440108,0.347297296,-0.296092454,0.440101
0.369124436,-0.337696463,0.530772,0.383243672,-0.299064936,0.499562,0.363567152,-0.306090889,0.521163,0.354417578,-0.266299856,0.497965,0.339419379,-0.236472463,0.475218,0.336894002,-0.215916366,0.460012,0.392666249,-0.247772077,0.465295,0.410235185,-0.2194115,0.450006,0.408986116,-0.210045662,0.442361,0.408084081,-0.201301157,0.435411,0.399802531,-0.271016457,0.46692,0.413767387,-0.252168867,0.442191,0.416406264,-0.242919896,0.427766,0.401099347,-0.239763967,0.417463,0.404668572,-0.292548345,0.470767,0.390253108,-0.279326216,0.438439,0.379919651,-0.272858505,0.421899,0.352570591,-0.26598739,0.406863,0.408463466,-0.322706779,0.480014,0.379191187,-0.310862517,0.452907,0.3598244,-0.300696352,0.440452,0.347222664,-0.296503179,0.440376
0.369087611,-0.3331219,0.531188,0.383977676,-0.299586969,0.500104,0.365369133,-0.304611454,0.521805,0.358762394,-0.260515283,0.498865,0.344866941,-0.230220302,0.47639,0.341546681,-0.213398336,0.460898,0.394505663,-0.249283412,0.466207,0.415204836,-0.226816284,0.449495,0.41593065,-0.218084137,0.441139,0.416904534,-0.209978241,0.433543,0.400784698,-0.27253719,0.467594,0.414314577,-0.255905997,0.441624,0.412365661,-0.251421068,0.426475,0.399093473,-0.244031955,0.415654,0.404890964,-0.293947388,0.471236,0.390517533,-0.280155147,0.438963,0.380201936,-0.273450062,0.422451,0.353053798,-0.266799386,0.40744,0.4076949,-0.323740271,0.480219,0.378596457,-0.311580724,0.453244,0.358566129,-0.302354227,0.440851,0.347062398,-0.296985514,0.440854
0.370838238,-0.333139787,0.533191,0.385927011,-0.301180741,0.501153,0.367877667,-0.302712736,0.522327,0.360224602,-0.259565665,0.497726,0.344532756,-0.229211089,0.473774,0.340232008,-0.210966572,0.45735,0.399674151,-0.255375204,0.464736,0.418168771,-0.232144169,0.447411,0.420333908,-0.22289912,0.438749,0.422646174,-0.214334844,0.430874,0.402741399,-0.277385686,0.467644,0.411023543,-0.265593069,0.437931,0.402573811,-0.258887486,0.420598,0.387278584,-0.25430552,0.408217,0.405980581,-0.29952577,0.472614,0.385267667,-0.292136957,0.439733,0.374597181,-0.287168406,0.422911,0.347162771,-0.278375195,0.407618,0.407737049,-0.329690686,0.483316,0.366314296,-0.3149217,0.455443,0.344813022,-0.309033491,0.442636,0.333585293,-0.314179873,0.442031
0.370093951,-0.328707103,0.532418,0.382741526,-0.299737602,0.499945,0.369559681,-0.30231108,0.523577,0.366934329,-0.260529226,0.501317,0.358843793,-0.230201626,0.479233,0.359451166,-0.212232807,0.4638,0.400655728,-0.264133486,0.465726,0.413818361,-0.242277691,0.444635,0.413964717,-0.231355796,0.43409,0.41434824,-0.221297017,0.424504,0.396959673,-0.287045765,0.465981,0.403073827,-0.275965543,0.436629,0.396636162,-0.267689335,0.419507,0.384612745,-0.256825054,0.407277,0.392871492,-0.307280463,0.468804,0.37356859,-0.294043549,0.435552,0.363763846,-0.287342336,0.418539,0.340600822,-0.274693871,0.403073,0.385928146,-0.333931903,0.477024,0.343632964,-0.309378513,0.449667,0.324393751,-0.298149334,0.437098,0.312990397,-0.296325162,0.436557
0.370618604,-0.328231756,0.533374,0.384331609,-0.301397545,0.499831,0.371393549,-0.3024655,0.524872,0.371772684,-0.261185387,0.503089,0.360464084,-0.231500286,0.481463,0.355009568,-0.212943795,0.464692,0.400676992,-0.269558545,0.465266,0.412328716,-0.24791176,0.443196,0.41221315,-0.23624993,0.432162,0.412110387,-0.222784657,0.42213,0.395093476,-0.288925848,0.464748,0.397530584,-0.280077034,0.434151,0.389255858,-0.270232492,0.416303,0.376798156,-0.259055915,0.403554,0.388096648,-0.311016718,0.467021,0.365871025,-0.295055741,0.433025,0.354546475,-0.286941372,0.415632,0.331724781,-0.271641862,0.39982,0.378931558,-0.336566506,0.474749,0.339599691,-0.307594068,0.447106,0.315796289,-0.295133693,0.434405,0.307396914,-0.292630986,0.433386
0.37243857,-0.328235519,0.535749,0.385192487,-0.302465221,0.50113,0.376231914,-0.299876632,0.526375,0.375802349,-0.260443809,0.503634,0.361954625,-0.23129666,0.481815,0.35857407,-0.213433523,0.464987,0.400501735,-0.27023177,0.464712,0.410700578,-0.249377444,0.441336,0.409610471,-0.241231803,0.429647,0.408877813,-0.227621224,0.419021,0.393823188,-0.292475292,0.464922,0.392897882,-0.284053141,0.432729,0.382371874,-0.275103403,0.413949,0.365974062,-0.265413773,0.400535,0.387548922,-0.312004045,0.467879,0.363459755,-0.296580685,0.433144,0.34801353,-0.290706283,0.415373,0.324599554,-0.272712962,0.399217,0.378513825,-0.337482363,0.476581,0.336395453,-0.307830028,0.448198,0.314466253,-0.294925522,0.435157,0.302355414,-0.290277436,0.433553
0.37412547,-0.324030872,0.53742,0.38582421,-0.303162272,0.502056,0.379413451,-0.296933218,0.52654,0.378463948,-0.258353831,0.502115,0.361437476,-0.231121791,0.479895,0.355792721,-0.214721531,0.462318,0.399324221,-0.270615367,0.463239,0.403037543,-0.253817124,0.4357,0.39792191,-0.243210324,0.42193,0.393249867,-0.233508082,0.409411,0.393311615,-0.293613134,0.46507,0.389156522,-0.28904667,0.432118,0.377024263,-0.281373368,0.412896,0.359679342,-0.272082534,0.399167,0.387664776,-0.313723364,0.46942,0.357581557,-0.302656508,0.434272,0.343379259,-0.296339207,0.416288,0.319301772,-0.277355139,0.39994,0.377777203,-0.339549249,0.479887,0.334767018,-0.309311447,0.450695,0.312611804,-0.295804713,0.437282,0.301835991,-0.291078956,0.435143
0.376877139,-0.318619445,0.539791,0.387203964,-0.304273007,0.503858,0.383310282,-0.295453605,0.528388,0.380175635,-0.257718717,0.503433,0.363850955,-0.231875686,0.482337,0.358729556,-0.21491528,0.46454,0.399472921,-0.271526474,0.463983,0.392129439,-0.253676009,0.430429,0.383465984,-0.242883477,0.413651,0.373797113,-0.232748813,0.398399,0.39238174,-0.29534033,0.466276,0.387537931,-0.289438758,0.432628,0.370643508,-0.281352467,0.413,0.355534312,-0.271700136,0.39898,0.384645808,-0.315351008,0.471053,0.342883418,-0.29650441,0.435496,0.32256008,-0.287298536,0.417304,0.294819849,-0.267970821,0.400766,0.375767032,-0.339753875,0.48211,0.329596031,-0.307080585,0.452545,0.306966076,-0.292685333,0.438961,0.296563997,-0.288914518,0.43645
0.379035735,-0.318032233,0.541485,0.385056839,-0.303389276,0.502115,0.384780515,-0.293018267,0.527409,0.389179332,-0.256171254,0.500306,0.369264377,-0.231547045,0.47866,0.356444241,-0.214016902,0.461038,0.38504688,-0.273007813,0.456465,0.382335223,-0.258031806,0.427374,0.381144518,-0.250562379,0.412829,0.37756374,-0.242776357,0.399606,0.376131286,-0.295567289,0.460938,0.362733803,-0.289716147,0.426288,0.353366082,-0.285570169,0.406075,0.331718067,-0.272802223,0.391637,0.369067049,-0.314865191,0.467786,0.327093592,-0.295187405,0.430312,0.305665404,-0.285098613,0.411139,0.278501558,-0.263953901,0.393709,0.361132988,-0.339045359,0.481816,0.314726502,-0.302711769,0.450568,0.292537681,-0.28657312,0.436211,0.27786994,-0.277638198,0.430978
0.38091323,-0.317500332,0.54253,0.384997892,-0.304043733,0.502928,0.38758717,-0.291893335,0.527629,0.388740401,-0.255883519,0.499853,0.364964691,-0.2305561,0.478724,0.355824142,-0.214195899,0.460687,0.383255141,-0.273136971,0.456089,0.374712167,-0.257483218,0.425187,0.371301533,-0.249495096,0.409735,0.365540336,-0.241194742,0.395688,0.375088446,-0.296209624,0.461509,0.355817899,-0.289767092,0.425546,0.343795988,-0.285056928,0.404568,0.320671704,-0.271604412,0.389583,0.368743678,-0.315959585,0.469154,0.32517769,-0.296000419,0.431625,0.299325133,-0.285536593,0.412425,0.275816726,-0.264464542,0.394969,0.361878377,-0.340693662,0.484164,0.314906684,-0.303951899,0.452756,0.292646385,-0.287651857,0.438325,0.27770836,-0.278306223,0.432591
0.383780823,-0.318040896,0.54502,0.38544422,-0.305313407,0.504749,0.391548537,-0.291422447,0.529345,0.389758039,-0.257412625,0.501316,0.372810074,-0.231918121,0.47968,0.358139756,-0.215620825,0.462225,0.380331613,-0.275682838,0.45647,0.370070982,-0.263063257,0.425895,0.365968041,-0.255806775,0.410608,0.36233535,-0.249232826,0.39671,0.36842136,-0.299534283,0.46263,0.349547053,-0.292557408,0.426981,0.336909321,-0.28746788,0.406186,0.318298232,-0.272604897,0.391332,0.360861087,-0.318223552,0.470938,0.31423441,-0.293198561,0.433159,0.290531924,-0.280391258,0.413831,0.265024358,-0.25731432,0.396259,0.353381053,-0.341501845,0.486835,0.308440599,-0.300975559,0.455389,0.287338237,-0.283141619,0.44094,0.272808276,-0.271837175,0.434135
0.386034184,-0.318481494,0.547027,0.382374888,-0.306193031,0.506586,0.393293322,-0.292283512,0.530482,0.390547895,-0.258826583,0.502375,0.37627668,-0.232968108,0.480329,0.359649118,-0.217621248,0.4629,0.373598318,-0.280754974,0.457109,0.363253214,-0.266554211,0.426407,0.358219476,-0.259497644,0.411056,0.353737471,-0.253112148,0.3971,0.362711945,-0.30205429,0.464291,0.340550186,-0.29453001,0.428049,0.326041043,-0.288949367,0.406908,0.303620532,-0.272451344,0.391807,0.354740804,-0.320218419,0.473454,0.304181912,-0.287702156,0.435674,0.278685339,-0.271181653,0.416344,0.255858288,-0.246816902,0.398772,0.347195793,-0.342759158,0.49039,0.304385206,-0.300354032,0.459326,0.284388333,-0.281722023,0.445053,0.272284883,-0.271266135,0.43705
0.387031466,-0.31652872,0.54701,0.381602111,-0.306421827,0.506588,0.393946476,-0.292442686,0.530452,0.390479683,-0.259315483,0.502313,0.37630727,-0.233226486,0.480274,0.360055999,-0.217759091,0.462798,0.373597501,-0.28075436,0.457108,0.363173987,-0.266496075,0.426314,0.358098342,-0.259409894,0.410917,0.353577127,-0.252997416,0.39692,0.36272835,-0.302067952,0.464312,0.34052234,-0.294505928,0.428014,0.325986557,-0.28890108,0.40684,0.303550014,-0.272388066,0.391716,0.354769276,-0.32024412,0.473492,0.304190988,-0.287710741,0.435687,0.278686677,-0.271182956,0.416346,0.255851872,-0.246810713,0.398762,0.347234733,-0.3427976,0.490445,0.304414364,-0.300382804,0.45937,0.284413893,-0.281747343,0.445093,0.27154423,-0.270511674,0.437114
0.391996521,-0.315420955,0.549945,0.383376145,-0.308303654,0.509566,0.396694997,-0.294098417,0.533188,0.392929841,-0.260942654,0.505188,0.378845432,-0.234068539,0.483014,0.363419245,-0.217838327,0.46554,0.375231609,-0.282180239,0.459868,0.364547279,-0.267363501,0.428812,0.359246034,-0.259931419,0.413284,0.354510954,-0.253196477,0.399168,0.364494221,-0.303717765,0.467334,0.352593139,-0.304226815,0.432399,0.323847845,-0.284852828,0.41202,0.30032131,-0.263322004,0.397464,0.356682643,-0.322079506,0.476726,0.305289399,-0.288740085,0.439199,0.276030526,-0.268409987,0.419999,0.257101822,-0.247396769,0.402545,0.349407958,-0.344848232,0.493924,0.306807098,-0.30231838,0.463102,0.287085871,-0.283539427,0.448941,0.272578641,-0.270157965,0.440545
0.393255873,-0.315383083,0.550659,0.383742303,-0.308660152,0.510435,0.397752131,-0.294253566,0.533687,0.39352435,-0.260882671,0.505699,0.378639161,-0.232058797,0.483797,0.362299415,-0.216850441,0.466269,0.375276644,-0.282473758,0.460583,0.364460861,-0.267695968,0.42945,0.358992863,-0.260218732,0.413884,0.354100962,-0.253439763,0.399733,0.364774562,-0.304158757,0.468366,0.351772804,-0.305126234,0.433265,0.317710241,-0.281639132,0.412789,0.298669849,-0.261854689,0.398164,0.357196914,-0.322608005,0.478006,0.302672963,-0.286477956,0.440678,0.275860423,-0.268583096,0.421581,0.255033032,-0.244117245,0.404219,0.350282059,-0.345417383,0.495476,0.3078925,-0.302946066,0.464861,0.288381495,-0.284113184,0.450795,0.273849699,-0.270402983,0.442146
