sluyters/QuantumLeap/src/datasets/gesture/HandGestureDataset_SHREC2017_csv/Gesture12/finger_1/subject_7_essai_2_skeletons_world.csv
Wrist_x,Wrist_y,Wrist_z,Palm_x,Palm_y,Palm_z,thumb_base_x,thumb_base_y,thumb_base_z,thumb_first_joint_x,thumb_first_joint_y,thumb_first_joint_z,thumb_second_joint_x,thumb_second_joint_y,thumb_second_joint_z,thumb_tip_x,thumb_tip_y,thumb_tip_z,index_base_x,index_base_y,index_base_z,index_first_joint_x,index_first_joint_y,index_first_joint_z,index_second_joint_x,index_second_joint_y,index_second_joint_z,index_tip_x,index_tip_y,index_tip_z,middle_base_x,middle_base_y,middle_base_z,middle_first_joint_x,middle_first_joint_y,middle_first_joint_z,middle_second_joint_x,middle_second_joint_y,middle_second_joint_z,middle_tip_x,middle_tip_y,middle_tip_z,ring_base_x,ring_base_y,ring_base_z,ring_first_joint_x,ring_first_joint_y,ring_first_joint_z,ring_second_joint_x,ring_second_joint_y,ring_second_joint_z,ring_tip_x,ring_tip_y,ring_tip_z,pinky_base_x,pinky_base_y,pinky_base_z,pinky_first_joint_x,pinky_first_joint_y,pinky_first_joint_z,pinky_second_joint_x,pinky_second_joint_y,pinky_second_joint_z,pinky_tip_x,pinky_tip_y,pinky_tip_z,
0.63951915,-0.39479752,0.607438,0.61315763,-0.33567603,0.585724,0.61112657,-0.37889981,0.60216,0.60731728,-0.34914199,0.598167,0.58047472,-0.31909703,0.588646,0.58220897,-0.29996786,0.581934,0.56037941,-0.27351878,0.561149,0.55923095,-0.23184143,0.559994,0.55861146,-0.21064139,0.559416,0.55803765,-0.19106093,0.55889,0.58491531,-0.27362677,0.559679,0.55357557,-0.28266637,0.53046,0.57461111,-0.32145386,0.551357,0.59220222,-0.34326421,0.568486,0.60734692,-0.27772049,0.56016,0.57281806,-0.25205626,0.532988,0.55920671,-0.25514376,0.519087,0.57177369,-0.27944972,0.526189,0.63827499,-0.29043375,0.563964,0.59620496,-0.29443088,0.539204,0.59914231,-0.31392522,0.552444,0.60393779,-0.33250681,0.566292
0.64100605,-0.38263743,0.611833,0.61599181,-0.320137,0.589429,0.61517144,-0.35759871,0.608751,0.61097048,-0.33416508,0.605614,0.58380358,-0.30400169,0.597016,0.5841503,-0.28485757,0.590531,0.5652184,-0.25883801,0.56697,0.56411541,-0.21692739,0.565898,0.56340659,-0.19558762,0.565363,0.56272575,-0.17587606,0.564876,0.58644837,-0.25795914,0.562556,0.54928904,-0.26669643,0.533345,0.56806085,-0.30411318,0.553362,0.58691518,-0.3256487,0.570212,0.60622376,-0.26124691,0.560669,0.56729835,-0.23555204,0.534444,0.55100929,-0.2386528,0.521026,0.56171376,-0.26240295,0.52782,0.63414385,-0.27301317,0.561753,0.58816619,-0.27684743,0.537675,0.59116959,-0.29559287,0.550378,0.59608827,-0.31341044,0.563778
0.64006797,-0.36807374,0.611256,0.61574204,-0.30982302,0.58919,0.61453177,-0.35211195,0.608118,0.61062142,-0.32328062,0.605268,0.58380456,-0.29328699,0.597017,0.5841869,-0.27397192,0.590568,0.56519348,-0.24895675,0.566945,0.56409647,-0.20690237,0.565879,0.56338965,-0.18547515,0.565346,0.5627108,-0.16567975,0.564861,0.58662246,-0.24807211,0.562723,0.54973498,-0.25685396,0.533778,0.56872401,-0.29401167,0.554008,0.58755026,-0.31549134,0.570829,0.60654705,-0.25132833,0.560968,0.56781317,-0.22550932,0.534929,0.55162373,-0.2285509,0.521607,0.5625332,-0.25216969,0.52859,0.63460104,-0.26300842,0.562158,0.58878315,-0.26697052,0.538239,0.59192792,-0.28576605,0.551084,0.59683262,-0.30352572,0.564482
0.64068473,-0.35287314,0.611845,0.61605034,-0.28959963,0.589485,0.61516336,-0.3268728,0.608743,0.61097048,-0.3020661,0.605614,0.58373121,-0.27182245,0.596942,0.58413942,-0.25214445,0.59052,0.56528619,-0.22925463,0.567038,0.56413933,-0.18688112,0.565922,0.56340759,-0.16526724,0.565364,0.56270582,-0.14529517,0.564856,0.586562,-0.22812141,0.562665,0.5494322,-0.2366056,0.533484,0.56823845,-0.27286546,0.553535,0.58709222,-0.29424227,0.570384,0.60637513,-0.23114699,0.560809,0.56746288,-0.20486987,0.534599,0.55118167,-0.20764835,0.521189,0.56191489,-0.23068374,0.528009,0.63433463,-0.24250342,0.561922,0.58836637,-0.24646134,0.537858,0.59138871,-0.26511236,0.550582,0.59630714,-0.28272446,0.563985
0.6432186,-0.33255381,0.629997,0.62149096,-0.28002879,0.601143,0.62005985,-0.31268644,0.625329,0.61339817,-0.28966368,0.615542,0.59161766,-0.25859895,0.601873,0.58470433,-0.2357518,0.591949,0.57529227,-0.21417594,0.571362,0.5679409,-0.17190786,0.569932,0.56421994,-0.15045388,0.569217,0.56081627,-0.13076191,0.568573,0.59512735,-0.21849151,0.566535,0.54819174,-0.21587385,0.531663,0.5593046,-0.24911827,0.54779,0.57792978,-0.27047987,0.565466,0.61345031,-0.22607359,0.56481,0.57078195,-0.19162685,0.533454,0.54827004,-0.18614381,0.517412,0.54876583,-0.20535053,0.520256,0.63958015,-0.24382333,0.567046,0.58827732,-0.24761265,0.538794,0.59361591,-0.26463322,0.548856,0.60479808,-0.28146308,0.562821
0.64963018,-0.31514707,0.637044,0.62279813,-0.25945836,0.602516,0.62374101,-0.29333727,0.629377,0.611112,-0.26733658,0.613097,0.58440022,-0.23400182,0.594589,0.57408287,-0.20999395,0.581208,0.56917359,-0.1904189,0.564328,0.56798361,-0.14959701,0.567308,0.56723439,-0.12867729,0.568798,0.56652105,-0.10934867,0.570153,0.59002637,-0.19538112,0.561103,0.53631431,-0.19178321,0.521167,0.54223236,-0.22145152,0.533078,0.56135763,-0.24301425,0.551262,0.60976781,-0.20366685,0.561137,0.56189897,-0.16914657,0.52458,0.53631219,-0.16222582,0.505877,0.53124976,-0.17886614,0.504502,0.63815292,-0.22179924,0.566316,0.58118716,-0.22444988,0.533976,0.58527411,-0.24030997,0.541165,0.5976312,-0.25750748,0.555335
0.64707229,-0.30454971,0.635114,0.62028978,-0.23894464,0.600668,0.62085847,-0.27308628,0.62754,0.60975371,-0.24625745,0.611538,0.58195971,-0.2116122,0.593318,0.57128018,-0.18725419,0.578454,0.56753647,-0.17029467,0.562663,0.56546359,-0.12915258,0.565315,0.56436533,-0.10803548,0.566641,0.56333077,-0.088514481,0.567847,0.5881893,-0.17500415,0.559352,0.53427137,-0.1726286,0.519502,0.54020029,-0.20170791,0.531465,0.55940961,-0.22302547,0.549635,0.60774023,-0.18305956,0.55931,0.55898907,-0.15242942,0.522859,0.53340543,-0.14758887,0.50421,0.5291207,-0.16509056,0.5029,0.63585739,-0.20089791,0.564385,0.57898809,-0.20246795,0.532128,0.58296254,-0.21903165,0.539354,0.59612604,-0.23577428,0.553509
0.66720707,-0.2842485,0.635367,0.63260114,-0.22794642,0.601183,0.64099858,-0.26618396,0.630057,0.61699791,-0.23648539,0.614622,0.58966462,-0.20677193,0.598579,0.57580501,-0.18602384,0.583875,0.57305871,-0.16381598,0.566172,0.57360123,-0.12396945,0.572308,0.57379837,-0.10350203,0.575376,0.57393411,-0.084576297,0.578165,0.59098373,-0.16392411,0.560182,0.53448999,-0.16359107,0.521365,0.53985556,-0.19083424,0.532281,0.56065544,-0.21294029,0.549749,0.60893401,-0.16811823,0.557917,0.56097077,-0.14226986,0.523291,0.5345844,-0.13794204,0.505575,0.52675854,-0.155525,0.504068,0.63643298,-0.18124335,0.560301,0.57843391,-0.18603205,0.529508,0.58101117,-0.20368597,0.536101,0.59309002,-0.22126251,0.549494
0.66866056,-0.28100517,0.637636,0.63443684,-0.22503317,0.603641,0.6437025,-0.26313792,0.633248,0.61835801,-0.22976019,0.618278,0.59132723,-0.20078922,0.603346,0.5780509,-0.18102318,0.588787,0.57645105,-0.15747534,0.569917,0.57666977,-0.11688737,0.574852,0.57671883,-0.09605907,0.57732,0.57672809,-0.076810053,0.579564,0.59272807,-0.15781298,0.562866,0.53612791,-0.16406662,0.524582,0.54092919,-0.19175601,0.534968,0.56191881,-0.21282827,0.552076,0.60924849,-0.16216968,0.559712,0.55993861,-0.13745664,0.525927,0.53264785,-0.13374873,0.508642,0.5267943,-0.15392666,0.50701,0.63489801,-0.17542609,0.561009,0.57574105,-0.18087785,0.530905,0.57811961,-0.1981357,0.537173,0.59193167,-0.21837055,0.550198
0.66976304,-0.27869243,0.637784,0.63517997,-0.21994974,0.603909,0.64539981,-0.26101755,0.633825,0.62008968,-0.22968389,0.619091,0.59281164,-0.20170807,0.604706,0.57867653,-0.18084541,0.590476,0.57812147,-0.15664672,0.570809,0.57884363,-0.1160856,0.576098,0.57914346,-0.095245061,0.578743,0.57937915,-0.07596965,0.581147,0.59360979,-0.15669355,0.563277,0.53362784,-0.15790274,0.525272,0.53473905,-0.18129575,0.535414,0.55362193,-0.20579616,0.552344,0.60951991,-0.16079971,0.559718,0.56040063,-0.13759214,0.52635,0.53289889,-0.13388531,0.509278,0.5226528,-0.15134273,0.507595,0.63451705,-0.17373843,0.560514,0.57513079,-0.17968052,0.530753,0.5786829,-0.19673557,0.536872,0.59223933,-0.21300146,0.549719
0.66919835,-0.2772567,0.637743,0.63628129,-0.21947113,0.605064,0.64580342,-0.25975215,0.634463,0.62215217,-0.22917623,0.621235,0.59566527,-0.20097601,0.607334,0.58119322,-0.17801229,0.594008,0.58255667,-0.15542789,0.573795,0.58833712,-0.11453386,0.581246,0.59087547,-0.093970966,0.584972,0.59316274,-0.074930528,0.588359,0.59737573,-0.15542006,0.565868,0.53910165,-0.15433202,0.528905,0.540723,-0.17663211,0.540055,0.55836336,-0.20444688,0.556925,0.61258953,-0.15946172,0.56189,0.56668123,-0.1344463,0.529612,0.53993183,-0.1291728,0.513098,0.52876209,-0.14577608,0.512384,0.63632777,-0.17343452,0.56201,0.57748883,-0.17762793,0.533094,0.58263364,-0.19503087,0.539896,0.59757895,-0.21089872,0.552711
0.67327705,-0.27722546,0.640945,0.64141963,-0.21818637,0.608419,0.64645077,-0.25851971,0.634529,0.62244727,-0.22710611,0.619707,0.59167352,-0.19854049,0.602036,0.57644737,-0.17547704,0.587831,0.58355946,-0.15328573,0.573434,0.58747761,-0.11427878,0.581656,0.58885857,-0.094081033,0.585767,0.58964833,-0.075565091,0.589504,0.60425625,-0.15208796,0.569406,0.54808541,-0.15500877,0.531257,0.55255504,-0.17766738,0.544785,0.56632853,-0.20335217,0.56283,0.6238627,-0.15604479,0.568625,0.57076971,-0.13706388,0.533976,0.54320545,-0.1310567,0.516249,0.53642534,-0.14554303,0.516473,0.65323221,-0.16883508,0.572533,0.59267723,-0.16778043,0.541675,0.59294586,-0.18165571,0.549965,0.6140179,-0.18757105,0.56404
0.6758184,-0.27831472,0.6429,0.64268162,-0.2203898,0.609545,0.64859433,-0.25943813,0.63616,0.62715225,-0.23444996,0.619643,0.59361581,-0.20618058,0.600908,0.57600889,-0.1801844,0.586449,0.58469775,-0.15633652,0.573472,0.59383452,-0.11909307,0.582185,0.5973938,-0.098884388,0.586541,0.59797859,-0.077693656,0.590501,0.60635903,-0.15877617,0.569538,0.54872659,-0.16206643,0.530705,0.55265648,-0.18500169,0.543507,0.56865329,-0.21325986,0.561572,0.62588581,-0.16329314,0.568899,0.57086078,-0.14398071,0.533588,0.54331737,-0.13905877,0.515522,0.53897349,-0.1562785,0.515083,0.65519712,-0.17687802,0.573099,0.59325883,-0.17567965,0.541726,0.59378832,-0.18996986,0.549528,0.61521534,-0.1963376,0.563595
0.67142735,-0.27793069,0.638505,0.64428747,-0.23193622,0.610484,0.64726072,-0.26028008,0.634596,0.62560948,-0.24103436,0.621349,0.60157606,-0.21077979,0.60932,0.5897432,-0.18948297,0.598119,0.59557412,-0.16938436,0.582328,0.60245577,-0.12927822,0.591554,0.60541912,-0.1083441,0.596167,0.60807144,-0.088781726,0.600361,0.61401078,-0.16979303,0.576875,0.56070564,-0.17472309,0.542896,0.56643423,-0.20034213,0.559355,0.58580035,-0.22368623,0.576812,0.63182677,-0.17417694,0.57457,0.58145232,-0.15684108,0.544246,0.55611423,-0.1526998,0.528731,0.55729006,-0.16932526,0.532075,0.65800013,-0.18742197,0.57599,0.59984487,-0.18758106,0.548562,0.603193,-0.20228762,0.558865,0.62466076,-0.20949832,0.572513
0.66843278,-0.29559994,0.634361,0.64440373,-0.25219074,0.608823,0.64623034,-0.28860099,0.63206,0.62832164,-0.26454423,0.622209,0.6004248,-0.23498148,0.611076,0.58852007,-0.21217386,0.602615,0.59800822,-0.18972209,0.584708,0.6021278,-0.14926289,0.591232,0.60372016,-0.12832956,0.594494,0.60513315,-0.10885788,0.59746,0.61541252,-0.19006187,0.578192,0.56463646,-0.19574841,0.546702,0.57312589,-0.22260883,0.56429,0.58973587,-0.25279209,0.581201,0.63210051,-0.19437284,0.574819,0.58431084,-0.17246891,0.54715,0.55998764,-0.16587097,0.532994,0.56307901,-0.17894326,0.537803,0.65640993,-0.20745681,0.574598,0.60065948,-0.20799078,0.549307,0.60503178,-0.22368809,0.560406,0.62617187,-0.23012349,0.573898
0.66784052,-0.31082498,0.633407,0.64498732,-0.26217565,0.608261,0.64568293,-0.29330285,0.631106,0.62906573,-0.27450968,0.621494,0.60061655,-0.24437312,0.60938,0.59055718,-0.22258343,0.600931,0.59926679,-0.19937979,0.584473,0.60423103,-0.15929994,0.591493,0.60626513,-0.13854595,0.595003,0.60808239,-0.11923093,0.598194,0.61689053,-0.19995325,0.578101,0.56591516,-0.19704048,0.546919,0.57438678,-0.22244976,0.564802,0.58818497,-0.249226,0.581694,0.63369757,-0.20446812,0.574816,0.586833,-0.18225414,0.547387,0.56271243,-0.17155127,0.533353,0.56299574,-0.18002602,0.538421,0.65802881,-0.21781196,0.57464,0.6028346,-0.21783219,0.549545,0.60718521,-0.2336314,0.560841,0.62825318,-0.24032193,0.574448
0.6676326,-0.33587947,0.631465,0.64543227,-0.28215802,0.60736,0.64580525,-0.31810491,0.629434,0.63000328,-0.29547561,0.620981,0.60243856,-0.26581894,0.609743,0.59229973,-0.24420051,0.601199,0.60092198,-0.21911508,0.584771,0.60573869,-0.17937924,0.59162,0.60770104,-0.15883611,0.595044,0.6094538,-0.1397207,0.598157,0.6186266,-0.21994158,0.578448,0.56966296,-0.21868144,0.548188,0.57850163,-0.24396074,0.56668,0.59149525,-0.27133603,0.583431,0.63541796,-0.22468064,0.575123,0.58946353,-0.20299976,0.548535,0.56578855,-0.19257322,0.534932,0.56530789,-0.2038204,0.540628,0.6595543,-0.23831056,0.574744,0.60508708,-0.2383218,0.550334,0.60986863,-0.25422285,0.562044,0.63095494,-0.26098895,0.575651
0.66415972,-0.34197601,0.631886,0.64715495,-0.29410899,0.608205,0.64366467,-0.32277754,0.629756,0.63151601,-0.29407621,0.622831,0.62040137,-0.25931142,0.615203,0.61586409,-0.23423159,0.609779,0.61306672,-0.22801522,0.585849,0.61481856,-0.18851091,0.591575,0.61457951,-0.16834365,0.594438,0.61429441,-0.14956284,0.597041,0.63073544,-0.23222587,0.579802,0.59357314,-0.19394067,0.549848,0.60574522,-0.22367373,0.56868,0.62302231,-0.24784407,0.585426,0.64673787,-0.23974756,0.576671,0.60721763,-0.21949435,0.550279,0.58683592,-0.20898075,0.536776,0.58786912,-0.21312594,0.542749,0.66853786,-0.2566722,0.576461,0.61723541,-0.25087629,0.552215,0.61768994,-0.26939336,0.564149,0.63249232,-0.28243682,0.57731
0.6582711,-0.35428368,0.628392,0.64777038,-0.30911895,0.606797,0.63862494,-0.34184656,0.624996,0.64084613,-0.31259829,0.620491,0.62077396,-0.27713134,0.611699,0.61578124,-0.25242604,0.606841,0.61168315,-0.24304715,0.584628,0.61204758,-0.20436771,0.591106,0.61213644,-0.18442557,0.594345,0.6121627,-0.16594224,0.59729,0.632458,-0.2475397,0.580895,0.59779695,-0.21491324,0.552271,0.6140062,-0.24691949,0.57284,0.63117983,-0.27148559,0.58965,0.65100986,-0.25528389,0.579505,0.6158901,-0.24036387,0.553609,0.59780043,-0.23265959,0.54036,0.60257891,-0.23659795,0.547603,0.67579381,-0.27246513,0.58106,0.63275337,-0.26184191,0.557273,0.63264255,-0.27780845,0.570338,0.64782477,-0.28771742,0.583776
0.66017952,-0.37319221,0.628583,0.64780775,-0.32952315,0.606832,0.63878842,-0.36248043,0.625156,0.64081825,-0.33390665,0.620464,0.62075874,-0.29834186,0.611684,0.61570007,-0.27357098,0.606761,0.61154295,-0.26256785,0.584494,0.61199063,-0.22431049,0.591051,0.612121,-0.20457787,0.59433,0.61218423,-0.18628385,0.597311,0.63229142,-0.26726253,0.580742,0.59747871,-0.23491773,0.551977,0.61360962,-0.26793545,0.57247,0.63081374,-0.29270823,0.589308,0.65083461,-0.2752227,0.579349,0.61557748,-0.2607245,0.553328,0.59741875,-0.2532642,0.540015,0.60210684,-0.25819311,0.547174,0.67563564,-0.29275502,0.580924,0.63248087,-0.28222003,0.557033,0.63231865,-0.29821431,0.570046,0.64751849,-0.30810126,0.5835
0.66349906,-0.40831673,0.62618,0.64930694,-0.35439326,0.606032,0.64107781,-0.38825473,0.623079,0.63152592,-0.36941792,0.612516,0.59670234,-0.33410156,0.597989,0.59190838,-0.31509594,0.591056,0.61049578,-0.28851161,0.585431,0.60599652,-0.24859644,0.583656,0.60370229,-0.22798912,0.582768,0.60061908,-0.21078826,0.581962,0.6318798,-0.2920228,0.581866,0.5998172,-0.25713018,0.55456,0.61645376,-0.29066455,0.575802,0.63288309,-0.3162288,0.592346,0.65108696,-0.29901229,0.580502,0.61820806,-0.28267718,0.555781,0.60107014,-0.27578381,0.543133,0.60656688,-0.28202344,0.551131,0.67692588,-0.31538512,0.581873,0.63704195,-0.30688408,0.55906,0.63774348,-0.3240926,0.572586,0.65212888,-0.33372872,0.58586
0.6669749,-0.41560193,0.629494,0.65075295,-0.3652934,0.607518,0.64340859,-0.3947672,0.625402,0.63178664,-0.38006562,0.612765,0.59643132,-0.34430316,0.597767,0.59139658,-0.32530376,0.590567,0.60892971,-0.29756085,0.584179,0.60167383,-0.2585017,0.578853,0.59801452,-0.23828093,0.576191,0.59466674,-0.21947026,0.57377,0.63088512,-0.30141527,0.58116,0.59706127,-0.26587217,0.55202,0.61306892,-0.2996212,0.572566,0.62992806,-0.32543635,0.589556,0.6507563,-0.3087864,0.580388,0.61587797,-0.29187057,0.553783,0.59747778,-0.28750468,0.540171,0.60169226,-0.2983506,0.547204,0.67775801,-0.32582237,0.582736,0.63628335,-0.31673958,0.558387,0.63647163,-0.33376757,0.571419,0.65119208,-0.3435497,0.585042
0.66721579,-0.43132375,0.629755,0.6510366,-0.3857941,0.607719,0.6436739,-0.42055598,0.625722,0.62735344,-0.39835918,0.608179,0.60699041,-0.37139406,0.607996,0.60048138,-0.35149312,0.599144,0.60927804,-0.31722532,0.584402,0.60155792,-0.27834272,0.578445,0.59767068,-0.25824746,0.575467,0.59411993,-0.23957439,0.57276,0.63117075,-0.32127774,0.581288,0.59765458,-0.28604128,0.552113,0.61372806,-0.32090782,0.572613,0.63049423,-0.34695229,0.589601,0.6509749,-0.32885573,0.580443,0.61647266,-0.31246881,0.553835,0.59826785,-0.30839258,0.540222,0.60265295,-0.32024038,0.547225,0.67787781,-0.34621554,0.582713,0.63670993,-0.33735418,0.558359,0.63680656,-0.35443261,0.571361,0.65138513,-0.3641506,0.584974
0.66939021,-0.48109375,0.630366,0.65666796,-0.42530845,0.60892,0.64679409,-0.45797837,0.625968,0.64607743,-0.43392119,0.620843,0.63052156,-0.40096716,0.610732,0.63653583,-0.38683328,0.603018,0.61861158,-0.35441868,0.585648,0.60925698,-0.31740223,0.578113,0.60455176,-0.29825632,0.574345,0.60025654,-0.280453,0.570919,0.64080889,-0.36075423,0.583198,0.6067588,-0.33056027,0.554429,0.62234815,-0.3686805,0.575316,0.63892709,-0.39423246,0.592278,0.66064932,-0.37028061,0.582852,0.62464716,-0.35198965,0.556412,0.60609814,-0.3462383,0.542885,0.61101177,-0.35798864,0.550183,0.68711889,-0.39008341,0.58563,0.6421349,-0.38167824,0.561436,0.64401787,-0.39965728,0.57469,0.66024797,-0.40988311,0.588404
0.66736507,-0.50529987,0.632727,0.65463156,-0.44966034,0.609791,0.64792443,-0.48254887,0.630215,0.6497464,-0.46131813,0.626715,0.63876341,-0.43131981,0.616711,0.64531634,-0.41629134,0.611812,0.62027631,-0.37864541,0.587587,0.61709606,-0.33897837,0.580937,0.61556328,-0.31860592,0.577611,0.61420647,-0.29975473,0.574588,0.63876232,-0.38486738,0.582281,0.60344622,-0.3495073,0.552807,0.61538924,-0.38695677,0.572291,0.63170098,-0.4125586,0.589069,0.65541965,-0.39431316,0.579701,0.62349914,-0.37071715,0.553517,0.60390716,-0.36561231,0.540121,0.60509801,-0.37761392,0.546579,0.6779097,-0.41400089,0.580038,0.62845453,-0.41124015,0.555974,0.63707123,-0.43245417,0.568335,0.65392102,-0.44776394,0.582106
0.67291904,-0.51875672,0.637675,0.65696047,-0.4724485,0.612192,0.65097615,-0.50498481,0.633195,0.64856679,-0.48552625,0.62553,0.63231879,-0.45531045,0.613504,0.6329214,-0.43766679,0.604817,0.61621265,-0.40015015,0.585452,0.60637271,-0.35944153,0.569013,0.60154127,-0.33874004,0.560794,0.59722806,-0.31971394,0.553344,0.63695291,-0.40710745,0.581626,0.59120882,-0.41315811,0.549461,0.60660219,-0.45083883,0.56803,0.62479466,-0.47381345,0.585493,0.65570778,-0.41718997,0.580462,0.62694557,-0.38040993,0.551138,0.60359616,-0.38764005,0.536134,0.60337137,-0.40916661,0.541132,0.68115502,-0.43766254,0.582866,0.63242258,-0.4353883,0.556401,0.63742508,-0.45434903,0.568095,0.65251685,-0.46764389,0.582319
0.67181837,-0.53465392,0.638626,0.66211324,-0.48466435,0.611087,0.65335527,-0.50953648,0.634734,0.64876901,-0.48470667,0.624082,0.64327093,-0.4522014,0.615559,0.63891623,-0.4242871,0.607032,0.63657107,-0.40794232,0.583354,0.61120984,-0.36853966,0.563559,0.59849859,-0.34862647,0.553662,0.58692232,-0.3303888,0.544664,0.6521733,-0.41971065,0.578056,0.59446462,-0.41369246,0.544452,0.59809239,-0.44693471,0.561294,0.60753986,-0.47540055,0.578735,0.6660693,-0.43384745,0.575841,0.62639192,-0.39908306,0.545815,0.59956447,-0.40456695,0.530453,0.59902892,-0.42550683,0.53413,0.6844734,-0.45934542,0.577298,0.62738132,-0.44737525,0.550111,0.63115793,-0.46578075,0.560668,0.64558921,-0.48229022,0.574331
0.67219127,-0.53878398,0.6395,0.66514173,-0.49315516,0.612549,0.65667152,-0.51425152,0.637183,0.65718119,-0.49750104,0.628911,0.64734467,-0.46481594,0.61742,0.64231389,-0.43671631,0.607729,0.64380886,-0.41995066,0.587235,0.61273593,-0.37981234,0.561932,0.59718513,-0.35964496,0.549281,0.59322294,-0.34720893,0.547174,0.65711597,-0.43147895,0.580222,0.59916747,-0.42876606,0.5476,0.59968235,-0.46285113,0.564061,0.60721762,-0.4905647,0.581028,0.66882496,-0.44511171,0.576551,0.63020672,-0.41512097,0.547558,0.60308957,-0.42165058,0.532724,0.60201276,-0.44132651,0.536417,0.68413836,-0.46937324,0.576183,0.62778314,-0.45981062,0.550201,0.6311455,-0.47644025,0.560551,0.64532711,-0.49130242,0.574003
0.63973796,-0.54799548,0.61179,0.64225604,-0.49339763,0.588292,0.63025557,-0.52140951,0.611049,0.63892027,-0.49094737,0.607126,0.63733636,-0.45474687,0.597656,0.63601511,-0.4268814,0.588706,0.63096592,-0.42043545,0.56779,0.60830163,-0.3776844,0.54558,0.59697708,-0.35622515,0.534476,0.59832468,-0.34334195,0.534784,0.64276914,-0.43101688,0.560108,0.59605622,-0.41538494,0.530804,0.59936176,-0.45055027,0.54901,0.60523107,-0.47895726,0.565324,0.65281885,-0.44392771,0.555617,0.61979081,-0.42051382,0.530358,0.59291209,-0.42681143,0.517434,0.59156241,-0.44676042,0.523301,0.66539204,-0.46761584,0.553759,0.61804277,-0.44735209,0.530421,0.6192695,-0.46756208,0.541978,0.63265662,-0.48459843,0.554673
0.63114429,-0.54339802,0.598153,0.64531789,-0.50236706,0.582444,0.6321152,-0.52911042,0.602362,0.64209686,-0.50278377,0.603863,0.644222,-0.47009016,0.603281,0.64676127,-0.44560428,0.600349,0.64563155,-0.43782361,0.574504,0.62682618,-0.40000834,0.560882,0.61737809,-0.38074437,0.554071,0.61670142,-0.36774359,0.555026,0.65420759,-0.44566829,0.563603,0.61074068,-0.43655649,0.542624,0.61696132,-0.47476299,0.562589,0.62124329,-0.50222859,0.576445,0.66095999,-0.45594827,0.555858,0.63147853,-0.43906896,0.539397,0.60854372,-0.4497457,0.530974,0.61323349,-0.47378878,0.540353,0.66833888,-0.47565118,0.54896,0.62432063,-0.46131304,0.532853,0.62852624,-0.48349154,0.545746,0.64353987,-0.50053788,0.55781
0.63783213,-0.55622873,0.599073,0.64573005,-0.51114049,0.582816,0.63275218,-0.53390208,0.602969,0.64209579,-0.51158197,0.603862,0.64389096,-0.4787038,0.602971,0.6462517,-0.45400094,0.599876,0.64510223,-0.44565823,0.574033,0.62564267,-0.40757342,0.559823,0.61587162,-0.38820304,0.552719,0.61627697,-0.37607169,0.554644,0.65387446,-0.45369152,0.563316,0.60975584,-0.44426663,0.541749,0.61465318,-0.48257267,0.561618,0.61886417,-0.50608599,0.575656,0.6608494,-0.46418447,0.555765,0.63065669,-0.44708291,0.538695,0.60738273,-0.45746129,0.529961,0.61182852,-0.48127782,0.539115,0.66860428,-0.48425676,0.549178,0.62398671,-0.46952297,0.532568,0.62811163,-0.49169662,0.545386,0.64314185,-0.50877594,0.557465
0.63539125,-0.55818697,0.598292,0.64286626,-0.5121828,0.581726,0.63049256,-0.53571915,0.602147,0.63940948,-0.51202829,0.60262,0.64219895,-0.47931944,0.60206,0.64510139,-0.45465028,0.59881,0.6428199,-0.44653117,0.572636,0.62392645,-0.40791713,0.558224,0.61444796,-0.38829044,0.551018,0.61561498,-0.37623921,0.553278,0.65135206,-0.45469773,0.561855,0.60729373,-0.44430257,0.540017,0.61163412,-0.48228717,0.559724,0.614052,-0.51031527,0.573809,0.65810767,-0.46530048,0.554276,0.62572546,-0.45248287,0.536974,0.60196667,-0.46299592,0.528121,0.60794621,-0.48270719,0.537106,0.66556629,-0.48551401,0.547702,0.62110165,-0.46991775,0.530899,0.62480469,-0.49198159,0.543607,0.63934428,-0.50908844,0.555505
0.63341215,-0.55877952,0.597634,0.64049569,-0.51181521,0.580823,0.62868811,-0.53640242,0.601605,0.63701078,-0.51436444,0.601961,0.63961528,-0.48107752,0.601715,0.64373064,-0.45564725,0.599054,0.63943964,-0.44733932,0.571671,0.62154359,-0.40757441,0.557239,0.61205978,-0.38796023,0.550022,0.61259937,-0.37555814,0.55173,0.64760993,-0.45543529,0.560659,0.60446576,-0.44361189,0.538671,0.60733788,-0.48224373,0.55813,0.61088596,-0.50932809,0.572191,0.65404692,-0.46597561,0.552909,0.62230852,-0.4510825,0.535542,0.59864579,-0.4616414,0.526657,0.60301708,-0.48431169,0.535461,0.66110038,-0.48611497,0.546167,0.61678896,-0.4701207,0.52931,0.62013063,-0.49202419,0.541856,0.63621208,-0.50813764,0.55397
0.63162025,-0.55908035,0.596923,0.63763209,-0.51291439,0.580377,0.62691625,-0.53668968,0.600875,0.63696926,-0.51610251,0.601738,0.6397423,-0.48300685,0.601604,0.64379948,-0.45733299,0.59891,0.63820622,-0.44739328,0.571422,0.61970517,-0.40875108,0.557111,0.60826349,-0.39020293,0.549955,0.60781355,-0.37924007,0.551526,0.64652278,-0.45555578,0.560531,0.60262624,-0.44497587,0.538751,0.60663829,-0.48287454,0.558396,0.61008631,-0.51008853,0.572441,0.6530673,-0.46614179,0.55286,0.6221526,-0.45024232,0.535648,0.59860194,-0.460624,0.526842,0.60417081,-0.48240783,0.535809,0.66021643,-0.48631241,0.546173,0.61599688,-0.47054727,0.529444,0.61951356,-0.49256658,0.542113,0.63383305,-0.50965711,0.553927
0.62911418,-0.55801818,0.595616,0.63309488,-0.51011864,0.578783,0.62434042,-0.53584934,0.599723,0.63138818,-0.51577155,0.600826,0.63345985,-0.48327886,0.601584,0.64031404,-0.459189,0.600708,0.62640045,-0.44113596,0.56978,0.60692079,-0.4030799,0.555466,0.59627653,-0.38570246,0.548309,0.59460276,-0.37639074,0.549724,0.63543828,-0.4479846,0.558593,0.59306105,-0.43916483,0.536648,0.59804214,-0.47783277,0.555981,0.6049497,-0.5081402,0.569987,0.64273651,-0.45756072,0.550699,0.61386956,-0.44021709,0.533199,0.59184531,-0.44963588,0.524245,0.59413773,-0.47519386,0.532921,0.65116615,-0.47669703,0.543791,0.60795449,-0.46305404,0.527014,0.61182723,-0.48537587,0.53948,0.62847771,-0.50542579,0.55121
0.62018505,-0.55668858,0.592133,0.61653508,-0.50402213,0.576286,0.60856883,-0.53306494,0.596221,0.61744758,-0.51201847,0.59796,0.61993241,-0.48000307,0.5992,0.62313956,-0.4553944,0.596686,0.61454697,-0.43855446,0.568081,0.59545647,-0.40087902,0.554271,0.58497167,-0.38366861,0.547366,0.58454883,-0.37529828,0.550216,0.62393742,-0.44568382,0.557279,0.58221712,-0.43748275,0.536133,0.58749786,-0.47667651,0.556108,0.59023021,-0.50535553,0.570027,0.63143933,-0.45544146,0.549626,0.60319262,-0.43875608,0.532976,0.58159423,-0.44856755,0.524458,0.58453128,-0.47474567,0.533793,0.63991346,-0.47468025,0.542857,0.59721052,-0.4614799,0.526595,0.60146452,-0.48418855,0.53949,0.61569451,-0.50083309,0.551184
0.59912089,-0.5505929,0.588635,0.60087709,-0.50005417,0.573469,0.5919014,-0.52784172,0.591628,0.60352977,-0.50847378,0.59369,0.60184671,-0.47384341,0.593791,0.60507924,-0.44936428,0.59119,0.59774943,-0.43390682,0.564492,0.58327772,-0.39857462,0.550054,0.5760568,-0.38046496,0.542835,0.58365586,-0.37374979,0.549487,0.6094304,-0.44219535,0.55528,0.57129406,-0.43558913,0.534256,0.57673899,-0.47484835,0.555385,0.57908525,-0.5030009,0.569622,0.61872969,-0.45285974,0.548881,0.59390598,-0.43902082,0.531832,0.57094788,-0.44903386,0.523109,0.57192553,-0.47375918,0.533097,0.62919897,-0.47309409,0.543508,0.58934145,-0.46132035,0.526927,0.59342628,-0.48435263,0.540561,0.6060575,-0.50114436,0.552756
0.5822939,-0.54549637,0.58668,0.58046954,-0.49242432,0.56948,0.56566332,-0.51901223,0.588393,0.58075918,-0.50169696,0.589182,0.57650128,-0.46589619,0.586802,0.57820236,-0.44046372,0.582516,0.57488654,-0.42437323,0.557238,0.55616603,-0.39017053,0.540534,0.54677851,-0.37267624,0.532182,0.54679986,-0.36219812,0.532945,0.58706052,-0.43382301,0.548851,0.54397227,-0.42853328,0.525622,0.54860713,-0.46659887,0.546407,0.55142977,-0.49456714,0.561333,0.59691361,-0.44553502,0.54329,0.56667838,-0.43327383,0.523917,0.54179672,-0.4426545,0.514005,0.54221694,-0.46534734,0.523147,0.60827045,-0.4671601,0.539218,0.56439723,-0.45593073,0.520719,0.56830215,-0.47764554,0.534078,0.5822265,-0.49374265,0.546929
0.56759539,-0.54366585,0.586458,0.56764068,-0.4938707,0.569676,0.56036732,-0.52112483,0.589488,0.56791654,-0.5037672,0.591288,0.56550299,-0.46916747,0.589897,0.56785371,-0.44402548,0.586162,0.56304788,-0.42690969,0.559394,0.5435571,-0.38794092,0.544102,0.53376126,-0.36812649,0.536455,0.53288377,-0.35527892,0.537634,0.57389567,-0.43471186,0.549546,0.53152762,-0.4290684,0.527181,0.53683945,-0.46705374,0.547366,0.54085848,-0.49443547,0.561791,0.58262866,-0.44505147,0.542751,0.55254645,-0.43265457,0.524563,0.52925707,-0.44305889,0.515257,0.53076192,-0.46662101,0.524318,0.5926518,-0.46502452,0.537144,0.54961997,-0.45434702,0.519688,0.55351951,-0.47633276,0.532688,0.56758556,-0.49249266,0.5452
0.56321606,-0.54000021,0.585445,0.56039755,-0.48353929,0.567692,0.5494684,-0.51591735,0.587223,0.55853557,-0.49401169,0.587664,0.55405575,-0.45989134,0.58541,0.55477348,-0.43429271,0.580779,0.55166949,-0.41549301,0.555067,0.52955578,-0.37810815,0.538119,0.51842657,-0.35908044,0.529644,0.51550631,-0.3464368,0.529377,0.56418915,-0.42396658,0.546398,0.52082967,-0.42125651,0.52273,0.52632583,-0.45933108,0.543158,0.53042222,-0.48732878,0.558131,0.57445812,-0.43489559,0.540648,0.54248676,-0.42511358,0.520722,0.51892361,-0.43575553,0.510528,0.5231772,-0.46008706,0.51928,0.58659906,-0.45561611,0.536432,0.54231543,-0.44717311,0.517665,0.54665909,-0.46848115,0.530787,0.56144774,-0.48370719,0.543853
0.53126889,-0.51599205,0.578168,0.54007453,-0.46906673,0.565623,0.52271703,-0.4947489,0.581313,0.53699916,-0.47837595,0.584312,0.53478417,-0.44622029,0.58471,0.53855219,-0.42293091,0.583528,0.53661227,-0.40559721,0.559018,0.51957792,-0.37059937,0.546206,0.51096324,-0.35257117,0.5398,0.50866625,-0.33958045,0.539917,0.55005965,-0.41379858,0.550577,0.51386317,-0.41535449,0.531866,0.52050494,-0.455588,0.554204,0.52318246,-0.48331229,0.568233,0.56062832,-0.42420076,0.54461,0.53576933,-0.41810941,0.52947,0.51545542,-0.43164856,0.521725,0.51920831,-0.45675115,0.533014,0.57223791,-0.44366205,0.53936,0.53374265,-0.43911476,0.524389,0.53884194,-0.46191757,0.538843,0.55353521,-0.47774403,0.552611
0.52409904,-0.49941565,0.59115,0.52391324,-0.44744216,0.56876,0.50889404,-0.47376825,0.587535,0.51598156,-0.4563664,0.582327,0.50425842,-0.4199199,0.572528,0.50217984,-0.39375743,0.564352,0.50466408,-0.37514073,0.545661,0.47815388,-0.3398408,0.521611,0.46484182,-0.32194043,0.509586,0.46086862,-0.31101408,0.507649,0.52281827,-0.38657245,0.541906,0.47867313,-0.38792726,0.512549,0.4833479,-0.42350952,0.532743,0.48881579,-0.45118833,0.549701,0.53806805,-0.40003414,0.54056,0.50350088,-0.39363337,0.513704,0.47844647,-0.4031076,0.499964,0.47777492,-0.42082888,0.506692,0.55677369,-0.42394293,0.542286,0.51051659,-0.41835608,0.517942,0.51358284,-0.43709162,0.530749,0.52507371,-0.44740793,0.542049
0.51257036,-0.49456255,0.581379,0.50374224,-0.44204671,0.560126,0.49977424,-0.47255924,0.581717,0.48514507,-0.46099335,0.577012,0.46201017,-0.43241035,0.558757,0.45218073,-0.40681722,0.548497,0.48164265,-0.37223235,0.542818,0.45443155,-0.32569522,0.522722,0.44088006,-0.30261785,0.512673,0.4397424,-0.28908506,0.516635,0.49580467,-0.37739406,0.534634,0.44921445,-0.3758277,0.50754,0.45896985,-0.41120289,0.526655,0.46765541,-0.43860383,0.542456,0.50824306,-0.38589493,0.529556,0.47301643,-0.36461778,0.506442,0.45436435,-0.37747661,0.494617,0.45981949,-0.39991119,0.501657,0.52457336,-0.40434469,0.526663,0.47740025,-0.3981417,0.505138,0.48309506,-0.41887045,0.517335,0.50049211,-0.42783909,0.528097
0.50783111,-0.49221179,0.580948,0.49102791,-0.43385099,0.558558,0.48800617,-0.47030709,0.579446,0.47197233,-0.4558621,0.570271,0.44568314,-0.42485576,0.550021,0.43509193,-0.39958266,0.540807,0.46375551,-0.36435321,0.538048,0.43621881,-0.31719157,0.515748,0.42249818,-0.29379464,0.504598,0.42035378,-0.27948666,0.506881,0.48077317,-0.37035048,0.531703,0.43700921,-0.3743977,0.503014,0.44727048,-0.40766889,0.522395,0.46064807,-0.43473274,0.538856,0.49563277,-0.37943823,0.528227,0.46298259,-0.36284897,0.503072,0.44456912,-0.37529663,0.490202,0.45169406,-0.39627074,0.496869,0.5150008,-0.39833774,0.527412,0.46997175,-0.3972328,0.504203,0.47506843,-0.41846389,0.516523,0.49034515,-0.42657992,0.527393
0.50149786,-0.49356219,0.58328,0.48688385,-0.43846823,0.563771,0.47942317,-0.46818619,0.581304,0.46137985,-0.45474306,0.568953,0.43892615,-0.42747195,0.553285,0.42994856,-0.40353091,0.545893,0.46160379,-0.36950703,0.545082,0.43130973,-0.33198738,0.523963,0.41462677,-0.33422379,0.513403,0.41774167,-0.35854844,0.521506,0.48021695,-0.376872,0.540372,0.43774784,-0.38227174,0.51394,0.4491561,-0.41762162,0.535169,0.45858656,-0.44419902,0.551829,0.49626132,-0.38704021,0.538015,0.46439602,-0.37104047,0.514475,0.44662061,-0.38462931,0.502431,0.45152329,-0.40751313,0.510744,0.51667022,-0.40711757,0.538108,0.47227338,-0.40675085,0.516237,0.47819518,-0.42917496,0.529785,0.4947004,-0.43821509,0.541739
0.47696401,-0.44034578,0.614147,0.48243568,-0.39174757,0.584254,0.46832859,-0.41113781,0.608581,0.44857502,-0.3620763,0.590827,0.42830861,-0.32358863,0.574541,0.42241798,-0.29583026,0.562291,0.47489905,-0.31841543,0.552506,0.42495437,-0.31261967,0.522532,0.39638444,-0.31665733,0.507546,0.39122614,-0.32848892,0.509876,0.48726072,-0.33510093,0.548398,0.44386481,-0.31387195,0.512445,0.43496257,-0.34012441,0.528078,0.44662514,-0.35704946,0.545989,0.49733426,-0.35265877,0.547346,0.44201385,-0.34500063,0.510458,0.41273588,-0.3505392,0.491584,0.40537873,-0.3662205,0.492459,0.50907667,-0.38105495,0.55054,0.45796038,-0.36984057,0.521307,0.46251886,-0.39134987,0.531016,0.47442088,-0.41261257,0.545069
0.47142067,-0.4344335,0.615105,0.47317976,-0.38258929,0.585259,0.46273093,-0.40539838,0.609113,0.43767799,-0.35135666,0.590412,0.41876859,-0.31444683,0.573493,0.41250151,-0.28623066,0.559463,0.46835725,-0.31200633,0.553028,0.41944363,-0.30885468,0.517817,0.38913091,-0.31146769,0.500211,0.38215993,-0.32124585,0.50112,0.48111919,-0.32962556,0.54946,0.44253678,-0.313752,0.51193,0.43327329,-0.33955246,0.527676,0.44429321,-0.35545262,0.546194,0.49115899,-0.34750265,0.548849,0.44144635,-0.34526524,0.511707,0.41194652,-0.35048562,0.492704,0.40404146,-0.36533891,0.493645,0.50234085,-0.37547863,0.552561,0.45588883,-0.36865691,0.521647,0.46060462,-0.38993487,0.532293,0.4725515,-0.41087154,0.547302
0.46832539,-0.43135111,0.624748,0.47143397,-0.38172138,0.595866,0.45998484,-0.40308502,0.61959,0.43613489,-0.35286176,0.602529,0.41626597,-0.31584857,0.586364,0.40979465,-0.28784253,0.573175,0.46561258,-0.31079814,0.565462,0.41497662,-0.30613597,0.530882,0.3857509,-0.30984401,0.513592,0.37941892,-0.32015111,0.514949,0.47853161,-0.32738134,0.561224,0.43806018,-0.31008642,0.524487,0.42928166,-0.33653089,0.540698,0.43991703,-0.3520628,0.559075,0.48878194,-0.34453906,0.559986,0.437314,-0.34108033,0.523392,0.40917823,-0.34731522,0.504669,0.40213224,-0.3627222,0.506057,0.50033569,-0.37188394,0.562808,0.45139482,-0.36348301,0.532568,0.45647094,-0.38466901,0.543357,0.46827229,-0.40507251,0.558183
0.45775806,-0.42549545,0.627195,0.46048072,-0.37409162,0.602213,0.4411441,-0.39379448,0.623557,0.42339478,-0.3472632,0.608881,0.40581422,-0.31007155,0.594842,0.4007917,-0.28267246,0.583555,0.45834101,-0.30426514,0.576923,0.41476562,-0.29830983,0.545466,0.38793311,-0.30340444,0.529737,0.3821473,-0.31734168,0.533322,0.47193042,-0.31956075,0.572249,0.43947393,-0.29945569,0.538969,0.43250015,-0.32828229,0.557463,0.44079066,-0.3457763,0.575307,0.48245585,-0.33564677,0.570349,0.43882539,-0.33107999,0.536915,0.41310782,-0.33996163,0.51981,0.40758994,-0.3590655,0.523557,0.49383842,-0.3617223,0.5718,0.45149906,-0.35316682,0.544502,0.45750218,-0.37660167,0.556752,0.46818946,-0.39797477,0.571109
0.4535899,-0.42811955,0.641974,0.45277248,-0.37845784,0.613511,0.44557547,-0.40064792,0.638352,0.42233433,-0.35630254,0.624061,0.40833726,-0.31940023,0.612147,0.40879065,-0.29182888,0.601001,0.44706396,-0.3083551,0.585338,0.40210106,-0.28909417,0.550774,0.37366747,-0.29266621,0.533491,0.36060551,-0.30709686,0.53458,0.45810394,-0.32352709,0.579372,0.42561571,-0.29229122,0.543373,0.41556129,-0.3185717,0.559196,0.42414291,-0.33838373,0.577184,0.46694751,-0.33961926,0.57668,0.40776036,-0.33009751,0.53983,0.38019591,-0.32856818,0.520977,0.37196407,-0.33676893,0.521994,0.47703256,-0.3658306,0.577704,0.42589141,-0.35642881,0.5479,0.43271686,-0.3784462,0.558346,0.45232496,-0.39270481,0.573036
0.45528851,-0.42944361,0.647718,0.45374935,-0.37825639,0.61779,0.44762827,-0.40283199,0.645321,0.42397343,-0.35537076,0.632554,0.40945859,-0.31806621,0.621837,0.40514536,-0.2908012,0.610523,0.44131305,-0.30458394,0.589897,0.38404258,-0.29817306,0.553899,0.35434945,-0.29736185,0.5359,0.34298875,-0.30846234,0.535167,0.45170741,-0.31778298,0.581894,0.4155523,-0.28559501,0.544224,0.40432874,-0.31132265,0.557719,0.41369381,-0.33140128,0.575581,0.46030703,-0.33236402,0.57764,0.39885342,-0.32365783,0.538992,0.37154293,-0.3227927,0.519219,0.36070315,-0.33131576,0.518187,0.47071058,-0.35700327,0.57702,0.4170252,-0.34815902,0.54527,0.42438406,-0.36927726,0.554538,0.44706955,-0.38675531,0.569249
0.45528734,-0.42930349,0.64938,0.45358182,-0.37792037,0.618718,0.44696026,-0.40243957,0.646411,0.42274373,-0.35579189,0.632668,0.40659073,-0.31825825,0.621033,0.40084919,-0.29075527,0.609103,0.44063289,-0.30447482,0.589512,0.38291534,-0.29798788,0.553005,0.35321466,-0.29675857,0.534751,0.34106384,-0.3077833,0.533683,0.45137315,-0.31791333,0.581942,0.40521232,-0.29373932,0.543649,0.39614663,-0.32009905,0.556815,0.41143287,-0.33417053,0.574799,0.46033048,-0.33274334,0.578101,0.39837836,-0.32397916,0.538994,0.37101758,-0.32291309,0.518986,0.36004414,-0.33116854,0.517617,0.47128578,-0.35777965,0.578083,0.4172614,-0.34898118,0.546111,0.42445289,-0.36987693,0.555065,0.44655098,-0.38611355,0.569775
0.42051458,-0.39510166,0.636356,0.43505285,-0.35513381,0.609146,0.41598588,-0.36692676,0.63129,0.39512695,-0.31938571,0.613151,0.38252546,-0.28083797,0.600551,0.37499565,-0.25450607,0.588325,0.4404901,-0.28909775,0.58025,0.39047575,-0.2824748,0.547136,0.36193115,-0.28537448,0.53058,0.34984015,-0.29665168,0.533107,0.45098819,-0.30826275,0.576511,0.40077577,-0.29946131,0.541283,0.39620617,-0.32267161,0.558757,0.40961224,-0.33801597,0.576985,0.45841289,-0.32986493,0.575553,0.40603376,-0.32008582,0.540552,0.37837009,-0.31965589,0.522645,0.3668036,-0.3330212,0.525308,0.46593195,-0.35527875,0.578459,0.41930787,-0.34580511,0.549505,0.42316785,-0.36743328,0.561262,0.43918721,-0.38217521,0.576286
0.41688274,-0.39933371,0.638721,0.42581651,-0.36026923,0.610016,0.41122317,-0.3702189,0.632262,0.39355486,-0.3215487,0.613563,0.3801803,-0.28169265,0.598481,0.37287323,-0.25511053,0.584868,0.42894088,-0.29204282,0.578165,0.38038034,-0.28587111,0.544091,0.34928536,-0.29083867,0.527055,0.33863255,-0.30343488,0.528932,0.44088049,-0.31147477,0.575587,0.39259418,-0.30244866,0.539131,0.38547784,-0.32823926,0.555947,0.39754233,-0.34216644,0.574412,0.44980468,-0.33059798,0.575701,0.39913057,-0.32462752,0.539891,0.37270611,-0.32510428,0.521569,0.36487745,-0.33375948,0.523592,0.45878244,-0.35959918,0.580108,0.41280585,-0.35014238,0.550118,0.41588688,-0.37132521,0.561352,0.43607945,-0.38317679,0.576515
0.40804973,-0.39605904,0.630815,0.42121542,-0.35809279,0.605121,0.40362206,-0.3677802,0.625735,0.3877478,-0.32127192,0.608527,0.37805203,-0.28094376,0.595351,0.37210467,-0.25506115,0.582459,0.42904513,-0.29209017,0.57747,0.38811201,-0.28238717,0.545745,0.35573728,-0.28412829,0.529882,0.34669905,-0.29527809,0.53343,0.44291393,-0.3125265,0.574302,0.3949418,-0.30362752,0.540488,0.38757341,-0.33060373,0.559018,0.3965882,-0.3457224,0.577066,0.44845997,-0.33005944,0.573696,0.40350468,-0.32274225,0.540222,0.37663008,-0.32377381,0.523095,0.36795233,-0.33532778,0.526875,0.45595633,-0.35831749,0.576797,0.41642581,-0.34857312,0.549066,0.41640594,-0.37066423,0.561457,0.43436816,-0.38330099,0.576465
0.40564507,-0.39358119,0.624929,0.43055105,-0.36025875,0.601377,0.40123791,-0.36515102,0.619311,0.39578649,-0.32045099,0.602897,0.38384805,-0.28061731,0.587712,0.37695058,-0.25583097,0.573065,0.44213194,-0.29636623,0.574852,0.39904929,-0.28909444,0.545302,0.36985584,-0.29044505,0.530526,0.35400254,-0.29856043,0.535529,0.45341916,-0.31702301,0.573128,0.4085082,-0.31162506,0.541438,0.4005847,-0.33853907,0.561389,0.40705757,-0.35380311,0.579114,0.46285944,-0.33728598,0.573543,0.41766635,-0.33202625,0.542545,0.389953,-0.33301909,0.526686,0.38196416,-0.34467308,0.53209,0.46802615,-0.36586651,0.577543,0.42821491,-0.3577696,0.55154,0.43103699,-0.37701891,0.564751,0.44265463,-0.38781502,0.579476
0.42563772,-0.40534914,0.633748,0.44315438,-0.36409195,0.60622,0.42199156,-0.37839171,0.628039,0.41170949,-0.32771232,0.611116,0.40142011,-0.28777377,0.596834,0.39604921,-0.26201042,0.583455,0.4455682,-0.29687682,0.576271,0.3987026,-0.28869471,0.543045,0.36795252,-0.28883838,0.526432,0.36104283,-0.29744833,0.528926,0.45646592,-0.31650039,0.573202,0.4132067,-0.30769146,0.537746,0.40661119,-0.33476073,0.555205,0.41489635,-0.35140785,0.573511,0.46587536,-0.33610595,0.572822,0.41668927,-0.32944059,0.537811,0.39241013,-0.33033147,0.519898,0.38432678,-0.34113016,0.522558,0.47613094,-0.3642484,0.576464,0.43189565,-0.35447037,0.547464,0.43424694,-0.37756865,0.559299,0.45046439,-0.38930003,0.574482
0.42510387,-0.40473092,0.632703,0.43864056,-0.36282604,0.604862,0.42109641,-0.37747649,0.626943,0.40956131,-0.3269771,0.609675,0.39863429,-0.28681625,0.594898,0.38822254,-0.26014269,0.579848,0.44426609,-0.2955635,0.574586,0.39695454,-0.28770997,0.541091,0.36632913,-0.28800053,0.524344,0.35522017,-0.29749808,0.526635,0.45546251,-0.31492836,0.571467,0.41078477,-0.30611027,0.535726,0.40422932,-0.33320485,0.552973,0.41262071,-0.34991051,0.571315,0.46581693,-0.33313943,0.571069,0.41557586,-0.32800756,0.535771,0.38981106,-0.32904925,0.517712,0.37841495,-0.3392544,0.520152,0.47446042,-0.36244076,0.574737,0.42985523,-0.35269746,0.545405,0.43300082,-0.37413361,0.557024,0.44860262,-0.3874892,0.572047
0.42968635,-0.4067296,0.628442,0.44979952,-0.36128777,0.602251,0.42435015,-0.37867646,0.623659,0.41839353,-0.32633249,0.608403,0.40755865,-0.28661906,0.594539,0.39711659,-0.26093906,0.580206,0.45500558,-0.2946496,0.57455,0.40802039,-0.28845415,0.542286,0.37749309,-0.28992554,0.526155,0.36432067,-0.29817779,0.529291,0.46645434,-0.31334711,0.570837,0.42138049,-0.3061399,0.536527,0.41668721,-0.33332207,0.554626,0.42729457,-0.34803863,0.572718,0.47481338,-0.33172771,0.569821,0.42724378,-0.32759783,0.535704,0.39944999,-0.32949821,0.518249,0.38695397,-0.34133836,0.521563,0.48287616,-0.3595956,0.572507,0.4394114,-0.35158071,0.54436,0.44322819,-0.37345629,0.556552,0.45929467,-0.38649885,0.571545
0.42970245,-0.40175744,0.622568,0.45802683,-0.35911855,0.598635,0.43096619,-0.37087849,0.618122,0.42653889,-0.32426369,0.604546,0.41612996,-0.2851916,0.591578,0.4093777,-0.26028494,0.577886,0.46470139,-0.29397266,0.57323,0.41936569,-0.28881586,0.542966,0.38912504,-0.29085071,0.527834,0.37976739,-0.30042384,0.532332,0.47642988,-0.31284924,0.56993,0.43319919,-0.30682119,0.537721,0.42962271,-0.33485218,0.557172,0.43994705,-0.34938224,0.574929,0.4849049,-0.33129517,0.569078,0.43916118,-0.32844785,0.537094,0.41160292,-0.33107561,0.52073,0.40342052,-0.34480085,0.525518,0.49286099,-0.35904035,0.571623,0.45104293,-0.35223238,0.545369,0.45566282,-0.3747386,0.558463,0.47180376,-0.38782698,0.573509
0.48582891,-0.40661373,0.603251,0.4659568,-0.35826553,0.587469,0.48282752,-0.39476324,0.614279,0.45255218,-0.37306834,0.607041,0.44292494,-0.37839044,0.616465,0.4435285,-0.38429168,0.609285,0.44599001,-0.3043469,0.587824,0.39509299,-0.31462175,0.566311,0.4057048,-0.338793,0.574266,0.43098777,-0.34899143,0.584639,0.44348396,-0.30240363,0.56854,0.42285664,-0.25203959,0.556952,0.39792625,-0.23305279,0.550192,0.38411714,-0.24257277,0.555229,0.4407256,-0.30167097,0.553904,0.40355606,-0.26595068,0.53999,0.37920665,-0.27559465,0.532871,0.37617168,-0.29703425,0.53637,0.44198869,-0.30991436,0.538797,0.39841016,-0.32013448,0.528496,0.40929014,-0.33818316,0.535285,0.42911439,-0.34309635,0.541276
0.49322085,-0.40834635,0.600616,0.48997869,-0.36333024,0.58657,0.50370077,-0.39954712,0.612758,0.4756705,-0.37226065,0.606073,0.46745107,-0.37796016,0.617015,0.46658328,-0.38606065,0.610489,0.4804565,-0.30845552,0.589736,0.42799006,-0.31143123,0.573052,0.42634384,-0.33550286,0.580829,0.44609407,-0.35660303,0.590657,0.47458932,-0.30549511,0.569722,0.41906418,-0.29643148,0.555003,0.4114559,-0.31713665,0.546416,0.41978534,-0.33432764,0.54916,0.47081168,-0.30684442,0.55435,0.4321721,-0.27347154,0.544714,0.40621446,-0.27692363,0.539784,0.40044809,-0.29856832,0.544214,0.46829987,-0.31573056,0.538109,0.42228611,-0.31763563,0.529677,0.41904247,-0.32984023,0.53624,0.43085343,-0.34120842,0.542172
0.5152336,-0.41175272,0.603781,0.5100126,-0.35890328,0.586153,0.52370335,-0.39556617,0.614058,0.49374956,-0.36846442,0.60499,0.48528314,-0.37427772,0.613149,0.48443377,-0.38204058,0.604932,0.49613482,-0.30110041,0.584047,0.46507086,-0.25980826,0.570062,0.45023771,-0.23952286,0.563956,0.43458939,-0.241977,0.567526,0.49203783,-0.29913546,0.565009,0.43418191,-0.29367739,0.546429,0.40062402,-0.29047299,0.53559,0.39296911,-0.3081544,0.537169,0.48990571,-0.30142482,0.550718,0.44787796,-0.26906202,0.539195,0.42233592,-0.27366219,0.533299,0.41765613,-0.29528525,0.537031,0.48972931,-0.31169557,0.5363,0.44030784,-0.31038758,0.524593,0.43466685,-0.32085337,0.530799,0.44594719,-0.32935471,0.537326
0.52867941,-0.40893401,0.60185,0.51223586,-0.35920412,0.584748,0.52406048,-0.39387826,0.609572,0.50291713,-0.37552532,0.614173,0.48087777,-0.37304774,0.608976,0.48100171,-0.38228777,0.604225,0.49311166,-0.30082922,0.579951,0.45109264,-0.31742744,0.56922,0.45154668,-0.34337589,0.581702,0.46729113,-0.36686267,0.590923,0.49253971,-0.30025722,0.564236,0.44349239,-0.27416799,0.544001,0.41571014,-0.2875424,0.532196,0.42255724,-0.30620308,0.536857,0.49353022,-0.30372066,0.552638,0.45646358,-0.26657588,0.538449,0.43099421,-0.27272047,0.53119,0.42936602,-0.29615646,0.537963,0.50051816,-0.31630443,0.541352,0.44961658,-0.31692314,0.527205,0.44962006,-0.33039966,0.537009,0.46439933,-0.33868337,0.54579
0.55138256,-0.41510433,0.611428,0.54150226,-0.35976652,0.588732,0.55583725,-0.39767691,0.61855,0.52893556,-0.37746031,0.619531,0.50159476,-0.37395016,0.611421,0.49829783,-0.38208661,0.604551,0.52075283,-0.29735565,0.578532,0.4800301,-0.25894523,0.559546,0.463419,-0.24175985,0.55443,0.45688828,-0.23037596,0.560434,0.51889812,-0.29652095,0.561508,0.45692677,-0.28848418,0.537262,0.42196485,-0.29130503,0.523119,0.4157808,-0.30783851,0.523207,0.51899238,-0.29998473,0.549269,0.46588162,-0.28718698,0.531803,0.45178282,-0.30194817,0.522866,0.46575726,-0.31165415,0.524849,0.522197,-0.31219614,0.538051,0.46773602,-0.30953933,0.521391,0.46264812,-0.32231751,0.527299,0.47605338,-0.33365691,0.535453
0.58319853,-0.41421866,0.61205,0.56398318,-0.36126706,0.589855,0.57436018,-0.3968721,0.617082,0.54598218,-0.37495258,0.615445,0.51988446,-0.37102424,0.607236,0.51247413,-0.37502526,0.594458,0.5374697,-0.29817041,0.577515,0.49093499,-0.28879222,0.561619,0.46969702,-0.28553232,0.556481,0.46228359,-0.30420088,0.563941,0.54086987,-0.29905394,0.563234,0.48083073,-0.29108965,0.537726,0.44637461,-0.29558781,0.522846,0.4434662,-0.31399512,0.525438,0.54541194,-0.30391768,0.553213,0.49460714,-0.29270477,0.533645,0.47705992,-0.30600211,0.523633,0.49069526,-0.31569371,0.528082,0.55409166,-0.31775423,0.544566,0.49740297,-0.31498225,0.525982,0.4923019,-0.32739424,0.534792,0.5040548,-0.33771433,0.544749
0.59326188,-0.41368063,0.611255,0.58581443,-0.36101603,0.589718,0.59574305,-0.39665338,0.616832,0.56891773,-0.37471886,0.615981,0.54336248,-0.3700883,0.607479,0.53612421,-0.37383871,0.594569,0.56064705,-0.29843082,0.578593,0.51536533,-0.28881943,0.563572,0.49234831,-0.2839907,0.556061,0.48306932,-0.30119056,0.56119,0.56380417,-0.29909586,0.563886,0.50446343,-0.29084815,0.539169,0.46999082,-0.29529136,0.524751,0.4668359,-0.31384095,0.527488,0.56806566,-0.30375121,0.553464,0.51860667,-0.29229873,0.534772,0.50034531,-0.30592747,0.525209,0.5136072,-0.31604294,0.529848,0.57625594,-0.31727566,0.544239,0.52058626,-0.31375831,0.526384,0.51429964,-0.32618219,0.535172,0.52415432,-0.33688155,0.544863
0.61020562,-0.41442483,0.607905,0.61395583,-0.36652281,0.588763,0.619793,-0.40036851,0.615685,0.59724108,-0.37889827,0.616657,0.57004574,-0.37054508,0.607995,0.55912462,-0.37390383,0.594626,0.60901999,-0.3052193,0.582334,0.56650618,-0.28747353,0.570825,0.54488892,-0.27846207,0.56507,0.53304701,-0.29232484,0.570598,0.6066637,-0.30662447,0.565802,0.54544004,-0.29614928,0.544191,0.50979688,-0.29570112,0.531585,0.49934684,-0.31088416,0.534532,0.60538514,-0.3117669,0.553692,0.55623684,-0.29371174,0.538497,0.53178929,-0.30581534,0.530723,0.54040911,-0.322347,0.535731,0.60503354,-0.32562636,0.542098,0.54982333,-0.31387883,0.527183,0.54075573,-0.32333503,0.535501,0.54636735,-0.33670192,0.543976
0.67162895,-0.41143645,0.630299,0.65612545,-0.361606,0.6002,0.66781121,-0.38850013,0.632367,0.64055692,-0.37695948,0.625678,0.61396172,-0.37086983,0.617244,0.59820834,-0.37081439,0.6052,0.63818116,-0.29325456,0.577637,0.58429881,-0.27370137,0.555819,0.55741642,-0.26394149,0.54491,0.54067073,-0.27543693,0.544277,0.63717692,-0.30248537,0.5641,0.56390119,-0.28767081,0.531964,0.52124581,-0.28215165,0.513218,0.50309805,-0.29156277,0.510242,0.63771278,-0.31405157,0.555306,0.57681433,-0.2955906,0.529367,0.54521617,-0.30249174,0.516096,0.54573165,-0.31164831,0.514505,0.64087453,-0.33547591,0.549298,0.57864918,-0.31936548,0.525716,0.56453639,-0.32261862,0.530153,0.56798608,-0.33063523,0.540172
0.67860048,-0.41229753,0.630583,0.67468487,-0.3619987,0.60046,0.67183841,-0.38760381,0.630062,0.64399408,-0.3766011,0.618504,0.61334514,-0.35704079,0.607813,0.59707488,-0.33545229,0.59706,0.65643738,-0.29119834,0.574704,0.60146886,-0.27599777,0.549821,0.57403323,-0.26840242,0.53738,0.5578846,-0.27963721,0.538576,0.66113273,-0.30189829,0.56433,0.58633518,-0.2908497,0.53038,0.54289079,-0.28588595,0.510576,0.52609853,-0.29582725,0.509808,0.66614817,-0.31483807,0.558141,0.60186301,-0.30016898,0.529453,0.56565233,-0.30385228,0.514776,0.56511515,-0.31185907,0.515296,0.67414303,-0.33823467,0.555242,0.60569796,-0.31973996,0.529227,0.59451743,-0.3245363,0.536374,0.59729861,-0.33517972,0.548302
0.72232316,-0.41814612,0.651526,0.70783599,-0.37417535,0.614472,0.71965606,-0.39083299,0.647454,0.68543987,-0.37487107,0.63266,0.65521305,-0.36172874,0.61983,0.63836342,-0.34484012,0.606045,0.69173531,-0.30500744,0.578583,0.62972213,-0.28165329,0.548382,0.59767994,-0.27066357,0.533282,0.57183525,-0.27223227,0.528267,0.68998236,-0.32179723,0.570028,0.59928818,-0.30202481,0.530679,0.54903145,-0.29034114,0.507726,0.52438435,-0.28742853,0.500919,0.68979451,-0.33923764,0.565874,0.62686869,-0.30838205,0.531643,0.58561974,-0.30719809,0.51413,0.57790968,-0.31111612,0.507983,0.6918475,-0.36692916,0.566434,0.61624442,-0.34240187,0.536278,0.6115228,-0.35182023,0.538256,0.61843564,-0.36627334,0.549636
0.74528601,-0.4180229,0.651334,0.73074273,-0.37410532,0.614357,0.74243976,-0.39070562,0.647243,0.70852968,-0.37468206,0.632341,0.6779774,-0.36382541,0.619386,0.66056248,-0.34825429,0.605453,0.71434893,-0.30496896,0.57851,0.6519842,-0.2815973,0.548273,0.61970829,-0.27059861,0.533154,0.59358582,-0.27225133,0.528304,0.71280929,-0.32178424,0.570005,0.62069652,-0.30200659,0.530647,0.56960301,-0.29031998,0.507689,0.54493201,-0.28750427,0.501051,0.71280913,-0.33924543,0.565887,0.64956699,-0.30837335,0.531628,0.60698783,-0.30718076,0.514101,0.59858497,-0.3112086,0.508134,0.71509918,-0.36695766,0.566478,0.63816516,-0.34240506,0.536283,0.63319553,-0.35194181,0.538442,0.64019281,-0.36645394,0.549907
0.79975535,-0.40651195,0.671037,0.78030833,-0.37075079,0.630375,0.79747828,-0.3782918,0.662578,0.75478723,-0.3607384,0.643245,0.71905587,-0.34974955,0.628919,0.69774791,-0.33593269,0.613196,0.76082591,-0.30666766,0.586103,0.69149458,-0.27990933,0.551596,0.65580229,-0.26688753,0.534343,0.62320005,-0.26190713,0.524987,0.75680961,-0.32792342,0.581603,0.65553092,-0.30006567,0.539251,0.59999677,-0.28412096,0.514546,0.56982738,-0.27671149,0.503898,0.75504225,-0.34838837,0.581068,0.6822278,-0.31562533,0.542802,0.63587318,-0.30762602,0.523223,0.62229879,-0.3063188,0.512555,0.75579745,-0.37838473,0.58648,0.67413497,-0.34572251,0.553446,0.66484982,-0.34962157,0.551998,0.67174345,-0.36073871,0.563063
0.75759869,-0.39578277,0.619911,0.76137578,-0.34959091,0.599381,0.75471911,-0.37426902,0.623025,0.73201967,-0.35167739,0.616031,0.70789939,-0.32666451,0.606582,0.69543347,-0.30409935,0.596982,0.75995026,-0.28679387,0.586078,0.72800903,-0.25083067,0.568934,0.71195166,-0.23260265,0.560362,0.7090348,-0.24084719,0.567278,0.76502476,-0.29519567,0.574756,0.71896645,-0.26307181,0.549422,0.68027542,-0.2649169,0.534643,0.676307,-0.28400681,0.539596,0.76929063,-0.30585008,0.56704,0.73584727,-0.26585034,0.546657,0.70814397,-0.2774409,0.536229,0.70972142,-0.30072435,0.542953,0.77431113,-0.32577533,0.560893,0.71600708,-0.30392187,0.541554,0.71712209,-0.31551346,0.552783,0.71987886,-0.32639871,0.563943
0.82905014,-0.38364442,0.659465,0.80589809,-0.33784042,0.620117,0.8169283,-0.35579052,0.653469,0.79261646,-0.31134821,0.633008,0.77321641,-0.27199802,0.615053,0.76421761,-0.24530933,0.598611,0.77106161,-0.26664569,0.579959,0.69482133,-0.26867049,0.548262,0.65784483,-0.26912679,0.532414,0.63763317,-0.27960802,0.523579,0.77759501,-0.28336686,0.572922,0.68427228,-0.27941598,0.532503,0.63128362,-0.28149684,0.508925,0.61324852,-0.284531,0.498494,0.78498841,-0.30087195,0.570197,0.69553276,-0.29482352,0.534547,0.64986074,-0.29282214,0.516308,0.61838735,-0.29387018,0.506097,0.79750456,-0.32889079,0.572802,0.71524318,-0.31039849,0.541877,0.67799758,-0.30147667,0.528611,0.6592345,-0.29950413,0.527135
0.84895881,-0.38800259,0.67303,0.83157917,-0.3424173,0.631722,0.83204967,-0.35776146,0.66247,0.80922204,-0.31035162,0.636393,0.78781355,-0.27075106,0.614081,0.77928461,-0.24461501,0.596892,0.79432341,-0.27198351,0.584336,0.71350052,-0.27323678,0.547512,0.67424674,-0.27317004,0.529099,0.65139535,-0.28201618,0.519895,0.80672656,-0.29227432,0.582176,0.71091524,-0.28822743,0.538378,0.65400382,-0.28804544,0.512829,0.63108253,-0.28997078,0.502616,0.81874367,-0.31249017,0.583615,0.725204,-0.30545346,0.543241,0.67416184,-0.30035755,0.522584,0.64075391,-0.29992931,0.512179,0.83632953,-0.34326168,0.591477,0.75127559,-0.32373171,0.556702,0.70987886,-0.3125103,0.540724,0.68071818,-0.30703705,0.532296
0.84032756,-0.38119654,0.66731,0.82350616,-0.33944832,0.625477,0.8224873,-0.35018408,0.65411,0.80759352,-0.29584949,0.629734,0.78946404,-0.25654234,0.608962,0.7834117,-0.23188704,0.592505,0.79511779,-0.27489977,0.57442,0.7098484,-0.27220852,0.535459,0.66848219,-0.27021778,0.515979,0.63719049,-0.27512654,0.505864,0.80643319,-0.29891634,0.575302,0.70790478,-0.28975749,0.530595,0.65008118,-0.28408479,0.504515,0.62008346,-0.28252558,0.493782,0.81695482,-0.32152759,0.579286,0.72123975,-0.30955452,0.537105,0.66608836,-0.2981097,0.515524,0.64194335,-0.29067443,0.504273,0.8316837,-0.3538758,0.590261,0.74790507,-0.33071256,0.554159,0.7059947,-0.31664384,0.537572,0.67662671,-0.30555091,0.52855
0.84327559,-0.37528461,0.667849,0.82642297,-0.33912744,0.625873,0.82748875,-0.34470199,0.653949,0.81623658,-0.292149,0.628342,0.79753252,-0.25314814,0.60649,0.79130686,-0.22900786,0.589439,0.8016053,-0.27529439,0.573837,0.71084476,-0.27174568,0.534665,0.66868579,-0.26947416,0.515079,0.63680811,-0.27387457,0.504002,0.80968032,-0.29956517,0.575526,0.70976736,-0.28992846,0.530959,0.65139267,-0.28387736,0.504962,0.62014774,-0.28245871,0.493379,0.82058901,-0.32259614,0.580185,0.72327051,-0.30996563,0.537898,0.66801502,-0.29871161,0.516263,0.64310735,-0.28946258,0.504011,0.83586094,-0.35528746,0.591986,0.75127718,-0.33161386,0.555937,0.70899713,-0.31532312,0.539374,0.68002425,-0.305881,0.529642
0.85172504,-0.37546793,0.674545,0.83799506,-0.34243228,0.63351,0.83748793,-0.33827429,0.656979,0.81743724,-0.2907501,0.628529,0.80233471,-0.25096953,0.605049,0.79937628,-0.22894822,0.588593,0.81032932,-0.28611992,0.577766,0.72538087,-0.2739118,0.536664,0.6801063,-0.26928521,0.516113,0.6442263,-0.27203213,0.504345,0.82298841,-0.31394251,0.58429,0.73371537,-0.30040377,0.539988,0.67273977,-0.29105566,0.514146,0.63655102,-0.28488833,0.502518,0.83444578,-0.33889378,0.592853,0.74581319,-0.32534964,0.549292,0.68967904,-0.30998176,0.527005,0.66016925,-0.29518955,0.514239,0.84997755,-0.37240053,0.609171,0.76312516,-0.35388701,0.572345,0.73073893,-0.34914257,0.555424,0.70976263,-0.34750614,0.545384
0.8526523,-0.37359987,0.675024,0.84085025,-0.3421364,0.634015,0.83874968,-0.33746524,0.65742,0.82078604,-0.28924967,0.629379,0.80564943,-0.25081898,0.606318,0.80357083,-0.22904437,0.590415,0.81196983,-0.28630681,0.578247,0.72701169,-0.27408081,0.537106,0.68170347,-0.26945136,0.516536,0.6465037,-0.27174456,0.504825,0.82471572,-0.31417692,0.584828,0.73548126,-0.30063904,0.540514,0.67445218,-0.29129965,0.514663,0.64191627,-0.2844847,0.503099,0.83623363,-0.33917173,0.593436,0.74542462,-0.32504166,0.549844,0.68956121,-0.30936123,0.52754,0.66362037,-0.29553237,0.514838,0.85181327,-0.37273558,0.609803,0.76490387,-0.35421994,0.572946,0.73240324,-0.34948465,0.556012,0.7114139,-0.34789131,0.546018
0.85932251,-0.36738159,0.678519,0.84787823,-0.34305636,0.63834,0.84488895,-0.33707849,0.660758,0.8330303,-0.28368701,0.634489,0.82278421,-0.2447839,0.612917,0.81923928,-0.22207939,0.59644,0.82388101,-0.28871693,0.583073,0.73198928,-0.27630571,0.54136,0.68610163,-0.26671805,0.520504,0.67919852,-0.25937496,0.511001,0.83446478,-0.3171474,0.590149,0.74069124,-0.30286435,0.545514,0.68165525,-0.28501158,0.519478,0.67464508,-0.27643986,0.510173,0.84572723,-0.3424647,0.599099,0.75161208,-0.32717956,0.555007,0.69523706,-0.31160049,0.532447,0.67094111,-0.29931968,0.522151,0.86071897,-0.37614999,0.615751,0.77265051,-0.35678839,0.578252,0.73959682,-0.35174406,0.561023,0.72068019,-0.35115536,0.552764
0.85212062,-0.36263539,0.672534,0.84039068,-0.33907141,0.632217,0.83707611,-0.33237296,0.653987,0.8207683,-0.28116935,0.626635,0.80668805,-0.2466415,0.604892,0.80859777,-0.22373811,0.590763,0.81453051,-0.28503182,0.57587,0.72172204,-0.2727561,0.534294,0.70251238,-0.27341678,0.533406,0.72702206,-0.27788179,0.547454,0.82635945,-0.31368232,0.58386,0.73188333,-0.29941971,0.53979,0.7064497,-0.29562819,0.538717,0.7325378,-0.30034395,0.554321,0.83842243,-0.33916875,0.593572,0.74391165,-0.32361251,0.549754,0.68804298,-0.30833771,0.527336,0.66161382,-0.29528752,0.515153,0.85442861,-0.37304876,0.611154,0.76736347,-0.35384699,0.574135,0.73467697,-0.34881216,0.557126,0.7140424,-0.34727079,0.547528
0.8503343,-0.3641083,0.673087,0.83520162,-0.34139408,0.6327,0.83658421,-0.33183773,0.654577,0.8072731,-0.28190347,0.626051,0.79495625,-0.24297024,0.603072,0.7966035,-0.22522312,0.588138,0.80717284,-0.28521452,0.57634,0.71180738,-0.27300851,0.534845,0.69640161,-0.27571525,0.53366,0.72255121,-0.27722146,0.544838,0.82066525,-0.31377701,0.584259,0.71969192,-0.29627514,0.540238,0.69706758,-0.29182466,0.53879,0.72771353,-0.29778926,0.552226,0.8294396,-0.33894598,0.593919,0.7281145,-0.3211025,0.550173,0.6775087,-0.30458682,0.527792,0.65749002,-0.29458587,0.515375,0.84421807,-0.37234185,0.611448,0.75802915,-0.35287293,0.574511,0.72596922,-0.34760709,0.55754,0.70541811,-0.34575598,0.547773
0.84348534,-0.36418615,0.667656,0.82553291,-0.33855655,0.62595,0.83048158,-0.33486392,0.652058,0.81141032,-0.29119823,0.625222,0.79187935,-0.25212397,0.602182,0.77454619,-0.22892781,0.58311,0.79480181,-0.28315457,0.572058,0.70269721,-0.27113975,0.532544,0.68246393,-0.27338727,0.529127,0.70876934,-0.27882686,0.542204,0.80433025,-0.31002306,0.575926,0.69903341,-0.29290253,0.532035,0.67719038,-0.2894548,0.52766,0.70195294,-0.29494738,0.542163,0.8135332,-0.33444237,0.582356,0.71092548,-0.31511911,0.540044,0.65892271,-0.30065693,0.518396,0.63425305,-0.2917103,0.504431,0.82699542,-0.36779803,0.59623,0.73888592,-0.34513208,0.560458,0.70515776,-0.33848354,0.544022,0.68118096,-0.3345372,0.533092
0.83937681,-0.36661753,0.666348,0.8183987,-0.34074347,0.624773,0.82571854,-0.33797636,0.651608,0.80195698,-0.29329826,0.62547,0.7819575,-0.25382809,0.602353,0.76531233,-0.23486965,0.583225,0.78553449,-0.28408664,0.572042,0.69233201,-0.27302844,0.53372,0.67396164,-0.27413514,0.528947,0.69977268,-0.27940185,0.541679,0.7936131,-0.31041882,0.574906,0.69014686,-0.29367063,0.531837,0.6665716,-0.28922321,0.525729,0.69019648,-0.29426978,0.539391,0.80160861,-0.33432528,0.5805,0.70123989,-0.31556732,0.539296,0.65057335,-0.30137748,0.518215,0.62520117,-0.29195859,0.50338,0.81363318,-0.36697918,0.593357,0.72757374,-0.3448778,0.558585,0.69497415,-0.33845357,0.542609,0.67060037,-0.33407077,0.531056
0.82909982,-0.3804956,0.661874,0.80522864,-0.35276682,0.62073,0.81808087,-0.36036129,0.652044,0.79568053,-0.31369401,0.629081,0.77578666,-0.27405143,0.608821,0.76178998,-0.24877965,0.590819,0.77450746,-0.28609058,0.574374,0.68880352,-0.27251235,0.539532,0.67278659,-0.2768384,0.535933,0.69861028,-0.28416534,0.548244,0.77830098,-0.3083545,0.571379,0.67515513,-0.29170168,0.529337,0.65501847,-0.29461371,0.524537,0.68159423,-0.30268338,0.538237,0.78324711,-0.3298144,0.57212,0.68485639,-0.31167348,0.533712,0.6377207,-0.30171042,0.514061,0.60971624,-0.29458834,0.500915,0.79249493,-0.36127908,0.579125,0.70651393,-0.33717082,0.546297,0.6753817,-0.3307679,0.531214,0.65265072,-0.326687,0.520833
0.81986937,-0.38930437,0.660102,0.7926669,-0.35301752,0.619441,0.81141961,-0.36030813,0.651061,0.78499684,-0.31469606,0.629142,0.76595808,-0.27530682,0.609472,0.75223094,-0.25007383,0.591621,0.76380828,-0.28710745,0.574456,0.68019489,-0.27410604,0.540848,0.6634537,-0.27793936,0.536343,0.68817503,-0.2848295,0.547805,0.76646519,-0.30895336,0.57067,0.66545771,-0.2927665,0.529621,0.64441452,-0.29498102,0.523662,0.67000499,-0.30264912,0.53664,0.77041135,-0.32999464,0.570722,0.67441944,-0.31247311,0.533508,0.62871883,-0.30280768,0.514468,0.60070894,-0.29536257,0.500859,0.77837418,-0.36084178,0.576834,0.69460751,-0.337335,0.545056,0.66467613,-0.33117478,0.530455,0.64198436,-0.32684899,0.519751
0.81825559,-0.38974989,0.660579,0.7925392,-0.35321926,0.619795,0.80967828,-0.36067358,0.651426,0.78527919,-0.3148444,0.628676,0.76672792,-0.27546129,0.608425,0.75600743,-0.24981726,0.590303,0.76338488,-0.28716493,0.574571,0.67942784,-0.27401785,0.540674,0.66314512,-0.27803005,0.536518,0.68818717,-0.28505256,0.548234,0.766165,-0.30906596,0.570878,0.66483369,-0.29272781,0.529551,0.64436253,-0.29518945,0.524032,0.67025475,-0.30299258,0.537249,0.77022447,-0.33016406,0.571015,0.67387462,-0.31247194,0.533506,0.62802533,-0.30271762,0.514315,0.60031401,-0.29540267,0.500927,0.77834553,-0.36110013,0.577247,0.69423164,-0.33741917,0.545192,0.66416946,-0.33118102,0.530465,0.64169182,-0.32695276,0.519916
0.80754116,-0.38884828,0.658496,0.77752995,-0.35229165,0.618304,0.79971701,-0.36021251,0.650001,0.77172856,-0.31460541,0.627419,0.75367495,-0.27534264,0.606752,0.74071908,-0.25053858,0.58835,0.74965227,-0.2869337,0.57438,0.66802569,-0.27486849,0.541794,0.65088237,-0.27827572,0.53645,0.67466756,-0.28463089,0.547173,0.75182769,-0.308472,0.570097,0.65308296,-0.2932253,0.52995,0.63150789,-0.29484005,0.522925,0.65621061,-0.301994,0.535241,0.75533475,-0.32921103,0.569703,0.66167312,-0.31272156,0.533504,0.61746096,-0.30347187,0.514984,0.58963804,-0.29576778,0.500925,0.76271191,-0.3596176,0.575214,0.68101246,-0.33706719,0.544344,0.6523486,-0.33118392,0.530161,0.62985108,-0.32667649,0.519145
0.78943264,-0.38953858,0.659665,0.75675891,-0.35274291,0.619096,0.77036798,-0.36072964,0.650928,0.75033584,-0.31465906,0.627526,0.73234152,-0.27534128,0.606749,0.71957797,-0.25056072,0.588402,0.72826378,-0.28702362,0.57456,0.64667619,-0.27455598,0.541178,0.63165273,-0.27848269,0.536849,0.65627925,-0.2852135,0.548293,0.73054363,-0.30865543,0.570436,0.63238735,-0.29296414,0.529478,0.61345503,-0.29529393,0.52373,0.6389133,-0.3028409,0.536742,0.7341738,-0.32949996,0.570203,0.64092998,-0.31252988,0.533177,0.5975569,-0.3030299,0.514234,0.57164093,-0.29570756,0.500823,0.74176295,-0.36008399,0.57596,0.66173789,-0.33700999,0.544309,0.63234672,-0.33080111,0.529766,0.61013389,-0.32649795,0.519203
0.72555051,-0.40544389,0.597978,0.70958056,-0.35023434,0.579032,0.71826157,-0.39156599,0.605734,0.71095416,-0.36648877,0.609062,0.69298505,-0.3356195,0.608814,0.68304579,-0.31276353,0.604213,0.68788971,-0.29165715,0.572736,0.67026045,-0.24630943,0.561273,0.65206365,-0.23271774,0.555542,0.646255,-0.24396765,0.561248,0.68989249,-0.28722082,0.556306,0.63265795,-0.28238087,0.534807,0.64846513,-0.31479137,0.547969,0.67389538,-0.32788691,0.559877,0.69312825,-0.28762873,0.544264,0.64238126,-0.28706376,0.529139,0.6305566,-0.30301647,0.521401,0.64785123,-0.31194152,0.526607,0.70006731,-0.29609292,0.532722,0.6440996,-0.28997484,0.517856,0.63049659,-0.29804614,0.511026,0.63704722,-0.30821223,0.514155
0.71404868,-0.40504662,0.601948,0.6846398,-0.35318803,0.583371,0.69520204,-0.38607987,0.610117,0.690086,-0.37017588,0.613866,0.67613913,-0.34108667,0.614007,0.67056535,-0.31720072,0.611409,0.66886987,-0.2936507,0.577891,0.65956891,-0.24843225,0.568614,0.6411052,-0.23600161,0.563975,0.63330569,-0.24793851,0.570303,0.66783048,-0.29491286,0.561089,0.60771977,-0.28752815,0.540136,0.61963674,-0.31931142,0.552997,0.64585101,-0.33245108,0.565188,0.66822165,-0.29981581,0.548712,0.61274231,-0.30710887,0.53422,0.58632086,-0.31762482,0.526805,0.59048627,-0.3337342,0.531978,0.67098779,-0.31309606,0.536716,0.62497437,-0.30521403,0.522388,0.60714979,-0.30988528,0.517202,0.6178952,-0.31520114,0.521681
0.70792019,-0.41455348,0.618356,0.67692476,-0.36252154,0.594128,0.69278143,-0.39859489,0.624966,0.67848191,-0.37642802,0.62306,0.66272571,-0.34715826,0.621471,0.65243621,-0.32060221,0.61411,0.65265174,-0.29878248,0.582025,0.63980425,-0.25566232,0.573885,0.63335157,-0.23379868,0.569815,0.61426234,-0.22771884,0.566115,0.65114255,-0.29973238,0.565068,0.58591863,-0.28696529,0.539619,0.59107912,-0.31606802,0.547409,0.6161581,-0.3300159,0.55906,0.65174961,-0.30464966,0.553003,0.59189166,-0.30733429,0.534405,0.56380856,-0.3167363,0.52489,0.56391827,-0.33013176,0.525576,0.65598398,-0.31853707,0.54222,0.60750409,-0.30906327,0.52469,0.60092742,-0.31905692,0.529603,0.6153083,-0.32621222,0.537677
0.69181417,-0.41742397,0.618221,0.66546475,-0.36505503,0.594393,0.68695693,-0.40030182,0.625259,0.66713931,-0.37794863,0.624002,0.65274755,-0.34875719,0.622941,0.64347258,-0.32231928,0.615883,0.64309159,-0.30156563,0.58315,0.62845392,-0.25917598,0.576421,0.62108662,-0.23771703,0.573057,0.61435973,-0.21804972,0.569999,0.64113238,-0.30196624,0.565814,0.57719517,-0.28756987,0.540979,0.58120184,-0.31667953,0.548357,0.60548163,-0.33119795,0.559656,0.64126429,-0.30643828,0.553407,0.58259659,-0.30787913,0.535509,0.55521528,-0.31761492,0.526352,0.55565237,-0.33122011,0.526945,0.64474368,-0.31981382,0.542157,0.59779468,-0.30974585,0.52523,0.59056859,-0.31942794,0.529887,0.60419629,-0.326656,0.53765
0.68855286,-0.41808074,0.617514,0.6642242,-0.36564823,0.593902,0.68338647,-0.40087022,0.624316,0.66531843,-0.37997799,0.623323,0.6485964,-0.35498669,0.62243,0.63840412,-0.3289197,0.615677,0.64146319,-0.30216335,0.58255,0.63203485,-0.26151589,0.581234,0.62531526,-0.24088245,0.580576,0.62068572,-0.22189954,0.579978,0.64004254,-0.30267647,0.565582,0.57618943,-0.28826588,0.540594,0.5812753,-0.31797055,0.549052,0.60589412,-0.33269686,0.560745,0.64062232,-0.30724291,0.55346,0.5818824,-0.30863269,0.53529,0.55450634,-0.31839645,0.525994,0.55574103,-0.33235087,0.527242,0.64463671,-0.32073729,0.542519,0.59743138,-0.31069699,0.525311,0.59099146,-0.32078982,0.53067,0.60501914,-0.32817501,0.538804
0.68207884,-0.42150173,0.618134,0.65563164,-0.37103561,0.595165,0.67739215,-0.40482373,0.625525,0.65653882,-0.38772121,0.625253,0.64071142,-0.36164473,0.625042,0.6302397,-0.3359386,0.618602,0.63233129,-0.30846376,0.585069,0.61942137,-0.26829323,0.584018,0.61290461,-0.24799862,0.583493,0.60694288,-0.2294253,0.583015,0.6304207,-0.30801138,0.567615,0.56735728,-0.29439367,0.543505,0.57270306,-0.32407775,0.55159,0.59713671,-0.33850384,0.562849,0.63065146,-0.31177451,0.555044,0.57330635,-0.31430094,0.537854,0.54738823,-0.32488275,0.529059,0.54971279,-0.33890579,0.530316,0.63436502,-0.32429366,0.54347,0.58774509,-0.31541766,0.527097,0.58164568,-0.32563487,0.532233,0.59559472,-0.33265771,0.539986
0.67933379,-0.42177001,0.617344,0.65364809,-0.37053217,0.594756,0.67429485,-0.4052523,0.624674,0.65419787,-0.38839477,0.625118,0.63478663,-0.36412148,0.625266,0.62759778,-0.33779722,0.619645,0.62967765,-0.30830515,0.584904,0.61702583,-0.26871048,0.584883,0.60694995,-0.2488513,0.584872,0.60540864,-0.2306645,0.585457,0.6282792,-0.30764098,0.567664,0.56488296,-0.2893756,0.543669,0.56907108,-0.31976997,0.552616,0.59550404,-0.33763626,0.564104,0.62895284,-0.3112239,0.55524,0.57204841,-0.31459264,0.53808,0.54652023,-0.32548711,0.529301,0.54967922,-0.3399045,0.531144,0.63322844,-0.32351731,0.543783,0.58651382,-0.31501253,0.527394,0.58123729,-0.32584195,0.533094,0.59538814,-0.3330458,0.541072
0.67642546,-0.42169203,0.615857,0.6518925,-0.37036712,0.593802,0.67103917,-0.4052102,0.622968,0.64999378,-0.38883385,0.623736,0.63386257,-0.37015926,0.62357,0.62374849,-0.34753729,0.618445,0.6279596,-0.3083439,0.584126,0.6122563,-0.27007682,0.584897,0.60194571,-0.25283595,0.585283,0.59324754,-0.23615914,0.585633,0.62706328,-0.30763785,0.567349,0.56595696,-0.28388305,0.543435,0.56828303,-0.31453646,0.55376,0.59233325,-0.33512161,0.565651,0.62813962,-0.31118703,0.555264,0.57114466,-0.31487983,0.538018,0.54575312,-0.32584985,0.529194,0.55004511,-0.34094999,0.53194,0.63286192,-0.32344928,0.544133,0.58547868,-0.31471704,0.527609,0.58149826,-0.32631816,0.534208,0.59616825,-0.33400056,0.542582
0.67161686,-0.42073419,0.612675,0.64719211,-0.37020457,0.591584,0.66268735,-0.40733989,0.62022,0.6454787,-0.389418,0.621655,0.63031941,-0.37017352,0.622109,0.62028758,-0.34745073,0.617167,0.62417782,-0.30908128,0.583241,0.60966708,-0.27280347,0.585623,0.60159003,-0.25451254,0.586814,0.59355391,-0.23806819,0.587897,0.62312485,-0.30766521,0.566285,0.56401879,-0.28582131,0.543282,0.56662134,-0.31515341,0.554099,0.5887689,-0.33406411,0.565816,0.62402377,-0.31061028,0.553978,0.56580206,-0.31091237,0.537636,0.53970675,-0.32130393,0.529275,0.54283806,-0.33889431,0.53259,0.62758234,-0.32229988,0.542439,0.579849,-0.31328717,0.526647,0.57698081,-0.32578097,0.533587,0.59278833,-0.3338075,0.541835
0.66911933,-0.42012092,0.610307,0.64708055,-0.36988384,0.590436,0.66347254,-0.40616358,0.618709,0.63622938,-0.41086884,0.621112,0.60765508,-0.39577662,0.622286,0.59414159,-0.37768746,0.622409,0.62258451,-0.31265098,0.584162,0.6103917,-0.27443026,0.586888,0.60258386,-0.25612259,0.588251,0.59476526,-0.239662,0.58949,0.6218825,-0.30915614,0.566602,0.56334353,-0.2908628,0.545031,0.56583168,-0.32318086,0.555751,0.59114508,-0.33685779,0.566919,0.62204337,-0.31128218,0.553702,0.56740322,-0.30908597,0.538895,0.54154495,-0.31632593,0.53132,0.54435027,-0.3380071,0.534975,0.62555576,-0.32173456,0.541275,0.57943978,-0.31388695,0.526769,0.57662218,-0.32653,0.533676,0.59173998,-0.33414036,0.54146
0.67258923,-0.42856953,0.617852,0.64565022,-0.37475253,0.592552,0.66354912,-0.4121198,0.623055,0.62551649,-0.41086636,0.620697,0.59434148,-0.38674931,0.615396,0.58249064,-0.36785055,0.611753,0.61520559,-0.31007212,0.577832,0.60286813,-0.2739011,0.581413,0.59590935,-0.25579333,0.583203,0.58990114,-0.2384752,0.584831,0.6156681,-0.30886954,0.562207,0.55319167,-0.29317615,0.534945,0.55733558,-0.32375787,0.544241,0.57972673,-0.33813651,0.557021,0.61817335,-0.31324804,0.551323,0.5606504,-0.30402237,0.530586,0.53289119,-0.31014121,0.519977,0.53124215,-0.32895427,0.521108,0.62625393,-0.32897062,0.542107,0.58046446,-0.3126987,0.522728,0.5726246,-0.32410843,0.528581,0.58765024,-0.33283251,0.537671
0.67236488,-0.43025613,0.619358,0.64600064,-0.37638632,0.594263,0.66173225,-0.41453006,0.624178,0.62497823,-0.41114734,0.620967,0.59271537,-0.38561053,0.613973,0.58037045,-0.36539217,0.609954,0.61610184,-0.3112965,0.579245,0.60028643,-0.2746432,0.579166,0.59214463,-0.2566165,0.579126,0.58501449,-0.23919655,0.57909,0.61770715,-0.31071801,0.564164,0.559094,-0.28809906,0.536698,0.56023748,-0.31762299,0.547109,0.58207265,-0.33771505,0.560312,0.62158051,-0.31728667,0.553711,0.56585687,-0.31180426,0.5326,0.55122776,-0.32436861,0.521798,0.56206429,-0.33020126,0.523578,0.62998717,-0.33099542,0.544979,0.58614264,-0.31611521,0.525241,0.57809463,-0.32676867,0.531814,0.59008711,-0.33749365,0.54131
0.67296297,-0.43237304,0.621071,0.64312628,-0.37963089,0.595328,0.6600169,-0.41726385,0.625274,0.62492124,-0.41138263,0.621066,0.59375961,-0.38537208,0.614827,0.57973178,-0.36183248,0.609702,0.61349417,-0.31353067,0.579013,0.60162509,-0.275815,0.580104,0.59488837,-0.25697168,0.58065,0.58788896,-0.23822767,0.581146,0.61703073,-0.31375464,0.564451,0.55512139,-0.29419533,0.536153,0.55974651,-0.32550398,0.546748,0.58223366,-0.34277659,0.56031,0.6219129,-0.31826712,0.554476,0.56584965,-0.31184066,0.532418,0.55024131,-0.32437561,0.521132,0.56134985,-0.3311765,0.522783,0.631492,-0.33211555,0.54641,0.58754895,-0.31692837,0.52588,0.58000748,-0.32786126,0.532553,0.59108194,-0.33898344,0.542366
0.6721251,-0.43317116,0.62099,0.64245471,-0.37989728,0.594692,0.6561586,-0.41808819,0.62474,0.62411236,-0.41086309,0.619832,0.59293824,-0.38424254,0.613388,0.57919993,-0.36067705,0.608431,0.60923282,-0.3150995,0.577358,0.59843205,-0.27579642,0.577269,0.59197207,-0.25656759,0.577225,0.5859836,-0.23882586,0.577185,0.61517924,-0.31351088,0.56315,0.5532369,-0.29363184,0.534202,0.55779979,-0.32494937,0.54479,0.58052392,-0.34269284,0.558585,0.62064737,-0.31802101,0.553508,0.56526029,-0.31126825,0.53073,0.54825275,-0.32366157,0.519076,0.55919803,-0.33013372,0.520531,0.63110874,-0.33194043,0.545922,0.58845648,-0.31637629,0.524797,0.58022077,-0.32988085,0.53145,0.59037546,-0.33899392,0.541465
0.67107351,-0.43356411,0.620573,0.64189476,-0.37996442,0.594165,0.65531,-0.41839584,0.624233,0.62372425,-0.41061535,0.619188,0.5926822,-0.38371868,0.61277,0.57914513,-0.36014948,0.607947,0.60836635,-0.31480751,0.576628,0.59762223,-0.2757359,0.576529,0.59135357,-0.25645582,0.576479,0.58554413,-0.23865782,0.576433,0.61419947,-0.31343071,0.562489,0.55248772,-0.29345228,0.533413,0.55701582,-0.32478234,0.543996,0.5797952,-0.34281708,0.557836,0.61987233,-0.31786501,0.552913,0.56447376,-0.31108736,0.529994,0.54748973,-0.32344091,0.518267,0.55841844,-0.32978714,0.519681,0.63064033,-0.33170998,0.545423,0.58857191,-0.31614063,0.524181,0.58020418,-0.32956393,0.530827,0.58993511,-0.33903882,0.54088
0.66745026,-0.43735146,0.62018,0.64010302,-0.38231979,0.592661,0.6551364,-0.41971287,0.624136,0.62494548,-0.41206003,0.62013,0.59648132,-0.3866439,0.615392,0.58174557,-0.36284209,0.609832,0.60832542,-0.32079934,0.574562,0.59937718,-0.28122407,0.572506,0.59481735,-0.26095016,0.571478,0.59062001,-0.24222643,0.570543,0.61098278,-0.32092231,0.559654,0.54673269,-0.30340685,0.530258,0.54939884,-0.33330304,0.538371,0.57256878,-0.35197051,0.551551,0.6153617,-0.32544731,0.549532,0.55780924,-0.31701801,0.526583,0.54132612,-0.32899742,0.514842,0.55281044,-0.32854878,0.514591,0.62478287,-0.33951095,0.541556,0.58507533,-0.32181768,0.520401,0.57433848,-0.33402969,0.525432,0.58186208,-0.34629788,0.534828
