sluyters/QuantumLeap/src/datasets/gesture/HandGestureDataset_SHREC2017_csv/Gesture8/finger_1/subject_21_essai_2_skeletons_world.csv
Wrist_x,Wrist_y,Wrist_z,Palm_x,Palm_y,Palm_z,thumb_base_x,thumb_base_y,thumb_base_z,thumb_first_joint_x,thumb_first_joint_y,thumb_first_joint_z,thumb_second_joint_x,thumb_second_joint_y,thumb_second_joint_z,thumb_tip_x,thumb_tip_y,thumb_tip_z,index_base_x,index_base_y,index_base_z,index_first_joint_x,index_first_joint_y,index_first_joint_z,index_second_joint_x,index_second_joint_y,index_second_joint_z,index_tip_x,index_tip_y,index_tip_z,middle_base_x,middle_base_y,middle_base_z,middle_first_joint_x,middle_first_joint_y,middle_first_joint_z,middle_second_joint_x,middle_second_joint_y,middle_second_joint_z,middle_tip_x,middle_tip_y,middle_tip_z,ring_base_x,ring_base_y,ring_base_z,ring_first_joint_x,ring_first_joint_y,ring_first_joint_z,ring_second_joint_x,ring_second_joint_y,ring_second_joint_z,ring_tip_x,ring_tip_y,ring_tip_z,pinky_base_x,pinky_base_y,pinky_base_z,pinky_first_joint_x,pinky_first_joint_y,pinky_first_joint_z,pinky_second_joint_x,pinky_second_joint_y,pinky_second_joint_z,pinky_tip_x,pinky_tip_y,pinky_tip_z,
0.377808371,-0.330769083,0.454817,0.366090999,-0.27463069,0.429061,0.361485096,-0.315319002,0.454665,0.356443388,-0.295100725,0.448452,0.336364046,-0.261769426,0.435967,0.331230387,-0.241130137,0.427444,0.346735382,-0.222154487,0.413195,0.358934375,-0.194703492,0.42486,0.365059352,-0.180627261,0.430693,0.370641917,-0.167633034,0.435996,0.357262907,-0.225473518,0.405509,0.323035654,-0.187582828,0.379793,0.296664925,-0.191354414,0.364792,0.297166199,-0.206861758,0.367278,0.367314708,-0.232590857,0.40118,0.334117747,-0.200989744,0.379417,0.315507866,-0.209687224,0.368283,0.313094898,-0.229296735,0.371841,0.381721351,-0.249491081,0.399749,0.342304827,-0.239439978,0.381079,0.326932469,-0.244569845,0.372501,0.320839016,-0.258172216,0.374349
0.379054515,-0.331598377,0.455428,0.378230398,-0.278316787,0.430652,0.368550079,-0.31780535,0.458012,0.369350279,-0.294194479,0.454563,0.355396101,-0.262954815,0.446503,0.351106567,-0.242693691,0.438812,0.367250571,-0.226663311,0.418786,0.384541327,-0.19950403,0.42932,0.393255209,-0.185644791,0.434587,0.401215384,-0.172887771,0.439375,0.371894703,-0.229812349,0.407995,0.336748212,-0.19202935,0.38406,0.308620988,-0.195121375,0.370097,0.302280561,-0.210021803,0.372056,0.376612421,-0.236666351,0.401035,0.347268792,-0.202553397,0.381806,0.325146069,-0.209084042,0.371968,0.319434152,-0.228552008,0.375211,0.383769231,-0.25298857,0.396347,0.341947723,-0.240109987,0.379637,0.326302011,-0.244102987,0.37196,0.321495258,-0.257230688,0.373598
0.380040105,-0.332014977,0.455531,0.380244004,-0.278326342,0.428847,0.374548324,-0.316423241,0.457809,0.375554666,-0.291715876,0.45283,0.365813084,-0.259258106,0.445213,0.363113272,-0.23833482,0.436779,0.377796355,-0.226963348,0.41544,0.398093538,-0.199706848,0.423587,0.40833642,-0.185845297,0.42766,0.417702181,-0.173111607,0.431363,0.380766279,-0.232231591,0.404446,0.347805572,-0.192612353,0.379255,0.317044813,-0.191517263,0.36456,0.310130771,-0.204894017,0.365399,0.383798113,-0.240766519,0.397467,0.352448469,-0.208463035,0.377149,0.328730865,-0.214446319,0.366753,0.321369264,-0.230823821,0.36883,0.388354745,-0.258943453,0.39303,0.347171554,-0.242485178,0.375516,0.325880405,-0.244240812,0.367469,0.320848166,-0.252615614,0.368295
0.380807569,-0.331925044,0.45479,0.385480064,-0.279618035,0.426656,0.383514382,-0.315470613,0.457336,0.380814269,-0.29014693,0.451338,0.371957058,-0.258598822,0.444368,0.364926736,-0.23762697,0.435121,0.384971349,-0.228265795,0.4127,0.406311299,-0.200327464,0.417803,0.41710825,-0.186123825,0.420355,0.426932806,-0.173029684,0.422675,0.385622113,-0.233694973,0.400929,0.352224578,-0.193764135,0.375123,0.319231248,-0.191411599,0.36007,0.307544122,-0.202349111,0.359623,0.386751069,-0.242398845,0.393423,0.350795902,-0.208307036,0.372774,0.32637877,-0.21363675,0.36221,0.320428478,-0.227417528,0.362988,0.386474105,-0.258400334,0.38857,0.343762103,-0.242168441,0.370861,0.323134563,-0.243367747,0.362724,0.317639659,-0.250321747,0.362654
0.379887054,-0.330583672,0.450444,0.386795323,-0.281664309,0.422291,0.382826027,-0.314639877,0.453402,0.378575665,-0.291039865,0.44777,0.369463804,-0.259714854,0.44116,0.363467732,-0.237438026,0.432249,0.386438065,-0.23242999,0.408836,0.408216666,-0.204562935,0.413108,0.419226299,-0.190426128,0.415245,0.429236733,-0.177407736,0.417187,0.385379967,-0.237547201,0.396547,0.34984267,-0.194109664,0.370993,0.316696551,-0.191364193,0.356087,0.305165927,-0.201479122,0.355301,0.385061054,-0.246021579,0.388616,0.349951507,-0.210620262,0.368353,0.324840086,-0.21526143,0.357986,0.317091386,-0.226553988,0.358443,0.384632412,-0.260726601,0.383263,0.340357613,-0.244260175,0.365874,0.320970811,-0.244488381,0.357884,0.314409756,-0.250865739,0.357597
0.380565297,-0.32791716,0.442852,0.384971127,-0.281719802,0.414244,0.387476336,-0.314934622,0.446732,0.379971927,-0.296440325,0.441471,0.367910947,-0.262657343,0.436873,0.362720889,-0.238265846,0.428439,0.388733314,-0.231535261,0.40166,0.407820685,-0.201994036,0.403712,0.41740532,-0.187149842,0.404738,0.421709067,-0.17305433,0.40567,0.383727168,-0.235675811,0.388085,0.343606354,-0.19426917,0.36304,0.309861556,-0.191285903,0.348431,0.299247971,-0.201415265,0.346272,0.380270892,-0.243404395,0.37913,0.336557981,-0.214520681,0.359725,0.31352287,-0.22027054,0.349796,0.308712909,-0.232617902,0.348893,0.377250912,-0.260835334,0.37263,0.331656439,-0.241472817,0.356005,0.313102422,-0.242226752,0.348367,0.307024441,-0.24745861,0.347159
0.384272264,-0.332166134,0.438509,0.385448036,-0.283911204,0.410547,0.39062691,-0.318000464,0.443481,0.378502084,-0.297426268,0.439499,0.36828479,-0.271964337,0.437304,0.359932816,-0.2526146,0.429668,0.387485861,-0.232963698,0.399715,0.405195769,-0.20266236,0.400024,0.413286999,-0.187088782,0.400179,0.420165552,-0.172700501,0.40032,0.380221488,-0.236491294,0.384978,0.338599779,-0.200218829,0.361198,0.3060581,-0.193154361,0.347327,0.293319453,-0.201422697,0.344379,0.373536623,-0.246456226,0.375016,0.329958336,-0.217578149,0.357126,0.307870513,-0.22304819,0.347972,0.304634433,-0.232719654,0.346315,0.3671555,-0.26305858,0.367232,0.323395982,-0.243598203,0.351866,0.308061422,-0.243012779,0.344806,0.302663123,-0.248541031,0.3431
0.375801802,-0.32629675,0.432877,0.377036916,-0.283684064,0.403468,0.386340676,-0.315556493,0.437579,0.370422259,-0.296301444,0.432177,0.361092641,-0.269893629,0.431584,0.351669143,-0.250573363,0.423381,0.378373152,-0.234122755,0.39142,0.391959367,-0.200967546,0.387192,0.398753764,-0.184387669,0.385078,0.404932148,-0.169314068,0.383157,0.368020254,-0.238690858,0.376577,0.324929759,-0.200063149,0.352568,0.290347002,-0.193276477,0.338563,0.274485219,-0.198362986,0.333423,0.360201437,-0.246653055,0.36664,0.314667522,-0.218032537,0.348605,0.293166405,-0.222750304,0.339377,0.286724425,-0.23203234,0.335391,0.352129852,-0.264053266,0.359092,0.309724689,-0.241656476,0.343811,0.291275114,-0.240647683,0.33679,0.282975639,-0.245941059,0.333508
0.373806256,-0.32683031,0.434323,0.366759236,-0.288168123,0.402631,0.383488367,-0.314175084,0.437524,0.357443424,-0.298511328,0.431341,0.347836212,-0.270730141,0.430351,0.33365496,-0.25600327,0.42251,0.369669889,-0.235178001,0.387325,0.378538393,-0.19978116,0.378241,0.382995832,-0.182043267,0.373699,0.387062223,-0.165893949,0.36957,0.358259216,-0.241814575,0.373652,0.310131852,-0.204866124,0.348265,0.275462351,-0.197393099,0.333457,0.259454539,-0.200200789,0.32631,0.349631095,-0.251466657,0.364854,0.299239541,-0.224301454,0.345247,0.279087212,-0.227192696,0.335215,0.272575518,-0.233379776,0.329003,0.340709676,-0.270796592,0.358983,0.296108985,-0.250025523,0.342665,0.27903352,-0.248346472,0.335168,0.271201657,-0.251809096,0.330369
0.361523717,-0.319600857,0.425446,0.350283948,-0.282723586,0.3961,0.370408995,-0.31242052,0.430296,0.341570263,-0.295631753,0.428264,0.334724179,-0.266537948,0.428445,0.320251831,-0.253868187,0.422348,0.35784163,-0.232293705,0.384273,0.363381981,-0.197907664,0.371426,0.366299134,-0.180490121,0.365002,0.369045363,-0.164514641,0.359163,0.345480029,-0.236169435,0.369265,0.297082665,-0.200522194,0.345715,0.264287479,-0.194831684,0.331978,0.249959279,-0.199340996,0.326158,0.33576443,-0.243515818,0.359188,0.313619343,-0.199891827,0.341636,0.286834514,-0.192497813,0.332657,0.268817719,-0.198454149,0.327956,0.324977599,-0.260107196,0.351464,0.282754582,-0.239760452,0.336638,0.268636542,-0.240862279,0.329827,0.259729775,-0.24405447,0.326069
0.356239078,-0.326949187,0.423117,0.344395124,-0.282129102,0.393098,0.359096895,-0.315985098,0.427528,0.335619549,-0.292363096,0.42435,0.324799769,-0.263025516,0.42403,0.312533056,-0.250808306,0.417523,0.344125148,-0.231768831,0.380316,0.342917164,-0.196126612,0.363565,0.342429303,-0.178094907,0.35519,0.342060182,-0.161565956,0.347576,0.332942601,-0.238134412,0.365648,0.281435651,-0.206116847,0.341689,0.2532228,-0.208166676,0.327712,0.246594259,-0.215054258,0.321311,0.324474529,-0.247424695,0.355904,0.297584888,-0.205576473,0.337886,0.271477558,-0.196262806,0.328668,0.25211703,-0.200445959,0.323321,0.315727493,-0.266042356,0.348671,0.273645655,-0.245656038,0.333536,0.259255807,-0.24218584,0.326582,0.253689782,-0.241497532,0.322384
0.345605612,-0.332193172,0.421201,0.328484424,-0.281776566,0.391536,0.353339789,-0.31447537,0.425843,0.321926811,-0.292815037,0.42569,0.314160724,-0.264449266,0.426158,0.298270954,-0.252780618,0.420915,0.330848331,-0.230073902,0.379257,0.323170446,-0.195341283,0.358408,0.319429931,-0.177769345,0.347984,0.316093875,-0.161657916,0.338507,0.319625949,-0.236444232,0.36441,0.268680956,-0.205577296,0.341055,0.242132512,-0.208423804,0.327431,0.235964549,-0.21496863,0.320622,0.311169826,-0.245698781,0.35449,0.284782296,-0.204522212,0.337092,0.25865123,-0.1976947,0.32819,0.24105368,-0.203718751,0.322418,0.302538674,-0.264191787,0.346999,0.261602039,-0.244906921,0.332404,0.248091516,-0.241680648,0.325699,0.239792849,-0.2409651,0.321223
0.329558507,-0.324898013,0.416952,0.318440517,-0.273074407,0.388215,0.337511686,-0.307475035,0.422231,0.306130614,-0.288301013,0.422802,0.300904782,-0.259487015,0.423726,0.285176325,-0.2451992,0.418684,0.324770025,-0.2232864,0.377293,0.317030285,-0.189016183,0.356663,0.313274855,-0.17162913,0.346348,0.312314808,-0.158307881,0.336971,0.312397893,-0.229687002,0.361937,0.258819747,-0.203804128,0.339252,0.232031223,-0.205378326,0.32602,0.226244988,-0.212037163,0.319831,0.302741622,-0.238749558,0.351526,0.273848139,-0.199663976,0.334882,0.248417154,-0.19171206,0.326367,0.228696651,-0.194206052,0.321294,0.292232157,-0.256582804,0.34332,0.253849894,-0.233701185,0.329259,0.237546246,-0.223848152,0.322798,0.228320395,-0.218366551,0.318802
0.325589779,-0.322972755,0.417464,0.308658082,-0.272025359,0.388302,0.330019362,-0.302376044,0.422435,0.297876324,-0.286366896,0.422908,0.291032322,-0.258728685,0.424382,0.274637515,-0.24461685,0.419606,0.315565824,-0.222735227,0.376738,0.300684987,-0.18727031,0.352595,0.293281131,-0.169390886,0.340523,0.286574846,-0.153037944,0.329548,0.301037997,-0.229874181,0.361636,0.247535851,-0.202595261,0.338835,0.22216326,-0.203490591,0.325534,0.216677352,-0.209387174,0.318705,0.28971739,-0.239417226,0.351467,0.271973562,-0.198567414,0.334655,0.246279677,-0.192753569,0.326053,0.236485831,-0.202746663,0.320276,0.277462068,-0.257536311,0.343608,0.240676285,-0.23334827,0.329484,0.225001514,-0.222869746,0.322995,0.218192489,-0.217343032,0.318524
0.317735558,-0.317815998,0.418226,0.297797583,-0.268707567,0.387152,0.322207004,-0.297151672,0.421699,0.28570031,-0.280796334,0.420511,0.279511841,-0.253039594,0.421481,0.26114059,-0.239947258,0.416391,0.300553224,-0.218736566,0.37256,0.278650091,-0.184336363,0.345117,0.267699361,-0.167039369,0.331395,0.257745452,-0.151248955,0.318921,0.286561117,-0.228564458,0.358737,0.231453858,-0.202731976,0.334566,0.207572665,-0.201243942,0.320467,0.201420826,-0.204102811,0.312263,0.275987302,-0.240113148,0.349769,0.256429589,-0.199266376,0.331351,0.23036262,-0.195511006,0.321927,0.219089402,-0.202465348,0.314587,0.265206168,-0.260176575,0.343608,0.228830018,-0.234685274,0.328365,0.213314821,-0.223652029,0.321361,0.206718789,-0.216274487,0.315822
0.310554026,-0.313927659,0.418621,0.288935709,-0.266824196,0.386981,0.314778234,-0.292128294,0.421394,0.277987691,-0.277389336,0.419769,0.271731092,-0.250214584,0.421249,0.256611875,-0.238399625,0.415747,0.289897192,-0.216720693,0.371174,0.265217146,-0.18261181,0.342468,0.25286871,-0.165492771,0.328115,0.241636436,-0.149885193,0.315066,0.275620151,-0.22745818,0.358049,0.220811371,-0.201583841,0.333713,0.198435887,-0.199605744,0.319516,0.192773523,-0.201496222,0.310366,0.264985094,-0.239685909,0.349699,0.243990547,-0.199275652,0.330947,0.218469839,-0.195240933,0.321354,0.20759931,-0.201147275,0.312946,0.254462473,-0.260403575,0.344351,0.21926879,-0.234386736,0.328965,0.204301415,-0.223159154,0.321896,0.198237322,-0.215008222,0.31564
0.307970892,-0.31170434,0.417789,0.286524085,-0.266189761,0.387404,0.312916239,-0.290554795,0.420883,0.277736275,-0.277140452,0.420748,0.271960063,-0.25108224,0.423862,0.253158325,-0.239224796,0.420046,0.282579531,-0.215836199,0.37276,0.253177261,-0.181541117,0.343211,0.23847018,-0.16437828,0.328437,0.22509568,-0.148764966,0.315006,0.267120595,-0.226839662,0.359619,0.213915025,-0.202608784,0.336998,0.194719229,-0.201382753,0.323802,0.192580112,-0.203202839,0.313803,0.255813272,-0.239152074,0.351159,0.232877084,-0.199948952,0.334019,0.209185589,-0.196695104,0.325249,0.199785236,-0.202060861,0.315921,0.245063458,-0.259689754,0.345501,0.212687865,-0.234819238,0.331526,0.198974553,-0.224135647,0.325106,0.196922449,-0.216192853,0.31826
0.290850634,-0.286101188,0.42087,0.272365302,-0.251149358,0.382205,0.298515676,-0.264863302,0.41646,0.277682068,-0.23181062,0.396379,0.25523223,-0.205465416,0.379545,0.243697267,-0.187945826,0.364083,0.270665485,-0.203402051,0.353182,0.225478337,-0.167968253,0.328533,0.203823265,-0.151009312,0.316209,0.184688822,-0.136039385,0.30497,0.255509227,-0.219137615,0.346848,0.199700325,-0.183244956,0.315583,0.181920615,-0.174013865,0.297346,0.1821235,-0.173260148,0.285988,0.244375161,-0.234962724,0.344631,0.202592762,-0.193906898,0.31758,0.181116092,-0.187418224,0.30374,0.174222067,-0.188584439,0.292467,0.233723174,-0.258918271,0.347555,0.197908144,-0.225087584,0.325927,0.186408195,-0.214840374,0.31599,0.178005074,-0.207369188,0.307736
0.295719002,-0.285095506,0.428081,0.274769532,-0.252086998,0.386657,0.299448075,-0.261040338,0.41911,0.272406717,-0.224198531,0.39597,0.249479238,-0.19718067,0.375995,0.237271431,-0.183711192,0.359284,0.26644112,-0.202269512,0.350278,0.211769656,-0.169426258,0.320408,0.186876486,-0.15347022,0.30536,0.165148813,-0.139441913,0.291647,0.255615095,-0.22190065,0.348777,0.194991158,-0.18810073,0.313839,0.177976256,-0.173161717,0.293459,0.178581341,-0.171281298,0.282318,0.248116342,-0.241048812,0.35075,0.192017028,-0.20820409,0.31893,0.183399071,-0.198577708,0.302649,0.188266749,-0.19589564,0.291231,0.241952057,-0.269004033,0.359034,0.202342066,-0.232512246,0.333731,0.197092948,-0.227406108,0.322105,0.198778332,-0.226136237,0.313733
0.201605883,-0.268221124,0.346491,0.229846359,-0.232829395,0.346725,0.208720075,-0.262617294,0.359722,0.198120449,-0.241844209,0.371015,0.192737936,-0.225629296,0.381433,0.196277256,-0.213221894,0.387005,0.254421556,-0.207206056,0.363333,0.234288999,-0.187307914,0.367885,0.22329431,-0.176436496,0.370416,0.211527694,-0.167013095,0.372717,0.254158367,-0.202378412,0.346938,0.222901488,-0.185925002,0.345208,0.209513101,-0.204682164,0.344198,0.218955847,-0.224571692,0.352839,0.252048751,-0.200980868,0.333429,0.22429903,-0.187870138,0.336271,0.216489935,-0.204865113,0.337725,0.231373119,-0.224306866,0.348359,0.246006413,-0.204278918,0.317395,0.220642597,-0.190151708,0.317943,0.214793581,-0.199465244,0.318194,0.216485797,-0.212650321,0.325181
0.195237622,-0.259260609,0.340031,0.223691534,-0.225547532,0.346594,0.204689756,-0.257781862,0.356205,0.195264119,-0.239061627,0.373181,0.194591184,-0.227690356,0.387774,0.198830236,-0.216133187,0.395665,0.254036787,-0.20956859,0.370715,0.229529171,-0.19681407,0.377329,0.215980216,-0.189730439,0.380802,0.202221606,-0.184638709,0.38396,0.250979517,-0.199706643,0.352594,0.223320907,-0.182574887,0.357325,0.20566586,-0.171610262,0.360085,0.193777308,-0.171362094,0.368962,0.246244214,-0.193741485,0.337174,0.221349164,-0.181655055,0.346496,0.207032993,-0.174602389,0.351265,0.196485825,-0.170995717,0.362234,0.236508935,-0.190757303,0.317969,0.213921178,-0.180997263,0.323744,0.213900423,-0.197100847,0.331582,0.215886682,-0.208887697,0.332588
0.194181868,-0.257957537,0.341823,0.223708622,-0.225829845,0.349483,0.204583629,-0.257855264,0.358746,0.19229178,-0.24181179,0.377312,0.187427698,-0.230997695,0.392536,0.188435326,-0.219315113,0.399775,0.255786498,-0.211340558,0.375205,0.229201658,-0.197101547,0.379406,0.214843777,-0.189421245,0.38173,0.20045947,-0.183810972,0.383843,0.251861761,-0.200660958,0.356488,0.224474806,-0.184072828,0.362574,0.204835759,-0.172372418,0.366125,0.194648778,-0.172979153,0.374703,0.246317534,-0.193966861,0.340492,0.21921894,-0.180857009,0.351244,0.205010078,-0.174172538,0.356746,0.196622275,-0.171924111,0.367434,0.232599405,-0.187774903,0.320447,0.21074557,-0.179023748,0.327397,0.210683176,-0.194895092,0.334664,0.214995368,-0.208374191,0.335036
0.1931593,-0.257672498,0.344064,0.223791122,-0.226983365,0.352277,0.204495696,-0.258300566,0.361344,0.193875641,-0.242772402,0.380695,0.188120748,-0.231283153,0.396047,0.189561043,-0.219456922,0.403485,0.256966703,-0.213095272,0.378781,0.233188844,-0.200941804,0.388219,0.219975349,-0.194114627,0.393032,0.206427417,-0.189188924,0.397407,0.253048535,-0.202505928,0.359787,0.224424063,-0.185090175,0.366559,0.207203524,-0.174394084,0.370509,0.194860472,-0.173622573,0.378925,0.24466247,-0.194657513,0.343521,0.221575937,-0.181234993,0.35499,0.208349425,-0.173465891,0.360858,0.198076151,-0.168411995,0.371389,0.231953041,-0.189876457,0.323077,0.210829067,-0.180924165,0.330619,0.21046301,-0.196529151,0.337585,0.211986955,-0.207816703,0.337632
0.192924817,-0.260834709,0.352283,0.222810923,-0.23236441,0.359383,0.20590504,-0.262715681,0.369976,0.198082256,-0.249243574,0.390184,0.193755347,-0.239385446,0.406292,0.194105506,-0.22464119,0.412753,0.260914108,-0.219973745,0.385722,0.23548908,-0.205567687,0.392694,0.221735171,-0.197745955,0.396284,0.207746815,-0.191957403,0.399548,0.252132624,-0.211228307,0.365875,0.226344952,-0.19054274,0.372241,0.209286118,-0.17922036,0.375954,0.196532145,-0.177577699,0.383339,0.242957344,-0.203967296,0.348992,0.22145581,-0.187612162,0.360343,0.209334257,-0.178368134,0.36615,0.20099384,-0.169074254,0.375657,0.227204524,-0.199026821,0.327978,0.207267122,-0.188733336,0.33547,0.206103813,-0.203428098,0.341529,0.209524762,-0.212159514,0.341242
0.192112685,-0.261681113,0.353513,0.222680791,-0.233648947,0.360295,0.205524579,-0.263604356,0.371172,0.198488581,-0.250490244,0.391299,0.194214112,-0.239952252,0.407254,0.194891304,-0.225913316,0.413853,0.261099375,-0.221179384,0.3864,0.235835052,-0.206800563,0.393626,0.222168258,-0.198993332,0.397351,0.208240597,-0.193216643,0.400738,0.252561258,-0.211587402,0.366497,0.226194445,-0.191534729,0.372617,0.209126068,-0.180091939,0.376187,0.196356923,-0.178359345,0.383461,0.243376438,-0.204319134,0.349594,0.221695492,-0.187815215,0.360733,0.209495481,-0.178505509,0.366432,0.200657161,-0.169983544,0.375829,0.22763541,-0.199404269,0.3286,0.207548857,-0.188989879,0.335926,0.206345202,-0.203666353,0.341929,0.208956263,-0.213177658,0.341679
0.193842121,-0.263595697,0.353872,0.224268061,-0.235556427,0.362208,0.205761728,-0.264434368,0.371972,0.199865787,-0.252811086,0.393153,0.197164045,-0.24149048,0.409996,0.199533661,-0.229391263,0.417758,0.263393946,-0.22590161,0.389806,0.245794149,-0.214527456,0.403651,0.23457624,-0.207869045,0.410573,0.218419526,-0.202843688,0.416866,0.255591873,-0.214309282,0.369831,0.229543812,-0.196489898,0.37744,0.216045075,-0.187048456,0.381879,0.200579992,-0.183427393,0.389282,0.246484562,-0.206648266,0.352747,0.225118264,-0.191699689,0.365287,0.212977675,-0.183156967,0.371703,0.20301185,-0.176756202,0.381229,0.230697441,-0.201095878,0.331317,0.211350669,-0.191383458,0.339783,0.209506906,-0.205783536,0.345597,0.209387792,-0.216475428,0.344872
0.196278962,-0.270428862,0.366729,0.229130981,-0.243369368,0.371946,0.210506756,-0.272858973,0.384695,0.215272348,-0.255839462,0.405625,0.221517842,-0.241087986,0.421323,0.229991594,-0.22866276,0.428893,0.271127492,-0.233052022,0.39748,0.250938856,-0.219260656,0.410596,0.238986083,-0.212643162,0.417154,0.226129413,-0.208656375,0.423116,0.261325092,-0.220916144,0.376716,0.234608824,-0.201139003,0.382171,0.218235033,-0.189007795,0.385354,0.205452881,-0.186185412,0.391249,0.250619664,-0.212866118,0.359225,0.227370393,-0.198030929,0.370013,0.214521459,-0.189782784,0.375532,0.203708108,-0.183517211,0.383538,0.228566375,-0.208813033,0.337761,0.210598388,-0.196939547,0.344877,0.207650372,-0.209615307,0.34969,0.20914034,-0.219274364,0.349052
0.196008552,-0.270450162,0.367624,0.229809248,-0.244249002,0.37335,0.211203106,-0.273240961,0.385912,0.217058996,-0.256478848,0.407679,0.222228661,-0.241767476,0.424061,0.230563457,-0.22933609,0.43205,0.273190843,-0.233991271,0.399594,0.253109428,-0.220700034,0.413458,0.241769294,-0.215172561,0.420505,0.228480605,-0.210774026,0.426911,0.262163652,-0.221626428,0.378585,0.236876583,-0.200989666,0.384764,0.224334037,-0.18428852,0.388368,0.212725589,-0.179623368,0.39394,0.248579515,-0.213841619,0.360853,0.226074331,-0.198823747,0.372387,0.213794593,-0.190590834,0.378288,0.203251689,-0.184077651,0.385963,0.227839721,-0.207698915,0.33903,0.210536376,-0.196394721,0.34678,0.207499766,-0.208910738,0.351127,0.205830135,-0.218929643,0.350086
0.3030844,-0.279030441,0.412641,0.281162013,-0.250817869,0.418768,0.303323696,-0.286684377,0.425972,0.279593737,-0.309838613,0.437755,0.266631706,-0.322791297,0.455824,0.255045654,-0.32523903,0.466037,0.269722334,-0.24466713,0.439088,0.248521091,-0.269527869,0.445581,0.24211378,-0.289302893,0.458947,0.248254173,-0.303288276,0.461725,0.262115855,-0.226244372,0.424371,0.237194129,-0.251937163,0.427069,0.221405113,-0.268066346,0.428643,0.232019998,-0.289715027,0.439416,0.257469463,-0.212993008,0.411786,0.228523295,-0.232319302,0.418232,0.217477913,-0.248425496,0.42153,0.211538793,-0.269813178,0.434251,0.255068536,-0.200959964,0.396001,0.236383494,-0.223840413,0.39942,0.234019,-0.240769868,0.40973,0.240824031,-0.253751503,0.413793
0.303274635,-0.279205579,0.4129,0.281058617,-0.250725632,0.418614,0.303560104,-0.286907817,0.426304,0.279850494,-0.310123144,0.438157,0.266850475,-0.323056144,0.456198,0.255203266,-0.32544002,0.466325,0.269528836,-0.244491607,0.438773,0.249137958,-0.270196878,0.446687,0.242666116,-0.289962882,0.459994,0.248503112,-0.303592402,0.462188,0.261787261,-0.225960747,0.423839,0.236744255,-0.251459327,0.426259,0.22090305,-0.267458473,0.427671,0.231412248,-0.288956152,0.438265,0.257044918,-0.212641801,0.411107,0.228046285,-0.231834369,0.417359,0.216976433,-0.247852655,0.420558,0.210982485,-0.269103619,0.433109,0.254556468,-0.200556523,0.395206,0.235821268,-0.22330802,0.39847,0.233407294,-0.240140515,0.408659,0.240228654,-0.253124166,0.41277
0.294382088,-0.266681047,0.399043,0.281478865,-0.248028543,0.416934,0.296075318,-0.27625444,0.412962,0.278861235,-0.29642017,0.427919,0.273888734,-0.317102665,0.452492,0.255669192,-0.324680114,0.464012,0.282001221,-0.251625776,0.445144,0.265485714,-0.280964978,0.460554,0.259078261,-0.300813611,0.4745,0.257470075,-0.31209069,0.47399,0.269710797,-0.231008718,0.433293,0.247667204,-0.224428944,0.44574,0.239155587,-0.242820926,0.453,0.252907021,-0.261718099,0.466506,0.267920164,-0.215014797,0.422155,0.239792687,-0.217288382,0.4368,0.240011706,-0.235236836,0.444292,0.26118516,-0.253293817,0.45959,0.262729822,-0.197940508,0.406396,0.239624793,-0.200302616,0.416493,0.228710632,-0.201362532,0.421133,0.218942769,-0.202299208,0.425258
0.294668202,-0.264766809,0.398554,0.282066076,-0.247023534,0.416661,0.296082655,-0.274476929,0.411561,0.277050249,-0.294495152,0.42514,0.272669075,-0.31569057,0.450477,0.255948127,-0.324354256,0.462929,0.281193502,-0.250905059,0.443869,0.264360486,-0.279774144,0.458602,0.258308944,-0.299920363,0.473091,0.258263854,-0.311850516,0.473065,0.270694175,-0.23097259,0.433218,0.247515516,-0.224291489,0.445467,0.238950219,-0.242612411,0.452611,0.252909189,-0.261720343,0.46651,0.26848881,-0.215471154,0.423051,0.23999471,-0.217471445,0.437168,0.240065187,-0.235289253,0.444391,0.261422142,-0.253523638,0.460007,0.264031848,-0.198921454,0.40841,0.240552815,-0.201078351,0.418106,0.229503535,-0.202060623,0.422593,0.219634208,-0.202938086,0.426601
0.294694438,-0.263485391,0.398063,0.282394758,-0.246402122,0.416464,0.29634827,-0.273653227,0.411084,0.27680066,-0.294229848,0.424757,0.272468724,-0.315458577,0.450146,0.256342192,-0.324444266,0.462685,0.281192868,-0.250904494,0.443868,0.264472317,-0.279892495,0.458796,0.258402856,-0.300029404,0.473263,0.259085994,-0.31212883,0.473153,0.271354191,-0.23101379,0.433291,0.247697763,-0.224456636,0.445795,0.239202046,-0.242868096,0.453088,0.253192181,-0.262013194,0.467032,0.268558621,-0.21552718,0.423161,0.240173676,-0.217633615,0.437494,0.240300719,-0.235520099,0.444827,0.261692652,-0.253785976,0.460483,0.264104254,-0.198976005,0.408522,0.240719663,-0.20121782,0.418396,0.229726742,-0.20225714,0.423004,0.219903988,-0.203187358,0.427125
0.294712313,-0.262631,0.397736,0.282613584,-0.245988593,0.416333,0.296524818,-0.273103255,0.410765,0.276633833,-0.294052516,0.424501,0.27233435,-0.315303032,0.449924,0.256604932,-0.324503259,0.46252,0.281192235,-0.250903929,0.443867,0.264546103,-0.279970583,0.458924,0.2584651,-0.300101675,0.473377,0.259631748,-0.312312869,0.47321,0.271792327,-0.231040917,0.433339,0.247818891,-0.224566399,0.446013,0.23936993,-0.243038553,0.453406,0.253380843,-0.262208428,0.46738,0.26860495,-0.215564361,0.423234,0.240292804,-0.217741563,0.437711,0.240457921,-0.235674174,0.445118,0.261872804,-0.253960684,0.4608,0.264152741,-0.199012534,0.408597,0.240831279,-0.201311119,0.41859,0.229875547,-0.202388152,0.423278,0.22008367,-0.20335338,0.427474
0.294725577,-0.262020948,0.397503,0.282770017,-0.245693856,0.41624,0.296652386,-0.272711573,0.410539,0.27651523,-0.293926444,0.424319,0.272238109,-0.315191606,0.449765,0.256793151,-0.324545595,0.462402,0.281191601,-0.250903364,0.443866,0.264598559,-0.280026098,0.459015,0.258509343,-0.300153026,0.473458,0.260020525,-0.312443646,0.47325,0.27210441,-0.23106012,0.433373,0.24790557,-0.224644944,0.446169,0.239489755,-0.243160232,0.453633,0.253515291,-0.262347561,0.467628,0.268638587,-0.215591355,0.423287,0.240377895,-0.217818669,0.437866,0.240569744,-0.235783773,0.445325,0.262001224,-0.254085239,0.461026,0.264187651,-0.199038836,0.408651,0.240911251,-0.201377968,0.418729,0.229981992,-0.202481868,0.423474,0.220211867,-0.203471832,0.427723
0.298852108,-0.265921405,0.402583,0.284894543,-0.248193634,0.419329,0.301317426,-0.277170322,0.416626,0.281646058,-0.300968194,0.431516,0.273823103,-0.315434957,0.452113,0.255689137,-0.322549922,0.459941,0.278130986,-0.256018117,0.446997,0.263703097,-0.28703739,0.461823,0.25858451,-0.308083156,0.475699,0.263465543,-0.315155768,0.475392,0.270333852,-0.237536982,0.434642,0.25046116,-0.268596308,0.446183,0.261939103,-0.292312132,0.452915,0.278528185,-0.314689152,0.466145,0.265180728,-0.223432101,0.423177,0.236131786,-0.22259695,0.437128,0.236843411,-0.243602403,0.444265,0.260133027,-0.262716087,0.45932,0.261532171,-0.208980779,0.407195,0.239850076,-0.200446686,0.416154,0.228748932,-0.200963738,0.420271,0.218722176,-0.201663882,0.423903
0.300030105,-0.267149054,0.403794,0.285399837,-0.24914093,0.420043,0.302307277,-0.278212628,0.417709,0.282144713,-0.301501059,0.43228,0.274368189,-0.316062879,0.453013,0.256436738,-0.323027458,0.460919,0.278287164,-0.256161878,0.447248,0.263607168,-0.286932973,0.461655,0.25854048,-0.308030697,0.475618,0.26358135,-0.315714093,0.47551,0.27049432,-0.237677982,0.4349,0.250340471,-0.268466881,0.445968,0.261655717,-0.291995885,0.452425,0.278208515,-0.314327979,0.46561,0.265370601,-0.223592081,0.42348,0.23605778,-0.222527186,0.436991,0.236650424,-0.243403909,0.443903,0.259903092,-0.262483869,0.458914,0.261807066,-0.209200438,0.407623,0.240186774,-0.200696625,0.416219,0.229053803,-0.200924462,0.420169,0.218933299,-0.201552016,0.423654
0.300992745,-0.268149259,0.40479,0.285813435,-0.249906808,0.420628,0.303112604,-0.279058821,0.418594,0.282547423,-0.301931396,0.432897,0.274800019,-0.316560332,0.453726,0.257026357,-0.323398564,0.461686,0.278410986,-0.256275855,0.447447,0.263522659,-0.286840986,0.461507,0.258498064,-0.30798018,0.47554,0.263668514,-0.316133114,0.475599,0.270625556,-0.237793296,0.435111,0.250240552,-0.268359727,0.44579,0.26142091,-0.291733852,0.452019,0.277943817,-0.314028915,0.465167,0.265529142,-0.223725662,0.423733,0.235997279,-0.222470153,0.436879,0.236491024,-0.243239959,0.443604,0.259713367,-0.26229226,0.458579,0.262038286,-0.209385197,0.407983,0.240444703,-0.200888654,0.416278,0.229279711,-0.200893325,0.420089,0.219082968,-0.201460862,0.423452
0.302244524,-0.268505924,0.405709,0.2865287,-0.25040095,0.421164,0.304340188,-0.279551503,0.419387,0.282877684,-0.302284315,0.433403,0.275104056,-0.316910573,0.454228,0.257880694,-0.323703722,0.462162,0.278501208,-0.256358904,0.447592,0.263408458,-0.28671668,0.461307,0.258432849,-0.307902463,0.47542,0.263723968,-0.31644416,0.475646,0.27074062,-0.2378944,0.435296,0.250133897,-0.26824535,0.4456,0.261184947,-0.291470528,0.451611,0.277684496,-0.313735927,0.464733,0.265683922,-0.223856075,0.42398,0.235937318,-0.222413628,0.436768,0.236334288,-0.243078751,0.44331,0.259531004,-0.262108086,0.458257,0.262279782,-0.209578168,0.408359,0.240657789,-0.201048477,0.416346,0.229449055,-0.200863934,0.420016,0.219177736,-0.201370486,0.423254
0.303493034,-0.268859083,0.406623,0.287238455,-0.250890565,0.421693,0.305567971,-0.28004416,0.42018,0.283213819,-0.30264351,0.433918,0.275411122,-0.317264302,0.454735,0.258737509,-0.324010192,0.46264,0.278590808,-0.25644138,0.447736,0.263295399,-0.286593617,0.461109,0.258365444,-0.307822156,0.475296,0.263769646,-0.316694582,0.475686,0.270850709,-0.237991133,0.435473,0.250024436,-0.268127963,0.445405,0.260946671,-0.291204594,0.451199,0.277419797,-0.313436863,0.46429,0.265831183,-0.223980152,0.424215,0.235872496,-0.222352521,0.436648,0.236173821,-0.242913705,0.443009,0.259342412,-0.261917621,0.457924,0.262509718,-0.209761901,0.408717,0.240825538,-0.20117408,0.416396,0.229565852,-0.200824342,0.419924,0.21922336,-0.201270772,0.423038
0.304079183,-0.269627982,0.407342,0.287386118,-0.251813214,0.422328,0.306268156,-0.280818141,0.420995,0.28378704,-0.302858484,0.434872,0.276831168,-0.318372947,0.456461,0.261186423,-0.323875922,0.465001,0.279157861,-0.257288678,0.448441,0.263874312,-0.287588503,0.461853,0.25890686,-0.308847491,0.475972,0.264195931,-0.31775061,0.476321,0.27090305,-0.238564017,0.436031,0.24999459,-0.268766868,0.445937,0.260814095,-0.291680085,0.451716,0.276982251,-0.313856035,0.464746,0.265456046,-0.224294373,0.424658,0.231343944,-0.23479519,0.437109,0.237716526,-0.255158508,0.44348,0.260262854,-0.263399884,0.458343,0.256181299,-0.208540267,0.409037,0.234852678,-0.203091194,0.416336,0.227351151,-0.200658311,0.419689,0.21964687,-0.201520895,0.424099
0.30472653,-0.270451147,0.408143,0.287461597,-0.252672708,0.422857,0.306863583,-0.281496047,0.421666,0.284013284,-0.302815171,0.435273,0.277516615,-0.318784425,0.457149,0.262318623,-0.324266987,0.465928,0.279374689,-0.257720809,0.448642,0.26393797,-0.287918097,0.461772,0.259030994,-0.309266809,0.475972,0.264349413,-0.318478957,0.476464,0.270867163,-0.23890911,0.436312,0.249759728,-0.268993555,0.445936,0.260409587,-0.291673487,0.451549,0.276373992,-0.313821491,0.464577,0.265220555,-0.224546636,0.425027,0.231388401,-0.234840311,0.437193,0.237682756,-0.255122261,0.443417,0.260711465,-0.264247492,0.458274,0.25650134,-0.208800791,0.409548,0.235008368,-0.203225829,0.416612,0.226872394,-0.200725466,0.419858,0.219298658,-0.201063513,0.423669
