sluyters/QuantumLeap/src/datasets/gesture/HandGestureDataset_SHREC2017_csv/Gesture8/finger_1/subject_11_essai_4_skeletons_world.csv
Wrist_x,Wrist_y,Wrist_z,Palm_x,Palm_y,Palm_z,thumb_base_x,thumb_base_y,thumb_base_z,thumb_first_joint_x,thumb_first_joint_y,thumb_first_joint_z,thumb_second_joint_x,thumb_second_joint_y,thumb_second_joint_z,thumb_tip_x,thumb_tip_y,thumb_tip_z,index_base_x,index_base_y,index_base_z,index_first_joint_x,index_first_joint_y,index_first_joint_z,index_second_joint_x,index_second_joint_y,index_second_joint_z,index_tip_x,index_tip_y,index_tip_z,middle_base_x,middle_base_y,middle_base_z,middle_first_joint_x,middle_first_joint_y,middle_first_joint_z,middle_second_joint_x,middle_second_joint_y,middle_second_joint_z,middle_tip_x,middle_tip_y,middle_tip_z,ring_base_x,ring_base_y,ring_base_z,ring_first_joint_x,ring_first_joint_y,ring_first_joint_z,ring_second_joint_x,ring_second_joint_y,ring_second_joint_z,ring_tip_x,ring_tip_y,ring_tip_z,pinky_base_x,pinky_base_y,pinky_base_z,pinky_first_joint_x,pinky_first_joint_y,pinky_first_joint_z,pinky_second_joint_x,pinky_second_joint_y,pinky_second_joint_z,pinky_tip_x,pinky_tip_y,pinky_tip_z,
0.45140121,-0.36583615,0.549543,0.4444142,-0.32761353,0.54364,0.42821974,-0.35468129,0.544449,0.41982806,-0.32489984,0.526148,0.38591353,-0.29351021,0.509402,0.37511211,-0.27958495,0.514934,0.40962373,-0.27902222,0.532997,0.40362892,-0.22754775,0.520205,0.4071534,-0.20537046,0.521478,0.41099097,-0.18495756,0.522636,0.43431319,-0.28135823,0.538018,0.43340302,-0.24422978,0.52299,0.43260881,-0.22182674,0.514855,0.43228999,-0.20526669,0.509116,0.45749211,-0.28631994,0.542789,0.46103799,-0.25317837,0.529143,0.46300753,-0.23529744,0.522645,0.46525135,-0.21840114,0.516847,0.48688563,-0.29880474,0.549437,0.48170261,-0.27954724,0.535,0.47936464,-0.26996122,0.528517,0.47754738,-0.26129722,0.522905
0.43790545,-0.35809842,0.548441,0.42749463,-0.31369105,0.528237,0.41333231,-0.34017135,0.541373,0.38561749,-0.30712463,0.516583,0.3589805,-0.26903925,0.488906,0.35237924,-0.24602843,0.47581,0.3973641,-0.25269279,0.505312,0.39509663,-0.20672072,0.50029,0.39405175,-0.18351038,0.497779,0.39349623,-0.16768859,0.495496,0.42265433,-0.26115166,0.508995,0.40469423,-0.22006474,0.478546,0.39429546,-0.19582959,0.460785,0.38690764,-0.17837806,0.448098,0.44483439,-0.27244253,0.514205,0.4291273,-0.22951637,0.486546,0.42119052,-0.20721274,0.472395,0.41404298,-0.18670573,0.459531,0.47351175,-0.29409701,0.52405,0.45677029,-0.25315613,0.498935,0.44912966,-0.23411518,0.487396,0.44066563,-0.23391087,0.477214
0.44182955,-0.36986592,0.549838,0.42919564,-0.32579166,0.528061,0.42090465,-0.35268817,0.541017,0.38295901,-0.31437744,0.513735,0.35732333,-0.27583849,0.489137,0.35008335,-0.24852413,0.477718,0.39569569,-0.26278221,0.501785,0.39473706,-0.2192842,0.494489,0.39458766,-0.19734355,0.490841,0.39453537,-0.17678546,0.487525,0.42206636,-0.27244906,0.50732,0.40588997,-0.23605503,0.475119,0.39658311,-0.21459223,0.456335,0.39000317,-0.19913783,0.442917,0.44540527,-0.28481794,0.514225,0.43875708,-0.24611011,0.484893,0.4317417,-0.23378948,0.469887,0.41996325,-0.231862,0.456244,0.47598926,-0.30794035,0.526334,0.45728409,-0.27184898,0.499621,0.4487562,-0.25501951,0.487348,0.4414891,-0.25643589,0.476518
0.42464076,-0.37269638,0.539161,0.42010194,-0.32324859,0.521429,0.40106351,-0.34904629,0.530086,0.37298574,-0.30830113,0.503492,0.34948129,-0.26999772,0.480086,0.34150774,-0.24625296,0.472633,0.38350031,-0.26215602,0.49757,0.3861774,-0.22020802,0.490791,0.38995749,-0.19787125,0.487401,0.39074059,-0.18314296,0.48432,0.41164499,-0.27470547,0.504542,0.40201433,-0.24211374,0.476331,0.39667708,-0.22273973,0.459874,0.3937998,-0.20508828,0.448119,0.43520924,-0.28772878,0.512194,0.43228398,-0.25180188,0.485911,0.42734257,-0.24052507,0.472464,0.42158096,-0.23501572,0.460239,0.46550449,-0.31105503,0.52441,0.4551228,-0.273377,0.500324,0.44848061,-0.25697455,0.489257,0.44273062,-0.25927016,0.479493
0.41457671,-0.36909181,0.530115,0.40751467,-0.32063488,0.51097,0.39261804,-0.35065511,0.523601,0.36065747,-0.30942185,0.499751,0.33854222,-0.27242599,0.476336,0.33528329,-0.24617092,0.469551,0.38426091,-0.26176941,0.489486,0.38140589,-0.2207424,0.479288,0.38011838,-0.19926181,0.474189,0.37893156,-0.17832214,0.469554,0.40793765,-0.27259503,0.492736,0.39538061,-0.2284165,0.463411,0.38361435,-0.21707849,0.446304,0.37112968,-0.21837854,0.434085,0.42838094,-0.28572216,0.497476,0.42297511,-0.2469073,0.4709,0.4123328,-0.23933676,0.457303,0.39895549,-0.23797545,0.444942,0.45424681,-0.30942159,0.506577,0.43417216,-0.2778529,0.482353,0.42497978,-0.26304113,0.471224,0.41653743,-0.2674156,0.461403
0.38792565,-0.37115807,0.517974,0.38431963,-0.32176413,0.502405,0.36821527,-0.34596304,0.509577,0.34121443,-0.30479742,0.484362,0.31885343,-0.26383255,0.459235,0.31925962,-0.24221759,0.45685,0.36368804,-0.25942045,0.480897,0.35709517,-0.21261775,0.455351,0.36156789,-0.19329968,0.452268,0.36591966,-0.17499592,0.449465,0.38863388,-0.27304751,0.487578,0.3890754,-0.23232847,0.461616,0.38384868,-0.22727413,0.446471,0.37538453,-0.23444874,0.435653,0.40952226,-0.28820346,0.494757,0.40723182,-0.24696335,0.470081,0.40586078,-0.24383367,0.457456,0.40214524,-0.24956001,0.445979,0.4348628,-0.31371481,0.506016,0.42714179,-0.29342404,0.483614,0.42389912,-0.28393289,0.473322,0.41905597,-0.29216097,0.46424
0.35982759,-0.36380046,0.495254,0.36850083,-0.32448788,0.488919,0.34272494,-0.34081924,0.489512,0.32347973,-0.30711744,0.47028,0.30612932,-0.27093025,0.454722,0.30354323,-0.25081356,0.455423,0.35497207,-0.2669056,0.477138,0.35508018,-0.223018,0.460935,0.36115669,-0.20371555,0.460227,0.3670191,-0.18519818,0.459583,0.37996906,-0.28001859,0.482885,0.38760482,-0.24583867,0.467033,0.38323458,-0.25541666,0.457786,0.37498888,-0.27001295,0.451931,0.40001686,-0.29426422,0.488301,0.40373908,-0.25482196,0.472681,0.40573298,-0.25534206,0.464688,0.40569382,-0.26379213,0.457423,0.42275462,-0.31773025,0.495779,0.42027219,-0.30143759,0.480815,0.41953232,-0.29368968,0.473939,0.41712912,-0.30425258,0.467872
0.35469291,-0.36522418,0.496213,0.34836878,-0.31638495,0.482189,0.33062216,-0.34471638,0.487949,0.30840649,-0.30502506,0.469174,0.28930847,-0.26836833,0.453484,0.28524834,-0.24803938,0.453077,0.32731349,-0.25525697,0.461902,0.32493239,-0.2144621,0.439632,0.33026812,-0.1993024,0.436929,0.33539501,-0.18704365,0.434473,0.35390557,-0.26740576,0.468832,0.34916557,-0.25130739,0.444464,0.34003963,-0.25560053,0.43025,0.33948301,-0.2798316,0.439493,0.3760057,-0.28140274,0.476051,0.369294,-0.24748853,0.452669,0.36620546,-0.22954656,0.440706,0.36198163,-0.23547705,0.429831,0.40238889,-0.3055104,0.487065,0.40163467,-0.28217555,0.465782,0.39577996,-0.28219796,0.456004,0.38102589,-0.29246229,0.447376
0.3390901,-0.37140205,0.495875,0.33611512,-0.32268587,0.477674,0.32057185,-0.34964839,0.490377,0.30064632,-0.31828517,0.472604,0.28056658,-0.281288,0.457305,0.2778308,-0.26133867,0.458064,0.31344588,-0.26132333,0.458154,0.30800867,-0.21878254,0.432636,0.31571496,-0.20380513,0.434006,0.32322887,-0.1890074,0.435252,0.3370637,-0.27069496,0.460339,0.3215595,-0.2367401,0.43211,0.30464805,-0.23446154,0.415644,0.3023981,-0.25696917,0.42375,0.35729927,-0.28277822,0.4641,0.33642873,-0.27012333,0.438766,0.32569424,-0.26376285,0.425804,0.30680613,-0.27478813,0.414021,0.38257713,-0.30540031,0.471887,0.38577314,-0.27020017,0.44866,0.36906141,-0.27405217,0.437987,0.3495875,-0.28120819,0.428571
0.32883434,-0.38054841,0.493085,0.3234932,-0.33134535,0.47546,0.31079074,-0.35986554,0.489512,0.28906015,-0.32928267,0.47522,0.26875908,-0.29186526,0.460624,0.26505227,-0.27113132,0.460238,0.30073198,-0.27115804,0.45884,0.29530193,-0.22341754,0.433736,0.30343027,-0.20684009,0.436753,0.3010401,-0.2082189,0.439496,0.32304672,-0.27803331,0.458675,0.30046305,-0.24786284,0.431393,0.28283058,-0.25497528,0.415479,0.28406236,-0.27961275,0.424022,0.34218553,-0.288083,0.46044,0.31907498,-0.25822063,0.436607,0.30716594,-0.26028525,0.424413,0.29735149,-0.27230264,0.413328,0.3663092,-0.3083738,0.4658,0.33453482,-0.30601714,0.443718,0.32675691,-0.31724948,0.433573,0.33558271,-0.32696973,0.439431
0.30958078,-0.38000904,0.483916,0.30755396,-0.32817262,0.470526,0.29259844,-0.35938611,0.481006,0.26136485,-0.32057645,0.465112,0.24071385,-0.28743037,0.449439,0.23321714,-0.2626859,0.441853,0.29230021,-0.26970482,0.457644,0.28629935,-0.22928125,0.436588,0.29403775,-0.21623353,0.441956,0.28901693,-0.2223167,0.446835,0.31393692,-0.27817355,0.457773,0.29281685,-0.25352898,0.434851,0.27564747,-0.25932233,0.42148,0.27637672,-0.28510961,0.431916,0.33195935,-0.28924456,0.459323,0.31197592,-0.26346214,0.439182,0.3004837,-0.26426064,0.428878,0.29027935,-0.27675364,0.41951,0.35365543,-0.3102496,0.463638,0.32770761,-0.28487101,0.444676,0.32235008,-0.29874023,0.435964,0.33247912,-0.31592297,0.443238
0.27681794,-0.37909277,0.48311,0.28534066,-0.32757545,0.469359,0.26210663,-0.35763897,0.480773,0.23830668,-0.319199,0.463687,0.21776901,-0.28628756,0.448373,0.21194045,-0.26304717,0.443277,0.2730605,-0.26920483,0.456978,0.26406946,-0.23290882,0.435563,0.26709137,-0.22018074,0.436974,0.26632982,-0.21182311,0.438257,0.29365138,-0.27802825,0.456262,0.27101392,-0.25856605,0.433102,0.24962583,-0.26501456,0.419592,0.24474517,-0.28824461,0.429903,0.31059234,-0.28935551,0.457154,0.28974105,-0.26432564,0.437057,0.27706479,-0.27293347,0.426774,0.26683447,-0.28864308,0.417427,0.33063648,-0.31059712,0.460775,0.30462013,-0.29212121,0.441808,0.29224127,-0.283437,0.433093,0.27931797,-0.28294219,0.425403
0.27428242,-0.38122042,0.484845,0.27567365,-0.32881475,0.46814,0.25939613,-0.36010266,0.482705,0.22915523,-0.32465065,0.465161,0.20599156,-0.29252779,0.449524,0.19864184,-0.26924494,0.443907,0.26058975,-0.26958956,0.454011,0.2466152,-0.23439871,0.429746,0.24275316,-0.22186569,0.425386,0.23914131,-0.20972002,0.421422,0.28058854,-0.27746688,0.452231,0.25814141,-0.25062498,0.426187,0.23538813,-0.25743365,0.410994,0.23008079,-0.28049623,0.419994,0.29729793,-0.28819941,0.452566,0.27190738,-0.26294214,0.430256,0.25784637,-0.27292076,0.418842,0.24744788,-0.28803891,0.408519,0.31758329,-0.30905376,0.456094,0.2851855,-0.2958585,0.435239,0.26974204,-0.28982506,0.425657,0.25613656,-0.28802333,0.417202
0.26974022,-0.38193716,0.485433,0.2651075,-0.3290353,0.468454,0.25054353,-0.36165292,0.483413,0.21853404,-0.32521528,0.46597,0.19548803,-0.29329308,0.4507,0.1878722,-0.26953486,0.444385,0.25036054,-0.2697576,0.454294,0.23587964,-0.23440198,0.429752,0.22908309,-0.22239277,0.423198,0.22187267,-0.2119787,0.417239,0.2701829,-0.2774994,0.452284,0.24719974,-0.2505156,0.426001,0.22424527,-0.25723008,0.410669,0.21845874,-0.28019302,0.41954,0.28671127,-0.28813063,0.452458,0.26072613,-0.26277958,0.42999,0.24643083,-0.272694,0.418494,0.23604452,-0.28771387,0.408058,0.30673908,-0.3088891,0.455851,0.27381818,-0.29560767,0.43487,0.25810968,-0.28953432,0.42523,0.24424757,-0.28769333,0.416724
0.25287954,-0.38240238,0.485484,0.25202899,-0.32901196,0.466505,0.23980444,-0.36212448,0.485005,0.20784518,-0.32727904,0.469295,0.18494223,-0.29496346,0.454646,0.17846911,-0.27114847,0.448735,0.24172886,-0.2696109,0.452995,0.21497231,-0.23170758,0.42884,0.20357117,-0.21461484,0.421584,0.18968579,-0.20440185,0.414988,0.2583684,-0.27750384,0.44843,0.23034993,-0.24360455,0.420644,0.20612562,-0.25298156,0.404435,0.20087874,-0.27571133,0.412224,0.2721927,-0.28832616,0.446716,0.24250884,-0.25735422,0.423755,0.22460779,-0.26714775,0.412008,0.20984592,-0.27980066,0.401328,0.28885827,-0.30947606,0.448295,0.2425061,-0.30064523,0.426764,0.21921387,-0.298107,0.416872,0.19724666,-0.29886354,0.408144
0.26076407,-0.38476862,0.490636,0.25680226,-0.32910183,0.470853,0.2430708,-0.36372587,0.489907,0.21140126,-0.33006159,0.473682,0.18477108,-0.30016713,0.457846,0.17423074,-0.27691654,0.450619,0.24376778,-0.26947334,0.456472,0.21426031,-0.23227309,0.431706,0.19990405,-0.21726546,0.428162,0.18532074,-0.20996778,0.424941,0.2605574,-0.27688332,0.452012,0.22571401,-0.2507097,0.423387,0.19897607,-0.25701204,0.406688,0.1906365,-0.27823642,0.414084,0.27501011,-0.28407353,0.450472,0.24232471,-0.25721197,0.426754,0.22418936,-0.26719884,0.414619,0.20963149,-0.27993316,0.403588,0.29301706,-0.30437595,0.452403,0.24438034,-0.30120599,0.430243,0.22119222,-0.29875645,0.420062,0.199903,-0.29814643,0.411078
0.25577047,-0.38571131,0.49404,0.24927876,-0.32768009,0.473221,0.2401608,-0.36451913,0.493986,0.20604624,-0.33133555,0.478549,0.17980257,-0.30049455,0.463506,0.17391832,-0.27912579,0.457388,0.23386506,-0.26873028,0.459016,0.20099169,-0.23233844,0.43352,0.18713,-0.21716845,0.427719,0.17115003,-0.2089467,0.422446,0.2500886,-0.27464775,0.453394,0.21420301,-0.2509301,0.424009,0.18738793,-0.25712635,0.406867,0.17855814,-0.27802885,0.413613,0.26398461,-0.28397788,0.451008,0.22858827,-0.2551132,0.426979,0.2105008,-0.2654163,0.414685,0.19655543,-0.27831914,0.403509,0.28153995,-0.30358595,0.452152,0.23254742,-0.2986684,0.429701,0.20965025,-0.29652155,0.419386,0.18923106,-0.29471582,0.410315
0.25294653,-0.38605594,0.498694,0.24553662,-0.32607594,0.479464,0.23689811,-0.36656229,0.499014,0.20075589,-0.32965203,0.484413,0.17350855,-0.29942264,0.470644,0.16374084,-0.27602995,0.464001,0.2284034,-0.26877884,0.466824,0.19489894,-0.23366325,0.442673,0.17984886,-0.21830397,0.436086,0.16309032,-0.21005562,0.430097,0.24515668,-0.27362531,0.46115,0.20968076,-0.25141864,0.433379,0.1841938,-0.25902656,0.417179,0.17631367,-0.2809469,0.42473,0.25950384,-0.28197245,0.458549,0.22394053,-0.25462118,0.435931,0.2071559,-0.26582057,0.424359,0.19464366,-0.27958312,0.413839,0.27764464,-0.30020136,0.459145,0.22983535,-0.29764163,0.43787,0.2074073,-0.29661462,0.428094,0.18736279,-0.29582602,0.419509
0.21587245,-0.35975254,0.512411,0.22982025,-0.30723277,0.48777,0.2060666,-0.3331398,0.506608,0.19228193,-0.29485774,0.488337,0.18044033,-0.26059541,0.472703,0.1783686,-0.23946304,0.459362,0.22596578,-0.24290649,0.463483,0.18942225,-0.21752627,0.43301,0.18285673,-0.22063748,0.445531,0.17279423,-0.22192555,0.456913,0.24303172,-0.25732054,0.464304,0.2003718,-0.24231891,0.429819,0.17226809,-0.24820248,0.409704,0.16204553,-0.26685968,0.41456,0.2570261,-0.27371788,0.467636,0.21538151,-0.26711393,0.437299,0.19339199,-0.27539388,0.421778,0.17502377,-0.28507657,0.407668,0.27318562,-0.30185372,0.476134,0.22498816,-0.28902448,0.448674,0.20088716,-0.29085006,0.436057,0.17985464,-0.29283161,0.424924
0.22760945,-0.36285875,0.520779,0.24282608,-0.30638135,0.493225,0.21936365,-0.33754684,0.517066,0.20890213,-0.29846975,0.501608,0.19172662,-0.26418291,0.485975,0.18432157,-0.24260107,0.472111,0.23758929,-0.24267577,0.46968,0.19003422,-0.21698144,0.438949,0.17768419,-0.21861608,0.453945,0.16293809,-0.22195227,0.467578,0.24991504,-0.25478477,0.466982,0.19616774,-0.23825089,0.430337,0.16614052,-0.24305917,0.40896,0.15597581,-0.25998689,0.412117,0.25877923,-0.27165416,0.46773,0.2080749,-0.26181052,0.436569,0.1836402,-0.26936506,0.420626,0.1645997,-0.27820164,0.406132,0.27264843,-0.29827142,0.473778,0.21736727,-0.28205374,0.445514,0.192244,-0.28318485,0.432528,0.17083141,-0.28438407,0.42107
0.23453536,-0.36709786,0.529435,0.24724587,-0.31056168,0.502076,0.22578462,-0.34130366,0.524986,0.21198076,-0.3020961,0.508627,0.19482593,-0.26792838,0.493318,0.18774501,-0.245424,0.479517,0.23998814,-0.24527853,0.477705,0.19352832,-0.22030744,0.446497,0.18153547,-0.22210804,0.46167,0.16719413,-0.22563432,0.475464,0.2538268,-0.25722735,0.47602,0.20188544,-0.24136748,0.439352,0.1712609,-0.24755815,0.417963,0.16127222,-0.26492274,0.421273,0.26571977,-0.27184083,0.477581,0.21522346,-0.26463417,0.446101,0.19170035,-0.27250253,0.429994,0.17084652,-0.28306497,0.415352,0.28040214,-0.29832849,0.484536,0.22544429,-0.28523884,0.45604,0.20070373,-0.28694409,0.442947,0.17730965,-0.28999707,0.431394
0.23571484,-0.3656474,0.528963,0.2458979,-0.30885976,0.501116,0.22707497,-0.34079897,0.525499,0.21282742,-0.30229827,0.510287,0.19697664,-0.26887429,0.496874,0.19094256,-0.24645686,0.484308,0.23737686,-0.24415687,0.477697,0.1909169,-0.21958379,0.446989,0.17537035,-0.22132189,0.461789,0.16499234,-0.22550123,0.475244,0.25074958,-0.25492857,0.474595,0.19878713,-0.2396271,0.437762,0.16977923,-0.24600661,0.416276,0.16007963,-0.26326494,0.419226,0.26230448,-0.26855548,0.475042,0.21198236,-0.26345259,0.443839,0.18844648,-0.27155089,0.427874,0.17016097,-0.28088491,0.413361,0.27676185,-0.29386879,0.480795,0.22311292,-0.2751559,0.452487,0.19826345,-0.27595308,0.439481,0.17675451,-0.2770531,0.428004
0.23455151,-0.36220093,0.52396,0.24465381,-0.307355,0.498881,0.22712399,-0.33921641,0.522702,0.20903812,-0.31551227,0.508908,0.1886119,-0.282705,0.494834,0.1817537,-0.25843899,0.485096,0.23873543,-0.24572099,0.480214,0.19039277,-0.22119049,0.453153,0.17655542,-0.22105983,0.46895,0.16128554,-0.22075281,0.48331,0.25046536,-0.2548026,0.474997,0.196465,-0.24002097,0.441312,0.16565648,-0.24443259,0.421662,0.15921084,-0.26480637,0.426101,0.25900986,-0.26553649,0.473403,0.20502845,-0.25308794,0.445542,0.17806077,-0.25832174,0.431288,0.15733438,-0.26673559,0.418329,0.2714147,-0.28829982,0.476267,0.21923579,-0.27390701,0.450653,0.19754658,-0.28013044,0.438884,0.17688476,-0.28761327,0.428499
0.23408115,-0.36062449,0.521172,0.2420363,-0.30744539,0.497119,0.22804884,-0.33959167,0.522392,0.20856539,-0.31531426,0.508395,0.18890427,-0.28537036,0.498399,0.18362883,-0.26407018,0.494388,0.2397175,-0.24721462,0.482377,0.19107599,-0.22232356,0.458219,0.17444087,-0.22120664,0.473658,0.1602919,-0.22118424,0.487693,0.2481239,-0.25342092,0.474211,0.19325269,-0.23945051,0.442349,0.16095177,-0.24281749,0.423763,0.15378905,-0.26227431,0.428294,0.25607416,-0.26316131,0.470079,0.20208989,-0.25188763,0.444671,0.17611917,-0.25828883,0.431672,0.15655912,-0.26803485,0.419854,0.26448175,-0.28265013,0.469805,0.20877742,-0.26438813,0.446171,0.1889707,-0.27142194,0.435313,0.17376963,-0.27667812,0.4259
0.23251709,-0.35971678,0.521602,0.23804419,-0.30117282,0.495833,0.22749118,-0.33907614,0.523415,0.21181761,-0.29343737,0.515377,0.20293054,-0.26229667,0.510372,0.20051443,-0.23982343,0.501367,0.23948395,-0.24497383,0.480698,0.19011396,-0.22009463,0.456059,0.17462753,-0.21962728,0.470177,0.15792994,-0.21831033,0.483012,0.24650816,-0.25096431,0.471292,0.18990612,-0.22777505,0.438196,0.15980934,-0.23259367,0.418889,0.1460661,-0.24682861,0.422063,0.2531371,-0.26026998,0.466323,0.19644051,-0.24153908,0.440223,0.1720685,-0.25267038,0.42687,0.15363591,-0.26288649,0.414822,0.25750937,-0.27847744,0.465399,0.20001673,-0.25686447,0.441199,0.17577862,-0.25834835,0.43008,0.15491392,-0.25944124,0.420269
0.23078206,-0.35809891,0.520419,0.23897004,-0.30228468,0.495241,0.22619563,-0.337337,0.521961,0.21179094,-0.29314146,0.514161,0.2030207,-0.26192246,0.508948,0.20088492,-0.23966894,0.500323,0.23968817,-0.24427861,0.480155,0.1910831,-0.22337888,0.455608,0.17432134,-0.23998171,0.470243,0.16244857,-0.2640887,0.485776,0.24665786,-0.25064235,0.471263,0.19077084,-0.22871213,0.438553,0.16096169,-0.23397212,0.419473,0.14843111,-0.25198436,0.423155,0.25303397,-0.26025462,0.466654,0.19775227,-0.24488326,0.440732,0.1752473,-0.25543755,0.427471,0.18362317,-0.2761781,0.432179,0.25751771,-0.2792496,0.466036,0.20308577,-0.2593743,0.44198,0.17659229,-0.25875154,0.430927,0.15559864,-0.25965023,0.421174
0.22922831,-0.35495789,0.516621,0.23948726,-0.30152106,0.494348,0.22613256,-0.33612076,0.520738,0.21886638,-0.29776854,0.517041,0.20607622,-0.26559387,0.513859,0.20385858,-0.24353524,0.506301,0.24410142,-0.24393281,0.484586,0.19961839,-0.21404068,0.464379,0.17626001,-0.19956342,0.455191,0.15237775,-0.20955971,0.462614,0.24838748,-0.2486978,0.473134,0.19328627,-0.23105248,0.444125,0.16440113,-0.2381023,0.427203,0.15233158,-0.25668978,0.431833,0.25165485,-0.25570954,0.466105,0.19939512,-0.24360756,0.444145,0.17820174,-0.25648746,0.43291,0.18844451,-0.27879653,0.438762,0.25674437,-0.27071251,0.462132,0.20337524,-0.25248541,0.441344,0.18299262,-0.26002055,0.431793,0.17245949,-0.27354973,0.423366
0.22890235,-0.3538691,0.515651,0.23947857,-0.30088772,0.494154,0.22639971,-0.33562194,0.520493,0.22076763,-0.29826125,0.518386,0.21174104,-0.2685319,0.516113,0.20801682,-0.24555754,0.508892,0.2451047,-0.24434239,0.485864,0.20193541,-0.21313258,0.466135,0.18141604,-0.19479359,0.456271,0.15591657,-0.2093651,0.462835,0.24899244,-0.2484257,0.473681,0.19402196,-0.23159385,0.44571,0.16548156,-0.23923247,0.429394,0.1536831,-0.2578211,0.434204,0.25202511,-0.25494866,0.465964,0.19989678,-0.24359123,0.445122,0.17927738,-0.25709057,0.434458,0.18988849,-0.27939929,0.440547,0.25614269,-0.27007809,0.461049,0.20330428,-0.25239731,0.44119,0.18385728,-0.26090312,0.432066,0.17373709,-0.27376008,0.424015
0.23094312,-0.35249027,0.515237,0.24941791,-0.29814045,0.494444,0.23112349,-0.33560553,0.520154,0.23277124,-0.29978424,0.519532,0.22548116,-0.26995687,0.517656,0.22460339,-0.24805879,0.511275,0.25520589,-0.24468316,0.48673,0.21132104,-0.21467566,0.468262,0.18855474,-0.19917267,0.459028,0.16270342,-0.21042825,0.466221,0.2588676,-0.24780962,0.474641,0.20291019,-0.23250986,0.447322,0.17472536,-0.24081517,0.431386,0.15932065,-0.25843904,0.436629,0.2617922,-0.25465243,0.466927,0.21001769,-0.23612206,0.446618,0.18892202,-0.2487209,0.436228,0.19145484,-0.27793867,0.442735,0.26501605,-0.27113271,0.461882,0.21072308,-0.25492129,0.442463,0.18648795,-0.26163502,0.433542,0.18109598,-0.27332963,0.427043
0.27156826,-0.34515365,0.505199,0.26666311,-0.28952519,0.486144,0.27015988,-0.33385349,0.514425,0.25479728,-0.30420331,0.517417,0.24056768,-0.27782133,0.519886,0.23006131,-0.25298173,0.515335,0.26214112,-0.24119787,0.485221,0.2121801,-0.21288062,0.466825,0.18629378,-0.19689513,0.457626,0.16669323,-0.2081281,0.462099,0.26204578,-0.23610599,0.467995,0.20420285,-0.23173937,0.444764,0.17736176,-0.24128301,0.431213,0.17247934,-0.26073845,0.434825,0.26278859,-0.23621201,0.455864,0.20878923,-0.23495631,0.440646,0.19675636,-0.25441226,0.432861,0.21197699,-0.27471684,0.438171,0.26537291,-0.24472937,0.445365,0.21298285,-0.24208204,0.430302,0.19730149,-0.2524845,0.423381,0.19359097,-0.26917084,0.426633
0.27650643,-0.34433244,0.503997,0.27737177,-0.28940072,0.485935,0.27508091,-0.33311755,0.513291,0.26599862,-0.30502176,0.516742,0.25209587,-0.27942189,0.519046,0.2459976,-0.25821119,0.514774,0.27289682,-0.24147426,0.485777,0.22584288,-0.21321326,0.470039,0.20160584,-0.19870297,0.46217,0.18391788,-0.21227255,0.467905,0.27295422,-0.23647831,0.468733,0.21791419,-0.23313075,0.446361,0.19140778,-0.24302414,0.43331,0.18425991,-0.26242044,0.43763,0.2738099,-0.23661669,0.456645,0.22188839,-0.23773373,0.442112,0.20836691,-0.25547902,0.434676,0.22396017,-0.27628299,0.440669,0.27650615,-0.24508325,0.446009,0.22422129,-0.24275546,0.431499,0.2084178,-0.25334981,0.424832,0.20492302,-0.27041186,0.4286
0.28214728,-0.34440144,0.504098,0.28829174,-0.2894978,0.486098,0.28613518,-0.33314221,0.513329,0.27742155,-0.30502589,0.516749,0.2638349,-0.27938259,0.518973,0.25787863,-0.25813947,0.514631,0.28342386,-0.2415354,0.4859,0.23669915,-0.21335524,0.470352,0.21262421,-0.19887795,0.462577,0.19527503,-0.21252751,0.468467,0.28358369,-0.23659031,0.468955,0.22855522,-0.23324983,0.446589,0.20197726,-0.24315482,0.433543,0.19507617,-0.26262012,0.437963,0.28456528,-0.23677007,0.456941,0.23285297,-0.23787999,0.442384,0.21928354,-0.25563183,0.434936,0.23492132,-0.27650243,0.441019,0.2874946,-0.24528711,0.44638,0.2350556,-0.24295011,0.431845,0.21903052,-0.25354959,0.425167,0.21556449,-0.27066549,0.429002
0.29137694,-0.3428142,0.503295,0.29237932,-0.28861116,0.486448,0.28860961,-0.33027811,0.510879,0.25999736,-0.31591897,0.50819,0.22818282,-0.29651729,0.502625,0.21177837,-0.27689654,0.497472,0.2904745,-0.23802493,0.484887,0.24343495,-0.21694022,0.471591,0.21885625,-0.20600333,0.464943,0.19867402,-0.21418208,0.47347,0.29330892,-0.23568636,0.470403,0.23899499,-0.23258411,0.447993,0.21290335,-0.24347323,0.43492,0.20680924,-0.26411104,0.441296,0.29640947,-0.2379702,0.460291,0.24539366,-0.23904171,0.444945,0.23149702,-0.25680228,0.437094,0.24735118,-0.2787892,0.444906,0.30162251,-0.24889855,0.451721,0.24853752,-0.24557912,0.436456,0.22907561,-0.25373731,0.429443,0.23484728,-0.2711137,0.434565
0.29895019,-0.34008851,0.499904,0.29932551,-0.28782213,0.485576,0.29668922,-0.3289214,0.509153,0.27310964,-0.31851661,0.509718,0.24256808,-0.30088974,0.506143,0.22622355,-0.28368006,0.503203,0.29430946,-0.24115424,0.487893,0.24614082,-0.22012707,0.473342,0.22112684,-0.20928712,0.466067,0.2029863,-0.2111898,0.473888,0.29606255,-0.23728257,0.47193,0.24378101,-0.23678584,0.452741,0.21586936,-0.2409069,0.441547,0.20903067,-0.26443963,0.448468,0.29818391,-0.23813536,0.460328,0.24933635,-0.24206748,0.448215,0.22782786,-0.25505043,0.442017,0.23478176,-0.28114127,0.450478,0.30213945,-0.2470249,0.449556,0.25514221,-0.23632671,0.437021,0.2559776,-0.25636107,0.448102,0.2734045,-0.26815324,0.45681
0.31014028,-0.34162497,0.50277,0.3146157,-0.29018458,0.488167,0.31245562,-0.3315714,0.512042,0.28547882,-0.32085841,0.512616,0.25489864,-0.30385311,0.509542,0.23816139,-0.28660992,0.50633,0.30701855,-0.24395322,0.490329,0.25840213,-0.22422264,0.475796,0.23320748,-0.21407681,0.468529,0.21622242,-0.21100965,0.476228,0.30861192,-0.23924097,0.474259,0.25660078,-0.24022999,0.454841,0.22642992,-0.2429982,0.443514,0.2188123,-0.26274528,0.450244,0.3108331,-0.23943165,0.462601,0.26021058,-0.24386856,0.450321,0.23874083,-0.25712689,0.444038,0.24631845,-0.28251834,0.452321,0.31535225,-0.24758784,0.451813,0.26614035,-0.23809643,0.439141,0.26707619,-0.25811563,0.450086,0.28462248,-0.26970804,0.458789
0.31204214,-0.33955043,0.501419,0.31889517,-0.2891872,0.489701,0.31380735,-0.32846097,0.510502,0.28584918,-0.31195542,0.511164,0.25133014,-0.29795179,0.502146,0.2317244,-0.28061446,0.49425,0.32180641,-0.24123015,0.493577,0.27611557,-0.22360087,0.483849,0.25211097,-0.21440695,0.478985,0.236654,-0.21218389,0.489277,0.32448485,-0.23900505,0.478542,0.27519855,-0.22217129,0.461634,0.2464734,-0.22880271,0.451771,0.24440582,-0.25151976,0.46035,0.32693248,-0.24102632,0.467424,0.27847516,-0.24146935,0.457001,0.25672145,-0.25460314,0.451668,0.26416738,-0.28043921,0.461681,0.33042891,-0.25093986,0.456721,0.28629583,-0.23590709,0.445593,0.28243139,-0.25319029,0.457803,0.29592995,-0.2659417,0.466454
0.3212187,-0.35014277,0.514544,0.31756454,-0.30625753,0.494596,0.30578591,-0.33457303,0.515082,0.27873549,-0.31721789,0.502105,0.24201102,-0.2856423,0.481104,0.23370499,-0.26388334,0.475532,0.29250264,-0.2524205,0.481752,0.26130182,-0.2050989,0.458744,0.24558815,-0.18119624,0.447254,0.22823502,-0.17186046,0.436809,0.31071649,-0.25593196,0.475598,0.27278743,-0.26062676,0.445171,0.25917594,-0.27316508,0.427422,0.26861449,-0.27938362,0.43399,0.32664515,-0.26294936,0.472681,0.30129179,-0.21158482,0.448864,0.28422531,-0.21105982,0.436679,0.2832892,-0.23164263,0.444292,0.34742489,-0.27904446,0.473045,0.30543998,-0.28672604,0.451441,0.31180135,-0.30732223,0.464559,0.32969842,-0.31296714,0.478045
0.32937608,-0.3542476,0.518086,0.32949355,-0.30744517,0.496514,0.31748153,-0.33726602,0.518193,0.28932942,-0.32065523,0.502864,0.25755938,-0.28859671,0.485478,0.24839613,-0.26821672,0.483341,0.30327788,-0.25255412,0.482007,0.27116166,-0.20446046,0.457316,0.25588664,-0.18087215,0.446454,0.23909701,-0.17176999,0.436579,0.32155634,-0.25613214,0.47597,0.28294626,-0.25689962,0.44392,0.26733561,-0.26969097,0.425224,0.275621,-0.27673363,0.43097,0.33769123,-0.26330653,0.473323,0.31124573,-0.21117756,0.448,0.29389765,-0.21026959,0.435044,0.29295411,-0.23035275,0.441818,0.35900265,-0.27978831,0.474306,0.31625281,-0.28675399,0.451485,0.3222859,-0.30704439,0.464139,0.33848264,-0.31117266,0.475304
0.34450421,-0.35686868,0.514928,0.3411946,-0.30470611,0.493523,0.32871909,-0.34253605,0.517015,0.30609022,-0.31949787,0.504704,0.27169339,-0.29004943,0.482309,0.25689551,-0.26747755,0.473031,0.313984,-0.25239772,0.481706,0.28483949,-0.2010085,0.460058,0.27179605,-0.17660032,0.451532,0.25607435,-0.16968942,0.443781,0.33022062,-0.25320182,0.473136,0.31340831,-0.19678476,0.441842,0.29159787,-0.19335501,0.423587,0.29001822,-0.21296825,0.429129,0.34481663,-0.25806443,0.468386,0.31953411,-0.20953359,0.444093,0.30232781,-0.20872871,0.431663,0.30074833,-0.22851027,0.438145,0.36470056,-0.27175678,0.466896,0.3235464,-0.27916109,0.445299,0.32889979,-0.30145068,0.457438,0.34400613,-0.30803263,0.468149
0.36175848,-0.3572681,0.519099,0.35119041,-0.30289619,0.495268,0.34421506,-0.34272863,0.51965,0.32055006,-0.32144321,0.50786,0.2866875,-0.29570865,0.485596,0.26997532,-0.27387704,0.473899,0.31559855,-0.25099418,0.479805,0.2973813,-0.20018591,0.465587,0.278422,-0.18113187,0.458478,0.26747337,-0.18713379,0.452016,0.33547555,-0.25144294,0.472572,0.31159937,-0.19551342,0.440832,0.28919896,-0.19166241,0.422318,0.28869602,-0.21137685,0.428001,0.3512782,-0.25643713,0.469184,0.32810232,-0.20582389,0.440679,0.30916045,-0.20609594,0.426095,0.30531414,-0.22491529,0.430975,0.37350149,-0.27043215,0.469731,0.33174051,-0.2788857,0.44583,0.33930255,-0.30165912,0.457487,0.35487312,-0.30778555,0.467773
0.36081223,-0.35371786,0.516566,0.3491032,-0.29885255,0.493792,0.34275506,-0.33898044,0.516551,0.31395253,-0.31158559,0.502935,0.2814897,-0.28504948,0.479002,0.26658739,-0.26761235,0.467609,0.31622245,-0.24200727,0.478311,0.29309654,-0.19267866,0.464334,0.27760217,-0.17967016,0.457346,0.26710679,-0.18539509,0.450993,0.33437699,-0.24255206,0.472104,0.30529727,-0.18823886,0.438851,0.28478131,-0.18781069,0.419453,0.28607781,-0.20857678,0.424507,0.35094039,-0.24735245,0.469447,0.32573493,-0.19801603,0.44195,0.30873211,-0.1968668,0.427881,0.30752529,-0.2158721,0.433631,0.37381068,-0.26126427,0.470643,0.33354102,-0.26752704,0.44704,0.34045476,-0.29102395,0.459277,0.35548484,-0.29824251,0.470074
0.35581898,-0.35520974,0.507605,0.35139424,-0.31669179,0.497472,0.33501908,-0.35054658,0.500927,0.3068963,-0.31552643,0.487773,0.27921639,-0.27919766,0.463864,0.26307606,-0.25654517,0.454843,0.31554882,-0.2640381,0.481894,0.30865426,-0.21755691,0.477518,0.30486394,-0.19850282,0.47533,0.30137545,-0.18295841,0.47334,0.3430271,-0.26765487,0.487821,0.33205268,-0.2176598,0.46957,0.32534064,-0.19199846,0.458923,0.33313682,-0.19821145,0.470526,0.36700271,-0.2744627,0.493794,0.35600967,-0.22164688,0.475997,0.34984802,-0.21493598,0.466891,0.35887557,-0.21755422,0.478055,0.39780795,-0.2898404,0.502632,0.38703182,-0.23949254,0.485678,0.38245853,-0.23105159,0.477889,0.3894278,-0.24194392,0.485707
0.36433138,-0.36023041,0.516583,0.3569216,-0.31661181,0.501465,0.341668,-0.34497913,0.506309,0.31805451,-0.312998,0.486527,0.28701694,-0.27491698,0.457806,0.27742047,-0.25353163,0.451255,0.31745921,-0.25814905,0.477819,0.31023979,-0.21036383,0.47124,0.31017836,-0.19288276,0.467951,0.31023283,-0.17614563,0.46496,0.34689399,-0.26271642,0.487068,0.32628949,-0.21129496,0.461459,0.31717021,-0.18555206,0.44652,0.32522883,-0.19178065,0.454661,0.37279463,-0.27056883,0.496314,0.36094325,-0.21931199,0.473102,0.35768005,-0.2019053,0.461227,0.36975694,-0.19346851,0.469286,0.40640866,-0.28753151,0.509887,0.39944954,-0.23729579,0.490316,0.39909412,-0.22940061,0.481324,0.41060398,-0.23078194,0.487399
0.37061026,-0.36041951,0.518929,0.37308081,-0.30631754,0.508655,0.34727529,-0.33904919,0.511756,0.32796178,-0.30958498,0.497321,0.2977079,-0.27958991,0.466784,0.28188594,-0.25685529,0.455111,0.3399148,-0.25323115,0.492335,0.32311969,-0.2145319,0.472752,0.31479516,-0.19634666,0.46296,0.30721231,-0.17968877,0.454058,0.36830774,-0.25874568,0.498869,0.35443358,-0.21205086,0.478497,0.3469232,-0.19405877,0.466613,0.3560374,-0.18864525,0.477513,0.39270171,-0.26706912,0.505357,0.38161105,-0.22513398,0.486823,0.37623366,-0.2058857,0.477341,0.38690777,-0.19831725,0.488155,0.42314882,-0.28404406,0.51482,0.41179859,-0.24447671,0.497929,0.40762181,-0.23054281,0.490169,0.41615357,-0.22476392,0.49792
0.39010058,-0.35619378,0.52544,0.38400109,-0.30597047,0.511433,0.36553287,-0.34053594,0.518712,0.33765018,-0.31034399,0.50117,0.30317637,-0.28114612,0.472415,0.2860245,-0.25827838,0.458737,0.34212879,-0.2539581,0.493159,0.33552452,-0.21478646,0.484678,0.33180331,-0.19613531,0.480437,0.32841124,-0.17897804,0.476582,0.36948245,-0.25719338,0.498093,0.35326255,-0.20953339,0.474436,0.34680087,-0.18610529,0.460635,0.35589786,-0.1784769,0.470431,0.39539316,-0.26144912,0.503666,0.38017489,-0.2212909,0.482175,0.37384014,-0.20194318,0.47118,0.38402686,-0.19413939,0.480885,0.42675661,-0.27525466,0.512768,0.41459544,-0.23662144,0.493315,0.41007425,-0.22290566,0.484377,0.41461415,-0.21959484,0.491286
0.39440339,-0.35448151,0.525568,0.38456401,-0.30324058,0.509918,0.37407131,-0.33917424,0.518251,0.34007481,-0.31012708,0.502486,0.30724623,-0.27998753,0.474924,0.29078929,-0.25935498,0.461292,0.3407267,-0.25181834,0.489761,0.33378136,-0.21249172,0.481216,0.33023371,-0.19399284,0.476943,0.32718222,-0.17741534,0.473059,0.36954091,-0.25292155,0.495013,0.35168819,-0.20555535,0.469935,0.34270398,-0.18291091,0.455307,0.34971673,-0.17849917,0.464403,0.39393106,-0.2578663,0.501024,0.37953692,-0.2157799,0.478401,0.37296741,-0.19690683,0.466827,0.3812169,-0.19103403,0.475875,0.42666643,-0.26809136,0.510944,0.41090827,-0.2291669,0.490257,0.40653811,-0.21952357,0.480752,0.41476057,-0.21484093,0.487096
0.38298134,-0.35714922,0.523436,0.38512276,-0.3056132,0.511274,0.36213132,-0.33756552,0.515396,0.33856627,-0.30730608,0.498801,0.3126589,-0.27160466,0.46919,0.30307461,-0.24945201,0.460791,0.35466705,-0.25124182,0.492545,0.34194053,-0.21257241,0.47925,0.33564217,-0.19387569,0.472603,0.32690586,-0.17572458,0.46656,0.3832119,-0.25974148,0.499691,0.36987673,-0.21509462,0.47727,0.36219212,-0.19141329,0.464191,0.37187125,-0.18193989,0.474183,0.40757198,-0.27069635,0.506887,0.3939688,-0.22745987,0.485581,0.3871122,-0.20642934,0.474681,0.39344581,-0.19554263,0.484303,0.43765262,-0.29113528,0.517525,0.42644835,-0.25126223,0.49973,0.42187662,-0.23517487,0.491554,0.42139845,-0.22289141,0.488468
0.39771469,-0.34744579,0.518786,0.39419718,-0.29911354,0.508234,0.37387884,-0.33455936,0.513855,0.35279545,-0.30459716,0.501607,0.31712321,-0.27307151,0.473032,0.30585654,-0.25152806,0.463667,0.35742857,-0.25085635,0.494647,0.34551415,-0.20787362,0.478696,0.3389767,-0.18854658,0.47072,0.330367,-0.17324618,0.46347,0.38543579,-0.25156427,0.498185,0.37403761,-0.20586998,0.480583,0.36783364,-0.18184466,0.470315,0.37878424,-0.17162164,0.482574,0.40864868,-0.25710899,0.502236,0.39641991,-0.21500969,0.484169,0.39013189,-0.19388367,0.474925,0.40068427,-0.1823437,0.486289,0.43815779,-0.27071514,0.508921,0.42642602,-0.23280076,0.492174,0.42146215,-0.21701063,0.48448,0.41724996,-0.20389426,0.477691
0.39575925,-0.34856883,0.519397,0.39677881,-0.29976762,0.509984,0.37600855,-0.33375781,0.515038,0.35246934,-0.30362104,0.50025,0.31699658,-0.27202263,0.471287,0.30560138,-0.2512288,0.461473,0.36887476,-0.24785336,0.497915,0.35161699,-0.20542952,0.481139,0.34188797,-0.18883075,0.472751,0.33294923,-0.17341754,0.465126,0.39516867,-0.25236188,0.50102,0.37759874,-0.20625518,0.481906,0.36998066,-0.1819521,0.470756,0.38017848,-0.17228028,0.482565,0.4174775,-0.25977914,0.50459,0.4014533,-0.21682626,0.487208,0.39520724,-0.19627545,0.478314,0.40598305,-0.18544712,0.490044,0.44495393,-0.27551258,0.510505,0.43150717,-0.23719024,0.495814,0.42589305,-0.22068417,0.489065,0.42186859,-0.20764197,0.483109
0.39728461,-0.3523161,0.524086,0.40055343,-0.30300631,0.515328,0.37627858,-0.33601893,0.518255,0.35089084,-0.30149337,0.498352,0.32137312,-0.26564131,0.468825,0.31023713,-0.2429171,0.455558,0.37003462,-0.24949131,0.501787,0.35368733,-0.20350369,0.483827,0.34619159,-0.18815276,0.474848,0.33805732,-0.17241993,0.466684,0.39746098,-0.25537668,0.506987,0.38552133,-0.20724264,0.488353,0.3790339,-0.18504451,0.477482,0.390076,-0.17684204,0.489234,0.42071338,-0.26401853,0.512213,0.41104759,-0.22040852,0.495146,0.40578891,-0.19969656,0.486414,0.41753091,-0.18868582,0.498052,0.44937613,-0.28141017,0.519926,0.44003717,-0.24041373,0.503999,0.43777241,-0.220697,0.496681,0.43541044,-0.20667383,0.490224
0.39739149,-0.35228654,0.524147,0.40139863,-0.30422361,0.516545,0.37732963,-0.33638767,0.519604,0.35128381,-0.29978443,0.501432,0.32308184,-0.26629177,0.472259,0.31303747,-0.24423373,0.459085,0.37855622,-0.25210178,0.505465,0.36395098,-0.20835128,0.489002,0.35682126,-0.18738035,0.48077,0.35033825,-0.16828291,0.473287,0.40468713,-0.25974116,0.509304,0.39767698,-0.21280027,0.492058,0.39379986,-0.18754541,0.481998,0.40723644,-0.1761328,0.4944,0.42634832,-0.26978549,0.513285,0.41471842,-0.22168619,0.497209,0.41073403,-0.20077891,0.488984,0.4217537,-0.18997419,0.501195,0.45210154,-0.28871045,0.519335,0.4444849,-0.2423654,0.506458,0.44170769,-0.22295665,0.500541,0.44031089,-0.20916494,0.495321
0.39806116,-0.35278341,0.524968,0.40173705,-0.30482564,0.517058,0.37798316,-0.33654303,0.52043,0.35137646,-0.29970194,0.502168,0.32346592,-0.26635704,0.473131,0.31377707,-0.24452229,0.459977,0.37878913,-0.25225689,0.505776,0.36395693,-0.20835469,0.48901,0.35671513,-0.18732461,0.480627,0.35013025,-0.168183,0.473006,0.40486194,-0.25985336,0.509524,0.39759454,-0.21275615,0.491956,0.39356211,-0.18743218,0.481707,0.40691272,-0.17599279,0.494007,0.426497,-0.26987957,0.513464,0.41513276,-0.22190418,0.497125,0.41096415,-0.20100073,0.488766,0.42228211,-0.18990487,0.500884,0.4522652,-0.28881496,0.519523,0.44554727,-0.24327131,0.507333,0.44293447,-0.2236667,0.501732,0.44174011,-0.20989836,0.49679
