sluyters/QuantumLeap/src/datasets/gesture/HandGestureDataset_SHREC2017_csv/Gesture8/finger_1/subject_25_essai_4_skeletons_world.csv
Wrist_x,Wrist_y,Wrist_z,Palm_x,Palm_y,Palm_z,thumb_base_x,thumb_base_y,thumb_base_z,thumb_first_joint_x,thumb_first_joint_y,thumb_first_joint_z,thumb_second_joint_x,thumb_second_joint_y,thumb_second_joint_z,thumb_tip_x,thumb_tip_y,thumb_tip_z,index_base_x,index_base_y,index_base_z,index_first_joint_x,index_first_joint_y,index_first_joint_z,index_second_joint_x,index_second_joint_y,index_second_joint_z,index_tip_x,index_tip_y,index_tip_z,middle_base_x,middle_base_y,middle_base_z,middle_first_joint_x,middle_first_joint_y,middle_first_joint_z,middle_second_joint_x,middle_second_joint_y,middle_second_joint_z,middle_tip_x,middle_tip_y,middle_tip_z,ring_base_x,ring_base_y,ring_base_z,ring_first_joint_x,ring_first_joint_y,ring_first_joint_z,ring_second_joint_x,ring_second_joint_y,ring_second_joint_z,ring_tip_x,ring_tip_y,ring_tip_z,pinky_base_x,pinky_base_y,pinky_base_z,pinky_first_joint_x,pinky_first_joint_y,pinky_first_joint_z,pinky_second_joint_x,pinky_second_joint_y,pinky_second_joint_z,pinky_tip_x,pinky_tip_y,pinky_tip_z,
0.400368068,-0.328441814,0.474323,0.390314308,-0.266397098,0.454382,0.378737484,-0.315050698,0.468068,0.359739346,-0.280461516,0.451144,0.329910781,-0.247910795,0.426957,0.313526468,-0.224440428,0.415987,0.346238285,-0.221299082,0.434231,0.323733524,-0.179522205,0.410403,0.312607579,-0.15896481,0.398489,0.313611029,-0.145507191,0.401885,0.372968259,-0.221070822,0.437159,0.350539109,-0.184687907,0.411226,0.347194202,-0.197004179,0.396098,0.354851823,-0.216466205,0.402257,0.397259968,-0.226131897,0.441614,0.374755017,-0.194754912,0.416663,0.373751854,-0.204905522,0.403898,0.384305494,-0.224414711,0.410385,0.429741077,-0.241407186,0.450354,0.408414045,-0.237041467,0.428286,0.399540612,-0.235284646,0.418146,0.391727711,-0.233810502,0.4092
0.401458542,-0.325228159,0.470879,0.390146982,-0.266825757,0.453675,0.379971166,-0.311212304,0.464545,0.359232843,-0.279432526,0.447424,0.333896423,-0.247794589,0.421697,0.319308194,-0.224126266,0.409813,0.346417059,-0.224774874,0.435071,0.333585938,-0.181754611,0.413302,0.326991072,-0.160004089,0.402418,0.334884606,-0.146584902,0.40955,0.374123813,-0.222888528,0.438816,0.354949223,-0.187080648,0.415207,0.352418808,-0.199601085,0.401435,0.361012746,-0.219855387,0.408639,0.398725654,-0.22775029,0.443664,0.375679062,-0.193180052,0.420621,0.373473606,-0.197835273,0.408831,0.386665106,-0.218368938,0.416337,0.43001103,-0.242391285,0.45237,0.412131992,-0.239039786,0.431901,0.403915971,-0.237684869,0.422496,0.396684384,-0.236577724,0.414198
0.389555231,-0.319177989,0.461222,0.387423928,-0.265811557,0.450395,0.369076846,-0.306632989,0.455172,0.354349996,-0.275195748,0.44041,0.331405141,-0.243911646,0.416276,0.327523355,-0.222329604,0.407759,0.348482816,-0.225639065,0.436,0.345811714,-0.185779205,0.419569,0.343169211,-0.165363568,0.411354,0.350961693,-0.151124124,0.41595,0.376693183,-0.226024602,0.441043,0.371507148,-0.197132304,0.423078,0.370148543,-0.210104338,0.412598,0.374979597,-0.228741092,0.422004,0.402008255,-0.232135389,0.446307,0.38940703,-0.204462142,0.428095,0.389604507,-0.212128,0.418777,0.403361708,-0.23458561,0.42846,0.433873912,-0.249517917,0.454354,0.417120763,-0.251769289,0.437932,0.408536406,-0.253791743,0.430386,0.400525582,-0.256220502,0.423842
0.398918397,-0.324866644,0.470114,0.393839827,-0.270909061,0.45769,0.37607766,-0.311946504,0.463075,0.3618248,-0.280385717,0.449035,0.343734675,-0.248544837,0.426918,0.339228221,-0.226958909,0.416911,0.353279471,-0.228647708,0.441046,0.349468426,-0.187374218,0.42329,0.346646094,-0.166676626,0.414412,0.354453213,-0.152293675,0.418584,0.383282942,-0.230680707,0.44696,0.375506451,-0.199545248,0.427468,0.373405216,-0.211844918,0.416098,0.378606047,-0.231124177,0.424787,0.410083284,-0.238176659,0.453103,0.397230442,-0.210973544,0.43337,0.398757379,-0.221647693,0.423275,0.409983466,-0.240505762,0.432175,0.441938404,-0.254670216,0.462458,0.423922065,-0.256043826,0.444732,0.414746126,-0.257659713,0.436587,0.406090597,-0.259762723,0.429471
0.401390687,-0.32517472,0.471236,0.393854768,-0.27176875,0.45825,0.375593698,-0.312775801,0.464181,0.362228495,-0.28086595,0.449996,0.342984823,-0.249651762,0.428207,0.340813602,-0.227701602,0.418497,0.353241136,-0.228990699,0.441247,0.346670575,-0.186968235,0.4231,0.345534803,-0.16654918,0.414026,0.353620965,-0.152311144,0.418438,0.382401764,-0.230277683,0.447035,0.373652999,-0.205952424,0.427041,0.371315958,-0.217746337,0.415378,0.380943766,-0.23558628,0.423885,0.408431872,-0.237227538,0.453132,0.396179067,-0.21119022,0.432983,0.39644733,-0.22133298,0.422674,0.407289752,-0.239923086,0.431399,0.441000614,-0.254946394,0.462534,0.422607092,-0.256002176,0.444448,0.413260199,-0.257465875,0.436139,0.404424918,-0.259447527,0.428873
0.403325953,-0.325660954,0.471675,0.388825535,-0.276189734,0.45707,0.377421713,-0.313374789,0.464512,0.357591347,-0.282222181,0.44927,0.338276865,-0.252783709,0.428442,0.33191359,-0.22987868,0.418639,0.347556335,-0.231600911,0.438951,0.340004169,-0.189943522,0.41944,0.336362429,-0.168962434,0.409684,0.346277338,-0.151594477,0.412817,0.376549955,-0.233799426,0.444456,0.369223601,-0.206075879,0.423189,0.367044152,-0.216322934,0.410783,0.376773734,-0.238667544,0.418781,0.402148451,-0.240699034,0.450486,0.3909569,-0.210477058,0.429349,0.39164131,-0.220204618,0.418535,0.403342016,-0.242013891,0.426788,0.43535415,-0.254841681,0.4601,0.418538566,-0.25465082,0.44097,0.408942287,-0.255862943,0.43218,0.399833448,-0.257584294,0.424428
0.403996801,-0.325962525,0.472304,0.377824092,-0.276450316,0.452661,0.375833839,-0.314268271,0.464207,0.351077458,-0.284687584,0.449319,0.328701287,-0.252450602,0.433261,0.336925885,-0.234213275,0.425932,0.330349083,-0.229166083,0.430291,0.319940495,-0.185252152,0.407171,0.315454315,-0.165553716,0.395611,0.321711034,-0.153802518,0.397362,0.36063809,-0.230966092,0.435695,0.346467198,-0.202843567,0.409855,0.34288038,-0.210965886,0.394782,0.351670799,-0.231997809,0.400718,0.384339169,-0.235061534,0.442158,0.367828106,-0.207635249,0.416703,0.366263522,-0.21308312,0.403679,0.378564106,-0.23424904,0.40975,0.417701884,-0.250881728,0.453177,0.397270976,-0.250870092,0.430713,0.386842093,-0.25200176,0.420392,0.377022772,-0.25367665,0.411321
0.387828952,-0.329271,0.472188,0.360200273,-0.276661049,0.450976,0.355249664,-0.31421183,0.459216,0.338545629,-0.287866628,0.441422,0.313512173,-0.257096316,0.418551,0.30895107,-0.235892989,0.406552,0.316094861,-0.231579832,0.421317,0.314482772,-0.190906159,0.407805,0.314031165,-0.170735791,0.401049,0.316945856,-0.152827298,0.394907,0.347775268,-0.234219658,0.432655,0.331468001,-0.191232706,0.405306,0.329096488,-0.200973554,0.389352,0.333066407,-0.218706058,0.392899,0.375571895,-0.241398221,0.444166,0.357937996,-0.209638489,0.415564,0.355865062,-0.21017016,0.400931,0.369725713,-0.230210255,0.40394,0.410708856,-0.258594931,0.461325,0.395011627,-0.267433554,0.436879,0.387813258,-0.271546299,0.425647,0.384828141,-0.285479422,0.427371
0.373926911,-0.327847898,0.473725,0.344356949,-0.273903538,0.443302,0.345254557,-0.316339979,0.460215,0.3180041,-0.288866923,0.436013,0.289872539,-0.258784477,0.40887,0.27987317,-0.23634458,0.39213,0.290421482,-0.22907996,0.407397,0.282181574,-0.189323074,0.393074,0.278885526,-0.170204033,0.385912,0.275924726,-0.152519988,0.379401,0.320588247,-0.228004281,0.417027,0.296638442,-0.186031856,0.382192,0.290912542,-0.193915187,0.361872,0.292242559,-0.207536894,0.360963,0.348559171,-0.232435828,0.428075,0.31376092,-0.18661215,0.400578,0.311185476,-0.18742691,0.38651,0.323678011,-0.205945467,0.391068,0.386535899,-0.247054978,0.446345,0.365728452,-0.253395816,0.416703,0.356130672,-0.256132182,0.403084,0.350535944,-0.267498226,0.401443
0.34581767,-0.327118055,0.471753,0.319017952,-0.272984146,0.441814,0.316487826,-0.316622692,0.458043,0.292132312,-0.287891033,0.43454,0.265972305,-0.258252287,0.407129,0.257454111,-0.236388905,0.390474,0.265871907,-0.228260124,0.405939,0.257681762,-0.188864546,0.392122,0.254295645,-0.169895744,0.385213,0.251241555,-0.152331851,0.378933,0.296044256,-0.227418725,0.415956,0.272460152,-0.185699406,0.381509,0.267416842,-0.19366976,0.361414,0.269399768,-0.207360958,0.360657,0.323962385,-0.232000902,0.427274,0.289995767,-0.186431863,0.400191,0.287417677,-0.187342049,0.386335,0.299801899,-0.205945994,0.391069,0.361751524,-0.246736712,0.44577,0.341379341,-0.253182374,0.416352,0.331992527,-0.25597396,0.402835,0.326696319,-0.267398275,0.401293
0.340575964,-0.33175138,0.47797,0.298843799,-0.274814047,0.446269,0.299877664,-0.320948572,0.464047,0.273210804,-0.291285861,0.440289,0.248149779,-0.262030388,0.413426,0.239408779,-0.239525637,0.396071,0.241807413,-0.228425593,0.409054,0.228557865,-0.186687883,0.391451,0.224925942,-0.181878072,0.38265,0.222899226,-0.191631346,0.374648,0.271856976,-0.227229999,0.418889,0.248003778,-0.188191571,0.383132,0.240020071,-0.195857898,0.362273,0.241250261,-0.20954864,0.360392,0.300424325,-0.231668386,0.430237,0.283348969,-0.225903588,0.394346,0.279008613,-0.229755982,0.375984,0.280211216,-0.233052587,0.373436,0.340299861,-0.246662358,0.449083,0.320318807,-0.244379637,0.418773,0.306111842,-0.251143975,0.404847,0.300557507,-0.254946317,0.402452
0.300414379,-0.326079202,0.46908,0.272509146,-0.268601009,0.440207,0.26960127,-0.31331161,0.454161,0.2542522,-0.285080361,0.428677,0.231087804,-0.254750751,0.400187,0.216881275,-0.230609585,0.383736,0.218020066,-0.22044537,0.4034,0.197289866,-0.184200382,0.392213,0.187382623,-0.167529928,0.38662,0.179996918,-0.156497275,0.381535,0.248939688,-0.221071085,0.41527,0.225812359,-0.185896953,0.381798,0.220854003,-0.195671092,0.362272,0.224176254,-0.209521892,0.361312,0.277924019,-0.227000558,0.428004,0.264964963,-0.223618931,0.393643,0.260985041,-0.228871818,0.376063,0.26219672,-0.233464406,0.374298,0.317718416,-0.243780907,0.447954,0.296886624,-0.243971048,0.419003,0.284939613,-0.251336963,0.405702,0.281812233,-0.255976825,0.403927
0.265062455,-0.316896652,0.454329,0.24583135,-0.263951066,0.436124,0.236039421,-0.304183553,0.441127,0.211719853,-0.269974631,0.421347,0.190167747,-0.239707112,0.403376,0.180220986,-0.215842605,0.392061,0.198117979,-0.217992618,0.407976,0.176474525,-0.18568067,0.407422,0.166652965,-0.171887469,0.407145,0.157158882,-0.158551767,0.406893,0.229539329,-0.219708645,0.4204,0.213834429,-0.19133456,0.395684,0.213738767,-0.205648155,0.381266,0.220659601,-0.223334969,0.385756,0.257984072,-0.226227599,0.432498,0.253073638,-0.227903434,0.406015,0.252061761,-0.237542442,0.392466,0.256609958,-0.247594438,0.39636,0.29539058,-0.243085803,0.4498,0.278936046,-0.246454478,0.427163,0.271214063,-0.256170891,0.416763,0.272578868,-0.265132386,0.419176
0.258583122,-0.312435221,0.448563,0.235166672,-0.26279062,0.434584,0.231366086,-0.302446105,0.438565,0.207045617,-0.274272869,0.420077,0.178783335,-0.24553798,0.400164,0.172347334,-0.223705387,0.38685,0.188628896,-0.22260524,0.413152,0.16206324,-0.18963499,0.407961,0.149248584,-0.176922437,0.405366,0.136968066,-0.164749614,0.403007,0.217922791,-0.221228817,0.422511,0.193734029,-0.18407525,0.401467,0.192643337,-0.194473953,0.389191,0.203369487,-0.214527852,0.396492,0.244682302,-0.224879916,0.43165,0.240004053,-0.229314839,0.4114,0.244338453,-0.239110309,0.40104,0.255931098,-0.253159935,0.408754,0.280225281,-0.237821644,0.444762,0.264437391,-0.243414692,0.425317,0.26314686,-0.252049525,0.416383,0.271973783,-0.264814998,0.421114
0.247429321,-0.307847423,0.447884,0.215918196,-0.255278593,0.433565,0.220793527,-0.300324834,0.439535,0.18411245,-0.269118277,0.423293,0.149028805,-0.248197912,0.41066,0.134132201,-0.226968957,0.401261,0.168291443,-0.21875662,0.414073,0.140857898,-0.185325592,0.407612,0.127021981,-0.171403568,0.404381,0.113859612,-0.158175182,0.401444,0.195849284,-0.214220149,0.421197,0.17021385,-0.179567804,0.399917,0.172714725,-0.19221606,0.387504,0.184837203,-0.211851454,0.395243,0.22127361,-0.21520817,0.428531,0.215255317,-0.218201492,0.408381,0.21841681,-0.230027066,0.398071,0.229844954,-0.248244706,0.406351,0.255607051,-0.224827478,0.439607,0.239482863,-0.229215034,0.420331,0.237677617,-0.239016104,0.411475,0.243845809,-0.253746241,0.416645
0.234844408,-0.304523057,0.448689,0.206231348,-0.25586745,0.434795,0.20795733,-0.297628573,0.439987,0.173689609,-0.26891973,0.423345,0.138813605,-0.247825621,0.410319,0.124021947,-0.226762217,0.401057,0.158836575,-0.219281142,0.415101,0.131772913,-0.186301414,0.409496,0.117815664,-0.172565509,0.406694,0.104505613,-0.159485012,0.404147,0.186506671,-0.215050949,0.422794,0.160689846,-0.180581609,0.401872,0.163282258,-0.193332823,0.389667,0.175377196,-0.212992784,0.397437,0.21203352,-0.216255114,0.430554,0.205099448,-0.218717025,0.409405,0.208458859,-0.230211477,0.398585,0.219727086,-0.248155696,0.40649,0.246468105,-0.226089393,0.442048,0.230137955,-0.230590565,0.422952,0.228724285,-0.240465363,0.414178,0.234921616,-0.255217526,0.419348
0.222769748,-0.301883587,0.446977,0.197189711,-0.252248184,0.435641,0.197678825,-0.295973349,0.440958,0.164870875,-0.264708971,0.431248,0.13672765,-0.238789913,0.421976,0.131771366,-0.217631551,0.412375,0.155164977,-0.216646381,0.420981,0.124585121,-0.184295,0.412694,0.108394146,-0.170542322,0.40855,0.0931018508,-0.157583469,0.404784,0.180788068,-0.212035288,0.425851,0.153432536,-0.179849402,0.407434,0.152051677,-0.195010888,0.39669,0.16331693,-0.216243718,0.405947,0.204328713,-0.212830284,0.431024,0.185021997,-0.210879064,0.412444,0.182130074,-0.226979833,0.402939,0.191657624,-0.240161826,0.412481,0.235962773,-0.222094257,0.439057,0.214995338,-0.225568821,0.42232,0.218335788,-0.235024435,0.41463,0.228088726,-0.250557374,0.421094
0.22136512,-0.302833903,0.449189,0.19625664,-0.253434783,0.43723,0.196263681,-0.296896679,0.443112,0.164151101,-0.266408142,0.432806,0.135381385,-0.241157954,0.423799,0.125206801,-0.22068159,0.414912,0.153375071,-0.218238435,0.422119,0.122027564,-0.188660856,0.417528,0.105756255,-0.1759129,0.415232,0.0926979321,-0.162709573,0.413145,0.178824744,-0.213120942,0.426902,0.149059128,-0.192196465,0.407922,0.153564841,-0.209000897,0.39685,0.167067476,-0.224725045,0.405899,0.202330241,-0.213500442,0.432066,0.183012019,-0.211572025,0.412993,0.18053128,-0.227481712,0.403235,0.190120696,-0.240448589,0.41257,0.234132385,-0.222280025,0.440201,0.213231578,-0.225845598,0.423052,0.216733359,-0.235131304,0.415173,0.22659633,-0.250452912,0.421478
0.220398079,-0.302761452,0.450242,0.195768473,-0.253334719,0.437991,0.195207774,-0.296674172,0.443913,0.163760972,-0.266455607,0.433572,0.134841893,-0.241503438,0.424793,0.124274453,-0.220194276,0.416435,0.152478569,-0.218119302,0.422375,0.121836556,-0.1880386,0.418057,0.105620477,-0.175309804,0.415898,0.0919279263,-0.163028098,0.413935,0.176244515,-0.213054694,0.427409,0.148892018,-0.191343879,0.408141,0.153348593,-0.208046971,0.396902,0.165601817,-0.2212341,0.405806,0.199786947,-0.213136241,0.432811,0.182486728,-0.212625119,0.413402,0.180283199,-0.228267845,0.403472,0.18980201,-0.240492361,0.412634,0.231822561,-0.221518724,0.441273,0.209329591,-0.218636654,0.423863,0.212179033,-0.228956968,0.415864,0.223323001,-0.247773322,0.422043
0.219718217,-0.302582664,0.450674,0.195498549,-0.253251312,0.438314,0.194546735,-0.296499282,0.444332,0.163535227,-0.266429511,0.433874,0.134485114,-0.241520386,0.425016,0.12390023,-0.219919651,0.416731,0.152070939,-0.218117622,0.422615,0.121782091,-0.18784534,0.418265,0.105567524,-0.175095935,0.41609,0.0914959259,-0.163101863,0.414113,0.176210794,-0.212875445,0.427638,0.148857195,-0.191086743,0.408271,0.153297787,-0.207758205,0.396974,0.165831049,-0.221629868,0.405841,0.199760116,-0.212954451,0.433042,0.182197696,-0.213119091,0.413545,0.180150907,-0.228647567,0.40357,0.189656681,-0.240530527,0.412694,0.23181048,-0.221342947,0.441526,0.209418486,-0.218729501,0.424043,0.212253524,-0.22903735,0.41601,0.222754059,-0.246941588,0.422161
0.222324793,-0.301939275,0.449063,0.195995743,-0.253408006,0.438098,0.194518736,-0.295983,0.443384,0.18115376,-0.269686529,0.435597,0.146268105,-0.245863372,0.421719,0.127857948,-0.231876975,0.414863,0.152882248,-0.219559126,0.424102,0.122046318,-0.188581538,0.417842,0.10639747,-0.177101593,0.414712,0.0912173767,-0.163135976,0.411866,0.178187564,-0.213829296,0.428627,0.150375588,-0.191843169,0.410579,0.155193988,-0.208719405,0.400051,0.168071954,-0.223635667,0.40949,0.201564571,-0.213630423,0.433478,0.183749427,-0.214377803,0.415336,0.182182107,-0.230345514,0.406054,0.191931744,-0.242913133,0.415816,0.233196884,-0.221571067,0.441071,0.212565463,-0.222788427,0.424673,0.216052694,-0.232789442,0.417139,0.225921586,-0.248704142,0.423762
0.223714933,-0.301832045,0.450026,0.197301085,-0.253265099,0.438444,0.198688359,-0.296472131,0.444042,0.179503198,-0.271325259,0.432962,0.145752124,-0.246841708,0.419453,0.127295375,-0.231776256,0.413924,0.154653815,-0.220377111,0.423681,0.124173253,-0.18830924,0.414739,0.106897344,-0.176977737,0.410268,0.0912158443,-0.165713082,0.406204,0.178465404,-0.213715164,0.428441,0.149948577,-0.192170227,0.409808,0.154027662,-0.209606358,0.398938,0.16843742,-0.224948014,0.408125,0.201798432,-0.213295265,0.433549,0.183048915,-0.215275069,0.414801,0.182793125,-0.230730242,0.405209,0.194713748,-0.244487354,0.414689,0.233085663,-0.219976656,0.44155,0.214110827,-0.225099406,0.424668,0.217603558,-0.23474568,0.416911,0.225739438,-0.248825564,0.423325
0.224748884,-0.301682784,0.450678,0.199722385,-0.253290101,0.438569,0.199775622,-0.296526433,0.444751,0.182435761,-0.270813743,0.434504,0.150630711,-0.249225916,0.416691,0.130357266,-0.23153083,0.411335,0.155045006,-0.220475516,0.423563,0.124491991,-0.188222807,0.414397,0.107537039,-0.177127805,0.409814,0.0929857749,-0.168901727,0.405647,0.17860393,-0.213519595,0.428111,0.149679829,-0.192273748,0.409015,0.153698473,-0.208722614,0.397875,0.167525574,-0.225228068,0.406907,0.201778287,-0.212807471,0.433098,0.183292932,-0.215916242,0.413983,0.184529688,-0.230633407,0.404204,0.192579895,-0.242052944,0.413541,0.234584474,-0.21817475,0.441053,0.213669575,-0.224634954,0.423855,0.216976927,-0.23428138,0.415953,0.225302709,-0.248513393,0.422255
