sluyters/QuantumLeap/src/datasets/gesture/HandGestureDataset_SHREC2017_csv/Gesture8/finger_1/subject_9_essai_1_skeletons_world.csv
Wrist_x,Wrist_y,Wrist_z,Palm_x,Palm_y,Palm_z,thumb_base_x,thumb_base_y,thumb_base_z,thumb_first_joint_x,thumb_first_joint_y,thumb_first_joint_z,thumb_second_joint_x,thumb_second_joint_y,thumb_second_joint_z,thumb_tip_x,thumb_tip_y,thumb_tip_z,index_base_x,index_base_y,index_base_z,index_first_joint_x,index_first_joint_y,index_first_joint_z,index_second_joint_x,index_second_joint_y,index_second_joint_z,index_tip_x,index_tip_y,index_tip_z,middle_base_x,middle_base_y,middle_base_z,middle_first_joint_x,middle_first_joint_y,middle_first_joint_z,middle_second_joint_x,middle_second_joint_y,middle_second_joint_z,middle_tip_x,middle_tip_y,middle_tip_z,ring_base_x,ring_base_y,ring_base_z,ring_first_joint_x,ring_first_joint_y,ring_first_joint_z,ring_second_joint_x,ring_second_joint_y,ring_second_joint_z,ring_tip_x,ring_tip_y,ring_tip_z,pinky_base_x,pinky_base_y,pinky_base_z,pinky_first_joint_x,pinky_first_joint_y,pinky_first_joint_z,pinky_second_joint_x,pinky_second_joint_y,pinky_second_joint_z,pinky_tip_x,pinky_tip_y,pinky_tip_z,
0.73719357,-0.43836068,0.621546,0.75306451,-0.40808609,0.633249,0.735933,-0.43920981,0.637798,0.72794813,-0.43055659,0.657017,0.69638306,-0.39844048,0.643346,0.68317321,-0.38122625,0.644357,0.76358434,-0.38363936,0.662364,0.776419,-0.3412974,0.663972,0.78345842,-0.32006562,0.664776,0.78978383,-0.30068755,0.665507,0.76721508,-0.37658264,0.644395,0.82359592,-0.37966132,0.67006,0.80909476,-0.40050489,0.655193,0.78820889,-0.40916495,0.644573,0.76868123,-0.37390642,0.628336,0.8160291,-0.38560224,0.650062,0.79405147,-0.39773237,0.636014,0.76481079,-0.40201486,0.623242,0.76674321,-0.3761994,0.607497,0.80973957,-0.38201816,0.631082,0.79654751,-0.37684643,0.618708,0.77299457,-0.38230181,0.607789
0.73729012,-0.43887526,0.620604,0.75259507,-0.40719896,0.630632,0.73534965,-0.43902504,0.636091,0.72955575,-0.42584641,0.653351,0.69498136,-0.39365482,0.639175,0.68282081,-0.37282392,0.637026,0.76566503,-0.38388396,0.657613,0.77803638,-0.34141807,0.65739,0.78492701,-0.32002024,0.657278,0.78990927,-0.2991672,0.657176,0.77042657,-0.37927344,0.640182,0.83140293,-0.38588978,0.668116,0.81406672,-0.40684418,0.654004,0.78997778,-0.41135109,0.643924,0.77163516,-0.37875902,0.624748,0.82141603,-0.39575489,0.648532,0.79720624,-0.40794778,0.635127,0.76887129,-0.41338019,0.622941,0.76897106,-0.38359673,0.604947,0.81511458,-0.39234942,0.630147,0.79938716,-0.3886948,0.61837,0.77554741,-0.39304649,0.607979
0.73280585,-0.43711394,0.615217,0.75444741,-0.4162295,0.625371,0.73164968,-0.43795137,0.629723,0.74137936,-0.42842504,0.645252,0.70174774,-0.39578308,0.632904,0.69534029,-0.37957766,0.638228,0.76196358,-0.38918889,0.651159,0.77176843,-0.34618762,0.651088,0.78064518,-0.32711548,0.651052,0.79086305,-0.31292863,0.65102,0.76791751,-0.38450041,0.635041,0.83301497,-0.39276214,0.665226,0.8186438,-0.41263421,0.650717,0.79838444,-0.4246035,0.640354,0.77033163,-0.38393492,0.620674,0.82464086,-0.4021978,0.646576,0.80146054,-0.41457353,0.633048,0.77314421,-0.42015912,0.620749,0.76942633,-0.38874425,0.602089,0.83348128,-0.39730798,0.633559,0.81637592,-0.40315583,0.628437,0.79706964,-0.40869788,0.623919
0.73334675,-0.43869247,0.612514,0.75398517,-0.41503991,0.623102,0.73869774,-0.44715278,0.626598,0.74244264,-0.42989908,0.641529,0.70859685,-0.39640325,0.629318,0.69801517,-0.37867687,0.635042,0.75934266,-0.38891326,0.648635,0.77105588,-0.34667063,0.649061,0.77984998,-0.32711207,0.649273,0.78971546,-0.31150341,0.649467,0.76616916,-0.38329967,0.633186,0.83174128,-0.39219869,0.664158,0.81706274,-0.41180764,0.649264,0.79669717,-0.42360656,0.638625,0.76946287,-0.3820354,0.619322,0.82627852,-0.40216163,0.64723,0.80666733,-0.41626234,0.63583,0.78129043,-0.42381751,0.625467,0.76981347,-0.38610947,0.601241,0.83190896,-0.39558407,0.632536,0.82101066,-0.40501254,0.631917,0.80707882,-0.41364606,0.631371
0.73333938,-0.43807479,0.612238,0.75412034,-0.40544109,0.621824,0.72579866,-0.43418995,0.622421,0.77505055,-0.41380128,0.648272,0.79519042,-0.38771423,0.659933,0.81222249,-0.37069875,0.669157,0.75185563,-0.37692508,0.641598,0.76346317,-0.34149212,0.641463,0.77156326,-0.32194366,0.641395,0.7805602,-0.30595312,0.641334,0.76459098,-0.37519771,0.630954,0.83625403,-0.39391351,0.668373,0.81982878,-0.41101394,0.65338,0.79928765,-0.42279817,0.64267,0.77334679,-0.37701173,0.621157,0.83547961,-0.39275067,0.654323,0.81689094,-0.40596801,0.64188,0.79473932,-0.41816853,0.630568,0.78043434,-0.38649381,0.607982,0.81205848,-0.36490931,0.625484,0.83696673,-0.3769169,0.637883,0.85372812,-0.39881746,0.648824
0.73649122,-0.43848687,0.611913,0.76324458,-0.40491491,0.621017,0.7387801,-0.43697331,0.621819,0.78230346,-0.41190038,0.645294,0.80826967,-0.38865071,0.661527,0.82485891,-0.3713253,0.670288,0.76023374,-0.37604503,0.6401,0.77441986,-0.33819165,0.639487,0.78184795,-0.3184245,0.639181,0.78985228,-0.30148768,0.638902,0.77304106,-0.37444369,0.629686,0.84515961,-0.39192107,0.66759,0.8324086,-0.40848478,0.652855,0.81355519,-0.42217772,0.64233,0.78194479,-0.37638779,0.620129,0.84538006,-0.39217865,0.65337,0.82613794,-0.40506864,0.640458,0.80322021,-0.41694234,0.628719,0.78986228,-0.38425115,0.607325,0.81812765,-0.36302142,0.622248,0.84435934,-0.37539773,0.635312,0.86216059,-0.39759733,0.646839
0.74579243,-0.44412162,0.616477,0.77713185,-0.4235396,0.629409,0.74816184,-0.44454971,0.630026,0.7699307,-0.42559233,0.64485,0.72901961,-0.39056545,0.631439,0.7212133,-0.37790272,0.637245,0.78544375,-0.39951818,0.655839,0.80592594,-0.36182113,0.658893,0.8167054,-0.34239066,0.660419,0.82755364,-0.3252442,0.661807,0.79385536,-0.3984747,0.641726,0.85911732,-0.38861934,0.673029,0.84757657,-0.38492154,0.656597,0.83230297,-0.39325181,0.644859,0.79824702,-0.40015955,0.628711,0.85442754,-0.40582176,0.65579,0.83153639,-0.41535001,0.641079,0.80540253,-0.42550913,0.627706,0.79946913,-0.40652657,0.611173,0.79864868,-0.3856339,0.60022,0.82259205,-0.38776671,0.612712,0.84712957,-0.40461325,0.623735
0.74644269,-0.44587758,0.61377,0.77189743,-0.42295952,0.623633,0.74764582,-0.44466501,0.628709,0.76308187,-0.42901175,0.644917,0.72695267,-0.38895949,0.628657,0.71758565,-0.37203323,0.630993,0.78998741,-0.39922475,0.649787,0.81559158,-0.36300828,0.649388,0.82893445,-0.3443291,0.649189,0.84170918,-0.32776704,0.649007,0.79418539,-0.3994051,0.633027,0.85910487,-0.38818713,0.662301,0.85096178,-0.38918969,0.648106,0.83837124,-0.39955013,0.637967,0.7946177,-0.40217616,0.618161,0.84598966,-0.41190248,0.643196,0.83294151,-0.40686477,0.629818,0.80580034,-0.41476584,0.617657,0.79047893,-0.40997299,0.599053,0.7777909,-0.39234756,0.583363,0.79730647,-0.39665515,0.594955,0.80741042,-0.41370016,0.605183
0.74510788,-0.45115643,0.610494,0.77121391,-0.43353798,0.620939,0.74777825,-0.44910135,0.625672,0.76062345,-0.43670209,0.642499,0.72679265,-0.39666443,0.626673,0.71644025,-0.37537002,0.629405,0.78959741,-0.40640588,0.647801,0.81610653,-0.3701961,0.648028,0.83011692,-0.35191083,0.648141,0.84366795,-0.33597301,0.648245,0.79322245,-0.40665616,0.630887,0.85770171,-0.41094443,0.659501,0.851945,-0.39008583,0.645021,0.84060913,-0.39889358,0.634679,0.79296604,-0.40945737,0.615833,0.84556172,-0.41988629,0.64027,0.83174651,-0.41614497,0.626656,0.80348552,-0.42380975,0.61428,0.78764703,-0.41721343,0.596396,0.77562147,-0.39998159,0.580819,0.79516428,-0.40461727,0.592211,0.80373784,-0.42114146,0.602262
0.74443942,-0.4566515,0.608634,0.77036574,-0.43616733,0.619498,0.74765271,-0.45946909,0.624224,0.76071994,-0.44339502,0.641939,0.72920072,-0.40320763,0.626911,0.72375161,-0.38084438,0.630163,0.79157707,-0.41387606,0.647181,0.81690292,-0.37761309,0.647862,0.83014011,-0.35922437,0.648203,0.84331086,-0.33961431,0.648512,0.79554719,-0.41360269,0.629845,0.85316927,-0.41651181,0.657385,0.84878001,-0.39758961,0.642787,0.83730557,-0.39976379,0.63236,0.79541565,-0.4159681,0.614399,0.84168803,-0.4250585,0.637845,0.8247604,-0.42057331,0.624085,0.79776414,-0.42491579,0.611576,0.78987991,-0.42320199,0.594427,0.77302852,-0.40476079,0.578558,0.7899085,-0.40887589,0.589592,0.7982616,-0.42207413,0.599329
0.75080638,-0.4582696,0.613952,0.77649646,-0.43764589,0.621686,0.75160164,-0.45435986,0.627503,0.77093924,-0.43004469,0.640592,0.75471321,-0.39253485,0.634206,0.76009597,-0.37705546,0.642742,0.80387394,-0.40567116,0.644589,0.83534917,-0.37547827,0.641961,0.8521018,-0.35954833,0.640647,0.86640765,-0.34819745,0.639452,0.80846711,-0.40933678,0.629053,0.879136,-0.42192966,0.661613,0.88011453,-0.40792768,0.648353,0.86772458,-0.41758458,0.638882,0.80881465,-0.41510006,0.615425,0.86475874,-0.43288585,0.643479,0.84108702,-0.43678421,0.630976,0.80785007,-0.44296829,0.61961,0.80379762,-0.42661507,0.598153,0.79701945,-0.41508639,0.582851,0.82134415,-0.42376638,0.595481,0.84078091,-0.44582517,0.606626
0.73661256,-0.45400835,0.600394,0.75753644,-0.42557127,0.598267,0.73678946,-0.44795241,0.613928,0.75499973,-0.42568762,0.624383,0.73669408,-0.38679919,0.615566,0.73468201,-0.36566409,0.619097,0.77944879,-0.39466526,0.614449,0.7998367,-0.36253456,0.601584,0.81075405,-0.34599807,0.595151,0.82113853,-0.33066638,0.589303,0.77840487,-0.39799189,0.59624,0.84582151,-0.41581359,0.627945,0.85398255,-0.40925394,0.621345,0.84117613,-0.4201384,0.61663,0.77492893,-0.40374102,0.581475,0.82854755,-0.42410237,0.608476,0.80891367,-0.43030952,0.60067,0.77977431,-0.43693028,0.593574,0.76711084,-0.41586873,0.564736,0.74567345,-0.39918846,0.541247,0.76716624,-0.40814086,0.552957,0.78102295,-0.42754897,0.563289
0.73607326,-0.45718457,0.598802,0.7543542,-0.42852036,0.591269,0.73813763,-0.4459564,0.612276,0.75016722,-0.42083027,0.621681,0.73522332,-0.38353292,0.614987,0.73423451,-0.3637193,0.616064,0.7786542,-0.39628085,0.603704,0.78754232,-0.36606285,0.585605,0.79274106,-0.35052378,0.576555,0.79796006,-0.33611732,0.568328,0.77355128,-0.40154975,0.584095,0.82819544,-0.41886981,0.613168,0.83541956,-0.41539329,0.610649,0.81986678,-0.42571343,0.608849,0.76693598,-0.40867234,0.568759,0.81726397,-0.42172534,0.59325,0.81302767,-0.41908109,0.588367,0.79325335,-0.42346503,0.583927,0.7557888,-0.42219872,0.552374,0.7241117,-0.39701551,0.524498,0.74178107,-0.40292569,0.534913,0.74853359,-0.41976581,0.544102
0.72385124,-0.45799509,0.589166,0.74030983,-0.43232243,0.578769,0.72903007,-0.44632234,0.601407,0.73667354,-0.42110675,0.612609,0.72971915,-0.3846757,0.610109,0.73289294,-0.36374596,0.61207,0.76470438,-0.39509278,0.587653,0.76601834,-0.36381688,0.566759,0.76730327,-0.34779798,0.556311,0.76888637,-0.33298616,0.546814,0.75803692,-0.40230814,0.568867,0.81399543,-0.42626095,0.599586,0.82287142,-0.42717106,0.598789,0.80650228,-0.43772427,0.598219,0.7501224,-0.41091969,0.554518,0.79803222,-0.4317221,0.580522,0.79323834,-0.43234428,0.577063,0.77227481,-0.43722715,0.573919,0.73742906,-0.42603992,0.539818,0.70436444,-0.4023855,0.511488,0.72213566,-0.41023096,0.522302,0.72687279,-0.42683208,0.531843
0.69917126,-0.45511889,0.578053,0.71684373,-0.42497938,0.566919,0.70829544,-0.44270791,0.589873,0.71506092,-0.41016293,0.599363,0.7128881,-0.3755201,0.596317,0.71921611,-0.35450159,0.595953,0.74838523,-0.38903408,0.574755,0.74930167,-0.35781378,0.553145,0.75040555,-0.3418349,0.54234,0.75183513,-0.32706498,0.532517,0.73976944,-0.39781019,0.556315,0.78567165,-0.42920294,0.587686,0.78791981,-0.43483738,0.5873,0.76725246,-0.4445507,0.587024,0.72966787,-0.40731184,0.542331,0.77216797,-0.43948132,0.568939,0.77176392,-0.44399959,0.565841,0.76354354,-0.45333086,0.563024,0.71340432,-0.42268491,0.528192,0.67387639,-0.4023099,0.499907,0.68802567,-0.41231099,0.510904,0.68896712,-0.42793622,0.520607
0.68402623,-0.44889591,0.575043,0.70300149,-0.41825338,0.560248,0.69362637,-0.43516971,0.585074,0.70308276,-0.40212121,0.595256,0.69578242,-0.36517875,0.589173,0.70203418,-0.34506536,0.589683,0.73368888,-0.38138281,0.563267,0.73011759,-0.35097922,0.538207,0.72892018,-0.33550556,0.525677,0.72822352,-0.32125733,0.514286,0.72431899,-0.39200148,0.546157,0.76935194,-0.42711994,0.5794,0.77248529,-0.43596732,0.581288,0.75203952,-0.44527703,0.582637,0.71387132,-0.40288349,0.533662,0.75485387,-0.43326284,0.562016,0.75500461,-0.43745319,0.560836,0.7317437,-0.44100122,0.559764,0.69765969,-0.41969716,0.521939,0.65739706,-0.40163205,0.493414,0.6715189,-0.41341283,0.504831,0.67327637,-0.43056602,0.514905
0.63998367,-0.44262528,0.562397,0.65847845,-0.41346719,0.541477,0.64792997,-0.42613255,0.568956,0.66967614,-0.39714477,0.581372,0.68196219,-0.3700076,0.586623,0.6982359,-0.35472868,0.591054,0.68181983,-0.37238784,0.535816,0.67640721,-0.33551419,0.508711,0.67407826,-0.31684256,0.495158,0.67221303,-0.29971339,0.482838,0.67534242,-0.38592252,0.521553,0.70791991,-0.42280459,0.557313,0.68221382,-0.43715969,0.563189,0.67720185,-0.44100567,0.567386,0.6679361,-0.39962233,0.512063,0.69648602,-0.43423285,0.542837,0.67437793,-0.44412369,0.545098,0.66269733,-0.44723511,0.547153,0.65615861,-0.42033712,0.50498,0.60670961,-0.39725684,0.476815,0.60404841,-0.41091788,0.488701,0.60795617,-0.42264153,0.499189
0.6665693,-0.46555395,0.576272,0.66450311,-0.42192336,0.54825,0.66573245,-0.44899432,0.58163,0.66972884,-0.41569482,0.58567,0.66574872,-0.37999368,0.580841,0.66265954,-0.35709993,0.573883,0.65867317,-0.37586561,0.536202,0.64228885,-0.33515169,0.499814,0.63175067,-0.31595413,0.48162,0.62065739,-0.29925356,0.46508,0.65829472,-0.386704,0.521562,0.67386028,-0.41969643,0.550343,0.66021538,-0.44301687,0.56242,0.66360137,-0.45269928,0.571047,0.65825586,-0.39973286,0.512526,0.66910494,-0.43248218,0.53696,0.65278903,-0.44642544,0.543927,0.64666509,-0.45289101,0.550261,0.65889438,-0.42208291,0.507305,0.58729061,-0.40159843,0.475186,0.58815659,-0.41328113,0.484064,0.58948934,-0.42344515,0.491897
0.6534935,-0.45300723,0.577584,0.64211711,-0.41471006,0.544297,0.65422447,-0.43344154,0.579779,0.65320001,-0.40208278,0.590133,0.66162371,-0.37250237,0.593853,0.67686953,-0.35633356,0.59617,0.63532381,-0.36504483,0.524555,0.60315836,-0.32427755,0.484257,0.58660316,-0.30414515,0.464108,0.5715321,-0.28585965,0.445791,0.63475708,-0.37970027,0.512596,0.63706706,-0.41475109,0.539126,0.62925416,-0.43855563,0.555523,0.63640288,-0.44943944,0.567234,0.63497367,-0.39543157,0.506335,0.6362269,-0.42803169,0.528912,0.62404939,-0.44374586,0.53957,0.62289444,-0.45181108,0.549259,0.63663782,-0.42022209,0.505325,0.56576365,-0.40027639,0.473841,0.56605478,-0.41094177,0.481509,0.56646502,-0.42027874,0.488274
0.62086184,-0.45307069,0.567871,0.61853705,-0.4130312,0.536335,0.62117812,-0.4343583,0.571518,0.61522102,-0.39353186,0.564468,0.60737665,-0.3568672,0.555916,0.60372523,-0.33205157,0.54596,0.6174891,-0.36166625,0.519674,0.58135552,-0.32132307,0.48066,0.56327739,-0.30116837,0.461154,0.54683265,-0.28285605,0.44342,0.61594536,-0.37507351,0.506301,0.61029728,-0.40953456,0.532701,0.599971,-0.43149562,0.547782,0.60455752,-0.44246333,0.558554,0.61485342,-0.39013793,0.498687,0.60894485,-0.42049618,0.521055,0.59545112,-0.43478706,0.530506,0.59103705,-0.44408188,0.539098,0.61411811,-0.4148264,0.495778,0.54504558,-0.39065612,0.463457,0.54367274,-0.40078841,0.471215,0.54264769,-0.40966458,0.47806
0.63118092,-0.46106799,0.583508,0.62596478,-0.4186285,0.546493,0.63129375,-0.43979522,0.584666,0.62521744,-0.39535565,0.583975,0.62590548,-0.36213432,0.583759,0.62540747,-0.33700787,0.576346,0.62185992,-0.36314795,0.522869,0.54435264,-0.33948844,0.482018,0.50629139,-0.32784701,0.461592,0.47100195,-0.32524612,0.443023,0.61991827,-0.37861907,0.511241,0.5978583,-0.38537697,0.519819,0.59180206,-0.40593978,0.542333,0.59151088,-0.42236752,0.558415,0.61465069,-0.39598214,0.505656,0.59540043,-0.39892718,0.508341,0.58835684,-0.41137445,0.524217,0.59899588,-0.42232738,0.53865,0.61176028,-0.42389013,0.506129,0.54365584,-0.3933772,0.473351,0.53493063,-0.40141401,0.474219,0.5275607,-0.40825809,0.474985
0.62420838,-0.45957807,0.588272,0.61590166,-0.41881444,0.550611,0.62551852,-0.43701039,0.58796,0.61950577,-0.39220365,0.579711,0.60931553,-0.35689393,0.57397,0.59974779,-0.33097086,0.56228,0.61466606,-0.36344925,0.524634,0.53755386,-0.34125851,0.484762,0.49996874,-0.32999056,0.464827,0.46543371,-0.32757354,0.446703,0.61186933,-0.38105331,0.514744,0.57775846,-0.37953644,0.511904,0.5738084,-0.40130339,0.536489,0.57517004,-0.4184194,0.55405,0.6101072,-0.39986919,0.510659,0.56877122,-0.38840775,0.494758,0.56213884,-0.40038721,0.510506,0.57282677,-0.41095509,0.524822,0.60895869,-0.42944843,0.512996,0.54332663,-0.40046512,0.482067,0.53184471,-0.40669968,0.480489,0.52211802,-0.41188694,0.479097
0.6221725,-0.46240175,0.597011,0.61454763,-0.42101385,0.557764,0.62100692,-0.43739682,0.593618,0.60165306,-0.4031332,0.571653,0.59363151,-0.37048018,0.553492,0.59198686,-0.34525848,0.536823,0.61112869,-0.36393119,0.526696,0.53035282,-0.33881667,0.483004,0.49108791,-0.32609301,0.461184,0.45285183,-0.31911559,0.441347,0.61158908,-0.3849811,0.520385,0.52667082,-0.35490965,0.475412,0.50261912,-0.36101702,0.479529,0.50563473,-0.37602201,0.497089,0.61242048,-0.4065624,0.519419,0.54288993,-0.37953596,0.481337,0.52341435,-0.38064118,0.484691,0.53693808,-0.39157096,0.501408,0.61403766,-0.43918389,0.525674,0.54738849,-0.41014512,0.492878,0.53837879,-0.41854473,0.49475,0.53127328,-0.42583124,0.496495
0.61086481,-0.45559327,0.597517,0.59696222,-0.41575246,0.556326,0.60802438,-0.42998537,0.592457,0.5828744,-0.3860846,0.567267,0.56877084,-0.34854623,0.545402,0.5638628,-0.32210517,0.526514,0.58620887,-0.35932871,0.521766,0.50316642,-0.34051937,0.478455,0.46318025,-0.3306233,0.4568,0.43601057,-0.33017753,0.444004,0.58844741,-0.381626,0.517095,0.49717211,-0.35728434,0.47081,0.46898019,-0.3615893,0.468031,0.46885578,-0.37787924,0.483902,0.59132137,-0.40394391,0.517688,0.51033872,-0.37915352,0.478114,0.4891097,-0.3807387,0.476034,0.48530199,-0.39097403,0.491182,0.59638956,-0.43685934,0.526119,0.52792985,-0.4029037,0.493135,0.5069387,-0.39490035,0.487098,0.50249489,-0.39348872,0.495367
0.51785593,-0.43095318,0.526018,0.53200053,-0.38717769,0.514913,0.52873972,-0.42523131,0.541707,0.53831455,-0.39589609,0.555548,0.55705263,-0.38006103,0.567385,0.56578068,-0.35980587,0.568941,0.55540668,-0.35119436,0.527808,0.52198866,-0.30211888,0.507984,0.4923036,-0.29384287,0.498072,0.47180207,-0.29731265,0.496274,0.54488334,-0.34629833,0.504336,0.4845644,-0.3254449,0.486094,0.47509258,-0.3535151,0.491549,0.49152033,-0.37448903,0.499807,0.53480376,-0.34686253,0.486205,0.47419069,-0.32369145,0.463397,0.46418513,-0.34394476,0.467332,0.48024311,-0.36854823,0.478065,0.52067815,-0.35566021,0.467246,0.48141846,-0.33740273,0.463525,0.46964077,-0.34498476,0.467263,0.47273258,-0.35688099,0.470022
0.511249,-0.43078265,0.524129,0.52108818,-0.38848651,0.515652,0.52373441,-0.42736726,0.541026,0.53060304,-0.40230326,0.55682,0.54754982,-0.3812547,0.570446,0.55652202,-0.36093185,0.572834,0.54733661,-0.35756829,0.531905,0.5132728,-0.32077577,0.523414,0.49520103,-0.30297639,0.519168,0.48115452,-0.28978169,0.519105,0.53430863,-0.34798284,0.507579,0.50076221,-0.30442314,0.499675,0.47645159,-0.28338025,0.495064,0.45817258,-0.27772484,0.495369,0.52214102,-0.34463418,0.488461,0.46351674,-0.32179983,0.468538,0.45507647,-0.34206463,0.470567,0.47271385,-0.36676043,0.479422,0.50554135,-0.34881506,0.467863,0.46971625,-0.33163632,0.467365,0.46109338,-0.3452085,0.469723,0.46327308,-0.35915909,0.470813
0.50590581,-0.43109574,0.523952,0.51049612,-0.38850797,0.515778,0.51406003,-0.43006856,0.54101,0.520219,-0.40271315,0.557311,0.5376976,-0.38197992,0.571227,0.54774275,-0.3623963,0.573709,0.53732651,-0.35796412,0.532445,0.50499975,-0.31993058,0.524517,0.48534729,-0.30369758,0.520553,0.46983023,-0.29126906,0.520186,0.52406309,-0.34814272,0.507993,0.49047849,-0.30452987,0.50017,0.46611632,-0.2834936,0.495607,0.44728093,-0.27760249,0.495464,0.51165661,-0.3445821,0.488738,0.45349168,-0.32202691,0.469256,0.44419958,-0.34179,0.470712,0.46119429,-0.36624819,0.479161,0.49470129,-0.34848133,0.467925,0.45930894,-0.33172661,0.467938,0.45028443,-0.34497103,0.469868,0.45225169,-0.35870727,0.470612
0.50036445,-0.42710476,0.518995,0.50914676,-0.3860688,0.515897,0.51388805,-0.42608323,0.537401,0.5196611,-0.40449828,0.558184,0.52934344,-0.3840925,0.575806,0.53546401,-0.36435011,0.581182,0.52935751,-0.35586571,0.537768,0.49885323,-0.31590467,0.529624,0.4792296,-0.29950486,0.525552,0.46405385,-0.28720741,0.525537,0.51653757,-0.34277981,0.512946,0.48843794,-0.2976283,0.507877,0.46085315,-0.28433886,0.504919,0.44380081,-0.27651372,0.505942,0.50499358,-0.33657032,0.49284,0.47548084,-0.29634153,0.487309,0.4614638,-0.2834412,0.489976,0.44784343,-0.274295,0.49333,0.4899302,-0.33740607,0.470085,0.45615108,-0.33109612,0.474267,0.45606362,-0.3497118,0.476907,0.45917163,-0.3640665,0.477655
0.4966427,-0.42395496,0.515309,0.50762499,-0.38409561,0.515119,0.5103251,-0.42397174,0.534118,0.51486238,-0.40193769,0.553622,0.52460097,-0.3822255,0.571888,0.5295538,-0.36221966,0.576671,0.5302568,-0.35697431,0.539488,0.50362824,-0.32205772,0.538167,0.48699515,-0.30696244,0.537506,0.47471316,-0.29583018,0.540907,0.51705983,-0.34307734,0.514938,0.48780399,-0.30445803,0.516949,0.46557836,-0.28868062,0.518123,0.4554189,-0.28233063,0.522463,0.50501555,-0.33602293,0.494741,0.48932477,-0.30415848,0.503335,0.47503275,-0.29375191,0.507732,0.46310462,-0.28656523,0.514135,0.48681676,-0.3328155,0.471334,0.45618165,-0.33243175,0.477216,0.45903295,-0.35263061,0.481355,0.46203615,-0.36643137,0.480889
0.49812139,-0.42386748,0.51653,0.50833425,-0.38234585,0.518822,0.51259071,-0.42504521,0.536227,0.51595161,-0.4042249,0.557731,0.52355766,-0.38625181,0.577718,0.52382291,-0.36977157,0.585096,0.52673436,-0.35458959,0.546034,0.49819356,-0.32393863,0.548306,0.48213154,-0.30997278,0.549443,0.46697062,-0.29766013,0.550475,0.50954591,-0.3385838,0.521006,0.46527004,-0.34574026,0.526967,0.47205733,-0.37642259,0.530444,0.47823968,-0.3990096,0.53356,0.49484206,-0.32975748,0.500148,0.47605469,-0.30489517,0.512541,0.46395202,-0.29427687,0.518881,0.45225505,-0.28518504,0.524645,0.47684102,-0.32713188,0.475507,0.44682159,-0.33950096,0.484683,0.45357201,-0.35791715,0.486784,0.46508158,-0.37005312,0.485432
0.49998998,-0.42449392,0.518244,0.50802392,-0.38157018,0.519503,0.51423382,-0.4258357,0.537765,0.51578742,-0.40433572,0.558331,0.52324901,-0.38625509,0.577617,0.52608323,-0.36773523,0.583107,0.52624892,-0.35440787,0.545785,0.49896479,-0.3212303,0.546824,0.48693658,-0.30322049,0.547599,0.47348785,-0.28884084,0.548303,0.50899507,-0.33836393,0.520703,0.46323313,-0.34453256,0.52494,0.46919996,-0.3743843,0.527413,0.47473364,-0.39626928,0.529757,0.49436031,-0.32957772,0.499912,0.47458316,-0.30423261,0.511331,0.4620322,-0.2934148,0.517173,0.4499603,-0.28416395,0.522484,0.47666124,-0.327134,0.475544,0.44600645,-0.33911684,0.484012,0.45247152,-0.35724412,0.485764,0.46315216,-0.36930237,0.484292
0.50092246,-0.42456383,0.519043,0.50778915,-0.38106878,0.519861,0.51505177,-0.42608487,0.538485,0.51611541,-0.40471232,0.559074,0.52367843,-0.38664921,0.578171,0.52592132,-0.36821433,0.583877,0.52612377,-0.35437196,0.54574,0.49939664,-0.32044341,0.546524,0.48650798,-0.3029536,0.547117,0.47292913,-0.28850001,0.547656,0.50884965,-0.33831599,0.520641,0.46242459,-0.3440331,0.524117,0.46801781,-0.37352093,0.526144,0.47325131,-0.39509341,0.528139,0.49424992,-0.32955122,0.499884,0.47409243,-0.30401131,0.510927,0.46136813,-0.2931116,0.516576,0.44915169,-0.28379522,0.521712,0.47668215,-0.32719021,0.475637,0.44575389,-0.33900321,0.483809,0.45208062,-0.35700056,0.485398,0.46217165,-0.36904503,0.483851
0.50168727,-0.42444587,0.519962,0.50943914,-0.38108949,0.525321,0.51652561,-0.42706172,0.540203,0.51095346,-0.4121219,0.565123,0.51459951,-0.3990549,0.586262,0.51147591,-0.38476905,0.595166,0.52724719,-0.36095095,0.555323,0.51142557,-0.32753608,0.563196,0.49791567,-0.31470933,0.567132,0.48421936,-0.30434888,0.570711,0.50953284,-0.34182695,0.530424,0.49889486,-0.30336352,0.539886,0.47494037,-0.30282021,0.545405,0.45743858,-0.30235664,0.549288,0.49444693,-0.33017513,0.509343,0.48143631,-0.30667521,0.524845,0.4705681,-0.29794762,0.532776,0.45880353,-0.29208046,0.539987,0.47610128,-0.3238019,0.483866,0.44833244,-0.33643402,0.495649,0.45420604,-0.35411576,0.497755,0.45782353,-0.36562613,0.494424
0.50159178,-0.42375335,0.519964,0.50881062,-0.38070544,0.525549,0.51640188,-0.42676605,0.540215,0.51154477,-0.41259884,0.565777,0.51461004,-0.39906307,0.586274,0.51181536,-0.38502442,0.595561,0.52762221,-0.36120769,0.555718,0.51194045,-0.32786583,0.563763,0.49848898,-0.31507169,0.567785,0.48483873,-0.30473818,0.571441,0.50995936,-0.34211308,0.530868,0.49941512,-0.30367987,0.540449,0.47549072,-0.3031711,0.546037,0.45821474,-0.30286966,0.55022,0.4948925,-0.33047267,0.509802,0.48193623,-0.30699367,0.52539,0.47108833,-0.29827701,0.533365,0.45933711,-0.29242015,0.540615,0.47652832,-0.32409233,0.4843,0.44877114,-0.33676322,0.496134,0.45489224,-0.35465075,0.498507,0.45860043,-0.36624657,0.495263
0.5014533,-0.42350946,0.520602,0.51048118,-0.38212118,0.526155,0.51614391,-0.42739484,0.540898,0.51355913,-0.41308899,0.566499,0.52246253,-0.40108541,0.58835,0.51670415,-0.38716303,0.598699,0.52908685,-0.36196452,0.556361,0.520749,-0.32641121,0.564124,0.50802273,-0.3127896,0.568005,0.49407281,-0.30275043,0.571534,0.51166497,-0.34276749,0.531443,0.50019656,-0.3049771,0.541297,0.47707316,-0.30203926,0.547045,0.46231689,-0.29265104,0.550674,0.49680037,-0.33104788,0.510325,0.48390724,-0.30773024,0.526178,0.47326293,-0.29891717,0.534289,0.46165269,-0.29297145,0.541662,0.47868042,-0.32458254,0.484769,0.45114609,-0.3371628,0.496888,0.45627977,-0.35475176,0.498661,0.45965928,-0.36615718,0.495083
0.5022936,-0.42302993,0.521283,0.51103365,-0.38225532,0.526739,0.51672378,-0.42746773,0.541543,0.51953229,-0.4101684,0.565831,0.52423393,-0.39980958,0.588036,0.52319311,-0.38550836,0.59795,0.53036889,-0.36246533,0.556833,0.52211496,-0.32641234,0.56429,0.50846157,-0.31354051,0.568019,0.49341284,-0.3050223,0.571408,0.51312038,-0.34325162,0.531936,0.50102547,-0.30545533,0.54153,0.47989073,-0.29835896,0.547126,0.46402333,-0.29229438,0.550998,0.50086877,-0.33190376,0.510846,0.4877639,-0.30828659,0.526463,0.47737182,-0.29895118,0.534453,0.46309241,-0.29276634,0.541716,0.48325616,-0.32535487,0.48534,0.45544078,-0.33685226,0.497227,0.45770177,-0.35503639,0.499293,0.46119274,-0.36664987,0.495911
0.50406678,-0.4223223,0.52166,0.51179455,-0.38242631,0.527237,0.51831763,-0.42740191,0.541957,0.52041446,-0.4108807,0.566593,0.5258238,-0.39972235,0.588779,0.52500656,-0.38548115,0.598782,0.53406193,-0.36374028,0.557461,0.52681665,-0.32746688,0.565671,0.5166672,-0.31418544,0.569776,0.49928833,-0.30413388,0.573508,0.51726317,-0.34429643,0.532549,0.50591345,-0.30716762,0.542406,0.48458666,-0.29845788,0.548156,0.46876534,-0.29190969,0.551835,0.50281984,-0.33236236,0.511433,0.49172675,-0.30858892,0.527286,0.48177259,-0.29904451,0.535397,0.46894313,-0.29275328,0.54277,0.48503702,-0.3256291,0.485875,0.4573985,-0.33687223,0.49799,0.46137068,-0.35467816,0.499811,0.46248237,-0.3665605,0.496254
0.50509419,-0.42164883,0.52201,0.51251081,-0.38262252,0.527713,0.5194299,-0.42721809,0.542324,0.52087988,-0.41120268,0.566908,0.52882589,-0.39937434,0.589377,0.52916213,-0.38450328,0.599201,0.53650463,-0.36449058,0.558045,0.52811533,-0.32772821,0.565942,0.51436721,-0.31528868,0.569891,0.49817984,-0.30676681,0.573481,0.51973214,-0.34491682,0.533145,0.50928688,-0.30772146,0.543123,0.4882416,-0.29866813,0.548944,0.47073168,-0.29214355,0.552693,0.5052242,-0.33285845,0.512025,0.49335631,-0.3089589,0.52798,0.48523069,-0.29923432,0.536143,0.47255067,-0.29259639,0.543564,0.48634574,-0.32597733,0.48644,0.45874043,-0.33700694,0.498639,0.46264558,-0.3548346,0.500503,0.46380079,-0.36679711,0.496931
0.50657312,-0.42143839,0.522938,0.51431369,-0.3826956,0.52865,0.5209258,-0.42734214,0.543252,0.52257491,-0.41256341,0.56828,0.53069194,-0.40001678,0.590612,0.53147554,-0.38491977,0.600418,0.53806259,-0.36505079,0.558988,0.53147342,-0.32843371,0.567113,0.51779269,-0.31609828,0.571175,0.50076673,-0.30895053,0.574868,0.52234787,-0.34554171,0.534091,0.51081872,-0.30805406,0.54407,0.48980605,-0.29889384,0.549891,0.47425032,-0.29204522,0.55366,0.50678002,-0.33335511,0.512973,0.49637077,-0.30925514,0.528926,0.48675677,-0.2994878,0.537089,0.47594555,-0.29254934,0.544509,0.48871524,-0.3264134,0.487386,0.46105474,-0.33689967,0.499583,0.46476031,-0.35470742,0.501467,0.4669956,-0.3667684,0.497905
0.50760225,-0.42168821,0.523333,0.51480285,-0.38261905,0.528642,0.52164578,-0.4277032,0.543543,0.52276029,-0.41236708,0.567767,0.53261943,-0.39960753,0.589803,0.53272924,-0.38224375,0.598906,0.53701831,-0.36476781,0.558571,0.53122722,-0.32742373,0.565716,0.51664229,-0.31556504,0.569288,0.49960005,-0.3078799,0.572536,0.5223587,-0.34571014,0.533698,0.51077122,-0.30759082,0.542981,0.48953332,-0.29808947,0.548396,0.47434304,-0.2913188,0.552483,0.508245,-0.33384621,0.512644,0.49663082,-0.30894426,0.52798,0.48695207,-0.2987142,0.535826,0.47604947,-0.29136196,0.542959,0.4923271,-0.32806537,0.487208,0.4643009,-0.33386583,0.498824,0.46513985,-0.35312012,0.501168,0.46515287,-0.36676654,0.497988
0.50860718,-0.42191785,0.523703,0.51544401,-0.38263551,0.528758,0.52242536,-0.42810995,0.543892,0.52351722,-0.41273586,0.568113,0.53342781,-0.39999352,0.590183,0.53296821,-0.38352573,0.599445,0.537156,-0.36480402,0.558486,0.53152529,-0.32709206,0.565352,0.51652356,-0.31559431,0.568785,0.49962917,-0.30766338,0.571906,0.52247287,-0.34588256,0.533572,0.51106623,-0.30750792,0.542672,0.48979863,-0.29786829,0.54798,0.47443241,-0.29090361,0.551816,0.50857806,-0.33417853,0.512511,0.4970611,-0.30892794,0.527703,0.48744094,-0.29847732,0.535476,0.47656287,-0.29092451,0.542542,0.49295227,-0.32876686,0.487114,0.46485923,-0.3332603,0.498625,0.46465344,-0.35228265,0.500761,0.46455906,-0.36606909,0.497538
0.51035205,-0.42252329,0.524665,0.51810704,-0.38329265,0.529508,0.52391848,-0.42891237,0.544827,0.52684813,-0.41364697,0.569288,0.53364764,-0.40048097,0.591167,0.53357284,-0.38514385,0.600651,0.53929263,-0.36551754,0.559059,0.53296597,-0.32702913,0.56548,0.51689988,-0.31581569,0.56869,0.50118219,-0.3076855,0.571608,0.52337991,-0.34635728,0.534121,0.51341529,-0.30787376,0.54303,0.49225807,-0.29794116,0.548226,0.47526048,-0.29097631,0.551923,0.51016371,-0.33494248,0.513064,0.49766772,-0.30947995,0.528098,0.48785184,-0.29904885,0.53579,0.47681104,-0.29153837,0.542783,0.49550255,-0.33033722,0.487711,0.46742679,-0.33227472,0.499093,0.46477495,-0.35178413,0.501135,0.46247866,-0.36568689,0.497921
0.51180291,-0.42299074,0.525094,0.51895309,-0.38357078,0.529939,0.52519738,-0.42937218,0.54528,0.52714739,-0.41434068,0.570319,0.53378885,-0.40107401,0.592022,0.53439641,-0.38581257,0.601689,0.54000755,-0.36574828,0.55952,0.53795831,-0.32653954,0.565845,0.52489163,-0.31456015,0.569007,0.50730042,-0.30664968,0.571882,0.52422113,-0.34662369,0.534553,0.51537033,-0.308294,0.543621,0.49443494,-0.29823613,0.548911,0.47805624,-0.2907147,0.552326,0.51170413,-0.33546795,0.513471,0.49858099,-0.30989894,0.528657,0.48876889,-0.29952046,0.536427,0.47772866,-0.29206588,0.54349,0.49638328,-0.33025252,0.48809,0.46851866,-0.33217878,0.499632,0.46454632,-0.34901795,0.501364,0.46104361,-0.36298009,0.497973
0.51326143,-0.42346459,0.525531,0.51966675,-0.38383781,0.530343,0.52645503,-0.4298147,0.545711,0.52795555,-0.41477524,0.570944,0.53422334,-0.40135584,0.592486,0.53477902,-0.38614652,0.602206,0.54057008,-0.36593911,0.559893,0.53878206,-0.32636473,0.565943,0.52485565,-0.31453859,0.568968,0.50820328,-0.3058746,0.571718,0.52489925,-0.3468546,0.534925,0.51606171,-0.30836998,0.543953,0.49514599,-0.29825161,0.54922,0.47885605,-0.29072662,0.55263,0.51243263,-0.33566726,0.513845,0.4991916,-0.31016684,0.528997,0.48931529,-0.29978737,0.536749,0.47822031,-0.29234128,0.543796,0.49706976,-0.33030716,0.488473,0.46920138,-0.33214106,0.499985,0.46492104,-0.34884688,0.501721,0.46093207,-0.36145849,0.498342
0.51984066,-0.42696975,0.53055,0.52781596,-0.38517682,0.534629,0.53476373,-0.43273396,0.550626,0.53930988,-0.41422649,0.574583,0.54655333,-0.40201173,0.596811,0.54186653,-0.38851272,0.606677,0.54753413,-0.3617379,0.563548,0.5413009,-0.32531181,0.567662,0.51992446,-0.31593799,0.56972,0.50143449,-0.30809906,0.57159,0.5305479,-0.34817886,0.538513,0.52402321,-0.30460131,0.546906,0.49903551,-0.30012226,0.551802,0.48195091,-0.29624313,0.554672,0.51761631,-0.33724265,0.517458,0.50782545,-0.30807696,0.532083,0.49445115,-0.30090337,0.539566,0.4821995,-0.29334527,0.546368,0.50198026,-0.33190648,0.492253,0.47360562,-0.33398599,0.503344,0.46826384,-0.35095335,0.504686,0.46644737,-0.36547699,0.501303
0.52743314,-0.42877401,0.53392,0.53479857,-0.38294853,0.536931,0.54241533,-0.43188464,0.553819,0.5432391,-0.41528731,0.577219,0.54887086,-0.40225423,0.598954,0.54406974,-0.3891398,0.608412,0.55013854,-0.36172941,0.564893,0.54182027,-0.32176227,0.568375,0.52348738,-0.31548918,0.570117,0.50363286,-0.30751877,0.5717,0.53389673,-0.34478613,0.539798,0.52561366,-0.3038707,0.547198,0.49951829,-0.3003138,0.551515,0.48282427,-0.29986093,0.553705,0.5198928,-0.33689381,0.518808,0.5092924,-0.30773021,0.532596,0.49581697,-0.29968757,0.53965,0.48360721,-0.29228113,0.546063,0.50421275,-0.33256271,0.493878,0.47505751,-0.33457206,0.504286,0.46920589,-0.34995201,0.505172,0.46667061,-0.3648888,0.501853
0.52959799,-0.42876217,0.53485,0.53588106,-0.38315531,0.537575,0.5446972,-0.43162734,0.554697,0.5444118,-0.41553232,0.577949,0.54949821,-0.40222509,0.599509,0.54486272,-0.38899384,0.608751,0.55094473,-0.36168356,0.565276,0.54214763,-0.32148845,0.568368,0.52331126,-0.31507682,0.569914,0.50368412,-0.30787487,0.571319,0.5346718,-0.34476704,0.54017,0.5261371,-0.3036217,0.547287,0.49994456,-0.30050425,0.551439,0.48298575,-0.29987444,0.553478,0.52066594,-0.33665686,0.519202,0.50976398,-0.30760309,0.532748,0.49630067,-0.29937577,0.539679,0.48398244,-0.29189612,0.54598,0.50507856,-0.33258881,0.494351,0.4756886,-0.33472594,0.504557,0.46986638,-0.34998234,0.505358,0.46633529,-0.36420001,0.502076
0.54387429,-0.42817233,0.540308,0.5401244,-0.38574889,0.541127,0.55532618,-0.43187403,0.559785,0.54919252,-0.41886821,0.582003,0.55285367,-0.40450838,0.602375,0.55001822,-0.38806752,0.609715,0.55270876,-0.36252724,0.567051,0.54306542,-0.32136751,0.568807,0.52382183,-0.31420904,0.569685,0.50385364,-0.30723712,0.570483,0.53662969,-0.34606732,0.541907,0.52866335,-0.30280142,0.546941,0.50301517,-0.30140174,0.549877,0.48272848,-0.29951392,0.551254,0.52301242,-0.33803226,0.521114,0.50817566,-0.30992453,0.532866,0.49407308,-0.30022911,0.538878,0.48163093,-0.29174861,0.544344,0.51032962,-0.33427258,0.496824,0.47857656,-0.33627102,0.505492,0.47285615,-0.35105504,0.506088,0.46701175,-0.36458263,0.503268
0.54713131,-0.42962806,0.542212,0.54204284,-0.38664945,0.542223,0.55819915,-0.43298734,0.561519,0.55206925,-0.41993728,0.582916,0.55406108,-0.40532575,0.602878,0.55058016,-0.38846449,0.609577,0.55324464,-0.36266156,0.567378,0.54317135,-0.32118373,0.568638,0.52300507,-0.31445049,0.569268,0.50395651,-0.30694829,0.56984,0.53728637,-0.34647708,0.542233,0.52902391,-0.302595,0.546365,0.50291174,-0.30139388,0.548774,0.48346715,-0.30018721,0.5499,0.52467214,-0.33765563,0.521527,0.50803897,-0.30995403,0.532497,0.49326962,-0.30084709,0.538109,0.48114005,-0.29150085,0.543211,0.5133217,-0.33782758,0.49749,0.48178723,-0.33885332,0.505485,0.47544312,-0.35381679,0.506027,0.46821821,-0.36485017,0.503423
0.5481725,-0.4298874,0.541831,0.54490297,-0.3877665,0.541625,0.55894718,-0.4330854,0.561091,0.55433936,-0.42140507,0.581704,0.55648485,-0.4066731,0.60182,0.55048568,-0.38825113,0.608362,0.55278276,-0.36266527,0.566572,0.54221505,-0.32263884,0.567577,0.52177392,-0.3144489,0.56808,0.50222111,-0.30769281,0.568537,0.53702854,-0.34669502,0.54143,0.53127523,-0.30334374,0.545352,0.50515203,-0.30273536,0.547639,0.48314554,-0.30015645,0.548638,0.52635986,-0.33996573,0.520748,0.51469143,-0.31217169,0.531536,0.50238973,-0.30047631,0.537056,0.48443815,-0.28885446,0.542074,0.51402973,-0.33870354,0.49678,0.48242039,-0.33918869,0.504627,0.47543573,-0.35388892,0.505089,0.46932385,-0.36642915,0.502506
0.54901947,-0.43015439,0.541663,0.54525357,-0.38823276,0.541385,0.55960121,-0.43324882,0.560907,0.55481325,-0.42220955,0.581776,0.55544526,-0.40702281,0.601799,0.55077882,-0.38891971,0.608356,0.55271202,-0.36283796,0.566262,0.54191922,-0.32259978,0.567138,0.52195101,-0.31429698,0.567576,0.50230866,-0.30797303,0.567974,0.53710666,-0.34701997,0.541121,0.53107975,-0.30375373,0.544982,0.50495584,-0.30289988,0.547235,0.48326312,-0.3003423,0.548173,0.52658551,-0.34042516,0.520447,0.51435059,-0.31196496,0.531184,0.50128051,-0.30116104,0.536677,0.48211589,-0.29110497,0.541671,0.51446513,-0.33919532,0.496503,0.48284506,-0.33943228,0.50431,0.47553098,-0.35399868,0.504725,0.46988318,-0.36645068,0.502138
