sluyters/QuantumLeap/backend/src/datasets/gesture/HandGestureDataset_SHREC2017_csv/Gesture3/finger_2/subject_1_essai_3_skeletons_world.csv
Wrist_x,Wrist_y,Wrist_z,Palm_x,Palm_y,Palm_z,thumb_base_x,thumb_base_y,thumb_base_z,thumb_first_joint_x,thumb_first_joint_y,thumb_first_joint_z,thumb_second_joint_x,thumb_second_joint_y,thumb_second_joint_z,thumb_tip_x,thumb_tip_y,thumb_tip_z,index_base_x,index_base_y,index_base_z,index_first_joint_x,index_first_joint_y,index_first_joint_z,index_second_joint_x,index_second_joint_y,index_second_joint_z,index_tip_x,index_tip_y,index_tip_z,middle_base_x,middle_base_y,middle_base_z,middle_first_joint_x,middle_first_joint_y,middle_first_joint_z,middle_second_joint_x,middle_second_joint_y,middle_second_joint_z,middle_tip_x,middle_tip_y,middle_tip_z,ring_base_x,ring_base_y,ring_base_z,ring_first_joint_x,ring_first_joint_y,ring_first_joint_z,ring_second_joint_x,ring_second_joint_y,ring_second_joint_z,ring_tip_x,ring_tip_y,ring_tip_z,pinky_base_x,pinky_base_y,pinky_base_z,pinky_first_joint_x,pinky_first_joint_y,pinky_first_joint_z,pinky_second_joint_x,pinky_second_joint_y,pinky_second_joint_z,pinky_tip_x,pinky_tip_y,pinky_tip_z,r
0.45486837,-0.35665803,0.533951,0.42623731,-0.30469585,0.512739,0.43008863,-0.34357281,0.530843,0.41787436,-0.32852029,0.526282,0.39889209,-0.31392615,0.513021,0.38530898,-0.29787464,0.506916,0.37306579,-0.25404718,0.49319,0.34480597,-0.24037828,0.471766,0.33613634,-0.2533919,0.461054,0.34257161,-0.27490341,0.467612,0.39142468,-0.24821361,0.489206,0.35524063,-0.23620177,0.462796,0.34730733,-0.25163732,0.44739,0.35897343,-0.26999677,0.453201,0.40921778,-0.24594084,0.487277,0.37104231,-0.23719467,0.463805,0.39301266,-0.26625331,0.480366,0.41915055,-0.28512137,0.49646,0.43460917,-0.25035555,0.487647,0.40011782,-0.26094623,0.465748,0.40132313,-0.28210846,0.478098,0.40442628,-0.30100838,0.490594
0.45336078,-0.3529507,0.530656,0.42514073,-0.30028359,0.510394,0.42873236,-0.34075138,0.527918,0.42108187,-0.32838869,0.526355,0.40653447,-0.31113962,0.513254,0.39678994,-0.29563335,0.508257,0.37233915,-0.25339636,0.492001,0.34482009,-0.24004592,0.471809,0.33664821,-0.25342146,0.461713,0.34360998,-0.27525845,0.468829,0.39085531,-0.24684259,0.487916,0.35003145,-0.22075943,0.462368,0.33997488,-0.23423551,0.447464,0.35447449,-0.25729063,0.453704,0.40810963,-0.24523336,0.485845,0.36786838,-0.22885398,0.4632,0.38840369,-0.25718885,0.480075,0.41744871,-0.28254322,0.49596,0.43321019,-0.24939015,0.485923,0.39913336,-0.26044694,0.464712,0.40054535,-0.28151211,0.47732,0.40385244,-0.30009501,0.489674
0.45525149,-0.35192106,0.531198,0.42554171,-0.30023103,0.510537,0.43021751,-0.34019731,0.528329,0.41829225,-0.32740043,0.525128,0.40421384,-0.31093433,0.510477,0.39398711,-0.2955654,0.504896,0.37222651,-0.25320825,0.491689,0.34437302,-0.23947812,0.471215,0.33613584,-0.25276876,0.460978,0.34305805,-0.27445844,0.467926,0.39068123,-0.24674613,0.487617,0.34953635,-0.22044717,0.461714,0.3387097,-0.23323178,0.446604,0.35278673,-0.25510469,0.452662,0.4079588,-0.24511156,0.485581,0.36739584,-0.22856001,0.462605,0.38781228,-0.25679723,0.479344,0.41625863,-0.2810237,0.495308,0.43316096,-0.2492421,0.485752,0.39835722,-0.26019549,0.464265,0.39935084,-0.2812261,0.476762,0.40352899,-0.29961179,0.48917
0.45709715,-0.35085899,0.531689,0.42590096,-0.3002235,0.510705,0.43175176,-0.33968289,0.528801,0.41852501,-0.3272337,0.524907,0.40370948,-0.31107012,0.509891,0.39333518,-0.29575039,0.504137,0.37224647,-0.25313825,0.491593,0.34406768,-0.23906628,0.470811,0.33574727,-0.25226905,0.46042,0.34260087,-0.27381482,0.467186,0.39057916,-0.24669213,0.487426,0.34919492,-0.22023184,0.461263,0.33804823,-0.23273217,0.446001,0.35131497,-0.25307508,0.451897,0.40780559,-0.2449953,0.485333,0.3670329,-0.22833422,0.462148,0.38733171,-0.25647902,0.47875,0.41539958,-0.28001432,0.494744,0.43299517,-0.24905358,0.485476,0.39790962,-0.25963926,0.463812,0.39894841,-0.28080222,0.476198,0.4031347,-0.29917346,0.488625
0.45870316,-0.34931697,0.531666,0.42702268,-0.30010018,0.510929,0.4333337,-0.3388765,0.52907,0.42141222,-0.32724902,0.525293,0.40465221,-0.3111183,0.510111,0.39421412,-0.29577755,0.50418,0.3735256,-0.25196334,0.492352,0.34669751,-0.23468419,0.470386,0.33677544,-0.24703023,0.459403,0.34329469,-0.26966304,0.465822,0.39156397,-0.24622036,0.487923,0.35080466,-0.21969487,0.462045,0.33969566,-0.23147237,0.44695,0.35217384,-0.25103255,0.452927,0.40840258,-0.24489565,0.485599,0.36852149,-0.22772324,0.462764,0.38886577,-0.25579071,0.47939,0.41522492,-0.27658659,0.495253,0.43333939,-0.24876515,0.485433,0.39882834,-0.2584083,0.464054,0.40204964,-0.27817372,0.476464,0.40386446,-0.29862657,0.4888
0.46139938,-0.34959112,0.533166,0.42412422,-0.29756552,0.507052,0.4336339,-0.33771403,0.527864,0.41762375,-0.32377127,0.520046,0.39944872,-0.30656623,0.502424,0.3853813,-0.28853732,0.491347,0.36536556,-0.24674564,0.481207,0.33498732,-0.2183462,0.453354,0.32250001,-0.22670854,0.439427,0.3284144,-0.24846732,0.442921,0.38391589,-0.24149751,0.478082,0.34227677,-0.20815938,0.447248,0.32703464,-0.21434763,0.429261,0.33750507,-0.23455257,0.432705,0.40152309,-0.2406566,0.477172,0.35862958,-0.21247664,0.449338,0.3749563,-0.23715523,0.464066,0.40386669,-0.26327753,0.481189,0.42822853,-0.24540729,0.479386,0.39038202,-0.2526498,0.453897,0.39204244,-0.27171347,0.464744,0.39528443,-0.29152368,0.477921
0.4667975,-0.35237976,0.53887,0.42905123,-0.2988517,0.511219,0.43944672,-0.34086631,0.534299,0.42557684,-0.31867672,0.527206,0.39576181,-0.29642964,0.514015,0.37747485,-0.27652175,0.505888,0.37449793,-0.24271789,0.485112,0.33950483,-0.21856098,0.456611,0.32683664,-0.22723392,0.442361,0.33105719,-0.2452019,0.444842,0.38995369,-0.24006103,0.480544,0.34913673,-0.20422783,0.448825,0.33534676,-0.21517712,0.430323,0.34397659,-0.23080669,0.432701,0.40705267,-0.23858136,0.478544,0.36492974,-0.20831469,0.450376,0.37885118,-0.23209177,0.463953,0.40241351,-0.25838714,0.480751,0.43274509,-0.24318397,0.479644,0.3937844,-0.25133828,0.45386,0.39448026,-0.26898249,0.463799,0.39788397,-0.28725144,0.476728
0.46811514,-0.35194049,0.540057,0.43221394,-0.29597231,0.512626,0.44179617,-0.34098803,0.536632,0.42709307,-0.31821506,0.530165,0.39880063,-0.29654513,0.518991,0.37933393,-0.27520624,0.50893,0.37767129,-0.24188572,0.488064,0.34397939,-0.21601006,0.45932,0.33051482,-0.22499011,0.444949,0.3328411,-0.24428585,0.447056,0.39446613,-0.23710683,0.482194,0.3512697,-0.20320505,0.451053,0.33673865,-0.21438985,0.432887,0.34498284,-0.23014448,0.435119,0.41059588,-0.23634388,0.479111,0.36569851,-0.2069952,0.451117,0.37837343,-0.23052257,0.464287,0.40216685,-0.25676807,0.480852,0.43277636,-0.24242915,0.478881,0.39401724,-0.25055598,0.453877,0.39567711,-0.26493078,0.463545,0.39697517,-0.28563022,0.476094
0.46851003,-0.35027508,0.539894,0.43414503,-0.2922139,0.513467,0.44188106,-0.33890052,0.535944,0.42626901,-0.31462828,0.529556,0.3967282,-0.29223829,0.517227,0.37755528,-0.27288462,0.506931,0.38066173,-0.23838568,0.489019,0.35034119,-0.20988501,0.46068,0.33719172,-0.21877391,0.44651,0.33782703,-0.23919624,0.449378,0.39834658,-0.23443122,0.484149,0.35880396,-0.19767061,0.453525,0.34480263,-0.20875981,0.435662,0.35005096,-0.22768376,0.438679,0.41687234,-0.23215764,0.481823,0.37319023,-0.20149788,0.453429,0.38725767,-0.22476517,0.467462,0.41161669,-0.24968047,0.484532,0.44167379,-0.23816297,0.482376,0.403654,-0.24490462,0.457493,0.40480301,-0.26046654,0.467861,0.4067874,-0.27928232,0.480639
0.47036826,-0.35027711,0.541962,0.43566286,-0.29201826,0.514715,0.4434566,-0.33840219,0.537598,0.4272598,-0.3139023,0.53034,0.39687554,-0.29074859,0.517679,0.37726879,-0.26928369,0.507544,0.38127002,-0.23780953,0.489158,0.35003777,-0.20942254,0.460191,0.33634276,-0.21735366,0.445707,0.33740387,-0.23732692,0.448165,0.39919226,-0.23386079,0.484488,0.35855704,-0.19726795,0.45313,0.34418727,-0.2080757,0.434838,0.35223595,-0.22437103,0.437429,0.41739571,-0.23230889,0.482379,0.373178,-0.20017844,0.453593,0.38652457,-0.22271109,0.467295,0.4107516,-0.24792577,0.484393,0.44254347,-0.23851151,0.483297,0.40393834,-0.24486521,0.457809,0.40482548,-0.26022007,0.467893,0.40689083,-0.27909586,0.480774
0.46955629,-0.34820742,0.540964,0.43651687,-0.28997205,0.514764,0.44332632,-0.33646983,0.53717,0.42862303,-0.31207767,0.531108,0.39836458,-0.28679128,0.519432,0.37885704,-0.26712275,0.509159,0.3838924,-0.23665633,0.490673,0.35237458,-0.20930885,0.462365,0.33884932,-0.21733217,0.448212,0.34192025,-0.2359696,0.451135,0.40175126,-0.23243645,0.485697,0.36235046,-0.19190203,0.455293,0.34719976,-0.2009011,0.437557,0.35493746,-0.22205687,0.44068,0.41861049,-0.23213923,0.48327,0.37565024,-0.19835116,0.45561,0.38888577,-0.22023837,0.469746,0.41285395,-0.24739473,0.486562,0.44325335,-0.23818402,0.483673,0.40533311,-0.24460189,0.458983,0.40650758,-0.25996194,0.469415,0.40836962,-0.27875389,0.482149
0.46849557,-0.34569456,0.539669,0.43654707,-0.28914735,0.514752,0.44329946,-0.33217926,0.536459,0.42927023,-0.3115612,0.531661,0.39935618,-0.28695105,0.51996,0.38022335,-0.26841079,0.510369,0.38495432,-0.2370516,0.492321,0.35380325,-0.20977783,0.464448,0.3403154,-0.21813966,0.450512,0.34374667,-0.23696015,0.453903,0.40260202,-0.23274557,0.487109,0.36268848,-0.19193197,0.457848,0.33784457,-0.17922259,0.440779,0.33948495,-0.1937807,0.444553,0.41922301,-0.23232568,0.484406,0.38346345,-0.18465878,0.455437,0.39140986,-0.20026103,0.469215,0.40887734,-0.22815916,0.486967,0.44343193,-0.23811253,0.484315,0.40614147,-0.24539122,0.46055,0.40756108,-0.26117709,0.471413,0.40939531,-0.2797384,0.48399
0.47083667,-0.34557551,0.5424,0.43953914,-0.28904583,0.51795,0.4460564,-0.33052927,0.539991,0.43282148,-0.31088609,0.535814,0.40282388,-0.28853567,0.524398,0.3849033,-0.26784718,0.516087,0.38815451,-0.23740058,0.496833,0.35724956,-0.20939287,0.46916,0.34356635,-0.21795489,0.455324,0.34716774,-0.2379826,0.458689,0.4050713,-0.23272409,0.490825,0.36384958,-0.19139433,0.462198,0.34086329,-0.17949878,0.445498,0.34250936,-0.19386531,0.449359,0.42123294,-0.23263269,0.487438,0.38570907,-0.18487459,0.459017,0.39311937,-0.19986201,0.472273,0.41047406,-0.22759154,0.489896,0.44480668,-0.23840516,0.486467,0.40738855,-0.24504229,0.463392,0.40855353,-0.26078451,0.474212,0.41092135,-0.28032612,0.486528
0.47193712,-0.34447352,0.543587,0.44076923,-0.28929154,0.519445,0.4470434,-0.33039739,0.541035,0.43396526,-0.31109065,0.537098,0.40393723,-0.2886435,0.525533,0.38612416,-0.26805035,0.517355,0.38930134,-0.2377944,0.498385,0.35847661,-0.20970442,0.470895,0.34471728,-0.21806763,0.45715,0.34804304,-0.23787027,0.460743,0.40644093,-0.23321068,0.492661,0.36554984,-0.19179092,0.464207,0.34259754,-0.17980532,0.447609,0.34440153,-0.19420544,0.451692,0.4228049,-0.23313922,0.489488,0.38783022,-0.18327816,0.461191,0.39391645,-0.1923453,0.472498,0.4104483,-0.22262685,0.49057,0.44664442,-0.23900679,0.488735,0.40914994,-0.24580956,0.465716,0.41041318,-0.26169628,0.476728,0.41284979,-0.28122265,0.489099
0.47087967,-0.34365526,0.544746,0.43394399,-0.2913818,0.52752,0.43967108,-0.32698012,0.534638,0.40420766,-0.30528952,0.519385,0.37693398,-0.27912334,0.49315,0.36046533,-0.26084543,0.483717,0.38497139,-0.23981289,0.502499,0.36776965,-0.1999528,0.494753,0.36136345,-0.18174575,0.490881,0.35622855,-0.1658085,0.48736,0.41140976,-0.23896978,0.50841,0.38596519,-0.19203769,0.491913,0.37601557,-0.16923176,0.48229,0.38777388,-0.16951269,0.492645,0.43456209,-0.24125717,0.514368,0.40249602,-0.19602641,0.489469,0.39744872,-0.19244879,0.47673,0.41309418,-0.20955683,0.484026,0.46510592,-0.24999295,0.523704,0.44959489,-0.25898633,0.501136,0.45922051,-0.2785585,0.514222,0.46900466,-0.29675951,0.527239
0.46101557,-0.33434888,0.535021,0.43591439,-0.27600611,0.522109,0.43531372,-0.31961346,0.532561,0.40133404,-0.29812222,0.519439,0.3639528,-0.27695905,0.493975,0.34018891,-0.25639931,0.478418,0.39553345,-0.22618308,0.509524,0.37217428,-0.18958744,0.49673,0.36023431,-0.17292186,0.490332,0.34921133,-0.15743443,0.484517,0.4162104,-0.22331555,0.507785,0.3941757,-0.17607049,0.488141,0.38008614,-0.1537307,0.476681,0.3835591,-0.14959069,0.486069,0.43462544,-0.22390014,0.507175,0.4143817,-0.1776303,0.48812,0.40322854,-0.1573416,0.478371,0.40886479,-0.16277414,0.488545,0.45952155,-0.23060933,0.508078,0.43800995,-0.19098315,0.491081,0.44991433,-0.20271474,0.505649,0.46217091,-0.22273852,0.517279
0.45711356,-0.33067062,0.530834,0.43706515,-0.27515178,0.522236,0.4343808,-0.31814585,0.53078,0.40336986,-0.29947177,0.521086,0.3638802,-0.27838515,0.49498,0.3389212,-0.25807922,0.479187,0.40043033,-0.22872081,0.515767,0.37624508,-0.19029567,0.502872,0.36403373,-0.17335117,0.496425,0.35276962,-0.15762838,0.490563,0.42031379,-0.22480422,0.512698,0.40128364,-0.17832118,0.497127,0.389432,-0.15194832,0.488044,0.38089032,-0.13644202,0.48163,0.43777898,-0.2244142,0.51072,0.42288227,-0.17680688,0.495168,0.41445371,-0.156616,0.487212,0.42232958,-0.14934797,0.498794,0.46097786,-0.2296676,0.509433,0.45161925,-0.19276206,0.496235,0.44724522,-0.17612554,0.490171,0.45404986,-0.17932722,0.498927
0.45691889,-0.32351168,0.532237,0.43916476,-0.27155286,0.524001,0.43090735,-0.30775722,0.531003,0.40519297,-0.2912008,0.519791,0.36565556,-0.27049907,0.492956,0.34040444,-0.25349537,0.477035,0.40076535,-0.2218541,0.51638,0.38013031,-0.1844916,0.510751,0.37010321,-0.1678348,0.507936,0.36077328,-0.15227988,0.505378,0.42243575,-0.21864188,0.514865,0.40872014,-0.17431507,0.508,0.40114735,-0.1496187,0.503995,0.39565434,-0.13152582,0.501135,0.44120081,-0.21882752,0.514142,0.43089589,-0.17403002,0.504917,0.42633078,-0.15279836,0.500197,0.42236675,-0.13391827,0.495906,0.46560839,-0.22468468,0.514317,0.45800121,-0.18665982,0.501789,0.45453141,-0.16896813,0.496033,0.46511502,-0.16922745,0.505138
0.44884282,-0.31955361,0.53087,0.4372701,-0.26859401,0.525889,0.42829491,-0.3052835,0.529975,0.39194813,-0.29146989,0.521757,0.36159188,-0.27906124,0.49439,0.33734371,-0.26119102,0.476643,0.40253821,-0.22284758,0.521099,0.38330698,-0.18552828,0.51631,0.37375526,-0.16770908,0.513916,0.36454215,-0.14825178,0.51174,0.42484518,-0.22047612,0.520364,0.41498596,-0.17719156,0.517565,0.40815002,-0.15131672,0.515933,0.40426043,-0.1329948,0.514767,0.44403923,-0.22129028,0.520076,0.44130388,-0.1785768,0.51746,0.44096707,-0.15721452,0.516544,0.44069063,-0.13726001,0.515712,0.46865677,-0.22782009,0.520361,0.46636439,-0.19006204,0.511633,0.46554286,-0.17204634,0.507622,0.46536516,-0.15633779,0.504084
0.44943816,-0.31496807,0.53115,0.43816234,-0.26836392,0.528575,0.42841998,-0.30424401,0.531533,0.39456547,-0.29334261,0.526852,0.35869481,-0.28069169,0.500322,0.33956215,-0.26491929,0.481551,0.4044314,-0.22264909,0.527121,0.38552276,-0.18463914,0.52172,0.37600114,-0.16547062,0.51902,0.36730439,-0.14794671,0.516565,0.42621108,-0.22024627,0.525722,0.417189,-0.17667799,0.522641,0.41190412,-0.15112421,0.520843,0.40812034,-0.13280809,0.51956,0.44480799,-0.22098888,0.524735,0.44670402,-0.17981398,0.525327,0.44665158,-0.15739406,0.52563,0.44846164,-0.13893114,0.525906,0.46838368,-0.2273322,0.523877,0.47142616,-0.18985972,0.517344,0.47400613,-0.17067328,0.514342,0.47415529,-0.15707217,0.511694
0.45132446,-0.31441194,0.54,0.43867958,-0.26860283,0.536495,0.42713553,-0.30125106,0.539285,0.39276237,-0.29603105,0.536561,0.35900136,-0.28709998,0.510589,0.33444981,-0.27298082,0.492768,0.40734742,-0.22174779,0.533018,0.39165812,-0.18587271,0.535435,0.38401727,-0.16842393,0.536643,0.37698383,-0.15237765,0.537742,0.42990844,-0.22056204,0.532603,0.4239478,-0.17828967,0.533089,0.41922431,-0.15372636,0.533372,0.41791949,-0.1355697,0.533574,0.44916835,-0.22235712,0.532486,0.45115687,-0.18143119,0.533307,0.4521734,-0.16051801,0.533727,0.45310421,-0.14117679,0.534108,0.4735379,-0.2300922,0.53279,0.47770156,-0.19247427,0.526014,0.47739477,-0.17676493,0.5229,0.48131497,-0.15986064,0.520153
0.45058035,-0.31641377,0.537532,0.43907711,-0.27003549,0.536265,0.42632975,-0.3006883,0.536778,0.3935343,-0.29369019,0.531689,0.35659357,-0.27585837,0.504801,0.33263381,-0.25860608,0.489732,0.40824852,-0.22252439,0.534413,0.39360695,-0.18821299,0.538028,0.38639727,-0.17118975,0.539836,0.37978009,-0.15558462,0.541479,0.43157669,-0.22191351,0.534859,0.42707398,-0.18175802,0.538877,0.42473832,-0.15819829,0.541221,0.42305542,-0.14129066,0.542894,0.45132532,-0.22413145,0.535308,0.45275357,-0.18308577,0.535842,0.45348373,-0.1621375,0.536116,0.45414959,-0.14289553,0.536364,0.47486968,-0.23336128,0.536007,0.48035093,-0.19648931,0.531363,0.48287036,-0.17952538,0.52923,0.48509634,-0.16454305,0.527347
0.45053468,-0.31621383,0.538375,0.44121123,-0.27152258,0.53954,0.42803624,-0.30210072,0.539626,0.39356256,-0.2953633,0.537977,0.35446389,-0.27801343,0.515371,0.33232229,-0.26410378,0.506689,0.41237175,-0.22609286,0.541917,0.39801436,-0.19347068,0.545494,0.39106376,-0.17651613,0.547283,0.38470827,-0.16104068,0.548909,0.43455307,-0.22477818,0.540833,0.43086594,-0.18679584,0.546909,0.42900313,-0.16418194,0.550453,0.42766759,-0.14800163,0.552985,0.45314684,-0.22635091,0.539867,0.45557806,-0.18748862,0.543891,0.45706146,-0.16735252,0.545949,0.45841012,-0.14901785,0.54782,0.47604241,-0.23354822,0.53856,0.48160817,-0.19717392,0.535153,0.48433934,-0.18061839,0.533588,0.48786418,-0.16567417,0.532207
0.44902697,-0.3135665,0.540793,0.44280527,-0.27310323,0.545985,0.4289209,-0.30328209,0.544181,0.39739342,-0.29840202,0.545048,0.35416275,-0.28163875,0.523369,0.33292919,-0.2673017,0.512818,0.41317867,-0.23241835,0.553945,0.40228524,-0.19848301,0.558223,0.39683004,-0.18149389,0.560362,0.39274043,-0.16609907,0.562307,0.43423336,-0.2282826,0.551746,0.43359529,-0.18992377,0.556072,0.43171438,-0.16707673,0.559159,0.43037011,-0.15075324,0.561364,0.45192896,-0.2273452,0.549605,0.45889121,-0.19044802,0.555962,0.46235338,-0.17114723,0.559215,0.46609323,-0.15364088,0.562171,0.47384894,-0.2311488,0.546374,0.48690065,-0.1982932,0.545843,0.4913161,-0.18232174,0.5456,0.49526578,-0.16791296,0.545385
