sluyters/QuantumLeap/backend/src/datasets/gesture/HandGestureDataset_SHREC2017_csv/Gesture3/finger_2/subject_11_essai_2_skeletons_world.csv
Wrist_x,Wrist_y,Wrist_z,Palm_x,Palm_y,Palm_z,thumb_base_x,thumb_base_y,thumb_base_z,thumb_first_joint_x,thumb_first_joint_y,thumb_first_joint_z,thumb_second_joint_x,thumb_second_joint_y,thumb_second_joint_z,thumb_tip_x,thumb_tip_y,thumb_tip_z,index_base_x,index_base_y,index_base_z,index_first_joint_x,index_first_joint_y,index_first_joint_z,index_second_joint_x,index_second_joint_y,index_second_joint_z,index_tip_x,index_tip_y,index_tip_z,middle_base_x,middle_base_y,middle_base_z,middle_first_joint_x,middle_first_joint_y,middle_first_joint_z,middle_second_joint_x,middle_second_joint_y,middle_second_joint_z,middle_tip_x,middle_tip_y,middle_tip_z,ring_base_x,ring_base_y,ring_base_z,ring_first_joint_x,ring_first_joint_y,ring_first_joint_z,ring_second_joint_x,ring_second_joint_y,ring_second_joint_z,ring_tip_x,ring_tip_y,ring_tip_z,pinky_base_x,pinky_base_y,pinky_base_z,pinky_first_joint_x,pinky_first_joint_y,pinky_first_joint_z,pinky_second_joint_x,pinky_second_joint_y,pinky_second_joint_z,pinky_tip_x,pinky_tip_y,pinky_tip_z,r
0.44474116,-0.35060846,0.585343,0.43251509,-0.29551673,0.57719,0.41805615,-0.33239389,0.578287,0.3928523,-0.29637523,0.560011,0.38370169,-0.27023062,0.535706,0.37694068,-0.24821565,0.521245,0.39109155,-0.24455327,0.562373,0.37235871,-0.22429568,0.544701,0.36307477,-0.22156114,0.535864,0.36874315,-0.23331361,0.546484,0.41853771,-0.24486179,0.56801,0.39959372,-0.22026111,0.550871,0.3926635,-0.2218727,0.540873,0.40273266,-0.23685383,0.55212,0.44248274,-0.24814915,0.573215,0.42219008,-0.2219065,0.554704,0.41158103,-0.20779207,0.545233,0.41030101,-0.21335502,0.536623,0.47366751,-0.25823388,0.580548,0.45242915,-0.25270991,0.562712,0.4423967,-0.24926739,0.554517,0.44327503,-0.26041658,0.547286
0.44459755,-0.34842749,0.584877,0.43185332,-0.2948706,0.576432,0.41738212,-0.33130422,0.577507,0.39357898,-0.2935617,0.55884,0.38791613,-0.26760825,0.533105,0.37933952,-0.2464293,0.519053,0.39003192,-0.24363243,0.56101,0.37107011,-0.22335243,0.542937,0.36164685,-0.22053079,0.5339,0.36683624,-0.23286305,0.544328,0.41766079,-0.24406158,0.566923,0.39858291,-0.21949867,0.549461,0.39150983,-0.22103055,0.539275,0.40145619,-0.23593743,0.550361,0.44178897,-0.2474549,0.572374,0.42157429,-0.22196916,0.553464,0.41316669,-0.21247729,0.54379,0.41038214,-0.21441465,0.535896,0.47325063,-0.25769044,0.580043,0.45162783,-0.25205153,0.56188,0.44143373,-0.24874949,0.553534,0.44196044,-0.25987823,0.54617
0.44448027,-0.34639967,0.584493,0.43122781,-0.29439764,0.575845,0.41688685,-0.33053494,0.577048,0.39339366,-0.29283155,0.558266,0.38547155,-0.26783875,0.532736,0.37961537,-0.24552941,0.517762,0.38923776,-0.24303508,0.560177,0.37013934,-0.22280128,0.541919,0.36069451,-0.2199313,0.53279,0.36570657,-0.2325404,0.543144,0.4168789,-0.24347344,0.566108,0.39771264,-0.21894322,0.548438,0.39058876,-0.22041579,0.53813,0.40050131,-0.23528076,0.54914,0.44102963,-0.24688068,0.571589,0.42096016,-0.22191667,0.552475,0.41082502,-0.20957003,0.542696,0.40917178,-0.21444056,0.533806,0.4725427,-0.2571456,0.579321,0.45073925,-0.25143875,0.560979,0.44047425,-0.24823536,0.552552,0.4407746,-0.25935599,0.545116
0.44386206,-0.34479998,0.583981,0.43067405,-0.29398677,0.575283,0.41619894,-0.32894715,0.576496,0.39309964,-0.29225712,0.557662,0.38534628,-0.26732847,0.531961,0.37963104,-0.24500121,0.516951,0.38863302,-0.242585,0.559528,0.3695387,-0.22244431,0.541212,0.36009515,-0.21955644,0.532053,0.36499242,-0.23232401,0.54238,0.4162947,-0.24303832,0.565491,0.39714893,-0.2185871,0.547767,0.39002592,-0.22004119,0.537429,0.3999339,-0.23489,0.548415,0.44046543,-0.24645827,0.571,0.42056529,-0.22190237,0.551826,0.41054291,-0.20975558,0.542016,0.40890765,-0.21477302,0.533097,0.47201065,-0.25674206,0.578773,0.45014112,-0.25102137,0.560381,0.43985214,-0.2479038,0.55193,0.44000552,-0.25903498,0.544474
0.44474169,-0.34449133,0.585358,0.43124767,-0.29533431,0.575936,0.41633585,-0.32828957,0.577098,0.39223928,-0.29330012,0.557306,0.38283626,-0.27156697,0.53131,0.37873864,-0.24720255,0.516092,0.38782328,-0.24228167,0.558684,0.37114009,-0.23043536,0.539384,0.36353003,-0.22415818,0.529735,0.37896006,-0.24298697,0.53957,0.41598116,-0.2430108,0.565328,0.39643524,-0.21814534,0.546815,0.3890021,-0.22019674,0.536016,0.39856863,-0.23561344,0.546587,0.44064432,-0.24668181,0.571448,0.42016022,-0.22211797,0.551295,0.4110773,-0.21199101,0.540984,0.4099184,-0.21986276,0.531611,0.47292283,-0.25733095,0.58005,0.45036286,-0.25122764,0.560857,0.43977148,-0.24800979,0.552038,0.43868152,-0.25877634,0.544257
0.44405718,-0.34295989,0.584195,0.4305,-0.29487858,0.575071,0.41564177,-0.3269887,0.57606,0.39161665,-0.29307537,0.55645,0.38242511,-0.27126015,0.53037,0.37800134,-0.24727153,0.515217,0.38731248,-0.2421201,0.558199,0.37099903,-0.23034778,0.539179,0.36348474,-0.22413025,0.529669,0.37899658,-0.24301038,0.539622,0.41544048,-0.24281608,0.564798,0.39625607,-0.21801169,0.546591,0.3889706,-0.22070337,0.535971,0.39859888,-0.2367207,0.54666,0.44006109,-0.24645145,0.57086,0.41998649,-0.22218446,0.551013,0.41114203,-0.21239667,0.540858,0.41016608,-0.22099793,0.531627,0.47225397,-0.25703919,0.579353,0.44950804,-0.2505097,0.560424,0.43897068,-0.24782717,0.551727,0.43765453,-0.25905956,0.544054
0.44346814,-0.34191302,0.58364,0.42988795,-0.29390283,0.5746,0.41503058,-0.32600695,0.575517,0.39123778,-0.29297935,0.555934,0.38220304,-0.27109354,0.52984,0.37756816,-0.24740155,0.514724,0.38690104,-0.24198911,0.557807,0.37077334,-0.23020765,0.538851,0.36328161,-0.224005,0.529373,0.37880484,-0.24288744,0.539349,0.41504244,-0.24268053,0.564421,0.3960325,-0.21786239,0.5463,0.38879583,-0.22099781,0.535729,0.39842489,-0.23743394,0.546445,0.43967272,-0.24631095,0.570491,0.41979369,-0.22220578,0.550718,0.41105448,-0.21259972,0.540602,0.4101515,-0.22165734,0.531405,0.47187018,-0.25688814,0.578981,0.44919409,-0.25042578,0.560119,0.43868355,-0.2477537,0.551453,0.43732033,-0.25902452,0.543806
0.44216379,-0.34094216,0.582265,0.42843265,-0.29290171,0.57307,0.41314491,-0.32459718,0.573339,0.38987844,-0.29099446,0.552869,0.38366493,-0.2647252,0.526512,0.38468044,-0.245664,0.508515,0.38421967,-0.24053348,0.555182,0.36935315,-0.22885281,0.535618,0.36217751,-0.22257915,0.525835,0.37755285,-0.24130076,0.535402,0.41322367,-0.2416283,0.562718,0.39547322,-0.20973125,0.544382,0.39055141,-0.20999418,0.533686,0.39786236,-0.23305127,0.544114,0.43854036,-0.24562424,0.569556,0.41972521,-0.22257185,0.549268,0.416669,-0.21512169,0.538888,0.41033722,-0.22564754,0.529452,0.47156427,-0.25667056,0.578986,0.44896515,-0.25030593,0.559756,0.4384201,-0.24754562,0.550921,0.43661764,-0.25869595,0.543125
0.43858044,-0.33872027,0.578168,0.42686223,-0.29213911,0.57136,0.41036609,-0.32283908,0.570138,0.38871307,-0.28943187,0.551025,0.38308611,-0.26368783,0.525173,0.38418333,-0.24379392,0.507778,0.38536606,-0.2410428,0.556389,0.37264483,-0.23013292,0.539004,0.37073641,-0.22399417,0.530311,0.38277509,-0.24351671,0.540753,0.41405329,-0.24219225,0.563695,0.39834585,-0.20486758,0.547817,0.39290186,-0.19773078,0.538555,0.40530979,-0.21755658,0.549881,0.43902637,-0.24613469,0.570179,0.42263043,-0.22392704,0.552296,0.42055916,-0.2178513,0.543147,0.41504288,-0.2290156,0.53483,0.47138493,-0.25695833,0.578861,0.45053925,-0.25119325,0.56173,0.44088317,-0.24914911,0.553859,0.43950972,-0.26085894,0.546915
0.43709683,-0.33800101,0.576609,0.42591019,-0.291771,0.570348,0.40901351,-0.32213819,0.568716,0.38795075,-0.2885499,0.549845,0.38243692,-0.26281572,0.52392,0.38336063,-0.24275488,0.506664,0.38494747,-0.24091304,0.555961,0.37330401,-0.23003564,0.539036,0.37139752,-0.22387393,0.530573,0.38403883,-0.24357638,0.541175,0.41368795,-0.24218751,0.563298,0.39846583,-0.20492929,0.547982,0.3932608,-0.19791142,0.539047,0.4058029,-0.21782126,0.55055,0.43865809,-0.24621408,0.569769,0.42317566,-0.22407204,0.552408,0.42105071,-0.21834485,0.543526,0.41588315,-0.22999762,0.535452,0.47092653,-0.25709617,0.578362,0.45059058,-0.25111466,0.561695,0.44126962,-0.24940457,0.554037,0.4397467,-0.26127571,0.547281
0.43629088,-0.33834343,0.576464,0.42554382,-0.29224297,0.570468,0.40816399,-0.32225537,0.568453,0.38763136,-0.28820161,0.549505,0.38236052,-0.26242017,0.523535,0.37987994,-0.24145321,0.507809,0.38485601,-0.24123066,0.556142,0.37586971,-0.22902501,0.539326,0.37255128,-0.22224127,0.530918,0.38825634,-0.24218997,0.541507,0.413807,-0.24282611,0.563718,0.40095941,-0.21913896,0.548663,0.39859367,-0.20284631,0.539881,0.40796259,-0.21822975,0.551409,0.43863856,-0.24792997,0.570367,0.42752384,-0.22465043,0.553173,0.42286597,-0.21823538,0.544377,0.41575559,-0.22694085,0.53638,0.47074843,-0.26091994,0.579137,0.45133809,-0.25190113,0.56264,0.44220162,-0.2499931,0.555061,0.44024653,-0.26194534,0.548373
0.43569099,-0.33883584,0.576606,0.4253155,-0.29283342,0.570787,0.40744382,-0.32246603,0.568371,0.38726476,-0.28800102,0.549219,0.38253942,-0.26198821,0.523277,0.38067532,-0.24109692,0.507527,0.38477118,-0.24160823,0.556323,0.37594091,-0.22852339,0.539492,0.37261288,-0.22152938,0.531076,0.38830464,-0.24125337,0.541582,0.41398773,-0.24356761,0.564234,0.40474778,-0.2217508,0.549346,0.39805975,-0.21107389,0.540661,0.4123244,-0.2227393,0.552155,0.43913671,-0.24880579,0.571147,0.42845862,-0.22483575,0.553998,0.42337477,-0.21838636,0.545223,0.41759544,-0.23057727,0.537247,0.47135442,-0.2622039,0.580209,0.45220738,-0.25278052,0.563784,0.44321678,-0.25062932,0.556237,0.44079802,-0.2626267,0.549579
0.43450903,-0.33881288,0.575886,0.42475524,-0.2931445,0.570561,0.40629832,-0.32227297,0.56759,0.38663088,-0.28755614,0.548465,0.38240833,-0.26131359,0.522514,0.38112483,-0.24051239,0.506729,0.38470006,-0.24195107,0.556401,0.37617818,-0.22830475,0.539875,0.37295945,-0.22128643,0.531612,0.38871752,-0.2408657,0.542163,0.41411187,-0.24423879,0.564565,0.40548623,-0.22274909,0.550177,0.39968449,-0.21095974,0.541784,0.41347184,-0.22459229,0.553369,0.43944528,-0.24944223,0.571651,0.42934701,-0.22509854,0.554891,0.42444711,-0.21885122,0.546316,0.41864661,-0.23134608,0.53852,0.47170177,-0.26302846,0.580854,0.45301859,-0.25361315,0.564798,0.44427315,-0.25128254,0.557421,0.44147929,-0.26337974,0.550912
0.43308349,-0.33841815,0.574842,0.42398108,-0.29313935,0.570067,0.40508545,-0.32185205,0.566719,0.38644402,-0.2856864,0.54788,0.38248567,-0.26047814,0.52192,0.38184383,-0.23911676,0.506382,0.38463965,-0.24214282,0.556539,0.37687089,-0.2275523,0.540502,0.37362353,-0.21945842,0.532484,0.38987686,-0.2398152,0.543206,0.41405479,-0.24464376,0.564691,0.40662782,-0.2251737,0.550875,0.402718,-0.21195799,0.542816,0.41445543,-0.23200026,0.554583,0.4394102,-0.24963203,0.571729,0.43001019,-0.22502566,0.555515,0.42539867,-0.21897583,0.54722,0.41967776,-0.2318409,0.539678,0.47182203,-0.26155155,0.5808,0.45338353,-0.25400243,0.565226,0.44495593,-0.25151372,0.558071,0.44183301,-0.2637184,0.551757
0.4311619,-0.33755047,0.573167,0.42325956,-0.29309031,0.569658,0.40298581,-0.32060501,0.56461,0.38518939,-0.28434385,0.545577,0.38661165,-0.2579106,0.518683,0.38183205,-0.23819497,0.503838,0.38452929,-0.24218366,0.556572,0.37706555,-0.22590671,0.541171,0.37450462,-0.21591153,0.533471,0.38937849,-0.23690703,0.544128,0.41465339,-0.24537296,0.565708,0.40840679,-0.22344394,0.553183,0.40609968,-0.20584451,0.545877,0.41759609,-0.22559979,0.557742,0.44054324,-0.25089068,0.573467,0.43509158,-0.2344378,0.558145,0.43070362,-0.22213057,0.550878,0.42513283,-0.23620446,0.544272,0.47305789,-0.26502207,0.583228,0.45637405,-0.25608091,0.568546,0.44883016,-0.2537064,0.5618,0.44497946,-0.26599412,0.555847
0.43051031,-0.33781139,0.573179,0.42285022,-0.29338672,0.569694,0.40238422,-0.32069506,0.564607,0.38528381,-0.28487157,0.545562,0.38203219,-0.25860495,0.519552,0.38147445,-0.23832192,0.504027,0.38437541,-0.242324,0.556607,0.37728537,-0.22691518,0.541214,0.37426572,-0.21806434,0.533517,0.38871259,-0.23643171,0.544168,0.41451242,-0.24577437,0.565771,0.40886499,-0.22418668,0.553271,0.40671112,-0.20953362,0.545979,0.41810753,-0.22564346,0.557841,0.44037036,-0.25150321,0.573551,0.43500913,-0.23358643,0.558243,0.43094615,-0.22099286,0.55105,0.42584914,-0.23545221,0.544511,0.47288777,-0.26530992,0.583335,0.45642403,-0.25599829,0.568668,0.44877061,-0.25390254,0.561928,0.44494261,-0.26657138,0.555982
0.42930031,-0.33764347,0.572424,0.42224362,-0.29356981,0.569463,0.40121337,-0.32035068,0.563788,0.38507462,-0.28428511,0.544789,0.38156029,-0.25892019,0.518776,0.38124233,-0.23827525,0.503531,0.38424577,-0.24252149,0.556701,0.37720144,-0.22574666,0.541645,0.37442791,-0.21727459,0.534117,0.38394851,-0.23304813,0.544794,0.41457203,-0.24633055,0.566131,0.40935393,-0.22067318,0.554176,0.40879695,-0.21842757,0.547202,0.42209058,-0.2406466,0.559138,0.44053313,-0.25233738,0.574094,0.43568599,-0.23370136,0.559213,0.43217532,-0.22151784,0.552118,0.42725191,-0.23584348,0.545668,0.47323111,-0.26582692,0.584026,0.45742672,-0.25678804,0.569765,0.45015435,-0.25489664,0.563213,0.44595976,-0.26777666,0.557432
0.42810737,-0.33726365,0.571476,0.42163253,-0.29358659,0.569055,0.40010192,-0.31986664,0.562814,0.3846372,-0.28426214,0.543904,0.38165777,-0.26218744,0.517338,0.38023489,-0.23932816,0.503462,0.38414124,-0.24267475,0.556673,0.37730288,-0.225775,0.541989,0.37460689,-0.21768321,0.534647,0.38319177,-0.23341275,0.545366,0.41460095,-0.24675421,0.566329,0.40887809,-0.21669676,0.554938,0.40800949,-0.21323214,0.548293,0.42137276,-0.23624529,0.560314,0.44063072,-0.25296356,0.574441,0.43621724,-0.2339392,0.560018,0.43220235,-0.22214499,0.552958,0.4284448,-0.23617761,0.54654,0.47347171,-0.26617556,0.584477,0.45812194,-0.25749743,0.570648,0.45110797,-0.25584136,0.564294,0.44680781,-0.26899997,0.558688
0.4307721,-0.33884594,0.573966,0.42268395,-0.29418544,0.569958,0.40217312,-0.32123669,0.564685,0.39357258,-0.293435,0.544817,0.38347081,-0.26692004,0.520402,0.38282299,-0.24736,0.505368,0.38311065,-0.24232058,0.55561,0.37595501,-0.2245493,0.539436,0.37258029,-0.21423272,0.531349,0.3845303,-0.23410715,0.54153,0.41387387,-0.24637172,0.565445,0.40768585,-0.21120356,0.552389,0.40780425,-0.21852936,0.544773,0.42068829,-0.24179313,0.556245,0.44006371,-0.25256988,0.573815,0.43525644,-0.23263127,0.557753,0.43348313,-0.22189456,0.549535,0.42965321,-0.23473869,0.542065,0.47461574,-0.26260342,0.584376,0.45735795,-0.25685138,0.569111,0.45320417,-0.25381755,0.562098,0.44478673,-0.26740851,0.555909
0.43258607,-0.33976783,0.575313,0.42275975,-0.29419765,0.569677,0.40354176,-0.32212066,0.565604,0.38435959,-0.29435615,0.544973,0.36599771,-0.26856657,0.522689,0.36006906,-0.24828747,0.508549,0.38122691,-0.24206372,0.553562,0.37335821,-0.2220929,0.535988,0.36955813,-0.21179787,0.527202,0.38104729,-0.23181088,0.53693,0.41204059,-0.24549997,0.56333,0.40430934,-0.20874406,0.54858,0.40395286,-0.21697661,0.539976,0.4159266,-0.23883202,0.550949,0.43819508,-0.25155483,0.571758,0.43252562,-0.23138131,0.554114,0.43157585,-0.22232956,0.545086,0.42576765,-0.23362978,0.536917,0.47245142,-0.25885668,0.582609,0.45507206,-0.25536444,0.565936,0.44753157,-0.25125081,0.558275,0.44129958,-0.26490952,0.551515
0.43549324,-0.34108347,0.577917,0.42322399,-0.29400713,0.569738,0.40517462,-0.32279269,0.566706,0.38768331,-0.29178966,0.544088,0.36365447,-0.26389245,0.523696,0.35911894,-0.24556562,0.508436,0.37877329,-0.24006628,0.549851,0.36993595,-0.21901181,0.52965,0.3648087,-0.20859182,0.51955,0.37433924,-0.22727505,0.528014,0.40947514,-0.24353407,0.560529,0.4011865,-0.21899434,0.543161,0.40203656,-0.21680815,0.53303,0.41178295,-0.23904637,0.542805,0.43648989,-0.24932541,0.569881,0.42914063,-0.22958515,0.549451,0.427157,-0.22048856,0.538999,0.421465,-0.23368455,0.529496,0.47172448,-0.25838531,0.582183,0.45321631,-0.25368186,0.563149,0.44482769,-0.25076423,0.554403,0.43768788,-0.26272215,0.546687
0.43705296,-0.34143029,0.578735,0.42387358,-0.29402368,0.570047,0.40648817,-0.32329106,0.567357,0.38870391,-0.29352406,0.544478,0.36415785,-0.26653834,0.523911,0.35813824,-0.24593237,0.509876,0.37842133,-0.23986142,0.549567,0.36939844,-0.2187751,0.528919,0.36430954,-0.20822267,0.518596,0.37316451,-0.22625979,0.526879,0.40922666,-0.24318215,0.560265,0.40070676,-0.21714465,0.542378,0.40121745,-0.21685652,0.531944,0.41166299,-0.23898724,0.54153,0.43630222,-0.24952377,0.569669,0.42877753,-0.22952096,0.548741,0.42615956,-0.22157314,0.538033,0.42071471,-0.23392514,0.528299,0.47147542,-0.25965439,0.582103,0.45318919,-0.25314646,0.562631,0.44483028,-0.25059489,0.553684,0.43722522,-0.26258026,0.54579
0.43601268,-0.33997545,0.576207,0.42286849,-0.29309763,0.568213,0.4059194,-0.32251267,0.565483,0.3865817,-0.29365315,0.543379,0.36245025,-0.26628866,0.522571,0.35634546,-0.24570343,0.508375,0.37783224,-0.23993266,0.54906,0.36362316,-0.20549623,0.529258,0.36028712,-0.20097197,0.519357,0.37263222,-0.22531764,0.528149,0.40835051,-0.24274351,0.559212,0.39949511,-0.21337031,0.542032,0.39224463,-0.1928131,0.532009,0.40635742,-0.20572161,0.542045,0.43492325,-0.24848171,0.56812,0.42828338,-0.22897645,0.548043,0.42505118,-0.21780059,0.538242,0.41979867,-0.23118407,0.529331,0.46916189,-0.26090944,0.579865,0.45225438,-0.25232622,0.561085,0.44468721,-0.25074481,0.552456,0.4366712,-0.26262358,0.544842
0.43745224,-0.34064302,0.576959,0.42298077,-0.29313827,0.567899,0.40704192,-0.32328084,0.565979,0.38663571,-0.29410797,0.543422,0.36116228,-0.26641411,0.523092,0.35567299,-0.24605026,0.508343,0.37662988,-0.23947891,0.547618,0.36146039,-0.2047031,0.526933,0.35771183,-0.20001387,0.51659,0.3701887,-0.22361414,0.525062,0.40704025,-0.24122219,0.557698,0.39777235,-0.21433123,0.539429,0.39190633,-0.20106803,0.528772,0.40565602,-0.21674537,0.538454,0.43353752,-0.24738793,0.56662,0.42638053,-0.22755522,0.545537,0.42271432,-0.21635689,0.535228,0.41767027,-0.22911645,0.525857,0.46807548,-0.25840298,0.578526,0.45066636,-0.25135486,0.558852,0.44257263,-0.24956501,0.549812,0.43435468,-0.26160621,0.541836
0.4387862,-0.34126342,0.577756,0.42327545,-0.29328959,0.567946,0.40848206,-0.3243437,0.567108,0.38700204,-0.29488021,0.544751,0.35892295,-0.2685701,0.525916,0.34775596,-0.24658758,0.514591,0.37621746,-0.23957797,0.547495,0.36042383,-0.20460939,0.526483,0.35641428,-0.19987783,0.515977,0.36831666,-0.22272551,0.524518,0.40614366,-0.24102241,0.5569,0.39597246,-0.21435206,0.537874,0.38931501,-0.20040131,0.526776,0.40342613,-0.21643287,0.536419,0.43233812,-0.24675667,0.565319,0.42474731,-0.22663965,0.543747,0.42087354,-0.2150215,0.532999,0.41556122,-0.22762599,0.523229,0.46644005,-0.25678505,0.576725,0.4489462,-0.24989835,0.556549,0.44203157,-0.24610179,0.54728,0.4329963,-0.25757001,0.5391
0.43935542,-0.34115543,0.577548,0.42307132,-0.29296631,0.567299,0.40912572,-0.32462839,0.567123,0.38345034,-0.29582232,0.544917,0.35177045,-0.27217838,0.525683,0.33913007,-0.25123364,0.512886,0.37548254,-0.23938094,0.546783,0.35945733,-0.20430747,0.525602,0.35531116,-0.19955419,0.515011,0.36691416,-0.22166201,0.523597,0.40507698,-0.2406379,0.55576,0.3944211,-0.21410644,0.536298,0.3875924,-0.1997354,0.524945,0.40145128,-0.21543897,0.534566,0.4310286,-0.24574024,0.563857,0.42123588,-0.21845413,0.542016,0.41739406,-0.20401129,0.530884,0.41218103,-0.21348422,0.520764,0.46478709,-0.25609276,0.574937,0.44744026,-0.2484109,0.554482,0.44011796,-0.2445976,0.545084,0.43103757,-0.25583146,0.536791
0.43972685,-0.3407231,0.57683,0.42310867,-0.2926449,0.566702,0.40969635,-0.32467089,0.566766,0.38569223,-0.29596992,0.544951,0.35452758,-0.27088644,0.527913,0.34078117,-0.2512187,0.516098,0.37546783,-0.23943981,0.546717,0.35985204,-0.20440871,0.525831,0.3558033,-0.19971331,0.515388,0.36851692,-0.2219559,0.524193,0.40477998,-0.24052337,0.555299,0.39437835,-0.21066535,0.535971,0.38632815,-0.19016808,0.524696,0.40004983,-0.20285204,0.534485,0.43044583,-0.24499574,0.563063,0.42195323,-0.21659297,0.541482,0.41828058,-0.20132946,0.530488,0.41337524,-0.21005447,0.520493,0.46386927,-0.2556383,0.573728,0.44773308,-0.24546373,0.553462,0.44306682,-0.23555981,0.54415,0.43137189,-0.24943319,0.535934
0.44037909,-0.34052261,0.576473,0.42325415,-0.29241872,0.566272,0.41043187,-0.32486514,0.566644,0.38558861,-0.29610954,0.545061,0.35428558,-0.27104826,0.528263,0.3408863,-0.25089335,0.516547,0.37534854,-0.23940977,0.546516,0.35975287,-0.20382857,0.52572,0.35544631,-0.19857758,0.515322,0.36662332,-0.21872068,0.524237,0.40443721,-0.24035569,0.554785,0.39365305,-0.21018544,0.535393,0.3857068,-0.18986134,0.524081,0.39943918,-0.20256343,0.533936,0.42984502,-0.24426858,0.562297,0.42179848,-0.2156937,0.540762,0.41818971,-0.20015982,0.529823,0.41339478,-0.20863748,0.519878,0.46307549,-0.25522306,0.572671,0.44720503,-0.24441263,0.552414,0.44229249,-0.2350371,0.543107,0.43139489,-0.24785085,0.534895
0.43987824,-0.34047602,0.576086,0.42273745,-0.29235494,0.565857,0.40997206,-0.32485173,0.566312,0.38525006,-0.2960201,0.544782,0.35390702,-0.27096683,0.528125,0.34076369,-0.25060176,0.516506,0.3748679,-0.23936579,0.546147,0.35962053,-0.20368408,0.525365,0.35547665,-0.19839848,0.514975,0.36647086,-0.21812642,0.523913,0.40390294,-0.24027234,0.554339,0.39310667,-0.20983203,0.534922,0.38526473,-0.18964331,0.523595,0.3989846,-0.20234343,0.533462,0.42926488,-0.2441543,0.56179,0.42160691,-0.21518626,0.540256,0.41799201,-0.19950301,0.529298,0.41321856,-0.20783591,0.519337,0.46243796,-0.25507265,0.572094,0.44683259,-0.24326172,0.551831,0.44188966,-0.23443031,0.542521,0.43356924,-0.24364206,0.534307
0.43820563,-0.33990687,0.574109,0.42311449,-0.29319363,0.56633,0.4093337,-0.32494977,0.565593,0.38353587,-0.30100804,0.545795,0.35550004,-0.27877351,0.526295,0.34089329,-0.25565336,0.515643,0.37873731,-0.24315288,0.550024,0.36820178,-0.21540919,0.531673,0.36153903,-0.19945534,0.522497,0.3697073,-0.19435532,0.53253,0.40701081,-0.24352273,0.557571,0.39804438,-0.21003338,0.540681,0.39166372,-0.18707627,0.530828,0.40148574,-0.18259953,0.541757,0.43231478,-0.24711764,0.56432,0.42617696,-0.2165718,0.545398,0.42242541,-0.19795814,0.535717,0.41929069,-0.20758382,0.526915,0.46618335,-0.26209895,0.573452,0.44998271,-0.24495683,0.555427,0.44530652,-0.23665315,0.547144,0.4379633,-0.24420862,0.539837
0.43778889,-0.34016044,0.573381,0.42375583,-0.29419815,0.566928,0.40924819,-0.32541461,0.565293,0.38325969,-0.30199416,0.546181,0.35451199,-0.27991947,0.52831,0.3396666,-0.26060157,0.519247,0.38120464,-0.24564682,0.552157,0.37051924,-0.21716869,0.534979,0.36364381,-0.20263788,0.526389,0.37234198,-0.19552324,0.536864,0.4094845,-0.24571482,0.559661,0.40055654,-0.21099129,0.544137,0.39459651,-0.18802748,0.535082,0.40320554,-0.17609777,0.546476,0.43424964,-0.24879513,0.566283,0.42870025,-0.21633287,0.548669,0.42527815,-0.199475,0.539658,0.42156849,-0.19042832,0.531465,0.46780739,-0.26272699,0.575083,0.46620804,-0.23030601,0.558208,0.46054534,-0.2256915,0.550455,0.45262473,-0.22780354,0.543614
0.41255474,-0.36108832,0.572742,0.41023194,-0.31171267,0.561006,0.3869668,-0.33785145,0.561634,0.36868562,-0.30592962,0.538488,0.34193957,-0.27175246,0.514515,0.32970143,-0.24605316,0.501144,0.37778777,-0.24915329,0.538523,0.35734454,-0.20854339,0.515938,0.34713179,-0.18534428,0.504645,0.35456961,-0.18577035,0.512565,0.40732538,-0.25811816,0.547793,0.39554542,-0.20768568,0.526826,0.3890546,-0.18305944,0.514596,0.39791928,-0.17086421,0.523556,0.43233127,-0.2688825,0.556235,0.41716056,-0.21446364,0.532871,0.41096337,-0.19328813,0.520918,0.40504681,-0.17555394,0.51005,0.46335524,-0.28854032,0.56793,0.45122162,-0.23941864,0.546168,0.44638415,-0.22434307,0.536169,0.44218002,-0.2108395,0.527346
0.43475898,-0.34427635,0.573746,0.41854285,-0.30507164,0.560412,0.40542604,-0.32734152,0.563544,0.37249613,-0.30619956,0.541098,0.3437031,-0.27365826,0.517422,0.33019299,-0.25163385,0.504507,0.37731897,-0.24770596,0.537807,0.35434342,-0.1986082,0.515177,0.34591178,-0.18292554,0.503862,0.35186032,-0.18031337,0.512059,0.40612836,-0.25072527,0.545399,0.3860875,-0.20211875,0.522891,0.37889466,-0.17352755,0.509761,0.38430919,-0.16374846,0.518594,0.43087014,-0.25748123,0.552571,0.41343972,-0.2076098,0.5293,0.40597622,-0.18349718,0.517393,0.39945968,-0.16319933,0.506569,0.4624351,-0.27221111,0.562963,0.44946686,-0.22476229,0.540258,0.442523,-0.21151183,0.529826,0.43734419,-0.20364251,0.520621
0.43284827,-0.3447298,0.572318,0.41765633,-0.30390722,0.559864,0.40426503,-0.3279277,0.562743,0.3725568,-0.30586327,0.541085,0.34288865,-0.27415023,0.517158,0.32837893,-0.25291655,0.504014,0.37737317,-0.24729182,0.538692,0.35469995,-0.19866083,0.517208,0.34711541,-0.18311148,0.506466,0.35243875,-0.1760766,0.515224,0.40559742,-0.25008077,0.545841,0.38718119,-0.20169045,0.524236,0.3792269,-0.17267266,0.511633,0.37283499,-0.15340412,0.502631,0.43006151,-0.25649439,0.552588,0.41386449,-0.20583818,0.53058,0.40687486,-0.18314126,0.51932,0.40086836,-0.16297791,0.509083,0.46121176,-0.27074288,0.562352,0.44975011,-0.22503902,0.54158,0.4433338,-0.2065811,0.532037,0.43915112,-0.19058792,0.523616
0.43121728,-0.3451989,0.570891,0.41746473,-0.30349876,0.559393,0.4034741,-0.32866414,0.562096,0.37307601,-0.30608818,0.541417,0.34242,-0.2746957,0.517294,0.32737185,-0.25436749,0.506118,0.37799756,-0.24764229,0.539903,0.35619139,-0.19975167,0.519569,0.34772934,-0.18208917,0.509403,0.35232719,-0.17286981,0.518749,0.40585047,-0.25022727,0.546446,0.38851403,-0.20179314,0.52584,0.38047816,-0.17247692,0.51382,0.37327928,-0.150919,0.505234,0.42992685,-0.25623007,0.552629,0.41480196,-0.20471739,0.532052,0.40858964,-0.18127241,0.521524,0.40322903,-0.16041399,0.511953,0.46049179,-0.26990357,0.561588,0.4499257,-0.22478818,0.54221,0.4445143,-0.20587259,0.533307,0.44081249,-0.1896941,0.525452
0.42828697,-0.34442072,0.568481,0.41667171,-0.29278496,0.557749,0.40152353,-0.32816505,0.560588,0.35956458,-0.29795176,0.541003,0.32875074,-0.27230794,0.517549,0.31131894,-0.25165089,0.506425,0.37181066,-0.23748146,0.53995,0.35396722,-0.19223918,0.520738,0.34684238,-0.17825286,0.511131,0.35215052,-0.16800903,0.52103,0.40177745,-0.24198619,0.545682,0.38930018,-0.19117858,0.52619,0.38265816,-0.16286922,0.51482,0.37793074,-0.14242175,0.506699,0.42527995,-0.2479895,0.551145,0.41415699,-0.19576345,0.532274,0.40932104,-0.17043286,0.522619,0.40609285,-0.15759202,0.513842,0.45494477,-0.26163115,0.559138,0.44995578,-0.2226019,0.541884,0.44674309,-0.20235181,0.533956,0.44441488,-0.18562911,0.526961
0.42719032,-0.34534287,0.568775,0.41572618,-0.29695996,0.557841,0.40055704,-0.32870172,0.560733,0.35958478,-0.29839542,0.540955,0.32876564,-0.2728532,0.517459,0.31140754,-0.25229562,0.506435,0.37246207,-0.2379563,0.539707,0.35377025,-0.1925638,0.520301,0.34637157,-0.17737382,0.510598,0.35171126,-0.16721184,0.520398,0.40175082,-0.24234769,0.545547,0.38912256,-0.19153942,0.525796,0.38239197,-0.16325777,0.514275,0.37628085,-0.14520869,0.506045,0.42532173,-0.24839686,0.551112,0.41416317,-0.19616474,0.532133,0.40910831,-0.1705634,0.522422,0.40602313,-0.15643886,0.513595,0.45509268,-0.26210759,0.559257,0.45073362,-0.22128648,0.542134,0.44779512,-0.20182653,0.534267,0.4459116,-0.18544192,0.527326
0.42118231,-0.34963874,0.569169,0.4144752,-0.30031891,0.558682,0.39555561,-0.33135574,0.56079,0.35765304,-0.29891073,0.54071,0.32726881,-0.27370121,0.51752,0.31025461,-0.25317827,0.506587,0.37600278,-0.24167915,0.540474,0.35560027,-0.19708576,0.520784,0.34547192,-0.17558895,0.510939,0.3500312,-0.16445417,0.52059,0.40486557,-0.24745112,0.546888,0.39049456,-0.19607099,0.527368,0.38498668,-0.16505084,0.517569,0.38092172,-0.14463056,0.51057,0.42976918,-0.25617402,0.552897,0.41599523,-0.20486891,0.533839,0.41343461,-0.17459878,0.528675,0.41198571,-0.15669715,0.52398,0.459766,-0.2703705,0.561513,0.45128884,-0.22460559,0.544446,0.44896261,-0.20648985,0.536605,0.44748705,-0.18852227,0.529686
0.42009679,-0.34925675,0.568761,0.41378496,-0.30026612,0.558544,0.39468032,-0.33088518,0.560494,0.35668711,-0.29916643,0.540585,0.32640554,-0.27402839,0.517368,0.30953717,-0.25350474,0.506433,0.37640879,-0.24176302,0.540699,0.35569188,-0.19712599,0.521191,0.34541006,-0.17579559,0.511437,0.34960311,-0.16417313,0.52118,0.40505429,-0.24754593,0.547086,0.39105867,-0.19619182,0.527822,0.38605297,-0.16590051,0.518876,0.38232453,-0.14543168,0.512487,0.42967281,-0.25613939,0.553056,0.41622238,-0.20471892,0.534284,0.41431009,-0.17608527,0.530159,0.41307376,-0.1571873,0.52641,0.45942914,-0.27070926,0.561589,0.45231655,-0.22516765,0.545467,0.4507005,-0.20723008,0.53806,0.44936705,-0.18959056,0.531524
0.42597846,-0.34819828,0.572203,0.4170714,-0.29585154,0.562332,0.39929904,-0.33027051,0.563372,0.35918796,-0.30066765,0.543941,0.32528017,-0.27620795,0.520013,0.30709316,-0.25582659,0.508485,0.37315909,-0.23751967,0.544064,0.35702425,-0.19716184,0.525043,0.34769487,-0.17703354,0.515532,0.35247589,-0.16662352,0.525271,0.40332801,-0.24227331,0.551262,0.3885365,-0.19026124,0.532475,0.38282851,-0.16186835,0.524217,0.3787543,-0.14132691,0.518318,0.42797003,-0.24681029,0.557875,0.41717207,-0.19441038,0.540381,0.41510016,-0.16961359,0.534887,0.41345128,-0.1477367,0.529893,0.45997662,-0.25851603,0.56713,0.46240528,-0.2169078,0.554465,0.46435203,-0.1978593,0.548645,0.46610358,-0.18097155,0.543511
0.4238425,-0.34724517,0.57107,0.41417563,-0.29434803,0.561002,0.3978443,-0.32959307,0.56298,0.35941541,-0.30046052,0.543996,0.32503553,-0.27598036,0.520007,0.30639537,-0.25604062,0.508832,0.37276403,-0.23726821,0.543488,0.35681421,-0.19719156,0.525169,0.34769644,-0.17708441,0.516009,0.35271694,-0.16671051,0.526128,0.40058871,-0.23936843,0.549727,0.38771415,-0.18985855,0.531348,0.38253128,-0.16174268,0.52381,0.37883322,-0.14135635,0.518426,0.42467162,-0.24429678,0.555566,0.41560415,-0.1936797,0.53835,0.41436136,-0.16931171,0.533935,0.41347312,-0.14774451,0.529921,0.45570638,-0.25658933,0.563926,0.46020528,-0.21587581,0.551827,0.46234022,-0.19700208,0.546268,0.46426236,-0.18025667,0.541364
0.42385445,-0.34635624,0.570822,0.41396917,-0.29367433,0.56082,0.39785962,-0.3288964,0.562904,0.35961679,-0.30034488,0.544094,0.32499104,-0.27593069,0.520167,0.30606009,-0.25623837,0.509178,0.37282027,-0.23730401,0.54357,0.35678668,-0.19728575,0.525455,0.34772942,-0.17713696,0.516397,0.35278546,-0.16672264,0.526604,0.40052385,-0.23932967,0.549638,0.38776304,-0.18988249,0.531415,0.38254735,-0.16174947,0.523832,0.37882591,-0.14135363,0.518416,0.42449581,-0.24419564,0.555336,0.41551305,-0.19363724,0.538232,0.41431635,-0.16929332,0.533877,0.41347078,-0.14774367,0.529918,0.45537991,-0.25640551,0.563522,0.46002347,-0.21579053,0.551609,0.4622285,-0.19695447,0.546136,0.46421262,-0.18023735,0.541306
0.42336077,-0.34479723,0.570403,0.41371891,-0.29314587,0.560546,0.39729393,-0.32745133,0.56256,0.35960158,-0.3001193,0.543916,0.32477107,-0.27573602,0.519969,0.30572577,-0.25627726,0.509224,0.37277431,-0.23727476,0.543503,0.35665694,-0.19729916,0.525518,0.34764511,-0.17712082,0.516526,0.35270049,-0.16666675,0.526768,0.400459,-0.23929092,0.549549,0.3878039,-0.1899025,0.531471,0.38253348,-0.16174361,0.523813,0.3787733,-0.14133399,0.518344,0.4244102,-0.24414639,0.555224,0.4155254,-0.193643,0.538248,0.41430393,-0.16928825,0.533861,0.41343489,-0.14773085,0.529872,0.45525304,-0.25633407,0.563365,0.45998344,-0.21577175,0.551561,0.4622302,-0.19695519,0.546138,0.46425292,-0.180253,0.541353
0.42288905,-0.34341054,0.569979,0.41348466,-0.29272943,0.560275,0.39675933,-0.32613929,0.56219,0.35953646,-0.29989945,0.543697,0.32455873,-0.27555007,0.519739,0.30546326,-0.25628496,0.509217,0.37271601,-0.23723765,0.543418,0.35652912,-0.19729658,0.525533,0.34755581,-0.17709617,0.516591,0.35261361,-0.1666131,0.526871,0.40040143,-0.23925652,0.54947,0.38784622,-0.18992322,0.531529,0.38252617,-0.16174052,0.523803,0.37872946,-0.14131763,0.518284,0.42434829,-0.24411078,0.555143,0.41556092,-0.19365955,0.538294,0.41430548,-0.16928888,0.533863,0.41340524,-0.14772025,0.529834,0.45517223,-0.25628857,0.563265,0.45997844,-0.2157694,0.551555,0.46226067,-0.19696818,0.546174,0.46431638,-0.18027764,0.541427
0.42018849,-0.34033702,0.565295,0.41326259,-0.29538882,0.555751,0.39555695,-0.32231648,0.557503,0.36365558,-0.30398755,0.538993,0.32526695,-0.27662762,0.51745,0.30644904,-0.25633579,0.508653,0.37588074,-0.24225919,0.539028,0.3549078,-0.19777721,0.521022,0.344645,-0.17580646,0.51202,0.34919435,-0.16457563,0.522244,0.40277936,-0.24469966,0.545158,0.3902294,-0.19392059,0.527153,0.38230111,-0.16238831,0.523241,0.38029103,-0.14270505,0.520446,0.42643375,-0.25114339,0.550886,0.42034297,-0.19962519,0.540526,0.41636554,-0.1717071,0.535225,0.41386258,-0.1510343,0.530406,0.45642051,-0.26165805,0.559054,0.456402,-0.21430923,0.546883,0.45798962,-0.19530721,0.541292,0.45948028,-0.17874117,0.536358
0.41983401,-0.3396291,0.563666,0.41167147,-0.29671321,0.554949,0.3941968,-0.32319524,0.556762,0.35647688,-0.29800686,0.539331,0.3237249,-0.27528186,0.517272,0.30837827,-0.25620836,0.505827,0.37587887,-0.24199593,0.539948,0.35478341,-0.19675576,0.522887,0.34610516,-0.17669145,0.514356,0.35077777,-0.16526875,0.525055,0.40319338,-0.24521424,0.545292,0.38782249,-0.19154324,0.528026,0.38273986,-0.16286641,0.523638,0.38034043,-0.14302914,0.520503,0.42643847,-0.25110706,0.550316,0.42066626,-0.20000097,0.540815,0.41676483,-0.17196077,0.535955,0.41487507,-0.15145892,0.531536,0.4564203,-0.26089965,0.557528,0.45588297,-0.21431034,0.54591,0.45743038,-0.19525961,0.540573,0.45887037,-0.1786241,0.535863
0.41956295,-0.33892115,0.562147,0.41206362,-0.29644658,0.554093,0.39418682,-0.32290765,0.555769,0.3562004,-0.29834049,0.539191,0.32391533,-0.27566945,0.517369,0.30767086,-0.25752728,0.505502,0.37630916,-0.24271421,0.540243,0.35558166,-0.19746083,0.52398,0.34697473,-0.17717168,0.515848,0.35167816,-0.1655157,0.526883,0.40340474,-0.24545509,0.545191,0.38802662,-0.19177656,0.528671,0.38312111,-0.16324738,0.524007,0.38047193,-0.14330737,0.520675,0.42649225,-0.25094679,0.549844,0.4210225,-0.20012368,0.541247,0.41730476,-0.1722163,0.536848,0.41600449,-0.15191536,0.532849,0.45681571,-0.26010207,0.556522,0.45577701,-0.21444402,0.54552,0.45737579,-0.19537931,0.540465,0.45885202,-0.17870695,0.536004
0.42042074,-0.33815655,0.561213,0.41313745,-0.29549476,0.553474,0.39497686,-0.3226139,0.555137,0.3564922,-0.29848916,0.539014,0.32408744,-0.27607668,0.517488,0.30773936,-0.2585004,0.5052,0.3760294,-0.24293187,0.540245,0.35594456,-0.19762309,0.524445,0.34755882,-0.17741504,0.516545,0.35246825,-0.16582051,0.527789,0.4030398,-0.24480851,0.544944,0.38773324,-0.1915199,0.52884,0.38334746,-0.16351386,0.524198,0.3806277,-0.14354379,0.520882,0.42616581,-0.2495865,0.54937,0.42111717,-0.20005804,0.541237,0.41767918,-0.17262004,0.537076,0.4163981,-0.15144494,0.533294,0.45609925,-0.25977565,0.555732,0.45564207,-0.21452313,0.545154,0.45725969,-0.19544083,0.540294,0.45874491,-0.17873509,0.536005
0.42175707,-0.33777278,0.560912,0.41450677,-0.29474686,0.553242,0.39604201,-0.32254292,0.554888,0.35682706,-0.298674,0.538903,0.32433027,-0.276544,0.51772,0.30778128,-0.25944968,0.504855,0.37567811,-0.24310306,0.540144,0.35588734,-0.19755209,0.524291,0.34755278,-0.17735718,0.516365,0.35268403,-0.16585512,0.527835,0.40276284,-0.2442151,0.544816,0.38734751,-0.19121762,0.528883,0.3834951,-0.16371281,0.524305,0.38074311,-0.14372937,0.521035,0.42608767,-0.24836962,0.549216,0.42129696,-0.20007703,0.541389,0.41807648,-0.17298352,0.537384,0.41679557,-0.15097622,0.533744,0.45590091,-0.25971158,0.55554,0.45583148,-0.21472641,0.545217,0.45743576,-0.19560494,0.540475,0.45890258,-0.17885236,0.53629
0.42130944,-0.33771268,0.559506,0.41377341,-0.29424003,0.552382,0.39582453,-0.32269615,0.55379,0.35637254,-0.29887764,0.538281,0.32433556,-0.27682006,0.517344,0.30763433,-0.25931805,0.504562,0.3756212,-0.24297841,0.540078,0.35668261,-0.19791593,0.525065,0.34859018,-0.17786599,0.517558,0.35368773,-0.16614532,0.529101,0.40257605,-0.24405,0.544574,0.38789885,-0.1917657,0.529244,0.38392336,-0.16417379,0.524723,0.38108138,-0.14414997,0.521493,0.42574731,-0.24815401,0.548792,0.42129831,-0.20003338,0.541338,0.41843102,-0.17352381,0.537524,0.4171583,-0.1514738,0.534057,0.45528533,-0.25939347,0.554823,0.45589469,-0.21494899,0.545009,0.45747817,-0.19577209,0.540501,0.45892316,-0.17897809,0.536522
0.42135853,-0.33805058,0.55876,0.41339299,-0.29397996,0.551959,0.39595464,-0.32313283,0.553178,0.3560784,-0.2992138,0.537901,0.32446265,-0.27719959,0.517163,0.30758133,-0.25926784,0.504438,0.37561057,-0.24290881,0.540074,0.35719023,-0.19812002,0.525415,0.34918028,-0.17814651,0.518086,0.35428861,-0.16624597,0.529764,0.40253646,-0.24398894,0.544528,0.3883643,-0.19227184,0.529487,0.38435102,-0.16463466,0.52514,0.38148103,-0.14459375,0.522035,0.42565927,-0.2480904,0.548689,0.4214747,-0.20008552,0.541527,0.41894046,-0.17412845,0.537863,0.41764665,-0.15201646,0.534531,0.4550879,-0.25930422,0.554606,0.45621648,-0.21529354,0.54511,0.45770684,-0.1960189,0.540747,0.45906709,-0.17915182,0.536898
