sluyters/QuantumLeap/src/datasets/gesture/HandGestureDataset_SHREC2017_csv/Gesture9/finger_2/subject_27_essai_4_skeletons_world.csv
Wrist_x,Wrist_y,Wrist_z,Palm_x,Palm_y,Palm_z,thumb_base_x,thumb_base_y,thumb_base_z,thumb_first_joint_x,thumb_first_joint_y,thumb_first_joint_z,thumb_second_joint_x,thumb_second_joint_y,thumb_second_joint_z,thumb_tip_x,thumb_tip_y,thumb_tip_z,index_base_x,index_base_y,index_base_z,index_first_joint_x,index_first_joint_y,index_first_joint_z,index_second_joint_x,index_second_joint_y,index_second_joint_z,index_tip_x,index_tip_y,index_tip_z,middle_base_x,middle_base_y,middle_base_z,middle_first_joint_x,middle_first_joint_y,middle_first_joint_z,middle_second_joint_x,middle_second_joint_y,middle_second_joint_z,middle_tip_x,middle_tip_y,middle_tip_z,ring_base_x,ring_base_y,ring_base_z,ring_first_joint_x,ring_first_joint_y,ring_first_joint_z,ring_second_joint_x,ring_second_joint_y,ring_second_joint_z,ring_tip_x,ring_tip_y,ring_tip_z,pinky_base_x,pinky_base_y,pinky_base_z,pinky_first_joint_x,pinky_first_joint_y,pinky_first_joint_z,pinky_second_joint_x,pinky_second_joint_y,pinky_second_joint_z,pinky_tip_x,pinky_tip_y,pinky_tip_z,
0.325441845,-0.433728462,0.476421,0.318841257,-0.38360101,0.450671,0.304404538,-0.416830668,0.469571,0.269014717,-0.386592966,0.446117,0.242651596,-0.359790192,0.420215,0.228659935,-0.335141752,0.404714,0.287529127,-0.321443673,0.424879,0.259863206,-0.278019589,0.395463,0.245304947,-0.269930676,0.380754,0.232800234,-0.27111061,0.367383,0.311616918,-0.329867227,0.426033,0.291184047,-0.276787888,0.391852,0.274094338,-0.268105167,0.371912,0.259949453,-0.271648632,0.35767,0.33244593,-0.342063841,0.429389,0.314448886,-0.299200484,0.396543,0.305272331,-0.277200061,0.379738,0.290907542,-0.277049133,0.364461,0.358733899,-0.366025718,0.437633,0.343473117,-0.339877092,0.407763,0.33427216,-0.3319401,0.394038,0.322737233,-0.330292192,0.381929
0.32378966,-0.444353418,0.474565,0.316261706,-0.392981065,0.448607,0.302864029,-0.423456905,0.468115,0.266492647,-0.395564162,0.445153,0.235974344,-0.368303153,0.420461,0.219372535,-0.33951803,0.406071,0.286370227,-0.329023491,0.423187,0.25870564,-0.287941496,0.39394,0.243559861,-0.281462719,0.379316,0.230247848,-0.283315642,0.366021,0.309633842,-0.337930671,0.42377,0.290211782,-0.287235025,0.389487,0.271685462,-0.279358586,0.369488,0.257118359,-0.276779788,0.355203,0.329797593,-0.350681454,0.426675,0.31235726,-0.307738673,0.393726,0.303463882,-0.285708593,0.376868,0.287541259,-0.285363561,0.361543,0.355315564,-0.375626378,0.434426,0.337766719,-0.349023166,0.404482,0.327866345,-0.339853113,0.390725,0.313887842,-0.339170167,0.378586
0.321378984,-0.450516851,0.472116,0.315324353,-0.40195684,0.447281,0.300722221,-0.434772708,0.466522,0.266318375,-0.405656514,0.444796,0.23554601,-0.377972591,0.419663,0.220039387,-0.352151159,0.404527,0.286765951,-0.339097153,0.423694,0.259957002,-0.294977998,0.39575,0.24511242,-0.28460358,0.381779,0.23195285,-0.285443284,0.369077,0.309467615,-0.34751882,0.423518,0.289046953,-0.295794547,0.390406,0.271242593,-0.286031117,0.37109,0.257130408,-0.285374268,0.357293,0.329033927,-0.359792828,0.425693,0.312448728,-0.317815657,0.393821,0.304007416,-0.296258598,0.377514,0.288392354,-0.296351815,0.362689,0.353634336,-0.384017834,0.432401,0.336615932,-0.357165474,0.403522,0.325883245,-0.349865377,0.390253,0.313968888,-0.34311796,0.378545
0.321361279,-0.465659205,0.471709,0.316902824,-0.412718817,0.447523,0.301853053,-0.444945813,0.466724,0.271893897,-0.407368056,0.448874,0.243718228,-0.381287944,0.426153,0.230715421,-0.362815814,0.408765,0.288951272,-0.350707395,0.425142,0.262313508,-0.306936975,0.398048,0.246973221,-0.297929084,0.384502,0.232975731,-0.297548653,0.372187,0.311150375,-0.359144911,0.424381,0.291115935,-0.306829908,0.391983,0.272655072,-0.297499806,0.373084,0.25729917,-0.299711328,0.359585,0.330294776,-0.371374193,0.426015,0.309964102,-0.324647876,0.39508,0.29956511,-0.30072256,0.379252,0.287154385,-0.29882906,0.364863,0.354340481,-0.395409572,0.431979,0.337574608,-0.357893016,0.403759,0.329483338,-0.340631803,0.390793,0.315703068,-0.343111861,0.379352
0.320044244,-0.467509166,0.470277,0.31565611,-0.414235532,0.446051,0.300972941,-0.446928808,0.465581,0.271814566,-0.408397155,0.448625,0.244176902,-0.382585569,0.426533,0.231279394,-0.364138632,0.409256,0.288764495,-0.352526547,0.424012,0.261822672,-0.31752747,0.397116,0.247206037,-0.297895551,0.383668,0.23329855,-0.298698883,0.371442,0.310563489,-0.361061805,0.422872,0.291325727,-0.308073017,0.390508,0.272888152,-0.299051321,0.371629,0.257473397,-0.301269739,0.358144,0.329662147,-0.376875242,0.424197,0.310397298,-0.329899555,0.393414,0.300544754,-0.305850934,0.377665,0.284146618,-0.301399525,0.363347,0.352716118,-0.401177727,0.429805,0.337035717,-0.364876572,0.401651,0.327253472,-0.348308178,0.388716,0.315286564,-0.344723564,0.377303
0.316792011,-0.467206557,0.468333,0.31176722,-0.411500624,0.442715,0.297809111,-0.445469369,0.463032,0.256901298,-0.417385862,0.441606,0.222833103,-0.387170659,0.417642,0.205824376,-0.366999301,0.399809,0.285118913,-0.3476705,0.418981,0.255728158,-0.31349429,0.390793,0.240099396,-0.295163355,0.376699,0.223100862,-0.302354056,0.363887,0.306603181,-0.357111281,0.418202,0.286740157,-0.308671915,0.38447,0.262759216,-0.30606161,0.364794,0.244455068,-0.306933194,0.350739,0.325146468,-0.370272148,0.419955,0.304912124,-0.322013883,0.387833,0.294375079,-0.297736644,0.371399,0.279370334,-0.294540458,0.356458,0.347836336,-0.398376458,0.426298,0.324518925,-0.373197932,0.397087,0.314221385,-0.362110942,0.383666,0.299642847,-0.358742488,0.371824
0.316751944,-0.470138916,0.470552,0.310854598,-0.411377767,0.442862,0.297840583,-0.447483959,0.464907,0.257520797,-0.4165678,0.44284,0.224362137,-0.387573991,0.419334,0.207631072,-0.366428817,0.401829,0.283646609,-0.343923076,0.417318,0.252971301,-0.310738898,0.387666,0.234988685,-0.297389881,0.372839,0.219117997,-0.299165127,0.359361,0.30446422,-0.353871281,0.416368,0.281001219,-0.308025852,0.380769,0.257360077,-0.300958734,0.360003,0.238366446,-0.301157653,0.34517,0.32317595,-0.368650147,0.418173,0.29564899,-0.332750868,0.384726,0.282476651,-0.314384414,0.367613,0.261314232,-0.315751849,0.352056,0.344064473,-0.397065056,0.424924,0.323788573,-0.368812876,0.3943,0.312897805,-0.357539114,0.380229,0.296911955,-0.354151731,0.367814
0.314548551,-0.464715303,0.46798,0.306680258,-0.404350014,0.439602,0.296046712,-0.442686411,0.462909,0.255758292,-0.415400376,0.441568,0.22222941,-0.387342242,0.418088,0.204961525,-0.364996228,0.400718,0.280646349,-0.33655555,0.414331,0.248717389,-0.308168266,0.384642,0.231966917,-0.292317994,0.369797,0.216358063,-0.296245399,0.356302,0.300417127,-0.349179462,0.412448,0.272458626,-0.301295786,0.376415,0.250078073,-0.295783913,0.355396,0.231141813,-0.295795144,0.340382,0.317492177,-0.363224832,0.41355,0.290517563,-0.327601568,0.379495,0.276706648,-0.309309263,0.362071,0.255602054,-0.310804451,0.346232,0.339191595,-0.389057272,0.41959,0.320888141,-0.361798781,0.388441,0.310248536,-0.350970155,0.37413,0.291846902,-0.348786556,0.361502
0.307915836,-0.446342809,0.459175,0.29373739,-0.388233402,0.428595,0.288925831,-0.418482359,0.451887,0.243218776,-0.38910752,0.42748,0.211983561,-0.368313602,0.403153,0.194957178,-0.344240633,0.385786,0.264706764,-0.320490417,0.399042,0.229772017,-0.294015221,0.366533,0.211727318,-0.283601463,0.350279,0.194870127,-0.281805218,0.335502,0.286625503,-0.331905229,0.399334,0.262207672,-0.279435923,0.360938,0.237028682,-0.27727973,0.33854,0.217988159,-0.278590184,0.322541,0.305827192,-0.346949136,0.402433,0.283317541,-0.301249349,0.365623,0.271783406,-0.277913084,0.34679,0.252479469,-0.275910842,0.32967,0.33039942,-0.375015636,0.411183,0.314594559,-0.345232645,0.378024,0.304052224,-0.335593038,0.362789,0.282498964,-0.336849039,0.349346
0.298998559,-0.428468282,0.447862,0.286654196,-0.371442661,0.419117,0.277715446,-0.41027014,0.441948,0.235378583,-0.37363537,0.419449,0.202198456,-0.351616767,0.395574,0.18412081,-0.327065956,0.378658,0.259555746,-0.305949085,0.39253,0.2293906,-0.270545297,0.361671,0.211824564,-0.262338115,0.346241,0.195166675,-0.263178189,0.332214,0.280522376,-0.316292152,0.391612,0.258459133,-0.266175393,0.355055,0.234650409,-0.260823413,0.333731,0.215761907,-0.262810271,0.318499,0.298795082,-0.330310111,0.393542,0.278168884,-0.285850364,0.358398,0.267616548,-0.263101023,0.340417,0.248466108,-0.261322387,0.324071,0.322051295,-0.356918536,0.400616,0.308046721,-0.326323764,0.369008,0.29790107,-0.316749584,0.354485,0.278161928,-0.317802816,0.341671
0.284618523,-0.41677676,0.437682,0.279977708,-0.353859275,0.411718,0.266829819,-0.394594538,0.432628,0.229108181,-0.355430869,0.411497,0.196556513,-0.332693062,0.388131,0.179259401,-0.308506007,0.3722,0.25492699,-0.29071374,0.38807,0.227264494,-0.253851017,0.359277,0.210154412,-0.246455469,0.34488,0.19377304,-0.247424309,0.331792,0.275496837,-0.300546701,0.386875,0.25424889,-0.251524541,0.352903,0.231539006,-0.24518515,0.333086,0.213181233,-0.247948667,0.318931,0.293300685,-0.313980091,0.388318,0.274564606,-0.271302326,0.355537,0.265011813,-0.2493802,0.338766,0.246199228,-0.248100155,0.323519,0.315715144,-0.339598967,0.394354,0.303757221,-0.306012141,0.36499,0.298359393,-0.290510496,0.351498,0.282700167,-0.289617619,0.339593
0.277509112,-0.396052319,0.427927,0.270968586,-0.334259089,0.402207,0.259235738,-0.375273998,0.423073,0.22190023,-0.331887328,0.402233,0.191085542,-0.313774063,0.377991,0.173977505,-0.292493288,0.361525,0.242565293,-0.274943862,0.378974,0.212509113,-0.237367387,0.351017,0.197380485,-0.218436289,0.337038,0.181909369,-0.213677908,0.324331,0.264169553,-0.283058315,0.377596,0.239684244,-0.238448287,0.343885,0.225394267,-0.212281948,0.32422,0.209544422,-0.212255831,0.310173,0.282875671,-0.294780676,0.378866,0.265047124,-0.251607685,0.346168,0.25595824,-0.229431727,0.329439,0.239278142,-0.228701037,0.31423,0.30650611,-0.317755155,0.384658,0.29682639,-0.282429807,0.355713,0.292455019,-0.266132973,0.342413,0.279566066,-0.265758586,0.330679
0.275813394,-0.381815393,0.425866,0.267181227,-0.321397262,0.399399,0.255845807,-0.361862052,0.420167,0.217351506,-0.319845331,0.398134,0.185649299,-0.300035728,0.373919,0.168336489,-0.278143402,0.357938,0.236323468,-0.262617369,0.374597,0.207236045,-0.225525928,0.345334,0.192550575,-0.207024496,0.330702,0.177493147,-0.201871958,0.317401,0.258919261,-0.270448402,0.374074,0.235916172,-0.226258396,0.339511,0.222453011,-0.200477497,0.31935,0.207103143,-0.200628111,0.304949,0.278587598,-0.281905938,0.376116,0.262133691,-0.238897038,0.342616,0.253744999,-0.21683037,0.325477,0.237762087,-0.216086579,0.309895,0.303605653,-0.304505307,0.382941,0.292361972,-0.269678993,0.353306,0.287272407,-0.253607583,0.33969,0.2744999,-0.253804985,0.327676
0.278019687,-0.358623138,0.429828,0.272592565,-0.306167783,0.406523,0.257381103,-0.338147193,0.423319,0.21903048,-0.301545508,0.40061,0.187735138,-0.282563996,0.377923,0.170769556,-0.261517842,0.363081,0.242928624,-0.24742345,0.382788,0.213804257,-0.242466506,0.355107,0.193773845,-0.253843887,0.341266,0.190935983,-0.271386589,0.346711,0.267100341,-0.257004383,0.384225,0.242900384,-0.220095366,0.352293,0.228725714,-0.198109463,0.333667,0.21303092,-0.200822892,0.320362,0.287986908,-0.269843315,0.387585,0.273259662,-0.228352324,0.356846,0.265836767,-0.206846905,0.341119,0.250408686,-0.206427157,0.326822,0.314069291,-0.293936184,0.395426,0.301211222,-0.241700485,0.375169,0.291054007,-0.235790598,0.365862,0.281337425,-0.243816383,0.35765
0.275811109,-0.345434652,0.426475,0.272667806,-0.285243012,0.407108,0.256493453,-0.315966435,0.421605,0.220107544,-0.282424006,0.401594,0.187899795,-0.260758022,0.376796,0.170526888,-0.238841093,0.360374,0.246159224,-0.229469975,0.388068,0.229227602,-0.177731979,0.364055,0.214148277,-0.171337446,0.352049,0.213514262,-0.190383747,0.359512,0.269513671,-0.238220188,0.388577,0.260801409,-0.180635692,0.360577,0.241828969,-0.178007273,0.344244,0.227062839,-0.189078709,0.332577,0.289469468,-0.250172121,0.390805,0.273287529,-0.192361409,0.36439,0.25746039,-0.18900003,0.350876,0.244100071,-0.201218305,0.33859,0.313963489,-0.272828607,0.396659,0.298692961,-0.219051374,0.371684,0.286601404,-0.211817478,0.360209,0.274816153,-0.218208885,0.350084
0.301565016,-0.314058458,0.431795,0.285868946,-0.263303376,0.409452,0.279177607,-0.299481861,0.427519,0.236588145,-0.274846985,0.40784,0.197355228,-0.252174072,0.384374,0.174381687,-0.238545659,0.365445,0.247373472,-0.212333772,0.389195,0.22621087,-0.159995788,0.362812,0.2102223,-0.151434714,0.349621,0.209727681,-0.16917396,0.355678,0.270851547,-0.215272045,0.388073,0.255373324,-0.156503068,0.357376,0.23585274,-0.155682748,0.339469,0.222668255,-0.167467386,0.326679,0.292016807,-0.222438995,0.389237,0.267675882,-0.164817962,0.360699,0.251170248,-0.164463506,0.346099,0.240161675,-0.177422865,0.332826,0.319981624,-0.239489721,0.394341,0.292347215,-0.1871596,0.367684,0.27893687,-0.187484019,0.355436,0.269677154,-0.195768048,0.344629
0.300471323,-0.302632897,0.430229,0.284644204,-0.242289504,0.408577,0.278127575,-0.278428386,0.42619,0.2369429,-0.252286568,0.40692,0.199604256,-0.229309876,0.385274,0.17955665,-0.211954167,0.367868,0.246066691,-0.192493398,0.38908,0.224808712,-0.141343509,0.363443,0.208979019,-0.132687887,0.350625,0.208868119,-0.149781175,0.357066,0.269509266,-0.19483061,0.38786,0.253963972,-0.137196239,0.357951,0.234861711,-0.136324546,0.340504,0.222223336,-0.148974181,0.328042,0.290644168,-0.201440116,0.388878,0.266304029,-0.145176928,0.361177,0.250192457,-0.144776812,0.347004,0.239812347,-0.158495728,0.33412,0.318565912,-0.217722432,0.393696,0.290832533,-0.166700895,0.3676,0.277716323,-0.166999609,0.355609,0.268868513,-0.175616574,0.345029
0.296309956,-0.284236622,0.428363,0.28273407,-0.226254341,0.4112,0.276759663,-0.27187272,0.427607,0.23586193,-0.241447621,0.413474,0.197647981,-0.217205961,0.391743,0.177228483,-0.195648721,0.379008,0.252242656,-0.178109626,0.398857,0.226463259,-0.133261992,0.378988,0.210292045,-0.121987967,0.369054,0.204840665,-0.116939569,0.377863,0.272446563,-0.178775385,0.394777,0.252071847,-0.125482048,0.36985,0.235264961,-0.102197765,0.355308,0.220991851,-0.0950582926,0.344922,0.290369886,-0.183949591,0.393022,0.282001072,-0.132179286,0.367595,0.27191992,-0.112721781,0.354585,0.258150492,-0.104922456,0.342758,0.313718019,-0.198500619,0.393836,0.311410834,-0.157417547,0.371935,0.306204358,-0.143793094,0.361872,0.295159157,-0.142106032,0.352993
0.293030762,-0.275550422,0.433784,0.282394517,-0.220508734,0.416869,0.274334468,-0.262060517,0.433022,0.23648167,-0.236353698,0.418919,0.198477721,-0.206610437,0.396174,0.178314438,-0.191780426,0.378353,0.255283569,-0.171307279,0.404684,0.228577547,-0.128705443,0.385285,0.214303585,-0.108977495,0.375585,0.200256367,-0.099007121,0.366768,0.275953755,-0.173956219,0.400685,0.257923654,-0.120644186,0.375984,0.2405892,-0.102928483,0.361575,0.227090698,-0.094933104,0.351283,0.293707983,-0.18065911,0.398973,0.282721797,-0.129401317,0.374262,0.272797366,-0.1102395,0.361618,0.26216458,-0.0963772035,0.350124,0.317180089,-0.19908825,0.399797,0.314539018,-0.155444041,0.378149,0.307329476,-0.146645201,0.368203,0.300776267,-0.141656099,0.359426
0.291548966,-0.262526139,0.433832,0.286372162,-0.205091443,0.420556,0.274020238,-0.250141958,0.434458,0.241322544,-0.22426357,0.422908,0.202983177,-0.194883587,0.402261,0.182814129,-0.175569348,0.38722,0.259466331,-0.159909971,0.41255,0.23527609,-0.117347082,0.396107,0.221118451,-0.0989646734,0.387885,0.207007741,-0.0854917141,0.38041,0.278924632,-0.159322138,0.407853,0.264207068,-0.107150385,0.386788,0.248572987,-0.0851053149,0.3745,0.235709588,-0.0728496469,0.365722,0.295971803,-0.163278386,0.405227,0.292007532,-0.113298091,0.384317,0.281271965,-0.0959402307,0.373619,0.271392616,-0.0795099419,0.363893,0.317828918,-0.17608658,0.40437,0.321742679,-0.13412913,0.385756,0.312584131,-0.126316173,0.377204,0.304416999,-0.119216886,0.369658
0.292658201,-0.249826749,0.435126,0.287368282,-0.197067054,0.426069,0.275311727,-0.238733301,0.436508,0.238834835,-0.207175275,0.426829,0.202752327,-0.178828626,0.40648,0.185964554,-0.157352981,0.397815,0.264070318,-0.154227285,0.421823,0.243111677,-0.111256684,0.408997,0.230710628,-0.0933387852,0.402585,0.21909817,-0.0764531142,0.396755,0.284387994,-0.15374283,0.417403,0.269319531,-0.103100288,0.400736,0.256969167,-0.0776844844,0.391014,0.246826454,-0.0622049796,0.38407,0.301575993,-0.157514584,0.414611,0.295919896,-0.108392723,0.397245,0.288644666,-0.0872104449,0.38836,0.281443336,-0.068118115,0.380282,0.322685237,-0.169570832,0.412852,0.325282808,-0.128187167,0.397944,0.319194276,-0.117185859,0.391095,0.313798329,-0.107064424,0.385051
0.306774443,-0.243631641,0.450483,0.303363521,-0.187173321,0.43928,0.293434787,-0.225282958,0.451577,0.257321716,-0.200702029,0.441066,0.219387261,-0.174140456,0.420542,0.201254855,-0.153917579,0.411993,0.273258989,-0.144483605,0.433242,0.248628614,-0.101320897,0.419177,0.235224183,-0.0817029997,0.412145,0.222768562,-0.0657184791,0.405751,0.294486493,-0.142649385,0.42856,0.275554624,-0.091148918,0.409754,0.262350492,-0.065972128,0.398784,0.252434786,-0.050339761,0.390948,0.312747839,-0.145434031,0.425752,0.300059457,-0.0957819266,0.406556,0.292459819,-0.0722666255,0.396735,0.284708801,-0.0530150207,0.387807,0.335755401,-0.156404608,0.424334,0.329329399,-0.114834317,0.407434,0.323000962,-0.105223726,0.399669,0.317415053,-0.0964107767,0.392818
0.310494651,-0.231721241,0.452455,0.301008266,-0.180941686,0.443737,0.29186826,-0.222389566,0.454162,0.25331371,-0.191584155,0.445005,0.218113424,-0.165219275,0.428981,0.200810066,-0.14433701,0.419947,0.274708819,-0.139975639,0.440128,0.254751703,-0.0963942679,0.427532,0.242743628,-0.0781370858,0.421235,0.229790195,-0.0650607511,0.415509,0.295357721,-0.137992024,0.435395,0.27983949,-0.0871704819,0.419151,0.26755425,-0.0614253735,0.409675,0.2579082,-0.044910609,0.402906,0.312965011,-0.140480495,0.432313,0.302622954,-0.0910845429,0.415782,0.295192674,-0.0675086847,0.407324,0.286786004,-0.049058432,0.399634,0.334887613,-0.150878808,0.430158,0.331245675,-0.109254296,0.415448,0.325507764,-0.0958983673,0.408689,0.320429614,-0.0836108284,0.402725
0.305916322,-0.229440153,0.451108,0.299626869,-0.181664056,0.445302,0.288746844,-0.220787029,0.454321,0.24971545,-0.189851219,0.447908,0.216988203,-0.162611903,0.433486,0.201436205,-0.143088826,0.423467,0.27729143,-0.142527477,0.44554,0.259489889,-0.0995925197,0.436326,0.248261062,-0.0810142695,0.431718,0.238245667,-0.0624470855,0.427529,0.297035496,-0.140259774,0.439746,0.284610808,-0.0900363625,0.426787,0.274159849,-0.0640403635,0.419228,0.265051646,-0.0464849345,0.413828,0.313568654,-0.14236777,0.435519,0.306316904,-0.0936527319,0.421773,0.300297014,-0.0698904223,0.41474,0.293496452,-0.0498730123,0.408346,0.333641229,-0.152036704,0.431533,0.33298087,-0.110835478,0.41926,0.328885259,-0.0958205321,0.413621,0.325429766,-0.0792635422,0.408645
0.308585771,-0.22780123,0.461368,0.305457126,-0.175158556,0.454174,0.291809914,-0.218396432,0.464432,0.257663172,-0.185538376,0.457513,0.220627293,-0.162367953,0.438359,0.203267949,-0.141186918,0.428341,0.284302788,-0.133181586,0.453303,0.263347966,-0.0910765516,0.443221,0.250059925,-0.0736283174,0.43818,0.239594177,-0.0602155796,0.433598,0.303471617,-0.13265695,0.447291,0.289530739,-0.0828986224,0.433123,0.276900567,-0.0575836128,0.424858,0.267443981,-0.0450615727,0.418954,0.319498568,-0.136367267,0.443017,0.311561226,-0.0881988264,0.427759,0.304590069,-0.0654193483,0.419953,0.297698762,-0.047103497,0.412857,0.338779091,-0.148186818,0.439212,0.332086423,-0.107622006,0.425697,0.329076274,-0.0883551759,0.419487,0.326457667,-0.0709892817,0.414007
0.307463685,-0.227103285,0.46271,0.30369648,-0.176710541,0.45545,0.290812437,-0.217335739,0.465574,0.255533958,-0.185522378,0.458369,0.221532408,-0.159853385,0.441401,0.204307789,-0.138905101,0.431826,0.283075147,-0.134711203,0.454261,0.26335931,-0.0920693791,0.443872,0.250611911,-0.0743839912,0.438677,0.239675246,-0.059655197,0.433955,0.302385947,-0.134294767,0.448479,0.289266828,-0.0844661557,0.434183,0.276992931,-0.0589885514,0.425843,0.267596917,-0.0447259499,0.419887,0.318486278,-0.138054196,0.444396,0.311079455,-0.089463609,0.428877,0.304236631,-0.0684021941,0.420937,0.297742817,-0.0467946036,0.413718,0.337804848,-0.149893482,0.440819,0.332939772,-0.108512104,0.42729,0.329830324,-0.0896788686,0.421074,0.327126421,-0.07266374,0.415589
0.307152445,-0.226849767,0.463859,0.303715984,-0.177481107,0.456479,0.290697356,-0.21692454,0.466746,0.25539814,-0.186267691,0.45955,0.221017185,-0.160125374,0.44223,0.20346154,-0.139836602,0.431437,0.283364339,-0.135450872,0.455239,0.263874486,-0.0927717398,0.44481,0.251073938,-0.0752575331,0.439596,0.239844179,-0.0599534624,0.434856,0.302576705,-0.135009852,0.449391,0.289459249,-0.0851608572,0.434987,0.276947823,-0.0597933956,0.426585,0.267351571,-0.045080987,0.420584,0.318590788,-0.138745306,0.445265,0.311077004,-0.0899464844,0.429693,0.303990606,-0.066867869,0.421726,0.29760288,-0.0466267165,0.414483,0.337807839,-0.150562518,0.44166,0.334052658,-0.1088208,0.427991,0.329986514,-0.0909050433,0.421711,0.327693411,-0.0762826641,0.41617
0.306820519,-0.226588883,0.464435,0.303732299,-0.177871464,0.457005,0.290509554,-0.216567969,0.467347,0.2553485,-0.186655827,0.460177,0.220822411,-0.160307151,0.442771,0.20339604,-0.139804947,0.432157,0.283531177,-0.13583167,0.455764,0.264167692,-0.0931350857,0.445339,0.251345807,-0.0757061693,0.440127,0.239940881,-0.0601311949,0.435388,0.302686583,-0.135374309,0.449869,0.289580315,-0.0855150828,0.435426,0.276954877,-0.0602016079,0.427001,0.267193041,-0.0452916077,0.420983,0.318650085,-0.139094502,0.44571,0.31108505,-0.0901907305,0.430114,0.303947743,-0.0670232669,0.422135,0.297474842,-0.0465190171,0.414881,0.337802718,-0.150894979,0.442073,0.334647942,-0.108795941,0.42835,0.330077176,-0.0915200739,0.422045,0.327248753,-0.076877464,0.416482
0.306948887,-0.226650921,0.465081,0.303744203,-0.17823702,0.457273,0.29076305,-0.216687561,0.468114,0.255739149,-0.187419403,0.461038,0.220894207,-0.160894858,0.443175,0.203335216,-0.140143302,0.432285,0.283362914,-0.136324863,0.455934,0.264028832,-0.0936324541,0.445483,0.251101568,-0.0764493463,0.440258,0.23955139,-0.0607844012,0.435508,0.302291032,-0.135612439,0.449775,0.289171127,-0.0856736516,0.435012,0.276712139,-0.0613736454,0.4264,0.266329073,-0.0455702652,0.420249,0.318100608,-0.139126676,0.445433,0.310353647,-0.0901501672,0.429573,0.302917523,-0.0671004257,0.421459,0.296154572,-0.0466133216,0.414083,0.337151359,-0.150696382,0.441645,0.334432282,-0.108413942,0.427532,0.330286194,-0.0944446314,0.421047,0.325209599,-0.0805645752,0.415326
0.306946472,-0.226624589,0.465416,0.303752168,-0.178481116,0.457452,0.290808971,-0.216669785,0.468457,0.255860202,-0.187827102,0.461361,0.220859569,-0.161226961,0.443279,0.203213391,-0.140331299,0.43221,0.283233207,-0.1366451,0.456019,0.263906808,-0.0939531655,0.445529,0.250903888,-0.0769338328,0.440284,0.239230626,-0.0612398958,0.435516,0.302089025,-0.135798755,0.449804,0.289004762,-0.0858108352,0.434896,0.276364088,-0.0615339156,0.426199,0.26587921,-0.0457975194,0.419988,0.317864122,-0.139204801,0.44543,0.310043155,-0.0901744052,0.429457,0.302430038,-0.0671957298,0.421285,0.295457308,-0.0467191667,0.413856,0.336924208,-0.150656584,0.441631,0.334664787,-0.108338092,0.427366,0.329926176,-0.094639118,0.420812,0.324530392,-0.0812222713,0.415029
0.307130723,-0.226662008,0.465887,0.303333925,-0.178337234,0.45705,0.290708875,-0.216588473,0.468519,0.254437865,-0.188111935,0.460667,0.218916143,-0.163351733,0.440849,0.202012622,-0.141028489,0.43096,0.281435565,-0.136921547,0.454516,0.261296376,-0.0937192711,0.442811,0.249579302,-0.0778656762,0.436958,0.236920686,-0.0605970939,0.431637,0.300331862,-0.135847453,0.448563,0.287307943,-0.0853438324,0.432697,0.273613062,-0.0632764065,0.423442,0.263434115,-0.0466431916,0.416832,0.316245935,-0.139064324,0.444486,0.308371327,-0.0896345197,0.427656,0.300499322,-0.0665848711,0.419046,0.292740851,-0.047241568,0.411219,0.336335676,-0.150114173,0.441181,0.334139073,-0.107717672,0.426177,0.32908381,-0.0955488777,0.419283,0.320629413,-0.0846367405,0.4132
0.307264797,-0.227151618,0.465874,0.302629005,-0.180326319,0.455258,0.290336137,-0.216793233,0.467768,0.254069309,-0.196338349,0.458521,0.21659214,-0.170656178,0.437777,0.198732894,-0.14609193,0.425147,0.278365219,-0.143435702,0.4506,0.258166471,-0.0977378388,0.436856,0.24462084,-0.0789411401,0.429985,0.232593998,-0.0621880601,0.423738,0.2979037,-0.141360721,0.445062,0.284033267,-0.0898112789,0.427228,0.269012845,-0.0637592314,0.416824,0.258738463,-0.0466316205,0.409393,0.314460545,-0.139919241,0.441494,0.305942137,-0.0936088503,0.422621,0.298141634,-0.0696161545,0.412965,0.286875112,-0.0489151652,0.404188,0.334636439,-0.151281605,0.439082,0.332204564,-0.10977981,0.422556,0.326298277,-0.0954257457,0.414963,0.318720461,-0.0839725434,0.408263
0.306887727,-0.227151741,0.466399,0.302254832,-0.180339489,0.455743,0.290146362,-0.216816191,0.46841,0.254513148,-0.196681336,0.459322,0.21689493,-0.170894751,0.438389,0.197097685,-0.147667197,0.425937,0.278311666,-0.14311865,0.451208,0.257607065,-0.0977914399,0.437565,0.244642442,-0.0794645483,0.430744,0.232133845,-0.0622778892,0.424543,0.297717152,-0.14101013,0.445509,0.283400452,-0.09002287,0.427737,0.268014735,-0.0649570063,0.417369,0.258398056,-0.0471614075,0.409964,0.314521921,-0.140331351,0.441812,0.3049282,-0.0938543649,0.422894,0.297360717,-0.0700637206,0.413214,0.285929721,-0.049570907,0.404415,0.334709002,-0.151567441,0.439257,0.331221504,-0.109779071,0.422677,0.325412761,-0.0953932996,0.415059,0.317557838,-0.0838905802,0.408337
