sluyters/QuantumLeap/src/datasets/gesture/HandGestureDataset_SHREC2017_csv/Gesture9/finger_2/subject_21_essai_1_skeletons_world.csv
Wrist_x,Wrist_y,Wrist_z,Palm_x,Palm_y,Palm_z,thumb_base_x,thumb_base_y,thumb_base_z,thumb_first_joint_x,thumb_first_joint_y,thumb_first_joint_z,thumb_second_joint_x,thumb_second_joint_y,thumb_second_joint_z,thumb_tip_x,thumb_tip_y,thumb_tip_z,index_base_x,index_base_y,index_base_z,index_first_joint_x,index_first_joint_y,index_first_joint_z,index_second_joint_x,index_second_joint_y,index_second_joint_z,index_tip_x,index_tip_y,index_tip_z,middle_base_x,middle_base_y,middle_base_z,middle_first_joint_x,middle_first_joint_y,middle_first_joint_z,middle_second_joint_x,middle_second_joint_y,middle_second_joint_z,middle_tip_x,middle_tip_y,middle_tip_z,ring_base_x,ring_base_y,ring_base_z,ring_first_joint_x,ring_first_joint_y,ring_first_joint_z,ring_second_joint_x,ring_second_joint_y,ring_second_joint_z,ring_tip_x,ring_tip_y,ring_tip_z,pinky_base_x,pinky_base_y,pinky_base_z,pinky_first_joint_x,pinky_first_joint_y,pinky_first_joint_z,pinky_second_joint_x,pinky_second_joint_y,pinky_second_joint_z,pinky_tip_x,pinky_tip_y,pinky_tip_z,
0.180224983,-0.164720331,0.164466,0.181730833,-0.177171797,0.19058,0.163993619,-0.173932863,0.163733,0.139179634,-0.158205459,0.16193,0.117735929,-0.169378064,0.164599,0.10821019,-0.174453912,0.172961,0.161521806,-0.20400544,0.207316,0.150634893,-0.196421462,0.217972,0.163165923,-0.206436029,0.2233,0.188150223,-0.228878408,0.235032,0.180768234,-0.193130337,0.217046,0.174177503,-0.188701126,0.234587,0.202213188,-0.211047856,0.249443,0.217010747,-0.221508912,0.247761,0.196876785,-0.185006882,0.223265,0.188352657,-0.177174498,0.236245,0.21024352,-0.195824535,0.248384,0.225880144,-0.209337099,0.247993,0.216861936,-0.172772195,0.227249,0.206309478,-0.173027043,0.237293,0.220585036,-0.189533782,0.246267,0.229604414,-0.194707951,0.246212
0.179012559,-0.161698854,0.162172,0.179463586,-0.17576318,0.187316,0.161178632,-0.169493908,0.159582,0.134890523,-0.15073324,0.155813,0.108943758,-0.151969913,0.153508,0.0968256167,-0.15070785,0.157409,0.155536943,-0.200846367,0.201129,0.143509385,-0.194090246,0.210342,0.156527614,-0.201844597,0.214949,0.181206967,-0.22234319,0.225481,0.175091239,-0.193843731,0.212797,0.16813678,-0.189718853,0.229555,0.196477535,-0.208347915,0.243123,0.211327153,-0.216510545,0.24132,0.189485204,-0.188578285,0.220677,0.182476138,-0.178447014,0.232408,0.205821845,-0.193943187,0.243451,0.221369865,-0.205796974,0.243125,0.209846844,-0.17618958,0.226774,0.202185392,-0.17549318,0.235996,0.218320966,-0.19025248,0.244172,0.228293277,-0.195344775,0.244097
0.174758662,-0.150944799,0.153741,0.174088203,-0.169826475,0.181668,0.158450848,-0.159529369,0.151286,0.126969055,-0.13789712,0.149253,0.102808688,-0.142936966,0.148672,0.093690532,-0.145628884,0.154002,0.152061419,-0.200043369,0.197526,0.14196587,-0.193027203,0.209224,0.155590026,-0.20109969,0.215073,0.179532273,-0.220289456,0.224477,0.172635604,-0.19197238,0.20997,0.167457679,-0.189875163,0.22995,0.193285791,-0.205050006,0.24072,0.207230046,-0.212810454,0.236873,0.189397523,-0.184972272,0.218299,0.181703693,-0.178519992,0.232766,0.202690141,-0.191935054,0.241468,0.217496281,-0.202420067,0.239102,0.210064249,-0.17314165,0.224564,0.201276458,-0.175330709,0.236183,0.215510129,-0.188893905,0.242738,0.22515621,-0.193176271,0.24119
0.171996321,-0.13834038,0.15003,0.169727974,-0.15542962,0.17809,0.153756782,-0.147219127,0.147512,0.123858821,-0.125852322,0.145537,0.100408373,-0.131435729,0.145445,0.090280233,-0.132272443,0.150576,0.149254752,-0.187145872,0.193961,0.137581354,-0.179435525,0.205776,0.15075232,-0.184869369,0.211683,0.174686499,-0.202659959,0.220931,0.16903192,-0.180947522,0.206528,0.162754737,-0.17583303,0.226697,0.187747125,-0.187201797,0.237171,0.201842308,-0.194710998,0.233164,0.185534882,-0.173777053,0.214947,0.176789733,-0.164802763,0.229555,0.196646294,-0.17603329,0.23801,0.212046657,-0.184973525,0.235489,0.205676421,-0.161434681,0.221304,0.196252852,-0.161616067,0.23306,0.209773516,-0.174390729,0.239441,0.21963146,-0.179912479,0.237778
0.169649687,-0.130442376,0.149562,0.183519581,-0.155934274,0.18334,0.16352926,-0.144958667,0.152018,0.14236993,-0.150181898,0.15714,0.110558719,-0.138685674,0.149462,0.09291591,-0.13504445,0.150618,0.195327559,-0.202862013,0.209141,0.177576336,-0.227521449,0.227557,0.186937745,-0.230081667,0.236765,0.213078428,-0.234700203,0.247822,0.199604766,-0.189511224,0.217573,0.184207465,-0.216472811,0.243477,0.200317097,-0.226066533,0.254068,0.21505831,-0.219574989,0.248022,0.20200049,-0.175986904,0.2222,0.188423785,-0.190220445,0.243193,0.202591459,-0.190233123,0.251796,0.210583176,-0.176877952,0.246756,0.202766772,-0.155128466,0.22327,0.19477557,-0.173663958,0.239914,0.208809533,-0.173646955,0.246498,0.218307803,-0.166108964,0.243193
0.180012813,-0.135517214,0.156048,0.201446607,-0.164754485,0.189738,0.182262554,-0.151517416,0.158442,0.161630916,-0.162143392,0.163456,0.128432594,-0.145015944,0.154329,0.111554806,-0.136275588,0.153469,0.211284546,-0.209970815,0.215402,0.194027708,-0.238207656,0.233714,0.185961845,-0.249888931,0.24287,0.191841127,-0.257721127,0.253925,0.214550564,-0.196121857,0.22388,0.2015308,-0.227297319,0.249686,0.184763484,-0.242728872,0.260317,0.176652439,-0.240991776,0.254319,0.216245854,-0.182130474,0.228551,0.202129468,-0.206626203,0.249442,0.189187234,-0.218397399,0.258077,0.172340526,-0.219934744,0.253092,0.216513989,-0.160690518,0.229686,0.210064488,-0.183353284,0.246248,0.228347114,-0.190287454,0.252853,0.23358074,-0.188482806,0.249585
0.177801359,-0.127576303,0.15194,0.191738496,-0.152692037,0.183756,0.179763344,-0.147118914,0.154878,0.153096914,-0.149835988,0.15917,0.119565202,-0.126921576,0.147798,0.103153269,-0.109795794,0.142382,0.198031791,-0.197926624,0.208818,0.179209892,-0.220332411,0.225636,0.166369315,-0.232173006,0.234045,0.16897337,-0.241008765,0.246465,0.201044283,-0.182359773,0.215998,0.181299377,-0.211121329,0.23949,0.170431583,-0.223506107,0.252883,0.169116718,-0.218215487,0.248589,0.202827966,-0.167265363,0.21973,0.184536891,-0.184467481,0.238857,0.204125622,-0.184951335,0.249809,0.21508092,-0.177041766,0.246461,0.203699051,-0.144898038,0.219989,0.195401454,-0.16334085,0.234908,0.190392295,-0.173676881,0.243132,0.184922006,-0.17429505,0.24107
0.174265936,-0.117419903,0.148089,0.188484679,-0.141650458,0.180613,0.177674049,-0.136265062,0.150446,0.147622853,-0.135663072,0.154658,0.115476395,-0.113403562,0.144126,0.100575303,-0.0976469407,0.139839,0.195115697,-0.188307648,0.205445,0.176241564,-0.208472388,0.222657,0.163370596,-0.218982631,0.231263,0.16517038,-0.224757535,0.24294,0.199456592,-0.1734541,0.213573,0.180502447,-0.199409585,0.237955,0.1683249,-0.210105697,0.250021,0.166153716,-0.202820362,0.244989,0.202233938,-0.158802547,0.218036,0.183416396,-0.172663775,0.237716,0.200310732,-0.171826628,0.247552,0.218016719,-0.164525267,0.243861,0.204099435,-0.136721114,0.219076,0.1957879,-0.152853603,0.234566,0.189886207,-0.161144184,0.242005,0.183670238,-0.160099201,0.239439
0.177005724,-0.110627697,0.146737,0.187136308,-0.138378533,0.179415,0.175121997,-0.127492771,0.148588,0.145401164,-0.131321775,0.152511,0.113628101,-0.109429014,0.142106,0.0991773579,-0.0942238957,0.138217,0.193453698,-0.184812946,0.203735,0.174691185,-0.204559821,0.220922,0.164787989,-0.213512805,0.229515,0.163306428,-0.219724472,0.240676,0.198421612,-0.170598832,0.212533,0.178150766,-0.194547319,0.237191,0.167022706,-0.206224588,0.248457,0.164571606,-0.198398991,0.243073,0.201686485,-0.156363041,0.217537,0.183075296,-0.171366081,0.237286,0.199191264,-0.168147399,0.246446,0.216790707,-0.160866739,0.24271,0.204102049,-0.13463365,0.219203,0.195817137,-0.150378471,0.23483,0.189485172,-0.15810299,0.241791,0.183054394,-0.156668868,0.23899
0.271259282,-0.25135294,0.27819,0.226712601,-0.187377372,0.248196,0.229111476,-0.227816211,0.258406,0.195718269,-0.206790041,0.236468,0.161600552,-0.187331687,0.219687,0.141379787,-0.169885344,0.210511,0.154846276,-0.127356431,0.203809,0.165777745,-0.147654507,0.212041,0.171967413,-0.16014912,0.216157,0.192233714,-0.183716562,0.227144,0.184838888,-0.130428425,0.217798,0.155234692,-0.102562805,0.186814,0.161113695,-0.112429424,0.191634,0.177074616,-0.13673665,0.204578,0.214574469,-0.136012582,0.231357,0.18863772,-0.120862246,0.199161,0.197700114,-0.138361691,0.204253,0.214970753,-0.165710007,0.219287,0.259371028,-0.149808651,0.251517,0.232345624,-0.150012482,0.2261,0.235112549,-0.160454561,0.229225,0.245196609,-0.1811518,0.239382
0.265868064,-0.241990579,0.277044,0.226039633,-0.183966863,0.24791,0.233396467,-0.227962862,0.266425,0.191861232,-0.20017452,0.248377,0.162884287,-0.184846348,0.226549,0.142996615,-0.1691765,0.211759,0.165870559,-0.132233645,0.215287,0.138856833,-0.105055515,0.186841,0.125311913,-0.0913939694,0.172618,0.127807777,-0.0999798245,0.174151,0.189685523,-0.129090328,0.218385,0.158366906,-0.0992509286,0.187503,0.140046187,-0.0817126176,0.169488,0.143531445,-0.0879368768,0.171025,0.212316487,-0.129784471,0.222926,0.183538585,-0.100920277,0.193683,0.168804031,-0.0860176887,0.178721,0.17536272,-0.094449201,0.180344,0.245115678,-0.137231096,0.232196,0.222732473,-0.11066018,0.208231,0.213168696,-0.100205935,0.19722,0.218518957,-0.107923549,0.197807
0.262468754,-0.236790792,0.277302,0.227078078,-0.180581873,0.25095,0.228981617,-0.218417697,0.267164,0.194003806,-0.200127648,0.249055,0.162039551,-0.181956545,0.226433,0.142928548,-0.164678756,0.21352,0.170769782,-0.13430333,0.22079,0.144566952,-0.101521058,0.19419,0.131108254,-0.0857038454,0.180891,0.13372289,-0.0893733427,0.183754,0.195281168,-0.131366508,0.224244,0.166257396,-0.0960298621,0.195394,0.148993142,-0.0759298432,0.178564,0.137534706,-0.0634261929,0.166544,0.218112592,-0.132131025,0.228887,0.190905694,-0.102582613,0.201463,0.176902152,-0.0843205583,0.187432,0.165244777,-0.0717580838,0.174677,0.248632851,-0.140198278,0.237913,0.230350355,-0.112205317,0.215809,0.220860642,-0.0967349529,0.205654,0.216374654,-0.0963469893,0.196693
0.258597382,-0.229582358,0.278121,0.226665172,-0.176287342,0.252355,0.228590775,-0.216903922,0.267861,0.192965961,-0.19245943,0.248515,0.158909901,-0.170537858,0.227383,0.139300046,-0.15148623,0.216323,0.171102151,-0.123418788,0.222443,0.144879005,-0.0918803461,0.196176,0.131735685,-0.0760224715,0.183042,0.134236249,-0.0788727863,0.186122,0.195885516,-0.121543759,0.226243,0.168101919,-0.0898153472,0.197803,0.151825961,-0.0709526076,0.181212,0.140010195,-0.0608727028,0.169362,0.218864838,-0.123334858,0.231131,0.192133994,-0.0929105243,0.204027,0.178439105,-0.0770767983,0.190159,0.165976196,-0.0624701519,0.177553,0.251206945,-0.132171712,0.240372,0.232323308,-0.102528042,0.218593,0.223834714,-0.0892561013,0.208587,0.219013618,-0.0889158365,0.199757
0.253309258,-0.223552724,0.271822,0.224894225,-0.173278289,0.249565,0.22547107,-0.212640502,0.263718,0.192235708,-0.190046903,0.247258,0.158090247,-0.167615965,0.226618,0.139586422,-0.149460268,0.217657,0.173247318,-0.125042001,0.224651,0.147997958,-0.0877088277,0.201162,0.135214141,-0.0690643376,0.189417,0.128018141,-0.0650600831,0.17874,0.197095286,-0.12186427,0.227008,0.168903836,-0.084681969,0.20144,0.152615802,-0.0638306658,0.186526,0.14090729,-0.0486540529,0.175872,0.2189038,-0.122487018,0.23047,0.193159796,-0.08584774,0.206243,0.180327453,-0.0683274883,0.193848,0.168634097,-0.0521199153,0.18258,0.24912453,-0.129625777,0.237543,0.232148553,-0.0956693408,0.21861,0.223926633,-0.0806842979,0.209911,0.220555711,-0.0772817709,0.202236
0.251903463,-0.221401083,0.270798,0.224142549,-0.169337767,0.24896,0.224119479,-0.210334523,0.262678,0.191300841,-0.186270919,0.246934,0.157107936,-0.163269727,0.227323,0.139119824,-0.145205418,0.219664,0.172807593,-0.123269602,0.224311,0.147363278,-0.0858271521,0.201082,0.134608142,-0.0675203256,0.189467,0.127595237,-0.0640231692,0.178908,0.196816107,-0.120231467,0.22683,0.168930032,-0.0821760097,0.201572,0.153078618,-0.0583566311,0.186839,0.141509336,-0.0458188475,0.176315,0.218714728,-0.120955851,0.230394,0.19321301,-0.0852185559,0.206441,0.180338929,-0.0677176585,0.194186,0.168600704,-0.0515027905,0.183045,0.248949015,-0.128194962,0.237536,0.231798425,-0.0943016371,0.218799,0.223742946,-0.0794189386,0.210191,0.220382193,-0.0756518995,0.202595
0.249300793,-0.218014207,0.267475,0.224335697,-0.168142748,0.24863,0.22201458,-0.207224019,0.259768,0.190166722,-0.182036618,0.245865,0.156598162,-0.158547652,0.227007,0.1394485,-0.140681525,0.219949,0.174814465,-0.120521634,0.226505,0.153782193,-0.0821038695,0.20967,0.142967672,-0.0633787906,0.201252,0.137471071,-0.0569172961,0.1936,0.199349965,-0.117512678,0.229532,0.172958985,-0.0794401652,0.206597,0.157521888,-0.0548885213,0.193219,0.146513131,-0.0386508381,0.183663,0.221531082,-0.118212727,0.23331,0.195989516,-0.0784859439,0.211574,0.184248376,-0.0606044086,0.200454,0.173539201,-0.0440178348,0.190344,0.251759406,-0.125327834,0.240312,0.235602085,-0.092502543,0.223535,0.227138327,-0.0750282649,0.215827,0.225664913,-0.0730793019,0.209026
0.249106591,-0.216345579,0.266424,0.227266705,-0.165418908,0.250669,0.221663551,-0.204088942,0.259052,0.192996351,-0.17922591,0.247775,0.161688631,-0.151907138,0.231142,0.143331914,-0.136261601,0.222368,0.179451848,-0.119609668,0.231024,0.159677851,-0.0828721243,0.216051,0.149726148,-0.0642719104,0.208565,0.142475841,-0.0460290545,0.201759,0.20440865,-0.116555836,0.234677,0.1787617,-0.0752872497,0.214207,0.163643241,-0.0523882931,0.202266,0.152801941,-0.035877267,0.193737,0.22691926,-0.117168366,0.238758,0.202909098,-0.076266934,0.219305,0.190659155,-0.0566009504,0.209352,0.183394053,-0.0457405552,0.200304,0.257491855,-0.124119428,0.245712,0.239966646,-0.0873053119,0.230947,0.236476867,-0.0782891067,0.224163,0.234512682,-0.0719114481,0.218177
0.249374052,-0.215922614,0.266072,0.229365396,-0.167540917,0.252336,0.222899787,-0.205596013,0.259501,0.193957331,-0.179165994,0.248742,0.162413124,-0.152314684,0.232682,0.147470592,-0.134633363,0.227521,0.184032232,-0.119162903,0.235032,0.165590311,-0.0827733331,0.221301,0.156289949,-0.0642758884,0.214435,0.14778268,-0.0472575709,0.208194,0.208703171,-0.116383898,0.238393,0.184470105,-0.076972616,0.219615,0.170251754,-0.0536604802,0.208662,0.160049933,-0.0368323025,0.200838,0.230820315,-0.117214201,0.242095,0.208430739,-0.0786529564,0.224264,0.196956982,-0.0588212343,0.215141,0.189430833,-0.0444231099,0.206847,0.260608057,-0.125575073,0.248329,0.244887642,-0.0904462124,0.234943,0.241790656,-0.0800184502,0.228793,0.239182697,-0.0705155754,0.223367
0.247324821,-0.213314224,0.263491,0.23115126,-0.164559608,0.252875,0.221706095,-0.202260258,0.257984,0.194199878,-0.175804725,0.248957,0.162832712,-0.147349877,0.235373,0.147398243,-0.132479168,0.227884,0.188312189,-0.118673374,0.238978,0.174451029,-0.0798297477,0.230466,0.167351549,-0.0613146585,0.22621,0.160847076,-0.0442640065,0.22234,0.212302266,-0.116811319,0.242098,0.191565507,-0.0736080355,0.225951,0.17902618,-0.0498284285,0.216531,0.169449409,-0.0353954993,0.209803,0.234177625,-0.117682159,0.245389,0.214834687,-0.0790752198,0.230062,0.204821716,-0.0569369066,0.222221,0.195946652,-0.0413261055,0.215092,0.263219856,-0.124776042,0.250721,0.249119455,-0.0913979336,0.239083,0.24616731,-0.0793948279,0.233736,0.24332791,-0.0680567331,0.229018
0.246485379,-0.210577178,0.262476,0.232335998,-0.161196058,0.253951,0.221800765,-0.199905581,0.257352,0.193860903,-0.170441134,0.249734,0.163454055,-0.145246002,0.236376,0.150092337,-0.127925433,0.232919,0.190738111,-0.115491551,0.241936,0.176858833,-0.0789188107,0.233664,0.169854191,-0.0603442727,0.229528,0.163445126,-0.0432756201,0.225768,0.215571026,-0.113599529,0.245297,0.195491457,-0.0732137114,0.230893,0.18370847,-0.0493365454,0.222491,0.175255806,-0.0321152267,0.21649,0.237349515,-0.115072796,0.248644,0.219020451,-0.0765277587,0.234957,0.2096003,-0.056548943,0.227954,0.201008531,-0.0382130297,0.221588,0.265887555,-0.12372314,0.253767,0.253036757,-0.0901562095,0.243576,0.25016997,-0.0772787375,0.238893,0.247698992,-0.0655962982,0.234762
0.240818981,-0.200912364,0.278484,0.229094951,-0.154218853,0.264887,0.217266043,-0.186596099,0.272728,0.190279003,-0.162889816,0.259236,0.159163172,-0.135962833,0.239464,0.145881305,-0.117437813,0.234253,0.19241828,-0.105505961,0.248688,0.178341619,-0.0675482845,0.239144,0.17135435,-0.0488281419,0.234372,0.166708376,-0.0403506728,0.230033,0.217216669,-0.106789324,0.251111,0.200917728,-0.0641776563,0.235626,0.191408349,-0.0393011463,0.226593,0.184682329,-0.0215299399,0.220221,0.240375089,-0.113341879,0.254034,0.220378142,-0.0697436996,0.238561,0.212776602,-0.0506342585,0.230645,0.204014421,-0.0348330837,0.223449,0.268626958,-0.123030752,0.259321,0.257078819,-0.0907469245,0.247646,0.252978287,-0.0753196921,0.242281,0.249722181,-0.0627320185,0.237547
0.246866715,-0.208397501,0.265141,0.234455107,-0.156984587,0.258243,0.222762326,-0.196119127,0.260953,0.197774321,-0.165263391,0.258759,0.169681675,-0.140596234,0.245799,0.151120729,-0.121737445,0.236145,0.197221182,-0.110621783,0.248466,0.184378747,-0.0738999931,0.241347,0.178583157,-0.0555763403,0.237787,0.171108781,-0.0402802272,0.234552,0.219815141,-0.110258352,0.25123,0.203338796,-0.0667210804,0.238316,0.194292204,-0.0424074711,0.230783,0.187803831,-0.0248178907,0.225402,0.241011885,-0.112804614,0.253973,0.223477195,-0.0716908005,0.241589,0.216810444,-0.0527861989,0.235253,0.209704395,-0.0359326816,0.229493,0.269373384,-0.121589757,0.258159,0.258948886,-0.0894925311,0.248748,0.256097142,-0.0754206385,0.244424,0.253601888,-0.0628391308,0.240608
0.249318474,-0.208494882,0.267988,0.236396412,-0.157188378,0.26118,0.223434504,-0.192030111,0.263171,0.198607242,-0.164706268,0.260075,0.17106313,-0.139864374,0.247837,0.154283506,-0.119985585,0.239948,0.199177207,-0.110782964,0.250707,0.188811357,-0.0748829948,0.246494,0.184336674,-0.0567893834,0.244387,0.179588352,-0.0415242912,0.242472,0.222843486,-0.109567099,0.254274,0.207844286,-0.0692757438,0.243388,0.19869242,-0.0453892078,0.237037,0.192125906,-0.0281508903,0.232501,0.244514185,-0.112789415,0.257672,0.227900798,-0.0727302667,0.245305,0.221367311,-0.0536724307,0.238978,0.215238155,-0.0352577011,0.233225,0.272839914,-0.121782552,0.262629,0.263365502,-0.0906237826,0.253264,0.260284773,-0.0751643062,0.248961,0.258529466,-0.0649294988,0.245164
0.250008435,-0.207896771,0.270163,0.234379865,-0.155295607,0.263882,0.221776171,-0.187970962,0.265471,0.199470713,-0.163508416,0.263685,0.173127592,-0.137766395,0.251884,0.161572797,-0.11879915,0.247116,0.201783877,-0.111210541,0.253931,0.19192611,-0.0751945761,0.250168,0.187769686,-0.0566050295,0.248286,0.183331132,-0.0396389064,0.246576,0.226048115,-0.11085155,0.257531,0.213454004,-0.0699628432,0.248841,0.205935319,-0.0460865633,0.243772,0.200564909,-0.0288563879,0.240151,0.248676584,-0.114367344,0.260921,0.233497485,-0.0746697356,0.249893,0.227994343,-0.0542661073,0.244251,0.222750587,-0.0360370341,0.239122,0.275702227,-0.123914938,0.265799,0.267385192,-0.0921165031,0.256805,0.263048021,-0.077114976,0.252672,0.26241652,-0.0654445831,0.249025
0.250031043,-0.206813882,0.271188,0.235100188,-0.155694461,0.264797,0.222066461,-0.18806376,0.266492,0.199526429,-0.163333621,0.264509,0.173471911,-0.137406197,0.252723,0.162229011,-0.11838875,0.248055,0.202474694,-0.11108333,0.254772,0.192667389,-0.0750276677,0.25094,0.188492468,-0.0564084459,0.249024,0.184240779,-0.0394387202,0.247283,0.22697229,-0.111131424,0.258346,0.214610602,-0.070177275,0.249844,0.207471422,-0.046277847,0.244885,0.202378976,-0.0290021737,0.241342,0.249371765,-0.114763991,0.261723,0.234926423,-0.0750541242,0.251054,0.229381501,-0.0547258086,0.245596,0.224130924,-0.0364143018,0.240634,0.27631957,-0.124618638,0.266601,0.26817842,-0.0925743338,0.257532,0.264157065,-0.0777729926,0.253365,0.262873171,-0.065652987,0.249689
0.249514654,-0.204779426,0.273529,0.2374358,-0.156843582,0.267617,0.223712472,-0.189004257,0.269166,0.200357002,-0.162662033,0.267569,0.17545599,-0.136748313,0.256668,0.16477954,-0.117598345,0.252212,0.205647448,-0.111094213,0.258329,0.197023373,-0.0745876043,0.255175,0.193107973,-0.0563207775,0.253597,0.189576245,-0.0393558189,0.252164,0.230887309,-0.111993563,0.261664,0.219288793,-0.0710638451,0.254122,0.21344175,-0.0472191164,0.249722,0.209324508,-0.0298822505,0.24658,0.252209832,-0.115774144,0.264813,0.240148669,-0.0765317762,0.255833,0.234376376,-0.0564492306,0.251239,0.229233432,-0.0380953887,0.247063,0.278617453,-0.12616512,0.269356,0.272508221,-0.0945068571,0.262164,0.269902856,-0.0800364209,0.258859,0.268492638,-0.0681331835,0.255943
0.249131433,-0.203962958,0.275381,0.238660241,-0.157369132,0.269132,0.224784,-0.189569629,0.270979,0.201145879,-0.162850451,0.268848,0.176247843,-0.136892577,0.258012,0.165721157,-0.117847364,0.253845,0.206797848,-0.111178263,0.259577,0.198517497,-0.0747780118,0.256688,0.194767914,-0.0564975949,0.255243,0.191367286,-0.0395143376,0.25393,0.232020013,-0.112236591,0.26285,0.220975997,-0.0714564072,0.255843,0.21551178,-0.0476360593,0.251755,0.211683407,-0.030277093,0.248835,0.253328471,-0.11616504,0.265972,0.241559111,-0.0769948389,0.257487,0.235887387,-0.0569475932,0.253146,0.230806101,-0.0386260628,0.249199,0.279723763,-0.126765073,0.270526,0.27366495,-0.0951694466,0.26338,0.271204252,-0.0807628777,0.260097,0.269809597,-0.0688161421,0.2572
0.251341552,-0.204018228,0.279583,0.243157859,-0.156306302,0.274732,0.227336963,-0.189783091,0.275573,0.204027681,-0.16269448,0.273288,0.176640015,-0.137122973,0.258742,0.164780582,-0.118637002,0.252915,0.212453048,-0.110981903,0.266595,0.203557965,-0.0742382107,0.261875,0.199473066,-0.0556514381,0.259516,0.195739184,-0.038559231,0.257371,0.2366798,-0.108784755,0.269862,0.225892933,-0.0709582031,0.261087,0.21978761,-0.0468463641,0.255968,0.215517288,-0.0294345247,0.252312,0.258286909,-0.112222642,0.272884,0.243850789,-0.0733015745,0.264045,0.23647847,-0.0534711705,0.259522,0.233473276,-0.0386145187,0.255411,0.285222333,-0.122211239,0.277135,0.276948318,-0.0902431641,0.269305,0.275152559,-0.0764766237,0.265707,0.275040797,-0.0689981942,0.262532
0.252112016,-0.203649023,0.280539,0.243979323,-0.155675451,0.275522,0.228414339,-0.189629852,0.27674,0.204888705,-0.162820655,0.274397,0.1768978,-0.137273867,0.259223,0.164770214,-0.118734693,0.253288,0.21291857,-0.110685618,0.267532,0.204165964,-0.07380628,0.262626,0.200089616,-0.055181879,0.260172,0.196370402,-0.0380775935,0.257942,0.237229705,-0.109037506,0.270489,0.226151205,-0.0702229292,0.261511,0.219889333,-0.0460606871,0.256273,0.215483318,-0.0286495147,0.252532,0.258649421,-0.11238015,0.273267,0.24420265,-0.073407344,0.264426,0.236825641,-0.0535496707,0.259903,0.232892552,-0.0378868966,0.255791,0.285339659,-0.122261511,0.277249,0.27695963,-0.0902468502,0.269316,0.275115279,-0.0764662621,0.265671,0.274719558,-0.0681513671,0.262455
0.25101389,-0.202597703,0.281319,0.243375169,-0.158386211,0.275322,0.229228744,-0.190423732,0.278089,0.205858878,-0.164194549,0.27609,0.178924121,-0.13835235,0.262998,0.166413811,-0.119158439,0.256325,0.212334424,-0.111219925,0.267379,0.203707841,-0.0744865759,0.262501,0.199734152,-0.0559301415,0.260062,0.195214879,-0.0393310352,0.257845,0.236878089,-0.114046521,0.269316,0.224720072,-0.0729346702,0.260939,0.218701149,-0.0489912586,0.256052,0.214312886,-0.0297279251,0.252562,0.257220735,-0.11798134,0.271322,0.244668041,-0.0785283719,0.262333,0.238547998,-0.0584651847,0.257734,0.2324595,-0.0383384409,0.253553,0.282835337,-0.128863721,0.274513,0.276260792,-0.0973437743,0.267702,0.274234974,-0.0832080409,0.264572,0.273276543,-0.0682808935,0.261811
0.252431074,-0.203252825,0.282411,0.244440186,-0.158657323,0.276167,0.230475232,-0.190950264,0.279006,0.205929094,-0.164653057,0.276447,0.179337485,-0.138853925,0.263873,0.167021936,-0.119653293,0.257512,0.212400568,-0.111813775,0.26785,0.204018149,-0.0751632544,0.26321,0.200189943,-0.0566213182,0.26089,0.195942424,-0.0398329161,0.258781,0.236813132,-0.114356421,0.269917,0.224703313,-0.0732930006,0.26165,0.21862691,-0.0493616048,0.256828,0.214606821,-0.0302149206,0.253383,0.257280718,-0.11826847,0.272047,0.244721129,-0.0787961095,0.262929,0.23863262,-0.0587233542,0.258264,0.232823817,-0.0387247163,0.254024,0.283229684,-0.129144151,0.275417,0.27637389,-0.0975034781,0.268521,0.274208267,-0.0832980893,0.265352,0.273479735,-0.0686968801,0.262556
0.252842997,-0.20375723,0.284083,0.245081915,-0.15925132,0.277179,0.230730973,-0.19106946,0.280395,0.206182294,-0.165143578,0.276975,0.179441592,-0.139064378,0.264217,0.167386332,-0.119960428,0.258268,0.21236408,-0.112194111,0.268081,0.204176614,-0.0756234724,0.263635,0.200462072,-0.0571004022,0.261412,0.196418967,-0.0402052049,0.259391,0.236772406,-0.114541211,0.270275,0.224680179,-0.0735040598,0.262062,0.218562558,-0.0495796309,0.257271,0.214689236,-0.0305731557,0.253849,0.257384881,-0.118472057,0.272554,0.244806465,-0.0789739419,0.263344,0.238729452,-0.0588896833,0.258632,0.233068382,-0.0390187718,0.254348,0.283642239,-0.129404134,0.27619,0.276546582,-0.0976364229,0.269115,0.274237198,-0.0833658409,0.265864,0.27349279,-0.0689838321,0.262996
0.253277582,-0.204335611,0.285663,0.245209128,-0.159348541,0.278048,0.230999534,-0.191293418,0.281713,0.206398681,-0.165533309,0.277407,0.179478246,-0.139190109,0.264414,0.167667575,-0.120198787,0.258857,0.212273986,-0.11244614,0.268175,0.204256965,-0.0759543071,0.263904,0.200639669,-0.0574523369,0.261769,0.196760803,-0.0404948904,0.259827,0.236697628,-0.114641209,0.270459,0.224639145,-0.0736364832,0.262307,0.218507294,-0.0497222812,0.257552,0.214698885,-0.0308515017,0.254155,0.257427875,-0.118595608,0.272864,0.244839477,-0.0790848086,0.263595,0.238770547,-0.0589948123,0.258852,0.233203366,-0.0392438274,0.254541,0.283925094,-0.129587028,0.276744,0.276677694,-0.0977307705,0.269527,0.27426204,-0.0834127269,0.266211,0.273439216,-0.0691969645,0.263286
0.254018113,-0.204781107,0.286813,0.245479685,-0.159416161,0.27868,0.231452788,-0.191487797,0.282544,0.206348895,-0.165661722,0.27745,0.179459134,-0.139250915,0.264497,0.168222713,-0.120597694,0.260108,0.212080486,-0.112576527,0.268092,0.20445625,-0.0762625624,0.26429,0.201040072,-0.0578015324,0.262389,0.197631606,-0.0407949179,0.26066,0.236655374,-0.114717957,0.270603,0.224791176,-0.0737906386,0.262694,0.218745119,-0.0498874743,0.25808,0.214994331,-0.0311734611,0.254784,0.257595833,-0.118747133,0.273231,0.245106962,-0.0792428312,0.264037,0.239098477,-0.0591437899,0.259333,0.233271622,-0.0395385318,0.255057,0.284123311,-0.129753102,0.277447,0.277026229,-0.097888262,0.27007,0.274508314,-0.0835157649,0.266681,0.273272471,-0.0694095298,0.26369
0.25476335,-0.205230047,0.287969,0.245749155,-0.159483355,0.27931,0.231898788,-0.191676296,0.283366,0.206280521,-0.1657415,0.277446,0.179449049,-0.13930356,0.264571,0.16883053,-0.12103439,0.26144,0.211881855,-0.112657275,0.26797,0.204674534,-0.0765313436,0.264675,0.201469781,-0.0581129055,0.263028,0.198529475,-0.0411000567,0.26153,0.236629003,-0.11477805,0.270717,0.224993688,-0.0739354896,0.263088,0.219060317,-0.0500428284,0.258638,0.215329793,-0.0314997858,0.255459,0.257787416,-0.118891077,0.273576,0.245441472,-0.0794047559,0.264513,0.239512192,-0.0592971549,0.259876,0.233422324,-0.039845859,0.255661,0.284310293,-0.12991375,0.278137,0.277436676,-0.0980591155,0.270623,0.27483413,-0.0836360131,0.267171,0.273139858,-0.0696294333,0.264124
0.254996557,-0.205406833,0.288341,0.245902783,-0.159677923,0.27974,0.232085848,-0.191886417,0.283726,0.206430705,-0.165994021,0.277831,0.179541013,-0.139562896,0.264917,0.169017352,-0.121424452,0.262014,0.21193376,-0.112941122,0.26843,0.20492499,-0.0768496114,0.26522,0.20181896,-0.0584417656,0.263615,0.198969837,-0.0414373074,0.262156,0.236619222,-0.1150282,0.27121,0.224874878,-0.0741708037,0.2635,0.218816835,-0.0502793507,0.259002,0.215104906,-0.0317121688,0.25579,0.257805298,-0.119093931,0.274091,0.245401094,-0.0795798121,0.264874,0.239468087,-0.0594648161,0.260158,0.233442893,-0.0399721703,0.25587,0.284384858,-0.130059847,0.278671,0.277377077,-0.098128474,0.2711,0.274672433,-0.08366078,0.267621,0.272993414,-0.0696358156,0.264551
0.255498588,-0.206235629,0.289377,0.245628212,-0.161766532,0.280757,0.232473995,-0.192681641,0.284662,0.206368218,-0.167464745,0.278649,0.180156813,-0.140520814,0.26616,0.169561493,-0.122318413,0.263165,0.211795572,-0.114911695,0.269328,0.20532882,-0.0790404589,0.266614,0.202535824,-0.0607079559,0.265257,0.199968673,-0.0437493093,0.264024,0.236792104,-0.116018811,0.272235,0.224982684,-0.0751313025,0.264457,0.218822499,-0.0512358204,0.25992,0.214399905,-0.033949262,0.256679,0.258093233,-0.120093334,0.275224,0.245518505,-0.0804107274,0.265535,0.239496258,-0.0602472765,0.260577,0.234322768,-0.041859224,0.256071,0.284857822,-0.131084236,0.279937,0.277836431,-0.0990205325,0.272296,0.275129734,-0.0845033489,0.268786,0.272844206,-0.0717301073,0.265688
0.254962982,-0.20727511,0.28962,0.245647915,-0.162221341,0.28108,0.232041205,-0.193696198,0.284942,0.206605335,-0.167997627,0.279196,0.180399415,-0.141084364,0.266831,0.170145971,-0.122892597,0.264108,0.211947461,-0.115478818,0.269758,0.205584194,-0.0795887362,0.267076,0.202821846,-0.061256389,0.265735,0.200282879,-0.0443026998,0.264516,0.236938315,-0.116596994,0.272654,0.22508854,-0.0756718374,0.264798,0.218902431,-0.0517695591,0.260216,0.214461349,-0.0344763049,0.256943,0.258232831,-0.120680546,0.27563,0.245690563,-0.0809369584,0.265822,0.239663096,-0.0607526265,0.260804,0.234551506,-0.0423749488,0.256242,0.284975678,-0.131679645,0.280318,0.278014392,-0.0995801745,0.272634,0.275366207,-0.0850646046,0.269103,0.273213769,-0.0723393987,0.265988
0.25469909,-0.208536039,0.290172,0.245866128,-0.16271883,0.28157,0.232116076,-0.19513723,0.285847,0.206525394,-0.168204338,0.279269,0.181285037,-0.142151875,0.268454,0.171634824,-0.12412075,0.266455,0.212496896,-0.116166368,0.270647,0.206729045,-0.0803933143,0.268668,0.204242152,-0.0620572826,0.267679,0.201949379,-0.0450611781,0.266779,0.237147159,-0.117104941,0.273095,0.226052627,-0.0764014577,0.266106,0.220291511,-0.0525124409,0.262029,0.216147774,-0.0351643464,0.259117,0.258113441,-0.121042021,0.275708,0.246323853,-0.0815219169,0.266588,0.240656969,-0.0613760448,0.261922,0.235925862,-0.04300481,0.25768,0.284408776,-0.131849563,0.279972,0.278529475,-0.100161695,0.27327,0.276409026,-0.0857784393,0.270191,0.274789545,-0.0731683002,0.267474
0.254612058,-0.208897521,0.290431,0.245843759,-0.163157825,0.281853,0.231823573,-0.195307111,0.285815,0.207105246,-0.169026177,0.280286,0.18096662,-0.142191605,0.268105,0.171121256,-0.1239952,0.26568,0.212268228,-0.116539182,0.270599,0.206089609,-0.0806070388,0.267971,0.203381336,-0.0622708265,0.266657,0.200893289,-0.0453227376,0.265463,0.237202037,-0.117652543,0.273416,0.225340259,-0.0766798809,0.26549,0.219140791,-0.0527677521,0.260867,0.214689705,-0.0354593449,0.257565,0.258449253,-0.121736306,0.276331,0.246070987,-0.0819209323,0.266418,0.240084853,-0.0617056555,0.261346,0.235135897,-0.0433490023,0.256736,0.285128349,-0.132739551,0.280953,0.278341028,-0.100603195,0.273253,0.275831808,-0.0861009183,0.269715,0.273948762,-0.0734715579,0.266594
0.255065059,-0.209702043,0.291306,0.246231293,-0.163868931,0.282606,0.23254898,-0.196334539,0.287038,0.207156669,-0.169416967,0.280588,0.182054778,-0.143336895,0.26984,0.172574062,-0.125295082,0.267958,0.212949416,-0.117411747,0.271711,0.207302032,-0.0815454861,0.269682,0.204833791,-0.0631927817,0.268668,0.202560803,-0.0461986862,0.267746,0.237543095,-0.118342352,0.274067,0.226428886,-0.0775714772,0.266996,0.220650343,-0.0536641167,0.262872,0.216493056,-0.036293633,0.259926,0.258465096,-0.122280128,0.276612,0.246861778,-0.0826676697,0.267378,0.241243458,-0.062480141,0.262654,0.236697068,-0.0441274206,0.258359,0.284705044,-0.133097742,0.280808,0.279092744,-0.101384556,0.274159,0.277161806,-0.0870191075,0.271104,0.275877512,-0.0745190705,0.268409
0.254984806,-0.210068194,0.291572,0.246150983,-0.164268666,0.282822,0.232214723,-0.196467293,0.286953,0.207668719,-0.170184598,0.281514,0.181537169,-0.143218011,0.269195,0.171719278,-0.12491969,0.266653,0.212572606,-0.11770084,0.271473,0.206572696,-0.0817203103,0.268867,0.20391134,-0.0633820953,0.267564,0.201467715,-0.0464448523,0.26638,0.237477658,-0.11882962,0.274249,0.225560205,-0.0777924739,0.266194,0.219321919,-0.0538703493,0.261496,0.214841501,-0.0365488757,0.258139,0.258715399,-0.122934979,0.277144,0.246450473,-0.0830118391,0.267036,0.240476045,-0.0627554906,0.261865,0.235676565,-0.0444248523,0.257164,0.28539993,-0.133978918,0.281766,0.27866676,-0.101737738,0.273908,0.276246802,-0.0872321541,0.270297,0.274607756,-0.0747032889,0.267112
0.255434524,-0.210870915,0.292444,0.246539767,-0.164981466,0.283577,0.23295923,-0.19751268,0.288201,0.207724073,-0.170578115,0.281821,0.182658924,-0.144392563,0.270981,0.173214379,-0.126253896,0.268997,0.213283451,-0.118592109,0.272624,0.207746435,-0.0826480932,0.270529,0.205291998,-0.0642871179,0.269482,0.203033129,-0.0473034543,0.268529,0.237823536,-0.119522715,0.274906,0.226654854,-0.0786905479,0.267709,0.220837573,-0.0547751781,0.263511,0.216652148,-0.0373932354,0.260512,0.258710862,-0.123468764,0.277403,0.247251871,-0.0837644894,0.268008,0.241660083,-0.0635397971,0.263201,0.237278973,-0.0452170556,0.258831,0.284920829,-0.134309066,0.281565,0.279530882,-0.10256174,0.274925,0.277768245,-0.0882146584,0.271874,0.276800661,-0.0758306268,0.269183
0.255631478,-0.211465456,0.293027,0.246677936,-0.165526935,0.284044,0.233331923,-0.198244048,0.28899,0.207707585,-0.170911837,0.28203,0.183310974,-0.145197794,0.272071,0.174035775,-0.127099607,0.270295,0.213611912,-0.11927236,0.273287,0.208328179,-0.0833434052,0.271421,0.205977295,-0.0649779801,0.270488,0.203813233,-0.0479832775,0.26964,0.237929625,-0.120095651,0.275286,0.227145575,-0.0793820086,0.268512,0.221542057,-0.0554837543,0.26456,0.217506111,-0.0380788226,0.261737,0.25861055,-0.123956175,0.277559,0.247620287,-0.0843719691,0.268511,0.242241573,-0.0641680786,0.263881,0.238125729,-0.0458695067,0.259673,0.284549963,-0.134688278,0.28147,0.27995224,-0.103224674,0.275507,0.278590265,-0.0889782646,0.272767,0.278064694,-0.076709528,0.27035
0.255549566,-0.21182889,0.29329,0.246606211,-0.165931103,0.284269,0.232813886,-0.198217631,0.288675,0.208484041,-0.171898521,0.283316,0.182415055,-0.144775698,0.270863,0.172615307,-0.126306463,0.268111,0.213033417,-0.119444781,0.272789,0.207308487,-0.0833961881,0.270226,0.204721182,-0.0650538585,0.268944,0.202347257,-0.0481310513,0.267779,0.237882949,-0.120591001,0.275489,0.225889422,-0.0794606642,0.267249,0.219595589,-0.0555250775,0.262442,0.215075547,-0.0381852378,0.259008,0.259094317,-0.124723863,0.278342,0.247021556,-0.0846487027,0.267965,0.241074516,-0.0643309266,0.262656,0.236509005,-0.0460449969,0.257829,0.285771676,-0.135822666,0.282951,0.279153776,-0.103436184,0.274888,0.276883936,-0.088931711,0.271184,0.275623602,-0.0765634398,0.267915
