sluyters/QuantumLeap/src/datasets/gesture/HandGestureDataset_SHREC2017_csv/Gesture9/finger_2/subject_2_essai_2_skeletons_world.csv
Wrist_x,Wrist_y,Wrist_z,Palm_x,Palm_y,Palm_z,thumb_base_x,thumb_base_y,thumb_base_z,thumb_first_joint_x,thumb_first_joint_y,thumb_first_joint_z,thumb_second_joint_x,thumb_second_joint_y,thumb_second_joint_z,thumb_tip_x,thumb_tip_y,thumb_tip_z,index_base_x,index_base_y,index_base_z,index_first_joint_x,index_first_joint_y,index_first_joint_z,index_second_joint_x,index_second_joint_y,index_second_joint_z,index_tip_x,index_tip_y,index_tip_z,middle_base_x,middle_base_y,middle_base_z,middle_first_joint_x,middle_first_joint_y,middle_first_joint_z,middle_second_joint_x,middle_second_joint_y,middle_second_joint_z,middle_tip_x,middle_tip_y,middle_tip_z,ring_base_x,ring_base_y,ring_base_z,ring_first_joint_x,ring_first_joint_y,ring_first_joint_z,ring_second_joint_x,ring_second_joint_y,ring_second_joint_z,ring_tip_x,ring_tip_y,ring_tip_z,pinky_base_x,pinky_base_y,pinky_base_z,pinky_first_joint_x,pinky_first_joint_y,pinky_first_joint_z,pinky_second_joint_x,pinky_second_joint_y,pinky_second_joint_z,pinky_tip_x,pinky_tip_y,pinky_tip_z,
0.29287206,-0.36134489,0.413925,0.28634868,-0.31394713,0.402579,0.2727959,-0.35170649,0.410302,0.23012145,-0.3190506,0.392173,0.1994695,-0.28923857,0.377233,0.18985601,-0.27531033,0.379637,0.25456452,-0.26833702,0.390155,0.26168995,-0.22572561,0.39197,0.26335763,-0.21915276,0.392877,0.27417105,-0.23732768,0.410557,0.27768478,-0.27134697,0.391773,0.26200731,-0.21022176,0.370789,0.2832941,-0.22823862,0.396741,0.29635304,-0.25713344,0.412478,0.29758308,-0.27795749,0.394328,0.2895896,-0.23619287,0.397542,0.29374643,-0.23245137,0.399186,0.30085606,-0.24971469,0.400681,0.32302078,-0.29348615,0.399426,0.30796219,-0.2822895,0.381594,0.30845706,-0.29978492,0.373401,0.31999405,-0.3215861,0.381169
0.2857998,-0.35944832,0.406093,0.28222294,-0.316547,0.40034,0.2653196,-0.34553607,0.400779,0.22760034,-0.3168454,0.387268,0.20051629,-0.28935671,0.376195,0.19673016,-0.27584271,0.380352,0.25338951,-0.27034795,0.389511,0.24194079,-0.22953887,0.389565,0.24115891,-0.22627673,0.389592,0.25409272,-0.2459401,0.406544,0.27924041,-0.2758369,0.39486,0.26702948,-0.22500393,0.38015,0.26026273,-0.19336513,0.371569,0.26880452,-0.17939748,0.384588,0.30128416,-0.28419086,0.399885,0.29201209,-0.23811537,0.386275,0.28754346,-0.21279878,0.379311,0.28430557,-0.19947326,0.372981,0.32868458,-0.3012726,0.406799,0.32430223,-0.24898976,0.399729,0.32330914,-0.22599692,0.39648,0.32349847,-0.22032545,0.393614
0.28476265,-0.35243683,0.398993,0.28201871,-0.30177844,0.390547,0.2648649,-0.33965257,0.395087,0.23483887,-0.31592299,0.381318,0.20211656,-0.29199024,0.367877,0.19221812,-0.28325196,0.374036,0.24639968,-0.26369855,0.379725,0.22305055,-0.21798422,0.363288,0.21402074,-0.2042317,0.35507,0.21732362,-0.2022451,0.367316,0.27102599,-0.26244584,0.382503,0.25547742,-0.21640501,0.365263,0.24763777,-0.18735933,0.355206,0.25353998,-0.18086062,0.36764,0.29267168,-0.26537906,0.385701,0.27970013,-0.22097445,0.370048,0.27309025,-0.19820895,0.362039,0.26784568,-0.18029108,0.354759,0.32078015,-0.27608625,0.391,0.3137481,-0.23561403,0.384295,0.31362674,-0.22659245,0.381215,0.31233049,-0.2150059,0.378496
0.28183214,-0.34609054,0.396063,0.27814253,-0.30049725,0.385208,0.26024715,-0.33402383,0.388945,0.22802523,-0.30731762,0.376614,0.19504636,-0.27452357,0.353645,0.18449363,-0.25648188,0.343951,0.23966889,-0.2533919,0.368567,0.21197397,-0.20591031,0.348163,0.20349038,-0.19435957,0.337962,0.20738278,-0.19461835,0.348328,0.26692873,-0.25650092,0.37487,0.24846152,-0.20850929,0.354007,0.23775532,-0.18113287,0.341837,0.24335856,-0.17241,0.352583,0.29001776,-0.26278574,0.38123,0.27667341,-0.21666631,0.362341,0.26945777,-0.19285637,0.352677,0.26187958,-0.17476198,0.343891,0.3209344,-0.2774289,0.390653,0.31010921,-0.23345839,0.378962,0.30863986,-0.22275232,0.37359,0.30750966,-0.21338481,0.36885
0.28565712,-0.34526366,0.392742,0.28563264,-0.29861901,0.382399,0.26472337,-0.33291087,0.386461,0.23902087,-0.30764565,0.377016,0.20546076,-0.27446535,0.35357,0.19400732,-0.25513292,0.342142,0.24922129,-0.25244933,0.367196,0.22154465,-0.20551347,0.347492,0.21349164,-0.19417439,0.33764,0.21848257,-0.19467702,0.348433,0.27577982,-0.25491212,0.372548,0.25751579,-0.20744438,0.352199,0.24691648,-0.18033328,0.340328,0.25349922,-0.17076719,0.351433,0.29894891,-0.26109925,0.37807,0.28531081,-0.2151439,0.359795,0.2783331,-0.19163583,0.350445,0.27343083,-0.17376698,0.341945,0.32862593,-0.27603121,0.386424,0.31789364,-0.23217247,0.375043,0.31731562,-0.22120109,0.369813,0.31707613,-0.21195404,0.365199
0.2856915,-0.34352709,0.391647,0.28336371,-0.28767719,0.382586,0.26356951,-0.32814473,0.384996,0.23224986,-0.29275763,0.372281,0.20256838,-0.26616401,0.360053,0.19033518,-0.24535384,0.345698,0.24913593,-0.24071229,0.367771,0.22302492,-0.19471319,0.349177,0.21583923,-0.18459382,0.339881,0.2216003,-0.18550602,0.350993,0.27634154,-0.24483357,0.373957,0.26070678,-0.19839324,0.355085,0.25160608,-0.17170269,0.344076,0.25922935,-0.16163413,0.355572,0.29986338,-0.25230979,0.380027,0.28310732,-0.20333424,0.36514,0.27910106,-0.18790875,0.357523,0.27791114,-0.19083255,0.350599,0.32953487,-0.26866861,0.388777,0.31893087,-0.22421621,0.376194,0.31779531,-0.21172944,0.370413,0.31713913,-0.20189707,0.365312
0.28401618,-0.33189429,0.38569,0.28010736,-0.2744351,0.379074,0.26185032,-0.31247417,0.378548,0.2262893,-0.27620642,0.362145,0.20096407,-0.25678384,0.358851,0.18898911,-0.23799192,0.350268,0.24731395,-0.22841008,0.365279,0.22296013,-0.18386565,0.348466,0.21654774,-0.1744148,0.34006,0.22284512,-0.17513667,0.351638,0.27533225,-0.2335829,0.372773,0.26192568,-0.18865828,0.356282,0.25411191,-0.16262661,0.346663,0.26239618,-0.15215622,0.358745,0.29940261,-0.24174189,0.379657,0.28231651,-0.192921,0.364068,0.27801982,-0.1772547,0.356092,0.27766069,-0.17853332,0.348841,0.32935393,-0.25860252,0.388891,0.31813899,-0.2148255,0.376468,0.31663473,-0.20118332,0.37076,0.31684228,-0.19969712,0.365724
0.28492957,-0.32336909,0.385555,0.27685988,-0.26527757,0.378014,0.25993966,-0.3024273,0.377861,0.22538556,-0.26938539,0.365274,0.19811006,-0.24670185,0.357564,0.18685438,-0.22748808,0.346054,0.24248971,-0.21945022,0.362872,0.21695124,-0.17511704,0.345132,0.21076618,-0.1663045,0.336262,0.21864125,-0.17018917,0.347391,0.27072674,-0.22420517,0.370832,0.25642575,-0.17951131,0.353448,0.24808956,-0.15355873,0.343308,0.25771218,-0.14664538,0.354972,0.29510113,-0.232039,0.378199,0.2760865,-0.18311815,0.361432,0.27144776,-0.16768512,0.352854,0.27033353,-0.17364493,0.345055,0.32563314,-0.24853999,0.388169,0.31324719,-0.20490273,0.375346,0.31161873,-0.19132819,0.369455,0.3113327,-0.18755702,0.364257
0.29064554,-0.30903861,0.386336,0.28789128,-0.25589101,0.379803,0.26448242,-0.29257957,0.375966,0.23597724,-0.25936029,0.36038,0.20458452,-0.23485504,0.347041,0.19410785,-0.21378713,0.333419,0.24987,-0.21050128,0.361861,0.22251737,-0.16998986,0.347975,0.22032866,-0.15877412,0.341031,0.23670446,-0.1705216,0.352522,0.27949401,-0.21566921,0.373582,0.26714537,-0.17124835,0.357738,0.25995196,-0.14543894,0.348495,0.26795062,-0.13360009,0.359518,0.30508356,-0.22371683,0.383938,0.28999886,-0.17834631,0.373306,0.28779185,-0.15767529,0.367866,0.28865101,-0.1418337,0.362921,0.33720391,-0.24017407,0.397186,0.32259458,-0.19914989,0.386913,0.3237607,-0.18526721,0.382193,0.32755881,-0.18081465,0.378028
0.29651552,-0.29250199,0.385357,0.28749179,-0.23520483,0.379274,0.27026767,-0.26684505,0.374758,0.23550815,-0.23871328,0.360039,0.20457255,-0.21503769,0.347505,0.19419539,-0.19434557,0.334364,0.24940484,-0.19040579,0.361339,0.22292751,-0.15135095,0.348696,0.22088936,-0.13985983,0.342375,0.2372546,-0.15030855,0.354165,0.27942043,-0.19559574,0.37348,0.26709499,-0.15139343,0.357956,0.25991426,-0.12567763,0.348899,0.26776978,-0.11281,0.35988,0.30535682,-0.20360541,0.384134,0.29025353,-0.15873376,0.373501,0.28789838,-0.13778621,0.36806,0.28856133,-0.12144226,0.363115,0.33787648,-0.21994749,0.397643,0.32220694,-0.17904417,0.38603,0.32333541,-0.16579417,0.380694,0.32671895,-0.163225,0.375986
0.29649475,-0.27698667,0.38533,0.28741827,-0.22498252,0.379177,0.27012848,-0.26160073,0.374565,0.23555721,-0.22859922,0.360114,0.20466616,-0.20510959,0.347664,0.19431155,-0.18445309,0.334564,0.24915567,-0.18033314,0.360978,0.22301446,-0.14189968,0.348832,0.22113711,-0.13020894,0.342759,0.23757615,-0.13996209,0.354645,0.27929848,-0.1855076,0.373317,0.26700769,-0.1413584,0.357839,0.2598487,-0.11567058,0.348811,0.26765222,-0.10228731,0.359722,0.30536317,-0.19349375,0.384142,0.29026596,-0.14889547,0.373517,0.2879148,-0.12781527,0.368081,0.28858041,-0.11122344,0.363139,0.33806256,-0.20979927,0.397862,0.32219692,-0.16922785,0.386018,0.32323519,-0.15575976,0.380576,0.32653473,-0.15291638,0.375774
0.29273936,-0.26985652,0.381188,0.28645944,-0.22081944,0.37852,0.26721102,-0.25067723,0.371822,0.23469816,-0.22017557,0.360441,0.20411118,-0.19607716,0.347855,0.1937418,-0.17524925,0.33482,0.25100785,-0.17418549,0.364509,0.22507295,-0.13447276,0.350861,0.221465,-0.12118711,0.344037,0.23678591,-0.1300653,0.355605,0.28104705,-0.17927757,0.375978,0.26429974,-0.13654186,0.363708,0.26123953,-0.11453099,0.356551,0.27494838,-0.1113605,0.368831,0.3066826,-0.18703545,0.385711,0.29044773,-0.14193844,0.373951,0.2859743,-0.11985902,0.367934,0.28482418,-0.10217213,0.362464,0.33821724,-0.20277954,0.39751,0.31453814,-0.16318962,0.384398,0.31558205,-0.15531389,0.378374,0.32130531,-0.16218953,0.373058
0.28887043,-0.25253368,0.37713,0.28422472,-0.20247908,0.375755,0.26326199,-0.23729863,0.367023,0.2320841,-0.20300249,0.354429,0.20144251,-0.17843244,0.341162,0.19210233,-0.15714618,0.328343,0.24941924,-0.15958544,0.361657,0.22403525,-0.12096661,0.349166,0.22202595,-0.10674607,0.342921,0.23848734,-0.1138044,0.35435,0.27987431,-0.16551589,0.374446,0.26374639,-0.1242381,0.363637,0.26221914,-0.10175541,0.357332,0.27652649,-0.10202271,0.369527,0.30575587,-0.17388326,0.385125,0.29031563,-0.12984984,0.374678,0.28684141,-0.10766115,0.369333,0.28700716,-0.089428825,0.364474,0.33741525,-0.19019305,0.39778,0.31387974,-0.15194824,0.385554,0.31626389,-0.14322344,0.379937,0.32297302,-0.15124007,0.37498
0.28746344,-0.23869154,0.374799,0.28311053,-0.18974867,0.374282,0.26213166,-0.22360864,0.364845,0.23154322,-0.1905418,0.353603,0.20114315,-0.16635437,0.340655,0.19191686,-0.14521891,0.328026,0.24894337,-0.14757741,0.360967,0.22407118,-0.10969957,0.349222,0.22230306,-0.095260647,0.343349,0.2389201,-0.1015128,0.354993,0.27938399,-0.1533806,0.37379,0.26396688,-0.11294739,0.363941,0.26285243,-0.090375994,0.358195,0.2789259,-0.086766684,0.370645,0.30518425,-0.161592,0.384405,0.29037297,-0.11822579,0.374752,0.28721343,-0.096059817,0.369812,0.28767492,-0.077639089,0.365322,0.33660433,-0.17762308,0.396824,0.31376333,-0.14030622,0.385411,0.31645618,-0.13143489,0.380168,0.32058505,-0.13810827,0.375541
0.28553749,-0.22861527,0.377262,0.28095293,-0.17980738,0.376037,0.26129154,-0.21362119,0.368382,0.22831554,-0.18448096,0.363759,0.20020963,-0.15938954,0.350425,0.1865872,-0.13967506,0.342601,0.25049205,-0.13655777,0.363639,0.22793014,-0.098455706,0.35157,0.22459103,-0.082219238,0.345535,0.23658998,-0.076497753,0.357684,0.2801707,-0.1429668,0.37487,0.26733714,-0.10223698,0.364203,0.26757408,-0.081023281,0.35798,0.28378612,-0.078731307,0.370809,0.30502909,-0.15174977,0.38425,0.28953968,-0.10788522,0.373024,0.28611415,-0.085849217,0.36728,0.28550858,-0.072432412,0.362058,0.33479104,-0.16856593,0.395369,0.31447828,-0.13093629,0.384103,0.31554009,-0.11952575,0.378927,0.31924952,-0.12216054,0.374359
0.28234398,-0.21751679,0.37931,0.2792224,-0.1667168,0.376769,0.25859433,-0.20231996,0.370842,0.2279719,-0.17395795,0.367659,0.19880448,-0.15147135,0.357262,0.18758687,-0.13159721,0.344676,0.24791436,-0.12379323,0.364012,0.22485703,-0.086189354,0.351397,0.22291541,-0.073482999,0.345089,0.23628363,-0.074348351,0.357348,0.27718215,-0.12936008,0.374348,0.26781241,-0.086045955,0.36329,0.26280743,-0.061032034,0.35684,0.27255165,-0.045309568,0.369835,0.30182796,-0.13749359,0.383133,0.28952942,-0.097164265,0.375465,0.28911072,-0.076025023,0.371542,0.29173958,-0.06038558,0.367976,0.33160659,-0.15363913,0.393808,0.31064668,-0.1165242,0.381884,0.31137629,-0.10598201,0.376406,0.31442866,-0.10957005,0.371572
0.28081325,-0.20473796,0.377757,0.277703,-0.1559028,0.375534,0.25691011,-0.19013183,0.369902,0.22630979,-0.16502772,0.367044,0.19659136,-0.14245656,0.355879,0.18549782,-0.12216249,0.342831,0.24544172,-0.11496241,0.363794,0.2231737,-0.076799761,0.351376,0.22109848,-0.064227404,0.345167,0.23412426,-0.062341244,0.357708,0.27444414,-0.1197366,0.373417,0.26528436,-0.076513432,0.362364,0.25994495,-0.051457014,0.355916,0.2713185,-0.040301424,0.369136,0.29906715,-0.12707894,0.381581,0.28913299,-0.086031463,0.374994,0.28763847,-0.064043627,0.371624,0.28814497,-0.044827247,0.36856,0.32923617,-0.14211005,0.391476,0.3102346,-0.10668097,0.380614,0.31089592,-0.095813142,0.375623,0.31344419,-0.099467828,0.37122
0.27551464,-0.19666748,0.370203,0.27605424,-0.15135071,0.372611,0.25252857,-0.17775111,0.363037,0.22551366,-0.15411469,0.363287,0.19777952,-0.13051724,0.353144,0.18877616,-0.10970063,0.341033,0.24813509,-0.10818855,0.364913,0.22857943,-0.073547095,0.357207,0.22836996,-0.058665376,0.353353,0.24275592,-0.053238734,0.367171,0.27711478,-0.11413113,0.374904,0.27224051,-0.072516926,0.3691,0.26939946,-0.048364124,0.365715,0.27317056,-0.030954743,0.36888,0.30064129,-0.12485834,0.382872,0.29292746,-0.082277187,0.377562,0.29292109,-0.060351518,0.374846,0.29310419,-0.043103902,0.372376,0.32960215,-0.13991905,0.391668,0.31252586,-0.10558258,0.383046,0.31458,-0.094623582,0.379084,0.31821412,-0.09822327,0.375589
0.27825299,-0.18918573,0.371584,0.27772331,-0.14510415,0.373704,0.25554032,-0.17615229,0.366021,0.22588914,-0.15282251,0.363311,0.1996402,-0.13390221,0.358607,0.18596796,-0.11586426,0.349575,0.2490456,-0.10731829,0.367897,0.22906325,-0.074731114,0.361143,0.22548056,-0.063444196,0.357766,0.23527627,-0.05465501,0.372449,0.27598241,-0.10816451,0.375723,0.26664209,-0.066275297,0.368907,0.26235777,-0.041256428,0.364931,0.25992384,-0.023128681,0.362091,0.2996275,-0.11342681,0.381938,0.29143635,-0.073730682,0.37716,0.28985133,-0.051691531,0.374715,0.29013576,-0.032503594,0.372492,0.32831899,-0.12551381,0.388755,0.31335437,-0.090845731,0.380309,0.31428799,-0.081324629,0.376428,0.31669062,-0.09131158,0.373004
0.27887059,-0.18717208,0.372941,0.27712381,-0.14020718,0.374512,0.25673188,-0.17151081,0.368054,0.22685078,-0.1516215,0.367312,0.1977609,-0.13350219,0.36014,0.18518798,-0.11390298,0.349376,0.24767678,-0.10384804,0.369214,0.22731073,-0.073003601,0.362634,0.22549674,-0.061504642,0.359344,0.23514756,-0.052775354,0.374311,0.27507142,-0.10615406,0.376008,0.26552754,-0.064020368,0.368637,0.2610655,-0.038932165,0.364336,0.25845781,-0.020800045,0.361265,0.29812847,-0.11123329,0.381434,0.28972071,-0.071058184,0.375906,0.28782785,-0.0489576,0.373078,0.2877237,-0.02984347,0.370507,0.32606763,-0.12315494,0.387436,0.31149401,-0.088172863,0.378752,0.31209262,-0.07870072,0.374761,0.31371136,-0.085048989,0.37124
0.27898639,-0.18579054,0.373415,0.27673662,-0.13956432,0.374641,0.25679869,-0.17076651,0.368767,0.22687602,-0.15148952,0.368361,0.19703993,-0.13254878,0.359784,0.18428075,-0.11284311,0.348108,0.24746102,-0.1030578,0.369419,0.22682892,-0.071855029,0.36221,0.22473504,-0.060428606,0.358606,0.23422199,-0.051769997,0.373473,0.27460493,-0.10525947,0.375808,0.26489528,-0.062986259,0.368078,0.26019204,-0.037837431,0.363568,0.25732768,-0.019621466,0.360347,0.2974409,-0.11027621,0.380938,0.28940412,-0.071062779,0.376203,0.28780549,-0.049070833,0.373781,0.28804478,-0.030345615,0.371579,0.32511242,-0.12215919,0.386661,0.31060546,-0.086974508,0.377778,0.31031248,-0.074873356,0.373697,0.31168959,-0.079748522,0.370096
0.27777711,-0.18133742,0.372812,0.27479335,-0.13719833,0.374382,0.25582872,-0.16942274,0.368717,0.22417767,-0.14224246,0.366583,0.19835846,-0.11898529,0.358406,0.18644343,-0.10130206,0.355067,0.24681996,-0.10064481,0.370113,0.229098,-0.068221526,0.36412,0.22679803,-0.050445169,0.361123,0.23650068,-0.04172563,0.37644,0.27359255,-0.10284483,0.375876,0.26449783,-0.060651016,0.368584,0.2599408,-0.03549728,0.36433,0.25705519,-0.01720362,0.361291,0.29600682,-0.10786897,0.380453,0.28876819,-0.069606736,0.376807,0.2873824,-0.047677194,0.374942,0.28769057,-0.028822936,0.373246,0.32297737,-0.11976705,0.385471,0.30954461,-0.084480582,0.377026,0.30956185,-0.073647699,0.373146,0.31095833,-0.077939231,0.369722
0.27609653,-0.18003969,0.372192,0.27375706,-0.13637865,0.374106,0.25448921,-0.16817138,0.368434,0.2227415,-0.13950465,0.364994,0.19849272,-0.1170959,0.359161,0.18978547,-0.10242882,0.361093,0.2467759,-0.099745983,0.37051,0.23010279,-0.064651905,0.363422,0.22620724,-0.048851036,0.359878,0.23498542,-0.037729307,0.374929,0.27333624,-0.10212792,0.375928,0.26497837,-0.060023851,0.369055,0.26084595,-0.034251583,0.365046,0.25817251,-0.016534424,0.362182,0.29547339,-0.10729314,0.380184,0.28835901,-0.068921673,0.376496,0.28697022,-0.046957827,0.37461,0.28785877,-0.028859082,0.372895,0.32194394,-0.11933195,0.384764,0.30924299,-0.084131111,0.376694,0.30934212,-0.072996222,0.372986,0.31075937,-0.07698776,0.369715
0.27565267,-0.17933993,0.373138,0.2714049,-0.13349142,0.374032,0.2513132,-0.16393275,0.367898,0.22075606,-0.1359383,0.364165,0.1977476,-0.11336197,0.359345,0.189939,-0.097395689,0.359334,0.24402631,-0.095558111,0.367814,0.22680475,-0.053419802,0.358992,0.22060494,-0.034166952,0.35458,0.22631475,-0.017089871,0.368836,0.27163551,-0.098968569,0.374883,0.2634928,-0.056911418,0.366928,0.25922823,-0.031919357,0.362287,0.25646023,-0.013703425,0.358973,0.29478063,-0.10503804,0.380608,0.28779022,-0.067028999,0.375993,0.28623012,-0.045820319,0.373631,0.28611266,-0.026696469,0.371485,0.32344468,-0.11936668,0.387085,0.31144072,-0.084673222,0.381839,0.30466488,-0.068326436,0.379429,0.30503654,-0.058196676,0.377302
0.27438378,-0.17820605,0.372581,0.27095032,-0.13290235,0.373943,0.25023604,-0.16292674,0.367433,0.22076339,-0.13578793,0.364763,0.19768298,-0.11285527,0.359585,0.18873434,-0.095219113,0.356426,0.24406434,-0.095012316,0.368163,0.22722777,-0.053635874,0.359752,0.22123805,-0.034344927,0.355547,0.22710715,-0.017211899,0.369917,0.27168457,-0.098528153,0.37524,0.26405602,-0.056692288,0.367853,0.26006005,-0.031814429,0.363544,0.25750255,-0.013627325,0.360466,0.29478243,-0.10467361,0.380922,0.28809463,-0.066842054,0.376692,0.28677004,-0.045550258,0.374529,0.28655909,-0.025288424,0.372562,0.32323779,-0.11900835,0.38726,0.31117659,-0.085189907,0.382826,0.30554633,-0.068816429,0.380789,0.30627185,-0.058683891,0.378991
0.27382523,-0.17760274,0.372728,0.27084756,-0.1326807,0.374146,0.24963739,-0.1623261,0.367353,0.22108178,-0.1359412,0.365584,0.19811825,-0.11270911,0.360293,0.18660562,-0.090750534,0.350434,0.24389749,-0.094713505,0.368109,0.22708851,-0.053893508,0.35959,0.22110141,-0.034599865,0.355331,0.22694973,-0.017484366,0.369602,0.27171576,-0.098370786,0.375497,0.26414155,-0.056668457,0.368113,0.26022906,-0.031812117,0.363805,0.25777879,-0.013659794,0.360728,0.294991,-0.10463145,0.381429,0.28824128,-0.067445691,0.376994,0.28676894,-0.045438337,0.374726,0.28646155,-0.025220542,0.372664,0.3236089,-0.11900551,0.388046,0.30892266,-0.086405686,0.38388,0.30631,-0.069370416,0.381966,0.30714689,-0.059180134,0.380277
0.2733516,-0.17560522,0.373617,0.27090299,-0.13080298,0.375699,0.25001982,-0.16192838,0.368513,0.22228396,-0.13496315,0.367596,0.19754883,-0.11007568,0.358417,0.18523466,-0.089289697,0.348336,0.24488323,-0.092434915,0.370465,0.22905168,-0.052929152,0.363106,0.22126719,-0.027749573,0.359426,0.21475929,-0.0083643413,0.356081,0.27208529,-0.092090688,0.377682,0.26626125,-0.05442261,0.371806,0.26278336,-0.028421243,0.368378,0.26106479,-0.010746238,0.36593,0.29499028,-0.09856779,0.3834,0.28712149,-0.060148386,0.377906,0.28670565,-0.042286987,0.375095,0.28619311,-0.023933852,0.37254,0.32190261,-0.11244356,0.389646,0.30592664,-0.076061867,0.381838,0.30347862,-0.065709667,0.37825,0.30352763,-0.057865491,0.375085
0.27163467,-0.17377751,0.37377,0.26902052,-0.12634693,0.375794,0.24778173,-0.15913533,0.368623,0.22224619,-0.13080863,0.368565,0.19585058,-0.10848463,0.356459,0.18334036,-0.088020995,0.348065,0.24288949,-0.086964593,0.370466,0.2270913,-0.047123885,0.363053,0.22050466,-0.02640363,0.359347,0.21438721,-0.0069522631,0.355978,0.27054904,-0.090809226,0.377723,0.2638984,-0.04903324,0.371643,0.26013635,-0.024549525,0.368097,0.25767851,-0.0067166183,0.365564,0.293423,-0.097357581,0.38348,0.28554138,-0.058189516,0.377804,0.28547018,-0.036917463,0.3749,0.28704766,-0.025586283,0.372259,0.32029299,-0.11130255,0.389783,0.30370334,-0.075390347,0.381379,0.30154134,-0.060037044,0.377517,0.30265022,-0.057274914,0.37411
0.27371129,-0.17376637,0.376551,0.26954328,-0.1246894,0.376797,0.24986346,-0.15919443,0.371372,0.22429084,-0.13128726,0.371428,0.19403047,-0.10710359,0.353502,0.18507246,-0.090571668,0.351782,0.23945959,-0.084594998,0.370218,0.22461644,-0.045071156,0.362982,0.21872344,-0.024271563,0.359364,0.21429332,-0.006365123,0.356075,0.26483621,-0.08498507,0.377031,0.25662238,-0.043504811,0.370318,0.25184859,-0.019502208,0.366403,0.25240386,-0.0037475766,0.363606,0.28773673,-0.089432781,0.382615,0.2814577,-0.047314703,0.376465,0.27994403,-0.024627746,0.373318,0.28198898,-0.0086204114,0.370458,0.31562202,-0.10085483,0.38905,0.31908708,-0.067778837,0.392102,0.32130253,-0.05183622,0.393504,0.32326,-0.037728524,0.394741
0.27319707,-0.17197331,0.376676,0.26986751,-0.12400442,0.377438,0.25001263,-0.15832479,0.371324,0.22446264,-0.13082959,0.371212,0.19306996,-0.10376939,0.351864,0.18461115,-0.088534384,0.351346,0.23930625,-0.08471338,0.370984,0.22486142,-0.045344255,0.36419,0.21913454,-0.024524829,0.360793,0.215101,-0.0064126644,0.357706,0.26548599,-0.085620832,0.378163,0.25747587,-0.044302247,0.371943,0.25282064,-0.02038732,0.368315,0.25300087,-0.0036734696,0.365723,0.2885998,-0.090113326,0.383992,0.28226287,-0.048645368,0.37836,0.28068213,-0.026121349,0.375479,0.28267853,-0.0095760341,0.372859,0.31671515,-0.10156244,0.390616,0.31944423,-0.068428377,0.392901,0.32161104,-0.052152247,0.39395,0.32371636,-0.037533488,0.394877
0.27309552,-0.17044084,0.377367,0.26988933,-0.12349401,0.37766,0.25053114,-0.15789719,0.371892,0.22500813,-0.13089254,0.371917,0.19366598,-0.10610859,0.352905,0.18439094,-0.088375663,0.35157,0.23866153,-0.084553888,0.370726,0.22409139,-0.044991516,0.363577,0.21908248,-0.024952613,0.360002,0.21542222,-0.008354422,0.356752,0.26509962,-0.085533599,0.377938,0.25662638,-0.044149903,0.371237,0.25170497,-0.02024229,0.367327,0.25148241,-0.0033298594,0.364535,0.28828153,-0.089989786,0.383845,0.28162971,-0.048266558,0.377799,0.27988323,-0.025680762,0.374705,0.28173377,-0.009230171,0.371893,0.31657512,-0.10142332,0.390647,0.31909534,-0.068203867,0.392799,0.32112652,-0.051933336,0.393787,0.32309317,-0.037333818,0.394659
0.27331284,-0.16917476,0.377992,0.27001663,-0.12320473,0.377966,0.25067202,-0.15677987,0.372471,0.22518436,-0.13082517,0.372077,0.19371841,-0.1059072,0.353075,0.18419861,-0.088242099,0.351704,0.23839498,-0.084500816,0.370758,0.22365202,-0.044784421,0.363246,0.2185649,-0.024687756,0.35949,0.2150001,-0.0081726484,0.356075,0.26498807,-0.085516346,0.377942,0.2561577,-0.044066167,0.37082,0.25103336,-0.02016072,0.366666,0.25048726,-0.0031230426,0.363699,0.28818877,-0.089948708,0.38386,0.28126347,-0.048068569,0.377452,0.27937543,-0.025450418,0.374173,0.28109696,-0.0090518603,0.371193,0.31656292,-0.10137223,0.390734,0.31892807,-0.06809305,0.392757,0.3208691,-0.051821407,0.393687,0.32274648,-0.037229947,0.394507
0.2739723,-0.16805378,0.378747,0.27025063,-0.12306284,0.378385,0.25121918,-0.1558725,0.373187,0.22527318,-0.13075548,0.37213,0.19371206,-0.10571954,0.353123,0.18407816,-0.088151285,0.351875,0.2382928,-0.084492207,0.370897,0.22334348,-0.044643225,0.363,0.21815067,-0.024493546,0.359051,0.21461994,-0.0080337673,0.355462,0.2649881,-0.085527606,0.37804,0.25581942,-0.044006105,0.370487,0.25050242,-0.02010153,0.366082,0.24968143,-0.0029836697,0.362934,0.28820213,-0.0899456,0.383961,0.28099543,-0.047941513,0.377179,0.27896265,-0.02530242,0.373709,0.28054987,-0.0089396357,0.370555,0.31664938,-0.10137156,0.390902,0.31886432,-0.068034354,0.392777,0.3207244,-0.051755811,0.393639,0.32252477,-0.037166067,0.394399
0.27598495,-0.16836637,0.381189,0.27049016,-0.1234691,0.378955,0.25327083,-0.15653595,0.375956,0.22502291,-0.13236975,0.371898,0.19362879,-0.10554282,0.353216,0.18329054,-0.088058416,0.352574,0.23718081,-0.084668083,0.370622,0.22153902,-0.044668683,0.360596,0.21568401,-0.024411137,0.355583,0.21089367,-0.0065281485,0.351026,0.26450798,-0.086217993,0.376827,0.25307473,-0.043876585,0.366798,0.24976039,-0.020263031,0.365233,0.25036743,-0.0031206977,0.364115,0.28658452,-0.089970606,0.382178,0.27711142,-0.047116684,0.372511,0.27216054,-0.024743577,0.367565,0.27397431,-0.010931422,0.363069,0.31464621,-0.10127404,0.388808,0.31729427,-0.067946801,0.391196,0.31947921,-0.051589511,0.392293,0.32159323,-0.036883754,0.393261
0.27711527,-0.16813708,0.382411,0.2705423,-0.12372465,0.379211,0.25394846,-0.15634612,0.376682,0.22480306,-0.1317488,0.371333,0.19349774,-0.10534639,0.353218,0.18281591,-0.088212078,0.353014,0.23631959,-0.084769706,0.369575,0.2210813,-0.04486701,0.360249,0.21540574,-0.024531431,0.355586,0.21067994,-0.0064661031,0.351347,0.26379507,-0.086284921,0.376163,0.25176705,-0.043894692,0.365107,0.24973362,-0.020419656,0.365363,0.25125566,-0.0032293987,0.365546,0.28620094,-0.090229669,0.381933,0.27586438,-0.047074539,0.371249,0.27084108,-0.024623617,0.365783,0.27227267,-0.010863528,0.360814,0.31476878,-0.10170316,0.389231,0.31672822,-0.068002871,0.390751,0.31868543,-0.051486188,0.391449,0.32061451,-0.036645999,0.392065
0.27606653,-0.16673242,0.380713,0.27010713,-0.12379138,0.378752,0.25310376,-0.15530893,0.375216,0.22470676,-0.13112934,0.37093,0.19329605,-0.10499722,0.353036,0.18279855,-0.088359089,0.352956,0.2371836,-0.08523337,0.37026,0.22109911,-0.045084781,0.360473,0.21529029,-0.024616423,0.355579,0.21038512,-0.0063832013,0.35113,0.26415957,-0.086690985,0.376884,0.25298797,-0.044382545,0.367013,0.2471442,-0.020381287,0.361645,0.24587348,-0.0046825264,0.357811,0.28705659,-0.091320183,0.38255,0.27732684,-0.047807379,0.373656,0.27574019,-0.027796635,0.369105,0.27619058,-0.0082610536,0.364968,0.314818,-0.10221357,0.389496,0.31627072,-0.068311834,0.39041,0.3181153,-0.051687462,0.390831,0.31994819,-0.036761038,0.391202
0.27560809,-0.16621243,0.380057,0.2692648,-0.12332627,0.378178,0.25232182,-0.15481019,0.374147,0.22404049,-0.13090151,0.37023,0.19297728,-0.10525396,0.35336,0.18248165,-0.08867087,0.353352,0.23640149,-0.085118911,0.369206,0.21908567,-0.045924154,0.359183,0.21376281,-0.024154735,0.354172,0.20903853,-0.0058349879,0.349616,0.26372756,-0.086735735,0.376389,0.25352193,-0.04480205,0.366812,0.24950941,-0.020925848,0.36391,0.24861138,-0.003307514,0.361837,0.28686334,-0.091738865,0.382507,0.27851228,-0.05194984,0.373719,0.27622454,-0.028641713,0.369222,0.27642044,-0.0092874841,0.365135,0.31522889,-0.10511081,0.389961,0.31509973,-0.068259625,0.388892,0.31618446,-0.052010197,0.388401,0.31761386,-0.036397556,0.387967
0.27515391,-0.16576476,0.378632,0.26842669,-0.12305522,0.376974,0.2520095,-0.15472831,0.373003,0.2234826,-0.13263725,0.36886,0.19314496,-0.107328,0.354174,0.18346039,-0.089609483,0.35499,0.2348531,-0.086805721,0.368517,0.22000741,-0.047028035,0.360916,0.21438648,-0.025920343,0.357115,0.21307931,-0.0085148142,0.35366,0.26199157,-0.088176915,0.375396,0.25248489,-0.045935576,0.366378,0.24949734,-0.021820644,0.364653,0.24926023,-0.0036159491,0.36342,0.28497227,-0.092784764,0.381239,0.27894247,-0.049256101,0.372994,0.27565222,-0.026893884,0.368776,0.27673759,-0.0088309032,0.364941,0.31312784,-0.10457208,0.388332,0.31450281,-0.069790714,0.388802,0.31708278,-0.052461971,0.389017,0.31978677,-0.036838462,0.389484
0.2739567,-0.16612955,0.377533,0.26699643,-0.12536666,0.376006,0.25108874,-0.15518471,0.372191,0.22261205,-0.13267441,0.367967,0.19368562,-0.10701504,0.354973,0.18405808,-0.090122908,0.355855,0.23455253,-0.087005642,0.368012,0.22089042,-0.047776022,0.362157,0.21593188,-0.026728197,0.35923,0.21493978,-0.0095086891,0.356568,0.26148922,-0.088381974,0.374552,0.25246437,-0.046198278,0.365748,0.25095376,-0.022578632,0.364765,0.24987893,-0.0041012342,0.364063,0.28424937,-0.092992971,0.380102,0.28103612,-0.04976707,0.372122,0.27871438,-0.026783889,0.369138,0.27855797,-0.0092173706,0.366425,0.31232916,-0.10567543,0.386831,0.31463328,-0.070916087,0.387712,0.31876905,-0.053631217,0.388117,0.3219253,-0.037951631,0.389613
0.27744171,-0.16932058,0.3829,0.26697222,-0.12573881,0.376146,0.25353919,-0.15770427,0.376393,0.22273136,-0.13334837,0.36883,0.19205727,-0.10824436,0.353443,0.18222094,-0.090062375,0.353,0.23141065,-0.086011891,0.363085,0.21670238,-0.047192545,0.355181,0.21129068,-0.026504312,0.351228,0.20959749,-0.0097580772,0.347635,0.2581679,-0.087471206,0.369714,0.24518898,-0.044979601,0.354801,0.24791814,-0.022378292,0.359726,0.249531,-0.0042998967,0.363243,0.28120154,-0.092255723,0.3759,0.27405886,-0.048585196,0.362567,0.27188847,-0.026482996,0.355746,0.27419153,-0.017181391,0.349545,0.31043268,-0.10535754,0.38435,0.3092139,-0.069776328,0.380554,0.31228518,-0.052989491,0.378809,0.31364374,-0.036905773,0.37727
0.27686779,-0.17107621,0.382674,0.26505892,-0.13715043,0.374428,0.25195513,-0.16040144,0.375194,0.220433,-0.14306238,0.366106,0.18923587,-0.11551887,0.347692,0.17976012,-0.096386033,0.343351,0.22899558,-0.095689312,0.359087,0.21556684,-0.058057576,0.352592,0.21146552,-0.037884007,0.349345,0.20974757,-0.021714746,0.346393,0.25641018,-0.097912927,0.366574,0.24386992,-0.054780312,0.350174,0.24775906,-0.032249158,0.356601,0.25002889,-0.010914293,0.361193,0.28007957,-0.10343268,0.373629,0.27189875,-0.05810889,0.358743,0.27004944,-0.036103014,0.351127,0.27103858,-0.027247283,0.344203,0.30990559,-0.11674968,0.383368,0.30740889,-0.079792048,0.376686,0.30925229,-0.062522722,0.373616,0.31127092,-0.047168576,0.370907
