sluyters/QuantumLeap/src/datasets/gesture/HandGestureDataset_SHREC2017_csv/Gesture9/finger_2/subject_27_essai_3_skeletons_world.csv
Wrist_x,Wrist_y,Wrist_z,Palm_x,Palm_y,Palm_z,thumb_base_x,thumb_base_y,thumb_base_z,thumb_first_joint_x,thumb_first_joint_y,thumb_first_joint_z,thumb_second_joint_x,thumb_second_joint_y,thumb_second_joint_z,thumb_tip_x,thumb_tip_y,thumb_tip_z,index_base_x,index_base_y,index_base_z,index_first_joint_x,index_first_joint_y,index_first_joint_z,index_second_joint_x,index_second_joint_y,index_second_joint_z,index_tip_x,index_tip_y,index_tip_z,middle_base_x,middle_base_y,middle_base_z,middle_first_joint_x,middle_first_joint_y,middle_first_joint_z,middle_second_joint_x,middle_second_joint_y,middle_second_joint_z,middle_tip_x,middle_tip_y,middle_tip_z,ring_base_x,ring_base_y,ring_base_z,ring_first_joint_x,ring_first_joint_y,ring_first_joint_z,ring_second_joint_x,ring_second_joint_y,ring_second_joint_z,ring_tip_x,ring_tip_y,ring_tip_z,pinky_base_x,pinky_base_y,pinky_base_z,pinky_first_joint_x,pinky_first_joint_y,pinky_first_joint_z,pinky_second_joint_x,pinky_second_joint_y,pinky_second_joint_z,pinky_tip_x,pinky_tip_y,pinky_tip_z,
0.233623742,-0.389277031,0.435936,0.252772487,-0.344710588,0.414321,0.225766881,-0.363717251,0.431883,0.201571537,-0.353410203,0.410685,0.189898959,-0.324534461,0.398424,0.194502979,-0.304379243,0.396355,0.251473713,-0.28614755,0.394365,0.220714204,-0.268409403,0.367307,0.198049572,-0.27136959,0.353778,0.175850883,-0.27341488,0.341829,0.26663193,-0.306013137,0.393735,0.252760617,-0.27065629,0.362481,0.220103926,-0.271690427,0.34425,0.207178775,-0.291366439,0.350821,0.277750493,-0.327337539,0.395546,0.264440451,-0.291630709,0.368426,0.244750313,-0.289921607,0.35455,0.235457341,-0.311652519,0.361387,0.287990872,-0.36094309,0.401711,0.271923291,-0.326131607,0.376854,0.263455115,-0.311668871,0.365433,0.24705366,-0.312083746,0.355355
0.234095413,-0.392546814,0.437801,0.253137828,-0.350640846,0.416915,0.230028256,-0.365686791,0.433406,0.202928886,-0.356528629,0.411902,0.192073435,-0.328972358,0.401442,0.195323948,-0.306536317,0.396524,0.254802172,-0.293549059,0.39701,0.222592548,-0.275211295,0.370195,0.200262187,-0.275698225,0.356788,0.17768191,-0.280874672,0.344599,0.27027237,-0.314142024,0.397024,0.259408567,-0.283297178,0.366392,0.227061444,-0.282146763,0.348524,0.211517849,-0.299113962,0.355452,0.281427966,-0.33606878,0.399287,0.294085896,-0.302394878,0.371749,0.274504668,-0.297628578,0.35766,0.259907135,-0.31259555,0.364559,0.290827592,-0.367706852,0.405839,0.275554244,-0.332964298,0.381299,0.266932934,-0.319004608,0.370025,0.250890438,-0.320100558,0.360076
0.232872554,-0.394310599,0.436134,0.252397724,-0.363311072,0.41545,0.22551056,-0.370132841,0.431714,0.20291174,-0.354298712,0.410217,0.186951311,-0.333264266,0.39216,0.184035809,-0.313072047,0.380524,0.254841603,-0.30201798,0.395648,0.231201483,-0.283338523,0.368955,0.207706938,-0.281392429,0.355608,0.178882961,-0.280772741,0.343475,0.270431273,-0.322689476,0.39575,0.258983096,-0.292577592,0.365307,0.226219331,-0.291710018,0.347549,0.211879471,-0.309805479,0.354576,0.281661518,-0.344773568,0.398064,0.288936959,-0.314773689,0.370896,0.265894447,-0.311336378,0.356996,0.251282649,-0.327198641,0.364055,0.291579796,-0.37951033,0.404637,0.273300034,-0.34692076,0.380216,0.263528979,-0.333733535,0.368995,0.247173893,-0.335609971,0.359095
0.230277759,-0.396535833,0.432775,0.249172237,-0.363750716,0.41185,0.224389867,-0.374104953,0.430374,0.21385133,-0.35340371,0.41157,0.213467549,-0.322698014,0.401284,0.222195878,-0.299409333,0.395977,0.257216792,-0.307718379,0.394515,0.227425034,-0.288959411,0.369255,0.203644899,-0.289253423,0.356625,0.180010997,-0.293152586,0.345144,0.269068191,-0.327625555,0.391921,0.256817787,-0.290817878,0.361733,0.223767229,-0.289617793,0.344124,0.209504274,-0.307873521,0.351045,0.276849024,-0.348948398,0.39204,0.286680259,-0.318021958,0.365221,0.259299767,-0.312933416,0.3515,0.24563379,-0.324359448,0.358489,0.282152254,-0.382703355,0.396111,0.258444962,-0.353208344,0.372427,0.245845461,-0.341884886,0.361545,0.238090563,-0.332711528,0.35277
0.219956017,-0.40425943,0.423021,0.244408892,-0.374024619,0.405942,0.216096983,-0.380103674,0.422065,0.211736317,-0.358993471,0.406076,0.214414314,-0.328233221,0.398422,0.223183337,-0.302064437,0.394884,0.256589761,-0.316696452,0.393101,0.231261738,-0.297195161,0.371722,0.207856936,-0.295299508,0.361033,0.185173205,-0.300650277,0.351315,0.268078432,-0.335615465,0.389677,0.261273232,-0.29938575,0.363581,0.228153638,-0.295991692,0.348358,0.21425986,-0.314934296,0.357139,0.275279799,-0.355999902,0.388698,0.270066608,-0.32213024,0.36686,0.248256846,-0.322128729,0.355687,0.236936514,-0.345260291,0.364935,0.279395224,-0.388471216,0.390772,0.271469704,-0.347612478,0.370221,0.260156532,-0.339660893,0.360779,0.244410388,-0.344753043,0.352448
0.222087948,-0.402807081,0.424233,0.246539564,-0.369821675,0.407541,0.216673655,-0.382196767,0.422291,0.210998589,-0.357811649,0.405022,0.21072937,-0.326793377,0.395839,0.220035325,-0.301806711,0.392512,0.256854307,-0.312081417,0.393677,0.230265576,-0.294593056,0.371768,0.208169769,-0.296084226,0.360814,0.185721333,-0.301686979,0.350856,0.269818885,-0.329338256,0.391643,0.261138877,-0.29665296,0.36566,0.229743131,-0.297173854,0.350503,0.216538718,-0.317958848,0.359507,0.278368785,-0.350362591,0.391767,0.272644769,-0.322334212,0.369616,0.251652589,-0.322353662,0.358283,0.241220255,-0.345671916,0.367628,0.287001025,-0.384941221,0.395048,0.275774666,-0.34869658,0.37429,0.264251113,-0.341424334,0.364752,0.248719337,-0.34700755,0.356337
0.219051135,-0.404266464,0.418203,0.245760881,-0.370629047,0.403012,0.215666023,-0.38724398,0.417835,0.210546434,-0.357853815,0.4031,0.207439194,-0.327524443,0.393233,0.21741503,-0.303821127,0.389764,0.257858635,-0.317124197,0.392218,0.231536972,-0.298598935,0.372676,0.210061391,-0.300928962,0.362905,0.1881777,-0.307630388,0.354022,0.26939165,-0.335676531,0.388545,0.261757922,-0.299785089,0.364458,0.230885476,-0.300674669,0.350408,0.216837335,-0.319830602,0.360042,0.276593732,-0.355619955,0.387157,0.270910449,-0.321744471,0.367131,0.250484255,-0.322317473,0.356885,0.240408363,-0.346067695,0.366989,0.280640694,-0.387231742,0.388402,0.272539435,-0.34585956,0.369367,0.261149593,-0.339231827,0.360621,0.246002792,-0.345345601,0.352904
0.219842082,-0.406345236,0.418511,0.246522138,-0.371580039,0.403067,0.216815078,-0.388478811,0.418208,0.211033667,-0.359085435,0.403507,0.207746103,-0.328532753,0.393567,0.216895133,-0.30458832,0.389704,0.258454989,-0.317479471,0.392186,0.231469291,-0.299198118,0.372517,0.20926782,-0.302663805,0.362682,0.187360998,-0.309899475,0.353741,0.269962566,-0.335861966,0.388358,0.261434528,-0.300166427,0.364042,0.23020964,-0.300899935,0.349858,0.216416255,-0.320166156,0.359369,0.277195132,-0.35570276,0.386871,0.26923775,-0.324767609,0.366691,0.246617642,-0.325960982,0.356367,0.236744412,-0.349214453,0.366365,0.281368582,-0.387251623,0.388047,0.27237576,-0.346281389,0.368878,0.260695914,-0.33955505,0.36007,0.245419473,-0.345596945,0.352298
0.221253383,-0.408215826,0.419077,0.24968816,-0.374134643,0.402629,0.218691501,-0.389633065,0.418827,0.213214587,-0.363145802,0.403974,0.209181933,-0.332448327,0.394447,0.216105566,-0.309168596,0.389916,0.260173438,-0.317599373,0.391136,0.230587029,-0.298319476,0.370795,0.208154176,-0.300725852,0.360624,0.185760538,-0.308495753,0.351378,0.271460828,-0.335663968,0.386965,0.258704279,-0.300652593,0.361685,0.220700764,-0.305374474,0.346938,0.212167641,-0.323459494,0.355968,0.278685081,-0.355379002,0.385303,0.26671741,-0.325023756,0.364391,0.241520261,-0.328214787,0.353692,0.229897311,-0.352547008,0.36325,0.28314256,-0.387003055,0.386466,0.27244636,-0.344617417,0.366667,0.259758528,-0.337175968,0.357571,0.244181097,-0.342705786,0.349544
0.218605794,-0.402761746,0.412348,0.246896928,-0.368465651,0.396433,0.217279791,-0.3854334,0.413819,0.214826536,-0.36191559,0.40157,0.210887821,-0.33023656,0.395427,0.2186856,-0.308388274,0.392183,0.261406863,-0.314445279,0.387544,0.230282144,-0.294365467,0.369061,0.207751721,-0.296848166,0.35982,0.185647025,-0.305789269,0.351419,0.270840892,-0.330764912,0.381276,0.254563157,-0.295551169,0.357054,0.224220404,-0.294217955,0.342925,0.210556275,-0.315279411,0.351994,0.276499476,-0.348926005,0.37783,0.263750816,-0.317457166,0.358456,0.240707281,-0.319726702,0.348543,0.22940578,-0.343810964,0.358318,0.279122044,-0.378533597,0.376822,0.271803609,-0.335423775,0.35825,0.259709415,-0.325827644,0.349717,0.242641544,-0.332719898,0.342188
0.215059365,-0.392568801,0.404766,0.244719443,-0.358115063,0.387606,0.214122224,-0.374085432,0.406816,0.212694718,-0.346826786,0.395172,0.211087015,-0.316918896,0.38831,0.219526783,-0.293834323,0.384189,0.260046247,-0.301999841,0.378625,0.229925537,-0.280327513,0.359791,0.205425095,-0.281366135,0.350374,0.179944425,-0.285294792,0.342421,0.267302683,-0.317967112,0.371264,0.249845893,-0.281354091,0.346053,0.214309907,-0.27956421,0.331346,0.20147516,-0.298916076,0.33967,0.271094144,-0.335848168,0.367052,0.263930364,-0.29901336,0.347147,0.240113373,-0.29726613,0.336963,0.227333928,-0.318390315,0.346101,0.271380876,-0.365215064,0.365388,0.26398102,-0.321396023,0.346343,0.251920347,-0.310774037,0.337593,0.234945453,-0.316621823,0.329873
0.212402906,-0.38043272,0.399681,0.243554029,-0.339192204,0.384604,0.214036192,-0.360006723,0.398925,0.199472163,-0.33363589,0.383676,0.188452101,-0.311735162,0.370465,0.190828492,-0.290704541,0.361364,0.257357003,-0.284720063,0.373383,0.222526381,-0.27085474,0.353604,0.20027025,-0.266311231,0.343714,0.178034266,-0.263186421,0.334724,0.268373,-0.304086758,0.370246,0.245936579,-0.278110081,0.346164,0.213820057,-0.279127787,0.332117,0.20018434,-0.29973613,0.341828,0.275079003,-0.324612642,0.369286,0.26612383,-0.293551456,0.349106,0.241983996,-0.297271314,0.338781,0.230319489,-0.320384245,0.348915,0.2783197,-0.356735454,0.371007,0.270216272,-0.317355696,0.351863,0.25528724,-0.316166272,0.343067,0.238999281,-0.322376893,0.335306
0.203072031,-0.361539219,0.381509,0.232022019,-0.32380539,0.371987,0.200977919,-0.339080207,0.382453,0.190390803,-0.316434494,0.370995,0.186154741,-0.292600465,0.363642,0.192650047,-0.270505543,0.358843,0.246082185,-0.272893664,0.366751,0.220065624,-0.257069489,0.352464,0.201970612,-0.25197767,0.34532,0.183141161,-0.248600024,0.338826,0.258983773,-0.289156865,0.362919,0.246098484,-0.259310014,0.344864,0.21877462,-0.260138275,0.334332,0.207147194,-0.283113346,0.346335,0.267126083,-0.30700181,0.360789,0.2653831,-0.272399852,0.34603,0.247170845,-0.274886814,0.338478,0.239969903,-0.300714866,0.35091,0.271873751,-0.335989543,0.360107,0.268044671,-0.294794233,0.345525,0.256680128,-0.293569243,0.338825,0.244329389,-0.30344176,0.332914
0.196965727,-0.349947814,0.378852,0.224051532,-0.303537467,0.368036,0.195779564,-0.320186016,0.382368,0.191566544,-0.297989634,0.374307,0.186072543,-0.274286736,0.363641,0.192174419,-0.255669214,0.357829,0.242848183,-0.256528101,0.365273,0.214491177,-0.234367965,0.352254,0.195413376,-0.227956363,0.345745,0.175996347,-0.22386088,0.339827,0.250197959,-0.270236862,0.357736,0.239552698,-0.231198305,0.339204,0.208336812,-0.226201833,0.328394,0.19394216,-0.243365183,0.339496,0.253704098,-0.285858916,0.352695,0.215277081,-0.270609972,0.338621,0.187033,-0.271802465,0.33142,0.171032172,-0.288199713,0.343289,0.252911371,-0.311857316,0.348876,0.263733959,-0.273809586,0.334747,0.251885628,-0.265363185,0.328255,0.233695787,-0.26851092,0.322527
0.20800874,-0.3401459,0.391642,0.22267102,-0.286531605,0.372629,0.201403234,-0.316881708,0.389374,0.182218241,-0.273822093,0.376269,0.154310214,-0.254799942,0.350085,0.145042846,-0.254558405,0.328934,0.213734082,-0.230454897,0.356766,0.196399709,-0.203470821,0.330772,0.185592749,-0.191068035,0.317774,0.171151749,-0.183052624,0.305959,0.230488015,-0.245750904,0.354522,0.205340291,-0.211992628,0.3262,0.190326651,-0.191579025,0.309678,0.179618436,-0.205201507,0.317571,0.243791121,-0.263361154,0.354723,0.242653903,-0.210800529,0.332749,0.223517397,-0.208938034,0.321507,0.21855242,-0.220514317,0.330844,0.258049323,-0.292574244,0.35853,0.257569916,-0.2528115,0.336088,0.249408698,-0.24202654,0.325777,0.232636217,-0.243905046,0.316679
0.224874353,-0.317176896,0.402402,0.226764623,-0.269409458,0.377828,0.216043128,-0.296541919,0.402128,0.190012898,-0.263695271,0.385793,0.160722172,-0.250931431,0.361611,0.151799969,-0.254182301,0.341553,0.216155014,-0.212130603,0.360786,0.18704513,-0.181068908,0.330521,0.171798552,-0.165451467,0.315388,0.155864389,-0.152299423,0.301631,0.228132934,-0.224699647,0.354423,0.191665016,-0.185360635,0.32153,0.169972825,-0.161906266,0.302342,0.153940171,-0.172742833,0.306914,0.238194039,-0.240466499,0.351833,0.237641376,-0.190525359,0.324138,0.213603522,-0.18468356,0.309968,0.202647648,-0.191671204,0.315392,0.250010948,-0.268381088,0.353445,0.258703892,-0.233840589,0.327779,0.258897994,-0.219711324,0.315986,0.245160841,-0.214311964,0.305581
0.262122151,-0.302150068,0.40849,0.245539095,-0.251996884,0.379672,0.246054881,-0.285112559,0.4071,0.208745143,-0.268966143,0.388663,0.171438032,-0.242643637,0.366406,0.154014865,-0.23386136,0.346993,0.213734813,-0.197424667,0.358295,0.183985067,-0.159134092,0.323922,0.167304561,-0.14161838,0.306735,0.150665052,-0.127138402,0.291111,0.229703466,-0.2048673,0.352226,0.211199688,-0.144496427,0.315419,0.179513064,-0.142231575,0.293948,0.172966674,-0.160702632,0.296045,0.245082127,-0.216575429,0.350334,0.235749161,-0.165090635,0.315587,0.218203929,-0.150703026,0.297809,0.211536143,-0.150597169,0.299289,0.26667825,-0.240068499,0.353555,0.262823842,-0.200623028,0.323627,0.251396477,-0.191590201,0.309877,0.23482809,-0.190012522,0.297744
0.26708816,-0.298281486,0.407288,0.251991229,-0.244129259,0.379936,0.251075591,-0.283410664,0.407462,0.217459556,-0.262692509,0.391524,0.179498386,-0.242536485,0.369731,0.158337802,-0.225444875,0.352662,0.21640819,-0.193126745,0.36159,0.192126148,-0.143100161,0.330487,0.168555622,-0.140247419,0.314935,0.146989135,-0.137691776,0.300798,0.232189226,-0.196215252,0.353886,0.20776342,-0.138059215,0.318743,0.178588685,-0.127601153,0.298244,0.167604086,-0.141468805,0.300847,0.247820585,-0.204313019,0.350489,0.235493338,-0.152119404,0.316762,0.217240536,-0.138570198,0.299506,0.210772724,-0.13772724,0.301429,0.270512728,-0.223618006,0.351688,0.265467154,-0.184722078,0.322469,0.251379801,-0.179657466,0.309044,0.235071001,-0.179604386,0.297198
0.273793011,-0.290232862,0.404938,0.257089441,-0.234523132,0.381863,0.252914487,-0.280507052,0.406252,0.219974685,-0.254133608,0.39252,0.181057667,-0.228507008,0.370668,0.160339912,-0.20863531,0.354895,0.221258682,-0.187182675,0.367908,0.19887873,-0.136108669,0.340861,0.179026541,-0.129000333,0.327337,0.160562167,-0.122478846,0.315043,0.238881742,-0.185938364,0.359887,0.222259395,-0.126919591,0.32966,0.198030466,-0.119134224,0.312028,0.191286269,-0.12041557,0.317553,0.255685997,-0.190395831,0.35577,0.24194835,-0.138834871,0.32615,0.226854894,-0.12361439,0.310996,0.224197605,-0.120578795,0.315548,0.279289663,-0.20533487,0.355328,0.267376639,-0.170960907,0.329685,0.253813765,-0.167471153,0.317903,0.239028416,-0.169529019,0.307507
0.276080674,-0.289545687,0.408663,0.261012061,-0.230015711,0.389331,0.256902324,-0.276934365,0.407832,0.217298849,-0.244948809,0.391548,0.179697041,-0.217171608,0.368159,0.160237423,-0.193849563,0.354824,0.226039353,-0.182353962,0.375122,0.200672793,-0.136564546,0.350295,0.184385,-0.121440622,0.337881,0.169114279,-0.107699675,0.326596,0.247174191,-0.18155108,0.37092,0.228358803,-0.124729103,0.342691,0.20828706,-0.110107928,0.326224,0.205556773,-0.105471343,0.333867,0.266525769,-0.186333355,0.369543,0.252806906,-0.137180375,0.343361,0.24166071,-0.118165612,0.329966,0.23000558,-0.103559549,0.317788,0.292475679,-0.201679231,0.371578,0.287202493,-0.161985641,0.349125,0.27628858,-0.157563881,0.338809,0.266576053,-0.153674354,0.329706
0.277720476,-0.281885936,0.408824,0.264222582,-0.221200003,0.391901,0.257833013,-0.270931334,0.408325,0.220268582,-0.234979565,0.393016,0.183151696,-0.206254028,0.371558,0.164727344,-0.183384055,0.360566,0.229656563,-0.175813341,0.379762,0.20419448,-0.131611693,0.356929,0.189279662,-0.113081652,0.345512,0.174915873,-0.0971897635,0.335134,0.25080441,-0.173732969,0.375785,0.228581451,-0.119872996,0.349971,0.210161583,-0.0981110834,0.334912,0.208463727,-0.0873433677,0.343735,0.270152426,-0.177321858,0.374333,0.256040392,-0.129263553,0.350258,0.247106193,-0.106672477,0.337941,0.237115147,-0.0887477794,0.326743,0.296086192,-0.191062787,0.37583,0.291604429,-0.150710703,0.355318,0.281381463,-0.145251745,0.345894,0.272266503,-0.140379405,0.337578
0.277413512,-0.26823918,0.413593,0.26381924,-0.209995314,0.397686,0.253917983,-0.248747559,0.412996,0.219280682,-0.223633912,0.397774,0.181021609,-0.19229486,0.37302,0.162609363,-0.16913816,0.359195,0.233092736,-0.163083956,0.386107,0.209841175,-0.117070495,0.364735,0.195609968,-0.0980104603,0.354049,0.182385474,-0.080127742,0.344335,0.254830882,-0.163507787,0.382536,0.235925676,-0.111095749,0.357683,0.22167123,-0.0843648688,0.343185,0.211364342,-0.0646792612,0.332829,0.274114594,-0.169107344,0.38131,0.265636794,-0.119909494,0.358269,0.256637605,-0.100154828,0.34648,0.248448527,-0.0816944346,0.335763,0.298918815,-0.185027308,0.382877,0.297234569,-0.145285766,0.36323,0.289823875,-0.136251877,0.354202,0.283284869,-0.128069193,0.346237
0.27301492,-0.264330837,0.411672,0.263058709,-0.209750481,0.398822,0.250794538,-0.248111037,0.412048,0.214084393,-0.215920709,0.398927,0.179942916,-0.183628221,0.377749,0.163967732,-0.15934815,0.365133,0.235397129,-0.164479028,0.390587,0.213889495,-0.119158778,0.372629,0.201091168,-0.0977379329,0.36365,0.189485439,-0.0784600272,0.355487,0.256963552,-0.164441651,0.386585,0.241176558,-0.1114791,0.365026,0.228455074,-0.0851901776,0.35245,0.218550127,-0.0664429214,0.343467,0.275722203,-0.169503963,0.384673,0.268609288,-0.121721149,0.364451,0.261499691,-0.100822843,0.354104,0.2548102,-0.0815436522,0.344698,0.299305222,-0.184514808,0.38487,0.298392286,-0.145786341,0.36766,0.291488956,-0.130347057,0.359753,0.287606549,-0.117471188,0.352775
0.275716755,-0.260361461,0.420875,0.269650048,-0.204724533,0.406391,0.255282714,-0.248205828,0.419002,0.222229168,-0.211465386,0.402766,0.187706193,-0.18116449,0.379617,0.167117258,-0.158197529,0.364461,0.238484495,-0.157939709,0.394117,0.214073108,-0.109306443,0.373747,0.200458738,-0.0900447786,0.363562,0.188327981,-0.0750863728,0.354302,0.263268272,-0.160095844,0.392597,0.245799617,-0.105281925,0.368814,0.233441834,-0.0809966153,0.354941,0.222231225,-0.0646903454,0.345031,0.284394245,-0.166905578,0.392906,0.272311046,-0.118148646,0.371415,0.265154816,-0.0995716373,0.36042,0.258518326,-0.079928673,0.350425,0.310214614,-0.183609787,0.395987,0.302471958,-0.148158905,0.377221,0.29797476,-0.132396015,0.368598,0.294065391,-0.118189351,0.36099
0.276742358,-0.256799072,0.419627,0.270186095,-0.202074367,0.406084,0.257385775,-0.246212629,0.419625,0.224877231,-0.211514652,0.405801,0.189360784,-0.181645364,0.383064,0.16950776,-0.158902108,0.368602,0.239310116,-0.157653652,0.396886,0.21645469,-0.109938062,0.37744,0.202986546,-0.090416287,0.367717,0.1904494,-0.0720487246,0.358878,0.260260253,-0.154290858,0.393185,0.241686563,-0.101294132,0.37083,0.227502436,-0.0742738941,0.357789,0.217216722,-0.0543349499,0.348475,0.279727356,-0.157720913,0.391598,0.270576054,-0.109596819,0.370606,0.262334553,-0.0889920376,0.359866,0.255897589,-0.0753689013,0.350103,0.305030604,-0.17079502,0.392301,0.29838482,-0.134792847,0.374537,0.295453664,-0.117768266,0.366375,0.291202839,-0.104908795,0.359174
0.276428101,-0.255898877,0.420092,0.270219418,-0.202423778,0.407404,0.257733433,-0.245657566,0.420898,0.224946049,-0.209677735,0.408428,0.189481009,-0.17643151,0.388408,0.173457895,-0.155700333,0.375307,0.241342488,-0.157348098,0.399839,0.220138206,-0.110457752,0.38183,0.206507802,-0.0911894581,0.372825,0.193622678,-0.0733591447,0.364639,0.262455706,-0.155967947,0.39532,0.2462456,-0.104560629,0.374048,0.231584141,-0.0755541397,0.36164,0.222065101,-0.0550035859,0.352776,0.280998912,-0.159878614,0.392966,0.272139236,-0.111931493,0.372958,0.2642002,-0.0907622347,0.362722,0.255781889,-0.072764606,0.353416,0.304620356,-0.173455189,0.392618,0.298371432,-0.136270529,0.3755,0.295600559,-0.118759885,0.367634,0.291319575,-0.105351664,0.360694
0.276050067,-0.255142019,0.420147,0.270014205,-0.202433178,0.407733,0.25755397,-0.244894427,0.421076,0.224389139,-0.209337219,0.408849,0.189577114,-0.176520995,0.388605,0.173815075,-0.154745437,0.376159,0.242110404,-0.157578496,0.400514,0.221079726,-0.110678435,0.382948,0.207403558,-0.0915744035,0.374165,0.194498869,-0.0737454539,0.366181,0.263106918,-0.156479156,0.39591,0.246693665,-0.10485595,0.374947,0.232816401,-0.0759389408,0.362719,0.223542283,-0.0551914325,0.353985,0.281447801,-0.160612131,0.393457,0.272687127,-0.112722419,0.373779,0.264849602,-0.0913624991,0.363712,0.256477374,-0.0731841264,0.354559,0.304652947,-0.174438525,0.392942,0.29854297,-0.136841228,0.376041,0.295830284,-0.119160906,0.368276,0.291541946,-0.105564524,0.361424
0.279706707,-0.251702745,0.425116,0.270629499,-0.195482965,0.412444,0.261210395,-0.241800794,0.426222,0.226003265,-0.209587307,0.414183,0.190308864,-0.176923709,0.391216,0.174164226,-0.153166023,0.379327,0.241889256,-0.152208785,0.40528,0.222541362,-0.104118199,0.387239,0.207731231,-0.0886117871,0.378219,0.19594552,-0.0742106952,0.370018,0.262607848,-0.150598695,0.400375,0.244685636,-0.0986333407,0.379011,0.230756681,-0.071641837,0.366549,0.224546614,-0.0547315584,0.357647,0.280842292,-0.15430678,0.397702,0.271585265,-0.106640771,0.377685,0.263456805,-0.0852983252,0.367444,0.255583477,-0.0659450604,0.358134,0.304120249,-0.167607257,0.396981,0.299192653,-0.131042772,0.37987,0.297054013,-0.11379258,0.372008,0.29353947,-0.106015141,0.365071
0.280091956,-0.250869643,0.425868,0.270985138,-0.195739853,0.412986,0.26162183,-0.241044406,0.427018,0.226587986,-0.209323095,0.414992,0.190505276,-0.176967331,0.392174,0.173981506,-0.153338232,0.380058,0.242162015,-0.152380418,0.405737,0.222739054,-0.104210692,0.387583,0.207888862,-0.0886790274,0.378506,0.195638517,-0.0741918104,0.370255,0.262832168,-0.150727336,0.400717,0.24480055,-0.0986796631,0.379189,0.230808303,-0.0716578639,0.366631,0.223771035,-0.0541156453,0.357661,0.281032955,-0.154411538,0.397972,0.271630567,-0.10665856,0.377748,0.263425974,-0.0852883432,0.367401,0.255484279,-0.0659194656,0.357995,0.304292618,-0.167702253,0.397206,0.299222583,-0.13105588,0.379908,0.297016483,-0.113778204,0.371961,0.29287516,-0.105611447,0.364948
0.280324254,-0.250236123,0.42634,0.271187892,-0.195886307,0.413295,0.261862082,-0.240455222,0.427499,0.226922229,-0.209149093,0.415447,0.190621305,-0.176991825,0.392745,0.173873,-0.153442538,0.380499,0.242287352,-0.152459286,0.405947,0.222813763,-0.104245652,0.387713,0.207938293,-0.0887001133,0.378596,0.195379073,-0.0741582846,0.370308,0.262932521,-0.150784886,0.40087,0.244821209,-0.0986879908,0.379221,0.230784381,-0.0716504368,0.366593,0.223193434,-0.0536905966,0.357573,0.28112052,-0.15445965,0.398096,0.27161259,-0.106651501,0.377723,0.26335284,-0.0852646649,0.367299,0.255361531,-0.0658877943,0.357823,0.30438608,-0.167753762,0.397328,0.29920683,-0.131048981,0.379888,0.29694781,-0.113751884,0.371875,0.292384054,-0.105325111,0.364805
0.280495218,-0.249758109,0.426689,0.271335528,-0.195992949,0.41352,0.262035098,-0.240007141,0.427848,0.2271542,-0.209041434,0.415767,0.19070029,-0.177009677,0.393129,0.173801615,-0.153512879,0.380795,0.242372104,-0.152512617,0.406089,0.222860888,-0.104267693,0.387795,0.207966853,-0.0887122962,0.378648,0.195187371,-0.0741318273,0.370333,0.263003359,-0.150825509,0.400978,0.24483283,-0.0986926751,0.379239,0.230762347,-0.071643596,0.366558,0.222774822,-0.0533856908,0.3575,0.281185487,-0.154495346,0.398188,0.271598928,-0.106646136,0.377704,0.263299065,-0.0852472544,0.367224,0.25527161,-0.0658645933,0.357697,0.304461156,-0.167795138,0.397426,0.299200529,-0.131046221,0.37988,0.296903094,-0.113734768,0.371819,0.292035363,-0.105121469,0.364705
0.280625925,-0.249384365,0.426957,0.271448387,-0.19607447,0.413692,0.262166972,-0.239656405,0.428115,0.227326672,-0.20897074,0.416008,0.190758506,-0.177024097,0.393407,0.173750883,-0.153563351,0.381007,0.242434773,-0.152552051,0.406194,0.22289422,-0.104283288,0.387853,0.207986076,-0.0887204962,0.378683,0.195041311,-0.0741110716,0.370347,0.263056487,-0.150855977,0.401059,0.244840577,-0.098695798,0.379251,0.23074409,-0.0716379161,0.366529,0.222459015,-0.053156657,0.357442,0.28123633,-0.154523281,0.39826,0.27158958,-0.106642465,0.377691,0.263258913,-0.0852342546,0.367168,0.2552031,-0.0658469163,0.357601,0.304521677,-0.167828492,0.397505,0.299198954,-0.131045531,0.379878,0.296871153,-0.113722532,0.371779,0.291775649,-0.104969441,0.364632
0.280729578,-0.249084583,0.42717,0.271538281,-0.196139403,0.413829,0.262270285,-0.239373967,0.428325,0.227460001,-0.208921341,0.416196,0.19080338,-0.177036043,0.393618,0.173713293,-0.153601624,0.381167,0.242483117,-0.152582472,0.406275,0.222919506,-0.104295118,0.387897,0.207999807,-0.0887263402,0.378708,0.194925801,-0.0740941722,0.370354,0.263098465,-0.15088005,0.401123,0.244845742,-0.0986978799,0.379259,0.230728981,-0.0716332253,0.366505,0.222212317,-0.0529783063,0.357395,0.281277288,-0.154545772,0.398318,0.271582389,-0.106639642,0.377681,0.263226649,-0.0852238083,0.367123,0.255148862,-0.0658329221,0.357525,0.304571472,-0.167855936,0.39757,0.299198954,-0.131045531,0.379878,0.296847198,-0.113713367,0.371749,0.291574398,-0.104851504,0.364576
0.281330767,-0.248702365,0.428025,0.272370744,-0.198897081,0.414002,0.262800679,-0.238953695,0.429031,0.227711505,-0.209275401,0.416528,0.190923147,-0.177420973,0.393967,0.173714608,-0.154645382,0.380498,0.242191017,-0.152700679,0.405792,0.222645484,-0.106079658,0.386822,0.207956478,-0.0896795986,0.377338,0.19425654,-0.0736109694,0.368715,0.26279969,-0.151023386,0.400647,0.244580666,-0.0992364399,0.378117,0.231208424,-0.0732539324,0.364975,0.220973222,-0.0531215702,0.355587,0.281417432,-0.155412497,0.397921,0.271405917,-0.107325351,0.376599,0.263495284,-0.087362665,0.36569,0.25490721,-0.0685343326,0.355773,0.305023188,-0.168734786,0.397394,0.299236566,-0.133364505,0.379144,0.296438411,-0.115876405,0.370759,0.290266734,-0.105106478,0.36336
0.281159581,-0.24851357,0.428737,0.272433908,-0.198743417,0.414745,0.262649455,-0.238645232,0.42967,0.228062218,-0.209696103,0.417067,0.191095436,-0.177799857,0.394404,0.173888513,-0.154608525,0.381319,0.242586831,-0.153177029,0.40646,0.222963323,-0.106411747,0.387449,0.208303728,-0.0895625543,0.377943,0.194579183,-0.0736284466,0.369302,0.263316854,-0.151556859,0.40142,0.24498254,-0.0990700062,0.378898,0.231574033,-0.0733734905,0.36576,0.221293102,-0.0533806009,0.356376,0.281644066,-0.155319557,0.398778,0.271643116,-0.107334489,0.377513,0.263819159,-0.0874348349,0.366633,0.25518909,-0.0686800728,0.356742,0.305211781,-0.16879769,0.39834,0.299577888,-0.133583587,0.380126,0.296802326,-0.116130219,0.371757,0.290347916,-0.105843606,0.364373
