sluyters/QuantumLeap/backend/src/datasets/dynamic/HandGestureDataset_SHREC2017_csv/Gesture7/finger_2/subject_1_essai_2_skeletons_world.csv
Wrist_x,Wrist_y,Wrist_z,Palm_x,Palm_y,Palm_z,thumb_base_x,thumb_base_y,thumb_base_z,thumb_first_joint_x,thumb_first_joint_y,thumb_first_joint_z,thumb_second_joint_x,thumb_second_joint_y,thumb_second_joint_z,thumb_tip_x,thumb_tip_y,thumb_tip_z,index_base_x,index_base_y,index_base_z,index_first_joint_x,index_first_joint_y,index_first_joint_z,index_second_joint_x,index_second_joint_y,index_second_joint_z,index_tip_x,index_tip_y,index_tip_z,middle_base_x,middle_base_y,middle_base_z,middle_first_joint_x,middle_first_joint_y,middle_first_joint_z,middle_second_joint_x,middle_second_joint_y,middle_second_joint_z,middle_tip_x,middle_tip_y,middle_tip_z,ring_base_x,ring_base_y,ring_base_z,ring_first_joint_x,ring_first_joint_y,ring_first_joint_z,ring_second_joint_x,ring_second_joint_y,ring_second_joint_z,ring_tip_x,ring_tip_y,ring_tip_z,pinky_base_x,pinky_base_y,pinky_base_z,pinky_first_joint_x,pinky_first_joint_y,pinky_first_joint_z,pinky_second_joint_x,pinky_second_joint_y,pinky_second_joint_z,pinky_tip_x,pinky_tip_y,pinky_tip_z,
0.43253474,-0.37734576,0.581291,0.42491154,-0.33020789,0.555554,0.43918509,-0.36048229,0.587523,0.41502193,-0.33975434,0.578102,0.40433649,-0.31558415,0.577017,0.39507935,-0.29548216,0.566367,0.42226141,-0.27641187,0.546153,0.38226648,-0.24730395,0.531612,0.36059626,-0.23547296,0.524341,0.34047253,-0.22560302,0.517731,0.41698805,-0.279427,0.530027,0.36925729,-0.24498432,0.505652,0.33577437,-0.24363405,0.491434,0.31646905,-0.24572181,0.487582,0.41327957,-0.28563078,0.518612,0.35739163,-0.27565853,0.498414,0.33823868,-0.27781631,0.501208,0.33234108,-0.29503162,0.51048,0.41004803,-0.30020629,0.508535,0.36078832,-0.29247986,0.49237,0.36208757,-0.30849493,0.494251,0.37202265,-0.32454129,0.50067
0.42814164,-0.37657783,0.574631,0.41866105,-0.32796001,0.546927,0.43250167,-0.35798791,0.579487,0.41125036,-0.33949307,0.572601,0.39799358,-0.31764462,0.568976,0.38981878,-0.29548145,0.559865,0.41334861,-0.27516866,0.534531,0.37189829,-0.2467296,0.519234,0.34957772,-0.23530047,0.511585,0.33400446,-0.22524837,0.510131,0.4085008,-0.27951076,0.519448,0.35883084,-0.24575239,0.493984,0.32489247,-0.24455934,0.479131,0.30561069,-0.24703919,0.475256,0.40534206,-0.28688885,0.509032,0.34922624,-0.27808498,0.489254,0.33009723,-0.28114609,0.492453,0.3256859,-0.2940147,0.501717,0.40313351,-0.30302224,0.500416,0.35208227,-0.29440084,0.482195,0.3539234,-0.31015517,0.484231,0.36497467,-0.32244036,0.491434
0.4275794,-0.37754384,0.572251,0.4173053,-0.33045116,0.54371,0.43186126,-0.36073973,0.576809,0.40442125,-0.33770483,0.561722,0.38793837,-0.31685855,0.556183,0.37423246,-0.29823917,0.542746,0.41019922,-0.2741596,0.530394,0.36708375,-0.24566737,0.513775,0.3443285,-0.23377025,0.505465,0.32652672,-0.22568418,0.502611,0.40501763,-0.27869695,0.5154,0.3482403,-0.25136216,0.488137,0.31489098,-0.25288736,0.472234,0.29571696,-0.25690241,0.466872,0.40171271,-0.28626991,0.505119,0.34372678,-0.27668911,0.483049,0.32361677,-0.27919249,0.484727,0.31908941,-0.29624927,0.494309,0.39957075,-0.30269985,0.496776,0.34840367,-0.29427752,0.478379,0.34983109,-0.30917792,0.479303,0.36071636,-0.32500903,0.486136
0.37911763,-0.36161224,0.538565,0.36997054,-0.31067458,0.512505,0.38446796,-0.34425744,0.544894,0.36698909,-0.31610146,0.5421,0.34589051,-0.30563565,0.542509,0.33309238,-0.28869517,0.534976,0.37023121,-0.2569447,0.50301,0.32762312,-0.23200283,0.49049,0.30648076,-0.21962173,0.48423,0.28936134,-0.20987346,0.481876,0.36069302,-0.26089599,0.486657,0.30222485,-0.2485912,0.463774,0.26964288,-0.24141444,0.450425,0.24968134,-0.23878469,0.445547,0.35354125,-0.26782622,0.475079,0.29948241,-0.26066884,0.458524,0.27867298,-0.26234699,0.459509,0.2642089,-0.27016461,0.466588,0.34632357,-0.28315333,0.464853,0.29877527,-0.27223457,0.449252,0.30122108,-0.28556901,0.449593,0.30691198,-0.30052033,0.455216
0.38744133,-0.36132807,0.533625,0.3707642,-0.3133384,0.504608,0.38259814,-0.34359984,0.537884,0.36623857,-0.31794346,0.533077,0.34306275,-0.30597613,0.530643,0.32791085,-0.28564498,0.523232,0.36443217,-0.25646248,0.490609,0.31855839,-0.23205338,0.474564,0.29533412,-0.22111733,0.466542,0.27676202,-0.21400469,0.463703,0.35767573,-0.26154543,0.475827,0.29690664,-0.24990761,0.449608,0.2631747,-0.24300318,0.434314,0.2431014,-0.2412183,0.429083,0.35311948,-0.26960654,0.465753,0.29637406,-0.26279485,0.445518,0.27599677,-0.26625092,0.447079,0.26262169,-0.27641275,0.455874,0.34956886,-0.28669409,0.457724,0.29892956,-0.27572597,0.438958,0.30218553,-0.28885647,0.439686,0.30931215,-0.30437213,0.446572
0.37885517,-0.36222012,0.520937,0.36890147,-0.31336744,0.49226,0.38041378,-0.34337378,0.525291,0.36233263,-0.32027269,0.521434,0.33790809,-0.31086038,0.519562,0.32322491,-0.29479892,0.512261,0.36043719,-0.25649869,0.478604,0.31394591,-0.23358653,0.462583,0.29044845,-0.22339815,0.454572,0.27202749,-0.21733304,0.452336,0.35448907,-0.2615497,0.463816,0.29378377,-0.25145705,0.437643,0.26008543,-0.24537365,0.422376,0.24042215,-0.24461149,0.417746,0.35070267,-0.26958638,0.453713,0.29406692,-0.26431588,0.433512,0.27439524,-0.26926631,0.4359,0.26146718,-0.2805954,0.445011,0.3482717,-0.28664342,0.445603,0.29734867,-0.276833,0.426803,0.30148956,-0.2900456,0.428178,0.30928301,-0.30557068,0.435327
0.38043508,-0.35995526,0.50821,0.37124975,-0.30829238,0.479866,0.38018902,-0.34114096,0.512411,0.36253089,-0.31739655,0.50845,0.33806916,-0.30907468,0.505767,0.32313429,-0.29343662,0.498331,0.35885937,-0.25131624,0.466244,0.31171744,-0.2305263,0.449827,0.2879041,-0.22139336,0.441618,0.26999446,-0.21693858,0.440407,0.35525015,-0.2558559,0.451753,0.29484762,-0.24850843,0.425316,0.26115021,-0.24392619,0.409894,0.24224135,-0.24500236,0.406322,0.3535353,-0.26351747,0.44187,0.29702193,-0.26109103,0.421302,0.27874977,-0.26871138,0.425252,0.26658801,-0.28223188,0.435135,0.35385409,-0.28022898,0.433977,0.30209517,-0.27299334,0.414753,0.30750889,-0.28689802,0.417344,0.31629489,-0.30282603,0.425115
0.40854992,-0.36034019,0.505363,0.38814131,-0.30826176,0.473909,0.4044617,-0.33989609,0.507738,0.37871627,-0.31587208,0.501513,0.35349094,-0.3106488,0.497247,0.33736354,-0.2970148,0.488634,0.36960891,-0.25016209,0.455984,0.31978387,-0.23179275,0.436934,0.29477142,-0.2238611,0.427409,0.27543373,-0.22011471,0.423967,0.36776987,-0.25737445,0.442712,0.30524228,-0.25142178,0.413792,0.27062102,-0.2474267,0.396922,0.25084288,-0.24837233,0.391242,0.3678252,-0.2671258,0.434057,0.30913675,-0.26516961,0.410767,0.29021268,-0.27277239,0.412564,0.27944704,-0.28720759,0.422686,0.37084769,-0.28607457,0.428051,0.31679881,-0.27845046,0.40669,0.32112984,-0.28910845,0.40755,0.33046884,-0.30334883,0.415401
0.4069353,-0.35887848,0.500894,0.38715787,-0.30653337,0.469652,0.40291262,-0.33849928,0.503369,0.37761542,-0.31430657,0.497304,0.3527097,-0.30877306,0.493022,0.33689191,-0.29494378,0.484476,0.36910795,-0.24841571,0.45199,0.31961457,-0.22974908,0.43304,0.29473052,-0.22166745,0.423565,0.27566261,-0.21789706,0.420392,0.36738933,-0.25543088,0.438665,0.30490413,-0.24927372,0.409843,0.27025709,-0.2451824,0.39303,0.25061871,-0.24621355,0.387614,0.36750456,-0.26503517,0.429951,0.30880623,-0.26296007,0.406767,0.29011856,-0.27072012,0.408901,0.27933548,-0.28523323,0.419115,0.37052344,-0.28384414,0.423846,0.31635106,-0.27616459,0.402549,0.32065435,-0.28715886,0.403674,0.32990052,-0.30160757,0.411606
0.40571961,-0.35662007,0.493371,0.40082395,-0.30743013,0.463,0.40084792,-0.33588799,0.494997,0.38741365,-0.31483475,0.488007,0.36448965,-0.30497884,0.48131,0.35099753,-0.28865672,0.472109,0.38397107,-0.24761194,0.444872,0.33654389,-0.22512671,0.424521,0.31183958,-0.21759153,0.414346,0.29540403,-0.21762333,0.413846,0.38547533,-0.25374719,0.432877,0.32321573,-0.24487097,0.403226,0.28815727,-0.23939472,0.38593,0.27062029,-0.24148995,0.383341,0.38803356,-0.26286905,0.425194,0.32850475,-0.25856878,0.400741,0.31355668,-0.26851643,0.407082,0.30401115,-0.28465495,0.419489,0.39352363,-0.2816349,0.420198,0.33722738,-0.27260089,0.397549,0.3421707,-0.2874998,0.401948,0.35146071,-0.30473864,0.411625
0.40141515,-0.34837022,0.483916,0.40217433,-0.2939416,0.453572,0.40433372,-0.32875707,0.484797,0.39108343,-0.3079146,0.474772,0.37827627,-0.29545804,0.467662,0.37080934,-0.27684149,0.457132,0.38882468,-0.2356359,0.434547,0.34751582,-0.21954928,0.412829,0.32601973,-0.2257718,0.40197,0.31528543,-0.23623456,0.401999,0.39193432,-0.24502326,0.423476,0.33528176,-0.22803027,0.393265,0.30257066,-0.21811205,0.375642,0.28766663,-0.2172852,0.373825,0.39534024,-0.25638712,0.416551,0.33738195,-0.25407891,0.390982,0.32529178,-0.26642619,0.398557,0.32518803,-0.28921446,0.411908,0.40097608,-0.27692393,0.412454,0.3441994,-0.2651404,0.389028,0.33427458,-0.27476443,0.394392,0.33081146,-0.28751265,0.404717
0.4237366,-0.34464439,0.48479,0.42363168,-0.29388522,0.453485,0.42885613,-0.32271883,0.485271,0.41292185,-0.3073763,0.473942,0.40060422,-0.29459882,0.466302,0.3928109,-0.27561756,0.455111,0.40884518,-0.23497651,0.433331,0.3674047,-0.21857818,0.411003,0.34466432,-0.22457489,0.399839,0.33301861,-0.23458797,0.399197,0.41217097,-0.24442093,0.422435,0.35470222,-0.22701207,0.391509,0.32155477,-0.21684974,0.373468,0.3066606,-0.2156269,0.370972,0.41586087,-0.2558781,0.415724,0.35652226,-0.25288904,0.389151,0.34471147,-0.26471155,0.395992,0.34505211,-0.28749283,0.409456,0.42203419,-0.27662851,0.412014,0.36388348,-0.26445272,0.388019,0.35345191,-0.27366089,0.392808,0.35023327,-0.28637032,0.403109
0.4448545,-0.34342427,0.485611,0.4468567,-0.29215618,0.454272,0.45028461,-0.31920343,0.486006,0.44148653,-0.2996685,0.475131,0.43472952,-0.28892072,0.466024,0.43204429,-0.27267369,0.455412,0.4363595,-0.23349552,0.433989,0.39095727,-0.21899456,0.411708,0.36572195,-0.22474446,0.400567,0.3536531,-0.23494421,0.400002,0.43874521,-0.24396817,0.423187,0.38762447,-0.21723147,0.392183,0.3497622,-0.2183728,0.374097,0.33986974,-0.22929171,0.371642,0.44141027,-0.25617127,0.416556,0.38082978,-0.25026537,0.389313,0.36919908,-0.2633815,0.396206,0.36821059,-0.28617134,0.40996,0.44588327,-0.27762439,0.412946,0.38717807,-0.26343234,0.388858,0.37752185,-0.27365142,0.39371,0.37564925,-0.28733691,0.404068
0.49276367,-0.35713337,0.483949,0.47862816,-0.30671766,0.45861,0.49135677,-0.34008948,0.490705,0.4829163,-0.32761352,0.503475,0.46078036,-0.32296958,0.509826,0.44680027,-0.31070658,0.51012,0.46752596,-0.25298728,0.450117,0.42320896,-0.22331256,0.42203,0.39412647,-0.22811743,0.407986,0.37458243,-0.23507301,0.401184,0.4644518,-0.25713867,0.433478,0.41899111,-0.22397769,0.405673,0.38091922,-0.22258538,0.389454,0.36624138,-0.23190551,0.383406,0.46294812,-0.26412646,0.421612,0.39653342,-0.24654445,0.389369,0.37867463,-0.2556299,0.389739,0.38055768,-0.27954195,0.402906,0.46314792,-0.27929511,0.410945,0.41416846,-0.27045253,0.395925,0.40073641,-0.27779024,0.396493,0.39424806,-0.28762119,0.402
0.49870742,-0.3575053,0.484453,0.48973853,-0.30710949,0.459124,0.49716904,-0.34039009,0.491128,0.49510229,-0.32873579,0.505165,0.47174348,-0.32342337,0.510364,0.45758224,-0.31118454,0.510649,0.47824522,-0.25329831,0.450538,0.43353347,-0.22368333,0.422273,0.40395248,-0.22848593,0.408141,0.38461195,-0.23573947,0.401785,0.47530344,-0.25752858,0.434001,0.42941253,-0.22440755,0.405989,0.39092233,-0.22306141,0.389649,0.37640524,-0.23265092,0.384038,0.47393393,-0.26458901,0.422219,0.40590988,-0.249403,0.389803,0.3890204,-0.26000982,0.390853,0.392491,-0.28436541,0.404362,0.47433358,-0.27985468,0.41165,0.42477567,-0.27098893,0.396348,0.41172024,-0.27871767,0.39744,0.40550661,-0.28879467,0.403249
0.53129461,-0.35758108,0.493919,0.50960851,-0.31060011,0.473223,0.53310158,-0.34318813,0.503447,0.51551508,-0.32514009,0.511386,0.49321474,-0.32506561,0.517982,0.47641176,-0.31464469,0.5171,0.49743611,-0.26166779,0.471211,0.45701445,-0.22744935,0.447469,0.42675607,-0.22169885,0.435598,0.40392863,-0.22656935,0.428295,0.48810005,-0.26391476,0.452695,0.42499526,-0.26684077,0.429904,0.43034825,-0.27981752,0.428081,0.44300754,-0.29458735,0.435752,0.48198223,-0.26915737,0.438952,0.44456015,-0.22990305,0.410997,0.42210001,-0.2383072,0.409121,0.42835291,-0.2572515,0.419659,0.47765658,-0.28184475,0.425411,0.45423947,-0.24344598,0.413752,0.4377889,-0.25020483,0.412703,0.43959399,-0.26627186,0.416399
0.54629178,-0.36463152,0.501875,0.53040589,-0.31950724,0.477542,0.55089927,-0.35008273,0.509036,0.53667621,-0.339879,0.507942,0.52725617,-0.31464761,0.509701,0.52045151,-0.291558,0.503089,0.51371704,-0.26929261,0.470211,0.48096464,-0.23314148,0.456449,0.45901089,-0.24184817,0.449568,0.45866994,-0.25699444,0.448062,0.50845491,-0.27347775,0.453406,0.48216024,-0.22904037,0.426054,0.44885628,-0.21512905,0.410099,0.42814512,-0.2155228,0.405207,0.505708,-0.28025033,0.441332,0.4713731,-0.2412546,0.415646,0.44533954,-0.22719653,0.402505,0.4249925,-0.22326358,0.397523,0.50544808,-0.29464626,0.430278,0.48066941,-0.25636662,0.415574,0.46838846,-0.26523832,0.417305,0.4720788,-0.28238002,0.423151
0.57920112,-0.36559204,0.553053,0.57862138,-0.31820834,0.528523,0.57067212,-0.34371605,0.552628,0.5454275,-0.31162377,0.543226,0.52260697,-0.28269136,0.533542,0.51193493,-0.26105848,0.525634,0.56740737,-0.26097498,0.511745,0.51937399,-0.26032773,0.483217,0.50110765,-0.26870486,0.468953,0.5011591,-0.28429491,0.471425,0.5776081,-0.27175311,0.504192,0.52512567,-0.2705453,0.476873,0.49584073,-0.2755188,0.460936,0.49199038,-0.28670797,0.464319,0.58619308,-0.28406528,0.499744,0.56844943,-0.23981618,0.471061,0.55387343,-0.22279701,0.456386,0.535191,-0.21392908,0.443045,0.5967258,-0.3053254,0.497802,0.58373243,-0.26174422,0.474049,0.56748745,-0.25529627,0.463136,0.56274864,-0.26799608,0.465948
0.5823478,-0.36376458,0.556484,0.59204744,-0.31861777,0.533052,0.57255829,-0.33934049,0.552546,0.54847033,-0.30128053,0.542241,0.52742194,-0.27171734,0.533718,0.51966296,-0.25017795,0.527409,0.58902183,-0.26216056,0.512688,0.54837741,-0.26133765,0.485652,0.52437456,-0.26868167,0.472133,0.52152551,-0.28403133,0.476493,0.60139929,-0.27841926,0.509811,0.55636257,-0.27648505,0.482114,0.5209404,-0.28043909,0.465958,0.51561259,-0.29145241,0.470666,0.6110077,-0.2947958,0.509131,0.59940984,-0.25426368,0.481798,0.58907197,-0.23970592,0.467813,0.5744781,-0.2333047,0.4551,0.62129817,-0.32005085,0.511529,0.61319335,-0.27907993,0.48724,0.60094108,-0.27277705,0.476081,0.59811392,-0.28571193,0.479732
0.58194714,-0.36521778,0.556772,0.59177877,-0.32186246,0.537478,0.58080789,-0.34602464,0.56099,0.56594399,-0.32283639,0.556915,0.55563829,-0.29533258,0.554185,0.55396161,-0.27448732,0.550577,0.58933046,-0.2707103,0.529874,0.5523786,-0.25185952,0.513395,0.53417096,-0.26486166,0.505155,0.5361259,-0.28379303,0.51087,0.59231039,-0.27819772,0.518342,0.56615783,-0.23945291,0.496812,0.53347031,-0.24183835,0.484253,0.52477182,-0.25154465,0.488882,0.59452126,-0.28769224,0.510243,0.56954562,-0.24958478,0.493263,0.54607659,-0.2593505,0.484575,0.54708083,-0.28097837,0.49101,0.59658346,-0.30539398,0.503235,0.56918765,-0.26840894,0.486579,0.55003465,-0.26953799,0.478926,0.55052766,-0.28609367,0.483074
0.58290487,-0.36496311,0.555431,0.59615083,-0.32130607,0.536805,0.58164122,-0.34584811,0.559497,0.57431498,-0.32206291,0.555153,0.5632739,-0.29455632,0.552005,0.56126733,-0.27376429,0.548385,0.59808586,-0.27004617,0.529457,0.56432144,-0.25302087,0.515877,0.5477104,-0.26698941,0.509087,0.55119521,-0.28675826,0.51604,0.60178594,-0.27759357,0.518331,0.57579192,-0.23922449,0.497196,0.54341066,-0.2420431,0.484867,0.53552814,-0.25222652,0.489977,0.60460054,-0.28714761,0.510518,0.57959744,-0.2493653,0.493776,0.55640836,-0.2594344,0.485211,0.55826702,-0.28142071,0.492132,0.60737939,-0.30493029,0.503759,0.57976999,-0.2682425,0.487296,0.56080193,-0.26962534,0.479732,0.5620187,-0.28647843,0.484251
0.59419367,-0.35797698,0.56497,0.59920637,-0.30516802,0.540842,0.59408803,-0.32999399,0.5661,0.57687893,-0.29682962,0.557624,0.56512491,-0.26852247,0.552741,0.56092897,-0.24754915,0.546812,0.59544014,-0.25043018,0.526241,0.55213987,-0.24319003,0.507382,0.56092727,-0.26727156,0.519468,0.57437236,-0.28909978,0.532458,0.60028606,-0.26038051,0.51691,0.56832451,-0.22769354,0.490544,0.54966115,-0.20834714,0.475164,0.5525269,-0.20025779,0.478205,0.60438359,-0.27197511,0.510969,0.57483885,-0.23370571,0.488698,0.5596944,-0.2138954,0.477303,0.55280929,-0.21888825,0.48183,0.60933853,-0.2923174,0.507195,0.58538179,-0.25073128,0.486101,0.56367933,-0.25364357,0.476409,0.56252571,-0.26870918,0.479076
0.61233527,-0.35271729,0.577907,0.60634637,-0.29643913,0.544873,0.59738456,-0.32596093,0.569294,0.56938798,-0.28022976,0.548098,0.55754361,-0.25159464,0.541494,0.55578539,-0.23129354,0.537083,0.58045251,-0.23395026,0.512404,0.54665568,-0.20805072,0.480454,0.5595689,-0.20603263,0.490609,0.57994693,-0.20656074,0.507274,0.59785514,-0.24837926,0.512107,0.56743337,-0.21238076,0.476254,0.54969516,-0.19136949,0.45534,0.55463186,-0.18213561,0.454837,0.61317246,-0.26399599,0.514242,0.58278215,-0.22202502,0.480094,0.56719467,-0.20064397,0.462623,0.56277928,-0.20483836,0.462479,0.63307772,-0.28982134,0.521306,0.60423899,-0.2472441,0.49055,0.58135504,-0.25004219,0.476418,0.5751943,-0.26246379,0.475555
0.62101011,-0.34452588,0.578562,0.62443283,-0.29484006,0.554348,0.60937311,-0.32179216,0.575463,0.59616372,-0.28662462,0.564249,0.58170937,-0.25678877,0.556265,0.57502339,-0.23574319,0.54801,0.60594385,-0.23756787,0.534497,0.58122087,-0.21612423,0.509886,0.56891377,-0.2052205,0.49758,0.57507333,-0.20300926,0.502239,0.62076167,-0.24839343,0.530332,0.60174235,-0.21325691,0.502292,0.58753716,-0.19560631,0.485935,0.57722023,-0.18700106,0.474252,0.63349393,-0.26084551,0.528648,0.60948846,-0.23118622,0.503108,0.59928057,-0.21381165,0.491176,0.58564427,-0.20058606,0.48033,0.64948813,-0.28245562,0.529956,0.6261284,-0.24280899,0.506169,0.6062808,-0.24750664,0.49524,0.60545403,-0.262911,0.498518
0.63718212,-0.35025909,0.592604,0.6347956,-0.29791518,0.563306,0.62937132,-0.32485644,0.589461,0.6067001,-0.28672708,0.575527,0.59201823,-0.25664965,0.567548,0.58836208,-0.23580714,0.561867,0.61857157,-0.23778121,0.540033,0.58912481,-0.21273803,0.511356,0.57443305,-0.20010323,0.497018,0.57779595,-0.19415321,0.498387,0.62964934,-0.24916085,0.534247,0.60978782,-0.20410331,0.502593,0.58663843,-0.18916944,0.484128,0.57009963,-0.17846406,0.470939,0.6393825,-0.26205767,0.531597,0.61199383,-0.22174106,0.503178,0.59511551,-0.20494281,0.488639,0.57977859,-0.18956903,0.475421,0.65206192,-0.28426008,0.532449,0.62954624,-0.26335114,0.506277,0.61916117,-0.25371722,0.494252,0.62452838,-0.25098691,0.495113
0.64664823,-0.34830004,0.596556,0.6422309,-0.29673795,0.56832,0.63278147,-0.32453176,0.59178,0.61463687,-0.28548414,0.576384,0.60072372,-0.25462886,0.568217,0.59099337,-0.23428899,0.560122,0.62224055,-0.23741085,0.543743,0.59866882,-0.2049378,0.515797,0.58724834,-0.18953253,0.501823,0.59494022,-0.18090139,0.504399,0.63723177,-0.24652738,0.540314,0.6143466,-0.21398808,0.508831,0.60115563,-0.19480454,0.490466,0.5918174,-0.18099659,0.477349,0.65072535,-0.25922458,0.539525,0.62682997,-0.21629434,0.5105,0.6121148,-0.20043137,0.49565,0.5987814,-0.1858907,0.48215,0.66805945,-0.28125772,0.54245,0.64587035,-0.26014631,0.515173,0.63578621,-0.25037961,0.502641,0.6430139,-0.2479142,0.504176
0.64028882,-0.34348585,0.589251,0.63812281,-0.2941864,0.563839,0.63062538,-0.32225239,0.58845,0.61837375,-0.28692234,0.579037,0.6041802,-0.25606913,0.570384,0.5991951,-0.23532852,0.562758,0.62455212,-0.23813657,0.546016,0.60467596,-0.20484758,0.519399,0.59787649,-0.1860001,0.506091,0.59010102,-0.17012916,0.493992,0.63490484,-0.24793147,0.538634,0.61810867,-0.20689243,0.509748,0.60800114,-0.18321889,0.492897,0.60109727,-0.16630452,0.480861,0.64425245,-0.25735268,0.534391,0.62953534,-0.21895192,0.505069,0.61758258,-0.2023809,0.490067,0.60681217,-0.18717145,0.476428,0.65605421,-0.27785962,0.532814,0.64147478,-0.2495245,0.506782,0.63492945,-0.23637563,0.494821,0.62924575,-0.22469756,0.484268
0.64838174,-0.3465493,0.595768,0.64996974,-0.29761034,0.572513,0.63955723,-0.32381234,0.595049,0.63075927,-0.29002969,0.58772,0.61343259,-0.25923734,0.576599,0.60767755,-0.23812664,0.568277,0.63936537,-0.24263375,0.55622,0.62110738,-0.20809266,0.532036,0.61207437,-0.19058399,0.519945,0.60592122,-0.17489183,0.508953,0.64916557,-0.25174377,0.549447,0.64372971,-0.2085993,0.521896,0.63057691,-0.1896065,0.505825,0.61071094,-0.18718681,0.494345,0.65877455,-0.26330219,0.545549,0.64104144,-0.22183285,0.522011,0.63174959,-0.20081424,0.509969,0.62327264,-0.1809864,0.499021,0.67049264,-0.28346234,0.544088,0.65701453,-0.25528822,0.520027,0.65078324,-0.24155955,0.508972,0.64537436,-0.22935094,0.499218
0.65233894,-0.34780588,0.598992,0.6563017,-0.29960133,0.577274,0.64462949,-0.32583349,0.599379,0.63582003,-0.29233138,0.59306,0.62260163,-0.26214915,0.584447,0.61860909,-0.24115617,0.577646,0.64675988,-0.24530078,0.563358,0.63164336,-0.20894498,0.542103,0.62459447,-0.19069518,0.531476,0.61825697,-0.17391698,0.521815,0.65700709,-0.25493983,0.555732,0.66108526,-0.21269885,0.538271,0.64599417,-0.20596336,0.528085,0.63086609,-0.20731553,0.520809,0.66547714,-0.26615185,0.551022,0.64880679,-0.22490578,0.529498,0.64032427,-0.20357628,0.518485,0.63266466,-0.18400775,0.508474,0.67560903,-0.28579407,0.548384,0.6620101,-0.25703603,0.525837,0.6559256,-0.24362746,0.515478,0.65065127,-0.2316818,0.506337
0.65910863,-0.35015361,0.60608,0.66171818,-0.30040517,0.583543,0.65008044,-0.32714541,0.605185,0.63391528,-0.28385551,0.595932,0.62369035,-0.25391485,0.588576,0.62101273,-0.23304075,0.582102,0.65177836,-0.24129518,0.567509,0.63500109,-0.2089958,0.545619,0.62697508,-0.19122316,0.534674,0.61974308,-0.17488065,0.524724,0.66243539,-0.25468481,0.56119,0.65009764,-0.21340985,0.534962,0.64494939,-0.19297372,0.519662,0.63653108,-0.17515212,0.508734,0.67163642,-0.26677331,0.557613,0.65401416,-0.22589105,0.53464,0.64504327,-0.20478549,0.522887,0.63785485,-0.18555007,0.512202,0.68255429,-0.28746745,0.556436,0.66808902,-0.25871767,0.5336,0.66147184,-0.24540218,0.523108,0.65571861,-0.23354458,0.51385
0.66400152,-0.35006725,0.610947,0.66377557,-0.29707743,0.58852,0.65439932,-0.32701137,0.6091,0.63786997,-0.28492988,0.599351,0.62644073,-0.25467221,0.590579,0.62325143,-0.23380396,0.58337,0.6549197,-0.24198296,0.571391,0.63712365,-0.20803959,0.549533,0.62831266,-0.19077198,0.538604,0.62234901,-0.17531922,0.528669,0.66711835,-0.25366225,0.566276,0.65454466,-0.21398703,0.539969,0.64646815,-0.19142625,0.524624,0.64079744,-0.17515699,0.513663,0.67707429,-0.26650343,0.563682,0.66010383,-0.22644641,0.540087,0.65152344,-0.20569182,0.528015,0.64284124,-0.18666978,0.517041,0.68871633,-0.28802984,0.563662,0.67456627,-0.2597718,0.540954,0.66809904,-0.24667989,0.530521,0.66361505,-0.23586192,0.521315
0.66280414,-0.34856158,0.611104,0.66595531,-0.2974594,0.592606,0.64993918,-0.32165757,0.609585,0.63418424,-0.28151555,0.601404,0.62456887,-0.25105002,0.594195,0.62586425,-0.23404812,0.588042,0.65409495,-0.24011845,0.578482,0.64649791,-0.20463402,0.557441,0.64288474,-0.18658464,0.54692,0.63971976,-0.16997945,0.537356,0.66806827,-0.25177366,0.574258,0.66239031,-0.20993402,0.551034,0.65919803,-0.18535057,0.537487,0.65391371,-0.17695078,0.52781,0.67917189,-0.26447884,0.572114,0.67300991,-0.22419633,0.549342,0.6700241,-0.20334837,0.537691,0.66741822,-0.18424065,0.527099,0.69162497,-0.28560977,0.572092,0.68791465,-0.25449071,0.551439,0.68641407,-0.23999334,0.54195,0.68245273,-0.22984144,0.533578
0.65880824,-0.34749753,0.608431,0.6633915,-0.29696863,0.59191,0.64892065,-0.32430635,0.606948,0.63447311,-0.28384259,0.600482,0.6245518,-0.25357451,0.592675,0.62506555,-0.23420671,0.588154,0.65324749,-0.24185069,0.57914,0.64657522,-0.20796094,0.559589,0.64306789,-0.18863901,0.549814,0.64022992,-0.17207195,0.540927,0.66801996,-0.253571,0.575523,0.66363123,-0.21219262,0.553923,0.66124367,-0.18778733,0.541322,0.65671197,-0.17431865,0.532322,0.67968339,-0.2663133,0.573736,0.67593797,-0.22616884,0.552276,0.67387613,-0.20578796,0.541296,0.6717092,-0.18761528,0.531314,0.69256495,-0.28743759,0.573869,0.69111228,-0.2558327,0.554584,0.69065775,-0.24109848,0.545724,0.6899945,-0.22703328,0.537906
0.65793713,-0.34363125,0.607903,0.66110746,-0.29389297,0.593168,0.64671386,-0.31949275,0.608384,0.63541472,-0.28337594,0.603388,0.62505023,-0.25318425,0.595797,0.62693547,-0.23461464,0.594682,0.65513415,-0.23788194,0.583993,0.65043991,-0.20055184,0.565585,0.64826812,-0.18155658,0.55638,0.646407,-0.16407943,0.548013,0.66927603,-0.24721251,0.578553,0.66748556,-0.20351175,0.558268,0.66432619,-0.18046358,0.546434,0.66221621,-0.16375248,0.537982,0.68048462,-0.25804423,0.575138,0.67826723,-0.21597344,0.554758,0.67723894,-0.194289,0.544331,0.67637227,-0.17447372,0.534852,0.69297755,-0.27698073,0.573086,0.69372883,-0.24425008,0.555045,0.69387826,-0.2294058,0.546756,0.69414298,-0.21616608,0.539442
0.66293946,-0.34603224,0.612985,0.66645085,-0.29695517,0.599072,0.65354956,-0.32370042,0.613735,0.64145272,-0.29143267,0.611254,0.62810271,-0.26396631,0.604276,0.62892805,-0.2410504,0.598878,0.65157548,-0.24591293,0.590772,0.64653172,-0.20688357,0.573036,0.64412237,-0.18712349,0.564168,0.64888974,-0.16777001,0.556106,0.66684892,-0.25338464,0.585271,0.66356778,-0.21023455,0.565545,0.66155027,-0.18523387,0.554039,0.66595104,-0.16670381,0.545819,0.68370161,-0.26188238,0.581747,0.67627722,-0.21964417,0.56257,0.6732417,-0.20072815,0.552759,0.6706649,-0.18321702,0.54384,0.69699147,-0.28003322,0.579453,0.69082527,-0.24716635,0.562305,0.68984714,-0.23181402,0.554426,0.68909357,-0.21811843,0.547474
0.66651627,-0.3475826,0.61769,0.66881725,-0.30065213,0.604233,0.65701555,-0.32628749,0.618395,0.63862319,-0.29627098,0.617218,0.63079871,-0.26675119,0.610878,0.62973296,-0.24709064,0.608238,0.65327879,-0.24842047,0.596182,0.64838908,-0.20938823,0.578489,0.64605953,-0.18962168,0.569643,0.6377322,-0.17459984,0.5616,0.664677,-0.25560457,0.590886,0.66073296,-0.21339006,0.5719,0.65699517,-0.19025754,0.560824,0.65445767,-0.17345794,0.552913,0.67742894,-0.2645998,0.587498,0.67435923,-0.22019162,0.568836,0.67057778,-0.20020904,0.559288,0.66727305,-0.18175882,0.550609,0.69235847,-0.28163039,0.585303,0.68919675,-0.24656402,0.568622,0.6878831,-0.23022606,0.560958,0.68680164,-0.21568205,0.554195
0.6635223,-0.34405989,0.619989,0.65808259,-0.29209384,0.607045,0.64946865,-0.32213794,0.619085,0.62470121,-0.28494223,0.610405,0.60986292,-0.25545639,0.602915,0.60765556,-0.23704941,0.602148,0.64548614,-0.23959293,0.597357,0.64062729,-0.19982193,0.580532,0.63829548,-0.1796959,0.57212,0.63378773,-0.16934851,0.564472,0.66339735,-0.24806067,0.594206,0.66013027,-0.20325764,0.575557,0.65794688,-0.17918846,0.564679,0.65650056,-0.16177381,0.556909,0.67782314,-0.25823306,0.592545,0.672416,-0.21234512,0.574426,0.66948633,-0.19324124,0.565156,0.66698566,-0.17555276,0.556729,0.69441991,-0.2765004,0.592339,0.69065987,-0.24318631,0.575764,0.68910987,-0.22759122,0.568149,0.69179451,-0.21607551,0.56143
0.66400466,-0.34395556,0.628748,0.6556746,-0.28997499,0.613274,0.63852612,-0.3170967,0.622896,0.61550366,-0.28085845,0.609079,0.59813257,-0.25110849,0.59814,0.593195,-0.23103427,0.59432,0.63611687,-0.23442843,0.595833,0.6242261,-0.19720251,0.575689,0.61837917,-0.17828956,0.565617,0.61310419,-0.16673443,0.556461,0.65904935,-0.24519438,0.597927,0.65376642,-0.2031255,0.576245,0.65082542,-0.17833424,0.563597,0.65126936,-0.16079768,0.554562,0.67786334,-0.25737343,0.600763,0.66789924,-0.21435284,0.579178,0.66299211,-0.19268193,0.568134,0.65860296,-0.17281958,0.558094,0.70007737,-0.27826282,0.606261,0.69558026,-0.24132044,0.586853,0.69357235,-0.22425834,0.577937,0.69183141,-0.20915324,0.570069
0.66346485,-0.34433645,0.625457,0.65947714,-0.29402724,0.614179,0.64160217,-0.32215657,0.623767,0.61513922,-0.29129535,0.61185,0.59302714,-0.26196769,0.598615,0.58525899,-0.24176872,0.594055,0.63847159,-0.24501413,0.604631,0.62840024,-0.2093006,0.589531,0.62345578,-0.19098415,0.581981,0.61901822,-0.17404186,0.575117,0.66172864,-0.24963737,0.602993,0.65242969,-0.20789105,0.585658,0.64874991,-0.18196732,0.575546,0.64615565,-0.16334919,0.568323,0.67774087,-0.25954019,0.602458,0.66954828,-0.2159665,0.585381,0.66639739,-0.1929271,0.576644,0.66643817,-0.17717272,0.568701,0.69628945,-0.27748337,0.603365,0.69394382,-0.24062563,0.587677,0.68866602,-0.22361332,0.580469,0.68582514,-0.21083306,0.574109
0.65389666,-0.34142309,0.62921,0.64878216,-0.29700114,0.61623,0.63935876,-0.32209528,0.62765,0.60647264,-0.29185771,0.615725,0.58616114,-0.26468718,0.604864,0.5782456,-0.24417826,0.599525,0.63332943,-0.24505222,0.605713,0.62000428,-0.21127408,0.589342,0.61246479,-0.19574325,0.581157,0.60563501,-0.18132446,0.573715,0.65230118,-0.25238271,0.603355,0.64077967,-0.20828406,0.584627,0.63367416,-0.18296177,0.573702,0.62863842,-0.16470259,0.565899,0.66801695,-0.2617735,0.60235,0.65320661,-0.21446639,0.585037,0.64465442,-0.19264242,0.576179,0.63672942,-0.17317824,0.568126,0.68674518,-0.27946122,0.60293,0.68009843,-0.23805961,0.586146,0.6743131,-0.22350763,0.578434,0.66893415,-0.21116665,0.57163
0.64861306,-0.34317267,0.629421,0.64133783,-0.30194568,0.617902,0.6325911,-0.32732056,0.628856,0.60173064,-0.29974124,0.618331,0.58141613,-0.27242256,0.608303,0.57342691,-0.25212613,0.60267,0.62293085,-0.25127291,0.609575,0.60907945,-0.21397413,0.594561,0.60217325,-0.19494076,0.587055,0.5959061,-0.17739643,0.580231,0.64208009,-0.25644869,0.606476,0.6290819,-0.21261016,0.589218,0.62154238,-0.1867349,0.57915,0.61617877,-0.16810548,0.571959,0.65807776,-0.26407901,0.604756,0.64543883,-0.2173924,0.588422,0.63825859,-0.19523047,0.580064,0.63149421,-0.17571641,0.572467,0.67745515,-0.27968459,0.604284,0.67107343,-0.23843956,0.588784,0.66608099,-0.22373515,0.581663,0.66172396,-0.21057977,0.57538
0.61966889,-0.35639152,0.636217,0.62735836,-0.31160713,0.622327,0.60896156,-0.33649116,0.635863,0.58926791,-0.30356226,0.625407,0.57151469,-0.27449502,0.615789,0.56304935,-0.25416501,0.605984,0.61892904,-0.25894803,0.612689,0.60342737,-0.21943959,0.597611,0.59565755,-0.19945705,0.590072,0.58859226,-0.18113099,0.583218,0.63459275,-0.26787176,0.60855,0.62798647,-0.22241174,0.589397,0.62326175,-0.1964744,0.578224,0.61963935,-0.17807211,0.570243,0.64720497,-0.27851464,0.606145,0.63511844,-0.23301892,0.589002,0.62894689,-0.20966681,0.580231,0.62278823,-0.18903815,0.572257,0.66153996,-0.2975266,0.605181,0.65560389,-0.25742784,0.589458,0.64613262,-0.25025783,0.582234,0.63774586,-0.24384782,0.57586
0.60679528,-0.34960191,0.623207,0.60922422,-0.3052008,0.616254,0.59384854,-0.33207206,0.623586,0.56806271,-0.30011778,0.614777,0.55115283,-0.27161228,0.607955,0.54707545,-0.25230639,0.605997,0.59144462,-0.25857649,0.612099,0.58370031,-0.21959387,0.600469,0.57986453,-0.19974733,0.594654,0.57640033,-0.18148592,0.589368,0.61142503,-0.26235635,0.609335,0.60414261,-0.21784268,0.596173,0.59993088,-0.19164372,0.588496,0.59693903,-0.17281876,0.583012,0.62794365,-0.26853906,0.607557,0.62393557,-0.22445363,0.594402,0.62188141,-0.20184167,0.587672,0.61992424,-0.18146798,0.581554,0.64777904,-0.28189785,0.606383,0.64629329,-0.24275819,0.594648,0.64523938,-0.22557285,0.589257,0.64433617,-0.21032115,0.584499
0.60226921,-0.346364,0.619206,0.60567817,-0.30301319,0.614914,0.58806144,-0.32990483,0.61969,0.56267973,-0.29738253,0.611358,0.54541601,-0.27042147,0.60899,0.54558131,-0.2538934,0.609586,0.5846524,-0.25808974,0.612655,0.57692307,-0.22196054,0.603184,0.57308151,-0.20334023,0.598449,0.56960382,-0.18606617,0.594145,0.60558237,-0.26093278,0.610642,0.59891943,-0.21722952,0.599806,0.5950694,-0.19138525,0.593485,0.59233683,-0.17275782,0.58897,0.62291795,-0.26616843,0.609292,0.61736251,-0.22145487,0.598683,0.61445971,-0.19947834,0.593255,0.61184739,-0.17929918,0.58832,0.6438042,-0.278074,0.608267,0.64187474,-0.23931238,0.598314,0.6398809,-0.22473415,0.593741,0.6381803,-0.21161407,0.589706
0.59714625,-0.34536379,0.617378,0.59191128,-0.30264289,0.614898,0.57894112,-0.32999149,0.61759,0.55257341,-0.30157945,0.613991,0.53281861,-0.27459618,0.606505,0.52637495,-0.25656849,0.605573,0.5747294,-0.25712674,0.613509,0.56624451,-0.21954652,0.605257,0.56199427,-0.20066752,0.601131,0.55812281,-0.1831724,0.59738,0.59647334,-0.26085939,0.61243,0.59056991,-0.21629749,0.603125,0.58706211,-0.19245278,0.597697,0.58458637,-0.17504898,0.593819,0.61426675,-0.26695561,0.611719,0.60978066,-0.22271687,0.60254,0.60757308,-0.20125219,0.597844,0.60560161,-0.18167734,0.593574,0.63519018,-0.28007465,0.611208,0.63294515,-0.2427561,0.602512,0.63195251,-0.225416,0.598516,0.63109808,-0.21001028,0.59499
0.58459122,-0.34908699,0.622465,0.58334909,-0.30613029,0.617351,0.56864024,-0.33328975,0.622783,0.54659856,-0.30293732,0.61709,0.52571604,-0.27329797,0.606704,0.52527759,-0.25700039,0.607976,0.56893189,-0.25827783,0.614343,0.56303282,-0.21886237,0.604305,0.55843875,-0.19920102,0.599287,0.55426231,-0.18109318,0.594724,0.58925637,-0.26342716,0.612261,0.58462561,-0.21866017,0.60067,0.5845035,-0.19244918,0.595806,0.5831792,-0.1746165,0.592332,0.60572295,-0.27075071,0.610913,0.60029453,-0.22645846,0.599888,0.59753344,-0.20367887,0.594247,0.59486734,-0.18546238,0.589119,0.62480678,-0.28543602,0.610001,0.62286084,-0.24695306,0.599305,0.62151481,-0.23167124,0.594391,0.61997701,-0.21977389,0.590055
0.58827492,-0.34950005,0.622879,0.5823908,-0.30763521,0.618532,0.56612539,-0.334828,0.622624,0.54367613,-0.31024193,0.621196,0.52308913,-0.28289434,0.612647,0.51554084,-0.26291626,0.607741,0.55951155,-0.26189073,0.615317,0.54877861,-0.22268275,0.6054,0.54337532,-0.20326332,0.600442,0.53844941,-0.18533672,0.595935,0.58140242,-0.26481874,0.614184,0.57307777,-0.21943018,0.603119,0.56810847,-0.1946546,0.596664,0.56457322,-0.1766781,0.592053,0.59953548,-0.27035218,0.613561,0.59194329,-0.22514832,0.602634,0.58812238,-0.20322543,0.597043,0.58467053,-0.18304602,0.591961,0.62129596,-0.28299049,0.613406,0.62037856,-0.24478514,0.603807,0.61996981,-0.22717963,0.599396,0.6196175,-0.21161792,0.595505
0.5804973,-0.35031857,0.622118,0.57818703,-0.3081234,0.619201,0.55958546,-0.3359159,0.622044,0.53384409,-0.30831544,0.618115,0.51279978,-0.28250504,0.611995,0.50526101,-0.26336555,0.609048,0.55353067,-0.26276583,0.617162,0.54483113,-0.22470097,0.608163,0.54338128,-0.2047744,0.603664,0.53912055,-0.18681882,0.599574,0.5757537,-0.26493831,0.616283,0.56655272,-0.22014346,0.606517,0.56143788,-0.19488407,0.60082,0.55778671,-0.1766166,0.596751,0.59420098,-0.26972544,0.615767,0.5866011,-0.22515062,0.606079,0.58468612,-0.20302948,0.603158,0.58295112,-0.18279396,0.600503,0.6164881,-0.28125797,0.615547,0.6151433,-0.24320749,0.607104,0.61454703,-0.22569052,0.603225,0.61403149,-0.21018221,0.599802
0.57302344,-0.35112217,0.622008,0.5622852,-0.30713247,0.618011,0.54901984,-0.33632346,0.620622,0.51828622,-0.30783559,0.613182,0.49439407,-0.2812641,0.602345,0.48423286,-0.26158081,0.597023,0.53917495,-0.26046949,0.613642,0.5283028,-0.22133603,0.603487,0.5229319,-0.20182648,0.59841,0.51808848,-0.18409497,0.593795,0.5624057,-0.26362412,0.614013,0.55321496,-0.218507,0.603021,0.5483036,-0.19366008,0.59661,0.54480705,-0.17562883,0.59203,0.58169104,-0.26931216,0.614601,0.57319402,-0.22473698,0.603718,0.56898815,-0.20188175,0.598294,0.56516861,-0.18103566,0.593364,0.60496133,-0.28208182,0.615845,0.60295955,-0.24411552,0.60636,0.60206525,-0.22655934,0.602003,0.60128793,-0.21100692,0.598157
0.56608639,-0.35050699,0.619843,0.55946608,-0.30876906,0.617675,0.54052817,-0.33832775,0.620334,0.51858221,-0.31073675,0.616613,0.49486734,-0.28346043,0.60608,0.48587032,-0.26418447,0.602158,0.53563106,-0.26754118,0.616827,0.52466074,-0.22969086,0.608952,0.51912306,-0.21032448,0.605015,0.51405557,-0.19244776,0.601435,0.55728416,-0.26880914,0.615503,0.54988335,-0.2249276,0.606517,0.54548619,-0.19941127,0.601275,0.54608715,-0.17913279,0.597531,0.57529104,-0.27277303,0.614566,0.57175363,-0.22691761,0.605656,0.56493731,-0.20641461,0.601097,0.56513094,-0.18418606,0.596952,0.59711146,-0.28319857,0.613741,0.59340968,-0.2444783,0.605163,0.59151655,-0.22738496,0.601222,0.58986849,-0.21212167,0.597744
0.55750529,-0.35299956,0.621733,0.55608892,-0.31053757,0.619235,0.54000603,-0.33947647,0.622537,0.51348307,-0.31184807,0.617218,0.48864704,-0.28698726,0.611323,0.47948978,-0.26837354,0.608414,0.53556876,-0.26704931,0.618547,0.52373039,-0.22973392,0.610531,0.51774353,-0.21060317,0.606524,0.51225858,-0.19292025,0.602881,0.55676464,-0.26842277,0.616729,0.5483238,-0.22448455,0.607521,0.54038793,-0.19823961,0.60215,0.53976263,-0.18054463,0.598313,0.57434122,-0.27249914,0.61541,0.56306845,-0.22763382,0.606584,0.55823667,-0.20599705,0.602069,0.5538343,-0.18606261,0.597963,0.59555418,-0.28309486,0.614173,0.5921784,-0.24471537,0.605585,0.59046014,-0.22762799,0.601638,0.58896987,-0.21236904,0.598156
0.55455316,-0.35275064,0.620816,0.55487732,-0.31098879,0.619868,0.5369848,-0.33911263,0.621407,0.5094171,-0.31192996,0.617801,0.48874461,-0.28764741,0.61306,0.48120542,-0.27052985,0.612564,0.53540188,-0.26774166,0.619958,0.52074928,-0.23035625,0.613097,0.51043185,-0.21152072,0.609666,0.5079105,-0.19404033,0.606547,0.55729031,-0.26954471,0.618918,0.5474839,-0.2257158,0.611066,0.54262159,-0.20025343,0.606485,0.5391426,-0.18187691,0.603213,0.57374196,-0.27374239,0.61813,0.56507574,-0.22978422,0.610492,0.56062739,-0.2078441,0.606584,0.55458605,-0.19783267,0.603031,0.5951863,-0.28489761,0.617317,0.59101401,-0.24694246,0.6098,0.58443988,-0.23028493,0.606346,0.5817941,-0.21512482,0.603298
0.5454127,-0.35234753,0.615519,0.54235975,-0.31750862,0.617201,0.52862145,-0.33951681,0.616986,0.50536452,-0.31896771,0.618673,0.48881913,-0.28958762,0.614005,0.4819839,-0.27223507,0.613685,0.52436509,-0.27656218,0.620123,0.51561476,-0.23873374,0.615397,0.51118038,-0.21937472,0.613034,0.50715124,-0.19843692,0.610886,0.54608921,-0.27763197,0.618887,0.53864444,-0.23461544,0.61358,0.53425856,-0.20939766,0.610483,0.53112015,-0.1912891,0.608272,0.56393803,-0.28131935,0.617752,0.55785098,-0.23815536,0.612509,0.55467359,-0.21609952,0.609827,0.55514659,-0.19761146,0.607389,0.58510086,-0.29118841,0.616171,0.58411854,-0.25423176,0.611327,0.58353258,-0.2373502,0.609102,0.58425706,-0.21945273,0.607139
0.5387038,-0.3530602,0.613755,0.53880071,-0.31702228,0.616156,0.51951965,-0.34161462,0.614931,0.497353,-0.31614382,0.615931,0.48189307,-0.2898573,0.610307,0.47990413,-0.27157305,0.612277,0.52163117,-0.27601543,0.619203,0.51341164,-0.23807189,0.614905,0.50924628,-0.21867059,0.612755,0.50599006,-0.19896445,0.610801,0.54384654,-0.27775362,0.618563,0.53783185,-0.23488932,0.613843,0.53429766,-0.20970324,0.611089,0.53176856,-0.19160975,0.609122,0.56202323,-0.28195472,0.617867,0.55696698,-0.23896708,0.613197,0.5543448,-0.21693665,0.610808,0.5545126,-0.19782418,0.608636,0.5834174,-0.29237013,0.616712,0.57837051,-0.25642447,0.612001,0.57707014,-0.23956944,0.609836,0.57984539,-0.2238013,0.607925
0.53534845,-0.35231897,0.612203,0.53653544,-0.31538375,0.615133,0.51687964,-0.34086627,0.614091,0.49575925,-0.3142619,0.615315,0.4772686,-0.2873993,0.609899,0.47663119,-0.27091062,0.612903,0.51919467,-0.27405741,0.619406,0.51144313,-0.23566362,0.615846,0.5064183,-0.21372018,0.614065,0.50544036,-0.19738727,0.612447,0.54082812,-0.27599765,0.61807,0.53735968,-0.23374023,0.613981,0.53443191,-0.20864088,0.611595,0.53233713,-0.19060339,0.609891,0.55837298,-0.28033061,0.616764,0.55585383,-0.23781592,0.612759,0.55374668,-0.21590213,0.61071,0.55181966,-0.19626269,0.608847,0.5787641,-0.29081768,0.614811,0.58007763,-0.25428841,0.610882,0.57981802,-0.23780802,0.609077,0.57960188,-0.22323824,0.607484
