sluyters/QuantumLeap/backend/src/datasets/dynamic/HandGestureDataset_SHREC2017_csv/Gesture7/finger_2/subject_13_essai_4_skeletons_world.csv
Wrist_x,Wrist_y,Wrist_z,Palm_x,Palm_y,Palm_z,thumb_base_x,thumb_base_y,thumb_base_z,thumb_first_joint_x,thumb_first_joint_y,thumb_first_joint_z,thumb_second_joint_x,thumb_second_joint_y,thumb_second_joint_z,thumb_tip_x,thumb_tip_y,thumb_tip_z,index_base_x,index_base_y,index_base_z,index_first_joint_x,index_first_joint_y,index_first_joint_z,index_second_joint_x,index_second_joint_y,index_second_joint_z,index_tip_x,index_tip_y,index_tip_z,middle_base_x,middle_base_y,middle_base_z,middle_first_joint_x,middle_first_joint_y,middle_first_joint_z,middle_second_joint_x,middle_second_joint_y,middle_second_joint_z,middle_tip_x,middle_tip_y,middle_tip_z,ring_base_x,ring_base_y,ring_base_z,ring_first_joint_x,ring_first_joint_y,ring_first_joint_z,ring_second_joint_x,ring_second_joint_y,ring_second_joint_z,ring_tip_x,ring_tip_y,ring_tip_z,pinky_base_x,pinky_base_y,pinky_base_z,pinky_first_joint_x,pinky_first_joint_y,pinky_first_joint_z,pinky_second_joint_x,pinky_second_joint_y,pinky_second_joint_z,pinky_tip_x,pinky_tip_y,pinky_tip_z,
0.50608364,-0.31779701,0.538589,0.50461449,-0.27889307,0.542553,0.48802861,-0.30871537,0.54381,0.45513088,-0.28101106,0.541872,0.42553191,-0.25907546,0.537589,0.41632624,-0.2441503,0.541606,0.47996449,-0.23841855,0.552247,0.47561955,-0.19549913,0.549529,0.47326224,-0.17420794,0.54817,0.47091785,-0.15489395,0.546934,0.50197361,-0.23637423,0.547325,0.49771577,-0.18892835,0.543641,0.49783472,-0.16320807,0.541492,0.51307329,-0.14651231,0.557207,0.51877199,-0.23743806,0.542974,0.5146088,-0.19059713,0.539287,0.51523341,-0.16768792,0.537401,0.53520384,-0.15685268,0.554733,0.53889451,-0.24376066,0.537198,0.54266662,-0.20478456,0.53393,0.54439126,-0.18655598,0.532428,0.56083445,-0.17438246,0.545746
0.50279758,-0.31464486,0.534929,0.50306157,-0.27754986,0.541289,0.48494482,-0.30601238,0.540421,0.45131686,-0.28052562,0.539301,0.42375054,-0.25857779,0.536394,0.41427804,-0.24348653,0.540181,0.48183898,-0.23847451,0.553317,0.47820563,-0.19642948,0.552754,0.47662683,-0.17542292,0.552473,0.47501698,-0.15620148,0.552218,0.50352222,-0.23586926,0.548947,0.50179458,-0.19009724,0.547717,0.50254642,-0.16288957,0.546999,0.50277099,-0.14291371,0.546486,0.52104038,-0.23816336,0.544867,0.51929375,-0.1919598,0.543623,0.52055391,-0.16875037,0.542986,0.5394434,-0.15124984,0.56102,0.54116318,-0.24468202,0.539064,0.54811168,-0.20542714,0.538206,0.55210261,-0.18645396,0.537812,0.56994933,-0.17395998,0.551694
0.50179451,-0.3128916,0.532973,0.50285644,-0.27698685,0.54079,0.48370182,-0.30446041,0.538318,0.44918898,-0.2796777,0.537296,0.42269819,-0.25873597,0.535975,0.41307832,-0.24382374,0.539844,0.48318759,-0.23839053,0.553855,0.47972364,-0.19700704,0.554702,0.47861739,-0.17620728,0.555126,0.47745406,-0.15706701,0.555512,0.5050196,-0.23636681,0.550202,0.5046092,-0.19092451,0.550636,0.50582314,-0.16369671,0.550889,0.50662874,-0.14388214,0.55107,0.5230339,-0.23872753,0.5466,0.52316832,-0.1929472,0.54681,0.52618243,-0.16859151,0.546917,0.52837747,-0.14718511,0.54761,0.54357815,-0.24550713,0.541155,0.55422206,-0.20561195,0.541911,0.5587839,-0.18683359,0.542258,0.57594899,-0.17550957,0.556522
0.502248,-0.31197911,0.532611,0.50307027,-0.27655856,0.540715,0.4840252,-0.30378252,0.537973,0.44859252,-0.28047893,0.537389,0.42216779,-0.25894559,0.535912,0.41237059,-0.24410231,0.539739,0.48358331,-0.23828177,0.55404,0.48006184,-0.19711309,0.555231,0.47900798,-0.176388,0.555826,0.47790566,-0.15726145,0.556367,0.50551482,-0.23645304,0.550472,0.50530029,-0.19102666,0.551288,0.50644902,-0.16374689,0.551764,0.50736433,-0.1440143,0.552104,0.52356261,-0.23873741,0.546918,0.52431876,-0.19307537,0.547434,0.52757613,-0.16882115,0.547699,0.52929713,-0.14712549,0.547939,0.54412253,-0.24557497,0.541487,0.55496576,-0.20567413,0.542545,0.55970162,-0.186944,0.543031,0.57732226,-0.17578774,0.557361
0.50007432,-0.31038156,0.530441,0.50233253,-0.27598807,0.539764,0.48246107,-0.30238448,0.536309,0.44825915,-0.28064247,0.537078,0.42050764,-0.25974918,0.535435,0.4102275,-0.24534337,0.539409,0.48437833,-0.23844466,0.554726,0.48134459,-0.19780397,0.557234,0.48050357,-0.177263,0.558488,0.47969442,-0.15811181,0.559627,0.5061985,-0.23655271,0.550989,0.5069711,-0.19168977,0.553246,0.5080116,-0.16398126,0.554563,0.50889258,-0.14435062,0.555504,0.52404117,-0.23855385,0.547203,0.52746602,-0.19304944,0.54901,0.52994981,-0.16925773,0.549935,0.53219538,-0.14759707,0.550776,0.54419909,-0.24510482,0.541318,0.5562458,-0.2054005,0.543544,0.56158628,-0.18686231,0.544566,0.58059575,-0.17547646,0.559083
0.4987321,-0.31054761,0.530114,0.50207908,-0.27627418,0.539771,0.48151013,-0.30226319,0.53618,0.448491,-0.28106648,0.537422,0.42050544,-0.26025554,0.535494,0.41016981,-0.24603537,0.539621,0.48499211,-0.2385688,0.555254,0.48210227,-0.19805407,0.558141,0.48126353,-0.1775286,0.559584,0.48045622,-0.15840723,0.560897,0.5067359,-0.23663265,0.551397,0.50763434,-0.19196411,0.554071,0.50862402,-0.16442159,0.555631,0.50947423,-0.14479852,0.556745,0.52446853,-0.23844695,0.547488,0.52827821,-0.1930628,0.54964,0.5308582,-0.16935452,0.550741,0.5332231,-0.14768244,0.551742,0.54447246,-0.24484928,0.541406,0.55679548,-0.2051557,0.54393,0.56230696,-0.18667605,0.545089,0.58137032,-0.17528189,0.55964
0.49752008,-0.3107935,0.529924,0.50178307,-0.27658821,0.539768,0.48061711,-0.30219607,0.536124,0.44866419,-0.28139181,0.537681,0.42044488,-0.26058069,0.535461,0.41009394,-0.2465092,0.539727,0.48539027,-0.23862231,0.55557,0.48255128,-0.19819084,0.558684,0.4816863,-0.17767309,0.560241,0.48085348,-0.15857267,0.561657,0.50706998,-0.23665172,0.551619,0.50799199,-0.19211767,0.55454,0.50894177,-0.16468583,0.556244,0.50976083,-0.14506801,0.557461,0.52471323,-0.23832372,0.547618,0.52874213,-0.19302974,0.549969,0.53136032,-0.16938602,0.551171,0.53379127,-0.14770702,0.552265,0.54460932,-0.24461625,0.541399,0.557052,-0.20495216,0.54408,0.56265779,-0.18650882,0.545312,0.58174725,-0.17511,0.559877
0.49250352,-0.31033855,0.526737,0.49778814,-0.27788296,0.53707,0.47694307,-0.30182868,0.533848,0.44727094,-0.28366515,0.536845,0.42028675,-0.26334799,0.535372,0.41131543,-0.24613143,0.539661,0.48596371,-0.24115474,0.554385,0.48295015,-0.20010653,0.558576,0.48244865,-0.17881879,0.560672,0.48134843,-0.15956054,0.562577,0.50514143,-0.23781951,0.549494,0.50870882,-0.1948863,0.553513,0.5094415,-0.16749321,0.555857,0.50953603,-0.14597128,0.557532,0.52439425,-0.24175486,0.544682,0.52847517,-0.19955661,0.548116,0.52971709,-0.17666495,0.549873,0.53206836,-0.14986802,0.55147,0.54281996,-0.24815576,0.537422,0.55442108,-0.21276349,0.540358,0.55868795,-0.19436828,0.541707,0.56216683,-0.1727182,0.542897
0.49248068,-0.3117521,0.527659,0.49777185,-0.27953905,0.537587,0.47741794,-0.30329194,0.5351,0.44840577,-0.2852399,0.538462,0.42079105,-0.26407741,0.535923,0.410793,-0.24670039,0.539497,0.48699058,-0.24205116,0.554971,0.48364312,-0.20139327,0.558902,0.48260467,-0.17962625,0.560867,0.48122866,-0.1602205,0.562654,0.50615081,-0.2385668,0.549523,0.50861013,-0.19563686,0.553188,0.50862414,-0.16841707,0.555325,0.50869776,-0.14645542,0.556852,0.52400915,-0.24157732,0.544282,0.52976041,-0.20004192,0.549449,0.53185475,-0.17737787,0.552092,0.53460277,-0.15176797,0.554495,0.54195738,-0.24776143,0.536568,0.55298978,-0.21221421,0.538963,0.55699345,-0.19377876,0.540064,0.56012403,-0.173113,0.541035
0.49212355,-0.31281023,0.527999,0.49773549,-0.28105044,0.537886,0.477346,-0.30430696,0.535533,0.44874891,-0.28602825,0.539044,0.42100291,-0.26448583,0.536132,0.41048675,-0.24723375,0.539315,0.48757993,-0.24253744,0.55535,0.48425248,-0.20261727,0.559318,0.48268009,-0.18042617,0.561302,0.48107404,-0.16094893,0.563106,0.50727433,-0.2393624,0.549774,0.50893807,-0.19615665,0.553436,0.50868576,-0.16903294,0.555572,0.50875388,-0.147035,0.557098,0.52415164,-0.24164301,0.54443,0.53001302,-0.20013729,0.549711,0.53216302,-0.17748069,0.552412,0.53470676,-0.15258717,0.554868,0.5419897,-0.2477762,0.5366,0.55293745,-0.21219413,0.538912,0.55690063,-0.19374646,0.539974,0.56041358,-0.17418035,0.540911
0.49137035,-0.31316903,0.527161,0.49753853,-0.28390416,0.537518,0.47719454,-0.30509131,0.535269,0.44962603,-0.28943305,0.539614,0.42089326,-0.26633752,0.53485,0.40917281,-0.24900178,0.537338,0.48890235,-0.24476182,0.556077,0.48536043,-0.20522383,0.56064,0.4832525,-0.18524725,0.562922,0.48128018,-0.16680352,0.564996,0.50841723,-0.24159341,0.549971,0.50902011,-0.19825381,0.554301,0.50804612,-0.17171324,0.556828,0.5072787,-0.15238397,0.558632,0.52348923,-0.24083738,0.544154,0.52962279,-0.20035722,0.549571,0.53151122,-0.17776685,0.552342,0.53263353,-0.156665,0.554861,0.54133873,-0.24700656,0.535691,0.55172756,-0.20796947,0.538319,0.55641076,-0.18960695,0.539527,0.5600036,-0.17421593,0.540592
0.49144718,-0.3140084,0.527007,0.49794792,-0.28391678,0.53736,0.47730343,-0.30607291,0.535125,0.45008863,-0.28972708,0.539365,0.42031413,-0.26630081,0.533609,0.40855952,-0.24892485,0.536132,0.48871988,-0.24526207,0.555929,0.48527923,-0.20580357,0.560466,0.48305192,-0.1859231,0.562734,0.48095734,-0.16750061,0.564797,0.50824594,-0.24183957,0.549809,0.50832779,-0.19851763,0.554209,0.50722229,-0.17210187,0.556775,0.50634479,-0.1528702,0.558608,0.52379995,-0.24169529,0.543981,0.52889767,-0.20030273,0.548977,0.53038126,-0.17769213,0.551533,0.53118764,-0.15669378,0.553856,0.54131081,-0.24671123,0.535505,0.55192716,-0.2082914,0.538111,0.55642335,-0.18992828,0.539308,0.55964214,-0.17490229,0.540364
0.49177439,-0.31508646,0.527175,0.49839502,-0.28402427,0.537442,0.47763071,-0.30725519,0.535277,0.45054673,-0.29001943,0.539376,0.41993718,-0.26628228,0.532793,0.40807567,-0.2488609,0.535185,0.48867535,-0.24563412,0.555918,0.4852259,-0.20618954,0.560351,0.48288241,-0.18636034,0.562567,0.4806716,-0.16794276,0.564582,0.50821132,-0.24204129,0.549787,0.50785291,-0.19868824,0.554133,0.5066089,-0.17233825,0.556668,0.50562164,-0.15316239,0.558479,0.523796,-0.24174698,0.543956,0.52841166,-0.20026497,0.548578,0.52957828,-0.17762567,0.550942,0.53013291,-0.15668682,0.553092,0.54140123,-0.24656429,0.535489,0.55214941,-0.20880819,0.538002,0.55640315,-0.19041165,0.539156,0.55917598,-0.17548712,0.540175
0.49208382,-0.31601101,0.527562,0.49925317,-0.28113427,0.537678,0.47794633,-0.30817718,0.53561,0.4504583,-0.28795541,0.539516,0.41996685,-0.26494195,0.533567,0.40805768,-0.24874847,0.535121,0.48890344,-0.24539162,0.555961,0.48529328,-0.20584158,0.56018,0.48284813,-0.18598394,0.56229,0.48053881,-0.16751839,0.564207,0.50847276,-0.24182506,0.549841,0.5078166,-0.19839121,0.553899,0.5064052,-0.17197044,0.556266,0.50621692,-0.15060524,0.557957,0.52409087,-0.24154973,0.544032,0.52980762,-0.20019922,0.54986,0.53272725,-0.17671583,0.552842,0.5355745,-0.15221699,0.555553,0.54175431,-0.24638241,0.535612,0.55257821,-0.20933895,0.537932,0.55650372,-0.19096924,0.538997,0.55974557,-0.173422,0.539938
0.49268887,-0.3185461,0.529861,0.49929993,-0.28456942,0.53887,0.47836616,-0.31002499,0.537354,0.44980758,-0.2874021,0.540496,0.42087535,-0.26443508,0.535685,0.40963547,-0.24805113,0.537454,0.48931772,-0.24320545,0.555554,0.48482185,-0.20317299,0.558955,0.48174818,-0.18139377,0.560655,0.47907138,-0.16480315,0.562201,0.50862961,-0.24171311,0.549702,0.50985496,-0.19712061,0.553168,0.50948704,-0.17026246,0.555191,0.50884152,-0.15065916,0.556635,0.5244401,-0.24192148,0.544196,0.52890755,-0.20071075,0.548667,0.53003265,-0.1780078,0.550954,0.53070184,-0.15637979,0.553033,0.541816,-0.24892487,0.5363,0.55180995,-0.21274285,0.537746,0.55530622,-0.19416657,0.53841,0.5579502,-0.17619952,0.538996
0.49268643,-0.32020689,0.531116,0.49965772,-0.28477208,0.53959,0.47872753,-0.31150322,0.538726,0.45055259,-0.28878351,0.54203,0.420377,-0.26484507,0.535547,0.40781808,-0.24824178,0.534391,0.48938834,-0.24221423,0.555971,0.48481953,-0.20195051,0.558821,0.4819638,-0.18169791,0.560246,0.47930705,-0.16297634,0.561542,0.50857975,-0.24080222,0.549779,0.51013519,-0.19619284,0.553984,0.50973848,-0.16939001,0.556437,0.50723813,-0.15131705,0.558189,0.52435294,-0.24169976,0.544035,0.52865855,-0.19976084,0.548085,0.52970036,-0.1768981,0.550157,0.52996999,-0.15586713,0.552041,0.54201955,-0.24735784,0.535933,0.55126715,-0.20889658,0.536757,0.554524,-0.19032907,0.537136,0.55666425,-0.17461653,0.53747
0.48940093,-0.31972356,0.528824,0.4982731,-0.28398192,0.538361,0.47695312,-0.31158592,0.53769,0.45052207,-0.28967058,0.542633,0.42345326,-0.26751299,0.539967,0.41220021,-0.25112765,0.540272,0.49095869,-0.2430878,0.557165,0.48779744,-0.20323389,0.561394,0.48534151,-0.18319572,0.563508,0.48302756,-0.16458472,0.56543,0.50893957,-0.24120602,0.549827,0.51181565,-0.19699327,0.555162,0.51175616,-0.17028955,0.558274,0.51009984,-0.152358,0.561232,0.52346663,-0.24114613,0.543059,0.53104041,-0.2004162,0.550369,0.53372271,-0.17794464,0.554109,0.53539758,-0.15722302,0.557509,0.53961562,-0.24632704,0.533579,0.55210917,-0.20925805,0.537656,0.55694893,-0.19119196,0.539529,0.56025406,-0.17650375,0.541181
0.49123963,-0.31944914,0.529556,0.50305276,-0.2794101,0.537936,0.47779077,-0.31088693,0.537476,0.45473277,-0.28770607,0.541419,0.42048192,-0.26545548,0.533074,0.40756168,-0.24818083,0.533848,0.49016246,-0.24065159,0.554608,0.48593687,-0.20060332,0.557314,0.48161672,-0.18133262,0.558667,0.47797775,-0.16482721,0.559897,0.50940708,-0.2369145,0.547999,0.50797855,-0.19173143,0.550062,0.50588599,-0.16455204,0.551266,0.50326567,-0.14727647,0.552126,0.52767719,-0.23336999,0.541919,0.53033511,-0.18958342,0.545837,0.52968804,-0.16930686,0.547841,0.52935598,-0.15119918,0.549664,0.5456325,-0.23731479,0.533431,0.55336221,-0.19882577,0.533908,0.55519949,-0.18091501,0.534127,0.55457373,-0.17047361,0.53432
0.49306424,-0.31993245,0.531114,0.49997721,-0.28307367,0.538867,0.47913556,-0.31108561,0.538588,0.45111388,-0.2884769,0.541864,0.41939041,-0.26509,0.532868,0.40728623,-0.24799788,0.533586,0.48976308,-0.24061996,0.55447,0.48610868,-0.19908099,0.556292,0.48187126,-0.17983488,0.557203,0.47833492,-0.16123883,0.558031,0.50897742,-0.23811336,0.548169,0.50732148,-0.19197899,0.549514,0.50515714,-0.16481731,0.550298,0.5037063,-0.14606115,0.550858,0.52438797,-0.23813848,0.54239,0.52789277,-0.19390107,0.545086,0.52855316,-0.17044763,0.546465,0.52809677,-0.14993844,0.547719,0.54197424,-0.24376597,0.534352,0.55089994,-0.20437041,0.534398,0.55352303,-0.18593063,0.534419,0.55466384,-0.17117129,0.534437
0.48958619,-0.31751374,0.527613,0.49725277,-0.28217808,0.536684,0.4768565,-0.30927826,0.536196,0.44914813,-0.28754319,0.541083,0.42103843,-0.26467558,0.536007,0.41038313,-0.24818451,0.538377,0.49049237,-0.24002861,0.554735,0.4919437,-0.19779956,0.557703,0.49275004,-0.17893607,0.559187,0.48819248,-0.16007815,0.560537,0.50891857,-0.23734917,0.547544,0.51093762,-0.19125442,0.550482,0.51055512,-0.16399071,0.552196,0.50850136,-0.14492534,0.55342,0.5222518,-0.23940142,0.540928,0.52687957,-0.19110564,0.543256,0.52794579,-0.1676484,0.544447,0.52962378,-0.15199859,0.550542,0.53864847,-0.24409118,0.531694,0.54877884,-0.20569288,0.532849,0.5568035,-0.19035611,0.533379,0.56099979,-0.17609908,0.535053
0.50029968,-0.32481754,0.539925,0.50005663,-0.28368282,0.539933,0.48713683,-0.31592398,0.548337,0.45915557,-0.2916076,0.550354,0.42681641,-0.26262854,0.539993,0.4132436,-0.24372488,0.53751,0.48665936,-0.23815644,0.550239,0.48001744,-0.1934376,0.543798,0.47992376,-0.17198152,0.540578,0.47436502,-0.15281076,0.53765,0.50142395,-0.23511263,0.539942,0.49623685,-0.18470269,0.531854,0.49307904,-0.15739987,0.527136,0.48994598,-0.1366711,0.523765,0.51355142,-0.23509727,0.53147,0.51090437,-0.18659065,0.522757,0.50763764,-0.16214085,0.518299,0.50469255,-0.13939084,0.514246,0.52814676,-0.24089388,0.521362,0.53241464,-0.20211298,0.512303,0.53344204,-0.18340097,0.508141,0.53321715,-0.1677925,0.504468
0.49471986,-0.32182425,0.534323,0.49473462,-0.28029811,0.530826,0.48373556,-0.31375382,0.544455,0.46394553,-0.29199103,0.54881,0.44017628,-0.26854763,0.546469,0.43408163,-0.25211988,0.550105,0.49145474,-0.23819136,0.540325,0.47910037,-0.19489248,0.531634,0.47287532,-0.17282243,0.527288,0.46698264,-0.15261131,0.523337,0.50175177,-0.23295765,0.526639,0.49213126,-0.18350484,0.517876,0.4825654,-0.15385349,0.512765,0.47747097,-0.13396032,0.509114,0.51010659,-0.23182155,0.515649,0.50405296,-0.18136655,0.503279,0.4946291,-0.15951205,0.49695,0.48596754,-0.13904157,0.491197,0.52001573,-0.23661823,0.503056,0.5172592,-0.19334533,0.490467,0.51275321,-0.17481236,0.484682,0.5088132,-0.15811006,0.479579
0.49309485,-0.32177099,0.532844,0.49670366,-0.28286493,0.526083,0.48344107,-0.31369712,0.543765,0.46824003,-0.29440785,0.549655,0.44958476,-0.27102233,0.549293,0.43598885,-0.25110895,0.548038,0.49342107,-0.23598365,0.533837,0.48434613,-0.19197878,0.528425,0.47789969,-0.17050364,0.525719,0.46781896,-0.15023229,0.523259,0.5010821,-0.2318522,0.51799,0.49074551,-0.18048294,0.504393,0.48066822,-0.15244114,0.496462,0.47046554,-0.13524121,0.490797,0.50720316,-0.23179256,0.505474,0.4985579,-0.18118938,0.492124,0.48954475,-0.15797319,0.485293,0.47759738,-0.13597458,0.479084,0.51436941,-0.23817896,0.491544,0.50418614,-0.19595487,0.476224,0.49957416,-0.1761565,0.469185,0.49554292,-0.15845935,0.462974
0.49151221,-0.32218626,0.53113,0.49620027,-0.28369058,0.524338,0.48339763,-0.31428864,0.543025,0.4731706,-0.29651325,0.550278,0.45223018,-0.27138034,0.549421,0.44405184,-0.25184594,0.549677,0.49443736,-0.23723176,0.533256,0.48830141,-0.19271883,0.523532,0.48212233,-0.17027629,0.51867,0.47649494,-0.14973665,0.514251,0.50057871,-0.23255362,0.516206,0.49083641,-0.18113575,0.502896,0.48050494,-0.15318954,0.495132,0.47160935,-0.13445024,0.489587,0.50538037,-0.23203307,0.502703,0.49638214,-0.18100526,0.487772,0.48626473,-0.15796399,0.480132,0.47701212,-0.13653931,0.473187,0.51086566,-0.2378353,0.4876,0.49943449,-0.19584246,0.471428,0.49424396,-0.1761628,0.463997,0.48776004,-0.1617845,0.457441
0.49566904,-0.32470013,0.534287,0.49598738,-0.28283145,0.522746,0.48721949,-0.31578135,0.545236,0.47786276,-0.290856,0.551666,0.45899275,-0.26586929,0.5521,0.44942778,-0.24895082,0.550674,0.49807817,-0.22900378,0.526559,0.48706547,-0.18212555,0.512671,0.47589096,-0.16146295,0.505726,0.46566232,-0.14239851,0.499413,0.50128934,-0.22732009,0.50893,0.48719865,-0.17518375,0.489772,0.47336367,-0.14735867,0.478597,0.4634475,-0.12718372,0.470615,0.50134854,-0.22979036,0.495317,0.49122136,-0.17820895,0.476475,0.47698985,-0.15667615,0.466835,0.46366284,-0.13533042,0.458071,0.50554505,-0.23742198,0.480784,0.48775754,-0.19927038,0.460852,0.47905428,-0.18073501,0.451694,0.47046833,-0.16470149,0.443613
0.49664107,-0.32576046,0.534958,0.49601032,-0.28249397,0.522477,0.48839167,-0.31586723,0.545248,0.4756123,-0.28830231,0.550573,0.45701656,-0.2630303,0.551155,0.44870747,-0.24281121,0.550106,0.49677614,-0.22737115,0.524704,0.48334944,-0.18097673,0.509036,0.47310887,-0.15942833,0.501202,0.46376528,-0.13961238,0.49408,0.5002929,-0.22667815,0.507536,0.4862463,-0.17437112,0.488063,0.47157481,-0.14719718,0.476703,0.45977891,-0.12878347,0.468589,0.50133915,-0.2296462,0.494376,0.48892993,-0.17814804,0.473607,0.47444842,-0.15622188,0.462981,0.46084605,-0.13626063,0.453321,0.505491,-0.23860085,0.480522,0.48714855,-0.20037336,0.460292,0.47835174,-0.18186487,0.450997,0.46975561,-0.16582621,0.442796
0.49960366,-0.33081622,0.539354,0.49759589,-0.28483571,0.523323,0.49124868,-0.31773616,0.547527,0.47454922,-0.28753075,0.5492,0.46173009,-0.25949928,0.550393,0.46033092,-0.23934682,0.550865,0.49268859,-0.22821512,0.520004,0.48033655,-0.1840861,0.502164,0.4722826,-0.16151446,0.493244,0.46088632,-0.13878893,0.485135,0.49797836,-0.23245484,0.504131,0.47930055,-0.18258758,0.479502,0.46509334,-0.15518683,0.465135,0.45461444,-0.13557701,0.454873,0.5015172,-0.23777997,0.49231,0.48558073,-0.18725427,0.468935,0.4740816,-0.16320062,0.456976,0.46364009,-0.14106277,0.446104,0.50561015,-0.25102802,0.480578,0.48589292,-0.21163991,0.459353,0.4768159,-0.19324677,0.449602,0.4681186,-0.1772855,0.440997
0.49856185,-0.33115582,0.538861,0.49674845,-0.28512722,0.522673,0.49027919,-0.318321,0.546995,0.47401627,-0.28711377,0.54845,0.46118908,-0.2591104,0.549644,0.45976167,-0.23894358,0.550083,0.49228613,-0.22850256,0.519175,0.47942489,-0.18355529,0.501028,0.47122389,-0.16094757,0.491954,0.4604597,-0.13925591,0.483706,0.49734713,-0.23202504,0.503292,0.47847185,-0.18208879,0.478465,0.4641505,-0.15466136,0.463982,0.45359137,-0.13503977,0.453638,0.5008862,-0.23734965,0.491474,0.48475442,-0.18675583,0.467911,0.47209259,-0.16352521,0.455855,0.45993371,-0.14270735,0.444896,0.50500639,-0.25060893,0.47977,0.48520815,-0.21118676,0.458465,0.4760925,-0.19278062,0.448676,0.46736319,-0.17681011,0.440039
0.50970735,-0.34287509,0.548917,0.50991253,-0.29826069,0.521109,0.5040612,-0.32630545,0.551426,0.49972725,-0.29560661,0.553068,0.48306679,-0.26608908,0.550882,0.47337484,-0.24393218,0.546693,0.48941305,-0.23086226,0.501064,0.48098044,-0.18365342,0.484613,0.47360464,-0.16113336,0.476388,0.46668961,-0.14056755,0.46891,0.49569478,-0.23699309,0.487818,0.47011882,-0.18596495,0.456068,0.45519487,-0.15622821,0.437548,0.4474985,-0.13590373,0.427151,0.50184737,-0.24596263,0.479068,0.48040667,-0.19958883,0.443148,0.45614618,-0.18529144,0.42477,0.43366624,-0.17259053,0.408063,0.51115079,-0.26430723,0.47274,0.45177264,-0.25807163,0.448134,0.42646402,-0.26351494,0.436828,0.41477654,-0.27389147,0.436626
0.51700315,-0.34990774,0.546985,0.50804849,-0.30035178,0.518294,0.51192447,-0.33181613,0.549797,0.50092194,-0.30042049,0.550614,0.48590443,-0.27187141,0.550345,0.47410051,-0.24652449,0.545759,0.48854429,-0.23649718,0.497886,0.47515029,-0.1890712,0.473474,0.46360785,-0.16778877,0.461268,0.45312127,-0.14827364,0.450171,0.49355219,-0.24288373,0.483946,0.46822123,-0.19031991,0.451976,0.45271605,-0.16020545,0.433327,0.44400991,-0.13717005,0.423046,0.49869933,-0.25204205,0.474692,0.4712128,-0.20397943,0.443057,0.45820782,-0.17967648,0.427839,0.44641305,-0.1574281,0.414004,0.50690467,-0.27056818,0.467896,0.44589489,-0.26497914,0.44343,0.4214269,-0.26987343,0.432188,0.40894025,-0.27897181,0.430897
0.49935565,-0.33529185,0.535404,0.49727282,-0.28945637,0.508781,0.49686622,-0.31803067,0.539561,0.49490841,-0.27930267,0.542411,0.48591888,-0.25055267,0.544572,0.48076063,-0.22783202,0.540959,0.48593106,-0.22330736,0.49174,0.48218844,-0.17589229,0.471011,0.46598078,-0.15725756,0.460647,0.45117293,-0.14012528,0.451224,0.48606609,-0.23183164,0.476909,0.45934902,-0.18322452,0.442557,0.44378275,-0.15479695,0.422518,0.43267467,-0.13445293,0.408205,0.48686126,-0.24242474,0.466763,0.47384334,-0.19602896,0.42911,0.44179375,-0.180728,0.409846,0.41040877,-0.17526123,0.392333,0.48914953,-0.26195499,0.458595,0.4630437,-0.22170394,0.429,0.44993388,-0.20364423,0.415402,0.43837559,-0.1876468,0.403404
0.497755,-0.33204837,0.527003,0.49864835,-0.28318438,0.49908,0.50203073,-0.3086657,0.531359,0.50492933,-0.27761027,0.538856,0.50085602,-0.25146991,0.545369,0.49753436,-0.22990887,0.544275,0.48864405,-0.21869566,0.481201,0.48606807,-0.17191437,0.461666,0.47048145,-0.15189486,0.451898,0.4457969,-0.14154072,0.443018,0.48518601,-0.22757209,0.46565,0.45630678,-0.1798365,0.43138,0.43948913,-0.15186539,0.41139,0.42414907,-0.13130024,0.39711,0.48321914,-0.2384565,0.455013,0.45455945,-0.18841537,0.425431,0.43989849,-0.16278626,0.410296,0.42657188,-0.13946911,0.396537,0.482563,-0.25832833,0.446451,0.45126479,-0.21963922,0.416948,0.43688649,-0.20176871,0.403392,0.42479237,-0.1839797,0.391431
0.50516486,-0.3348765,0.527502,0.50128798,-0.28482661,0.500279,0.50625206,-0.31038569,0.532291,0.50709954,-0.27607714,0.532613,0.50097329,-0.24515019,0.532923,0.49452355,-0.22170289,0.527198,0.49120389,-0.22041193,0.483514,0.48350515,-0.17669461,0.453382,0.46929966,-0.15626474,0.438316,0.4491248,-0.14131719,0.424619,0.48800015,-0.2287348,0.467689,0.47799395,-0.17511797,0.43878,0.44452763,-0.15490076,0.421917,0.43076035,-0.13679054,0.409871,0.48623244,-0.23919727,0.456772,0.45616409,-0.18978745,0.425287,0.44078331,-0.16448558,0.409179,0.4260871,-0.14174406,0.394535,0.48579596,-0.25862922,0.447774,0.45616826,-0.21677141,0.421101,0.44350482,-0.19844828,0.408847,0.43142564,-0.18265019,0.398034
0.5066346,-0.33385906,0.527681,0.49898035,-0.28348618,0.497441,0.51091993,-0.30845737,0.53047,0.50841981,-0.26607049,0.525625,0.49697967,-0.23357881,0.521075,0.49045661,-0.20944985,0.51233,0.48523557,-0.21780108,0.475718,0.47334797,-0.17888767,0.440199,0.45897105,-0.1592474,0.42244,0.44022033,-0.14299097,0.406295,0.48437277,-0.23119885,0.461237,0.47497031,-0.18001075,0.427946,0.44449207,-0.15716684,0.408526,0.42275449,-0.14090279,0.394655,0.48139521,-0.24402685,0.451659,0.45335644,-0.1956612,0.416154,0.43900959,-0.17092154,0.397989,0.42596533,-0.14843455,0.381475,0.4797731,-0.26581868,0.444704,0.4531282,-0.22553587,0.411681,0.43883687,-0.20750587,0.396508,0.42396756,-0.19226998,0.38312
0.50713218,-0.33284895,0.527344,0.49605141,-0.28277507,0.494076,0.5092029,-0.30612136,0.527627,0.51581831,-0.27062849,0.533826,0.5182836,-0.24313616,0.539634,0.5210732,-0.22155716,0.537911,0.48548121,-0.22240006,0.466767,0.4738288,-0.18144005,0.432017,0.45201921,-0.16327432,0.414642,0.43150699,-0.14382167,0.398847,0.47983597,-0.23656457,0.454248,0.45384322,-0.1922203,0.413819,0.43868504,-0.16634607,0.390235,0.42001198,-0.14921872,0.37339,0.47631885,-0.25141316,0.446518,0.45088431,-0.20265753,0.412832,0.4371278,-0.17779971,0.395598,0.42443429,-0.15149457,0.37993,0.47428909,-0.2752526,0.442214,0.44504037,-0.23990802,0.405345,0.43161058,-0.22365763,0.388405,0.41976535,-0.20931177,0.373457
0.51222301,-0.33534689,0.532129,0.50060557,-0.29097032,0.495958,0.51000935,-0.30602839,0.527708,0.51280501,-0.269277,0.530544,0.51328055,-0.23932828,0.532825,0.51492562,-0.21785243,0.530249,0.48714355,-0.23137831,0.460476,0.48034626,-0.18652239,0.430668,0.46346389,-0.16613155,0.415764,0.4449209,-0.14900241,0.402216,0.48548665,-0.24981015,0.452654,0.45876049,-0.20528369,0.411888,0.4431686,-0.1793123,0.388108,0.42874647,-0.16133084,0.371123,0.48519752,-0.26790623,0.449013,0.47499741,-0.22328003,0.40923,0.44767332,-0.20464533,0.388876,0.40907105,-0.19524217,0.370373,0.48688459,-0.29507904,0.450017,0.47455702,-0.25430276,0.415732,0.45977396,-0.23704466,0.39998,0.44629839,-0.22191908,0.386081
0.51301886,-0.33540825,0.532324,0.50229453,-0.29628108,0.495175,0.51031516,-0.30602545,0.526944,0.51528933,-0.26806315,0.519864,0.5100687,-0.23333959,0.512814,0.49956819,-0.20978207,0.50177,0.48855348,-0.23586845,0.457706,0.48141149,-0.19138603,0.426621,0.45777252,-0.17340405,0.411078,0.43631458,-0.15711452,0.396948,0.48619437,-0.25515323,0.450701,0.46059804,-0.21110149,0.40895,0.4433188,-0.1856396,0.384594,0.42685614,-0.16808807,0.367198,0.48538314,-0.27390329,0.447807,0.47489333,-0.2306719,0.406958,0.44091684,-0.21366297,0.386058,0.39824075,-0.20621554,0.367058,0.48654738,-0.30175106,0.449847,0.47444919,-0.26146167,0.414685,0.45542254,-0.24491827,0.398529,0.438636,-0.23033712,0.384274
0.51532354,-0.332635,0.522506,0.51335685,-0.29749179,0.486974,0.51656102,-0.3079889,0.519113,0.52299769,-0.27416735,0.517543,0.51770301,-0.24119789,0.514833,0.51165166,-0.2170107,0.507228,0.49670489,-0.23123627,0.453282,0.48840947,-0.18645126,0.422,0.46543182,-0.16824189,0.40636,0.44456107,-0.15173146,0.392141,0.49512322,-0.24814242,0.444435,0.46776712,-0.19950684,0.404624,0.45173383,-0.17125137,0.3814,0.43994722,-0.15116896,0.364812,0.49505743,-0.26540163,0.439901,0.48335234,-0.21554571,0.402129,0.44122217,-0.20281086,0.382803,0.39867875,-0.20294501,0.365235,0.49726478,-0.29234603,0.439745,0.48770971,-0.24888205,0.405569,0.45691556,-0.23695824,0.389867,0.42963542,-0.22594244,0.376012
0.50840318,-0.32733683,0.518743,0.5097967,-0.29571272,0.484556,0.51539055,-0.30738771,0.516397,0.52223443,-0.27368714,0.517667,0.51924723,-0.24153216,0.516588,0.51514015,-0.21791038,0.51029,0.49702778,-0.23150622,0.453264,0.48791288,-0.18733761,0.420999,0.47107416,-0.16937261,0.404867,0.45517034,-0.15179965,0.390202,0.49473141,-0.24801842,0.443627,0.47091957,-0.20459058,0.403089,0.45669,-0.17906729,0.379442,0.44653075,-0.16083116,0.362551,0.49383816,-0.26474985,0.43834,0.48833542,-0.22062793,0.402083,0.47368115,-0.19914757,0.383533,0.45919027,-0.17982768,0.366669,0.49464145,-0.29069977,0.437086,0.47517201,-0.25519387,0.400362,0.46157312,-0.2395116,0.383489,0.4495893,-0.22566258,0.368601
0.51487037,-0.33127788,0.524407,0.51497457,-0.29888505,0.489953,0.51466795,-0.30628807,0.520137,0.520965,-0.27180889,0.516149,0.522442,-0.23628073,0.512,0.52638176,-0.21439641,0.505526,0.50493411,-0.23724887,0.456083,0.49794258,-0.1953157,0.422714,0.48020049,-0.17704524,0.40603,0.46407828,-0.16039242,0.390862,0.50421598,-0.2560465,0.448705,0.48276689,-0.21455713,0.407602,0.47029163,-0.19032787,0.383625,0.46140055,-0.17300602,0.366498,0.50425962,-0.27428296,0.445296,0.49914362,-0.23130805,0.407569,0.48314575,-0.21129776,0.388267,0.46589285,-0.19380542,0.37072,0.50551489,-0.30132373,0.446323,0.48692221,-0.26603854,0.409994,0.47743359,-0.24997405,0.393303,0.46908153,-0.2357884,0.378575
0.51415807,-0.33051879,0.522738,0.51394014,-0.29808476,0.488237,0.51817877,-0.30780675,0.517991,0.5217899,-0.26833586,0.513321,0.52148176,-0.23476854,0.508445,0.52374794,-0.21253336,0.501363,0.50998852,-0.23830852,0.453745,0.50382372,-0.19663259,0.4219,0.49168945,-0.17677288,0.405978,0.48070604,-0.15863372,0.391504,0.50870129,-0.25768255,0.446933,0.4881376,-0.21516451,0.406523,0.475821,-0.19037629,0.38295,0.46398028,-0.17273883,0.366113,0.50545621,-0.27489662,0.443993,0.50463578,-0.23374249,0.406554,0.48797626,-0.21376471,0.387399,0.46765485,-0.1948162,0.369986,0.50653434,-0.30225402,0.445587,0.49297507,-0.26833719,0.409296,0.48429384,-0.25228558,0.392622,0.47665035,-0.23811428,0.377909
0.52264369,-0.33245985,0.519251,0.52468894,-0.29451667,0.484861,0.51956989,-0.30582065,0.514054,0.52911567,-0.26300418,0.507252,0.5184245,-0.22880918,0.497857,0.51565213,-0.20664105,0.489208,0.51667056,-0.23386622,0.44991,0.50171774,-0.19357487,0.417071,0.48935718,-0.1738368,0.400651,0.47713087,-0.15611603,0.385724,0.51667183,-0.25356887,0.443691,0.49503505,-0.21179587,0.403206,0.48157486,-0.18751979,0.37959,0.46733465,-0.17060115,0.362722,0.51720035,-0.27247675,0.44123,0.51218589,-0.2289031,0.403467,0.49399637,-0.2093289,0.384146,0.47062785,-0.19329145,0.366581,0.51881382,-0.30015711,0.443379,0.50271028,-0.26462391,0.407095,0.49343916,-0.24860225,0.390424,0.48528273,-0.23445407,0.375714
0.52810897,-0.3329957,0.514072,0.52828659,-0.29960272,0.480719,0.52638118,-0.30777757,0.511517,0.52694778,-0.27364775,0.503121,0.51873823,-0.23821435,0.494704,0.51240195,-0.21419431,0.484429,0.51590452,-0.23417412,0.449864,0.50356351,-0.19276749,0.414438,0.48320495,-0.17490226,0.396725,0.46882773,-0.16172458,0.380622,0.51470902,-0.25139205,0.440789,0.49220488,-0.20922195,0.399723,0.47726896,-0.184982,0.375768,0.46356103,-0.1681468,0.358658,0.51432133,-0.26837764,0.435898,0.50855458,-0.22512728,0.398049,0.49036053,-0.20602499,0.378684,0.47192649,-0.18922224,0.361079,0.52120214,-0.29362297,0.434995,0.49970122,-0.26016715,0.398178,0.48988998,-0.24476975,0.381262,0.47695906,-0.22990282,0.366336
0.52849518,-0.33697292,0.510203,0.52723803,-0.30038246,0.478188,0.53278403,-0.31524,0.508812,0.53297126,-0.27810739,0.504149,0.53101727,-0.24451175,0.499916,0.52771404,-0.22094428,0.491596,0.52179235,-0.23943296,0.449872,0.51721509,-0.19811584,0.41669,0.49947632,-0.18092462,0.400098,0.48336811,-0.16524055,0.385015,0.5213256,-0.25537337,0.439861,0.50214691,-0.21342366,0.399347,0.49054842,-0.18901458,0.375715,0.48233347,-0.17158019,0.358869,0.52143517,-0.27153523,0.434097,0.51016651,-0.22613479,0.396156,0.49862328,-0.20855558,0.376745,0.48694016,-0.19010347,0.359098,0.52251977,-0.29666466,0.431955,0.50349567,-0.26360467,0.396156,0.4932747,-0.24871703,0.379708,0.47807282,-0.23135928,0.365195
0.52881909,-0.33410193,0.500616,0.53267792,-0.29449161,0.469849,0.52783982,-0.31001487,0.500116,0.53627213,-0.27246707,0.498974,0.53005691,-0.24137168,0.496831,0.53067306,-0.21889781,0.491551,0.52781021,-0.23090162,0.443659,0.52435586,-0.1907742,0.410196,0.50504404,-0.1744988,0.393465,0.48749895,-0.15965758,0.378255,0.52717513,-0.24614112,0.433015,0.5093934,-0.20298803,0.393695,0.49888937,-0.17780606,0.370759,0.49194157,-0.15996202,0.35475,0.52701729,-0.26180628,0.426634,0.51066628,-0.22209367,0.386706,0.50236802,-0.20174367,0.366277,0.4792855,-0.1843992,0.347706,0.52752323,-0.28649026,0.42357,0.51806696,-0.25402177,0.38753,0.49534154,-0.24261213,0.37097,0.4734632,-0.23129901,0.356359
0.5307209,-0.33473389,0.500496,0.53463248,-0.29670165,0.470477,0.5298162,-0.31028106,0.499553,0.53641714,-0.27299422,0.49784,0.53313693,-0.24022327,0.495545,0.53025359,-0.21809422,0.489549,0.5357605,-0.23644795,0.444367,0.53406968,-0.19727436,0.411955,0.51749724,-0.17999003,0.395749,0.50246756,-0.16419847,0.381016,0.53456325,-0.25260215,0.434538,0.52291128,-0.21070444,0.395817,0.51063789,-0.18683346,0.373231,0.50198631,-0.16970346,0.357097,0.53368588,-0.26890378,0.428769,0.52108574,-0.2272592,0.390367,0.51464094,-0.20595115,0.370719,0.50144077,-0.18772601,0.352858,0.53281649,-0.29410261,0.426326,0.5284006,-0.26129212,0.391256,0.50736897,-0.24892398,0.375143,0.4888104,-0.23801144,0.360925
0.5338369,-0.33699464,0.50359,0.53848529,-0.30014984,0.474639,0.53443002,-0.31280865,0.503224,0.53698394,-0.27380756,0.498217,0.53544576,-0.24133354,0.494276,0.53187812,-0.21690512,0.486581,0.5444375,-0.24282481,0.450124,0.53589881,-0.20530273,0.417271,0.52528843,-0.18446922,0.400845,0.5178811,-0.16954224,0.385912,0.54101739,-0.25730403,0.439979,0.53251872,-0.21839635,0.401976,0.51946457,-0.19484564,0.379808,0.5109464,-0.1754923,0.363974,0.53877562,-0.2734565,0.433868,0.53007305,-0.23652942,0.396145,0.52623111,-0.21696509,0.376845,0.50273653,-0.20111408,0.3593,0.53581894,-0.29824735,0.430859,0.52718966,-0.26839337,0.396392,0.51583802,-0.25335181,0.380555,0.50805326,-0.24160921,0.366582
0.54049275,-0.3388684,0.502713,0.54824112,-0.30547293,0.47348,0.54025,-0.31398856,0.501331,0.5451835,-0.280096,0.495775,0.53944342,-0.24536084,0.488453,0.54122962,-0.22273539,0.48156,0.54218838,-0.24242225,0.447487,0.53528571,-0.20457705,0.414093,0.52447115,-0.18691863,0.397396,0.51474276,-0.1707741,0.382216,0.54206709,-0.2588449,0.438483,0.53253592,-0.21768731,0.40012,0.52806735,-0.19387175,0.377742,0.52009461,-0.17744523,0.361757,0.54713161,-0.27615026,0.433333,0.53125091,-0.23535588,0.395221,0.52576223,-0.21492087,0.375721,0.50300945,-0.20008589,0.357995,0.54974404,-0.30131333,0.431512,0.54134164,-0.26850041,0.39716,0.52936075,-0.25588813,0.381377,0.51405727,-0.2434554,0.367451
0.53733794,-0.33773215,0.502667,0.54816479,-0.30475221,0.473853,0.54195881,-0.31415881,0.501498,0.54538635,-0.27842054,0.496973,0.54107404,-0.24415675,0.490893,0.54514324,-0.22239748,0.485823,0.55159846,-0.24475446,0.448468,0.54696042,-0.20684371,0.415781,0.53601747,-0.18876969,0.399437,0.52618161,-0.17223508,0.38458,0.54808136,-0.26107503,0.439357,0.54239649,-0.22108753,0.401842,0.53251903,-0.19629246,0.379959,0.52419371,-0.17993791,0.364328,0.54815803,-0.2776406,0.434086,0.54453393,-0.23919265,0.398325,0.54257924,-0.2190321,0.380028,0.51958347,-0.20490677,0.363395,0.54823261,-0.3027767,0.432059,0.54123085,-0.27042802,0.398261,0.53085509,-0.25716053,0.382733,0.52181668,-0.24542347,0.369031
0.54924175,-0.34172673,0.5089,0.55403132,-0.30644874,0.478547,0.55058862,-0.31600076,0.505163,0.55233513,-0.27274104,0.501299,0.54795493,-0.23893581,0.495427,0.54811953,-0.21891202,0.488667,0.55400775,-0.24571945,0.44874,0.5481292,-0.2071574,0.41634,0.53885747,-0.18872746,0.40014,0.53015073,-0.17197953,0.385413,0.55492737,-0.26473844,0.44221,0.54671247,-0.22382974,0.404522,0.53798315,-0.20046894,0.382538,0.52866588,-0.18434635,0.366835,0.55660816,-0.2842609,0.439182,0.55377557,-0.24328317,0.404627,0.55221813,-0.22236733,0.386948,0.53081325,-0.2092907,0.370876,0.55659318,-0.3107449,0.440056,0.54697542,-0.27842944,0.406019,0.53960811,-0.26422342,0.390381,0.53322307,-0.25165859,0.376582
0.55068043,-0.33971133,0.507033,0.5582096,-0.30355665,0.478776,0.55385802,-0.31460041,0.504722,0.55692491,-0.27197169,0.497952,0.55070539,-0.23762382,0.489291,0.55481526,-0.21587857,0.482689,0.56596096,-0.2455199,0.452456,0.56550512,-0.20865538,0.420359,0.55657913,-0.19177098,0.40431,0.54864438,-0.17629634,0.389721,0.56630141,-0.26410571,0.444947,0.56563954,-0.22415094,0.408186,0.55535879,-0.20269693,0.386742,0.53602845,-0.18978003,0.371425,0.56622309,-0.28187115,0.440952,0.5652024,-0.24343419,0.405667,0.56455416,-0.22381486,0.387615,0.54454095,-0.21124502,0.371203,0.56546908,-0.30777848,0.440363,0.55716701,-0.27829386,0.407366,0.55356966,-0.26470576,0.392205,0.55053042,-0.25269115,0.378828
0.5518014,-0.34073757,0.509482,0.56244894,-0.30614382,0.48259,0.55694983,-0.31532238,0.507242,0.55819965,-0.27366755,0.499686,0.55327877,-0.23899974,0.490282,0.55348712,-0.21692277,0.48117,0.5726672,-0.25171509,0.457492,0.57263629,-0.21360144,0.42699,0.56674211,-0.19619803,0.41174,0.56303666,-0.18047476,0.397875,0.57221532,-0.26904599,0.450395,0.57765219,-0.23279044,0.418285,0.57589038,-0.21038165,0.399554,0.55438806,-0.19960429,0.386175,0.57144572,-0.2871108,0.446633,0.57294525,-0.25054784,0.413713,0.57451207,-0.23112328,0.396871,0.55867818,-0.21691105,0.381559,0.5677216,-0.31379111,0.446121,0.56515271,-0.28538175,0.414335,0.56293098,-0.27212733,0.399731,0.56110796,-0.26040737,0.386845
0.55588943,-0.34132801,0.511343,0.56734326,-0.30851929,0.486215,0.55917042,-0.31580933,0.508871,0.55944195,-0.27413233,0.500516,0.55859081,-0.24073198,0.493102,0.55657949,-0.2175202,0.482799,0.58302892,-0.25424727,0.4623,0.58386208,-0.21758574,0.433896,0.58249805,-0.1992934,0.419695,0.58145086,-0.18254129,0.406784,0.58332389,-0.27383935,0.456132,0.58994893,-0.23561295,0.423364,0.5828405,-0.2134266,0.40425,0.55871361,-0.20381406,0.390596,0.58266821,-0.29229292,0.452999,0.58708358,-0.25490527,0.42,0.58909901,-0.2358595,0.403116,0.57311996,-0.22212433,0.387768,0.58011456,-0.31868757,0.452976,0.58511766,-0.29023502,0.422885,0.58217061,-0.27779585,0.40906,0.57981151,-0.26677567,0.396861
0.5697951,-0.34707726,0.520348,0.5845789,-0.31545516,0.491738,0.57176744,-0.31898569,0.516083,0.5779402,-0.28461386,0.509876,0.56992164,-0.24899622,0.498951,0.57324709,-0.22708925,0.492105,0.58523833,-0.25505462,0.462732,0.57934102,-0.21714479,0.431887,0.57473022,-0.19851933,0.416465,0.56837198,-0.18194509,0.402445,0.59017984,-0.27518489,0.457486,0.59674964,-0.23666279,0.427381,0.59507678,-0.21301875,0.409819,0.57286582,-0.20457814,0.397275,0.59259011,-0.29406392,0.45538,0.59150306,-0.25532509,0.421556,0.59245758,-0.23565125,0.40425,0.57511261,-0.22202343,0.388518,0.59477289,-0.32181088,0.457097,0.59264961,-0.28739976,0.42479,0.57375821,-0.27807999,0.409946,0.55055601,-0.26801807,0.396849
0.57202659,-0.34791026,0.521213,0.58525771,-0.31582146,0.492309,0.57408531,-0.32026955,0.516874,0.57817936,-0.28473164,0.510087,0.56977543,-0.24893235,0.498823,0.57369091,-0.22726507,0.492486,0.5860918,-0.25537491,0.46297,0.57952109,-0.21720752,0.432005,0.57436814,-0.19853209,0.416522,0.56800058,-0.18174673,0.402447,0.59046494,-0.27531783,0.457707,0.59729392,-0.23632514,0.427484,0.5951276,-0.21303694,0.409854,0.57284563,-0.20457093,0.397261,0.5928881,-0.29421179,0.455609,0.59240295,-0.25521654,0.421665,0.59309615,-0.23538939,0.404299,0.57539658,-0.22184286,0.388511,0.59514113,-0.32201012,0.45738,0.59289516,-0.28751883,0.424966,0.57276909,-0.2778377,0.410073,0.55067116,-0.26807412,0.396932
0.57706056,-0.34880816,0.524269,0.59435182,-0.31842673,0.499453,0.5800611,-0.32237795,0.521344,0.58540161,-0.28002825,0.511658,0.58234161,-0.24515711,0.50061,0.5827926,-0.22340172,0.490249,0.60851994,-0.25918235,0.475242,0.61285367,-0.22217086,0.447491,0.61027118,-0.20452547,0.433615,0.60817022,-0.18832326,0.421001,0.61069677,-0.27899925,0.469743,0.61274237,-0.24062657,0.437501,0.60766843,-0.21814976,0.418693,0.5817551,-0.21092416,0.405259,0.61152688,-0.2976588,0.467136,0.61727586,-0.2604632,0.435199,0.61998223,-0.24151706,0.41886,0.60711441,-0.228692,0.404005,0.61063467,-0.32438575,0.467695,0.6152737,-0.29362625,0.438365,0.59956674,-0.28406484,0.424889,0.58423331,-0.27599635,0.412999
0.58050812,-0.34996603,0.526796,0.59584304,-0.31808268,0.500455,0.58197279,-0.32256927,0.522415,0.58516248,-0.27991387,0.511449,0.58241373,-0.24518748,0.500672,0.58243359,-0.2232641,0.489947,0.60589631,-0.25806489,0.473193,0.61496275,-0.22293544,0.449031,0.61496487,-0.20609851,0.43695,0.61534546,-0.19054511,0.425968,0.60962551,-0.27850984,0.468919,0.60945064,-0.23899861,0.434927,0.6023056,-0.21653276,0.415098,0.57532181,-0.20906375,0.400934,0.61192222,-0.29785124,0.467438,0.6175028,-0.26055896,0.435359,0.62011101,-0.24156723,0.418947,0.60714596,-0.22870389,0.404026,0.61307619,-0.32568275,0.469565,0.61607935,-0.29401073,0.438939,0.59953711,-0.2840508,0.424868,0.58345952,-0.27563081,0.412452
0.57121933,-0.34390839,0.518546,0.59476732,-0.31709615,0.499339,0.57529757,-0.31905837,0.517054,0.58568659,-0.28050549,0.511837,0.58416905,-0.24602773,0.501858,0.58594399,-0.22443296,0.492299,0.61703632,-0.26300184,0.481545,0.62934953,-0.22923523,0.458393,0.62680562,-0.21283396,0.446817,0.62842906,-0.19600142,0.436293,0.61988017,-0.28301818,0.476345,0.63663521,-0.24929976,0.451737,0.63340761,-0.22984362,0.437382,0.61012967,-0.22470957,0.427129,0.6206628,-0.3016954,0.47355,0.63630629,-0.26464864,0.447755,0.6430831,-0.245949,0.434558,0.6370652,-0.23131073,0.422561,0.61851651,-0.328056,0.473055,0.6331321,-0.3000502,0.448397,0.61919179,-0.29020893,0.437067,0.60692922,-0.28148431,0.42707
0.58312898,-0.34901493,0.526851,0.60471238,-0.31920092,0.505524,0.58926988,-0.32447254,0.524613,0.59693544,-0.28598311,0.517579,0.5985862,-0.25216866,0.510539,0.59887978,-0.22914301,0.500855,0.6275781,-0.26733628,0.485054,0.6331472,-0.22974031,0.460855,0.62844972,-0.21277519,0.448756,0.62837539,-0.19645896,0.437757,0.63029041,-0.2870347,0.479991,0.64080993,-0.25078227,0.452813,0.63375649,-0.23091885,0.436959,0.6074921,-0.22559763,0.425635,0.63120665,-0.30569487,0.477473,0.64065815,-0.26544376,0.450562,0.64600634,-0.24548884,0.436793,0.6378613,-0.23030652,0.424276,0.62959378,-0.33250933,0.477623,0.63833035,-0.30143606,0.451314,0.62367905,-0.29070018,0.439226,0.61078914,-0.28118608,0.42856
0.584155,-0.34920318,0.527115,0.6059535,-0.31976639,0.505754,0.59005873,-0.32451431,0.524697,0.59674399,-0.28589139,0.517413,0.59866475,-0.25220175,0.510606,0.60023656,-0.22969817,0.501622,0.62755352,-0.26732581,0.485035,0.63339635,-0.22953805,0.460935,0.62827158,-0.21250882,0.448885,0.62733454,-0.19641728,0.43793,0.63053991,-0.28714832,0.480181,0.64147768,-0.25099299,0.452658,0.63356094,-0.23116368,0.436603,0.60661115,-0.22588915,0.425135,0.63168784,-0.30592791,0.477837,0.64138463,-0.26540727,0.450988,0.64655574,-0.24517164,0.437251,0.63799801,-0.2299243,0.424763,0.63035305,-0.33291033,0.478199,0.63949414,-0.3016278,0.451883,0.62495787,-0.29076134,0.439792,0.61217109,-0.2811296,0.429123
0.60007448,-0.35521039,0.536011,0.62571311,-0.32198326,0.51128,0.60734581,-0.32893452,0.533058,0.61050921,-0.28652678,0.522022,0.60978283,-0.25195259,0.514332,0.61386908,-0.2302214,0.507192,0.63884295,-0.26522806,0.487106,0.64105722,-0.22415536,0.460821,0.62700201,-0.21092307,0.447679,0.6229246,-0.19500713,0.435731,0.64142494,-0.2847947,0.481672,0.64713551,-0.24449388,0.449491,0.61461931,-0.23082545,0.430719,0.57614935,-0.23029397,0.41731,0.64262702,-0.30353398,0.479112,0.64689135,-0.25828367,0.450064,0.62639171,-0.24383414,0.435202,0.59103537,-0.24253129,0.421691,0.64212361,-0.33083576,0.479715,0.64644669,-0.29386833,0.451135,0.62252902,-0.28484996,0.438003,0.60371372,-0.27897131,0.426417
0.60595119,-0.35456602,0.538591,0.62740634,-0.32150508,0.512867,0.61201261,-0.32931625,0.535494,0.61213555,-0.28588257,0.52347,0.61087025,-0.2510965,0.515356,0.61335079,-0.22890679,0.507172,0.63930535,-0.26422083,0.487692,0.64071755,-0.22291693,0.460878,0.62717056,-0.20653049,0.447471,0.6206657,-0.19363324,0.435282,0.64149746,-0.28369723,0.482072,0.64552912,-0.24270376,0.449023,0.60750936,-0.22846927,0.429744,0.57114499,-0.22895665,0.415974,0.64248204,-0.30239186,0.479435,0.64595759,-0.25688532,0.44976,0.62452587,-0.24224647,0.434577,0.58847243,-0.24076163,0.420775,0.64192515,-0.32971075,0.480092,0.64547182,-0.29252629,0.450981,0.62083067,-0.28332228,0.437605,0.59910478,-0.27520284,0.425803
0.60870121,-0.35494582,0.539826,0.62825316,-0.32148938,0.513627,0.61446231,-0.32935288,0.536646,0.6127587,-0.28570532,0.524022,0.61123946,-0.25081396,0.515703,0.61318961,-0.22847273,0.507175,0.63954676,-0.26392083,0.487954,0.64057515,-0.22249381,0.460876,0.62672088,-0.20604844,0.447338,0.6193174,-0.19302735,0.43503,0.64159566,-0.28336398,0.482261,0.64488888,-0.24206612,0.448795,0.60684352,-0.22821887,0.429273,0.56920879,-0.22840214,0.415329,0.64251188,-0.30204782,0.479601,0.64550326,-0.25636241,0.449559,0.62364632,-0.24161799,0.434189,0.58726526,-0.24002838,0.420216,0.64197166,-0.32939355,0.480302,0.64503721,-0.2920293,0.450853,0.62005199,-0.2827165,0.437322,0.59802915,-0.27450213,0.425384
0.61046803,-0.35505718,0.540489,0.62872788,-0.32150747,0.514049,0.61593821,-0.32929208,0.537276,0.61308201,-0.28562203,0.524308,0.61142468,-0.25067294,0.515877,0.61311207,-0.22825678,0.507179,0.63973029,-0.26379665,0.488133,0.64062903,-0.22232564,0.460965,0.6266495,-0.20585788,0.447381,0.61857925,-0.19265846,0.435031,0.64169599,-0.28321987,0.482394,0.64462603,-0.24176853,0.448721,0.60656786,-0.2281152,0.429078,0.56829752,-0.2281474,0.415047,0.64256835,-0.30189527,0.479715,0.64532565,-0.25612069,0.449493,0.62325992,-0.24132457,0.434032,0.58671597,-0.2396842,0.419975,0.64202169,-0.32924856,0.480427,0.64484713,-0.29179315,0.450808,0.61969047,-0.28242643,0.4372,0.59751642,-0.27416345,0.425192
0.61177512,-0.35510455,0.540945,0.62905776,-0.32154119,0.514339,0.61696403,-0.3292332,0.537701,0.61347054,-0.28566262,0.524646,0.61161351,-0.25062019,0.516047,0.61315083,-0.22815893,0.507252,0.63984912,-0.26372565,0.488247,0.64066766,-0.2222269,0.461023,0.62661253,-0.20574548,0.447411,0.61801379,-0.19237449,0.435037,0.64177105,-0.28313996,0.482485,0.64445444,-0.24158467,0.448667,0.60637278,-0.22804183,0.42894,0.56771172,-0.22797882,0.414849,0.64262302,-0.30181351,0.479799,0.64521421,-0.25597374,0.44945,0.62300551,-0.24113979,0.433922,0.58635242,-0.23946392,0.419806,0.64208769,-0.32918007,0.480529,0.64474592,-0.2916573,0.45079,0.61947391,-0.28225259,0.437127,0.5971993,-0.27395598,0.42507
0.61529487,-0.35582386,0.542337,0.62955674,-0.32161695,0.514637,0.61821842,-0.32942097,0.538368,0.61325868,-0.28543901,0.524421,0.61043976,-0.25014271,0.515189,0.60757384,-0.22823459,0.504483,0.63797045,-0.26273356,0.486752,0.6402945,-0.22185817,0.460558,0.62725142,-0.20546741,0.447461,0.61772419,-0.191865,0.435555,0.64054657,-0.28237128,0.481475,0.63920747,-0.23832183,0.446523,0.59616323,-0.22747159,0.426134,0.56071498,-0.22632833,0.41157,0.64207167,-0.30131938,0.479274,0.64436273,-0.25543017,0.448717,0.62189273,-0.24061074,0.433084,0.5849788,-0.23904812,0.418871,0.6425663,-0.32918553,0.480743,0.64372863,-0.29092314,0.449952,0.61774719,-0.28122973,0.435805,0.59486008,-0.27268014,0.423322
0.58711227,-0.34658611,0.526772,0.60624325,-0.31747829,0.507131,0.59077563,-0.32150465,0.524244,0.59443676,-0.27531044,0.516551,0.58846334,-0.2446206,0.503414,0.5994483,-0.22681961,0.4998,0.63103242,-0.26698091,0.487709,0.64593065,-0.2245887,0.465055,0.63887724,-0.21355248,0.453727,0.63562039,-0.20053912,0.44343,0.63473848,-0.28757204,0.483618,0.64709916,-0.2527187,0.45596,0.63763595,-0.23457718,0.439826,0.60925812,-0.23033587,0.428302,0.63624526,-0.3068423,0.481769,0.64851039,-0.27050751,0.456404,0.63926812,-0.25884254,0.443427,0.60733234,-0.25711231,0.431629,0.63433507,-0.33422648,0.482467,0.64175807,-0.29920922,0.457698,0.63128056,-0.29018626,0.446317,0.6230789,-0.28401634,0.436276
0.59218971,-0.34793762,0.527884,0.60896742,-0.31984091,0.506913,0.59133145,-0.32199445,0.52412,0.58329924,-0.28284676,0.51021,0.57598469,-0.24565826,0.496567,0.57352877,-0.22346787,0.484312,0.62330925,-0.26489631,0.484869,0.63296215,-0.2285754,0.460702,0.62717494,-0.2120076,0.448618,0.61924793,-0.19360787,0.437632,0.63190731,-0.28630778,0.481806,0.64068635,-0.247607,0.453999,0.63478752,-0.23161773,0.437779,0.60620285,-0.22856097,0.426193,0.63512901,-0.30610681,0.480905,0.64362922,-0.26600534,0.452387,0.62955677,-0.25312676,0.437796,0.59610834,-0.25250662,0.424532,0.63614474,-0.33438186,0.48293,0.64257402,-0.29814385,0.456803,0.63163218,-0.29073194,0.444798,0.61977136,-0.28203614,0.434206
0.58117573,-0.34553315,0.522114,0.59887655,-0.31943287,0.500933,0.58372815,-0.32011082,0.519307,0.57369656,-0.2827658,0.506032,0.56682028,-0.24569895,0.492987,0.56934383,-0.2235855,0.482997,0.61281553,-0.26419426,0.47989,0.62085867,-0.22660662,0.455328,0.61496236,-0.21080069,0.443048,0.61191987,-0.19618187,0.431883,0.61845936,-0.2842143,0.475577,0.62925553,-0.24620324,0.448131,0.6186211,-0.22962109,0.432121,0.59607166,-0.22408028,0.420685,0.62183849,-0.30332415,0.473664,0.63203687,-0.26265559,0.445289,0.61587129,-0.25043229,0.430772,0.58306625,-0.24856395,0.417574,0.62324274,-0.33108701,0.474514,0.63015891,-0.29469949,0.448552,0.61847319,-0.28222238,0.436624,0.60134599,-0.27515918,0.426099
0.57095833,-0.34232553,0.514538,0.59005878,-0.31703798,0.495245,0.57305786,-0.3207764,0.512596,0.56767065,-0.27970201,0.501174,0.56450591,-0.24460737,0.491628,0.56803654,-0.22295346,0.482968,0.60825897,-0.2613666,0.476829,0.61942235,-0.22548752,0.454131,0.61657559,-0.20983785,0.442783,0.6118447,-0.19177595,0.432465,0.61404622,-0.2809291,0.472147,0.62693814,-0.24439735,0.446364,0.62037761,-0.22641939,0.431323,0.59604056,-0.22354444,0.42058,0.61739928,-0.29961345,0.469786,0.62887792,-0.26242146,0.443179,0.6157838,-0.24982159,0.429566,0.58277648,-0.24843491,0.417191,0.6185024,-0.32677878,0.469821,0.62923015,-0.29472847,0.445316,0.61649763,-0.28456931,0.434057,0.5984243,-0.27458636,0.424123
0.5560855,-0.34183763,0.506028,0.56846838,-0.31166781,0.486591,0.55698701,-0.31770646,0.505284,0.55241306,-0.27621997,0.495209,0.55233065,-0.24204096,0.486286,0.56352462,-0.22242791,0.481953,0.58848418,-0.25691662,0.469521,0.59951157,-0.22289533,0.445623,0.60019424,-0.20624313,0.433674,0.60070225,-0.19097704,0.422811,0.59225815,-0.27545703,0.463321,0.61151232,-0.24400533,0.440482,0.60497999,-0.22700986,0.42716,0.59100881,-0.22146328,0.417643,0.59394226,-0.29323605,0.459721,0.61074122,-0.26118241,0.435161,0.60713277,-0.24621502,0.422596,0.57697053,-0.24349622,0.411173,0.59308989,-0.31925111,0.4583,0.60622461,-0.29264799,0.433127,0.59581506,-0.28275271,0.42156,0.58676628,-0.27397394,0.411355
0.56542354,-0.34306749,0.512691,0.57288893,-0.31309627,0.488625,0.56377215,-0.32058181,0.510008,0.55428778,-0.27756961,0.497056,0.55031138,-0.24202445,0.48658,0.55543287,-0.2207071,0.480379,0.58430279,-0.25404898,0.465333,0.58917454,-0.21626402,0.437495,0.58675241,-0.19987259,0.423576,0.5850655,-0.18363614,0.410922,0.58912024,-0.27292736,0.459813,0.59806841,-0.2335563,0.427851,0.58113709,-0.2163475,0.409206,0.55084942,-0.21177043,0.395888,0.59218848,-0.29127505,0.45713,0.60087309,-0.25275604,0.424939,0.58524154,-0.23834613,0.408469,0.54936803,-0.23356337,0.393497,0.5939687,-0.31854814,0.457488,0.60185039,-0.28850423,0.428453,0.58646438,-0.27831128,0.415112,0.5680888,-0.27053957,0.403341
0.5542381,-0.3427463,0.506051,0.56164042,-0.30888956,0.481348,0.55308733,-0.31725136,0.503385,0.54085018,-0.2757614,0.491405,0.53256674,-0.23891879,0.479713,0.53569112,-0.21666166,0.473247,0.56939642,-0.24859309,0.457547,0.57201422,-0.21047274,0.429416,0.56951649,-0.19210356,0.41535,0.56745933,-0.17525393,0.402563,0.5747694,-0.26711973,0.451774,0.58091205,-0.22696952,0.419321,0.56332488,-0.20944231,0.40039,0.53306085,-0.20500282,0.386868,0.57843749,-0.28530757,0.448931,0.58444601,-0.24596207,0.416481,0.56844253,-0.23133049,0.399879,0.53277353,-0.22679846,0.384786,0.58121611,-0.31262151,0.449193,0.58812114,-0.28036218,0.419634,0.56992633,-0.27087771,0.406053,0.55152307,-0.26311778,0.39407
0.54070832,-0.3388913,0.499096,0.55323616,-0.30641771,0.476767,0.54264073,-0.31396252,0.497774,0.53591936,-0.27321268,0.488491,0.53129334,-0.2379954,0.479836,0.53447701,-0.21601545,0.473597,0.56719438,-0.24854478,0.456587,0.57157416,-0.21211573,0.430156,0.57158519,-0.19414837,0.41694,0.57367601,-0.17813869,0.404926,0.57103778,-0.26659802,0.450036,0.58131715,-0.2284413,0.420521,0.57666168,-0.20724278,0.403303,0.55723222,-0.19734607,0.391005,0.5731668,-0.28421692,0.446371,0.58395142,-0.24771594,0.417245,0.57345539,-0.23232425,0.402343,0.54185565,-0.22834621,0.388796,0.57096166,-0.31106472,0.4453,0.58150929,-0.28292506,0.417512,0.56926416,-0.27073205,0.404745,0.55520526,-0.26266394,0.39348
0.54084847,-0.34085202,0.501142,0.54664466,-0.30690033,0.475216,0.5398492,-0.31537248,0.498787,0.5264611,-0.27501145,0.485909,0.51643721,-0.23753944,0.471602,0.51852999,-0.21494193,0.463492,0.55423674,-0.2490915,0.45078,0.55831207,-0.21052794,0.422735,0.55287084,-0.19329484,0.408713,0.54875451,-0.17708572,0.395965,0.55721786,-0.26744674,0.444177,0.55815327,-0.22374431,0.411237,0.54794251,-0.20133718,0.392022,0.53462619,-0.18783696,0.378297,0.55892778,-0.28532473,0.440746,0.56597532,-0.24461801,0.410432,0.56022065,-0.22623003,0.394922,0.52983752,-0.22190815,0.380822,0.55945842,-0.31199562,0.440488,0.56172318,-0.27680557,0.410254,0.54924605,-0.26456107,0.396363,0.53749853,-0.25397827,0.384106
0.52897465,-0.33642639,0.49418,0.53519348,-0.30362922,0.469868,0.52802961,-0.31265949,0.493862,0.51873088,-0.27081282,0.48523,0.51288722,-0.23491884,0.475847,0.52260271,-0.21615256,0.470941,0.54626964,-0.24461366,0.44927,0.54745422,-0.20833293,0.420034,0.54332368,-0.1905411,0.405416,0.54162273,-0.17479271,0.392127,0.54700626,-0.26154899,0.440763,0.54997926,-0.22088122,0.407916,0.54350918,-0.19883418,0.388755,0.53471078,-0.18386579,0.375069,0.54672826,-0.27818557,0.435642,0.55419048,-0.23924532,0.405476,0.55378681,-0.22147312,0.390042,0.54213938,-0.20468383,0.376012,0.54464718,-0.30323447,0.433127,0.54798116,-0.27255908,0.403167,0.54139023,-0.25954554,0.389402,0.53351515,-0.24837938,0.377256
0.52527849,-0.33568681,0.492416,0.52874175,-0.30166165,0.467806,0.52465055,-0.3122423,0.492448,0.51684073,-0.27146425,0.484328,0.51081174,-0.23596182,0.475206,0.50770766,-0.21366832,0.465427,0.54191944,-0.24365503,0.447386,0.54001616,-0.206431,0.417727,0.5383396,-0.1886616,0.402898,0.53497758,-0.17203262,0.389417,0.54229499,-0.26012068,0.438343,0.54262774,-0.21972586,0.40523,0.53923691,-0.19651257,0.385915,0.53241945,-0.18152692,0.372118,0.54178329,-0.27639867,0.432803,0.54591583,-0.23658527,0.401691,0.54540261,-0.21637763,0.385773,0.53676331,-0.20077113,0.371302,0.53956976,-0.30108847,0.429834,0.53968467,-0.26868697,0.399411,0.53706595,-0.25536467,0.385433,0.52965093,-0.24422782,0.373099
0.51607569,-0.33431375,0.489387,0.51976675,-0.29892863,0.46283,0.51735681,-0.31064491,0.48935,0.51209764,-0.26948179,0.481107,0.50400099,-0.23515933,0.47213,0.50531371,-0.21255568,0.464761,0.52843484,-0.23972492,0.440708,0.52270585,-0.20175122,0.409673,0.5199223,-0.18270948,0.394155,0.51744718,-0.16536206,0.380048,0.52757428,-0.25593045,0.431037,0.52715449,-0.21572387,0.396631,0.52186165,-0.19249296,0.376561,0.51829982,-0.17577309,0.362225,0.52625992,-0.27204119,0.42513,0.52715153,-0.23245395,0.391354,0.52171021,-0.2127243,0.374073,0.51703516,-0.1946441,0.358363,0.5235221,-0.29663238,0.422011,0.52090808,-0.26426676,0.389779,0.51684974,-0.24964873,0.37497,0.51058402,-0.23707555,0.361903
0.5096665,-0.33117769,0.484672,0.50947359,-0.29400655,0.457027,0.50930183,-0.30751407,0.484832,0.49905644,-0.26730351,0.478929,0.48691722,-0.23160974,0.469458,0.48347082,-0.20778733,0.461215,0.51560701,-0.23229969,0.434243,0.50639654,-0.19484674,0.401239,0.50163178,-0.17606459,0.384738,0.49734913,-0.15895565,0.369736,0.5137593,-0.24736079,0.423932,0.51268844,-0.20569354,0.389185,0.50339196,-0.18108981,0.368916,0.49692835,-0.16337599,0.354439,0.51194498,-0.26284937,0.417584,0.5117939,-0.22366416,0.383608,0.5117117,-0.20361809,0.366225,0.50447737,-0.18520008,0.350422,0.50911754,-0.28725764,0.414099,0.50972387,-0.25774138,0.380269,0.49420292,-0.24398057,0.364726,0.47916055,-0.23189263,0.351012
0.48946263,-0.33066751,0.482088,0.49032184,-0.29550718,0.457017,0.48406015,-0.30795966,0.483191,0.48230497,-0.26663028,0.475022,0.47611179,-0.23232748,0.467096,0.47998033,-0.20854337,0.460145,0.50466898,-0.23758097,0.437526,0.49809248,-0.20049003,0.406576,0.49406911,-0.18183884,0.391101,0.49053931,-0.16478919,0.377033,0.50287594,-0.25280347,0.427002,0.50985183,-0.21552663,0.393036,0.47844716,-0.19848672,0.373223,0.45601747,-0.18631846,0.35907,0.50064931,-0.2681457,0.42028,0.49841086,-0.22917629,0.385435,0.49505715,-0.20914333,0.367608,0.49077831,-0.19087563,0.351401,0.49651051,-0.29188479,0.415967,0.4959419,-0.26110481,0.384332,0.49249405,-0.24688072,0.369797,0.48845015,-0.23505902,0.356972
0.47154869,-0.32767688,0.477806,0.47619889,-0.290642,0.451204,0.47547393,-0.3038339,0.478187,0.47036202,-0.26312456,0.473018,0.46434233,-0.22889784,0.466673,0.46822458,-0.20691064,0.461739,0.48703753,-0.2318252,0.429557,0.48258039,-0.193761,0.398405,0.47790438,-0.17476924,0.382829,0.47375541,-0.15742199,0.368669,0.48538565,-0.24760623,0.419356,0.4829489,-0.20752971,0.384089,0.47753899,-0.18416831,0.363517,0.47384129,-0.16738098,0.348822,0.48346357,-0.26338432,0.413019,0.4814548,-0.22285066,0.378776,0.47696636,-0.20227703,0.361256,0.47306301,-0.18347188,0.345329,0.48007848,-0.28759509,0.409391,0.47660054,-0.25556896,0.377046,0.47199891,-0.24102876,0.362184,0.46806853,-0.22815991,0.349072
0.46801514,-0.32800843,0.477149,0.47164181,-0.29087037,0.450031,0.47185692,-0.30425867,0.477751,0.46304445,-0.26577295,0.472601,0.45667394,-0.23158545,0.466591,0.45758322,-0.20873713,0.460488,0.47686915,-0.23176502,0.428225,0.47018255,-0.19245815,0.396761,0.4657539,-0.17281061,0.38103,0.46177162,-0.15491061,0.366728,0.47514915,-0.24696141,0.417565,0.47079289,-0.20498363,0.381191,0.46103914,-0.18086185,0.359972,0.45420705,-0.16352842,0.344816,0.47332665,-0.2623934,0.410889,0.47053032,-0.22114413,0.375866,0.46445684,-0.20027291,0.357946,0.45909098,-0.18120219,0.341656,0.47035389,-0.28644481,0.406935,0.46402853,-0.2525969,0.374036,0.46101325,-0.2370406,0.358921,0.46214167,-0.22520446,0.346521
0.46712099,-0.32908048,0.477369,0.46551764,-0.29103723,0.448111,0.46971121,-0.30485346,0.477375,0.45992753,-0.26586787,0.470987,0.45425872,-0.23180365,0.465518,0.45403689,-0.20861761,0.458769,0.46579071,-0.22852014,0.423798,0.46337318,-0.18956824,0.392298,0.45508205,-0.16945491,0.376548,0.44902713,-0.15174408,0.36223,0.46537393,-0.24343267,0.413085,0.45966714,-0.20083233,0.377292,0.45325737,-0.17626152,0.356413,0.44931405,-0.16030593,0.3415,0.46666914,-0.25920987,0.40653,0.45801147,-0.21675015,0.371413,0.45447157,-0.19520893,0.353447,0.45171596,-0.17772295,0.337758,0.46520723,-0.28342266,0.403037,0.45028441,-0.24784733,0.369163,0.44381516,-0.23159021,0.3536,0.43816153,-0.21721923,0.339867
0.4637101,-0.32851842,0.47637,0.45469779,-0.28910732,0.447626,0.46377539,-0.30487206,0.476991,0.44916768,-0.26523794,0.47155,0.44043663,-0.23107017,0.465444,0.43471724,-0.20741116,0.456859,0.45713451,-0.22697407,0.424491,0.45083321,-0.18713049,0.392158,0.44370035,-0.16740691,0.375992,0.43727128,-0.14941726,0.361295,0.45528771,-0.24151849,0.413213,0.45110618,-0.1986643,0.37725,0.44213786,-0.17397337,0.356272,0.43584671,-0.15624028,0.341288,0.45375291,-0.25657396,0.406155,0.44990906,-0.21485911,0.370411,0.44282213,-0.1938364,0.352124,0.43650628,-0.17463686,0.335499,0.45188086,-0.28047374,0.401984,0.4417966,-0.24576932,0.367517,0.43944135,-0.23016489,0.351812,0.4345323,-0.21595628,0.337955
0.4470588,-0.32541374,0.47628,0.44260771,-0.28426053,0.447424,0.44916187,-0.30134466,0.476544,0.43708928,-0.25794137,0.470162,0.42994605,-0.22337486,0.463427,0.42741072,-0.19970931,0.455167,0.44787601,-0.22386116,0.42376,0.44156185,-0.18364645,0.391898,0.43547735,-0.16363524,0.375968,0.42998915,-0.14539563,0.361485,0.44524124,-0.23934947,0.412878,0.44103079,-0.19661648,0.376589,0.43129801,-0.17201719,0.355421,0.42445485,-0.15434834,0.340301,0.44290333,-0.25496426,0.406153,0.44080388,-0.21326227,0.371838,0.4363034,-0.19200673,0.354282,0.4362309,-0.1743483,0.338321,0.43980694,-0.27912577,0.402398,0.430012,-0.2453627,0.368236,0.42554315,-0.22983845,0.35254,0.42162019,-0.21613369,0.338691
0.43565533,-0.32252673,0.477101,0.43250054,-0.28467806,0.448036,0.43818158,-0.29834855,0.477085,0.42652665,-0.25819077,0.470255,0.41909436,-0.2234153,0.463087,0.41658469,-0.19977712,0.454813,0.43716448,-0.22382133,0.423856,0.42958395,-0.18422695,0.390824,0.42203204,-0.16461735,0.374308,0.41521264,-0.14673839,0.359293,0.4348943,-0.23940141,0.41324,0.43037729,-0.19664324,0.376632,0.4205307,-0.17202055,0.355277,0.41351076,-0.15435452,0.340024,0.43288579,-0.2551446,0.406752,0.43070574,-0.21347814,0.372283,0.42616306,-0.19223712,0.354648,0.42210625,-0.17285581,0.338616,0.43021652,-0.27955107,0.403309,0.4212243,-0.24533083,0.369265,0.41672035,-0.22962844,0.353623,0.41276529,-0.21576556,0.339821
0.42629155,-0.32039632,0.478653,0.42248275,-0.2804542,0.448493,0.42843587,-0.29574574,0.477781,0.41738537,-0.25208404,0.47014,0.40944698,-0.21734072,0.462449,0.40794835,-0.19377385,0.454041,0.42673407,-0.22019278,0.422353,0.41749962,-0.18040668,0.389061,0.4097927,-0.16068585,0.372415,0.40282469,-0.14271211,0.357282,0.42416179,-0.23667044,0.412385,0.41859838,-0.19426615,0.374959,0.40737128,-0.16993833,0.353126,0.39943905,-0.1524766,0.337532,0.42194493,-0.25304013,0.406515,0.41846215,-0.21173748,0.371148,0.41306618,-0.19070779,0.353054,0.40825779,-0.17152077,0.336605,0.4191097,-0.27798321,0.40397,0.40908103,-0.24449624,0.369361,0.4041035,-0.22912759,0.35346,0.39970551,-0.21556005,0.339429
0.42167488,-0.31943371,0.475665,0.41755071,-0.27936484,0.445053,0.42318975,-0.29494325,0.475088,0.40972753,-0.25627801,0.469154,0.40404635,-0.22250947,0.464774,0.40800516,-0.19759309,0.458866,0.41359742,-0.21647652,0.418899,0.40304491,-0.17563586,0.386158,0.39781648,-0.1553038,0.369918,0.3931075,-0.13684794,0.355202,0.41320628,-0.23155393,0.408404,0.4098395,-0.18826505,0.371046,0.39476857,-0.16464931,0.349253,0.38408367,-0.14767012,0.333687,0.41308904,-0.24714724,0.402135,0.41076854,-0.20485637,0.366323,0.40165392,-0.18411396,0.348,0.39349825,-0.16513795,0.331343,0.41373614,-0.27330162,0.399182,0.39909973,-0.23724341,0.363953,0.39260503,-0.22130571,0.347767,0.38689923,-0.20723086,0.333485
0.41830269,-0.31945776,0.473575,0.41284589,-0.28122744,0.443507,0.41591423,-0.29476799,0.473069,0.40733123,-0.25752017,0.467799,0.40256601,-0.22422992,0.464222,0.40389263,-0.20150182,0.458865,0.41023295,-0.21768353,0.417892,0.39580911,-0.17840865,0.384531,0.39000539,-0.15809989,0.368165,0.38854841,-0.13812564,0.353919,0.41022639,-0.23271352,0.407509,0.40854329,-0.19031396,0.372111,0.39185602,-0.16911239,0.351463,0.38563536,-0.15123647,0.33754,0.41041722,-0.24823878,0.401289,0.4090862,-0.20660103,0.366795,0.40055389,-0.186325,0.349147,0.39297059,-0.16773099,0.333103,0.41176044,-0.27325847,0.398315,0.3968616,-0.23862082,0.363503,0.39054844,-0.2229469,0.347623,0.38505164,-0.20911338,0.333638
0.41558178,-0.32051508,0.477035,0.40502168,-0.27798983,0.446308,0.41605775,-0.29596028,0.476588,0.40057155,-0.25255303,0.470277,0.39371754,-0.21849259,0.464913,0.38901881,-0.19462849,0.45651,0.4031707,-0.21533134,0.420218,0.39673682,-0.17295536,0.387542,0.38517359,-0.15310216,0.371204,0.37469415,-0.13497364,0.356351,0.40225443,-0.23085064,0.409522,0.39847056,-0.18696505,0.371157,0.37943393,-0.16421452,0.348777,0.36587461,-0.14787826,0.332792,0.40166755,-0.24660528,0.403095,0.3993441,-0.20394845,0.366722,0.38804371,-0.18361098,0.348112,0.37787866,-0.16500411,0.331195,0.4013208,-0.27116755,0.399971,0.38673389,-0.23397514,0.365779,0.38004685,-0.21687444,0.350068,0.37410878,-0.20178772,0.336206
0.41223606,-0.31998815,0.475577,0.40207846,-0.27852511,0.445191,0.41022509,-0.29674889,0.475379,0.39351738,-0.25724804,0.469908,0.38501766,-0.22373208,0.465404,0.37935372,-0.19984598,0.45765,0.39481364,-0.21521603,0.419689,0.38732134,-0.17111647,0.388159,0.37529681,-0.15082872,0.372395,0.36438841,-0.13229808,0.358063,0.39539571,-0.22967385,0.408813,0.39043551,-0.18325213,0.371294,0.370852,-0.15992272,0.349409,0.35688821,-0.14316592,0.333776,0.39849715,-0.24543582,0.402212,0.3915436,-0.19898372,0.365575,0.37646405,-0.17844078,0.346831,0.36120205,-0.16025083,0.32979,0.39897821,-0.26974105,0.398829,0.382218,-0.23003799,0.365358,0.37508525,-0.21208577,0.34998,0.36875154,-0.19624913,0.336411
0.40452661,-0.31970262,0.47458,0.39658278,-0.27755304,0.444927,0.40044028,-0.29393097,0.474752,0.38633715,-0.25363339,0.470558,0.37929109,-0.22119469,0.468131,0.38177559,-0.20026109,0.463301,0.3896385,-0.21140361,0.420487,0.38245971,-0.16702182,0.388886,0.36838283,-0.14760191,0.373085,0.35559798,-0.12984585,0.358721,0.39050341,-0.22565756,0.409427,0.37599744,-0.17895163,0.371502,0.36135548,-0.15327428,0.349379,0.3509319,-0.13486585,0.333577,0.39139591,-0.24057199,0.402618,0.38839093,-0.19392765,0.367819,0.37462996,-0.17301464,0.350016,0.36061742,-0.15448525,0.33383,0.39283127,-0.26452036,0.398879,0.37803597,-0.22420225,0.36562,0.37116317,-0.20571576,0.350339,0.3671292,-0.19295177,0.336856
0.40086149,-0.31727526,0.468544,0.39375058,-0.276544,0.441864,0.39665253,-0.29426928,0.471254,0.3860024,-0.26430218,0.470088,0.3772835,-0.23279061,0.468802,0.37173607,-0.20965788,0.463736,0.39029745,-0.21296119,0.423003,0.38343231,-0.16821413,0.391335,0.36846045,-0.14901923,0.3755,0.35485418,-0.13147567,0.361105,0.39050105,-0.22481497,0.409923,0.37562874,-0.174734,0.375224,0.36501338,-0.14671061,0.354984,0.35744055,-0.1266733,0.340526,0.39073602,-0.23779171,0.401222,0.37941004,-0.18786141,0.366892,0.37082717,-0.16390166,0.349328,0.35944658,-0.14317659,0.333361,0.39363611,-0.25716235,0.394787,0.38019528,-0.21673393,0.362942,0.37402594,-0.19815117,0.34831,0.36395285,-0.18584606,0.3354
0.39537003,-0.31968664,0.470131,0.39455102,-0.28020956,0.447625,0.39257986,-0.30144605,0.475124,0.37714486,-0.2688926,0.473504,0.36815086,-0.23720964,0.471962,0.36509649,-0.21412865,0.467798,0.38991167,-0.21849894,0.43503,0.38628018,-0.17264475,0.407113,0.37257056,-0.15318599,0.393155,0.36010193,-0.13533759,0.380466,0.39163127,-0.22691913,0.42068,0.38203526,-0.17656004,0.388992,0.37018489,-0.14882193,0.370507,0.36176199,-0.12887963,0.357303,0.39291252,-0.23732727,0.410613,0.38941896,-0.18921632,0.379132,0.37951613,-0.16647225,0.363025,0.37059805,-0.14561071,0.348383,0.39423489,-0.25648973,0.401931,0.38603844,-0.21603055,0.371356,0.38223431,-0.19747785,0.357308,0.37206056,-0.18630639,0.344913
0.39043346,-0.32145542,0.467883,0.39088068,-0.2798057,0.44709,0.38784549,-0.30537479,0.47331,0.37502679,-0.26936966,0.472568,0.36742886,-0.23903991,0.473259,0.36444014,-0.21623762,0.469758,0.39081767,-0.21921486,0.43645,0.38739823,-0.17341566,0.410057,0.3750752,-0.15363859,0.396861,0.36387384,-0.13546249,0.384864,0.39309966,-0.22729622,0.422196,0.38561101,-0.17699956,0.392056,0.37424098,-0.14950283,0.374474,0.3661762,-0.12967738,0.361916,0.39471048,-0.23739656,0.412075,0.38602154,-0.187794,0.381249,0.38072481,-0.16544816,0.365477,0.37345057,-0.14386803,0.351139,0.39616652,-0.25612942,0.403076,0.38980875,-0.21573895,0.3749,0.38662268,-0.19430941,0.361955,0.37484798,-0.1843647,0.350533
0.38970077,-0.32271021,0.468128,0.39226666,-0.28134203,0.449697,0.38600547,-0.30593437,0.473064,0.37215454,-0.27134527,0.472976,0.36419705,-0.24207992,0.474888,0.35967533,-0.21943148,0.471289,0.39233462,-0.22049136,0.440421,0.38229429,-0.17342431,0.417832,0.37360533,-0.1527443,0.406537,0.36573411,-0.13367526,0.396269,0.39632163,-0.22780521,0.427632,0.38792767,-0.1748997,0.400441,0.37844823,-0.14710328,0.384579,0.37451914,-0.12990501,0.37325,0.40026859,-0.23764514,0.418534,0.39265316,-0.18507819,0.392627,0.38688051,-0.16030621,0.379372,0.38040492,-0.13814678,0.367322,0.40455795,-0.25282644,0.410406,0.40076539,-0.21100164,0.385663,0.39904584,-0.19175594,0.374295,0.39014196,-0.17828416,0.364265
0.38968214,-0.32468343,0.46959,0.39293277,-0.28472197,0.453756,0.3823942,-0.3085698,0.474543,0.3636177,-0.27664671,0.475499,0.35205741,-0.24904024,0.477924,0.34827546,-0.22751439,0.476901,0.39169754,-0.22290051,0.446659,0.38730137,-0.17783002,0.433601,0.38257065,-0.15608715,0.427073,0.37828842,-0.13597839,0.421137,0.39934663,-0.23002909,0.4348,0.39449181,-0.17934263,0.411036,0.3823376,-0.15131238,0.397174,0.38036971,-0.13181129,0.387273,0.40521944,-0.23940465,0.426266,0.40299092,-0.18922745,0.405856,0.39802106,-0.1653353,0.395415,0.39360921,-0.14323613,0.385922,0.41141082,-0.2573881,0.418426,0.40914386,-0.21338837,0.39793,0.40683476,-0.1940395,0.388513,0.4035748,-0.17751503,0.380203
0.38572354,-0.32547098,0.468049,0.39456466,-0.28650653,0.457131,0.38056283,-0.30901855,0.474324,0.36082274,-0.27737363,0.475367,0.34192703,-0.24932112,0.47402,0.33501261,-0.22703551,0.470635,0.39477944,-0.2278444,0.455739,0.38834245,-0.18244142,0.446409,0.38520818,-0.16011812,0.441744,0.38236984,-0.13957959,0.437503,0.40386372,-0.23424063,0.444061,0.39859457,-0.18203889,0.427443,0.393626,-0.15341304,0.417749,0.38874411,-0.13351347,0.410825,0.41055582,-0.24283582,0.435296,0.41099689,-0.19162707,0.422704,0.40898291,-0.16729275,0.416261,0.40724272,-0.14472061,0.410405,0.41705312,-0.25952009,0.426454,0.41565738,-0.21330474,0.410675,0.41404461,-0.19383986,0.403425,0.41229057,-0.17672109,0.397029
0.39354103,-0.32609953,0.473274,0.39879618,-0.27478137,0.461957,0.38660777,-0.30725155,0.476764,0.3605777,-0.27645307,0.475062,0.33944327,-0.24912832,0.472871,0.33215308,-0.22810708,0.471273,0.38308686,-0.21580388,0.456824,0.38703116,-0.17326538,0.452243,0.38298712,-0.15373927,0.449952,0.37923385,-0.13529497,0.44787,0.39847656,-0.2187516,0.448409,0.3874491,-0.16783434,0.429018,0.38001822,-0.13850469,0.417707,0.37474622,-0.11722869,0.409627,0.41134371,-0.22482538,0.44236,0.40979699,-0.17272881,0.422526,0.39919512,-0.15495227,0.412378,0.38923656,-0.13869046,0.403153,0.42702995,-0.23914114,0.436817,0.42684269,-0.19284559,0.419096,0.41783109,-0.18141005,0.410954,0.40985428,-0.171047,0.40377
0.39717831,-0.32854858,0.476458,0.40574387,-0.2792232,0.46828,0.38851079,-0.30868428,0.478848,0.36014464,-0.27626213,0.473494,0.33530438,-0.24956588,0.464307,0.32867352,-0.22730025,0.466272,0.39002534,-0.22077666,0.464407,0.3926012,-0.18299115,0.466879,0.39069176,-0.16343827,0.468116,0.3888509,-0.14495801,0.469239,0.40932499,-0.22538529,0.458488,0.40560848,-0.17548137,0.445622,0.39543576,-0.16146483,0.438117,0.38603892,-0.17077133,0.432756,0.42475702,-0.23158237,0.454251,0.41457342,-0.18002821,0.439227,0.40798357,-0.15594856,0.43154,0.39796426,-0.15202896,0.424552,0.44317922,-0.24580761,0.450404,0.42512555,-0.19893632,0.436627,0.41624033,-0.18619683,0.430296,0.40830326,-0.17460356,0.42471
0.40680102,-0.33473728,0.486319,0.41107002,-0.28214914,0.473699,0.39518514,-0.3137212,0.486778,0.36581456,-0.27925689,0.478657,0.33850555,-0.25080859,0.467304,0.32874495,-0.22764037,0.465648,0.38979611,-0.22135887,0.463769,0.39222177,-0.1828346,0.4687,0.39180357,-0.16328881,0.471166,0.39136305,-0.14501998,0.473408,0.40926125,-0.22484291,0.458589,0.39456677,-0.17039557,0.438227,0.3799019,-0.17170006,0.426349,0.36962547,-0.18650036,0.417865,0.42563333,-0.23139845,0.455303,0.41005047,-0.17841591,0.436156,0.39704195,-0.18115854,0.42636,0.38741673,-0.19803147,0.417455,0.44588998,-0.24640667,0.453248,0.41997577,-0.20413232,0.435349,0.4092016,-0.19381283,0.427125,0.40071098,-0.19054639,0.419868
