sluyters/QuantumLeap/backend/src/datasets/dynamic/HandGestureDataset_SHREC2017_csv/Gesture7/finger_2/subject_24_essai_4_skeletons_world.csv
Wrist_x,Wrist_y,Wrist_z,Palm_x,Palm_y,Palm_z,thumb_base_x,thumb_base_y,thumb_base_z,thumb_first_joint_x,thumb_first_joint_y,thumb_first_joint_z,thumb_second_joint_x,thumb_second_joint_y,thumb_second_joint_z,thumb_tip_x,thumb_tip_y,thumb_tip_z,index_base_x,index_base_y,index_base_z,index_first_joint_x,index_first_joint_y,index_first_joint_z,index_second_joint_x,index_second_joint_y,index_second_joint_z,index_tip_x,index_tip_y,index_tip_z,middle_base_x,middle_base_y,middle_base_z,middle_first_joint_x,middle_first_joint_y,middle_first_joint_z,middle_second_joint_x,middle_second_joint_y,middle_second_joint_z,middle_tip_x,middle_tip_y,middle_tip_z,ring_base_x,ring_base_y,ring_base_z,ring_first_joint_x,ring_first_joint_y,ring_first_joint_z,ring_second_joint_x,ring_second_joint_y,ring_second_joint_z,ring_tip_x,ring_tip_y,ring_tip_z,pinky_base_x,pinky_base_y,pinky_base_z,pinky_first_joint_x,pinky_first_joint_y,pinky_first_joint_z,pinky_second_joint_x,pinky_second_joint_y,pinky_second_joint_z,pinky_tip_x,pinky_tip_y,pinky_tip_z,
0.159482965,-0.356262282,0.523849,0.14160581,-0.309209611,0.489067,0.150515382,-0.341293619,0.524389,0.121118657,-0.329204332,0.511,0.103341714,-0.341105538,0.504097,0.100013202,-0.347029188,0.491827,0.120179641,-0.25614717,0.468782,0.0773867627,-0.260722671,0.444392,0.0587453738,-0.272836172,0.448827,0.0593086588,-0.295881432,0.460223,0.126161309,-0.265085188,0.458367,0.0793918794,-0.266598189,0.425361,0.0538695441,-0.266519103,0.406108,0.051711011,-0.268230621,0.392355,0.132761582,-0.277147472,0.452998,0.0877863015,-0.278775167,0.425695,0.0976379573,-0.287144986,0.430231,0.115932342,-0.29491383,0.443067,0.143511029,-0.29976283,0.452426,0.102545289,-0.290102121,0.428564,0.0847675582,-0.285503985,0.417646,0.0707918074,-0.281013012,0.408032
0.188065629,-0.358419461,0.519254,0.147669792,-0.320858156,0.48931,0.182166608,-0.341571075,0.522391,0.147673569,-0.324968538,0.516401,0.138945467,-0.29820912,0.516372,0.117977489,-0.283894432,0.50492,0.115856956,-0.276678899,0.47526,0.0825553098,-0.245521798,0.455349,0.0589297866,-0.238050188,0.445393,0.0389547556,-0.234755538,0.434118,0.111882727,-0.287629484,0.46288,0.0691795343,-0.260301448,0.439594,0.0393506391,-0.254608545,0.42601,0.0215131248,-0.253862893,0.416308,0.112359631,-0.300254348,0.455448,0.0684108927,-0.280963771,0.430532,0.0447486568,-0.27827215,0.417784,0.0307004162,-0.276073457,0.40351,0.119653381,-0.321400256,0.451665,0.0791619137,-0.311289618,0.431384,0.0637832756,-0.309966499,0.422066,0.0528071375,-0.308821893,0.413844
0.173709668,-0.356475761,0.516301,0.133893117,-0.324909349,0.48968,0.16717056,-0.340587492,0.520337,0.135584729,-0.330802227,0.517973,0.125154466,-0.306572515,0.52083,0.103093504,-0.29356665,0.509694,0.099567012,-0.284691552,0.478781,0.0631276799,-0.256490682,0.461029,0.0397420912,-0.25101836,0.452153,0.0210518114,-0.248464354,0.440227,0.0956847514,-0.295242711,0.466182,0.0502527725,-0.271234397,0.444716,0.0215129779,-0.267834701,0.432195,0.00539398034,-0.268488968,0.423251,0.0965030586,-0.307161669,0.458264,0.0509180278,-0.292038761,0.436432,0.0287824234,-0.291598536,0.425262,0.0172267149,-0.289479718,0.410355,0.104661647,-0.326767281,0.453366,0.0642225386,-0.320113942,0.43523,0.0505520767,-0.320192669,0.426898,0.0412943558,-0.320136345,0.419545
0.17342031,-0.359256307,0.516582,0.129890928,-0.334371139,0.491821,0.168826605,-0.346789718,0.52054,0.133967097,-0.337938873,0.519633,0.125156701,-0.313498306,0.522717,0.103253465,-0.296981924,0.511049,0.0977278961,-0.293494968,0.481944,0.0612495902,-0.265069143,0.464277,0.0381915793,-0.258508204,0.455444,0.0205608378,-0.252078719,0.442806,0.0919078469,-0.305398984,0.469966,0.0462071427,-0.281382406,0.44956,0.0178870224,-0.276705924,0.437657,0.00227824484,-0.27624803,0.429155,0.0911008314,-0.318383821,0.462387,0.044884179,-0.303751755,0.442452,0.0231126285,-0.30240738,0.432253,0.0122902118,-0.298223099,0.416778,0.0973210042,-0.339111783,0.457581,0.0566095364,-0.331882782,0.440735,0.0434571461,-0.330998654,0.432994,0.0347670711,-0.330103878,0.426165
0.166808242,-0.361251485,0.515715,0.119685529,-0.333483642,0.490897,0.160737474,-0.344938459,0.519262,0.123321141,-0.337142729,0.518518,0.111173412,-0.316120481,0.524827,0.0884336426,-0.305922327,0.515796,0.0878644861,-0.292072185,0.480462,0.0488406516,-0.267769439,0.466654,0.0263826301,-0.263680514,0.45975,0.00970424292,-0.260281296,0.446784,0.0820855346,-0.304261271,0.468991,0.0366871534,-0.28045068,0.449389,0.0104182263,-0.277898629,0.437954,0.000789211,-0.277961518,0.429787,0.0812685045,-0.317539993,0.461836,0.0361854047,-0.302153668,0.442622,0.0135804718,-0.300619394,0.432792,0.00173686428,-0.296371073,0.417271,0.0874183381,-0.338702451,0.457535,0.0471283502,-0.33308029,0.442433,0.0363626545,-0.332542071,0.435494,0.0299844871,-0.331885944,0.429371
0.166002139,-0.36278542,0.516452,0.119848638,-0.333938117,0.491566,0.160232801,-0.34655432,0.520249,0.123405096,-0.337372252,0.518871,0.111060719,-0.31580004,0.524295,0.0884420437,-0.305951389,0.515845,0.0880374858,-0.292647257,0.481408,0.0486187695,-0.266552968,0.464534,0.026173061,-0.261585982,0.456098,0.00973995095,-0.261239035,0.448428,0.0821919503,-0.304655715,0.469599,0.0367427487,-0.280875672,0.45007,0.0104354254,-0.278357401,0.438677,0.000296673648,-0.278881015,0.43054,0.0813274538,-0.317770326,0.462171,0.0361924354,-0.302212375,0.442708,0.0135791225,-0.300589526,0.432749,0.00173725555,-0.296437837,0.417365,0.087423879,-0.338723919,0.457564,0.0471398545,-0.333161597,0.442541,0.0363746782,-0.332652029,0.435638,0.0299968477,-0.332022758,0.429548
0.167175158,-0.365621836,0.520398,0.12371465,-0.333960927,0.492924,0.161370911,-0.349223957,0.524121,0.12489069,-0.338294713,0.521511,0.111800189,-0.315475143,0.524873,0.0891721741,-0.305845434,0.516614,0.0891740479,-0.291309189,0.481111,0.0499379113,-0.2654687,0.46469,0.0273958332,-0.260794043,0.45648,0.0107858541,-0.260775747,0.449015,0.0866114214,-0.300031484,0.468673,0.0416175569,-0.275152926,0.4475,0.0153971546,-0.272959947,0.43515,-0.000322247523,-0.272611724,0.426328,0.0864900427,-0.31249485,0.460965,0.0447897445,-0.293092176,0.439284,0.0210884893,-0.290933769,0.428191,0.00791663873,-0.288304746,0.413609,0.0934467463,-0.333014842,0.456455,0.0529169624,-0.326786623,0.439513,0.0429217718,-0.328204265,0.431729,0.035893375,-0.327409268,0.424861
0.171728976,-0.366227407,0.522346,0.133419815,-0.331477437,0.493534,0.167959067,-0.350697711,0.525943,0.135941418,-0.336077115,0.52114,0.124537324,-0.314072395,0.524223,0.102275505,-0.302614239,0.514602,0.100975189,-0.287327308,0.480754,0.0624286375,-0.261131957,0.462575,0.03908039,-0.257233948,0.453485,0.0214784196,-0.254635339,0.445222,0.0965582717,-0.29806709,0.468103,0.0513243559,-0.273329378,0.44633,0.0225414863,-0.269285031,0.433629,0.00501064194,-0.27076383,0.424557,0.0969402925,-0.310319543,0.460344,0.0574659813,-0.290001827,0.436722,0.0329832229,-0.286565769,0.424637,0.0179658385,-0.283945124,0.410315,0.104611304,-0.330674725,0.455993,0.0633342,-0.326079536,0.438562,0.0526281483,-0.325507332,0.430553,0.0443272818,-0.323932574,0.423487
0.17504082,-0.362491552,0.520716,0.136275632,-0.32410889,0.490899,0.17369446,-0.345563222,0.523272,0.139278341,-0.323658497,0.515876,0.123876026,-0.303623621,0.518644,0.102163358,-0.296014601,0.510604,0.103492983,-0.279809626,0.476183,0.0632903352,-0.255255646,0.458855,0.040151141,-0.250474049,0.450191,0.0219140861,-0.252533405,0.442314,0.0995575169,-0.2923534,0.464581,0.0539534348,-0.268768705,0.441825,0.0251173866,-0.264312012,0.428551,0.00724867093,-0.265282931,0.41907,0.0983864837,-0.306391963,0.457778,0.0604347151,-0.285865653,0.433283,0.0359291678,-0.282610856,0.42075,0.0232254618,-0.279332446,0.40592,0.106800863,-0.327667654,0.454711,0.0661558347,-0.321257534,0.43647,0.0539711378,-0.320662707,0.428089,0.0465272234,-0.320750942,0.420694
0.192244047,-0.359429193,0.523524,0.159800614,-0.323281404,0.492098,0.190102696,-0.34195218,0.525169,0.160325335,-0.323499138,0.515622,0.143577114,-0.299766532,0.514905,0.11953519,-0.288384374,0.506312,0.124319214,-0.279259036,0.475246,0.0847666342,-0.253870398,0.456411,0.0615882416,-0.249239954,0.446994,0.0441563687,-0.248998035,0.438432,0.120651786,-0.292213699,0.464359,0.0751218991,-0.2675393,0.439804,0.0459411874,-0.26241795,0.42548,0.0294877388,-0.261415632,0.415249,0.121730128,-0.306289712,0.458292,0.0819770862,-0.285452639,0.432657,0.0571110307,-0.281799462,0.419542,0.0413134288,-0.278594981,0.404796,0.130369815,-0.328780152,0.456351,0.0892931363,-0.32266517,0.43807,0.0779019565,-0.321430848,0.429671,0.0714719742,-0.319869864,0.422259
0.186523121,-0.352970296,0.514867,0.159888324,-0.31009434,0.47995,0.186306975,-0.33325258,0.516109,0.148956813,-0.30984579,0.498177,0.119284547,-0.304616048,0.494767,0.0988027347,-0.300305083,0.481465,0.136842455,-0.262574328,0.46048,0.0894948605,-0.24718634,0.439867,0.0665013303,-0.239552033,0.42956,0.050568397,-0.23996537,0.420191,0.133822621,-0.277406021,0.449131,0.081535912,-0.254490499,0.41981,0.0517673994,-0.241203842,0.402706,0.0342929458,-0.237624555,0.390488,0.134061139,-0.29293892,0.443006,0.086356881,-0.272157451,0.416607,0.0620252903,-0.261531036,0.4031,0.039182501,-0.253467573,0.390822,0.139166986,-0.317024283,0.441571,0.0976417742,-0.307349602,0.421574,0.0789362421,-0.302854668,0.412386,0.0626388158,-0.298861768,0.40428
0.195167563,-0.34367189,0.508509,0.175254542,-0.301812337,0.471851,0.197673482,-0.319493966,0.508525,0.163770854,-0.299923319,0.48996,0.136256206,-0.292569361,0.485621,0.116704071,-0.286944425,0.471263,0.156600423,-0.252404857,0.449763,0.108693684,-0.233058592,0.426719,0.0854085158,-0.223492917,0.415197,0.0675921625,-0.222279826,0.404722,0.153047042,-0.268042405,0.439494,0.103204767,-0.239763084,0.4079,0.0745932466,-0.223374699,0.389471,0.054404839,-0.217644262,0.376307,0.152441239,-0.284410856,0.434418,0.106253305,-0.260404249,0.406042,0.0826922532,-0.248132261,0.391524,0.0598806939,-0.238440231,0.378326,0.155860121,-0.30979646,0.434497,0.113655107,-0.29679634,0.41245,0.0946269621,-0.290794306,0.40232,0.0780413813,-0.285482389,0.393382
0.216019857,-0.333976204,0.498765,0.193900823,-0.295041065,0.464282,0.216633664,-0.313686968,0.499779,0.183432504,-0.291752765,0.481126,0.159437995,-0.276183467,0.475381,0.140747759,-0.267609192,0.462459,0.181302396,-0.245333779,0.444781,0.133747181,-0.226864143,0.424735,0.11070826,-0.217768352,0.414712,0.0902102567,-0.209583397,0.4056,0.174314682,-0.260536659,0.433845,0.12582325,-0.229611916,0.405343,0.0968237299,-0.221485259,0.388716,0.0891787564,-0.221690196,0.37684,0.170609014,-0.276677885,0.42802,0.121757561,-0.252865547,0.405114,0.097473282,-0.240843529,0.393395,0.0828915146,-0.240781984,0.382741,0.169923477,-0.301973961,0.426865,0.127728355,-0.28684449,0.407533,0.113929127,-0.27804879,0.398651,0.102411491,-0.270439926,0.390814
0.239231639,-0.33406794,0.498902,0.217218511,-0.295131938,0.464425,0.23985432,-0.313767308,0.499907,0.206646508,-0.291395598,0.480537,0.183273248,-0.275562988,0.474313,0.164684276,-0.266646871,0.460796,0.20470594,-0.245408794,0.444917,0.156589335,-0.22693999,0.424877,0.133259693,-0.217844493,0.414857,0.112491404,-0.209659872,0.405748,0.19774062,-0.260626138,0.433994,0.14905515,-0.229703683,0.405505,0.119106315,-0.221582123,0.388886,0.110215759,-0.221793147,0.377015,0.194041513,-0.276780664,0.428179,0.144676252,-0.25297041,0.405282,0.120114449,-0.240948831,0.393567,0.104585781,-0.240892706,0.382917,0.193341935,-0.302094223,0.427035,0.150588507,-0.286971888,0.407714,0.135973439,-0.278177822,0.398836,0.123754862,-0.270570712,0.391003
0.26340714,-0.329500658,0.500485,0.243708515,-0.289592073,0.464907,0.264417874,-0.308852002,0.501061,0.233078981,-0.285762746,0.481639,0.211399768,-0.268446295,0.474135,0.193743862,-0.258674605,0.459778,0.233122572,-0.239082863,0.444188,0.184142877,-0.218992053,0.422709,0.160343586,-0.209103089,0.41197,0.139128563,-0.20020815,0.402207,0.226318516,-0.254316799,0.433504,0.17838597,-0.221735406,0.403493,0.14654551,-0.212799261,0.385987,0.134883229,-0.212873905,0.373483,0.222530912,-0.270591909,0.427988,0.172635167,-0.245140893,0.403618,0.147760204,-0.232295833,0.39115,0.130003053,-0.231833018,0.379815,0.221331475,-0.296262655,0.427374,0.177569527,-0.279728893,0.406735,0.161254766,-0.270546028,0.397253,0.147586729,-0.262602168,0.388886
0.268901676,-0.320480974,0.496237,0.266173405,-0.277810948,0.460814,0.28366795,-0.294822305,0.497499,0.257648363,-0.270550103,0.478146,0.2422674,-0.249400076,0.468779,0.228965973,-0.237370264,0.455043,0.26877988,-0.231011109,0.441064,0.219442185,-0.20903423,0.419647,0.195368409,-0.199747481,0.408939,0.175221451,-0.192989661,0.399204,0.256900373,-0.245664211,0.429547,0.202801969,-0.214506481,0.399251,0.170948004,-0.201085684,0.381578,0.153001801,-0.195610903,0.368955,0.248098232,-0.261043528,0.42333,0.204780933,-0.22730593,0.398916,0.182878234,-0.210212036,0.386425,0.160787081,-0.205684876,0.37507,0.239537591,-0.28496766,0.42187,0.198826406,-0.264213512,0.401033,0.180288269,-0.254716338,0.391459,0.163599376,-0.24566197,0.383011
0.303804872,-0.317916749,0.50305,0.289582275,-0.279452708,0.465806,0.309665062,-0.297113934,0.50242,0.28156854,-0.272898131,0.481818,0.264887541,-0.250337237,0.470409,0.251022914,-0.23768904,0.45596,0.288404486,-0.229871721,0.44254,0.242683979,-0.198067642,0.418686,0.220311454,-0.182479382,0.406759,0.197554271,-0.176187715,0.395916,0.277012284,-0.245529344,0.432931,0.223377063,-0.209777428,0.400711,0.202215992,-0.208213769,0.381916,0.204311526,-0.21015645,0.370894,0.268913525,-0.262088321,0.428453,0.223568283,-0.225845378,0.401746,0.204272643,-0.226237639,0.388083,0.205393003,-0.230432503,0.377588,0.26171423,-0.287975719,0.429328,0.219433177,-0.272681865,0.406686,0.208302107,-0.258493266,0.396283,0.208073961,-0.248670741,0.387103
0.306630798,-0.315659979,0.501247,0.319703266,-0.282264221,0.46452,0.310133443,-0.292385215,0.496913,0.304284609,-0.278251511,0.480749,0.292333844,-0.271047007,0.465224,0.290928409,-0.26692631,0.454439,0.327907108,-0.234039249,0.436835,0.272820809,-0.215758166,0.403722,0.246022811,-0.206691284,0.387281,0.223511068,-0.206654734,0.372334,0.326398088,-0.254174075,0.432102,0.265588864,-0.230850663,0.395588,0.231256854,-0.217308569,0.374288,0.214992465,-0.219490265,0.370653,0.324524743,-0.2739038,0.431591,0.269594707,-0.249484744,0.399458,0.242086472,-0.237069278,0.383018,0.224308603,-0.233822121,0.379915,0.32105771,-0.30276005,0.437025,0.276014183,-0.270057156,0.409244,0.255870508,-0.255333081,0.39648,0.238060782,-0.241878656,0.385218
0.319752412,-0.312437053,0.497957,0.338894425,-0.280042664,0.460864,0.332509248,-0.287574287,0.491306,0.321837028,-0.273635101,0.472773,0.309113279,-0.265089757,0.454999,0.307610894,-0.260557986,0.443597,0.343745254,-0.230376785,0.429999,0.289545755,-0.212810825,0.398207,0.278693887,-0.216183646,0.405067,0.27428562,-0.233307042,0.420354,0.344613787,-0.251833519,0.428123,0.282729064,-0.227969027,0.39065,0.247827319,-0.214116475,0.36879,0.231374271,-0.216324514,0.365307,0.344813761,-0.272892188,0.429997,0.288291481,-0.247437442,0.39618,0.26005704,-0.234506822,0.378878,0.241878307,-0.231226731,0.375698,0.343877649,-0.303632254,0.438284,0.297146029,-0.27003142,0.409205,0.276262016,-0.254923497,0.395844,0.257737616,-0.241148407,0.384055
0.361105459,-0.328025458,0.536578,0.373570843,-0.295273771,0.499086,0.364359428,-0.293638338,0.525181,0.32892531,-0.259299375,0.506085,0.298311089,-0.22987076,0.48806,0.278493799,-0.209286645,0.472595,0.375262718,-0.247699821,0.461918,0.318316943,-0.232041003,0.426837,0.307297027,-0.237047808,0.432881,0.303551579,-0.2529791,0.449138,0.379658742,-0.273526199,0.465993,0.316567157,-0.252992004,0.427506,0.280888187,-0.240941322,0.405056,0.263432239,-0.24063974,0.400792,0.382685787,-0.297551569,0.472804,0.325885379,-0.275700133,0.436396,0.297361265,-0.264499735,0.417769,0.277152508,-0.259659834,0.41327,0.38492588,-0.330500739,0.486935,0.336156725,-0.300190266,0.456058,0.313318471,-0.283117318,0.441871,0.294562249,-0.26854851,0.429363
0.342759058,-0.302202352,0.512704,0.371084339,-0.282689026,0.500019,0.359248421,-0.293833501,0.523699,0.346584134,-0.267043325,0.528862,0.327200928,-0.241597758,0.524194,0.313573914,-0.222514015,0.51549,0.414480081,-0.268965066,0.506415,0.398797562,-0.234378669,0.501995,0.387491947,-0.242745919,0.512351,0.385212304,-0.261313177,0.518232,0.40070925,-0.268889602,0.488823,0.371013124,-0.229437069,0.475668,0.341602799,-0.231068401,0.467993,0.340306233,-0.248179834,0.472726,0.386310641,-0.270385617,0.47551,0.362094818,-0.235290978,0.468301,0.338747037,-0.234902659,0.464613,0.334833509,-0.252845445,0.471205,0.363792187,-0.274959096,0.462007,0.344177689,-0.24111068,0.454197,0.328498625,-0.238169495,0.450608,0.326373586,-0.250320065,0.454849
0.343671504,-0.291912306,0.496484,0.38141214,-0.264090748,0.486107,0.359436747,-0.282984049,0.507936,0.351460108,-0.259219366,0.514459,0.334222262,-0.234666551,0.512949,0.328979783,-0.214312704,0.509513,0.421347454,-0.243331261,0.494476,0.400034109,-0.213158715,0.491681,0.39890556,-0.20257905,0.502704,0.393736155,-0.190288778,0.50821,0.40912551,-0.243560053,0.476946,0.376933456,-0.207797217,0.465715,0.368057403,-0.227765595,0.479156,0.371850235,-0.247572145,0.488129,0.396202568,-0.245999789,0.463472,0.389540502,-0.208499031,0.456313,0.386120732,-0.188624174,0.45265,0.391885172,-0.17406159,0.459738,0.375815252,-0.252911687,0.449401,0.374238592,-0.218708613,0.443,0.37365404,-0.202953879,0.440208,0.372824579,-0.188970151,0.437751
0.390672357,-0.314429285,0.517255,0.402473645,-0.27313984,0.494452,0.390506449,-0.295383729,0.51913,0.373152339,-0.264583596,0.516012,0.352134173,-0.235480879,0.50608,0.347326731,-0.214718296,0.501297,0.408367121,-0.225621377,0.483096,0.392775206,-0.186090594,0.464679,0.384978728,-0.166193076,0.45547,0.389601983,-0.152608339,0.460954,0.41213092,-0.23741322,0.474325,0.408220295,-0.196759505,0.448685,0.405922734,-0.173070847,0.433729,0.402218756,-0.167793488,0.437641,0.414410219,-0.25108909,0.469206,0.42460809,-0.216999534,0.445293,0.410319293,-0.20165025,0.433059,0.41213955,-0.194571052,0.437706,0.41543915,-0.274292089,0.466958,0.42468067,-0.247439293,0.44551,0.408646381,-0.238604887,0.435655,0.394468897,-0.230794827,0.426959
0.390433962,-0.31005167,0.507681,0.413086178,-0.270721434,0.490345,0.389275321,-0.291952351,0.510892,0.38375173,-0.261746184,0.510544,0.371228898,-0.233463868,0.506479,0.374284543,-0.216790611,0.508883,0.417889409,-0.224004822,0.483993,0.421725585,-0.185045863,0.469579,0.412570668,-0.172153552,0.462371,0.41689903,-0.165160193,0.470182,0.426079209,-0.235430696,0.475044,0.431384091,-0.19619231,0.452967,0.434339358,-0.173460554,0.440089,0.424388096,-0.163245776,0.430891,0.431528221,-0.248522922,0.469274,0.439768381,-0.214840061,0.446503,0.433921115,-0.200512034,0.434853,0.445293341,-0.194497431,0.440637,0.435630259,-0.270552868,0.465366,0.447858839,-0.246740071,0.446427,0.4362393,-0.240711503,0.437726,0.425938749,-0.235371832,0.430048
0.401720245,-0.30864516,0.50569,0.428733109,-0.270885951,0.492023,0.399642468,-0.29060837,0.509262,0.397601059,-0.255912592,0.507361,0.393873194,-0.229742574,0.50877,0.388714123,-0.209788116,0.502049,0.439440207,-0.227139049,0.488345,0.445377134,-0.188927487,0.474837,0.440504105,-0.173727873,0.468083,0.450239679,-0.164692134,0.4769,0.446884524,-0.239604696,0.47996,0.458820794,-0.203753277,0.460368,0.458272059,-0.18387617,0.448939,0.458081418,-0.169404107,0.440776,0.451195807,-0.253165924,0.474316,0.463860517,-0.223104858,0.453859,0.463582522,-0.20839716,0.443393,0.479146611,-0.203022647,0.450654,0.452995093,-0.275035992,0.469954,0.467340745,-0.253737675,0.453464,0.467577137,-0.244439964,0.445888,0.467947505,-0.236133994,0.439203
0.408136207,-0.309522008,0.508157,0.434312715,-0.271951197,0.493948,0.410602775,-0.289306296,0.510144,0.404276807,-0.255030285,0.506002,0.392506338,-0.225086492,0.499286,0.389343248,-0.206861077,0.497563,0.446804857,-0.227168479,0.487917,0.451750897,-0.189527944,0.472589,0.445627417,-0.17600009,0.464924,0.455108034,-0.16893262,0.473573,0.4560527,-0.240627284,0.481406,0.466759365,-0.205407552,0.461726,0.469404917,-0.185249547,0.450246,0.462685259,-0.171365112,0.442046,0.46195147,-0.255087549,0.477356,0.47425088,-0.223611768,0.457686,0.476723132,-0.207857076,0.447622,0.479178115,-0.193360463,0.438473,0.465722895,-0.278166868,0.474948,0.480314003,-0.257788957,0.458791,0.481198333,-0.248934566,0.451368,0.478047371,-0.240087208,0.444817
0.43905784,-0.306915436,0.506621,0.458747757,-0.269543509,0.493306,0.435101718,-0.28803407,0.50861,0.423663649,-0.25437494,0.504513,0.414080683,-0.225454182,0.500785,0.413475597,-0.205814917,0.498468,0.465023477,-0.223977229,0.487817,0.468519057,-0.184802036,0.474468,0.465749884,-0.167680421,0.467793,0.47885024,-0.156842921,0.477195,0.47558586,-0.237064286,0.481553,0.486446657,-0.20098718,0.462437,0.492730731,-0.179986898,0.451285,0.48779795,-0.169038407,0.44332,0.482661463,-0.25133665,0.477624,0.496006657,-0.219885503,0.458549,0.49954355,-0.204150476,0.448789,0.502977181,-0.189674337,0.439916,0.487972341,-0.274362723,0.475212,0.503218785,-0.252885624,0.459741,0.49957284,-0.245559561,0.452632,0.496464078,-0.239006861,0.44636
0.441848349,-0.303399055,0.504822,0.470651632,-0.266934573,0.494934,0.438532694,-0.284792411,0.507231,0.432230557,-0.24888164,0.503418,0.41656546,-0.217392565,0.492708,0.414432488,-0.19693925,0.48851,0.480735122,-0.224013236,0.492048,0.487148494,-0.186580043,0.480516,0.48937096,-0.168166202,0.47475,0.504010199,-0.159910465,0.485137,0.491396166,-0.237595548,0.486206,0.5071129,-0.203868884,0.469898,0.512986558,-0.184331521,0.460385,0.517443398,-0.170125244,0.453589,0.498152046,-0.251937083,0.482308,0.516069763,-0.22446562,0.465663,0.520321528,-0.210558014,0.457147,0.522071704,-0.198405407,0.449406,0.50239322,-0.274477134,0.479369,0.520437169,-0.254741182,0.466403,0.524587236,-0.245880267,0.460446,0.527801827,-0.238097059,0.45519
0.446347103,-0.301090369,0.504791,0.481876038,-0.264401099,0.496537,0.447321113,-0.279632465,0.506464,0.442811828,-0.242928706,0.500978,0.431508134,-0.211922832,0.492418,0.427502772,-0.191314345,0.483709,0.493025832,-0.221692389,0.493697,0.500258856,-0.184251144,0.483113,0.501509498,-0.16725271,0.477821,0.518636044,-0.15767495,0.488836,0.504667409,-0.236529881,0.489251,0.522221577,-0.20340226,0.474657,0.529514699,-0.184206534,0.466143,0.534842821,-0.170277185,0.460062,0.512028495,-0.251795767,0.486352,0.530820457,-0.223175211,0.471796,0.538887588,-0.208380114,0.464349,0.543808694,-0.195556509,0.457578,0.516567064,-0.275175406,0.484314,0.535699106,-0.255312117,0.472916,0.542422734,-0.246144599,0.467679,0.548588191,-0.237938827,0.463058
0.468622812,-0.302173019,0.512489,0.49654525,-0.268716484,0.504463,0.464255248,-0.283534971,0.514323,0.463419432,-0.257280263,0.517056,0.445309931,-0.226597931,0.504942,0.444516204,-0.206985249,0.502568,0.501919894,-0.225154652,0.502083,0.509502121,-0.187453203,0.490508,0.514021402,-0.169667004,0.48472,0.516833616,-0.152907094,0.479458,0.51452474,-0.239526868,0.497542,0.53280554,-0.205846095,0.483945,0.542266192,-0.18421352,0.476013,0.548119347,-0.169968815,0.470347,0.52480706,-0.253203174,0.49456,0.5444976,-0.224445076,0.481382,0.553790267,-0.20972536,0.47464,0.562100796,-0.196319308,0.468511,0.531560986,-0.276321244,0.492416,0.549558715,-0.254023532,0.481392,0.557510507,-0.243941105,0.476327,0.564632051,-0.234987093,0.471857
0.471210091,-0.300761188,0.511452,0.50048573,-0.26696127,0.506002,0.465602156,-0.281957201,0.512675,0.458893592,-0.246124083,0.505625,0.441758866,-0.213949522,0.49124,0.438639835,-0.193022652,0.485015,0.508065108,-0.220982889,0.504347,0.517507028,-0.184163307,0.494282,0.521204049,-0.166995433,0.489249,0.523621026,-0.152791986,0.484674,0.523742632,-0.234756069,0.501289,0.541610688,-0.201268758,0.488947,0.550815504,-0.182077387,0.481748,0.55644506,-0.17022403,0.476606,0.534519902,-0.249403872,0.499283,0.554638186,-0.219377786,0.488855,0.564715128,-0.204002454,0.48352,0.574117225,-0.189830693,0.47867,0.543267961,-0.2724575,0.497849,0.564321503,-0.252189396,0.489145,0.573985751,-0.242880757,0.485146,0.582276486,-0.234781271,0.481618
0.4813721,-0.302806628,0.513833,0.507358888,-0.26620035,0.508082,0.473993914,-0.28430884,0.514776,0.464370334,-0.251864859,0.507343,0.444934508,-0.220299089,0.492375,0.439900586,-0.196321336,0.486075,0.510629231,-0.221940807,0.505876,0.51850853,-0.184391885,0.495375,0.521630806,-0.166976853,0.490124,0.524174693,-0.15211625,0.48535,0.527115537,-0.235384255,0.503087,0.544633475,-0.200800757,0.491606,0.554319991,-0.180830935,0.484908,0.561219822,-0.16662115,0.480125,0.538667247,-0.249856148,0.501326,0.557269384,-0.218504203,0.490681,0.566835299,-0.202519284,0.485234,0.575603336,-0.188067231,0.480283,0.551164278,-0.27198397,0.500219,0.570200104,-0.248836082,0.491667,0.578879605,-0.238280689,0.487738,0.586026271,-0.232814112,0.484271
0.483213914,-0.300863772,0.512369,0.515413203,-0.261099192,0.508918,0.475529876,-0.282670542,0.513489,0.466883785,-0.250065153,0.507781,0.444388367,-0.216803171,0.491533,0.439845201,-0.195898396,0.48496,0.516915919,-0.217119705,0.508296,0.522458643,-0.178671627,0.499832,0.524984538,-0.160965947,0.495599,0.527461594,-0.144452041,0.491752,0.534921921,-0.229427505,0.505908,0.55111063,-0.193402542,0.496862,0.560935872,-0.172304514,0.491585,0.567787951,-0.157577905,0.487816,0.547780634,-0.243014456,0.504263,0.566302177,-0.211227721,0.497792,0.576674805,-0.194704278,0.494481,0.586357127,-0.17941279,0.491471,0.559240402,-0.265072875,0.502909,0.579957323,-0.24258063,0.497757,0.589316648,-0.232365593,0.49539,0.597693317,-0.224113592,0.493301
0.489161452,-0.297556856,0.513215,0.518552997,-0.252477599,0.509949,0.484591381,-0.274986087,0.513243,0.469091873,-0.23950751,0.506949,0.445453197,-0.209241383,0.489859,0.437824754,-0.191715601,0.482289,0.519319001,-0.207749973,0.508029,0.522632254,-0.168643139,0.4993,0.524452219,-0.151309664,0.494936,0.526293984,-0.135084854,0.490968,0.538563991,-0.220892762,0.507087,0.554382659,-0.184292772,0.499374,0.564438217,-0.162759045,0.494874,0.571733899,-0.147651044,0.49166,0.552424879,-0.235154167,0.506614,0.570613079,-0.204485954,0.499757,0.58127975,-0.188894383,0.496248,0.589801773,-0.177175992,0.493059,0.564994511,-0.257976073,0.506599,0.58568965,-0.234930249,0.50208,0.59507424,-0.224441975,0.500004,0.604370205,-0.215240103,0.498171
0.492379883,-0.294745983,0.511232,0.517899166,-0.256231307,0.509314,0.482546504,-0.276652691,0.511642,0.468596163,-0.242953489,0.506004,0.446061834,-0.212088346,0.490172,0.438908397,-0.19158779,0.483403,0.519247226,-0.209592306,0.508686,0.521865415,-0.170596479,0.50114,0.523993419,-0.152924958,0.497367,0.526099027,-0.136397251,0.493937,0.538730317,-0.222128782,0.507627,0.553578951,-0.18480618,0.500374,0.563233861,-0.162944578,0.496142,0.570257242,-0.147343675,0.49312,0.552799979,-0.235837861,0.506931,0.571218094,-0.203755616,0.501451,0.579634311,-0.184841659,0.498648,0.588658277,-0.168750841,0.496099,0.565681514,-0.257949119,0.506431,0.584693753,-0.233113117,0.501851,0.591946089,-0.219237071,0.499747,0.601839297,-0.211792103,0.49789
0.487398796,-0.295988349,0.51296,0.507220624,-0.251671203,0.510645,0.480845858,-0.274690656,0.513489,0.460213639,-0.235770681,0.506935,0.440731038,-0.205431568,0.491223,0.437647411,-0.187534502,0.483447,0.512679974,-0.207496428,0.509924,0.519224139,-0.170557486,0.502084,0.521491641,-0.151885205,0.498165,0.525823429,-0.13507527,0.494601,0.530478097,-0.221699651,0.508601,0.550656291,-0.18571976,0.502131,0.560756935,-0.163950322,0.498358,0.570881704,-0.148434484,0.495662,0.542799107,-0.236622468,0.507724,0.55989533,-0.202438409,0.501482,0.569008551,-0.184814823,0.498289,0.577631999,-0.168713092,0.495386,0.552943908,-0.259816191,0.507078,0.572246674,-0.235237853,0.501938,0.581020741,-0.224029536,0.499577,0.589395996,-0.214297013,0.497493
0.492256284,-0.287284566,0.514678,0.509830925,-0.242726446,0.511151,0.479289071,-0.266276881,0.51447,0.460509181,-0.229240071,0.506949,0.437183199,-0.198467435,0.48929,0.432758789,-0.180704757,0.483417,0.509988476,-0.197709487,0.508757,0.512655935,-0.158393948,0.499725,0.514059399,-0.140504338,0.495209,0.515498418,-0.123797519,0.491104,0.529479758,-0.210789237,0.508036,0.546001384,-0.174138107,0.502262,0.556346395,-0.152279952,0.498894,0.563883969,-0.136447389,0.496488,0.543636522,-0.22500155,0.507768,0.561648613,-0.192583233,0.500464,0.571668332,-0.175738994,0.496727,0.578048173,-0.16429999,0.493329,0.556716311,-0.247813621,0.508033,0.573766402,-0.223940587,0.501642,0.582736804,-0.212691755,0.498705,0.5902796,-0.203490696,0.496114
0.489077522,-0.289284005,0.512672,0.508387562,-0.246243546,0.509789,0.48050259,-0.269258386,0.512735,0.459602319,-0.232532731,0.505715,0.438101732,-0.202335041,0.489823,0.432166537,-0.181472932,0.483864,0.509028345,-0.198851651,0.508126,0.511551942,-0.159478783,0.499686,0.512945494,-0.140697095,0.495466,0.51439577,-0.123483342,0.49163,0.528727657,-0.211378591,0.507237,0.544069509,-0.174100239,0.500649,0.553732232,-0.152021362,0.496806,0.56083455,-0.136187361,0.494061,0.543062086,-0.225151646,0.506771,0.560413188,-0.192287536,0.499619,0.570241489,-0.175376402,0.49596,0.57770274,-0.162554868,0.492633,0.556379201,-0.247466948,0.506698,0.573389736,-0.222535756,0.500277,0.58201986,-0.210945034,0.497326,0.589343813,-0.201743912,0.494723
0.488326807,-0.29012836,0.512056,0.507253663,-0.246012784,0.508817,0.478159123,-0.271827032,0.512083,0.457678639,-0.2339072,0.503602,0.438156477,-0.20283823,0.490163,0.431825667,-0.181819322,0.484044,0.500311158,-0.203174384,0.506896,0.504019328,-0.164656303,0.49808,0.505961234,-0.145149677,0.493672,0.507264516,-0.129032477,0.489664,0.524460909,-0.212517057,0.505957,0.535842203,-0.175061333,0.498249,0.544325912,-0.152550757,0.493752,0.553495223,-0.135990672,0.49054,0.540329165,-0.224782229,0.505484,0.558354867,-0.192320723,0.498963,0.567298131,-0.175432643,0.495627,0.5767997,-0.161855991,0.492594,0.554747516,-0.246490055,0.505463,0.571963589,-0.222344042,0.499227,0.5807317,-0.210845681,0.496362,0.587843082,-0.201690276,0.493833
0.487569508,-0.289315505,0.511307,0.506226652,-0.245806037,0.50779,0.476879304,-0.270891278,0.510944,0.456282684,-0.233893482,0.502539,0.434574764,-0.20365367,0.487765,0.427607372,-0.182768816,0.482059,0.500225811,-0.202027578,0.505208,0.501953013,-0.162780943,0.496095,0.503162229,-0.14342027,0.491539,0.504152332,-0.127577799,0.487397,0.523005991,-0.212400037,0.504692,0.536176588,-0.174314177,0.496637,0.54278405,-0.152943651,0.491938,0.548881309,-0.137025151,0.488581,0.539110209,-0.224903787,0.504594,0.556785316,-0.192268326,0.498057,0.565841161,-0.175506822,0.494712,0.575439716,-0.161376318,0.491672,0.554133222,-0.246828438,0.50506,0.5711998,-0.2222316,0.498696,0.579818749,-0.210636064,0.495772,0.587028935,-0.201173921,0.493192
0.487973443,-0.287711741,0.510799,0.505742995,-0.245765973,0.507307,0.476847455,-0.269410439,0.510358,0.455568995,-0.233949254,0.502038,0.433560664,-0.203792626,0.487033,0.426705391,-0.182999086,0.481584,0.500196735,-0.201643189,0.504642,0.501373245,-0.162192587,0.495541,0.502396266,-0.142891609,0.490991,0.503334899,-0.127148512,0.486854,0.522458293,-0.212414688,0.504233,0.535107401,-0.174299233,0.495947,0.54202818,-0.153006637,0.491114,0.548057232,-0.137177046,0.487662,0.53854864,-0.22504766,0.504219,0.556191959,-0.192357155,0.497825,0.56545387,-0.175649941,0.494553,0.57514347,-0.161227611,0.491579,0.553721602,-0.24701241,0.504779,0.570789008,-0.222182839,0.498419,0.579362064,-0.210543466,0.495496,0.586672132,-0.200909555,0.492918
0.487314663,-0.286102169,0.509679,0.503277335,-0.247360029,0.505123,0.475062681,-0.26748982,0.508345,0.452387216,-0.240940962,0.499305,0.427382968,-0.209855417,0.482457,0.422055424,-0.18527944,0.478437,0.496781611,-0.205360264,0.50068,0.496197859,-0.163704472,0.490383,0.496490959,-0.146063277,0.485235,0.496834152,-0.12619263,0.480554,0.518921383,-0.213448606,0.501121,0.530058449,-0.177317329,0.491055,0.536358085,-0.152847691,0.485182,0.541656235,-0.136993032,0.480988,0.535719873,-0.22864988,0.501908,0.552568612,-0.194494929,0.495904,0.562478686,-0.178360232,0.492832,0.571642225,-0.161999525,0.49004,0.55214811,-0.24922045,0.50358,0.568051832,-0.222290603,0.496338,0.575884623,-0.210245302,0.493011,0.581233268,-0.202983039,0.490075
0.486589246,-0.285617452,0.509769,0.502097005,-0.247703425,0.504267,0.474088378,-0.266976619,0.508317,0.451086294,-0.240334988,0.498975,0.426419883,-0.20931561,0.481377,0.420807597,-0.185769041,0.47678,0.494849086,-0.20509681,0.499108,0.49456807,-0.165657855,0.488148,0.494782499,-0.146209518,0.482668,0.494765686,-0.129389006,0.477686,0.51651313,-0.216907033,0.499441,0.52816075,-0.1778126,0.488896,0.535260506,-0.155675169,0.482745,0.539257367,-0.137458003,0.478351,0.533623326,-0.231304115,0.500227,0.548173373,-0.196844615,0.491665,0.556242696,-0.179081215,0.487285,0.564211243,-0.163359475,0.483302,0.549917358,-0.252901438,0.502057,0.565152922,-0.225778345,0.494026,0.572147253,-0.216292921,0.490335,0.577763075,-0.204922238,0.487079
0.484815332,-0.285581289,0.508969,0.501197814,-0.247920388,0.503599,0.472345931,-0.267102504,0.507704,0.450367727,-0.239981133,0.498549,0.425848161,-0.209012627,0.480734,0.420003402,-0.186038008,0.475723,0.494380268,-0.205080402,0.49876,0.494639294,-0.165970725,0.487999,0.495038546,-0.146501216,0.482619,0.495097233,-0.130028335,0.477728,0.515793109,-0.216913868,0.498898,0.527819661,-0.17807338,0.488447,0.53496953,-0.156034225,0.482351,0.539200915,-0.138088351,0.477996,0.532569365,-0.23100281,0.499514,0.54729242,-0.196709507,0.490725,0.555428874,-0.179289166,0.486228,0.563286095,-0.163561323,0.482139,0.548606791,-0.252911101,0.501127,0.564290561,-0.226238426,0.493312,0.571429641,-0.216021637,0.48972,0.57731468,-0.204969011,0.486552
0.484763811,-0.286154851,0.510225,0.502068902,-0.248649473,0.504414,0.472067654,-0.267574712,0.508781,0.451509906,-0.241135147,0.499679,0.425170143,-0.209880605,0.480184,0.416597489,-0.188812151,0.472144,0.494964235,-0.205167627,0.499081,0.494957742,-0.166576317,0.487935,0.49574841,-0.147912641,0.482363,0.495207271,-0.130543752,0.477296,0.517347914,-0.217185032,0.499326,0.526852809,-0.177771165,0.487053,0.532968465,-0.155380642,0.479893,0.537154986,-0.139844438,0.474779,0.533228045,-0.231117001,0.500072,0.547368608,-0.196531555,0.490248,0.55523048,-0.179210803,0.485222,0.562642849,-0.16348117,0.480652,0.549146293,-0.254066947,0.50191,0.565367299,-0.226782453,0.493524,0.572933858,-0.216197871,0.489671,0.578401151,-0.205771742,0.486271
0.482307303,-0.286573418,0.50632,0.499037922,-0.250797714,0.501047,0.469268997,-0.269477489,0.50533,0.449710508,-0.243600167,0.49656,0.42253813,-0.212885457,0.476969,0.415888989,-0.189459776,0.471186,0.492645091,-0.205971979,0.496605,0.493847276,-0.167417042,0.486027,0.494482729,-0.148092659,0.480738,0.494312917,-0.130710884,0.47593,0.513792929,-0.217694905,0.496413,0.526072814,-0.178892372,0.485727,0.532758782,-0.157491703,0.479493,0.53823582,-0.141821573,0.47504,0.529860259,-0.230569951,0.496749,0.545153932,-0.196635656,0.487241,0.553239064,-0.17980719,0.482377,0.560867022,-0.164202997,0.477955,0.545955891,-0.252946404,0.498018,0.562872558,-0.227469218,0.490303,0.570700507,-0.215955814,0.486758,0.57760997,-0.206363272,0.48363
