sluyters/QuantumLeap/backend/src/datasets/dynamic/HandGestureDataset_SHREC2017_csv/Gesture7/finger_2/subject_25_essai_1_skeletons_world.csv
Wrist_x,Wrist_y,Wrist_z,Palm_x,Palm_y,Palm_z,thumb_base_x,thumb_base_y,thumb_base_z,thumb_first_joint_x,thumb_first_joint_y,thumb_first_joint_z,thumb_second_joint_x,thumb_second_joint_y,thumb_second_joint_z,thumb_tip_x,thumb_tip_y,thumb_tip_z,index_base_x,index_base_y,index_base_z,index_first_joint_x,index_first_joint_y,index_first_joint_z,index_second_joint_x,index_second_joint_y,index_second_joint_z,index_tip_x,index_tip_y,index_tip_z,middle_base_x,middle_base_y,middle_base_z,middle_first_joint_x,middle_first_joint_y,middle_first_joint_z,middle_second_joint_x,middle_second_joint_y,middle_second_joint_z,middle_tip_x,middle_tip_y,middle_tip_z,ring_base_x,ring_base_y,ring_base_z,ring_first_joint_x,ring_first_joint_y,ring_first_joint_z,ring_second_joint_x,ring_second_joint_y,ring_second_joint_z,ring_tip_x,ring_tip_y,ring_tip_z,pinky_base_x,pinky_base_y,pinky_base_z,pinky_first_joint_x,pinky_first_joint_y,pinky_first_joint_z,pinky_second_joint_x,pinky_second_joint_y,pinky_second_joint_z,pinky_tip_x,pinky_tip_y,pinky_tip_z,
0.328886695,-0.326034387,0.515299,0.306829778,-0.272670367,0.505281,0.305242724,-0.315535798,0.517488,0.26385847,-0.299556485,0.5158,0.230638549,-0.287475905,0.510374,0.213148577,-0.27453582,0.508779,0.271422393,-0.228969954,0.500682,0.252823054,-0.185714869,0.48606,0.24020078,-0.169601865,0.478748,0.2284963,-0.154606282,0.472102,0.292219161,-0.22430631,0.494709,0.277691312,-0.177368671,0.48228,0.266965734,-0.151765695,0.47503,0.25922507,-0.133200135,0.469851,0.31043096,-0.224475767,0.49067,0.296891963,-0.178745315,0.478421,0.288730284,-0.156489897,0.472154,0.281256048,-0.136005313,0.466456,0.334023154,-0.231972743,0.487507,0.333014071,-0.195720295,0.473146,0.33260393,-0.178886349,0.466548,0.332271874,-0.163932877,0.460726
0.324574847,-0.328453176,0.520331,0.304813479,-0.285527605,0.509304,0.304514451,-0.319981127,0.522262,0.261322447,-0.307103966,0.518699,0.229363309,-0.289768205,0.511112,0.212489263,-0.275643361,0.509065,0.271246945,-0.239820912,0.503644,0.250928335,-0.198226409,0.488156,0.240749071,-0.177371057,0.480413,0.233941436,-0.157359327,0.473373,0.29182036,-0.236446977,0.497669,0.275377556,-0.189929661,0.48448,0.265799644,-0.162858902,0.476786,0.256733042,-0.146002827,0.471291,0.309759129,-0.237730044,0.493717,0.293774579,-0.19275714,0.481155,0.285326899,-0.169899907,0.474728,0.277627515,-0.14903318,0.468885,0.332857943,-0.246664775,0.49082,0.330772702,-0.209073897,0.475601,0.32869442,-0.193432817,0.468608,0.326899698,-0.179456565,0.462438
0.322781756,-0.329483539,0.520445,0.304848192,-0.285560121,0.509362,0.30276734,-0.320763453,0.522292,0.261377865,-0.307169093,0.518809,0.228692215,-0.29022174,0.51081,0.212216823,-0.275944081,0.509034,0.271200628,-0.239779961,0.503558,0.250908802,-0.198210978,0.488118,0.240741053,-0.17736515,0.480397,0.233329834,-0.157615164,0.473379,0.291821533,-0.236447928,0.497671,0.275352546,-0.189912412,0.484436,0.265760062,-0.16283465,0.476715,0.256684015,-0.145974945,0.471201,0.309809321,-0.237768565,0.493797,0.29376542,-0.192751131,0.48114,0.285288433,-0.169877002,0.474664,0.277563568,-0.148998852,0.468777,0.332980692,-0.246755738,0.491001,0.330897194,-0.209152585,0.47578,0.328819976,-0.193506705,0.468787,0.327025527,-0.179525641,0.462616
0.325326521,-0.330349195,0.518424,0.308923211,-0.285448922,0.508124,0.306420475,-0.324129303,0.520912,0.269916619,-0.310196939,0.514602,0.235653397,-0.291643586,0.504281,0.222554061,-0.27582755,0.505041,0.273353739,-0.247136779,0.503697,0.253165314,-0.204971051,0.488167,0.243078895,-0.183911111,0.480402,0.232307831,-0.160524715,0.473389,0.292160777,-0.237638593,0.497259,0.274972286,-0.190985299,0.483196,0.265286248,-0.167057346,0.474993,0.256335667,-0.146119063,0.469133,0.309859537,-0.237848311,0.492863,0.294272531,-0.192718801,0.480298,0.285788181,-0.170039052,0.47387,0.277676763,-0.149898913,0.468025,0.332827588,-0.245437205,0.489325,0.331060376,-0.208389656,0.474461,0.329496021,-0.192432571,0.467632,0.32774079,-0.17884623,0.461606
0.338362561,-0.329923496,0.518529,0.319913004,-0.282864268,0.506625,0.312673002,-0.32386821,0.519296,0.275418991,-0.302725292,0.508971,0.239370477,-0.2829035,0.495575,0.220976664,-0.266618352,0.490483,0.277923178,-0.239625652,0.498866,0.257809642,-0.195724607,0.481744,0.246789571,-0.177628037,0.473183,0.236372008,-0.160818346,0.4654,0.299365037,-0.232975488,0.494067,0.279989316,-0.184745667,0.47508,0.266956648,-0.16105646,0.464005,0.257634649,-0.14356353,0.456094,0.317999495,-0.232444721,0.49116,0.297817422,-0.187058279,0.472311,0.286752906,-0.165039902,0.462668,0.276221598,-0.150090622,0.453901,0.342810484,-0.239263465,0.489637,0.341330582,-0.203217559,0.474617,0.340375387,-0.186799351,0.467715,0.339569969,-0.172189924,0.461626
0.339674191,-0.330660965,0.516405,0.325642311,-0.28549322,0.505762,0.316425962,-0.323263729,0.517515,0.279692317,-0.303925356,0.510601,0.243439025,-0.285429612,0.497854,0.224348009,-0.268710816,0.491343,0.290009888,-0.242725296,0.499359,0.268462676,-0.200658961,0.48463,0.260327277,-0.179054036,0.477266,0.246512687,-0.161717875,0.470571,0.312019794,-0.236235447,0.494538,0.295165594,-0.190401347,0.481145,0.284796451,-0.163910404,0.473333,0.277183598,-0.14501403,0.467752,0.330289919,-0.236934552,0.491503,0.31764023,-0.191936894,0.480958,0.309291923,-0.170549237,0.475562,0.30160005,-0.150830383,0.470657,0.354070802,-0.245230177,0.489628,0.352768824,-0.207676873,0.475247,0.35153741,-0.194921136,0.468639,0.349769786,-0.182629355,0.462809
0.3484237,-0.33517274,0.514217,0.340906783,-0.295101645,0.504867,0.332775777,-0.327719689,0.515417,0.296997522,-0.310309523,0.506921,0.265617124,-0.290661202,0.499275,0.249517861,-0.273855978,0.495696,0.304427254,-0.251316253,0.499525,0.291601718,-0.211858476,0.494771,0.2853787,-0.192301001,0.492697,0.279724081,-0.174532431,0.490811,0.326203113,-0.24643594,0.495007,0.31259056,-0.200220545,0.483698,0.304647564,-0.173246335,0.477101,0.298972949,-0.153971887,0.472389,0.34526225,-0.246442691,0.492108,0.333404565,-0.201058693,0.480231,0.327335349,-0.177813971,0.474154,0.321566728,-0.156972761,0.46863,0.369963339,-0.25379957,0.490186,0.372315084,-0.21589178,0.477173,0.372440937,-0.200925907,0.471194,0.3719573,-0.189247924,0.465919
0.374402808,-0.33988537,0.506411,0.360175623,-0.295183597,0.500262,0.352523341,-0.332985346,0.507233,0.317942105,-0.313048978,0.503288,0.289920828,-0.297412869,0.502065,0.279774052,-0.285594138,0.506693,0.322657033,-0.254175411,0.496789,0.306559033,-0.212689266,0.484518,0.298488719,-0.191854996,0.478382,0.290988951,-0.173165859,0.472805,0.345276387,-0.248478481,0.493778,0.328862008,-0.201708576,0.480139,0.319301924,-0.174512685,0.472183,0.312008739,-0.156937388,0.4665,0.365093545,-0.247655543,0.491839,0.353494728,-0.202243484,0.48075,0.347410716,-0.179487816,0.475077,0.341866346,-0.158663322,0.469919,0.390766205,-0.253757635,0.490536,0.396355737,-0.216634955,0.481154,0.397896687,-0.203716117,0.476843,0.399397466,-0.192014722,0.47304
0.400092535,-0.332916444,0.503735,0.38698029,-0.289006121,0.49888,0.379548269,-0.327248495,0.506265,0.342767149,-0.30853416,0.500874,0.310774804,-0.291979302,0.495042,0.296213637,-0.278743955,0.496084,0.351687654,-0.24951115,0.498493,0.340170286,-0.209464975,0.493488,0.335332535,-0.190111778,0.492285,0.330936718,-0.172529152,0.491191,0.37321289,-0.242968049,0.493759,0.358174361,-0.196259819,0.481142,0.349414382,-0.169111063,0.473781,0.343265064,-0.151077937,0.468524,0.391803521,-0.241420633,0.490289,0.378549308,-0.196548314,0.477715,0.371826763,-0.173500647,0.471369,0.365707805,-0.152465182,0.465599,0.415543899,-0.246500519,0.486971,0.421628729,-0.211463565,0.47735,0.423966999,-0.199123507,0.47293,0.426215997,-0.187926108,0.46903
0.407871394,-0.337536896,0.51061,0.40333101,-0.291804212,0.503541,0.384241572,-0.326965834,0.507973,0.349281562,-0.304650817,0.49866,0.319376097,-0.288936191,0.495531,0.309045265,-0.27803482,0.501162,0.370265054,-0.24341033,0.49506,0.359456847,-0.205073192,0.492275,0.354680124,-0.18604847,0.490883,0.350276872,-0.168456799,0.489617,0.396141693,-0.24382196,0.496086,0.381241402,-0.196868855,0.481798,0.372946944,-0.170001507,0.473463,0.36796464,-0.152587898,0.46751,0.417967622,-0.248128853,0.49755,0.418897157,-0.208734379,0.501011,0.419368564,-0.18848821,0.502782,0.419794549,-0.1700296,0.504392,0.444793467,-0.260471199,0.500414,0.447864167,-0.223744337,0.4906,0.449313748,-0.206766361,0.486091,0.451457388,-0.197047495,0.482113
0.442788824,-0.334547259,0.523878,0.431067228,-0.286064635,0.508347,0.418074404,-0.321312025,0.517407,0.378358452,-0.301148036,0.501652,0.339716228,-0.279694436,0.485027,0.323644267,-0.264517499,0.483242,0.391695745,-0.234218437,0.488867,0.371317377,-0.191055407,0.472674,0.362617055,-0.17132368,0.464578,0.354678503,-0.153185715,0.457217,0.418691652,-0.235317886,0.491968,0.40749407,-0.189975363,0.484018,0.401953182,-0.163758597,0.47938,0.397984123,-0.144865692,0.476067,0.441855404,-0.240417959,0.495882,0.427892403,-0.195438401,0.485837,0.422639018,-0.173352898,0.480697,0.419467124,-0.154650214,0.476025,0.47104382,-0.254107316,0.502996,0.471804543,-0.218771894,0.487193,0.472377793,-0.202654469,0.479932,0.474029796,-0.193035069,0.473525
0.470304223,-0.339916961,0.522112,0.456304055,-0.292561425,0.509434,0.445368205,-0.328924643,0.516318,0.404811309,-0.304121111,0.502352,0.372485981,-0.284750984,0.493793,0.35902727,-0.270583711,0.494877,0.414909247,-0.244054,0.49288,0.405512491,-0.202752557,0.486076,0.400832573,-0.18230087,0.482673,0.399102356,-0.164606291,0.47958,0.441536402,-0.242804903,0.496046,0.426056637,-0.194607321,0.479423,0.418756089,-0.167749256,0.469727,0.414544387,-0.149340634,0.4628,0.464539154,-0.245894393,0.499761,0.451740074,-0.198391299,0.481808,0.447324092,-0.175973907,0.472624,0.446006293,-0.159569502,0.464274,0.49382062,-0.257034125,0.506181,0.502451404,-0.222233849,0.495819,0.508052203,-0.208249011,0.491057,0.513470617,-0.196440223,0.486856
0.496200808,-0.339930504,0.523302,0.484052078,-0.292307994,0.512497,0.471530883,-0.327796052,0.518454,0.431758696,-0.302697821,0.503324,0.39855952,-0.282580377,0.494076,0.385296956,-0.2687628,0.4956,0.44458146,-0.242743324,0.498498,0.432647223,-0.200411448,0.483373,0.426683207,-0.179165327,0.47581,0.421264022,-0.159801394,0.468935,0.471238048,-0.242591837,0.501074,0.456454922,-0.195055621,0.483385,0.449632118,-0.169114191,0.473066,0.444789062,-0.150356062,0.465695,0.494197641,-0.246545178,0.504137,0.481714734,-0.201465513,0.486924,0.475347681,-0.178235358,0.478117,0.469571484,-0.157011112,0.47011,0.523285135,-0.258699104,0.509486,0.533329384,-0.224049096,0.500536,0.539996402,-0.210791231,0.496424,0.546088893,-0.198876718,0.492796
0.504740573,-0.34171669,0.523915,0.503969227,-0.296582434,0.514689,0.488511969,-0.330267231,0.517862,0.449819506,-0.300267639,0.500529,0.420557733,-0.279046414,0.494106,0.409722199,-0.265398698,0.497343,0.467437669,-0.246353577,0.500341,0.451546704,-0.201689988,0.4856,0.449744219,-0.184223404,0.478229,0.448227612,-0.167999639,0.471529,0.494777374,-0.247627356,0.504936,0.486762758,-0.200182731,0.489291,0.482081431,-0.172541418,0.480165,0.47874816,-0.152819259,0.473647,0.51791984,-0.252704201,0.509524,0.503598561,-0.204901962,0.494044,0.50426756,-0.187178913,0.486124,0.505143995,-0.170623983,0.478924,0.546538879,-0.266044841,0.51642,0.559719164,-0.232729961,0.509882,0.568305409,-0.219512096,0.506878,0.576076868,-0.207653881,0.504227
0.519690775,-0.3394131,0.52074,0.524258453,-0.291619464,0.514091,0.505663337,-0.323026156,0.514338,0.470321058,-0.291387242,0.497453,0.44381093,-0.274395526,0.497504,0.438420428,-0.26679615,0.507365,0.489947771,-0.239815303,0.501197,0.473998498,-0.196295107,0.488218,0.474822517,-0.181506533,0.481729,0.475812665,-0.167648448,0.475829,0.518237234,-0.243426633,0.507063,0.514717369,-0.196696245,0.494368,0.514554992,-0.170295634,0.486962,0.514477747,-0.151321126,0.481673,0.541974661,-0.250347207,0.51247,0.533458837,-0.204289891,0.499105,0.533297151,-0.183226906,0.492267,0.533900387,-0.164267326,0.486051,0.570939246,-0.265772514,0.519922,0.585798399,-0.233138021,0.515679,0.594605646,-0.219087785,0.513729,0.602505206,-0.206538116,0.512009
0.558293114,-0.338586768,0.527,0.547285836,-0.293112027,0.520102,0.533906948,-0.327353865,0.521655,0.493421692,-0.302623876,0.508845,0.460873618,-0.281591992,0.49741,0.443895755,-0.263551028,0.491071,0.508778416,-0.245655684,0.508344,0.489753081,-0.202880294,0.49608,0.492151057,-0.191277013,0.489948,0.494674291,-0.180359923,0.484374,0.535668833,-0.245294579,0.512806,0.526189739,-0.197947401,0.499565,0.520182959,-0.171218172,0.491842,0.518055406,-0.151809354,0.486325,0.558629755,-0.24893541,0.51708,0.552414742,-0.20345182,0.506174,0.549225175,-0.180250338,0.500594,0.551818507,-0.162076487,0.495522,0.587388761,-0.260404198,0.523233,0.606298723,-0.229501972,0.520438,0.615115891,-0.215131654,0.519154,0.622964631,-0.202359562,0.518021
0.566119726,-0.339994205,0.531093,0.563800365,-0.292508263,0.524415,0.540479117,-0.325957265,0.523978,0.506000276,-0.296668946,0.507875,0.471368895,-0.275178745,0.496823,0.45852212,-0.262116208,0.499211,0.528650625,-0.239881216,0.510604,0.51936127,-0.19897548,0.49671,0.514753421,-0.178273832,0.489763,0.510586911,-0.159299134,0.483447,0.557640482,-0.244414596,0.517351,0.550707679,-0.198125808,0.503199,0.546693036,-0.170985595,0.494944,0.543838784,-0.151532911,0.489047,0.582028649,-0.252084281,0.523488,0.569540942,-0.206817415,0.508537,0.565757921,-0.184843027,0.500889,0.562389511,-0.164581117,0.493935,0.611866368,-0.268407386,0.531805,0.62395396,-0.234358256,0.52608,0.631065251,-0.219405208,0.523449,0.63968448,-0.208732673,0.521128
0.58033575,-0.339597994,0.535215,0.580617669,-0.291259028,0.527544,0.553964839,-0.323124096,0.52662,0.52081606,-0.294353481,0.508369,0.485900709,-0.271437735,0.493987,0.472061523,-0.256662535,0.49407,0.543777158,-0.237615297,0.511151,0.534299985,-0.195422509,0.496564,0.531951068,-0.175698508,0.48927,0.530348793,-0.157884872,0.482639,0.574253076,-0.24270179,0.519431,0.564232342,-0.195664128,0.503904,0.559602962,-0.168657944,0.494847,0.561047592,-0.153074308,0.488378,0.599949998,-0.250881564,0.526915,0.589182626,-0.204605311,0.514804,0.590031895,-0.1835212,0.508609,0.592255796,-0.165043928,0.502976,0.631425753,-0.267929801,0.536983,0.641019303,-0.234129185,0.532752,0.651864218,-0.222117787,0.530808,0.661735299,-0.211262873,0.529092
0.598274627,-0.336798932,0.540988,0.599378334,-0.285853447,0.533314,0.571096121,-0.319441294,0.5309,0.534515297,-0.290022789,0.511479,0.499462677,-0.2688696,0.493586,0.480482769,-0.251188507,0.485357,0.56331354,-0.230868701,0.515049,0.555665102,-0.189069664,0.500009,0.554058288,-0.169314878,0.492488,0.553339421,-0.151592249,0.485652,0.594892417,-0.237363592,0.525198,0.574278009,-0.189365238,0.509623,0.581337803,-0.177710947,0.500537,0.583564662,-0.186854729,0.494048,0.621357996,-0.246709749,0.53422,0.596423569,-0.20039839,0.519547,0.594967668,-0.18050417,0.51204,0.597626022,-0.16834837,0.505215,0.653456121,-0.265151473,0.546106,0.672692635,-0.236168648,0.545771,0.683726969,-0.223324257,0.545617,0.693503654,-0.211944634,0.545481
0.615725099,-0.338498603,0.547114,0.615151493,-0.295956115,0.540474,0.589713055,-0.322508217,0.537678,0.57647555,-0.294142365,0.516437,0.538638389,-0.268087541,0.50165,0.530005958,-0.25689562,0.507815,0.578237838,-0.244367917,0.523785,0.567890306,-0.201423527,0.510337,0.565130604,-0.180837826,0.503613,0.563103447,-0.162174392,0.4975,0.609042109,-0.248297787,0.533452,0.594411495,-0.201433032,0.521316,0.600179889,-0.17964721,0.514237,0.608248733,-0.171136645,0.50918,0.634940967,-0.255470137,0.541987,0.618530474,-0.209211971,0.529885,0.61896635,-0.188015251,0.523694,0.623356026,-0.171591805,0.518066,0.666502573,-0.271185697,0.553132,0.685534211,-0.24140428,0.553261,0.696804214,-0.228325004,0.55332,0.705188907,-0.215857989,0.553372
0.630472261,-0.345099772,0.552976,0.628322658,-0.300118466,0.545855,0.604779796,-0.330152244,0.543979,0.592416909,-0.301325486,0.523067,0.551199027,-0.272296015,0.503795,0.539579975,-0.258654586,0.506385,0.592569775,-0.247806162,0.529363,0.569107986,-0.204180776,0.514686,0.571176677,-0.19063691,0.507348,0.573385552,-0.177981325,0.500677,0.623012896,-0.252079108,0.538324,0.598597814,-0.203085845,0.523298,0.601674867,-0.181262983,0.514532,0.609365224,-0.179093919,0.508271,0.648534082,-0.259563097,0.546321,0.633047661,-0.213118633,0.534249,0.632288082,-0.19117367,0.528072,0.636040929,-0.174077157,0.522458,0.679514271,-0.27569256,0.556906,0.69120721,-0.243303123,0.554973,0.699267323,-0.228993418,0.554085,0.714219341,-0.224037835,0.553302
0.628039579,-0.343816963,0.550315,0.623351768,-0.298643672,0.543634,0.60311546,-0.328863843,0.541397,0.571637999,-0.299333117,0.520779,0.542249367,-0.271801587,0.5045,0.531141369,-0.257378629,0.506099,0.591831977,-0.246946484,0.527563,0.573018721,-0.204454396,0.516444,0.577203845,-0.191979146,0.510884,0.582208251,-0.180006731,0.505829,0.621278179,-0.251389737,0.536568,0.611056961,-0.203884828,0.522944,0.60414638,-0.178304509,0.514997,0.611289638,-0.160969779,0.509321,0.64583903,-0.258982803,0.544562,0.635317328,-0.213998132,0.535798,0.63813284,-0.193198407,0.531315,0.645817185,-0.178164842,0.527239,0.675475308,-0.275155729,0.555074,0.689753843,-0.243697944,0.555512,0.70257075,-0.231611245,0.555713,0.714181526,-0.221911503,0.555891
0.631084522,-0.345178467,0.552701,0.627828198,-0.299940111,0.545463,0.606149796,-0.33006053,0.543554,0.574733818,-0.301410674,0.523105,0.539951889,-0.274254624,0.502245,0.525637111,-0.256192926,0.500482,0.593721835,-0.247406943,0.528696,0.581878966,-0.20456093,0.517835,0.587629663,-0.188734263,0.512405,0.593184246,-0.17396823,0.507468,0.623044135,-0.25188461,0.537807,0.612192916,-0.204129046,0.523612,0.607936066,-0.176868243,0.515332,0.611693302,-0.161226213,0.509417,0.647528232,-0.259529361,0.545937,0.631471108,-0.212533677,0.532176,0.631663112,-0.191226833,0.525135,0.639730494,-0.177924943,0.518734,0.677133155,-0.275803758,0.5567,0.691597831,-0.244215577,0.555696,0.703735539,-0.231817781,0.555234,0.716551914,-0.223253512,0.554827
0.63197155,-0.345480864,0.553309,0.628322237,-0.30006385,0.545857,0.607214061,-0.330365931,0.544169,0.575641667,-0.302038514,0.523767,0.540146834,-0.274910391,0.502559,0.525000045,-0.256624418,0.499689,0.594307342,-0.247487117,0.528942,0.581996952,-0.204602408,0.51794,0.587669801,-0.188747155,0.51244,0.593150348,-0.173958288,0.507439,0.623404227,-0.251920543,0.537975,0.612290068,-0.20411664,0.523594,0.607885912,-0.176846345,0.515205,0.611545515,-0.161237199,0.509214,0.647701992,-0.25953379,0.546059,0.631619258,-0.212499207,0.532112,0.631948367,-0.191306804,0.524976,0.639560768,-0.177892116,0.518489,0.677097345,-0.275775566,0.556802,0.691749221,-0.244002437,0.555452,0.704115834,-0.231854103,0.554832,0.716686725,-0.22285953,0.554284
0.632748711,-0.345783971,0.553877,0.628616219,-0.30016939,0.546153,0.607867562,-0.330570429,0.544542,0.575396,-0.302434497,0.524048,0.539630527,-0.275713758,0.503192,0.522815068,-0.257640298,0.49792,0.594180842,-0.24742942,0.528794,0.582396757,-0.204216747,0.516982,0.588172306,-0.189022556,0.511075,0.593773551,-0.174848396,0.505706,0.623366567,-0.251895623,0.537983,0.611693066,-0.203980979,0.523262,0.605729855,-0.177297322,0.514675,0.610440511,-0.161046654,0.508541,0.647770109,-0.259546133,0.54622,0.632121512,-0.212659441,0.532596,0.632282158,-0.191314247,0.525625,0.637560089,-0.176121113,0.519288,0.677347472,-0.275853023,0.557187,0.691953387,-0.243884282,0.555537,0.704391035,-0.231846658,0.55478,0.715244733,-0.221624364,0.554111
0.635647621,-0.345997916,0.555627,0.631498535,-0.300280759,0.54841,0.612398469,-0.331842978,0.548153,0.577027203,-0.304058533,0.540132,0.541304484,-0.279755699,0.520702,0.528644623,-0.259901282,0.503852,0.595016388,-0.243347731,0.533749,0.585914787,-0.200469241,0.522209,0.591727149,-0.188843737,0.516439,0.596818738,-0.174372534,0.511194,0.624306087,-0.246364027,0.540769,0.62058786,-0.200159184,0.527808,0.618452597,-0.173088352,0.520248,0.616941892,-0.153695338,0.514847,0.649137134,-0.252807172,0.547177,0.642012514,-0.206879221,0.53455,0.642996493,-0.185303291,0.52809,0.644031416,-0.165381475,0.522217,0.679831254,-0.267707211,0.555901,0.693018322,-0.236857181,0.554581,0.705709332,-0.22476779,0.553974,0.716205394,-0.222506924,0.553439
