sluyters/QuantumLeap/backend/src/datasets/dynamic/HandGestureDataset_SHREC2017_csv/Gesture7/finger_2/subject_6_essai_2_skeletons_world.csv
Wrist_x,Wrist_y,Wrist_z,Palm_x,Palm_y,Palm_z,thumb_base_x,thumb_base_y,thumb_base_z,thumb_first_joint_x,thumb_first_joint_y,thumb_first_joint_z,thumb_second_joint_x,thumb_second_joint_y,thumb_second_joint_z,thumb_tip_x,thumb_tip_y,thumb_tip_z,index_base_x,index_base_y,index_base_z,index_first_joint_x,index_first_joint_y,index_first_joint_z,index_second_joint_x,index_second_joint_y,index_second_joint_z,index_tip_x,index_tip_y,index_tip_z,middle_base_x,middle_base_y,middle_base_z,middle_first_joint_x,middle_first_joint_y,middle_first_joint_z,middle_second_joint_x,middle_second_joint_y,middle_second_joint_z,middle_tip_x,middle_tip_y,middle_tip_z,ring_base_x,ring_base_y,ring_base_z,ring_first_joint_x,ring_first_joint_y,ring_first_joint_z,ring_second_joint_x,ring_second_joint_y,ring_second_joint_z,ring_tip_x,ring_tip_y,ring_tip_z,pinky_base_x,pinky_base_y,pinky_base_z,pinky_first_joint_x,pinky_first_joint_y,pinky_first_joint_z,pinky_second_joint_x,pinky_second_joint_y,pinky_second_joint_z,pinky_tip_x,pinky_tip_y,pinky_tip_z,
0.6110419,-0.4013682,0.62133,0.60572278,-0.35574374,0.615666,0.5913498,-0.38546731,0.622144,0.55558879,-0.3540968,0.613245,0.52960448,-0.32807012,0.606214,0.51827332,-0.30738304,0.60036,0.58321862,-0.29831663,0.611785,0.57011254,-0.2579025,0.602143,0.56268938,-0.24006419,0.597323,0.55592735,-0.22357836,0.59294,0.60451408,-0.30157374,0.608594,0.594625,-0.25645997,0.596892,0.58899029,-0.23066877,0.590065,0.58510886,-0.21702741,0.585189,0.62214152,-0.30684045,0.606345,0.61586839,-0.26387372,0.594904,0.61160194,-0.24370312,0.589051,0.60773068,-0.22545412,0.583729,0.64554741,-0.31882556,0.604395,0.63776669,-0.28266659,0.594238,0.63395806,-0.27686546,0.589571,0.63054864,-0.27221048,0.585454
0.61066391,-0.40272334,0.622812,0.60546338,-0.35647706,0.616061,0.59030221,-0.38559771,0.622523,0.55430794,-0.35357395,0.612307,0.52980725,-0.32847166,0.607055,0.51817776,-0.30862555,0.603702,0.58152074,-0.29759566,0.609919,0.56712932,-0.26030714,0.59911,0.55923915,-0.24211528,0.593705,0.55195697,-0.22473286,0.588792,0.60365993,-0.30135432,0.607631,0.59273347,-0.25578774,0.594769,0.58819159,-0.22959549,0.587265,0.58240888,-0.21650693,0.581906,0.62209694,-0.30712257,0.606198,0.61434203,-0.26413744,0.593687,0.60955485,-0.24346988,0.587286,0.60521369,-0.22471618,0.581468,0.64623337,-0.32015928,0.605371,0.63764376,-0.28307978,0.594275,0.63332538,-0.27750768,0.589177,0.62955568,-0.27275102,0.584678
0.60964653,-0.40346277,0.6225,0.60332311,-0.35736992,0.613672,0.59212878,-0.38761503,0.624857,0.55940758,-0.35768884,0.617876,0.53127278,-0.32998425,0.60921,0.51948782,-0.30908861,0.603481,0.58066662,-0.29925952,0.608936,0.5674553,-0.26076075,0.598103,0.5611808,-0.24123235,0.592687,0.55241072,-0.22464245,0.587762,0.59879466,-0.30059198,0.602651,0.58947463,-0.25482456,0.588764,0.58259892,-0.23097025,0.580664,0.57702873,-0.21977407,0.574877,0.61595663,-0.30525224,0.598068,0.60534626,-0.26447649,0.584434,0.599982,-0.24321597,0.577459,0.59480959,-0.22181836,0.571117,0.63458741,-0.31682219,0.593732,0.63034902,-0.28472115,0.5815,0.62687604,-0.27181267,0.575881,0.62365924,-0.26100157,0.570922
0.60477582,-0.40384051,0.620362,0.60119459,-0.35837288,0.611979,0.58899861,-0.38802665,0.623801,0.55970384,-0.35806905,0.619084,0.53763083,-0.33146729,0.614077,0.52627319,-0.31089583,0.609126,0.5805586,-0.30045173,0.608924,0.57120383,-0.26186934,0.598231,0.5649878,-0.24248515,0.592884,0.55927113,-0.22513103,0.588023,0.59949323,-0.30246706,0.601511,0.59062852,-0.25833684,0.588304,0.58444151,-0.23442825,0.5806,0.5784686,-0.2172879,0.576225,0.61425738,-0.30825208,0.595971,0.60514732,-0.26748797,0.582392,0.60050934,-0.24648473,0.575445,0.59632699,-0.22715196,0.569129,0.63136307,-0.31955182,0.590426,0.62686137,-0.28508596,0.57848,0.62405725,-0.27195635,0.572992,0.62106084,-0.26213278,0.568149
0.6020871,-0.40443528,0.619677,0.60016497,-0.35853904,0.611593,0.58876459,-0.38929909,0.625093,0.56181733,-0.35949496,0.622561,0.53832653,-0.33212643,0.618499,0.52611064,-0.31101895,0.610643,0.58327974,-0.30116342,0.611177,0.58227696,-0.26337558,0.603938,0.57644787,-0.25459955,0.600318,0.5710587,-0.24634465,0.597027,0.59924979,-0.3028468,0.601501,0.59082401,-0.25774026,0.589192,0.58573975,-0.23598054,0.582011,0.58031031,-0.2210566,0.576882,0.61157075,-0.30763633,0.594078,0.60362675,-0.26692841,0.580801,0.59952611,-0.24602386,0.574007,0.59498104,-0.22527553,0.567831,0.62465824,-0.31948842,0.586231,0.62031229,-0.28910026,0.574325,0.61865754,-0.27506773,0.568855,0.61679085,-0.26098589,0.564029
0.6050918,-0.40808397,0.624109,0.59823793,-0.36327107,0.612843,0.59024536,-0.39136381,0.627674,0.56208491,-0.36030647,0.623056,0.53589947,-0.33246476,0.616287,0.52402745,-0.31112747,0.609488,0.58124663,-0.30191902,0.607467,0.58175862,-0.26475504,0.603778,0.57722603,-0.25623411,0.601934,0.57291262,-0.24859632,0.600258,0.59656984,-0.30345156,0.598776,0.58738053,-0.26313724,0.582902,0.58082391,-0.24035082,0.573642,0.57232367,-0.22109183,0.567028,0.60859169,-0.30880383,0.592376,0.60381321,-0.26897311,0.574671,0.59655226,-0.25390678,0.565613,0.58377081,-0.25078652,0.557378,0.6240748,-0.32062903,0.58618,0.61741761,-0.28927409,0.572285,0.61398912,-0.27541551,0.565901,0.61066003,-0.26356644,0.560268
0.60232493,-0.40774393,0.623053,0.59617126,-0.36081598,0.61044,0.59136438,-0.39261506,0.62989,0.56752537,-0.36318602,0.629735,0.54919025,-0.33400911,0.6291,0.55140793,-0.31478885,0.632358,0.58922866,-0.3019387,0.607847,0.58267356,-0.2601118,0.596909,0.57016866,-0.25211549,0.59144,0.55935228,-0.2435475,0.586468,0.59343625,-0.30195189,0.594692,0.58504788,-0.26286524,0.577245,0.57607425,-0.237967,0.567068,0.57091132,-0.22079974,0.559799,0.60179437,-0.30804806,0.584709,0.59560625,-0.26748338,0.565102,0.58655356,-0.24889524,0.555071,0.57279593,-0.24211856,0.545952,0.61122906,-0.32136461,0.574386,0.60136903,-0.28973781,0.560013,0.59514703,-0.27646703,0.55341,0.58844983,-0.26582516,0.547583
0.602921,-0.40952223,0.626309,0.5934236,-0.3610031,0.609109,0.59292243,-0.39379029,0.632559,0.56785645,-0.35932289,0.631995,0.5537317,-0.32713816,0.631184,0.55156215,-0.31046014,0.630893,0.58462645,-0.29798799,0.601872,0.57723036,-0.25371112,0.586264,0.56157883,-0.24540433,0.57846,0.54561843,-0.23827912,0.571365,0.59066698,-0.30081455,0.587634,0.57430326,-0.25910013,0.564646,0.56220289,-0.23606919,0.551237,0.5524631,-0.22037498,0.541658,0.59567048,-0.30626293,0.577064,0.58290385,-0.26546214,0.552027,0.57056581,-0.24772523,0.539217,0.55108465,-0.23989442,0.527572,0.60076608,-0.32130221,0.566645,0.58691731,-0.28958157,0.548156,0.57859327,-0.27630894,0.539662,0.56986418,-0.26566902,0.532166
0.59830506,-0.41379524,0.632053,0.5909343,-0.35990325,0.609139,0.58741019,-0.3916196,0.634847,0.56285851,-0.34698673,0.629443,0.55105334,-0.3151286,0.626329,0.55035844,-0.29320119,0.623163,0.57895658,-0.29197784,0.592839,0.57017568,-0.24741852,0.570575,0.55173351,-0.23923313,0.559442,0.53477888,-0.23195204,0.549322,0.58528559,-0.29853691,0.58053,0.56841993,-0.26030212,0.552636,0.55542897,-0.23878279,0.536364,0.5449495,-0.22420531,0.524742,0.5906913,-0.30712067,0.571927,0.57711037,-0.27056885,0.542027,0.56356295,-0.25429555,0.52673,0.54187484,-0.2469746,0.512823,0.5966946,-0.32770706,0.56463,0.58108337,-0.29803119,0.541735,0.57176032,-0.28569524,0.531216,0.56200219,-0.27583862,0.521934
0.59913555,-0.41506998,0.632696,0.59069356,-0.36554633,0.608623,0.59164188,-0.3946104,0.634832,0.5656612,-0.35678167,0.628569,0.55792384,-0.323069,0.625321,0.5589493,-0.30147601,0.622426,0.58273424,-0.3009023,0.590538,0.57303735,-0.25723153,0.56855,0.55395067,-0.25063443,0.557556,0.53591991,-0.24587207,0.547561,0.58823066,-0.30968005,0.578568,0.56977735,-0.26996542,0.549721,0.55654712,-0.24828145,0.532893,0.54588283,-0.23358012,0.520874,0.59277125,-0.31996808,0.570319,0.57930357,-0.28115612,0.540396,0.56597122,-0.26488456,0.525087,0.54430428,-0.25729383,0.511169,0.5983613,-0.33858036,0.563604,0.57885195,-0.31135834,0.54149,0.56762049,-0.30030147,0.53133,0.55613822,-0.29166733,0.522365
0.60242519,-0.41519914,0.634716,0.60462738,-0.36215486,0.613797,0.59110537,-0.3926004,0.634459,0.60425496,-0.35415255,0.630098,0.61034763,-0.32761536,0.625253,0.6176106,-0.30969624,0.618201,0.61495955,-0.29956797,0.595537,0.5996274,-0.26056136,0.577986,0.58100363,-0.25769033,0.569211,0.56392871,-0.25509633,0.561233,0.62203633,-0.31243162,0.587679,0.57695951,-0.29862864,0.563778,0.54497907,-0.30783869,0.549835,0.54759409,-0.32058916,0.554886,0.62739023,-0.32599044,0.582604,0.59022047,-0.31010213,0.56228,0.56520065,-0.32015258,0.551882,0.5695689,-0.33562225,0.558359,0.63273955,-0.3482702,0.579284,0.59940328,-0.32502767,0.560724,0.57606321,-0.33060131,0.552197,0.57747508,-0.34040509,0.556195
0.58552991,-0.4042267,0.618825,0.59496256,-0.35698602,0.602084,0.57847865,-0.38295783,0.620905,0.59349227,-0.34784456,0.618875,0.60101749,-0.32260723,0.615695,0.61044545,-0.30610333,0.611029,0.60947327,-0.29689542,0.590224,0.59801936,-0.2598626,0.576436,0.58134149,-0.25784018,0.569542,0.56598051,-0.25602448,0.563275,0.61516056,-0.30897811,0.581183,0.57518279,-0.29608978,0.561133,0.54527319,-0.30626024,0.549437,0.5489489,-0.32020578,0.556043,0.61904877,-0.32165624,0.574858,0.58623375,-0.30800751,0.558482,0.56337974,-0.31912115,0.550104,0.56954544,-0.33560842,0.558336,0.62203085,-0.34237596,0.56948,0.59230951,-0.32203908,0.554091,0.5706635,-0.32750243,0.547021,0.57345078,-0.33803288,0.552319
0.58487357,-0.40323033,0.617716,0.60180627,-0.36056089,0.604027,0.58185764,-0.38255147,0.62145,0.60165808,-0.35203806,0.621536,0.60867226,-0.32594479,0.618064,0.61380166,-0.30756128,0.612681,0.62202433,-0.30404238,0.596776,0.61374549,-0.26724019,0.585756,0.59816853,-0.26538774,0.580246,0.57993512,-0.26221943,0.575237,0.62672668,-0.31559066,0.586936,0.58598826,-0.30719125,0.569747,0.56729587,-0.3221176,0.563478,0.58186279,-0.3329556,0.573454,0.62956995,-0.32772216,0.579752,0.62301926,-0.30087734,0.565713,0.61064092,-0.29111603,0.558531,0.60944496,-0.29480483,0.567745,0.63081578,-0.34754118,0.572934,0.59480543,-0.33695743,0.559901,0.5847956,-0.34824274,0.555888,0.59839457,-0.35928069,0.563553
0.59762388,-0.40928146,0.627787,0.62087341,-0.36568762,0.608769,0.60334044,-0.38361235,0.629661,0.62084835,-0.35680371,0.62995,0.62673974,-0.32955671,0.624913,0.63549427,-0.31222788,0.619461,0.63029127,-0.30298776,0.594706,0.61798742,-0.26449871,0.579747,0.6005882,-0.26173839,0.572267,0.58459978,-0.25924134,0.565468,0.63515889,-0.31456259,0.585024,0.58989447,-0.3036958,0.563264,0.59485331,-0.33170433,0.580248,0.61409985,-0.34528726,0.594693,0.63854289,-0.32691495,0.578324,0.61914438,-0.29913767,0.560018,0.60294471,-0.28925339,0.550653,0.59832515,-0.2927885,0.557541,0.64126602,-0.34745807,0.572797,0.60159631,-0.33477585,0.556276,0.60720031,-0.35517454,0.566953,0.62464746,-0.36854903,0.578091
0.60932937,-0.4077408,0.628426,0.63194265,-0.36595192,0.609209,0.61442223,-0.38388712,0.630112,0.63203917,-0.35688584,0.630095,0.63800923,-0.32952928,0.624861,0.64677902,-0.31213262,0.619272,0.64075893,-0.30300814,0.594746,0.62830223,-0.26440473,0.579541,0.61088298,-0.26158837,0.571939,0.59488236,-0.25903916,0.565027,0.64584241,-0.31466476,0.585214,0.60044183,-0.30368232,0.563239,0.60550526,-0.33169232,0.580227,0.62233646,-0.34393327,0.592361,0.64943239,-0.32709923,0.57865,0.63221687,-0.30035133,0.559876,0.61440082,-0.29129106,0.550271,0.60892322,-0.29578203,0.557029,0.6524543,-0.34777108,0.573313,0.61258926,-0.33496783,0.556595,0.61830909,-0.35537251,0.567269,0.63585815,-0.3687779,0.57845
0.6155752,-0.40239934,0.624232,0.63785462,-0.35872872,0.599646,0.61373556,-0.37222615,0.617678,0.62707502,-0.3395458,0.605296,0.63224712,-0.31368975,0.593196,0.63985996,-0.29787717,0.58323,0.64015394,-0.29245717,0.570658,0.62786573,-0.25796951,0.546367,0.60860946,-0.25729126,0.534222,0.59106269,-0.25671222,0.52318,0.65169342,-0.31167621,0.56895,0.60604668,-0.30606668,0.540438,0.60698383,-0.32903845,0.55781,0.62001749,-0.33638196,0.570219,0.6605789,-0.33011573,0.569176,0.64409566,-0.31169257,0.541686,0.62611192,-0.3059873,0.527621,0.62259598,-0.3136895,0.532269,0.66994874,-0.35756986,0.572716,0.62900928,-0.34745409,0.549438,0.63178192,-0.36530903,0.560163,0.64780006,-0.37631328,0.573079
0.63202337,-0.40614358,0.629784,0.6551015,-0.36949217,0.605484,0.62970591,-0.37438391,0.621347,0.64020897,-0.34896498,0.609482,0.64132819,-0.32149484,0.595904,0.64620228,-0.30404819,0.584837,0.6534049,-0.30080055,0.574475,0.61170013,-0.29411511,0.547947,0.61773659,-0.31659405,0.56199,0.62309453,-0.33722974,0.574756,0.66814661,-0.32092252,0.575144,0.6207462,-0.31210179,0.546557,0.62078667,-0.33800492,0.564249,0.63041863,-0.35056058,0.576887,0.679877,-0.34044282,0.577308,0.64183094,-0.32676787,0.550066,0.61420059,-0.32931734,0.536128,0.60648551,-0.34655159,0.541072,0.69286008,-0.36974827,0.583138,0.64723468,-0.34838378,0.559243,0.64371089,-0.35158195,0.570137,0.64561981,-0.35807715,0.582772
0.66262964,-0.42016554,0.648766,0.6647362,-0.3831274,0.616756,0.64818224,-0.38690035,0.633895,0.64099767,-0.36255292,0.612807,0.63118623,-0.33297942,0.591283,0.63019716,-0.31417232,0.576376,0.64842402,-0.31552779,0.571386,0.59691705,-0.31856436,0.540782,0.59796303,-0.33520181,0.550983,0.59974053,-0.34935419,0.560256,0.66713002,-0.33869364,0.576791,0.63150614,-0.32732035,0.541616,0.62261928,-0.34622005,0.554334,0.63270627,-0.35621567,0.57105,0.68255879,-0.360385,0.583361,0.65555579,-0.33413647,0.548606,0.62126894,-0.33710376,0.530824,0.60673551,-0.34848668,0.530387,0.70096445,-0.3915949,0.595512,0.64473483,-0.37849701,0.565914,0.63612273,-0.38277304,0.573448,0.64361121,-0.3880366,0.586786
0.66180773,-0.41347674,0.645083,0.67391395,-0.37400244,0.613292,0.64962367,-0.37959556,0.629439,0.64673767,-0.33945115,0.605377,0.63786875,-0.30910436,0.583679,0.63735812,-0.28829714,0.568726,0.66408186,-0.31105843,0.567178,0.61283107,-0.31433871,0.537093,0.61195774,-0.32843239,0.54718,0.61242551,-0.33985187,0.55635,0.68106053,-0.3355418,0.573599,0.65372186,-0.32237817,0.538528,0.64850989,-0.34314511,0.551074,0.65057237,-0.35881061,0.567698,0.69474099,-0.35791748,0.580989,0.66922125,-0.33724673,0.546036,0.63194634,-0.33941189,0.528152,0.61522591,-0.34870178,0.527533,0.71047729,-0.38919966,0.594098,0.65559614,-0.3772404,0.564403,0.64695737,-0.38239461,0.571816,0.65326021,-0.38858131,0.585141
0.67375974,-0.4054219,0.645809,0.68487252,-0.37414392,0.613524,0.6612268,-0.37422918,0.629438,0.65619594,-0.33877491,0.604171,0.64622634,-0.30793081,0.581463,0.64557052,-0.28715253,0.566468,0.67336165,-0.31047326,0.566111,0.62187507,-0.31366921,0.535949,0.62038148,-0.32745101,0.545545,0.62028161,-0.33858006,0.554268,0.69121098,-0.33531717,0.573215,0.6634916,-0.32191902,0.537761,0.65785297,-0.34227023,0.549669,0.65998363,-0.35788404,0.566232,0.70566909,-0.35804808,0.581201,0.67956319,-0.33703488,0.545693,0.64163135,-0.33901024,0.527527,0.62404363,-0.34790196,0.526323,0.72242862,-0.38984953,0.59509,0.66686055,-0.37764678,0.565011,0.65773943,-0.38251765,0.572,0.66401232,-0.38868361,0.585295
0.6907889,-0.40601243,0.650584,0.70372977,-0.37574139,0.616926,0.69098373,-0.37295716,0.635965,0.68556797,-0.33490391,0.610586,0.69048784,-0.3019561,0.597797,0.69892915,-0.28449435,0.589678,0.69974389,-0.31568353,0.570442,0.64167383,-0.31012228,0.538392,0.63614502,-0.32505916,0.54776,0.63367144,-0.33694608,0.556277,0.71046056,-0.3411421,0.574901,0.6751726,-0.32324473,0.538602,0.66779256,-0.33885424,0.550298,0.66967143,-0.35353275,0.567099,0.71898949,-0.36414833,0.580802,0.68231333,-0.34558442,0.545285,0.64147974,-0.34061518,0.527113,0.623638,-0.34689477,0.525798,0.72853634,-0.39584115,0.592369,0.67212116,-0.37655923,0.562143,0.66364363,-0.37993723,0.569013,0.67112647,-0.38758183,0.582315
0.68693815,-0.39854391,0.631127,0.70430678,-0.37669727,0.598237,0.70487884,-0.3804293,0.624513,0.70307144,-0.3439469,0.60769,0.70233856,-0.31097806,0.592444,0.70443097,-0.29104475,0.578995,0.71670647,-0.32199464,0.56205,0.6583001,-0.29501246,0.534737,0.65380972,-0.30952926,0.543882,0.6671437,-0.32243317,0.552195,0.71153134,-0.34057909,0.557172,0.67638812,-0.30337972,0.523162,0.66316796,-0.3070601,0.534401,0.66867086,-0.32146721,0.550231,0.70691499,-0.35812037,0.555343,0.6431614,-0.32502209,0.524733,0.60702033,-0.32454187,0.509072,0.60449143,-0.33214861,0.508839,0.70047218,-0.38355939,0.557515,0.6442175,-0.34773421,0.530888,0.63635474,-0.35349716,0.537617,0.6488233,-0.36866847,0.549597
0.69863672,-0.40374401,0.627955,0.71084349,-0.37543161,0.596227,0.70654728,-0.3789338,0.622058,0.71057692,-0.34322299,0.606411,0.71084247,-0.31074238,0.591995,0.7134145,-0.29102615,0.578958,0.72526021,-0.32190871,0.5619,0.66788497,-0.29546044,0.535549,0.66405876,-0.31033854,0.545304,0.67803274,-0.32358757,0.554172,0.71964281,-0.34023739,0.556613,0.68573362,-0.3036024,0.523546,0.67355082,-0.30771916,0.535548,0.67891354,-0.32207832,0.551277,0.71457308,-0.35749227,0.554369,0.65431669,-0.32453799,0.524755,0.61591666,-0.32082984,0.509603,0.61103274,-0.32946479,0.510152,0.70742459,-0.38244073,0.555889,0.65187771,-0.34716828,0.530024,0.64459148,-0.35326505,0.537264,0.65702105,-0.36838942,0.549181
0.70215594,-0.40055775,0.629217,0.71858996,-0.37026075,0.59914,0.70872972,-0.37500003,0.621786,0.72405559,-0.33331904,0.606017,0.72859004,-0.30466504,0.591034,0.73502914,-0.28826814,0.578612,0.73603224,-0.32142357,0.564384,0.68249938,-0.29839491,0.537441,0.67826135,-0.31162668,0.548802,0.68749115,-0.32495484,0.55913,0.73273097,-0.3424925,0.561587,0.70594756,-0.31265612,0.529089,0.69772645,-0.31787402,0.543189,0.70143531,-0.33003083,0.559371,0.72928188,-0.36156789,0.561283,0.67532174,-0.33367797,0.531441,0.63387983,-0.32710128,0.516173,0.63157953,-0.3331268,0.518053,0.7235281,-0.38785649,0.564914,0.6727381,-0.35543487,0.53887,0.666016,-0.36084067,0.547435,0.67680832,-0.37435098,0.559923
0.70954337,-0.39591923,0.630199,0.7287452,-0.36846891,0.600678,0.7201346,-0.36700758,0.623537,0.73585502,-0.33106317,0.60873,0.7383718,-0.30120008,0.593369,0.74369384,-0.28412877,0.580571,0.74890708,-0.32230943,0.567324,0.69753934,-0.29706938,0.541174,0.69271424,-0.3101528,0.552681,0.70412856,-0.32318481,0.563143,0.74407474,-0.34239378,0.563819,0.71135528,-0.31021082,0.531909,0.72209895,-0.3097515,0.546177,0.72162301,-0.31658473,0.562198,0.73929802,-0.36058127,0.562896,0.68714701,-0.33049897,0.533811,0.64548578,-0.32424208,0.518931,0.64259467,-0.33157877,0.52113,0.7318028,-0.38564036,0.565709,0.68721897,-0.35197233,0.540247,0.68012323,-0.35661828,0.548939,0.68834432,-0.37008496,0.56127
0.7168717,-0.39133623,0.631289,0.73712083,-0.3696194,0.601641,0.72646532,-0.36437324,0.621958,0.73078989,-0.32714929,0.603154,0.73310891,-0.29371455,0.586317,0.73614738,-0.27824066,0.573615,0.74894981,-0.32108053,0.564966,0.72857327,-0.29917127,0.535459,0.71696666,-0.28810691,0.520706,0.70605555,-0.28498116,0.522491,0.75141618,-0.34410618,0.564625,0.72442864,-0.31826665,0.531954,0.71577864,-0.32462011,0.546752,0.72265337,-0.33602486,0.563215,0.75007901,-0.36460415,0.566312,0.69286976,-0.33804069,0.535575,0.64960719,-0.32621975,0.519849,0.64425627,-0.33058765,0.521938,0.74681166,-0.39236419,0.572279,0.73387642,-0.37325727,0.545583,0.72193302,-0.36319736,0.533316,0.70318129,-0.35310485,0.522493
0.72816333,-0.39034514,0.634494,0.73669316,-0.36548456,0.599525,0.733923,-0.36202622,0.62285,0.72652619,-0.32375753,0.599394,0.73287057,-0.29152178,0.586426,0.74159436,-0.27561553,0.577539,0.74155001,-0.30927876,0.5555,0.72081132,-0.28810915,0.521209,0.71053175,-0.27751657,0.504063,0.69941318,-0.27344536,0.502138,0.74213041,-0.33241797,0.555866,0.70636237,-0.30826725,0.519179,0.69304442,-0.31278164,0.530073,0.70127528,-0.32410305,0.546763,0.74245198,-0.35333924,0.558487,0.7261375,-0.32010327,0.523689,0.71144055,-0.30368782,0.505885,0.69635292,-0.30234629,0.50426,0.7423917,-0.38213197,0.566285,0.74009951,-0.3529959,0.539028,0.72633239,-0.34133223,0.526505,0.7057406,-0.33333339,0.515454
0.74167415,-0.39045505,0.643533,0.74691105,-0.3583212,0.610024,0.74454919,-0.3593315,0.631976,0.73859609,-0.31880848,0.609745,0.74466412,-0.28788271,0.595788,0.75275303,-0.27511393,0.586725,0.75226167,-0.3062269,0.567357,0.73503752,-0.28627736,0.534039,0.72654636,-0.27629315,0.517379,0.71810297,-0.27304465,0.5165,0.75376114,-0.32955321,0.568187,0.72298969,-0.30431496,0.532444,0.71182498,-0.31040336,0.544605,0.71904159,-0.32146846,0.561352,0.75466201,-0.35054875,0.571094,0.74023506,-0.31874785,0.536755,0.73086144,-0.30266388,0.519186,0.72200717,-0.30129071,0.518521,0.75493269,-0.37928455,0.579041,0.751816,-0.34973917,0.551635,0.74046446,-0.33801354,0.539043,0.72018504,-0.33077455,0.527933
0.74300847,-0.38836455,0.644307,0.75150337,-0.35741821,0.612399,0.74521493,-0.35739994,0.633027,0.7407867,-0.31984093,0.611823,0.74587862,-0.28796567,0.598058,0.75557661,-0.27212807,0.590647,0.75790067,-0.29997957,0.571438,0.74355136,-0.27974424,0.539249,0.73653576,-0.2696082,0.523155,0.73035936,-0.26795528,0.523327,0.76246367,-0.32336654,0.57256,0.72838205,-0.29912509,0.537936,0.71959592,-0.31164033,0.551309,0.72733379,-0.32317602,0.568031,0.76579598,-0.34459284,0.5756,0.7503532,-0.31358068,0.542052,0.74257563,-0.29766681,0.524887,0.73703221,-0.29795754,0.525238,0.76878587,-0.37397888,0.583496,0.7595707,-0.34145234,0.555093,0.74735989,-0.32950514,0.542043,0.72634684,-0.32360049,0.530529
0.7455235,-0.38362629,0.644405,0.7569646,-0.35355581,0.613657,0.74761576,-0.35630834,0.634471,0.74574357,-0.31917489,0.615017,0.751087,-0.28412583,0.603306,0.7592046,-0.26994556,0.596019,0.76476684,-0.29479765,0.575314,0.75072961,-0.27212798,0.543851,0.74388372,-0.26075283,0.52812,0.73825959,-0.25876225,0.528932,0.76936296,-0.31717793,0.575268,0.73573789,-0.29101195,0.541707,0.72710872,-0.30233813,0.555825,0.73575011,-0.31551465,0.572396,0.77269525,-0.33771872,0.577271,0.75757772,-0.30454397,0.544976,0.74997453,-0.28750417,0.528453,0.7453778,-0.28742006,0.529645,0.77560452,-0.36655082,0.583764,0.76623748,-0.33246114,0.556363,0.75408836,-0.31983724,0.543772,0.73346263,-0.31389065,0.532664
0.75046494,-0.38525983,0.648948,0.75991261,-0.35482668,0.617071,0.75216511,-0.35761282,0.638885,0.74699228,-0.31777505,0.618344,0.75279811,-0.28562514,0.6078,0.76244517,-0.26998199,0.602279,0.76507957,-0.29656276,0.577604,0.7440998,-0.27368142,0.545378,0.73362653,-0.26183369,0.529265,0.73664624,-0.25866477,0.529377,0.76898547,-0.31881345,0.577272,0.73402307,-0.29198787,0.542919,0.72418601,-0.30233488,0.55623,0.73286374,-0.31542808,0.572835,0.77183409,-0.33926258,0.579115,0.75219463,-0.30534195,0.546815,0.74291089,-0.28791927,0.53029,0.73607939,-0.28753402,0.530966,0.77068657,-0.36837443,0.585567,0.75966121,-0.33398225,0.557656,0.7479553,-0.3204276,0.544832,0.73100353,-0.31397949,0.533517
0.75174838,-0.38164558,0.651045,0.76401882,-0.35344227,0.621585,0.75312483,-0.35393911,0.641015,0.74835159,-0.30845248,0.623134,0.75384604,-0.27676883,0.612185,0.76448567,-0.26035666,0.606069,0.77248956,-0.29857828,0.584229,0.75595899,-0.26928356,0.555026,0.74924095,-0.25591069,0.540425,0.76477576,-0.25074495,0.542409,0.77709903,-0.32149472,0.584802,0.76870514,-0.29374042,0.552119,0.75747673,-0.27854684,0.533055,0.74995697,-0.27716823,0.534705,0.77741472,-0.3418404,0.587229,0.7788672,-0.32250245,0.555053,0.75378787,-0.31002115,0.538591,0.73576431,-0.30867008,0.540362,0.7793112,-0.37071926,0.594061,0.78033396,-0.35061538,0.567088,0.77114571,-0.34136609,0.554695,0.74716919,-0.33331819,0.54376
0.75684104,-0.38222718,0.655888,0.76590146,-0.34880184,0.626523,0.76058701,-0.35404511,0.647859,0.75070348,-0.30952114,0.627086,0.74903724,-0.27472814,0.613435,0.75596507,-0.25599293,0.604903,0.77753243,-0.29378291,0.591658,0.76258823,-0.26688619,0.562379,0.75530901,-0.25333602,0.547739,0.75116399,-0.24399366,0.53443,0.77852242,-0.31543215,0.589859,0.77250927,-0.28960474,0.557303,0.76251136,-0.27438315,0.538313,0.75704206,-0.27656038,0.539855,0.77869657,-0.33506465,0.590329,0.78091486,-0.31666323,0.557844,0.7546344,-0.30487116,0.541224,0.73747893,-0.30720991,0.542746,0.77751194,-0.36224959,0.594796,0.77610272,-0.34755506,0.568136,0.77324116,-0.3400758,0.555887,0.75335359,-0.33215957,0.545079
0.75713145,-0.38174236,0.65611,0.76694732,-0.34888993,0.627261,0.76111758,-0.35525722,0.648779,0.7480888,-0.31146298,0.628895,0.74420369,-0.27866413,0.616853,0.75533621,-0.25814945,0.609015,0.77758316,-0.29268917,0.593681,0.75955857,-0.26182854,0.565787,0.75202413,-0.24730748,0.551839,0.74529563,-0.23402064,0.53916,0.77945241,-0.31371388,0.591243,0.77181193,-0.28189794,0.559605,0.76138248,-0.26526968,0.541149,0.75583972,-0.26502878,0.543039,0.78038136,-0.33298991,0.591153,0.78298181,-0.30738659,0.559026,0.75635443,-0.29611597,0.542588,0.73801017,-0.30164033,0.544325,0.7827019,-0.35782161,0.594878,0.78119313,-0.33873041,0.568466,0.77814946,-0.32855572,0.55633,0.7619534,-0.32086323,0.545623
0.74732246,-0.38144567,0.648294,0.75635016,-0.3465137,0.626086,0.75536926,-0.35484995,0.645393,0.7407878,-0.31345141,0.633471,0.75619276,-0.28717738,0.637878,0.77255709,-0.27523958,0.641483,0.77068106,-0.28842498,0.603535,0.76950519,-0.25871159,0.579322,0.76526249,-0.2441644,0.567215,0.76158879,-0.23079867,0.556209,0.77513577,-0.30612481,0.598357,0.77989939,-0.27364944,0.57135,0.78269716,-0.25469667,0.555596,0.76993559,-0.24384296,0.544343,0.77792763,-0.32304186,0.595572,0.78644904,-0.29591326,0.568207,0.78097158,-0.28120171,0.554207,0.7799213,-0.28180336,0.558966,0.77936889,-0.34803225,0.595176,0.78792777,-0.32690631,0.572946,0.7807197,-0.31706125,0.562732,0.77004501,-0.30915335,0.55372
0.74895827,-0.37830921,0.650771,0.76013994,-0.34543781,0.630846,0.75854471,-0.35508488,0.650708,0.74098099,-0.31056512,0.640382,0.73258864,-0.27573722,0.627825,0.72817805,-0.25477359,0.615607,0.77859588,-0.28611311,0.613673,0.78042941,-0.25108325,0.593348,0.78152471,-0.23340227,0.583185,0.78263336,-0.21722442,0.573946,0.77997851,-0.30201431,0.60597,0.78920359,-0.27019977,0.581134,0.78561953,-0.25074573,0.566646,0.76439046,-0.24305173,0.556298,0.78004352,-0.31735621,0.600956,0.79079163,-0.29038641,0.57571,0.77646177,-0.27656475,0.562793,0.76715122,-0.28077498,0.568078,0.77785408,-0.34027471,0.597578,0.78816284,-0.31301813,0.581395,0.78700649,-0.29978826,0.573959,0.77859747,-0.29143767,0.567398
0.75041871,-0.37834468,0.652566,0.76210534,-0.33989178,0.6335,0.76107245,-0.35398653,0.655622,0.7507191,-0.31299817,0.650011,0.74079965,-0.27585885,0.64028,0.74071298,-0.25292458,0.632247,0.78761938,-0.28276903,0.620817,0.79721028,-0.25380608,0.598502,0.7756952,-0.24238533,0.587345,0.74434279,-0.24213681,0.577202,0.78474833,-0.295801,0.609694,0.79128677,-0.26032762,0.585878,0.78421663,-0.23885486,0.571986,0.76073492,-0.2313479,0.562063,0.78127561,-0.30877516,0.60181,0.79046595,-0.27692746,0.577663,0.76977233,-0.26314234,0.565308,0.7564283,-0.2687915,0.569759,0.77480334,-0.32886188,0.594868,0.78567437,-0.30031039,0.580089,0.78340653,-0.28619506,0.573299,0.77373529,-0.27731794,0.567307
0.75031135,-0.37847928,0.653337,0.76359483,-0.34794305,0.636178,0.75382749,-0.35882083,0.654848,0.73429594,-0.3218463,0.646688,0.72480052,-0.28727656,0.637717,0.72698605,-0.2653136,0.63318,0.77237727,-0.2877128,0.623272,0.77504812,-0.24871629,0.60569,0.7606338,-0.24052906,0.596898,0.74747379,-0.2330041,0.588906,0.77741252,-0.30146147,0.614755,0.78123415,-0.26084973,0.592966,0.78003719,-0.23743226,0.580256,0.76956757,-0.23215424,0.571177,0.78059937,-0.3152917,0.608887,0.78622195,-0.27695527,0.587522,0.77746738,-0.26145602,0.576591,0.78136735,-0.26324905,0.583405,0.78462211,-0.33547617,0.604115,0.78928689,-0.30295864,0.586382,0.78517393,-0.28856253,0.578234,0.77499577,-0.27983275,0.571044
0.75403317,-0.38707812,0.660132,0.7565208,-0.35638327,0.644177,0.74474058,-0.36666564,0.661289,0.73164756,-0.33185514,0.657808,0.73521333,-0.30444035,0.663445,0.74632679,-0.28931629,0.668406,0.76975715,-0.29590881,0.63188,0.77332284,-0.25695849,0.614806,0.76049948,-0.25021774,0.606269,0.74879814,-0.24402323,0.598508,0.77696032,-0.31014967,0.624258,0.78235121,-0.26983422,0.603293,0.78214496,-0.24710533,0.591064,0.77544286,-0.23708143,0.582329,0.78186044,-0.32438229,0.619048,0.79003187,-0.29022941,0.596134,0.7806339,-0.27797793,0.58441,0.79197111,-0.27708264,0.591273,0.78563563,-0.34652369,0.614905,0.78348233,-0.30963256,0.59928,0.78243839,-0.29276879,0.592101,0.78148804,-0.27793609,0.585767
0.74871779,-0.39289474,0.66339,0.7467243,-0.3527703,0.648159,0.73706344,-0.37333464,0.664462,0.71590131,-0.33615803,0.655586,0.70099462,-0.30203895,0.645626,0.70200364,-0.28075707,0.644694,0.74040747,-0.28803144,0.636378,0.75506945,-0.25294132,0.632234,0.76224816,-0.23504514,0.630162,0.76891744,-0.21852182,0.628278,0.75379899,-0.29722117,0.629141,0.7523065,-0.25657442,0.608301,0.75159228,-0.23265778,0.596144,0.74934783,-0.21765202,0.58746,0.76449541,-0.30772657,0.6242,0.76778187,-0.26707055,0.605456,0.76507031,-0.25177908,0.595867,0.78554239,-0.2446924,0.604633,0.77673909,-0.32631313,0.620285,0.77388657,-0.29582237,0.603462,0.77273519,-0.28162475,0.595733,0.77180852,-0.26899097,0.588913
0.68616884,-0.38440549,0.639545,0.70888438,-0.34954285,0.639402,0.67879982,-0.36151319,0.641063,0.67342815,-0.32230844,0.634996,0.6661887,-0.29020039,0.63236,0.67267035,-0.27568491,0.640067,0.71918023,-0.29345562,0.641107,0.74513084,-0.26913256,0.650901,0.75966778,-0.25589378,0.655797,0.77594297,-0.24614226,0.660249,0.73658425,-0.30702253,0.639224,0.75577377,-0.27082157,0.632223,0.76734641,-0.2495457,0.628139,0.77636994,-0.235911,0.625222,0.74945047,-0.32041771,0.637684,0.7651083,-0.29241756,0.632347,0.77346544,-0.28528805,0.629616,0.78777137,-0.29955787,0.644136,0.76206404,-0.34106225,0.635852,0.7788164,-0.31312181,0.629818,0.7868232,-0.30032802,0.627046,0.79404993,-0.28894258,0.6246
0.70095978,-0.39318305,0.652497,0.7184127,-0.35440533,0.648391,0.68995488,-0.36949169,0.651806,0.69035978,-0.34257241,0.662689,0.68668799,-0.31596221,0.668161,0.69035796,-0.29685251,0.671074,0.71978651,-0.29408612,0.644036,0.73876778,-0.26299338,0.649033,0.74969486,-0.24769072,0.651532,0.7609861,-0.23663505,0.653804,0.7396312,-0.30694115,0.643265,0.75093605,-0.26609918,0.632408,0.75861604,-0.24325075,0.626074,0.76342265,-0.23081529,0.62155,0.75428258,-0.31711893,0.642903,0.7677344,-0.2833988,0.632039,0.76895508,-0.27771886,0.626481,0.78624022,-0.28644406,0.639296,0.77183558,-0.33717865,0.643015,0.76841914,-0.30041129,0.63304,0.76916507,-0.28990598,0.628457,0.76955649,-0.28354799,0.624413
0.71570794,-0.40252507,0.666452,0.72559894,-0.3597829,0.657305,0.70389807,-0.37925515,0.666134,0.69257241,-0.34526561,0.66535,0.68801655,-0.32423271,0.673151,0.69167284,-0.3025846,0.675102,0.71330259,-0.29949164,0.649072,0.73749451,-0.2654099,0.650364,0.74567114,-0.25077634,0.65101,0.75603501,-0.23599004,0.651597,0.73676804,-0.30676534,0.645884,0.72166106,-0.27261324,0.63103,0.71543585,-0.25170337,0.622366,0.70539062,-0.25266398,0.616177,0.75185878,-0.31717615,0.643869,0.75544363,-0.27779832,0.631144,0.74879515,-0.26840721,0.624634,0.75444781,-0.28408466,0.636616,0.76685768,-0.33404218,0.642662,0.77076641,-0.30179492,0.633993,0.77001638,-0.29282629,0.63001,0.75999087,-0.30043057,0.626496
0.71690051,-0.40433721,0.670666,0.72179584,-0.36037054,0.659535,0.70366569,-0.38011963,0.668875,0.67263879,-0.34241413,0.663646,0.65793464,-0.31485523,0.664025,0.65467352,-0.29534356,0.664852,0.71143932,-0.29784697,0.647826,0.70613159,-0.25942115,0.638163,0.70347365,-0.24235953,0.633331,0.70111631,-0.22652226,0.628939,0.73111274,-0.3074352,0.645637,0.71970327,-0.27427428,0.628819,0.71489595,-0.25837577,0.619009,0.70333105,-0.26103014,0.612002,0.74720143,-0.31827784,0.644574,0.7568929,-0.28355986,0.63031,0.74936388,-0.27610733,0.623012,0.75210478,-0.28715037,0.63454,0.76291829,-0.33950422,0.644777,0.75154661,-0.30034878,0.630364,0.74637484,-0.2852699,0.623742,0.74183413,-0.27186552,0.617899
0.69036564,-0.393672,0.663488,0.70168909,-0.35328567,0.659877,0.68874961,-0.3768446,0.671019,0.66352829,-0.34283295,0.67174,0.65316226,-0.31912122,0.676114,0.64733704,-0.29879141,0.67363,0.71783921,-0.30658482,0.665845,0.70106754,-0.2860276,0.662892,0.6871097,-0.30045267,0.661415,0.69915422,-0.32056382,0.67377,0.72615641,-0.30953106,0.65537,0.71572135,-0.27067839,0.647345,0.70960614,-0.24739412,0.642663,0.70522641,-0.23046529,0.63932,0.73201558,-0.31437815,0.646993,0.73437974,-0.27424875,0.643044,0.73310456,-0.2533068,0.641023,0.74217755,-0.24979679,0.654137,0.73689235,-0.32513847,0.637404,0.74749584,-0.29406828,0.629086,0.73951923,-0.28364091,0.625264,0.73242212,-0.27429116,0.621892
0.69082222,-0.3923374,0.665316,0.69758071,-0.34757688,0.662707,0.68099586,-0.3743511,0.672688,0.65916771,-0.34228542,0.673207,0.63703389,-0.31690022,0.671009,0.63383218,-0.30259559,0.675474,0.69572175,-0.29952053,0.669342,0.6888972,-0.26197034,0.666774,0.68498672,-0.24871122,0.665489,0.69627466,-0.24988792,0.678189,0.7088849,-0.30025927,0.659449,0.70502209,-0.2578414,0.652167,0.70034281,-0.23674366,0.647919,0.6966938,-0.22204507,0.644885,0.71924678,-0.3033467,0.651485,0.71935536,-0.26636839,0.649737,0.71713517,-0.25349116,0.648843,0.73108063,-0.25058229,0.662803,0.73084227,-0.31212115,0.642259,0.71719787,-0.29169195,0.636851,0.70707685,-0.30355261,0.634367,0.71225988,-0.32107814,0.643493
0.70012184,-0.39701374,0.670722,0.68656233,-0.3489345,0.663869,0.67640521,-0.37514949,0.670688,0.64506432,-0.34855841,0.668158,0.63361374,-0.32898722,0.677075,0.63157401,-0.31443832,0.683122,0.65714296,-0.29177248,0.657944,0.64732241,-0.2548672,0.645459,0.64244377,-0.23603417,0.639216,0.65478883,-0.22442213,0.650183,0.67936313,-0.29288202,0.655312,0.67857486,-0.25211455,0.649862,0.67800142,-0.23828606,0.646682,0.67768924,-0.22796925,0.644412,0.69820294,-0.29675361,0.653604,0.69219414,-0.25281866,0.639823,0.68909046,-0.23209089,0.632773,0.70614001,-0.22021289,0.64453,0.72197772,-0.30741811,0.652464,0.72811465,-0.27523914,0.650974,0.73177619,-0.2603957,0.650289,0.73506134,-0.24822441,0.649684
0.6721657,-0.38909473,0.664185,0.67178174,-0.34834187,0.664339,0.65123846,-0.37385679,0.670401,0.63130084,-0.34310986,0.671164,0.61536234,-0.31944866,0.674049,0.60998858,-0.29859341,0.672883,0.6667849,-0.29901737,0.671958,0.6618883,-0.26032509,0.668118,0.65859056,-0.24231688,0.666198,0.67018444,-0.23066205,0.679268,0.68603338,-0.29861223,0.664532,0.68822865,-0.25778056,0.661758,0.68497814,-0.23568904,0.66014,0.68442679,-0.21917176,0.658984,0.69623836,-0.30372879,0.658414,0.70425742,-0.26318591,0.6501,0.70137869,-0.24794517,0.645846,0.71708869,-0.23974688,0.658762,0.71102476,-0.31317328,0.65104,0.70146868,-0.27910098,0.648181,0.69725528,-0.26390093,0.646867,0.69397812,-0.25222381,0.645708
0.65832892,-0.38763593,0.661507,0.66959083,-0.34841526,0.663185,0.64611119,-0.3722315,0.666352,0.62321122,-0.33993261,0.663597,0.60508194,-0.31497835,0.664448,0.60592884,-0.2987589,0.670823,0.66464832,-0.29833045,0.670461,0.66026448,-0.26025452,0.667047,0.65669066,-0.2436889,0.66534,0.66854414,-0.23453591,0.678942,0.68333238,-0.3007851,0.66528,0.68350625,-0.25919057,0.660632,0.68133189,-0.23667564,0.657921,0.6796799,-0.22040378,0.655985,0.6982413,-0.305379,0.660907,0.6965537,-0.26408392,0.656447,0.69568406,-0.24267747,0.654165,0.69831633,-0.22423773,0.655297,0.71510947,-0.31613547,0.655428,0.70405465,-0.28117354,0.651116,0.69910589,-0.26551385,0.649134,0.69507219,-0.25307281,0.647386
0.65795984,-0.3886405,0.661579,0.66899772,-0.34916392,0.662936,0.64551926,-0.37298506,0.666152,0.62105264,-0.34175783,0.66299,0.60317831,-0.31635716,0.663618,0.60050593,-0.30075675,0.668941,0.66358511,-0.2985827,0.669608,0.65886575,-0.26053924,0.665825,0.65530294,-0.24416004,0.663934,0.66708188,-0.23504741,0.677457,0.68245576,-0.30121802,0.66463,0.68233215,-0.25974828,0.659753,0.67864528,-0.24011629,0.656907,0.67558771,-0.22902975,0.654875,0.69754152,-0.30598049,0.660445,0.69561058,-0.26465868,0.655688,0.6945009,-0.24322751,0.653253,0.69442053,-0.22393828,0.651904,0.7146624,-0.31698122,0.655235,0.70330646,-0.28187668,0.650607,0.69820298,-0.26613016,0.64848,0.69399545,-0.2534901,0.646604
0.6645006,-0.38568252,0.658662,0.66536511,-0.34643779,0.659856,0.64497418,-0.37223266,0.66449,0.61978617,-0.34450918,0.66304,0.59555456,-0.3208565,0.660778,0.59382708,-0.30257065,0.665852,0.64445601,-0.29945372,0.667902,0.6386275,-0.26052311,0.663843,0.63459307,-0.24283273,0.661814,0.64527051,-0.23158703,0.675018,0.66276675,-0.29578325,0.661345,0.65751126,-0.25313965,0.656543,0.65272312,-0.23253593,0.653742,0.64925556,-0.21735462,0.651741,0.67800543,-0.29523858,0.655872,0.67598801,-0.25303958,0.65028,0.67255241,-0.23604529,0.647419,0.66941455,-0.22009791,0.644818,0.69676084,-0.29960299,0.649136,0.69587604,-0.2640965,0.644248,0.69525184,-0.24784016,0.642002,0.69471176,-0.23340299,0.64002
0.65349311,-0.38356515,0.655371,0.65153933,-0.34143977,0.656833,0.63948917,-0.36978263,0.660246,0.60333822,-0.34275522,0.657507,0.58137363,-0.31778802,0.655903,0.5729657,-0.29708566,0.653714,0.63264017,-0.29494047,0.663961,0.62881967,-0.25800175,0.6609,0.62680721,-0.24340631,0.659369,0.64132481,-0.23291426,0.673033,0.65239144,-0.29357367,0.658656,0.6495235,-0.25075785,0.65291,0.64799179,-0.22985298,0.649558,0.64532393,-0.21411583,0.647164,0.66865196,-0.29496422,0.654195,0.66330784,-0.25286835,0.649029,0.66117415,-0.23554262,0.646386,0.65927723,-0.21968158,0.643983,0.68833412,-0.30171864,0.64864,0.68679907,-0.26620128,0.643937,0.68609919,-0.24984629,0.641777,0.68999691,-0.23437524,0.639871
0.65285812,-0.38379754,0.656066,0.65012216,-0.34197956,0.656719,0.63793799,-0.3697407,0.660335,0.6012648,-0.34104409,0.656679,0.57931364,-0.31588492,0.65501,0.57219523,-0.29826691,0.656246,0.63165815,-0.29433616,0.662422,0.62470077,-0.25619884,0.657703,0.62189179,-0.2420754,0.655343,0.63394436,-0.2342137,0.668622,0.6516779,-0.2938677,0.657533,0.64819835,-0.25109745,0.651534,0.64631004,-0.22951503,0.648034,0.64393192,-0.21362358,0.645535,0.66814852,-0.29601121,0.653467,0.66233331,-0.25391601,0.648099,0.66014609,-0.23632624,0.645353,0.6582391,-0.22043591,0.642856,0.68805214,-0.30371218,0.648495,0.6865738,-0.26835514,0.643217,0.68677842,-0.25457938,0.640792,0.68526748,-0.24859525,0.638653
0.65102792,-0.38350019,0.655136,0.6471643,-0.34187598,0.65466,0.63331911,-0.36891207,0.65767,0.59451658,-0.33870066,0.651558,0.57270412,-0.31319925,0.649618,0.56802768,-0.29759305,0.653254,0.62568674,-0.29291013,0.657306,0.61326104,-0.25558032,0.651628,0.61046332,-0.24195491,0.648789,0.62463087,-0.23371625,0.661968,0.64719398,-0.29326968,0.654067,0.64010953,-0.25274545,0.647093,0.63766219,-0.23157319,0.643024,0.6374844,-0.2139334,0.640118,0.66465429,-0.29732916,0.651434,0.6570593,-0.25485231,0.644885,0.65446312,-0.23680298,0.641533,0.6527256,-0.21974975,0.638487,0.68632119,-0.30636071,0.648335,0.68427381,-0.27088366,0.642016,0.68335302,-0.25443874,0.639112,0.68232766,-0.24551135,0.63655
0.65020618,-0.38387963,0.655192,0.64550149,-0.34193879,0.653653,0.63017007,-0.36904802,0.657182,0.59347185,-0.33821439,0.650229,0.56942483,-0.31201055,0.64565,0.56567394,-0.29628637,0.650795,0.62197903,-0.29201848,0.654731,0.60977609,-0.25327661,0.648055,0.60670687,-0.23986706,0.644717,0.62007312,-0.23233129,0.657608,0.64437056,-0.29240143,0.651734,0.63685044,-0.25077899,0.643714,0.63406617,-0.2301092,0.639035,0.63214314,-0.21510304,0.635694,0.66198989,-0.2964532,0.649371,0.65692014,-0.25512085,0.64167,0.65193055,-0.23513941,0.63773,0.64970455,-0.21845943,0.634148,0.6840603,-0.30586766,0.646739,0.68118457,-0.2701765,0.639561,0.67988173,-0.25365144,0.636263,0.67849793,-0.24271422,0.633353
