sluyters/QuantumLeap/backend/src/datasets/dynamic/HandGestureDataset_SHREC2017_csv/Gesture7/finger_2/subject_25_essai_5_skeletons_world.csv
Wrist_x,Wrist_y,Wrist_z,Palm_x,Palm_y,Palm_z,thumb_base_x,thumb_base_y,thumb_base_z,thumb_first_joint_x,thumb_first_joint_y,thumb_first_joint_z,thumb_second_joint_x,thumb_second_joint_y,thumb_second_joint_z,thumb_tip_x,thumb_tip_y,thumb_tip_z,index_base_x,index_base_y,index_base_z,index_first_joint_x,index_first_joint_y,index_first_joint_z,index_second_joint_x,index_second_joint_y,index_second_joint_z,index_tip_x,index_tip_y,index_tip_z,middle_base_x,middle_base_y,middle_base_z,middle_first_joint_x,middle_first_joint_y,middle_first_joint_z,middle_second_joint_x,middle_second_joint_y,middle_second_joint_z,middle_tip_x,middle_tip_y,middle_tip_z,ring_base_x,ring_base_y,ring_base_z,ring_first_joint_x,ring_first_joint_y,ring_first_joint_z,ring_second_joint_x,ring_second_joint_y,ring_second_joint_z,ring_tip_x,ring_tip_y,ring_tip_z,pinky_base_x,pinky_base_y,pinky_base_z,pinky_first_joint_x,pinky_first_joint_y,pinky_first_joint_z,pinky_second_joint_x,pinky_second_joint_y,pinky_second_joint_z,pinky_tip_x,pinky_tip_y,pinky_tip_z,
0.403312098,-0.363738471,0.55689,0.38711979,-0.320742301,0.553741,0.384786218,-0.359302658,0.563479,0.347249216,-0.343081221,0.562604,0.317446566,-0.325282128,0.556501,0.301397502,-0.309204031,0.552589,0.367597897,-0.286274415,0.559983,0.34458375,-0.253417785,0.55224,0.332793295,-0.236532487,0.548369,0.321395932,-0.221783666,0.544849,0.382663802,-0.278761509,0.550672,0.364295376,-0.236035155,0.540304,0.353493354,-0.210819034,0.534256,0.345736099,-0.192668154,0.529936,0.395613029,-0.276520266,0.543301,0.380138406,-0.233757007,0.533204,0.370648315,-0.212948739,0.528038,0.361955726,-0.193823027,0.523342,0.411910651,-0.281083186,0.535179,0.414852922,-0.244914169,0.524346,0.410441199,-0.231546806,0.519369,0.406537479,-0.219503706,0.514977
0.38587122,-0.364546432,0.55538,0.381604124,-0.319644246,0.551849,0.371002164,-0.358654027,0.560836,0.334953124,-0.338679897,0.558898,0.306623566,-0.319786149,0.553435,0.292258629,-0.303501601,0.55063,0.356142103,-0.282984637,0.556391,0.332703646,-0.249719988,0.550761,0.320741236,-0.232714967,0.547946,0.309717702,-0.21702849,0.545386,0.373932295,-0.277421323,0.548408,0.356093751,-0.235429477,0.538662,0.344889275,-0.21142868,0.532977,0.340894331,-0.193233696,0.528916,0.388905885,-0.276811538,0.542165,0.372131224,-0.236178348,0.53278,0.363459016,-0.215069398,0.527978,0.358835802,-0.194800927,0.523613,0.409673199,-0.282252078,0.535431,0.402732872,-0.250094125,0.52576,0.400685909,-0.234491241,0.521316,0.398899912,-0.220524884,0.517395
0.3889506,-0.36742702,0.562692,0.37874579,-0.319937515,0.55603,0.372215328,-0.360253979,0.566351,0.335533474,-0.338865702,0.560904,0.303694386,-0.317706717,0.549354,0.287859446,-0.300722793,0.544442,0.349996319,-0.27821499,0.55617,0.325236658,-0.244542628,0.547776,0.315402405,-0.229151149,0.543579,0.303747888,-0.213216973,0.539763,0.369685298,-0.273913313,0.549536,0.352737917,-0.233483334,0.537245,0.34094204,-0.208805349,0.530076,0.332285049,-0.191276513,0.524954,0.388602327,-0.276313007,0.544697,0.370540917,-0.235389837,0.532759,0.361219172,-0.214154765,0.526652,0.352692895,-0.194662763,0.521099,0.409151282,-0.284231608,0.540134,0.398978354,-0.255297866,0.528786,0.395068133,-0.242269835,0.523572,0.391319291,-0.231182594,0.518971
0.387229385,-0.366050636,0.56052,0.376335444,-0.318848986,0.553561,0.370358846,-0.359307075,0.564258,0.33457164,-0.33845413,0.558837,0.304104677,-0.319071474,0.55012,0.288587036,-0.302612805,0.546091,0.345464489,-0.282255906,0.553599,0.321737024,-0.248153782,0.543387,0.309626932,-0.230692549,0.538281,0.297636839,-0.21721298,0.533639,0.365767105,-0.273958424,0.546778,0.345996278,-0.230991958,0.533341,0.334086603,-0.205947016,0.525503,0.326907613,-0.189582388,0.519904,0.382164138,-0.273489009,0.541812,0.364917322,-0.231327521,0.528636,0.355362201,-0.210329716,0.521895,0.347254486,-0.192815379,0.515767,0.400994851,-0.279699084,0.537149,0.398963698,-0.250617478,0.52508,0.397826751,-0.234339279,0.519535,0.39308277,-0.223803833,0.514642
0.383034662,-0.362603879,0.555332,0.37441465,-0.317277366,0.550951,0.367076305,-0.356438535,0.560137,0.332890366,-0.337127752,0.556618,0.302379787,-0.318162898,0.548158,0.287431222,-0.302227335,0.545051,0.351063601,-0.279199313,0.554091,0.326961376,-0.244802249,0.54626,0.314702406,-0.227313011,0.542345,0.303431613,-0.21121383,0.538785,0.365587041,-0.274465257,0.54668,0.351072957,-0.231367199,0.535354,0.339036878,-0.204659426,0.528747,0.331324527,-0.186593419,0.524028,0.381091553,-0.273532915,0.540988,0.367432258,-0.231923541,0.529472,0.36109116,-0.210138451,0.52358,0.355169823,-0.190669281,0.518223,0.400858334,-0.279842892,0.535043,0.404824142,-0.243224099,0.52439,0.405898494,-0.226057734,0.519495,0.402014106,-0.217869443,0.515177
0.385704297,-0.358719824,0.548455,0.382718846,-0.318195746,0.546078,0.368548855,-0.353861581,0.553381,0.341531058,-0.337925247,0.550425,0.308696047,-0.313310228,0.536726,0.293126265,-0.294466565,0.528897,0.361507351,-0.285548417,0.550728,0.341418218,-0.249942284,0.544652,0.331120227,-0.232679097,0.541615,0.32053856,-0.218610365,0.538853,0.379145732,-0.278634786,0.54376,0.362492864,-0.234356991,0.535166,0.353081696,-0.209235483,0.530152,0.349450299,-0.190716507,0.526571,0.393094487,-0.275373318,0.538247,0.384351872,-0.232856481,0.52822,0.380997051,-0.209899738,0.523441,0.375044214,-0.190472202,0.519096,0.411412637,-0.28064645,0.532174,0.416729434,-0.245503004,0.523219,0.422968622,-0.230434244,0.519105,0.421285253,-0.219065506,0.515474
0.420810559,-0.367710927,0.561921,0.416731561,-0.32132689,0.551716,0.400905036,-0.358409709,0.562127,0.370236644,-0.338498417,0.551579,0.337412404,-0.313437935,0.537154,0.32244657,-0.295158831,0.531509,0.380692619,-0.280737466,0.54507,0.358160189,-0.24155974,0.531214,0.346840416,-0.224728442,0.524286,0.334425858,-0.20781913,0.517987,0.403090655,-0.277984634,0.541768,0.400351589,-0.239825719,0.546288,0.398765512,-0.217647022,0.548924,0.396328866,-0.206271927,0.550807,0.42257767,-0.280101573,0.540003,0.417644911,-0.235731092,0.534251,0.413928153,-0.214608422,0.531309,0.410533678,-0.195203218,0.528633,0.447474657,-0.290508554,0.53964,0.447085865,-0.256298494,0.526578,0.446986586,-0.240372333,0.520576,0.44739225,-0.227147231,0.515281
0.444514854,-0.370930824,0.558664,0.433707609,-0.322994292,0.549526,0.424070394,-0.361815872,0.559169,0.391005749,-0.336925885,0.549195,0.359208153,-0.312457278,0.534598,0.344427278,-0.294220643,0.529345,0.401146195,-0.280288383,0.543981,0.380145962,-0.241404413,0.530898,0.369620937,-0.225767731,0.524356,0.359907041,-0.211235384,0.51841,0.423269562,-0.277406455,0.540619,0.419120263,-0.236841835,0.541524,0.416690979,-0.213098025,0.542053,0.413915651,-0.20180065,0.54243,0.442539579,-0.279347882,0.538703,0.43904885,-0.238524446,0.536345,0.437255084,-0.21743035,0.535139,0.435618976,-0.198128789,0.534042,0.467167713,-0.289440884,0.537985,0.468120805,-0.255943866,0.525573,0.4686623,-0.240318505,0.519871,0.467505499,-0.230367479,0.514839
0.456554126,-0.369032841,0.563408,0.454924956,-0.316311561,0.552322,0.442178603,-0.353004,0.560376,0.406609024,-0.326738235,0.546023,0.375911487,-0.30434309,0.535399,0.363692539,-0.288917079,0.535069,0.419952957,-0.270336184,0.540965,0.395214453,-0.230969959,0.525141,0.382811241,-0.21119964,0.51723,0.37151329,-0.19317196,0.510037,0.445404954,-0.270248803,0.541516,0.437345631,-0.227621799,0.538423,0.43266693,-0.202928311,0.536618,0.432442357,-0.191684276,0.535329,0.46720749,-0.27455914,0.543004,0.45904486,-0.228596096,0.529044,0.457995757,-0.216599866,0.521902,0.454834731,-0.223762173,0.515408,0.494422875,-0.287478965,0.546607,0.495378925,-0.254276982,0.533535,0.495934433,-0.238782604,0.527529,0.496490225,-0.224976958,0.52223
0.46709155,-0.358330378,0.55679,0.471457667,-0.309563969,0.548369,0.450858788,-0.341119707,0.549259,0.418243845,-0.310620219,0.531072,0.387755211,-0.285624904,0.519068,0.377803477,-0.271791421,0.521645,0.438601984,-0.258707317,0.533097,0.422623926,-0.218983045,0.516358,0.414618558,-0.1988921,0.507988,0.407330968,-0.180484102,0.500379,0.467846316,-0.264380825,0.540159,0.463456973,-0.2196464,0.530271,0.460918397,-0.193342512,0.524503,0.459115468,-0.174455167,0.520383,0.492336347,-0.273346841,0.546758,0.493470933,-0.231422028,0.542085,0.494061333,-0.209897655,0.539694,0.49589334,-0.190565628,0.537521,0.521877168,-0.291651282,0.555912,0.539614518,-0.262486886,0.550348,0.547875699,-0.248958603,0.547791,0.555226719,-0.236953212,0.545536
0.530625985,-0.358563478,0.559216,0.517947482,-0.310616649,0.550915,0.506834302,-0.348113593,0.557001,0.467701165,-0.321846893,0.544603,0.438521918,-0.301668871,0.537296,0.423606209,-0.283970299,0.532078,0.480444262,-0.267247213,0.542481,0.463807944,-0.229062225,0.528749,0.455448464,-0.209679608,0.521883,0.447823043,-0.191878178,0.515641,0.505796826,-0.265728772,0.542823,0.492570135,-0.222433871,0.527666,0.484864624,-0.196759847,0.518824,0.479632991,-0.179374203,0.512509,0.528051392,-0.268696989,0.543879,0.516179625,-0.227500926,0.529252,0.510588758,-0.207973267,0.521769,0.505546355,-0.189834411,0.514966,0.556765356,-0.279914429,0.546508,0.565306671,-0.246960134,0.537582,0.568301234,-0.23716211,0.533481,0.569787813,-0.230773647,0.529862
0.55668663,-0.360265337,0.556973,0.546886337,-0.31407297,0.550903,0.531259405,-0.34808847,0.551284,0.50217748,-0.315267698,0.53943,0.481836549,-0.298089885,0.542307,0.477093306,-0.290484042,0.551036,0.508519903,-0.268474963,0.539565,0.494330484,-0.229530646,0.525972,0.487221879,-0.209744805,0.519175,0.480751234,-0.191562172,0.512996,0.537412583,-0.26994572,0.544986,0.529089388,-0.225049766,0.536687,0.52973469,-0.201029982,0.531847,0.534182131,-0.19740852,0.528389,0.562204188,-0.275342927,0.550014,0.546478628,-0.230636482,0.537994,0.549109405,-0.220256577,0.531844,0.551891544,-0.210480881,0.526254,0.593150842,-0.289270879,0.556931,0.603623728,-0.256885286,0.552266,0.612581969,-0.248112632,0.550123,0.620849231,-0.240122185,0.548232
0.584157859,-0.356839775,0.563497,0.574210896,-0.31188103,0.556235,0.559443672,-0.346327843,0.55691,0.529911476,-0.318761315,0.543101,0.499400366,-0.293688408,0.529394,0.486919125,-0.27842607,0.529118,0.536013243,-0.267937887,0.542947,0.528756419,-0.225404261,0.531172,0.525325201,-0.204247848,0.525285,0.522204923,-0.185021064,0.519933,0.564508206,-0.267964613,0.549155,0.547779764,-0.220874674,0.536159,0.547571079,-0.197372847,0.528577,0.552544385,-0.195615886,0.523162,0.588865446,-0.272194968,0.554943,0.580410594,-0.228058876,0.545579,0.576083887,-0.205499587,0.540788,0.572150554,-0.185004679,0.536433,0.619072737,-0.284694262,0.562951,0.647091214,-0.262830409,0.565797,0.660820831,-0.253015631,0.567104,0.672972683,-0.244324655,0.568258
0.610885794,-0.353043707,0.568701,0.605056567,-0.306975487,0.560276,0.587946023,-0.340083451,0.560948,0.553638669,-0.308292235,0.541776,0.526129384,-0.283640278,0.530259,0.514204615,-0.267837678,0.529843,0.572015205,-0.259116929,0.544722,0.556258625,-0.216002808,0.529301,0.548378895,-0.19451898,0.52159,0.541759792,-0.175209178,0.515098,0.59936511,-0.262207885,0.552065,0.59688612,-0.218660432,0.54778,0.596947079,-0.193351641,0.545281,0.603918199,-0.177518693,0.543496,0.622285472,-0.269017858,0.558895,0.631860833,-0.231435939,0.562264,0.636758183,-0.21222177,0.563988,0.647356157,-0.195114967,0.565555,0.650030788,-0.284600998,0.568321,0.674425879,-0.258394621,0.566864,0.685833148,-0.246160206,0.566195,0.696005283,-0.235261232,0.565605
0.625815565,-0.356748511,0.576099,0.625903781,-0.309450075,0.569423,0.603291365,-0.34423242,0.5714,0.579365266,-0.314380042,0.555841,0.546936801,-0.287641158,0.540095,0.534876708,-0.270881921,0.53873,0.589854803,-0.262376541,0.558931,0.578791275,-0.22173389,0.54588,0.575838141,-0.206160982,0.539355,0.573265794,-0.191633296,0.533422,0.619190019,-0.265290963,0.562915,0.608899248,-0.222366746,0.548834,0.603427128,-0.197406229,0.540621,0.600813675,-0.181344384,0.534754,0.644322445,-0.271910911,0.566817,0.638008957,-0.227746416,0.554982,0.635176737,-0.205328508,0.548927,0.63382074,-0.185926723,0.543423,0.675500894,-0.287434107,0.572514,0.690670156,-0.257777622,0.569109,0.697927972,-0.244238921,0.567545,0.706502206,-0.236599899,0.566164
0.640923882,-0.357822916,0.577867,0.643892684,-0.313654464,0.573642,0.614428058,-0.342319135,0.571141,0.605673128,-0.313671621,0.554037,0.569411139,-0.281216918,0.532528,0.558835092,-0.264388185,0.532048,0.609785021,-0.264626152,0.562236,0.6051126,-0.223727571,0.550955,0.607030043,-0.207549839,0.545314,0.60902226,-0.19249597,0.540187,0.640701446,-0.270903032,0.569524,0.638418507,-0.2273945,0.557511,0.638122853,-0.202193949,0.550503,0.639892492,-0.185727798,0.545497,0.666682662,-0.280159379,0.575918,0.664168153,-0.236266601,0.565393,0.662866171,-0.21387137,0.560008,0.668282039,-0.195482578,0.560657,0.69810053,-0.298501511,0.584128,0.720199409,-0.272587741,0.584937,0.732759143,-0.2609128,0.585308,0.743948626,-0.25050727,0.585636
0.667581935,-0.3663003,0.592373,0.666413197,-0.318775331,0.581993,0.647900465,-0.351340712,0.584148,0.62378236,-0.323316403,0.563941,0.590616586,-0.294137342,0.540836,0.577628854,-0.275223442,0.534785,0.632766666,-0.270093789,0.564515,0.605929546,-0.226224383,0.546019,0.603028107,-0.211228988,0.536771,0.600563719,-0.197334599,0.528364,0.661336043,-0.273768246,0.571875,0.663696367,-0.231009008,0.569426,0.665081946,-0.206001632,0.567998,0.666074136,-0.188109345,0.566977,0.685289525,-0.281093902,0.578902,0.678878458,-0.236542359,0.566138,0.676191456,-0.213916364,0.559607,0.677360683,-0.194969214,0.55367,0.714222181,-0.297386273,0.588886,0.734254534,-0.268761269,0.584188,0.743617028,-0.255448457,0.58203,0.751962187,-0.243614574,0.580125
0.669705107,-0.365774572,0.592785,0.668778904,-0.31871973,0.582941,0.647929963,-0.34986717,0.583433,0.633567431,-0.3237187,0.562215,0.601381748,-0.293186354,0.534796,0.588224364,-0.272972477,0.526165,0.637373853,-0.267517678,0.564394,0.633050828,-0.225005598,0.550731,0.637848681,-0.209345744,0.543899,0.643008427,-0.195710311,0.537689,0.665124647,-0.273911305,0.573345,0.66694271,-0.228497065,0.563604,0.667596229,-0.202471981,0.557922,0.671540247,-0.185231612,0.553863,0.690285964,-0.282430295,0.581633,0.695514162,-0.240192328,0.574359,0.697326531,-0.218470592,0.570638,0.698994086,-0.198658792,0.567255,0.720462239,-0.300134797,0.593006,0.741905037,-0.272034074,0.589759,0.752189489,-0.259768699,0.588267,0.760772438,-0.247395361,0.586951
0.683812416,-0.368339298,0.598952,0.679488901,-0.321019292,0.588151,0.65858949,-0.353963402,0.589868,0.661298858,-0.322491952,0.568686,0.625770789,-0.289536166,0.544778,0.610790322,-0.272979591,0.541375,0.642728106,-0.271202676,0.569296,0.636823602,-0.228234918,0.554371,0.639171374,-0.210917779,0.546908,0.6421171,-0.195788846,0.540123,0.672942349,-0.275451688,0.577622,0.65493794,-0.227676566,0.559403,0.648684671,-0.201001937,0.548776,0.651521857,-0.193646681,0.541184,0.698485043,-0.283304668,0.585483,0.690307983,-0.237888674,0.571611,0.682213757,-0.214659523,0.564514,0.680001788,-0.194560758,0.558062,0.733353145,-0.298147384,0.596517,0.763604046,-0.278266714,0.599659,0.777506782,-0.269129905,0.601103,0.789775509,-0.26106659,0.602377
0.688275962,-0.369426129,0.600968,0.684213836,-0.32162126,0.589262,0.662327709,-0.355083027,0.59162,0.660413388,-0.322699545,0.569959,0.623808045,-0.295291473,0.554601,0.614336266,-0.283920552,0.558923,0.642883036,-0.271765518,0.56946,0.63787585,-0.231094399,0.553904,0.639059513,-0.211800742,0.546126,0.641082507,-0.196064285,0.539055,0.673463703,-0.275614021,0.577851,0.65718887,-0.227622873,0.559195,0.64811682,-0.201015891,0.548312,0.650697557,-0.193612928,0.540538,0.699523544,-0.283175952,0.585851,0.691000076,-0.238051953,0.572732,0.684029991,-0.214969246,0.56602,0.681320129,-0.194701677,0.559918,0.734114046,-0.298510988,0.597199,0.764711636,-0.278784722,0.600632,0.778782677,-0.26971204,0.60221,0.791204025,-0.261701559,0.603602
0.690338856,-0.369747008,0.601639,0.684638451,-0.321808809,0.589626,0.66411586,-0.355510998,0.592265,0.66026073,-0.322838592,0.570507,0.625968761,-0.296314289,0.556522,0.6174985,-0.285382005,0.5618,0.643007948,-0.272066049,0.569584,0.63843851,-0.23149603,0.553812,0.639227195,-0.212316435,0.545926,0.640844577,-0.196287013,0.538756,0.673667559,-0.275671992,0.577917,0.657297102,-0.227824868,0.559211,0.648094996,-0.201072244,0.548299,0.650642326,-0.193666688,0.540505,0.699878775,-0.283045595,0.585898,0.691367819,-0.238141001,0.573311,0.685056609,-0.215161454,0.566871,0.682186937,-0.194831689,0.561016,0.73417927,-0.298555528,0.597273,0.765053688,-0.278947497,0.600935,0.77925707,-0.269923083,0.602617,0.79179893,-0.261952538,0.604101
0.691751556,-0.369981019,0.602119,0.685020287,-0.321982262,0.589954,0.665333233,-0.355810143,0.592718,0.660317144,-0.322973088,0.570896,0.626368023,-0.296503305,0.556877,0.617843631,-0.28554151,0.562114,0.64321235,-0.272300869,0.569773,0.638817103,-0.231732267,0.55385,0.639425112,-0.212658383,0.545889,0.640790295,-0.196447714,0.538651,0.673952242,-0.275773238,0.578096,0.657511939,-0.228009121,0.559343,0.648214732,-0.201140912,0.548403,0.650735727,-0.193729528,0.540589,0.700276622,-0.283042233,0.586081,0.691697559,-0.238231979,0.573749,0.685741929,-0.215298562,0.567439,0.682741553,-0.194919597,0.561703,0.734431866,-0.298667275,0.597489,0.765198642,-0.279019346,0.601066,0.779351438,-0.269979123,0.60271,0.791846708,-0.261995418,0.60416
0.694631849,-0.371785545,0.603969,0.687495886,-0.323988375,0.591954,0.667603432,-0.357349026,0.594205,0.66006333,-0.324627115,0.572055,0.626692674,-0.297673519,0.557206,0.617801528,-0.286278356,0.561951,0.645073533,-0.274415464,0.571414,0.638572821,-0.23243597,0.554144,0.637779366,-0.221261956,0.545508,0.640187848,-0.211367793,0.537658,0.676870633,-0.277725113,0.580243,0.668666991,-0.234148586,0.562237,0.663574475,-0.206819463,0.551733,0.667167408,-0.199658305,0.54423,0.704219589,-0.284867688,0.588632,0.700892875,-0.244068028,0.575672,0.697110598,-0.219578157,0.569041,0.702828711,-0.204575182,0.563013,0.739275915,-0.305656407,0.600487,0.76633083,-0.280021691,0.601891,0.779153497,-0.270288274,0.602536,0.790451401,-0.261714881,0.603106
