sluyters/QuantumLeap/backend/src/datasets/gesture/HandGestureDataset_SHREC2017_csv/Gesture9/finger_2/subject_19_essai_3_skeletons_world.csv
Wrist_x,Wrist_y,Wrist_z,Palm_x,Palm_y,Palm_z,thumb_base_x,thumb_base_y,thumb_base_z,thumb_first_joint_x,thumb_first_joint_y,thumb_first_joint_z,thumb_second_joint_x,thumb_second_joint_y,thumb_second_joint_z,thumb_tip_x,thumb_tip_y,thumb_tip_z,index_base_x,index_base_y,index_base_z,index_first_joint_x,index_first_joint_y,index_first_joint_z,index_second_joint_x,index_second_joint_y,index_second_joint_z,index_tip_x,index_tip_y,index_tip_z,middle_base_x,middle_base_y,middle_base_z,middle_first_joint_x,middle_first_joint_y,middle_first_joint_z,middle_second_joint_x,middle_second_joint_y,middle_second_joint_z,middle_tip_x,middle_tip_y,middle_tip_z,ring_base_x,ring_base_y,ring_base_z,ring_first_joint_x,ring_first_joint_y,ring_first_joint_z,ring_second_joint_x,ring_second_joint_y,ring_second_joint_z,ring_tip_x,ring_tip_y,ring_tip_z,pinky_base_x,pinky_base_y,pinky_base_z,pinky_first_joint_x,pinky_first_joint_y,pinky_first_joint_z,pinky_second_joint_x,pinky_second_joint_y,pinky_second_joint_z,pinky_tip_x,pinky_tip_y,pinky_tip_z,
0.3939011,-0.38162699,0.459655,0.38345177,-0.32988765,0.449901,0.37388899,-0.37327633,0.459707,0.34195418,-0.34445293,0.451709,0.31363838,-0.32138398,0.444519,0.30694004,-0.3036952,0.442618,0.35262308,-0.29210856,0.444335,0.33388211,-0.25514255,0.428776,0.32440385,-0.23626374,0.420997,0.31571757,-0.21881407,0.413924,0.37498112,-0.28970525,0.441891,0.3548118,-0.24563847,0.424915,0.34253846,-0.22251859,0.415012,0.3336791,-0.20683031,0.407939,0.3948788,-0.29295488,0.44094,0.37637967,-0.24753213,0.424427,0.36611618,-0.22854167,0.415978,0.37394339,-0.22280646,0.427919,0.42060796,-0.30602974,0.44167,0.40630692,-0.25977262,0.42648,0.39719156,-0.24751828,0.419501,0.39037916,-0.23947788,0.413343
0.39262811,-0.38190173,0.459356,0.38295338,-0.33003345,0.449635,0.3727203,-0.37326025,0.459433,0.34006369,-0.34405272,0.450823,0.31281551,-0.32129616,0.444317,0.30447572,-0.30446823,0.443018,0.35272289,-0.29191546,0.444122,0.33420043,-0.25531316,0.428557,0.32574744,-0.23743965,0.420775,0.31624411,-0.21927427,0.4137,0.37508347,-0.2898403,0.441652,0.35488607,-0.2465323,0.424714,0.34269262,-0.22305335,0.414833,0.33389748,-0.20681868,0.407775,0.39490075,-0.29336093,0.440676,0.37618619,-0.24987351,0.42422,0.36631102,-0.22909218,0.4158,0.3742892,-0.22265756,0.427759,0.42017756,-0.30761606,0.441372,0.40523962,-0.26337356,0.426226,0.39846415,-0.24879334,0.419267,0.39090618,-0.23900027,0.413126
0.38884972,-0.37929894,0.454135,0.3801069,-0.32891733,0.445967,0.36933415,-0.37110276,0.454553,0.33831483,-0.34896654,0.445191,0.31360339,-0.32776678,0.440797,0.30338589,-0.31182966,0.440762,0.35034058,-0.29822754,0.441802,0.33399226,-0.25648487,0.427505,0.32529207,-0.2379435,0.420357,0.31650485,-0.21988999,0.413858,0.37341501,-0.2922272,0.439261,0.35489131,-0.24885352,0.423798,0.34313647,-0.22331839,0.414778,0.33503302,-0.20675263,0.408335,0.39308979,-0.29450439,0.438057,0.37522084,-0.2500173,0.422982,0.36595547,-0.22920849,0.415269,0.35737655,-0.21214512,0.408257,0.41805071,-0.30783039,0.438198,0.40439311,-0.26508857,0.424501,0.39873173,-0.24795802,0.418208,0.39511885,-0.23349484,0.412655
0.38403997,-0.37586412,0.447861,0.37650837,-0.32746195,0.44079,0.36604708,-0.36910285,0.44994,0.33591929,-0.34802389,0.442151,0.31169755,-0.32729205,0.438621,0.30195828,-0.31180624,0.439313,0.34959052,-0.29758305,0.439463,0.33349585,-0.25665561,0.426341,0.32490301,-0.23794669,0.41978,0.31660383,-0.22001962,0.413815,0.37047035,-0.2935969,0.434999,0.35309057,-0.24766654,0.420855,0.34200371,-0.22218724,0.412604,0.33447835,-0.20542941,0.40671,0.38888357,-0.29544314,0.432095,0.37180364,-0.24866671,0.418323,0.36325057,-0.22763036,0.411276,0.35506028,-0.2101225,0.40487,0.41243603,-0.30665587,0.430075,0.40267587,-0.26277368,0.417435,0.39802891,-0.24338183,0.411627,0.38895772,-0.23441632,0.406503
0.38296732,-0.37571582,0.446139,0.37569065,-0.32757222,0.43945,0.36511806,-0.36910057,0.448391,0.33495461,-0.34753827,0.440919,0.31100616,-0.32707582,0.437817,0.30141559,-0.31172995,0.438733,0.34926631,-0.29730508,0.43859,0.33312139,-0.25686057,0.425805,0.32465741,-0.23795937,0.419413,0.3165345,-0.22001502,0.413601,0.37002776,-0.29328102,0.433994,0.35293047,-0.24759983,0.420187,0.34208993,-0.22196176,0.412133,0.33476318,-0.20490524,0.40638,0.38828711,-0.29507371,0.430942,0.37164182,-0.24842305,0.417478,0.36312901,-0.22741161,0.410589,0.35504837,-0.20965268,0.404327,0.41156699,-0.30618347,0.428683,0.40215824,-0.26235971,0.416366,0.39772375,-0.24282048,0.410708,0.38937637,-0.2343806,0.405714
0.37701766,-0.37064784,0.439164,0.370496,-0.32681281,0.43198,0.35906204,-0.36370563,0.440968,0.32865893,-0.34256855,0.433762,0.30562316,-0.32348505,0.431987,0.29804263,-0.30941317,0.435209,0.34363179,-0.29067947,0.430258,0.32739041,-0.24726194,0.41749,0.31924809,-0.22542473,0.411107,0.30955129,-0.20892368,0.405633,0.36559484,-0.2885301,0.426141,0.34849493,-0.24268628,0.411912,0.34140867,-0.21196639,0.403612,0.33223452,-0.1962503,0.397683,0.38453806,-0.29195813,0.423538,0.36821638,-0.24475131,0.409875,0.36012623,-0.22263578,0.402884,0.35032577,-0.20440643,0.396529,0.40662649,-0.30323082,0.421893,0.39956179,-0.26069196,0.411472,0.39630448,-0.24128081,0.406684,0.39098379,-0.23016971,0.402459
0.37111974,-0.36509932,0.43244,0.36397013,-0.31968187,0.425224,0.35435176,-0.35997553,0.435178,0.32049336,-0.33348336,0.428365,0.29366022,-0.31205693,0.422286,0.2857473,-0.2998039,0.423936,0.33624614,-0.28173108,0.424726,0.32112576,-0.23828559,0.411267,0.31354279,-0.21638399,0.404538,0.3065843,-0.19921184,0.39842,0.35708198,-0.27841995,0.419367,0.34297392,-0.22910355,0.404358,0.33465141,-0.20062421,0.395602,0.32965621,-0.18481513,0.390914,0.37511688,-0.28087896,0.415747,0.36206878,-0.23095854,0.401483,0.354929,-0.20777346,0.394185,0.34810651,-0.18861637,0.38755,0.39755911,-0.29274225,0.412938,0.39417472,-0.24951039,0.402249,0.39255448,-0.23002,0.397338,0.3884416,-0.22175895,0.393005
0.36597488,-0.36090096,0.426907,0.35439107,-0.30639508,0.419575,0.34624241,-0.35084431,0.429794,0.3114803,-0.32249663,0.422958,0.28424068,-0.29979064,0.415851,0.27147408,-0.28211941,0.412441,0.32898518,-0.27058458,0.419216,0.3134306,-0.22723018,0.405782,0.30562831,-0.20537995,0.399065,0.29851997,-0.18540813,0.392959,0.34947882,-0.26758758,0.413633,0.33668273,-0.21948892,0.40162,0.32921447,-0.19136517,0.394613,0.3237727,-0.17141128,0.389608,0.36714691,-0.2703207,0.409841,0.35615288,-0.22240533,0.398031,0.3505291,-0.19796633,0.391989,0.34500539,-0.17684619,0.386497,0.38906409,-0.28257263,0.406858,0.38654169,-0.2399657,0.397997,0.38532849,-0.22071719,0.393925,0.38305115,-0.20899993,0.390333
0.34678181,-0.33821435,0.410859,0.34524926,-0.28825995,0.408084,0.32950145,-0.33091985,0.413086,0.29876942,-0.30160802,0.407819,0.27513707,-0.28317809,0.405878,0.26315969,-0.26672224,0.403963,0.32182316,-0.25366249,0.409444,0.30902127,-0.21129916,0.400444,0.30258254,-0.18987943,0.395943,0.29623432,-0.17192675,0.391852,0.34408064,-0.25223061,0.405828,0.33156446,-0.2048336,0.395931,0.32425455,-0.17710326,0.390157,0.31919484,-0.15733862,0.386233,0.36270559,-0.25588603,0.403153,0.35006086,-0.20903453,0.393771,0.34360167,-0.1851706,0.38897,0.33766319,-0.16524856,0.384606,0.38474829,-0.26853094,0.400595,0.38001566,-0.22689141,0.393063,0.37785622,-0.20823507,0.389602,0.3759539,-0.19174134,0.386549
0.34315926,-0.32047977,0.405095,0.3391466,-0.26825438,0.404032,0.32549443,-0.31442592,0.407434,0.29646289,-0.28718769,0.405333,0.27219788,-0.27145257,0.404893,0.26115645,-0.25796501,0.40643,0.312492,-0.23767973,0.406522,0.30373268,-0.1947592,0.398081,0.2993393,-0.17307574,0.39386,0.29467553,-0.15453103,0.390023,0.33484407,-0.23344469,0.403169,0.32354573,-0.18637522,0.39431,0.31693873,-0.15874672,0.389142,0.31221217,-0.13893082,0.385451,0.35395747,-0.23462451,0.400523,0.34378597,-0.18785121,0.391812,0.33852114,-0.16425697,0.387355,0.33372809,-0.14270251,0.383303,0.37725373,-0.24410452,0.397676,0.37395747,-0.20272247,0.390509,0.37242272,-0.18393302,0.387217,0.3708259,-0.17310231,0.384311
0.3398967,-0.29870929,0.400687,0.33233676,-0.2459191,0.399354,0.32064442,-0.28456171,0.402971,0.29101064,-0.26465102,0.400495,0.26545527,-0.24744242,0.397759,0.25505193,-0.23424712,0.399941,0.3043837,-0.21582506,0.40161,0.29638395,-0.17154258,0.392748,0.2919129,-0.15016742,0.388317,0.28783266,-0.13046323,0.384289,0.32691537,-0.21106769,0.398266,0.31918334,-0.16405932,0.391647,0.31467068,-0.13660818,0.387785,0.31144709,-0.1169868,0.385027,0.34622246,-0.21179998,0.395657,0.33866095,-0.16506623,0.387567,0.33479284,-0.14120033,0.383428,0.33126862,-0.11964296,0.379665,0.3697961,-0.22066448,0.3929,0.36629806,-0.17959021,0.385539,0.36468177,-0.16080644,0.382156,0.36356153,-0.1456396,0.379172
0.33728782,-0.28574538,0.402263,0.33113631,-0.24211404,0.399438,0.31853684,-0.28020096,0.403758,0.28730545,-0.2551679,0.401492,0.26107584,-0.23646772,0.396828,0.25077108,-0.22229421,0.398266,0.30289026,-0.20481543,0.39977,0.29468952,-0.16002052,0.389916,0.29029373,-0.13818733,0.384989,0.28591497,-0.11933789,0.38051,0.32622978,-0.20237821,0.397106,0.31769219,-0.15505066,0.390003,0.31273363,-0.12746939,0.385885,0.30918966,-0.107771,0.382943,0.34595278,-0.20508378,0.395217,0.33634937,-0.15855837,0.38781,0.33144654,-0.13489161,0.384021,0.3295714,-0.11676609,0.380576,0.36997884,-0.21868248,0.393563,0.36593512,-0.17725017,0.385677,0.36406442,-0.1583574,0.382054,0.36280929,-0.1430069,0.378857
0.33848026,-0.25961159,0.403389,0.32849712,-0.21581529,0.399205,0.31836995,-0.25473246,0.403784,0.28771257,-0.2339755,0.399467,0.26043256,-0.2152972,0.39391,0.24818212,-0.20054745,0.393613,0.29620209,-0.18391418,0.397286,0.28757942,-0.14043693,0.390409,0.28327555,-0.11878022,0.386971,0.27923852,-0.099055827,0.383845,0.32021599,-0.17949187,0.395733,0.31067153,-0.13174875,0.387398,0.30511426,-0.10404746,0.382537,0.30122166,-0.084277078,0.379064,0.34109661,-0.18056765,0.394905,0.32923199,-0.13319978,0.384859,0.32317614,-0.10916053,0.379719,0.31821505,-0.088015013,0.375047,0.36709992,-0.18996341,0.394727,0.36153369,-0.14808957,0.385347,0.35895788,-0.12911684,0.381037,0.35813042,-0.11943781,0.377234
0.32426964,-0.23996624,0.40029,0.32090559,-0.19632298,0.39738,0.30507002,-0.23276509,0.400739,0.2747535,-0.21122826,0.396109,0.24636633,-0.19074869,0.38733,0.23255918,-0.17406085,0.383619,0.29359469,-0.16128061,0.396275,0.28526381,-0.11806174,0.388729,0.28091089,-0.096668968,0.384957,0.27692203,-0.0768252,0.381527,0.3181123,-0.16004281,0.394965,0.30797642,-0.11233472,0.386339,0.30215364,-0.084534042,0.381308,0.29803305,-0.064515284,0.377713,0.33864717,-0.16374027,0.3942,0.32595825,-0.11699357,0.385203,0.31947608,-0.093160964,0.3806,0.3137213,-0.071405709,0.376416,0.36294971,-0.17613271,0.393858,0.3577103,-0.13513314,0.386496,0.35529662,-0.11644038,0.383113,0.35413567,-0.10082437,0.380129
0.3253897,-0.23090541,0.400359,0.32293466,-0.17916897,0.399447,0.3077895,-0.21571643,0.401876,0.2771402,-0.19514947,0.397593,0.24981647,-0.17667657,0.39209,0.23780533,-0.16227282,0.392264,0.29628865,-0.1460918,0.400907,0.28848687,-0.10233138,0.393013,0.284572,-0.08057624,0.389065,0.2805677,-0.060752564,0.385477,0.3199915,-0.14349269,0.398685,0.31087924,-0.097217449,0.393615,0.30571781,-0.070322302,0.390845,0.302024,-0.051059142,0.388866,0.33989052,-0.14592947,0.396953,0.32868366,-0.10011642,0.39019,0.32296677,-0.076811015,0.38673,0.31794188,-0.055172244,0.383585,0.36352977,-0.15665079,0.395119,0.35972099,-0.11669808,0.390199,0.35796826,-0.098464266,0.387938,0.35699303,-0.082320783,0.385943
0.32843864,-0.21409871,0.403732,0.32321982,-0.16252321,0.403619,0.30862168,-0.19903965,0.405067,0.27831688,-0.17945073,0.401877,0.25031496,-0.16092217,0.395527,0.23635362,-0.14514682,0.392844,0.29551398,-0.13034685,0.405306,0.28791608,-0.08675895,0.39801,0.28403239,-0.064846996,0.394362,0.2804977,-0.044853677,0.391046,0.31946471,-0.12710239,0.403523,0.31090423,-0.080587524,0.397986,0.30591554,-0.053515026,0.394755,0.30231347,-0.033643702,0.392448,0.33967422,-0.12892778,0.402068,0.32858379,-0.083007118,0.395281,0.32291375,-0.059543968,0.391809,0.31779648,-0.037999452,0.388652,0.36386461,-0.13881815,0.400405,0.35956267,-0.098514095,0.394435,0.35758286,-0.080106365,0.391692,0.35643691,-0.063754564,0.389272
0.32687598,-0.20191306,0.404843,0.32319154,-0.15997127,0.405284,0.30785268,-0.19619769,0.406238,0.27707983,-0.17279457,0.404093,0.25130555,-0.15477987,0.400616,0.23760475,-0.13811244,0.397061,0.2950524,-0.12451044,0.407375,0.28833785,-0.081157955,0.400589,0.28498311,-0.059539654,0.397196,0.28195041,-0.042548842,0.394111,0.31903679,-0.12160124,0.405655,0.31119516,-0.075130806,0.40019,0.30661558,-0.048017693,0.397002,0.30369229,-0.031143371,0.394725,0.33918762,-0.12364237,0.404191,0.32898061,-0.077532361,0.397194,0.32376168,-0.053975289,0.393614,0.31911738,-0.035222382,0.390359,0.36318144,-0.1337112,0.402417,0.36065756,-0.094000859,0.396971,0.35953318,-0.07583777,0.394469,0.35914621,-0.062180429,0.392261
0.32941996,-0.19386979,0.411542,0.32585848,-0.14407174,0.412032,0.3096152,-0.1797377,0.413042,0.28052667,-0.16046706,0.411339,0.2537451,-0.1424913,0.406815,0.23986266,-0.12647044,0.403902,0.29981569,-0.11094893,0.41429,0.29089583,-0.068261014,0.407785,0.28645686,-0.047117412,0.404533,0.28174725,-0.028441123,0.401576,0.32377199,-0.10852239,0.412446,0.31708593,-0.062231006,0.407757,0.31317017,-0.035070573,0.405022,0.31037071,-0.015637863,0.403068,0.34377161,-0.11098103,0.410876,0.33436617,-0.065371855,0.405169,0.32967927,-0.04206768,0.4024,0.32546849,-0.020879253,0.399945,0.36736245,-0.12154739,0.408969,0.36411528,-0.082307637,0.404102,0.3629665,-0.063687021,0.401866,0.36218594,-0.047008283,0.399893
0.3284557,-0.17840412,0.412576,0.32671318,-0.13055719,0.41535,0.31026813,-0.17285687,0.414913,0.28039903,-0.14440096,0.412095,0.25702679,-0.12715156,0.411501,0.24632532,-0.11262779,0.412348,0.30270161,-0.1011492,0.42006,0.29575437,-0.058149089,0.415537,0.29225493,-0.036351705,0.413276,0.28883741,-0.01607212,0.411221,0.32588047,-0.097643734,0.417697,0.31816605,-0.051608947,0.412836,0.3134952,-0.024256446,0.410001,0.30980056,-0.0038417566,0.407976,0.34519186,-0.098840171,0.415457,0.33738456,-0.05331219,0.410727,0.33337972,-0.029899535,0.408307,0.32973347,-0.0085431581,0.406108,0.36798511,-0.10738796,0.412355,0.36620082,-0.068193199,0.40868,0.36652892,-0.05045507,0.408275,0.36681916,-0.034769974,0.407917
0.32875692,-0.16482899,0.413703,0.33045595,-0.12396613,0.41848,0.31092384,-0.16062419,0.416448,0.28188101,-0.13576022,0.413043,0.26166628,-0.12052347,0.41641,0.25291972,-0.10732151,0.419404,0.30955302,-0.10090767,0.424915,0.30141925,-0.058922057,0.422371,0.2981147,-0.037005195,0.421099,0.29478313,-0.016529248,0.419942,0.33190164,-0.096023708,0.422523,0.32346041,-0.051552028,0.419879,0.31903935,-0.024212576,0.418337,0.31567382,-0.0040816604,0.417235,0.35044442,-0.095391307,0.420047,0.34287933,-0.050861414,0.417452,0.33893755,-0.027778126,0.416125,0.33610162,-0.0076702829,0.414918,0.37228824,-0.1007276,0.416305,0.37267577,-0.067067108,0.41683,0.37193242,-0.048986086,0.417071,0.37320672,-0.034108849,0.417284
0.32999014,-0.15454884,0.416103,0.32995073,-0.1157825,0.423198,0.31143783,-0.1510034,0.418145,0.28537602,-0.12751124,0.419375,0.26680843,-0.1128545,0.424144,0.25995562,-0.10109101,0.42909,0.30684118,-0.092691578,0.430087,0.30419744,-0.050779862,0.429705,0.30284687,-0.029305353,0.429515,0.30050198,-0.0088473183,0.429341,0.33072154,-0.088475808,0.429203,0.32701246,-0.04282968,0.428852,0.32480104,-0.01556205,0.428648,0.32308312,0.0045492295,0.428501,0.35048704,-0.088348297,0.427723,0.34617674,-0.043362414,0.427425,0.34391753,-0.019755056,0.427272,0.34177884,0.002386349,0.427133,0.37366879,-0.094121277,0.424708,0.375857,-0.058183785,0.425434,0.37671502,-0.0402324,0.425767,0.37747762,-0.024221882,0.426061
0.33027237,-0.15295468,0.417325,0.33099089,-0.1166818,0.425947,0.31195093,-0.14973332,0.419853,0.28604692,-0.1284886,0.421532,0.26763115,-0.11469355,0.426953,0.26080585,-0.1032721,0.432297,0.30859737,-0.094382134,0.434379,0.30694434,-0.052741575,0.435449,0.3060869,-0.031372415,0.435985,0.30399552,-0.013564687,0.436472,0.33235832,-0.090016326,0.433243,0.32963654,-0.044821759,0.43448,0.32799562,-0.017794988,0.435202,0.32646173,0.0026913288,0.435717,0.35189562,-0.089696625,0.431395,0.34892319,-0.045171439,0.432654,0.34596413,-0.023495755,0.433299,0.3458573,-3.4463423e-06,0.433885,0.37458669,-0.095096069,0.427672,0.37774416,-0.05935373,0.429708,0.37908147,-0.04156343,0.430644,0.38026679,-0.025684218,0.43147
0.33082326,-0.15235082,0.418452,0.3315096,-0.11704233,0.427085,0.31233651,-0.14916121,0.42088,0.28631193,-0.12883299,0.422312,0.26791633,-0.11531146,0.427907,0.26108281,-0.10399727,0.433356,0.30888369,-0.094855662,0.435391,0.30723886,-0.053290778,0.436485,0.30638675,-0.031983877,0.437033,0.3047324,-0.013597568,0.43753,0.33274956,-0.090488899,0.43439,0.32998127,-0.045414942,0.435659,0.32831571,-0.018500239,0.4364,0.32668534,0.0020573668,0.436928,0.35239063,-0.090152934,0.432651,0.34945849,-0.045725552,0.433926,0.34698613,-0.023565164,0.434579,0.34644929,-0.00079877798,0.435172,0.37523729,-0.095508297,0.429053,0.37837456,-0.059744707,0.431136,0.37971305,-0.041990827,0.432093,0.38089943,-0.026152765,0.432938
0.33221024,-0.15326228,0.421844,0.33278388,-0.11870254,0.430242,0.31342015,-0.15000528,0.423992,0.28635715,-0.13107133,0.425764,0.26507825,-0.12162644,0.433253,0.26071932,-0.10767384,0.437206,0.30912133,-0.09740909,0.438042,0.30694947,-0.056032572,0.438948,0.30569148,-0.034706861,0.439402,0.30532651,-0.013517673,0.439814,0.33312706,-0.093115547,0.437349,0.33010051,-0.04823327,0.438393,0.32826703,-0.021429771,0.439002,0.32762592,0.00050609976,0.439437,0.35291385,-0.092750271,0.435888,0.34964584,-0.048541939,0.43694,0.3479264,-0.025413957,0.437478,0.34729546,-0.002267817,0.437967,0.37599957,-0.097930837,0.432655,0.37931927,-0.062212044,0.434665,0.3807855,-0.045035176,0.435588,0.38295233,-0.028138294,0.436402
0.33437821,-0.15808509,0.425041,0.3342213,-0.12082307,0.432745,0.31363898,-0.15120783,0.425341,0.2854946,-0.13668123,0.429352,0.26681538,-0.12477036,0.435544,0.25951021,-0.1142559,0.441163,0.30898844,-0.098798011,0.43771,0.3065492,-0.057733545,0.438259,0.30359761,-0.042846159,0.438534,0.30406688,-0.02058932,0.438783,0.33375271,-0.098276092,0.439265,0.32984981,-0.053295079,0.439767,0.32745421,-0.026256379,0.44006,0.32659066,-0.0026043895,0.440269,0.35485977,-0.098612044,0.439729,0.34839284,-0.054597706,0.439903,0.34283765,-0.034145064,0.439992,0.33878931,-0.012097769,0.440073,0.37962438,-0.10466017,0.438851,0.38184609,-0.069706202,0.440181,0.38166731,-0.05639115,0.440792,0.38286792,-0.037459364,0.441332
0.33482174,-0.15929541,0.426356,0.33341458,-0.1294703,0.433873,0.31516178,-0.15524591,0.427401,0.28840956,-0.14625025,0.432424,0.27254164,-0.1381465,0.441794,0.26325151,-0.12201364,0.445243,0.31166064,-0.10991593,0.439706,0.30850939,-0.069118379,0.439905,0.30506105,-0.045515961,0.440004,0.30198931,-0.025895285,0.440095,0.33632238,-0.10637167,0.440236,0.33085662,-0.061418126,0.440434,0.32757699,-0.034467205,0.440549,0.32827716,-0.0094811448,0.440631,0.35668748,-0.10658528,0.439875,0.35070998,-0.062420961,0.439989,0.34757879,-0.039296064,0.440047,0.34441502,-0.018405932,0.4401,0.38043716,-0.11247106,0.438078,0.3815016,-0.07839728,0.438633,0.38162124,-0.06092142,0.438888,0.38082176,-0.047988992,0.439113
0.34106133,-0.19016566,0.430784,0.33427041,-0.1584325,0.435336,0.32117366,-0.19060193,0.432121,0.29925368,-0.17624952,0.441114,0.27647588,-0.15773995,0.440262,0.26682645,-0.14344354,0.441986,0.30700088,-0.129103,0.439795,0.30375606,-0.087413202,0.436964,0.30160412,-0.065803175,0.435549,0.29962326,-0.045716878,0.434262,0.33137969,-0.12482063,0.439192,0.32556235,-0.07896107,0.436184,0.32208906,-0.051708224,0.434429,0.31959301,-0.032048038,0.433176,0.35191652,-0.12553223,0.438212,0.34732931,-0.080171319,0.43525,0.34496104,-0.056448371,0.433734,0.34279335,-0.034581469,0.432356,0.37631434,-0.133723,0.436242,0.37519362,-0.094884331,0.434554,0.37470815,-0.076831856,0.433779,0.37438744,-0.060450353,0.433095
0.34396357,-0.21130668,0.440995,0.33960044,-0.17743531,0.43924,0.32416889,-0.21392657,0.442935,0.29702023,-0.19232543,0.441459,0.27272276,-0.17289705,0.438369,0.26255466,-0.15764712,0.439056,0.31418339,-0.14310322,0.440741,0.30323187,-0.099449875,0.432411,0.29748702,-0.077539938,0.428246,0.29225086,-0.057519596,0.42446,0.33726942,-0.1409629,0.437753,0.32778259,-0.094537673,0.43256,0.32227332,-0.06745354,0.429565,0.31835918,-0.048104673,0.427455,0.35657283,-0.143763,0.435478,0.34200517,-0.097666914,0.426997,0.33455176,-0.074095868,0.422658,0.32774118,-0.052651921,0.418713,0.37943575,-0.15491469,0.43317,0.37407838,-0.11486567,0.428129,0.37164213,-0.096383398,0.425813,0.36953229,-0.079873076,0.423769
0.34690424,-0.22305318,0.440496,0.34079181,-0.1799196,0.438296,0.32786932,-0.21743051,0.441941,0.30184542,-0.20164272,0.43879,0.27571058,-0.18434026,0.435512,0.26097425,-0.16729967,0.430364,0.31199828,-0.15217449,0.438885,0.30133646,-0.10827199,0.429556,0.29521349,-0.086626499,0.424892,0.28959782,-0.066599115,0.420651,0.33504012,-0.1468281,0.436434,0.32551809,-0.09981857,0.429711,0.31982107,-0.072202789,0.425789,0.31656736,-0.050162018,0.424574,0.35548289,-0.14519751,0.434648,0.34049611,-0.098743668,0.425027,0.33284268,-0.075071001,0.420105,0.32582959,-0.054396905,0.41563,0.37968902,-0.15484571,0.432988,0.37177112,-0.11394882,0.424879,0.36815196,-0.095360031,0.421154,0.36578475,-0.084027879,0.417867
0.3385085,-0.24648073,0.435138,0.33732031,-0.20312331,0.433268,0.32222049,-0.23990593,0.438606,0.29604212,-0.21696462,0.436889,0.27426069,-0.19780271,0.436224,0.26506106,-0.18222125,0.436942,0.31547446,-0.16933718,0.436707,0.3051251,-0.12580689,0.428301,0.2999284,-0.10384082,0.424097,0.29442767,-0.083988527,0.420276,0.33631152,-0.16676711,0.431684,0.32776649,-0.12076089,0.427354,0.32277187,-0.093832877,0.424829,0.31919829,-0.074556084,0.423024,0.35371668,-0.16920413,0.427746,0.34231485,-0.1226334,0.419195,0.33642541,-0.098850342,0.414821,0.33206333,-0.077465367,0.412075,0.37427221,-0.17998853,0.423534,0.36889662,-0.13883889,0.416083,0.36634777,-0.12001391,0.412659,0.36384422,-0.10340934,0.409638
0.33881822,-0.24918305,0.433554,0.3362005,-0.2059379,0.43162,0.32219697,-0.24313261,0.437002,0.29569558,-0.22640425,0.435644,0.27141312,-0.20813076,0.433492,0.26244439,-0.19437219,0.436222,0.31172554,-0.1766226,0.434992,0.30355596,-0.13232287,0.425801,0.29947178,-0.11017893,0.421206,0.29395942,-0.086702947,0.417028,0.33297903,-0.17293396,0.429979,0.32430946,-0.12457085,0.419936,0.31898754,-0.096429141,0.414077,0.31499387,-0.076248145,0.409892,0.35091061,-0.17447896,0.426056,0.34067009,-0.12758621,0.417203,0.33575054,-0.10373968,0.413063,0.3318061,-0.079791828,0.410855,0.37260715,-0.18174491,0.421873,0.36920259,-0.14114057,0.415619,0.36760043,-0.12249973,0.412746,0.3660627,-0.10604535,0.41021
0.33954094,-0.25948615,0.431476,0.3356737,-0.22301993,0.427807,0.32178876,-0.253273,0.433957,0.29435495,-0.23866713,0.431252,0.27154412,-0.22050825,0.430509,0.26299405,-0.20651238,0.433345,0.30962726,-0.1885009,0.428877,0.30303088,-0.14555783,0.423543,0.2999932,-0.12425341,0.421236,0.29723223,-0.10489106,0.419139,0.33170932,-0.18559605,0.424695,0.32204819,-0.13761113,0.415759,0.31627719,-0.10969774,0.410546,0.31215307,-0.089723519,0.406823,0.35038732,-0.18787549,0.421639,0.33851523,-0.14079615,0.412022,0.33270517,-0.11685416,0.407419,0.3275823,-0.095137115,0.40343,0.37290889,-0.19862378,0.41878,0.37413216,-0.16039772,0.416082,0.374618,-0.14275038,0.414842,0.37507563,-0.12687006,0.413748
0.34457189,-0.27426864,0.433633,0.33972348,-0.23542298,0.428767,0.32589152,-0.26770586,0.435227,0.30038609,-0.25435171,0.434662,0.27405361,-0.23607522,0.430669,0.26158939,-0.22081039,0.429764,0.31079317,-0.20087135,0.427942,0.30155133,-0.1558677,0.416055,0.29667988,-0.13364606,0.410111,0.29224885,-0.11334262,0.404708,0.33347351,-0.1976408,0.424613,0.32304009,-0.14944985,0.414715,0.31695489,-0.12135668,0.408941,0.31255522,-0.10129183,0.404817,0.35296049,-0.19966417,0.422386,0.34104968,-0.15196383,0.410055,0.33495339,-0.12749913,0.403746,0.32940944,-0.10522088,0.39801,0.3768959,-0.21014373,0.4207,0.37440481,-0.1689034,0.41269,0.37323351,-0.15016243,0.409009,0.37195357,-0.13884418,0.405762
0.34738264,-0.28658259,0.434347,0.34124448,-0.24740758,0.428839,0.32920962,-0.28025505,0.436565,0.29936425,-0.26287445,0.432184,0.27566745,-0.24443319,0.430584,0.2645291,-0.22873218,0.430198,0.3143968,-0.21162103,0.428446,0.302132,-0.16704762,0.41653,0.29599696,-0.1447246,0.410573,0.29041653,-0.12440789,0.405156,0.33621973,-0.20885798,0.424136,0.32404866,-0.16016659,0.41195,0.31694838,-0.13176167,0.404841,0.31176514,-0.11154374,0.399764,0.3548617,-0.21133585,0.42117,0.34175946,-0.16376291,0.408605,0.3350512,-0.13935004,0.402176,0.3289496,-0.11711056,0.396331,0.37767026,-0.2225022,0.418747,0.37529141,-0.18111236,0.410673,0.37410025,-0.16247116,0.406963,0.37173933,-0.15452062,0.40369
0.34665703,-0.29009832,0.434266,0.3409589,-0.24936363,0.428794,0.32853984,-0.28335184,0.43639,0.29859783,-0.26429955,0.431896,0.2753884,-0.24595415,0.430783,0.26439123,-0.23015641,0.430386,0.31463628,-0.21323075,0.4283,0.30282526,-0.16906857,0.416398,0.29690996,-0.14685697,0.410448,0.29152528,-0.12658347,0.405038,0.33649124,-0.21083113,0.424122,0.32331353,-0.16208255,0.411338,0.31614825,-0.13390128,0.404545,0.31085918,-0.11388379,0.399694,0.35511263,-0.21360445,0.421261,0.34264532,-0.1659675,0.408724,0.3361314,-0.14185628,0.40231,0.33020174,-0.11978837,0.396479,0.37781652,-0.22512193,0.418953,0.37444723,-0.18537474,0.40798,0.37288336,-0.16614726,0.402938,0.36863038,-0.15333539,0.39849
0.34698841,-0.30084099,0.434714,0.34447437,-0.26545412,0.428989,0.32885883,-0.29644748,0.436509,0.30225163,-0.28056917,0.434269,0.27923732,-0.26237436,0.433436,0.26923881,-0.24725302,0.434355,0.31967975,-0.2277278,0.427907,0.30659152,-0.18474288,0.416186,0.30001333,-0.16296427,0.410325,0.2940123,-0.14298737,0.404997,0.34158395,-0.22673249,0.424096,0.32940796,-0.17739019,0.411263,0.32107889,-0.15080817,0.403777,0.31509222,-0.13145403,0.398429,0.36015119,-0.23069616,0.421563,0.34777986,-0.1829363,0.409049,0.34129644,-0.15880146,0.402646,0.335397,-0.13675161,0.396825,0.3825693,-0.24369999,0.419681,0.37709548,-0.20060366,0.408312,0.37454061,-0.18110466,0.403089,0.37069207,-0.17131169,0.39848
0.34749996,-0.31848053,0.434953,0.34582378,-0.27953148,0.429212,0.33167073,-0.31048855,0.438432,0.30602586,-0.29486784,0.438372,0.28415142,-0.27655082,0.438474,0.27732872,-0.26249441,0.442019,0.32537609,-0.24167439,0.430337,0.31142699,-0.19937101,0.419203,0.30440078,-0.1778825,0.413636,0.29798172,-0.15813766,0.408576,0.34480421,-0.24097343,0.424317,0.33119678,-0.19262251,0.412023,0.32295133,-0.16463048,0.404851,0.31687995,-0.14468542,0.399729,0.36113525,-0.24521415,0.419969,0.34854963,-0.19685251,0.408387,0.34128754,-0.17313862,0.402461,0.33410403,-0.1522252,0.397074,0.3805668,-0.25859545,0.415992,0.38008537,-0.21738715,0.409525,0.3790651,-0.19906044,0.406553,0.37711299,-0.18445831,0.403931
0.35310124,-0.33179656,0.438571,0.35168388,-0.28894307,0.432259,0.33563572,-0.32256612,0.440164,0.31044803,-0.30461462,0.438128,0.28764421,-0.28636125,0.437561,0.27919688,-0.27219861,0.440304,0.32561093,-0.25117182,0.430574,0.31099671,-0.20812404,0.418245,0.30365634,-0.18637257,0.412081,0.2969621,-0.16645643,0.406477,0.3477215,-0.24988477,0.426884,0.33189788,-0.20190965,0.413494,0.32244365,-0.17430743,0.405683,0.31566561,-0.15440849,0.400103,0.36657764,-0.25368358,0.424516,0.35273219,-0.2051725,0.411348,0.34532698,-0.18169963,0.404611,0.33842744,-0.16089122,0.398486,0.38954676,-0.2666119,0.422938,0.38174331,-0.22057923,0.410912,0.3783239,-0.20088843,0.405386,0.37439859,-0.19542739,0.400511
0.35434696,-0.33575231,0.439891,0.35192347,-0.29191579,0.433197,0.33671542,-0.32650218,0.44143,0.30720763,-0.30922646,0.437575,0.28438914,-0.29192919,0.437647,0.27757508,-0.27537262,0.440722,0.32638885,-0.25347665,0.431211,0.31155851,-0.21074055,0.41868,0.30410504,-0.18911677,0.412415,0.29730457,-0.1692986,0.406719,0.34837589,-0.25255899,0.427495,0.33244834,-0.20478323,0.413728,0.32303261,-0.17699349,0.405697,0.31593791,-0.15811007,0.39996,0.36710363,-0.25669521,0.425146,0.35269244,-0.21113529,0.411805,0.34498525,-0.18770705,0.40498,0.33811484,-0.16463471,0.398775,0.38957762,-0.27312142,0.423661,0.38276288,-0.2294492,0.411299,0.37959724,-0.20965322,0.405619,0.37471791,-0.198699,0.400607
0.35996139,-0.34953192,0.440524,0.35811307,-0.31029924,0.434524,0.34707788,-0.34976274,0.443033,0.31976197,-0.3267147,0.44118,0.29696469,-0.30792049,0.440221,0.28715922,-0.2923668,0.440939,0.33159004,-0.27414364,0.434227,0.31526276,-0.23181819,0.422205,0.30704906,-0.21041225,0.416194,0.29955131,-0.19080112,0.41073,0.35255749,-0.27128533,0.429414,0.33590939,-0.22395289,0.416239,0.32616439,-0.19611539,0.408554,0.31870286,-0.17729236,0.403065,0.37067331,-0.27377924,0.426087,0.35625363,-0.22614859,0.412929,0.34911148,-0.20189396,0.406473,0.34261486,-0.17980453,0.400603,0.39313636,-0.28518048,0.423341,0.38452108,-0.24169206,0.411543,0.38054902,-0.22191365,0.406122,0.37587632,-0.20575167,0.401339
0.36073715,-0.35347614,0.441138,0.35752389,-0.31230911,0.434932,0.3459038,-0.35133076,0.443691,0.31871438,-0.3278843,0.441552,0.29587946,-0.3085486,0.44017,0.28648859,-0.29286851,0.441017,0.33179728,-0.27553198,0.434567,0.31668492,-0.23191191,0.422551,0.30816154,-0.21210521,0.416543,0.30033885,-0.1937952,0.411081,0.35267546,-0.27322559,0.429643,0.3365671,-0.22553671,0.416502,0.32714646,-0.1975421,0.408836,0.31980099,-0.17882603,0.40336,0.37062669,-0.27618367,0.426246,0.35629948,-0.22778304,0.413236,0.34873642,-0.20364234,0.40658,0.34151339,-0.18280555,0.400529,0.39221594,-0.29101428,0.423455,0.38597064,-0.2450797,0.412677,0.38360377,-0.22824859,0.407726,0.37942219,-0.2111812,0.403356
0.36157803,-0.35457512,0.440635,0.35809259,-0.31232541,0.434667,0.34637452,-0.35111993,0.443206,0.31926946,-0.32819475,0.441469,0.29620081,-0.30909124,0.440049,0.286674,-0.29350054,0.440914,0.33248605,-0.2756393,0.43447,0.31745742,-0.23236314,0.422506,0.30928895,-0.21198052,0.416525,0.30180681,-0.19319123,0.411087,0.35336816,-0.2733771,0.429583,0.33781777,-0.22543015,0.416471,0.32873024,-0.19731995,0.408823,0.32170519,-0.17827221,0.40336,0.37132602,-0.27636041,0.426192,0.35715392,-0.22744741,0.413363,0.34932475,-0.20386162,0.4068,0.34178232,-0.18383632,0.400833,0.39342373,-0.28832503,0.423365,0.38698852,-0.24502619,0.412743,0.38382861,-0.22576547,0.407863,0.38051242,-0.21107253,0.403557
0.3619452,-0.35560865,0.440783,0.35814557,-0.31234802,0.43456,0.34642666,-0.35126304,0.443442,0.3189362,-0.32803557,0.441236,0.29581973,-0.30892488,0.43978,0.28671194,-0.29357868,0.441087,0.33282282,-0.27543127,0.434325,0.31782143,-0.23228399,0.42217,0.30981833,-0.2116002,0.416093,0.30248346,-0.19258073,0.410568,0.35353744,-0.27325158,0.429259,0.33794014,-0.22518671,0.415992,0.32882689,-0.19702914,0.408252,0.32186061,-0.17777135,0.402724,0.37133481,-0.276319,0.425747,0.35823927,-0.22774269,0.413904,0.35077436,-0.20471708,0.407844,0.34365654,-0.18472379,0.402336,0.39321811,-0.28840879,0.422826,0.38855409,-0.24638804,0.412945,0.38593843,-0.22758295,0.408405,0.38229987,-0.21149329,0.404399
0.36130917,-0.35589943,0.440322,0.35780681,-0.31223617,0.434295,0.34567163,-0.35095447,0.443149,0.31835169,-0.32756199,0.440933,0.29550388,-0.30835278,0.439636,0.28673416,-0.2930817,0.44119,0.33320467,-0.27527573,0.434398,0.31857884,-0.23228709,0.422344,0.31277282,-0.21107499,0.416316,0.30444675,-0.19139663,0.410837,0.35376511,-0.27324101,0.429162,0.33865479,-0.22526971,0.416068,0.33076266,-0.19741464,0.40843,0.32427779,-0.17782807,0.402974,0.37135231,-0.27641461,0.425488,0.35874693,-0.22797003,0.413773,0.35158292,-0.20485681,0.407779,0.3448071,-0.1845537,0.40233,0.39301748,-0.28962874,0.422345,0.39136799,-0.24697837,0.414036,0.39084032,-0.2293351,0.410219,0.38836082,-0.21288873,0.40685
0.36075114,-0.35619703,0.43993,0.35757828,-0.31225602,0.434157,0.3451429,-0.3509106,0.442982,0.31809663,-0.32711539,0.440704,0.29562121,-0.30768201,0.439534,0.28695446,-0.29220773,0.440948,0.33368685,-0.27538203,0.434708,0.32022985,-0.2325073,0.422705,0.31379102,-0.21123247,0.416704,0.3072694,-0.19175597,0.411248,0.35402097,-0.27335494,0.42924,0.34001728,-0.22576692,0.416222,0.33261942,-0.19733492,0.408629,0.3265985,-0.1773719,0.403204,0.37135424,-0.27652253,0.42535,0.35978732,-0.22866583,0.413822,0.35393545,-0.20541986,0.407925,0.34783355,-0.1836241,0.402563,0.39257987,-0.28957208,0.421908,0.39113836,-0.24784478,0.414286,0.39105007,-0.22933995,0.410784,0.39147138,-0.21365805,0.407694
0.36020725,-0.35629615,0.439483,0.35741308,-0.3122684,0.434056,0.34448109,-0.35059032,0.442498,0.31788888,-0.32677007,0.440505,0.29569753,-0.30719505,0.43945,0.28712017,-0.29159201,0.440788,0.33390414,-0.27535322,0.434764,0.3208659,-0.23263948,0.423038,0.31458142,-0.2114477,0.417175,0.30825691,-0.19202521,0.411845,0.35431772,-0.27352439,0.429434,0.34077027,-0.22607927,0.416722,0.33355065,-0.19780088,0.409307,0.32775375,-0.17783568,0.404011,0.37167647,-0.27683858,0.425619,0.35959472,-0.22852732,0.413169,0.35356657,-0.20490116,0.406799,0.34727839,-0.1830708,0.401009,0.39283368,-0.28993672,0.422203,0.39162707,-0.24816486,0.414475,0.39159375,-0.22961671,0.410925,0.39199202,-0.21374333,0.407792
0.35998152,-0.35656829,0.439376,0.35731862,-0.31230343,0.434016,0.3442316,-0.35060129,0.442452,0.31775488,-0.32653353,0.440386,0.29575815,-0.30683333,0.439392,0.28724055,-0.29112622,0.440662,0.33409315,-0.27535319,0.43484,0.32123477,-0.23267182,0.423163,0.31498475,-0.21150805,0.417325,0.3087464,-0.19209934,0.412017,0.35442848,-0.27356513,0.429444,0.34107029,-0.22614446,0.416788,0.33388351,-0.19794063,0.409405,0.32818637,-0.17796147,0.404132,0.37169748,-0.27691121,0.425568,0.35985896,-0.22868372,0.413164,0.35398787,-0.20494246,0.406817,0.34783728,-0.1831923,0.401048,0.39269054,-0.28995779,0.422065,0.39185356,-0.24831584,0.41448,0.39193341,-0.22978786,0.410995,0.39237077,-0.21383075,0.40792
0.3618679,-0.35905893,0.440293,0.35842726,-0.31295959,0.434816,0.34537154,-0.3511716,0.443326,0.32140146,-0.32845522,0.442454,0.29809556,-0.3070608,0.440534,0.2880544,-0.29126796,0.44088,0.33580619,-0.27589444,0.435511,0.32267816,-0.23328338,0.423883,0.3159254,-0.21194374,0.418069,0.30961746,-0.19259371,0.412783,0.35615634,-0.27441107,0.43014,0.34265929,-0.22662655,0.417534,0.33474866,-0.19858687,0.41018,0.32900418,-0.17858926,0.404927,0.37339925,-0.27801181,0.426298,0.36181955,-0.22979885,0.413825,0.35556089,-0.20579356,0.407443,0.34947314,-0.18464865,0.401642,0.3941421,-0.29101025,0.422855,0.39344678,-0.24932428,0.414867,0.39287762,-0.23073611,0.411197,0.39154264,-0.21412932,0.407959
0.36291252,-0.35962959,0.44115,0.35940489,-0.31356366,0.435566,0.34633841,-0.351684,0.444096,0.32281354,-0.3291021,0.44358,0.29918567,-0.30760297,0.441242,0.28882454,-0.29150201,0.441237,0.33661727,-0.27642689,0.436075,0.32337917,-0.23366923,0.42441,0.31659349,-0.2122456,0.418578,0.31020865,-0.19292588,0.413275,0.35708104,-0.27501208,0.430792,0.34340805,-0.22713531,0.418137,0.3353923,-0.1990684,0.410755,0.32958388,-0.17904167,0.405482,0.37442221,-0.278666,0.427031,0.36262584,-0.23046021,0.414481,0.35627796,-0.20636399,0.40806,0.35008506,-0.18530474,0.402223,0.39534096,-0.29168137,0.423699,0.39403735,-0.24989202,0.415337,0.3932147,-0.2312218,0.411494,0.3917642,-0.21452582,0.408104
0.36366214,-0.36040486,0.441965,0.36033543,-0.31436535,0.43625,0.34710869,-0.3523108,0.444862,0.32445904,-0.33000074,0.444831,0.30041818,-0.30800221,0.441966,0.28970897,-0.29165127,0.441626,0.33732748,-0.27690606,0.436616,0.32395797,-0.23399361,0.424864,0.3171228,-0.21248699,0.418987,0.31065877,-0.19317824,0.413645,0.35785266,-0.27551978,0.431362,0.34399287,-0.22753264,0.418609,0.33586656,-0.19942722,0.41117,0.32998776,-0.17936793,0.405856,0.37525041,-0.27919895,0.427638,0.36324118,-0.23096308,0.414985,0.35680635,-0.20678633,0.408512,0.3505164,-0.18578232,0.402627,0.39627638,-0.29221158,0.424371,0.39450832,-0.2503357,0.415719,0.39349258,-0.23160085,0.411743,0.39195397,-0.21484366,0.408235
0.36470709,-0.3607904,0.442667,0.3613577,-0.31474224,0.436821,0.34814629,-0.35265813,0.445539,0.32510946,-0.33026502,0.44535,0.3010426,-0.30831889,0.442349,0.29075298,-0.29172566,0.442038,0.33791617,-0.27730615,0.437075,0.3244224,-0.23425412,0.425229,0.3175399,-0.21267591,0.419306,0.31100372,-0.19337072,0.413921,0.35847269,-0.275928,0.431821,0.34444378,-0.22783929,0.418966,0.33621731,-0.19969725,0.411467,0.33027487,-0.17960925,0.406111,0.37590203,-0.27961714,0.428111,0.36370059,-0.23134205,0.415355,0.3571871,-0.2070973,0.408829,0.35081249,-0.18613293,0.402896,0.39699575,-0.29261793,0.424885,0.39486031,-0.25067172,0.416001,0.39369281,-0.23188634,0.41192,0.39208484,-0.21508639,0.408318
