sluyters/QuantumLeap/backend/src/datasets/gesture/HandGestureDataset_SHREC2017_csv/Gesture9/finger_2/subject_27_essai_2_skeletons_world.csv
Wrist_x,Wrist_y,Wrist_z,Palm_x,Palm_y,Palm_z,thumb_base_x,thumb_base_y,thumb_base_z,thumb_first_joint_x,thumb_first_joint_y,thumb_first_joint_z,thumb_second_joint_x,thumb_second_joint_y,thumb_second_joint_z,thumb_tip_x,thumb_tip_y,thumb_tip_z,index_base_x,index_base_y,index_base_z,index_first_joint_x,index_first_joint_y,index_first_joint_z,index_second_joint_x,index_second_joint_y,index_second_joint_z,index_tip_x,index_tip_y,index_tip_z,middle_base_x,middle_base_y,middle_base_z,middle_first_joint_x,middle_first_joint_y,middle_first_joint_z,middle_second_joint_x,middle_second_joint_y,middle_second_joint_z,middle_tip_x,middle_tip_y,middle_tip_z,ring_base_x,ring_base_y,ring_base_z,ring_first_joint_x,ring_first_joint_y,ring_first_joint_z,ring_second_joint_x,ring_second_joint_y,ring_second_joint_z,ring_tip_x,ring_tip_y,ring_tip_z,pinky_base_x,pinky_base_y,pinky_base_z,pinky_first_joint_x,pinky_first_joint_y,pinky_first_joint_z,pinky_second_joint_x,pinky_second_joint_y,pinky_second_joint_z,pinky_tip_x,pinky_tip_y,pinky_tip_z,
0.29854063,-0.370120048,0.443289,0.297547946,-0.321728851,0.406714,0.285808162,-0.336405755,0.429409,0.25163743,-0.326136587,0.39795,0.228736628,-0.311087847,0.372169,0.221337058,-0.294833465,0.355028,0.280179167,-0.254639916,0.363135,0.223236812,-0.247642576,0.324,0.218173942,-0.254350943,0.33188,0.229569132,-0.251432832,0.339044,0.29676475,-0.276900992,0.367584,0.236835352,-0.268726197,0.324061,0.220998335,-0.293311897,0.334117,0.216340823,-0.316984091,0.353016,0.310605125,-0.298758644,0.373936,0.247895365,-0.289798002,0.330774,0.233505076,-0.310837897,0.33954,0.226640265,-0.340375498,0.36047,0.327238564,-0.331570749,0.386647,0.277401604,-0.317667564,0.350281,0.259781375,-0.314208012,0.339339,0.246595044,-0.319470237,0.344778
0.297808283,-0.370219361,0.444284,0.297565211,-0.322437846,0.407412,0.284637798,-0.336628172,0.429948,0.251693193,-0.326136572,0.397991,0.228559149,-0.311220149,0.371659,0.220770156,-0.29479667,0.353877,0.279694634,-0.254703626,0.363057,0.222463108,-0.247588442,0.323516,0.217037404,-0.253993852,0.33095,0.228101621,-0.250816208,0.337709,0.29670803,-0.277262339,0.367963,0.236376991,-0.269086249,0.324204,0.220052128,-0.29306083,0.333702,0.215667092,-0.316778641,0.352512,0.310944578,-0.299406375,0.374714,0.247950072,-0.290334367,0.331174,0.23316845,-0.310936629,0.339446,0.22625879,-0.340381097,0.360332,0.328108286,-0.332619009,0.387942,0.277926137,-0.318760336,0.351328,0.255749913,-0.310254875,0.334505,0.235917539,-0.306313946,0.330298
0.295319351,-0.368715283,0.442614,0.29486748,-0.321290498,0.405328,0.281652317,-0.335317323,0.427868,0.247385254,-0.327303328,0.395512,0.218434816,-0.314539709,0.368138,0.206881679,-0.297988952,0.34872,0.269063122,-0.252321288,0.360169,0.217357907,-0.246823708,0.320219,0.21194139,-0.253206386,0.327084,0.223786821,-0.248447605,0.333325,0.289032461,-0.273313105,0.365436,0.231295579,-0.268028321,0.321379,0.215015803,-0.291937871,0.330156,0.212486405,-0.317797394,0.348848,0.307494128,-0.296652104,0.372513,0.245870316,-0.288141506,0.328573,0.232896947,-0.308058593,0.336212,0.230565812,-0.342945546,0.357006,0.32873235,-0.329322509,0.386189,0.276040337,-0.316870659,0.349312,0.252994771,-0.3104423,0.332368,0.240113128,-0.320201496,0.327735
0.29420293,-0.368210485,0.442572,0.294379291,-0.321562088,0.405237,0.280315669,-0.335194704,0.427758,0.246588595,-0.328142056,0.395334,0.218384975,-0.314467939,0.368054,0.206863288,-0.297962461,0.348689,0.268907736,-0.252175571,0.359961,0.216408041,-0.247031007,0.319953,0.211214465,-0.253502701,0.326738,0.22302739,-0.248594269,0.332906,0.28892015,-0.273206901,0.365294,0.230492407,-0.268166933,0.321203,0.214480038,-0.292525202,0.32988,0.211810296,-0.318702284,0.348552,0.30706855,-0.296044953,0.372429,0.245679093,-0.288079911,0.328436,0.232700051,-0.308297031,0.335986,0.229428374,-0.343531597,0.356767,0.328536276,-0.329043786,0.386182,0.275812625,-0.316792078,0.34927,0.252648692,-0.31055705,0.332311,0.240028141,-0.320088162,0.327619
0.293204579,-0.367703254,0.442296,0.294617795,-0.321178751,0.404878,0.279146924,-0.335194212,0.427633,0.24842328,-0.326409454,0.395403,0.22385863,-0.311267799,0.368751,0.213628895,-0.295832223,0.349831,0.269452484,-0.25136936,0.359726,0.217760702,-0.24610207,0.319777,0.212552039,-0.252423663,0.326561,0.223192146,-0.24876663,0.332728,0.289463647,-0.272116606,0.364846,0.231904906,-0.267097209,0.320704,0.215469086,-0.29217852,0.329373,0.211904372,-0.319053997,0.348061,0.308930447,-0.293050297,0.371811,0.24704553,-0.286056653,0.327844,0.234719221,-0.308740285,0.335391,0.229492096,-0.343495507,0.356159,0.329170956,-0.32657167,0.385373,0.275537867,-0.315871573,0.348469,0.252876726,-0.308493165,0.331514,0.240517473,-0.319046849,0.326821
0.279591768,-0.353279233,0.423706,0.27785915,-0.313589773,0.389315,0.267295054,-0.323502902,0.411613,0.228346104,-0.314521673,0.382118,0.203917485,-0.290752697,0.358618,0.195976046,-0.266963634,0.341885,0.267620328,-0.239076059,0.349512,0.216596402,-0.229286984,0.312526,0.211970779,-0.245423348,0.322592,0.221451485,-0.249761469,0.331742,0.282567667,-0.260820384,0.35252,0.227085365,-0.249653286,0.310796,0.214886366,-0.27927472,0.323614,0.210959229,-0.310666114,0.34273,0.297093302,-0.281758748,0.357526,0.240413323,-0.271762079,0.316545,0.229665747,-0.298473804,0.327739,0.226569533,-0.334965173,0.348759,0.312907568,-0.315687273,0.368326,0.261182655,-0.302086374,0.333505,0.237652884,-0.295665638,0.317507,0.22600088,-0.307333818,0.315405
0.263643205,-0.349369638,0.409723,0.270592705,-0.304541739,0.380513,0.252457676,-0.318740669,0.398996,0.223608466,-0.299506019,0.371036,0.204452749,-0.276074126,0.348647,0.200271997,-0.253279582,0.333998,0.263848629,-0.231287933,0.346148,0.217769267,-0.222354495,0.31272,0.214335381,-0.24207527,0.326029,0.224771748,-0.253152656,0.338129,0.2802017,-0.251961463,0.349262,0.229578123,-0.243096123,0.311896,0.220264197,-0.276606816,0.328896,0.215867678,-0.308263332,0.347749,0.293468941,-0.273016904,0.353974,0.24279209,-0.264752291,0.317061,0.234810118,-0.295102566,0.331886,0.230233437,-0.331571488,0.352713,0.308537996,-0.305963949,0.363695,0.261709526,-0.293910722,0.332008,0.24018835,-0.28837799,0.31745,0.230852198,-0.303200066,0.318194
0.252977076,-0.343658736,0.401033,0.266448346,-0.295298431,0.375225,0.247542491,-0.312500015,0.39268,0.22204891,-0.288591106,0.367962,0.203239366,-0.264032484,0.347695,0.199510617,-0.240910358,0.334686,0.264555075,-0.224293867,0.346241,0.220021489,-0.215597665,0.316403,0.218012939,-0.237555078,0.331521,0.229259009,-0.252478887,0.345265,0.279617224,-0.243478578,0.347613,0.230372457,-0.234588795,0.313568,0.222231208,-0.269283376,0.332846,0.217071071,-0.299977166,0.351212,0.29166195,-0.263163802,0.350642,0.242786142,-0.255320506,0.317472,0.235917902,-0.286828375,0.334305,0.230374709,-0.322058757,0.354423,0.304973633,-0.29418561,0.357878,0.25951869,-0.282384933,0.329051,0.238513619,-0.277031341,0.315806,0.230315906,-0.293313656,0.318393
0.248751901,-0.334464645,0.394427,0.264590121,-0.279225174,0.371769,0.240681612,-0.302628233,0.387018,0.219498101,-0.274468223,0.363735,0.200622409,-0.249484213,0.343218,0.197045691,-0.226650736,0.330551,0.264547434,-0.214534024,0.346231,0.22175369,-0.207342593,0.318894,0.220477677,-0.230106903,0.335269,0.232819148,-0.242375361,0.350154,0.279549655,-0.233475293,0.347529,0.232477318,-0.226563154,0.316433,0.225227042,-0.261846142,0.337333,0.219498822,-0.291503927,0.35514,0.2913467,-0.252747865,0.350263,0.244652893,-0.246887254,0.319913,0.238633422,-0.278928593,0.338153,0.232501507,-0.312971667,0.357695,0.30397574,-0.282815501,0.356707,0.260364953,-0.272750991,0.330124,0.240102673,-0.268244657,0.31791,0.232818042,-0.285518889,0.321852
0.247845826,-0.328232452,0.393156,0.264287023,-0.275925547,0.370752,0.241159206,-0.295671189,0.386405,0.219864639,-0.272050199,0.364047,0.201549129,-0.244638983,0.345639,0.197674089,-0.225036352,0.332742,0.263909402,-0.208830207,0.346204,0.221285338,-0.201395109,0.319511,0.22058221,-0.224848671,0.336008,0.233389311,-0.240401704,0.351005,0.27877904,-0.226713717,0.346782,0.23168699,-0.219274166,0.316048,0.22491067,-0.254468486,0.337083,0.2193487,-0.28758215,0.354803,0.290546821,-0.245161378,0.348907,0.244017022,-0.238924703,0.319148,0.238441621,-0.270903132,0.337519,0.232239116,-0.308459246,0.356874,0.303296843,-0.274358733,0.354587,0.259676089,-0.264103297,0.328441,0.239394839,-0.259502482,0.316427,0.232185081,-0.280611676,0.320549
0.244206137,-0.311480168,0.386796,0.260942383,-0.258412185,0.366668,0.237658534,-0.283393036,0.381189,0.217760237,-0.251942984,0.360579,0.201328615,-0.224335696,0.342839,0.198865664,-0.200930652,0.331595,0.262855361,-0.196199231,0.345176,0.223333909,-0.1867891,0.320691,0.222493802,-0.211281557,0.337969,0.234948773,-0.226415765,0.353676,0.277275141,-0.213004459,0.345134,0.233659215,-0.203416364,0.316686,0.227660678,-0.237434199,0.338712,0.221671359,-0.265169281,0.355916,0.28854072,-0.230463883,0.346581,0.24568315,-0.222216993,0.319204,0.240907079,-0.25325572,0.338445,0.234479233,-0.285087718,0.357186,0.300441623,-0.258339741,0.351133,0.262503446,-0.241694747,0.326869,0.244724277,-0.234070951,0.31572,0.238653431,-0.249836155,0.320798
0.240291402,-0.291055675,0.380146,0.259650146,-0.240260685,0.362096,0.234599986,-0.264322063,0.376066,0.217350374,-0.23263288,0.357784,0.201398199,-0.203253095,0.341885,0.197940978,-0.180808628,0.33034,0.262989048,-0.180745009,0.343984,0.224740635,-0.1698334,0.321927,0.224643545,-0.195127286,0.339807,0.23787455,-0.212092302,0.356062,0.276716698,-0.195783128,0.342783,0.234260302,-0.184291153,0.316572,0.228880602,-0.216635401,0.339343,0.22249139,-0.242368237,0.355972,0.287384495,-0.211707199,0.343124,0.245965745,-0.201696802,0.318273,0.241781782,-0.23128036,0.338179,0.234822854,-0.260768145,0.356166,0.298510339,-0.237622317,0.346065,0.261513518,-0.219588851,0.323783,0.244106933,-0.211240841,0.313546,0.238703627,-0.226136156,0.319485
0.248000213,-0.279685868,0.386245,0.268038089,-0.226141264,0.36503,0.245509014,-0.244197586,0.382614,0.234277048,-0.221144826,0.364806,0.234378041,-0.185085345,0.364875,0.243454548,-0.163333284,0.367263,0.271361814,-0.166651497,0.345171,0.234668581,-0.156453074,0.319609,0.239925149,-0.184318769,0.336233,0.255811172,-0.198414393,0.351347,0.283577965,-0.181377958,0.342332,0.240204662,-0.168695008,0.313433,0.234391466,-0.196664886,0.334668,0.228623359,-0.22086749,0.351787,0.292974378,-0.196874539,0.341558,0.250181198,-0.184731485,0.314729,0.247849206,-0.202250148,0.333334,0.242324589,-0.221327968,0.3516,0.302718133,-0.222044241,0.343616,0.267042528,-0.201334361,0.319671,0.250349189,-0.191710511,0.308669,0.244650538,-0.202941186,0.313451
0.267215273,-0.276053886,0.396801,0.275658971,-0.226850276,0.373011,0.260627891,-0.251976281,0.395714,0.257797846,-0.224535361,0.381863,0.251988325,-0.192067473,0.386163,0.256252976,-0.172452666,0.391213,0.265811902,-0.161652379,0.354401,0.218369349,-0.154535228,0.324325,0.225579086,-0.181771823,0.338678,0.244124557,-0.195379004,0.351726,0.277189368,-0.170179868,0.347558,0.233015706,-0.144813916,0.317371,0.226258257,-0.170059452,0.335924,0.221450128,-0.193044915,0.352667,0.286895723,-0.180964938,0.34368,0.243072742,-0.161148882,0.31704,0.238453835,-0.17531681,0.332481,0.233447516,-0.192145817,0.350225,0.299027658,-0.201229616,0.342397,0.260431528,-0.172661454,0.318514,0.240195035,-0.167879747,0.30754,0.232069624,-0.176169567,0.31103
0.285515166,-0.257121687,0.403431,0.285156321,-0.206558081,0.379514,0.276618659,-0.23467222,0.402593,0.229858492,-0.218751539,0.389155,0.217557433,-0.191688851,0.393562,0.195539389,-0.175933778,0.387127,0.273358169,-0.145768783,0.361117,0.223661025,-0.139296568,0.331277,0.234100412,-0.166011215,0.345443,0.255004778,-0.177610278,0.358321,0.283885536,-0.154350362,0.353925,0.228269444,-0.146952472,0.323738,0.233963839,-0.177593702,0.342036,0.256617278,-0.190458071,0.359567,0.292983527,-0.165201012,0.349769,0.239013238,-0.15873711,0.323252,0.241511909,-0.183137202,0.339385,0.265500874,-0.196070165,0.357854,0.304501776,-0.1855463,0.348173,0.266353552,-0.155359673,0.324385,0.244961503,-0.150060064,0.313456,0.235177422,-0.156771757,0.316844
0.282136726,-0.246844768,0.39652,0.282970554,-0.193207941,0.375119,0.279938775,-0.227988869,0.401399,0.241387546,-0.216198683,0.397849,0.230937961,-0.190502617,0.406831,0.205869704,-0.181466237,0.403806,0.282531165,-0.13700208,0.365558,0.225446475,-0.131447625,0.339263,0.234052235,-0.156705776,0.35057,0.256949059,-0.168715766,0.360849,0.281926046,-0.142856308,0.352222,0.219856444,-0.13726286,0.326929,0.230488343,-0.167875269,0.341629,0.256374778,-0.180345805,0.355903,0.2816547,-0.151302564,0.342825,0.222492125,-0.1471233,0.323145,0.230635381,-0.172591403,0.33625,0.259423344,-0.188732693,0.350786,0.281649666,-0.168395426,0.334628,0.231531586,-0.149418431,0.316363,0.208855502,-0.140798172,0.307971,0.195580176,-0.137853621,0.310955
0.287255262,-0.246359959,0.402124,0.281947403,-0.189483177,0.384067,0.291072256,-0.225174411,0.410015,0.259007439,-0.203950672,0.411934,0.230869608,-0.184452118,0.413203,0.206774642,-0.180655262,0.405082,0.279465497,-0.137202735,0.380628,0.230491228,-0.140503903,0.370272,0.215463069,-0.148336741,0.381147,0.213977809,-0.169037188,0.391033,0.273791131,-0.137775819,0.364749,0.213856566,-0.137981273,0.343944,0.194407296,-0.148381721,0.357285,0.193935161,-0.170753123,0.368998,0.269789538,-0.141911518,0.353014,0.221028969,-0.110315739,0.33851,0.205154707,-0.123770484,0.348841,0.210402262,-0.150955012,0.360574,0.266231208,-0.153984239,0.341558,0.255948636,-0.125066812,0.316358,0.232558135,-0.116988982,0.304779,0.216541144,-0.119665663,0.305733
0.344765613,-0.225230655,0.432056,0.317970157,-0.174222661,0.403551,0.330393231,-0.208831574,0.433567,0.286299462,-0.19242152,0.425027,0.248055528,-0.179346878,0.417547,0.222197707,-0.16440399,0.407257,0.281613379,-0.119218826,0.384703,0.234257213,-0.12876295,0.362715,0.242844566,-0.15059238,0.371788,0.26219758,-0.155788839,0.380036,0.289447499,-0.120947684,0.373054,0.232727131,-0.106427771,0.34082,0.199553271,-0.0979466948,0.322017,0.187598864,-0.113294048,0.321381,0.298065467,-0.126075836,0.365568,0.248154387,-0.143061533,0.338728,0.267856459,-0.164585943,0.348696,0.295005309,-0.166262395,0.362539,0.312477761,-0.139404493,0.360648,0.269740379,-0.121655332,0.336751,0.249192623,-0.1146857,0.325772,0.229869497,-0.111266109,0.316085
0.337273172,-0.235575766,0.461421,0.310996098,-0.194303652,0.424588,0.310972642,-0.220873502,0.451728,0.265343316,-0.195643526,0.426488,0.232642041,-0.165402437,0.411622,0.210273876,-0.146337475,0.394522,0.259740114,-0.146416009,0.385955,0.226919565,-0.100747079,0.348022,0.208190611,-0.0988279453,0.329055,0.191181692,-0.0970739915,0.311813,0.282880042,-0.150241699,0.385181,0.247202505,-0.112125892,0.342106,0.226389223,-0.0898841541,0.316979,0.209782806,-0.0936650096,0.29903,0.303850113,-0.156415911,0.387255,0.276245873,-0.115247576,0.344996,0.262111917,-0.094235312,0.323376,0.244908427,-0.0964142873,0.30372,0.332559038,-0.169560893,0.394903,0.312026819,-0.139057689,0.359291,0.302595108,-0.125039978,0.342929,0.289925435,-0.127809397,0.328492
0.337320176,-0.234277238,0.463222,0.311999004,-0.19281505,0.427252,0.311753763,-0.219165617,0.454227,0.266710683,-0.194766094,0.429344,0.233973221,-0.164209007,0.414227,0.213875685,-0.140797883,0.400361,0.262038075,-0.140434148,0.390103,0.229756943,-0.0946308319,0.352508,0.210009509,-0.0913132971,0.33371,0.192064203,-0.0882958067,0.316621,0.28430831,-0.145366857,0.388769,0.249453989,-0.10467523,0.346489,0.2291284,-0.0809798811,0.321825,0.211591851,-0.0834817981,0.304209,0.304483054,-0.152503805,0.390319,0.278407042,-0.108172079,0.34886,0.265027978,-0.0856590927,0.327648,0.247277434,-0.0856215894,0.308364,0.333290536,-0.168718925,0.397221,0.31427018,-0.133385045,0.362198,0.306057274,-0.11803698,0.346107,0.293503389,-0.119166507,0.331909
0.338474304,-0.233829472,0.465825,0.313748298,-0.189788121,0.431387,0.313479186,-0.218447648,0.457441,0.268476126,-0.192424615,0.433167,0.236667663,-0.161893478,0.419053,0.21638488,-0.140211185,0.404687,0.266339868,-0.136673367,0.396096,0.233683842,-0.0910991217,0.360001,0.21359191,-0.0880127953,0.341953,0.195311014,-0.0852098965,0.325546,0.288198016,-0.141991028,0.394541,0.254385989,-0.099277147,0.353562,0.234670076,-0.0744145549,0.329658,0.216984021,-0.0758273675,0.312583,0.307954289,-0.149514175,0.395796,0.282872933,-0.10360072,0.355558,0.269999441,-0.0803126775,0.334971,0.252237853,-0.0790088023,0.316255,0.335526144,-0.166716587,0.402131,0.317832292,-0.128686123,0.368075,0.30995896,-0.112312515,0.352427,0.297609643,-0.112208115,0.338621
0.340538375,-0.23554588,0.468692,0.315673836,-0.191164427,0.43422,0.315724018,-0.220217095,0.460785,0.274462662,-0.187445328,0.440051,0.239256335,-0.160470697,0.422728,0.21941825,-0.138205233,0.408349,0.267750956,-0.138936601,0.399492,0.234890126,-0.0927263293,0.3632,0.215088477,-0.0888046868,0.345054,0.197060533,-0.0852420135,0.328558,0.289407622,-0.143330149,0.39734,0.255283194,-0.100042726,0.3562,0.235389985,-0.074881569,0.332201,0.218036413,-0.0760840594,0.315059,0.309018763,-0.150158696,0.398107,0.278864172,-0.107770662,0.356582,0.263800758,-0.0862725935,0.335337,0.249378454,-0.0799267516,0.316023,0.335846803,-0.164445763,0.403863,0.31818649,-0.129771859,0.369753,0.310049305,-0.113885543,0.354081,0.297602857,-0.114448684,0.340253
0.341270636,-0.235599006,0.470173,0.316623116,-0.190940229,0.436019,0.316192151,-0.220006204,0.461923,0.273967617,-0.187531723,0.441049,0.240128028,-0.15910519,0.425117,0.2198066,-0.137877923,0.410001,0.268384856,-0.138436855,0.401102,0.235443347,-0.092326827,0.364965,0.215430659,-0.0874585728,0.346897,0.197986616,-0.0841823447,0.330471,0.29047503,-0.142788079,0.399479,0.256311196,-0.099809991,0.358558,0.236390714,-0.0747953052,0.334687,0.219263941,-0.0762023957,0.317637,0.309852705,-0.148760242,0.400658,0.284206883,-0.103763142,0.359798,0.270682639,-0.0808066737,0.338892,0.253419428,-0.0776545649,0.319888,0.337292328,-0.162752889,0.406861,0.31739706,-0.126228999,0.372933,0.308506292,-0.110454519,0.357344,0.299021571,-0.114140988,0.34359
0.34222749,-0.235845791,0.471876,0.317546473,-0.190891292,0.437674,0.317213238,-0.220229491,0.463782,0.274043746,-0.187769209,0.442078,0.240399114,-0.159053971,0.4265,0.220194643,-0.137645955,0.411469,0.269346047,-0.137350309,0.402912,0.235482188,-0.0920018327,0.366763,0.216122322,-0.0875898127,0.348689,0.198695522,-0.0844138339,0.332258,0.290503391,-0.140377448,0.401083,0.256777001,-0.0999681456,0.360136,0.235745411,-0.0749463763,0.33625,0.219531736,-0.076871972,0.319188,0.310703471,-0.148354743,0.402095,0.282488202,-0.102906726,0.360755,0.268203585,-0.0805846386,0.339605,0.251903636,-0.0792158599,0.320377,0.338001184,-0.162338046,0.408106,0.317848779,-0.126728778,0.374115,0.308788267,-0.11108097,0.358497,0.29881446,-0.114041048,0.344716
0.342136413,-0.23565932,0.47288,0.31690572,-0.188875899,0.438937,0.317245789,-0.219972119,0.464904,0.272907176,-0.187206398,0.443539,0.239115957,-0.158750406,0.428055,0.219690574,-0.136356766,0.414248,0.26870763,-0.13641821,0.404507,0.235236141,-0.0911240534,0.368708,0.21578554,-0.0864908873,0.350809,0.198055186,-0.0822773674,0.334536,0.290570187,-0.140499297,0.402622,0.255521997,-0.0990272801,0.361988,0.235075441,-0.0748262535,0.338285,0.218997627,-0.0770642069,0.321355,0.310348667,-0.147134542,0.403568,0.282600377,-0.102732011,0.362456,0.268383179,-0.080169867,0.341422,0.250901671,-0.0776250379,0.3223,0.337368995,-0.161322463,0.409466,0.317883248,-0.126906569,0.375614,0.308923716,-0.111109451,0.36006,0.296267262,-0.112013754,0.346336
0.343301333,-0.236084091,0.474333,0.318005191,-0.19004566,0.440462,0.319028849,-0.220709053,0.467368,0.275346121,-0.188987329,0.446303,0.237633256,-0.162657951,0.430522,0.217993435,-0.140083622,0.417395,0.26750221,-0.135833242,0.407325,0.233789293,-0.0936690994,0.371355,0.213646929,-0.0867459887,0.35337,0.195273413,-0.0804354084,0.33702,0.287909806,-0.139746742,0.404225,0.252631441,-0.0989585945,0.363432,0.232048803,-0.0751476198,0.339637,0.215678125,-0.0778378048,0.32264,0.306671808,-0.14628435,0.404167,0.280852436,-0.102155371,0.362718,0.267638267,-0.0799406963,0.341512,0.24801014,-0.0784784023,0.322233,0.332795211,-0.160443121,0.408856,0.315481942,-0.125872153,0.375016,0.306723238,-0.109955372,0.359468,0.29468627,-0.110875872,0.345749
0.342814931,-0.235027059,0.473555,0.31661476,-0.188687312,0.439694,0.318638656,-0.219908264,0.466825,0.275550807,-0.188926782,0.446771,0.239162701,-0.161433998,0.429837,0.220061987,-0.139468423,0.415439,0.262707253,-0.139857139,0.406853,0.233818413,-0.0927402942,0.370327,0.21374334,-0.0872663533,0.352063,0.196470331,-0.0822974794,0.335461,0.28446967,-0.14078549,0.403468,0.250915724,-0.0993784879,0.362471,0.230443743,-0.0753880176,0.338556,0.213886749,-0.0777436627,0.321474,0.304758611,-0.146593789,0.403175,0.278473177,-0.101676507,0.362586,0.265000622,-0.0788585661,0.341819,0.247727831,-0.0783832861,0.32294,0.330986758,-0.160061835,0.407583,0.313864812,-0.125353694,0.373793,0.306103323,-0.109674396,0.358268,0.293295983,-0.110239801,0.34457
0.342989077,-0.234569993,0.473711,0.316317183,-0.188552982,0.439729,0.318811445,-0.219604053,0.467101,0.275784453,-0.188943601,0.447247,0.239160228,-0.161928476,0.430136,0.219893627,-0.139834312,0.415766,0.262767949,-0.139889452,0.406947,0.233516374,-0.0927698855,0.370413,0.213425882,-0.0875179318,0.352146,0.196033786,-0.08267781,0.33554,0.284005057,-0.141348728,0.403373,0.25021497,-0.0996510516,0.362218,0.229774328,-0.0755517248,0.338211,0.21300536,-0.0777566931,0.321063,0.303994056,-0.146841651,0.402934,0.27788374,-0.10171859,0.362428,0.264500448,-0.0787997241,0.341704,0.24717299,-0.078204238,0.322864,0.330275402,-0.159964467,0.407184,0.313085503,-0.125118795,0.373286,0.305295647,-0.109369169,0.357711,0.292527185,-0.109875323,0.343969
0.343287334,-0.233763799,0.474488,0.316417473,-0.188645064,0.440205,0.31904505,-0.218715954,0.467854,0.276104563,-0.189055437,0.447839,0.239231926,-0.162331942,0.430482,0.21983481,-0.140164981,0.416157,0.262913878,-0.13996714,0.407173,0.233386816,-0.092818073,0.370584,0.2132676,-0.0877073148,0.352289,0.195757819,-0.0829640884,0.335657,0.283913372,-0.141701396,0.403526,0.249827855,-0.0998282727,0.362115,0.229341325,-0.0756397446,0.337958,0.212361717,-0.0777447437,0.320704,0.303729753,-0.147084997,0.403048,0.27764755,-0.101787073,0.362487,0.264277408,-0.0787874423,0.341735,0.246846222,-0.0780985327,0.32287,0.330132445,-0.160043756,0.407295,0.312753766,-0.125037258,0.373172,0.304873195,-0.109206486,0.357494,0.292080475,-0.109653516,0.34366
0.342999316,-0.233543189,0.474264,0.316175469,-0.189102605,0.439613,0.318472882,-0.21807547,0.46715,0.274499624,-0.195716928,0.445231,0.238758533,-0.165248759,0.431239,0.21884624,-0.143426598,0.4176,0.264863673,-0.13749218,0.405725,0.228116805,-0.102467092,0.369025,0.211162189,-0.0869753377,0.350674,0.191980325,-0.0847529436,0.333992,0.284273461,-0.141026481,0.40254,0.248386058,-0.100251257,0.361183,0.227942232,-0.0763199443,0.337058,0.209287366,-0.0784536856,0.319826,0.30318456,-0.147125104,0.40247,0.277007271,-0.101893171,0.361895,0.263588926,-0.0789226118,0.341135,0.244724858,-0.0778315927,0.322263,0.329264806,-0.160684454,0.407254,0.313293662,-0.124919488,0.372901,0.304443963,-0.109279012,0.357118,0.290487177,-0.10982493,0.343191
0.343326635,-0.234259524,0.47507,0.315671224,-0.18917423,0.439727,0.319068027,-0.218777047,0.468339,0.274248768,-0.193649495,0.446845,0.239261458,-0.166322307,0.432461,0.21855825,-0.144740089,0.41909,0.265606539,-0.137519471,0.405807,0.228217238,-0.103776448,0.368733,0.210388919,-0.0875049793,0.350196,0.191246558,-0.0854063559,0.333344,0.283875947,-0.140998828,0.401915,0.247437255,-0.103415931,0.359953,0.225700936,-0.0841079171,0.335476,0.207725451,-0.0785162736,0.317992,0.301312479,-0.147895678,0.401313,0.27514538,-0.102703206,0.360524,0.261801932,-0.0820818739,0.339655,0.242590435,-0.0785978777,0.320684,0.327173791,-0.164225621,0.405562,0.310428589,-0.124834599,0.371511,0.302593806,-0.109121705,0.355866,0.289099165,-0.109682901,0.342061
