sluyters/QuantumLeap/backend/src/datasets/gesture/HandGestureDataset_SHREC2017_csv/Gesture1/finger_1/subject_21_essai_2_skeletons_world.csv
Wrist_x,Wrist_y,Wrist_z,Palm_x,Palm_y,Palm_z,thumb_base_x,thumb_base_y,thumb_base_z,thumb_first_joint_x,thumb_first_joint_y,thumb_first_joint_z,thumb_second_joint_x,thumb_second_joint_y,thumb_second_joint_z,thumb_tip_x,thumb_tip_y,thumb_tip_z,index_base_x,index_base_y,index_base_z,index_first_joint_x,index_first_joint_y,index_first_joint_z,index_second_joint_x,index_second_joint_y,index_second_joint_z,index_tip_x,index_tip_y,index_tip_z,middle_base_x,middle_base_y,middle_base_z,middle_first_joint_x,middle_first_joint_y,middle_first_joint_z,middle_second_joint_x,middle_second_joint_y,middle_second_joint_z,middle_tip_x,middle_tip_y,middle_tip_z,ring_base_x,ring_base_y,ring_base_z,ring_first_joint_x,ring_first_joint_y,ring_first_joint_z,ring_second_joint_x,ring_second_joint_y,ring_second_joint_z,ring_tip_x,ring_tip_y,ring_tip_z,pinky_base_x,pinky_base_y,pinky_base_z,pinky_first_joint_x,pinky_first_joint_y,pinky_first_joint_z,pinky_second_joint_x,pinky_second_joint_y,pinky_second_joint_z,pinky_tip_x,pinky_tip_y,pinky_tip_z,
0.392700694,-0.32727593,0.416945,0.362761772,-0.276933363,0.400739,0.359254058,-0.313413963,0.409366,0.341360401,-0.296234096,0.404914,0.317594979,-0.268631228,0.391772,0.30542354,-0.247766607,0.384501,0.318776514,-0.232873145,0.381176,0.317475138,-0.203794832,0.38723,0.319745613,-0.192704646,0.390256,0.321796729,-0.181789121,0.393008,0.344080405,-0.233192326,0.385481,0.335502659,-0.225541216,0.364925,0.35697699,-0.25995271,0.383618,0.367272667,-0.278584283,0.396921,0.367422521,-0.234796147,0.390251,0.358599918,-0.23067502,0.370622,0.369479953,-0.257183701,0.38574,0.377147728,-0.275978159,0.399483,0.397188138,-0.246363903,0.398203,0.381894439,-0.243680612,0.38163,0.388309447,-0.261625685,0.392113,0.39312379,-0.27891861,0.40201
0.392842086,-0.329808798,0.419278,0.363831548,-0.278636627,0.401871,0.360580918,-0.31595087,0.411378,0.342289435,-0.297040317,0.406016,0.318150283,-0.26910092,0.392457,0.305749218,-0.248030804,0.384911,0.318758952,-0.232860316,0.381155,0.31740053,-0.20374694,0.387139,0.319643197,-0.192642922,0.390131,0.321668176,-0.1817165,0.392851,0.344080405,-0.233192326,0.385481,0.334614544,-0.224944181,0.363959,0.355763549,-0.259069075,0.382314,0.36629092,-0.277839606,0.39586,0.367269449,-0.23565252,0.390358,0.357879282,-0.230882682,0.36987,0.368600093,-0.257235625,0.384715,0.376075201,-0.275816456,0.398211,0.397501961,-0.247274355,0.398609,0.38177381,-0.244314827,0.381369,0.387986797,-0.261955334,0.391641,0.39276286,-0.27933437,0.401692
0.37952443,-0.32887257,0.414324,0.361450125,-0.277444379,0.400312,0.353790364,-0.313996597,0.407606,0.332584862,-0.286625478,0.401905,0.312200554,-0.258107827,0.388749,0.301629326,-0.236271136,0.380807,0.320687721,-0.226453233,0.383192,0.320280102,-0.197188163,0.388935,0.322671243,-0.192074613,0.391806,0.325575299,-0.183447929,0.394416,0.345701471,-0.230706709,0.38712,0.338049878,-0.217690633,0.368371,0.350127412,-0.251071504,0.387687,0.358714272,-0.266521576,0.400532,0.367860595,-0.235362428,0.391412,0.360008649,-0.230832721,0.373485,0.372735748,-0.259824727,0.38911,0.382424358,-0.278269079,0.403314,0.3971547,-0.248785406,0.398489,0.382675375,-0.248029001,0.383224,0.390312984,-0.26511889,0.394098,0.395211759,-0.281698912,0.403687
0.379406432,-0.327487195,0.413269,0.360533954,-0.276852248,0.399874,0.352348703,-0.313362056,0.407043,0.331965908,-0.286283342,0.401381,0.310702799,-0.257268012,0.387709,0.30009925,-0.235521706,0.379902,0.320986616,-0.226556135,0.383751,0.320210529,-0.196994783,0.389151,0.32270005,-0.191377451,0.391851,0.325504109,-0.182978603,0.394305,0.345738818,-0.230429816,0.387262,0.338141011,-0.217495067,0.369056,0.351926622,-0.250852264,0.388585,0.360165904,-0.266282041,0.4013,0.367527317,-0.235106495,0.391164,0.360079563,-0.230507049,0.37383,0.374678286,-0.25748949,0.389632,0.384544211,-0.27755073,0.403997,0.396139338,-0.247623511,0.39769,0.382254687,-0.245915189,0.382867,0.390088649,-0.264321675,0.393877,0.396385613,-0.28097727,0.403364
0.379465472,-0.325657048,0.412564,0.358291467,-0.273630153,0.398889,0.35247478,-0.313242046,0.407884,0.335351564,-0.287478151,0.403305,0.311641765,-0.258921209,0.388783,0.302030313,-0.24068425,0.381841,0.320267843,-0.225945489,0.384506,0.320239289,-0.196117213,0.389189,0.321704971,-0.187745604,0.391531,0.32308158,-0.180963409,0.393659,0.342809968,-0.224915159,0.386013,0.325478566,-0.20770622,0.367809,0.343069942,-0.241765498,0.387497,0.354165943,-0.258322657,0.400261,0.363267792,-0.228546941,0.388289,0.349935995,-0.224174187,0.371495,0.371238851,-0.253720911,0.387455,0.385803025,-0.27322525,0.401964,0.39039442,-0.239824373,0.392924,0.372920907,-0.23719405,0.378423,0.385248704,-0.256735382,0.389547,0.393373121,-0.274420468,0.398964
0.373457728,-0.324224566,0.410396,0.352293235,-0.265096626,0.39535,0.348387104,-0.308488868,0.405491,0.328035958,-0.276883178,0.399196,0.306061642,-0.248070592,0.383307,0.297928744,-0.231350863,0.377289,0.314967569,-0.213916206,0.379828,0.314606279,-0.182260162,0.378958,0.314648916,-0.169192289,0.378523,0.314710033,-0.15661334,0.378128,0.338202963,-0.215442681,0.381184,0.322395601,-0.203527596,0.361888,0.338929568,-0.237144353,0.381255,0.349470554,-0.253650978,0.394315,0.357963229,-0.222367449,0.383439,0.347446102,-0.21549834,0.365719,0.365371494,-0.242987262,0.381424,0.379206438,-0.264675723,0.395701,0.385312524,-0.234659938,0.388243,0.368455275,-0.233233617,0.373011,0.380100428,-0.251083002,0.383935,0.39100625,-0.269078353,0.393532
0.370813634,-0.321308504,0.409724,0.3504367,-0.259474445,0.392788,0.342383872,-0.302239025,0.40367,0.324173787,-0.271934846,0.394831,0.301366798,-0.242862963,0.37769,0.290572896,-0.220897079,0.367534,0.315340756,-0.206177181,0.374655,0.314408713,-0.174200791,0.37551,0.314287834,-0.158997405,0.375937,0.314158424,-0.144524298,0.376326,0.336850605,-0.211263612,0.376841,0.322330612,-0.198879145,0.355918,0.336877015,-0.231993669,0.374723,0.345454833,-0.249218928,0.388194,0.357945757,-0.217245647,0.379923,0.3451049,-0.213494666,0.360539,0.361291078,-0.240788975,0.375779,0.373348521,-0.260906734,0.389634,0.384731282,-0.232620802,0.385976,0.366596593,-0.230967531,0.369486,0.377233102,-0.248639449,0.380051,0.387598244,-0.26671254,0.389951
0.359888412,-0.312531046,0.399693,0.347726065,-0.256098048,0.389002,0.335301694,-0.292902132,0.396104,0.31686297,-0.262667214,0.386147,0.29898847,-0.237264732,0.375012,0.291040041,-0.217102509,0.368208,0.318204532,-0.207003937,0.377844,0.313291272,-0.172574724,0.374151,0.31110556,-0.156496764,0.372305,0.309096271,-0.141366692,0.370626,0.341691566,-0.209761688,0.378936,0.331832486,-0.201178002,0.363238,0.346932602,-0.235948628,0.383573,0.354771617,-0.253384389,0.396882,0.361842022,-0.215629256,0.380644,0.353154148,-0.216802041,0.366175,0.369192234,-0.24564829,0.38266,0.380899345,-0.265581288,0.397646,0.387307606,-0.22947481,0.384183,0.372320151,-0.231223312,0.371491,0.382445141,-0.249941365,0.383032,0.389709608,-0.267420744,0.391974
0.358721586,-0.307135383,0.401237,0.343546616,-0.246758562,0.381905,0.332232683,-0.286983303,0.39324,0.311853736,-0.255371152,0.38015,0.287206234,-0.224376017,0.361525,0.277091932,-0.204017103,0.35235,0.305352024,-0.189871157,0.35986,0.305096024,-0.158890831,0.363915,0.307176196,-0.146232969,0.365943,0.307501685,-0.138163777,0.367786,0.330469713,-0.194299889,0.363702,0.317506397,-0.186228674,0.340698,0.326970588,-0.218847865,0.35856,0.335472193,-0.236631574,0.372488,0.352597815,-0.201839781,0.368327,0.339228815,-0.199536554,0.346657,0.35143012,-0.225450273,0.361113,0.358493627,-0.247509661,0.374255,0.381736687,-0.218333066,0.376551,0.370087843,-0.206368761,0.358368,0.373113102,-0.222001107,0.368338,0.37625145,-0.234879533,0.378603
0.360426692,-0.306498103,0.40183,0.340847293,-0.242831468,0.37704,0.332356133,-0.285167405,0.391726,0.31093047,-0.252358525,0.375832,0.285286622,-0.223526043,0.356601,0.271637684,-0.201086558,0.3449,0.297271947,-0.18591612,0.348959,0.299015518,-0.153984741,0.350713,0.301369641,-0.140177516,0.35159,0.299799144,-0.12749596,0.352387,0.32331801,-0.189075057,0.353699,0.307423994,-0.177234811,0.326407,0.319794351,-0.207744757,0.342036,0.326698799,-0.22563616,0.356815,0.346847685,-0.195758482,0.359476,0.330337283,-0.191851131,0.333776,0.340957236,-0.216304527,0.346419,0.347717087,-0.237469315,0.361848,0.376850148,-0.213039782,0.369839,0.362002228,-0.201472641,0.348603,0.367432525,-0.215794328,0.357206,0.3692645,-0.230212969,0.368015
0.350756629,-0.295326974,0.390442,0.335884275,-0.232535975,0.366117,0.325612379,-0.273988947,0.380856,0.301964958,-0.242267806,0.362873,0.273068177,-0.213775623,0.34237,0.261518125,-0.194521652,0.332227,0.294031696,-0.174805205,0.338969,0.294811436,-0.142897497,0.341965,0.296797042,-0.127433368,0.343463,0.298635903,-0.112595743,0.344825,0.319500622,-0.179012915,0.343213,0.303509349,-0.177079174,0.316311,0.31201024,-0.203928283,0.332252,0.321157195,-0.220612789,0.346987,0.342208864,-0.186533399,0.348547,0.32760852,-0.181512658,0.323325,0.339248442,-0.205013397,0.336226,0.34648951,-0.227613443,0.351565,0.372616138,-0.20329693,0.358318,0.353995222,-0.195937793,0.337422,0.357871156,-0.209574992,0.346216,0.360029932,-0.22405753,0.356981
0.345159473,-0.286247884,0.381259,0.329778741,-0.225325577,0.356031,0.320399111,-0.266442488,0.372101,0.293462309,-0.235572169,0.350247,0.265926054,-0.207714975,0.330647,0.252170272,-0.186838964,0.321254,0.289012893,-0.169725163,0.328846,0.291054508,-0.137659895,0.331967,0.293770855,-0.12217732,0.333527,0.293133057,-0.108335217,0.334945,0.31372411,-0.174072517,0.332277,0.29696392,-0.172565535,0.304769,0.306028466,-0.201180719,0.320473,0.311673702,-0.214244652,0.335353,0.335705995,-0.181728522,0.337011,0.320721486,-0.177255852,0.311472,0.332014713,-0.200865205,0.324195,0.336756874,-0.221499802,0.33959,0.365123917,-0.19867878,0.346197,0.347921424,-0.191827059,0.32502,0.351798057,-0.205654112,0.333677,0.351546313,-0.218576159,0.344487
0.339597008,-0.280802569,0.374026,0.325728164,-0.221422884,0.348637,0.317367859,-0.26087337,0.365208,0.28831351,-0.231188793,0.343721,0.260907695,-0.203913674,0.324461,0.246874424,-0.182549205,0.313128,0.28388671,-0.165491242,0.321772,0.284954799,-0.133093359,0.323493,0.288445243,-0.116327641,0.324353,0.289013848,-0.102695231,0.325136,0.308075634,-0.1696645,0.324731,0.292605854,-0.164262305,0.297151,0.30227519,-0.193899187,0.312855,0.309034155,-0.211075708,0.327761,0.329618362,-0.177144926,0.329089,0.313895042,-0.173179786,0.303613,0.324922847,-0.196776639,0.316343,0.331882715,-0.218762588,0.331716,0.360746359,-0.193752763,0.337852,0.340706646,-0.18736148,0.316701,0.344435028,-0.201183709,0.325362,0.346601454,-0.215563816,0.336164
0.32848673,-0.268477481,0.358604,0.311856162,-0.21051354,0.3327,0.303296968,-0.249462925,0.348999,0.271666113,-0.220191262,0.326615,0.241976678,-0.192728484,0.30531,0.228226017,-0.17229647,0.291083,0.271519256,-0.152144424,0.304537,0.274949029,-0.124102292,0.310385,0.278767069,-0.109410093,0.313309,0.282317855,-0.0950202178,0.315967,0.29617033,-0.158078549,0.308309,0.282531073,-0.139994395,0.280262,0.293493018,-0.169764123,0.295602,0.3012551,-0.186371738,0.310562,0.31799512,-0.167025384,0.313375,0.300495867,-0.164963652,0.287269,0.310565608,-0.188516817,0.299692,0.316576112,-0.209302227,0.315196,0.346987197,-0.185524078,0.32305,0.327922541,-0.179297996,0.301457,0.331317865,-0.19330234,0.309891,0.332822952,-0.207066773,0.32076
0.326176924,-0.267194574,0.356336,0.310492581,-0.209430352,0.331124,0.301055946,-0.247956153,0.346795,0.270837931,-0.219758671,0.324524,0.240972608,-0.191947968,0.303677,0.226719287,-0.171021472,0.290169,0.271098522,-0.15207074,0.303475,0.272257167,-0.120413358,0.307002,0.274564847,-0.104814281,0.308765,0.276969831,-0.0921554675,0.310369,0.295805773,-0.15812042,0.307385,0.280875697,-0.153771554,0.279843,0.289428122,-0.183175897,0.295468,0.295720932,-0.197320785,0.310335,0.317591639,-0.167129781,0.312511,0.301407106,-0.164661513,0.286814,0.312399039,-0.18821431,0.299466,0.318771552,-0.210199873,0.314896,0.346372646,-0.185629336,0.322161,0.327736508,-0.179972162,0.300886,0.33122774,-0.194372845,0.309491,0.332936444,-0.207794777,0.320315
0.317867008,-0.261616262,0.347768,0.303206038,-0.204432187,0.323062,0.290960313,-0.240015178,0.33604,0.257379065,-0.212649679,0.311513,0.226655461,-0.186075389,0.289064,0.212642846,-0.166776975,0.27412,0.265455552,-0.145476079,0.293023,0.262766554,-0.112704904,0.29435,0.26304936,-0.0963641789,0.295014,0.263206995,-0.0831182374,0.295618,0.292334097,-0.153946959,0.299801,0.27531296,-0.15183501,0.272456,0.282742127,-0.180503089,0.287502,0.289784473,-0.191700323,0.302116,0.314217183,-0.164919504,0.307249,0.297897065,-0.163647628,0.280958,0.309132097,-0.186882245,0.293099,0.313509885,-0.207972156,0.308565,0.34441109,-0.184715305,0.319582,0.325025835,-0.185199523,0.29801,0.32583751,-0.199365772,0.306251,0.329552249,-0.204920079,0.317039
0.312295974,-0.25815942,0.34215,0.29829814,-0.200967993,0.316562,0.285013683,-0.236176193,0.33014,0.252896574,-0.2096997,0.305255,0.222089068,-0.183187245,0.282785,0.207837909,-0.163747809,0.267939,0.258821324,-0.14172294,0.285618,0.255471808,-0.109158518,0.286384,0.255347878,-0.0928932672,0.286768,0.255687391,-0.0777110934,0.287116,0.285547468,-0.149988384,0.292469,0.269929448,-0.149462321,0.264462,0.276483719,-0.177827413,0.279079,0.283076907,-0.188669423,0.293798,0.30897807,-0.160849335,0.300044,0.291911978,-0.161439353,0.27315,0.303170887,-0.184704394,0.284943,0.308928947,-0.207097213,0.300513,0.339525738,-0.181626832,0.312653,0.318242239,-0.180504318,0.290625,0.319279847,-0.192642416,0.298607,0.323677507,-0.200599939,0.309455
0.303366519,-0.252610084,0.333405,0.289868072,-0.1957398,0.306704,0.277281859,-0.230455447,0.32138,0.245071601,-0.206146021,0.296398,0.213575782,-0.180002928,0.273785,0.198945502,-0.160954683,0.25868,0.250129139,-0.136483275,0.275042,0.24492794,-0.102539341,0.273355,0.244127856,-0.086153099,0.272512,0.242955169,-0.0720179866,0.271745,0.276884694,-0.144635876,0.281563,0.259189235,-0.144249794,0.252744,0.265356836,-0.172036657,0.266948,0.27226135,-0.182634447,0.281831,0.300365693,-0.155456288,0.28895,0.281017651,-0.15596934,0.261428,0.29191403,-0.179151026,0.272893,0.297889544,-0.201382841,0.288586,0.331039072,-0.176283658,0.301495,0.307729856,-0.174507145,0.278971,0.308334315,-0.188311274,0.286706,0.313113899,-0.194015593,0.297632
0.295406729,-0.246745434,0.325044,0.279595006,-0.188985172,0.296119,0.270542053,-0.226402197,0.314922,0.239065558,-0.204334171,0.291839,0.206740861,-0.178179113,0.269415,0.194221905,-0.163090987,0.252911,0.240480306,-0.1299959,0.26542,0.233636602,-0.0951162883,0.261407,0.231197902,-0.0797063868,0.259401,0.230138754,-0.0660738764,0.257577,0.264240336,-0.137015371,0.268885,0.241238755,-0.125784585,0.23865,0.246820962,-0.153681949,0.252532,0.256499326,-0.166345644,0.267826,0.286023849,-0.146368259,0.273927,0.261873052,-0.146993548,0.245974,0.272498458,-0.170840973,0.257226,0.282393282,-0.193198666,0.273008,0.315518931,-0.167133651,0.284001,0.288067789,-0.165407267,0.260998,0.291555946,-0.180093013,0.268558,0.30237238,-0.186864313,0.279585
0.287607394,-0.240135056,0.315458,0.275145646,-0.182460226,0.291131,0.262158008,-0.218979725,0.303606,0.225649468,-0.194380162,0.278987,0.194055617,-0.171246997,0.255019,0.174344434,-0.155391617,0.238805,0.231927009,-0.123786373,0.261174,0.220595664,-0.0886241263,0.24885,0.21518391,-0.0706115333,0.242688,0.214496094,-0.0584211556,0.237086,0.258238332,-0.128499092,0.268226,0.252615077,-0.130329383,0.243022,0.261303621,-0.157895512,0.258247,0.263224942,-0.167265045,0.272143,0.2814169,-0.136335543,0.27587,0.275060804,-0.137875781,0.251402,0.281852922,-0.160007766,0.263679,0.286851411,-0.16839786,0.278463,0.312091567,-0.153229637,0.288383,0.297493436,-0.153323188,0.266957,0.300907959,-0.169405047,0.275236,0.306309285,-0.17810815,0.285988
0.279438888,-0.232725227,0.305297,0.267911643,-0.177114818,0.283882,0.253731124,-0.211977663,0.293383,0.218824245,-0.190898073,0.269012,0.18723421,-0.170828851,0.243858,0.167643258,-0.150752988,0.229931,0.226474998,-0.120884486,0.255679,0.215042834,-0.0864065724,0.243346,0.209470475,-0.0685948582,0.23718,0.209101492,-0.0571274705,0.231574,0.253388663,-0.12609278,0.26372,0.250584542,-0.130092247,0.241022,0.260526154,-0.158635296,0.257042,0.262357353,-0.16722562,0.27028,0.276880154,-0.134221073,0.271957,0.274243593,-0.138080071,0.250649,0.282458118,-0.161312794,0.263616,0.286209074,-0.170796113,0.2774,0.307461347,-0.151234656,0.284762,0.294804388,-0.152332267,0.264683,0.298725424,-0.168629346,0.273434,0.303719976,-0.17690413,0.283894
0.277106297,-0.230121758,0.301519,0.263321608,-0.172656755,0.278154,0.251569391,-0.210280526,0.289832,0.216814837,-0.191077265,0.26547,0.184458021,-0.175039529,0.239987,0.164939132,-0.151491939,0.226578,0.220025927,-0.118914777,0.249005,0.206810553,-0.0858487728,0.232986,0.200206033,-0.0679043363,0.224977,0.196346568,-0.0536943997,0.217696,0.246272464,-0.123093708,0.256154,0.241597154,-0.127548553,0.231711,0.252205098,-0.155919762,0.247309,0.254350475,-0.164093925,0.261046,0.2693122,-0.130422165,0.263806,0.267333002,-0.135753959,0.243141,0.276456195,-0.159270627,0.255888,0.280147995,-0.169803332,0.269325,0.301829389,-0.146474859,0.276192,0.286049087,-0.147935826,0.25524,0.289927258,-0.163774157,0.263744,0.29489818,-0.171350647,0.274415
0.27863425,-0.231662856,0.303781,0.258354495,-0.172853014,0.274674,0.251681797,-0.211697136,0.290311,0.216444144,-0.198166804,0.263769,0.185453621,-0.179969032,0.23866,0.167292392,-0.162708182,0.222049,0.205123392,-0.124212719,0.239714,0.19439629,-0.0904312978,0.223213,0.189426985,-0.0732861424,0.214962,0.184991358,-0.0571948248,0.207462,0.232353777,-0.125930096,0.247269,0.224749041,-0.122244884,0.218667,0.234033335,-0.149597495,0.23126,0.241067595,-0.157941879,0.245559,0.256838934,-0.131298786,0.25569,0.252303607,-0.132878084,0.231768,0.262873121,-0.152916632,0.242113,0.267085714,-0.162070487,0.255904,0.28988648,-0.145219394,0.269801,0.277043575,-0.143571178,0.245967,0.27983589,-0.158195321,0.25266,0.285947727,-0.165822421,0.263644
0.275146277,-0.229171884,0.298997,0.250546422,-0.174257863,0.269578,0.247348057,-0.20975985,0.285343,0.211998155,-0.192311239,0.25861,0.18094323,-0.174317848,0.233824,0.161455145,-0.156053714,0.218192,0.200541869,-0.121436642,0.234192,0.189521022,-0.088201265,0.21761,0.184280287,-0.0711276387,0.209318,0.179591894,-0.0550882858,0.201781,0.227568831,-0.123292572,0.241878,0.220157877,-0.120223312,0.213091,0.229093179,-0.147157857,0.225437,0.234297996,-0.156769761,0.239725,0.251864821,-0.128789978,0.250431,0.247672542,-0.13055428,0.226378,0.257635551,-0.15127695,0.236524,0.26316571,-0.160196944,0.250289,0.284688086,-0.142884737,0.264741,0.271396096,-0.141445659,0.240746,0.274929451,-0.156148742,0.247289,0.280659986,-0.163101413,0.258272
0.270881459,-0.226401679,0.294593,0.246250925,-0.172402935,0.265251,0.243032404,-0.208235404,0.280016,0.206950752,-0.193430889,0.25243,0.176557391,-0.174224009,0.227282,0.15807462,-0.155475838,0.212148,0.195798851,-0.120357252,0.228772,0.180054299,-0.0892483529,0.207489,0.172685898,-0.0727406592,0.196847,0.166459749,-0.0578209214,0.187173,0.223528165,-0.122408328,0.237625,0.217891172,-0.121271681,0.209249,0.225069801,-0.145944,0.22103,0.229788742,-0.155213396,0.234993,0.248404808,-0.128064956,0.247132,0.245412981,-0.130319252,0.223767,0.254704035,-0.150526998,0.233471,0.25964212,-0.158940299,0.246783,0.281951295,-0.142005151,0.262564,0.268948398,-0.140990518,0.238464,0.272204397,-0.155398871,0.244657,0.277784831,-0.162108838,0.25554
0.268398527,-0.225272112,0.292172,0.24209495,-0.172159177,0.261575,0.240045852,-0.207595587,0.277165,0.203963849,-0.192354374,0.249147,0.173740154,-0.17305992,0.224273,0.153906006,-0.153958508,0.208993,0.190417592,-0.121229801,0.223773,0.175006637,-0.0886202463,0.202895,0.167848943,-0.0723271484,0.192456,0.161861938,-0.0575858003,0.182966,0.21770716,-0.122236484,0.232765,0.213034085,-0.121422932,0.203562,0.219422502,-0.144635326,0.214434,0.223656661,-0.153799037,0.22841,0.242231301,-0.127038694,0.242482,0.240686102,-0.12924521,0.218411,0.248894345,-0.148738146,0.227382,0.253460198,-0.156856865,0.240686,0.275356358,-0.140269211,0.258341,0.262544219,-0.141827448,0.233667,0.265071156,-0.155451961,0.239318,0.271271871,-0.16016154,0.250192
0.26530408,-0.22368344,0.28874,0.238400041,-0.170752585,0.25797,0.236170545,-0.205990394,0.273237,0.199885452,-0.191684995,0.244784,0.170613602,-0.173418183,0.219614,0.151816322,-0.152516527,0.205194,0.185832303,-0.12107683,0.219445,0.170472858,-0.0881759894,0.198727,0.163516942,-0.0718687795,0.188368,0.158246048,-0.0564686237,0.17895,0.213334733,-0.121842177,0.228998,0.209531667,-0.119974345,0.199871,0.21568546,-0.144403693,0.210251,0.219384455,-0.151952208,0.224045,0.238702076,-0.125859641,0.239189,0.237841458,-0.12935233,0.21534,0.245266787,-0.147357479,0.22392,0.249610635,-0.15635886,0.236978,0.272188906,-0.139255794,0.255635,0.258406322,-0.142758909,0.230841,0.260228776,-0.155877468,0.236193,0.26718047,-0.159741663,0.246994
0.263787824,-0.223348206,0.287391,0.237117524,-0.170574328,0.256817,0.234601249,-0.20599415,0.271851,0.198527305,-0.191032936,0.243372,0.169960426,-0.172809935,0.218143,0.15106404,-0.152153442,0.203595,0.184911673,-0.120583085,0.21837,0.169694738,-0.0877478331,0.197763,0.162810263,-0.0714681021,0.18746,0.157456141,-0.0562727971,0.178093,0.212463848,-0.121462002,0.22803,0.208878467,-0.11987695,0.199074,0.215063481,-0.144360875,0.209519,0.218628711,-0.152090418,0.223272,0.237687938,-0.125664436,0.238294,0.237201248,-0.1292549,0.214629,0.244646451,-0.147461563,0.223264,0.248794494,-0.156434109,0.236269,0.271157079,-0.139030708,0.2548,0.257652343,-0.14253883,0.230083,0.259503517,-0.155681513,0.235472,0.266025519,-0.159773173,0.246261
0.26302706,-0.22350591,0.286314,0.235874317,-0.170313738,0.255707,0.23284719,-0.207315311,0.270794,0.197598109,-0.19062931,0.242332,0.169466269,-0.171958082,0.217303,0.150764563,-0.152182549,0.20261,0.183686898,-0.120221385,0.217265,0.165942532,-0.0871551753,0.193852,0.156946293,-0.0764524724,0.182145,0.149958619,-0.0631803016,0.171502,0.211162539,-0.121084482,0.22689,0.20780891,-0.119333024,0.197899,0.214542869,-0.144224846,0.208346,0.217813881,-0.151663829,0.222112,0.235866174,-0.125752564,0.237127,0.235734772,-0.13002463,0.213421,0.242962867,-0.148897585,0.222057,0.247041423,-0.155941162,0.235079,0.26970571,-0.138583235,0.253605,0.255922833,-0.142321351,0.228877,0.257625107,-0.155155346,0.234268,0.263496078,-0.159882499,0.245061
0.259015447,-0.222204948,0.283167,0.231786642,-0.170161435,0.25319,0.229581342,-0.209179089,0.269427,0.197525304,-0.191056161,0.242592,0.170241859,-0.173087013,0.218324,0.151825812,-0.15358751,0.203746,0.176515453,-0.118939714,0.21735,0.155837408,-0.0966857876,0.187171,0.145553194,-0.0854775915,0.172082,0.136248863,-0.0752214815,0.158365,0.206128085,-0.120160493,0.224967,0.195436548,-0.118500686,0.195765,0.208650661,-0.144689745,0.207801,0.217543667,-0.152054775,0.222142,0.231424908,-0.123866032,0.233504,0.213999232,-0.130339349,0.203603,0.215298035,-0.147042269,0.213201,0.222434681,-0.164648489,0.229108,0.262760666,-0.135869593,0.247876,0.246535715,-0.137812653,0.223635,0.25136595,-0.153557379,0.229994,0.253455509,-0.167421442,0.240992
0.257563452,-0.222922933,0.282561,0.230659072,-0.169978137,0.252643,0.228404688,-0.208971574,0.268925,0.196344694,-0.19144971,0.242191,0.169909874,-0.173287791,0.218031,0.151559205,-0.154830921,0.202839,0.178566455,-0.119623078,0.216968,0.155214669,-0.0970417102,0.186868,0.144572901,-0.0859659448,0.171818,0.134934349,-0.0758339463,0.158136,0.207215385,-0.119918328,0.224474,0.19436719,-0.11953556,0.195282,0.207358851,-0.145808255,0.207407,0.216748044,-0.15329858,0.221772,0.230594483,-0.124004503,0.232916,0.213145909,-0.131637833,0.203081,0.214451843,-0.148150814,0.212753,0.221648415,-0.165542517,0.228665,0.262164595,-0.136644094,0.247166,0.246802556,-0.139721411,0.222967,0.250905479,-0.155210515,0.229381,0.253061842,-0.169473831,0.240385
0.256577785,-0.223964114,0.282798,0.231378399,-0.169865837,0.253204,0.228118688,-0.209160279,0.269076,0.196646331,-0.19092862,0.242272,0.170073812,-0.17333434,0.217926,0.152412246,-0.155336122,0.20237,0.181294171,-0.119959032,0.217625,0.156302489,-0.0973339616,0.187633,0.145876827,-0.0867641007,0.172638,0.136594135,-0.0774189922,0.159005,0.207764066,-0.120466021,0.22534,0.195707916,-0.120213703,0.196437,0.211102482,-0.146024629,0.208663,0.217755432,-0.154347686,0.222955,0.231508272,-0.12478656,0.233929,0.214544272,-0.132452927,0.204237,0.215926489,-0.149023195,0.213985,0.223121258,-0.166402424,0.229869,0.263536227,-0.137286668,0.248308,0.245778135,-0.142798934,0.224229,0.249590927,-0.158466927,0.2307,0.252484005,-0.170920609,0.241684
0.256239654,-0.225569085,0.283938,0.23148484,-0.171916074,0.255436,0.228243867,-0.211207561,0.270983,0.198468334,-0.19213648,0.244969,0.172913495,-0.175431256,0.22086,0.155102629,-0.157405376,0.205153,0.179399719,-0.12047304,0.221492,0.160415326,-0.100070459,0.192526,0.151380357,-0.0905596978,0.178043,0.14214118,-0.0809039601,0.164877,0.206465942,-0.122533824,0.228599,0.188248203,-0.121101286,0.198456,0.2068211,-0.150046497,0.211477,0.216396086,-0.162389048,0.226468,0.232128508,-0.127243435,0.236606,0.213570204,-0.135802316,0.207761,0.215754804,-0.152653983,0.218262,0.225463997,-0.170003042,0.234104,0.264401448,-0.140922887,0.25014,0.248392618,-0.142512145,0.226655,0.252491742,-0.158610825,0.233678,0.254454879,-0.17220435,0.244666
0.25620105,-0.226983367,0.285343,0.231810285,-0.17261838,0.25669,0.227991854,-0.212465311,0.272359,0.199937641,-0.192479723,0.246309,0.174235936,-0.174899984,0.222394,0.156507592,-0.157861652,0.206462,0.179400024,-0.120787565,0.222616,0.161042987,-0.100770818,0.193618,0.152199212,-0.091204401,0.179119,0.143351167,-0.0817916975,0.165939,0.206551738,-0.123070247,0.229712,0.189202459,-0.121715165,0.199462,0.206512377,-0.150688916,0.212403,0.216509619,-0.163904657,0.227407,0.232564412,-0.128047684,0.237721,0.213265179,-0.136293936,0.208785,0.215451599,-0.153067507,0.219221,0.225345799,-0.171026862,0.235075,0.265019394,-0.141996865,0.251279,0.249253902,-0.143016008,0.227724,0.252895311,-0.15906014,0.2347,0.254844369,-0.172437828,0.245694
0.25884722,-0.229843348,0.288916,0.234211182,-0.17448824,0.261296,0.230489513,-0.215358078,0.276282,0.203136234,-0.193860414,0.250632,0.181632737,-0.174434798,0.227175,0.168391382,-0.156777087,0.212367,0.182205557,-0.123018099,0.228305,0.1654145,-0.104394099,0.200063,0.157370999,-0.0964100825,0.185942,0.149608446,-0.0975388647,0.173105,0.209620167,-0.125323397,0.235292,0.194833995,-0.125359021,0.205787,0.204205659,-0.150401619,0.21934,0.212812304,-0.15795331,0.234266,0.236290527,-0.13030583,0.243132,0.216719694,-0.138529866,0.214882,0.222075979,-0.156637094,0.225814,0.231414902,-0.175689765,0.241588,0.270748225,-0.142689612,0.256344,0.252634617,-0.146373944,0.233299,0.255381557,-0.162755988,0.24064,0.257693352,-0.175252572,0.251598
0.260533946,-0.231516759,0.291378,0.235612741,-0.176358911,0.265509,0.230999135,-0.215820673,0.277727,0.212242817,-0.19564867,0.26028,0.191036247,-0.176133428,0.236127,0.17962067,-0.158244222,0.220055,0.186188029,-0.124340718,0.232356,0.168891829,-0.105845707,0.204558,0.161078084,-0.100831957,0.19066,0.154383124,-0.0990540714,0.178024,0.214973809,-0.127100593,0.241152,0.201176954,-0.127170288,0.212912,0.211395148,-0.153658292,0.226512,0.219453162,-0.161696904,0.240996,0.241300108,-0.133137525,0.250348,0.224433058,-0.140103949,0.222733,0.228029821,-0.16125997,0.233674,0.238642758,-0.181275422,0.249196,0.277070831,-0.147721916,0.264921,0.257567326,-0.150531865,0.242472,0.260058024,-0.167197014,0.249841,0.263690122,-0.178922409,0.260599
0.263600319,-0.233468044,0.29494,0.239009132,-0.177734289,0.269033,0.234274948,-0.218082293,0.282117,0.218638283,-0.196926149,0.267881,0.197567626,-0.172811351,0.246156,0.185882801,-0.153579383,0.231581,0.188997687,-0.125481939,0.236882,0.168336136,-0.11122718,0.209126,0.158772965,-0.10458363,0.195248,0.152794175,-0.108371226,0.182632,0.216840477,-0.127360365,0.24464,0.202967561,-0.12848754,0.216375,0.214157752,-0.155579851,0.230463,0.222633338,-0.163967866,0.24511,0.242871554,-0.133256052,0.252986,0.227149103,-0.125773958,0.225622,0.234790851,-0.14875448,0.236975,0.243178665,-0.159741253,0.252559,0.277992474,-0.147016947,0.266554,0.258112878,-0.145108609,0.244227,0.264317962,-0.162723392,0.25189,0.267771965,-0.178681782,0.262719
0.268770129,-0.237230623,0.301042,0.244966215,-0.1782416,0.27468,0.238256189,-0.219599036,0.288476,0.223885552,-0.197261175,0.273932,0.201940254,-0.174900421,0.252074,0.190312001,-0.155334906,0.237449,0.192539187,-0.126623853,0.242562,0.17303569,-0.112819031,0.214711,0.163331002,-0.105929743,0.200785,0.157117109,-0.109727854,0.188125,0.220090868,-0.128062334,0.249858,0.204199801,-0.128740654,0.221265,0.216195782,-0.156015993,0.235332,0.226421792,-0.165766337,0.25009,0.246537307,-0.13440303,0.257858,0.231274221,-0.12766272,0.230329,0.238674169,-0.1507255,0.241671,0.247155343,-0.161916721,0.257318,0.281516768,-0.148058475,0.271081,0.261909305,-0.147268237,0.248599,0.26787951,-0.164844279,0.256249,0.272758582,-0.180470782,0.267128
0.272978717,-0.239765254,0.306126,0.249869741,-0.179409407,0.280437,0.242362099,-0.22128668,0.293403,0.22769395,-0.197357525,0.278974,0.205930522,-0.174565446,0.257291,0.193816024,-0.156199859,0.241765,0.198200933,-0.127697819,0.248547,0.178586879,-0.113468547,0.220951,0.1688234,-0.106352977,0.207153,0.162515576,-0.111843167,0.194609,0.226129333,-0.129782714,0.256249,0.210182393,-0.125945941,0.228146,0.222244758,-0.156735419,0.242364,0.232487931,-0.168957929,0.256993,0.251864143,-0.135295001,0.264532,0.237422387,-0.129636077,0.237326,0.244643146,-0.152781064,0.248785,0.253576604,-0.165116885,0.264347,0.287245708,-0.149333226,0.277995,0.26823829,-0.149902295,0.255784,0.274001784,-0.167430625,0.263525,0.281946841,-0.181216949,0.274344
0.274627638,-0.239611404,0.307677,0.251513101,-0.178965402,0.282249,0.24416555,-0.221566777,0.295035,0.229456316,-0.197726258,0.280514,0.208340421,-0.175119565,0.258596,0.196297208,-0.156522732,0.243133,0.200094042,-0.128412188,0.250624,0.18076581,-0.11417706,0.2232,0.171150559,-0.107055995,0.209488,0.164873254,-0.110881592,0.197023,0.228030938,-0.13038553,0.258308,0.212643736,-0.125743559,0.230399,0.225446727,-0.154423583,0.244749,0.234822232,-0.169400313,0.259349,0.253744195,-0.135797558,0.266556,0.239670402,-0.13012858,0.239527,0.24706263,-0.153379295,0.251092,0.255451812,-0.164759199,0.266626,0.289055534,-0.149693698,0.279941,0.270361451,-0.150291744,0.257863,0.276286455,-0.167863154,0.265684,0.283995805,-0.181675527,0.276486
0.279459982,-0.242086056,0.313058,0.256088032,-0.181809104,0.288097,0.249687974,-0.222581877,0.299742,0.233393567,-0.19861087,0.285047,0.213215124,-0.175619042,0.26278,0.202840716,-0.155932631,0.248082,0.204052086,-0.129896973,0.255931,0.185362294,-0.114897355,0.22841,0.176193562,-0.107753127,0.21465,0.170261482,-0.111723284,0.202141,0.232743697,-0.132193043,0.264596,0.218561468,-0.125891213,0.237027,0.231688521,-0.154900394,0.251133,0.239907283,-0.169696039,0.265533,0.258398771,-0.137335526,0.273616,0.245644476,-0.130503861,0.246627,0.253214595,-0.154782569,0.257979,0.261194004,-0.166479485,0.273411,0.294182774,-0.151339417,0.287851,0.276518914,-0.151733395,0.265868,0.282557864,-0.169092359,0.273541,0.289943403,-0.183109443,0.284253
0.282906852,-0.24323652,0.31713,0.260664266,-0.183133131,0.293657,0.253170314,-0.223363729,0.303855,0.237642194,-0.199383762,0.289995,0.219087381,-0.17426412,0.268118,0.209920584,-0.154478115,0.253769,0.209101949,-0.130526505,0.262475,0.192126701,-0.114545041,0.235741,0.184386777,-0.108966985,0.222374,0.179150661,-0.114562719,0.210222,0.237856995,-0.133069987,0.271557,0.225787103,-0.126636874,0.245106,0.239154151,-0.156080766,0.259667,0.247663124,-0.171775947,0.273805,0.264068967,-0.138915229,0.280808,0.252751003,-0.131522973,0.254695,0.260442594,-0.155040745,0.266406,0.268536561,-0.168943082,0.281629,0.29964377,-0.153254242,0.295106,0.282845122,-0.153734868,0.273819,0.289021436,-0.171146437,0.281768,0.296996642,-0.185712126,0.292342
0.289654158,-0.244992731,0.323371,0.264978758,-0.184374423,0.300419,0.258251431,-0.225537071,0.309934,0.24255531,-0.19885363,0.296228,0.223818554,-0.174680377,0.274592,0.213718676,-0.155928491,0.259316,0.214424002,-0.132379046,0.269363,0.198642503,-0.118078767,0.242824,0.192452216,-0.11738595,0.229555,0.186661585,-0.12154771,0.217492,0.243438558,-0.135030572,0.278809,0.232096754,-0.127902267,0.252756,0.245639803,-0.157401847,0.267344,0.253802905,-0.171865523,0.281347,0.269839405,-0.140962266,0.288321,0.259103808,-0.132861223,0.262463,0.266934726,-0.156453128,0.27419,0.274327955,-0.170421726,0.289316,0.305596554,-0.155399457,0.302854,0.289379641,-0.155421251,0.281789,0.295694478,-0.172747242,0.289755,0.302729597,-0.187312852,0.300258
0.294727982,-0.246789778,0.329039,0.270614995,-0.185563511,0.306819,0.262745849,-0.226986406,0.315364,0.246846405,-0.200671388,0.301169,0.226193057,-0.176552468,0.279359,0.216699468,-0.156944783,0.264217,0.218941628,-0.134374658,0.275928,0.204361482,-0.121943289,0.249666,0.198275806,-0.119612121,0.236535,0.193494031,-0.126767498,0.224598,0.248259219,-0.136772559,0.285898,0.237909566,-0.129811689,0.260412,0.251917047,-0.15922083,0.275009,0.260207908,-0.173437125,0.28881,0.27495098,-0.142453986,0.295785,0.264770117,-0.134871879,0.270289,0.272964027,-0.158486204,0.282016,0.279975821,-0.171211243,0.296995,0.311130304,-0.156531997,0.310661,0.294946431,-0.157538047,0.28991,0.301454019,-0.174737124,0.297886,0.309200061,-0.189642888,0.308281
0.296899448,-0.245376814,0.332107,0.274470861,-0.186635288,0.311553,0.266197071,-0.227603457,0.319677,0.250470811,-0.20227278,0.306413,0.228798005,-0.179119549,0.284783,0.21947826,-0.159401713,0.269671,0.226334978,-0.136008493,0.283251,0.211455137,-0.122271564,0.258472,0.204521894,-0.117149454,0.246083,0.200773264,-0.128143404,0.23482,0.25510001,-0.138422698,0.292201,0.244391263,-0.139063656,0.267984,0.257077256,-0.167862033,0.283769,0.266301529,-0.176926301,0.297483,0.281103746,-0.144088613,0.301122,0.270927704,-0.13868697,0.277017,0.279475389,-0.162745485,0.289718,0.286790796,-0.175535718,0.304525,0.315654921,-0.158776579,0.314617,0.298850314,-0.160828896,0.29486,0.30653093,-0.178337253,0.303553,0.312898479,-0.192412424,0.313877
0.300242421,-0.246622406,0.33653,0.278868931,-0.188480648,0.316148,0.269925504,-0.228243018,0.324847,0.253186632,-0.204488384,0.312083,0.231260622,-0.180799513,0.290919,0.222058072,-0.162114144,0.275498,0.232470901,-0.138609443,0.288878,0.216272499,-0.120582667,0.264564,0.209347148,-0.113453946,0.252407,0.204608345,-0.124949988,0.241356,0.259903821,-0.141217461,0.296958,0.249149015,-0.142095892,0.272884,0.261966818,-0.171457643,0.289128,0.269865396,-0.181627471,0.302936,0.285390144,-0.146907243,0.30515,0.274082647,-0.148515896,0.281402,0.281512604,-0.172119912,0.294488,0.290277358,-0.179787574,0.309305,0.31997571,-0.162180171,0.317755,0.302139984,-0.163737049,0.298214,0.309061549,-0.181069919,0.307185,0.316056343,-0.195547088,0.317541
0.305350977,-0.249956137,0.342897,0.283389999,-0.193096528,0.321938,0.27499058,-0.231319921,0.331077,0.257239621,-0.208836183,0.3174,0.234832721,-0.184792981,0.296242,0.225321152,-0.165195369,0.281282,0.236148507,-0.143538915,0.294137,0.219395187,-0.122561166,0.269446,0.212506335,-0.117179241,0.257101,0.208075171,-0.126836834,0.245878,0.264288135,-0.14637505,0.302205,0.252922961,-0.146116993,0.277683,0.265823354,-0.174928939,0.293725,0.27367898,-0.185330358,0.30763,0.289590387,-0.15245717,0.31043,0.277611459,-0.151798604,0.286289,0.285199763,-0.175520212,0.299212,0.293322509,-0.185275458,0.314123,0.323431846,-0.166993056,0.323156,0.306980674,-0.167010176,0.303312,0.314156387,-0.183787358,0.312159,0.321193433,-0.198574515,0.322574
0.311255307,-0.253352352,0.350446,0.291014451,-0.20161214,0.331859,0.281771648,-0.236522239,0.339212,0.264662775,-0.216315169,0.326627,0.242730591,-0.19043959,0.306221,0.231751559,-0.17068439,0.291331,0.245008566,-0.152833494,0.306273,0.228896768,-0.128260162,0.283157,0.222563348,-0.120743779,0.271599,0.219617019,-0.130483351,0.261091,0.272832698,-0.155337985,0.314359,0.264251072,-0.147541727,0.29169,0.27974957,-0.178578406,0.308535,0.286715932,-0.193644932,0.322022,0.297746714,-0.161060827,0.32242,0.288215344,-0.158908317,0.299913,0.29751302,-0.183959629,0.313482,0.304128322,-0.196288087,0.327991,0.330943046,-0.174985104,0.334615,0.319667773,-0.170349039,0.316034,0.329764339,-0.183121685,0.325374,0.335120139,-0.203401636,0.335535
0.31444049,-0.25547833,0.354221,0.29475485,-0.204120716,0.335966,0.28534385,-0.238888206,0.343248,0.269834264,-0.219043056,0.331644,0.247271131,-0.19314501,0.310926,0.23563637,-0.172408168,0.298185,0.249069513,-0.155279532,0.310912,0.233440061,-0.130656857,0.288112,0.227403169,-0.123139128,0.276712,0.224184024,-0.129900453,0.266348,0.276817274,-0.157610021,0.318779,0.268857804,-0.149852234,0.296379,0.284626114,-0.181152553,0.313418,0.291435906,-0.196409099,0.32687,0.301608493,-0.163195307,0.326635,0.292710842,-0.161137531,0.304423,0.301761742,-0.185836871,0.318153,0.308324396,-0.198626963,0.332607,0.334570631,-0.176946243,0.33854,0.323899731,-0.170103506,0.320173,0.334094228,-0.185197247,0.329632,0.340170965,-0.204384138,0.339763
0.320250992,-0.259754268,0.360808,0.300660307,-0.207883816,0.342146,0.290810452,-0.24350662,0.349766,0.276010837,-0.222133122,0.339517,0.252664657,-0.193954571,0.321585,0.241132481,-0.174476273,0.307795,0.255134774,-0.158199031,0.316751,0.239799805,-0.133147091,0.293694,0.233922893,-0.125417132,0.282165,0.22977706,-0.13220507,0.271684,0.282823775,-0.160628069,0.324576,0.275054429,-0.1539092,0.301855,0.290355034,-0.185021813,0.318783,0.297278259,-0.19869077,0.332315,0.307538031,-0.166320528,0.332427,0.298804859,-0.163821282,0.309943,0.307726963,-0.188463228,0.323584,0.313848082,-0.201678534,0.338112,0.340396182,-0.180235984,0.344385,0.329506156,-0.173754746,0.325804,0.339530902,-0.188944556,0.335194,0.346251061,-0.205907009,0.345375
0.318014709,-0.258179784,0.359419,0.301002847,-0.200370705,0.345439,0.289696681,-0.241644783,0.349602,0.283969603,-0.207775046,0.350073,0.272919676,-0.178689663,0.338957,0.266741848,-0.157317504,0.332728,0.264715083,-0.149536364,0.3245,0.251438929,-0.132549593,0.30467,0.24516957,-0.124609091,0.294755,0.243324646,-0.135011874,0.285741,0.292552984,-0.155592649,0.332276,0.284311946,-0.158840158,0.313305,0.293343741,-0.186228943,0.331553,0.300395517,-0.194639275,0.344142,0.316789799,-0.164206339,0.339733,0.307796142,-0.160669017,0.320581,0.320354053,-0.186406157,0.335284,0.324877663,-0.206962123,0.348891,0.346939743,-0.18280571,0.35056,0.331153176,-0.17739217,0.334569,0.332795488,-0.191789684,0.344779,0.334393838,-0.203643461,0.354366
0.318257274,-0.258284264,0.360669,0.3018167,-0.200912469,0.346373,0.290096033,-0.241283808,0.350962,0.284788887,-0.2083745,0.351083,0.273523557,-0.179085044,0.339707,0.267254924,-0.157620104,0.333368,0.265426428,-0.1499382,0.325372,0.252059541,-0.132876757,0.305422,0.245745157,-0.124901638,0.295447,0.243675246,-0.134186898,0.286379,0.293112951,-0.155890464,0.332912,0.283989507,-0.158290935,0.313693,0.293697644,-0.186453618,0.331953,0.300827593,-0.194919237,0.344637,0.317224329,-0.164431575,0.340199,0.308092819,-0.160823882,0.32089,0.32066267,-0.186585734,0.335607,0.325855507,-0.206508933,0.349283,0.347463891,-0.18263838,0.350869,0.331321441,-0.177482306,0.334739,0.332966336,-0.191888143,0.344956,0.334608988,-0.203774486,0.354594
0.321560289,-0.261055247,0.366054,0.308993467,-0.208206475,0.353889,0.296529759,-0.246176796,0.359795,0.293883605,-0.217321174,0.362719,0.282655463,-0.187836848,0.352529,0.275859164,-0.163785825,0.344542,0.273696887,-0.160503984,0.338496,0.259316484,-0.143935624,0.321676,0.252096964,-0.135328626,0.313266,0.250232366,-0.14194968,0.30562,0.298472094,-0.163946337,0.342434,0.287013401,-0.153286501,0.325195,0.303905415,-0.185400348,0.344917,0.31234485,-0.201783642,0.357343,0.320112095,-0.170268304,0.346596,0.310110195,-0.164887167,0.330003,0.32916741,-0.191894051,0.345953,0.335848906,-0.211155745,0.359025,0.349665446,-0.183466701,0.353256,0.334919844,-0.178501728,0.339036,0.337693487,-0.193685318,0.350168,0.339511239,-0.206079929,0.359489
0.323329805,-0.263007615,0.369284,0.309414079,-0.210560109,0.357762,0.297467403,-0.246444928,0.362571,0.292941315,-0.219123525,0.364431,0.281065859,-0.189842119,0.353447,0.275500641,-0.16558305,0.34561,0.276705841,-0.162599048,0.342213,0.262014355,-0.1459006,0.325485,0.254625187,-0.13722544,0.317121,0.252270198,-0.14393186,0.309517,0.302142827,-0.166988869,0.346914,0.290534577,-0.155237509,0.330137,0.306702483,-0.187341611,0.349838,0.315923014,-0.204157989,0.362091,0.324288932,-0.174109902,0.351655,0.312323596,-0.17333604,0.335267,0.32726951,-0.199778314,0.351188,0.340599552,-0.214488628,0.364166,0.352688963,-0.189422672,0.358911,0.339260752,-0.179720213,0.344894,0.342477947,-0.194814443,0.356013,0.344761293,-0.209190956,0.365257
0.325395537,-0.265701191,0.373895,0.312851666,-0.213554035,0.3622,0.300359869,-0.248331291,0.367964,0.295523488,-0.22181612,0.3689,0.284286164,-0.192801865,0.358131,0.278510474,-0.171269284,0.35196,0.281811325,-0.165844067,0.34751,0.266255128,-0.148661857,0.331147,0.258393429,-0.139729461,0.322965,0.256205644,-0.146426631,0.315527,0.30625336,-0.170540365,0.351188,0.293045323,-0.156918203,0.33436,0.309530717,-0.18932929,0.354224,0.319259895,-0.206461139,0.366545,0.327614844,-0.176778929,0.3551,0.315164164,-0.17542535,0.338942,0.329848859,-0.20207071,0.355009,0.342087127,-0.218366223,0.367953,0.354462279,-0.193560393,0.361397,0.341462185,-0.181624103,0.347504,0.344502296,-0.196511788,0.358727,0.346923402,-0.21072892,0.367968
0.325913432,-0.266576854,0.375469,0.313803934,-0.214529788,0.363533,0.301117847,-0.249137691,0.369715,0.296246607,-0.222738216,0.370429,0.28517506,-0.193795793,0.359567,0.279345816,-0.172202929,0.353344,0.283219229,-0.166644346,0.348912,0.267379457,-0.149267512,0.332523,0.259368628,-0.140235327,0.324329,0.256827758,-0.146905853,0.316879,0.307425417,-0.171277174,0.352296,0.293746855,-0.157382902,0.3353,0.309846161,-0.18965163,0.355162,0.3197659,-0.206885844,0.367544,0.328504442,-0.177697497,0.355984,0.315726905,-0.175908866,0.339755,0.33028406,-0.202575625,0.355827,0.342257058,-0.219253988,0.3688,0.355194909,-0.194222,0.362048,0.341850249,-0.182197534,0.348084,0.344767742,-0.196935019,0.359307,0.347232035,-0.211066256,0.368574
0.326144325,-0.267474396,0.377619,0.316619575,-0.217838854,0.367767,0.303116939,-0.250694535,0.374207,0.299131967,-0.226285928,0.376654,0.289557125,-0.19805908,0.366828,0.284445993,-0.176690815,0.361296,0.292402761,-0.172995537,0.357355,0.276212795,-0.154824698,0.343572,0.267933533,-0.145307211,0.336681,0.265478431,-0.152363166,0.330416,0.313582593,-0.175586184,0.35849,0.300129948,-0.161569967,0.343482,0.315045391,-0.193807186,0.363968,0.324811459,-0.21098748,0.375827,0.332705461,-0.182264529,0.360171,0.320565298,-0.17981446,0.346309,0.334972165,-0.206888574,0.362914,0.345898767,-0.22470752,0.375146,0.356692825,-0.196857738,0.363559,0.343683273,-0.185286975,0.35134,0.345658605,-0.20025289,0.362978,0.348838698,-0.213164363,0.371791
0.326026842,-0.268062627,0.379436,0.317868271,-0.21902724,0.369332,0.304103645,-0.251821242,0.376071,0.300278904,-0.227271729,0.378463,0.290872616,-0.199010504,0.368882,0.285937057,-0.177653022,0.363441,0.293603121,-0.173705711,0.358822,0.277306159,-0.155437558,0.344932,0.268972858,-0.145870863,0.337987,0.266062869,-0.152763409,0.331674,0.314912653,-0.176682038,0.35982,0.300860729,-0.162253996,0.344622,0.315525257,-0.194391288,0.365069,0.325414895,-0.211694895,0.376985,0.333903553,-0.183407272,0.361406,0.321160222,-0.18057877,0.347413,0.33535345,-0.207600615,0.36399,0.346385908,-0.225504356,0.376262,0.357742858,-0.198081999,0.364717,0.344032147,-0.186380113,0.352389,0.345764304,-0.201309629,0.364004,0.349069903,-0.21417888,0.372846
0.330052965,-0.272667809,0.386847,0.321877339,-0.224564451,0.376429,0.305945031,-0.25515935,0.382215,0.303518757,-0.231332092,0.384916,0.294815199,-0.203013345,0.375592,0.290532495,-0.181693157,0.370228,0.29653565,-0.176775796,0.36415,0.279328378,-0.157396236,0.349286,0.270548191,-0.14728567,0.341854,0.265937814,-0.153225179,0.335098,0.319761559,-0.181889018,0.36662,0.304035597,-0.166426527,0.350976,0.317685214,-0.197966507,0.371253,0.329517931,-0.215870905,0.383276,0.339728583,-0.189595779,0.369441,0.324783213,-0.185576782,0.354656,0.338121101,-0.212494704,0.371074,0.351009726,-0.230209007,0.383603,0.364833965,-0.205603552,0.374263,0.339258773,-0.198923208,0.361385,0.340258705,-0.213853095,0.372878,0.343204,-0.227078241,0.381867
