sluyters/QuantumLeap/backend/src/datasets/gesture/HandGestureDataset_SHREC2017_csv/Gesture1/finger_1/subject_1_essai_2_skeletons_world.csv
Wrist_x,Wrist_y,Wrist_z,Palm_x,Palm_y,Palm_z,thumb_base_x,thumb_base_y,thumb_base_z,thumb_first_joint_x,thumb_first_joint_y,thumb_first_joint_z,thumb_second_joint_x,thumb_second_joint_y,thumb_second_joint_z,thumb_tip_x,thumb_tip_y,thumb_tip_z,index_base_x,index_base_y,index_base_z,index_first_joint_x,index_first_joint_y,index_first_joint_z,index_second_joint_x,index_second_joint_y,index_second_joint_z,index_tip_x,index_tip_y,index_tip_z,middle_base_x,middle_base_y,middle_base_z,middle_first_joint_x,middle_first_joint_y,middle_first_joint_z,middle_second_joint_x,middle_second_joint_y,middle_second_joint_z,middle_tip_x,middle_tip_y,middle_tip_z,ring_base_x,ring_base_y,ring_base_z,ring_first_joint_x,ring_first_joint_y,ring_first_joint_z,ring_second_joint_x,ring_second_joint_y,ring_second_joint_z,ring_tip_x,ring_tip_y,ring_tip_z,pinky_base_x,pinky_base_y,pinky_base_z,pinky_first_joint_x,pinky_first_joint_y,pinky_first_joint_z,pinky_second_joint_x,pinky_second_joint_y,pinky_second_joint_z,pinky_tip_x,pinky_tip_y,pinky_tip_z
0.49385333,-0.4563312,0.578923,0.46377931,-0.39528125,0.550629,0.46199223,-0.43821485,0.565712,0.41940848,-0.41134065,0.538625,0.38390036,-0.38901905,0.514233,0.36212454,-0.36676918,0.499235,0.41109762,-0.32592863,0.512956,0.39781981,-0.28153316,0.501565,0.39459719,-0.28122484,0.49587,0.40578821,-0.29117551,0.508299,0.43896533,-0.33097188,0.518747,0.41564479,-0.32148885,0.483027,0.42635248,-0.35708124,0.499473,0.43805157,-0.37150659,0.517556,0.4637619,-0.33899362,0.52545,0.44122486,-0.32466025,0.490455,0.42354928,-0.33338841,0.472551,0.42120933,-0.33850811,0.474344,0.49705022,-0.35633791,0.53727,0.46324443,-0.35893085,0.506293,0.46607271,-0.38120363,0.516335,0.47447599,-0.40176762,0.531132
0.49193829,-0.45378726,0.578264,0.46354768,-0.38491153,0.550354,0.45462753,-0.42627721,0.565006,0.41882136,-0.4004146,0.537871,0.38300226,-0.37779249,0.51303,0.36130706,-0.35570817,0.498108,0.41106797,-0.3161416,0.512919,0.39776508,-0.2718405,0.501496,0.39452875,-0.27125574,0.495784,0.40571876,-0.28057858,0.508212,0.43909988,-0.32121476,0.518906,0.41605697,-0.31179401,0.483506,0.42690903,-0.3473238,0.500125,0.43855179,-0.36170933,0.518147,0.4640205,-0.32922674,0.525743,0.44169446,-0.31489559,0.490977,0.42412202,-0.32415296,0.47319,0.4219286,-0.32971078,0.475154,0.49742398,-0.3464969,0.537674,0.46379616,-0.34926421,0.506896,0.46672172,-0.3715167,0.517054,0.47509507,-0.3919683,0.531825
0.4806237,-0.44192807,0.572749,0.46300553,-0.38132144,0.54992,0.45197767,-0.42056334,0.561784,0.41781615,-0.39804769,0.537364,0.38136267,-0.37559021,0.511122,0.35910139,-0.35352713,0.495305,0.41522235,-0.31025011,0.519153,0.40706117,-0.27012032,0.515514,0.40567111,-0.2695474,0.513694,0.41739433,-0.27768836,0.528479,0.44243308,-0.31526877,0.524197,0.41823082,-0.31566464,0.493405,0.43128784,-0.35080006,0.513048,0.4438819,-0.36394328,0.530351,0.46649094,-0.32317797,0.529911,0.44432264,-0.3084071,0.499661,0.43138693,-0.32049687,0.484185,0.43451012,-0.33572847,0.489343,0.49849833,-0.34025096,0.539814,0.46687892,-0.33956224,0.51269,0.4740014,-0.3629916,0.524907,0.48464368,-0.38294358,0.53919
0.47478414,-0.43467118,0.565477,0.45910842,-0.37336058,0.544918,0.44633018,-0.40957376,0.554556,0.41649463,-0.38809986,0.530332,0.38157224,-0.36391507,0.503986,0.36045837,-0.34093703,0.488223,0.413175,-0.3066876,0.51594,0.40712394,-0.26814029,0.514821,0.40681385,-0.26762208,0.514261,0.41910696,-0.2753931,0.529632,0.44092531,-0.31221476,0.521752,0.41925311,-0.30996157,0.492989,0.43220366,-0.34871119,0.513397,0.44576756,-0.36469602,0.530208,0.46533991,-0.32045823,0.527942,0.44533532,-0.29871161,0.499301,0.43333718,-0.31166763,0.484647,0.43648806,-0.32968279,0.490719,0.49755283,-0.33777576,0.538112,0.46733444,-0.33705159,0.512382,0.47491619,-0.36105843,0.52512,0.48526688,-0.38115904,0.539115
0.47256438,-0.42700663,0.561436,0.45835503,-0.36718224,0.540944,0.44483861,-0.40543765,0.551479,0.41661152,-0.37983853,0.528348,0.38039687,-0.35393464,0.503131,0.35937497,-0.33050829,0.488397,0.41623436,-0.29817701,0.513189,0.40848402,-0.26385422,0.514225,0.40928766,-0.26008039,0.514744,0.42091931,-0.26972836,0.530666,0.44305613,-0.30354565,0.517855,0.41942599,-0.29653037,0.489258,0.43332471,-0.33449427,0.51001,0.44593019,-0.35111732,0.526868,0.46666855,-0.31167194,0.523097,0.44728251,-0.29052986,0.49498,0.42848075,-0.30296187,0.480594,0.42969086,-0.31662047,0.487047,0.49787983,-0.32889315,0.532124,0.46614526,-0.32590196,0.506749,0.47388295,-0.35017027,0.519731,0.48275726,-0.37313327,0.533695
0.47065014,-0.42303575,0.558193,0.4584546,-0.36082321,0.537253,0.4436883,-0.39940297,0.548426,0.41459667,-0.37613646,0.525485,0.37816966,-0.35034417,0.500168,0.35713901,-0.32693352,0.485324,0.41477852,-0.29389785,0.509386,0.41004118,-0.25384084,0.509149,0.40674241,-0.25488486,0.50903,0.41823963,-0.26125142,0.524672,0.44125679,-0.29934473,0.513658,0.41663981,-0.2927443,0.484684,0.43017546,-0.33037649,0.505343,0.44298951,-0.34673952,0.522307,0.46456606,-0.30754681,0.518607,0.44457328,-0.28697994,0.490273,0.42525674,-0.29925907,0.475776,0.42638331,-0.31251115,0.482117,0.4953733,-0.32487569,0.527342,0.4628306,-0.32208349,0.50176,0.47032476,-0.34609483,0.51468,0.48087272,-0.36636394,0.528693
0.46485725,-0.40972308,0.547317,0.45415959,-0.34350742,0.524759,0.43939871,-0.38515232,0.537967,0.41043441,-0.36031121,0.515428,0.3729975,-0.33512065,0.490651,0.35127628,-0.31178386,0.475701,0.4095925,-0.27647684,0.49616,0.40320555,-0.23906828,0.496135,0.40123634,-0.23752878,0.496123,0.41192162,-0.24347697,0.511782,0.43521281,-0.28133659,0.499341,0.40728032,-0.27181364,0.469002,0.42068557,-0.30911549,0.489158,0.43463965,-0.32648205,0.506459,0.45794762,-0.28909713,0.503503,0.43475184,-0.26849844,0.474274,0.41462597,-0.28068285,0.45932,0.41607917,-0.29340726,0.465111,0.48833001,-0.30599422,0.511513,0.45287937,-0.30303729,0.485116,0.46035015,-0.32653013,0.497702,0.47160516,-0.34661071,0.511872
0.46109913,-0.3957426,0.538534,0.44883758,-0.3358994,0.517736,0.43621324,-0.36959445,0.529139,0.40660654,-0.34907771,0.506637,0.37389119,-0.32811207,0.479745,0.35375931,-0.30622597,0.462608,0.40820344,-0.26657034,0.490428,0.40064821,-0.23051559,0.491975,0.39926977,-0.22929586,0.492748,0.40985848,-0.23861389,0.508771,0.4342657,-0.27258636,0.494301,0.40814006,-0.26241912,0.465504,0.42102999,-0.29997654,0.486303,0.43455951,-0.31524063,0.503248,0.45717789,-0.28122349,0.498912,0.43325337,-0.26467595,0.47087,0.41369482,-0.27723703,0.456522,0.4157406,-0.29046596,0.463037,0.48577964,-0.30122773,0.507223,0.45463492,-0.29404342,0.481858,0.46245545,-0.31852652,0.494878,0.47113165,-0.34186061,0.508853
0.46723497,-0.39271705,0.54297,0.44915963,-0.33075963,0.516693,0.43720511,-0.36770875,0.529795,0.41354298,-0.34430661,0.502782,0.38228655,-0.31914898,0.475335,0.36442222,-0.2965481,0.459373,0.40021942,-0.26067111,0.480608,0.39149134,-0.22123936,0.477297,0.38767479,-0.20469718,0.475641,0.39737524,-0.19557091,0.490511,0.42827202,-0.26796515,0.487085,0.40657356,-0.2397664,0.453084,0.41850535,-0.27545847,0.470494,0.42997262,-0.29708446,0.488257,0.45333298,-0.2775735,0.494214,0.43250473,-0.25930374,0.460567,0.41080405,-0.27010338,0.443352,0.40420962,-0.28004246,0.446124,0.48685688,-0.29685202,0.506275,0.46416889,-0.28585811,0.476447,0.46021584,-0.30359521,0.487136,0.46567808,-0.31453414,0.501778
0.465202,-0.3895109,0.539898,0.44630675,-0.328163,0.513205,0.43508449,-0.36487724,0.526722,0.41089275,-0.34199048,0.499696,0.37946523,-0.31632131,0.472456,0.36152611,-0.29356967,0.456762,0.39606922,-0.25843521,0.476799,0.38804957,-0.21982254,0.474076,0.38433516,-0.20222001,0.472714,0.39400595,-0.19207113,0.487731,0.42431223,-0.26465951,0.483127,0.40146181,-0.23569599,0.448768,0.41367218,-0.27101699,0.465994,0.42552878,-0.29311636,0.48383,0.4494441,-0.27358623,0.490163,0.42765386,-0.25496704,0.456236,0.40617892,-0.26564928,0.438878,0.40192256,-0.27774422,0.441458,0.48307955,-0.29194402,0.502167,0.45963498,-0.28147697,0.472099,0.45584044,-0.29934807,0.482665,0.46147273,-0.31077092,0.497344
0.46248953,-0.3846207,0.535904,0.44100133,-0.32094338,0.50544,0.43229966,-0.35791478,0.522001,0.4077379,-0.33607867,0.494183,0.37731428,-0.31163081,0.467293,0.36004135,-0.29083681,0.452433,0.39001183,-0.24923227,0.46527,0.38116227,-0.20877471,0.459023,0.37687629,-0.18917468,0.455899,0.38687864,-0.17739174,0.46998,0.41805076,-0.25513568,0.471114,0.3936901,-0.22451389,0.433548,0.4043538,-0.25851674,0.448497,0.41307708,-0.28118347,0.466778,0.4431282,-0.26382013,0.478009,0.41939926,-0.24973979,0.441315,0.39545478,-0.25945178,0.422541,0.38615215,-0.26651104,0.422899,0.47695174,-0.28190162,0.490352,0.45447092,-0.27335909,0.458003,0.44963279,-0.29056149,0.467039,0.45042344,-0.30087085,0.481927
0.45117746,-0.36724214,0.5212,0.43244312,-0.30112355,0.492054,0.42270983,-0.33902907,0.507913,0.40128924,-0.32046001,0.480746,0.37338038,-0.29941859,0.453755,0.35552192,-0.28082113,0.438395,0.38236195,-0.23274079,0.453638,0.37721207,-0.19518945,0.449896,0.3745931,-0.1756135,0.448026,0.37218348,-0.15731816,0.446325,0.41001775,-0.23953942,0.459212,0.38319128,-0.20412087,0.422776,0.39548075,-0.23715209,0.438741,0.40883138,-0.26122988,0.456932,0.43467488,-0.24891738,0.465795,0.41510642,-0.21268925,0.430218,0.3934146,-0.22247653,0.412015,0.38748557,-0.23718306,0.413341,0.46771662,-0.26774739,0.477587,0.44554115,-0.2571066,0.446121,0.44174863,-0.27498309,0.455841,0.44473892,-0.29114857,0.470684
0.44564559,-0.35993618,0.513617,0.42785512,-0.29516703,0.483786,0.41813889,-0.33207367,0.500783,0.39764591,-0.31523915,0.474132,0.36982908,-0.29436221,0.44773,0.35441179,-0.27427898,0.431975,0.38124865,-0.22517022,0.445397,0.37383422,-0.1902569,0.443775,0.37152327,-0.17107722,0.442964,0.36937488,-0.15308895,0.442227,0.40827783,-0.23221655,0.450174,0.38013386,-0.19654305,0.41322,0.39157752,-0.22929885,0.428966,0.40263005,-0.25460451,0.447275,0.43241452,-0.24183587,0.456148,0.41201748,-0.20563423,0.420357,0.38919151,-0.21531485,0.402045,0.38038579,-0.23063254,0.403182,0.46483483,-0.26103187,0.467302,0.44107713,-0.25013015,0.435613,0.43687389,-0.26763257,0.445193,0.43887972,-0.28071364,0.46006
0.43345599,-0.33635839,0.492803,0.42413584,-0.27797589,0.46797,0.40696712,-0.31490321,0.482659,0.39396393,-0.30389864,0.459112,0.36210438,-0.28262536,0.434752,0.35013261,-0.26765628,0.425914,0.37791676,-0.21317472,0.436667,0.36526473,-0.17417873,0.427998,0.35884609,-0.15405269,0.423664,0.35296072,-0.13536355,0.419734,0.40408554,-0.21836908,0.439988,0.37914314,-0.1899069,0.407564,0.39402711,-0.22462102,0.4266,0.40479154,-0.25042129,0.444304,0.4273105,-0.22629606,0.444422,0.39861613,-0.18348544,0.413231,0.38456719,-0.19332184,0.397273,0.38905411,-0.21426457,0.401809,0.45825764,-0.24311456,0.453062,0.41731419,-0.24335262,0.425056,0.41660967,-0.25784203,0.436875,0.42854869,-0.26568472,0.45176
0.43306782,-0.33253833,0.48908,0.41734847,-0.27165924,0.458642,0.40596067,-0.30748253,0.475307,0.38699078,-0.29654561,0.447628,0.35287459,-0.27540817,0.420874,0.33362165,-0.25460912,0.40537,0.36437514,-0.20278084,0.418648,0.35645986,-0.1642425,0.411888,0.35245735,-0.14417953,0.408509,0.34878873,-0.1254376,0.405436,0.3926722,-0.20877321,0.424345,0.3632547,-0.18008607,0.38681,0.37464152,-0.21295608,0.401832,0.38671386,-0.23597466,0.420125,0.41824289,-0.21752019,0.431118,0.38465846,-0.17400096,0.3945,0.36774607,-0.18311848,0.375765,0.36609108,-0.20086558,0.376192,0.45305685,-0.23570533,0.443311,0.40786603,-0.23567848,0.411013,0.40449231,-0.24788525,0.420098,0.41453856,-0.25526401,0.434988
0.4314555,-0.32535555,0.481876,0.41337546,-0.26564022,0.45167,0.4035353,-0.29990429,0.467694,0.38113686,-0.28955913,0.439568,0.34814818,-0.26472241,0.412357,0.32853621,-0.24253397,0.396244,0.35867218,-0.19775811,0.411357,0.35174683,-0.16007446,0.405802,0.34823154,-0.14034046,0.403025,0.34500179,-0.12183455,0.4005,0.38731922,-0.20406487,0.417634,0.35920525,-0.16910375,0.38026,0.37102277,-0.20054195,0.395228,0.38349142,-0.22929525,0.413445,0.41321224,-0.21305315,0.424868,0.37941925,-0.16975323,0.388208,0.36242643,-0.17886696,0.369452,0.36266131,-0.19677205,0.369824,0.44843184,-0.231503,0.437581,0.40313713,-0.23148527,0.405289,0.39985025,-0.24371061,0.414334,0.41191596,-0.25054011,0.429207
0.42372113,-0.31369297,0.467479,0.40263166,-0.25530068,0.436367,0.39447987,-0.28996807,0.453746,0.37555073,-0.27893167,0.426135,0.34234569,-0.25713672,0.399485,0.32133744,-0.23590159,0.384806,0.34907018,-0.18776342,0.395907,0.33875953,-0.14879202,0.386916,0.33356365,-0.12937517,0.38242,0.32880028,-0.11122161,0.378334,0.37721391,-0.1931389,0.401311,0.3475376,-0.15872221,0.363236,0.36001418,-0.18966145,0.37786,0.37146668,-0.21563809,0.396223,0.40277215,-0.20135241,0.407888,0.36830984,-0.15767967,0.370873,0.35130354,-0.16667707,0.351935,0.34864628,-0.18546507,0.352,0.43780068,-0.21885834,0.419937,0.393232,-0.21932121,0.387302,0.38945031,-0.23146499,0.396124,0.40132572,-0.23794452,0.41103
0.41212641,-0.30244963,0.450051,0.38963789,-0.24699537,0.42001,0.38193816,-0.280523,0.435188,0.34875338,-0.26427721,0.406338,0.31837106,-0.24640446,0.378807,0.29838185,-0.22679337,0.360054,0.33188597,-0.17979878,0.378997,0.32644412,-0.14136539,0.37259,0.32420002,-0.12213284,0.369386,0.32030023,-0.10585509,0.366473,0.36101929,-0.18431963,0.38616,0.33636188,-0.15179803,0.348889,0.35410001,-0.18286301,0.363584,0.36456797,-0.20759209,0.381678,0.38824247,-0.19318694,0.394112,0.35542656,-0.15108552,0.357261,0.34310081,-0.15955629,0.338406,0.3413277,-0.17735898,0.338534,0.42407688,-0.21041457,0.407663,0.40385463,-0.19788624,0.375281,0.40079271,-0.2155351,0.384137,0.40421654,-0.22825568,0.398968
0.40522657,-0.29661191,0.441974,0.3812118,-0.24001441,0.410536,0.37396252,-0.27437978,0.426226,0.35123987,-0.25511432,0.396498,0.3241772,-0.2337833,0.36896,0.30720762,-0.21301979,0.351436,0.32323583,-0.17294789,0.367381,0.3152129,-0.13315638,0.35661,0.31189966,-0.11388194,0.351225,0.30894344,-0.095687385,0.346329,0.35288453,-0.177465,0.375112,0.32889173,-0.14361797,0.336682,0.34517563,-0.17413349,0.350005,0.35724551,-0.19996356,0.368088,0.37958783,-0.18485794,0.383627,0.34872168,-0.14362968,0.345539,0.33496175,-0.15205456,0.326052,0.33253733,-0.16964075,0.324939,0.41587326,-0.20113409,0.398039,0.39491331,-0.19314131,0.364713,0.39445404,-0.211647,0.372648,0.39473108,-0.22265607,0.387455
0.39657161,-0.28975947,0.429264,0.37284115,-0.23134389,0.398934,0.36384757,-0.26717522,0.413774,0.34646409,-0.25327138,0.384282,0.31291343,-0.22698127,0.356565,0.29735146,-0.20634683,0.341383,0.31747122,-0.16198089,0.356939,0.304017,-0.12800867,0.3406,0.29732564,-0.11015331,0.332431,0.29126635,-0.093321589,0.325004,0.34520834,-0.17020902,0.364759,0.32039853,-0.14070074,0.327236,0.33687184,-0.17148249,0.341379,0.35095659,-0.19598017,0.359391,0.37179491,-0.17815863,0.373271,0.34255279,-0.14065138,0.335979,0.32864625,-0.14997776,0.3169,0.32714581,-0.16563958,0.316537,0.41116847,-0.19449196,0.387531,0.3859231,-0.18325042,0.354847,0.38371219,-0.2020198,0.36333,0.38863312,-0.21747788,0.378122
0.39240615,-0.28559007,0.422794,0.36824561,-0.22647733,0.38985,0.35928278,-0.26296866,0.406902,0.34047417,-0.24855289,0.377098,0.30896039,-0.22524893,0.349974,0.29133316,-0.20443091,0.333581,0.30870793,-0.16037735,0.345368,0.29541256,-0.12644615,0.329099,0.28882485,-0.10862548,0.320965,0.28192181,-0.090892222,0.31357,0.33828124,-0.16478249,0.352729,0.31043966,-0.13191197,0.313102,0.32614309,-0.16073794,0.325339,0.34127909,-0.18649913,0.343514,0.36525225,-0.17216359,0.361043,0.33238964,-0.13639129,0.321986,0.31728052,-0.1452844,0.302004,0.3133495,-0.15910782,0.299923,0.4024759,-0.1886451,0.375417,0.3785486,-0.18024468,0.341297,0.37493932,-0.1981834,0.34851,0.3772234,-0.20966864,0.363316
0.38990359,-0.28324453,0.418481,0.36518019,-0.22470814,0.385593,0.35742039,-0.26026939,0.402503,0.33708243,-0.24640518,0.372611,0.30640319,-0.22535237,0.345403,0.28825867,-0.20353174,0.329902,0.30456164,-0.15857784,0.341049,0.29011581,-0.1243885,0.324219,0.28292743,-0.10649259,0.315804,0.27640654,-0.089623164,0.308154,0.33421441,-0.16291537,0.348535,0.30565704,-0.12979328,0.30895,0.32128771,-0.15838417,0.321167,0.33668803,-0.18417354,0.33932,0.36133488,-0.17023727,0.356946,0.32772842,-0.13423737,0.317889,0.3127188,-0.14242514,0.297906,0.31129114,-0.15828499,0.29581,0.39888152,-0.18666302,0.37143,0.36605629,-0.18428115,0.337319,0.36136595,-0.20034975,0.344518,0.37202791,-0.20799055,0.359315
0.38586375,-0.27999295,0.408862,0.35894189,-0.22291033,0.376843,0.35113262,-0.25703439,0.392177,0.33219123,-0.24884044,0.361548,0.30125949,-0.22728523,0.333775,0.28271285,-0.20373255,0.319484,0.29458043,-0.16176456,0.332107,0.27853266,-0.12716467,0.315158,0.27050047,-0.10909576,0.306684,0.26317677,-0.092092053,0.29898,0.32516089,-0.16498415,0.340765,0.29767492,-0.12854532,0.301883,0.31466604,-0.15685606,0.314137,0.33038303,-0.18191285,0.332047,0.3539463,-0.16915256,0.350081,0.32005913,-0.13270639,0.311287,0.30636028,-0.13990944,0.291439,0.30633288,-0.15639202,0.289419,0.39283016,-0.18515031,0.365532,0.36116605,-0.18254763,0.331724,0.35708222,-0.199015,0.338943,0.3668178,-0.20731799,0.35364
0.38392989,-0.2789952,0.405111,0.35513279,-0.22302783,0.371249,0.34793485,-0.25599169,0.387038,0.3227074,-0.2409312,0.355256,0.29553517,-0.22116419,0.327547,0.27839694,-0.20109688,0.309822,0.2886461,-0.16255284,0.323418,0.27310616,-0.12880045,0.300323,0.26547,-0.11133782,0.288775,0.25862361,-0.095041681,0.278276,0.31929804,-0.16422781,0.333093,0.29166888,-0.13067426,0.292881,0.31211083,-0.15904621,0.302512,0.33033655,-0.18405311,0.320081,0.3469547,-0.16864768,0.343373,0.3119742,-0.13290655,0.303051,0.30333004,-0.14133563,0.282422,0.29996165,-0.15344665,0.278248,0.38695044,-0.18252862,0.360224,0.3680117,-0.17684086,0.32533,0.36224316,-0.19352554,0.330803,0.36156578,-0.20289748,0.345207
0.38393116,-0.27796768,0.402643,0.35406591,-0.22349673,0.367589,0.34956706,-0.25773257,0.384943,0.32665886,-0.24335639,0.353609,0.29739183,-0.2235593,0.326456,0.2800516,-0.20286485,0.30916,0.28438323,-0.16104922,0.319299,0.26743429,-0.13102883,0.293439,0.25943258,-0.11526777,0.280509,0.25228773,-0.10059931,0.268755,0.31429166,-0.16161444,0.32809,0.28970297,-0.14128242,0.286946,0.30296941,-0.17158315,0.296001,0.31576761,-0.18845969,0.313726,0.34203223,-0.16567699,0.337724,0.30760923,-0.13354745,0.296841,0.29699827,-0.14005153,0.275924,0.29668916,-0.15325038,0.271234,0.38122315,-0.1778923,0.353962,0.35480891,-0.1768574,0.31856,0.35221351,-0.1954619,0.323656,0.35791935,-0.20734029,0.338091
0.37494488,-0.27071516,0.386241,0.34715619,-0.21735956,0.351947,0.33993247,-0.25294826,0.367948,0.32045967,-0.23326858,0.33602,0.29689828,-0.21172539,0.308528,0.28150074,-0.19108573,0.29023,0.2713459,-0.15528607,0.303519,0.25406414,-0.12651517,0.277013,0.24560688,-0.1116969,0.263761,0.23805452,-0.097901298,0.251713,0.3019409,-0.15468674,0.313304,0.28017405,-0.13739539,0.272796,0.29503298,-0.16709694,0.281829,0.30439984,-0.18166974,0.299317,0.33062935,-0.15771179,0.323705,0.29780121,-0.13040212,0.283082,0.28918605,-0.13664318,0.262299,0.28594908,-0.1480369,0.257647,0.37166135,-0.1686218,0.340759,0.34444896,-0.16958836,0.30565,0.34449257,-0.18899568,0.310727,0.34792323,-0.20045089,0.325052
0.37568833,-0.27017579,0.385432,0.34503877,-0.21537556,0.350571,0.34053412,-0.25281092,0.367312,0.31732561,-0.23309276,0.335591,0.28674815,-0.21495647,0.308598,0.26855919,-0.19621145,0.290293,0.2699631,-0.15491122,0.301918,0.24927927,-0.12595384,0.270643,0.24175454,-0.11722717,0.255006,0.23468458,-0.10860889,0.24079,0.30013868,-0.15379279,0.31129,0.27888409,-0.13872217,0.270338,0.29299613,-0.16784532,0.279096,0.30296824,-0.1815803,0.296659,0.32840198,-0.15634125,0.321388,0.29639343,-0.13135881,0.280495,0.28743852,-0.13786302,0.259574,0.28447121,-0.14779262,0.254676,0.36877159,-0.16655005,0.338156,0.34166134,-0.16912621,0.302803,0.34122934,-0.18807926,0.3077,0.34579798,-0.19904001,0.322042
0.37335223,-0.26805982,0.381786,0.34252717,-0.2144971,0.34825,0.33964146,-0.25220686,0.365358,0.31616851,-0.2335546,0.335064,0.28660869,-0.21536585,0.308078,0.26902366,-0.19655348,0.289747,0.27043707,-0.15641137,0.302665,0.24566132,-0.12736395,0.265942,0.23436876,-0.11490839,0.247581,0.2247186,-0.10511707,0.230889,0.29912459,-0.15425681,0.310462,0.2800052,-0.14230883,0.27038,0.29679715,-0.17285482,0.281802,0.30698295,-0.18487136,0.299885,0.3258911,-0.15591977,0.319174,0.29638978,-0.13401122,0.279567,0.28831225,-0.14111094,0.259302,0.28749917,-0.14994158,0.25653,0.36403056,-0.16490935,0.334105,0.33811931,-0.16820012,0.299589,0.3397411,-0.1880714,0.306258,0.34528304,-0.19909728,0.320991
0.36932936,-0.26658375,0.379758,0.33530754,-0.22257214,0.347066,0.33718966,-0.25230003,0.363295,0.30830209,-0.23905866,0.332911,0.28469725,-0.21539459,0.305692,0.26830382,-0.19648373,0.287727,0.27079877,-0.16519924,0.302085,0.24450556,-0.12987217,0.265726,0.23363566,-0.11752509,0.247546,0.22462476,-0.10642192,0.231019,0.29895822,-0.16360324,0.310231,0.2818903,-0.14512006,0.270807,0.30000598,-0.17623689,0.2828,0.31104937,-0.19022909,0.300825,0.32457352,-0.16574976,0.319172,0.28817744,-0.12756736,0.280049,0.28136783,-0.13357052,0.260034,0.28503644,-0.14736001,0.257763,0.36003251,-0.17521291,0.334263,0.33976554,-0.17838222,0.300154,0.34017567,-0.1975609,0.307201,0.34754841,-0.2021564,0.321937
0.36367634,-0.26399934,0.372681,0.33130231,-0.2202196,0.343195,0.33168693,-0.24972993,0.357865,0.30459863,-0.23791474,0.329061,0.28395005,-0.22067465,0.304585,0.27101555,-0.20295602,0.288528,0.2702844,-0.16264343,0.302665,0.24712666,-0.1326945,0.268894,0.23762409,-0.12367047,0.252009,0.23119949,-0.12103247,0.236658,0.29801721,-0.16295429,0.309971,0.28554399,-0.14929377,0.273162,0.30514277,-0.1828043,0.288184,0.31546326,-0.19639285,0.306215,0.32294849,-0.16495326,0.318003,0.29511697,-0.13210624,0.28167,0.28961579,-0.13995472,0.26308,0.29338936,-0.15312548,0.263565,0.35712796,-0.17407314,0.331575,0.33803147,-0.17808797,0.299506,0.34153797,-0.1989596,0.308581,0.34765488,-0.20933049,0.323403
0.37109324,-0.27057318,0.380345,0.33589214,-0.22307029,0.34717,0.33702666,-0.25531753,0.362757,0.30725246,-0.24029476,0.331349,0.28350805,-0.22090518,0.303679,0.26873604,-0.20165915,0.284907,0.26876345,-0.1613707,0.300454,0.24180153,-0.13461002,0.263058,0.23189508,-0.13058959,0.24436,0.22336699,-0.12692829,0.227361,0.29862203,-0.16249269,0.30979,0.28415328,-0.15585364,0.270053,0.29518483,-0.18542205,0.280709,0.30635551,-0.1947851,0.298427,0.32569657,-0.16586324,0.319743,0.297027,-0.13484927,0.279959,0.28835509,-0.14219231,0.259604,0.28591298,-0.15033862,0.256255,0.36328339,-0.17699609,0.336111,0.33993383,-0.18098602,0.301593,0.34067976,-0.20002873,0.307747,0.34735263,-0.21006991,0.322281
0.37572896,-0.27556796,0.383836,0.33870818,-0.22512492,0.349741,0.33954144,-0.25840334,0.365753,0.30982063,-0.24273635,0.333981,0.28621287,-0.22351499,0.306548,0.27170375,-0.20427675,0.287689,0.26982348,-0.16179167,0.30172,0.24476171,-0.14689987,0.263685,0.23236294,-0.13995567,0.244668,0.2255077,-0.1438193,0.22738,0.30013429,-0.16305964,0.311324,0.28266127,-0.15588504,0.270937,0.29374305,-0.18508812,0.280374,0.30381908,-0.19683822,0.297945,0.32780629,-0.16694198,0.321562,0.30024008,-0.1432893,0.281105,0.28857678,-0.1512085,0.260406,0.28604104,-0.15508964,0.256068,0.36640068,-0.17886499,0.338394,0.34046041,-0.18384046,0.30339,0.34135814,-0.20257307,0.308735,0.34876932,-0.21156468,0.323127
0.37785925,-0.27839365,0.384972,0.34027823,-0.22691276,0.350923,0.33974297,-0.26228463,0.366647,0.31185797,-0.24720946,0.334668,0.28848849,-0.23066591,0.306899,0.27322811,-0.20795241,0.288308,0.27072504,-0.16382924,0.302643,0.24574079,-0.15279851,0.26453,0.23338925,-0.1460242,0.245474,0.22656753,-0.1468426,0.22815,0.30130991,-0.16445949,0.312557,0.28326796,-0.15802172,0.272238,0.29477246,-0.18716187,0.281429,0.30527561,-0.20069517,0.298898,0.3294208,-0.16857416,0.323046,0.3050163,-0.15567268,0.282554,0.29221571,-0.16258462,0.261837,0.28493673,-0.16608702,0.257322,0.37019834,-0.18232843,0.340173,0.34176898,-0.18775916,0.305175,0.3431331,-0.20625875,0.310356,0.35221572,-0.21613427,0.324683
0.37551796,-0.28415162,0.383242,0.34097709,-0.23054842,0.35031,0.33642236,-0.26656432,0.36447,0.31054956,-0.24944641,0.332044,0.28700211,-0.23013207,0.303972,0.27127355,-0.20724252,0.28561,0.27000617,-0.16575001,0.302343,0.24690637,-0.15424553,0.26457,0.235394,-0.14785382,0.245683,0.22900834,-0.15122161,0.228513,0.30165893,-0.1675673,0.313204,0.28355822,-0.16252272,0.273819,0.2972038,-0.19211793,0.283277,0.30772295,-0.20450221,0.300492,0.33084076,-0.17381318,0.324395,0.31116463,-0.16646283,0.28445,0.29624641,-0.17184101,0.264013,0.2872433,-0.17000864,0.259804,0.37186868,-0.18739541,0.342213,0.34458511,-0.19034812,0.307734,0.34633724,-0.20879493,0.313092,0.35553878,-0.21906398,0.327304
0.37178167,-0.28519102,0.380334,0.34508895,-0.2363042,0.353853,0.33676642,-0.26788746,0.364293,0.3129845,-0.25238735,0.334337,0.29174838,-0.23467982,0.308651,0.27883356,-0.21650066,0.291622,0.28046455,-0.17504191,0.314133,0.26610385,-0.17422256,0.280958,0.25935486,-0.17266028,0.264697,0.25545773,-0.17780093,0.249915,0.31198208,-0.17603462,0.324015,0.30003923,-0.17341446,0.289783,0.320573,-0.20845674,0.305283,0.33137183,-0.22294754,0.322531,0.34056923,-0.18035165,0.333958,0.32684548,-0.17659383,0.299008,0.3154703,-0.18434751,0.281126,0.3118473,-0.1883329,0.282242,0.37969483,-0.19268736,0.349417,0.35688702,-0.20060913,0.318809,0.36367206,-0.2217919,0.328203,0.3735665,-0.23301824,0.342617
0.37372332,-0.28812899,0.3824,0.34759791,-0.24119805,0.357117,0.33901517,-0.27092534,0.366828,0.31678396,-0.25736415,0.337392,0.29676852,-0.23926398,0.312752,0.284065,-0.2202081,0.296733,0.28456154,-0.18135461,0.318882,0.27062394,-0.17822286,0.286618,0.26393439,-0.176913,0.270573,0.26003973,-0.18248249,0.255985,0.31598617,-0.18264709,0.328629,0.30519179,-0.17728548,0.295442,0.32674559,-0.21342859,0.311743,0.3374869,-0.22830037,0.328865,0.34438418,-0.18719116,0.338379,0.33116246,-0.18297623,0.304425,0.32036877,-0.19101443,0.287054,0.31822308,-0.19413163,0.288962,0.3830521,-0.19974808,0.353446,0.36092162,-0.20773281,0.323641,0.3683004,-0.22897505,0.333575,0.37872345,-0.23938557,0.347917
0.37705475,-0.2942979,0.385141,0.35105173,-0.2465807,0.362265,0.34302093,-0.27836303,0.370749,0.32051018,-0.26200862,0.342655,0.3005416,-0.24331192,0.31834,0.28853856,-0.22447175,0.302431,0.29014245,-0.18751841,0.327303,0.27711713,-0.18584794,0.297044,0.2710179,-0.18541469,0.28207,0.26076701,-0.19425689,0.268457,0.32130321,-0.18906259,0.336489,0.31027451,-0.18548839,0.305453,0.33434582,-0.22359049,0.323364,0.34804679,-0.23829348,0.340213,0.34928251,-0.19376568,0.345614,0.33706922,-0.19103261,0.313804,0.32782882,-0.19998895,0.29753,0.329357,-0.20437607,0.301072,0.38702605,-0.20639478,0.359609,0.36550336,-0.21525744,0.331519,0.37403578,-0.23725388,0.342546,0.38614881,-0.24777261,0.356707
0.38298905,-0.29780617,0.391288,0.35578228,-0.25141056,0.369182,0.34913859,-0.28471885,0.376805,0.32604883,-0.26659022,0.348687,0.30423573,-0.2482017,0.32389,0.29038692,-0.23014176,0.308684,0.28889871,-0.19619569,0.334698,0.27860137,-0.19016886,0.304842,0.26951113,-0.19368278,0.289914,0.27553024,-0.21292242,0.293126,0.32318723,-0.19459988,0.344273,0.31179613,-0.1915396,0.313938,0.33850326,-0.22907822,0.331992,0.35318591,-0.24503251,0.348632,0.34764804,-0.1968725,0.353664,0.3340106,-0.1923943,0.322372,0.32969821,-0.20031304,0.306362,0.33587185,-0.20973993,0.310127,0.38654975,-0.20581322,0.367875,0.36987636,-0.21862284,0.34025,0.38013396,-0.2404695,0.351376,0.39261672,-0.25273663,0.365413
0.39299071,-0.30656743,0.400956,0.36250249,-0.25572531,0.377651,0.35849426,-0.29414666,0.388116,0.33350315,-0.27368064,0.361605,0.30875473,-0.25704817,0.338155,0.29572944,-0.23936826,0.321728,0.2977103,-0.20119274,0.344246,0.28181443,-0.20022732,0.314618,0.27382764,-0.20420906,0.299804,0.28236199,-0.2225691,0.303516,0.32685789,-0.1991724,0.351392,0.31213584,-0.19590053,0.320019,0.33974567,-0.23329785,0.338721,0.35456755,-0.24928513,0.355941,0.35361922,-0.20077169,0.358868,0.33749095,-0.19657606,0.327406,0.33237045,-0.20507674,0.311309,0.33803825,-0.21276555,0.315498,0.39081491,-0.20937619,0.370947,0.36873883,-0.21923347,0.342972,0.38024075,-0.24108809,0.354537,0.39364166,-0.2541986,0.368867
0.39573234,-0.30884432,0.404384,0.36529594,-0.25838973,0.381896,0.36106974,-0.29613956,0.391569,0.33575292,-0.27462211,0.365139,0.31202251,-0.25703137,0.342182,0.29638024,-0.23929989,0.328343,0.30131703,-0.20344295,0.349144,0.2863158,-0.20326019,0.319997,0.27906332,-0.20745295,0.305423,0.28698335,-0.2271616,0.309417,0.33090813,-0.20225355,0.356556,0.31563925,-0.19942402,0.325914,0.34185016,-0.23733131,0.344892,0.35880369,-0.25320092,0.361932,0.35797314,-0.20451907,0.364195,0.34104167,-0.20063118,0.333316,0.335513,-0.20988295,0.317518,0.34181257,-0.21573189,0.322036,0.39534116,-0.21390111,0.376358,0.37237311,-0.22412015,0.348889,0.38340177,-0.24631347,0.360642,0.39726526,-0.2565112,0.374866
0.40229022,-0.31696169,0.412068,0.3715742,-0.26372877,0.390498,0.36917078,-0.30102161,0.400501,0.34310819,-0.27979904,0.375489,0.31941525,-0.2609,0.353097,0.30308709,-0.24407268,0.337905,0.30635358,-0.20998734,0.359964,0.29143194,-0.20919472,0.332092,0.28450171,-0.21322268,0.318157,0.29571523,-0.23715984,0.32302,0.33460089,-0.20761488,0.366193,0.32197626,-0.20445802,0.336463,0.34956411,-0.24316468,0.356308,0.36561184,-0.26031206,0.373291,0.36257642,-0.20899184,0.372796,0.34674275,-0.20495403,0.343133,0.34266432,-0.21479621,0.327957,0.35007751,-0.22332595,0.333385,0.39865598,-0.21728839,0.383595,0.37698229,-0.22758748,0.357045,0.38902297,-0.25042125,0.369395,0.40302127,-0.26254797,0.383528
0.40809227,-0.31958673,0.417799,0.37477716,-0.26593588,0.396346,0.37372717,-0.30395583,0.405398,0.34547055,-0.28060434,0.379489,0.32031991,-0.26186314,0.358022,0.30334468,-0.24345781,0.345047,0.30927047,-0.21303956,0.364888,0.29359573,-0.21286408,0.336582,0.28626868,-0.21607678,0.32243,0.29417472,-0.23756297,0.326951,0.3383691,-0.21067565,0.372173,0.32165453,-0.20639518,0.342488,0.34975966,-0.24423559,0.361985,0.3657123,-0.26082352,0.378842,0.36525193,-0.21187647,0.379635,0.3469749,-0.20675974,0.349674,0.34395924,-0.21621667,0.334345,0.35304005,-0.22523834,0.339447,0.40285737,-0.21984385,0.391449,0.37379069,-0.22619612,0.364732,0.37803631,-0.25020365,0.376841,0.38514328,-0.26329042,0.390939
0.41946177,-0.32994271,0.433875,0.37606849,-0.28104808,0.410626,0.38271305,-0.31490221,0.422124,0.35455225,-0.29386353,0.396802,0.33399047,-0.27399541,0.375724,0.32114654,-0.25579564,0.364124,0.31502766,-0.22742726,0.378583,0.29629807,-0.21812958,0.349645,0.28742575,-0.21820832,0.335176,0.29359928,-0.24011675,0.339394,0.34338413,-0.22651957,0.384429,0.31902595,-0.21549122,0.353186,0.34590461,-0.25331881,0.372395,0.36300242,-0.26884706,0.389725,0.36932701,-0.22898318,0.390831,0.34154539,-0.21716108,0.359909,0.33744234,-0.22680641,0.344089,0.3451068,-0.23372835,0.348772,0.40513795,-0.2384781,0.401615,0.37324737,-0.24898356,0.37399,0.37383692,-0.26730249,0.385905,0.37822315,-0.28653915,0.400604
0.42233101,-0.33484313,0.442437,0.38169758,-0.28409934,0.417094,0.38573605,-0.31997658,0.430518,0.36131312,-0.29830252,0.404919,0.33956837,-0.27804276,0.383388,0.32703212,-0.26041413,0.372734,0.31807134,-0.22943965,0.383248,0.29740307,-0.21930898,0.35305,0.28759786,-0.21891775,0.337951,0.29309642,-0.24009377,0.341329,0.34593291,-0.22802304,0.388539,0.31887014,-0.21584071,0.355452,0.34514162,-0.25282068,0.373777,0.36309052,-0.26858014,0.391497,0.37164626,-0.23014413,0.394628,0.34140681,-0.21741408,0.3622,0.33686961,-0.22645992,0.345608,0.34410547,-0.23273196,0.349322,0.40758997,-0.23937963,0.405318,0.37400188,-0.24912419,0.376409,0.37433923,-0.26704683,0.387726,0.37892056,-0.28618206,0.402313
0.42051461,-0.34045683,0.448602,0.3861536,-0.2891371,0.425457,0.38212816,-0.32451304,0.436419,0.3510602,-0.29781801,0.410628,0.33017131,-0.2744639,0.388027,0.31836431,-0.25346147,0.373221,0.31975328,-0.22919013,0.392971,0.30132116,-0.2175254,0.363827,0.29369346,-0.22175025,0.349255,0.2992579,-0.24341691,0.353324,0.3482766,-0.22927046,0.399378,0.32245236,-0.20546706,0.368191,0.34854404,-0.23968939,0.387257,0.36988675,-0.26925575,0.404523,0.37424339,-0.23277806,0.406235,0.34405158,-0.20862545,0.375182,0.33654433,-0.21100907,0.359295,0.35142525,-0.23279875,0.363842,0.41000282,-0.24397566,0.41755,0.38269271,-0.25348399,0.389858,0.38467144,-0.27282365,0.401673,0.39090818,-0.29429865,0.416001
0.41256478,-0.33968971,0.447652,0.38177421,-0.28880295,0.428262,0.3797636,-0.32410307,0.436064,0.35187203,-0.29676468,0.411209,0.3319713,-0.27251643,0.388771,0.32107236,-0.2512651,0.374503,0.32483322,-0.2314935,0.399369,0.31103667,-0.21627691,0.372754,0.3021685,-0.22558665,0.359447,0.30824049,-0.2474847,0.36497,0.35407984,-0.23184979,0.406413,0.34117499,-0.22676672,0.378659,0.36646009,-0.26396165,0.399101,0.37864076,-0.27658474,0.415557,0.38037508,-0.23550705,0.413537,0.36466362,-0.22549142,0.385421,0.36128344,-0.23652858,0.371036,0.36785306,-0.24667628,0.377249,0.41596751,-0.24671761,0.424668,0.38945586,-0.25404889,0.399473,0.3931706,-0.27550734,0.412232,0.39923903,-0.29799317,0.426047
0.41269367,-0.34149253,0.450397,0.38622656,-0.2927874,0.435272,0.37928384,-0.32501723,0.437962,0.35569541,-0.29989342,0.420717,0.33703715,-0.2748344,0.39904,0.32703226,-0.25503941,0.382803,0.32863651,-0.23502858,0.408613,0.31619417,-0.2218984,0.384116,0.30962642,-0.23106641,0.371868,0.31758326,-0.25504482,0.378032,0.35967551,-0.23695952,0.41823,0.3494712,-0.22707991,0.394445,0.37121228,-0.26710581,0.415153,0.38132694,-0.28282329,0.430256,0.38729432,-0.2417643,0.427177,0.37816784,-0.22241865,0.401872,0.36603551,-0.23791743,0.388926,0.36683125,-0.2523159,0.396006,0.42403307,-0.25411479,0.439921,0.40090557,-0.2615469,0.417312,0.40460206,-0.28381881,0.430275,0.41288085,-0.30701629,0.443258
0.41218116,-0.34221198,0.451956,0.38662911,-0.29483173,0.441424,0.38008969,-0.32665878,0.440887,0.37226363,-0.30751644,0.433286,0.34572323,-0.28047315,0.414827,0.32954355,-0.26144005,0.408669,0.33445819,-0.24149321,0.419936,0.32413217,-0.22110224,0.399126,0.31973593,-0.22989179,0.388721,0.32804931,-0.2536937,0.396538,0.36522257,-0.24292879,0.429557,0.35883495,-0.23319903,0.41025,0.38244693,-0.27412402,0.432159,0.39348048,-0.29160878,0.446021,0.39237659,-0.24714827,0.438193,0.38672881,-0.22811245,0.416997,0.37740565,-0.24500006,0.406152,0.38234161,-0.26296631,0.415094,0.42808235,-0.25843416,0.449948,0.40902692,-0.26650743,0.430819,0.41392301,-0.28989676,0.444639,0.41973771,-0.31219018,0.456729
0.4136097,-0.34414967,0.45534,0.38771992,-0.29541592,0.445231,0.37990304,-0.32791348,0.444331,0.36534231,-0.30600458,0.433301,0.34169508,-0.27945919,0.413501,0.32529346,-0.25980711,0.406265,0.3375262,-0.24226217,0.42414,0.32788452,-0.22183874,0.403639,0.32369362,-0.23081465,0.393388,0.33204799,-0.25468743,0.401311,0.36836067,-0.243882,0.433841,0.36293078,-0.23415502,0.414952,0.3863801,-0.27513683,0.436909,0.39526057,-0.29129609,0.450634,0.39551594,-0.24827164,0.442515,0.39055159,-0.22948423,0.421676,0.38131822,-0.2465322,0.411014,0.38409941,-0.26329666,0.42008,0.43113592,-0.25978522,0.454257,0.41273462,-0.26711154,0.435441,0.41782255,-0.29075573,0.449297,0.42232977,-0.31194893,0.46176
0.41897053,-0.34946938,0.463117,0.39314178,-0.30021007,0.453147,0.38089506,-0.33194159,0.453018,0.36743529,-0.30917969,0.438233,0.34094861,-0.28276092,0.418963,0.32591089,-0.26205906,0.409973,0.34278103,-0.2462114,0.433264,0.33347781,-0.22574985,0.413361,0.32677659,-0.2360598,0.403409,0.33784009,-0.2595936,0.411846,0.37275414,-0.24735373,0.441912,0.36733411,-0.23729259,0.423179,0.39104,-0.27858151,0.445704,0.40004179,-0.29518614,0.45955,0.39909903,-0.25138111,0.449709,0.39421029,-0.23275388,0.429353,0.38521176,-0.24990465,0.418938,0.38859348,-0.2672197,0.428521,0.43364293,-0.26248163,0.460383,0.41723057,-0.26654247,0.441879,0.4230385,-0.29113458,0.456122,0.42774605,-0.31465107,0.468157
0.41952388,-0.35169052,0.467849,0.39542342,-0.30334181,0.459336,0.38464133,-0.33538286,0.458381,0.37229491,-0.31336838,0.446872,0.34622418,-0.28660214,0.428752,0.33025458,-0.26671574,0.421818,0.34753922,-0.25124242,0.441335,0.33842717,-0.23084469,0.42274,0.33451256,-0.24120425,0.413442,0.34315014,-0.26564926,0.422454,0.37730578,-0.25231318,0.449745,0.37207741,-0.24226612,0.43247,0.39606454,-0.2838218,0.455392,0.4051181,-0.30052386,0.468836,0.40340838,-0.25623003,0.457246,0.39877465,-0.23763999,0.438306,0.39051023,-0.25518302,0.428615,0.39484136,-0.27323232,0.438832,0.43751576,-0.26709546,0.467371,0.42325378,-0.26889499,0.450051,0.42949601,-0.29424967,0.464581,0.43466105,-0.31905821,0.47631
0.42285727,-0.35636078,0.476598,0.40325676,-0.30843961,0.468247,0.39162155,-0.34067722,0.467173,0.38089829,-0.31871064,0.455933,0.35363329,-0.29208395,0.437705,0.33706364,-0.27288242,0.431185,0.35321275,-0.25805177,0.450422,0.34320345,-0.23725946,0.431957,0.34003482,-0.24735589,0.422724,0.34972456,-0.2717387,0.431785,0.38272489,-0.25803291,0.458837,0.37752341,-0.24932519,0.441723,0.40193787,-0.292138,0.464672,0.41307049,-0.30725852,0.47913,0.40875971,-0.26098941,0.466332,0.40345461,-0.24332001,0.447538,0.39634655,-0.26088022,0.437923,0.40144457,-0.27860042,0.448195,0.44308241,-0.27059373,0.476429,0.42910703,-0.27225772,0.459234,0.43629939,-0.29790294,0.473783,0.44133727,-0.32028333,0.485476
0.43150484,-0.36258484,0.486919,0.41118815,-0.31423846,0.477937,0.39970022,-0.34684536,0.477253,0.38808215,-0.32461875,0.463546,0.35948072,-0.29920665,0.445154,0.34139901,-0.27739053,0.436436,0.35766747,-0.26561667,0.459338,0.34613865,-0.2443811,0.440323,0.34369894,-0.25405389,0.430816,0.35447543,-0.27811326,0.439648,0.38685211,-0.26420364,0.467818,0.38111738,-0.25673015,0.450073,0.40812121,-0.29753558,0.472874,0.41898683,-0.3148177,0.48645,0.41283983,-0.26595321,0.475409,0.40618096,-0.2491015,0.456014,0.40025421,-0.26639973,0.446091,0.40598981,-0.28344243,0.456109,0.44757237,-0.27401343,0.485705,0.43353727,-0.27553864,0.468004,0.44179121,-0.30140611,0.482446,0.44802734,-0.32413633,0.494275
0.4341809,-0.36361473,0.490312,0.4157541,-0.3178124,0.484443,0.40570828,-0.35042839,0.483443,0.39439085,-0.32971135,0.472991,0.36533801,-0.30417206,0.455055,0.34916796,-0.28493444,0.44763,0.36637407,-0.27176197,0.471617,0.35551346,-0.25133624,0.456296,0.35389734,-0.2637261,0.448636,0.36539989,-0.28802317,0.459296,0.39379372,-0.26984081,0.47783,0.38660623,-0.2572535,0.463331,0.41482869,-0.29867995,0.487543,0.42842309,-0.31872188,0.500388,0.41809344,-0.27034175,0.483342,0.41351415,-0.25680051,0.467662,0.4092795,-0.27535291,0.45964,0.41714363,-0.29317771,0.471591,0.45031327,-0.27666749,0.490731,0.43790027,-0.27919716,0.476006,0.44726178,-0.3057546,0.491453,0.45309631,-0.32816351,0.502625
0.44388858,-0.37056622,0.501498,0.42337189,-0.32569613,0.495451,0.41286318,-0.35633808,0.491784,0.39666946,-0.33293753,0.478283,0.36793818,-0.30717681,0.460929,0.3515152,-0.28748598,0.453151,0.37105867,-0.27781338,0.479037,0.35921009,-0.25591979,0.461935,0.35704379,-0.26766613,0.453384,0.36737815,-0.29115129,0.462631,0.40125918,-0.2771243,0.488637,0.39342136,-0.26589425,0.47381,0.42141531,-0.30536087,0.496542,0.43211138,-0.32270217,0.50904,0.42644077,-0.28125894,0.496949,0.4205789,-0.26754227,0.479876,0.41546684,-0.28546793,0.471141,0.42337259,-0.30088269,0.481697,0.46162969,-0.28978073,0.507714,0.44812008,-0.29049462,0.492102,0.45643185,-0.3158526,0.506531,0.4622166,-0.33678875,0.51762
0.44814182,-0.37443978,0.507249,0.42702411,-0.33255988,0.502743,0.41811717,-0.36270791,0.500359,0.40288414,-0.3412232,0.489171,0.37553377,-0.31527735,0.473044,0.36016282,-0.29554669,0.466125,0.3798986,-0.28612246,0.490934,0.37039278,-0.26448771,0.476493,0.36819061,-0.27671275,0.469273,0.37969784,-0.3023795,0.480144,0.40761655,-0.28461449,0.497666,0.40108961,-0.26819185,0.484513,0.42930036,-0.3118113,0.508726,0.43984998,-0.33034465,0.521084,0.43227499,-0.28605152,0.503512,0.42820046,-0.27330639,0.488902,0.42358324,-0.2922146,0.481427,0.43143944,-0.31025121,0.493648,0.46466395,-0.29350934,0.511118,0.45213249,-0.29474879,0.497354,0.46095645,-0.32074404,0.512816,0.46618147,-0.34156474,0.523656
0.45121104,-0.37942759,0.512814,0.43090674,-0.33763283,0.508554,0.42015033,-0.36656152,0.504798,0.40521563,-0.34557893,0.495083,0.37981876,-0.31892292,0.479923,0.36561026,-0.29859905,0.473236,0.38391884,-0.28961977,0.495569,0.37749556,-0.27425539,0.480625,0.37445339,-0.28812481,0.473153,0.38305204,-0.31186192,0.483531,0.41333018,-0.29002074,0.503755,0.40791062,-0.27325919,0.490779,0.43369818,-0.3148121,0.514435,0.44422253,-0.33449443,0.526554,0.43900683,-0.29322413,0.510781,0.43531745,-0.28012997,0.495864,0.42926642,-0.29891495,0.488232,0.43661882,-0.31574428,0.499982,0.47229404,-0.30552855,0.519767,0.45957404,-0.30348969,0.505869,0.46706592,-0.32916014,0.520951,0.47246563,-0.34856265,0.53169
0.45429655,-0.38413217,0.519155,0.43284695,-0.34114116,0.513648,0.42108192,-0.36931961,0.508757,0.40711929,-0.34646232,0.498495,0.38187003,-0.31848788,0.482216,0.36679859,-0.29758053,0.473656,0.38312426,-0.29046146,0.496816,0.37459527,-0.27029887,0.479711,0.37236959,-0.28506171,0.471159,0.37969028,-0.30569194,0.480073,0.41410478,-0.292299,0.507443,0.40590285,-0.26507615,0.493162,0.43229063,-0.3031196,0.515379,0.44318958,-0.3291964,0.527518,0.44121183,-0.29670959,0.516561,0.43809494,-0.28557141,0.499662,0.45291089,-0.32095344,0.518225,0.46401288,-0.34016141,0.534695,0.47316938,-0.30542568,0.528221,0.46441624,-0.2999582,0.51286,0.47147605,-0.32548934,0.526948,0.47649052,-0.35159858,0.537817
0.45514341,-0.38566075,0.521337,0.43368798,-0.34194849,0.515434,0.42222874,-0.37091586,0.511134,0.40874378,-0.34717548,0.50051,0.38356862,-0.3192476,0.48433,0.36897594,-0.29835859,0.475912,0.38372412,-0.2912419,0.498536,0.37568715,-0.27131734,0.481265,0.37336482,-0.28533992,0.47263,0.38098324,-0.30671964,0.481615,0.41431504,-0.2926507,0.508782,0.40667323,-0.26557926,0.494098,0.43322084,-0.30377185,0.516488,0.44400487,-0.32871163,0.528827,0.44110526,-0.29671949,0.517615,0.43818866,-0.28639318,0.500467,0.45374815,-0.32154676,0.519183,0.46435425,-0.34071305,0.535909,0.47385465,-0.30586801,0.528986,0.46488079,-0.30025824,0.513373,0.47203526,-0.32587539,0.527573,0.47702387,-0.35096436,0.538574
0.45601368,-0.3882793,0.524654,0.435845,-0.34508948,0.520039,0.42416532,-0.37472664,0.515727,0.41270754,-0.34934795,0.505924,0.38827746,-0.32198402,0.49108,0.37460568,-0.30139019,0.482972,0.38671411,-0.29586308,0.505676,0.38111672,-0.2781229,0.489974,0.37970211,-0.29128751,0.482123,0.38869339,-0.3147063,0.491983,0.41621587,-0.29598606,0.51484,0.41293793,-0.28527506,0.501473,0.4392569,-0.32603945,0.52462,0.44909046,-0.34449687,0.538784,0.44200778,-0.29893168,0.522694,0.44123722,-0.29066088,0.507104,0.45892085,-0.32568124,0.526474,0.46859007,-0.34508056,0.543616,0.47568436,-0.30822427,0.53272,0.46781927,-0.30271902,0.518336,0.47569362,-0.32883424,0.533066,0.48059746,-0.35296499,0.54384
0.45712981,-0.38965785,0.52655,0.43678914,-0.34613891,0.521669,0.42528859,-0.37603245,0.517502,0.41364521,-0.35021576,0.507327,0.38930058,-0.32290129,0.492806,0.37579066,-0.3022238,0.484925,0.38717325,-0.29706025,0.506954,0.38141992,-0.27943552,0.491004,0.38000701,-0.29255708,0.483029,0.38897719,-0.31584017,0.49279,0.41666233,-0.29709405,0.516168,0.41380749,-0.28587579,0.502529,0.44009251,-0.32665968,0.525618,0.44976895,-0.34501734,0.539598,0.44248055,-0.29997065,0.524083,0.44145138,-0.29117693,0.508226,0.4592601,-0.32615563,0.527547,0.46891424,-0.34564662,0.544579,0.47626663,-0.30918788,0.534216,0.46819428,-0.30324232,0.519608,0.47616562,-0.3293765,0.534295,0.48128418,-0.3531827,0.545131
0.46323468,-0.3968054,0.536196,0.44196437,-0.35074299,0.530252,0.43205029,-0.38294606,0.52782,0.42770382,-0.35625407,0.531737,0.42154442,-0.33091234,0.529208,0.4141494,-0.31139681,0.528901,0.39316316,-0.30184218,0.515541,0.39065713,-0.29126901,0.499266,0.38734445,-0.3054646,0.491129,0.39458923,-0.32471645,0.501091,0.42175628,-0.3013547,0.523555,0.4202967,-0.28984575,0.508876,0.44637597,-0.33123139,0.532392,0.45511533,-0.34930317,0.545469,0.44679905,-0.30386851,0.530554,0.44515677,-0.2949308,0.514127,0.46327714,-0.33016408,0.533832,0.4729105,-0.34927917,0.54948,0.47966945,-0.31274031,0.539734,0.4704852,-0.30645809,0.524526,0.47897341,-0.33281814,0.539491,0.48428083,-0.35467962,0.550646
0.46321216,-0.39702409,0.536992,0.44381603,-0.35174809,0.53261,0.43248308,-0.3832485,0.528952,0.43222103,-0.35793688,0.534646,0.43120716,-0.33134535,0.530919,0.42811774,-0.31192069,0.531706,0.39846615,-0.30076009,0.5195,0.39503511,-0.29409121,0.504459,0.39215729,-0.30884917,0.496938,0.39961309,-0.32945313,0.507288,0.42738856,-0.30156021,0.527672,0.42567438,-0.29254385,0.514571,0.45165056,-0.33424424,0.538219,0.45984547,-0.35237784,0.550698,0.45090616,-0.30594359,0.534695,0.45054194,-0.29757796,0.519668,0.46859347,-0.33303441,0.539477,0.47716096,-0.35234045,0.554371,0.48366977,-0.31508619,0.543693,0.47532038,-0.30999447,0.529699,0.48386099,-0.33767661,0.544774,0.48855996,-0.35783776,0.555544
0.46408146,-0.3979591,0.538656,0.44475383,-0.35221364,0.533817,0.43322467,-0.38384266,0.530327,0.43325747,-0.35810598,0.535031,0.43096838,-0.33116187,0.530625,0.42763142,-0.31156636,0.531102,0.39895924,-0.3009815,0.520008,0.39516796,-0.2940432,0.504495,0.39207718,-0.30864953,0.496739,0.39937892,-0.32961846,0.506882,0.42804863,-0.30191412,0.528365,0.42626012,-0.2923445,0.514793,0.4519535,-0.33393051,0.538303,0.46003332,-0.35218982,0.55066,0.4520153,-0.30626753,0.535571,0.45122459,-0.29748006,0.520051,0.46907324,-0.33282665,0.539742,0.47736575,-0.35243615,0.554575,0.48498723,-0.31578771,0.54485,0.47611083,-0.31074104,0.53045,0.48447184,-0.33802759,0.545425,0.48925491,-0.35806586,0.556299
0.46210905,-0.39810745,0.538679,0.44444166,-0.35260741,0.53484,0.42903873,-0.38120499,0.526904,0.4285997,-0.35549607,0.530214,0.42215432,-0.32539916,0.51973,0.41797673,-0.30514026,0.518422,0.39687734,-0.30027206,0.517613,0.39236792,-0.29057107,0.50098,0.40596535,-0.31583223,0.516667,0.41456001,-0.33655835,0.531765,0.4294542,-0.30409416,0.530514,0.43045196,-0.29427847,0.518017,0.45303392,-0.33419888,0.538837,0.45964713,-0.35239445,0.550349,0.45777174,-0.31010448,0.541391,0.45694784,-0.30002938,0.525406,0.47231056,-0.33379587,0.542747,0.47855463,-0.35403774,0.556767,0.49230981,-0.32750786,0.554931,0.48271085,-0.32441255,0.540602,0.48834709,-0.3492346,0.553779,0.49507711,-0.3643992,0.564084
0.46174991,-0.39921465,0.540189,0.44619185,-0.3550687,0.537753,0.43033413,-0.3829579,0.529345,0.41435748,-0.35766541,0.531573,0.40727704,-0.32920156,0.521731,0.40355741,-0.30532307,0.516025,0.40060102,-0.303731,0.522728,0.39760713,-0.28947502,0.507528,0.41159366,-0.31938235,0.523689,0.41941901,-0.33987549,0.538142,0.43187237,-0.30949222,0.535008,0.43306934,-0.29114413,0.523913,0.45993693,-0.32976848,0.54534,0.46581856,-0.35404066,0.556078,0.45936789,-0.31601025,0.545277,0.461233,-0.30097444,0.53078,0.47757518,-0.33555841,0.54864,0.48268702,-0.3569927,0.561629,0.49443525,-0.32961772,0.557901,0.48625127,-0.32638675,0.544781,0.49219233,-0.35160101,0.558384,0.49763759,-0.36799965,0.5683
0.46159016,-0.3996855,0.541315,0.44750121,-0.36036386,0.54228,0.43251217,-0.38532839,0.53318,0.41842289,-0.36182482,0.537596,0.41099123,-0.33361447,0.528511,0.40780495,-0.31272336,0.525677,0.40709345,-0.31234639,0.533143,0.40501098,-0.29775681,0.521727,0.42179906,-0.32820498,0.539111,0.42916942,-0.3484289,0.551846,0.43797555,-0.31492502,0.543366,0.44095226,-0.29916461,0.535744,0.46910882,-0.33916908,0.558717,0.47578242,-0.36065461,0.568685,0.46404862,-0.32037101,0.551709,0.46794006,-0.30611056,0.541067,0.48515271,-0.34019636,0.560259,0.49143256,-0.36377596,0.572223,0.49691973,-0.33240441,0.561572,0.49039453,-0.32982,0.551554,0.49808365,-0.35631694,0.56625,0.50157784,-0.37587385,0.576257
0.46083792,-0.40077419,0.5423,0.45066155,-0.36486371,0.547842,0.43225078,-0.38671107,0.535182,0.4185805,-0.36403017,0.540802,0.41213152,-0.33582035,0.531698,0.4087196,-0.3147594,0.528701,0.41475305,-0.31887346,0.543441,0.42218916,-0.31781048,0.535856,0.44510684,-0.34670076,0.552966,0.46010859,-0.36910915,0.568069,0.44576782,-0.32307347,0.554086,0.45496632,-0.31688621,0.551309,0.47906054,-0.35807503,0.573961,0.48644785,-0.37792128,0.58638,0.47129442,-0.33103502,0.562463,0.47873738,-0.31720823,0.556149,0.49527631,-0.34948866,0.575052,0.49989814,-0.37182797,0.585153,0.50329456,-0.34416528,0.571753,0.49891319,-0.34096407,0.565531,0.50651415,-0.36569574,0.580092,0.51022922,-0.38408602,0.587928
0.46166221,-0.40286095,0.544827,0.45299988,-0.36817763,0.551842,0.43325614,-0.3890092,0.538939,0.42081563,-0.36676111,0.544121,0.4132886,-0.33769007,0.533178,0.40971516,-0.31667194,0.530097,0.41890257,-0.32398671,0.55006,0.42231381,-0.31590851,0.544202,0.44699677,-0.3443899,0.561707,0.46004215,-0.36328839,0.577621,0.44903642,-0.3278654,0.559747,0.45970914,-0.32153895,0.558539,0.48552407,-0.36275091,0.581683,0.49356845,-0.38393249,0.593435,0.47436459,-0.33353329,0.567234,0.48278953,-0.32310907,0.562672,0.49802708,-0.35948096,0.582004,0.50484423,-0.37934438,0.593712,0.50551982,-0.34531235,0.575261,0.50212887,-0.34340886,0.570461,0.50906974,-0.36977951,0.585383,0.5124777,-0.38877588,0.593864
0.46116822,-0.40402125,0.5458,0.45345575,-0.36955014,0.552743,0.43392987,-0.39045878,0.540263,0.42229221,-0.37052453,0.547367,0.41607352,-0.34382386,0.537139,0.41166511,-0.3198117,0.532937,0.41934119,-0.32596992,0.551333,0.42294433,-0.31845038,0.545612,0.4479082,-0.34711892,0.563328,0.46114248,-0.36608088,0.579433,0.44910607,-0.32931372,0.560567,0.4589152,-0.3349051,0.559284,0.48061612,-0.37734356,0.582688,0.49054425,-0.39651371,0.599406,0.47414179,-0.33453746,0.567688,0.48244505,-0.32267234,0.563201,0.50056874,-0.35394249,0.582761,0.5047398,-0.3780079,0.592386,0.50498494,-0.34576532,0.575285,0.50153005,-0.3442083,0.570503,0.5089026,-0.37079275,0.5856,0.5125482,-0.3900185,0.594438
0.46235283,-0.40651572,0.548346,0.45580358,-0.37380103,0.55644,0.43682437,-0.39381724,0.543913,0.42643479,-0.37884788,0.552567,0.41814098,-0.35035727,0.54156,0.41384586,-0.32996071,0.539178,0.4203024,-0.33761316,0.55725,0.42190001,-0.32647569,0.552982,0.45118888,-0.35400821,0.571016,0.46647061,-0.37235167,0.58741,0.45045512,-0.33632024,0.565561,0.46153913,-0.33834497,0.565532,0.4849107,-0.38114187,0.589328,0.49589757,-0.40150553,0.606325,0.47485924,-0.33993852,0.571842,0.4839952,-0.32639315,0.568809,0.50390079,-0.35715344,0.588712,0.5081482,-0.38239218,0.597887,0.50583339,-0.34807914,0.57828,0.50282461,-0.34748542,0.57467,0.51136869,-0.37457507,0.590055,0.51488118,-0.39433614,0.598809
0.47740989,-0.42370963,0.568315,0.46755785,-0.38737234,0.569378,0.45056715,-0.41210729,0.562551,0.44502822,-0.3991014,0.570158,0.42867151,-0.37131526,0.558634,0.42196615,-0.35125458,0.555234,0.42602534,-0.34310903,0.563194,0.42091277,-0.32873315,0.553181,0.44830499,-0.35680032,0.571718,0.46629661,-0.37609605,0.58857,0.45416684,-0.34308356,0.570575,0.45847139,-0.34233306,0.563123,0.48398772,-0.38478369,0.587513,0.49543105,-0.40200789,0.604934,0.47839284,-0.34569301,0.576574,0.48035941,-0.33039522,0.567,0.50179849,-0.36319819,0.587436,0.50880801,-0.38610049,0.599466,0.50999042,-0.3532917,0.583616,0.50501982,-0.34646293,0.574243,0.51334112,-0.37324427,0.589906,0.51580552,-0.39427937,0.599278
0.47808048,-0.42444356,0.568722,0.46813879,-0.38776895,0.569685,0.45048514,-0.41126662,0.562573,0.44465796,-0.39830849,0.569632,0.42807289,-0.37036693,0.557764,0.42115782,-0.35015891,0.554059,0.42628271,-0.34327515,0.562956,0.42018584,-0.32887114,0.552647,0.44749079,-0.35677633,0.571033,0.46547522,-0.37613374,0.587747,0.45474759,-0.34343091,0.570769,0.45912575,-0.33949227,0.563191,0.4836523,-0.38212671,0.587396,0.49559229,-0.4023294,0.604686,0.47927121,-0.34619157,0.577129,0.48130803,-0.32836363,0.567301,0.50170618,-0.36316356,0.587574,0.50923942,-0.38615133,0.599642,0.51101325,-0.35417065,0.584618,0.50633488,-0.34670003,0.575066,0.51441569,-0.37335538,0.5906,0.51687662,-0.39417739,0.599985
0.4796948,-0.42599645,0.570321,0.4694652,-0.38874369,0.570954,0.45167619,-0.41254152,0.563592,0.4424239,-0.39776821,0.568025,0.42451823,-0.36979438,0.554828,0.41652744,-0.34923566,0.549894,0.42692263,-0.34355659,0.563272,0.41911368,-0.32799444,0.552402,0.44614037,-0.35480305,0.570564,0.46502372,-0.37443038,0.587075,0.45589836,-0.34405383,0.571669,0.45960576,-0.34411102,0.563727,0.48442778,-0.38612059,0.587657,0.4961127,-0.40402233,0.60475,0.48089586,-0.34711284,0.578532,0.48258281,-0.32799415,0.568181,0.50222841,-0.3607025,0.588212,0.51003984,-0.38681751,0.600395,0.51311582,-0.35560912,0.586667,0.50366829,-0.35828807,0.576718,0.51055502,-0.38455905,0.592059,0.51805664,-0.39834384,0.602862
0.47405489,-0.42149317,0.563461,0.46788393,-0.38736039,0.568825,0.44841279,-0.40970464,0.559161,0.44012704,-0.396433,0.565703,0.42028196,-0.36735242,0.550137,0.41344494,-0.34811782,0.54679,0.43052716,-0.34631598,0.567708,0.42552189,-0.33298652,0.56156,0.45295084,-0.36030621,0.580152,0.47260693,-0.38080418,0.597054,0.45871222,-0.34602888,0.574869,0.46659184,-0.35003904,0.571959,0.49178172,-0.39271005,0.596434,0.50377204,-0.41068516,0.613917,0.48271795,-0.34827621,0.580391,0.48837979,-0.33202904,0.575072,0.50854321,-0.36523802,0.595574,0.514855,-0.39051412,0.60592,0.51299004,-0.35550951,0.586286,0.50703936,-0.3606861,0.580578,0.51427687,-0.38736241,0.596375,0.52308522,-0.40321893,0.609324
0.48597043,-0.432464,0.577356,0.47292101,-0.39152847,0.574924,0.45730568,-0.41854349,0.56996,0.44262487,-0.39889335,0.569348,0.42455703,-0.37139302,0.556306,0.4159034,-0.35052353,0.55067,0.42780543,-0.34418732,0.564088,0.41884622,-0.33032924,0.550733,0.44595224,-0.35803745,0.568875,0.46267033,-0.37549323,0.585367,0.45658644,-0.3444588,0.572184,0.45768135,-0.34391566,0.561081,0.48223465,-0.38561407,0.58496,0.49398252,-0.40305228,0.602017,0.48169592,-0.34679407,0.579011,0.48034572,-0.32673335,0.565846,0.50011507,-0.35926639,0.585847,0.50909305,-0.38623268,0.599154,0.51422622,-0.35572952,0.587512,0.5023971,-0.35642922,0.575111,0.5093699,-0.3810666,0.590371,0.51659799,-0.39697078,0.601361
0.49648328,-0.44255474,0.589596,0.4796217,-0.39692932,0.582234,0.46796077,-0.4289904,0.581607,0.44184501,-0.40324782,0.579411,0.41751568,-0.37733943,0.568778,0.40532467,-0.35668264,0.563101,0.43972745,-0.34352312,0.566908,0.42970316,-0.31472751,0.549932,0.45014002,-0.34608981,0.567976,0.46048098,-0.37072799,0.581883,0.46820105,-0.34587704,0.573939,0.45682788,-0.31340241,0.557881,0.48519873,-0.35084717,0.581577,0.49585033,-0.37939135,0.594823,0.49267663,-0.35090425,0.580227,0.4723549,-0.31419937,0.562849,0.49968245,-0.34150912,0.582726,0.51956756,-0.36915074,0.597683,0.52391434,-0.36308417,0.588745,0.51681693,-0.35654491,0.572637,0.52090357,-0.38152091,0.58771,0.5238074,-0.39716131,0.599838
0.50084347,-0.4479588,0.595474,0.48299226,-0.40117278,0.587818,0.47040195,-0.43228433,0.58576,0.44313904,-0.40755452,0.582753,0.41830573,-0.38151732,0.571852,0.40612844,-0.36104087,0.56634,0.4329605,-0.34874631,0.570172,0.42621806,-0.3170333,0.554375,0.44892707,-0.3449576,0.571798,0.46223251,-0.37109088,0.584992,0.46258187,-0.34960913,0.57919,0.45372135,-0.31754542,0.562754,0.48628355,-0.35246684,0.585536,0.49942172,-0.37777342,0.598632,0.48809471,-0.35375963,0.587134,0.47131087,-0.32405905,0.568768,0.50073864,-0.35254582,0.58784,0.52155647,-0.37522191,0.602875,0.5192939,-0.36778497,0.597673,0.51195449,-0.37246753,0.5809,0.52401367,-0.39730081,0.595343,0.53226099,-0.40576109,0.608087
0.49262961,-0.4421099,0.586799,0.47543673,-0.40269066,0.584242,0.46436607,-0.42810025,0.579128,0.43862261,-0.40879806,0.578306,0.41306768,-0.38280857,0.567441,0.401421,-0.36311202,0.562786,0.43512311,-0.35471096,0.572974,0.42927613,-0.32103306,0.56142,0.45015921,-0.34613495,0.579554,0.46328746,-0.37236948,0.591359,0.46374012,-0.35596774,0.58136,0.45798535,-0.32308313,0.570116,0.48904366,-0.35631181,0.593854,0.50392313,-0.38223182,0.605372,0.48815705,-0.35983422,0.588433,0.47503051,-0.32891383,0.575046,0.50497843,-0.35758396,0.594923,0.52248155,-0.38265982,0.608269,0.51897501,-0.37008119,0.597247,0.51469395,-0.37609191,0.584681,0.52731778,-0.40187309,0.599842,0.53630314,-0.41139857,0.613219
0.50178416,-0.45168274,0.598796,0.48084455,-0.40856548,0.5915,0.47276208,-0.43709427,0.590537,0.44416109,-0.41527204,0.58632,0.41834325,-0.38912308,0.575741,0.40643163,-0.36877868,0.570466,0.43619258,-0.35897771,0.575897,0.42446171,-0.31875065,0.56064,0.44293433,-0.33675256,0.578677,0.45895058,-0.36713841,0.591904,0.46417313,-0.35963193,0.583279,0.45456715,-0.32192552,0.567268,0.48530312,-0.35437435,0.59084,0.50177089,-0.381487,0.60403,0.48871771,-0.36154153,0.589852,0.47177935,-0.32782453,0.572404,0.50143552,-0.35619013,0.592169,0.52045411,-0.38234818,0.607111,0.51969083,-0.37183684,0.598702,0.51204957,-0.37512938,0.582565,0.52449319,-0.40086162,0.597553,0.53342549,-0.41049625,0.610777
0.50062789,-0.45213146,0.598738,0.47661289,-0.40600921,0.587604,0.47406043,-0.43958705,0.593451,0.43911908,-0.4149638,0.588614,0.41167797,-0.38520723,0.575807,0.40289746,-0.36532701,0.568308,0.43344253,-0.35403213,0.572673,0.40861151,-0.30634579,0.555071,0.42355768,-0.31167945,0.570923,0.44106535,-0.33456769,0.587647,0.45713392,-0.35274574,0.575059,0.44316156,-0.31646822,0.555715,0.47341447,-0.34769736,0.579792,0.49110091,-0.37569183,0.594347,0.47787238,-0.35423461,0.577785,0.4600381,-0.32023642,0.558896,0.48829638,-0.3488845,0.579183,0.50908028,-0.37499581,0.594915,0.5045643,-0.36350134,0.582542,0.49318595,-0.36266953,0.564794,0.50869397,-0.38866024,0.580127,0.51844516,-0.39897555,0.593655
0.49999059,-0.45355973,0.599778,0.47665198,-0.40688515,0.58845,0.47387929,-0.44111203,0.594891,0.43943952,-0.41581203,0.58911,0.41166562,-0.38642009,0.576904,0.3994535,-0.36567644,0.572118,0.43276164,-0.35612023,0.573856,0.40943588,-0.30757543,0.556368,0.42406572,-0.3120723,0.572029,0.44166819,-0.33421453,0.588855,0.45642643,-0.35400787,0.575687,0.43840201,-0.31130699,0.556231,0.46695967,-0.33712086,0.580318,0.48450428,-0.36540428,0.594916,0.47694878,-0.35549944,0.577969,0.45746351,-0.31983715,0.559159,0.48346446,-0.34357011,0.579465,0.50826136,-0.37443945,0.595172,0.5038279,-0.36356379,0.58222,0.49229507,-0.36207593,0.564503,0.50812593,-0.38829715,0.579848,0.51818587,-0.39895577,0.593388
