sluyters/QuantumLeap/backend/src/datasets/gesture/HandGestureDataset_SHREC2017_csv/Gesture1/finger_1/subject_6_essai_1_skeletons_world.csv
Wrist_x,Wrist_y,Wrist_z,Palm_x,Palm_y,Palm_z,thumb_base_x,thumb_base_y,thumb_base_z,thumb_first_joint_x,thumb_first_joint_y,thumb_first_joint_z,thumb_second_joint_x,thumb_second_joint_y,thumb_second_joint_z,thumb_tip_x,thumb_tip_y,thumb_tip_z,index_base_x,index_base_y,index_base_z,index_first_joint_x,index_first_joint_y,index_first_joint_z,index_second_joint_x,index_second_joint_y,index_second_joint_z,index_tip_x,index_tip_y,index_tip_z,middle_base_x,middle_base_y,middle_base_z,middle_first_joint_x,middle_first_joint_y,middle_first_joint_z,middle_second_joint_x,middle_second_joint_y,middle_second_joint_z,middle_tip_x,middle_tip_y,middle_tip_z,ring_base_x,ring_base_y,ring_base_z,ring_first_joint_x,ring_first_joint_y,ring_first_joint_z,ring_second_joint_x,ring_second_joint_y,ring_second_joint_z,ring_tip_x,ring_tip_y,ring_tip_z,pinky_base_x,pinky_base_y,pinky_base_z,pinky_first_joint_x,pinky_first_joint_y,pinky_first_joint_z,pinky_second_joint_x,pinky_second_joint_y,pinky_second_joint_z,pinky_tip_x,pinky_tip_y,pinky_tip_z,
0.56851318,-0.35057379,0.571378,0.57149085,-0.30708098,0.569014,0.55233721,-0.33715499,0.574415,0.52616888,-0.30609859,0.568803,0.50295334,-0.27904544,0.56264,0.49692601,-0.26186188,0.565072,0.55401763,-0.25890266,0.570984,0.55157846,-0.22044801,0.568685,0.55024548,-0.20162109,0.567535,0.54903409,-0.18424571,0.56649,0.57463173,-0.26036878,0.566422,0.57115967,-0.21577665,0.557184,0.56858747,-0.19347048,0.551795,0.56680803,-0.17718223,0.547945,0.5898474,-0.26332896,0.562859,0.58828327,-0.22144282,0.553784,0.58656875,-0.20126517,0.54914,0.58493367,-0.18457802,0.544919,0.61021572,-0.27459387,0.558986,0.60987402,-0.23664941,0.551006,0.6098273,-0.22181282,0.547339,0.60950601,-0.20727916,0.544104
0.56878805,-0.35008097,0.570966,0.57129753,-0.30653864,0.568616,0.55236908,-0.33678923,0.573938,0.52591416,-0.30583427,0.56824,0.50226359,-0.27876527,0.561846,0.49592188,-0.26160166,0.564149,0.55320962,-0.2585488,0.570516,0.55105826,-0.22016214,0.568296,0.54991175,-0.20149849,0.567186,0.54887549,-0.18429348,0.566177,0.57392957,-0.25983485,0.56604,0.57054066,-0.21528005,0.556811,0.56806663,-0.19323083,0.551428,0.56635622,-0.17721857,0.547583,0.58974569,-0.26301489,0.562547,0.58793104,-0.22084489,0.553462,0.58634736,-0.20090277,0.548814,0.58483423,-0.18433028,0.544588,0.61019685,-0.27427305,0.558755,0.60984541,-0.23646662,0.550789,0.6097322,-0.22114347,0.54713,0.60948065,-0.20663189,0.543901
0.569155,-0.34984525,0.570989,0.57083245,-0.30600229,0.568255,0.55223142,-0.3364956,0.573634,0.52509223,-0.30533724,0.56744,0.50140118,-0.27841647,0.561238,0.49483417,-0.26128167,0.563464,0.55055421,-0.25773038,0.569459,0.55023738,-0.21980611,0.567879,0.54950718,-0.20123158,0.567088,0.5488523,-0.18410276,0.56637,0.57161532,-0.25854257,0.565256,0.56887409,-0.21444758,0.555576,0.56626768,-0.19265094,0.54993,0.56423964,-0.18117574,0.545896,0.58901195,-0.26265611,0.562019,0.58683084,-0.22000095,0.55244,0.58581065,-0.20035202,0.547539,0.58364071,-0.18397211,0.543083,0.60982653,-0.27407622,0.558589,0.60917213,-0.23625779,0.550327,0.60896114,-0.21931288,0.546531,0.60865824,-0.20594473,0.543182
0.56526773,-0.34555011,0.564009,0.5715416,-0.30467838,0.565075,0.55527192,-0.33517811,0.568148,0.53976358,-0.31566505,0.569336,0.50738872,-0.28699897,0.556692,0.4972959,-0.26675756,0.55217,0.5516093,-0.26568736,0.571001,0.54831321,-0.22569046,0.565923,0.54553729,-0.20414201,0.563384,0.54404265,-0.18332281,0.561076,0.57259457,-0.2592467,0.566246,0.56403995,-0.22154831,0.560992,0.56265133,-0.2118673,0.557926,0.56173617,-0.20457404,0.555737,0.5893308,-0.26255612,0.562248,0.58562705,-0.2217736,0.556428,0.58524185,-0.21142364,0.55345,0.584655,-0.20761414,0.550743,0.61170539,-0.26657617,0.557338,0.61191287,-0.23545444,0.552142,0.61410194,-0.21948433,0.549754,0.61468647,-0.20658105,0.547648
0.56886028,-0.34808951,0.567176,0.57015243,-0.30521554,0.566158,0.54941709,-0.33428644,0.567782,0.5226276,-0.30704859,0.559278,0.49157128,-0.27479459,0.543237,0.48018705,-0.25613968,0.541688,0.54794935,-0.26082226,0.566135,0.54737473,-0.22336944,0.565749,0.548469,-0.203392,0.565557,0.54836934,-0.18523651,0.565381,0.57171296,-0.2619188,0.565039,0.56141478,-0.22139619,0.557115,0.56688493,-0.21437555,0.552492,0.57026205,-0.2080908,0.549191,0.59126077,-0.2683403,0.564219,0.58405161,-0.2253943,0.556631,0.58402347,-0.21224928,0.552748,0.58552596,-0.20785244,0.549219,0.61387641,-0.28364388,0.563399,0.61517737,-0.24988703,0.555922,0.61591104,-0.23394312,0.552486,0.61663545,-0.21963338,0.549455
0.58065249,-0.35568455,0.577943,0.57234288,-0.31238406,0.565829,0.55064107,-0.3352934,0.567894,0.51421795,-0.30266403,0.544869,0.48334447,-0.26894965,0.526585,0.47049237,-0.2464915,0.519634,0.53136852,-0.25322899,0.544227,0.52315846,-0.21341959,0.537961,0.52338672,-0.19469611,0.534828,0.52511229,-0.17827469,0.531979,0.56025234,-0.26034388,0.552523,0.54956751,-0.21385696,0.53334,0.55319853,-0.20861044,0.522149,0.55469214,-0.2114414,0.514156,0.58646229,-0.27067781,0.560325,0.57557893,-0.22881839,0.540344,0.57930762,-0.22542736,0.530122,0.58215554,-0.22928963,0.520828,0.61716434,-0.29277599,0.571419,0.6117326,-0.25919644,0.552402,0.60936333,-0.24356755,0.543664,0.6073463,-0.22966359,0.535955
0.57821217,-0.35483142,0.574616,0.56752631,-0.30982087,0.559839,0.54932335,-0.33498316,0.565543,0.5158508,-0.30214138,0.543099,0.48447696,-0.26813024,0.524121,0.4700721,-0.2458823,0.517023,0.52619955,-0.24997614,0.537428,0.52037893,-0.21120706,0.532712,0.52084779,-0.19282779,0.530354,0.52327577,-0.17752105,0.528211,0.55403847,-0.25734435,0.54361,0.54527173,-0.2106104,0.522149,0.54326277,-0.21079136,0.50963,0.54043687,-0.21633603,0.500688,0.57808537,-0.26724697,0.549885,0.56682526,-0.22338271,0.527967,0.55926019,-0.20102789,0.516753,0.55896698,-0.19664652,0.506559,0.61377786,-0.28608673,0.559569,0.59716185,-0.2513941,0.539088,0.58982773,-0.23557173,0.529678,0.58338433,-0.22150715,0.521375
0.56884145,-0.34959083,0.564189,0.56090633,-0.30649626,0.551348,0.54461838,-0.33411883,0.554361,0.5155026,-0.29518509,0.531433,0.48468121,-0.26001232,0.511555,0.46772898,-0.24073989,0.507693,0.5195842,-0.24598104,0.529469,0.51686484,-0.20772859,0.525008,0.51675896,-0.18924229,0.522778,0.51907376,-0.17425166,0.52075,0.55103649,-0.25395045,0.537244,0.54220236,-0.20860096,0.517426,0.54107297,-0.21092196,0.505866,0.53344798,-0.2259138,0.497608,0.57694946,-0.2644755,0.544675,0.57036457,-0.22643294,0.524042,0.5667761,-0.20653738,0.513486,0.56823285,-0.20639754,0.503889,0.60991463,-0.28433866,0.555439,0.59543064,-0.25036551,0.536,0.58915019,-0.23489825,0.527069,0.58364824,-0.22112481,0.519188
0.57283505,-0.35209756,0.566168,0.56170145,-0.30649813,0.55109,0.54643087,-0.33544837,0.555132,0.51875168,-0.30078889,0.530523,0.48590123,-0.2661586,0.507483,0.46750707,-0.24278781,0.497419,0.51260042,-0.24650387,0.526022,0.51534466,-0.21294032,0.523992,0.51733488,-0.19457528,0.522977,0.51890819,-0.17554356,0.522054,0.54553898,-0.25299734,0.534528,0.53343111,-0.20714495,0.512684,0.52725544,-0.2042851,0.499941,0.51870422,-0.21586418,0.490839,0.57383737,-0.26281437,0.542742,0.56212791,-0.23404327,0.519556,0.55756301,-0.21970451,0.507694,0.55698315,-0.22529084,0.49691,0.60884117,-0.28101302,0.554773,0.59218176,-0.24862671,0.533585,0.58275414,-0.2329466,0.52385,0.57601796,-0.21948936,0.515261
0.56129119,-0.34883748,0.55037,0.55355345,-0.3019042,0.53967,0.53292187,-0.32922042,0.539917,0.51022127,-0.29310598,0.516754,0.47951863,-0.25640763,0.494206,0.46209021,-0.23635873,0.488125,0.50561391,-0.24649544,0.51864,0.51235965,-0.21182007,0.518867,0.51586864,-0.19375369,0.51898,0.51851891,-0.17546301,0.519084,0.53779363,-0.2526407,0.527917,0.53124158,-0.20721788,0.509987,0.53057959,-0.20521071,0.499528,0.52567489,-0.21513777,0.492057,0.56691698,-0.2643457,0.536412,0.56140433,-0.23386357,0.516664,0.55949421,-0.2193546,0.50656,0.56121635,-0.22497094,0.497374,0.60298941,-0.28164568,0.548117,0.58943951,-0.24778289,0.529947,0.58359273,-0.23310861,0.521598,0.57769946,-0.21961464,0.514232
0.55581788,-0.34042547,0.538439,0.55612095,-0.30047667,0.537197,0.53511128,-0.32829889,0.531653,0.51313897,-0.29714411,0.514512,0.48910509,-0.26860431,0.499779,0.47383361,-0.24827644,0.49435,0.51751492,-0.25287951,0.527865,0.51930902,-0.21492103,0.518411,0.52031114,-0.19567275,0.514494,0.52306871,-0.17945835,0.510933,0.54882879,-0.25614112,0.535833,0.55472114,-0.21772422,0.526751,0.56157098,-0.2283497,0.521454,0.56229239,-0.245133,0.519916,0.573682,-0.26359484,0.542489,0.58799743,-0.24223776,0.532001,0.59619453,-0.23145264,0.526882,0.60041102,-0.24168995,0.522228,0.60570812,-0.27591739,0.550582,0.60888336,-0.25627378,0.539825,0.61033047,-0.24703087,0.534971,0.61197618,-0.23867733,0.530795
0.55910742,-0.33246036,0.525977,0.56571107,-0.29751283,0.530378,0.54030517,-0.32324552,0.520515,0.51623244,-0.29270684,0.506299,0.49432115,-0.2659014,0.49392,0.48147744,-0.24696204,0.490674,0.52832331,-0.25296268,0.526958,0.53012708,-0.21540222,0.522005,0.5315738,-0.19618893,0.51995,0.52972096,-0.17966791,0.519541,0.55806575,-0.25576362,0.535211,0.56966625,-0.21936007,0.53156,0.58102821,-0.23183343,0.52943,0.59620692,-0.25483485,0.540488,0.58315962,-0.26109626,0.541648,0.60350639,-0.24394694,0.536261,0.61606772,-0.23478224,0.534251,0.62392483,-0.24653634,0.532423,0.61416754,-0.27315866,0.54863,0.62264206,-0.25686543,0.54229,0.62715981,-0.2489336,0.539433,0.63173392,-0.24175469,0.537131
0.57163196,-0.33753022,0.525971,0.55588001,-0.29202136,0.518535,0.54101185,-0.32203634,0.516587,0.5146101,-0.28980102,0.495236,0.48186571,-0.2570172,0.471811,0.46192025,-0.23584026,0.462558,0.50545615,-0.2433574,0.501298,0.49330149,-0.2030882,0.484836,0.49064709,-0.18499287,0.476604,0.48999381,-0.16980639,0.469122,0.53452908,-0.24563563,0.510367,0.53515647,-0.20648291,0.495435,0.53901194,-0.21823268,0.486724,0.55000185,-0.23693072,0.49635,0.56025889,-0.25088612,0.518427,0.57374074,-0.24002979,0.502971,0.60211224,-0.26918765,0.521013,0.60835547,-0.28977652,0.534462,0.59442674,-0.26354473,0.529124,0.59173953,-0.24262082,0.513413,0.59136856,-0.23274546,0.506195,0.59125712,-0.22385613,0.499826
0.58098112,-0.33881691,0.525441,0.55757533,-0.29131905,0.513363,0.54914509,-0.32363624,0.515349,0.51985101,-0.29302934,0.492285,0.48988001,-0.26072645,0.466698,0.47009512,-0.23782153,0.45463,0.50353247,-0.24101644,0.491735,0.48652243,-0.20143767,0.471722,0.48109809,-0.18389804,0.461716,0.48838075,-0.17117359,0.465107,0.53280465,-0.24171048,0.500097,0.52914079,-0.20534216,0.480944,0.53098595,-0.21379009,0.469771,0.53711683,-0.23297886,0.478033,0.55914283,-0.24586004,0.50795,0.55841665,-0.21169234,0.487926,0.59127306,-0.2271597,0.505422,0.61197908,-0.25351955,0.520497,0.59485565,-0.25762284,0.519099,0.59354627,-0.23227217,0.500096,0.59091745,-0.23064035,0.491364,0.58433676,-0.23649492,0.48366
0.56164394,-0.33021104,0.51015,0.55584944,-0.29170416,0.505074,0.53986601,-0.31794279,0.501247,0.52531021,-0.2783515,0.487442,0.50315463,-0.24874389,0.481538,0.48865461,-0.23405305,0.482255,0.50783121,-0.23930628,0.490221,0.50177083,-0.20277027,0.475264,0.50014045,-0.18481897,0.467786,0.51005548,-0.17644712,0.477109,0.53750264,-0.24425353,0.4995,0.54664571,-0.20965161,0.486916,0.55261462,-0.22218437,0.479575,0.56036352,-0.24298651,0.489905,0.56330045,-0.25169665,0.507542,0.57594957,-0.21991656,0.495106,0.61160746,-0.23587179,0.513402,0.62332091,-0.25865541,0.525732,0.59674944,-0.26697899,0.517862,0.59976024,-0.25776182,0.503898,0.59713087,-0.26642714,0.497482,0.60204252,-0.28485564,0.505053
0.51107003,-0.3184463,0.479962,0.51965524,-0.278893,0.482935,0.48861512,-0.29790602,0.474511,0.49648071,-0.26494701,0.470525,0.48808712,-0.23072057,0.462169,0.49633878,-0.21111961,0.45898,0.49878143,-0.22609605,0.478447,0.50749031,-0.20067352,0.470563,0.51252691,-0.18708611,0.46662,0.5348558,-0.18011011,0.478438,0.52888491,-0.2369773,0.4862,0.54284543,-0.19816921,0.481179,0.54860774,-0.20709752,0.478249,0.56501554,-0.22727645,0.49103,0.55329392,-0.24907464,0.49234,0.56544995,-0.21448622,0.485116,0.59582737,-0.23796892,0.50424,0.60607978,-0.26389524,0.514796,0.581494,-0.26946631,0.499185,0.58107205,-0.26153773,0.491798,0.5668901,-0.26921934,0.488405,0.56595721,-0.28452081,0.498161
0.52296252,-0.33421091,0.491728,0.51899193,-0.29288166,0.480797,0.49376993,-0.31805624,0.478481,0.502338,-0.29252941,0.46133,0.46430596,-0.25187453,0.434053,0.46612696,-0.23134351,0.425521,0.48137274,-0.22937972,0.456138,0.47308565,-0.19484474,0.43515,0.47008823,-0.1785965,0.424656,0.48543725,-0.17031981,0.430657,0.51490386,-0.24099148,0.468792,0.50964868,-0.19503673,0.450688,0.51558119,-0.19828618,0.440127,0.52571972,-0.21693251,0.447423,0.543179,-0.25440284,0.480084,0.53376075,-0.2091727,0.459209,0.53306807,-0.20933798,0.448528,0.55545512,-0.22270751,0.455495,0.57787755,-0.27774735,0.495145,0.56955486,-0.27280671,0.476311,0.54982943,-0.27738533,0.467658,0.54131173,-0.28638197,0.472577
0.52427914,-0.348458,0.493555,0.51967056,-0.30323002,0.481032,0.49545811,-0.32424163,0.480126,0.50208784,-0.30329189,0.46124,0.46361142,-0.26210995,0.433551,0.46463267,-0.24132557,0.424239,0.48078051,-0.23856745,0.454942,0.47112004,-0.20404405,0.43285,0.46738751,-0.18788264,0.421804,0.48219449,-0.18018602,0.427427,0.5141329,-0.25014173,0.467277,0.5112222,-0.2046002,0.447725,0.51201969,-0.2069659,0.436319,0.52137038,-0.22575768,0.443171,0.54237234,-0.26360064,0.478436,0.53159264,-0.21798152,0.456297,0.53296123,-0.21590566,0.44497,0.5513674,-0.23208176,0.451499,0.57724639,-0.28715695,0.493579,0.56702571,-0.28235057,0.473626,0.54643817,-0.28654994,0.464459,0.53756187,-0.29504089,0.46902
0.51747117,-0.34566272,0.485534,0.51315984,-0.2995988,0.472585,0.48923525,-0.32229826,0.472337,0.50126015,-0.30199969,0.458402,0.46181916,-0.26170435,0.431145,0.4641858,-0.24136592,0.423432,0.47749033,-0.23797096,0.446458,0.46501355,-0.20024462,0.4242,0.4602442,-0.18265598,0.413072,0.46113154,-0.17101133,0.407491,0.5098801,-0.24783397,0.458362,0.50423512,-0.20132553,0.441793,0.50845462,-0.20332833,0.432128,0.51922945,-0.22320406,0.440399,0.53720236,-0.259871,0.469199,0.52069363,-0.21234941,0.447252,0.52216559,-0.21211417,0.436024,0.54155809,-0.22784075,0.442737,0.57082726,-0.2816544,0.484025,0.55800758,-0.27878685,0.463818,0.53729442,-0.28329735,0.454534,0.52850124,-0.29121236,0.459119
0.51810724,-0.35078881,0.483296,0.50876052,-0.30143691,0.466787,0.49014409,-0.32981106,0.471373,0.50053984,-0.31208003,0.460266,0.46231874,-0.27386085,0.432958,0.46393074,-0.25298671,0.423898,0.4600401,-0.24572456,0.439539,0.45266369,-0.2041685,0.418382,0.45238754,-0.18300121,0.407803,0.45772321,-0.17101165,0.404877,0.49205018,-0.25046152,0.448655,0.47795254,-0.20854904,0.425531,0.47195442,-0.18663435,0.412043,0.48718607,-0.17867083,0.418443,0.51988706,-0.25834763,0.457484,0.50927378,-0.20825622,0.437506,0.51139425,-0.20787069,0.427284,0.53093062,-0.22404583,0.435224,0.55561463,-0.27535422,0.470463,0.53997146,-0.27901297,0.448154,0.51803019,-0.28576721,0.437904,0.51346988,-0.2946737,0.442231
0.52175696,-0.35133608,0.487173,0.50362108,-0.30090985,0.460715,0.48879953,-0.32989024,0.469259,0.49609396,-0.30553721,0.448657,0.45468825,-0.26869965,0.420271,0.45147266,-0.245914,0.410211,0.45095884,-0.23295712,0.418524,0.44787896,-0.19568502,0.406368,0.44753222,-0.17738538,0.400291,0.44852871,-0.16338955,0.394766,0.48474906,-0.24062761,0.431656,0.47644266,-0.19712196,0.411435,0.47773141,-0.1785677,0.399639,0.4790534,-0.16496912,0.391214,0.51444666,-0.25126769,0.444591,0.5153321,-0.21827437,0.416497,0.51588673,-0.2013416,0.402123,0.5313973,-0.2115424,0.403,0.55051915,-0.27187977,0.463948,0.52793647,-0.27238271,0.434653,0.50526445,-0.27821372,0.421192,0.48959673,-0.28058042,0.420165
0.51503398,-0.34799556,0.480341,0.50028069,-0.29754951,0.45374,0.48318472,-0.32843231,0.461473,0.48951555,-0.30104318,0.436927,0.45063728,-0.26346544,0.408089,0.4444645,-0.24044987,0.39825,0.45082196,-0.22992348,0.410259,0.43923107,-0.19211663,0.390089,0.4358462,-0.17507012,0.380005,0.43539738,-0.16233308,0.370837,0.48040936,-0.23781228,0.424523,0.47704195,-0.19273863,0.398029,0.47898668,-0.19126408,0.382574,0.47731741,-0.1960797,0.371535,0.51021207,-0.24927722,0.4384,0.5169706,-0.22136817,0.410023,0.51901309,-0.20626164,0.395504,0.53352702,-0.21799008,0.395454,0.54886422,-0.27120424,0.458899,0.52887106,-0.27290191,0.429525,0.50609169,-0.27871508,0.416029,0.48711678,-0.27875592,0.414334
0.51052704,-0.34991659,0.470235,0.49481416,-0.29453321,0.445833,0.47818346,-0.32670155,0.453248,0.48199256,-0.29780187,0.429395,0.43871357,-0.25648843,0.401532,0.441349,-0.2367144,0.393253,0.43697733,-0.22463749,0.406345,0.4274097,-0.19601526,0.38383,0.42340204,-0.18215726,0.372572,0.41999414,-0.16933609,0.362338,0.47072108,-0.23313012,0.419031,0.46207965,-0.19326055,0.389318,0.45667288,-0.19166942,0.371985,0.44780587,-0.19815479,0.359604,0.50348057,-0.24594562,0.431434,0.49074605,-0.22146698,0.399721,0.4853994,-0.20931802,0.383495,0.49892066,-0.22466318,0.384301,0.54148707,-0.26819043,0.449848,0.52435679,-0.26476694,0.421819,0.49958579,-0.27227799,0.40894,0.49617049,-0.28260462,0.409059
0.48825771,-0.338265,0.448172,0.4747216,-0.28427883,0.427932,0.45812305,-0.31602589,0.432072,0.46300716,-0.28556105,0.411566,0.42884613,-0.24332296,0.383579,0.43460075,-0.22356723,0.375545,0.42447993,-0.21519935,0.392692,0.41394817,-0.18296598,0.364664,0.40915658,-0.16728789,0.350649,0.40533616,-0.15366031,0.337909,0.45697354,-0.22617385,0.405701,0.45989242,-0.19600966,0.379452,0.45455918,-0.20356753,0.364141,0.44889615,-0.21070064,0.353204,0.48522148,-0.23947197,0.418034,0.48049722,-0.21630042,0.389455,0.47830097,-0.20486532,0.374834,0.49480318,-0.2211694,0.377642,0.52161863,-0.26353161,0.435737,0.5081431,-0.26022755,0.410365,0.48408482,-0.26586414,0.398708,0.47651826,-0.27806351,0.400384
0.48248201,-0.33723965,0.43947,0.46869022,-0.28341384,0.422045,0.45037885,-0.3120359,0.423621,0.45763438,-0.28459119,0.401186,0.42552744,-0.24194761,0.37264,0.42706896,-0.2200991,0.36435,0.42096897,-0.21473476,0.38925,0.40764503,-0.17765757,0.363042,0.40729476,-0.16670444,0.349939,0.40667245,-0.16450084,0.338026,0.45414656,-0.22593364,0.402908,0.45886852,-0.19665307,0.379115,0.44907384,-0.21193862,0.365236,0.43167877,-0.22148319,0.355323,0.48286171,-0.23931398,0.415548,0.4836083,-0.21814875,0.389076,0.48467088,-0.2071928,0.375533,0.50000011,-0.22314882,0.379289,0.51959134,-0.26327978,0.433191,0.51016147,-0.26093528,0.40967,0.49242956,-0.26964546,0.398862,0.48923319,-0.28390371,0.401298
0.48094854,-0.33934093,0.437526,0.46868364,-0.29340684,0.420276,0.44902765,-0.31407283,0.421768,0.45462064,-0.29208046,0.398544,0.42296268,-0.24957031,0.370394,0.42256288,-0.22709895,0.355828,0.41953094,-0.2239304,0.387725,0.40609549,-0.18558844,0.361662,0.40474033,-0.17453041,0.348631,0.40517823,-0.17265384,0.336784,0.45268925,-0.23507129,0.40133,0.45651433,-0.20563968,0.377684,0.4474201,-0.21995885,0.363891,0.43011763,-0.22914409,0.354038,0.48149159,-0.24844737,0.413913,0.48294126,-0.22787494,0.387592,0.48438441,-0.21724554,0.374126,0.50450667,-0.23400816,0.377993,0.51854559,-0.27250146,0.431461,0.51106673,-0.27028331,0.408063,0.49051595,-0.27748241,0.397312,0.48744595,-0.29173388,0.399832
0.47426927,-0.3444426,0.430433,0.45939659,-0.29761816,0.413961,0.44089602,-0.32277254,0.413038,0.4465597,-0.29630496,0.392745,0.41663535,-0.25516315,0.365201,0.41826488,-0.23355231,0.352801,0.40950583,-0.22879215,0.379975,0.4032133,-0.20002873,0.353808,0.40105251,-0.18665521,0.340725,0.41043887,-0.17785966,0.339143,0.4442274,-0.24003772,0.395869,0.45064359,-0.21130318,0.373159,0.44148711,-0.22615056,0.359911,0.43939014,-0.24351333,0.363499,0.47430161,-0.2534572,0.410273,0.48097468,-0.22879665,0.385196,0.48649116,-0.21959245,0.372366,0.50144507,-0.2340453,0.375384,0.51273406,-0.27747805,0.429868,0.50789364,-0.27804338,0.406924,0.48905605,-0.28530848,0.396382,0.48622895,-0.2991112,0.398091
0.4737193,-0.35231629,0.43049,0.458519,-0.29921244,0.412538,0.44032716,-0.32570936,0.412249,0.44482111,-0.29713587,0.38966,0.40940639,-0.25957394,0.361948,0.40774861,-0.23578976,0.349646,0.40742568,-0.22890432,0.376384,0.40403454,-0.20232215,0.349019,0.40254325,-0.18928908,0.335336,0.408094,-0.18311004,0.327094,0.44208928,-0.24048002,0.392821,0.45200818,-0.21822922,0.36894,0.43964386,-0.23323446,0.35501,0.43407738,-0.24849862,0.357598,0.47218987,-0.25424121,0.40779,0.48165023,-0.23546984,0.38191,0.48655133,-0.22460872,0.368669,0.50093627,-0.24092452,0.370701,0.51081258,-0.2788075,0.42828,0.50590482,-0.27920766,0.404355,0.4884631,-0.28905313,0.393362,0.48339687,-0.29925828,0.394224
0.47308958,-0.34870581,0.429229,0.45641829,-0.29759612,0.410496,0.43886264,-0.32560267,0.410376,0.44294758,-0.29742186,0.385852,0.40706145,-0.25681035,0.357608,0.40817777,-0.23253724,0.346207,0.40305414,-0.2268678,0.372995,0.39684532,-0.19798417,0.344973,0.39734573,-0.18694999,0.330962,0.40289236,-0.18221802,0.322541,0.43711607,-0.23696209,0.389922,0.44137753,-0.20817847,0.365486,0.4463543,-0.21048574,0.351232,0.45284091,-0.22912833,0.353115,0.46798862,-0.25045822,0.405357,0.472619,-0.23196254,0.377371,0.47575933,-0.22246543,0.363053,0.48916777,-0.23788358,0.363842,0.50796205,-0.27478577,0.426518,0.50280035,-0.27444757,0.40211,0.48440642,-0.28135243,0.390896,0.48110484,-0.29606909,0.391159
0.47473531,-0.35104437,0.430626,0.45673934,-0.29792261,0.410738,0.43939996,-0.32680096,0.410663,0.44217165,-0.2961649,0.386256,0.40878065,-0.25771516,0.358613,0.40800196,-0.23292655,0.34585,0.40117484,-0.22675963,0.37099,0.39512163,-0.19844655,0.342012,0.39467642,-0.19903816,0.327523,0.40375867,-0.21275341,0.326289,0.43681507,-0.23773572,0.388895,0.43954668,-0.2075147,0.363767,0.44410529,-0.20909093,0.349108,0.44878257,-0.2267352,0.349633,0.46833636,-0.25180226,0.405229,0.47270642,-0.23269884,0.376329,0.47430768,-0.22387586,0.361544,0.48262529,-0.23998198,0.360782,0.50896804,-0.27568067,0.427631,0.50393503,-0.27462027,0.402607,0.48554585,-0.28156428,0.391109,0.48065754,-0.29499623,0.390221
0.47528237,-0.35232075,0.431035,0.45653212,-0.2979689,0.410591,0.43973616,-0.32774431,0.410995,0.44134815,-0.2977593,0.384779,0.40821529,-0.25843012,0.35688,0.40422422,-0.23388098,0.34272,0.39892116,-0.22517767,0.370327,0.39252296,-0.20070288,0.340986,0.3896752,-0.2045848,0.326316,0.3961343,-0.21885437,0.324884,0.4350946,-0.23668102,0.388138,0.43759885,-0.20726463,0.362536,0.44125256,-0.20799838,0.347601,0.44535961,-0.22548757,0.347906,0.46733077,-0.25129737,0.404439,0.46992141,-0.23340066,0.375125,0.47188849,-0.22695471,0.360127,0.47838401,-0.24361865,0.359141,0.50850408,-0.27638838,0.426886,0.50310189,-0.27173379,0.401503,0.48641486,-0.2800918,0.389841,0.47850903,-0.29004775,0.388776
0.46645308,-0.34958706,0.423556,0.45736994,-0.29927641,0.411822,0.4350498,-0.32538147,0.407197,0.43280535,-0.29788343,0.379714,0.40579429,-0.26237413,0.356716,0.40630341,-0.23897799,0.345924,0.41140918,-0.23393028,0.382706,0.41221398,-0.21520382,0.359974,0.41533114,-0.21954601,0.348608,0.43058943,-0.23739469,0.352191,0.44654139,-0.24432355,0.398934,0.4566841,-0.22288785,0.380431,0.4632768,-0.23248503,0.369637,0.47655436,-0.25429917,0.374925,0.47655343,-0.25688556,0.413231,0.48901698,-0.24530916,0.390975,0.49517813,-0.24158496,0.379588,0.5080602,-0.26356274,0.384067,0.5143517,-0.28036119,0.431985,0.51467646,-0.28681039,0.412355,0.49811513,-0.29254144,0.403336,0.50017431,-0.30769059,0.406445
0.46548711,-0.34956987,0.422941,0.4568026,-0.2993736,0.411548,0.43451166,-0.32575219,0.407035,0.43112193,-0.29729755,0.378663,0.40971818,-0.26535625,0.360472,0.41310472,-0.24252273,0.351229,0.41168463,-0.23453306,0.383251,0.41292721,-0.21577454,0.360901,0.41641186,-0.21977946,0.349725,0.43426265,-0.23579864,0.353733,0.44651758,-0.24474132,0.399035,0.45834142,-0.22570634,0.380777,0.4647485,-0.24048996,0.370126,0.47703123,-0.25898479,0.375791,0.47667839,-0.25758767,0.412939,0.48889143,-0.24563439,0.391036,0.49542625,-0.24194836,0.379829,0.50885719,-0.26430204,0.384754,0.51348728,-0.28013995,0.431174,0.51489352,-0.28451161,0.411794,0.49962688,-0.29252389,0.402889,0.50037093,-0.30708895,0.406329
0.46660595,-0.35090568,0.42387,0.45734557,-0.3003218,0.412186,0.43547671,-0.32895445,0.408003,0.43363062,-0.29550078,0.379587,0.4132547,-0.26334504,0.362547,0.40605125,-0.24707325,0.360949,0.41007088,-0.23719936,0.383716,0.41195196,-0.21770235,0.361185,0.41628373,-0.22001661,0.349919,0.4347427,-0.23573509,0.353923,0.44571104,-0.2464923,0.399353,0.45828854,-0.22922589,0.380814,0.46381396,-0.24091675,0.37,0.47596168,-0.2632346,0.375639,0.47599642,-0.25776288,0.41316,0.48821407,-0.24583946,0.391036,0.49458448,-0.24189016,0.379717,0.50954953,-0.26307556,0.384629,0.5132991,-0.28040041,0.431323,0.51488381,-0.28399361,0.411736,0.4991998,-0.29253525,0.402737,0.49995484,-0.30708,0.406159
0.46590348,-0.35068005,0.423162,0.45708539,-0.3005305,0.412119,0.43490954,-0.32887747,0.407465,0.43313087,-0.29527089,0.37935,0.41339792,-0.26345929,0.362665,0.40607266,-0.2465094,0.361386,0.41078969,-0.23733581,0.384346,0.41328517,-0.21769683,0.362301,0.41743006,-0.22055138,0.351279,0.43663943,-0.23628256,0.355499,0.44632993,-0.24672625,0.399991,0.45878255,-0.22821259,0.382029,0.46302795,-0.2428641,0.371552,0.47039934,-0.26405263,0.377419,0.47618348,-0.25832601,0.413753,0.48896025,-0.24639455,0.392166,0.49572144,-0.24236895,0.381121,0.51110501,-0.26397499,0.386275,0.51321295,-0.28026825,0.431766,0.51540163,-0.28411104,0.412641,0.50032327,-0.29325077,0.403854,0.50135232,-0.30800649,0.407467
0.46579729,-0.35209884,0.423303,0.45731263,-0.30101108,0.412681,0.43491723,-0.32917298,0.407635,0.43275877,-0.29593578,0.379652,0.41425023,-0.26451801,0.361832,0.407609,-0.24529518,0.355103,0.41050922,-0.23873977,0.385262,0.41328826,-0.21925915,0.363509,0.41846886,-0.22091636,0.352633,0.43911275,-0.2344369,0.356924,0.44612992,-0.24780203,0.401015,0.45965911,-0.22920442,0.383447,0.46307662,-0.24437744,0.373199,0.46946927,-0.26535521,0.379158,0.47665692,-0.25897362,0.414832,0.48916412,-0.24729479,0.393582,0.49685105,-0.24298408,0.38271,0.51247538,-0.26484895,0.38795,0.51370885,-0.28073346,0.432847,0.51644093,-0.2848763,0.414025,0.50142428,-0.29356707,0.405377,0.50281551,-0.3089205,0.409063
0.46383825,-0.35142745,0.422299,0.45615577,-0.30116125,0.412752,0.43218166,-0.32794809,0.405705,0.42861415,-0.29088713,0.377316,0.40929573,-0.25791842,0.358593,0.40401213,-0.23889202,0.353148,0.41093014,-0.23665844,0.385003,0.41485002,-0.21757061,0.363682,0.42055367,-0.21605534,0.353022,0.4402511,-0.22951037,0.356597,0.44591782,-0.24803097,0.402266,0.46229998,-0.23032853,0.385898,0.46519407,-0.24626492,0.37635,0.46872465,-0.26659291,0.381792,0.47408578,-0.26005595,0.417239,0.49110086,-0.24832221,0.396689,0.49834011,-0.24387092,0.386174,0.51536168,-0.2663823,0.390708,0.50961156,-0.28104863,0.436465,0.51783229,-0.2877133,0.418433,0.50212245,-0.29547256,0.410149,0.50569365,-0.3120165,0.413354
0.46296485,-0.3510263,0.422305,0.45535703,-0.300819,0.412641,0.43128149,-0.32761977,0.405627,0.42658712,-0.28858316,0.377144,0.4092826,-0.25552443,0.357412,0.40350681,-0.23416703,0.353817,0.41085961,-0.2361017,0.384699,0.41491493,-0.21679263,0.363273,0.42162973,-0.21451571,0.35256,0.44017812,-0.22837725,0.356048,0.44595293,-0.24767502,0.402027,0.46180739,-0.22991909,0.385565,0.46428997,-0.2454862,0.375962,0.46920378,-0.26635966,0.381321,0.47463783,-0.25990771,0.417063,0.49122689,-0.24777754,0.396406,0.49914216,-0.24310634,0.385837,0.51427601,-0.26587417,0.390276,0.50874571,-0.28097036,0.43638,0.51665012,-0.28730087,0.418266,0.5018923,-0.29578435,0.409943,0.50498887,-0.31136664,0.413077
0.46998542,-0.35578152,0.429026,0.46255129,-0.30564857,0.423254,0.43911818,-0.3333015,0.413373,0.43541681,-0.28832045,0.386805,0.42040331,-0.25723744,0.370561,0.41142354,-0.23816001,0.364375,0.41895848,-0.24227986,0.399526,0.42517865,-0.2229241,0.38112,0.43267071,-0.22181433,0.371917,0.46294138,-0.23820682,0.376566,0.45485344,-0.25088764,0.416914,0.4743249,-0.23342837,0.40403,0.48195483,-0.250183,0.396515,0.49193134,-0.27746354,0.403114,0.48534992,-0.26162243,0.431686,0.50337186,-0.2488105,0.414359,0.51393277,-0.2444126,0.405495,0.53082861,-0.26656599,0.411234,0.52314746,-0.28142636,0.450103,0.5319279,-0.28699536,0.434876,0.52038378,-0.29698602,0.427881,0.5228669,-0.31254016,0.432052
0.46007777,-0.34721113,0.420756,0.45568214,-0.29001639,0.420135,0.42996052,-0.32533667,0.405402,0.43103122,-0.27926648,0.39605,0.42497204,-0.24643508,0.382178,0.43348533,-0.22919639,0.373953,0.42054268,-0.2328044,0.400679,0.43407672,-0.21261533,0.386131,0.44534821,-0.21214953,0.378856,0.4700275,-0.22189935,0.383711,0.45534382,-0.24330569,0.419452,0.48534243,-0.22752379,0.411721,0.49812475,-0.24477338,0.407211,0.50460279,-0.26760422,0.414274,0.48422312,-0.2554,0.434949,0.50856981,-0.23826628,0.422063,0.50877324,-0.25506944,0.415471,0.50360629,-0.27326558,0.421538,0.51878893,-0.27636214,0.453449,0.53733006,-0.28319829,0.442289,0.53009008,-0.29343944,0.437162,0.53471874,-0.30814059,0.441698
0.46122719,-0.34696168,0.422641,0.45683706,-0.29079348,0.421443,0.43121857,-0.32517882,0.407187,0.43008923,-0.27960357,0.39681,0.42254747,-0.24664805,0.382804,0.43059113,-0.22892025,0.374247,0.42109173,-0.23319356,0.401427,0.43409797,-0.21274952,0.386419,0.44506964,-0.21215051,0.378915,0.46961157,-0.22184528,0.383701,0.45581282,-0.24365261,0.420128,0.48511324,-0.22755523,0.411826,0.49745137,-0.24457136,0.406984,0.50382189,-0.26729781,0.413958,0.48467273,-0.25573788,0.435611,0.50767135,-0.23626102,0.422211,0.50856121,-0.25246269,0.415356,0.50412662,-0.27125696,0.421338,0.51931592,-0.27674163,0.454183,0.5372805,-0.28327836,0.442562,0.5297959,-0.29336517,0.437223,0.53433712,-0.30799645,0.441684
0.47088481,-0.35180968,0.43171,0.4690407,-0.29656665,0.433387,0.44240939,-0.32231349,0.418471,0.44598563,-0.28511185,0.411117,0.42481896,-0.25402083,0.398917,0.42900824,-0.23289608,0.392783,0.43303611,-0.24005761,0.418287,0.44656753,-0.21977761,0.406032,0.45783345,-0.21606899,0.399904,0.48435161,-0.22388814,0.406724,0.46718701,-0.24924785,0.435229,0.49056523,-0.22280222,0.429356,0.50019547,-0.24305791,0.42593,0.5028942,-0.26370176,0.43478,0.49560295,-0.26013558,0.449034,0.52042541,-0.24162999,0.4384,0.52529788,-0.2566427,0.432959,0.52719268,-0.28242196,0.441106,0.52977566,-0.27941387,0.465179,0.54767502,-0.28468259,0.455743,0.54690033,-0.30143137,0.451408,0.55397714,-0.31827421,0.457502
0.48001938,-0.34682484,0.443046,0.47743076,-0.29727094,0.444723,0.45079693,-0.3239556,0.429305,0.45148158,-0.28395193,0.422728,0.43138632,-0.25230778,0.409766,0.43409792,-0.23309245,0.399267,0.4414873,-0.23748737,0.429003,0.45566024,-0.21887743,0.4166,0.46670392,-0.21624089,0.410398,0.49413559,-0.22704048,0.41675,0.47626938,-0.24772282,0.446565,0.50135305,-0.2231652,0.440801,0.50920215,-0.24419995,0.437438,0.51294688,-0.26716549,0.445895,0.50497224,-0.25949184,0.460881,0.53049818,-0.24321564,0.450176,0.53377267,-0.25881529,0.444698,0.53592691,-0.28345108,0.452362,0.5389982,-0.27984835,0.477632,0.55583062,-0.286766,0.468216,0.55360618,-0.300833,0.46389,0.56650298,-0.32465333,0.469635
0.49436965,-0.34608651,0.460604,0.48612481,-0.29231628,0.459028,0.46579182,-0.32683592,0.447515,0.4625698,-0.28690423,0.439578,0.43872301,-0.25669658,0.426901,0.44082406,-0.234946,0.419198,0.44571111,-0.23836493,0.44165,0.45275208,-0.21829833,0.427075,0.46073715,-0.21463174,0.419788,0.48512363,-0.22265867,0.426762,0.48048806,-0.24533918,0.457298,0.49654829,-0.21819656,0.448114,0.50305296,-0.23762062,0.442758,0.50659872,-0.25746945,0.45155,0.50980764,-0.25452802,0.4703,0.52823611,-0.23562892,0.456926,0.53015742,-0.25033321,0.450084,0.53138903,-0.27249315,0.458317,0.54573434,-0.27205884,0.485981,0.55704069,-0.27704036,0.473984,0.55496052,-0.29015434,0.468472,0.56356265,-0.30774199,0.474545
0.51567544,-0.34414996,0.48217,0.50748457,-0.29371456,0.478664,0.48458526,-0.3258405,0.468247,0.47127795,-0.28603904,0.453174,0.45582637,-0.25411424,0.436558,0.44903833,-0.23086379,0.428292,0.46224878,-0.23964375,0.458793,0.46785614,-0.21831995,0.442551,0.47617574,-0.21672049,0.43443,0.50015359,-0.22526893,0.440672,0.4970221,-0.24559022,0.474813,0.51622295,-0.22335733,0.463845,0.51710953,-0.24402589,0.457447,0.51779107,-0.26274615,0.465517,0.52667851,-0.25398941,0.488277,0.54129946,-0.23715798,0.473127,0.54148595,-0.25261446,0.465376,0.54036862,-0.26738464,0.472811,0.56368552,-0.27070046,0.504798,0.57182885,-0.27365858,0.491294,0.56596096,-0.28718546,0.485089,0.57245838,-0.30554697,0.49054
0.52655931,-0.34929191,0.495934,0.51321966,-0.29706063,0.493957,0.49527037,-0.32638744,0.483176,0.47704308,-0.28975294,0.470827,0.46287109,-0.25821587,0.455116,0.45683255,-0.23499775,0.446941,0.47164138,-0.24306346,0.476685,0.47817856,-0.22441691,0.461948,0.48618635,-0.2238765,0.45458,0.50977195,-0.23365331,0.461801,0.50660293,-0.24961159,0.491785,0.52565119,-0.22988409,0.482161,0.52736139,-0.25084671,0.476547,0.53504368,-0.27246034,0.485514,0.53616775,-0.25848256,0.504369,0.55081941,-0.24378325,0.490737,0.55098522,-0.26029926,0.483762,0.556801,-0.27682961,0.492237,0.57256391,-0.27570186,0.519615,0.5794049,-0.27941448,0.507328,0.57308287,-0.29333255,0.501682,0.57978222,-0.31208787,0.50792
0.52300892,-0.34359511,0.49557,0.51629302,-0.30182763,0.498473,0.49481293,-0.32737188,0.484588,0.48219007,-0.29451863,0.470324,0.46571006,-0.26092044,0.450096,0.45959715,-0.23800555,0.44178,0.47683267,-0.25399519,0.487092,0.47511797,-0.21381722,0.476535,0.48320603,-0.21912817,0.471257,0.50517303,-0.23068568,0.479894,0.50988156,-0.25994198,0.50166,0.52200149,-0.22552083,0.496688,0.53674985,-0.24004706,0.493787,0.54741268,-0.26311248,0.504195,0.53760245,-0.26806319,0.513414,0.55644482,-0.24948943,0.504292,0.56677697,-0.26702756,0.499625,0.57047686,-0.28531373,0.509659,0.57138077,-0.28384459,0.526937,0.58758159,-0.28648526,0.518544,0.58737537,-0.29993602,0.514688,0.5955944,-0.316298,0.522172
0.52519182,-0.34711847,0.503025,0.51335092,-0.30419892,0.509206,0.49382847,-0.3287489,0.49706,0.50149528,-0.30022274,0.497044,0.48393333,-0.26744093,0.486286,0.47561566,-0.24869035,0.486668,0.48719029,-0.25520463,0.506512,0.49584123,-0.21777165,0.501849,0.50159522,-0.2225654,0.499518,0.52184107,-0.23376992,0.511689,0.5183987,-0.26216455,0.515995,0.5359038,-0.23099823,0.514062,0.5466225,-0.24384225,0.512934,0.55829384,-0.26903307,0.525954,0.54389114,-0.27100864,0.5233,0.5617928,-0.25522864,0.518477,0.57095995,-0.27177741,0.516009,0.58961235,-0.29657932,0.529292,0.57475041,-0.28674074,0.531045,0.58530222,-0.29024847,0.525924,0.58510058,-0.30500407,0.523571,0.59612612,-0.32336439,0.533465
0.53801314,-0.35528556,0.520937,0.52899865,-0.31052195,0.523613,0.50716521,-0.33750143,0.51695,0.51134486,-0.30899649,0.519203,0.49631785,-0.27833765,0.511079,0.48784902,-0.25827016,0.510114,0.49640327,-0.26325565,0.520712,0.50065309,-0.22916586,0.513445,0.50276129,-0.23981037,0.509812,0.51243833,-0.26355122,0.522192,0.525154,-0.26443752,0.526553,0.53094811,-0.22980391,0.521354,0.53778522,-0.24553257,0.518321,0.55008589,-0.26973937,0.531433,0.54926935,-0.26862231,0.531145,0.55918277,-0.24776882,0.524305,0.56597018,-0.26174093,0.520805,0.58116777,-0.28823343,0.534544,0.57871331,-0.2796575,0.536195,0.58481995,-0.28285547,0.528992,0.60761007,-0.30723338,0.544344,0.61794561,-0.31893128,0.55585
0.54581973,-0.35694719,0.528747,0.53597839,-0.30061612,0.528296,0.51830673,-0.33564479,0.524026,0.50683233,-0.29948765,0.520027,0.4883331,-0.2704584,0.513099,0.47681591,-0.25080074,0.51119,0.49851392,-0.25414745,0.522116,0.49675447,-0.21377145,0.51485,0.50256363,-0.21101146,0.511217,0.51863109,-0.23142505,0.523668,0.52640089,-0.25494018,0.527799,0.53158484,-0.22196776,0.519756,0.53846949,-0.23812737,0.515063,0.54799785,-0.26446825,0.527472,0.55004069,-0.25891545,0.532513,0.56133405,-0.23738859,0.52336,0.56678334,-0.24937706,0.518677,0.57962651,-0.27558918,0.53179,0.57947838,-0.26987848,0.538179,0.57329448,-0.24529286,0.528544,0.60340081,-0.26204413,0.543799,0.61903734,-0.27927134,0.553105
0.55224101,-0.35690676,0.540724,0.54135541,-0.30470875,0.536873,0.52536023,-0.34185808,0.534322,0.50431709,-0.30121953,0.528525,0.48128989,-0.26782401,0.513426,0.46822963,-0.24671946,0.505536,0.49763182,-0.25452124,0.526041,0.49304014,-0.21374259,0.515299,0.49694118,-0.20473198,0.509929,0.51288251,-0.21983186,0.521145,0.52560392,-0.25770089,0.532644,0.52781272,-0.22233841,0.521166,0.53339707,-0.23350236,0.51447,0.54482434,-0.25619799,0.525741,0.54957625,-0.26363201,0.538387,0.55812311,-0.23939707,0.525445,0.5614763,-0.24372194,0.518823,0.57622558,-0.27167954,0.530565,0.57999664,-0.27697205,0.54579,0.57359558,-0.2508304,0.533308,0.60270325,-0.26523583,0.548137,0.62005621,-0.2834363,0.55828
0.5471513,-0.35281677,0.537407,0.54452823,-0.31020831,0.54721,0.52206441,-0.33590997,0.531857,0.49918713,-0.29942613,0.526342,0.4799538,-0.26829984,0.515802,0.46967159,-0.2488981,0.514135,0.5101091,-0.26700328,0.547774,0.51795865,-0.23071506,0.549645,0.529651,-0.22351468,0.550581,0.55339664,-0.2215213,0.564158,0.54082799,-0.27274787,0.557977,0.55831811,-0.24151209,0.559646,0.57622885,-0.25045552,0.560619,0.59409703,-0.27747921,0.574086,0.56619616,-0.28024908,0.565585,0.58080054,-0.24260897,0.567865,0.59424111,-0.24318494,0.569031,0.61130209,-0.26669606,0.583891,0.59645991,-0.29440859,0.573141,0.61431345,-0.27154693,0.570895,0.62311649,-0.26039774,0.569863,0.63994096,-0.26959079,0.580123
0.55487237,-0.35402201,0.545157,0.55023835,-0.31774496,0.557365,0.52816484,-0.33960735,0.538886,0.50193039,-0.30435325,0.532653,0.48022356,-0.27778043,0.524353,0.4697297,-0.26124998,0.525414,0.51767017,-0.27768252,0.558859,0.52752168,-0.24302216,0.559376,0.53826186,-0.22899395,0.559634,0.560535,-0.22416805,0.571887,0.54887653,-0.28429661,0.570774,0.56437865,-0.24843754,0.574919,0.58313747,-0.23802604,0.577337,0.60807529,-0.25383407,0.590555,0.57472668,-0.29228467,0.579595,0.59347777,-0.25634441,0.584026,0.60978603,-0.24674722,0.586293,0.63398853,-0.26245235,0.600802,0.60572672,-0.30659842,0.58823,0.62789453,-0.28674654,0.587792,0.63878703,-0.27701075,0.58759,0.65188864,-0.28514933,0.597591
0.55603711,-0.35406905,0.547305,0.55071457,-0.31674196,0.557946,0.5298782,-0.33798006,0.542492,0.50087962,-0.30208009,0.53355,0.47789843,-0.27027867,0.521,0.46746048,-0.25793544,0.524437,0.52005204,-0.27222721,0.560054,0.52845369,-0.2362406,0.561056,0.53361738,-0.2193025,0.561556,0.54730347,-0.20596453,0.570999,0.55020988,-0.27831389,0.569633,0.56487342,-0.2467098,0.572143,0.57933451,-0.2258545,0.573608,0.60649343,-0.23247544,0.587408,0.57346783,-0.28836981,0.576658,0.59445142,-0.25405629,0.578626,0.60629614,-0.23830207,0.579632,0.63423596,-0.23184024,0.594512,0.60283836,-0.3020006,0.583397,0.62324474,-0.28035446,0.581951,0.6326189,-0.27012554,0.581287,0.65042701,-0.26673502,0.591861
0.55565774,-0.35360316,0.548332,0.55131204,-0.31706565,0.560165,0.53022522,-0.33802178,0.544313,0.50209927,-0.3034822,0.539513,0.479945,-0.27335974,0.52934,0.46841712,-0.25633206,0.529382,0.52225536,-0.27445373,0.564158,0.53345133,-0.24114797,0.566405,0.53982899,-0.22347709,0.567529,0.55037126,-0.20907845,0.572817,0.5517277,-0.28223964,0.573161,0.56932759,-0.24884104,0.57688,0.58035533,-0.22868306,0.57905,0.60975634,-0.23470548,0.593209,0.57588433,-0.28957962,0.579616,0.59568707,-0.25651639,0.583266,0.60936617,-0.24286541,0.585133,0.6379882,-0.23459828,0.600555,0.60461027,-0.30307807,0.585498,0.62381994,-0.28339948,0.585153,0.63195123,-0.27266509,0.584994,0.65213015,-0.26870711,0.595903
0.57171025,-0.36401213,0.566012,0.55729759,-0.32031432,0.567393,0.54301402,-0.34646135,0.56127,0.49934712,-0.3114991,0.551542,0.47657119,-0.28358589,0.542593,0.46504482,-0.26645268,0.542495,0.51995595,-0.27255605,0.562575,0.52450408,-0.23361012,0.556984,0.52705835,-0.21492577,0.554188,0.53907797,-0.20131182,0.561681,0.54753439,-0.27799113,0.568909,0.55531761,-0.24239083,0.562426,0.56162601,-0.22027169,0.558644,0.58004134,-0.20999441,0.571352,0.57134318,-0.28510892,0.57401,0.57982956,-0.24918591,0.567895,0.58825854,-0.23233609,0.564767,0.61500639,-0.22604594,0.578666,0.59940567,-0.29989138,0.57986,0.60987145,-0.2685814,0.571515,0.61408766,-0.25417684,0.567681,0.63241032,-0.24737655,0.577436
0.57132494,-0.36410503,0.567179,0.55761625,-0.32073257,0.568573,0.54446558,-0.34780033,0.564356,0.50096432,-0.31374209,0.554273,0.47669223,-0.28560158,0.544625,0.4648976,-0.26870395,0.544576,0.52314675,-0.27450474,0.566139,0.52594945,-0.23588251,0.560762,0.52803692,-0.2171033,0.558073,0.53890176,-0.20321582,0.564814,0.54890445,-0.27876263,0.570105,0.5556514,-0.24297541,0.563826,0.56113481,-0.22075211,0.560164,0.58027222,-0.21012021,0.573267,0.57080756,-0.28492166,0.573256,0.58060321,-0.24914025,0.567926,0.58879339,-0.23391867,0.565198,0.61580633,-0.22670382,0.579705,0.59671154,-0.29835052,0.576787,0.61050874,-0.26893783,0.572066,0.61641342,-0.25523242,0.569897,0.63598871,-0.24893673,0.580909
0.56909817,-0.36311002,0.566037,0.55705984,-0.32091419,0.568433,0.54358401,-0.34784277,0.564473,0.50342212,-0.31629007,0.557001,0.47880754,-0.28741759,0.546829,0.46749148,-0.27051367,0.546998,0.52504223,-0.2764776,0.568314,0.52789323,-0.23851629,0.563899,0.52764636,-0.22054581,0.561691,0.53942634,-0.20531141,0.567829,0.54993816,-0.27995514,0.571065,0.55774447,-0.24434522,0.566151,0.56351491,-0.2224188,0.563284,0.58269008,-0.21202952,0.576852,0.57045218,-0.28596993,0.573135,0.58168576,-0.249574,0.568934,0.59019685,-0.23295313,0.566784,0.61608133,-0.22704668,0.581736,0.59555771,-0.29779259,0.575233,0.61025289,-0.26919628,0.571809,0.61662805,-0.25571845,0.570236,0.6364801,-0.24957688,0.581663
0.56805496,-0.36215585,0.567085,0.5577801,-0.32180293,0.569473,0.54438015,-0.34891584,0.566101,0.50546168,-0.31827883,0.559262,0.48040191,-0.28885074,0.548544,0.46923179,-0.27187701,0.548728,0.52633345,-0.27883885,0.570065,0.5281192,-0.24120262,0.565671,0.52935206,-0.222138,0.563474,0.53934823,-0.20641127,0.568543,0.55099569,-0.28105066,0.572095,0.55861655,-0.24501009,0.567315,0.56402526,-0.22293823,0.564526,0.58294537,-0.21240435,0.578178,0.57105631,-0.2865004,0.573573,0.58213753,-0.24988054,0.569342,0.59026745,-0.23310139,0.567177,0.61593401,-0.22699474,0.582172,0.59560839,-0.29794352,0.574969,0.61021193,-0.26956545,0.571762,0.61660821,-0.25611349,0.570288,0.6364715,-0.25000991,0.581808
0.5670034,-0.36244209,0.568337,0.55852566,-0.32258844,0.570463,0.5451121,-0.34983578,0.567503,0.50663789,-0.31944361,0.560566,0.48131043,-0.289682,0.549518,0.47030082,-0.27270957,0.549795,0.52723345,-0.27972229,0.571043,0.52887038,-0.24199225,0.566414,0.52995554,-0.22283206,0.5641,0.53913477,-0.20700773,0.568796,0.5517165,-0.28178979,0.572798,0.5588885,-0.24533106,0.56779,0.56388047,-0.22309259,0.564868,0.58260032,-0.21244733,0.578478,0.57167917,-0.2869835,0.574072,0.58238308,-0.25006634,0.569558,0.59011733,-0.23312215,0.567249,0.61553686,-0.22684996,0.582179,0.59615601,-0.29831165,0.575263,0.61035831,-0.26986257,0.571894,0.61662525,-0.25636263,0.570346,0.63640503,-0.2502458,0.581839
0.5678002,-0.36386245,0.57093,0.55986132,-0.32354289,0.571939,0.54533031,-0.35065759,0.569501,0.5061678,-0.3195218,0.560146,0.48072339,-0.29059383,0.549118,0.46929119,-0.27255666,0.548567,0.52778903,-0.27889855,0.570937,0.52887742,-0.24050905,0.565222,0.52972544,-0.22123504,0.562365,0.5384829,-0.20662904,0.568063,0.55258577,-0.28172371,0.573048,0.5589965,-0.24489469,0.566931,0.56528603,-0.22191134,0.563362,0.58197028,-0.21158518,0.576668,0.57361003,-0.28754686,0.574703,0.58210064,-0.24990349,0.569018,0.58727451,-0.23241763,0.566109,0.61163646,-0.22501319,0.580682,0.59919791,-0.29957807,0.576517,0.61123625,-0.27032459,0.572062,0.61707667,-0.2565945,0.570016,0.63666505,-0.25027406,0.581227
0.56116109,-0.36051409,0.565262,0.56273405,-0.32598803,0.568824,0.54006534,-0.34956762,0.568,0.5215466,-0.33353888,0.570894,0.48732203,-0.30478652,0.551167,0.47417743,-0.28506496,0.544804,0.54773028,-0.28137867,0.574912,0.54307845,-0.24394585,0.572162,0.53810189,-0.22460911,0.570788,0.53971034,-0.20720498,0.569538,0.57071514,-0.28270727,0.572742,0.57100099,-0.24050466,0.569299,0.57121718,-0.2156575,0.567291,0.57165889,-0.19822555,0.565857,0.58927419,-0.28702018,0.57067,0.59210936,-0.24638466,0.567174,0.59378047,-0.22550283,0.565385,0.59535914,-0.20618377,0.563759,0.61054652,-0.29820585,0.567672,0.6146844,-0.26376726,0.564563,0.61568875,-0.25433341,0.563135,0.63021847,-0.24770279,0.574663
0.56156758,-0.36212504,0.567287,0.5649679,-0.32792786,0.570385,0.54153504,-0.35122847,0.569718,0.52017968,-0.33315406,0.569767,0.48637145,-0.30415052,0.550124,0.4731592,-0.2841228,0.543698,0.5485735,-0.28212792,0.575741,0.54100363,-0.24416807,0.572543,0.53821564,-0.22531533,0.570944,0.53830466,-0.20782826,0.56949,0.57175185,-0.28400948,0.573793,0.57243751,-0.24157712,0.569772,0.57292177,-0.2166414,0.567427,0.57342755,-0.19891624,0.565752,0.59045339,-0.28879968,0.571941,0.591999,-0.24759228,0.568057,0.59030526,-0.23090208,0.56607,0.59330789,-0.21066316,0.564264,0.61186505,-0.30059935,0.569274,0.61728173,-0.2661082,0.56626,0.62093606,-0.25338928,0.564875,0.64021638,-0.24469268,0.576425
0.5606443,-0.36232844,0.567033,0.56564943,-0.32629405,0.570072,0.54194513,-0.35057179,0.569029,0.51879085,-0.33113476,0.567285,0.48535427,-0.30312533,0.54885,0.47226424,-0.2838813,0.543914,0.54779625,-0.28059156,0.574846,0.53998893,-0.24248807,0.571319,0.53976714,-0.22394796,0.569556,0.53716247,-0.20702774,0.567953,0.57152077,-0.28230943,0.573417,0.57210229,-0.23979386,0.569185,0.57187114,-0.2135642,0.566716,0.57291032,-0.19699296,0.564953,0.59101047,-0.28546716,0.571998,0.59361292,-0.24423792,0.567808,0.59606806,-0.22041843,0.565665,0.59473756,-0.2108491,0.563716,0.61362539,-0.29673753,0.569853,0.62047391,-0.26258226,0.567358,0.62795401,-0.24446348,0.566212,0.63217429,-0.23051685,0.565201
0.56222446,-0.36395664,0.56883,0.5672842,-0.32621831,0.571217,0.54371048,-0.35215337,0.571019,0.51806375,-0.33010516,0.566009,0.48519596,-0.30283123,0.548609,0.47225802,-0.28402597,0.544531,0.54868123,-0.28047565,0.575735,0.54077794,-0.24256002,0.571727,0.53948845,-0.22351553,0.569722,0.53709956,-0.20683787,0.5679,0.57202027,-0.28176231,0.573846,0.57196426,-0.238915,0.568921,0.57160816,-0.21268736,0.566048,0.57208476,-0.19583996,0.563995,0.5912389,-0.28477625,0.572101,0.59325839,-0.24317088,0.567201,0.59504487,-0.22004007,0.564694,0.59380879,-0.21008251,0.562415,0.61367161,-0.29576626,0.569668,0.62086226,-0.26152011,0.56687,0.62725753,-0.24419234,0.565584,0.6313343,-0.23021056,0.56445
0.56503262,-0.36669354,0.571549,0.56877235,-0.32733946,0.572467,0.5453822,-0.3539347,0.572539,0.51757875,-0.3301203,0.565913,0.48469758,-0.30270974,0.547771,0.47164061,-0.28375796,0.543441,0.54788529,-0.28002959,0.574388,0.54006905,-0.24210343,0.56897,0.53593066,-0.22320245,0.566261,0.53290814,-0.20611149,0.563798,0.57215475,-0.28193322,0.573479,0.57099947,-0.23855823,0.567265,0.57234854,-0.21562376,0.56364,0.57168561,-0.19585934,0.562577,0.59211327,-0.28683595,0.572657,0.59170889,-0.24684801,0.56661,0.59182561,-0.22567536,0.563515,0.59278086,-0.20725756,0.560703,0.61534319,-0.30168223,0.571543,0.62063444,-0.26660126,0.567446,0.62584061,-0.25169341,0.565564,0.62930803,-0.23921353,0.563904
0.56571201,-0.36769444,0.571173,0.56925639,-0.32781539,0.57194,0.54608337,-0.35486812,0.572137,0.52116966,-0.3356107,0.565216,0.48556133,-0.30565748,0.546596,0.47254029,-0.28516999,0.542284,0.54827837,-0.28188403,0.573715,0.53976372,-0.24232556,0.568151,0.53619169,-0.22487228,0.565369,0.53307138,-0.20950045,0.56284,0.57251699,-0.28393141,0.572787,0.5719311,-0.2409242,0.566392,0.57177068,-0.2162122,0.562662,0.57035104,-0.19915484,0.559997,0.59241753,-0.28895639,0.571963,0.59198235,-0.24677112,0.565735,0.59256292,-0.22533261,0.562548,0.59139112,-0.21182356,0.559651,0.61586958,-0.30126838,0.570867,0.62461388,-0.26554271,0.566523,0.62592359,-0.24769854,0.564526,0.62924412,-0.23446959,0.562765
0.56684729,-0.36884184,0.571423,0.57010365,-0.32844448,0.572066,0.54735177,-0.35593873,0.572456,0.52148778,-0.33581555,0.565561,0.48622716,-0.30662434,0.546997,0.47247049,-0.28578793,0.541788,0.54886388,-0.28251056,0.573833,0.54013484,-0.24274814,0.568187,0.53668064,-0.22531795,0.565364,0.53376381,-0.21017775,0.562798,0.57302637,-0.28428055,0.572777,0.57202311,-0.24118691,0.566248,0.57175186,-0.2166083,0.562439,0.57041747,-0.19929994,0.559718,0.59290034,-0.28907906,0.571857,0.59218045,-0.24699817,0.565491,0.59250146,-0.22566402,0.562233,0.59157491,-0.21129335,0.559272,0.61640817,-0.30112851,0.570667,0.62452063,-0.26521982,0.566188,0.62584292,-0.24766361,0.56413,0.62907509,-0.23451554,0.562315
0.56697326,-0.37001372,0.571605,0.57021037,-0.33059036,0.57197,0.54715773,-0.35638592,0.572029,0.51926886,-0.33244407,0.564845,0.48531319,-0.30377229,0.549033,0.47101223,-0.28481142,0.5419,0.54911835,-0.28266392,0.572772,0.53963937,-0.24320631,0.566744,0.53699033,-0.22591306,0.56373,0.53198539,-0.20675139,0.56099,0.57527656,-0.28634619,0.572373,0.57196177,-0.24160338,0.565672,0.57151276,-0.21688884,0.561763,0.57101455,-0.19988745,0.558971,0.59568129,-0.29154957,0.572017,0.59425573,-0.25246291,0.565483,0.59323986,-0.22818133,0.56214,0.59217572,-0.21946165,0.559101,0.61897721,-0.30934767,0.571538,0.61932091,-0.27014266,0.566373,0.62070459,-0.25400386,0.564,0.62569171,-0.23959739,0.561906
0.56766368,-0.37155272,0.572356,0.57049762,-0.33119589,0.572248,0.54798465,-0.35749652,0.57267,0.51945585,-0.33300764,0.565272,0.48514882,-0.30415551,0.549253,0.47068021,-0.28480006,0.54183,0.54939413,-0.28272907,0.572554,0.5395045,-0.24309631,0.56615,0.5367005,-0.22558632,0.562948,0.53149913,-0.20660429,0.560038,0.57531464,-0.28664535,0.572129,0.57161484,-0.24175201,0.564985,0.57084923,-0.21688437,0.560817,0.57011459,-0.19962792,0.55784,0.59555846,-0.29227165,0.571788,0.593559,-0.25216691,0.56482,0.59232395,-0.22842354,0.561256,0.59404443,-0.22138388,0.558015,0.61882668,-0.30927244,0.571399,0.61972294,-0.27096159,0.566384,0.62115761,-0.25454309,0.56408,0.6256895,-0.24000226,0.562046
