sluyters/QuantumLeap/src/datasets/gesture/HandGestureDataset_SHREC2017_csv/Gesture11/finger_1/subject_15_essai_4_skeletons_world.csv
Wrist_x,Wrist_y,Wrist_z,Palm_x,Palm_y,Palm_z,thumb_base_x,thumb_base_y,thumb_base_z,thumb_first_joint_x,thumb_first_joint_y,thumb_first_joint_z,thumb_second_joint_x,thumb_second_joint_y,thumb_second_joint_z,thumb_tip_x,thumb_tip_y,thumb_tip_z,index_base_x,index_base_y,index_base_z,index_first_joint_x,index_first_joint_y,index_first_joint_z,index_second_joint_x,index_second_joint_y,index_second_joint_z,index_tip_x,index_tip_y,index_tip_z,middle_base_x,middle_base_y,middle_base_z,middle_first_joint_x,middle_first_joint_y,middle_first_joint_z,middle_second_joint_x,middle_second_joint_y,middle_second_joint_z,middle_tip_x,middle_tip_y,middle_tip_z,ring_base_x,ring_base_y,ring_base_z,ring_first_joint_x,ring_first_joint_y,ring_first_joint_z,ring_second_joint_x,ring_second_joint_y,ring_second_joint_z,ring_tip_x,ring_tip_y,ring_tip_z,pinky_base_x,pinky_base_y,pinky_base_z,pinky_first_joint_x,pinky_first_joint_y,pinky_first_joint_z,pinky_second_joint_x,pinky_second_joint_y,pinky_second_joint_z,pinky_tip_x,pinky_tip_y,pinky_tip_z,
0.53322336,-0.30665219,0.600608,0.50001759,-0.24551839,0.576037,0.4983903,-0.2831094,0.58645,0.47233662,-0.2509619,0.567587,0.44121295,-0.21752047,0.542516,0.42196917,-0.19276297,0.528168,0.43892288,-0.19024941,0.540433,0.42178208,-0.15947532,0.543956,0.41250982,-0.14257509,0.545718,0.40450452,-0.12509386,0.547319,0.46804163,-0.19178993,0.549287,0.4717207,-0.1902601,0.521739,0.4862039,-0.22907516,0.537779,0.49163318,-0.24761902,0.552778,0.49389739,-0.19521011,0.558404,0.49961543,-0.18724227,0.534963,0.48616437,-0.21064456,0.52297,0.47730123,-0.21972343,0.527655,0.52952027,-0.20631643,0.572765,0.51765249,-0.20631253,0.546067,0.52272277,-0.23301699,0.555731,0.52747163,-0.2520644,0.568874
0.53048487,-0.3026532,0.594459,0.51288833,-0.24820286,0.575378,0.50291324,-0.28392908,0.581142,0.47863053,-0.25098868,0.563243,0.45608902,-0.22067286,0.54765,0.44020249,-0.19708714,0.537668,0.45015582,-0.19794502,0.544879,0.4239684,-0.16217752,0.534493,0.41219781,-0.14411389,0.5293,0.40440608,-0.12839004,0.524579,0.47920515,-0.19618113,0.554604,0.48909574,-0.19226257,0.532007,0.50876751,-0.23244786,0.549968,0.51600538,-0.25552423,0.563779,0.5055704,-0.19812455,0.564027,0.51735619,-0.19333593,0.545494,0.50894087,-0.21809421,0.536012,0.50423787,-0.23091139,0.543261,0.54181842,-0.207058,0.577973,0.53502328,-0.20589016,0.554634,0.54414632,-0.23375509,0.565593,0.55280568,-0.25665277,0.578056
0.54856807,-0.3159246,0.614536,0.5197579,-0.26338932,0.586644,0.51455758,-0.30079595,0.600978,0.50848283,-0.2699163,0.586053,0.49095491,-0.23901643,0.571092,0.47391466,-0.21471828,0.560579,0.46008938,-0.20551546,0.549312,0.43534025,-0.16973362,0.533086,0.4227944,-0.15138664,0.524973,0.4112793,-0.1344163,0.517597,0.48881788,-0.20581129,0.55628,0.47965384,-0.18342562,0.523978,0.49637032,-0.22337777,0.538954,0.50445096,-0.24383598,0.555338,0.51479321,-0.20985928,0.564091,0.51355036,-0.22070087,0.537027,0.50230045,-0.23767353,0.523181,0.50697187,-0.25866206,0.526254,0.5502877,-0.22210285,0.577369,0.53546412,-0.20788537,0.549006,0.54794874,-0.23535815,0.558046,0.55893549,-0.2541874,0.571533
0.5634949,-0.35553353,0.616404,0.54000696,-0.30334866,0.593081,0.52827538,-0.33746759,0.599891,0.52977193,-0.30207969,0.582419,0.5110405,-0.26914691,0.567754,0.49177984,-0.24641295,0.558441,0.48055005,-0.24360189,0.555516,0.46216978,-0.20549888,0.540974,0.45289516,-0.18598548,0.533703,0.44441032,-0.16795375,0.527093,0.51020557,-0.24604356,0.56769,0.52231608,-0.2163277,0.542306,0.54478406,-0.25563483,0.556916,0.54645433,-0.27893366,0.570684,0.5367324,-0.25183169,0.579445,0.55801416,-0.25575593,0.559032,0.54796586,-0.2754124,0.548588,0.55285621,-0.29914284,0.553153,0.57254325,-0.26605356,0.596774,0.57517977,-0.24880431,0.570442,0.5890296,-0.27600994,0.579118,0.59516102,-0.29567108,0.59175
0.53191026,-0.35647021,0.567335,0.51672451,-0.31338748,0.564082,0.50445108,-0.33899969,0.554273,0.49413901,-0.30110694,0.535921,0.48208108,-0.26640872,0.516585,0.4782044,-0.24203441,0.507388,0.47249815,-0.26112616,0.545646,0.47416463,-0.22498136,0.530729,0.47524464,-0.20641923,0.523271,0.4890871,-0.19427815,0.530264,0.500506,-0.26754427,0.560541,0.54563532,-0.26324817,0.55426,0.59773685,-0.27096064,0.572346,0.62138558,-0.29749655,0.580296,0.52462297,-0.27587851,0.573038,0.57322909,-0.27375772,0.571387,0.5757509,-0.30090599,0.570543,0.58890522,-0.33199451,0.582329,0.5555134,-0.2916761,0.588397,0.58095999,-0.2772328,0.575597,0.60035216,-0.30548868,0.586741,0.60115568,-0.32535066,0.595568
0.56176404,-0.37979879,0.572268,0.53997711,-0.33214852,0.563003,0.53082016,-0.36494799,0.561959,0.5231269,-0.32693914,0.538299,0.49949917,-0.29327736,0.519799,0.489424,-0.27406688,0.518511,0.48759805,-0.28101027,0.543482,0.48074287,-0.24869745,0.524832,0.47751639,-0.23207958,0.515507,0.49051324,-0.2238821,0.523904,0.5168833,-0.28231783,0.552916,0.53196749,-0.26459565,0.536277,0.57415893,-0.26819359,0.556859,0.60093439,-0.29574406,0.569338,0.54266634,-0.28667479,0.561369,0.55554206,-0.26951315,0.54299,0.55146039,-0.29130028,0.533587,0.56586505,-0.32149219,0.542381,0.57672858,-0.29823834,0.572762,0.58659573,-0.29552602,0.556209,0.61311632,-0.32238621,0.569122,0.62407636,-0.33873221,0.579955
0.57395483,-0.40939135,0.582585,0.54994609,-0.35757787,0.568584,0.54068586,-0.39070152,0.566941,0.53312018,-0.35120087,0.544125,0.50685783,-0.31974922,0.527835,0.48967224,-0.29651962,0.519072,0.49290901,-0.29891478,0.539003,0.50686703,-0.2938619,0.520037,0.51443347,-0.29143801,0.510554,0.53376007,-0.3088538,0.516246,0.52434492,-0.30337606,0.553341,0.54399127,-0.2780264,0.532621,0.55897443,-0.26894355,0.520533,0.57859058,-0.29295752,0.525788,0.55210535,-0.31061555,0.566182,0.56966211,-0.29063631,0.542635,0.56184844,-0.31149817,0.530588,0.57120118,-0.33989855,0.535119,0.58887771,-0.32619578,0.583479,0.60065534,-0.31978181,0.563051,0.62114283,-0.34860666,0.573052,0.62606403,-0.36696747,0.584119
0.57194562,-0.41746278,0.566309,0.55098612,-0.375351,0.564343,0.5381649,-0.40005358,0.551028,0.53369683,-0.36122146,0.524848,0.52851932,-0.3269871,0.499614,0.52361747,-0.30174001,0.487309,0.49553122,-0.32472299,0.544142,0.51167642,-0.31330427,0.527911,0.52116524,-0.3137733,0.519796,0.53954586,-0.33085393,0.524676,0.52877787,-0.33081136,0.562203,0.55298221,-0.29180367,0.553136,0.57385053,-0.30936981,0.547847,0.58274274,-0.33852671,0.554709,0.55784408,-0.33873802,0.57721,0.5874927,-0.32557645,0.563329,0.59192069,-0.34768892,0.556227,0.60412074,-0.37839831,0.562016,0.59574546,-0.35392518,0.595378,0.61867687,-0.34816484,0.583593,0.64083892,-0.3764313,0.592576,0.64375115,-0.39766506,0.600207
0.59317947,-0.44359521,0.549225,0.55088821,-0.40511867,0.536178,0.56031878,-0.43268323,0.52829,0.54536153,-0.38419663,0.495566,0.53295659,-0.34323382,0.46762,0.52001576,-0.31590842,0.452214,0.48013342,-0.36372743,0.500815,0.49435411,-0.33897516,0.475644,0.50264626,-0.33126524,0.463059,0.51650713,-0.3375802,0.460261,0.50531162,-0.36369087,0.521974,0.5225724,-0.31807338,0.504149,0.54679966,-0.32445434,0.493751,0.55235598,-0.34392323,0.493396,0.52914708,-0.3663231,0.540354,0.55922459,-0.34034438,0.517574,0.56780407,-0.35343687,0.50592,0.57925109,-0.37334456,0.503823,0.56357049,-0.37467202,0.56412,0.59350378,-0.36099824,0.545405,0.61561049,-0.37964615,0.548814,0.61825484,-0.39759905,0.556722
0.65463765,-0.5207842,0.651468,0.62676136,-0.4915686,0.611499,0.633548,-0.52653886,0.637843,0.64252617,-0.51853955,0.615012,0.61348928,-0.51903842,0.589638,0.60699502,-0.50694339,0.57062,0.58035695,-0.47709674,0.565119,0.57399859,-0.47258454,0.531794,0.55276385,-0.46193021,0.52409,0.55211904,-0.46748634,0.534162,0.59655732,-0.45979455,0.567986,0.59755867,-0.46243085,0.531542,0.56559337,-0.44548532,0.510283,0.54448235,-0.43388356,0.495865,0.61187738,-0.44787525,0.573324,0.58979821,-0.40328949,0.535729,0.57878926,-0.38025206,0.516504,0.58564568,-0.37628455,0.499027,0.63402305,-0.43798487,0.585371,0.63414624,-0.40277749,0.555772,0.6368027,-0.40791252,0.542173,0.61855199,-0.40923737,0.530977
0.64134876,-0.51943876,0.63786,0.6237791,-0.5016779,0.601092,0.62865847,-0.53778049,0.624656,0.64460902,-0.52469612,0.604636,0.62442297,-0.52607168,0.578039,0.62159596,-0.51222905,0.559846,0.59498238,-0.49235829,0.557605,0.59224183,-0.47997669,0.527821,0.56433174,-0.46835159,0.516863,0.55875513,-0.47358519,0.524238,0.60463392,-0.47187052,0.561064,0.61013664,-0.46349173,0.528822,0.57636918,-0.44801756,0.510015,0.55076306,-0.43469991,0.494126,0.61383696,-0.45733559,0.566651,0.59637736,-0.41306449,0.529975,0.58773691,-0.39013407,0.511153,0.59699754,-0.38048763,0.494041,0.62730828,-0.44426145,0.578539,0.62926117,-0.40244686,0.5528,0.63535732,-0.40563136,0.540974,0.61724442,-0.40642746,0.528864
0.6533747,-0.53901476,0.647686,0.62896864,-0.50618825,0.608689,0.63493185,-0.5439333,0.632859,0.64242022,-0.53554756,0.609032,0.61383741,-0.53138921,0.582122,0.60807761,-0.51886477,0.562742,0.57797807,-0.4802037,0.561556,0.57348194,-0.47720036,0.52829,0.55741391,-0.47302774,0.519779,0.55680125,-0.48095057,0.529507,0.59505445,-0.464806,0.566234,0.57203082,-0.42181103,0.526596,0.57619704,-0.42395462,0.503474,0.56430471,-0.42376281,0.492172,0.61115197,-0.45501689,0.57299,0.5965787,-0.40840407,0.536781,0.58942439,-0.38433241,0.518256,0.60145469,-0.38339286,0.501414,0.63435908,-0.44867913,0.586588,0.64206969,-0.4252595,0.558306,0.64925165,-0.42941164,0.545312,0.6364761,-0.43138691,0.533213
0.65609137,-0.5410443,0.646841,0.63216756,-0.50881109,0.608086,0.63657031,-0.54528842,0.632125,0.65097226,-0.54105522,0.608642,0.62224691,-0.53706481,0.581679,0.61072289,-0.52193595,0.562392,0.58434984,-0.48642752,0.56127,0.58115971,-0.48242491,0.528348,0.56508638,-0.47790962,0.519535,0.56453917,-0.48585238,0.529006,0.60077625,-0.47044532,0.565896,0.57554994,-0.42691313,0.525982,0.58032127,-0.4277919,0.502699,0.56694943,-0.42567618,0.491991,0.61642874,-0.46018274,0.572591,0.59783018,-0.41043193,0.536228,0.59005777,-0.38616174,0.517623,0.60011828,-0.38321693,0.50071,0.63926863,-0.45329396,0.586082,0.64408844,-0.42713339,0.558119,0.65173181,-0.43103175,0.545271,0.63917819,-0.43278975,0.533066
0.66136726,-0.54932952,0.648331,0.63377153,-0.5214561,0.609016,0.64304068,-0.55656713,0.634032,0.6526653,-0.55263723,0.610757,0.62454147,-0.54910397,0.584715,0.6147365,-0.53613376,0.564829,0.58626462,-0.49752447,0.562295,0.58314838,-0.49216309,0.529141,0.56679864,-0.48762996,0.520793,0.5662719,-0.49609307,0.53054,0.60127965,-0.48058713,0.566216,0.57533382,-0.43822944,0.526377,0.58076977,-0.43803736,0.503137,0.57111524,-0.43724582,0.49259,0.61574511,-0.46969129,0.572373,0.62290276,-0.43963169,0.538742,0.62731329,-0.42421036,0.521536,0.63415445,-0.42559014,0.505893,0.63715501,-0.46226978,0.585302,0.64354052,-0.43916326,0.556962,0.65185675,-0.44162405,0.543942,0.64132936,-0.44274011,0.531921
0.66421891,-0.56505677,0.648918,0.63390545,-0.53273645,0.60919,0.64304453,-0.56801964,0.634218,0.65114258,-0.56207946,0.610009,0.62207692,-0.55804026,0.583717,0.61127429,-0.54433923,0.563653,0.5856369,-0.50823944,0.561671,0.58168603,-0.50135241,0.527732,0.56600511,-0.49691964,0.520035,0.56609306,-0.50584481,0.530354,0.60094578,-0.49149158,0.56594,0.57503789,-0.44942285,0.526146,0.5805461,-0.44880069,0.502932,0.57093392,-0.4474337,0.492391,0.61569712,-0.48076263,0.572415,0.62315245,-0.45105125,0.539115,0.62773609,-0.43581925,0.522078,0.63485674,-0.43708164,0.506589,0.6375205,-0.47356912,0.585781,0.64013441,-0.44678847,0.556288,0.64849165,-0.44790111,0.542737,0.64020739,-0.44580732,0.531074
0.66355481,-0.56915637,0.648175,0.63306024,-0.54060278,0.608244,0.64262576,-0.57751661,0.6336,0.65096303,-0.570259,0.609407,0.62220625,-0.56658257,0.583312,0.61146362,-0.55294715,0.56333,0.58478153,-0.5163243,0.560727,0.58096042,-0.50846502,0.526667,0.56561096,-0.50390472,0.519191,0.56589935,-0.51296226,0.529646,0.59965619,-0.49916557,0.564773,0.57370559,-0.45749358,0.525211,0.57957898,-0.45642423,0.502133,0.56970367,-0.45033305,0.491279,0.61407527,-0.48812636,0.571078,0.61731766,-0.45456959,0.538247,0.61972916,-0.43729393,0.52145,0.63150452,-0.43707301,0.506179,0.63556047,-0.48060565,0.584272,0.63780454,-0.45374559,0.554648,0.64617273,-0.45451912,0.541036,0.63806736,-0.45200947,0.529425
0.66767822,-0.57880775,0.650619,0.63700933,-0.54348909,0.610499,0.64556015,-0.5811743,0.635569,0.65253831,-0.57266146,0.610471,0.62364906,-0.56802583,0.584175,0.61236625,-0.55445439,0.564266,0.5862256,-0.51736653,0.562259,0.58177458,-0.51042255,0.527564,0.56838856,-0.50729364,0.520577,0.57352544,-0.52082854,0.531477,0.60266248,-0.50140601,0.566822,0.57556388,-0.45890922,0.526907,0.5805884,-0.45891711,0.503623,0.5718528,-0.45802922,0.49359,0.6201237,-0.49242304,0.573567,0.62171886,-0.45975117,0.540267,0.6232865,-0.44295294,0.523229,0.63082551,-0.44175794,0.50774,0.64448984,-0.48689534,0.587312,0.64508896,-0.46072754,0.557398,0.65293565,-0.46212054,0.543653,0.64463556,-0.46184792,0.532184
0.66825933,-0.57933678,0.650415,0.6366163,-0.54239472,0.609614,0.64398912,-0.57981457,0.633564,0.64597508,-0.56663528,0.604196,0.61880383,-0.56204612,0.578465,0.60731167,-0.54775286,0.558095,0.58242375,-0.51333685,0.558661,0.57444428,-0.50383937,0.520969,0.56461122,-0.50384944,0.517585,0.56538745,-0.51245898,0.529456,0.60120803,-0.49951352,0.565196,0.57352091,-0.45665121,0.525035,0.57852538,-0.45667664,0.501607,0.57470571,-0.45940909,0.494296,0.61905766,-0.49115023,0.573615,0.61982843,-0.4571055,0.539224,0.62090316,-0.43960512,0.521629,0.62963707,-0.43928929,0.505633,0.64683709,-0.48777972,0.589451,0.64484245,-0.45964262,0.557185,0.65121393,-0.46045107,0.54236,0.64521058,-0.46273158,0.532489
0.66924181,-0.57951089,0.650617,0.63764986,-0.54227135,0.609942,0.64630649,-0.58132072,0.635659,0.65230176,-0.57179713,0.610142,0.62542582,-0.56728992,0.584426,0.6150542,-0.55381447,0.564724,0.5851152,-0.51504337,0.561403,0.57921615,-0.50894964,0.526104,0.56657669,-0.50586573,0.51999,0.567382,-0.51193089,0.531478,0.60232376,-0.49973557,0.565661,0.57446476,-0.45620229,0.525748,0.57971421,-0.45642548,0.502466,0.57590757,-0.4591907,0.492632,0.61997162,-0.49059846,0.572197,0.612737,-0.45071963,0.536151,0.6079971,-0.42991237,0.517708,0.61335713,-0.43172642,0.500943,0.64601138,-0.48629387,0.585771,0.65238901,-0.47368558,0.555342,0.65462502,-0.46783701,0.541361,0.65799594,-0.47303123,0.529026
0.66895673,-0.5781977,0.648536,0.6375382,-0.54080465,0.607531,0.64592152,-0.58018346,0.633994,0.65187192,-0.5708297,0.608747,0.62538965,-0.56687664,0.583669,0.61494701,-0.55353143,0.564108,0.58301058,-0.51359286,0.559257,0.5768251,-0.50775504,0.523886,0.5650774,-0.5047297,0.518208,0.56790482,-0.51394905,0.529898,0.59999551,-0.49804318,0.56289,0.57023266,-0.45473374,0.522597,0.57279374,-0.45762926,0.499093,0.57582036,-0.46227758,0.489698,0.6175067,-0.48884944,0.568937,0.60506369,-0.4472956,0.532182,0.59924937,-0.43033158,0.513377,0.60613854,-0.42961737,0.496282,0.64374104,-0.48432206,0.581975,0.64778229,-0.47173749,0.551211,0.64923097,-0.4657908,0.537077,0.65275581,-0.47068839,0.524605
0.66553707,-0.56871223,0.645466,0.63106908,-0.52875803,0.6037,0.64245766,-0.57243979,0.630651,0.64388993,-0.55625389,0.602853,0.61765959,-0.5560879,0.580207,0.607125,-0.54619138,0.560705,0.57154578,-0.5062446,0.554527,0.56172462,-0.50046631,0.516994,0.55828785,-0.49936647,0.515517,0.56660284,-0.51063355,0.529738,0.59228644,-0.49293084,0.558231,0.55637146,-0.4533162,0.518304,0.5592083,-0.45819855,0.495013,0.5619726,-0.46469161,0.489437,0.60916952,-0.48302791,0.564393,0.59363959,-0.44723108,0.527625,0.58821915,-0.43169686,0.508813,0.59278066,-0.43487013,0.491712,0.64047621,-0.477922,0.577676,0.63610869,-0.46854498,0.544666,0.63480539,-0.46462795,0.529499,0.6368784,-0.46945414,0.516116
0.64271443,-0.57126417,0.634673,0.60131128,-0.53904985,0.593544,0.61294106,-0.57975945,0.620357,0.61901262,-0.56724337,0.595307,0.59584164,-0.56531739,0.570538,0.58616311,-0.55190178,0.551065,0.54863509,-0.51612291,0.545458,0.54569361,-0.506407,0.510112,0.53713544,-0.5021544,0.504598,0.54180218,-0.51105588,0.516344,0.56422122,-0.49881459,0.54877,0.53172988,-0.455262,0.508524,0.53830516,-0.45429298,0.485048,0.53693789,-0.45545017,0.475161,0.57948416,-0.48752047,0.554561,0.56345966,-0.44474202,0.517764,0.5591858,-0.42530741,0.498938,0.56621266,-0.42356188,0.481823,0.60245469,-0.47948523,0.567312,0.60536556,-0.46415361,0.536428,0.60744221,-0.45733229,0.522238,0.61279203,-0.45950359,0.509718
0.61640921,-0.57091778,0.623671,0.57258043,-0.53695464,0.58216,0.58355152,-0.57774234,0.608868,0.58670376,-0.56505414,0.58241,0.56137363,-0.56220285,0.558052,0.55053473,-0.54830527,0.538374,0.51581988,-0.51012259,0.533192,0.51164262,-0.50185477,0.496753,0.50325736,-0.49743542,0.49265,0.50648188,-0.50470882,0.505389,0.53365563,-0.49454782,0.536968,0.49948737,-0.44884176,0.496664,0.5051518,-0.44985198,0.473153,0.50540474,-0.4531491,0.464069,0.55090391,-0.48477448,0.54317,0.53377002,-0.44123418,0.50642,0.52873448,-0.42168814,0.487617,0.53505742,-0.42137141,0.470524,0.57649456,-0.47876274,0.556466,0.5759395,-0.46313256,0.524661,0.57637545,-0.45620194,0.510049,0.58086948,-0.45932572,0.497155
0.60466113,-0.56342538,0.614415,0.56223238,-0.52902525,0.573878,0.57457046,-0.56791969,0.597807,0.57229232,-0.54796352,0.566793,0.54906618,-0.54753721,0.544164,0.53752409,-0.53299131,0.524398,0.50240967,-0.50521243,0.523419,0.46308421,-0.46320242,0.487096,0.4565058,-0.45004819,0.471976,0.47183069,-0.45604174,0.47303,0.51716249,-0.48880657,0.529748,0.47218456,-0.44620168,0.491096,0.47440805,-0.43491959,0.468549,0.48199637,-0.43048519,0.452444,0.5322305,-0.47805801,0.537977,0.50965843,-0.43597671,0.502968,0.50211739,-0.41611475,0.485056,0.51142174,-0.41101269,0.468773,0.55580627,-0.47042251,0.55355,0.55178893,-0.44986267,0.519995,0.55048673,-0.44056147,0.504577,0.55698064,-0.43833867,0.490973
0.58860746,-0.55856577,0.601655,0.53874418,-0.51460091,0.564593,0.55891874,-0.56091519,0.582493,0.53191574,-0.52405149,0.548043,0.51079191,-0.50029626,0.524654,0.48835091,-0.47469696,0.504861,0.45983443,-0.46865282,0.513579,0.44638159,-0.43640682,0.476909,0.44046205,-0.42112489,0.459497,0.453613,-0.42921184,0.456219,0.4813974,-0.45857311,0.524244,0.45807916,-0.42390274,0.485619,0.46732156,-0.41862508,0.463088,0.47419809,-0.41577575,0.446995,0.50308889,-0.45394348,0.535782,0.49346177,-0.42530328,0.49771,0.48905579,-0.41072258,0.478232,0.49578549,-0.40855181,0.460524,0.53658867,-0.45538193,0.554805,0.54043185,-0.44661404,0.521876,0.54273123,-0.44285841,0.506746,0.54728137,-0.44507487,0.493397
0.57967772,-0.56524581,0.59991,0.51653237,-0.51364201,0.563541,0.53595955,-0.55945535,0.580977,0.5089195,-0.52250138,0.546422,0.48204953,-0.49307866,0.517085,0.46454745,-0.47235479,0.50237,0.43900125,-0.468421,0.513325,0.42562609,-0.43616249,0.476642,0.41886567,-0.42002869,0.458301,0.42879641,-0.42512776,0.451878,0.46045609,-0.45831414,0.523948,0.43680484,-0.42386955,0.485581,0.44629739,-0.41872633,0.4632,0.45356441,-0.41597945,0.447214,0.48197098,-0.45361983,0.5354,0.47202987,-0.42513409,0.497512,0.46743091,-0.41063326,0.478128,0.47459906,-0.40853492,0.460505,0.51509207,-0.45490337,0.554222,0.51712829,-0.44330578,0.5214,0.51860646,-0.43823309,0.50632,0.52359222,-0.43992602,0.493014
0.54610615,-0.56408218,0.598822,0.49430949,-0.51256619,0.562534,0.51313512,-0.55803539,0.579708,0.48967432,-0.5250525,0.549202,0.46033292,-0.49618164,0.519366,0.43986806,-0.47455876,0.502966,0.41715986,-0.46711778,0.512154,0.40474112,-0.43612009,0.476519,0.39849506,-0.42061835,0.458702,0.4084564,-0.42597382,0.452426,0.43883972,-0.45733455,0.523028,0.41497677,-0.42297513,0.484773,0.42445291,-0.41810087,0.462458,0.43190358,-0.41558168,0.446519,0.46051243,-0.4528797,0.53468,0.44103118,-0.42188885,0.497039,0.43135147,-0.40605298,0.477781,0.43916376,-0.40278665,0.460273,0.49376756,-0.45441822,0.553728,0.49542441,-0.44288983,0.520965,0.49670081,-0.43784938,0.505912,0.5015852,-0.4398372,0.49263
0.53499311,-0.56376567,0.598486,0.47294426,-0.51235389,0.562301,0.49156524,-0.55790447,0.579572,0.4691287,-0.52615672,0.550357,0.43985837,-0.49730419,0.520541,0.41994718,-0.47625615,0.504765,0.39667775,-0.46719986,0.512244,0.38437888,-0.43627293,0.476686,0.37819762,-0.42080633,0.458907,0.38840517,-0.42649166,0.452976,0.41811316,-0.45722963,0.522908,0.39366749,-0.42285734,0.484638,0.4032226,-0.41796978,0.462313,0.4109262,-0.41544021,0.446367,0.43953344,-0.4526256,0.53438,0.41959832,-0.42171145,0.49683,0.40964394,-0.4059153,0.477619,0.41767924,-0.40268251,0.460154,0.47239639,-0.4539841,0.553199,0.47354637,-0.44243331,0.520428,0.474558,-0.4373803,0.50537,0.47949509,-0.43935061,0.492085
0.51335154,-0.56373459,0.598453,0.45177493,-0.51234387,0.56229,0.47009384,-0.55787848,0.579545,0.44763138,-0.52624849,0.550453,0.41841949,-0.4973959,0.520637,0.39857933,-0.47640712,0.504925,0.37613186,-0.46721172,0.512257,0.36385953,-0.43625463,0.476666,0.35769404,-0.42077331,0.458871,0.36783872,-0.42647,0.452953,0.39749794,-0.45724187,0.522922,0.37249221,-0.42287828,0.484662,0.38215099,-0.4179978,0.462344,0.39012644,-0.41547278,0.446402,0.41882222,-0.45263577,0.534392,0.39836927,-0.42173097,0.496853,0.38810541,-0.4059391,0.477647,0.3963367,-0.40271139,0.460187,0.45150347,-0.45399066,0.553207,0.45219029,-0.44244436,0.520441,0.45296256,-0.43739501,0.505387,0.45797659,-0.43936668,0.492103
0.46248223,-0.5553404,0.580319,0.4109053,-0.49799407,0.549475,0.42582951,-0.54439939,0.561527,0.39553276,-0.5102408,0.53823,0.37388236,-0.46920474,0.508685,0.35748467,-0.44518942,0.497061,0.33182765,-0.44374157,0.503532,0.31649234,-0.41932915,0.467333,0.30882664,-0.40712453,0.449233,0.32257473,-0.41189419,0.445765,0.35700996,-0.43788748,0.515896,0.31781403,-0.39138121,0.481252,0.32952412,-0.39337072,0.461043,0.33435574,-0.39406445,0.446608,0.38156276,-0.43684989,0.528369,0.37267693,-0.4149865,0.492648,0.36855549,-0.40399322,0.474372,0.3788417,-0.40240084,0.457758,0.41833883,-0.44292008,0.547622,0.42226664,-0.44143768,0.517071,0.42453933,-0.44115542,0.503035,0.43386641,-0.44004549,0.490649
0.45023108,-0.54884582,0.573748,0.3962072,-0.49420769,0.544862,0.41528938,-0.53902154,0.555916,0.39098466,-0.5031328,0.530687,0.35738449,-0.46979985,0.500599,0.33257729,-0.45137148,0.487937,0.32218427,-0.44322035,0.50155,0.29926544,-0.40665549,0.467714,0.28780657,-0.3883762,0.450796,0.28563282,-0.38280814,0.448355,0.34656668,-0.43664369,0.513415,0.31684727,-0.39226423,0.48012,0.3298538,-0.39516666,0.460698,0.33490129,-0.39633258,0.446825,0.37008283,-0.43495193,0.525331,0.36195858,-0.41175732,0.490978,0.35976558,-0.40090144,0.473402,0.37479753,-0.40089329,0.457424,0.40487332,-0.44005437,0.543642,0.40997155,-0.43876521,0.514102,0.4128003,-0.43857901,0.50053,0.42185809,-0.43898027,0.488555
0.43756305,-0.54838287,0.573479,0.38538042,-0.49397277,0.544603,0.40332747,-0.53874033,0.555562,0.38035384,-0.50221717,0.529676,0.34580309,-0.46874407,0.499474,0.32099176,-0.45021331,0.486685,0.31170502,-0.44290487,0.501193,0.28879959,-0.40635379,0.467367,0.27734718,-0.38808069,0.450453,0.27508455,-0.38280985,0.448357,0.33610288,-0.43643277,0.513167,0.30589588,-0.39390956,0.479892,0.31989699,-0.39708486,0.460481,0.32521626,-0.3982357,0.446616,0.35961287,-0.43481946,0.525171,0.35115449,-0.41161223,0.490805,0.34877036,-0.40074985,0.473223,0.36021828,-0.3995144,0.457239,0.39436069,-0.44000904,0.543586,0.39920283,-0.43871912,0.514048,0.40189833,-0.43853169,0.500476,0.41113721,-0.43893175,0.488501
0.42982019,-0.5433922,0.567188,0.38040028,-0.48955785,0.539918,0.39544983,-0.53296922,0.549073,0.36456186,-0.49774802,0.523441,0.3414466,-0.45766361,0.49288,0.32473805,-0.43331505,0.479875,0.30577478,-0.43529397,0.497455,0.27872693,-0.39830293,0.463337,0.26520989,-0.3798155,0.446278,0.26120747,-0.37489983,0.444874,0.33276916,-0.43218647,0.510229,0.31480432,-0.39323648,0.478271,0.32862024,-0.3982308,0.45963,0.32958754,-0.39901054,0.446314,0.35684239,-0.43152651,0.522771,0.35085144,-0.40862332,0.48938,0.34967723,-0.39790206,0.472296,0.36128903,-0.39748098,0.456765,0.39209224,-0.43782237,0.5416,0.39782656,-0.43760788,0.512921,0.40096093,-0.43794243,0.499744,0.40980385,-0.43954451,0.488118
0.42041306,-0.53500287,0.557312,0.37930402,-0.48853875,0.539162,0.38455772,-0.52653253,0.541816,0.36006257,-0.49313543,0.519399,0.34054809,-0.45793731,0.494685,0.32653009,-0.43671864,0.48581,0.31214498,-0.44072292,0.506684,0.29144969,-0.40489098,0.480524,0.28069522,-0.38817692,0.467444,0.27771748,-0.38231719,0.467053,0.33842851,-0.43625977,0.519403,0.32922203,-0.40098368,0.495894,0.34543596,-0.413573,0.48218,0.35170478,-0.42277988,0.474399,0.36283991,-0.43597899,0.531221,0.37200537,-0.42196205,0.506419,0.37574731,-0.4153572,0.493827,0.38836722,-0.41925117,0.48238,0.39739276,-0.44261574,0.547889,0.40751387,-0.44718664,0.524798,0.41290446,-0.44992681,0.514189,0.4237225,-0.45462869,0.504828
0.41886767,-0.53400187,0.554802,0.37906628,-0.48824426,0.537806,0.38627481,-0.52438074,0.538621,0.36379369,-0.48921195,0.514823,0.34472468,-0.45097336,0.491678,0.32678392,-0.43276123,0.483555,0.3127173,-0.44273273,0.505345,0.29308343,-0.40500402,0.479932,0.28287444,-0.38733469,0.467226,0.28037599,-0.38043062,0.467022,0.33919823,-0.43839718,0.519303,0.34098889,-0.40534781,0.498527,0.36033915,-0.41681527,0.486408,0.37174958,-0.43755772,0.491353,0.36362941,-0.43845186,0.532055,0.38588678,-0.42556337,0.515146,0.399864,-0.41913725,0.506495,0.41779704,-0.42562933,0.49863,0.39753634,-0.44519135,0.549671,0.41113526,-0.44503202,0.527257,0.41994464,-0.44035162,0.517346,0.43177676,-0.44466387,0.508602
0.41726507,-0.53089789,0.552356,0.37951183,-0.48424099,0.538346,0.38477142,-0.52108978,0.536129,0.36264931,-0.47712865,0.512148,0.34514346,-0.441122,0.490487,0.33100209,-0.4190708,0.482108,0.31485607,-0.43739691,0.508044,0.28881561,-0.39503481,0.484214,0.29003998,-0.38766675,0.472299,0.31062789,-0.39503056,0.476124,0.34199158,-0.43508005,0.523094,0.34393328,-0.3989863,0.503262,0.36418421,-0.41102305,0.491693,0.37537955,-0.43495515,0.496782,0.36697256,-0.43636015,0.536521,0.38462664,-0.42350709,0.512841,0.3890661,-0.43899335,0.500725,0.38816839,-0.45821226,0.504778,0.40032049,-0.44419705,0.554518,0.41652772,-0.43679517,0.53406,0.42534712,-0.43559577,0.52466,0.43803293,-0.44037482,0.516366
0.41675379,-0.52915747,0.551104,0.38184719,-0.48072258,0.537648,0.38441814,-0.51936646,0.534994,0.36296633,-0.47633771,0.511299,0.34514957,-0.43995913,0.489194,0.33115646,-0.4181042,0.480996,0.31683415,-0.43540674,0.5079,0.28810112,-0.39462431,0.484457,0.29034359,-0.3835729,0.472736,0.3090441,-0.3937278,0.476731,0.34253363,-0.43421314,0.522999,0.34547219,-0.39968475,0.504143,0.3661842,-0.41223599,0.493144,0.38105744,-0.43315819,0.49855,0.36721131,-0.43536146,0.536425,0.38565734,-0.42374125,0.513186,0.39124087,-0.43933958,0.501297,0.39205355,-0.46016303,0.505541,0.40142203,-0.44398807,0.554342,0.41761625,-0.43695792,0.534259,0.42659945,-0.43590379,0.525031,0.43941965,-0.44082085,0.516889
0.41614806,-0.52854452,0.552158,0.38088113,-0.46963789,0.536826,0.38459749,-0.51031262,0.533112,0.37319628,-0.46198849,0.500213,0.35665991,-0.42706941,0.47111,0.34554115,-0.40078468,0.454812,0.31516306,-0.41990317,0.502084,0.305267,-0.38767428,0.475272,0.30038818,-0.37146196,0.461866,0.31775055,-0.37595689,0.462235,0.34239334,-0.41972468,0.520134,0.36660823,-0.40367364,0.498939,0.38760216,-0.40960095,0.486576,0.41209745,-0.42361847,0.488819,0.36752512,-0.42279202,0.536127,0.38946738,-0.40459067,0.511098,0.40455912,-0.40015671,0.498293,0.43027924,-0.40887116,0.499282,0.4027409,-0.43270348,0.557372,0.42032088,-0.42758953,0.53619,0.42927169,-0.42554101,0.526458,0.44097662,-0.43146923,0.51787
0.43626005,-0.51354173,0.540443,0.41415232,-0.46789075,0.537278,0.40284107,-0.49644005,0.52676,0.38131095,-0.44338931,0.501389,0.3589556,-0.39695346,0.47686,0.34491657,-0.37012781,0.467454,0.35910893,-0.41568219,0.518148,0.36514361,-0.40714846,0.501514,0.36870054,-0.40302943,0.493197,0.38103035,-0.42682803,0.499695,0.39103819,-0.42027105,0.533834,0.40872116,-0.40383795,0.523195,0.42795356,-0.42522321,0.516989,0.44670346,-0.45520519,0.525095,0.41914318,-0.42709923,0.546975,0.43513221,-0.40897908,0.532318,0.45271827,-0.41505753,0.52482,0.48264286,-0.43264309,0.532167,0.45616894,-0.44126497,0.56309,0.46935368,-0.43948838,0.550331,0.47655617,-0.43907239,0.544469,0.48994553,-0.44992527,0.539297
0.43866092,-0.50634795,0.543414,0.41202889,-0.44613329,0.534522,0.40487088,-0.47917302,0.52941,0.39252654,-0.43665417,0.516137,0.38404293,-0.40469974,0.510189,0.37495891,-0.38240042,0.508164,0.35397585,-0.39121414,0.510745,0.35669359,-0.37865333,0.489921,0.35845627,-0.37246228,0.479509,0.37011614,-0.39458269,0.485386,0.38444906,-0.39454739,0.524842,0.40300439,-0.38423906,0.508698,0.41934876,-0.38954064,0.499281,0.44477014,-0.40824958,0.506487,0.41157618,-0.40060777,0.537103,0.42399887,-0.37872204,0.518701,0.43931005,-0.38254219,0.509286,0.46809602,-0.39833973,0.516138,0.44797989,-0.41431346,0.552983,0.45722358,-0.40795609,0.536125,0.4624569,-0.40530988,0.528379,0.47380149,-0.4140616,0.521545
0.41508623,-0.39284579,0.482566,0.42404777,-0.34532646,0.474755,0.39751081,-0.36878539,0.478443,0.42931139,-0.35151946,0.490727,0.45948556,-0.33921627,0.492988,0.48821697,-0.33160913,0.500888,0.40900088,-0.28561227,0.4639,0.40213497,-0.28133298,0.449316,0.39655104,-0.29538818,0.442023,0.4042191,-0.31747415,0.452998,0.43259405,-0.29677148,0.466252,0.42362551,-0.29384182,0.451461,0.42763843,-0.34061501,0.474284,0.42635115,-0.37265758,0.486798,0.45183516,-0.30931787,0.468768,0.44200332,-0.30584426,0.454168,0.44145137,-0.34268463,0.473379,0.43639809,-0.37449867,0.486949,0.47439207,-0.33093759,0.472879,0.45119635,-0.32026805,0.45901,0.44005666,-0.31531532,0.452637,0.42943898,-0.33338481,0.460578
0.44619256,-0.36881973,0.485369,0.43795666,-0.31411767,0.46756,0.41982358,-0.34520085,0.470141,0.45407952,-0.32805058,0.476698,0.48987214,-0.31653102,0.478642,0.51983104,-0.30784663,0.487988,0.3998829,-0.24748406,0.435664,0.41242608,-0.25560951,0.418005,0.40925265,-0.26903021,0.409176,0.40690655,-0.28131145,0.415543,0.42848977,-0.25710498,0.448173,0.44726215,-0.2724759,0.427629,0.44693116,-0.31162712,0.444362,0.44713814,-0.34057325,0.457046,0.45272614,-0.26879164,0.459792,0.46262978,-0.27899324,0.433573,0.45930991,-0.31055805,0.447321,0.45934701,-0.34252637,0.463401,0.48308801,-0.29003648,0.476175,0.48252811,-0.29724469,0.453327,0.48317738,-0.30140323,0.442829,0.47691896,-0.32192274,0.445385
0.54081641,-0.35373095,0.571516,0.50687886,-0.34235841,0.530395,0.53256732,-0.37150876,0.562024,0.53798459,-0.37989429,0.541275,0.53565826,-0.38717737,0.521523,0.53638184,-0.39518344,0.51009,0.47162534,-0.35609694,0.488229,0.47432715,-0.32724037,0.450673,0.4689872,-0.31924841,0.446504,0.47309901,-0.32428472,0.459659,0.47002362,-0.33023629,0.485628,0.48668609,-0.30113178,0.446362,0.4647725,-0.2895053,0.441267,0.44489546,-0.28248,0.437628,0.47123482,-0.30971565,0.486553,0.48716978,-0.28613017,0.448836,0.46758599,-0.28150891,0.444543,0.4464685,-0.27753274,0.44064,0.47749533,-0.28677605,0.493503,0.4958235,-0.28651962,0.464217,0.50175288,-0.28550671,0.450761,0.48922809,-0.28589777,0.441164
0.52194451,-0.33577322,0.551782,0.49120665,-0.32673574,0.511965,0.52985512,-0.34585612,0.545335,0.52630285,-0.31801791,0.515034,0.51744757,-0.28083227,0.496664,0.51126333,-0.26033192,0.492905,0.48211024,-0.3376346,0.474501,0.47530568,-0.2876661,0.437256,0.46241403,-0.28356794,0.434085,0.457399,-0.29352824,0.442537,0.46213378,-0.31560101,0.468617,0.46669292,-0.25587502,0.429838,0.44614897,-0.25029306,0.425974,0.42840191,-0.25091261,0.423214,0.44997486,-0.29759702,0.466744,0.46006628,-0.24709718,0.434717,0.44850233,-0.24469631,0.431745,0.43569737,-0.2448803,0.429043,0.43510005,-0.27833955,0.470172,0.45758397,-0.24885131,0.442538,0.46199219,-0.23990536,0.42984,0.46053137,-0.23793484,0.421306
0.58559762,-0.35417232,0.552616,0.53898008,-0.32501831,0.515446,0.57819032,-0.35336551,0.53312,0.55859203,-0.31000399,0.50641,0.53061086,-0.26576205,0.475917,0.51659029,-0.24395919,0.464625,0.49523883,-0.30235205,0.463942,0.48985579,-0.25557518,0.434467,0.47706627,-0.25609835,0.429263,0.47571298,-0.26810758,0.436845,0.4881817,-0.29324446,0.47498,0.49270336,-0.23248389,0.440664,0.48487725,-0.23556457,0.434083,0.48689987,-0.25368187,0.44443,0.48592406,-0.28798901,0.486832,0.48270325,-0.22604203,0.454983,0.480487,-0.19520551,0.438688,0.48520993,-0.18237342,0.426056,0.48992094,-0.28592326,0.506245,0.50776926,-0.24726659,0.476164,0.51516836,-0.2315267,0.462344,0.51865765,-0.23481203,0.451642
0.56088465,-0.33545729,0.523393,0.52910794,-0.30009669,0.494968,0.55222189,-0.33270857,0.504288,0.55843219,-0.29123638,0.478333,0.5769445,-0.27658493,0.470481,0.56750488,-0.25924663,0.452819,0.48890307,-0.2681168,0.450436,0.48789127,-0.22935681,0.424615,0.48362867,-0.21916064,0.413572,0.49768822,-0.21855535,0.41935,0.48728226,-0.2611712,0.464022,0.49539178,-0.20210511,0.439433,0.49992508,-0.16791001,0.425088,0.5064133,-0.1587139,0.414843,0.48895642,-0.25824454,0.47732,0.49836471,-0.20328321,0.453124,0.50299219,-0.17539189,0.440745,0.50707857,-0.15018299,0.429491,0.49657436,-0.25995013,0.497212,0.52563579,-0.23623486,0.475159,0.53750605,-0.23455556,0.465026,0.53601566,-0.24160044,0.452904
0.59412082,-0.28465764,0.517016,0.54557053,-0.26227033,0.485748,0.58595147,-0.28051349,0.49712,0.5465909,-0.23106668,0.461759,0.51880017,-0.19227561,0.437955,0.49439499,-0.17070178,0.419154,0.4994385,-0.24054902,0.438135,0.48103672,-0.18798064,0.406579,0.4771013,-0.18710249,0.397304,0.49374262,-0.19419545,0.406051,0.49249106,-0.23780609,0.451708,0.48579287,-0.1719851,0.422523,0.48092285,-0.135522,0.405498,0.4787886,-0.12560969,0.393337,0.49052102,-0.23727573,0.465206,0.48313881,-0.17418793,0.434395,0.4784797,-0.14356705,0.418628,0.47370109,-0.11675615,0.404295,0.49522344,-0.23989407,0.485742,0.5108671,-0.19565647,0.460779,0.51029019,-0.203474,0.44931,0.50704084,-0.20865032,0.437634
0.59314061,-0.27908111,0.516163,0.5449191,-0.25168768,0.485168,0.5850651,-0.27496165,0.496368,0.54709161,-0.22134502,0.462182,0.52133316,-0.18325662,0.441493,0.49539713,-0.16062476,0.422219,0.4991501,-0.23002867,0.437882,0.48113965,-0.1781658,0.406666,0.47690316,-0.17771954,0.397139,0.49325623,-0.18477747,0.405651,0.49218142,-0.2273137,0.451424,0.4858837,-0.16206085,0.422602,0.48126679,-0.12589825,0.405788,0.47932662,-0.11657866,0.393779,0.49017517,-0.22679961,0.464878,0.48315994,-0.164309,0.434414,0.4787083,-0.13397387,0.418828,0.47412758,-0.10740919,0.404659,0.49479423,-0.22942315,0.485321,0.51075179,-0.18566889,0.460675,0.51033562,-0.19400509,0.44935,0.50700029,-0.19956948,0.437599
0.59473323,-0.27814476,0.517364,0.54709542,-0.25190892,0.486142,0.58721755,-0.27406972,0.497865,0.55361447,-0.22281816,0.466235,0.54002194,-0.18661965,0.452835,0.51566116,-0.16286294,0.433875,0.50248737,-0.22976535,0.439051,0.48472414,-0.17804018,0.408006,0.47969434,-0.17771603,0.398171,0.49551493,-0.184885,0.406494,0.49488829,-0.22686427,0.452152,0.48867138,-0.16175271,0.423295,0.48601509,-0.12541215,0.406462,0.48165698,-0.1167547,0.394438,0.4923491,-0.22625085,0.465259,0.48556346,-0.16399097,0.434899,0.48119165,-0.13382415,0.419366,0.47666217,-0.10743984,0.405245,0.4962906,-0.22885167,0.485323,0.51227716,-0.18544223,0.460764,0.51096512,-0.19443187,0.44948,0.50654508,-0.20330481,0.437558
0.59641697,-0.27861485,0.518881,0.5486522,-0.25285756,0.487307,0.58899728,-0.27442735,0.499342,0.55493195,-0.22372872,0.467185,0.5393426,-0.18766968,0.452949,0.51279957,-0.16430531,0.433816,0.5041131,-0.23016857,0.439903,0.48734957,-0.17800878,0.40853,0.4810376,-0.17823228,0.39889,0.49696975,-0.18562164,0.407419,0.49638328,-0.22724827,0.452932,0.4889402,-0.16167435,0.423673,0.48237684,-0.12527228,0.406585,0.4811644,-0.11567339,0.39438,0.49374089,-0.22665691,0.466005,0.48667972,-0.16434973,0.435293,0.48339259,-0.13422337,0.41958,0.47648706,-0.10769759,0.404513,0.49756529,-0.22935499,0.486078,0.51323005,-0.1859789,0.461197,0.51138445,-0.19515413,0.449766,0.50663169,-0.20343677,0.437883
0.59779618,-0.27905585,0.520232,0.55074328,-0.25367611,0.489084,0.5907168,-0.2748702,0.500897,0.55771063,-0.2246749,0.468981,0.54062695,-0.18839787,0.454277,0.51598896,-0.16463877,0.435136,0.50821419,-0.23038072,0.442247,0.49093814,-0.17894979,0.41145,0.48504168,-0.17902959,0.401381,0.49963514,-0.18653511,0.409512,0.50028284,-0.22745727,0.455173,0.49227918,-0.1623392,0.426502,0.48733035,-0.12590502,0.409777,0.4852464,-0.11610343,0.397831,0.49738786,-0.22690459,0.46813,0.49121869,-0.16509364,0.437997,0.48723868,-0.13600272,0.42258,0.48262024,-0.11094265,0.408501,0.5007528,-0.22972951,0.488004,0.51703445,-0.18701156,0.463648,0.51450278,-0.19649612,0.452458,0.50937072,-0.20454175,0.440443
0.60032557,-0.28027806,0.522273,0.55280561,-0.25448721,0.49063,0.59267958,-0.27580904,0.502473,0.55720644,-0.22477359,0.468185,0.53812619,-0.18744927,0.451165,0.51289439,-0.16360273,0.431996,0.50897565,-0.23027428,0.442856,0.4910825,-0.17870773,0.411116,0.48612838,-0.17939503,0.401861,0.50212408,-0.1874411,0.410688,0.50168634,-0.22737896,0.45618,0.49258286,-0.16193012,0.426665,0.48626594,-0.1249823,0.409447,0.48471295,-0.11495765,0.397149,0.49933696,-0.22690078,0.469502,0.49419811,-0.16480677,0.43846,0.49007323,-0.13632408,0.422579,0.48530261,-0.11255812,0.408141,0.50432456,-0.22891144,0.489881,0.52047943,-0.1874365,0.464704,0.52082921,-0.19935379,0.456874,0.53546043,-0.21505036,0.462699
0.60184838,-0.28205474,0.52351,0.55456282,-0.25861283,0.491795,0.59500277,-0.27774438,0.504266,0.55769439,-0.23284797,0.468782,0.53338657,-0.1945187,0.447885,0.50803627,-0.16698692,0.428913,0.51523451,-0.23530232,0.44465,0.49664131,-0.18168145,0.413505,0.49036735,-0.18275735,0.403551,0.50418351,-0.18958021,0.411864,0.50683085,-0.23243995,0.457267,0.49447477,-0.16301361,0.428054,0.48881782,-0.12618049,0.411013,0.48677558,-0.11559828,0.398841,0.50350286,-0.23216204,0.470013,0.49729936,-0.1717693,0.439469,0.49250031,-0.1442766,0.423843,0.48807232,-0.11752783,0.409282,0.5062388,-0.23572746,0.489715,0.52210871,-0.19404394,0.464981,0.52206789,-0.20571974,0.456599,0.53581946,-0.21918065,0.462055
0.60080217,-0.28311936,0.522565,0.5538535,-0.2643257,0.490568,0.59411605,-0.27869667,0.503391,0.5604887,-0.23971722,0.467808,0.53572841,-0.20043641,0.443611,0.51231205,-0.17712631,0.424704,0.51373225,-0.23728863,0.443299,0.49587532,-0.18563814,0.412007,0.48921116,-0.18654663,0.402088,0.50400249,-0.19511657,0.410473,0.50507443,-0.23441779,0.455733,0.49247323,-0.16954346,0.426264,0.48595782,-0.13233582,0.409074,0.48387301,-0.1186308,0.396795,0.501414,-0.23698113,0.468349,0.49493833,-0.1735415,0.437624,0.490033,-0.14550878,0.421904,0.48451573,-0.1220331,0.407613,0.50386467,-0.24067883,0.487937,0.51932788,-0.19848266,0.463033,0.51937365,-0.20997835,0.454673,0.5332652,-0.22205431,0.460196
0.60115893,-0.28473306,0.522853,0.55416261,-0.2654437,0.490496,0.59427492,-0.28179941,0.503333,0.56037457,-0.24048837,0.467656,0.53552952,-0.20112627,0.443437,0.51149331,-0.17731392,0.424404,0.51331128,-0.24045314,0.442536,0.49430083,-0.18809052,0.410551,0.48826016,-0.18914748,0.401231,0.50361681,-0.19619116,0.410129,0.50478436,-0.23789305,0.45527,0.49117035,-0.17127378,0.425183,0.48406906,-0.13387723,0.407632,0.48138702,-0.11980806,0.395096,0.50138049,-0.23790063,0.468159,0.49364924,-0.17652987,0.436767,0.48826481,-0.14776078,0.420705,0.48255483,-0.12236495,0.406104,0.50407939,-0.24188056,0.488124,0.5187595,-0.19921165,0.462617,0.51933531,-0.21088254,0.454721,0.53369017,-0.22501553,0.460637
0.59992545,-0.29033671,0.521063,0.55450443,-0.26871614,0.489313,0.5934509,-0.28708796,0.501699,0.5572683,-0.24034913,0.465891,0.52458309,-0.2015817,0.440971,0.50180577,-0.17559045,0.42261,0.51280302,-0.24137392,0.441994,0.49433991,-0.18917052,0.410683,0.4879388,-0.18996879,0.400892,0.50290319,-0.19859083,0.409336,0.50432449,-0.23898069,0.454746,0.4914746,-0.17201932,0.425417,0.48449594,-0.13461003,0.408308,0.48214696,-0.1217121,0.396088,0.50095722,-0.23911165,0.467606,0.49371545,-0.17786724,0.436913,0.48863386,-0.14911768,0.42121,0.48315469,-0.12457899,0.406934,0.50384217,-0.24459447,0.487449,0.51887337,-0.20057498,0.462581,0.5192684,-0.21201003,0.454327,0.53323741,-0.22797009,0.459879
