sluyters/QuantumLeap/src/datasets/gesture/HandGestureDataset_SHREC2017_csv/Gesture11/finger_1/subject_13_essai_1_skeletons_world.csv
Wrist_x,Wrist_y,Wrist_z,Palm_x,Palm_y,Palm_z,thumb_base_x,thumb_base_y,thumb_base_z,thumb_first_joint_x,thumb_first_joint_y,thumb_first_joint_z,thumb_second_joint_x,thumb_second_joint_y,thumb_second_joint_z,thumb_tip_x,thumb_tip_y,thumb_tip_z,index_base_x,index_base_y,index_base_z,index_first_joint_x,index_first_joint_y,index_first_joint_z,index_second_joint_x,index_second_joint_y,index_second_joint_z,index_tip_x,index_tip_y,index_tip_z,middle_base_x,middle_base_y,middle_base_z,middle_first_joint_x,middle_first_joint_y,middle_first_joint_z,middle_second_joint_x,middle_second_joint_y,middle_second_joint_z,middle_tip_x,middle_tip_y,middle_tip_z,ring_base_x,ring_base_y,ring_base_z,ring_first_joint_x,ring_first_joint_y,ring_first_joint_z,ring_second_joint_x,ring_second_joint_y,ring_second_joint_z,ring_tip_x,ring_tip_y,ring_tip_z,pinky_base_x,pinky_base_y,pinky_base_z,pinky_first_joint_x,pinky_first_joint_y,pinky_first_joint_z,pinky_second_joint_x,pinky_second_joint_y,pinky_second_joint_z,pinky_tip_x,pinky_tip_y,pinky_tip_z,
0.47943387,-0.32873343,0.516542,0.47929138,-0.28778761,0.518737,0.46119073,-0.31488237,0.520144,0.43803153,-0.2833644,0.521773,0.41318445,-0.25303901,0.517219,0.40581753,-0.23462041,0.518931,0.45787667,-0.23548641,0.524919,0.45772753,-0.19779285,0.534406,0.45968921,-0.17829212,0.53915,0.46207369,-0.15971063,0.543463,0.4784831,-0.23573536,0.520827,0.48485587,-0.21939024,0.514407,0.50915315,-0.26186438,0.541957,0.51657824,-0.2842636,0.555383,0.49501835,-0.23839125,0.517221,0.50459563,-0.22996239,0.510223,0.53386701,-0.26570292,0.531802,0.55113759,-0.29410727,0.551419,0.51466514,-0.24661464,0.512623,0.50897025,-0.24148293,0.507728,0.52781714,-0.27243009,0.524504,0.53943412,-0.29244936,0.537504
0.47884017,-0.32863205,0.516827,0.47691633,-0.28643121,0.52026,0.46131224,-0.31535282,0.521272,0.43612517,-0.28424098,0.525266,0.40836677,-0.25526803,0.521674,0.40529305,-0.23852441,0.526244,0.45120611,-0.23384517,0.52838,0.45043875,-0.19812882,0.537459,0.45122552,-0.1782274,0.541999,0.4519388,-0.15966696,0.546126,0.4713692,-0.23292457,0.523529,0.47710698,-0.21862844,0.518435,0.50148635,-0.26132553,0.545858,0.51508975,-0.28530843,0.55958,0.4874625,-0.23456946,0.519166,0.49671208,-0.2262486,0.513101,0.52624964,-0.26135545,0.534565,0.54808057,-0.29097693,0.554079,0.50647273,-0.24147304,0.513455,0.50842202,-0.2408057,0.509896,0.52136785,-0.26894773,0.526639,0.53941274,-0.29215542,0.539847
0.47865271,-0.32856213,0.518107,0.47142523,-0.28345369,0.520952,0.4602082,-0.31460199,0.521493,0.42923439,-0.28120169,0.523434,0.40464598,-0.2527975,0.519385,0.39597129,-0.23619205,0.52305,0.44964579,-0.23141082,0.527294,0.44786956,-0.1953297,0.536377,0.44493213,-0.17424365,0.540919,0.4479764,-0.15809398,0.545559,0.47075868,-0.23151402,0.523662,0.47720812,-0.21646059,0.518031,0.50150567,-0.25884033,0.545684,0.50933437,-0.28091815,0.559714,0.48768788,-0.23404751,0.520364,0.49769948,-0.22680397,0.514187,0.52692073,-0.26209616,0.535853,0.54370901,-0.28937644,0.55555,0.50771619,-0.24210587,0.516002,0.50422886,-0.2406313,0.511489,0.51326365,-0.26611853,0.528327,0.52712653,-0.28354015,0.543184
0.47227954,-0.3225598,0.522763,0.46814714,-0.27317397,0.524501,0.45173029,-0.30559496,0.526582,0.42285984,-0.26929005,0.526826,0.39873137,-0.24253887,0.524797,0.38958356,-0.22450408,0.526703,0.45019101,-0.22003454,0.530655,0.44535056,-0.18490369,0.539073,0.44523712,-0.16531074,0.543282,0.44760968,-0.15270278,0.549848,0.47066004,-0.22113766,0.526155,0.47658077,-0.21633836,0.519174,0.50197813,-0.25817085,0.546624,0.51159491,-0.28143347,0.561646,0.48703077,-0.22451658,0.522263,0.48592618,-0.21856455,0.514658,0.49775316,-0.25362696,0.536153,0.50896007,-0.27685808,0.555693,0.50630648,-0.23367449,0.517419,0.50026034,-0.2301312,0.512289,0.51678442,-0.25892717,0.529009,0.5296314,-0.28202414,0.543761
0.4702627,-0.32101668,0.523308,0.46620019,-0.27342433,0.52427,0.45000705,-0.30419184,0.527225,0.42101447,-0.26966235,0.526832,0.39622477,-0.24248295,0.523971,0.38694454,-0.2236235,0.525241,0.44790073,-0.22005105,0.530025,0.44316463,-0.18560782,0.538669,0.44295425,-0.16599434,0.542991,0.4426116,-0.14731611,0.54692,0.46808895,-0.22101067,0.525186,0.46762499,-0.20922398,0.517294,0.49578378,-0.24810227,0.544632,0.50743923,-0.27794976,0.557667,0.48427966,-0.22430193,0.521097,0.48219629,-0.21799611,0.512601,0.49387653,-0.25297315,0.534003,0.50502641,-0.27613068,0.553459,0.50346552,-0.23341351,0.51617,0.49679091,-0.22965771,0.510516,0.51252257,-0.26105505,0.527163,0.52723261,-0.28068606,0.541851
0.46870284,-0.31985191,0.523249,0.46545173,-0.27345005,0.524082,0.448779,-0.30324234,0.52712,0.42021689,-0.26967048,0.526607,0.39515919,-0.24232327,0.523391,0.38589788,-0.22323377,0.524528,0.44702983,-0.22000386,0.529688,0.44262273,-0.1859198,0.53876,0.44252301,-0.16634442,0.543296,0.44227907,-0.14770005,0.54742,0.46724278,-0.22097335,0.524875,0.46721548,-0.20904076,0.516841,0.49536959,-0.247895,0.544177,0.50634791,-0.27662849,0.55682,0.48346772,-0.22427882,0.520821,0.48122979,-0.21793084,0.512208,0.49288429,-0.2529078,0.533609,0.50403674,-0.27606283,0.553065,0.50271921,-0.23341931,0.515959,0.49589049,-0.22961755,0.510187,0.51209745,-0.25945175,0.52683,0.52663418,-0.28033693,0.541514
0.46765569,-0.31907041,0.523202,0.46506674,-0.27345666,0.523976,0.44801138,-0.30265186,0.527021,0.41978334,-0.26965228,0.526451,0.39455272,-0.242198,0.523003,0.38532275,-0.22300891,0.524101,0.44655775,-0.21996217,0.529476,0.44234893,-0.18607457,0.538802,0.4423209,-0.16652451,0.543465,0.44214034,-0.14790118,0.547704,0.46681397,-0.22095197,0.524713,0.4670139,-0.20895056,0.516618,0.49517387,-0.24779705,0.543962,0.50569872,-0.27578938,0.556342,0.48308494,-0.22427803,0.520708,0.48078933,-0.21791757,0.512057,0.49243809,-0.25290069,0.533466,0.50359665,-0.27605885,0.552928,0.50240396,-0.23344912,0.515913,0.49548833,-0.22961974,0.510072,0.5118657,-0.25835847,0.526718,0.52636444,-0.28017497,0.541404
0.46692238,-0.31852214,0.523185,0.46483628,-0.27346095,0.523913,0.44752936,-0.30227825,0.52699,0.41956514,-0.26966829,0.52641,0.39420468,-0.24213244,0.522791,0.38499769,-0.22288559,0.523872,0.4462865,-0.21994307,0.529363,0.44218533,-0.18616768,0.538828,0.44219524,-0.1666309,0.543561,0.44204868,-0.14801905,0.547864,0.46654802,-0.22093498,0.524606,0.46687016,-0.20888625,0.516459,0.49502822,-0.24772417,0.543802,0.50521968,-0.27518112,0.555984,0.48282722,-0.22426453,0.52061,0.48047774,-0.21788814,0.511916,0.49211848,-0.25286979,0.533324,0.5032772,-0.27602611,0.552785,0.50216668,-0.23344467,0.515836,0.49519948,-0.22959901,0.509954,0.51156896,-0.25833607,0.526597,0.52613716,-0.28004171,0.541282
0.46637377,-0.3181119,0.523174,0.46468087,-0.27346276,0.523869,0.44718429,-0.30201083,0.526967,0.41942154,-0.26968017,0.526385,0.39396315,-0.24208286,0.522637,0.38477633,-0.22280066,0.523713,0.44610089,-0.21992797,0.529282,0.44207682,-0.18623,0.538846,0.44211391,-0.16670274,0.543628,0.44199112,-0.1480988,0.547975,0.46636831,-0.22092256,0.524532,0.46677163,-0.20884217,0.51635,0.49492809,-0.24767406,0.543692,0.50486708,-0.27472824,0.555723,0.48265578,-0.22425569,0.520545,0.48027004,-0.21786852,0.511822,0.49190513,-0.25284901,0.533229,0.50306457,-0.27600445,0.55269,0.50200975,-0.2334423,0.515786,0.49500661,-0.22958502,0.509875,0.51137177,-0.25832145,0.526517,0.52598073,-0.27994967,0.541201
0.4659466,-0.3177925,0.523165,0.46456934,-0.27346376,0.523837,0.44692483,-0.30180985,0.526949,0.41931882,-0.26968859,0.526367,0.39378535,-0.24204421,0.52252,0.38461494,-0.22273813,0.523595,0.44596653,-0.2199163,0.529222,0.44199858,-0.18627422,0.538858,0.44205591,-0.16675411,0.543676,0.44195137,-0.14815622,0.548056,0.46623807,-0.22091276,0.524477,0.46669931,-0.20880981,0.51627,0.49485526,-0.24763761,0.543612,0.50459728,-0.27437825,0.555525,0.48253182,-0.22424871,0.520497,0.48011994,-0.21785372,0.511753,0.49175263,-0.25283411,0.533161,0.50291258,-0.27598889,0.552622,0.50189936,-0.23344139,0.515752,0.4948683,-0.22957478,0.509818,0.51123109,-0.25831108,0.52646,0.525867,-0.27988255,0.541144
0.46573355,-0.31764873,0.523304,0.46407117,-0.27331461,0.523511,0.44662162,-0.30172955,0.526905,0.4198155,-0.26979419,0.526783,0.39459729,-0.24196949,0.523054,0.38543728,-0.22228026,0.523768,0.44431046,-0.21977542,0.528341,0.44043524,-0.18626267,0.538227,0.44047489,-0.16692212,0.54317,0.44038358,-0.14851892,0.547663,0.46469223,-0.22067109,0.523707,0.46469778,-0.20817711,0.514987,0.49284189,-0.24689704,0.542324,0.50215413,-0.27212478,0.554059,0.48115361,-0.22394826,0.519869,0.47787511,-0.21728587,0.510712,0.48959113,-0.25227964,0.532118,0.50152947,-0.27539876,0.551578,0.50085072,-0.23311618,0.515375,0.49298332,-0.22901157,0.50901,0.50944646,-0.25773175,0.525637,0.52478928,-0.27922129,0.540308
0.46403911,-0.31652996,0.523407,0.46316755,-0.27319878,0.523007,0.44709317,-0.30245414,0.527962,0.42274923,-0.27163925,0.530345,0.39896655,-0.24423583,0.528375,0.38983028,-0.22416435,0.528982,0.44026597,-0.22214643,0.528669,0.44164223,-0.18636097,0.538242,0.44571495,-0.1730693,0.543028,0.44652611,-0.15436096,0.54738,0.45961237,-0.22110445,0.522626,0.45022085,-0.2041576,0.513097,0.47753516,-0.23930563,0.540037,0.49309155,-0.26772642,0.55194,0.47539719,-0.22280812,0.517694,0.46322366,-0.21450291,0.507422,0.47910924,-0.24968883,0.528495,0.49666898,-0.27310834,0.547652,0.49466517,-0.23013507,0.512043,0.48384879,-0.22542656,0.505718,0.50265036,-0.25373291,0.522133,0.5212027,-0.27664451,0.536617
0.46429385,-0.31596812,0.523713,0.46385131,-0.27370058,0.523372,0.44604134,-0.30134672,0.526947,0.42943082,-0.2791785,0.530194,0.39784321,-0.24795229,0.518817,0.38853242,-0.22970338,0.521589,0.43787134,-0.22423614,0.527353,0.44519207,-0.19018806,0.538814,0.45365526,-0.17226027,0.544545,0.45956046,-0.15356734,0.549762,0.4596975,-0.22196375,0.523047,0.45911177,-0.2051694,0.513748,0.48726095,-0.24259595,0.541114,0.49944004,-0.26997053,0.553068,0.47971605,-0.22386896,0.519538,0.47706814,-0.2172642,0.509972,0.49031704,-0.2524208,0.531407,0.50120508,-0.27522003,0.550894,0.50010363,-0.23270008,0.515529,0.49385153,-0.22901778,0.508717,0.51464019,-0.25671915,0.525356,0.53174455,-0.27993753,0.540037
0.46188199,-0.31458073,0.519095,0.47124975,-0.28375797,0.520759,0.45208207,-0.30863238,0.522329,0.42976552,-0.28636547,0.524352,0.39797012,-0.25611215,0.513206,0.38964753,-0.23802302,0.517076,0.44435861,-0.2317215,0.526101,0.44985906,-0.19337498,0.53391,0.45317686,-0.17258283,0.537814,0.45645538,-0.15401569,0.541364,0.46630291,-0.22944407,0.522343,0.46510255,-0.21812588,0.515359,0.49250293,-0.25873302,0.54295,0.50565254,-0.2858942,0.558423,0.48434461,-0.23023629,0.51907,0.4823757,-0.23420585,0.511679,0.49773684,-0.27136885,0.533296,0.5117035,-0.2897108,0.552948,0.50636073,-0.23662215,0.514958,0.50076969,-0.24244306,0.50967,0.5230842,-0.27066586,0.526452,0.54299173,-0.2963255,0.54126
0.47925769,-0.32980943,0.52605,0.47064249,-0.2909696,0.517004,0.45971009,-0.32051603,0.527441,0.43616049,-0.29006242,0.524022,0.40968319,-0.25996901,0.51841,0.40120097,-0.23952042,0.519246,0.439173,-0.23292193,0.512673,0.44826151,-0.1966498,0.52052,0.45469659,-0.18084977,0.524443,0.46075465,-0.16531345,0.52801,0.45992372,-0.23210377,0.508389,0.45098752,-0.21746559,0.489525,0.47925234,-0.2556366,0.515619,0.49197156,-0.28267718,0.530633,0.47779124,-0.23453063,0.505836,0.4689592,-0.23092634,0.48796,0.48411715,-0.26690254,0.508409,0.49623838,-0.28575564,0.526999,0.50124897,-0.24368532,0.504574,0.48966687,-0.24234592,0.490443,0.51118678,-0.26997578,0.506317,0.53025712,-0.29474569,0.520323
0.48009273,-0.3331465,0.52098,0.47931071,-0.28977984,0.51489,0.45999744,-0.31951307,0.523472,0.44814442,-0.29070286,0.525179,0.42019291,-0.25974034,0.517954,0.41233562,-0.2396934,0.519621,0.45074829,-0.23352528,0.514001,0.45869237,-0.19669325,0.520635,0.46498608,-0.18068046,0.523952,0.47092908,-0.1649869,0.526967,0.47090603,-0.23242335,0.509089,0.46557204,-0.2191728,0.493368,0.49520525,-0.25775757,0.519897,0.50703781,-0.28442343,0.533911,0.48795917,-0.23446804,0.505701,0.48227111,-0.23206829,0.490373,0.49810639,-0.2683415,0.51115,0.51040628,-0.28740348,0.530038,0.50986935,-0.24288362,0.502914,0.50148413,-0.24279509,0.491352,0.52367334,-0.27065829,0.507597,0.54330962,-0.29565657,0.521931
0.49591791,-0.34575059,0.525057,0.48681664,-0.3027408,0.514571,0.48048494,-0.33901985,0.528067,0.46195776,-0.30998923,0.529547,0.43542505,-0.28241047,0.526741,0.42608512,-0.25974589,0.524627,0.45395606,-0.24623394,0.511373,0.46229741,-0.20690874,0.515577,0.46374807,-0.1933033,0.517679,0.46503693,-0.17993733,0.51959,0.47254687,-0.24275052,0.504586,0.45090475,-0.23599403,0.483962,0.47376227,-0.27615481,0.509042,0.4888366,-0.30255849,0.524374,0.48909088,-0.24313252,0.500127,0.46720258,-0.24428289,0.479992,0.48266292,-0.28031966,0.499607,0.49905103,-0.29854625,0.517439,0.51176194,-0.25017013,0.496922,0.48919252,-0.25229168,0.482738,0.50900883,-0.28007124,0.497869,0.52682543,-0.29007578,0.51122
0.48920793,-0.34088099,0.504561,0.49076924,-0.30245695,0.506253,0.47662703,-0.33441158,0.51567,0.4689291,-0.31672018,0.527693,0.43422808,-0.28390009,0.514095,0.42436399,-0.26461807,0.515799,0.47026533,-0.26055775,0.521872,0.46081313,-0.21405972,0.513063,0.45519494,-0.19146604,0.508658,0.4501536,-0.17517843,0.504654,0.48178137,-0.25081171,0.507865,0.46756031,-0.20980042,0.50514,0.462182,-0.18756627,0.507744,0.47442024,-0.19053438,0.523038,0.49104989,-0.24530366,0.496148,0.47631133,-0.24287925,0.4855,0.49170729,-0.27787976,0.503412,0.50471191,-0.30102039,0.519696,0.50288727,-0.24385122,0.48223,0.49112952,-0.24820795,0.481333,0.50752681,-0.27757193,0.495677,0.52681011,-0.29002111,0.508333
0.50204219,-0.35260411,0.508022,0.49956618,-0.31939044,0.510469,0.48556239,-0.34400906,0.515592,0.47118829,-0.32312889,0.521651,0.43898092,-0.2864532,0.505595,0.42993183,-0.2679838,0.508127,0.47867954,-0.27447545,0.52199,0.4751821,-0.22931293,0.51463,0.4732076,-0.21206975,0.51095,0.47147302,-0.19573657,0.507605,0.49445984,-0.26934004,0.512799,0.48230992,-0.22282068,0.509301,0.48130667,-0.20702027,0.507261,0.49665071,-0.20141341,0.522652,0.50712073,-0.26744772,0.504967,0.50258055,-0.25919377,0.496411,0.51956448,-0.29487491,0.516654,0.53392703,-0.32280326,0.535056,0.52263521,-0.27003394,0.495416,0.51620323,-0.26643781,0.492809,0.53414032,-0.29556618,0.508766,0.55104456,-0.3154553,0.522845
0.50043352,-0.36043418,0.49967,0.50675665,-0.3309651,0.507101,0.48568986,-0.35206169,0.508426,0.47562464,-0.33154474,0.514812,0.43800066,-0.29601617,0.498843,0.43320774,-0.27685777,0.502209,0.49001304,-0.28937626,0.523551,0.49234378,-0.24615775,0.521344,0.49781232,-0.22645161,0.524771,0.50282107,-0.20818545,0.527887,0.50546856,-0.28448414,0.514178,0.50361548,-0.24040544,0.51644,0.50244143,-0.21365306,0.51776,0.50155907,-0.19405578,0.518703,0.5172552,-0.28242893,0.505658,0.52296084,-0.26480191,0.502021,0.54125293,-0.29973309,0.522138,0.55446128,-0.3294952,0.540427,0.53069605,-0.28416358,0.494372,0.53382714,-0.27030677,0.496134,0.55026537,-0.29870581,0.512098,0.56460459,-0.32089588,0.526183
0.51857838,-0.37800576,0.505794,0.51646223,-0.34317143,0.507505,0.5057985,-0.37453251,0.511038,0.48847864,-0.34684763,0.514097,0.45153104,-0.3108046,0.49757,0.4421398,-0.29052094,0.497913,0.48799704,-0.29718766,0.515499,0.48384663,-0.25207558,0.50795,0.48406919,-0.23674643,0.504176,0.48445021,-0.22218067,0.500745,0.50569387,-0.29239177,0.509135,0.49408778,-0.24570631,0.504038,0.49260738,-0.22335954,0.501064,0.49496863,-0.21348959,0.49894,0.52023734,-0.29084544,0.503711,0.52494737,-0.27303408,0.49539,0.54891648,-0.30679725,0.516481,0.56428883,-0.34160468,0.535654,0.53852414,-0.2939048,0.497092,0.53795419,-0.28156274,0.492667,0.54997757,-0.3084298,0.509149,0.56025827,-0.33201233,0.523692
0.53017011,-0.39463564,0.509493,0.53327475,-0.36736298,0.51979,0.51413406,-0.39405127,0.516373,0.49999225,-0.36815167,0.5198,0.48003219,-0.3416203,0.518741,0.47428877,-0.32269076,0.522741,0.51329238,-0.32718743,0.535743,0.50997985,-0.32020769,0.537212,0.50818796,-0.32334119,0.537946,0.50641969,-0.32643615,0.538672,0.53206675,-0.32129199,0.529598,0.52898326,-0.28015318,0.532321,0.53506183,-0.25855338,0.542098,0.54089426,-0.25854251,0.549082,0.54693186,-0.31831119,0.523427,0.54595854,-0.30349699,0.523793,0.57244477,-0.33476776,0.544733,0.58592542,-0.36485246,0.552951,0.56430717,-0.31887399,0.514329,0.55792209,-0.31094459,0.517241,0.57044715,-0.34046656,0.533764,0.57696679,-0.35908207,0.539146
0.53490649,-0.40623847,0.508121,0.54408724,-0.37521778,0.517489,0.51635698,-0.39559708,0.513387,0.50371432,-0.37075882,0.514147,0.47795671,-0.3383723,0.504686,0.47242757,-0.31907168,0.507633,0.52603953,-0.32985121,0.530708,0.53202781,-0.29498511,0.532521,0.53501414,-0.27865622,0.533427,0.53783597,-0.2629496,0.534251,0.54677438,-0.3278765,0.52641,0.54595598,-0.28693446,0.529498,0.54833835,-0.26894994,0.531299,0.5500696,-0.25505947,0.532586,0.56311749,-0.32821198,0.521861,0.57197389,-0.32669673,0.525514,0.59401865,-0.35846192,0.547108,0.59660943,-0.38867013,0.55426,0.58190206,-0.33290819,0.51482,0.57410141,-0.33145136,0.516194,0.58261839,-0.3567903,0.53298,0.58315171,-0.37769544,0.539005
0.53494626,-0.41082992,0.507912,0.54204299,-0.38370155,0.516616,0.51536979,-0.39804947,0.511601,0.50506615,-0.37670329,0.50991,0.48237689,-0.34818041,0.507511,0.47823805,-0.32735688,0.514272,0.52516635,-0.33470475,0.52733,0.53521747,-0.30362964,0.528575,0.54055401,-0.28753922,0.529198,0.54548084,-0.27402123,0.529764,0.54753599,-0.33580134,0.524905,0.55146581,-0.29516962,0.526894,0.55591616,-0.27465199,0.528054,0.55975023,-0.26050554,0.528883,0.56517964,-0.33871495,0.521969,0.57617997,-0.33788818,0.52421,0.59862742,-0.37067105,0.546031,0.59943305,-0.40084008,0.553844,0.58531312,-0.34658746,0.516926,0.57903934,-0.34330955,0.517039,0.58678278,-0.36803153,0.533974,0.58537402,-0.38852906,0.540501
0.54417793,-0.42960493,0.510893,0.54230573,-0.39155362,0.50989,0.52826495,-0.42134113,0.512508,0.50157438,-0.38667437,0.50453,0.47145858,-0.3502091,0.488319,0.46094502,-0.32871134,0.486782,0.51230773,-0.33753766,0.511313,0.51408445,-0.29958071,0.50251,0.51520166,-0.27990987,0.498109,0.51636159,-0.26158917,0.494108,0.53355955,-0.33732245,0.508935,0.52963966,-0.29587843,0.499907,0.52752914,-0.27057177,0.49464,0.5261102,-0.25193023,0.490878,0.55141635,-0.33978917,0.507085,0.5586907,-0.33546864,0.499717,0.58650902,-0.3683692,0.521495,0.59305408,-0.40118358,0.53317,0.57406931,-0.34819564,0.505126,0.56334052,-0.34129509,0.496932,0.57273003,-0.36321163,0.513646,0.57135731,-0.38446749,0.52301
0.54602384,-0.44008581,0.508681,0.54871475,-0.40864239,0.517435,0.52575094,-0.42596824,0.511513,0.50681672,-0.40203977,0.508673,0.48854423,-0.37456701,0.504955,0.48018981,-0.35340467,0.505139,0.52729864,-0.35979346,0.527068,0.5318167,-0.36171992,0.52883,0.53426329,-0.36273286,0.529712,0.53653305,-0.36456334,0.530526,0.55096365,-0.36012574,0.525773,0.55733625,-0.32329212,0.527603,0.56187375,-0.30405298,0.52867,0.56561576,-0.29271598,0.529432,0.56996172,-0.36242596,0.523763,0.58178693,-0.36318555,0.525538,0.61223133,-0.39785042,0.547401,0.62238936,-0.430191,0.555419,0.59216707,-0.36961356,0.519784,0.58746255,-0.3643048,0.519555,0.59626238,-0.39013884,0.53652,0.59499506,-0.41183925,0.543179
0.55978378,-0.45173953,0.518157,0.55573163,-0.40920924,0.512964,0.5311572,-0.42905783,0.511712,0.51723401,-0.39232017,0.49203,0.47397842,-0.36483453,0.480195,0.46558632,-0.34339415,0.478379,0.5180406,-0.34217743,0.501044,0.5190143,-0.30164082,0.485807,0.52444438,-0.28357993,0.482554,0.53755445,-0.2796109,0.479598,0.54364062,-0.35123712,0.508019,0.56398938,-0.33441182,0.493114,0.59397579,-0.38192263,0.519224,0.59833166,-0.40927907,0.532811,0.56558872,-0.36167604,0.514322,0.59087183,-0.35675292,0.50231,0.61453614,-0.3979782,0.522898,0.61203356,-0.41828464,0.535973,0.5936225,-0.38011364,0.522614,0.60239698,-0.37184718,0.508289,0.61749767,-0.40379623,0.523844,0.61941623,-0.41956082,0.534917
0.54927149,-0.45026835,0.505767,0.55689738,-0.42277192,0.514692,0.52678726,-0.43084154,0.503402,0.51866006,-0.40699558,0.493981,0.49249186,-0.39046659,0.498328,0.48953565,-0.37478595,0.504999,0.53366279,-0.36585931,0.517673,0.55935271,-0.34122163,0.51955,0.57403167,-0.32815878,0.521176,0.58824726,-0.31556935,0.522784,0.55907144,-0.37390169,0.523193,0.59905549,-0.37339274,0.526181,0.6348122,-0.4244232,0.553359,0.63542834,-0.45110502,0.560809,0.5791648,-0.38248758,0.526777,0.62253202,-0.38875605,0.530792,0.64840834,-0.43275857,0.552219,0.64799741,-0.45550159,0.566805,0.60195753,-0.3968777,0.529259,0.62399612,-0.39723602,0.527213,0.64298064,-0.43130347,0.543621,0.64499578,-0.45171218,0.553051
0.5462779,-0.46030211,0.499657,0.55348876,-0.43090363,0.510607,0.52690983,-0.44163391,0.498871,0.50740176,-0.41062831,0.492236,0.48481009,-0.38584754,0.492337,0.48104515,-0.36499533,0.491805,0.53460627,-0.37594835,0.517018,0.55858257,-0.35036442,0.520513,0.57229685,-0.33676495,0.522992,0.58819663,-0.3203056,0.525246,0.55878908,-0.38365413,0.521036,0.60037127,-0.38657914,0.526049,0.63633693,-0.43876697,0.553352,0.63595583,-0.46496635,0.560108,0.57753658,-0.39176218,0.523164,0.621653,-0.39575544,0.528501,0.65111445,-0.44027339,0.549999,0.64952621,-0.46522076,0.561232,0.59818587,-0.40525455,0.523576,0.62187512,-0.40758019,0.5237,0.64086772,-0.44238955,0.540262,0.64411826,-0.46335061,0.550518
0.54512218,-0.46228772,0.49883,0.55257558,-0.43167808,0.510163,0.5260046,-0.44370578,0.498283,0.506831,-0.41169621,0.49211,0.48424791,-0.3869072,0.492658,0.4817847,-0.36548299,0.4914,0.53431511,-0.37717169,0.517147,0.55757469,-0.35065516,0.520916,0.57091097,-0.33660808,0.523582,0.58375656,-0.32305297,0.526139,0.55828239,-0.38471869,0.520957,0.60024978,-0.38968295,0.526378,0.63814315,-0.44149667,0.553671,0.64021649,-0.4691509,0.560278,0.57679658,-0.39266211,0.522874,0.62119506,-0.39698543,0.528504,0.6506162,-0.44156737,0.549991,0.64906945,-0.46653772,0.561258,0.59707269,-0.40589373,0.522967,0.62117078,-0.40861936,0.523488,0.64015045,-0.4434792,0.540056,0.64350941,-0.46451173,0.550402
0.54467251,-0.46341152,0.498417,0.55150571,-0.43170885,0.509607,0.52533169,-0.44489513,0.497808,0.50560237,-0.41205664,0.491494,0.48228183,-0.39163506,0.49456,0.47936522,-0.36730421,0.491569,0.53240167,-0.37732175,0.516411,0.55054987,-0.35254704,0.519563,0.56286617,-0.33894577,0.522341,0.57897306,-0.324439,0.526481,0.55645231,-0.38459841,0.520264,0.59732031,-0.39141709,0.525524,0.63684771,-0.44141568,0.552828,0.64025032,-0.4696841,0.559495,0.57508033,-0.39233463,0.522231,0.61921139,-0.39638857,0.527734,0.64881528,-0.44098391,0.54923,0.64738002,-0.46594241,0.560304,0.59558336,-0.40534345,0.522411,0.6194656,-0.4080307,0.522791,0.63932783,-0.44283062,0.539362,0.64243305,-0.4643883,0.548666
0.54414895,-0.46395108,0.498433,0.5505918,-0.43133928,0.50944,0.5252193,-0.44589351,0.498377,0.49491794,-0.41494215,0.492678,0.47113159,-0.38726586,0.488552,0.46316831,-0.36560849,0.487395,0.53099209,-0.37798015,0.51684,0.55021508,-0.35230297,0.519967,0.56245997,-0.33889285,0.522624,0.57432422,-0.32590336,0.5252,0.55527747,-0.38409918,0.519922,0.59397711,-0.3901736,0.524803,0.6357666,-0.44115393,0.552245,0.64035485,-0.46986873,0.559094,0.57338358,-0.39133262,0.521274,0.61577175,-0.39564806,0.526219,0.64657526,-0.4398766,0.547813,0.64559942,-0.46479433,0.55883,0.59329669,-0.40375772,0.520774,0.61692313,-0.40663611,0.5212,0.6374304,-0.44156984,0.537873,0.64087998,-0.46342047,0.546714
0.53956387,-0.46221683,0.496252,0.53547877,-0.42835453,0.507178,0.51991788,-0.44623288,0.496084,0.48171202,-0.41270696,0.490209,0.45733842,-0.38468002,0.485458,0.44884745,-0.3626857,0.483666,0.51708825,-0.37432502,0.514377,0.53568049,-0.34678555,0.517747,0.54647103,-0.33218514,0.520213,0.55687796,-0.31810006,0.52259,0.54071071,-0.38089086,0.517584,0.58083239,-0.38786769,0.522395,0.6199736,-0.44013389,0.54983,0.6266064,-0.46967529,0.556701,0.55896722,-0.38806887,0.519047,0.60156683,-0.39350516,0.523969,0.63072219,-0.43818909,0.545558,0.63317761,-0.465028,0.558792,0.57902347,-0.40045962,0.518691,0.60215272,-0.40458386,0.519011,0.62325426,-0.43974049,0.535674,0.62920349,-0.46414846,0.545115
0.52902932,-0.46396278,0.496519,0.52449538,-0.42778475,0.506845,0.50455676,-0.44618275,0.496522,0.47197577,-0.41359348,0.490613,0.44770319,-0.38568675,0.485874,0.43914972,-0.36399687,0.484405,0.50506443,-0.37410843,0.513861,0.52064242,-0.34648568,0.51656,0.53076032,-0.33323062,0.517974,0.54107562,-0.32105496,0.519258,0.52879279,-0.37965546,0.516681,0.56618688,-0.38648498,0.520708,0.60502998,-0.43905272,0.548257,0.61286186,-0.46874487,0.555448,0.54722122,-0.38606585,0.517889,0.58726558,-0.39228141,0.522014,0.61633735,-0.43679854,0.543688,0.62046306,-0.46363031,0.557278,0.56765492,-0.39766297,0.517351,0.58863888,-0.40306498,0.517246,0.60942465,-0.43836659,0.533978,0.61670887,-0.46295712,0.543726
0.49583376,-0.4627968,0.49639,0.50279136,-0.42689111,0.506705,0.47733522,-0.44545093,0.496821,0.45482462,-0.41134388,0.491451,0.43527262,-0.3810796,0.486017,0.42682627,-0.3634689,0.489876,0.48525635,-0.37316802,0.51427,0.50472284,-0.34616456,0.517251,0.51640578,-0.33215315,0.519963,0.5277039,-0.31862304,0.522594,0.50839674,-0.3788025,0.516529,0.544156,-0.38622285,0.520431,0.5805997,-0.43893108,0.548042,0.58762441,-0.46868144,0.555297,0.52626004,-0.3852661,0.517277,0.56453249,-0.39155327,0.521128,0.59478155,-0.43611885,0.542841,0.59823548,-0.46449568,0.552826,0.54589879,-0.39690092,0.516206,0.56584785,-0.40229647,0.51625,0.58557057,-0.4375923,0.533034,0.59194356,-0.4618117,0.542389
0.4934263,-0.45939165,0.493264,0.49955757,-0.42515267,0.505221,0.47353742,-0.44236566,0.493258,0.44325944,-0.40974074,0.488023,0.42230835,-0.3802257,0.482639,0.41259507,-0.36147448,0.484638,0.47429493,-0.37384465,0.51333,0.49242216,-0.34816357,0.518161,0.50294407,-0.3344648,0.521412,0.51456506,-0.32304746,0.524368,0.49879189,-0.37869374,0.516608,0.53462752,-0.38281706,0.522649,0.5701915,-0.43466552,0.549949,0.5778774,-0.46413485,0.556333,0.51797117,-0.38435517,0.518018,0.55652479,-0.38889888,0.524033,0.585253,-0.43317765,0.545516,0.58974578,-0.46311388,0.55473,0.53955945,-0.39472601,0.517408,0.55867857,-0.39635127,0.518628,0.57744933,-0.43120521,0.535226,0.58307475,-0.45553539,0.542225
0.4856899,-0.45349119,0.48789,0.48189611,-0.40912842,0.491267,0.47242756,-0.44309767,0.495485,0.43885715,-0.41348693,0.497563,0.41693306,-0.38863463,0.496344,0.40786048,-0.36767032,0.495592,0.4658563,-0.35942818,0.503452,0.46586754,-0.31889043,0.49709,0.46598578,-0.29806836,0.493909,0.46528117,-0.29163164,0.491017,0.48223773,-0.35522826,0.494482,0.48429188,-0.35951094,0.489041,0.51184234,-0.41068665,0.515111,0.52596439,-0.43133295,0.531848,0.49505486,-0.35418947,0.486732,0.49662308,-0.35732027,0.479167,0.51910051,-0.40037652,0.499504,0.53464162,-0.42402184,0.517993,0.51008033,-0.35810104,0.477102,0.50318557,-0.35853101,0.475187,0.51671465,-0.37317005,0.491225,0.51440172,-0.39346391,0.498119
0.46960802,-0.44610702,0.481902,0.46817589,-0.40640848,0.488001,0.45495768,-0.4352857,0.489584,0.42383892,-0.40944151,0.492695,0.40046566,-0.38336664,0.489616,0.39107937,-0.36233693,0.488403,0.45423847,-0.35849722,0.502148,0.45667646,-0.31994444,0.498733,0.45802133,-0.29994943,0.497026,0.45819701,-0.29427881,0.495474,0.47127986,-0.35474479,0.493809,0.47542351,-0.36132819,0.491513,0.50256626,-0.41284886,0.517823,0.51870682,-0.43520065,0.536617,0.48438741,-0.3538642,0.486285,0.488006,-0.35916516,0.481641,0.5101535,-0.40251665,0.502174,0.52588927,-0.42635154,0.520839,0.49921591,-0.35757864,0.476406,0.49365406,-0.35956166,0.476553,0.50653236,-0.37434298,0.492769,0.50312615,-0.39416376,0.499005
0.45490781,-0.44643445,0.479145,0.45424828,-0.40894528,0.484731,0.4428752,-0.43704712,0.489158,0.41338772,-0.42027914,0.495703,0.39018902,-0.40142971,0.50045,0.38135005,-0.38613318,0.50663,0.4464639,-0.36243069,0.501566,0.44061235,-0.33385702,0.497084,0.43778498,-0.31865418,0.495041,0.43523906,-0.30419408,0.493269,0.46038217,-0.3570917,0.490051,0.45370643,-0.36047817,0.4871,0.47960466,-0.41122248,0.511866,0.49885567,-0.43482208,0.529556,0.47089351,-0.35491939,0.479966,0.46300887,-0.35643281,0.473833,0.48448941,-0.3990659,0.493102,0.5038176,-0.42361413,0.51062,0.48260685,-0.35723445,0.467211,0.47230811,-0.35398484,0.468371,0.48060804,-0.36649855,0.483733,0.47693,-0.38579184,0.489282
0.43313055,-0.44304249,0.471922,0.43264927,-0.40499176,0.479476,0.41234449,-0.43291047,0.481112,0.38943496,-0.41338551,0.487019,0.36479075,-0.39247881,0.48927,0.35592183,-0.37733738,0.495457,0.42475677,-0.35902409,0.496574,0.42244377,-0.33137458,0.494404,0.42136243,-0.31645373,0.493431,0.42043809,-0.30217217,0.492631,0.44038728,-0.3548202,0.486669,0.43752048,-0.35896647,0.486003,0.4631025,-0.41051754,0.511549,0.48151933,-0.43501284,0.529796,0.45214967,-0.35341943,0.477699,0.44847171,-0.35585473,0.474021,0.46976961,-0.39916653,0.493925,0.48822883,-0.42467465,0.51202,0.46498537,-0.35632824,0.465867,0.45717038,-0.35304306,0.467978,0.46623057,-0.36548731,0.483801,0.46257431,-0.3845507,0.489194
0.41365719,-0.44298811,0.471369,0.41135677,-0.40475695,0.479198,0.390566,-0.43242457,0.480572,0.36714994,-0.41302392,0.486593,0.34213246,-0.39191489,0.488567,0.33336298,-0.37684387,0.494809,0.40400089,-0.35897131,0.496501,0.40073992,-0.33152739,0.494632,0.39910139,-0.31668076,0.493785,0.39762703,-0.30245862,0.493098,0.41984167,-0.35480999,0.486655,0.41518004,-0.35919322,0.48631,0.43931201,-0.41077354,0.511868,0.45767204,-0.43528134,0.530123,0.43175146,-0.35342239,0.477703,0.42637897,-0.3560807,0.474322,0.44649911,-0.39941786,0.494236,0.46498244,-0.42494007,0.51234,0.44468375,-0.35630836,0.465841,0.43268435,-0.35750015,0.468166,0.43874359,-0.37240086,0.484,0.43404973,-0.39273949,0.489321
0.40999428,-0.44323769,0.471133,0.4104028,-0.40644825,0.480452,0.39120491,-0.43550389,0.482022,0.36568818,-0.42055978,0.491206,0.34014619,-0.4017877,0.494524,0.32891945,-0.38501581,0.497892,0.39835558,-0.36653637,0.500962,0.38932468,-0.33690529,0.500398,0.38464658,-0.32108361,0.500345,0.38023604,-0.305999,0.50038,0.41265483,-0.35831016,0.489327,0.40503368,-0.3630065,0.490714,0.42953762,-0.41371933,0.515176,0.44976721,-0.44020227,0.532648,0.42337195,-0.35347364,0.478741,0.41433437,-0.35568818,0.476351,0.43466281,-0.39813601,0.495374,0.45520107,-0.42555575,0.512667,0.43514299,-0.35202938,0.464703,0.42184993,-0.35800572,0.469187,0.42623581,-0.37294094,0.484436,0.42350899,-0.39237386,0.48877
0.4055582,-0.45377312,0.479888,0.39993849,-0.41742065,0.485175,0.38947392,-0.44601774,0.489055,0.3588885,-0.42825365,0.494171,0.33331854,-0.40597446,0.495012,0.32695893,-0.38774368,0.499452,0.38771711,-0.37077313,0.500706,0.37960482,-0.34008857,0.496066,0.3755939,-0.32390735,0.494029,0.37141723,-0.31026397,0.492177,0.40341751,-0.36499711,0.490211,0.39353812,-0.35663754,0.486919,0.41568914,-0.40722185,0.512257,0.43412404,-0.4365718,0.530355,0.41551786,-0.36252269,0.480999,0.40639009,-0.3691234,0.474864,0.42504839,-0.41291444,0.494599,0.44369588,-0.44281527,0.51254,0.42928828,-0.36451552,0.469313,0.41432421,-0.37470842,0.469729,0.4199476,-0.39248588,0.485402,0.4197265,-0.41689259,0.491333
0.40187454,-0.45923552,0.482124,0.39735987,-0.4194972,0.485695,0.38463076,-0.45440751,0.493314,0.35960868,-0.4396523,0.501145,0.33264598,-0.41734302,0.500762,0.32301622,-0.40128295,0.505623,0.37963223,-0.37724272,0.502697,0.36364847,-0.34404519,0.495865,0.35603326,-0.32725145,0.493419,0.34902891,-0.31152371,0.491402,0.39202155,-0.3672662,0.489097,0.36953266,-0.35649331,0.483898,0.39098769,-0.40539448,0.507325,0.41285936,-0.43270435,0.524058,0.40181424,-0.36150857,0.477513,0.38272033,-0.36863706,0.468821,0.40386894,-0.41082451,0.487009,0.43171772,-0.43571369,0.503543,0.41366556,-0.35993218,0.463396,0.38750196,-0.3706499,0.463879,0.38576249,-0.38770702,0.478454,0.37875928,-0.4086468,0.483936
0.39400776,-0.46390732,0.484059,0.38361958,-0.42193881,0.486626,0.38157585,-0.45668281,0.494997,0.34829536,-0.44050328,0.502115,0.32315571,-0.42069752,0.504787,0.3130152,-0.40409562,0.509167,0.3682432,-0.37718193,0.502616,0.35109561,-0.34327296,0.494752,0.34315064,-0.32643169,0.492183,0.3359557,-0.31078326,0.490234,0.38077839,-0.36724668,0.489071,0.35735672,-0.36171317,0.482725,0.37950633,-0.41125018,0.506175,0.40146731,-0.4361677,0.522926,0.39077982,-0.36160471,0.47764,0.3699945,-0.36796399,0.467965,0.39045597,-0.41012013,0.486174,0.41405702,-0.43568148,0.502727,0.40303438,-0.36031588,0.46389,0.37534896,-0.37033749,0.463488,0.37284545,-0.38738613,0.478058,0.36588941,-0.40857249,0.483848
0.3913507,-0.4635173,0.483397,0.3826702,-0.42115361,0.485798,0.37893313,-0.45656885,0.494447,0.34739299,-0.44091202,0.501702,0.32091052,-0.42056383,0.50303,0.31028503,-0.40415637,0.507261,0.36687186,-0.37657928,0.501821,0.34928523,-0.3427556,0.493766,0.34107063,-0.32592723,0.491048,0.33361699,-0.3102909,0.488954,0.37927232,-0.36636675,0.488085,0.35559942,-0.3610712,0.48156,0.3778397,-0.41048423,0.504867,0.39982976,-0.43515222,0.521515,0.38918353,-0.36050964,0.476514,0.3682409,-0.36703861,0.466629,0.38813094,-0.40907325,0.484722,0.4117943,-0.43682074,0.501171,0.40138387,-0.35898326,0.462633,0.37368669,-0.36934313,0.462192,0.37110375,-0.38651885,0.476677,0.36426207,-0.40776497,0.482449
0.38063915,-0.46340291,0.48248,0.37118114,-0.42025262,0.484842,0.36832086,-0.45709771,0.493821,0.3356535,-0.44139308,0.501552,0.30867935,-0.42175112,0.503098,0.2973957,-0.40539479,0.507091,0.35555478,-0.37603076,0.501218,0.33696294,-0.34240543,0.493086,0.32792439,-0.32542762,0.489949,0.31970398,-0.30968613,0.487485,0.36768692,-0.3654592,0.487091,0.34370173,-0.36661103,0.480545,0.36668754,-0.41582966,0.503559,0.38879152,-0.43760115,0.519997,0.37737938,-0.35931132,0.475204,0.35503034,-0.3661209,0.465187,0.3734005,-0.40796111,0.483044,0.39702497,-0.43783042,0.499277,0.38931534,-0.35744271,0.460961,0.36072417,-0.3682941,0.460695,0.35710361,-0.38552193,0.475013,0.35009301,-0.4066877,0.480659
0.37853444,-0.46299481,0.482063,0.37105253,-0.420107,0.484674,0.36628092,-0.45677204,0.493474,0.33554576,-0.44125139,0.501391,0.30800321,-0.4208273,0.501996,0.29678929,-0.40456816,0.506057,0.35562004,-0.37609978,0.50131,0.3371987,-0.34264501,0.493431,0.32814459,-0.32564615,0.490278,0.31986335,-0.3098405,0.487728,0.36773976,-0.36551172,0.487161,0.34395421,-0.36688033,0.480898,0.36693658,-0.41611208,0.503901,0.38904199,-0.43788307,0.520332,0.37739844,-0.35932947,0.475228,0.35523259,-0.36632947,0.465452,0.37359839,-0.40817732,0.4833,0.39722218,-0.4380479,0.499525,0.38925284,-0.35738533,0.460887,0.36084005,-0.36841241,0.460843,0.35721488,-0.38564205,0.475161,0.35014253,-0.40674524,0.480727
0.37278857,-0.45975769,0.478359,0.36792613,-0.41821587,0.482443,0.35612201,-0.45384094,0.490441,0.32620738,-0.43445071,0.499912,0.30379428,-0.41657821,0.506978,0.29433339,-0.39971242,0.511826,0.35601278,-0.37513486,0.500953,0.33770699,-0.34180267,0.494558,0.32825486,-0.32466339,0.491618,0.31943603,-0.3085773,0.489012,0.36774174,-0.36468287,0.486333,0.34536446,-0.36780583,0.481783,0.36684223,-0.41714039,0.50443,0.3883062,-0.4407277,0.520606,0.37683514,-0.35848142,0.473854,0.3553209,-0.36017721,0.465433,0.37357107,-0.40585627,0.482991,0.39646763,-0.43616305,0.498953,0.38757403,-0.35629495,0.458601,0.36070461,-0.3669375,0.460072,0.35702511,-0.38354745,0.474214,0.35024917,-0.40473144,0.479179
0.36941073,-0.45815107,0.476464,0.36628072,-0.41717802,0.481221,0.35361277,-0.45225197,0.488784,0.3255183,-0.43353299,0.498856,0.30278878,-0.41519942,0.5053,0.29339431,-0.39843712,0.510193,0.35601291,-0.37444505,0.500498,0.33773599,-0.3411529,0.494792,0.32822162,-0.32408426,0.492156,0.319335,-0.30805463,0.489826,0.3676165,-0.36414322,0.485752,0.34589731,-0.36808342,0.481982,0.3666646,-0.41751119,0.504518,0.38783801,-0.44205795,0.520616,0.37649684,-0.35800361,0.473096,0.3552331,-0.36008822,0.465318,0.37351808,-0.40465568,0.482786,0.39608976,-0.4352207,0.498666,0.38677998,-0.35579104,0.457512,0.36059431,-0.36615407,0.459631,0.35691735,-0.38248245,0.473722,0.35033117,-0.40375115,0.478439
0.36853383,-0.45715452,0.475549,0.36551547,-0.41545122,0.479667,0.35722146,-0.45104508,0.487504,0.32576336,-0.43205106,0.496773,0.30021876,-0.41012346,0.493521,0.29231952,-0.39831854,0.499944,0.35409286,-0.37219893,0.498037,0.33796677,-0.33161248,0.491692,0.32569657,-0.31814018,0.488519,0.31694152,-0.30480362,0.485635,0.3659666,-0.3619627,0.48359,0.34412007,-0.36618477,0.479066,0.36414364,-0.4167882,0.501852,0.38560158,-0.44105864,0.518127,0.37514848,-0.35592951,0.47125,0.35380411,-0.35823128,0.462902,0.37214311,-0.39991032,0.480571,0.39407575,-0.43352835,0.496635,0.38588995,-0.35270841,0.456152,0.36056442,-0.36262339,0.457557,0.35733406,-0.37946398,0.471779,0.35159334,-0.40160194,0.476798
0.37466541,-0.4573595,0.476243,0.3778037,-0.41513878,0.479589,0.36588173,-0.4501571,0.487117,0.33838243,-0.43060884,0.494359,0.31191382,-0.40839547,0.490725,0.30178024,-0.39386024,0.495476,0.3621693,-0.37065352,0.496024,0.34689824,-0.32979354,0.488995,0.33686673,-0.31458804,0.485481,0.3292225,-0.30477766,0.48331,0.37505549,-0.36067726,0.482775,0.35547175,-0.36616878,0.477301,0.37586255,-0.41723983,0.500976,0.39288438,-0.436211,0.517886,0.38529236,-0.35494061,0.471505,0.36567338,-0.35808055,0.462674,0.38559003,-0.39983861,0.481062,0.40843095,-0.43216146,0.497779,0.39773028,-0.35341317,0.457794,0.37367651,-0.36172726,0.4579,0.36953821,-0.38346456,0.472611,0.36602066,-0.40475897,0.478277
0.37536825,-0.45469645,0.473736,0.37644163,-0.40756404,0.472968,0.36879291,-0.4481876,0.485172,0.34487027,-0.42528693,0.492216,0.31535868,-0.40321756,0.488108,0.30001502,-0.38729445,0.489871,0.36579434,-0.35917948,0.487343,0.34669562,-0.32079148,0.477313,0.33451522,-0.30650531,0.472298,0.32087562,-0.29264079,0.46862,0.37671697,-0.34950529,0.472237,0.34696553,-0.35618433,0.46224,0.36587441,-0.40504961,0.484284,0.38543928,-0.43090418,0.500031,0.38557314,-0.34434697,0.45988,0.35544258,-0.34798085,0.446579,0.37406629,-0.38776231,0.463664,0.3943827,-0.41596435,0.479196,0.39683571,-0.3441662,0.445681,0.36441242,-0.35256779,0.443326,0.36155118,-0.37390744,0.457031,0.35762662,-0.39692191,0.463173
0.37779981,-0.4487352,0.469243,0.38545438,-0.39822732,0.46862,0.37365606,-0.43917704,0.481654,0.35362514,-0.41931995,0.49171,0.32044937,-0.39361165,0.482064,0.30752428,-0.37552585,0.482668,0.37109447,-0.35172182,0.484362,0.35730431,-0.30694253,0.479871,0.34620791,-0.29230845,0.477626,0.33532322,-0.28075474,0.475584,0.38123784,-0.34152895,0.468026,0.35519228,-0.34641455,0.458315,0.37205753,-0.39449116,0.479268,0.39066274,-0.42007863,0.494234,0.38934384,-0.3358979,0.454641,0.3632218,-0.34479856,0.441237,0.38111437,-0.38332184,0.457444,0.40155339,-0.4066113,0.472178,0.39958987,-0.3350365,0.439222,0.37185072,-0.34855655,0.437697,0.36858396,-0.37092615,0.450778,0.36368399,-0.39287065,0.456388
0.38028679,-0.44659115,0.468488,0.38482354,-0.3977469,0.467764,0.37457831,-0.43771487,0.480877,0.35476177,-0.41864056,0.491976,0.32372071,-0.39353121,0.484451,0.31183285,-0.37526907,0.485631,0.37039624,-0.35118508,0.48341,0.35649507,-0.30632417,0.478764,0.3453494,-0.29165409,0.476441,0.33442346,-0.28006975,0.474329,0.38052947,-0.34099006,0.467075,0.35441514,-0.34586454,0.457253,0.3712925,-0.39392757,0.478198,0.38989726,-0.41947962,0.493159,0.38863561,-0.33536418,0.453702,0.36244669,-0.34419424,0.440202,0.38033445,-0.38270611,0.456403,0.40076492,-0.40598517,0.471132,0.39889891,-0.33452101,0.438316,0.37110576,-0.34798134,0.436707,0.36784542,-0.37035391,0.449782,0.36297165,-0.39231868,0.455419
0.38801627,-0.43667973,0.466326,0.39583877,-0.38730161,0.467302,0.37608534,-0.42721181,0.476317,0.35778964,-0.39667366,0.483633,0.32830048,-0.3658555,0.476358,0.31840634,-0.34676662,0.477145,0.38818147,-0.33632733,0.480979,0.37318291,-0.29530339,0.476738,0.36549103,-0.27415917,0.474617,0.3583979,-0.25456148,0.472712,0.40199215,-0.33264188,0.468232,0.38502365,-0.34729153,0.460055,0.40202432,-0.39671167,0.483991,0.41706189,-0.42511735,0.501089,0.41251336,-0.33216755,0.457629,0.39591536,-0.34536089,0.446591,0.4127681,-0.38524106,0.465196,0.42971802,-0.41383882,0.48211,0.42433722,-0.33707898,0.445139,0.40163893,-0.35001822,0.442982,0.40119183,-0.37608681,0.457794,0.39465228,-0.39764766,0.464296
0.39371008,-0.43919488,0.471706,0.39709816,-0.38465342,0.465422,0.38420479,-0.41862006,0.479092,0.35996774,-0.38921799,0.478091,0.33532149,-0.36160603,0.476125,0.32627149,-0.34055641,0.47665,0.39090349,-0.32564358,0.470775,0.38424711,-0.2833893,0.471251,0.38046476,-0.28383106,0.471489,0.38452634,-0.30394449,0.475015,0.40487663,-0.32462981,0.459437,0.38302027,-0.33038149,0.443198,0.40027166,-0.37860217,0.467129,0.41436968,-0.4088001,0.484222,0.41610725,-0.32683722,0.450777,0.39708465,-0.33232714,0.433134,0.41726851,-0.3710913,0.451768,0.43529162,-0.38571206,0.468709,0.42978679,-0.335888,0.441907,0.40304297,-0.34134294,0.433089,0.40381717,-0.36736306,0.447728,0.40042135,-0.39105255,0.456508
0.40820025,-0.43895519,0.486483,0.41331058,-0.37708948,0.471744,0.40528743,-0.40586682,0.494648,0.38394632,-0.38311503,0.493247,0.36513665,-0.35506504,0.49174,0.35875452,-0.33132278,0.489196,0.42034184,-0.31584257,0.472371,0.37692472,-0.29533198,0.447459,0.38543647,-0.32774524,0.462403,0.40667291,-0.34962158,0.478506,0.42554396,-0.31999898,0.457706,0.38440083,-0.30174222,0.435002,0.38533854,-0.33917748,0.454298,0.40069535,-0.35704636,0.468081,0.42996814,-0.32682557,0.447219,0.38330775,-0.32319243,0.420985,0.39208748,-0.35778746,0.435826,0.41569074,-0.37032926,0.449318,0.43586182,-0.3422107,0.437817,0.39185841,-0.34073815,0.424202,0.39107019,-0.36809875,0.435897,0.39203527,-0.39330907,0.445224
0.43748715,-0.41689936,0.493825,0.44071817,-0.36737683,0.475123,0.43258876,-0.39544617,0.498918,0.39962633,-0.36577197,0.49178,0.3700228,-0.3387416,0.48418,0.35693745,-0.31381147,0.477973,0.44192045,-0.30191415,0.469058,0.39576477,-0.29353195,0.440693,0.40381237,-0.32419814,0.456151,0.42358673,-0.34585249,0.474373,0.45045161,-0.3088703,0.457311,0.40078455,-0.29930674,0.428055,0.40345487,-0.33577479,0.447834,0.41720783,-0.35222463,0.461961,0.45808092,-0.31826126,0.449654,0.4084134,-0.31671142,0.420589,0.41835406,-0.34992349,0.435974,0.43547644,-0.36830438,0.44996,0.46852017,-0.33712075,0.44428,0.41815298,-0.32854022,0.42617,0.4169799,-0.34465859,0.438092,0.42929437,-0.35700061,0.450215
0.45646948,-0.38190764,0.476687,0.46282893,-0.34257389,0.482088,0.44257907,-0.36956032,0.48391,0.41700375,-0.34770491,0.486095,0.39128136,-0.32674779,0.487262,0.38078479,-0.31018598,0.491484,0.4522239,-0.29466627,0.495164,0.4408077,-0.26399222,0.494323,0.43486635,-0.24832381,0.493903,0.44789547,-0.25700473,0.510196,0.4692372,-0.29222711,0.487233,0.46083109,-0.28876721,0.484154,0.48450304,-0.33607647,0.510642,0.50431207,-0.35799534,0.529561,0.48257813,-0.2924779,0.480119,0.47431281,-0.27793411,0.474913,0.49009043,-0.31691374,0.495591,0.50425559,-0.35485234,0.51439,0.49791267,-0.29767897,0.470847,0.47944668,-0.29583487,0.470217,0.48743883,-0.32518599,0.486516,0.50272561,-0.34022306,0.497997
0.46236705,-0.38811944,0.480339,0.47068986,-0.35161525,0.48517,0.45106685,-0.3777753,0.490208,0.43609683,-0.3610685,0.496281,0.406785,-0.33270199,0.489827,0.39934733,-0.31547098,0.495072,0.46352863,-0.30579974,0.501303,0.45505806,-0.26794323,0.50333,0.45061378,-0.24822658,0.504343,0.46006695,-0.25199056,0.520452,0.47673607,-0.300776,0.48977,0.46676567,-0.27298211,0.486596,0.48342299,-0.30376027,0.511407,0.49053674,-0.33231231,0.520343,0.48686708,-0.29892415,0.479752,0.47697101,-0.27995624,0.477574,0.49446998,-0.31794463,0.497104,0.51701439,-0.3557686,0.514859,0.49839853,-0.30168859,0.467216,0.4816203,-0.30392113,0.467733,0.49753227,-0.33515475,0.483085,0.5113065,-0.35822719,0.493222
0.47098404,-0.37993445,0.485177,0.48031299,-0.32885531,0.48585,0.46870923,-0.3610775,0.495987,0.45164853,-0.34572984,0.502358,0.42292999,-0.31984729,0.499008,0.41678346,-0.30334397,0.50591,0.47437908,-0.28095485,0.500387,0.46084815,-0.24327083,0.49603,0.45384759,-0.22354902,0.493851,0.45448708,-0.20982028,0.500559,0.4840198,-0.27511646,0.486491,0.46055628,-0.24983363,0.480259,0.47577903,-0.28203572,0.50351,0.48795401,-0.31010881,0.513062,0.49167372,-0.27292113,0.474976,0.47613811,-0.25895339,0.474242,0.48321683,-0.29202457,0.492773,0.49060605,-0.31719284,0.500473,0.5010521,-0.27590627,0.461483,0.47597389,-0.27963458,0.459668,0.4945847,-0.3092413,0.474009,0.5113832,-0.33082276,0.483346
0.49100973,-0.37211231,0.493047,0.49252725,-0.31929606,0.486061,0.47987727,-0.36004942,0.501598,0.46643942,-0.33268953,0.50231,0.42946691,-0.2989104,0.488162,0.41944966,-0.27928923,0.489239,0.47858928,-0.26817976,0.492455,0.46220273,-0.22723179,0.485177,0.4539126,-0.20637322,0.481538,0.45649055,-0.19144223,0.489131,0.48889925,-0.2629053,0.479407,0.46458433,-0.23073729,0.466738,0.48226475,-0.26033268,0.489707,0.49549187,-0.28869367,0.501499,0.49791799,-0.26150841,0.469415,0.47920013,-0.24603374,0.462063,0.48839467,-0.2787269,0.480327,0.49790225,-0.30392042,0.490592,0.51052674,-0.26602201,0.459131,0.48267962,-0.2624079,0.450609,0.50034811,-0.29089266,0.464542,0.51483091,-0.31200301,0.472944
0.49260749,-0.34422168,0.492394,0.49101025,-0.29861262,0.486568,0.48131922,-0.33181125,0.500694,0.46443962,-0.30287619,0.501271,0.43622441,-0.2722387,0.494997,0.43089242,-0.25610353,0.499782,0.47934046,-0.24840613,0.493424,0.46605814,-0.20845812,0.485761,0.45930521,-0.18779587,0.481929,0.45530929,-0.16940439,0.480782,0.49057739,-0.24449762,0.48102,0.46724908,-0.23251947,0.467758,0.49377654,-0.27516183,0.49127,0.50847318,-0.30100228,0.503448,0.50009149,-0.2440482,0.471433,0.48478522,-0.22838514,0.464775,0.49396564,-0.25917813,0.483533,0.50146567,-0.28486558,0.493715,0.51280129,-0.2493403,0.461401,0.48840762,-0.24258604,0.453478,0.505418,-0.2707386,0.467811,0.51946978,-0.2901899,0.476157
0.53955003,-0.38498228,0.521371,0.52566763,-0.33567237,0.508322,0.52663625,-0.37134132,0.528353,0.51063383,-0.34424376,0.532185,0.50411303,-0.32667279,0.542231,0.49884047,-0.30586148,0.54312,0.50178162,-0.27850962,0.508555,0.50036649,-0.23534383,0.507116,0.499051,-0.21359622,0.506397,0.49784869,-0.19357604,0.505744,0.51231777,-0.27528244,0.495894,0.47002163,-0.28388543,0.472472,0.49589087,-0.32268737,0.493834,0.51999849,-0.33311066,0.509092,0.5225707,-0.27609737,0.486874,0.50087463,-0.2201575,0.469611,0.48480095,-0.2041133,0.462755,0.48820927,-0.21913028,0.473283,0.53828834,-0.28423792,0.478858,0.52085795,-0.23368298,0.462543,0.50621915,-0.22779492,0.455047,0.50773332,-0.24271953,0.461329
0.5347088,-0.34422767,0.517882,0.51755194,-0.29102482,0.499532,0.51440231,-0.32608267,0.518032,0.49307874,-0.29366981,0.515205,0.46841495,-0.26176812,0.507237,0.45766827,-0.23744943,0.501918,0.48289149,-0.22744745,0.487267,0.48940154,-0.18802454,0.492633,0.48975595,-0.16848311,0.495316,0.48998976,-0.14993224,0.497755,0.50175672,-0.22787961,0.482056,0.45863263,-0.22912064,0.455065,0.48084713,-0.26936518,0.478191,0.50129529,-0.2867127,0.49471,0.51969908,-0.2319554,0.479742,0.49913676,-0.18180825,0.469261,0.48768173,-0.17756676,0.463898,0.50008045,-0.19452759,0.477334,0.54574121,-0.2444413,0.480505,0.50897601,-0.19493489,0.459692,0.49664035,-0.19676765,0.450129,0.50490558,-0.21314679,0.455895
0.54821525,-0.32400544,0.51574,0.53420706,-0.27639545,0.508267,0.52412218,-0.3098337,0.515947,0.50209269,-0.27700999,0.513019,0.47794683,-0.24795614,0.509439,0.46805258,-0.22448545,0.506008,0.49646067,-0.22184723,0.503462,0.50075682,-0.18041539,0.506814,0.50291885,-0.15909735,0.50849,0.50421122,-0.13958038,0.510014,0.51916251,-0.21899789,0.50115,0.49913451,-0.21506132,0.484992,0.52754442,-0.2562646,0.511775,0.54933162,-0.28243805,0.530905,0.53952891,-0.21963854,0.500051,0.52264976,-0.20493874,0.486485,0.51157948,-0.22775335,0.479545,0.52524773,-0.24689484,0.492655,0.56725828,-0.22660266,0.50018,0.54510959,-0.21908936,0.486683,0.55185549,-0.23312466,0.480481,0.5699647,-0.24418327,0.489717
0.54733602,-0.31340282,0.513336,0.5386189,-0.25987609,0.508277,0.52640612,-0.29041618,0.514631,0.50763792,-0.25520089,0.512753,0.47737852,-0.22301873,0.503048,0.46804101,-0.20707972,0.505775,0.50575447,-0.20865022,0.506529,0.51268763,-0.16731773,0.509333,0.51623052,-0.14585641,0.510734,0.51949736,-0.12585561,0.512009,0.52743233,-0.20694087,0.503459,0.50511785,-0.15857409,0.490084,0.51299068,-0.1358506,0.500293,0.52244012,-0.13085846,0.507586,0.54632894,-0.20821785,0.501476,0.53901844,-0.19208213,0.490545,0.52900481,-0.21419946,0.484952,0.54040973,-0.2371225,0.498958,0.57136419,-0.21529256,0.500126,0.5593576,-0.20550924,0.488843,0.56350703,-0.22115569,0.483659,0.57983078,-0.23658214,0.493592
0.54677554,-0.29488697,0.50707,0.54392247,-0.24849756,0.505889,0.52644017,-0.2826,0.510324,0.51310435,-0.2465077,0.512142,0.48586465,-0.21249555,0.499167,0.47236772,-0.19069853,0.495533,0.51556262,-0.20128624,0.509326,0.51184429,-0.15705593,0.501872,0.51017667,-0.13539967,0.498146,0.50869988,-0.11532743,0.494758,0.53540144,-0.19884209,0.504765,0.53209977,-0.18640055,0.495996,0.56152328,-0.22690202,0.523333,0.58200672,-0.25768392,0.542859,0.55222908,-0.19926201,0.501136,0.55068636,-0.18760562,0.494638,0.5439455,-0.20812493,0.491313,0.55595478,-0.23502728,0.506628,0.57389961,-0.20479717,0.497146,0.56589161,-0.19560127,0.489597,0.56851315,-0.21052645,0.486128,0.58502727,-0.23430845,0.497086
0.56351979,-0.28915348,0.513533,0.55601785,-0.243579,0.510449,0.54054819,-0.27583439,0.514536,0.52597959,-0.23870818,0.514274,0.49465592,-0.20569496,0.502334,0.48435422,-0.18245601,0.498222,0.52014804,-0.19387563,0.509661,0.51448019,-0.14897781,0.499699,0.51446356,-0.12754575,0.494718,0.51455587,-0.10764353,0.49019,0.54135255,-0.1932273,0.507511,0.54744219,-0.17851404,0.495417,0.57828846,-0.21843708,0.522849,0.59906467,-0.24913536,0.542442,0.55952365,-0.19518554,0.506074,0.56785541,-0.18134304,0.496596,0.56328296,-0.20002039,0.491747,0.57144713,-0.22717433,0.506345,0.58325575,-0.20259034,0.504985,0.58341475,-0.19149343,0.494992,0.58574698,-0.20494363,0.4904,0.59964679,-0.22563716,0.500811
0.57286103,-0.28408699,0.513085,0.56454461,-0.24149212,0.510204,0.54994077,-0.27082002,0.514068,0.534707,-0.23646949,0.513865,0.50324963,-0.20351458,0.501929,0.49303338,-0.18035691,0.497957,0.52852198,-0.19191865,0.509528,0.52291941,-0.14711419,0.49975,0.52309788,-0.12568115,0.49486,0.52337453,-0.10577069,0.490416,0.54975581,-0.19131317,0.50746,0.55671787,-0.17654852,0.495602,0.58813185,-0.21637634,0.523066,0.60926106,-0.24702144,0.542683,0.56795113,-0.19329378,0.506068,0.57712951,-0.17935987,0.496748,0.57278628,-0.19804533,0.491979,0.58105737,-0.22522485,0.506635,0.59171024,-0.20070228,0.504994,0.59258541,-0.18953467,0.495139,0.59512066,-0.20298903,0.490612,0.60912818,-0.22369926,0.50107
0.57405769,-0.28015451,0.512802,0.56452026,-0.23149191,0.510182,0.55174663,-0.26720747,0.514348,0.5370839,-0.22640172,0.515929,0.50784704,-0.19400739,0.505979,0.49746407,-0.17204779,0.503329,0.52944515,-0.1825694,0.510418,0.52337317,-0.1385661,0.501091,0.5233978,-0.11678104,0.496427,0.52350651,-0.096619749,0.492188,0.55000281,-0.18178624,0.507688,0.55701009,-0.16225,0.496032,0.58952619,-0.20060457,0.523448,0.61151373,-0.23069428,0.543031,0.56756282,-0.18358635,0.505722,0.57737582,-0.16909337,0.49696,0.57336608,-0.18774057,0.492477,0.58177992,-0.2149456,0.507265,0.59046587,-0.1907072,0.503932,0.59184937,-0.17909018,0.494524,0.59462332,-0.19246644,0.490202,0.60874768,-0.21314679,0.500757
0.57232466,-0.27691758,0.512032,0.56247613,-0.22986007,0.510299,0.5516625,-0.26082943,0.5132,0.52780065,-0.22031671,0.513333,0.50099496,-0.18733328,0.503774,0.49298245,-0.16943519,0.502274,0.52901428,-0.18046636,0.510643,0.52315437,-0.13664653,0.501914,0.52399197,-0.11528711,0.497549,0.5248757,-0.095412352,0.493581,0.55021385,-0.18080771,0.508649,0.55940461,-0.16278114,0.498076,0.59192109,-0.20095315,0.52567,0.61347928,-0.23116218,0.545379,0.56816521,-0.18347649,0.507193,0.57972333,-0.16838231,0.498943,0.57477712,-0.18855399,0.494721,0.58270566,-0.21495757,0.509733,0.59123143,-0.1915511,0.50583,0.59223109,-0.17899245,0.496897,0.58583998,-0.19330552,0.492793,0.59497918,-0.21361496,0.503536
0.57228684,-0.27133288,0.51116,0.56268719,-0.22842828,0.510843,0.54987279,-0.25427097,0.513025,0.5287682,-0.21885246,0.514355,0.50307632,-0.18593339,0.505453,0.49227469,-0.16583686,0.504233,0.53119729,-0.17842748,0.513056,0.52634296,-0.13540599,0.506026,0.52813678,-0.11442587,0.502511,0.53031016,-0.095862727,0.499316,0.55186799,-0.17934826,0.51054,0.56271175,-0.1625053,0.501479,0.5948006,-0.20078818,0.529137,0.61571735,-0.23102634,0.548893,0.56965201,-0.18310954,0.508503,0.58245368,-0.16580807,0.501862,0.57730854,-0.18740187,0.498464,0.5868413,-0.21486166,0.513947,0.59168243,-0.1909569,0.506197,0.59147056,-0.17645487,0.498623,0.5882567,-0.19168402,0.495142,0.59825461,-0.21238117,0.506254
0.57277414,-0.27023548,0.512017,0.5634342,-0.22798017,0.511711,0.5505761,-0.25370291,0.514025,0.52925787,-0.21872128,0.515076,0.50325771,-0.18572066,0.505892,0.49241125,-0.16634764,0.505256,0.53233339,-0.17864397,0.51412,0.52733745,-0.13571777,0.507149,0.5289185,-0.11468961,0.503663,0.53096005,-0.095819886,0.500495,0.55292129,-0.17939535,0.51142,0.56149746,-0.15397311,0.502348,0.59557645,-0.18877744,0.529984,0.61571296,-0.22308037,0.549725,0.57047239,-0.18291271,0.50923,0.58292068,-0.16530267,0.502687,0.57786867,-0.18684773,0.499339,0.58741516,-0.21428061,0.514838,0.59237395,-0.19070746,0.506745,0.59190944,-0.17584326,0.499245,0.58872629,-0.19100715,0.495799,0.59896253,-0.21178009,0.506921
0.57056532,-0.27116244,0.511105,0.56322243,-0.22786307,0.511719,0.54997676,-0.25333035,0.513806,0.52976342,-0.21935891,0.515873,0.50394509,-0.18646728,0.506908,0.49316919,-0.16747819,0.50664,0.53410278,-0.18057693,0.515653,0.52964079,-0.13750211,0.509881,0.53125396,-0.11642861,0.506995,0.53373929,-0.097286919,0.504372,0.55412378,-0.18074257,0.512303,0.56362874,-0.15730773,0.504182,0.59700247,-0.19057747,0.531787,0.61809498,-0.22283561,0.551504,0.57074195,-0.18311499,0.509478,0.5841181,-0.16593154,0.504135,0.57948412,-0.18797076,0.501401,0.58841989,-0.21379222,0.517208,0.59162406,-0.19055756,0.506084,0.59195697,-0.17606127,0.499585,0.58926684,-0.1913591,0.496599,0.59993879,-0.21227104,0.507961
0.57075329,-0.27066894,0.511512,0.56354373,-0.22804654,0.512242,0.55052554,-0.25361012,0.514656,0.52979056,-0.22016149,0.516651,0.50310152,-0.18822565,0.507781,0.49228444,-0.17004996,0.508191,0.53516915,-0.18111441,0.516833,0.53015807,-0.13866678,0.51148,0.53150957,-0.11749605,0.508803,0.53421834,-0.098246669,0.506369,0.55468061,-0.18108447,0.512938,0.56387939,-0.15741438,0.504886,0.59717253,-0.19118194,0.532404,0.61870771,-0.22257432,0.55206,0.57083345,-0.18328248,0.509652,0.58425848,-0.16619435,0.504684,0.57969413,-0.18845629,0.502142,0.58877305,-0.21400344,0.518007,0.59110858,-0.19049006,0.5057,0.59146274,-0.17606589,0.499498,0.58890075,-0.19140805,0.496648,0.59974784,-0.21234322,0.508051
0.57027364,-0.27100124,0.511243,0.56487633,-0.23557016,0.513051,0.55061985,-0.25878477,0.515008,0.52887614,-0.23343755,0.518603,0.49951972,-0.20223827,0.509513,0.48808235,-0.18575807,0.511211,0.53110487,-0.19321419,0.519182,0.52746072,-0.15026416,0.514761,0.52731585,-0.12841519,0.51255,0.52721898,-0.10821431,0.510541,0.55051424,-0.19120396,0.514772,0.55812436,-0.16683191,0.50788,0.60057292,-0.20273992,0.535351,0.62260659,-0.22939841,0.554974,0.56662638,-0.19172283,0.510947,0.57895634,-0.17565977,0.506854,0.57868008,-0.19900735,0.50476,0.59201922,-0.22107998,0.520817,0.5869571,-0.19681081,0.506167,0.57885249,-0.18145559,0.501062,0.56453345,-0.19717374,0.498717,0.56873356,-0.21782701,0.510373
0.56057444,-0.26698141,0.502955,0.56133244,-0.24062238,0.515088,0.54190474,-0.25545559,0.507374,0.52357423,-0.23213088,0.515191,0.49852639,-0.20298177,0.510512,0.49107234,-0.18830155,0.516641,0.53955266,-0.19672689,0.529081,0.54569492,-0.15570868,0.534377,0.55047163,-0.13424232,0.537024,0.55488259,-0.11399946,0.539431,0.56159833,-0.19529342,0.526644,0.58241897,-0.17470225,0.531919,0.6213544,-0.21063677,0.559267,0.64868067,-0.24261708,0.578801,0.57881312,-0.19593902,0.523329,0.60106374,-0.1828765,0.52799,0.60602142,-0.20910585,0.530374,0.62178536,-0.23364076,0.548545,0.59830362,-0.20056597,0.517201,0.59924421,-0.18825834,0.520356,0.60608362,-0.21229482,0.537144,0.60523463,-0.23246486,0.544809
0.56026677,-0.26679427,0.503029,0.54791139,-0.236283,0.505371,0.54114953,-0.2642201,0.509003,0.5195601,-0.24293686,0.518477,0.49074801,-0.21411891,0.511747,0.479322,-0.19549411,0.512281,0.52029134,-0.19626721,0.514744,0.51456668,-0.15268408,0.510066,0.51255596,-0.13104843,0.507727,0.51073591,-0.11092984,0.505601,0.53737777,-0.19163108,0.507602,0.53900696,-0.17195564,0.501081,0.57503226,-0.20968535,0.52783,0.5992891,-0.23960467,0.546937,0.55145434,-0.19008039,0.501469,0.55566525,-0.17831823,0.49583,0.58151093,-0.21174336,0.516859,0.58982824,-0.23287857,0.527536,0.56958326,-0.19193439,0.493909,0.5572394,-0.1830072,0.490334,0.56407889,-0.2071013,0.506714,0.56470824,-0.22623267,0.514323
0.55496663,-0.27584925,0.501893,0.54722032,-0.25075954,0.505912,0.53616748,-0.27407642,0.509334,0.52237041,-0.2557462,0.520712,0.49095609,-0.22605807,0.512058,0.48053439,-0.20860564,0.514323,0.52207542,-0.21091845,0.518332,0.51767061,-0.16840483,0.516231,0.51650774,-0.14702137,0.515181,0.51544781,-0.12713308,0.514226,0.53756022,-0.20517907,0.509739,0.54179688,-0.18418446,0.505045,0.57843613,-0.22168029,0.531281,0.6030372,-0.25184343,0.55002,0.55008183,-0.20258453,0.50223,0.55389541,-0.18826443,0.495425,0.58020376,-0.22127653,0.515897,0.58893985,-0.24341913,0.526824,0.56568988,-0.20383398,0.492759,0.55694517,-0.19338504,0.491227,0.56473107,-0.2182537,0.507367,0.56643095,-0.23654884,0.514164
0.54305364,-0.2823519,0.495144,0.53536337,-0.25701996,0.504528,0.52452712,-0.2801142,0.502031,0.50855967,-0.26296126,0.516362,0.47856144,-0.23560057,0.510334,0.46936309,-0.21978429,0.514737,0.51095838,-0.2195721,0.51987,0.50897809,-0.17840897,0.521339,0.50807523,-0.15730568,0.522073,0.50723309,-0.1378301,0.522741,0.52900099,-0.21276181,0.513465,0.53595911,-0.20065284,0.515099,0.57506456,-0.23978297,0.541901,0.60254347,-0.27045475,0.561046,0.54339392,-0.20911581,0.507179,0.52392865,-0.17148659,0.512057,0.51572538,-0.15086126,0.514553,0.52354513,-0.13568165,0.532591,0.5605461,-0.20885686,0.498119,0.55316995,-0.2048176,0.500328,0.56532257,-0.23213884,0.516847,0.56879778,-0.25100807,0.522474
0.52919444,-0.29213554,0.49089,0.52332102,-0.2617991,0.500226,0.51322983,-0.28691292,0.499518,0.49826799,-0.27206389,0.516306,0.46968566,-0.24673038,0.512838,0.46103024,-0.23121523,0.517751,0.50222356,-0.22521694,0.517803,0.4985925,-0.18367245,0.518734,0.49628841,-0.16261912,0.5192,0.49415094,-0.14315411,0.519623,0.51795636,-0.21666422,0.509117,0.51728835,-0.2081851,0.510563,0.55474185,-0.24792509,0.536535,0.58181489,-0.27772741,0.555086,0.53044868,-0.21162764,0.500958,0.51152672,-0.17467565,0.506998,0.50247303,-0.15489055,0.510089,0.49717293,-0.13733139,0.516218,0.54535108,-0.2098333,0.489733,0.53272695,-0.20967225,0.492861,0.54487185,-0.23699596,0.50894,0.54952809,-0.25494073,0.514074
0.51867085,-0.31589256,0.505576,0.52256214,-0.27894442,0.512526,0.50400987,-0.30611045,0.513628,0.48790868,-0.27850618,0.521551,0.46319602,-0.24934344,0.517721,0.46415325,-0.23345855,0.525256,0.50867751,-0.23552861,0.527733,0.50531562,-0.19362937,0.529621,0.50354509,-0.17225301,0.530565,0.51034241,-0.15137986,0.538501,0.52529972,-0.23142113,0.519144,0.52195937,-0.19694481,0.518065,0.55023626,-0.2301904,0.544255,0.56058828,-0.25645204,0.552867,0.53826545,-0.23017175,0.511323,0.53142012,-0.19382909,0.511541,0.54052818,-0.21023961,0.511653,0.56561186,-0.24064951,0.528001,0.55321003,-0.23320995,0.500938,0.54214727,-0.22804638,0.501933,0.55606283,-0.2566033,0.518089,0.56609607,-0.2791759,0.528102
0.51201882,-0.31582049,0.507299,0.50969461,-0.27812276,0.514237,0.4960162,-0.30451681,0.513645,0.46289064,-0.27378535,0.515068,0.44107834,-0.25008094,0.517363,0.43286588,-0.23067604,0.519344,0.49654614,-0.2331461,0.527215,0.49147966,-0.19293567,0.528837,0.48878257,-0.17181334,0.529648,0.49192572,-0.15376812,0.536598,0.51527888,-0.23137256,0.520846,0.5140551,-0.19809939,0.51964,0.54179124,-0.23112994,0.546612,0.55110132,-0.25770993,0.555514,0.52997314,-0.23200417,0.514853,0.53429628,-0.21146314,0.517249,0.52881976,-0.2352563,0.518475,0.54278882,-0.26342729,0.535974,0.54681101,-0.23723587,0.506593,0.53297397,-0.22785176,0.506647,0.53965831,-0.25416762,0.523222,0.54593016,-0.2728399,0.531046
0.50742301,-0.32412583,0.514593,0.50489939,-0.28866449,0.517786,0.49008279,-0.31120043,0.519373,0.45984515,-0.28538763,0.517233,0.4306229,-0.25470302,0.507503,0.42220815,-0.23665987,0.510661,0.48523215,-0.23798135,0.52618,0.47940848,-0.19405969,0.523734,0.47956978,-0.1707327,0.522511,0.48352776,-0.15277022,0.529243,0.50492748,-0.23703112,0.520827,0.50912724,-0.19849625,0.515413,0.53757356,-0.23094066,0.54271,0.5468154,-0.25809201,0.553237,0.52068563,-0.23867617,0.516075,0.53062837,-0.21212362,0.513437,0.52410082,-0.23376507,0.512087,0.53508257,-0.26184253,0.528422,0.53934263,-0.24567462,0.509958,0.53676426,-0.24459516,0.506389,0.55733554,-0.27372559,0.523066,0.57093601,-0.29798406,0.533401
0.5072717,-0.34071491,0.521606,0.5055235,-0.30788618,0.523793,0.49030975,-0.32732733,0.526814,0.46038547,-0.30228826,0.524957,0.43154985,-0.27319569,0.518765,0.42405452,-0.25831464,0.525017,0.48870456,-0.2582294,0.53206,0.47932856,-0.21682623,0.530422,0.47622314,-0.19683595,0.529603,0.48675851,-0.18305538,0.543801,0.50741258,-0.25827548,0.525876,0.50814026,-0.22266852,0.519248,0.54043548,-0.22133652,0.546292,0.55588927,-0.22695841,0.557179,0.52235319,-0.26060517,0.520547,0.53035545,-0.22278902,0.514579,0.52926445,-0.22118923,0.511525,0.54712427,-0.22748153,0.526738,0.54012036,-0.26823757,0.513951,0.53726365,-0.25966821,0.509855,0.5594526,-0.2889605,0.526384,0.57198632,-0.31217138,0.534235
0.49531505,-0.3511849,0.519022,0.48801049,-0.31223489,0.51751,0.47875817,-0.3373766,0.523806,0.44481447,-0.31268181,0.520164,0.40776328,-0.27753665,0.500461,0.39530391,-0.25605203,0.497361,0.4682853,-0.25799157,0.522716,0.45308063,-0.21418543,0.51781,0.44664648,-0.19231255,0.515357,0.44392856,-0.17351115,0.516809,0.48623486,-0.25731927,0.516071,0.47588609,-0.2067726,0.507435,0.4757174,-0.1829298,0.502397,0.49424618,-0.17427544,0.516997,0.50063827,-0.25942879,0.510762,0.5061352,-0.21009585,0.50033,0.50926399,-0.20300258,0.494993,0.53219581,-0.20367471,0.508775,0.51800174,-0.26738812,0.504883,0.51767535,-0.26376427,0.497877,0.53785798,-0.29295788,0.514122,0.54982146,-0.31624479,0.522886
0.47845473,-0.35268351,0.510521,0.4781275,-0.31403107,0.513098,0.46346928,-0.34001234,0.516559,0.43160267,-0.31487137,0.516048,0.39746767,-0.28374832,0.501933,0.38465379,-0.26262315,0.499126,0.46310477,-0.26221469,0.522714,0.4522785,-0.21677278,0.518964,0.44326204,-0.19758589,0.51709,0.43606323,-0.17937889,0.515385,0.48124196,-0.26017979,0.515553,0.47176554,-0.21076671,0.510537,0.46423205,-0.18473974,0.507611,0.47465242,-0.17124019,0.523075,0.49594493,-0.26108942,0.509378,0.49056383,-0.21191955,0.504481,0.48554425,-0.18809677,0.501975,0.49761877,-0.17269504,0.517317,0.51354303,-0.26764779,0.501727,0.51421612,-0.22319493,0.497187,0.51407961,-0.20275639,0.495102,0.52741256,-0.18992535,0.506515
0.48295073,-0.33921656,0.504756,0.48639359,-0.3016343,0.512118,0.46386996,-0.3314256,0.510346,0.43094004,-0.31227722,0.512259,0.39611941,-0.28604795,0.501487,0.37942604,-0.2725169,0.501675,0.46390636,-0.26078877,0.524397,0.45027532,-0.21768311,0.524468,0.44344531,-0.19729564,0.524504,0.44046161,-0.18053687,0.524537,0.48323503,-0.25291035,0.519129,0.47461566,-0.20622826,0.518529,0.468551,-0.17967754,0.518179,0.46398656,-0.1607935,0.51793,0.49956445,-0.25045274,0.513997,0.49559235,-0.20402837,0.512568,0.49326257,-0.18015234,0.511837,0.49113349,-0.15829153,0.511172,0.51935949,-0.25215378,0.506657,0.52494269,-0.21259938,0.506308,0.52587857,-0.19473504,0.506148,0.52674076,-0.17838785,0.506007
0.48248452,-0.33839313,0.503554,0.48575629,-0.30123908,0.511447,0.46375641,-0.330453,0.509269,0.43125334,-0.31180101,0.511633,0.39616376,-0.2871699,0.501963,0.38023228,-0.27309597,0.502741,0.46354836,-0.25996264,0.524251,0.45066509,-0.21787155,0.524922,0.44408194,-0.19757888,0.525257,0.44021496,-0.18021851,0.525562,0.48308144,-0.25282997,0.518964,0.47500558,-0.20639769,0.518955,0.46924816,-0.17994489,0.51895,0.46489674,-0.16110892,0.518946,0.4993341,-0.25033726,0.51376,0.49584955,-0.20413425,0.512834,0.49376755,-0.18033677,0.512361,0.49186177,-0.15852626,0.51193,0.51892793,-0.25194425,0.506236,0.52495513,-0.21260442,0.50632,0.52609675,-0.19481584,0.506358,0.52714257,-0.17852393,0.506393
