sluyters/QuantumLeap/src/datasets/gesture/HandGestureDataset_SHREC2017_csv/Gesture12/finger_2/subject_19_essai_2_skeletons_world.csv
Wrist_x,Wrist_y,Wrist_z,Palm_x,Palm_y,Palm_z,thumb_base_x,thumb_base_y,thumb_base_z,thumb_first_joint_x,thumb_first_joint_y,thumb_first_joint_z,thumb_second_joint_x,thumb_second_joint_y,thumb_second_joint_z,thumb_tip_x,thumb_tip_y,thumb_tip_z,index_base_x,index_base_y,index_base_z,index_first_joint_x,index_first_joint_y,index_first_joint_z,index_second_joint_x,index_second_joint_y,index_second_joint_z,index_tip_x,index_tip_y,index_tip_z,middle_base_x,middle_base_y,middle_base_z,middle_first_joint_x,middle_first_joint_y,middle_first_joint_z,middle_second_joint_x,middle_second_joint_y,middle_second_joint_z,middle_tip_x,middle_tip_y,middle_tip_z,ring_base_x,ring_base_y,ring_base_z,ring_first_joint_x,ring_first_joint_y,ring_first_joint_z,ring_second_joint_x,ring_second_joint_y,ring_second_joint_z,ring_tip_x,ring_tip_y,ring_tip_z,pinky_base_x,pinky_base_y,pinky_base_z,pinky_first_joint_x,pinky_first_joint_y,pinky_first_joint_z,pinky_second_joint_x,pinky_second_joint_y,pinky_second_joint_z,pinky_tip_x,pinky_tip_y,pinky_tip_z,
0.37978275,-0.19330438,0.467074,0.37157704,-0.148469,0.464141,0.36002287,-0.18662302,0.469097,0.32337838,-0.15636862,0.462059,0.2971293,-0.13492437,0.457332,0.28568384,-0.12022487,0.454585,0.3435064,-0.11151906,0.464603,0.3263244,-0.069712511,0.455749,0.31762674,-0.048411256,0.451322,0.30913297,-0.032991741,0.447297,0.36551698,-0.1069322,0.461137,0.35000275,-0.060976748,0.451195,0.34071572,-0.033639721,0.445395,0.33361111,-0.014100948,0.441252,0.38446681,-0.10694289,0.458565,0.36967687,-0.061006523,0.448696,0.36205387,-0.037132959,0.443646,0.35455702,-0.017797307,0.439056,0.40872287,-0.11573957,0.45605,0.40173627,-0.074647644,0.447025,0.398117,-0.054638005,0.442878,0.39418422,-0.042299912,0.439219
0.37872037,-0.19014475,0.465955,0.37027866,-0.14390116,0.463139,0.35924482,-0.18375488,0.468376,0.32435823,-0.15409831,0.461864,0.29757433,-0.13294135,0.456833,0.28497045,-0.11520218,0.454302,0.34292797,-0.10686541,0.464193,0.32654432,-0.064673186,0.455158,0.31788683,-0.043480606,0.450641,0.30868675,-0.028448877,0.446534,0.36384538,-0.099842426,0.460257,0.34890522,-0.053720427,0.450153,0.34010689,-0.026290081,0.444259,0.33270015,-0.012098187,0.440049,0.3825446,-0.09909938,0.457286,0.3682458,-0.053111121,0.447238,0.36086807,-0.029121911,0.442097,0.35330852,-0.012991699,0.437424,0.40619345,-0.10497703,0.454282,0.40057035,-0.06342953,0.445386,0.39798817,-0.04430678,0.441298,0.39241893,-0.03902986,0.437692
0.37837489,-0.18839318,0.465643,0.3703334,-0.14266772,0.4629,0.35894538,-0.18211654,0.468162,0.3246772,-0.15333775,0.461788,0.29778984,-0.13231074,0.45677,0.28524261,-0.11482848,0.454576,0.34263197,-0.10630188,0.464129,0.3265747,-0.064061073,0.455148,0.31796137,-0.04294346,0.450658,0.30893509,-0.027370082,0.446575,0.36371416,-0.099806416,0.460091,0.34883391,-0.053709448,0.450061,0.34006938,-0.026287182,0.44421,0.3326858,-0.011112785,0.440031,0.38233044,-0.099043901,0.45703,0.36808853,-0.053088439,0.447047,0.36073992,-0.029111569,0.44194,0.35327503,-0.011600448,0.437297,0.40585904,-0.1048906,0.453908,0.40027805,-0.063383245,0.445061,0.39771581,-0.044276459,0.440996,0.39240408,-0.037347753,0.437409
0.37709385,-0.18692064,0.4651,0.36951381,-0.14188301,0.4626,0.35668279,-0.17837314,0.4676,0.32397806,-0.15079819,0.461259,0.29781505,-0.13021917,0.457222,0.28583255,-0.11461616,0.456019,0.34217559,-0.105947,0.46398,0.32631403,-0.062895041,0.455321,0.31789249,-0.042679994,0.450991,0.30965456,-0.0235142,0.447055,0.36336722,-0.099964215,0.460041,0.34914599,-0.05526882,0.450384,0.3403151,-0.02790115,0.444751,0.33323653,-0.010366177,0.440728,0.38196591,-0.099369922,0.457037,0.36817443,-0.05347361,0.447426,0.3611923,-0.031313116,0.442509,0.35383184,-0.010960806,0.438039,0.40536042,-0.10535047,0.453941,0.39992705,-0.065813617,0.445292,0.39735719,-0.046887546,0.441319,0.39275272,-0.034572701,0.437813
0.37620839,-0.18588243,0.46475,0.36903404,-0.14141678,0.462435,0.35598277,-0.17758016,0.467356,0.32339348,-0.15032815,0.46119,0.29765981,-0.12982507,0.457584,0.28631291,-0.11453977,0.457086,0.34204405,-0.10577836,0.464083,0.32631456,-0.062952983,0.455642,0.31801364,-0.04254397,0.451421,0.30988384,-0.023233235,0.447584,0.36323276,-0.10005362,0.460065,0.34920284,-0.055132049,0.450608,0.34048699,-0.027763446,0.445092,0.33357223,-0.0098656726,0.441151,0.3817325,-0.099519314,0.456979,0.36818087,-0.053660697,0.447571,0.3612355,-0.031151287,0.442757,0.35407967,-0.010529828,0.438381,0.40493055,-0.1055332,0.453755,0.39981252,-0.06562851,0.445259,0.39737846,-0.046695182,0.441356,0.39288443,-0.03414899,0.437912
0.37553104,-0.18517016,0.464519,0.36857058,-0.14114253,0.46219,0.35526238,-0.17699373,0.466955,0.32235897,-0.15110588,0.460573,0.29675636,-0.13063369,0.457149,0.28572109,-0.1145949,0.457126,0.34153632,-0.10564651,0.463611,0.32567555,-0.063683473,0.455181,0.31724104,-0.042544959,0.450967,0.30903015,-0.02406417,0.447135,0.36329338,-0.10097375,0.459805,0.3487758,-0.055114629,0.45036,0.33999643,-0.028883935,0.444851,0.33314292,-0.009622888,0.440916,0.38152983,-0.099702405,0.456894,0.36768191,-0.053937526,0.447527,0.3603948,-0.031333506,0.442734,0.35359791,-0.010329379,0.438377,0.40504488,-0.10685441,0.453879,0.39983213,-0.065760617,0.445389,0.39718719,-0.048275966,0.441489,0.39279864,-0.035388957,0.438047
0.37495556,-0.18459162,0.46428,0.36821316,-0.14093652,0.461982,0.3547574,-0.17657141,0.466701,0.32183101,-0.15089629,0.460306,0.29625561,-0.13051355,0.45698,0.285287,-0.11462959,0.457136,0.34127048,-0.10558226,0.463405,0.32528014,-0.063714947,0.455029,0.31682884,-0.042564347,0.450841,0.30862022,-0.023956335,0.447034,0.36303319,-0.10091342,0.459628,0.3485042,-0.055107469,0.450226,0.33970741,-0.028781278,0.444741,0.33288437,-0.009442432,0.440824,0.38131264,-0.099802987,0.456739,0.36729334,-0.054114154,0.44743,0.35999316,-0.03131124,0.442668,0.35320771,-0.010178263,0.438338,0.40479799,-0.10679781,0.453743,0.39966598,-0.065825137,0.445281,0.39687369,-0.048268959,0.441393,0.39253964,-0.035110981,0.437963
0.3762646,-0.18530467,0.466218,0.36920941,-0.14238135,0.462898,0.35690604,-0.17897777,0.468765,0.32298593,-0.15812726,0.463126,0.29699119,-0.13749152,0.456341,0.28438124,-0.11708927,0.455565,0.34165369,-0.10708429,0.463752,0.32490061,-0.069510438,0.454794,0.3159578,-0.04835639,0.450316,0.30766959,-0.027824478,0.446244,0.36300587,-0.10214655,0.459502,0.34769828,-0.060708159,0.44942,0.33731141,-0.034519134,0.443539,0.33117706,-0.013242868,0.439339,0.38135557,-0.10172897,0.456321,0.366362,-0.058141347,0.446319,0.35963635,-0.038659128,0.441202,0.35211316,-0.017368472,0.436549,0.40425451,-0.10884316,0.45316,0.39845143,-0.06710419,0.443708,0.39481498,-0.058496127,0.439366,0.38808455,-0.048132615,0.435534
0.37523463,-0.18558633,0.466263,0.36714628,-0.1580091,0.462304,0.35607654,-0.18491076,0.468738,0.32115881,-0.16932511,0.462036,0.29493186,-0.14877726,0.458033,0.28358364,-0.13287449,0.458104,0.34029054,-0.12067904,0.462619,0.32146501,-0.079778405,0.453221,0.31189607,-0.058823967,0.448522,0.3030996,-0.039460443,0.44425,0.36145189,-0.11622766,0.45827,0.34364252,-0.07135684,0.447668,0.33307446,-0.044383626,0.441483,0.32543847,-0.024723989,0.437066,0.37965544,-0.11640218,0.45507,0.36234869,-0.071185132,0.444499,0.35334797,-0.047669468,0.43909,0.3469905,-0.021182462,0.434173,0.40252565,-0.12365883,0.451997,0.39593391,-0.083383225,0.442007,0.3906646,-0.06655152,0.437416,0.38606696,-0.049567568,0.433366
0.37569226,-0.20972955,0.468599,0.36943187,-0.17294603,0.463645,0.35650198,-0.20207418,0.470818,0.32454624,-0.18470686,0.463575,0.29558442,-0.16268433,0.455089,0.28206114,-0.14503925,0.452032,0.34045918,-0.13233763,0.462924,0.32181024,-0.090393059,0.452591,0.31240609,-0.069138544,0.447425,0.30380713,-0.049642171,0.442728,0.36215918,-0.12866268,0.458598,0.34373912,-0.082828462,0.447015,0.33276948,-0.055844199,0.440259,0.32488138,-0.03633947,0.435432,0.38085026,-0.12976156,0.455512,0.36448719,-0.083841069,0.443909,0.35576344,-0.060453121,0.437972,0.34775586,-0.038745427,0.432575,0.4043021,-0.13854375,0.452744,0.39544964,-0.097383825,0.441862,0.39028931,-0.080541317,0.436862,0.3857177,-0.065242823,0.432451
0.38244757,-0.22524049,0.472459,0.37341293,-0.18591655,0.465536,0.36286333,-0.21780129,0.474768,0.3310685,-0.20032299,0.467211,0.30199584,-0.17979301,0.46054,0.29217694,-0.16593157,0.463652,0.34053367,-0.14592829,0.463508,0.32134055,-0.1032622,0.451258,0.31271997,-0.082103326,0.446579,0.30483548,-0.062688204,0.442325,0.36158775,-0.14061356,0.458465,0.34186743,-0.094470385,0.445042,0.33027852,-0.067322735,0.437211,0.32197189,-0.047797753,0.431618,0.38014437,-0.14043319,0.454978,0.36319612,-0.094189204,0.441099,0.3541083,-0.070889348,0.433998,0.3457823,-0.049278025,0.427542,0.40418665,-0.14783219,0.452075,0.39497336,-0.10664925,0.43958,0.38897533,-0.092491162,0.433838,0.3835206,-0.080652716,0.428772
0.38002651,-0.25183587,0.471814,0.37182646,-0.2060982,0.465076,0.36153147,-0.24367337,0.47469,0.33006072,-0.2177708,0.46789,0.30164335,-0.19453794,0.459261,0.29128214,-0.17822295,0.459952,0.34300605,-0.16418251,0.463911,0.32386776,-0.12209745,0.45234,0.31416008,-0.10091044,0.446555,0.30529037,-0.081494401,0.441295,0.36352971,-0.16042449,0.458207,0.34483309,-0.11451528,0.445187,0.33373275,-0.087511676,0.437592,0.32576084,-0.068016387,0.432167,0.38131945,-0.16160452,0.45416,0.36364678,-0.11564433,0.44122,0.35449873,-0.092012038,0.4346,0.34533268,-0.072165663,0.428581,0.40384501,-0.1707317,0.450576,0.39513156,-0.12932473,0.43833,0.39105498,-0.11035078,0.432703,0.38670652,-0.094786041,0.427739
0.38092204,-0.25406011,0.473302,0.37239003,-0.20779758,0.465773,0.36228764,-0.24564272,0.47595,0.329712,-0.22036053,0.468695,0.29803261,-0.20016657,0.458779,0.28879435,-0.18128643,0.459366,0.34328503,-0.16547492,0.46375,0.32321656,-0.12373089,0.451423,0.31306824,-0.10264143,0.445259,0.3037932,-0.083301124,0.439656,0.36376137,-0.16182586,0.458097,0.34413434,-0.11635365,0.444301,0.33253073,-0.089463418,0.436252,0.32419385,-0.070027502,0.430504,0.38156465,-0.16311431,0.454169,0.36376195,-0.1172454,0.440237,0.35457782,-0.093560599,0.433108,0.34548542,-0.073311321,0.426628,0.40421784,-0.17242052,0.450862,0.39453741,-0.13087345,0.437958,0.390053,-0.11182883,0.43203,0.3849301,-0.097479997,0.426799
0.37237812,-0.28088554,0.465983,0.36952137,-0.23492269,0.460086,0.3571123,-0.27183863,0.470584,0.32766304,-0.2457911,0.46619,0.30341093,-0.22431922,0.463537,0.2955547,-0.20867828,0.465695,0.34864451,-0.19253155,0.461743,0.3275199,-0.15316347,0.452592,0.31681038,-0.13311201,0.448016,0.30698438,-0.11465669,0.443857,0.3665643,-0.18964941,0.454104,0.34766303,-0.14518207,0.442352,0.33650981,-0.11870628,0.435497,0.3284803,-0.099532121,0.4306,0.38180939,-0.19156869,0.448388,0.36497769,-0.14588192,0.437196,0.35543997,-0.12317797,0.43147,0.34609291,-0.10303379,0.426265,0.40060156,-0.20164726,0.442711,0.39340118,-0.16030744,0.434671,0.38923202,-0.14167232,0.430976,0.38554956,-0.12512663,0.427717
0.37969632,-0.29361961,0.471825,0.37523373,-0.25506463,0.46305,0.36529619,-0.29346205,0.47543,0.33454369,-0.26630825,0.469117,0.30882315,-0.24373894,0.46422,0.3002153,-0.22736868,0.465703,0.34911722,-0.2109091,0.461402,0.32825111,-0.1697177,0.449224,0.31769343,-0.14897862,0.443135,0.30804723,-0.1299802,0.437599,0.36807517,-0.20807327,0.454172,0.34821401,-0.16304563,0.439526,0.33632748,-0.13666826,0.430982,0.3274274,-0.11815268,0.424879,0.38449174,-0.21024005,0.449079,0.36662172,-0.16310028,0.435074,0.35575562,-0.14240963,0.42791,0.34574917,-0.12312549,0.421396,0.40525192,-0.22092025,0.444645,0.39276262,-0.17864739,0.430654,0.38702393,-0.15918688,0.424225,0.38034357,-0.14580456,0.418553
0.38485553,-0.32531262,0.471306,0.38003324,-0.27721012,0.461953,0.37058417,-0.31526784,0.476266,0.3403912,-0.28969757,0.471922,0.31449356,-0.26835868,0.468034,0.30522923,-0.25144197,0.468561,0.35886461,-0.23197972,0.461663,0.33466601,-0.1930951,0.451248,0.32245699,-0.17342291,0.446041,0.31129052,-0.15539762,0.441308,0.37510371,-0.22991469,0.452539,0.35386965,-0.18550496,0.437826,0.34098754,-0.15964723,0.429244,0.33171485,-0.14091134,0.423114,0.38914214,-0.23280963,0.445946,0.36983712,-0.18632443,0.432825,0.35820507,-0.16469967,0.426112,0.34732757,-0.14510981,0.42001,0.40680167,-0.24453517,0.439861,0.39875584,-0.20220459,0.431268,0.39291632,-0.18451919,0.42732,0.38773418,-0.16870325,0.423836
0.38429964,-0.33251653,0.469859,0.37875015,-0.29107224,0.460889,0.3698524,-0.3232601,0.474987,0.33971071,-0.30552858,0.470695,0.31444306,-0.28384927,0.46759,0.30437307,-0.26707323,0.467966,0.35659658,-0.24801243,0.461085,0.33458288,-0.20933815,0.448638,0.32343697,-0.18964128,0.442415,0.31321613,-0.17150847,0.436757,0.37245128,-0.24340475,0.451861,0.35100567,-0.20102637,0.43694,0.33816323,-0.17594496,0.428236,0.32872761,-0.15794829,0.422019,0.38635983,-0.24416923,0.445147,0.36803724,-0.19906347,0.430252,0.35738063,-0.17732887,0.422632,0.34761803,-0.15724356,0.415704,0.40434574,-0.25342442,0.438855,0.39415095,-0.20900078,0.424484,0.38598531,-0.19254844,0.417881,0.37874366,-0.17779258,0.412055
0.38215853,-0.34838796,0.466035,0.37623941,-0.30887586,0.457879,0.36627347,-0.34971219,0.47026,0.33966434,-0.32229013,0.468272,0.31634311,-0.29865881,0.465282,0.30585047,-0.27979024,0.463218,0.35233493,-0.26551063,0.457498,0.33168404,-0.2273437,0.445433,0.32121516,-0.20786591,0.439401,0.3116071,-0.18991006,0.433917,0.36990328,-0.2613473,0.44967,0.35089428,-0.21978521,0.435171,0.33934069,-0.19541609,0.426713,0.33099976,-0.17763616,0.420671,0.38521036,-0.26245957,0.444025,0.36885544,-0.2179251,0.429679,0.3587862,-0.19785714,0.422339,0.34953029,-0.17917176,0.415666,0.40483344,-0.27208234,0.438843,0.3970285,-0.22849096,0.425111,0.38923631,-0.21535135,0.418803,0.38230252,-0.20346318,0.413236
0.39246299,-0.36553622,0.47091,0.38386182,-0.319053,0.45976,0.3739391,-0.35649172,0.473511,0.34853991,-0.335928,0.468675,0.32026911,-0.31211833,0.461686,0.30819016,-0.29448052,0.45997,0.35001046,-0.27561892,0.455184,0.32746722,-0.23413939,0.440262,0.31579733,-0.21432634,0.432802,0.30509285,-0.19623593,0.42602,0.36956001,-0.27057899,0.448537,0.34783753,-0.22735674,0.431196,0.334376,-0.20472583,0.42108,0.3244625,-0.18925356,0.413855,0.38712166,-0.27109392,0.444159,0.36643761,-0.22630666,0.427127,0.35530351,-0.20573656,0.418413,0.34510304,-0.18669449,0.410491,0.41044996,-0.28010537,0.440983,0.39609709,-0.23807091,0.424842,0.38818808,-0.22605647,0.417426,0.38103976,-0.21630469,0.410882
0.38715747,-0.39408226,0.475466,0.38210393,-0.34423316,0.464462,0.37054349,-0.38196358,0.478127,0.34264955,-0.35318786,0.472464,0.31841867,-0.32764052,0.46696,0.30716224,-0.30779004,0.462931,0.35781683,-0.29524434,0.460068,0.33612369,-0.2544626,0.446156,0.32565305,-0.23421061,0.439788,0.31608431,-0.21565155,0.434,0.37690084,-0.29528198,0.453387,0.35691359,-0.25165228,0.436474,0.34504372,-0.22607081,0.426608,0.33652018,-0.20756206,0.419561,0.3933035,-0.30007478,0.448967,0.37378844,-0.25448885,0.433259,0.36328556,-0.23230941,0.425222,0.35369346,-0.21192966,0.417916,0.41378853,-0.31432281,0.445716,0.40204096,-0.26909641,0.429858,0.3948655,-0.25290665,0.422572,0.38852886,-0.23842413,0.416144
0.38959391,-0.40008438,0.474682,0.38520571,-0.35373347,0.462988,0.37327632,-0.38859562,0.477949,0.34453198,-0.36470532,0.470647,0.31961966,-0.34159006,0.466777,0.30811074,-0.32296031,0.464523,0.3598456,-0.30495172,0.458878,0.33641874,-0.26721032,0.444256,0.32457354,-0.24803083,0.436945,0.3137218,-0.23039924,0.430299,0.37749914,-0.30271325,0.451219,0.35476392,-0.26182237,0.433894,0.34135465,-0.23744877,0.423787,0.33170334,-0.21977595,0.416569,0.39306147,-0.30578736,0.446061,0.37247872,-0.26268777,0.429008,0.3618518,-0.2404105,0.420283,0.35215407,-0.21995033,0.412352,0.41326715,-0.31841434,0.442066,0.40223452,-0.27172915,0.425522,0.39298919,-0.25876366,0.41792,0.38478127,-0.24712355,0.411213
0.39225062,-0.40527933,0.475409,0.38731856,-0.36166837,0.463189,0.37770729,-0.39931773,0.478117,0.34657088,-0.37390839,0.469975,0.32070536,-0.35047901,0.465259,0.30847086,-0.33176285,0.462386,0.35983915,-0.3125836,0.457991,0.33662748,-0.27501335,0.442516,0.32489636,-0.25592149,0.434779,0.31415133,-0.23836933,0.427745,0.37814968,-0.31063712,0.450889,0.35553231,-0.27033424,0.432926,0.34219809,-0.24630259,0.422448,0.33260189,-0.22887124,0.414964,0.39438179,-0.31396702,0.446241,0.37339883,-0.27247124,0.428551,0.36259487,-0.25086594,0.419501,0.35272701,-0.23097729,0.411273,0.41557024,-0.32689175,0.442936,0.40272509,-0.28079988,0.426057,0.39336031,-0.26863154,0.418302,0.38504396,-0.25771078,0.411459
0.39655334,-0.41536144,0.477885,0.38795353,-0.36415099,0.464452,0.37915807,-0.40313024,0.480228,0.34660899,-0.37637127,0.471399,0.31982605,-0.35225068,0.465487,0.30730209,-0.33308417,0.462195,0.36034236,-0.31363924,0.45793,0.33704657,-0.27625587,0.44128,0.32703838,-0.25969682,0.432956,0.31451393,-0.2398164,0.425388,0.37860801,-0.31214359,0.450932,0.35627284,-0.27511362,0.431804,0.34285364,-0.25210757,0.420646,0.33197699,-0.23148644,0.412677,0.39484522,-0.3159361,0.446488,0.37457223,-0.27819378,0.427327,0.36401694,-0.25754469,0.417524,0.35438206,-0.23848926,0.408612,0.41613476,-0.3295971,0.443635,0.40749151,-0.2850564,0.425464,0.39731325,-0.27643742,0.417115,0.38826819,-0.26874283,0.409749
0.39877887,-0.41977521,0.481011,0.38911946,-0.36656636,0.465936,0.38110382,-0.40693307,0.482953,0.34658079,-0.38064951,0.473331,0.31809583,-0.35564711,0.465444,0.3069906,-0.33495819,0.462759,0.36079179,-0.31449473,0.457739,0.33753396,-0.27956898,0.439595,0.32579104,-0.26434254,0.430523,0.31447034,-0.24445959,0.422276,0.3794244,-0.3146261,0.450764,0.35551531,-0.2764961,0.4301,0.34213658,-0.25699476,0.418046,0.33130564,-0.23727225,0.409436,0.39553076,-0.31902853,0.4465,0.37400648,-0.27974623,0.42583,0.36385478,-0.26240587,0.415255,0.35285402,-0.24039375,0.405641,0.41676113,-0.33366269,0.444144,0.41009027,-0.28962441,0.424462,0.39869391,-0.28283621,0.415418,0.38856295,-0.27682959,0.407439
0.39885991,-0.42110945,0.481375,0.38925975,-0.36735832,0.466148,0.38121731,-0.40809347,0.483253,0.34657676,-0.38127129,0.473523,0.317885,-0.35626803,0.465459,0.30674863,-0.33579893,0.46291,0.36110737,-0.31500094,0.45776,0.33754491,-0.28025084,0.439427,0.32559278,-0.26418168,0.430261,0.31426592,-0.24547622,0.421927,0.37965105,-0.31504142,0.450821,0.35565484,-0.27725994,0.430007,0.34198845,-0.25688349,0.417865,0.33135191,-0.23837908,0.409192,0.39576449,-0.31953245,0.446602,0.37416695,-0.28052335,0.425729,0.36367515,-0.26227633,0.41505,0.35294508,-0.24143492,0.405342,0.41701095,-0.33429858,0.444325,0.41014245,-0.28966126,0.424516,0.39869007,-0.28283348,0.415414,0.38851049,-0.27679222,0.407384
0.40008645,-0.4229367,0.482601,0.38983912,-0.36795012,0.466295,0.38197924,-0.40925864,0.483867,0.34721008,-0.38029598,0.473159,0.31820944,-0.35647676,0.465297,0.30652239,-0.33591446,0.462349,0.36121483,-0.31508564,0.456361,0.33623743,-0.28166098,0.436833,0.32368109,-0.26886663,0.42707,0.31152589,-0.24853897,0.418193,0.37960722,-0.3146858,0.449883,0.35532788,-0.27782823,0.427958,0.34035094,-0.25648708,0.415169,0.32938772,-0.24148746,0.406033,0.39610951,-0.3195968,0.446149,0.37423662,-0.28148627,0.424133,0.36277971,-0.26127524,0.41287,0.35233506,-0.24266216,0.40263,0.4180199,-0.33502716,0.444629,0.40994639,-0.29014522,0.424014,0.39782212,-0.28369769,0.414543,0.38704285,-0.27800877,0.406185
0.39233135,-0.4382951,0.463617,0.38915977,-0.38469153,0.454546,0.37852963,-0.42700203,0.468368,0.34947867,-0.39564556,0.463538,0.32864646,-0.37467903,0.464383,0.319917,-0.35686206,0.464895,0.37043781,-0.33725057,0.454188,0.34859038,-0.30421297,0.441144,0.3374571,-0.28725757,0.434622,0.32720059,-0.2715624,0.428692,0.38562497,-0.33416379,0.445416,0.36237883,-0.29673038,0.430876,0.34857916,-0.2742974,0.422395,0.33821076,-0.25554229,0.416337,0.39888901,-0.33649671,0.439084,0.38204988,-0.29498201,0.42384,0.37166937,-0.27560136,0.416041,0.36114036,-0.25913955,0.408951,0.41592987,-0.34830684,0.433257,0.41230951,-0.30145617,0.418782,0.39992572,-0.29550517,0.412131,0.38881613,-0.29021816,0.406263
0.39203347,-0.43796233,0.463265,0.38912981,-0.3846619,0.454511,0.37838739,-0.42684157,0.468192,0.3495714,-0.39575054,0.463661,0.32881843,-0.37487509,0.464626,0.32013858,-0.35710924,0.465217,0.37077547,-0.33755798,0.454602,0.34911586,-0.30467156,0.441809,0.33807049,-0.28777971,0.435412,0.32789133,-0.27213569,0.429597,0.38587085,-0.33437685,0.4457,0.3629028,-0.29715942,0.431499,0.34925669,-0.27483055,0.423216,0.33906996,-0.25704427,0.417299,0.39902074,-0.33660783,0.439229,0.38239332,-0.29524717,0.424221,0.37211693,-0.27593324,0.416542,0.36167904,-0.25952608,0.409561,0.41585979,-0.34824816,0.433184,0.41249263,-0.30159007,0.418968,0.40022169,-0.29572386,0.412436,0.38920757,-0.29051033,0.406672
0.38845022,-0.42441856,0.464305,0.38886556,-0.38499988,0.454618,0.37832094,-0.42768664,0.468813,0.34859771,-0.39602926,0.463541,0.32645026,-0.37413967,0.462971,0.31737338,-0.35623526,0.46326,0.36929737,-0.33672415,0.453512,0.34738767,-0.30254607,0.439866,0.33624914,-0.28504905,0.433042,0.32600711,-0.26888237,0.42684,0.3848204,-0.33383873,0.444867,0.36175397,-0.29575598,0.429704,0.34796962,-0.27316771,0.42086,0.33756279,-0.25562798,0.414542,0.39840609,-0.33639565,0.4387,0.38144209,-0.29369414,0.422889,0.37056595,-0.27465124,0.4148,0.35962331,-0.2585907,0.407446,0.41591637,-0.34857355,0.433174,0.41147234,-0.30107859,0.418205,0.39927595,-0.29461716,0.411327,0.38764372,-0.28704209,0.405259
0.38541784,-0.42109028,0.461191,0.38533822,-0.38196343,0.451475,0.3743032,-0.4238098,0.465009,0.34190958,-0.39168435,0.458796,0.31919946,-0.37000889,0.457976,0.31444546,-0.35395718,0.460838,0.36352537,-0.33251006,0.449469,0.34218704,-0.29695684,0.435739,0.33135939,-0.2787869,0.428874,0.31919822,-0.26035336,0.422634,0.38012827,-0.33056375,0.441695,0.3583885,-0.29266501,0.426278,0.34474924,-0.26990662,0.417284,0.33417594,-0.24960958,0.41086,0.3946379,-0.33392702,0.436249,0.37910365,-0.28853634,0.420502,0.3678429,-0.27232979,0.412446,0.35680209,-0.25655708,0.405122,0.41378444,-0.34703076,0.431572,0.40935327,-0.29945799,0.416565,0.39732602,-0.2928099,0.40967,0.38602706,-0.28558828,0.403586
0.3859596,-0.42098624,0.462017,0.38268068,-0.38027553,0.450961,0.37186051,-0.41370172,0.466117,0.34084719,-0.39045112,0.460054,0.3159995,-0.3658873,0.456093,0.30854691,-0.35003189,0.457244,0.36045175,-0.32929617,0.448366,0.33811177,-0.29315977,0.433776,0.3256078,-0.27265645,0.426481,0.31665532,-0.25808146,0.41985,0.37633058,-0.32694518,0.439833,0.35365606,-0.28689026,0.423339,0.34004594,-0.26176338,0.413718,0.33059889,-0.24517386,0.406846,0.39031724,-0.33005881,0.433892,0.37301657,-0.28112707,0.41719,0.36152598,-0.26383092,0.408645,0.35097069,-0.24679566,0.400877,0.40848234,-0.3430936,0.42887,0.40464792,-0.29514577,0.41367,0.39367908,-0.28889824,0.406686,0.38269005,-0.28027449,0.400524
0.38344132,-0.42114398,0.459527,0.37279174,-0.37021508,0.448872,0.36745356,-0.40667302,0.463779,0.33339651,-0.38157476,0.45799,0.30988306,-0.35806528,0.455443,0.30296644,-0.33653139,0.458197,0.35042792,-0.3212952,0.446753,0.33103224,-0.28284586,0.432292,0.32071864,-0.26361536,0.425061,0.31060672,-0.24840548,0.418488,0.36676202,-0.31853891,0.438147,0.34510851,-0.27846588,0.421874,0.3323014,-0.25451509,0.412381,0.32712072,-0.23648911,0.405601,0.38112827,-0.32125243,0.432106,0.36575779,-0.27451084,0.41546,0.35529081,-0.2573404,0.406944,0.34604312,-0.24068714,0.399201,0.39975128,-0.33363578,0.426897,0.39756976,-0.28501153,0.412297,0.38721755,-0.27989074,0.405588,0.37956141,-0.27343605,0.399669
0.37939968,-0.4159232,0.460394,0.36102479,-0.36397501,0.447467,0.36176261,-0.40270926,0.463882,0.3216191,-0.37545078,0.45668,0.29699573,-0.34994615,0.451939,0.28655229,-0.33042316,0.449869,0.33606033,-0.31359549,0.442766,0.31277745,-0.27493267,0.426539,0.30103187,-0.25534259,0.418426,0.28919171,-0.23998152,0.41105,0.35318116,-0.31089221,0.434456,0.33065575,-0.26871225,0.415782,0.31706864,-0.24436468,0.404889,0.30608727,-0.22947661,0.397108,0.36828659,-0.31374792,0.428884,0.34816265,-0.2680955,0.410466,0.33654826,-0.2472664,0.401044,0.32458486,-0.23163784,0.392477,0.38802621,-0.3264481,0.42462,0.37818651,-0.27920207,0.406909,0.36772586,-0.26918963,0.398771,0.35841083,-0.26022476,0.391591
0.35493076,-0.41021793,0.454741,0.34200875,-0.35470171,0.441952,0.33060329,-0.39198711,0.457317,0.29979483,-0.3627748,0.4499,0.27603044,-0.34034606,0.446971,0.26500665,-0.3212677,0.444526,0.32000297,-0.30312667,0.436184,0.29609962,-0.26355473,0.421303,0.28385776,-0.24392589,0.413862,0.27108482,-0.22979656,0.407097,0.33782218,-0.30464876,0.42908,0.31624467,-0.26150043,0.410584,0.30311568,-0.23671554,0.399794,0.29291839,-0.22021496,0.392087,0.35316613,-0.31081387,0.424486,0.33294734,-0.26345722,0.407614,0.32130039,-0.24163055,0.398982,0.30974045,-0.22371265,0.391134,0.37233824,-0.32698101,0.421344,0.36402442,-0.27952072,0.40756,0.35503065,-0.26840585,0.401226,0.34699032,-0.25838533,0.395638
0.33833267,-0.39987635,0.449428,0.32938209,-0.3459894,0.438525,0.32356998,-0.3879026,0.453289,0.28912063,-0.35688944,0.446925,0.26487566,-0.33445467,0.443934,0.25221091,-0.315507,0.440198,0.30711551,-0.29740487,0.435732,0.28129499,-0.26000389,0.422596,0.26810224,-0.2412756,0.416028,0.25599626,-0.22406239,0.410057,0.32394903,-0.29531194,0.42755,0.29920222,-0.25288693,0.411108,0.28336537,-0.23022288,0.401516,0.27189047,-0.21372569,0.394665,0.33861165,-0.29848646,0.421884,0.31694503,-0.25280219,0.406448,0.30350066,-0.23415434,0.398551,0.29108499,-0.21683765,0.391371,0.35734027,-0.31119976,0.417157,0.3453361,-0.26405106,0.403,0.33476006,-0.25271975,0.396495,0.32527912,-0.24251038,0.390756
0.32264689,-0.38758239,0.440196,0.31035205,-0.33278677,0.431311,0.30808645,-0.3779697,0.445037,0.27197027,-0.34835872,0.440364,0.24809586,-0.3292127,0.440129,0.23564633,-0.31188466,0.438645,0.2876211,-0.28843947,0.4312,0.26162593,-0.25191178,0.418817,0.24805165,-0.2339572,0.412625,0.23554986,-0.21739777,0.406997,0.30327562,-0.28335403,0.422368,0.27578827,-0.24466702,0.408024,0.25939997,-0.22150129,0.399656,0.24751543,-0.20465227,0.393679,0.31714247,-0.28390417,0.415969,0.29366658,-0.24057797,0.401857,0.28061005,-0.21960674,0.394637,0.26692045,-0.20369081,0.388074,0.3352815,-0.29327374,0.41003,0.32671723,-0.24704776,0.397099,0.31575361,-0.2360886,0.391158,0.30588407,-0.22618471,0.385916
0.29946556,-0.37271779,0.446369,0.28969032,-0.32137635,0.432897,0.28384531,-0.36158482,0.449761,0.25095961,-0.33500918,0.442344,0.22543768,-0.31463444,0.439619,0.21471994,-0.29689535,0.438708,0.26354854,-0.27297598,0.427687,0.23541297,-0.23396375,0.412395,0.21922464,-0.21790766,0.404749,0.20424989,-0.2030554,0.397797,0.27987732,-0.27108226,0.419338,0.25144365,-0.22862146,0.400522,0.23371566,-0.20498419,0.389546,0.22020156,-0.18906974,0.381706,0.29453911,-0.27442777,0.413786,0.26853399,-0.22807299,0.3969,0.2536247,-0.20661518,0.38826,0.23785396,-0.19151603,0.380407,0.31390846,-0.28729027,0.40964,0.30113663,-0.23969447,0.39344,0.28892239,-0.22777705,0.385996,0.27797001,-0.21706321,0.379428
0.29432826,-0.36724797,0.445304,0.27737338,-0.31264432,0.431687,0.27930574,-0.35737117,0.449768,0.24166337,-0.32970768,0.443815,0.21336594,-0.30975994,0.438667,0.19704464,-0.2918187,0.432967,0.24976523,-0.26657744,0.427743,0.2182925,-0.23017332,0.414646,0.20242562,-0.2118166,0.408097,0.18792028,-0.19503269,0.402144,0.26482855,-0.2632514,0.417982,0.23490993,-0.22086922,0.399424,0.21622539,-0.19729739,0.388599,0.20271729,-0.18022906,0.380867,0.27863515,-0.26532308,0.411281,0.251396,-0.21994189,0.394998,0.23445349,-0.20105182,0.386667,0.21851616,-0.18421186,0.379093,0.29734093,-0.27647077,0.405817,0.28492353,-0.23017913,0.391713,0.27190451,-0.21977673,0.385233,0.26016002,-0.21039396,0.379515
0.28597469,-0.36029364,0.438084,0.26453716,-0.30738163,0.427596,0.26713789,-0.35006745,0.443438,0.23796283,-0.32895336,0.442827,0.21072367,-0.30845257,0.438455,0.19618755,-0.29116084,0.435108,0.23647925,-0.266209,0.427005,0.20843057,-0.22754545,0.41387,0.19432714,-0.20809774,0.407302,0.17784077,-0.19689196,0.401332,0.25080461,-0.25834054,0.417039,0.21989543,-0.21768668,0.401483,0.201595,-0.19358323,0.392409,0.18838771,-0.17617151,0.385927,0.26413865,-0.25655011,0.409864,0.23765912,-0.21227337,0.394004,0.22208572,-0.19193747,0.38589,0.20690647,-0.17448636,0.378513,0.28265482,-0.26301945,0.403297,0.26988929,-0.21624068,0.388062,0.25569067,-0.20846205,0.381062,0.24285103,-0.20146926,0.374886
0.26242926,-0.33907409,0.437083,0.24801838,-0.28943938,0.425559,0.24698643,-0.33206567,0.442026,0.21368019,-0.31019986,0.437281,0.18621968,-0.2928936,0.434833,0.17196526,-0.27647728,0.432747,0.21911327,-0.24736723,0.423709,0.18866672,-0.20988579,0.410711,0.17336151,-0.19104175,0.404213,0.1556473,-0.18526197,0.398305,0.23377755,-0.24091472,0.41396,0.20071422,-0.20047526,0.397362,0.18113512,-0.17658034,0.38768,0.16701553,-0.15933851,0.380764,0.24743616,-0.24027927,0.407065,0.2171767,-0.19794954,0.391639,0.19993165,-0.17832511,0.383746,0.18403705,-0.16022063,0.376571,0.26634009,-0.24805281,0.401007,0.24920594,-0.2023241,0.385703,0.23410375,-0.19502254,0.378671,0.22043109,-0.18846138,0.372467
0.26239476,-0.33477523,0.442841,0.23914198,-0.27910158,0.429031,0.24611499,-0.32817155,0.447515,0.2075483,-0.30290232,0.443319,0.17737224,-0.28607969,0.438327,0.16076507,-0.2693458,0.433976,0.20420013,-0.2388764,0.425218,0.17120999,-0.20200535,0.410097,0.15459988,-0.18344295,0.402537,0.13843508,-0.16766357,0.395664,0.2192995,-0.23211087,0.41513,0.18490326,-0.19136719,0.396489,0.16309501,-0.16957373,0.385615,0.14669943,-0.15478462,0.377848,0.2337644,-0.23110131,0.408181,0.20112244,-0.18942616,0.39042,0.1843282,-0.16797212,0.381333,0.16607843,-0.15347935,0.373073,0.25435709,-0.23812607,0.402459,0.23073453,-0.19529786,0.384944,0.21574854,-0.18332498,0.376897,0.20227781,-0.17256826,0.369796
0.24966405,-0.3263997,0.440985,0.22208044,-0.27946874,0.427993,0.23214605,-0.32040279,0.444922,0.19194304,-0.29941034,0.441224,0.16490744,-0.28037448,0.43797,0.15017879,-0.2630434,0.43459,0.1863677,-0.23922975,0.423818,0.16227177,-0.19865439,0.413481,0.14595904,-0.18212783,0.408312,0.130822,-0.1668016,0.403613,0.20310639,-0.23165672,0.414916,0.17180516,-0.187229,0.396699,0.15193695,-0.16306339,0.386072,0.13642363,-0.14738383,0.378481,0.21882488,-0.23003556,0.408863,0.18909028,-0.18497562,0.391552,0.17157772,-0.1647973,0.382695,0.15506022,-0.14691479,0.374643,0.24077089,-0.23644897,0.404046,0.21831615,-0.1920427,0.387166,0.20356763,-0.17953446,0.379409,0.19030962,-0.16829362,0.372566
0.23877178,-0.31881353,0.438509,0.21299438,-0.26589645,0.425586,0.21995042,-0.31419693,0.441703,0.1855196,-0.2900553,0.439253,0.15704455,-0.27485892,0.437017,0.14021311,-0.25912213,0.433308,0.17148089,-0.23027039,0.420511,0.14791509,-0.18974615,0.410352,0.13116671,-0.17390738,0.405272,0.11553911,-0.15914518,0.400654,0.18842627,-0.22048486,0.412578,0.15683079,-0.17564549,0.394165,0.13477981,-0.15441788,0.383424,0.11762364,-0.14235259,0.375752,0.20488727,-0.21680562,0.407315,0.17354496,-0.17297293,0.390881,0.15462005,-0.15433888,0.382473,0.13714011,-0.13712841,0.374829,0.22868287,-0.22038963,0.403414,0.20469375,-0.17675896,0.386396,0.1897745,-0.1708647,0.378577,0.17622402,-0.1655808,0.371678
0.23222994,-0.31522677,0.435607,0.20306113,-0.26559438,0.424958,0.21149805,-0.30796784,0.440627,0.17443015,-0.28814877,0.439341,0.14762796,-0.27050291,0.437245,0.1334192,-0.25394818,0.435017,0.1685234,-0.22855274,0.423827,0.14409804,-0.18786248,0.412645,0.12771866,-0.17086879,0.407054,0.11422174,-0.15738941,0.401971,0.18407044,-0.21947324,0.414239,0.15234719,-0.17655684,0.398422,0.13214149,-0.15294056,0.389196,0.11755832,-0.13589554,0.382605,0.19880602,-0.21644499,0.407391,0.17352231,-0.17213095,0.392139,0.15410032,-0.15591526,0.384336,0.13598968,-0.14080984,0.377242,0.21958597,-0.22090989,0.401235,0.19692915,-0.17859038,0.386201,0.18237301,-0.16478329,0.379294,0.16928058,-0.15236129,0.373199
0.21352232,-0.31370355,0.437518,0.1893515,-0.2664488,0.426992,0.18842012,-0.30758761,0.442743,0.15888102,-0.28549551,0.441337,0.13338923,-0.26565729,0.438892,0.12066027,-0.24802955,0.436605,0.15983226,-0.22610276,0.426208,0.14157601,-0.18497432,0.417373,0.12278815,-0.17350555,0.412956,0.10499666,-0.1626878,0.40894,0.17486571,-0.21953571,0.416397,0.14577891,-0.17553475,0.40076,0.126974,-0.15108976,0.391639,0.11584232,-0.13512558,0.385124,0.18878221,-0.21867218,0.409353,0.16070647,-0.17512862,0.395313,0.14457173,-0.15413903,0.38813,0.128207,-0.13636129,0.3816,0.20785601,-0.22587127,0.402946,0.19435633,-0.18197007,0.389941,0.18057559,-0.1683148,0.383967,0.16993903,-0.15531028,0.378695
0.20270904,-0.3141773,0.438979,0.18815267,-0.26677343,0.42811,0.1871142,-0.30774664,0.444122,0.15795532,-0.2853077,0.442877,0.13244193,-0.26454868,0.439607,0.11919468,-0.24657983,0.436566,0.15847503,-0.22600517,0.426981,0.14002846,-0.18445564,0.417505,0.12116286,-0.17294087,0.412767,0.10330881,-0.16208928,0.40846,0.17366477,-0.21973679,0.417172,0.14575028,-0.17485159,0.40121,0.12717179,-0.15027093,0.3919,0.11512142,-0.13410004,0.385249,0.18770079,-0.21913488,0.410162,0.1596877,-0.17555028,0.395959,0.14356354,-0.15453608,0.388691,0.12719425,-0.13675009,0.382085,0.2068963,-0.22666156,0.403856,0.19366642,-0.18281103,0.391057,0.17999196,-0.1692834,0.385176,0.16919169,-0.15643271,0.379987
0.19900933,-0.31448739,0.440851,0.17772063,-0.26534956,0.430677,0.18014293,-0.30659462,0.44568,0.14829287,-0.28102952,0.445854,0.12508108,-0.25831301,0.443068,0.1130855,-0.23922532,0.439629,0.14964629,-0.2235839,0.429639,0.13258989,-0.18113703,0.419216,0.11396232,-0.16913357,0.414004,0.099106009,-0.15999462,0.409266,0.16551785,-0.2184832,0.420438,0.14084612,-0.17241171,0.404964,0.12358213,-0.14733999,0.395938,0.11273061,-0.13150384,0.38949,0.17989962,-0.21883851,0.413861,0.15564557,-0.17340316,0.399631,0.14139707,-0.1513427,0.392351,0.12693567,-0.13532221,0.385733,0.19909067,-0.22747331,0.40794,0.18761023,-0.18332383,0.394906,0.17446133,-0.16939736,0.388918,0.16536545,-0.15796238,0.383634
0.19707806,-0.31484367,0.442835,0.17670271,-0.26515616,0.431854,0.17836924,-0.30662063,0.447389,0.14822362,-0.28160041,0.44804,0.125007,-0.25906946,0.445388,0.11171202,-0.24021153,0.440995,0.14827581,-0.22308033,0.429893,0.13138256,-0.18135129,0.420635,0.11259719,-0.16972141,0.416006,0.094740032,-0.15892013,0.411797,0.16372583,-0.21791626,0.420802,0.13220215,-0.17353025,0.404532,0.11203079,-0.15018323,0.395041,0.096907553,-0.13369881,0.388262,0.17787262,-0.21825156,0.414395,0.15037478,-0.17222123,0.399932,0.13432375,-0.1512859,0.392533,0.11732056,-0.13431703,0.385806,0.19698986,-0.22695022,0.408813,0.18223609,-0.18165041,0.395311,0.16773099,-0.16897752,0.389107,0.15845346,-0.15754083,0.383633
0.19548048,-0.31435892,0.443044,0.1762707,-0.26495266,0.43202,0.17726005,-0.30625251,0.447688,0.14806721,-0.28153755,0.448366,0.12485265,-0.25905279,0.445699,0.11113616,-0.24028972,0.44099,0.14787718,-0.22299841,0.430142,0.13106118,-0.18153477,0.421368,0.11222418,-0.17004234,0.41698,0.094302466,-0.15936181,0.412992,0.16312957,-0.21772757,0.420923,0.13223973,-0.17357958,0.404647,0.11206227,-0.15022543,0.395152,0.09693451,-0.133736,0.38837,0.17712995,-0.21797337,0.414416,0.15037366,-0.17221993,0.399929,0.13431828,-0.15127974,0.392517,0.11731235,-0.13430763,0.385779,0.19610525,-0.22656442,0.408724,0.18230017,-0.18171429,0.39545,0.16783617,-0.16908348,0.389351,0.15720878,-0.15791996,0.383969
0.19449876,-0.313708,0.442942,0.17600183,-0.26465338,0.431995,0.17659123,-0.30572338,0.447577,0.14779064,-0.28136271,0.448238,0.12430899,-0.25893397,0.445377,0.11030919,-0.24020392,0.440456,0.14722026,-0.22289805,0.43016,0.12892943,-0.1812387,0.42125,0.10981468,-0.16997949,0.416795,0.092997481,-0.15948065,0.412745,0.16252335,-0.21755523,0.420976,0.13209398,-0.17328407,0.404763,0.11206206,-0.14977548,0.395306,0.097042768,-0.13317121,0.38855,0.17659843,-0.21773082,0.414489,0.15095377,-0.17154671,0.399781,0.13493378,-0.15056115,0.392257,0.12000502,-0.13341571,0.385416,0.19571529,-0.22621878,0.408808,0.18186511,-0.18138328,0.395317,0.16749165,-0.16844053,0.389118,0.15637149,-0.15714207,0.383649
0.18799084,-0.310019,0.442671,0.16858076,-0.25466811,0.43095,0.17304155,-0.30350846,0.44843,0.13637425,-0.27384058,0.445541,0.10990135,-0.25451665,0.44265,0.097531884,-0.23691518,0.440327,0.14056984,-0.21328027,0.430002,0.11080919,-0.17615345,0.419816,0.094780782,-0.15821221,0.414723,0.080113191,-0.14179829,0.410093,0.15496767,-0.2072381,0.419153,0.12403421,-0.16442182,0.402696,0.10569252,-0.13917858,0.393097,0.090080959,-0.12305684,0.38624,0.16821638,-0.2068559,0.411371,0.14039449,-0.16320625,0.397242,0.12218889,-0.14399836,0.390013,0.10331338,-0.12901755,0.383442,0.186274,-0.21467707,0.404309,0.16563575,-0.17428224,0.393377,0.15306483,-0.15777158,0.388354,0.14135064,-0.14350234,0.383922
0.18696486,-0.30865258,0.442494,0.16853186,-0.25459425,0.430825,0.17207066,-0.30215317,0.448298,0.13630232,-0.27369614,0.445306,0.10982836,-0.25434761,0.442356,0.097482933,-0.23679627,0.440106,0.14056003,-0.21326539,0.429972,0.11082028,-0.17617107,0.419858,0.094798608,-0.15824196,0.414801,0.080134875,-0.14183668,0.410204,0.15494105,-0.2072025,0.419081,0.12403143,-0.16441815,0.402687,0.10569951,-0.13918779,0.393123,0.09009332,-0.12307372,0.386293,0.16817058,-0.20679958,0.411259,0.14038954,-0.1632005,0.397228,0.12220048,-0.14401202,0.39005,0.10333548,-0.12904514,0.383524,0.1861966,-0.21458787,0.404141,0.16560712,-0.17425211,0.393309,0.15305616,-0.15776264,0.388332,0.14135726,-0.14350907,0.38394
0.18632153,-0.30782441,0.44258,0.16854868,-0.25461966,0.430868,0.17144198,-0.30129895,0.448373,0.13629712,-0.27368569,0.445289,0.1098122,-0.25431023,0.442291,0.097475402,-0.23677798,0.440072,0.14055938,-0.2132644,0.42997,0.11081025,-0.17615513,0.41982,0.094785847,-0.1582206,0.414745,0.080120615,-0.14181143,0.410131,0.15494068,-0.20720201,0.41908,0.1240185,-0.164401,0.402645,0.10568204,-0.13916478,0.393058,0.090073963,-0.12304728,0.38621,0.16817222,-0.2068016,0.411263,0.14038565,-0.16319598,0.397217,0.12219422,-0.14400466,0.39003,0.10332795,-0.12903573,0.383496,0.1862049,-0.21459743,0.404159,0.16560794,-0.174253,0.393311,0.15305379,-0.1577602,0.388326,0.14135285,-0.14350458,0.383928
0.19804217,-0.28801476,0.438681,0.17535223,-0.24368086,0.428989,0.1802396,-0.28651237,0.443435,0.14653048,-0.27023228,0.442383,0.12241929,-0.2566166,0.441768,0.10764077,-0.23976146,0.439149,0.1393289,-0.21210395,0.428196,0.11114796,-0.17594809,0.420955,0.095988337,-0.15822477,0.417334,0.082046879,-0.14194286,0.414042,0.15287704,-0.19980949,0.419235,0.11708971,-0.15985463,0.404154,0.095252211,-0.13710389,0.395357,0.078929861,-0.1212276,0.389073,0.16790619,-0.19459948,0.412808,0.13495326,-0.15377105,0.398705,0.11481996,-0.13616562,0.39149,0.096125096,-0.11983228,0.38493,0.18961535,-0.19608756,0.406978,0.16080261,-0.15791353,0.393049,0.14478496,-0.14388129,0.386649,0.13041358,-0.1312962,0.381002
0.18928443,-0.29889092,0.443695,0.17830798,-0.24530085,0.431846,0.17267297,-0.29286028,0.447604,0.14538862,-0.26940455,0.441148,0.12108196,-0.25590068,0.441173,0.10324438,-0.2380429,0.438301,0.14515632,-0.20727146,0.428444,0.1150853,-0.1684213,0.414388,0.099975676,-0.14890242,0.407361,0.087781157,-0.15151923,0.400972,0.16229692,-0.19838905,0.419919,0.12823495,-0.15703564,0.402673,0.10806813,-0.13269592,0.392613,0.090638237,-0.12103855,0.385427,0.17818276,-0.19557484,0.414063,0.14490502,-0.15482375,0.397503,0.12767559,-0.13371793,0.389031,0.10890685,-0.11994431,0.381328,0.20010316,-0.20036874,0.409279,0.16943701,-0.16345493,0.394131,0.15368235,-0.14909303,0.387171,0.14005286,-0.1410376,0.38103
0.18827897,-0.3016191,0.438628,0.18224144,-0.25568855,0.431,0.17529564,-0.29711091,0.443366,0.14901563,-0.27478918,0.438785,0.12453294,-0.25700896,0.439876,0.11082718,-0.239796,0.439087,0.14895008,-0.22277591,0.431648,0.125346,-0.18108932,0.421446,0.10914818,-0.16187319,0.416344,0.095823537,-0.14451827,0.411707,0.1681427,-0.2101488,0.423323,0.14237178,-0.16545005,0.410168,0.12756816,-0.13980201,0.402494,0.11213291,-0.1320223,0.397013,0.18396871,-0.20659628,0.417217,0.15425651,-0.16527003,0.40522,0.13891047,-0.14391706,0.399082,0.12458947,-0.12453641,0.393501,0.20517422,-0.21026472,0.411402,0.18685527,-0.1680504,0.398097,0.17848956,-0.14881037,0.391983,0.16615513,-0.14217075,0.386589
0.22302807,-0.29305433,0.442838,0.20345483,-0.245889,0.431056,0.20178034,-0.28819014,0.444067,0.16759118,-0.26727131,0.438281,0.14076586,-0.25205367,0.437808,0.13082409,-0.23876284,0.440196,0.16337675,-0.2073339,0.424279,0.14359466,-0.17475746,0.425852,0.13378207,-0.1585975,0.426639,0.11837463,-0.14987228,0.427354,0.18409906,-0.19941234,0.419197,0.15222966,-0.15644709,0.401179,0.13246941,-0.13257152,0.390669,0.1181282,-0.11523329,0.383161,0.20308553,-0.19736428,0.416168,0.17308757,-0.15299924,0.399217,0.15522735,-0.13462566,0.390544,0.1383615,-0.11903007,0.38266,0.2288727,-0.20299353,0.414683,0.20583932,-0.16163205,0.397914,0.19526749,-0.14265425,0.39021,0.18459145,-0.13755135,0.383412
0.24977092,-0.29404381,0.443149,0.23202417,-0.24820436,0.433755,0.22928375,-0.28937439,0.445138,0.19710989,-0.26793451,0.441021,0.16648445,-0.24513209,0.430986,0.15470444,-0.22966616,0.431337,0.19398151,-0.21062876,0.429641,0.16702465,-0.17245211,0.419802,0.15339581,-0.15314089,0.414883,0.14091312,-0.13544771,0.410411,0.21440258,-0.20283195,0.4243,0.18609942,-0.15825902,0.408615,0.16963456,-0.13234078,0.399465,0.15958121,-0.1150832,0.397123,0.23298027,-0.20079068,0.420824,0.20227126,-0.15970191,0.406459,0.18609394,-0.13882558,0.399109,0.17121243,-0.11959596,0.392427,0.25796509,-0.20625487,0.418398,0.24004535,-0.16436495,0.40363,0.23095128,-0.14627699,0.396845,0.22167802,-0.14321361,0.390858
0.27991269,-0.29555735,0.447043,0.260844,-0.24868591,0.436249,0.25730887,-0.29024436,0.447033,0.22246177,-0.26726372,0.43978,0.19426746,-0.24868205,0.435359,0.17718412,-0.23033244,0.426801,0.21930106,-0.20963377,0.42859,0.20270099,-0.17643567,0.432727,0.19435877,-0.15975749,0.434795,0.18675101,-0.14455046,0.436675,0.24194301,-0.202451,0.425385,0.21528127,-0.15614525,0.407922,0.1986314,-0.13200175,0.397735,0.18654321,-0.11440521,0.390459,0.26243232,-0.2009958,0.423805,0.2351432,-0.15687883,0.406977,0.22111122,-0.1341566,0.398368,0.20830913,-0.11340255,0.390541,0.2898502,-0.20726785,0.423843,0.27953516,-0.16316328,0.408058,0.27228922,-0.16326361,0.400806,0.26662869,-0.17487565,0.394406
0.32506739,-0.3086257,0.455469,0.30534157,-0.25912583,0.443678,0.29958361,-0.30108974,0.452148,0.26364693,-0.27291404,0.440731,0.23348749,-0.25030299,0.432222,0.22118523,-0.23597576,0.432807,0.26133814,-0.21749129,0.431085,0.24240974,-0.177423,0.420688,0.23283388,-0.15708146,0.415489,0.22635688,-0.15061752,0.410763,0.28627937,-0.21221095,0.43181,0.26253061,-0.17170173,0.412741,0.24842603,-0.14736778,0.401617,0.2382216,-0.12962179,0.393672,0.30879781,-0.21228084,0.433564,0.28336147,-0.1697214,0.414814,0.27023083,-0.14762438,0.405221,0.26371566,-0.1429562,0.396501,0.339029,-0.22036825,0.437679,0.32038745,-0.18778653,0.419684,0.3117254,-0.1723347,0.411415,0.30402571,-0.15841329,0.40412
0.35903145,-0.30791564,0.459287,0.34255427,-0.25607727,0.44557,0.33323308,-0.29626762,0.454485,0.29397005,-0.26865291,0.439359,0.26118828,-0.24611431,0.428348,0.24470719,-0.22675823,0.419196,0.30028631,-0.20884145,0.429721,0.2826052,-0.17212547,0.426311,0.27356149,-0.15330194,0.424606,0.26690414,-0.1467585,0.423056,0.32639238,-0.20703641,0.431763,0.30081367,-0.17364366,0.410698,0.28555418,-0.15334651,0.398411,0.27447177,-0.1384084,0.389634,0.35004881,-0.21017144,0.43479,0.32419467,-0.16613738,0.413932,0.31090929,-0.14339335,0.40326,0.29879449,-0.12257566,0.393559,0.381703,-0.22246986,0.440732,0.36943718,-0.17652755,0.42271,0.36161119,-0.17147919,0.41443,0.35456466,-0.16832763,0.407123
0.35587002,-0.29978262,0.445997,0.346801,-0.25123982,0.434482,0.32951029,-0.28850022,0.440245,0.30001415,-0.26189587,0.429664,0.27518645,-0.24307563,0.428491,0.25997505,-0.22320722,0.420684,0.30219519,-0.20479785,0.41898,0.29442927,-0.16557877,0.418207,0.29057446,-0.14611914,0.417821,0.28937823,-0.13345509,0.417469,0.33054656,-0.20313758,0.422893,0.32248971,-0.16075394,0.422872,0.31778256,-0.1359907,0.42286,0.31441736,-0.11828495,0.422852,0.35567474,-0.20637399,0.427243,0.33131038,-0.15692848,0.40793,0.32609149,-0.14704248,0.398048,0.32149582,-0.13773409,0.389065,0.38837546,-0.2185199,0.434351,0.37766182,-0.1740531,0.418912,0.37614912,-0.16959654,0.411819,0.37502046,-0.16560022,0.40556
0.38850047,-0.30457915,0.447908,0.37862503,-0.25384307,0.43662,0.3629552,-0.2900899,0.442727,0.335329,-0.26465154,0.440545,0.32705176,-0.25584558,0.456703,0.32146544,-0.24275069,0.460309,0.34061631,-0.20343271,0.422007,0.33135306,-0.16674441,0.422361,0.32875748,-0.15258042,0.422538,0.3280799,-0.14524365,0.422699,0.3686905,-0.2056417,0.425258,0.3606917,-0.16142594,0.418654,0.35599309,-0.13503924,0.414802,0.35262149,-0.1159063,0.412051,0.39324848,-0.21208022,0.429041,0.3715158,-0.16695253,0.409844,0.36552468,-0.15915131,0.400022,0.36024213,-0.1518456,0.391093,0.4246562,-0.22818141,0.435445,0.4224336,-0.18782152,0.42563,0.4230014,-0.17628225,0.42112,0.42372083,-0.16568801,0.417141
0.4125749,-0.29415175,0.441267,0.4118602,-0.24943713,0.437839,0.38978026,-0.28018259,0.438792,0.3568821,-0.25154836,0.430948,0.33276852,-0.22926889,0.427744,0.32398537,-0.21472323,0.430596,0.38357036,-0.20411387,0.432249,0.36760909,-0.16828965,0.421232,0.35947527,-0.1496172,0.415724,0.35198069,-0.1321489,0.410716,0.41098173,-0.20713114,0.434388,0.41312693,-0.16801468,0.43799,0.41556457,-0.14503649,0.440091,0.41732342,-0.12771602,0.441592,0.43424619,-0.21371689,0.436485,0.42162983,-0.16983313,0.424983,0.41560907,-0.14774496,0.419098,0.41013084,-0.12714073,0.413748,0.46270904,-0.22909851,0.43954,0.46363269,-0.19074283,0.431915,0.46488635,-0.17603574,0.428412,0.46592797,-0.16393294,0.425321
0.43537941,-0.30536979,0.444283,0.43373211,-0.25778916,0.437155,0.41446952,-0.29096458,0.443322,0.3848156,-0.25761163,0.431551,0.36274431,-0.23558931,0.430807,0.36096257,-0.22539226,0.439271,0.4068943,-0.20959505,0.430878,0.42286656,-0.18281292,0.450622,0.43081988,-0.16863961,0.460495,0.43803032,-0.15549811,0.469469,0.43174603,-0.21251669,0.42998,0.42031014,-0.1703119,0.415635,0.41378206,-0.14584562,0.407266,0.4091714,-0.12781105,0.401289,0.4528727,-0.21931612,0.429941,0.44311883,-0.17130382,0.415841,0.43856973,-0.1574748,0.408627,0.43460629,-0.14430824,0.402069,0.47883815,-0.23542405,0.43114,0.47962957,-0.19820734,0.425981,0.48156979,-0.18450139,0.423611,0.48342409,-0.17239918,0.42152
0.47176936,-0.30108718,0.440619,0.46700762,-0.25609817,0.437522,0.44861947,-0.28918164,0.439692,0.41842024,-0.25769208,0.432577,0.39950181,-0.23680797,0.434816,0.39510073,-0.22504324,0.441323,0.43581342,-0.21306492,0.434145,0.42545271,-0.17395809,0.424475,0.42026079,-0.15379738,0.41964,0.41553403,-0.13508537,0.415245,0.46230722,-0.21354776,0.434405,0.4563642,-0.17199651,0.423828,0.45306539,-0.14660854,0.417658,0.45079442,-0.12789174,0.413251,0.48514199,-0.21802506,0.434922,0.47682528,-0.17149179,0.424498,0.47430156,-0.15357671,0.419165,0.47217051,-0.13654348,0.414316,0.51375961,-0.23088358,0.43607,0.50907569,-0.19369088,0.428678,0.50906527,-0.18528283,0.425281,0.50926199,-0.17751545,0.422285
0.50530797,-0.28502682,0.450371,0.50993858,-0.2430754,0.450107,0.4856338,-0.27186813,0.451165,0.48419482,-0.23511518,0.443223,0.47874093,-0.20249721,0.437099,0.49620038,-0.18715549,0.440996,0.48888601,-0.19955895,0.450934,0.4920381,-0.16862029,0.444154,0.49428023,-0.15195457,0.440937,0.49590592,-0.13815102,0.438012,0.51438257,-0.20269634,0.449842,0.51442098,-0.17223493,0.44229,0.51511751,-0.15271365,0.437972,0.51603171,-0.137841,0.43498,0.53541868,-0.20923402,0.448968,0.52763962,-0.1660509,0.44185,0.5286817,-0.15429233,0.438208,0.53002595,-0.14283761,0.434897,0.56008842,-0.22420005,0.447991,0.54797166,-0.18567668,0.444155,0.55143257,-0.18093494,0.442392,0.55483024,-0.17650743,0.440837
0.5152438,-0.29883919,0.456935,0.51273766,-0.26260015,0.451646,0.49294002,-0.29397033,0.45419,0.46687765,-0.25980303,0.440758,0.44092635,-0.23984946,0.439529,0.43297983,-0.22074994,0.438296,0.4791966,-0.21641982,0.444393,0.47020486,-0.1777183,0.432048,0.46629655,-0.16020443,0.425875,0.4628413,-0.1437602,0.420263,0.50756039,-0.21960812,0.446323,0.50324058,-0.1794284,0.433362,0.50106247,-0.15488403,0.425802,0.49964394,-0.1426948,0.420402,0.53209951,-0.22639405,0.448429,0.52760628,-0.17987364,0.435735,0.52655376,-0.16239995,0.42924,0.52591255,-0.14582802,0.423335,0.56299046,-0.24216234,0.451821,0.55757874,-0.20227127,0.441282,0.55707278,-0.19491005,0.43644,0.55688509,-0.18817838,0.432168
0.52911999,-0.3150154,0.465604,0.52428157,-0.26734766,0.45639,0.50439697,-0.30007853,0.462587,0.4831306,-0.27126959,0.447889,0.45359024,-0.24383649,0.438972,0.444492,-0.22530294,0.438043,0.49018788,-0.21724112,0.44601,0.47633127,-0.17805745,0.430544,0.4694481,-0.15801089,0.422811,0.4605688,-0.14085823,0.415782,0.51779247,-0.22063349,0.447116,0.50781453,-0.18046197,0.430456,0.50254591,-0.15746422,0.420737,0.49544492,-0.14098251,0.413796,0.54170169,-0.2279954,0.44893,0.52600306,-0.18015445,0.432471,0.521879,-0.16161481,0.424049,0.52034111,-0.15059013,0.416394,0.57171256,-0.2450586,0.452665,0.56741668,-0.20466445,0.443794,0.56960185,-0.19185891,0.439718,0.57181933,-0.18013351,0.436122
0.54347165,-0.31972928,0.473064,0.54264472,-0.27031047,0.462707,0.52058115,-0.30484468,0.470876,0.50382772,-0.27594038,0.456905,0.47202419,-0.24584728,0.444443,0.46458544,-0.22760257,0.444546,0.51079341,-0.21936992,0.452577,0.49581463,-0.18039436,0.436833,0.48836632,-0.16044534,0.428961,0.48162197,-0.14201283,0.421805,0.53718009,-0.22308566,0.452283,0.52613353,-0.17865374,0.434732,0.51983984,-0.15218249,0.424493,0.51554692,-0.13349579,0.41718,0.55996744,-0.2307945,0.453056,0.54590064,-0.18488417,0.436,0.53999335,-0.16490698,0.427273,0.53550473,-0.15169666,0.41934,0.58840945,-0.24837726,0.455773,0.57907393,-0.20594497,0.444465,0.5785638,-0.19360943,0.43927,0.57827436,-0.18479387,0.434686
0.54021698,-0.3198482,0.471335,0.5426801,-0.27366652,0.4634,0.52082546,-0.3058855,0.470354,0.49570331,-0.27360297,0.458396,0.47235892,-0.24458087,0.444663,0.46384671,-0.22472071,0.442362,0.5146648,-0.22688788,0.456535,0.50798619,-0.18827327,0.442891,0.504805,-0.16838779,0.436069,0.50201444,-0.14993801,0.429867,0.53996954,-0.23106661,0.455426,0.53625159,-0.18583487,0.440304,0.5343311,-0.16127664,0.431484,0.53290301,-0.14575272,0.425183,0.56151169,-0.23899227,0.45529,0.55722269,-0.1932689,0.440248,0.55539782,-0.17059612,0.432552,0.55388601,-0.14962724,0.425556,0.58793772,-0.25656101,0.456518,0.59369984,-0.2199123,0.452109,0.5991015,-0.20364897,0.450083,0.60405536,-0.18894226,0.448295
0.54156418,-0.31992417,0.468362,0.54624688,-0.27796197,0.463714,0.52000163,-0.30514212,0.467045,0.50118189,-0.27451083,0.455468,0.47336505,-0.24424751,0.444688,0.46502996,-0.2248796,0.443116,0.52356179,-0.23044869,0.458746,0.51933322,-0.18909898,0.447542,0.5173106,-0.1680412,0.44194,0.51553009,-0.1486589,0.436848,0.54998645,-0.23538427,0.459043,0.54654512,-0.19022605,0.446948,0.54652755,-0.16502622,0.439893,0.54810884,-0.14654212,0.434854,0.57211168,-0.24371004,0.459744,0.56977068,-0.19807949,0.447754,0.56865838,-0.17446877,0.44162,0.56770112,-0.15283766,0.436044,0.59872813,-0.26129656,0.461377,0.59525771,-0.22082722,0.453147,0.59866477,-0.20485082,0.449366,0.60308785,-0.19764551,0.446029
0.54469346,-0.32173074,0.471722,0.54854144,-0.2767906,0.465893,0.52363335,-0.30626679,0.470323,0.50178286,-0.27297385,0.458379,0.47486338,-0.24251252,0.444956,0.46706637,-0.2226979,0.442894,0.53273542,-0.22522349,0.459989,0.52594442,-0.18527742,0.447968,0.51998522,-0.166415,0.441957,0.51761649,-0.14783747,0.436493,0.5582825,-0.2337057,0.460039,0.55766115,-0.18891834,0.44684,0.55815778,-0.16426628,0.439141,0.55892827,-0.14926912,0.433642,0.57609523,-0.24459767,0.460651,0.57479905,-0.19819034,0.447581,0.57267875,-0.17422161,0.440894,0.56922775,-0.1535571,0.434815,0.60115863,-0.26397594,0.462385,0.60312318,-0.22686819,0.455709,0.60498374,-0.20872177,0.452642,0.60935271,-0.19765879,0.449936
0.5484017,-0.32340593,0.474913,0.55496231,-0.27903142,0.468598,0.52936592,-0.30741303,0.473462,0.50839564,-0.26914261,0.46134,0.49102341,-0.24022512,0.453918,0.48648127,-0.22077102,0.453566,0.53600899,-0.22614502,0.462286,0.52892774,-0.18674218,0.449957,0.52550952,-0.16647758,0.443793,0.52081581,-0.14861888,0.438189,0.56156607,-0.23444953,0.462257,0.56003555,-0.18973869,0.448598,0.55986029,-0.16480064,0.440631,0.56010347,-0.14857053,0.434939,0.58237691,-0.24563192,0.462852,0.57733024,-0.19856074,0.44937,0.57473938,-0.17450174,0.442471,0.57198943,-0.15449789,0.4362,0.60611756,-0.26665694,0.464652,0.60597815,-0.22711874,0.457706,0.60896438,-0.21002811,0.454515,0.61191693,-0.1980325,0.451699
0.55199624,-0.32463728,0.4773,0.55776347,-0.2780616,0.470182,0.53268298,-0.30827839,0.475656,0.51136419,-0.27105649,0.463113,0.49340204,-0.2427532,0.455983,0.48744096,-0.2225382,0.453645,0.53719717,-0.22642686,0.463054,0.52955871,-0.18714939,0.44998,0.52585403,-0.16755528,0.443442,0.52108038,-0.14988516,0.437499,0.56304815,-0.23419589,0.463034,0.55991368,-0.18924495,0.448594,0.55863363,-0.16515586,0.440171,0.55530003,-0.14840484,0.434154,0.58509057,-0.2442126,0.463714,0.57778111,-0.19753366,0.449445,0.57441133,-0.17330629,0.442145,0.57136017,-0.15375335,0.435508,0.61019442,-0.26466321,0.465754,0.60697998,-0.22410861,0.457281,0.60728121,-0.20854359,0.453389,0.60917338,-0.19573336,0.449954
0.5539744,-0.32513797,0.478469,0.55929809,-0.27825092,0.470864,0.53460322,-0.30863639,0.476822,0.51286167,-0.27196373,0.464164,0.49430389,-0.24364954,0.456772,0.48772765,-0.22311276,0.45364,0.53773422,-0.22654386,0.463389,0.52980721,-0.18732918,0.449935,0.52595716,-0.16807245,0.443208,0.52125093,-0.1506508,0.437093,0.56355027,-0.23396962,0.463226,0.55953451,-0.18889079,0.448337,0.55765183,-0.165225,0.439651,0.55450446,-0.14862708,0.433447,0.58557223,-0.2438305,0.463837,0.57755202,-0.19686503,0.449129,0.57375616,-0.17256126,0.441604,0.57054948,-0.15319097,0.434763,0.61094808,-0.26410006,0.46588,0.60690963,-0.22322645,0.456887,0.60690634,-0.20792927,0.452755,0.60831963,-0.19561242,0.449109
0.55543136,-0.3254798,0.479308,0.56032471,-0.27841687,0.471362,0.53598753,-0.30887313,0.477647,0.51383446,-0.27253623,0.464892,0.4948322,-0.24413597,0.457238,0.48791891,-0.22342211,0.453682,0.53810168,-0.22663315,0.463629,0.52994785,-0.18743403,0.449901,0.52598399,-0.1683716,0.443038,0.52133651,-0.15115411,0.436798,0.56390232,-0.23385501,0.463383,0.55930105,-0.18867645,0.448178,0.5570248,-0.16525521,0.439309,0.55397079,-0.14877439,0.432973,0.58589094,-0.24367147,0.46396,0.57741781,-0.19646534,0.448942,0.57333518,-0.17210646,0.441258,0.57001747,-0.15281885,0.434273,0.61142917,-0.26386268,0.466022,0.60683325,-0.22277025,0.456659,0.60668946,-0.2075311,0.452357,0.60778498,-0.19555015,0.448561
0.55869027,-0.3269403,0.48004,0.5638043,-0.28043284,0.472228,0.53830559,-0.3096511,0.477965,0.51730583,-0.28141967,0.464776,0.49536472,-0.25140161,0.454663,0.48856475,-0.22644391,0.454043,0.53641599,-0.23591591,0.464069,0.53002083,-0.1889278,0.450118,0.52649029,-0.17102268,0.443142,0.52330935,-0.15492091,0.4368,0.56257678,-0.24105048,0.46439,0.55879741,-0.19292404,0.449222,0.55774021,-0.16642189,0.440374,0.55648078,-0.15028102,0.434053,0.58532298,-0.24790004,0.465418,0.57870661,-0.20055047,0.450368,0.57561778,-0.17755015,0.442668,0.57306831,-0.15440913,0.435668,0.61359567,-0.26556807,0.467982,0.60815893,-0.2247115,0.458104,0.6092391,-0.20855002,0.453566,0.61055985,-0.19675758,0.449562
0.55949508,-0.32753237,0.479853,0.56439823,-0.2817291,0.472367,0.53904031,-0.3104794,0.477786,0.51720121,-0.28136275,0.464682,0.49528083,-0.25135903,0.454586,0.48843457,-0.22761836,0.454023,0.53685408,-0.23610858,0.464448,0.53034977,-0.18989821,0.450743,0.52706089,-0.17199953,0.44389,0.52420016,-0.1556512,0.437661,0.5631413,-0.24129236,0.464856,0.55914613,-0.19424441,0.44999,0.55848391,-0.16732395,0.441318,0.55746748,-0.1510456,0.435124,0.58581772,-0.24861923,0.465923,0.57978282,-0.20168079,0.451169,0.57706854,-0.17880776,0.443621,0.57471159,-0.15549536,0.436759,0.61397605,-0.26624416,0.468477,0.60882174,-0.22521306,0.458659,0.61018249,-0.20917964,0.454149,0.61173071,-0.19709825,0.450168
0.56080176,-0.32851063,0.480448,0.56313742,-0.28200804,0.472899,0.53943732,-0.31152431,0.478154,0.51517539,-0.27658847,0.464806,0.49514526,-0.24796052,0.456361,0.48787674,-0.22793173,0.453836,0.53722846,-0.23300301,0.464662,0.5278932,-0.18780584,0.450836,0.52643212,-0.17141363,0.443923,0.52374421,-0.15597607,0.437638,0.56520774,-0.23692578,0.465344,0.56061532,-0.19171406,0.450402,0.55860783,-0.16751478,0.441686,0.55757868,-0.15097501,0.435461,0.58759886,-0.24707716,0.466642,0.58062759,-0.19975056,0.451816,0.57720013,-0.17564348,0.44423,0.5754359,-0.15622369,0.437334,0.61297762,-0.26812917,0.469476,0.60910691,-0.22539266,0.459211,0.61049111,-0.20958981,0.454495,0.61205071,-0.19741653,0.450334
0.56401778,-0.32963959,0.482063,0.56656231,-0.28333217,0.474352,0.54348139,-0.31309564,0.479616,0.51765847,-0.28115309,0.466051,0.49557727,-0.25168911,0.455641,0.48855029,-0.23249956,0.454627,0.53837726,-0.23513908,0.465805,0.53045719,-0.19026631,0.451773,0.52582225,-0.17260727,0.444757,0.52311027,-0.15378014,0.438379,0.56664823,-0.23779057,0.466633,0.56156683,-0.19238999,0.451514,0.5593788,-0.16808903,0.442695,0.55737486,-0.15091959,0.436395,0.58939865,-0.2477227,0.468068,0.58192039,-0.20040952,0.453065,0.57828098,-0.17623102,0.445389,0.57595922,-0.15672116,0.43841,0.61518504,-0.26821836,0.471091,0.61019927,-0.22522955,0.460178,0.61114682,-0.20991313,0.455164,0.61241562,-0.1975697,0.45074
0.56516035,-0.33031853,0.483186,0.56623077,-0.28369554,0.475331,0.54355736,-0.31319295,0.480536,0.51726636,-0.28139803,0.466737,0.49471367,-0.25130089,0.456046,0.48833241,-0.23291087,0.455628,0.53778877,-0.23564356,0.466442,0.53019234,-0.19056474,0.452208,0.5243752,-0.17117885,0.445091,0.52354261,-0.15438591,0.438621,0.56517718,-0.24057802,0.467491,0.55921036,-0.19571287,0.452215,0.55862093,-0.16932721,0.443304,0.5583132,-0.1516923,0.436939,0.58803254,-0.25005687,0.46912,0.5816267,-0.20268419,0.453974,0.57834167,-0.17943097,0.446225,0.57741082,-0.15968865,0.43918,0.61490216,-0.26929974,0.472393,0.61041497,-0.22598372,0.460836,0.61131517,-0.21019696,0.455526,0.61243648,-0.19771036,0.45084
0.56768935,-0.3320295,0.484802,0.56731795,-0.28693549,0.477063,0.54570694,-0.31507167,0.482039,0.51780719,-0.2824498,0.468135,0.49409539,-0.25271702,0.458915,0.48858251,-0.23382361,0.457057,0.53459902,-0.23650745,0.468111,0.52679495,-0.19262726,0.453928,0.5243545,-0.17338937,0.446837,0.5251112,-0.15596584,0.44039,0.56142066,-0.2420649,0.469339,0.55624858,-0.19741875,0.45415,0.55431228,-0.17208134,0.44529,0.55875713,-0.15306224,0.438962,0.58397673,-0.25107767,0.471104,0.57788966,-0.20503823,0.456049,0.57596897,-0.18239128,0.448347,0.57716058,-0.16206517,0.441345,0.61326724,-0.26955236,0.474517,0.60668431,-0.22686989,0.461935,0.61087683,-0.20906865,0.456155,0.61220138,-0.19795464,0.451054
0.56770091,-0.33273834,0.484114,0.56346419,-0.28901766,0.477328,0.54660841,-0.31679235,0.482428,0.51118914,-0.2876611,0.470028,0.48814286,-0.25891477,0.461973,0.48326663,-0.23790848,0.460397,0.53146772,-0.2430248,0.470424,0.52386353,-0.20146162,0.457357,0.52128129,-0.18277053,0.450823,0.52191646,-0.1625097,0.444883,0.55958207,-0.24502055,0.470562,0.55230468,-0.20337158,0.456428,0.55023679,-0.1788648,0.448184,0.55178876,-0.15780283,0.442295,0.58154127,-0.25310529,0.471337,0.57607414,-0.20764616,0.457316,0.57234797,-0.18761023,0.450143,0.57323873,-0.16511616,0.443622,0.60921402,-0.27001506,0.473424,0.60555431,-0.22751469,0.461794,0.60710766,-0.21197669,0.45645,0.61097437,-0.19829971,0.451735
0.56498577,-0.33279516,0.481414,0.5595252,-0.29355155,0.475394,0.54472864,-0.31990065,0.480183,0.51115934,-0.29484849,0.468526,0.49032122,-0.26664387,0.462231,0.48405695,-0.24857865,0.462925,0.52549602,-0.24989404,0.46962,0.51925508,-0.20735327,0.457244,0.51920819,-0.18491858,0.451057,0.51723344,-0.16685577,0.445432,0.55134604,-0.25179244,0.469408,0.54993463,-0.20523232,0.456022,0.5487602,-0.18069204,0.448214,0.54810201,-0.16270266,0.442637,0.57359365,-0.25768344,0.469821,0.57076535,-0.21028881,0.456533,0.56983263,-0.1889632,0.449735,0.56918259,-0.16910031,0.443555,0.60339612,-0.27157322,0.471351,0.60113145,-0.229128,0.460296,0.60146473,-0.21118627,0.455217,0.60326225,-0.20050211,0.450736
0.56113919,-0.333249,0.479788,0.54715577,-0.2906021,0.473794,0.53645467,-0.32075547,0.477862,0.49768321,-0.28809672,0.465495,0.47502381,-0.25993401,0.452992,0.46424792,-0.23881262,0.447568,0.52196898,-0.24082639,0.467151,0.51305816,-0.19660111,0.454644,0.51168208,-0.1789964,0.44839,0.51292596,-0.16473455,0.442705,0.54811068,-0.24618061,0.467834,0.54560634,-0.2045605,0.454398,0.54359644,-0.17639694,0.446561,0.54490556,-0.16051775,0.440963,0.57114789,-0.2560868,0.468981,0.56561602,-0.20977319,0.455675,0.5652827,-0.18904393,0.448867,0.56675613,-0.1688322,0.442678,0.59837983,-0.27281516,0.471366,0.59287526,-0.230295,0.459823,0.59175381,-0.21079479,0.454519,0.59771118,-0.2027865,0.449839
0.56183087,-0.33594297,0.481117,0.54771906,-0.29220806,0.474665,0.53626432,-0.32398184,0.479938,0.4997549,-0.2901157,0.468249,0.47744043,-0.26152553,0.458262,0.46773418,-0.24117185,0.454642,0.51542312,-0.24646609,0.468665,0.51048726,-0.20632449,0.455955,0.50825858,-0.18631769,0.449599,0.51041627,-0.16620632,0.443822,0.54110633,-0.24916266,0.468261,0.53780701,-0.20621753,0.45453,0.53638845,-0.18145126,0.446521,0.5357619,-0.16451415,0.440799,0.5662062,-0.25518466,0.468557,0.56094281,-0.20913408,0.454873,0.56042493,-0.1888464,0.447872,0.56020952,-0.16986449,0.441507,0.59227506,-0.27174375,0.470026,0.58966412,-0.22877171,0.458081,0.58955668,-0.21541952,0.452593,0.59119979,-0.20298836,0.447751
0.55490953,-0.33814435,0.48044,0.5431995,-0.29266579,0.473895,0.52629623,-0.32474469,0.47929,0.49503926,-0.29031043,0.467614,0.47095624,-0.26285687,0.460514,0.46619199,-0.24361366,0.460136,0.51250275,-0.24542012,0.467883,0.50413046,-0.20406527,0.455188,0.50163646,-0.18500286,0.44884,0.50258382,-0.16775348,0.443069,0.53801201,-0.24833782,0.467423,0.53420455,-0.20499707,0.453603,0.53271864,-0.18063801,0.445541,0.5319639,-0.16344785,0.439783,0.55985551,-0.25505621,0.467685,0.55303704,-0.21023637,0.453958,0.55399895,-0.18840593,0.446935,0.55362035,-0.17044724,0.440551,0.58708639,-0.27087875,0.469132,0.58238874,-0.22891094,0.457216,0.58574004,-0.21320329,0.451741,0.58627177,-0.20552074,0.44691
0.54291201,-0.34011224,0.480195,0.52953342,-0.29745473,0.473325,0.52024539,-0.32706923,0.479153,0.48817978,-0.2976236,0.472707,0.4673112,-0.26861097,0.463053,0.46185553,-0.24699788,0.461248,0.50429252,-0.24841641,0.467233,0.49642656,-0.20565062,0.454197,0.49305293,-0.18548053,0.447679,0.49405658,-0.16700175,0.441754,0.52938926,-0.25281639,0.466539,0.52185226,-0.20717455,0.452448,0.51876266,-0.18331246,0.444228,0.51694771,-0.16678201,0.438356,0.55034096,-0.26087178,0.46664,0.54334337,-0.21497786,0.452686,0.54103128,-0.1936543,0.445548,0.5396294,-0.17559259,0.439058,0.57534878,-0.27835692,0.467952,0.5702769,-0.23520424,0.455459,0.57016497,-0.21931488,0.449719,0.57022405,-0.20500837,0.444655
0.54136626,-0.34207456,0.482145,0.52784683,-0.29860663,0.47459,0.51489993,-0.33027803,0.481986,0.4871807,-0.30416598,0.476452,0.4631906,-0.27613809,0.466328,0.45426681,-0.25627436,0.463368,0.49856015,-0.25217223,0.46915,0.48950688,-0.20707706,0.455476,0.48610558,-0.18765592,0.448639,0.48694829,-0.16837105,0.442423,0.52264836,-0.25431275,0.467127,0.514015,-0.20772319,0.452504,0.50971011,-0.18162172,0.443974,0.50671121,-0.1626639,0.437881,0.54280016,-0.26050758,0.466201,0.53397238,-0.21284015,0.451484,0.53062259,-0.19018999,0.443954,0.5329054,-0.17336484,0.437109,0.56689962,-0.2756953,0.46643,0.56107011,-0.23286366,0.453391,0.55982216,-0.21525554,0.4474,0.55980137,-0.20386397,0.442114
