sluyters/QuantumLeap/backend/src/datasets/gesture/HandGestureDataset_SHREC2017_csv/Gesture13/finger_1/subject_2_essai_4_skeletons_world.csv
Wrist_x,Wrist_y,Wrist_z,Palm_x,Palm_y,Palm_z,thumb_base_x,thumb_base_y,thumb_base_z,thumb_first_joint_x,thumb_first_joint_y,thumb_first_joint_z,thumb_second_joint_x,thumb_second_joint_y,thumb_second_joint_z,thumb_tip_x,thumb_tip_y,thumb_tip_z,index_base_x,index_base_y,index_base_z,index_first_joint_x,index_first_joint_y,index_first_joint_z,index_second_joint_x,index_second_joint_y,index_second_joint_z,index_tip_x,index_tip_y,index_tip_z,middle_base_x,middle_base_y,middle_base_z,middle_first_joint_x,middle_first_joint_y,middle_first_joint_z,middle_second_joint_x,middle_second_joint_y,middle_second_joint_z,middle_tip_x,middle_tip_y,middle_tip_z,ring_base_x,ring_base_y,ring_base_z,ring_first_joint_x,ring_first_joint_y,ring_first_joint_z,ring_second_joint_x,ring_second_joint_y,ring_second_joint_z,ring_tip_x,ring_tip_y,ring_tip_z,pinky_base_x,pinky_base_y,pinky_base_z,pinky_first_joint_x,pinky_first_joint_y,pinky_first_joint_z,pinky_second_joint_x,pinky_second_joint_y,pinky_second_joint_z,pinky_tip_x,pinky_tip_y,pinky_tip_z,
0.18559657,-0.21890007,0.38571,0.16741552,-0.16487651,0.362378,0.15814484,-0.20693615,0.375844,0.12000799,-0.17220119,0.355191,0.087706818,-0.14509188,0.342847,0.071972554,-0.12280483,0.33487,0.11945966,-0.11792243,0.333684,0.098034446,-0.074102552,0.321232,0.088196423,-0.067033089,0.315006,0.095062821,-0.08444978,0.328706,0.14816761,-0.11798532,0.340156,0.13008749,-0.11991709,0.308429,0.14757161,-0.15317701,0.328938,0.1602283,-0.16528343,0.346852,0.17417577,-0.12337605,0.348,0.14623897,-0.073377898,0.317038,0.14132499,-0.066391267,0.31584,0.1512722,-0.083251099,0.332396,0.20864333,-0.13931646,0.36149,0.18498105,-0.097944223,0.34254,0.17889819,-0.093789894,0.333833,0.18532816,-0.1041706,0.341002
0.18419679,-0.21919364,0.385504,0.16650166,-0.16569384,0.363098,0.15655561,-0.20695876,0.375071,0.11651219,-0.17264336,0.353752,0.08567808,-0.14699789,0.344007,0.071295254,-0.12423054,0.336566,0.11904901,-0.11813242,0.334297,0.09732222,-0.074145301,0.321612,0.087383623,-0.067022415,0.31527,0.094227829,-0.084417126,0.328817,0.14828077,-0.11842692,0.34176,0.1298878,-0.1201035,0.309204,0.14679895,-0.15606914,0.329706,0.16015433,-0.16663126,0.347918,0.17480783,-0.1240016,0.350321,0.1468096,-0.073771447,0.319782,0.13750672,-0.064668933,0.308941,0.14436493,-0.079559004,0.318763,0.20993252,-0.14018264,0.364468,0.18367033,-0.097477213,0.342279,0.17715463,-0.093802451,0.332084,0.1832138,-0.10439428,0.33777
0.1824543,-0.2173137,0.384082,0.16214195,-0.1644601,0.361121,0.15509547,-0.20565348,0.374174,0.1134187,-0.17166369,0.353336,0.082801711,-0.14753122,0.345169,0.067397737,-0.12667446,0.339242,0.11635399,-0.11670259,0.332625,0.087468755,-0.070654588,0.31813,0.076310898,-0.064673882,0.310882,0.089603575,-0.082957158,0.323814,0.14370523,-0.11567216,0.339253,0.11891937,-0.11027881,0.305805,0.13662942,-0.14687594,0.326324,0.15683941,-0.1642512,0.344864,0.16708272,-0.11824037,0.347185,0.13717636,-0.068416485,0.316566,0.12497842,-0.059567271,0.3009,0.13551803,-0.07547546,0.305613,0.20236931,-0.13291025,0.360709,0.170014,-0.090414635,0.333912,0.16379797,-0.090773944,0.3216,0.17435739,-0.10139258,0.324982
0.18082387,-0.21709203,0.385886,0.15684189,-0.16062038,0.361876,0.15268717,-0.205986,0.378124,0.10635263,-0.16818401,0.360268,0.073158241,-0.14085535,0.347125,0.056165596,-0.11813892,0.337357,0.11231662,-0.11073235,0.335462,0.086680334,-0.067057069,0.314399,0.07398226,-0.063390584,0.303867,0.077987974,-0.081564605,0.314265,0.13946886,-0.11236648,0.339009,0.10914408,-0.057067338,0.304785,0.10659777,-0.070952791,0.325617,0.11670286,-0.09838565,0.344536,0.16397893,-0.11691464,0.344517,0.1346715,-0.067393365,0.313606,0.12073552,-0.06970593,0.297791,0.12582314,-0.09005978,0.302638,0.19683255,-0.13186172,0.355424,0.1663147,-0.090810857,0.327626,0.15712849,-0.096000898,0.314854,0.15736407,-0.11147165,0.317792
0.17908459,-0.21799092,0.390417,0.15350843,-0.1589096,0.363085,0.15000798,-0.20338109,0.382587,0.1072665,-0.16807525,0.361119,0.073776433,-0.13960034,0.346128,0.057287166,-0.11649385,0.335913,0.11042286,-0.11004757,0.334327,0.089335333,-0.063408209,0.31579,0.076683619,-0.054688901,0.306521,0.072482765,-0.067078229,0.318013,0.13589937,-0.10981039,0.337054,0.098667451,-0.062995767,0.299717,0.099682581,-0.087610982,0.318744,0.11374345,-0.11511237,0.338222,0.15950219,-0.1150471,0.342245,0.12124155,-0.068754759,0.308889,0.10276804,-0.057158416,0.291822,0.10184363,-0.070014674,0.294928,0.19162289,-0.1310662,0.353409,0.16427968,-0.089241132,0.323556,0.15430913,-0.094322346,0.30984,0.15467148,-0.10935124,0.311441
0.17791823,-0.21845943,0.391596,0.15300051,-0.16094778,0.364402,0.14938575,-0.2042086,0.384039,0.12382875,-0.17595774,0.363718,0.090446366,-0.14347575,0.343233,0.073825644,-0.12512908,0.33975,0.11054271,-0.11188487,0.336095,0.088494258,-0.070057848,0.32431,0.071138662,-0.052668963,0.318418,0.056740167,-0.045207523,0.332257,0.13421443,-0.11245636,0.338503,0.10327074,-0.060816664,0.301336,0.094015125,-0.069744025,0.320445,0.09998391,-0.096226817,0.339917,0.15601537,-0.12120356,0.343417,0.12134591,-0.076613732,0.3103,0.10845133,-0.085202988,0.293357,0.11566342,-0.10542507,0.296614,0.18695003,-0.13834026,0.354232,0.16706975,-0.094599786,0.32456,0.15447335,-0.096104737,0.310928,0.15449133,-0.11092225,0.312638
0.17705569,-0.21887675,0.392836,0.15234278,-0.16174222,0.365081,0.14891343,-0.20473656,0.38533,0.12325553,-0.17668474,0.36522,0.08969626,-0.14421909,0.344531,0.074677637,-0.12486951,0.340708,0.10918682,-0.11287888,0.33646,0.088972827,-0.069963277,0.325602,0.071577862,-0.052830183,0.320174,0.057192868,-0.046220075,0.334288,0.13344509,-0.11309595,0.338648,0.10066131,-0.061400607,0.300978,0.089045323,-0.075367545,0.319809,0.098326855,-0.099560901,0.339347,0.15503962,-0.1207289,0.343442,0.12002125,-0.076059576,0.309956,0.10697148,-0.084584702,0.292823,0.1141073,-0.10466663,0.295781,0.18589545,-0.13781722,0.354223,0.16515542,-0.091692645,0.324239,0.15339865,-0.096421792,0.310462,0.15227279,-0.11233304,0.311943
0.17600482,-0.21844995,0.391861,0.15241023,-0.16217693,0.36465,0.15084151,-0.20662941,0.38442,0.12351993,-0.17632299,0.365167,0.091206479,-0.1433546,0.345237,0.077013153,-0.12439029,0.342125,0.11051503,-0.11298808,0.336482,0.090798209,-0.070592291,0.326369,0.073699767,-0.053407907,0.321313,0.059744682,-0.046831944,0.335688,0.13499326,-0.113154,0.338734,0.10186233,-0.061921266,0.30157,0.093231541,-0.073353257,0.320744,0.10043511,-0.1005513,0.340206,0.15634038,-0.12092531,0.343521,0.12174858,-0.076068278,0.310453,0.10881869,-0.084357837,0.293534,0.11598952,-0.10460187,0.296812,0.1871785,-0.13788298,0.354192,0.16730191,-0.093926219,0.324553,0.15504021,-0.09585045,0.310935,0.1539734,-0.11131526,0.312659
0.17615198,-0.21850758,0.39268,0.15395148,-0.16229672,0.364671,0.15101855,-0.20637999,0.384996,0.12441494,-0.1753826,0.36464,0.091350157,-0.14301668,0.345102,0.077492851,-0.1240498,0.342348,0.11118746,-0.11243244,0.335645,0.092326841,-0.068303585,0.324969,0.074619756,-0.052569078,0.319632,0.059862791,-0.046341309,0.333816,0.13644763,-0.11282729,0.337996,0.1018169,-0.06179484,0.300065,0.09462954,-0.074897243,0.318706,0.10066321,-0.10261207,0.338278,0.15873149,-0.11935652,0.342951,0.12285256,-0.075701766,0.309193,0.10979784,-0.084111958,0.291921,0.11569696,-0.10402812,0.294688,0.19006556,-0.13630042,0.353967,0.16869583,-0.093722424,0.323768,0.15472325,-0.095653582,0.309893,0.15312879,-0.11077513,0.311232
0.17623562,-0.21854057,0.393307,0.15414375,-0.16230572,0.364883,0.15125032,-0.2063296,0.385739,0.12457563,-0.17522737,0.36506,0.092107013,-0.14268731,0.346123,0.078672104,-0.12400826,0.343775,0.11148733,-0.11234265,0.335726,0.093447727,-0.067504322,0.324686,0.074835058,-0.051968663,0.319166,0.060138964,-0.045978409,0.333194,0.13640844,-0.11275115,0.337812,0.10177584,-0.061463214,0.299524,0.094158706,-0.074656978,0.317922,0.10049766,-0.10103972,0.337546,0.15857017,-0.11838557,0.342593,0.12281428,-0.075303168,0.308606,0.10965958,-0.083834084,0.291217,0.11568255,-0.10368047,0.293777,0.18988541,-0.13616007,0.353485,0.16863376,-0.093321358,0.323088,0.1544859,-0.095217563,0.309121,0.15248552,-0.11005831,0.310299
0.17557864,-0.21825178,0.394334,0.15450147,-0.16246797,0.365452,0.15086739,-0.20579797,0.386824,0.12181681,-0.17495177,0.364541,0.090882168,-0.14317852,0.347269,0.078570241,-0.12477463,0.345548,0.11189588,-0.11232967,0.336058,0.09370318,-0.067435208,0.324793,0.076314806,-0.051294096,0.319161,0.06066302,-0.045674537,0.33308,0.13657006,-0.11274859,0.337945,0.10262062,-0.060853547,0.299255,0.094149605,-0.07423764,0.31736,0.10073015,-0.10092206,0.337037,0.15950175,-0.11820788,0.342611,0.12299973,-0.07497057,0.308335,0.10972973,-0.083490246,0.290799,0.11574193,-0.10327766,0.293106,0.18999083,-0.13613201,0.353456,0.16879235,-0.09302891,0.322815,0.15478104,-0.093961797,0.308737,0.15289093,-0.10771001,0.309721
0.17536615,-0.21817257,0.395489,0.15508144,-0.16282994,0.366124,0.15095142,-0.20559269,0.388167,0.12212981,-0.17472272,0.364876,0.08701841,-0.14592044,0.348257,0.079764249,-0.12490561,0.347295,0.11241272,-0.112694,0.336648,0.094125339,-0.067784766,0.325171,0.077036212,-0.051063292,0.319432,0.063269525,-0.044287192,0.33322,0.13683076,-0.11292933,0.338157,0.10223507,-0.061162693,0.29907,0.094406014,-0.074195674,0.316872,0.10145794,-0.10195452,0.336598,0.15980072,-0.11879491,0.342564,0.12220725,-0.074721872,0.308058,0.10961051,-0.082905778,0.290404,0.11576848,-0.10261858,0.292468,0.19077238,-0.13567931,0.3532,0.16891723,-0.092786147,0.322355,0.15479033,-0.093597897,0.308184,0.15242786,-0.10695232,0.308979
0.17509776,-0.2183307,0.396149,0.15547019,-0.16284721,0.366534,0.15104,-0.20552351,0.389032,0.12345566,-0.17497767,0.365436,0.091328191,-0.14524194,0.349747,0.079511731,-0.12497595,0.347253,0.11330048,-0.11273486,0.337156,0.094976689,-0.068227252,0.326675,0.080241314,-0.049742124,0.321434,0.068512233,-0.037084096,0.3355,0.13752388,-0.11318947,0.33833,0.10335609,-0.061009814,0.29906,0.094830348,-0.074165167,0.316709,0.10294211,-0.10187227,0.336453,0.15987741,-0.11886451,0.342488,0.12301115,-0.074444037,0.307923,0.10970957,-0.082520347,0.290238,0.11596428,-0.10220285,0.292196,0.19086451,-0.13564172,0.352881,0.1696963,-0.092462919,0.321975,0.15491812,-0.093377196,0.307775,0.15221299,-0.10645204,0.308486
0.17625154,-0.22046874,0.397949,0.15894866,-0.17409503,0.36739,0.15206588,-0.20734476,0.39047,0.1239819,-0.18630825,0.363362,0.092693887,-0.15675398,0.348974,0.078255208,-0.13485364,0.342623,0.11578253,-0.12313799,0.336899,0.098889701,-0.079371458,0.33072,0.084686544,-0.059189624,0.32763,0.062846339,-0.043222769,0.324821,0.13952757,-0.1235442,0.338286,0.10590307,-0.070274791,0.298121,0.09812724,-0.08553387,0.315043,0.10922594,-0.11338572,0.334883,0.16201957,-0.12950623,0.342721,0.12454338,-0.082944806,0.307323,0.11015267,-0.086785177,0.289212,0.11650663,-0.10397763,0.290501,0.19338772,-0.14678875,0.353614,0.17246367,-0.10276848,0.32204,0.15817967,-0.10279802,0.307533,0.15122057,-0.1120929,0.307783
0.1898324,-0.23771825,0.404745,0.17349545,-0.18122797,0.371298,0.16432145,-0.22364886,0.395915,0.14183242,-0.19518996,0.366867,0.10740799,-0.16461587,0.351142,0.09422899,-0.14530562,0.347957,0.12759914,-0.12838143,0.337086,0.12385593,-0.082351384,0.326409,0.11088819,-0.075999405,0.321071,0.10119373,-0.089271489,0.316218,0.15207384,-0.12825989,0.339444,0.11255124,-0.12345864,0.296598,0.12478413,-0.15556699,0.310925,0.1430792,-0.16759062,0.33092,0.17550776,-0.13397178,0.344989,0.15067227,-0.08470254,0.321437,0.13613518,-0.084350037,0.309388,0.14107788,-0.10543009,0.318245,0.20870415,-0.15141402,0.357714,0.17042942,-0.14490143,0.324118,0.15620955,-0.15195474,0.308682,0.15889301,-0.15490585,0.307179
0.19678181,-0.24672448,0.40479,0.17426651,-0.191626,0.371536,0.17126434,-0.23291606,0.39663,0.14286652,-0.2064665,0.368441,0.10882433,-0.17538179,0.353232,0.095525095,-0.15505638,0.348864,0.12926355,-0.13800293,0.338327,0.12581601,-0.091647355,0.326721,0.11275479,-0.08558076,0.320918,0.10268204,-0.098810688,0.315642,0.15348179,-0.13810714,0.339864,0.11539727,-0.1397313,0.297287,0.12912766,-0.16993188,0.311908,0.14724867,-0.17913744,0.331899,0.17654812,-0.14408301,0.344714,0.15260185,-0.094521055,0.321795,0.13811511,-0.094448586,0.310069,0.14291663,-0.11612774,0.319152,0.20906967,-0.16192022,0.356594,0.1708683,-0.15535977,0.32334,0.15647148,-0.16162322,0.308061,0.15918399,-0.16421445,0.306784
0.19981012,-0.24758843,0.403246,0.18478331,-0.19131551,0.370934,0.17418715,-0.23355135,0.394801,0.1533288,-0.20527009,0.366306,0.11920545,-0.17438084,0.351216,0.10628252,-0.15496393,0.348656,0.13918082,-0.1378671,0.337994,0.1359762,-0.091718323,0.326974,0.12351105,-0.085726365,0.321464,0.11368168,-0.099065195,0.316455,0.16386591,-0.13822742,0.34016,0.12597524,-0.14021824,0.298323,0.14007565,-0.17091527,0.313713,0.15826946,-0.18009762,0.333678,0.18740125,-0.14438061,0.345426,0.16303015,-0.094704343,0.322419,0.1487607,-0.094624953,0.310648,0.15405576,-0.11635406,0.319774,0.22054543,-0.16238247,0.357612,0.18253084,-0.15603149,0.324738,0.1674714,-0.16244849,0.309634,0.16996349,-0.16529625,0.308805
0.21630919,-0.25369574,0.403632,0.19979204,-0.19562672,0.37154,0.18919276,-0.2393582,0.393806,0.16969976,-0.20865101,0.363627,0.13344475,-0.17884662,0.347724,0.11877184,-0.16055646,0.345355,0.15016418,-0.14280907,0.336951,0.14597714,-0.097060394,0.327684,0.13573258,-0.092651229,0.32305,0.12897587,-0.10777102,0.318838,0.17648824,-0.14234761,0.340976,0.14262615,-0.1430247,0.29914,0.15725228,-0.17399649,0.314326,0.17416818,-0.18367613,0.334226,0.20169398,-0.14777467,0.347749,0.17517712,-0.098714619,0.325216,0.16314251,-0.098087151,0.313688,0.17091966,-0.11953336,0.323174,0.23736532,-0.1648584,0.361643,0.20221655,-0.15775042,0.328422,0.18639044,-0.16485955,0.313158,0.1873491,-0.16812194,0.312136
0.22578436,-0.26325165,0.404038,0.2000525,-0.2088671,0.371531,0.19867447,-0.25013435,0.395299,0.1761539,-0.22482823,0.375255,0.13886568,-0.18994502,0.354237,0.12013817,-0.16371176,0.344072,0.15114075,-0.15589553,0.338076,0.14507021,-0.11069687,0.328903,0.1336808,-0.10409674,0.324317,0.12557063,-0.11785874,0.320147,0.17597489,-0.15479912,0.340571,0.13963514,-0.15257733,0.298523,0.15640205,-0.18401343,0.31369,0.1749139,-0.19469987,0.33366,0.19999723,-0.1597768,0.34613,0.16302881,-0.11735005,0.320681,0.14573344,-0.094680504,0.307661,0.13843191,-0.098513761,0.31557,0.23444898,-0.17646668,0.358692,0.19906152,-0.16663988,0.325612,0.18405958,-0.17307521,0.310412,0.18568477,-0.17612138,0.309426
0.22916299,-0.26493193,0.403031,0.21061755,-0.20868214,0.371202,0.20430259,-0.25624897,0.394214,0.18779628,-0.2250523,0.375629,0.14989842,-0.1899166,0.354184,0.13280484,-0.16775045,0.344753,0.161088,-0.15590892,0.338105,0.15511511,-0.11071168,0.328947,0.14425177,-0.1041128,0.324367,0.13635879,-0.11787972,0.320204,0.18628688,-0.15494321,0.340888,0.15019847,-0.15302813,0.299405,0.1673748,-0.18484466,0.315107,0.18593128,-0.1955063,0.335042,0.21067166,-0.15999791,0.346609,0.1757499,-0.11893495,0.325012,0.16050184,-0.097896064,0.313963,0.14424203,-0.094876272,0.303918,0.24561421,-0.17673333,0.359234,0.21050594,-0.16708666,0.326485,0.19487829,-0.17364728,0.311438,0.19625126,-0.17689203,0.31078
0.23436211,-0.27421811,0.404935,0.21116509,-0.21871737,0.372167,0.20723977,-0.26087394,0.396311,0.18828223,-0.23576757,0.376601,0.15021542,-0.20008131,0.354933,0.13296124,-0.17733632,0.345159,0.16136529,-0.16494836,0.338687,0.1551981,-0.11961205,0.329123,0.14424065,-0.11340306,0.324342,0.13626979,-0.12728547,0.319995,0.18632677,-0.16392283,0.340961,0.14985082,-0.16160004,0.298712,0.16661788,-0.19301642,0.313682,0.18516656,-0.20373697,0.333664,0.21052275,-0.16904278,0.346364,0.17278154,-0.12983059,0.320275,0.15326803,-0.10952167,0.306927,0.14011334,-0.10906827,0.294793,0.24531474,-0.18603492,0.358796,0.20994887,-0.17623566,0.325621,0.19421564,-0.18202552,0.310379,0.1953034,-0.18459323,0.309279
0.23842758,-0.28150779,0.405395,0.21128594,-0.22913749,0.37238,0.21127274,-0.27313032,0.396935,0.18848221,-0.24701259,0.377001,0.15053622,-0.2111133,0.355691,0.13311879,-0.1877344,0.345568,0.16148821,-0.17458811,0.338945,0.15526648,-0.12925177,0.329268,0.14427979,-0.12351486,0.32443,0.13628512,-0.13757913,0.320031,0.1863142,-0.17360808,0.340938,0.14974899,-0.17115856,0.298509,0.16641285,-0.2025302,0.313296,0.18495623,-0.2132871,0.333285,0.21038477,-0.1788517,0.346137,0.1726731,-0.13977438,0.320074,0.15317415,-0.11954183,0.306739,0.14002969,-0.1193206,0.294617,0.24502826,-0.19612109,0.358377,0.20963487,-0.18635232,0.325134,0.19389151,-0.19142662,0.309861,0.19491315,-0.19347909,0.308661
0.23701625,-0.28957177,0.402852,0.21311418,-0.23374194,0.373752,0.21038156,-0.28000438,0.394071,0.18726421,-0.24833312,0.377841,0.15457646,-0.21642691,0.363513,0.13927216,-0.19064804,0.351464,0.16789967,-0.18210424,0.342556,0.16306394,-0.13792157,0.334331,0.15089072,-0.13450055,0.330219,0.14012107,-0.14415381,0.32648,0.19283025,-0.18304944,0.346037,0.15457,-0.1822895,0.306958,0.17151185,-0.21855737,0.324645,0.19181803,-0.2326061,0.344333,0.21686728,-0.18983099,0.35204,0.20799596,-0.1388079,0.331459,0.19394125,-0.13700507,0.320929,0.18310857,-0.15096244,0.311357,0.25102534,-0.20894819,0.364478,0.23529277,-0.15804771,0.336371,0.22230438,-0.15054586,0.323457,0.21996708,-0.16427799,0.326047
0.23629891,-0.29714013,0.401338,0.21844441,-0.24289956,0.377555,0.20970337,-0.28169077,0.392205,0.17856219,-0.24766731,0.375458,0.1529641,-0.21532972,0.360907,0.14084898,-0.19162054,0.353682,0.17781102,-0.1898448,0.34951,0.17499573,-0.14549208,0.342664,0.16494274,-0.14598485,0.339241,0.15747756,-0.16138244,0.337927,0.20544941,-0.19337193,0.354904,0.17325949,-0.19729533,0.320731,0.18948217,-0.23729127,0.341228,0.20760902,-0.25200809,0.360533,0.23098585,-0.20217896,0.361908,0.20969449,-0.15214058,0.330601,0.19378024,-0.15725647,0.314584,0.19409694,-0.1796242,0.319102,0.26538297,-0.22336096,0.374509,0.25242997,-0.17314924,0.349035,0.24185689,-0.16638482,0.33733,0.24125303,-0.18141004,0.341337
0.23994319,-0.30608685,0.403813,0.22660071,-0.2512317,0.376867,0.21222334,-0.28781567,0.392228,0.20206996,-0.26040534,0.377079,0.17269475,-0.22126575,0.357985,0.1588208,-0.19601451,0.349751,0.18132047,-0.19177117,0.343481,0.18222967,-0.14854814,0.336546,0.17383739,-0.14590088,0.333079,0.16517653,-0.15988834,0.329927,0.21010485,-0.19693294,0.351205,0.17700524,-0.19781236,0.313872,0.19283746,-0.23191765,0.331572,0.20594267,-0.24353335,0.350632,0.23696219,-0.20728565,0.360469,0.19985076,-0.16009311,0.32566,0.18840769,-0.16692198,0.30785,0.19544309,-0.18548173,0.309691,0.2735282,-0.2307412,0.376287,0.2584231,-0.17865586,0.347555,0.24726072,-0.17088646,0.334354,0.24523393,-0.18440288,0.335929
0.25055038,-0.31809886,0.404584,0.23754688,-0.26185914,0.380178,0.22080354,-0.29888791,0.391084,0.19855926,-0.26428501,0.373533,0.17168247,-0.22691589,0.356133,0.15858395,-0.19852588,0.348644,0.18808561,-0.20307264,0.346023,0.18837387,-0.15973523,0.341706,0.18495849,-0.15803182,0.339547,0.18118664,-0.17191637,0.337585,0.21974267,-0.20770836,0.356935,0.19850428,-0.20577856,0.322039,0.21430789,-0.24182378,0.339505,0.22698976,-0.25373804,0.35761,0.24897394,-0.21745127,0.368551,0.21494457,-0.16964504,0.33492,0.2086042,-0.17516286,0.317714,0.21656758,-0.19378329,0.319675,0.28844291,-0.23983558,0.386621,0.27297341,-0.18880988,0.361826,0.26627172,-0.18102916,0.350434,0.26878567,-0.19474803,0.353489
0.25287832,-0.31955685,0.404577,0.23855434,-0.26112782,0.379426,0.22374599,-0.30104822,0.392225,0.19765683,-0.26343068,0.37445,0.17115133,-0.22709683,0.355949,0.15839411,-0.19892536,0.347286,0.19064571,-0.2022576,0.346261,0.1909523,-0.16117884,0.346728,0.18551618,-0.15144657,0.346961,0.18141871,-0.15846581,0.347173,0.22116998,-0.20668858,0.355472,0.19617079,-0.20346633,0.319827,0.21208299,-0.24038773,0.337902,0.22624788,-0.25321246,0.356469,0.24938553,-0.21632932,0.365768,0.21652811,-0.17281093,0.331982,0.20824365,-0.18068499,0.314696,0.21538379,-0.19539567,0.317016,0.28755598,-0.23870199,0.382447,0.275508,-0.18912598,0.357551,0.26493236,-0.18054477,0.346112,0.26698871,-0.19472678,0.349666
0.26105015,-0.32527142,0.40528,0.25159017,-0.26692995,0.379691,0.23193559,-0.30704563,0.393463,0.20881599,-0.26762511,0.376212,0.18373803,-0.2320996,0.356598,0.17215305,-0.20475314,0.346188,0.20559645,-0.20622734,0.346925,0.20523418,-0.16524397,0.347799,0.20127367,-0.15687773,0.348237,0.19777677,-0.16447784,0.348634,0.23587411,-0.21212858,0.355321,0.20713475,-0.20845388,0.319262,0.22205652,-0.24614183,0.337506,0.23729852,-0.25950508,0.356276,0.26375393,-0.22311765,0.364993,0.22969431,-0.1790387,0.331086,0.22045925,-0.18700105,0.313739,0.22728754,-0.20493771,0.316142,0.3012131,-0.24730912,0.381029,0.28756397,-0.19615021,0.355752,0.27911116,-0.18956026,0.344138,0.2803018,-0.20431984,0.347712
0.26535353,-0.33127936,0.408645,0.25509443,-0.27822473,0.382531,0.24127781,-0.3162364,0.395661,0.21648297,-0.27968962,0.375705,0.18556025,-0.24181378,0.35926,0.17965903,-0.21691212,0.34792,0.20764678,-0.21599088,0.347889,0.20349409,-0.1743651,0.347632,0.20074763,-0.16619252,0.347504,0.19971125,-0.17447431,0.347387,0.23919535,-0.22254782,0.357661,0.21581507,-0.22222984,0.32111,0.22922598,-0.25751229,0.338229,0.24189316,-0.26858815,0.356824,0.2680069,-0.23413813,0.368523,0.23711129,-0.19051329,0.333794,0.22875082,-0.19683746,0.316026,0.23428951,-0.21493106,0.317502,0.3064038,-0.25906231,0.386039,0.28842653,-0.20774626,0.358351,0.28060885,-0.20174,0.345629,0.28249442,-0.21697008,0.347706
0.23938286,-0.28147222,0.328514,0.23627815,-0.25265105,0.332275,0.21142307,-0.27244122,0.318803,0.19301355,-0.24561196,0.326437,0.17127287,-0.22407486,0.327291,0.17116901,-0.21160338,0.336927,0.20335461,-0.22812322,0.322181,0.2025901,-0.21841835,0.34559,0.21367029,-0.24306463,0.357294,0.23263922,-0.27405557,0.373828,0.23426858,-0.23039841,0.335856,0.2162418,-0.20173058,0.330879,0.236928,-0.24030625,0.35422,0.25122692,-0.26515618,0.363346,0.26160625,-0.23412181,0.346713,0.2438679,-0.20468166,0.338179,0.2462523,-0.21929781,0.333813,0.26268175,-0.24539853,0.345887,0.29680499,-0.24239752,0.358607,0.28270969,-0.20264809,0.350613,0.27045224,-0.20744669,0.346939,0.27608564,-0.22887073,0.355803
0.23180006,-0.27740743,0.318876,0.2341976,-0.25283009,0.32778,0.20697453,-0.27025196,0.3124,0.19161451,-0.24683008,0.320824,0.17838153,-0.23222325,0.33295,0.17103293,-0.21202692,0.334753,0.21011197,-0.23511341,0.325391,0.21150367,-0.22758185,0.351519,0.2219924,-0.25424192,0.364582,0.23917535,-0.2831522,0.381697,0.23950588,-0.23689884,0.33626,0.22526855,-0.21222263,0.337157,0.24525985,-0.25357799,0.362043,0.2567708,-0.27377022,0.36953,0.26473988,-0.24008031,0.344251,0.25118502,-0.21476153,0.341625,0.25424102,-0.23228661,0.340282,0.27224326,-0.26103741,0.354882,0.29587717,-0.24744504,0.351852,0.28706382,-0.21090469,0.34871,0.27556922,-0.21694644,0.347266,0.28191549,-0.23992659,0.358051
0.25931506,-0.32151466,0.359209,0.25887489,-0.27425758,0.355842,0.23702974,-0.30870937,0.356311,0.21745713,-0.26807543,0.346236,0.20130964,-0.25620451,0.358436,0.19648853,-0.23549617,0.35996,0.23080224,-0.2283532,0.349781,0.21488793,-0.18433081,0.343377,0.20736339,-0.16292089,0.340176,0.21682441,-0.16557246,0.355799,0.25834751,-0.23166667,0.352636,0.25564936,-0.1878764,0.340293,0.27824289,-0.22195681,0.367619,0.28595664,-0.25407937,0.380661,0.28121543,-0.23911301,0.35535,0.27963474,-0.24031045,0.343635,0.29497561,-0.279661,0.365069,0.30599679,-0.29858066,0.384207,0.30834264,-0.25618332,0.359133,0.29716199,-0.2532632,0.347339,0.30624906,-0.28329017,0.363718,0.31588647,-0.29740944,0.376679
0.2597704,-0.32349841,0.358728,0.26203891,-0.27822087,0.357647,0.23939881,-0.31227498,0.357956,0.21739988,-0.27656555,0.349768,0.19759984,-0.2531623,0.353311,0.19207428,-0.22985394,0.348315,0.24110946,-0.23656128,0.355908,0.22823443,-0.19100811,0.346844,0.22263645,-0.16894327,0.342313,0.23617751,-0.1737371,0.357199,0.2668464,-0.23973848,0.356617,0.27104241,-0.20385857,0.347191,0.29881671,-0.24148993,0.374949,0.306029,-0.27389892,0.387072,0.28734318,-0.24682559,0.357317,0.29856031,-0.21772567,0.348951,0.31619853,-0.25112182,0.370766,0.31718663,-0.27933511,0.382858,0.31042847,-0.26284621,0.358333,0.30496305,-0.26459024,0.34906,0.31490816,-0.29589195,0.365771,0.32291803,-0.3133153,0.379252
0.26743018,-0.32442762,0.364639,0.26533803,-0.2651841,0.354557,0.24571702,-0.31296603,0.362512,0.22252774,-0.27918321,0.362191,0.19319003,-0.24838342,0.346794,0.1836465,-0.22373266,0.338751,0.23238052,-0.22024723,0.344941,0.20941692,-0.1741315,0.327775,0.19790381,-0.15097702,0.319192,0.20404303,-0.15223318,0.331173,0.25714899,-0.21948694,0.344956,0.25550677,-0.21891458,0.325553,0.27475686,-0.2659004,0.351885,0.28075461,-0.27974519,0.367169,0.27796227,-0.22386697,0.346054,0.27779359,-0.22376421,0.328968,0.29350508,-0.26009514,0.349674,0.29923728,-0.27376601,0.364845,0.30354649,-0.23759147,0.349225,0.28886689,-0.23616835,0.332879,0.29064731,-0.261012,0.348586,0.28974227,-0.28131495,0.36043
0.27283753,-0.32798598,0.369771,0.26852476,-0.27035574,0.358074,0.2507676,-0.31666615,0.367431,0.22445749,-0.28271604,0.364275,0.19540379,-0.25062887,0.349044,0.18352183,-0.22511256,0.338784,0.23508861,-0.2262165,0.347085,0.21491794,-0.18018274,0.328536,0.20498798,-0.15677339,0.319262,0.21195485,-0.15562935,0.33065,0.2609083,-0.22595389,0.346935,0.25797745,-0.22564192,0.32578,0.27608009,-0.27230645,0.35171,0.28161856,-0.28299766,0.367501,0.28157778,-0.23080299,0.348072,0.28012459,-0.23091643,0.329415,0.29490573,-0.26702321,0.349804,0.30029412,-0.27739941,0.365483,0.30701453,-0.24529378,0.35159,0.29132276,-0.24371188,0.334031,0.29339331,-0.27018951,0.349471,0.2911587,-0.28539608,0.361638
0.27555007,-0.32797908,0.370688,0.27383614,-0.2737036,0.360624,0.25488411,-0.3182706,0.370472,0.22704037,-0.28573373,0.364312,0.19428692,-0.25171448,0.346524,0.1844933,-0.23227391,0.328297,0.24704075,-0.22764376,0.353509,0.22326183,-0.18498514,0.337708,0.21364602,-0.16237351,0.329808,0.22298498,-0.16617844,0.342103,0.26996742,-0.2268643,0.351039,0.25822543,-0.1966684,0.331291,0.27517076,-0.24420238,0.357457,0.2847678,-0.2698964,0.372813,0.28948665,-0.23118722,0.350089,0.27666116,-0.21029617,0.331975,0.30026498,-0.24616099,0.352511,0.31475076,-0.26955446,0.368029,0.31389863,-0.24505112,0.350879,0.29172481,-0.24109016,0.335378,0.29441065,-0.268191,0.351054,0.29623165,-0.28709374,0.362588
0.2769156,-0.32918815,0.370835,0.2751463,-0.28159736,0.360477,0.25887533,-0.31997089,0.371705,0.23329117,-0.29678471,0.364592,0.19888379,-0.26330937,0.350015,0.18645478,-0.23663956,0.333289,0.24590661,-0.23772219,0.354578,0.22565375,-0.1953256,0.339381,0.21540539,-0.17372216,0.331783,0.21999276,-0.17843665,0.344084,0.26754748,-0.23529237,0.350612,0.24810842,-0.20804849,0.330372,0.26867987,-0.25431713,0.356228,0.28334347,-0.28172019,0.371665,0.28618675,-0.23832393,0.348463,0.27611169,-0.20901796,0.331409,0.28790109,-0.23851607,0.351783,0.29948889,-0.26837456,0.366808,0.30987109,-0.25083522,0.347916,0.28560591,-0.24707231,0.332725,0.29262286,-0.27324653,0.348249,0.29573802,-0.29913937,0.359615
0.27573903,-0.32843169,0.36847,0.27907611,-0.28732361,0.365051,0.25836912,-0.32012512,0.370328,0.23184279,-0.29638899,0.36192,0.20322003,-0.26931106,0.356155,0.19370614,-0.24655975,0.344971,0.25478297,-0.24587713,0.36515,0.2423511,-0.20765549,0.355372,0.23510247,-0.18687659,0.350483,0.24217218,-0.19465833,0.364951,0.27785138,-0.2447341,0.361795,0.26863362,-0.22755677,0.349176,0.28898661,-0.27844908,0.376406,0.2981202,-0.29895481,0.389517,0.2969397,-0.24849229,0.3594,0.29686558,-0.22762051,0.348324,0.30900507,-0.26169533,0.369731,0.31244175,-0.29116353,0.382755,0.32104851,-0.26481045,0.357263,0.30271951,-0.265484,0.347421,0.31041678,-0.29571318,0.363883,0.30791531,-0.31534326,0.37373
0.27568679,-0.32912394,0.36812,0.27803574,-0.2874749,0.364288,0.25650574,-0.32049236,0.369679,0.23050375,-0.29616407,0.360727,0.20201582,-0.26895898,0.354784,0.19267997,-0.2465584,0.343503,0.25367859,-0.24528405,0.363717,0.24002466,-0.20673695,0.353487,0.23257733,-0.18659218,0.348371,0.23966786,-0.19615624,0.362716,0.27696413,-0.24461715,0.360638,0.26640678,-0.22692361,0.347597,0.28664986,-0.27781203,0.374816,0.29684993,-0.29864646,0.388078,0.29623266,-0.2488038,0.358516,0.29497077,-0.22720616,0.347186,0.30700033,-0.26140908,0.368592,0.31051471,-0.29084597,0.381718,0.31977224,-0.2644937,0.356772,0.30102353,-0.26571556,0.346493,0.30575437,-0.29663083,0.362934,0.30676679,-0.31636055,0.372926
0.27949769,-0.33451472,0.370335,0.27985246,-0.29222782,0.3658,0.26194102,-0.3290773,0.371486,0.23558429,-0.30690033,0.361753,0.2065073,-0.28151789,0.358491,0.19617556,-0.25488895,0.348757,0.25505769,-0.25352309,0.36422,0.23727226,-0.21271453,0.353441,0.229663,-0.18936166,0.348051,0.23904728,-0.19714753,0.362231,0.27880385,-0.25255985,0.361481,0.26979993,-0.22519367,0.347709,0.29681202,-0.27243657,0.37488,0.30071863,-0.29897114,0.38839,0.29826393,-0.25655474,0.359714,0.2946727,-0.24479499,0.346715,0.32019558,-0.28599068,0.368028,0.33314846,-0.31165897,0.381791,0.32171628,-0.26765843,0.358516,0.3055691,-0.27127988,0.347542,0.30780097,-0.29840572,0.363931,0.30856833,-0.32147142,0.374149
0.27966519,-0.34096556,0.37088,0.27999738,-0.29813024,0.36428,0.26252809,-0.33227165,0.37252,0.23546029,-0.31002778,0.362857,0.20643997,-0.28303971,0.358707,0.19556046,-0.25744869,0.348137,0.25471377,-0.25389922,0.361936,0.23692583,-0.21260211,0.349881,0.2302858,-0.1931653,0.343853,0.23679989,-0.19847121,0.357421,0.27749705,-0.25288554,0.357995,0.26960377,-0.22873658,0.341819,0.29038753,-0.27793211,0.368466,0.30244053,-0.29993395,0.382682,0.29747996,-0.26045363,0.355462,0.29109234,-0.25119635,0.340021,0.3146912,-0.29173851,0.360907,0.32749218,-0.31749909,0.375485,0.31917382,-0.27459772,0.353761,0.30113999,-0.27653523,0.34155,0.30430256,-0.3051622,0.357619,0.30426334,-0.32301654,0.368147
0.2811355,-0.3504482,0.368399,0.2819691,-0.30944677,0.362909,0.2612884,-0.33986115,0.368755,0.23467801,-0.31734625,0.357637,0.20721863,-0.29070253,0.354486,0.19799203,-0.26814192,0.344849,0.25731448,-0.26370595,0.359643,0.24149308,-0.22304587,0.347618,0.23338388,-0.20183902,0.341606,0.24456286,-0.21232274,0.355419,0.28146051,-0.26468882,0.357679,0.27692876,-0.23938916,0.342959,0.2998286,-0.29063613,0.370076,0.30811292,-0.31812645,0.383913,0.30111807,-0.270384,0.356654,0.29834952,-0.26426205,0.343058,0.32205097,-0.30609052,0.364342,0.33338565,-0.33307154,0.378335,0.32407064,-0.28557032,0.356496,0.32563056,-0.27518114,0.344475,0.32752013,-0.30097167,0.360793,0.32651449,-0.31522824,0.371352
0.27868773,-0.35601143,0.365145,0.2808122,-0.31820037,0.36142,0.26078164,-0.35078673,0.366158,0.23512939,-0.32459102,0.356484,0.20898272,-0.29469002,0.349028,0.2034911,-0.2728852,0.337005,0.25772015,-0.27401168,0.36021,0.24193645,-0.23091901,0.350118,0.23389512,-0.20875228,0.345073,0.24585917,-0.21572485,0.359519,0.28161239,-0.27461761,0.357872,0.27861152,-0.2514956,0.345043,0.3016904,-0.30440767,0.372374,0.30946122,-0.33149837,0.385593,0.30085972,-0.27987928,0.356348,0.29941836,-0.27582991,0.344287,0.32327874,-0.31888586,0.365731,0.3341188,-0.34545231,0.379167,0.32296525,-0.29430136,0.35528,0.32596235,-0.28587183,0.344826,0.3279949,-0.312477,0.361316,0.32654615,-0.32629361,0.371388
0.28217617,-0.36469494,0.367005,0.28242574,-0.31931923,0.361703,0.26318271,-0.35475513,0.36813,0.23651276,-0.32786401,0.358129,0.20832217,-0.30119971,0.352342,0.19857889,-0.27898074,0.341058,0.25849311,-0.27470696,0.359568,0.24159367,-0.23202131,0.348162,0.23297384,-0.21001417,0.342459,0.24316024,-0.2191219,0.3564,0.28202853,-0.27474158,0.356653,0.27862756,-0.26315221,0.342015,0.30154542,-0.31825871,0.369048,0.31002329,-0.34043011,0.382828,0.30105402,-0.27963753,0.354824,0.29962663,-0.28026894,0.341021,0.32351753,-0.32399819,0.362223,0.33329123,-0.34591491,0.376267,0.32306747,-0.29378986,0.353698,0.32490769,-0.28606717,0.342162,0.32689219,-0.3128172,0.358459,0.32590838,-0.32634516,0.368838
0.28320395,-0.36524171,0.367014,0.28234473,-0.31833481,0.360734,0.26367666,-0.35504601,0.367519,0.23685901,-0.32686524,0.356371,0.20950173,-0.29827077,0.350343,0.20168325,-0.27622283,0.33892,0.25680495,-0.2731557,0.357129,0.23873399,-0.23160308,0.344553,0.22916666,-0.20975689,0.338266,0.23900894,-0.21717685,0.351843,0.28074758,-0.27321395,0.354754,0.27612649,-0.26158468,0.339116,0.29990496,-0.31675573,0.366059,0.30916661,-0.34139078,0.380173,0.30028209,-0.27820521,0.353475,0.29695598,-0.27621036,0.33896,0.32239555,-0.32212675,0.360103,0.33284497,-0.34492346,0.37441,0.32316214,-0.29260768,0.353171,0.32341425,-0.28544449,0.340654,0.32551705,-0.31245455,0.356865,0.32485849,-0.32627752,0.367556
0.28288016,-0.36246193,0.366902,0.28190671,-0.31738231,0.360076,0.26370017,-0.35477858,0.366711,0.23751723,-0.32619498,0.354449,0.21014386,-0.29628246,0.347913,0.20326397,-0.27420526,0.336263,0.25475833,-0.27159728,0.355193,0.23604606,-0.22966964,0.341617,0.22639803,-0.20781969,0.33483,0.23597831,-0.21551505,0.348117,0.27923969,-0.27185515,0.353575,0.27320318,-0.26072874,0.337444,0.29753998,-0.31582457,0.364369,0.30749978,-0.34138941,0.378655,0.29891717,-0.27638027,0.352979,0.2954744,-0.27548801,0.338258,0.30709975,-0.31751055,0.359398,0.31157938,-0.34589876,0.373787,0.32303738,-0.28775731,0.35357,0.31390068,-0.28550998,0.340353,0.31759821,-0.31413275,0.356521,0.32465283,-0.32661705,0.368032
0.28449138,-0.36533398,0.366112,0.28220536,-0.31729515,0.359628,0.26442699,-0.35525534,0.366262,0.24025351,-0.32710494,0.354567,0.21232987,-0.29884401,0.34839,0.20446256,-0.27555254,0.336922,0.25492501,-0.27228521,0.355421,0.23640845,-0.22974119,0.342356,0.22680729,-0.20906415,0.335824,0.23629019,-0.21692867,0.349268,0.2791806,-0.27195839,0.353453,0.27269928,-0.26130082,0.337645,0.29749946,-0.31644313,0.364598,0.30787894,-0.34250178,0.378776,0.29920597,-0.27667248,0.35253,0.29491673,-0.2753048,0.337988,0.30757398,-0.31756767,0.359144,0.31244826,-0.3462472,0.373468,0.32302688,-0.29084812,0.352679,0.31423654,-0.28540284,0.339856,0.32046049,-0.31410378,0.356057,0.3242655,-0.3263362,0.367402
0.2850554,-0.36546358,0.36572,0.28253157,-0.31729474,0.359395,0.26493463,-0.35554291,0.365905,0.24078347,-0.3272128,0.354305,0.2129711,-0.29902432,0.348216,0.20516254,-0.27585312,0.336811,0.2550174,-0.27253141,0.355342,0.23661699,-0.23018763,0.342416,0.22713746,-0.20943953,0.335953,0.23651685,-0.21743557,0.349448,0.27928487,-0.27202625,0.353371,0.27271444,-0.26162345,0.337738,0.29779716,-0.31680468,0.364717,0.30835867,-0.34317258,0.378841,0.29935315,-0.27658991,0.35243,0.29498116,-0.27539926,0.338038,0.30836529,-0.31776926,0.359215,0.31322622,-0.34650984,0.373487,0.32327333,-0.29058162,0.352527,0.31485851,-0.28559245,0.339833,0.32157891,-0.31416637,0.356054,0.32459204,-0.32664496,0.3675
0.28550886,-0.36542759,0.365293,0.28283303,-0.31720221,0.359145,0.2652734,-0.35553402,0.365395,0.24200048,-0.32680143,0.353734,0.21453977,-0.29851793,0.347668,0.20681683,-0.27520314,0.336311,0.25508056,-0.2725593,0.355103,0.23681466,-0.23033554,0.342268,0.22747463,-0.20950415,0.33585,0.2368339,-0.21758216,0.349392,0.27945756,-0.27203697,0.35329,0.27450583,-0.25859457,0.337871,0.30022454,-0.30759381,0.364896,0.3090507,-0.34246148,0.378956,0.29964673,-0.27657784,0.352459,0.29542882,-0.27553434,0.338299,0.30945553,-0.31784315,0.359514,0.31424121,-0.34662525,0.373707,0.32428676,-0.29026516,0.35265,0.31782886,-0.28512566,0.340046,0.32181483,-0.31438274,0.356292,0.32506605,-0.32685049,0.367648
0.28636025,-0.36574142,0.365448,0.27929484,-0.31245342,0.353929,0.26615769,-0.35599172,0.365667,0.24176512,-0.32523267,0.352663,0.20973455,-0.29044303,0.339052,0.19927369,-0.2637441,0.323041,0.24968796,-0.265889,0.346393,0.24146518,-0.21248201,0.327792,0.23658465,-0.21121696,0.318492,0.24515238,-0.2379649,0.329708,0.27207777,-0.26410658,0.342958,0.26116003,-0.2260361,0.321538,0.28841512,-0.27525069,0.347199,0.30053938,-0.30487941,0.363002,0.29141508,-0.26787493,0.341371,0.28203661,-0.26169495,0.321521,0.29828383,-0.30031034,0.341648,0.30185991,-0.33165534,0.357703,0.3152895,-0.28063617,0.341694,0.30821723,-0.27060694,0.325399,0.31123649,-0.29765873,0.34077,0.31210702,-0.3131843,0.352466
0.28768771,-0.36670133,0.366273,0.28072873,-0.31273612,0.354267,0.26715671,-0.35662004,0.366147,0.24290546,-0.32480882,0.352536,0.21293997,-0.28875965,0.339198,0.2044519,-0.26245195,0.323332,0.25055114,-0.26550901,0.345951,0.24105603,-0.21186613,0.326922,0.23619199,-0.21050152,0.317408,0.24489917,-0.23707898,0.328467,0.27282494,-0.26392357,0.342832,0.26306574,-0.22744857,0.320931,0.2891673,-0.27429877,0.346515,0.30163552,-0.3050817,0.362468,0.2920076,-0.26776286,0.341558,0.28426351,-0.25993602,0.321383,0.30149192,-0.29762136,0.341454,0.30704695,-0.32985517,0.357619,0.31630048,-0.28094949,0.342335,0.30899428,-0.27105584,0.325545,0.31175042,-0.29733518,0.340853,0.3127377,-0.31330264,0.352698
0.28825884,-0.36581845,0.365324,0.28431136,-0.30163768,0.353969,0.26740535,-0.35553434,0.364813,0.24328404,-0.31066269,0.350838,0.21332716,-0.27636019,0.337045,0.20626333,-0.25108364,0.321059,0.25307867,-0.25456729,0.345594,0.24144794,-0.20271881,0.327139,0.23698027,-0.20127937,0.317912,0.24617569,-0.22748158,0.329279,0.27591062,-0.25331424,0.343155,0.26567043,-0.22336918,0.322032,0.29187804,-0.2728287,0.347884,0.30310184,-0.30427878,0.36364,0.29527712,-0.25750431,0.342371,0.28801914,-0.2494345,0.323071,0.30459883,-0.2863967,0.343363,0.31072332,-0.31883846,0.359262,0.319544,-0.27154128,0.343594,0.31082032,-0.25998507,0.32707,0.31504367,-0.28667915,0.342533,0.31762847,-0.3034816,0.354344
0.29155185,-0.36343817,0.364912,0.28733366,-0.29946361,0.354735,0.27360663,-0.34736419,0.363931,0.24901687,-0.30448903,0.349633,0.2184538,-0.27026874,0.335428,0.20835236,-0.24705078,0.319419,0.25546962,-0.25304023,0.346547,0.24402532,-0.20167619,0.329081,0.24212541,-0.19741102,0.320348,0.25065632,-0.22635839,0.332195,0.28044403,-0.24947474,0.345042,0.27249553,-0.21865902,0.325305,0.30148571,-0.26473099,0.351544,0.31352171,-0.29477898,0.36692,0.30028057,-0.25347026,0.344901,0.29623618,-0.24454693,0.327078,0.31593257,-0.27937312,0.347687,0.32311053,-0.31365337,0.363116,0.32524565,-0.2670505,0.346649,0.3204015,-0.2525657,0.330726,0.32659886,-0.27897762,0.346417,0.32857867,-0.2969828,0.358106
0.29748158,-0.34905613,0.3651,0.29380371,-0.29086086,0.359765,0.27203898,-0.33418531,0.358969,0.24827509,-0.29314664,0.348583,0.21995664,-0.26170555,0.33772,0.21594454,-0.23898002,0.32616,0.25832027,-0.24241855,0.348158,0.26554582,-0.20992562,0.362848,0.27425327,-0.21051994,0.370193,0.29161899,-0.23885619,0.389234,0.28825653,-0.24679413,0.354685,0.28776613,-0.22882983,0.341645,0.31336495,-0.27765142,0.367999,0.32107698,-0.3036358,0.380989,0.31396123,-0.25527601,0.360634,0.31304902,-0.2479509,0.345772,0.33277851,-0.28250288,0.366307,0.33863819,-0.3164815,0.380511,0.34578784,-0.27397838,0.368543,0.34307866,-0.25985488,0.354204,0.34862632,-0.28652649,0.369837,0.34953033,-0.30461549,0.380944
0.30004317,-0.34899023,0.366951,0.29519858,-0.29205662,0.360329,0.27321703,-0.33264996,0.359185,0.24829797,-0.29279608,0.347252,0.21954792,-0.26083447,0.335608,0.2153133,-0.2379751,0.323737,0.25739551,-0.24142076,0.345717,0.26579318,-0.2101223,0.361958,0.27514235,-0.211226,0.370079,0.29237195,-0.23944397,0.388821,0.28861797,-0.24704571,0.354023,0.2854318,-0.2262845,0.337482,0.30898739,-0.27452236,0.362868,0.31641387,-0.30290822,0.37682,0.31569523,-0.25666645,0.361576,0.31294379,-0.24786731,0.34457,0.33214069,-0.28189875,0.364397,0.33859458,-0.31627852,0.379185,0.3495812,-0.2769835,0.371587,0.34563792,-0.26182739,0.355823,0.3506787,-0.2881816,0.370895,0.35182261,-0.30652871,0.382287
0.30161862,-0.34201535,0.366197,0.29592164,-0.2825975,0.360072,0.27518526,-0.32301931,0.358614,0.24918772,-0.28308403,0.347139,0.22064484,-0.25140288,0.335806,0.21645331,-0.22851058,0.323987,0.25852024,-0.23285259,0.346036,0.26669925,-0.2012231,0.361968,0.27600772,-0.20150051,0.369934,0.29333022,-0.22883597,0.388683,0.28969325,-0.23827795,0.354238,0.28843761,-0.21683696,0.338243,0.30972778,-0.26514288,0.363757,0.31601648,-0.28875022,0.377551,0.31667658,-0.24766354,0.361653,0.31445523,-0.23852776,0.34515,0.33386081,-0.27153212,0.365078,0.34019516,-0.30543434,0.379703,0.35035249,-0.26756921,0.371411,0.34686672,-0.25217978,0.356067,0.35204864,-0.27797594,0.371227,0.35308384,-0.2961944,0.382505
0.30219139,-0.34052069,0.366659,0.29634166,-0.28272689,0.360241,0.27566979,-0.32172517,0.358997,0.24947913,-0.28286303,0.347168,0.22098567,-0.25091621,0.335649,0.21686855,-0.22801066,0.323764,0.25894573,-0.23260309,0.345903,0.26754925,-0.20107225,0.362024,0.2770294,-0.201405,0.370084,0.2943281,-0.2287536,0.388841,0.29013279,-0.23819849,0.354129,0.2887655,-0.21660278,0.337814,0.3098676,-0.26481967,0.363268,0.31612852,-0.28846093,0.377159,0.31712911,-0.24774791,0.361594,0.31472078,-0.23845946,0.344807,0.3340434,-0.27141472,0.364689,0.34032987,-0.30533321,0.379409,0.35082829,-0.26789255,0.371465,0.34721546,-0.25236722,0.355881,0.35230474,-0.27807259,0.370999,0.35332919,-0.29629196,0.382345
0.30192459,-0.3262231,0.364313,0.30055832,-0.26968552,0.360912,0.27570408,-0.31055984,0.357246,0.29924191,-0.27655893,0.368693,0.3040339,-0.24546273,0.372608,0.33126985,-0.23452556,0.383031,0.26629204,-0.22143646,0.349397,0.26885651,-0.18758531,0.362361,0.27787963,-0.18862985,0.368842,0.29724575,-0.21564663,0.387412,0.2975417,-0.22807361,0.357672,0.29543034,-0.22176328,0.344661,0.31506334,-0.27304711,0.370548,0.32030681,-0.2953982,0.383379,0.32430269,-0.23817669,0.364853,0.32521258,-0.22331165,0.350915,0.34853318,-0.26067802,0.37113,0.35710641,-0.28495916,0.384834,0.35724075,-0.25848209,0.373827,0.35049833,-0.24344405,0.360684,0.35724887,-0.26906026,0.376117,0.35958353,-0.28885841,0.386726
0.29892785,-0.30784902,0.358664,0.29836753,-0.25874647,0.3579,0.27298409,-0.29135725,0.351441,0.29852635,-0.26330886,0.364922,0.30460994,-0.23130093,0.36811,0.33370295,-0.22149598,0.379989,0.26632409,-0.21153321,0.347974,0.27027013,-0.17747884,0.361167,0.28118147,-0.17741384,0.367763,0.30092397,-0.2032215,0.386073,0.29793323,-0.21945388,0.357173,0.30355139,-0.21446927,0.347054,0.32050953,-0.26235233,0.372821,0.32543039,-0.28468194,0.387597,0.32461974,-0.23038161,0.36483,0.33088613,-0.21534946,0.35313,0.35413265,-0.2518939,0.373233,0.36022899,-0.27598894,0.385988,0.35680331,-0.25118499,0.373862,0.35495217,-0.23594524,0.362717,0.36220055,-0.26045903,0.378111,0.36290409,-0.27984955,0.388002
0.29843802,-0.29574126,0.356637,0.30117477,-0.24845683,0.359113,0.27100622,-0.27603249,0.345799,0.30365306,-0.24502494,0.35824,0.31587985,-0.21402355,0.362353,0.34283625,-0.20346144,0.375066,0.26942338,-0.19885711,0.346678,0.27771208,-0.17402301,0.369268,0.29781815,-0.1688184,0.380563,0.31985231,-0.18739358,0.396465,0.30256906,-0.21206904,0.361472,0.32773219,-0.20746695,0.355103,0.35121854,-0.25216878,0.37757,0.34747913,-0.27298924,0.386926,0.33016417,-0.22707425,0.373387,0.34832063,-0.21526519,0.363325,0.36585737,-0.24512997,0.380741,0.36247671,-0.27082948,0.391762,0.36275781,-0.25205383,0.386752,0.37511727,-0.23403806,0.377554,0.38443707,-0.25790016,0.390929,0.3823904,-0.27536047,0.399353
0.30185991,-0.28278181,0.355456,0.30545999,-0.23770901,0.359734,0.27420626,-0.26153509,0.34241,0.31538016,-0.23619605,0.362926,0.33470568,-0.20667591,0.365503,0.37047942,-0.20791665,0.381199,0.2718639,-0.18817162,0.345646,0.27429901,-0.16278428,0.366837,0.29545408,-0.15642135,0.377432,0.31817237,-0.17275367,0.390671,0.30615551,-0.20307996,0.363808,0.33662196,-0.19761155,0.359932,0.35555398,-0.23794969,0.379063,0.34787164,-0.25816637,0.38647,0.33481649,-0.21933557,0.378303,0.3569489,-0.2107866,0.369442,0.37575512,-0.23710802,0.384181,0.37179919,-0.26258435,0.393647,0.36877731,-0.24549856,0.394323,0.38271246,-0.23161568,0.386564,0.39134206,-0.25023253,0.397908,0.38680318,-0.26793504,0.405037
0.30400108,-0.27059814,0.354856,0.30749362,-0.22937553,0.362652,0.27832427,-0.2507826,0.343499,0.30745368,-0.21867425,0.35476,0.29952859,-0.18766709,0.356929,0.31654424,-0.17278661,0.365146,0.27820422,-0.18261729,0.353152,0.27679827,-0.15680142,0.373555,0.29772687,-0.14933125,0.383757,0.32252362,-0.16503787,0.39787,0.31135261,-0.19763519,0.370076,0.34564302,-0.19182777,0.370083,0.36119533,-0.2324041,0.390341,0.35343736,-0.2514963,0.3994,0.33860202,-0.21366212,0.383173,0.36438764,-0.20575188,0.378035,0.3867886,-0.22879669,0.393672,0.38334614,-0.2544966,0.401994,0.37012488,-0.23892463,0.396909,0.38614367,-0.22638492,0.39223,0.3980742,-0.24217808,0.404336,0.3936914,-0.26013181,0.410677
0.30558824,-0.25868377,0.357875,0.31464224,-0.21817349,0.367693,0.28181353,-0.23161114,0.350336,0.31592265,-0.20784805,0.366165,0.30841954,-0.178752,0.371838,0.3245752,-0.16348023,0.381196,0.29213707,-0.17573594,0.364539,0.29907259,-0.15445796,0.390704,0.32022327,-0.14591245,0.403786,0.34461,-0.15991118,0.420126,0.32374541,-0.18982325,0.377043,0.35338949,-0.17950089,0.37904,0.36960856,-0.21937526,0.402822,0.36420219,-0.24043489,0.412803,0.34916108,-0.20472337,0.386281,0.37205785,-0.19369355,0.384139,0.39355473,-0.21460031,0.402612,0.38897774,-0.23968274,0.410857,0.37760136,-0.22806003,0.395159,0.39042442,-0.21248435,0.392598,0.40153217,-0.22654188,0.406936,0.39665502,-0.24401444,0.413396
0.2985113,-0.24285523,0.349397,0.31578927,-0.2201062,0.368001,0.2787951,-0.22705993,0.346209,0.30172752,-0.19515963,0.355867,0.30375692,-0.16754422,0.364423,0.31745,-0.15606418,0.372746,0.3034307,-0.19086662,0.376481,0.3414761,-0.16846414,0.400595,0.35919434,-0.16613379,0.412652,0.37206089,-0.18320631,0.431018,0.33317162,-0.2050816,0.38572,0.37073891,-0.17967178,0.398248,0.39459107,-0.21375635,0.422163,0.38624285,-0.23606311,0.425138,0.3562785,-0.21884491,0.391323,0.38643705,-0.20012886,0.399276,0.40014612,-0.22232689,0.417889,0.39008928,-0.24422928,0.422114,0.38068276,-0.23865573,0.394329,0.39962556,-0.211814,0.400302,0.42533085,-0.23003394,0.414928,0.42891797,-0.24905185,0.418497
0.29828504,-0.23859803,0.348812,0.31552389,-0.21503197,0.367722,0.27907223,-0.22331165,0.346432,0.30176416,-0.18510746,0.356037,0.30523206,-0.15810478,0.366152,0.31950487,-0.142995,0.375096,0.30397446,-0.18208909,0.377462,0.32142415,-0.15121719,0.397621,0.3414076,-0.14227208,0.4077,0.36653275,-0.15370096,0.425735,0.33211904,-0.194895,0.385732,0.37063562,-0.16907557,0.398657,0.39494798,-0.20208182,0.422953,0.3867278,-0.22460135,0.425904,0.35421818,-0.20781093,0.390504,0.385963,-0.18907809,0.399083,0.40016768,-0.21051574,0.41801,0.39022171,-0.2324663,0.422107,0.37699211,-0.2270015,0.392488,0.39805224,-0.20035343,0.398922,0.42398185,-0.21810892,0.413798,0.42767531,-0.23696622,0.417302
0.29446105,-0.22147492,0.343814,0.31621956,-0.20024491,0.367782,0.27921819,-0.20952417,0.346456,0.32095685,-0.1855714,0.372983,0.33306796,-0.16195216,0.389407,0.33843349,-0.15263823,0.404198,0.31188989,-0.17556491,0.387497,0.33131599,-0.1392939,0.403766,0.3501485,-0.12656103,0.411901,0.37950571,-0.12821249,0.43099,0.33699215,-0.18666356,0.390609,0.38193914,-0.16560067,0.410882,0.4073863,-0.19713148,0.435138,0.39950742,-0.22668388,0.438656,0.35524466,-0.19726467,0.390589,0.39558176,-0.17856057,0.407208,0.41709945,-0.20034827,0.426183,0.4091258,-0.22301302,0.427314,0.37241164,-0.21222558,0.38606,0.39715079,-0.18767008,0.398504,0.42312396,-0.20453675,0.4135,0.42472334,-0.22212434,0.414935
0.2948824,-0.2108499,0.344417,0.31643918,-0.189944,0.367638,0.2797288,-0.19892284,0.347132,0.32244434,-0.17553426,0.374332,0.33476064,-0.15137262,0.390718,0.34006325,-0.14161033,0.405278,0.31206129,-0.1647433,0.386942,0.33120745,-0.12769642,0.402578,0.34979677,-0.11438653,0.410397,0.37918414,-0.11523283,0.429546,0.33691563,-0.17574772,0.389753,0.38132979,-0.15341037,0.409395,0.40688895,-0.18411587,0.43401,0.39839614,-0.20797956,0.435662,0.35497377,-0.18632667,0.389566,0.39477373,-0.16654035,0.40557,0.4163935,-0.18765329,0.424824,0.40853998,-0.21038612,0.426251,0.37195455,-0.20136371,0.384983,0.39619579,-0.17596914,0.396784,0.42225428,-0.19235144,0.411977,0.42404558,-0.2100533,0.413716
0.30068212,-0.20249213,0.343224,0.32318066,-0.18410533,0.367142,0.28440019,-0.19107475,0.345323,0.32940114,-0.1690508,0.372915,0.33596816,-0.14447052,0.387888,0.33874149,-0.13830503,0.403492,0.31193738,-0.16245612,0.386115,0.33008029,-0.12507608,0.402357,0.34936475,-0.11172127,0.410478,0.37969903,-0.11253897,0.429488,0.33825876,-0.17001719,0.389921,0.38472996,-0.14536338,0.410658,0.41536619,-0.17487895,0.434828,0.40765788,-0.19876423,0.434917,0.35755182,-0.17931644,0.390477,0.39884179,-0.15738776,0.407355,0.42426302,-0.17738244,0.426253,0.4185232,-0.2003682,0.426988,0.37686111,-0.19274494,0.386627,0.40052178,-0.1662675,0.398841,0.42872708,-0.18099355,0.413752,0.43180633,-0.19831094,0.415234
0.31147564,-0.21366123,0.356196,0.33338094,-0.18890835,0.378217,0.29440293,-0.19673801,0.354602,0.33214822,-0.17418067,0.378935,0.33623252,-0.14398692,0.386281,0.34262853,-0.12972615,0.398707,0.32188758,-0.155869,0.391094,0.33469094,-0.11634403,0.402531,0.35438142,-0.10599398,0.408249,0.38533388,-0.10776301,0.425469,0.34947174,-0.16764272,0.399191,0.40024298,-0.14574947,0.418676,0.43472252,-0.16637834,0.442181,0.42878765,-0.18890464,0.442511,0.37023647,-0.17967891,0.403485,0.41111923,-0.16685164,0.415832,0.43441105,-0.18103082,0.434023,0.42823173,-0.20376926,0.436305,0.39102221,-0.19771892,0.40433,0.42818667,-0.19237323,0.417961,0.44892317,-0.21689495,0.432208,0.45071274,-0.23367124,0.437951
0.3276262,-0.21454342,0.36379,0.34763863,-0.19143141,0.382974,0.30888874,-0.20106263,0.362508,0.36130795,-0.1832053,0.39182,0.34195465,-0.15400521,0.39148,0.33635961,-0.1463146,0.403069,0.33449984,-0.15739499,0.39433,0.34685952,-0.11715563,0.404545,0.36671456,-0.10639875,0.409653,0.39939789,-0.10831356,0.427538,0.36109728,-0.16875008,0.401245,0.40968446,-0.14547899,0.416866,0.44730191,-0.16625425,0.441788,0.44347229,-0.18952189,0.44396,0.38126185,-0.18053471,0.404872,0.42293777,-0.15142992,0.41888,0.4578629,-0.15341911,0.438462,0.46322378,-0.16515151,0.440628,0.40184031,-0.19848748,0.405475,0.44101628,-0.19330126,0.419772,0.4632157,-0.21810315,0.434669,0.46619008,-0.23564634,0.441672
0.33115829,-0.21348486,0.365707,0.34938737,-0.18199621,0.383677,0.31270319,-0.19996267,0.364549,0.36404835,-0.17331349,0.393479,0.34222238,-0.14538361,0.392239,0.33829962,-0.1376717,0.404485,0.33564083,-0.14764775,0.394369,0.34820324,-0.10715821,0.40478,0.36821924,-0.095844623,0.409985,0.40142838,-0.096895215,0.428301,0.36178693,-0.15888135,0.400791,0.40888136,-0.13386164,0.414791,0.44710784,-0.15332874,0.440214,0.44407134,-0.17658312,0.44313,0.38166631,-0.17058725,0.404142,0.42271731,-0.14070644,0.417512,0.45817295,-0.14180356,0.437532,0.46404592,-0.15312591,0.440132,0.40211458,-0.1885083,0.404655,0.44280444,-0.18277249,0.42031,0.46502355,-0.20713829,0.435171,0.47445312,-0.22785957,0.448284
0.37069169,-0.20198236,0.379796,0.37286249,-0.17398499,0.393654,0.34799961,-0.19057093,0.375769,0.39247414,-0.16781461,0.40788,0.42187682,-0.14009735,0.417206,0.44218011,-0.12250134,0.432655,0.34574623,-0.14126355,0.397819,0.35913463,-0.099172119,0.403944,0.3722657,-0.079773998,0.407007,0.39850404,-0.062699835,0.424154,0.37526925,-0.14837543,0.406853,0.41470572,-0.12547112,0.416619,0.44881715,-0.15484579,0.441946,0.44508119,-0.18074277,0.447631,0.39926379,-0.15707296,0.412798,0.43768033,-0.14221553,0.423759,0.46522176,-0.16297707,0.443779,0.46127257,-0.18732974,0.447666,0.42674158,-0.17219498,0.417094,0.44618593,-0.15480372,0.418709,0.47058662,-0.16711893,0.433992,0.47566285,-0.18629919,0.43935
0.37149691,-0.19742758,0.380621,0.37318263,-0.16433433,0.393992,0.34858212,-0.18590773,0.376398,0.39283209,-0.15706509,0.408252,0.42293554,-0.12918228,0.418253,0.44337995,-0.11129291,0.433829,0.34553069,-0.13152202,0.397571,0.35872566,-0.089001921,0.403484,0.37174801,-0.069170366,0.406441,0.39795159,-0.05131125,0.423566,0.3751521,-0.13868998,0.406726,0.41403581,-0.1143821,0.415946,0.44811762,-0.1434383,0.441305,0.44338988,-0.16806543,0.44593,0.39928894,-0.14743795,0.412824,0.43725273,-0.13122581,0.423345,0.46481711,-0.15097932,0.443393,0.46074501,-0.17519916,0.447154,0.4270434,-0.16263565,0.417389,0.44600477,-0.14421332,0.418539,0.47041096,-0.15572445,0.43383,0.47566718,-0.1748077,0.439354
0.37211376,-0.19275357,0.381253,0.37347437,-0.15465511,0.3943,0.34950081,-0.17640703,0.37739,0.3936673,-0.14647327,0.40912,0.42589429,-0.11874054,0.421179,0.4466177,-0.10048049,0.436997,0.34601391,-0.12203901,0.398127,0.3591942,-0.079047795,0.404011,0.37300016,-0.059719699,0.406953,0.39969854,-0.047032086,0.424276,0.37515118,-0.12905052,0.406725,0.41348336,-0.10335767,0.415391,0.44785869,-0.13128842,0.44105,0.44342766,-0.1560882,0.445968,0.39887787,-0.13765118,0.412399,0.43614448,-0.12006992,0.422272,0.46393024,-0.13885787,0.442547,0.46487869,-0.16524733,0.44666,0.4261676,-0.15264083,0.416533,0.44488906,-0.13335137,0.417492,0.46948169,-0.14410712,0.432973,0.474892,-0.16304838,0.438638
0.37388606,-0.18598553,0.382179,0.37482207,-0.15470945,0.39525,0.34989833,-0.17398767,0.376882,0.39394967,-0.14530661,0.40842,0.4247008,-0.1173774,0.419495,0.44542688,-0.099603577,0.435797,0.34518952,-0.12188572,0.397226,0.35915086,-0.079032579,0.40202,0.37658102,-0.062791157,0.404417,0.40086693,-0.050238917,0.420837,0.37574252,-0.1295957,0.407698,0.41513453,-0.10326922,0.416974,0.44934698,-0.13034252,0.441735,0.4445988,-0.15504886,0.446151,0.40084221,-0.13874793,0.414914,0.43067916,-0.11813004,0.417055,0.45774851,-0.13585666,0.436174,0.46178011,-0.16035597,0.442948,0.43003424,-0.15437035,0.420832,0.44895196,-0.13417404,0.421485,0.47337885,-0.14434962,0.436373,0.47893583,-0.16323897,0.441915
0.37594027,-0.18539042,0.384249,0.37688851,-0.15475547,0.397395,0.35116938,-0.17295038,0.378089,0.39508617,-0.14492798,0.409451,0.42347815,-0.11523815,0.419682,0.44561694,-0.098829269,0.436211,0.34641728,-0.12145169,0.398298,0.36050612,-0.078625828,0.402284,0.37727352,-0.062186844,0.404277,0.40654586,-0.049093735,0.420024,0.37793684,-0.12958202,0.409915,0.41433165,-0.10251318,0.415941,0.44753355,-0.12917994,0.439801,0.44365628,-0.15394475,0.445111,0.40390117,-0.13911246,0.418065,0.4333466,-0.11833897,0.419588,0.45954624,-0.1374532,0.438125,0.46168643,-0.15919799,0.444915,0.43417177,-0.15524784,0.425054,0.45322955,-0.1349572,0.425607,0.47722722,-0.1450209,0.440061,0.48256721,-0.16390915,0.445471
0.37462801,-0.18386045,0.382776,0.37718201,-0.15471812,0.3978,0.35119955,-0.17206836,0.377894,0.39588956,-0.14494276,0.410394,0.4233764,-0.11590193,0.419228,0.44641891,-0.098984065,0.435311,0.34921684,-0.12233405,0.401642,0.36779765,-0.081937813,0.409093,0.38440248,-0.065929391,0.412818,0.41520538,-0.050712458,0.4297,0.37970098,-0.13015114,0.412108,0.42013893,-0.10135659,0.422045,0.46086369,-0.1219425,0.44632,0.4617676,-0.14736382,0.450346,0.40453479,-0.13933533,0.419108,0.43648683,-0.11914682,0.422911,0.4633611,-0.13656987,0.441708,0.4639754,-0.16002819,0.447681,0.43301884,-0.1548651,0.424409,0.45536868,-0.13581195,0.426848,0.48847786,-0.15243428,0.441541,0.49474975,-0.16987278,0.44638
0.37437517,-0.18305235,0.382671,0.37811599,-0.15433979,0.398642,0.35170113,-0.17147135,0.378387,0.39748897,-0.14429901,0.411411,0.42274903,-0.11440936,0.418634,0.44645629,-0.098296706,0.434225,0.35295041,-0.11953144,0.403906,0.37124627,-0.081090781,0.413103,0.38830635,-0.061489375,0.417701,0.41770949,-0.044986861,0.435103,0.38197924,-0.12839005,0.413852,0.42554133,-0.10191438,0.425687,0.46669304,-0.12554216,0.450082,0.4654838,-0.15090157,0.453458,0.40596664,-0.13760575,0.420321,0.44406835,-0.11367167,0.426924,0.47619367,-0.12367941,0.445874,0.4806062,-0.14451021,0.450779,0.43307239,-0.15316539,0.424828,0.46063788,-0.13719384,0.428223,0.49105041,-0.15312012,0.442986,0.49641205,-0.17035169,0.447515
0.37503844,-0.18300841,0.383414,0.37917888,-0.15442066,0.399556,0.35231628,-0.17123822,0.378895,0.3984322,-0.14459189,0.411943,0.42219301,-0.11424301,0.41768,0.44658111,-0.097703228,0.432925,0.35439841,-0.11938784,0.404629,0.37318501,-0.080475107,0.414447,0.39109556,-0.063177788,0.419356,0.42111914,-0.047641442,0.436788,0.38427959,-0.12752497,0.414929,0.4295675,-0.0955487,0.427849,0.47067804,-0.1186098,0.452063,0.46727589,-0.14617104,0.454989,0.40769996,-0.13775771,0.421671,0.44583647,-0.11518342,0.428157,0.47697658,-0.12667221,0.446905,0.478475,-0.15127489,0.451776,0.43485261,-0.15365441,0.426462,0.46304924,-0.13839492,0.429959,0.49312855,-0.15458284,0.444577,0.49808234,-0.17172704,0.449017
0.37840255,-0.18452807,0.386518,0.38388308,-0.15638803,0.40386,0.35499212,-0.17229268,0.381288,0.39052478,-0.14200821,0.403262,0.40050637,-0.10881968,0.395197,0.42289086,-0.092759044,0.406807,0.36142274,-0.12199688,0.408823,0.37902581,-0.082709126,0.417111,0.39575805,-0.064395999,0.421255,0.42277906,-0.047068736,0.437504,0.39417803,-0.13313416,0.420376,0.44026524,-0.1047523,0.435194,0.47685938,-0.13513554,0.458349,0.47160797,-0.15512457,0.460258,0.41905988,-0.14344059,0.42802,0.45397398,-0.11925511,0.433976,0.48259772,-0.13302708,0.451772,0.48316705,-0.15424299,0.456476,0.44674022,-0.16039716,0.433633,0.47674761,-0.14688924,0.438074,0.50030877,-0.16843785,0.452041,0.504182,-0.17975273,0.458176
0.37942527,-0.18493237,0.387303,0.38541819,-0.15705196,0.404987,0.35572766,-0.17245926,0.381703,0.38482218,-0.14013455,0.39702,0.38954771,-0.10610886,0.384119,0.40923373,-0.090129232,0.393403,0.36276664,-0.12295289,0.409701,0.37996012,-0.083049879,0.417195,0.39601168,-0.064177904,0.420942,0.42241719,-0.046651428,0.436631,0.39554048,-0.13359433,0.421829,0.43883142,-0.10468613,0.433271,0.47409716,-0.13435277,0.455694,0.46948286,-0.15552283,0.458593,0.42091129,-0.14407431,0.429911,0.4567114,-0.12027457,0.436086,0.48467155,-0.13428734,0.453482,0.48496622,-0.15464889,0.457938,0.44914477,-0.16126049,0.435967,0.47956408,-0.14775701,0.440662,0.50283776,-0.16928928,0.454326,0.50555925,-0.18167578,0.460643
0.38047229,-0.18537634,0.388205,0.38712582,-0.15741997,0.406023,0.35680278,-0.17277075,0.382558,0.38612174,-0.14075307,0.396802,0.38765504,-0.10556108,0.383164,0.40321879,-0.088640363,0.392022,0.36549805,-0.12442059,0.410765,0.38387216,-0.083858465,0.4184,0.39988436,-0.06446061,0.422217,0.42651822,-0.047815616,0.437872,0.39722845,-0.13392701,0.422992,0.44205803,-0.10603086,0.434603,0.47600793,-0.13499537,0.456915,0.47086519,-0.15821963,0.460106,0.42262416,-0.14461798,0.43114,0.45985566,-0.12267338,0.437434,0.48670725,-0.13790542,0.454741,0.48486385,-0.1593174,0.459114,0.45080277,-0.16206358,0.437249,0.4815195,-0.14874133,0.442059,0.50457605,-0.17037048,0.455657,0.50672397,-0.18317542,0.462197
0.38162644,-0.18473734,0.389076,0.38812334,-0.15784823,0.40669,0.35807805,-0.17198973,0.383393,0.38706003,-0.14119287,0.397499,0.38815836,-0.10576323,0.383967,0.4036955,-0.088756274,0.392888,0.36625482,-0.12444826,0.411247,0.38460787,-0.083858596,0.418611,0.40074449,-0.064687563,0.422294,0.42766227,-0.048140459,0.43792,0.39797119,-0.13405895,0.423465,0.44271557,-0.10620312,0.434826,0.47662985,-0.13522217,0.457205,0.47149013,-0.15865612,0.460673,0.42335718,-0.14484753,0.431628,0.46047827,-0.12332411,0.437706,0.48715454,-0.13887144,0.455067,0.48514897,-0.16050581,0.459548,0.45153114,-0.16242918,0.437792,0.48212023,-0.14911742,0.442411,0.50513927,-0.17080824,0.456046,0.50713528,-0.18397096,0.462867
0.38310356,-0.18551099,0.390308,0.39090329,-0.15925961,0.407416,0.35987379,-0.17267806,0.384794,0.39149316,-0.14364606,0.401485,0.39391849,-0.10798393,0.390137,0.41238728,-0.09112879,0.400259,0.36735657,-0.12479075,0.411851,0.38522689,-0.084263851,0.418897,0.40124998,-0.065096885,0.42242,0.42851859,-0.048513687,0.438224,0.39876536,-0.13438638,0.423709,0.44346555,-0.10679657,0.43484,0.4776147,-0.13613378,0.457643,0.47238429,-0.15959119,0.461328,0.42389181,-0.14518871,0.431631,0.46067486,-0.12344124,0.437258,0.48808214,-0.13854926,0.45494,0.48664663,-0.16037567,0.459731,0.45177132,-0.16283133,0.437609,0.48176034,-0.14920924,0.441793,0.5050633,-0.17095979,0.455666,0.50720424,-0.18448914,0.462857
0.3845655,-0.18656807,0.391789,0.39193669,-0.15988648,0.408249,0.36151464,-0.17357394,0.386308,0.39366082,-0.14475862,0.403621,0.39687203,-0.10909731,0.393317,0.41604305,-0.092179292,0.403939,0.36812067,-0.1250291,0.412286,0.38546549,-0.084495522,0.418899,0.40130204,-0.065322767,0.422205,0.42880741,-0.048743207,0.438112,0.39934432,-0.13462139,0.423924,0.44364064,-0.10711383,0.434531,0.4780012,-0.13666492,0.457676,0.47276294,-0.160171,0.461542,0.42434838,-0.14545044,0.431735,0.46056293,-0.1234541,0.43673,0.4885012,-0.13827815,0.45467,0.48767437,-0.16026783,0.45982,0.45215734,-0.16318074,0.437706,0.48144237,-0.14924589,0.44131,0.50496503,-0.17104454,0.45537,0.50728421,-0.18486995,0.462878
0.38569874,-0.18757291,0.392769,0.39262793,-0.16032282,0.408786,0.36275287,-0.17441184,0.387266,0.39521389,-0.14556805,0.405148,0.39911629,-0.11018653,0.395574,0.4186332,-0.093165157,0.406517,0.3685733,-0.12516769,0.412492,0.38559468,-0.084651663,0.418856,0.40132584,-0.06548142,0.422038,0.42899388,-0.048911554,0.437998,0.3997226,-0.13477739,0.42404,0.44369557,-0.10732328,0.434242,0.47814087,-0.13700521,0.457569,0.47292951,-0.16056562,0.461588,0.42468803,-0.14564207,0.431823,0.46050338,-0.12346867,0.436373,0.48877306,-0.13807698,0.454452,0.48839348,-0.16016948,0.459837,0.45250716,-0.16345713,0.437847,0.48130773,-0.14930053,0.44105,0.50494952,-0.17112352,0.455208,0.5073806,-0.18516859,0.462927
0.38685663,-0.18855081,0.393831,0.39331214,-0.1607223,0.409356,0.36402043,-0.17521524,0.388321,0.39694727,-0.1463924,0.406874,0.40167911,-0.11129077,0.398397,0.42129364,-0.094029646,0.409827,0.36898039,-0.12529457,0.412722,0.38565566,-0.084760727,0.418785,0.40125229,-0.065585202,0.421817,0.42906751,-0.04903408,0.437837,0.40002148,-0.1348995,0.424143,0.4436207,-0.10745209,0.433912,0.47820499,-0.13724864,0.45745,0.47300176,-0.16085278,0.461568,0.42492805,-0.14578076,0.431874,0.46028379,-0.12343264,0.43594,0.48885884,-0.13789293,0.454179,0.48892654,-0.1600841,0.459825,0.45274611,-0.16365597,0.43793,0.48103084,-0.14928684,0.440694,0.5048052,-0.17113775,0.454967,0.50739407,-0.18537826,0.462909
0.39415872,-0.19170275,0.399465,0.40744827,-0.16193885,0.413424,0.37183372,-0.17914454,0.392781,0.4199276,-0.1520275,0.414173,0.423803,-0.11616506,0.406569,0.43498204,-0.096583087,0.417588,0.37275395,-0.12620368,0.414196,0.3852613,-0.084518068,0.41811,0.40099802,-0.065838014,0.420068,0.43083797,-0.050841467,0.435281,0.40460326,-0.13581635,0.426718,0.45380961,-0.11057641,0.435732,0.49060424,-0.14012414,0.45895,0.47934702,-0.16457635,0.465077,0.43266645,-0.14283948,0.435526,0.47224905,-0.12300159,0.440462,0.49948831,-0.14831863,0.458534,0.49739077,-0.17190068,0.467655,0.46179103,-0.1589866,0.443125,0.4884619,-0.14657576,0.444308,0.50867306,-0.17192983,0.458301,0.51168297,-0.18669863,0.466749
0.39658267,-0.19239369,0.400166,0.40771536,-0.162045,0.413695,0.37435243,-0.17952853,0.393294,0.42228896,-0.15288239,0.416502,0.42811953,-0.11734823,0.41071,0.44076555,-0.098374299,0.422871,0.37320792,-0.12616287,0.413929,0.3849668,-0.084328726,0.417593,0.40062062,-0.065731072,0.419425,0.43083732,-0.05162229,0.434583,0.4049587,-0.13541808,0.426578,0.45305036,-0.11039141,0.435003,0.48981854,-0.13989974,0.458215,0.47979066,-0.16436533,0.464212,0.43267738,-0.14284309,0.435537,0.47159503,-0.12283124,0.439852,0.49881402,-0.14811841,0.457915,0.49694087,-0.17174519,0.467232,0.46206928,-0.15908239,0.443392,0.48830579,-0.14652892,0.444166,0.50863905,-0.17150392,0.458149,0.51140418,-0.18722547,0.466967
0.39853405,-0.19273123,0.400698,0.40797751,-0.16214919,0.413961,0.37614332,-0.17979934,0.393653,0.42285471,-0.15308721,0.41706,0.42933079,-0.11768023,0.411872,0.44209303,-0.098542074,0.424289,0.37357788,-0.12614918,0.413789,0.38511101,-0.084238959,0.417257,0.40039025,-0.065658273,0.418991,0.43074096,-0.052079774,0.434067,0.40531956,-0.13516965,0.426591,0.45262547,-0.11028787,0.434595,0.48931506,-0.13975593,0.457744,0.48019893,-0.16424658,0.463685,0.43284428,-0.14289819,0.435705,0.47127016,-0.12274663,0.439549,0.49842405,-0.14800261,0.457557,0.4967111,-0.1716658,0.467016,0.46248405,-0.15922519,0.44379,0.48845641,-0.14657411,0.444303,0.50902298,-0.17128706,0.458245,0.51179125,-0.18713974,0.467064
0.40040979,-0.19303393,0.401158,0.40822193,-0.16224633,0.414209,0.37751438,-0.18001599,0.393952,0.42307067,-0.1531654,0.417273,0.42990306,-0.1178371,0.412421,0.44269058,-0.098547515,0.425006,0.37385714,-0.12613952,0.413686,0.38532114,-0.0841638,0.416993,0.40020908,-0.065600528,0.418647,0.4305964,-0.052375085,0.433642,0.40562747,-0.13499582,0.42664,0.45229841,-0.11020818,0.434281,0.48889816,-0.13963686,0.457354,0.48049064,-0.16415291,0.463277,0.433038,-0.14296214,0.4359,0.47104072,-0.12268687,0.439335,0.49812122,-0.14791268,0.457279,0.49654309,-0.17160772,0.466858,0.46290715,-0.15937085,0.444196,0.48867299,-0.1466391,0.4445,0.50946541,-0.17109038,0.458394,0.51221754,-0.18706852,0.467197
0.40230898,-0.19348804,0.401983,0.40825398,-0.16220952,0.414806,0.37802445,-0.18025554,0.394838,0.42227341,-0.15339552,0.417441,0.42774574,-0.11771139,0.41124,0.43573157,-0.097976029,0.423157,0.3739335,-0.12603129,0.414209,0.38604161,-0.084297889,0.417907,0.4011913,-0.065854441,0.419757,0.43033904,-0.051658801,0.43497,0.40742813,-0.13321927,0.42702,0.44826488,-0.10910721,0.43399,0.48835839,-0.13924322,0.457186,0.48082675,-0.16398331,0.463188,0.43294678,-0.14230333,0.436187,0.46794211,-0.12388927,0.438872,0.49731606,-0.14854683,0.456903,0.49680807,-0.17257176,0.467366,0.46273388,-0.15854842,0.444418,0.48814215,-0.14584864,0.44453,0.51005007,-0.16722177,0.458511,0.51182768,-0.1861143,0.466498
0.40476596,-0.19421155,0.403368,0.40861477,-0.16231984,0.415549,0.38017888,-0.18111526,0.395876,0.42212053,-0.15368578,0.417926,0.4272116,-0.11787487,0.411319,0.43616743,-0.098330619,0.423019,0.37429499,-0.12598123,0.414061,0.38545125,-0.084145738,0.417402,0.40045781,-0.065826794,0.419072,0.42950973,-0.05178496,0.434155,0.40729272,-0.13287863,0.42715,0.44817378,-0.10913975,0.4333,0.4872855,-0.13877781,0.456406,0.48052327,-0.16365281,0.462566,0.43312158,-0.14194107,0.436616,0.46756168,-0.12390449,0.438416,0.49647248,-0.14887694,0.45637,0.49645882,-0.17303217,0.46721,0.46339676,-0.15826609,0.445314,0.48807493,-0.14540734,0.444811,0.51015683,-0.16655215,0.458724,0.51236035,-0.18549582,0.46664
0.40710628,-0.1946222,0.404605,0.40901786,-0.16245637,0.416228,0.38223472,-0.18170425,0.396802,0.42188604,-0.15384728,0.418148,0.42650018,-0.1179002,0.411057,0.43629094,-0.09827212,0.422529,0.37450954,-0.12582787,0.413955,0.38479064,-0.083796416,0.416836,0.3996639,-0.065653654,0.418276,0.42864216,-0.051822462,0.43319,0.40724752,-0.13265204,0.427297,0.44793685,-0.10893563,0.432702,0.48637147,-0.13840363,0.45571,0.48068632,-0.1633192,0.461873,0.43335382,-0.14171701,0.437031,0.46757044,-0.12384889,0.438056,0.49580138,-0.14909138,0.455926,0.49614722,-0.17333906,0.46704,0.46406843,-0.15813096,0.446145,0.48813451,-0.14512399,0.44511,0.51031845,-0.16610089,0.458953,0.51281031,-0.1848084,0.466868
0.40940798,-0.19501531,0.405805,0.40946995,-0.16261821,0.41689,0.38426215,-0.18228021,0.3977,0.42164141,-0.15394313,0.418246,0.42572316,-0.11785145,0.410625,0.43622317,-0.09817086,0.421856,0.3747331,-0.12567754,0.413859,0.38413308,-0.083448154,0.416273,0.39886907,-0.065480457,0.417479,0.42776658,-0.051858797,0.432217,0.40725051,-0.13249401,0.427446,0.44770822,-0.10873387,0.432113,0.48550057,-0.13807053,0.455014,0.48085193,-0.16298764,0.461185,0.43362474,-0.1415802,0.43744,0.46757921,-0.12379341,0.437697,0.49517223,-0.14921379,0.455477,0.49581636,-0.17353501,0.466821,0.46476805,-0.15809548,0.446957,0.48826433,-0.14493655,0.445412,0.51050211,-0.16578221,0.459181,0.51328147,-0.18412741,0.467115
