sluyters/QuantumLeap/backend/src/datasets/gesture/HandGestureDataset_SHREC2017_csv/Gesture8/finger_1/subject_15_essai_4_skeletons_world.csv
Wrist_x,Wrist_y,Wrist_z,Palm_x,Palm_y,Palm_z,thumb_base_x,thumb_base_y,thumb_base_z,thumb_first_joint_x,thumb_first_joint_y,thumb_first_joint_z,thumb_second_joint_x,thumb_second_joint_y,thumb_second_joint_z,thumb_tip_x,thumb_tip_y,thumb_tip_z,index_base_x,index_base_y,index_base_z,index_first_joint_x,index_first_joint_y,index_first_joint_z,index_second_joint_x,index_second_joint_y,index_second_joint_z,index_tip_x,index_tip_y,index_tip_z,middle_base_x,middle_base_y,middle_base_z,middle_first_joint_x,middle_first_joint_y,middle_first_joint_z,middle_second_joint_x,middle_second_joint_y,middle_second_joint_z,middle_tip_x,middle_tip_y,middle_tip_z,ring_base_x,ring_base_y,ring_base_z,ring_first_joint_x,ring_first_joint_y,ring_first_joint_z,ring_second_joint_x,ring_second_joint_y,ring_second_joint_z,ring_tip_x,ring_tip_y,ring_tip_z,pinky_base_x,pinky_base_y,pinky_base_z,pinky_first_joint_x,pinky_first_joint_y,pinky_first_joint_z,pinky_second_joint_x,pinky_second_joint_y,pinky_second_joint_z,pinky_tip_x,pinky_tip_y,pinky_tip_z,
0.61143469,-0.3864075,0.577303,0.60294404,-0.34083282,0.562631,0.58936114,-0.36393901,0.571055,0.60492796,-0.33557284,0.568648,0.631493,-0.31246311,0.572289,0.65009961,-0.2913406,0.577554,0.57863168,-0.27714528,0.544077,0.58315256,-0.25983537,0.524288,0.58481,-0.25063233,0.514393,0.6030109,-0.24680133,0.523107,0.60338986,-0.29030597,0.546658,0.60507351,-0.28689884,0.525767,0.60915614,-0.33035637,0.547101,0.61395344,-0.35520662,0.561354,0.62182955,-0.30392574,0.549876,0.62189185,-0.29987594,0.529455,0.62028484,-0.33178354,0.547414,0.61756148,-0.35918752,0.562834,0.64415452,-0.32678743,0.555797,0.63884033,-0.31813533,0.537035,0.64666431,-0.34864975,0.550442,0.64919516,-0.36819167,0.562244
0.61245306,-0.38840539,0.579989,0.60684521,-0.33765355,0.563683,0.59002325,-0.36500007,0.572954,0.59776221,-0.34048981,0.570828,0.61067677,-0.31594902,0.566355,0.62035664,-0.29221352,0.564698,0.58106369,-0.27797712,0.542949,0.57474224,-0.26015275,0.52151,0.57139826,-0.25067419,0.510791,0.5887199,-0.25047138,0.518748,0.60464363,-0.29062934,0.54593,0.58841586,-0.29435056,0.523385,0.59111568,-0.33549037,0.5442,0.59173641,-0.36331248,0.558889,0.6242501,-0.30454184,0.549598,0.60817512,-0.30732693,0.527682,0.60601003,-0.33846661,0.545209,0.60399478,-0.36262771,0.56106,0.6480393,-0.3280175,0.55629,0.62507929,-0.32395844,0.536299,0.62122383,-0.34913765,0.549347,0.62472621,-0.36440481,0.561441
0.59951866,-0.3859364,0.575663,0.59005024,-0.34154605,0.561139,0.57437503,-0.36357085,0.568986,0.58680096,-0.34259884,0.56908,0.59850768,-0.318812,0.561509,0.61037539,-0.29973449,0.559596,0.57256805,-0.27579864,0.542168,0.56772275,-0.26132299,0.522321,0.56620477,-0.25229845,0.512398,0.58818816,-0.25205974,0.521071,0.59588811,-0.29194514,0.545326,0.58099893,-0.29636041,0.524343,0.58320204,-0.33744503,0.545634,0.58261539,-0.36465848,0.559908,0.61566956,-0.30610182,0.549007,0.60014938,-0.30947658,0.528474,0.59773439,-0.34055683,0.546395,0.59480467,-0.36404664,0.562115,0.63894461,-0.32971291,0.555461,0.61593723,-0.32550654,0.536638,0.61129538,-0.34986558,0.550017,0.61297036,-0.36434612,0.56183
0.53481726,-0.37161775,0.544755,0.54924241,-0.32983476,0.536742,0.51887586,-0.34533521,0.537924,0.53670378,-0.31546537,0.536561,0.55711338,-0.29658124,0.530412,0.57298963,-0.27964573,0.529274,0.53965043,-0.26992591,0.522415,0.54202522,-0.25561563,0.506468,0.54376894,-0.24894982,0.498495,0.56516308,-0.25145387,0.50868,0.56377362,-0.28625683,0.528018,0.56630076,-0.28783017,0.512711,0.56515464,-0.32717426,0.534905,0.55922183,-0.35200902,0.547408,0.58290845,-0.30275473,0.533225,0.5858578,-0.30523898,0.517192,0.59127286,-0.34174657,0.535822,0.58766715,-0.36058059,0.549878,0.60426987,-0.32841524,0.540572,0.59318734,-0.32073546,0.525704,0.58958002,-0.34295794,0.539729,0.58438537,-0.35931694,0.5504
0.51952578,-0.36760153,0.538542,0.52474225,-0.32552388,0.52878,0.49518909,-0.34117564,0.531847,0.50672045,-0.30725997,0.527161,0.52436486,-0.28606333,0.521222,0.5371873,-0.26735831,0.518481,0.51625112,-0.26513498,0.513322,0.5165425,-0.25016785,0.496411,0.51714839,-0.24316494,0.487956,0.53704257,-0.2454021,0.497838,0.53916455,-0.28163255,0.518152,0.53761342,-0.28181151,0.501303,0.53508338,-0.32039117,0.523374,0.52916211,-0.34512173,0.536397,0.55730901,-0.29827952,0.522854,0.55664764,-0.29963647,0.505629,0.56038005,-0.33555195,0.524172,0.55732161,-0.35441677,0.538534,0.57752044,-0.32416421,0.529847,0.56342133,-0.3150441,0.513917,0.55850334,-0.33650262,0.527847,0.55372751,-0.35285137,0.538855
0.47380177,-0.35760694,0.521967,0.48892556,-0.31493656,0.510955,0.45818012,-0.33001383,0.513327,0.46876533,-0.29707612,0.506543,0.48365782,-0.27665467,0.497223,0.495459,-0.2580399,0.492794,0.47995916,-0.25282543,0.492184,0.47856692,-0.24096469,0.473374,0.47826973,-0.23566494,0.463969,0.49666274,-0.23971639,0.472834,0.50400954,-0.27041237,0.498966,0.50044275,-0.27575041,0.480831,0.49543282,-0.31263969,0.50212,0.48887382,-0.33595216,0.515363,0.52305026,-0.28802058,0.505367,0.51981965,-0.29397389,0.486387,0.52104791,-0.32939281,0.504242,0.51803653,-0.34589689,0.519143,0.5442169,-0.31515035,0.514563,0.52863958,-0.31028851,0.497291,0.52202128,-0.33172656,0.510669,0.51696113,-0.34624299,0.521936
0.45683975,-0.38974729,0.53535,0.46535754,-0.34164559,0.519013,0.44287647,-0.36513267,0.531254,0.46597686,-0.3479439,0.533209,0.47414398,-0.31921461,0.530453,0.47696755,-0.2948599,0.527078,0.45393793,-0.27896183,0.501863,0.43656988,-0.26397523,0.481368,0.42792204,-0.25637238,0.471121,0.436115,-0.25890269,0.479428,0.47342499,-0.29122159,0.501227,0.45181664,-0.28856526,0.47916,0.45564988,-0.33188648,0.500115,0.465844,-0.34633108,0.51567,0.48914946,-0.30477779,0.501923,0.46231255,-0.30700972,0.481532,0.45746407,-0.33706301,0.499234,0.46660093,-0.34891211,0.515326,0.50728558,-0.32773226,0.505074,0.48150513,-0.31757797,0.486171,0.47344674,-0.34071756,0.499363,0.47437961,-0.35679507,0.511131
0.44502715,-0.39174043,0.533147,0.44729671,-0.35180962,0.522804,0.42377237,-0.37365403,0.532331,0.44362047,-0.36081318,0.537497,0.45347347,-0.33850864,0.538262,0.46159628,-0.31794022,0.539823,0.44187385,-0.29414467,0.514127,0.42114139,-0.2990673,0.498617,0.41052382,-0.30199485,0.490861,0.41567003,-0.32763421,0.501288,0.4600918,-0.30496926,0.511545,0.43248341,-0.31079351,0.49522,0.43050636,-0.35510209,0.517524,0.43278363,-0.38024101,0.532237,0.47437368,-0.31711636,0.510191,0.44562368,-0.32582904,0.495643,0.44354749,-0.35614779,0.514501,0.45851063,-0.36633345,0.531643,0.48997404,-0.33784613,0.510048,0.47201166,-0.33005758,0.495964,0.46193881,-0.35081089,0.510148,0.45897,-0.36420967,0.520604
0.41621965,-0.41075586,0.548508,0.42484055,-0.36121751,0.529079,0.4044385,-0.38595049,0.545238,0.42091279,-0.36798279,0.544092,0.41625665,-0.33309874,0.540467,0.41266546,-0.30766866,0.535334,0.41604053,-0.29734321,0.510646,0.39499922,-0.27969633,0.487607,0.37367462,-0.28568104,0.476087,0.36805734,-0.30397433,0.48293,0.43288372,-0.30929601,0.507927,0.40047673,-0.3026734,0.483569,0.39342945,-0.34286419,0.50328,0.39176655,-0.3707499,0.518279,0.44641398,-0.32269436,0.507139,0.40992952,-0.3239749,0.485252,0.40238158,-0.35479912,0.501945,0.41005865,-0.37028364,0.517451,0.46192362,-0.34566042,0.508962,0.44535526,-0.33119335,0.488728,0.43205744,-0.34777804,0.501105,0.43004406,-0.36020022,0.513025
0.4481519,-0.41735503,0.554603,0.42802887,-0.36359437,0.531011,0.42604575,-0.40468977,0.553871,0.41271106,-0.37403968,0.549934,0.40073484,-0.3458457,0.548964,0.39370766,-0.31991326,0.543399,0.39894428,-0.30201494,0.5126,0.3591971,-0.29409752,0.484016,0.34383315,-0.30087299,0.469723,0.3463138,-0.32096439,0.472969,0.41429507,-0.30343788,0.505326,0.36705304,-0.29945361,0.478583,0.36497223,-0.34157913,0.495119,0.37427667,-0.37377303,0.509982,0.42824001,-0.30873436,0.501101,0.38233382,-0.31608173,0.478401,0.38084567,-0.35133684,0.492498,0.39529908,-0.37192719,0.507295,0.44746297,-0.32314811,0.499418,0.40712367,-0.31401893,0.47842,0.39693417,-0.33386818,0.488761,0.39907561,-0.34928658,0.500161
0.4110916,-0.41194851,0.545344,0.38760654,-0.35472262,0.515008,0.38581239,-0.39506751,0.540119,0.3657794,-0.36535765,0.528424,0.349558,-0.3403559,0.520747,0.33905992,-0.31398109,0.511239,0.34589102,-0.28831658,0.486081,0.30754504,-0.28533705,0.452874,0.29370535,-0.29240945,0.43627,0.29600025,-0.31027779,0.436667,0.36493153,-0.29117227,0.481981,0.31878413,-0.29486674,0.448989,0.31763583,-0.33760964,0.462846,0.32864201,-0.36767594,0.479129,0.38243017,-0.29781346,0.480871,0.33725966,-0.31097856,0.451498,0.33568445,-0.34408813,0.463301,0.35022281,-0.36065904,0.479876,0.40687992,-0.31413508,0.48386,0.36665097,-0.31256166,0.457486,0.35521108,-0.33073306,0.465952,0.35734913,-0.34383979,0.478517
0.40012337,-0.41705989,0.547798,0.36874643,-0.36154645,0.518024,0.36814984,-0.39696239,0.542382,0.33976806,-0.39645262,0.523235,0.30399654,-0.37610015,0.506119,0.28553695,-0.35486499,0.496132,0.32618365,-0.29862289,0.48928,0.28419459,-0.28987582,0.459269,0.27176447,-0.29894663,0.444263,0.27478889,-0.31782176,0.445929,0.34518588,-0.30276068,0.48561,0.29790518,-0.29759278,0.452942,0.29684719,-0.34125405,0.467318,0.30860439,-0.37131247,0.483647,0.36271691,-0.31020531,0.484809,0.31964819,-0.31715246,0.455603,0.32017993,-0.34734936,0.467835,0.33741693,-0.35768817,0.484515,0.38720498,-0.32692777,0.488089,0.33156383,-0.33920838,0.46185,0.33425695,-0.35270327,0.470652,0.34363856,-0.36496046,0.4833
0.39069922,-0.41829124,0.553991,0.35573429,-0.36222207,0.521234,0.3682763,-0.40064262,0.549811,0.33476224,-0.40367382,0.532851,0.29883908,-0.392994,0.518768,0.27782036,-0.37668416,0.509871,0.30539722,-0.30440661,0.491793,0.26302394,-0.30347005,0.464062,0.25283228,-0.31361685,0.450197,0.25728388,-0.33083361,0.45041,0.322354,-0.30543344,0.485573,0.27071243,-0.29710113,0.451421,0.26547856,-0.3380734,0.462401,0.28058726,-0.36617417,0.478201,0.33877466,-0.31015304,0.482898,0.29328046,-0.3211956,0.453117,0.2990884,-0.34825929,0.462534,0.31944677,-0.35569799,0.478322,0.3630971,-0.32327768,0.484366,0.31378492,-0.34405267,0.4577,0.3254591,-0.35848101,0.464314,0.33996989,-0.37556999,0.476264
0.36877097,-0.41099882,0.538928,0.32794071,-0.35839556,0.508414,0.34911385,-0.39831536,0.539483,0.30989544,-0.41166418,0.530141,0.27062591,-0.38992193,0.517915,0.24699004,-0.37255165,0.508486,0.28171755,-0.30167945,0.486444,0.2370466,-0.27083597,0.464207,0.21491795,-0.25552534,0.453089,0.20257859,-0.26405226,0.45328,0.29291799,-0.29597197,0.475194,0.23689874,-0.29232577,0.444707,0.23151881,-0.33134224,0.45335,0.24954688,-0.358123,0.467091,0.30460046,-0.2954198,0.468214,0.25824095,-0.31404595,0.44333,0.26860987,-0.33994105,0.450853,0.29161179,-0.34660939,0.463906,0.32347952,-0.30283197,0.464231,0.27287267,-0.32032987,0.441625,0.28448393,-0.33713992,0.446852,0.29796521,-0.35573962,0.456836
0.32202256,-0.40626106,0.522785,0.29427212,-0.3486664,0.498604,0.3069187,-0.39543947,0.526548,0.27225929,-0.40426922,0.521497,0.23612969,-0.38077307,0.510573,0.21134433,-0.37010063,0.500738,0.25745088,-0.29654869,0.485269,0.21240985,-0.27536647,0.468546,0.18952574,-0.26623583,0.460184,0.17270899,-0.26531317,0.463917,0.26506831,-0.28900601,0.472278,0.20740953,-0.29368813,0.447231,0.21432608,-0.33503568,0.459169,0.23906581,-0.35232461,0.471976,0.27341155,-0.2867475,0.463392,0.22582327,-0.30686488,0.444004,0.24392761,-0.33487779,0.454318,0.2693803,-0.34882225,0.466267,0.28751752,-0.29176447,0.456238,0.23638612,-0.30910518,0.438041,0.25189525,-0.33048078,0.44551,0.26705782,-0.35127572,0.454811
0.31572568,-0.40373029,0.518925,0.28381012,-0.34923486,0.497736,0.30242313,-0.39522129,0.525091,0.26483057,-0.40465323,0.523974,0.22846988,-0.38543981,0.515412,0.20396327,-0.3744327,0.507074,0.24925315,-0.30191188,0.489571,0.204952,-0.28252016,0.476618,0.18265545,-0.27277992,0.470141,0.16442994,-0.2673678,0.470357,0.25443145,-0.29216875,0.474668,0.19572426,-0.29736325,0.452927,0.20427837,-0.33881841,0.464536,0.23049794,-0.3556326,0.476044,0.26071888,-0.28792239,0.463987,0.21371804,-0.30995599,0.448218,0.23429344,-0.33781772,0.458278,0.26094994,-0.35085234,0.468665,0.27227172,-0.29018621,0.454267,0.2231388,-0.31025035,0.439087,0.24018168,-0.331775,0.446423,0.25612973,-0.35202638,0.454609
0.29002418,-0.39916511,0.519015,0.25741754,-0.34683219,0.497347,0.27422307,-0.39378923,0.524975,0.24092928,-0.40379703,0.52356,0.20468638,-0.38418015,0.513506,0.180224,-0.3744961,0.506124,0.21609749,-0.30385823,0.488573,0.1726496,-0.28024426,0.475213,0.15095368,-0.26844873,0.468533,0.13286846,-0.26091617,0.468173,0.22321262,-0.29210862,0.473758,0.16572328,-0.2959805,0.446835,0.1811832,-0.33465453,0.457954,0.2068174,-0.35199052,0.471182,0.23133536,-0.2860656,0.463184,0.19033865,-0.3125672,0.447003,0.21263396,-0.33775811,0.456899,0.23829936,-0.34990652,0.467386,0.24556313,-0.28582615,0.45366,0.20186937,-0.31090612,0.438145,0.21885279,-0.33145875,0.445346,0.2346807,-0.35090416,0.453598
0.26539775,-0.39980203,0.523498,0.23336796,-0.346235,0.500372,0.25135893,-0.39273967,0.529176,0.2156401,-0.40393183,0.527566,0.18120903,-0.38454026,0.518732,0.15631063,-0.37691969,0.510998,0.19479329,-0.30080796,0.490169,0.15028139,-0.28181869,0.475902,0.12764139,-0.27222259,0.468768,0.10814242,-0.26670139,0.468014,0.19989926,-0.29039585,0.475195,0.13577596,-0.28387744,0.447191,0.14683406,-0.3221171,0.457054,0.17419733,-0.33615666,0.47028,0.20637503,-0.28552286,0.4646,0.15333929,-0.30008432,0.447542,0.15925466,-0.3331919,0.456388,0.18511143,-0.34642042,0.46681,0.21862041,-0.28687177,0.455257,0.17362581,-0.3116966,0.439058,0.19383019,-0.33070189,0.445435,0.21282069,-0.34940714,0.453609
0.236275,-0.39735823,0.517872,0.20961996,-0.34785809,0.501533,0.22329613,-0.39201356,0.525742,0.18278506,-0.39220513,0.527078,0.14595336,-0.38143925,0.522048,0.12363322,-0.37709823,0.515223,0.17532664,-0.30637993,0.499057,0.13074888,-0.2890682,0.489907,0.10802083,-0.28028817,0.485332,0.087889994,-0.27473614,0.485603,0.18139274,-0.29549214,0.483745,0.11827108,-0.29326196,0.461286,0.13060652,-0.33499671,0.47472,0.15838042,-0.34829192,0.487061,0.18828406,-0.29002131,0.472366,0.13569576,-0.30786591,0.458952,0.14236577,-0.34380158,0.470716,0.16877109,-0.35680316,0.480832,0.20024894,-0.29021518,0.461124,0.15510626,-0.3171453,0.44915,0.17590613,-0.33898302,0.457933,0.19499311,-0.35767546,0.465699
0.23419162,-0.40449418,0.527233,0.19934079,-0.35056386,0.505028,0.21909855,-0.39729163,0.532144,0.17027345,-0.39475006,0.52884,0.13197577,-0.38182693,0.520096,0.10975623,-0.37325951,0.508227,0.16122078,-0.30523532,0.494569,0.11627468,-0.28464745,0.479827,0.093602812,-0.27429612,0.472455,0.073740262,-0.26801885,0.471325,0.16952749,-0.29443001,0.480854,0.10839959,-0.28764831,0.45327,0.11978501,-0.32779054,0.465412,0.14641268,-0.34235425,0.479201,0.17835218,-0.28924908,0.471226,0.1275033,-0.30300392,0.453791,0.13318829,-0.3379059,0.464516,0.15827145,-0.35219806,0.47584,0.19287807,-0.29021991,0.462906,0.14785061,-0.31321615,0.446314,0.16760491,-0.33408231,0.454133,0.18643979,-0.35335089,0.463004
0.22274739,-0.40988426,0.531841,0.18920847,-0.3573552,0.510881,0.20677189,-0.40332874,0.536517,0.15737545,-0.39598454,0.532596,0.12020725,-0.38190346,0.524944,0.097092831,-0.3697,0.5146,0.15238331,-0.31244742,0.501059,0.10876122,-0.28887217,0.486553,0.086526267,-0.27770146,0.4793,0.06711494,-0.27123529,0.479296,0.16181227,-0.30094757,0.488063,0.10546101,-0.30527738,0.461369,0.12460743,-0.34392236,0.474999,0.15163949,-0.35487347,0.488934,0.1713891,-0.29520287,0.478934,0.12213568,-0.30989907,0.461875,0.12905968,-0.34620221,0.473828,0.15470377,-0.36132504,0.485491,0.18650526,-0.29550235,0.471032,0.13536188,-0.31127304,0.454711,0.14610921,-0.33241658,0.463484,0.16813782,-0.33478033,0.47263
0.22217391,-0.4121782,0.533333,0.18961093,-0.35995808,0.512012,0.20575473,-0.40617373,0.53794,0.15912621,-0.39942053,0.533944,0.122299,-0.38569996,0.527063,0.098875509,-0.37315255,0.51735,0.14859876,-0.31937612,0.501837,0.10476352,-0.29555428,0.487112,0.082835746,-0.2836399,0.47975,0.065533549,-0.27433362,0.480178,0.15816323,-0.306853,0.488801,0.10739754,-0.31933589,0.461817,0.13287102,-0.35408606,0.475208,0.15961069,-0.36022544,0.489172,0.16809942,-0.30018162,0.479665,0.12134393,-0.3129959,0.462368,0.12959618,-0.3490585,0.474122,0.15557274,-0.3638031,0.485801,0.18546148,-0.29758808,0.471806,0.13543576,-0.31429849,0.455294,0.14646338,-0.33547481,0.463909,0.16821289,-0.33749269,0.473061
0.22274084,-0.4162165,0.538221,0.18914551,-0.36560932,0.516757,0.20331019,-0.41278662,0.544279,0.16127222,-0.40951737,0.54301,0.12610477,-0.39543301,0.537326,0.10205395,-0.38336019,0.529079,0.14590279,-0.32455713,0.508256,0.10399678,-0.29868903,0.495081,0.083145697,-0.28580189,0.488494,0.064947364,-0.27936674,0.488107,0.15389821,-0.31250292,0.493391,0.10171275,-0.32783418,0.466641,0.12794689,-0.35989247,0.477827,0.15777845,-0.36308309,0.491014,0.16263564,-0.30615201,0.482761,0.11320184,-0.32440575,0.466766,0.12345908,-0.3585414,0.47672,0.15051762,-0.37089513,0.487154,0.17735251,-0.30540556,0.473141,0.1286268,-0.32486705,0.457778,0.14019084,-0.34434058,0.465027,0.16157526,-0.34476398,0.473244
0.22031156,-0.42058197,0.542777,0.18665347,-0.36863092,0.520338,0.2035367,-0.41523922,0.547696,0.16111052,-0.4105244,0.544451,0.12559051,-0.39637999,0.538549,0.1013706,-0.38318346,0.53017,0.1444156,-0.3260143,0.509714,0.10258691,-0.29864032,0.494894,0.083204887,-0.28961693,0.495278,0.065176365,-0.28121903,0.495626,0.15294353,-0.31443935,0.495909,0.1010592,-0.32931285,0.468156,0.12765007,-0.36169844,0.480044,0.15513483,-0.36676497,0.493814,0.16219553,-0.30851626,0.486223,0.10861086,-0.31996406,0.468691,0.11567433,-0.35549558,0.479205,0.14195139,-0.3718989,0.490484,0.17767522,-0.30836927,0.477868,0.13006936,-0.33114807,0.461203,0.14415608,-0.34862731,0.468858,0.16433118,-0.34769667,0.477691
0.22124049,-0.42312233,0.546352,0.18705038,-0.37082777,0.523341,0.20430709,-0.41780485,0.551177,0.16203044,-0.41331927,0.547871,0.12561036,-0.39941327,0.542001,0.10216818,-0.38639151,0.533797,0.14275868,-0.32866772,0.512178,0.10106898,-0.30094121,0.497049,0.081736134,-0.29163268,0.497024,0.064590722,-0.28278522,0.497002,0.15128678,-0.31669138,0.498289,0.10006237,-0.33177209,0.470104,0.12763412,-0.36313311,0.481518,0.15512563,-0.36806572,0.495295,0.16059106,-0.3104376,0.488578,0.11080041,-0.32833704,0.470706,0.12316799,-0.3619808,0.480824,0.14788053,-0.37428668,0.492082,0.17623884,-0.30988489,0.480274,0.13013129,-0.33302901,0.463341,0.14443823,-0.35021748,0.470685,0.16515658,-0.34896874,0.479492
0.22130361,-0.42375292,0.547363,0.18700793,-0.37145118,0.524172,0.20431037,-0.41847243,0.552122,0.16223817,-0.41407458,0.548729,0.12563628,-0.40020256,0.542731,0.1021655,-0.38704241,0.534836,0.14277934,-0.32924768,0.512795,0.10096641,-0.30154293,0.497528,0.08158531,-0.29227618,0.49747,0.064262858,-0.2834118,0.497416,0.15126066,-0.31722904,0.498924,0.10002139,-0.33234361,0.470595,0.12753471,-0.36359024,0.48191,0.15501877,-0.36847345,0.495709,0.16054568,-0.3109458,0.489242,0.11084514,-0.32846957,0.470896,0.12274302,-0.36216447,0.480913,0.14827372,-0.37467131,0.492322,0.17620747,-0.31036807,0.480997,0.13012249,-0.33358264,0.463951,0.14451174,-0.35069864,0.471228,0.1654508,-0.3493548,0.480049
0.22153018,-0.42441957,0.54884,0.18694595,-0.37225917,0.525678,0.20436118,-0.41916485,0.553435,0.16235054,-0.41488707,0.549726,0.12572778,-0.40109866,0.543759,0.10186319,-0.3878774,0.536016,0.14221518,-0.33020279,0.514121,0.099435059,-0.3031579,0.49868,0.079677143,-0.29396315,0.498252,0.062175407,-0.28461417,0.497862,0.15081425,-0.31819211,0.500463,0.099985698,-0.33384331,0.472112,0.12745414,-0.36525609,0.483703,0.15539121,-0.36993695,0.497596,0.16023383,-0.31189964,0.490952,0.11695813,-0.33866477,0.472793,0.13619463,-0.36743395,0.483054,0.15437424,-0.3747552,0.494485,0.17612553,-0.31128711,0.482908,0.13037562,-0.3349694,0.465732,0.14500628,-0.35220977,0.473181,0.16611144,-0.35079083,0.482115
0.22159981,-0.4247274,0.549699,0.18677054,-0.37253197,0.526307,0.20428809,-0.41945581,0.554118,0.16234713,-0.41522909,0.550126,0.12566774,-0.40131004,0.543921,0.10175379,-0.38798506,0.536129,0.14172191,-0.33041982,0.514362,0.098743664,-0.30328294,0.498644,0.078843825,-0.29406219,0.498025,0.061225207,-0.28479257,0.497462,0.15038008,-0.31842253,0.50084,0.099806985,-0.3342203,0.472282,0.12746671,-0.36545391,0.48388,0.15532601,-0.37016699,0.497851,0.15987553,-0.31214196,0.491459,0.11701725,-0.33883597,0.473032,0.13626258,-0.36761727,0.483295,0.1566971,-0.37395275,0.494835,0.17590941,-0.31154601,0.483602,0.13035977,-0.33537185,0.466203,0.1450871,-0.35259269,0.473649,0.16626498,-0.35114249,0.48266
0.22167127,-0.42521616,0.550487,0.18579414,-0.37261513,0.526385,0.20421351,-0.41983243,0.554652,0.16230568,-0.41538232,0.550335,0.12541245,-0.40166856,0.544043,0.10157265,-0.38838017,0.536646,0.140572,-0.33041474,0.513602,0.097993666,-0.30283713,0.497352,0.078169888,-0.29406523,0.497354,0.060534003,-0.28522614,0.497356,0.14915357,-0.31833877,0.500145,0.08871462,-0.32445885,0.471023,0.10922897,-0.36081514,0.48221,0.13806417,-0.37055623,0.496256,0.15863306,-0.31200244,0.49087,0.11640368,-0.33854677,0.471897,0.13556293,-0.36700175,0.481813,0.15743328,-0.37255445,0.493435,0.17532263,-0.31142419,0.483241,0.12987381,-0.33509813,0.465403,0.14458821,-0.35205677,0.472572,0.16579309,-0.35056126,0.48163
0.2189852,-0.42034153,0.544299,0.18577311,-0.37304418,0.526897,0.2025095,-0.4167495,0.550608,0.16189674,-0.41452985,0.54921,0.12620395,-0.40509461,0.548408,0.10275309,-0.39372196,0.544005,0.14251039,-0.33581067,0.521718,0.10023233,-0.3110344,0.510432,0.079578491,-0.3010954,0.508783,0.061322521,-0.29163755,0.507906,0.15118697,-0.32346374,0.507952,0.091221674,-0.33362798,0.484334,0.11302178,-0.37334389,0.498954,0.14246826,-0.38237655,0.512086,0.16061528,-0.31662142,0.497923,0.11893781,-0.34668066,0.482861,0.13929587,-0.37776375,0.495596,0.1631217,-0.38387267,0.508734,0.17688069,-0.31485595,0.488442,0.13230394,-0.34208106,0.474796,0.14804706,-0.36097426,0.484281,0.16991729,-0.35960087,0.493872
0.2205511,-0.42383102,0.549205,0.18524111,-0.3725534,0.526217,0.20327991,-0.41937532,0.554146,0.16242795,-0.41599085,0.551057,0.12498962,-0.40198638,0.543825,0.10145018,-0.38855056,0.536413,0.14023223,-0.33176008,0.515215,0.097600287,-0.30510637,0.500226,0.076360824,-0.29193719,0.492732,0.057918488,-0.28385256,0.492605,0.14872816,-0.31927075,0.501191,0.088807315,-0.32616099,0.473054,0.10976269,-0.36253365,0.484316,0.13855249,-0.37200617,0.498029,0.15810853,-0.31254037,0.491368,0.11655849,-0.3403576,0.473618,0.13588739,-0.36887893,0.483613,0.15852187,-0.37165637,0.492699,0.17403514,-0.31130148,0.482925,0.12976621,-0.33605354,0.466101,0.14463611,-0.35302796,0.473351,0.16497942,-0.34943782,0.479749
0.22166272,-0.42699661,0.553893,0.18578587,-0.37410089,0.528413,0.20362584,-0.42135863,0.557237,0.1626039,-0.41652231,0.55169,0.12493762,-0.4024535,0.544156,0.10107557,-0.38877839,0.536334,0.13941715,-0.33082124,0.5136,0.096301237,-0.30272559,0.495967,0.076171944,-0.29351596,0.494962,0.057479987,-0.28497407,0.494048,0.14823995,-0.31902568,0.500674,0.088163186,-0.32447661,0.470392,0.1090872,-0.36028031,0.481211,0.13786314,-0.37022465,0.49556,0.15799753,-0.31296904,0.491939,0.11599495,-0.33911902,0.471605,0.13518169,-0.36720146,0.481197,0.15802986,-0.36947088,0.489917,0.17460102,-0.31276664,0.485148,0.12970364,-0.33630716,0.466197,0.14450345,-0.3529923,0.473094,0.16472047,-0.34911865,0.479179
0.21896707,-0.42169702,0.547319,0.18582984,-0.37412598,0.528448,0.20199929,-0.41826033,0.553047,0.16236601,-0.41570311,0.550756,0.12586994,-0.40600597,0.548874,0.10256328,-0.39448567,0.544392,0.14154631,-0.3361399,0.521465,0.099405328,-0.310418,0.508935,0.077579817,-0.30055055,0.506618,0.058177264,-0.29137413,0.504812,0.15068768,-0.32354164,0.507904,0.090702615,-0.33342823,0.48302,0.1131873,-0.37230433,0.497158,0.1471947,-0.38106182,0.510598,0.15972764,-0.31677654,0.498153,0.11831078,-0.34591933,0.480986,0.13866498,-0.37644867,0.493266,0.16604254,-0.3792679,0.504431,0.17487125,-0.31481942,0.489212,0.13184955,-0.34221695,0.47452,0.14771924,-0.3608343,0.483668,0.16921232,-0.35846458,0.491739
0.22046566,-0.42397015,0.550483,0.18501205,-0.37283861,0.526659,0.20296478,-0.41979412,0.554985,0.16263567,-0.41618253,0.551243,0.12459269,-0.40230606,0.543327,0.1008981,-0.38884269,0.535974,0.13967236,-0.33184083,0.514496,0.096961847,-0.30465609,0.498721,0.074472776,-0.29189113,0.490834,0.056971073,-0.28326274,0.490418,0.14796133,-0.31912968,0.500722,0.088642108,-0.3259504,0.471882,0.11016839,-0.36170794,0.482877,0.1389257,-0.37131141,0.49676,0.15723618,-0.31223856,0.491166,0.11617145,-0.3400029,0.472636,0.13560348,-0.36821881,0.482399,0.15925864,-0.37049398,0.491274,0.17236406,-0.31062634,0.483163,0.12897519,-0.3359595,0.465698,0.14422223,-0.35279627,0.472757,0.16471028,-0.34943913,0.478986
0.22056113,-0.42366132,0.550251,0.18478205,-0.37262881,0.526422,0.20307398,-0.41965838,0.554722,0.16263544,-0.4159797,0.550923,0.12445695,-0.40223026,0.542869,0.10077183,-0.38898588,0.535506,0.13928439,-0.33194813,0.514217,0.096570371,-0.30474418,0.498405,0.074583074,-0.29175545,0.490499,0.056340495,-0.28337272,0.489851,0.14742457,-0.31905743,0.500479,0.08861633,-0.32592474,0.471627,0.11028525,-0.36161696,0.482662,0.13905292,-0.37123125,0.496563,0.15660008,-0.31200733,0.490953,0.11604453,-0.33989497,0.47239,0.13553874,-0.36810649,0.482187,0.16050579,-0.36997818,0.491093,0.17203223,-0.31027852,0.482986,0.12860343,-0.33584828,0.465494,0.14405864,-0.35271865,0.472578,0.16460239,-0.34957676,0.478828
0.22070522,-0.42333994,0.549977,0.1846746,-0.37230968,0.526088,0.20324006,-0.41936196,0.554315,0.16260175,-0.41535948,0.550277,0.12436923,-0.4016307,0.542048,0.10072347,-0.38855455,0.534447,0.13910323,-0.33172664,0.513677,0.098134752,-0.3044817,0.497695,0.076622262,-0.29111415,0.489704,0.057195787,-0.28283597,0.489193,0.14709466,-0.31878576,0.500081,0.088750759,-0.32550105,0.471153,0.11043765,-0.36124937,0.482322,0.1392226,-0.3709635,0.496292,0.15617047,-0.31168743,0.490676,0.1159835,-0.33955112,0.47196,0.13548963,-0.36783213,0.481865,0.16179788,-0.36939853,0.49087,0.17195959,-0.3100347,0.482862,0.12809173,-0.33544367,0.465238,0.14374045,-0.35243056,0.472403,0.16437943,-0.34950099,0.478725
0.22070044,-0.42282319,0.549118,0.18466561,-0.37193163,0.525473,0.20341962,-0.41901105,0.55359,0.16268115,-0.41483314,0.549752,0.1244035,-0.40133638,0.541629,0.10083161,-0.38847609,0.533947,0.13933794,-0.33167479,0.513407,0.098631376,-0.30412338,0.49766,0.077178434,-0.29078075,0.489786,0.057842787,-0.28286112,0.489341,0.14710006,-0.3185779,0.499731,0.088897319,-0.32532686,0.471009,0.1106,-0.36110771,0.48225,0.13937899,-0.37082099,0.496169,0.15598717,-0.31133897,0.490243,0.11589724,-0.33952411,0.471759,0.13545098,-0.36783166,0.481727,0.16185599,-0.36954718,0.490789,0.17154953,-0.30949362,0.482294,0.12760783,-0.33493182,0.46486,0.14339905,-0.35202305,0.472078,0.16415146,-0.34932477,0.478446
0.22067965,-0.42227571,0.548219,0.18464711,-0.37153451,0.524831,0.20358526,-0.4186314,0.552827,0.16274941,-0.414279,0.54919,0.12443108,-0.40102054,0.541181,0.10093775,-0.3883892,0.533435,0.13956865,-0.33161387,0.513123,0.098958397,-0.30387337,0.497618,0.077552823,-0.2905731,0.489865,0.058498547,-0.28291141,0.489533,0.14710215,-0.318363,0.49937,0.089008618,-0.3251663,0.470863,0.11072875,-0.36099117,0.482188,0.13949932,-0.37069455,0.496054,0.15580047,-0.3109836,0.489799,0.11581023,-0.33949494,0.471555,0.13541409,-0.36783572,0.481595,0.16191877,-0.36970644,0.490722,0.17113521,-0.30894487,0.481714,0.12712231,-0.33441625,0.464477,0.14305762,-0.35161607,0.471754,0.16392605,-0.34915444,0.478175
0.22021983,-0.42130709,0.546679,0.18436407,-0.37093593,0.523869,0.20341519,-0.41792704,0.551548,0.16252049,-0.41360109,0.548283,0.12435492,-0.40055648,0.54057,0.10085917,-0.38821955,0.532873,0.13974493,-0.33159755,0.512908,0.098650351,-0.30425438,0.497899,0.077669417,-0.29099902,0.490395,0.058717237,-0.28341209,0.49044,0.1470005,-0.31815339,0.499035,0.088940401,-0.3254035,0.471004,0.11080521,-0.36137228,0.48257,0.13960509,-0.37104426,0.49634,0.15545816,-0.3105883,0.489322,0.11531105,-0.33933963,0.471579,0.13547687,-0.36720285,0.481824,0.16092944,-0.35980735,0.491139,0.17047987,-0.30827765,0.480987,0.12561707,-0.33300382,0.464156,0.13762109,-0.3477004,0.471601,0.16201942,-0.34673715,0.478169
0.2199009,-0.42060808,0.545489,0.184151,-0.37047822,0.523106,0.20333482,-0.41740738,0.550513,0.16231458,-0.412982,0.547454,0.12429676,-0.40015097,0.540038,0.10075874,-0.38796578,0.532196,0.13991043,-0.33155594,0.512654,0.09903077,-0.30438579,0.497973,0.077731497,-0.29122342,0.490632,0.058855802,-0.28366315,0.490905,0.14691033,-0.31796861,0.498739,0.088854913,-0.32557795,0.471054,0.11085782,-0.36167558,0.482848,0.13969377,-0.37134847,0.496565,0.1551524,-0.31026599,0.48896,0.11479906,-0.33914815,0.471553,0.13545841,-0.3666465,0.481991,0.16104118,-0.36005717,0.49148,0.16990391,-0.307754,0.480484,0.12514055,-0.33286825,0.463926,0.13759891,-0.34764437,0.471525,0.16131989,-0.34607826,0.478229
0.21972726,-0.42015929,0.544483,0.18409875,-0.37016359,0.522478,0.20343893,-0.4171139,0.549669,0.16213072,-0.41246508,0.546843,0.12431517,-0.39990216,0.539864,0.10070264,-0.38771322,0.531929,0.14031517,-0.33157343,0.512505,0.099064982,-0.30458779,0.498142,0.077802564,-0.29148333,0.49096,0.058973823,-0.28390714,0.491351,0.14701056,-0.31783237,0.498522,0.088864353,-0.32569177,0.471148,0.11088754,-0.36191756,0.483101,0.13977374,-0.3715882,0.496754,0.15499421,-0.30998803,0.488658,0.11429906,-0.33891188,0.471573,0.13539813,-0.36632529,0.482146,0.16113193,-0.3602601,0.491757,0.16942224,-0.30728285,0.480029,0.12476666,-0.33275265,0.463733,0.13757437,-0.34758244,0.471441,0.16084556,-0.34562054,0.478242
0.21973833,-0.41926725,0.542925,0.18427599,-0.36953726,0.521419,0.20384187,-0.4164875,0.548439,0.16242421,-0.41160439,0.546138,0.1255571,-0.39908794,0.539831,0.10137792,-0.38730438,0.531867,0.14108876,-0.33148136,0.512218,0.0995274,-0.3047915,0.498406,0.078321372,-0.29181405,0.4915,0.059542741,-0.28423952,0.492025,0.14737603,-0.31751011,0.498005,0.089169804,-0.32573928,0.471075,0.11119594,-0.361974,0.483062,0.14010525,-0.37156928,0.496566,0.15500955,-0.30945537,0.487915,0.10727203,-0.3311331,0.471368,0.13291577,-0.36200202,0.481975,0.15989068,-0.36046076,0.491618,0.16898944,-0.30645697,0.478945,0.12454243,-0.33230858,0.463095,0.13942376,-0.34797033,0.470839,0.16143975,-0.3461131,0.477672
0.21991416,-0.41931388,0.542706,0.18456108,-0.36955208,0.521274,0.20421237,-0.41648962,0.54832,0.16277145,-0.41152364,0.546192,0.12617145,-0.39912722,0.540183,0.10183551,-0.38744636,0.532057,0.14169175,-0.3314428,0.51225,0.10014948,-0.30486914,0.498577,0.078990272,-0.29187354,0.49174,0.060305482,-0.2842609,0.492395,0.14778035,-0.31750319,0.497941,0.089363871,-0.32577553,0.47109,0.11127316,-0.36199719,0.483005,0.14022145,-0.37158016,0.496457,0.15524351,-0.30947491,0.487766,0.10726725,-0.33111835,0.471347,0.13192727,-0.36153132,0.481897,0.15912776,-0.36054768,0.491488,0.16900606,-0.30651205,0.478684,0.12419088,-0.33212889,0.462944,0.13933781,-0.34776789,0.470645,0.16124081,-0.34569137,0.477441
0.22023316,-0.4196572,0.542976,0.1850093,-0.36977685,0.521608,0.20471582,-0.41677688,0.548696,0.1642311,-0.41091364,0.546757,0.12935556,-0.39754776,0.542535,0.10392192,-0.38695853,0.532774,0.14280916,-0.33144508,0.512763,0.10129968,-0.30490753,0.499233,0.080222349,-0.29180438,0.492468,0.061173808,-0.2840308,0.492823,0.14837161,-0.31762126,0.498345,0.096028888,-0.33175466,0.471569,0.12196711,-0.36504598,0.483392,0.14263162,-0.37153408,0.496789,0.15567715,-0.309612,0.488077,0.11358855,-0.33834063,0.47179,0.13499936,-0.36254853,0.482266,0.15991735,-0.36052073,0.491789,0.16923448,-0.30668618,0.478875,0.12396066,-0.33205569,0.463247,0.13931225,-0.3477308,0.470893,0.16045382,-0.34449117,0.47764
0.22013613,-0.41913284,0.54222,0.18525289,-0.3694562,0.521298,0.20487157,-0.41630685,0.548167,0.16597049,-0.40890815,0.546577,0.12934306,-0.3972021,0.542642,0.10679244,-0.38429162,0.533185,0.14320766,-0.33141945,0.513063,0.10278583,-0.30448775,0.499954,0.081762485,-0.29145197,0.4934,0.062112021,-0.28367014,0.493275,0.14894468,-0.31749268,0.498521,0.1013901,-0.33570926,0.472127,0.13025798,-0.36637919,0.484068,0.15463396,-0.37076918,0.497364,0.15608846,-0.30946906,0.488116,0.11221969,-0.33674362,0.472249,0.13547617,-0.36249943,0.482827,0.16067356,-0.3606695,0.492443,0.16940744,-0.30650456,0.478688,0.12426117,-0.33111385,0.463406,0.13799259,-0.34692174,0.471139,0.16027281,-0.34446341,0.477962
0.21999584,-0.41863031,0.541518,0.18528739,-0.36907137,0.52084,0.20489052,-0.41583273,0.547564,0.1658625,-0.40832022,0.546114,0.1292327,-0.39667825,0.542275,0.10686008,-0.38373318,0.532759,0.14354729,-0.331157,0.512906,0.10332314,-0.30430931,0.499998,0.082371799,-0.29123981,0.493544,0.062633297,-0.2834738,0.493503,0.14915581,-0.3172294,0.498328,0.10139246,-0.33571708,0.472138,0.13028839,-0.36646472,0.484181,0.15586535,-0.37053581,0.497435,0.15618406,-0.30919778,0.487877,0.11187034,-0.33625655,0.472214,0.13570405,-0.36222447,0.482879,0.16112384,-0.36051755,0.492574,0.16934305,-0.30620809,0.478358,0.12384378,-0.33053762,0.463243,0.13775734,-0.34658479,0.471046,0.15971542,-0.34387877,0.477931
0.22010726,-0.4185924,0.541342,0.18559664,-0.36902922,0.520864,0.20527129,-0.41600579,0.547743,0.1662771,-0.40869545,0.546935,0.12932307,-0.39619333,0.542018,0.10720662,-0.38326061,0.532497,0.14562095,-0.3308234,0.513515,0.10568321,-0.30340215,0.501087,0.085021749,-0.29005501,0.494873,0.064869051,-0.28216494,0.493142,0.1508626,-0.31673213,0.498571,0.10340578,-0.33668034,0.472624,0.13944584,-0.36509339,0.484325,0.16623806,-0.36489574,0.497384,0.15756402,-0.30856822,0.487803,0.11427536,-0.3354196,0.471194,0.14419383,-0.35859989,0.481507,0.17139424,-0.35516391,0.490882,0.16935072,-0.30575637,0.477878,0.12328636,-0.33082436,0.463139,0.1383377,-0.34634446,0.470736,0.15944452,-0.34280102,0.47744
0.22039847,-0.41864078,0.540939,0.18783263,-0.3689534,0.521176,0.20587145,-0.41628108,0.547704,0.16736443,-0.40842819,0.547462,0.13057706,-0.39454733,0.541618,0.10930499,-0.38126428,0.532264,0.15131614,-0.33076349,0.514803,0.11556621,-0.30283171,0.503056,0.095308908,-0.28954255,0.497182,0.072815924,-0.28086258,0.495551,0.15622702,-0.3162053,0.49966,0.10957852,-0.33818164,0.474333,0.14147301,-0.36615823,0.486201,0.16847878,-0.36638166,0.499088,0.16034959,-0.30790351,0.488675,0.1183764,-0.33069699,0.467059,0.14462524,-0.35486048,0.477208,0.17171216,-0.35199961,0.486434,0.17256801,-0.30450726,0.47839,0.12478963,-0.32903333,0.464212,0.13939698,-0.34520143,0.471933,0.16012063,-0.34305293,0.478745
0.22179488,-0.41969664,0.542079,0.19025249,-0.36998404,0.523208,0.2077025,-0.41771007,0.54947,0.17379827,-0.40997826,0.550276,0.13792616,-0.39489487,0.545436,0.11166802,-0.38182834,0.534689,0.15840426,-0.33283934,0.518264,0.1203573,-0.30453097,0.507572,0.10029759,-0.29127163,0.502225,0.082246127,-0.28181707,0.501493,0.16270812,-0.31782809,0.502663,0.11227959,-0.33969431,0.478167,0.14384911,-0.36821457,0.489944,0.17116521,-0.36860496,0.502501,0.16837579,-0.30895191,0.491234,0.11899651,-0.32706425,0.46352,0.14454899,-0.35113253,0.473217,0.17154645,-0.34854455,0.482033,0.17937529,-0.30503567,0.480294,0.12716653,-0.32975561,0.466974,0.14471877,-0.34564641,0.474663,0.16395783,-0.34438371,0.481447
0.22407427,-0.42021822,0.542577,0.20844993,-0.37107761,0.524602,0.21736737,-0.41922386,0.549562,0.18869607,-0.41103895,0.553214,0.15407576,-0.39514746,0.548947,0.13322388,-0.38104791,0.542376,0.17291303,-0.33305418,0.519828,0.13535024,-0.30428175,0.509023,0.1168126,-0.2938738,0.508935,0.099157688,-0.28451615,0.508854,0.17696904,-0.31864678,0.505034,0.1277825,-0.33908332,0.481102,0.15902268,-0.36967116,0.49436,0.18699389,-0.37116091,0.507178,0.18242511,-0.31023098,0.494203,0.13408146,-0.32718818,0.46725,0.15950101,-0.35299146,0.478206,0.18744233,-0.35214742,0.488167,0.19314921,-0.30682966,0.483848,0.14448844,-0.32949555,0.470506,0.15976238,-0.34731257,0.479137,0.18226937,-0.34594693,0.486752
0.2448154,-0.42169424,0.542471,0.22001501,-0.37113842,0.524572,0.23188273,-0.41885319,0.549297,0.20071705,-0.41100184,0.552977,0.16621711,-0.39563121,0.549394,0.1458481,-0.38185294,0.543521,0.18378386,-0.33318119,0.519657,0.14605206,-0.30309762,0.505957,0.12688313,-0.29350008,0.504625,0.10884574,-0.28448875,0.503414,0.18817496,-0.3187471,0.505085,0.13951966,-0.33892048,0.481175,0.17101996,-0.36978894,0.49472,0.19887724,-0.37143844,0.50762,0.19393441,-0.31030539,0.494431,0.14604016,-0.32707356,0.46756,0.17165673,-0.35311597,0.478763,0.19943447,-0.35253198,0.488947,0.20507849,-0.30686359,0.484275,0.15645757,-0.32937085,0.470832,0.17141078,-0.34751404,0.479642,0.19381955,-0.34634516,0.487415
0.24601683,-0.41957384,0.540953,0.21967696,-0.36906166,0.523785,0.23344079,-0.41735973,0.548574,0.2006762,-0.40945351,0.553148,0.16700847,-0.39426409,0.550519,0.14658942,-0.3804451,0.545335,0.18419516,-0.33204844,0.520389,0.14711683,-0.30294948,0.509377,0.13018935,-0.28963273,0.510558,0.11424531,-0.27917872,0.511632,0.18831845,-0.31717028,0.505094,0.13966612,-0.33769923,0.481934,0.17096386,-0.36833252,0.494996,0.19873025,-0.36976057,0.507474,0.19380446,-0.30834026,0.493791,0.14311495,-0.32075636,0.467417,0.16705516,-0.34804233,0.478201,0.19727628,-0.35046506,0.488005,0.20451732,-0.30436752,0.482757,0.15618323,-0.32728561,0.470254,0.17100407,-0.34529959,0.478786,0.1933322,-0.34405969,0.486314
0.25294079,-0.41765719,0.539669,0.22990146,-0.36695175,0.522948,0.24043234,-0.41573719,0.54762,0.21161298,-0.40739791,0.552636,0.17878009,-0.39233588,0.550856,0.15846439,-0.37837189,0.546186,0.19452407,-0.33038098,0.520289,0.15750021,-0.30084475,0.509507,0.14068724,-0.28977229,0.510804,0.12491402,-0.27937025,0.511983,0.19853801,-0.31536706,0.504744,0.15017189,-0.33599459,0.482011,0.18152834,-0.36665876,0.494985,0.20919882,-0.36804675,0.507281,0.20392879,-0.30640863,0.493202,0.14803877,-0.31340091,0.467158,0.16838096,-0.3434218,0.477863,0.19732765,-0.34960615,0.487595,0.21451969,-0.30224367,0.481821,0.16640904,-0.32526553,0.469768,0.18102248,-0.34332291,0.478257,0.20325503,-0.34215461,0.485747
0.26762243,-0.41435832,0.538708,0.24339756,-0.36540862,0.523461,0.25586238,-0.41423666,0.548009,0.22808727,-0.40868398,0.554577,0.1975333,-0.39631026,0.555047,0.17642937,-0.38270391,0.551597,0.20782506,-0.33360658,0.523551,0.17004287,-0.30689569,0.515069,0.15272612,-0.29683189,0.516747,0.13651402,-0.28739168,0.518271,0.21008959,-0.31641392,0.506861,0.1633565,-0.33855572,0.485637,0.19592072,-0.36739466,0.497808,0.22337259,-0.3675973,0.509305,0.21413808,-0.30549945,0.494267,0.15638735,-0.30979591,0.469313,0.1755122,-0.33967451,0.479322,0.20534706,-0.34590125,0.48842,0.22331305,-0.29863966,0.481422,0.17775471,-0.32451693,0.471114,0.1934985,-0.3424219,0.479142,0.21545839,-0.34042178,0.486225
0.28174781,-0.40861906,0.541154,0.25328749,-0.35756771,0.526139,0.27110825,-0.40877739,0.551488,0.24147899,-0.40775461,0.558987,0.21144694,-0.39764706,0.560575,0.18336802,-0.386872,0.557468,0.21800944,-0.3245047,0.527668,0.17777558,-0.29635403,0.513149,0.15931442,-0.28546331,0.511777,0.14018009,-0.27901871,0.510529,0.21829224,-0.30998928,0.509792,0.16887151,-0.3395463,0.489127,0.19899876,-0.36884913,0.49957,0.22695862,-0.36955224,0.510324,0.22085797,-0.3012053,0.496204,0.15830378,-0.29349948,0.471439,0.16612778,-0.32598735,0.479973,0.19520572,-0.34186453,0.493382,0.22606595,-0.29794381,0.482142,0.18166277,-0.32548591,0.472921,0.20328376,-0.34288021,0.479877,0.22585779,-0.34162234,0.486015
0.28402334,-0.40760571,0.54243,0.25395466,-0.3579679,0.526973,0.27335023,-0.40708838,0.55249,0.24251112,-0.4067238,0.559351,0.21195869,-0.39616481,0.560904,0.18938807,-0.384984,0.558093,0.21844395,-0.32424096,0.527838,0.17811044,-0.29532342,0.512426,0.15983065,-0.28438425,0.511185,0.14083179,-0.2778705,0.510057,0.21898216,-0.30985994,0.510145,0.17347862,-0.3375007,0.489052,0.19993245,-0.36861836,0.499571,0.22821663,-0.36990123,0.510502,0.2217594,-0.3012197,0.496741,0.15913773,-0.29293963,0.471626,0.16677133,-0.32552715,0.480226,0.19580674,-0.34168625,0.493803,0.22964872,-0.29705179,0.48296,0.18558174,-0.32498964,0.473319,0.20384062,-0.34281481,0.48031,0.22643513,-0.34170101,0.48648
0.29498013,-0.40881527,0.548936,0.26802446,-0.35979854,0.529067,0.28319434,-0.40552151,0.556533,0.25627119,-0.40500302,0.558624,0.22239594,-0.39374422,0.557843,0.19975238,-0.3811498,0.552583,0.2297175,-0.3216957,0.523635,0.19088653,-0.29214585,0.509179,0.17425272,-0.28199938,0.510478,0.15853831,-0.27239788,0.511658,0.23094594,-0.30823919,0.507435,0.18345582,-0.33207444,0.482307,0.21108748,-0.36291469,0.492608,0.24020599,-0.36627519,0.50493,0.23446465,-0.30056086,0.495589,0.17631632,-0.29823645,0.481858,0.18385918,-0.33197381,0.491103,0.21086314,-0.3500706,0.500341,0.24361446,-0.29797393,0.484292,0.19735432,-0.3227395,0.470851,0.21485911,-0.34055733,0.477593,0.23711569,-0.33941554,0.483541
0.29886807,-0.41087951,0.550893,0.27084563,-0.36123645,0.5305,0.28687695,-0.40698683,0.558072,0.25843565,-0.40614122,0.560003,0.22511189,-0.39279698,0.55808,0.2026584,-0.37928405,0.552894,0.23551853,-0.32113583,0.524168,0.19570746,-0.29204138,0.508399,0.17858489,-0.28202675,0.508842,0.16009949,-0.27183873,0.509245,0.23705726,-0.30866891,0.508299,0.18536361,-0.33157493,0.48266,0.21258033,-0.36296519,0.493122,0.24189884,-0.36684544,0.50568,0.24076971,-0.30190331,0.496763,0.18553074,-0.31429368,0.482373,0.2004749,-0.34520104,0.491745,0.22917194,-0.35188668,0.5013,0.25003343,-0.3006199,0.485912,0.19964688,-0.3232692,0.471913,0.21548687,-0.34218627,0.478741,0.23775114,-0.34275237,0.484767
0.30975723,-0.41166968,0.55028,0.28282462,-0.36177621,0.530104,0.29789645,-0.40739178,0.557569,0.27045273,-0.40950576,0.559908,0.23702877,-0.39597443,0.557315,0.21390719,-0.38324535,0.552327,0.24495066,-0.32149238,0.524069,0.20465924,-0.29255447,0.507928,0.18735369,-0.28248096,0.507888,0.17105356,-0.27299295,0.507851,0.24628347,-0.3090792,0.50814,0.19668839,-0.33189329,0.48269,0.22385484,-0.36356698,0.493205,0.25327674,-0.36751355,0.505711,0.24987545,-0.30233787,0.496538,0.19843142,-0.32262628,0.482355,0.21570943,-0.35211373,0.491773,0.24422422,-0.35752451,0.501262,0.2590884,-0.30104823,0.485578,0.2108577,-0.3240257,0.471749,0.2272108,-0.34213326,0.478616,0.24953381,-0.34100589,0.484676
0.3115253,-0.41168175,0.550893,0.28208083,-0.36075528,0.530134,0.29923055,-0.40685921,0.557792,0.26948653,-0.40933314,0.559568,0.23556903,-0.39522268,0.556247,0.21233277,-0.38216792,0.550998,0.24335519,-0.31941423,0.523187,0.20308494,-0.28924196,0.505353,0.18578228,-0.27877529,0.504631,0.16949295,-0.26892949,0.503975,0.24555883,-0.30767683,0.507534,0.19642467,-0.33078349,0.481545,0.22348087,-0.36231476,0.492088,0.25269552,-0.36660551,0.504797,0.24987341,-0.301526,0.496203,0.1987841,-0.32200477,0.481368,0.2159937,-0.35107486,0.490802,0.24415056,-0.3567012,0.500561,0.25995503,-0.30100525,0.485648,0.21229896,-0.32459058,0.471275,0.22594783,-0.34370601,0.478143,0.24540938,-0.35042625,0.484203
0.31296847,-0.41161759,0.550402,0.28279257,-0.36033671,0.529155,0.30034883,-0.40647667,0.556935,0.26931029,-0.4087285,0.558219,0.23551389,-0.39359916,0.553939,0.212234,-0.38092509,0.548516,0.24367787,-0.31843154,0.521397,0.20389277,-0.28610979,0.502516,0.18687824,-0.27515604,0.501457,0.17086113,-0.26485515,0.500494,0.2462511,-0.3067411,0.506024,0.19781708,-0.32893264,0.479576,0.22392135,-0.36091458,0.4902,0.25313788,-0.36566099,0.503102,0.25177839,-0.30029783,0.49496,0.20122872,-0.31574269,0.479542,0.21603524,-0.34805711,0.489038,0.243574,-0.35560118,0.499057,0.26268927,-0.30014193,0.484793,0.21538449,-0.32410022,0.46993,0.22627085,-0.34342074,0.476836,0.24671794,-0.34992507,0.482929
0.31414357,-0.41187272,0.550306,0.28565988,-0.36065923,0.529077,0.30156578,-0.40621104,0.556696,0.27001324,-0.40839848,0.557795,0.23871115,-0.39122329,0.552839,0.21262763,-0.37830899,0.545763,0.25408692,-0.31413317,0.521158,0.21371721,-0.28341031,0.501617,0.19658862,-0.2723542,0.499852,0.1804844,-0.26197577,0.498247,0.25712663,-0.30440243,0.505966,0.20216535,-0.32669543,0.479484,0.22563283,-0.36039669,0.490378,0.25421031,-0.36620129,0.503378,0.26188083,-0.30009115,0.495051,0.21075113,-0.32160813,0.479492,0.22932204,-0.34855808,0.48921,0.25724293,-0.35341993,0.499374,0.27199681,-0.30215183,0.485057,0.21966991,-0.32338874,0.470068,0.23031397,-0.34473272,0.477142,0.25240082,-0.35130371,0.485161
0.32098512,-0.41351741,0.550892,0.29887277,-0.36353662,0.529397,0.30842734,-0.40705357,0.55729,0.28282333,-0.41209303,0.558341,0.25054657,-0.39330046,0.553457,0.22723884,-0.38026719,0.546887,0.26313138,-0.31726563,0.521289,0.22303312,-0.28702342,0.502519,0.20588631,-0.27588051,0.500488,0.18978898,-0.26543741,0.498641,0.26602248,-0.30752226,0.505996,0.21329971,-0.3277306,0.479333,0.23618727,-0.36234822,0.489905,0.26575438,-0.3700151,0.502868,0.27068859,-0.30322009,0.495017,0.21963853,-0.32475484,0.479357,0.23809157,-0.35146306,0.488806,0.26591619,-0.35623456,0.498905,0.28076983,-0.30533212,0.484985,0.23050292,-0.32612117,0.469923,0.23771669,-0.3488308,0.476789,0.25838515,-0.3589885,0.484752
0.32219692,-0.41388868,0.55056,0.29894215,-0.36318555,0.5292,0.30989141,-0.40726996,0.557151,0.28268752,-0.41153601,0.558444,0.25079623,-0.39266013,0.553974,0.22772173,-0.38023526,0.54748,0.26391444,-0.31673393,0.521428,0.22409258,-0.28614981,0.502638,0.20709862,-0.27481246,0.500586,0.19114703,-0.26418808,0.498721,0.26673726,-0.30705519,0.505946,0.21363663,-0.3269483,0.479441,0.23605427,-0.36163349,0.489828,0.26554077,-0.36946997,0.502677,0.27129844,-0.30281465,0.494801,0.22002009,-0.32402711,0.479397,0.2380911,-0.35076697,0.488697,0.26580769,-0.35566828,0.498632,0.28116105,-0.30501431,0.484553,0.23064653,-0.32542449,0.469711,0.23473429,-0.34701148,0.476466,0.25534842,-0.36040889,0.484309
0.32669923,-0.41392892,0.548441,0.30863666,-0.36248663,0.52822,0.32032837,-0.4077162,0.555339,0.29307067,-0.4106374,0.557437,0.25824876,-0.39351452,0.551922,0.23584886,-0.38393942,0.545199,0.27418644,-0.31676142,0.521672,0.23465798,-0.28668895,0.50376,0.21772724,-0.27533029,0.50168,0.20184575,-0.26469223,0.49979,0.27681682,-0.30717389,0.506207,0.22389891,-0.32764562,0.480593,0.24683678,-0.36296718,0.491752,0.27645871,-0.37078054,0.504521,0.28120219,-0.30295958,0.494991,0.23231011,-0.32791054,0.480379,0.25236751,-0.35351582,0.490326,0.28008497,-0.35647786,0.5002,0.29081019,-0.30509664,0.484496,0.24047936,-0.32584102,0.470287,0.24484917,-0.34975681,0.477554,0.26080298,-0.36139075,0.485373
0.33139227,-0.41513639,0.548977,0.30969943,-0.36263005,0.528429,0.32282987,-0.40803494,0.555838,0.29419071,-0.4108216,0.557769,0.26097038,-0.39305208,0.553179,0.2382498,-0.38234859,0.546381,0.27509949,-0.31661954,0.521593,0.23533162,-0.28621285,0.503088,0.21775954,-0.27560155,0.500651,0.20099696,-0.26626994,0.498436,0.27771563,-0.30706632,0.50606,0.22465059,-0.32738229,0.480204,0.2473967,-0.36247174,0.49106,0.27697712,-0.37028278,0.50382,0.28209828,-0.30289633,0.494812,0.23310401,-0.32772002,0.480024,0.25297698,-0.3531102,0.489718,0.28063506,-0.35604667,0.499561,0.29172382,-0.3051178,0.484326,0.2412728,-0.32571076,0.46998,0.24486235,-0.34959627,0.477049,0.26093066,-0.3622316,0.484839
0.33682468,-0.41689537,0.550479,0.31147418,-0.36356949,0.529878,0.32547665,-0.40914771,0.557511,0.29611992,-0.41185184,0.559576,0.26351349,-0.39409505,0.55563,0.24079725,-0.38310793,0.549048,0.27729305,-0.31743756,0.52321,0.23727334,-0.28764302,0.504941,0.21967427,-0.27693274,0.502446,0.20286167,-0.26753832,0.500178,0.27967878,-0.30786678,0.50745,0.22631494,-0.32798239,0.481616,0.24868293,-0.36292227,0.492103,0.27823496,-0.37068503,0.50474,0.28385344,-0.30369136,0.496019,0.2346371,-0.32829145,0.481387,0.25431801,-0.35358526,0.490778,0.28196258,-0.35644836,0.500438,0.2931963,-0.30592147,0.485322,0.24258098,-0.32623683,0.471121,0.24684916,-0.34975081,0.47796,0.26483343,-0.36313109,0.485609
0.33850674,-0.41788334,0.551636,0.31294325,-0.3644329,0.530979,0.32730265,-0.40999191,0.558762,0.29744221,-0.41228194,0.560876,0.26698613,-0.39338778,0.557635,0.2445349,-0.38090189,0.551528,0.28051085,-0.31770338,0.524386,0.24006032,-0.2885977,0.505795,0.22217941,-0.27813575,0.502947,0.20435407,-0.26798719,0.500359,0.28284963,-0.30848724,0.50849,0.22773839,-0.32814129,0.482653,0.24953143,-0.36313358,0.492897,0.27901385,-0.37106074,0.505458,0.28692954,-0.30462546,0.496952,0.2361683,-0.32131259,0.4824,0.25191627,-0.35201192,0.49159,0.28129389,-0.35668093,0.501137,0.29604735,-0.30726899,0.486135,0.24391182,-0.32665413,0.472009,0.24807282,-0.34990259,0.478695,0.26627656,-0.36280107,0.486258
