sluyters/QuantumLeap/backend/src/datasets/gesture/HandGestureDataset_SHREC2017_csv/Gesture8/finger_1/subject_3_essai_4_skeletons_world.csv
Wrist_x,Wrist_y,Wrist_z,Palm_x,Palm_y,Palm_z,thumb_base_x,thumb_base_y,thumb_base_z,thumb_first_joint_x,thumb_first_joint_y,thumb_first_joint_z,thumb_second_joint_x,thumb_second_joint_y,thumb_second_joint_z,thumb_tip_x,thumb_tip_y,thumb_tip_z,index_base_x,index_base_y,index_base_z,index_first_joint_x,index_first_joint_y,index_first_joint_z,index_second_joint_x,index_second_joint_y,index_second_joint_z,index_tip_x,index_tip_y,index_tip_z,middle_base_x,middle_base_y,middle_base_z,middle_first_joint_x,middle_first_joint_y,middle_first_joint_z,middle_second_joint_x,middle_second_joint_y,middle_second_joint_z,middle_tip_x,middle_tip_y,middle_tip_z,ring_base_x,ring_base_y,ring_base_z,ring_first_joint_x,ring_first_joint_y,ring_first_joint_z,ring_second_joint_x,ring_second_joint_y,ring_second_joint_z,ring_tip_x,ring_tip_y,ring_tip_z,pinky_base_x,pinky_base_y,pinky_base_z,pinky_first_joint_x,pinky_first_joint_y,pinky_first_joint_z,pinky_second_joint_x,pinky_second_joint_y,pinky_second_joint_z,pinky_tip_x,pinky_tip_y,pinky_tip_z,
0.48709676,-0.36284746,0.545865,0.48733471,-0.3263888,0.548988,0.46489317,-0.34987238,0.541293,0.45062439,-0.32707301,0.54125,0.43030335,-0.30444439,0.539213,0.42490656,-0.28014141,0.532354,0.45750654,-0.2894516,0.544972,0.45881076,-0.2539552,0.54624,0.4615588,-0.23802151,0.546874,0.4600606,-0.219291,0.54745,0.48730876,-0.29399267,0.551728,0.48604915,-0.25251525,0.547063,0.48531771,-0.22827805,0.544342,0.48871323,-0.2196216,0.542398,0.51293429,-0.30026399,0.556978,0.51043471,-0.26113384,0.552093,0.51327695,-0.2478303,0.549594,0.51831326,-0.24749444,0.547321,0.54097859,-0.31517529,0.562539,0.53140184,-0.28306573,0.556196,0.52690393,-0.26767841,0.553282,0.52299844,-0.25407926,0.55071
0.47047864,-0.36806372,0.541935,0.47617454,-0.33197812,0.544361,0.45094372,-0.35398221,0.539231,0.44227454,-0.32333148,0.541125,0.43295221,-0.29170341,0.533601,0.42876998,-0.27414586,0.53274,0.46218473,-0.28842137,0.542337,0.46250891,-0.25506767,0.546341,0.46461437,-0.23760847,0.548342,0.46653456,-0.22149642,0.550162,0.48930446,-0.29852358,0.546489,0.50295922,-0.26294692,0.55161,0.5116458,-0.24171087,0.554597,0.51790604,-0.22633293,0.556731,0.51047667,-0.31077689,0.549664,0.51253496,-0.27161346,0.543724,0.51375909,-0.25165176,0.540685,0.5125923,-0.24389298,0.537923,0.53291493,-0.33208247,0.552933,0.53738766,-0.30231375,0.551612,0.54169143,-0.28887779,0.551005,0.54577975,-0.28092678,0.55047
0.47900985,-0.36232606,0.541061,0.48313126,-0.3273404,0.543714,0.45839476,-0.34932731,0.537822,0.44782666,-0.32425259,0.540071,0.43928944,-0.29169182,0.529639,0.44182513,-0.27418096,0.531535,0.470077,-0.28770791,0.541136,0.47466269,-0.25462905,0.547822,0.47707074,-0.23769376,0.551166,0.47522003,-0.22210273,0.554205,0.49800806,-0.29786018,0.546041,0.51456589,-0.26637783,0.556712,0.52514006,-0.24699867,0.562937,0.53030147,-0.23183875,0.567383,0.51994143,-0.31016963,0.549814,0.52147039,-0.27091263,0.543807,0.52244839,-0.25090531,0.540734,0.52477366,-0.24380699,0.537941,0.5434025,-0.33157208,0.553738,0.54325306,-0.29787019,0.548033,0.54567887,-0.28530282,0.545412,0.54294056,-0.27915554,0.543099
0.47450338,-0.36638117,0.540828,0.48355379,-0.33233977,0.546229,0.45724518,-0.35486785,0.541109,0.45411232,-0.32897098,0.547912,0.4500199,-0.3029051,0.550013,0.45533507,-0.29045508,0.556733,0.47380053,-0.29878085,0.549886,0.46937077,-0.26420824,0.547357,0.46718921,-0.24751729,0.546093,0.46522961,-0.23276072,0.544944,0.49850678,-0.3056671,0.550967,0.50180694,-0.26414075,0.548985,0.50580962,-0.24330228,0.547829,0.50958249,-0.22491168,0.548339,0.51951592,-0.31295731,0.551317,0.53559996,-0.28472268,0.549654,0.53706233,-0.27455915,0.548804,0.52948522,-0.28063692,0.548031,0.53634786,-0.33088906,0.550774,0.54270504,-0.29962956,0.547948,0.54272324,-0.2868706,0.546649,0.54634406,-0.28448964,0.545504
0.47639275,-0.3655143,0.541767,0.48591577,-0.33269381,0.546713,0.46142604,-0.35590913,0.544817,0.45821598,-0.33149414,0.552776,0.45347974,-0.30399469,0.552756,0.4567917,-0.28907155,0.556625,0.47796673,-0.29988122,0.553679,0.47400454,-0.26291788,0.552728,0.47213112,-0.2617113,0.552253,0.47264178,-0.2756976,0.551821,0.4993756,-0.30435213,0.551053,0.51209159,-0.26817515,0.549203,0.50925193,-0.25950735,0.548124,0.51629632,-0.27600845,0.561991,0.51665863,-0.31083605,0.548395,0.52057052,-0.27395479,0.547218,0.52131651,-0.2631145,0.546617,0.5169337,-0.26866719,0.54607,0.53297615,-0.3262284,0.544432,0.53978592,-0.29719709,0.544938,0.54132328,-0.2857334,0.545171,0.54130218,-0.28349321,0.545376
0.4825989,-0.37262664,0.550864,0.48685212,-0.33371772,0.549701,0.46572796,-0.36106908,0.551639,0.46061045,-0.33318122,0.55627,0.45342606,-0.30283908,0.551265,0.45414676,-0.2807705,0.54381,0.47543497,-0.29731042,0.549995,0.47412576,-0.26419594,0.543007,0.47195832,-0.24848995,0.539513,0.47001207,-0.23381921,0.536336,0.49712817,-0.30276091,0.548681,0.49365716,-0.26076973,0.540905,0.48495343,-0.24863268,0.53637,0.49379941,-0.24584647,0.548784,0.51556245,-0.31027148,0.547715,0.51490596,-0.27381357,0.54084,0.51207853,-0.25961151,0.537323,0.50357398,-0.263093,0.534125,0.53474412,-0.32711169,0.546796,0.53545869,-0.29377463,0.539404,0.53147306,-0.28864682,0.536008,0.52542722,-0.28570332,0.533012
0.47568149,-0.36864025,0.544826,0.485878,-0.32834295,0.546663,0.46343273,-0.36008847,0.550349,0.46214626,-0.32264527,0.553427,0.45553409,-0.29126302,0.545226,0.4577943,-0.27120383,0.540914,0.48699618,-0.29731173,0.554935,0.49049859,-0.26270697,0.551342,0.49087151,-0.24558888,0.549546,0.49032733,-0.23020786,0.547913,0.50335585,-0.2988328,0.548275,0.50020186,-0.25999714,0.544309,0.49143736,-0.2655808,0.541996,0.49913412,-0.28797495,0.554885,0.51430142,-0.30470789,0.542606,0.51636142,-0.27188923,0.540603,0.51433927,-0.25978255,0.539579,0.50675004,-0.26413019,0.538647,0.52585737,-0.31686998,0.535687,0.51823474,-0.28804462,0.532227,0.5140306,-0.27546044,0.530638,0.51026674,-0.26412057,0.529235
0.47296577,-0.36944243,0.545858,0.48506161,-0.33149115,0.545485,0.46194798,-0.36028884,0.551794,0.45965423,-0.32234154,0.550805,0.45475182,-0.29090456,0.542841,0.45786569,-0.27106436,0.538412,0.48894228,-0.30369404,0.552946,0.49650351,-0.26921031,0.547814,0.49893196,-0.25198941,0.545247,0.50027299,-0.23640394,0.542915,0.50354048,-0.3074221,0.545158,0.50339972,-0.26989738,0.539404,0.49163278,-0.27700528,0.536047,0.49708245,-0.29950216,0.548242,0.51389581,-0.31357891,0.538783,0.52026465,-0.28088848,0.53547,0.51893567,-0.26712818,0.533775,0.50608335,-0.26536809,0.532234,0.52310302,-0.32643602,0.53143,0.51748764,-0.29830032,0.526817,0.51489028,-0.28497658,0.524697,0.51258875,-0.27300031,0.522826
0.47063609,-0.37082607,0.545656,0.48566559,-0.34378644,0.544483,0.46155703,-0.36158804,0.551566,0.45753375,-0.33182106,0.550346,0.45505828,-0.30109062,0.540934,0.46002914,-0.28193551,0.537389,0.48787228,-0.3125688,0.551421,0.49533859,-0.27815279,0.546174,0.49772052,-0.26100711,0.543551,0.4990175,-0.24551355,0.541166,0.5023147,-0.31625342,0.543453,0.50153434,-0.27858092,0.537005,0.48941507,-0.28573509,0.533243,0.49467054,-0.308342,0.545203,0.51261002,-0.32245579,0.53701,0.518429,-0.28972976,0.533119,0.5168232,-0.27606457,0.531129,0.50599675,-0.277916,0.529319,0.52188595,-0.33552258,0.529719,0.51579139,-0.30732122,0.524608,0.51297551,-0.29398786,0.52226,0.51048184,-0.28201432,0.520188
0.46178635,-0.36596155,0.53827,0.48463334,-0.33543861,0.544721,0.45535504,-0.35812969,0.547585,0.46063273,-0.32436028,0.552948,0.46512521,-0.29837832,0.555866,0.47238292,-0.28028578,0.555918,0.50197139,-0.31461794,0.560717,0.51369021,-0.28560023,0.563517,0.52002149,-0.26991174,0.564917,0.5254428,-0.25531479,0.56619,0.51096587,-0.31987392,0.550381,0.51786096,-0.28744272,0.551702,0.50911867,-0.30216432,0.552473,0.513848,-0.32302524,0.565777,0.518108,-0.32538751,0.541223,0.5266411,-0.30314777,0.544986,0.5308343,-0.29065706,0.547357,0.52415525,-0.2911603,0.550611,0.52178203,-0.33639845,0.529433,0.5231546,-0.31195427,0.530798,0.52378669,-0.30011729,0.531426,0.52440286,-0.28936803,0.532039
0.47323694,-0.37526298,0.552522,0.48292349,-0.33301674,0.542677,0.4615214,-0.36251428,0.555404,0.45670529,-0.32130931,0.548257,0.4522073,-0.28955679,0.540334,0.45515356,-0.26944033,0.535443,0.48525701,-0.2951862,0.540406,0.49332747,-0.26030483,0.527891,0.50966783,-0.24883186,0.534517,0.52373398,-0.23789002,0.54054,0.49621111,-0.30259853,0.53404,0.48333714,-0.28426803,0.519381,0.49007882,-0.31648107,0.540398,0.49803275,-0.334065,0.552297,0.50788979,-0.31731836,0.529784,0.50102458,-0.28976063,0.51806,0.48952774,-0.29406686,0.512062,0.49085164,-0.31448336,0.522659,0.518957,-0.33443535,0.526563,0.50824234,-0.30222264,0.514872,0.50409933,-0.29530737,0.509501,0.49771709,-0.30137649,0.504761
0.46706009,-0.37097256,0.546222,0.47653125,-0.33582621,0.533044,0.45741566,-0.35886403,0.550281,0.45356911,-0.32268498,0.544086,0.45393097,-0.29220922,0.536117,0.4568413,-0.27349765,0.533886,0.48585857,-0.30112173,0.530266,0.49016494,-0.26578232,0.514598,0.50599419,-0.25493898,0.520806,0.52088342,-0.24437318,0.526449,0.49497088,-0.30955076,0.521482,0.47985818,-0.27644579,0.504496,0.48113674,-0.3019622,0.52395,0.48683859,-0.3227849,0.5362,0.50096003,-0.31995194,0.51557,0.49437163,-0.28937919,0.502404,0.49114034,-0.27323395,0.495668,0.48776797,-0.27726064,0.504911,0.5052171,-0.33852498,0.511007,0.49304429,-0.30444709,0.498051,0.48745404,-0.28871208,0.492099,0.47939595,-0.28835736,0.486846
0.45649848,-0.37014629,0.541836,0.47154802,-0.34751197,0.52749,0.45285845,-0.3580206,0.546801,0.45275054,-0.33252536,0.541678,0.45390526,-0.3004236,0.534176,0.45914393,-0.28108135,0.532155,0.48355607,-0.31228272,0.525174,0.48947896,-0.27752286,0.50951,0.50676362,-0.26767827,0.516252,0.52303447,-0.25803289,0.522382,0.4896633,-0.32052256,0.514905,0.47473657,-0.28545163,0.497327,0.47361097,-0.30896919,0.515798,0.47843296,-0.32986989,0.527954,0.49298953,-0.33056235,0.507886,0.48707775,-0.29887342,0.494591,0.48419597,-0.28219037,0.487789,0.47980206,-0.2844889,0.496383,0.49379064,-0.34836202,0.50224,0.48304659,-0.31314118,0.489157,0.4781119,-0.29693833,0.483146,0.46880277,-0.2931467,0.477842
0.44052078,-0.37154104,0.535325,0.46577827,-0.34737564,0.523932,0.44641311,-0.3548612,0.541787,0.44830544,-0.3303326,0.539251,0.45478961,-0.30289655,0.538417,0.46888783,-0.28736769,0.539743,0.4864211,-0.32267361,0.525353,0.4920643,-0.2899156,0.516383,0.5115887,-0.28341532,0.5314,0.52823032,-0.27628358,0.545052,0.48814611,-0.33039294,0.513936,0.46512066,-0.29692266,0.499259,0.47653832,-0.29225634,0.517908,0.46965762,-0.2998112,0.529071,0.48706564,-0.33924221,0.505677,0.47550535,-0.30833286,0.495305,0.45651156,-0.31057788,0.489999,0.45164152,-0.32773076,0.499479,0.48113909,-0.35417515,0.498069,0.47694359,-0.31754525,0.487417,0.47722484,-0.2992597,0.483502,0.46933731,-0.29493498,0.480048
0.43245993,-0.37283464,0.534837,0.45211743,-0.34272756,0.514242,0.43795022,-0.35410223,0.537673,0.43683439,-0.32227204,0.528744,0.44037318,-0.29250495,0.519671,0.44684773,-0.27674692,0.510375,0.46730163,-0.30680739,0.505357,0.47130245,-0.27383321,0.484988,0.4968133,-0.27012863,0.498388,0.52107299,-0.26579582,0.510569,0.46875119,-0.31844913,0.496173,0.43765182,-0.28587817,0.473023,0.43269983,-0.30926693,0.48987,0.44174477,-0.32898513,0.503532,0.46811042,-0.33113874,0.490675,0.44990578,-0.29862289,0.472075,0.42544648,-0.30241992,0.462558,0.41680257,-0.31652758,0.468715,0.46380303,-0.35168728,0.487898,0.45818943,-0.31282213,0.47043,0.45550833,-0.2952082,0.462404,0.44403384,-0.28346187,0.455322
0.42703784,-0.37179762,0.536293,0.45045683,-0.34235154,0.513891,0.42786044,-0.35242626,0.535124,0.42863109,-0.31045754,0.520612,0.42740759,-0.28500925,0.503901,0.43353823,-0.2681809,0.494816,0.46099393,-0.30128676,0.498719,0.46610394,-0.27024919,0.477759,0.48370824,-0.26292182,0.482293,0.5004498,-0.25570723,0.486415,0.46609799,-0.31782367,0.494237,0.45562798,-0.29173497,0.468434,0.45024669,-0.30688361,0.486159,0.4503478,-0.32182136,0.501056,0.46721629,-0.33675145,0.492792,0.45140432,-0.31520074,0.470534,0.43225667,-0.30712804,0.459146,0.4179339,-0.31356699,0.464865,0.46623737,-0.36371765,0.495048,0.44530566,-0.34280703,0.474642,0.43566795,-0.3331295,0.465266,0.41976425,-0.33432586,0.456993
0.42143664,-0.37142077,0.530945,0.44414817,-0.34422422,0.511542,0.42016252,-0.34997372,0.527813,0.41935854,-0.31937918,0.514209,0.42561384,-0.28725038,0.503137,0.43355014,-0.26976012,0.49582,0.45127888,-0.29948734,0.495655,0.45829735,-0.27500829,0.473964,0.47952277,-0.27263223,0.480666,0.49994167,-0.26999529,0.486759,0.46197489,-0.31991746,0.494519,0.44332624,-0.29993724,0.470589,0.43743311,-0.32161989,0.489889,0.4422687,-0.33575505,0.504603,0.46888012,-0.34029368,0.495527,0.44913959,-0.32324751,0.474054,0.42716744,-0.31710865,0.463067,0.41671305,-0.3246782,0.469966,0.47215811,-0.36899315,0.500112,0.44938017,-0.34929826,0.480456,0.43007688,-0.34715999,0.471424,0.41278827,-0.34964383,0.465371
0.38433084,-0.38289103,0.504678,0.40341329,-0.34409975,0.480772,0.38413905,-0.36201361,0.506135,0.39267614,-0.32733679,0.499427,0.39756404,-0.29602522,0.490843,0.40476107,-0.27791695,0.484313,0.41326411,-0.29577593,0.468082,0.42675227,-0.26897099,0.445817,0.44361874,-0.26217651,0.445697,0.45758881,-0.2558556,0.445587,0.41814218,-0.31118123,0.459798,0.37776755,-0.29676894,0.433705,0.37079395,-0.31738159,0.449501,0.38168655,-0.32983378,0.463898,0.42058232,-0.32757175,0.455372,0.38511147,-0.31548464,0.433885,0.35732464,-0.31310524,0.422891,0.35582178,-0.31889845,0.42761,0.42071485,-0.35352684,0.454424,0.38569949,-0.33443987,0.434597,0.37902568,-0.34423174,0.444166,0.38414072,-0.355685,0.454855
0.3740652,-0.37525802,0.502479,0.38562316,-0.33705107,0.47703,0.37941137,-0.35708491,0.506826,0.38943957,-0.32259947,0.502047,0.40287823,-0.29901383,0.498049,0.41233053,-0.28241267,0.491838,0.40999508,-0.29564595,0.467143,0.4349138,-0.27707324,0.455725,0.44384899,-0.26860992,0.450016,0.45580225,-0.25748648,0.445699,0.40182255,-0.30929199,0.454704,0.35075479,-0.28042911,0.425285,0.34269868,-0.2983362,0.437404,0.35721693,-0.31445755,0.451278,0.39537361,-0.32341398,0.447011,0.37585467,-0.28777952,0.422109,0.34611883,-0.2825272,0.409368,0.33410178,-0.29223182,0.410809,0.3846758,-0.34581262,0.442533,0.34871967,-0.31395643,0.423821,0.34315781,-0.31500823,0.431272,0.34349816,-0.32073834,0.440747
0.36464348,-0.37225168,0.5081,0.37495279,-0.33666834,0.475494,0.37289994,-0.35327508,0.509983,0.38011,-0.32174473,0.499583,0.39478709,-0.29422199,0.490041,0.40179524,-0.2767057,0.48005,0.39367952,-0.29388274,0.458053,0.41215769,-0.27455037,0.444414,0.42184535,-0.26472656,0.437594,0.43093975,-0.25569601,0.431395,0.38610849,-0.30706891,0.446888,0.37344614,-0.26652295,0.415428,0.35698429,-0.26924853,0.423118,0.35566861,-0.28495191,0.436911,0.37871531,-0.32158865,0.440963,0.35421514,-0.28295504,0.414414,0.32393686,-0.2755877,0.400831,0.31016624,-0.2827543,0.398994,0.36779644,-0.34516992,0.439799,0.3291879,-0.30753896,0.416897,0.32228569,-0.30716184,0.42133,0.32347839,-0.31396152,0.43111
0.36445129,-0.37361966,0.51267,0.36826074,-0.33542919,0.478082,0.37316895,-0.35446354,0.514016,0.3728117,-0.32210899,0.501096,0.38039961,-0.29535924,0.49025,0.38376974,-0.2797918,0.478165,0.38577136,-0.29219634,0.458735,0.3928727,-0.26956152,0.439321,0.39678981,-0.25808346,0.429614,0.40059177,-0.24754384,0.42079,0.37601194,-0.30574018,0.447737,0.31898574,-0.26955262,0.415076,0.31021266,-0.27981435,0.420441,0.31191909,-0.29373322,0.433939,0.36714071,-0.32054086,0.442146,0.34367546,-0.28005681,0.415547,0.31346961,-0.2730189,0.401939,0.29909692,-0.27937075,0.398633,0.35511953,-0.34435001,0.441721,0.32439495,-0.31337299,0.418025,0.31353546,-0.30878807,0.420981,0.31018476,-0.31115424,0.430466
0.35946691,-0.37377402,0.508324,0.3629495,-0.33651968,0.473283,0.3650949,-0.35508811,0.51003,0.36488788,-0.32757004,0.496958,0.36979183,-0.29702249,0.486735,0.37771855,-0.27756023,0.474622,0.37297653,-0.29175014,0.454126,0.38842058,-0.26849701,0.436923,0.39422358,-0.2572892,0.428322,0.399761,-0.24698501,0.420503,0.36633506,-0.30438731,0.44254,0.3063346,-0.27252413,0.409564,0.29652909,-0.28457319,0.413135,0.29940166,-0.30076657,0.426184,0.3603958,-0.31928512,0.436512,0.33739299,-0.27741914,0.410253,0.30761038,-0.27178266,0.396818,0.29199085,-0.27745842,0.392471,0.35242158,-0.3447543,0.435656,0.30981857,-0.31004371,0.412331,0.29843874,-0.30435106,0.414191,0.29483664,-0.30590851,0.423121
0.34923584,-0.37728102,0.507356,0.34887442,-0.34081462,0.472914,0.35470134,-0.36413106,0.510035,0.35352538,-0.32840848,0.49823,0.35947999,-0.29858652,0.489298,0.36492854,-0.2791992,0.477691,0.36225177,-0.29255834,0.455384,0.37438521,-0.26905182,0.437157,0.38058993,-0.25710399,0.428044,0.38641515,-0.24615836,0.419759,0.35463558,-0.30449599,0.442698,0.29393511,-0.27156995,0.40813,0.28346659,-0.28259078,0.410257,0.28640953,-0.29882231,0.423429,0.34779655,-0.31869338,0.435703,0.32130533,-0.27646912,0.407448,0.29131557,-0.27143205,0.392991,0.2744166,-0.27614762,0.387169,0.33865164,-0.34314154,0.433618,0.29737543,-0.30936772,0.411432,0.28558415,-0.30312466,0.412522,0.28151663,-0.30419721,0.420754
0.32829108,-0.37235502,0.499085,0.33449756,-0.33292866,0.466937,0.33790069,-0.35465456,0.50255,0.34067279,-0.3203335,0.49352,0.34757809,-0.29448637,0.486088,0.35024101,-0.27897061,0.475867,0.35700563,-0.29047689,0.451824,0.3518432,-0.26213706,0.426656,0.3506034,-0.24776719,0.414072,0.3495648,-0.23463941,0.402632,0.34444643,-0.30275976,0.438734,0.34921732,-0.26557124,0.408604,0.34429873,-0.24412921,0.395294,0.33476213,-0.24002204,0.398146,0.33502053,-0.31627937,0.431176,0.30867946,-0.27585223,0.40422,0.27944299,-0.26999169,0.390429,0.26447896,-0.27617016,0.387083,0.32200734,-0.33851158,0.428032,0.28441195,-0.30425063,0.406643,0.27379631,-0.30058267,0.409826,0.26929569,-0.30319831,0.418589
0.31461881,-0.36413814,0.494377,0.32890392,-0.32990886,0.464242,0.32521282,-0.34709777,0.498427,0.32939311,-0.31692495,0.491184,0.33768122,-0.28986202,0.483878,0.34593399,-0.27611518,0.474763,0.3455013,-0.28639483,0.451112,0.34244476,-0.25685164,0.42516,0.34101369,-0.24200328,0.412183,0.3397786,-0.22845519,0.400387,0.33667239,-0.29851555,0.437803,0.34248623,-0.26106605,0.408983,0.33446872,-0.23738116,0.392172,0.32090515,-0.23104302,0.390217,0.32816061,-0.31205365,0.429864,0.30116961,-0.27188462,0.402372,0.27213033,-0.26690399,0.388307,0.26104487,-0.27499568,0.386086,0.31819029,-0.33556155,0.425923,0.28104457,-0.30272017,0.405438,0.27107515,-0.30035167,0.409948,0.26642778,-0.30334598,0.418906
0.31683385,-0.36816758,0.503854,0.32708127,-0.33275777,0.471436,0.32652613,-0.34921793,0.5055,0.32820023,-0.31321324,0.495065,0.33347927,-0.28764114,0.486241,0.34031472,-0.27396428,0.476501,0.34623697,-0.28904212,0.453803,0.33023155,-0.25909467,0.423115,0.3269811,-0.24666022,0.412887,0.32415955,-0.23518251,0.403589,0.33549089,-0.30500669,0.442996,0.29514297,-0.2670133,0.410087,0.2582326,-0.25228779,0.39089,0.2472728,-0.25551859,0.388279,0.32646238,-0.32059208,0.437346,0.29677541,-0.28142106,0.40733,0.26640973,-0.27298856,0.391973,0.25217733,-0.27864644,0.389461,0.31353666,-0.34454707,0.436469,0.27526702,-0.30931995,0.413426,0.26537915,-0.30606454,0.41822,0.26524465,-0.30955852,0.428189
0.30767422,-0.36093431,0.500469,0.31718164,-0.32729675,0.46661,0.31780647,-0.34194923,0.501503,0.32291683,-0.3083481,0.489963,0.32722389,-0.28268619,0.479862,0.32922968,-0.26776154,0.468684,0.33755477,-0.28607088,0.447303,0.31758071,-0.25573385,0.415288,0.31146494,-0.2424478,0.402667,0.30597751,-0.23025967,0.391195,0.32346924,-0.3017183,0.436905,0.27806768,-0.26246152,0.402684,0.24157846,-0.24636217,0.382722,0.23224456,-0.24833823,0.379064,0.31279597,-0.31738063,0.431735,0.29039125,-0.27741129,0.401598,0.25780244,-0.26598519,0.386178,0.24154616,-0.26912093,0.382911,0.29828441,-0.34096514,0.431671,0.26022865,-0.30370664,0.407814,0.25078815,-0.29883576,0.411847,0.24769921,-0.30095125,0.421807
0.30975188,-0.36280812,0.505607,0.31821022,-0.32884301,0.469657,0.3187346,-0.34215796,0.504394,0.32170117,-0.30418359,0.489682,0.32238872,-0.27264383,0.476827,0.32712125,-0.25472605,0.464386,0.33342506,-0.28483009,0.446166,0.31122278,-0.25321571,0.414178,0.30276819,-0.23950493,0.401132,0.29510788,-0.2269315,0.389272,0.32391783,-0.30216035,0.438117,0.27736274,-0.26360123,0.402508,0.24049652,-0.24660994,0.381737,0.23133852,-0.24735788,0.377607,0.3151691,-0.31969788,0.435092,0.26579782,-0.28631284,0.404032,0.23992122,-0.27464441,0.388142,0.2252535,-0.2721135,0.384497,0.30315877,-0.34592562,0.437891,0.2600534,-0.31090393,0.411917,0.25037546,-0.31335893,0.415706,0.24672959,-0.32144995,0.426316
0.30978481,-0.36202177,0.506233,0.31772928,-0.32864002,0.46984,0.31853739,-0.34102709,0.504454,0.32185338,-0.30263056,0.488949,0.32076677,-0.27115539,0.475318,0.32451676,-0.2528195,0.462407,0.33220627,-0.28408955,0.445347,0.30215185,-0.25242431,0.412519,0.28891979,-0.23776904,0.397748,0.27686411,-0.22438517,0.384319,0.32306611,-0.3019818,0.437913,0.27017756,-0.26482515,0.402095,0.23726322,-0.247609,0.381201,0.23023163,-0.24734769,0.376998,0.31471412,-0.32001945,0.435438,0.26397068,-0.28679095,0.404588,0.23988481,-0.27534989,0.388804,0.22723528,-0.27311288,0.385204,0.30333578,-0.34686995,0.438954,0.25914724,-0.31125075,0.412499,0.24966629,-0.31330532,0.416236,0.24633268,-0.32119713,0.426995
0.29927447,-0.34897214,0.488915,0.3076268,-0.31886046,0.455676,0.30877472,-0.329665,0.488336,0.30833549,-0.29546532,0.474369,0.29550606,-0.26577597,0.46071,0.29465505,-0.2474231,0.448519,0.32386745,-0.27793917,0.43466,0.29403422,-0.24758852,0.403677,0.28094025,-0.23327579,0.39007,0.26889263,-0.22015659,0.377699,0.31358062,-0.29467042,0.426516,0.26231816,-0.25789678,0.393151,0.22813187,-0.24206875,0.373688,0.22206932,-0.2443078,0.371889,0.30196189,-0.31189126,0.423139,0.24868767,-0.27693556,0.395349,0.22377843,-0.25918144,0.381131,0.2125052,-0.25455717,0.38027,0.28566625,-0.33667363,0.425053,0.24419248,-0.29988971,0.400218,0.24064531,-0.30508669,0.405841,0.23952039,-0.31374648,0.416761
0.31039688,-0.36137521,0.50698,0.31488093,-0.32800864,0.469079,0.31940831,-0.34037001,0.504721,0.31472896,-0.30307053,0.488969,0.30377854,-0.27424115,0.475239,0.30219819,-0.25495597,0.462024,0.32951506,-0.28368569,0.443043,0.29515156,-0.25192841,0.409627,0.28120014,-0.23735761,0.396413,0.26824964,-0.22396214,0.384401,0.3174518,-0.30205444,0.435828,0.26290112,-0.26094283,0.399014,0.22704124,-0.24375317,0.377539,0.21735033,-0.24408976,0.371813,0.30595094,-0.32059541,0.433684,0.25205127,-0.28231039,0.402626,0.22576965,-0.26334885,0.386735,0.21226174,-0.25590834,0.381769,0.29340316,-0.34699485,0.437851,0.24964457,-0.30814821,0.410856,0.2424258,-0.31099087,0.413279,0.24273107,-0.31923586,0.423719
0.31251209,-0.36300315,0.507555,0.31456701,-0.32860361,0.469496,0.31961519,-0.34045672,0.505013,0.30513913,-0.30449193,0.488864,0.30368395,-0.2736258,0.47554,0.30397298,-0.25431316,0.46266,0.32652343,-0.2853092,0.442999,0.28552444,-0.25192535,0.409537,0.26663644,-0.2352976,0.392882,0.24162389,-0.21948749,0.377742,0.31494989,-0.30322853,0.436107,0.25533057,-0.26304365,0.398955,0.2271126,-0.25193832,0.377283,0.22717573,-0.25392521,0.371503,0.30514631,-0.32131944,0.434245,0.24957634,-0.28388114,0.403177,0.22304269,-0.26521915,0.387282,0.21115143,-0.25721291,0.382352,0.29312219,-0.34818668,0.438769,0.24905054,-0.3092661,0.411551,0.24198437,-0.31169992,0.413997,0.24251179,-0.31990238,0.424524
0.3124907,-0.36331035,0.507875,0.31432988,-0.32941619,0.469704,0.31973164,-0.34085599,0.505199,0.30561602,-0.30644595,0.488879,0.30381684,-0.27416933,0.475295,0.30443174,-0.25467914,0.462318,0.32582492,-0.28603178,0.442966,0.2856885,-0.25338867,0.409378,0.26680422,-0.23676015,0.392632,0.24173989,-0.22093523,0.377408,0.31449599,-0.30414145,0.436217,0.25559364,-0.26457647,0.398837,0.22720018,-0.25328575,0.377032,0.22715444,-0.25510458,0.371159,0.30492091,-0.3224177,0.434484,0.24912985,-0.28508347,0.402902,0.22134565,-0.26767108,0.386743,0.20912779,-0.25885076,0.381625,0.29321054,-0.34954615,0.439177,0.24817441,-0.3113103,0.411854,0.24190111,-0.31282426,0.414261,0.24233412,-0.32073077,0.42481
0.3109511,-0.36240282,0.508071,0.31425993,-0.33012824,0.469965,0.31981365,-0.34114103,0.505309,0.30585809,-0.30710832,0.488822,0.30326888,-0.27456242,0.475008,0.30369842,-0.25494695,0.461935,0.32565412,-0.2867096,0.443154,0.28620249,-0.25432335,0.409614,0.26739193,-0.23775921,0.392884,0.24234149,-0.22194444,0.377675,0.31449991,-0.30497611,0.436535,0.2561361,-0.26553533,0.399138,0.22763873,-0.25413117,0.377323,0.22762172,-0.25597323,0.371591,0.30507023,-0.32338326,0.434903,0.24870838,-0.28717331,0.403199,0.2218242,-0.26857502,0.386979,0.20928127,-0.25993806,0.381975,0.29353277,-0.35066041,0.439702,0.24857692,-0.31245628,0.412318,0.24220773,-0.3139004,0.414869,0.24253955,-0.32171413,0.425495
0.31066825,-0.36219086,0.509244,0.31448298,-0.33110818,0.470866,0.31968566,-0.34085414,0.506186,0.30647809,-0.30799147,0.489338,0.30364819,-0.27604715,0.475154,0.30389505,-0.25568349,0.461825,0.32460478,-0.28756053,0.443505,0.28624717,-0.25491115,0.410054,0.26749713,-0.23839923,0.393353,0.24249245,-0.22260993,0.378171,0.31380171,-0.30615488,0.437196,0.2562204,-0.2661074,0.399594,0.22688169,-0.25413778,0.37766,0.21886574,-0.25426569,0.371762,0.30470945,-0.32487091,0.435846,0.24891485,-0.28787319,0.403887,0.22196657,-0.26919493,0.387536,0.20922871,-0.26060963,0.382341,0.29365152,-0.35256933,0.441022,0.2487387,-0.31442751,0.413408,0.24206435,-0.315375,0.415831,0.24173856,-0.32335279,0.426489
0.31101561,-0.36240772,0.509982,0.31434464,-0.33149741,0.471152,0.31991889,-0.34094657,0.506649,0.3069752,-0.30847916,0.489564,0.30445327,-0.27708694,0.475171,0.30518523,-0.25763292,0.461822,0.32303991,-0.28778375,0.443161,0.28637958,-0.25564473,0.408914,0.27640439,-0.24532211,0.396815,0.25200635,-0.23041552,0.385815,0.3126122,-0.30663482,0.437086,0.25659785,-0.26631472,0.399698,0.22510223,-0.25230182,0.377888,0.21487373,-0.24684308,0.371678,0.30391447,-0.32559743,0.435975,0.24843715,-0.28814836,0.403926,0.22143894,-0.27030746,0.387529,0.20802826,-0.26166821,0.381921,0.29346425,-0.35364562,0.441507,0.24872958,-0.31485565,0.413681,0.24192581,-0.31548953,0.415712,0.24175477,-0.32342838,0.426292
0.31260326,-0.36395556,0.511763,0.31395514,-0.33388096,0.472645,0.32119849,-0.34224668,0.50811,0.30813383,-0.31040631,0.490651,0.30512602,-0.27889725,0.475893,0.30614735,-0.25953825,0.462386,0.32289674,-0.28912417,0.444063,0.2868211,-0.25702161,0.410027,0.26938981,-0.24270825,0.395546,0.24726224,-0.22812738,0.382381,0.31280721,-0.30832707,0.438327,0.25728744,-0.26803631,0.400564,0.22486558,-0.25290726,0.378535,0.21528864,-0.25186171,0.372075,0.3044372,-0.32758314,0.437522,0.24744534,-0.29044151,0.405096,0.22027965,-0.27202261,0.388505,0.20794085,-0.26339124,0.382628,0.29446058,-0.35597803,0.443463,0.24954627,-0.31727852,0.415406,0.24256133,-0.31811115,0.41727,0.24269867,-0.32496968,0.427867
0.31321681,-0.36469601,0.512281,0.3139829,-0.33433084,0.473028,0.32173504,-0.34298432,0.508538,0.30844006,-0.3108651,0.491004,0.30550325,-0.27949849,0.476178,0.30638606,-0.26024546,0.462599,0.32259801,-0.28936541,0.444246,0.28660699,-0.25748562,0.410043,0.26952464,-0.2436303,0.395598,0.24725511,-0.22885982,0.382466,0.31258391,-0.30866819,0.43859,0.25736018,-0.26845667,0.400744,0.22456925,-0.25309996,0.378667,0.21470659,-0.2517388,0.372061,0.3043117,-0.32799956,0.437866,0.24725107,-0.29097667,0.405301,0.22001994,-0.2725646,0.38864,0.20761112,-0.26370678,0.382593,0.29451195,-0.35646767,0.443924,0.24956692,-0.3178585,0.415805,0.24260858,-0.31851689,0.41754,0.24287526,-0.32542216,0.428109
0.31300343,-0.36451769,0.511691,0.31343775,-0.3338925,0.472479,0.32156433,-0.34299306,0.508092,0.30836626,-0.31136815,0.490771,0.30643349,-0.28382903,0.476211,0.30716386,-0.26615474,0.462959,0.32231347,-0.28859219,0.44391,0.28896895,-0.25749923,0.40933,0.27767654,-0.24614495,0.396126,0.25665715,-0.23278817,0.384122,0.31213675,-0.30775267,0.438078,0.25817463,-0.26730532,0.400258,0.22466018,-0.25256541,0.378197,0.21567181,-0.24906249,0.371544,0.30374226,-0.32694547,0.437205,0.24753385,-0.29002538,0.404546,0.21936375,-0.27191635,0.387836,0.20703476,-0.26253853,0.381705,0.29382403,-0.35522128,0.443082,0.24911133,-0.31678645,0.41507,0.24243323,-0.31801868,0.416757,0.24323265,-0.32632803,0.42727
0.31306682,-0.36480577,0.51187,0.31305832,-0.3342446,0.472655,0.32141586,-0.34321827,0.508234,0.30847289,-0.31190945,0.490854,0.30643358,-0.28493817,0.47626,0.30721204,-0.26756898,0.462994,0.32216976,-0.28859357,0.444036,0.28955554,-0.25796929,0.409405,0.27822923,-0.24653329,0.39608,0.25727531,-0.23316838,0.383967,0.31204123,-0.30781073,0.438251,0.25854238,-0.26740988,0.400361,0.2249615,-0.25244812,0.378258,0.21564625,-0.24999085,0.371612,0.30370033,-0.32704131,0.437418,0.24741174,-0.29010158,0.404695,0.21929659,-0.27194283,0.387954,0.20694072,-0.2626861,0.381829,0.29386855,-0.35534149,0.44334,0.24923789,-0.31702662,0.4153,0.24279073,-0.31828684,0.417011,0.24404753,-0.32678904,0.427543
0.31312541,-0.36508772,0.512041,0.31279438,-0.33459131,0.472834,0.32129561,-0.34345751,0.508384,0.30858508,-0.31236047,0.490965,0.30646803,-0.28563869,0.476343,0.30726759,-0.26844518,0.463055,0.32209485,-0.28863051,0.444192,0.28997288,-0.25830953,0.409542,0.27850217,-0.24672443,0.396052,0.25751725,-0.23329758,0.383789,0.31199875,-0.30789065,0.438437,0.25847329,-0.26811824,0.400487,0.22521558,-0.25239067,0.37835,0.21593515,-0.25086273,0.371716,0.30369365,-0.32714682,0.437627,0.24735116,-0.29020108,0.404867,0.21928687,-0.27200924,0.388106,0.20690453,-0.26285347,0.382,0.2939239,-0.35546138,0.443576,0.24936077,-0.3172463,0.41552,0.24309771,-0.31853323,0.417258,0.24471046,-0.32718642,0.427806
0.31324095,-0.36518676,0.512176,0.31273212,-0.3348306,0.473003,0.32127705,-0.34352445,0.508464,0.3081319,-0.31217153,0.49019,0.3053147,-0.28500896,0.47457,0.30551583,-0.26746519,0.4604,0.32178351,-0.2888963,0.444312,0.29027233,-0.25855523,0.409663,0.27913731,-0.24725662,0.396705,0.25849701,-0.23413106,0.384925,0.31179671,-0.30824934,0.438636,0.25905931,-0.26842626,0.400997,0.22547832,-0.25271324,0.37904,0.21667776,-0.25133935,0.372582,0.30359985,-0.32756315,0.437888,0.24767361,-0.29071605,0.405612,0.21977607,-0.272675,0.389099,0.20734005,-0.26414923,0.383235,0.29399107,-0.35590966,0.443903,0.24951981,-0.31788691,0.415805,0.24344681,-0.31886578,0.417633,0.24536391,-0.3276686,0.428231
0.31375156,-0.36548273,0.512833,0.31347467,-0.33561088,0.474277,0.32230542,-0.34450191,0.510166,0.3066634,-0.32873667,0.491833,0.31177588,-0.29756943,0.476687,0.31702233,-0.27817033,0.462444,0.3235574,-0.29074981,0.447315,0.30000504,-0.26251737,0.412929,0.29074752,-0.25147264,0.400749,0.27114494,-0.23921453,0.389677,0.31281209,-0.3094476,0.440452,0.2613517,-0.27012588,0.403126,0.22751765,-0.25470466,0.381353,0.21838011,-0.2529663,0.374977,0.30399064,-0.32806579,0.438664,0.24820829,-0.29174474,0.406739,0.22068962,-0.27379902,0.390406,0.20790267,-0.26545311,0.384645,0.29344247,-0.3552623,0.443361,0.24979403,-0.31828711,0.416043,0.24369792,-0.31934533,0.417923,0.24536777,-0.32795245,0.428266
0.25299058,-0.28663345,0.442968,0.27307872,-0.31711706,0.443162,0.26998701,-0.28262695,0.446461,0.29421338,-0.27848675,0.442452,0.3110437,-0.28536529,0.457011,0.32449328,-0.29235239,0.460234,0.30405523,-0.32826037,0.447804,0.33044156,-0.37387329,0.474864,0.34375541,-0.39706951,0.488393,0.35592501,-0.41836811,0.500693,0.28932948,-0.3417748,0.443331,0.31388139,-0.33794687,0.437373,0.30507759,-0.32075752,0.433897,0.29848072,-0.32103763,0.446576,0.27491184,-0.35078941,0.43963,0.29631039,-0.34529237,0.43524,0.28199375,-0.33004497,0.432994,0.27585968,-0.32896228,0.446551,0.25382824,-0.35718421,0.435288,0.27645679,-0.34357332,0.429874,0.26754074,-0.32828494,0.427386,0.26700411,-0.32374821,0.437014
0.25210933,-0.28563501,0.441425,0.27242862,-0.31636213,0.442107,0.2691023,-0.28170081,0.444998,0.29339215,-0.27770942,0.441217,0.31033791,-0.28471777,0.455974,0.32388974,-0.29180864,0.459378,0.30360981,-0.3277795,0.447148,0.32993427,-0.37329933,0.474135,0.34321696,-0.39644756,0.487628,0.35535774,-0.41770132,0.499895,0.28892028,-0.34129143,0.442704,0.31375222,-0.33780779,0.437193,0.30513454,-0.3208174,0.433978,0.29861706,-0.32118429,0.44678,0.27450288,-0.35026757,0.438976,0.29613475,-0.34508769,0.434982,0.28195793,-0.33000305,0.432939,0.27590107,-0.32901164,0.446618,0.25337981,-0.3565532,0.434519,0.27618025,-0.34322964,0.429444,0.26736922,-0.32807447,0.427112,0.26689536,-0.32361635,0.436836
0.25224583,-0.2854311,0.441664,0.27246744,-0.31606394,0.44217,0.26922747,-0.28148343,0.445205,0.29347261,-0.2774259,0.441338,0.31037058,-0.28435213,0.456022,0.32387705,-0.29138277,0.45936,0.30355278,-0.32739444,0.447064,0.329896,-0.37292546,0.47408,0.34318881,-0.39608115,0.487588,0.35533855,-0.41734196,0.499868,0.28886154,-0.34089112,0.442614,0.31357137,-0.33726687,0.436941,0.30489127,-0.32020702,0.433632,0.2983564,-0.32054021,0.44639,0.27445473,-0.34986729,0.438899,0.29598429,-0.34455643,0.434761,0.28249582,-0.32934619,0.432644,0.27721509,-0.32784191,0.446279,0.25336115,-0.35617549,0.434487,0.27607993,-0.34274681,0.429288,0.26723588,-0.32755581,0.426899,0.26674506,-0.32307188,0.43659
0.25240803,-0.28543525,0.441948,0.27253214,-0.31596733,0.442275,0.26937684,-0.28146531,0.445452,0.29357502,-0.27734281,0.441492,0.31042163,-0.28420105,0.456097,0.32388128,-0.29117935,0.459366,0.30351883,-0.32719612,0.447014,0.32987304,-0.37273425,0.474047,0.34317192,-0.39589471,0.487564,0.35532717,-0.41716019,0.499852,0.28882826,-0.34068642,0.442563,0.31341636,-0.33692713,0.436725,0.30467119,-0.31979871,0.433319,0.29811779,-0.32010213,0.446033,0.27443347,-0.34967077,0.438865,0.29585971,-0.34423351,0.434578,0.28269245,-0.32893256,0.432385,0.27779275,-0.32715577,0.445975,0.25337165,-0.35601445,0.434505,0.27600983,-0.34248075,0.429179,0.26713134,-0.32725016,0.426732,0.26662103,-0.32274066,0.436387
0.25252055,-0.28545481,0.442145,0.27257897,-0.31591859,0.442351,0.26948086,-0.28146937,0.445624,0.29364617,-0.27730208,0.441599,0.31045838,-0.28411601,0.456151,0.32388481,-0.29105819,0.459371,0.30349642,-0.32707495,0.446981,0.32985842,-0.37261859,0.474026,0.34316066,-0.3957816,0.487548,0.35531935,-0.41704997,0.499841,0.28880738,-0.34056254,0.442531,0.3133123,-0.33671149,0.43658,0.30452284,-0.31953671,0.433108,0.29795671,-0.3198202,0.445792,0.27442221,-0.34955479,0.438847,0.29577733,-0.34403097,0.434457,0.28279835,-0.32867022,0.432211,0.27812703,-0.32672748,0.445771,0.25338215,-0.35592376,0.434523,0.27596546,-0.34231829,0.42911,0.26706311,-0.32706011,0.426623,0.26653916,-0.32253298,0.436253
0.25259409,-0.28538733,0.441963,0.27253408,-0.31619702,0.442576,0.26974721,-0.28181844,0.445979,0.29461943,-0.27824071,0.442742,0.31210689,-0.28539739,0.45782,0.32546707,-0.29257563,0.461387,0.30375409,-0.3281607,0.44815,0.32569433,-0.3753088,0.475472,0.33809273,-0.39871642,0.489133,0.35534308,-0.41876956,0.501553,0.28870711,-0.34117666,0.443113,0.31347819,-0.33735216,0.437657,0.30475756,-0.32024999,0.434474,0.29815381,-0.32062721,0.447219,0.27405509,-0.34971123,0.438904,0.29628385,-0.34498833,0.435119,0.28357225,-0.32982046,0.433183,0.27889245,-0.32796805,0.44685,0.25276323,-0.35544973,0.433898,0.27580577,-0.34230712,0.428978,0.26711127,-0.32721663,0.426717,0.26669123,-0.32273837,0.436428
0.25269154,-0.28539009,0.441912,0.2724955,-0.31638814,0.442726,0.26981431,-0.28193908,0.446029,0.2949251,-0.27854334,0.442973,0.31272036,-0.28579666,0.458184,0.32591123,-0.29304303,0.461854,0.30364546,-0.32862087,0.448554,0.3259512,-0.3756048,0.475847,0.33834226,-0.39901068,0.489494,0.35473765,-0.41926697,0.5019,0.28857758,-0.34154704,0.44344,0.31342453,-0.33762509,0.438187,0.30469502,-0.32051823,0.435123,0.29807609,-0.32096945,0.447912,0.27392003,-0.34998489,0.439148,0.29662868,-0.34565239,0.435567,0.28403193,-0.33053392,0.433735,0.27933391,-0.32873051,0.447452,0.25264684,-0.35556854,0.43401,0.27593373,-0.34259931,0.42926,0.26732964,-0.32755369,0.427078,0.26696851,-0.32308915,0.436829
0.25366928,-0.28598586,0.443047,0.27312632,-0.31693612,0.443704,0.27077473,-0.28257975,0.447199,0.29605734,-0.27948145,0.444148,0.31648723,-0.2883649,0.459341,0.32626414,-0.29431165,0.462977,0.30404462,-0.32918304,0.449482,0.32657287,-0.37552377,0.476837,0.33925407,-0.39897729,0.490514,0.35509206,-0.4199986,0.502948,0.28890472,-0.34202279,0.444281,0.31363133,-0.33794536,0.4389,0.30502361,-0.32079192,0.435762,0.29844692,-0.3210938,0.448505,0.27422403,-0.35039306,0.439931,0.29714394,-0.34628553,0.436259,0.28479896,-0.33111345,0.434381,0.28032197,-0.3291759,0.448058,0.25299021,-0.35591485,0.434755,0.27646616,-0.34342941,0.429924,0.26805948,-0.3282778,0.427705,0.26788166,-0.32372095,0.437423
0.25424702,-0.28624269,0.44361,0.27347335,-0.31722521,0.444229,0.27130828,-0.28289789,0.447798,0.29676942,-0.28012877,0.444782,0.31755002,-0.28954269,0.459991,0.32652685,-0.29536125,0.46363,0.30421107,-0.32955894,0.45003,0.3268691,-0.37577092,0.477385,0.33969326,-0.39928592,0.491062,0.35516435,-0.42049437,0.503495,0.28905829,-0.34232809,0.444772,0.31377211,-0.33810293,0.439369,0.30529234,-0.3209194,0.436216,0.29875454,-0.32113582,0.448945,0.27439155,-0.35063895,0.440381,0.29754887,-0.34667454,0.436703,0.28541722,-0.33147644,0.434821,0.28112152,-0.32945083,0.448489,0.25321475,-0.35608567,0.435162,0.27688605,-0.34395574,0.430324,0.26863514,-0.32874356,0.428101,0.26860082,-0.32413001,0.437811
0.25468039,-0.28641558,0.44401,0.27374812,-0.31742799,0.444628,0.27170398,-0.2831047,0.448215,0.29729156,-0.28060384,0.445219,0.31820344,-0.29032308,0.460441,0.32666786,-0.29618968,0.464086,0.30435425,-0.32981599,0.45045,0.32717841,-0.37591023,0.477816,0.34010106,-0.39945427,0.491499,0.35526389,-0.42083579,0.503938,0.28920199,-0.34255064,0.44517,0.31390792,-0.33823939,0.439769,0.3055346,-0.3210514,0.436619,0.29903287,-0.32120479,0.449346,0.27455028,-0.3508298,0.44076,0.29789567,-0.34700699,0.437091,0.28593549,-0.33179844,0.435213,0.28178659,-0.32971003,0.448881,0.25341968,-0.35623592,0.43552,0.27724819,-0.34441178,0.430689,0.26912518,-0.32915641,0.428469,0.26920879,-0.32450229,0.438179
0.25507018,-0.28641444,0.444178,0.27417216,-0.31792994,0.44542,0.27224615,-0.28339795,0.448716,0.29900771,-0.28249889,0.446314,0.32029088,-0.29344733,0.46196,0.32462444,-0.30216492,0.465934,0.3051196,-0.33105357,0.452056,0.32815905,-0.37733619,0.479472,0.34112159,-0.40096774,0.49318,0.35581837,-0.42238344,0.505641,0.28971722,-0.34355216,0.44651,0.31484101,-0.33967649,0.441747,0.30684353,-0.32267916,0.438968,0.30044294,-0.32277607,0.451826,0.27485718,-0.35156227,0.44182,0.30066765,-0.35603295,0.438796,0.29420526,-0.34154619,0.43725,0.29480015,-0.33888761,0.45107,0.25348957,-0.35652701,0.436143,0.27784685,-0.34549182,0.431852,0.27003708,-0.33034872,0.429881,0.27033073,-0.32570606,0.439711
0.25573412,-0.28672164,0.444824,0.27448785,-0.31830626,0.446036,0.27286648,-0.2837727,0.449346,0.29986609,-0.28345842,0.446914,0.32061474,-0.29428427,0.462539,0.32414666,-0.30300326,0.466497,0.30518926,-0.33153699,0.452632,0.32843492,-0.37786721,0.480035,0.34140422,-0.40152494,0.493736,0.35556107,-0.422969,0.506192,0.28974549,-0.34397661,0.4471,0.31476087,-0.3400215,0.442305,0.30688686,-0.32297678,0.439508,0.30055812,-0.32295642,0.45236,0.27487963,-0.351931,0.442423,0.30105959,-0.35649706,0.439368,0.29457869,-0.34197971,0.437805,0.2951583,-0.33929932,0.451618,0.25356072,-0.35681979,0.436768,0.27808253,-0.34612081,0.432451,0.27043016,-0.33090641,0.430467,0.27086772,-0.32620479,0.440291
0.2563583,-0.28709193,0.445401,0.27477159,-0.31874852,0.4466,0.27343812,-0.28420155,0.449896,0.30027669,-0.28402239,0.447425,0.32090055,-0.2949071,0.463026,0.32389413,-0.30362555,0.466969,0.30522147,-0.33207661,0.453152,0.32871542,-0.37835035,0.480565,0.3416984,-0.40203975,0.494272,0.35529709,-0.42364756,0.506733,0.28974937,-0.34447117,0.447652,0.31466332,-0.3404515,0.442838,0.30691795,-0.32336798,0.44003,0.30066483,-0.32323713,0.452881,0.27488797,-0.35238308,0.443003,0.30143919,-0.35694657,0.439922,0.2949427,-0.3424023,0.438346,0.29550926,-0.33970277,0.452155,0.25362559,-0.35720886,0.437382,0.2783145,-0.34685208,0.433044,0.27082195,-0.33156902,0.431051,0.27140592,-0.3268137,0.440873
0.25750817,-0.28785539,0.446758,0.27522065,-0.31922984,0.447387,0.27447789,-0.28491745,0.451073,0.30095196,-0.28467082,0.448221,0.32132262,-0.29547438,0.463528,0.32329875,-0.30402644,0.467222,0.30505565,-0.33226082,0.453358,0.32866145,-0.37827302,0.480627,0.3415733,-0.40189608,0.494261,0.35452631,-0.42361793,0.506656,0.28956832,-0.34462818,0.447938,0.31398169,-0.34022275,0.442577,0.30618545,-0.32291964,0.43945,0.29997593,-0.32258486,0.452168,0.2747612,-0.35256093,0.443413,0.29968198,-0.35015841,0.439816,0.28881116,-0.33453803,0.437976,0.28565562,-0.33206495,0.451646,0.25367281,-0.35748609,0.438036,0.27826423,-0.34720892,0.433261,0.27084019,-0.33171905,0.431067,0.27153107,-0.32684006,0.440778
0.2582407,-0.28815154,0.44739,0.27558235,-0.31960985,0.448032,0.27512481,-0.28522528,0.451604,0.30133814,-0.28504385,0.448628,0.32161051,-0.29587372,0.463863,0.32292656,-0.30439773,0.46752,0.30510371,-0.33267732,0.453881,0.3289584,-0.3786026,0.481174,0.34186626,-0.40224364,0.494821,0.3542106,-0.42412993,0.507227,0.28962763,-0.34507073,0.448595,0.31394128,-0.34068746,0.443218,0.30629851,-0.32336194,0.440082,0.30018932,-0.32290261,0.452814,0.27485477,-0.35302115,0.444178,0.29988928,-0.35080423,0.440532,0.28957123,-0.33548411,0.438666,0.28695556,-0.33291716,0.45234,0.25385615,-0.35795518,0.438925,0.27862209,-0.3480744,0.434113,0.27137302,-0.33249913,0.431902,0.27223136,-0.32755886,0.441617
0.25868538,-0.28812304,0.447986,0.27575006,-0.31958089,0.448521,0.27554652,-0.28516123,0.452054,0.30161033,-0.2851533,0.448862,0.32122714,-0.29500157,0.463957,0.32068061,-0.30407886,0.467521,0.30506281,-0.33256934,0.454115,0.32891441,-0.37867972,0.481698,0.34013119,-0.40129302,0.49549,0.35337203,-0.42460379,0.508028,0.28955826,-0.34502007,0.44899,0.31375606,-0.34082,0.443479,0.30631878,-0.32348003,0.440265,0.30033306,-0.32280774,0.452984,0.2747791,-0.35302364,0.444716,0.29947655,-0.35088919,0.440906,0.28973434,-0.33549022,0.438957,0.28785385,-0.33266207,0.452604,0.25275553,-0.35751378,0.439649,0.27791492,-0.34920848,0.434704,0.2717371,-0.33326982,0.432431,0.27291994,-0.32822005,0.442127
0.2589586,-0.28790324,0.448285,0.27575854,-0.31936732,0.448751,0.27588352,-0.28500928,0.452365,0.30193225,-0.28530978,0.44917,0.32154241,-0.29534915,0.464253,0.32035011,-0.30368501,0.467801,0.30500117,-0.33243881,0.454318,0.32871678,-0.37858,0.481997,0.3396908,-0.40130904,0.495836,0.35278169,-0.42436557,0.508417,0.28934393,-0.34479667,0.44916,0.31346709,-0.34083967,0.443593,0.30626741,-0.32352246,0.440345,0.30040389,-0.3226344,0.453044,0.27446385,-0.35271832,0.444866,0.29888338,-0.35076194,0.441013,0.28976149,-0.33533885,0.439042,0.28862985,-0.33226148,0.452672,0.2524599,-0.35728738,0.439787,0.2776864,-0.34962693,0.434804,0.27182159,-0.33369778,0.432515,0.27333674,-0.32855423,0.442196
0.25885594,-0.28760169,0.448254,0.27547208,-0.31913094,0.448707,0.27583996,-0.28477821,0.452332,0.30183648,-0.28522154,0.449131,0.3213791,-0.29529916,0.464209,0.31906294,-0.30353567,0.467752,0.30468994,-0.3323218,0.454263,0.32838507,-0.37862858,0.482151,0.33933617,-0.40136097,0.496095,0.35067514,-0.42316366,0.508771,0.2889073,-0.34461021,0.449104,0.31297605,-0.34086049,0.443524,0.30571511,-0.32348254,0.44027,0.29985402,-0.32257526,0.452965,0.27334587,-0.35229091,0.44481,0.29678457,-0.35087334,0.440947,0.28930167,-0.33526672,0.438971,0.28860859,-0.33207429,0.452597,0.25206529,-0.35697474,0.439734,0.27696949,-0.34992545,0.434742,0.27147928,-0.33387274,0.432448,0.27320107,-0.32868512,0.442127
0.25876314,-0.28729868,0.448229,0.27520195,-0.31887348,0.448684,0.27582178,-0.28452499,0.452295,0.30173234,-0.28518497,0.449081,0.32116881,-0.29538573,0.464152,0.31880511,-0.30353596,0.467691,0.30441815,-0.33215184,0.454228,0.32797017,-0.37844616,0.48215,0.33899444,-0.40124838,0.49611,0.35020042,-0.42302124,0.508802,0.28849304,-0.3443869,0.449084,0.31248378,-0.34093163,0.443504,0.3051636,-0.3235221,0.44025,0.2993178,-0.32258655,0.452947,0.27309182,-0.35209266,0.444802,0.29651693,-0.35080095,0.440935,0.2888016,-0.33527363,0.438956,0.28855928,-0.3319726,0.452584,0.25179256,-0.35675605,0.43974,0.27674326,-0.35016263,0.434745,0.27112535,-0.33411417,0.43245,0.27306488,-0.32888379,0.442129
0.25854914,-0.2873114,0.448369,0.27475604,-0.31887963,0.448724,0.2755883,-0.28448297,0.452257,0.30123369,-0.28495974,0.44879,0.32000767,-0.29441264,0.463698,0.31790697,-0.3028458,0.467133,0.3037904,-0.33204895,0.453977,0.3271676,-0.37814063,0.481565,0.33949403,-0.40177294,0.495359,0.35109493,-0.42359335,0.5079,0.2878485,-0.34436917,0.449036,0.31167157,-0.34109706,0.443321,0.30424003,-0.32359664,0.439988,0.29840254,-0.32263482,0.452676,0.27277101,-0.35224961,0.444932,0.29600486,-0.35102951,0.440888,0.28792352,-0.33549826,0.438819,0.28810357,-0.33207779,0.452421,0.2506472,-0.35628971,0.440094,0.27642807,-0.35020921,0.434957,0.27039364,-0.33418751,0.432596,0.27234494,-0.32892236,0.442256
0.25812457,-0.28705204,0.448161,0.27430066,-0.31862481,0.448575,0.27517901,-0.28416661,0.451967,0.30069634,-0.28473819,0.44841,0.31975531,-0.2956204,0.463272,0.3168055,-0.3027328,0.466691,0.30332612,-0.33171717,0.453755,0.32686759,-0.37783086,0.481371,0.33916944,-0.40144032,0.495179,0.35068012,-0.42321747,0.507732,0.28736713,-0.34411465,0.448937,0.31113673,-0.34110713,0.443252,0.30360916,-0.32362138,0.439935,0.29776489,-0.32268694,0.452646,0.27227228,-0.35205999,0.444928,0.29563878,-0.35121638,0.440878,0.28754344,-0.33571076,0.438806,0.28771293,-0.33232299,0.452422,0.25036081,-0.35645946,0.440191,0.27588671,-0.35029045,0.435052,0.26961081,-0.3338458,0.432691,0.27190826,-0.32897609,0.442364
0.25761823,-0.28681627,0.447811,0.27383589,-0.31837971,0.448315,0.27469825,-0.28387396,0.45157,0.30011236,-0.28443505,0.44798,0.3189763,-0.2945322,0.462832,0.31566904,-0.302433,0.46626,0.30291476,-0.33140164,0.453491,0.32669404,-0.37754985,0.481165,0.33900921,-0.40114374,0.495002,0.35046504,-0.42288517,0.507581,0.28693954,-0.34386566,0.448757,0.31067358,-0.34110762,0.443139,0.30335967,-0.32378051,0.439862,0.29764528,-0.32274857,0.452601,0.27182408,-0.35186646,0.444808,0.29543893,-0.35135366,0.440796,0.28731842,-0.33589879,0.438743,0.28746283,-0.33256414,0.452381,0.2505546,-0.35684084,0.440124,0.27538608,-0.35034367,0.435022,0.26945603,-0.33430974,0.432677,0.27148255,-0.3290424,0.442368
0.25726946,-0.28675601,0.447735,0.27335427,-0.31822329,0.448221,0.27436526,-0.28375568,0.451458,0.29972076,-0.28438707,0.447818,0.31859874,-0.29542959,0.462637,0.31514467,-0.30251631,0.466045,0.30236086,-0.33111444,0.453341,0.32632772,-0.37746009,0.481422,0.3373926,-0.40080407,0.495463,0.34832213,-0.42246928,0.508227,0.28633939,-0.34360952,0.448648,0.30890944,-0.3431937,0.443006,0.30811174,-0.33185054,0.439714,0.30116229,-0.32478241,0.452453,0.27119927,-0.35164759,0.444736,0.29428449,-0.35147879,0.44069,0.28699079,-0.33604362,0.43862,0.28715035,-0.33275077,0.452254,0.2490751,-0.35648773,0.440097,0.2739634,-0.35089391,0.434968,0.26887031,-0.33435188,0.432611,0.27093874,-0.32907837,0.442298
0.25705335,-0.28703932,0.448024,0.27297956,-0.31834436,0.448349,0.2740708,-0.2838767,0.451553,0.29902298,-0.28511505,0.447623,0.31831507,-0.29706934,0.462247,0.31495196,-0.30557489,0.465525,0.30174477,-0.33089783,0.453117,0.32563451,-0.3771181,0.481154,0.3380139,-0.40076063,0.495173,0.34953022,-0.42254561,0.507917,0.28581279,-0.34355831,0.448634,0.30898827,-0.34361902,0.442799,0.30788822,-0.3316098,0.439395,0.30214608,-0.32624967,0.452107,0.27075364,-0.35176173,0.44491,0.29406372,-0.3516222,0.440634,0.28634949,-0.33613258,0.438447,0.28650538,-0.33284122,0.452037,0.24914075,-0.35695576,0.440519,0.27390766,-0.35099536,0.435202,0.26843377,-0.33463501,0.432759,0.27050376,-0.32933285,0.442413
0.25686837,-0.2873588,0.448369,0.27267964,-0.31842409,0.448459,0.27374912,-0.2839358,0.45159,0.29860474,-0.28440315,0.447212,0.3174496,-0.29721645,0.461531,0.31411227,-0.30580319,0.46461,0.30113311,-0.33045817,0.452686,0.3249078,-0.37639409,0.480509,0.33780289,-0.40008202,0.49442,0.35202582,-0.42271813,0.507067,0.28538973,-0.34339306,0.448538,0.30909775,-0.34355978,0.44242,0.3078063,-0.33090009,0.438851,0.30313592,-0.3273658,0.451523,0.27048595,-0.35186698,0.445113,0.29395641,-0.35159243,0.440493,0.28570845,-0.33605456,0.438129,0.28581709,-0.33276569,0.451653,0.24949162,-0.35753383,0.441112,0.27406518,-0.35113672,0.435515,0.26811485,-0.33491387,0.432943,0.27015389,-0.32957652,0.442547
0.25672669,-0.28777447,0.448506,0.27260329,-0.3187072,0.448593,0.27355274,-0.28417768,0.451592,0.29829255,-0.2848018,0.447042,0.31736109,-0.29733802,0.461254,0.31409733,-0.30599698,0.464276,0.30099446,-0.33043798,0.452643,0.3248595,-0.37626827,0.480468,0.33817775,-0.40000729,0.494381,0.35272318,-0.42247905,0.507029,0.28535844,-0.34355497,0.44867,0.30943162,-0.34380191,0.442516,0.30800862,-0.33080698,0.438926,0.303586,-0.32758324,0.451606,0.27053346,-0.35220099,0.44539,0.29391596,-0.35198982,0.440689,0.28561908,-0.33648649,0.438284,0.28569827,-0.33325732,0.451804,0.24961076,-0.35810328,0.441557,0.27407011,-0.35120262,0.435899,0.26788876,-0.33500559,0.433299,0.26972358,-0.32970722,0.442901
0.25678576,-0.28838035,0.448962,0.27261036,-0.31911419,0.448916,0.2735499,-0.28463382,0.451945,0.29823276,-0.28540189,0.447232,0.31757748,-0.29754132,0.461326,0.31440411,-0.30620843,0.464264,0.30085346,-0.33052677,0.452751,0.32478658,-0.37628834,0.480607,0.33809185,-0.39997431,0.494535,0.3531032,-0.42247396,0.507197,0.28530237,-0.34376595,0.448875,0.30939444,-0.34274349,0.442579,0.30689678,-0.32914555,0.438906,0.30362742,-0.32688339,0.451558,0.27055284,-0.35254108,0.445688,0.29385061,-0.35229998,0.440834,0.28560257,-0.33682966,0.43835,0.28580091,-0.33365837,0.451833,0.24972478,-0.35864653,0.441988,0.2740579,-0.3511594,0.436202,0.26762803,-0.334973,0.433544,0.26924493,-0.32970104,0.443118
0.25918582,-0.29065606,0.4527,0.27421399,-0.32131014,0.451671,0.27693574,-0.28816247,0.457228,0.30616244,-0.29096858,0.454226,0.32671421,-0.30011181,0.469206,0.32205283,-0.31140782,0.472476,0.30190927,-0.34127962,0.456907,0.32453598,-0.38713954,0.483371,0.33681672,-0.41074478,0.496604,0.34944317,-0.42932712,0.508633,0.28571775,-0.34640327,0.450768,0.31010853,-0.3441161,0.444027,0.3078079,-0.32958529,0.440095,0.30561306,-0.32716795,0.452323,0.27031948,-0.35298603,0.445816,0.29388166,-0.35232675,0.441169,0.29395376,-0.32985793,0.438791,0.30484314,-0.32379442,0.452022,0.24845699,-0.35719459,0.440235,0.27278322,-0.34938641,0.434539,0.2664244,-0.33325265,0.431922,0.26789776,-0.32784385,0.441283
0.26057104,-0.29165649,0.454298,0.27492451,-0.32230397,0.452614,0.27819991,-0.28935462,0.458657,0.30789366,-0.29211091,0.455274,0.32826391,-0.30115601,0.469933,0.32157646,-0.31063529,0.472931,0.30317826,-0.34181539,0.457233,0.32548106,-0.38716466,0.483114,0.33869035,-0.41078152,0.496054,0.35195521,-0.43273594,0.507819,0.28628233,-0.34865274,0.451137,0.30983975,-0.34426995,0.443784,0.30734992,-0.32873906,0.439494,0.30414365,-0.3256647,0.451555,0.27049746,-0.3537817,0.446287,0.293825,-0.35210713,0.441075,0.29396019,-0.32972735,0.438409,0.3035743,-0.32319081,0.451467,0.24877895,-0.35782414,0.440939,0.27288967,-0.34923262,0.434764,0.2664194,-0.3328904,0.431927,0.26778562,-0.32735997,0.441153
0.26176637,-0.29179735,0.455183,0.27569988,-0.32274472,0.453324,0.27926825,-0.28973371,0.459416,0.3086095,-0.2920029,0.455827,0.32889759,-0.30093321,0.470342,0.32255593,-0.31090778,0.473235,0.30382125,-0.34167766,0.457673,0.32597468,-0.38681139,0.483294,0.33947416,-0.41040591,0.496104,0.35322208,-0.43236548,0.50775,0.28678401,-0.34745328,0.451693,0.31019805,-0.34450716,0.444153,0.30411039,-0.32529117,0.439755,0.29944402,-0.32282221,0.45178,0.27099689,-0.35434934,0.446955,0.29463575,-0.35145667,0.441544,0.29429361,-0.32943862,0.438776,0.30349433,-0.32271184,0.45179,0.24938411,-0.35815588,0.441769,0.27353927,-0.34955731,0.435429,0.26765605,-0.332782,0.432516,0.26874728,-0.3274448,0.441707
0.26320023,-0.29208275,0.456278,0.2764982,-0.32315819,0.45389,0.28053603,-0.29026058,0.460344,0.30948251,-0.29209905,0.456409,0.32957323,-0.30075831,0.470639,0.32293159,-0.30949379,0.473299,0.30448214,-0.34156904,0.457699,0.32647588,-0.38641703,0.482904,0.34141597,-0.40991445,0.495507,0.35623666,-0.4319422,0.506964,0.28705287,-0.34795097,0.451795,0.31017708,-0.34417494,0.443753,0.30503001,-0.3246452,0.439062,0.29989333,-0.32172485,0.450952,0.2713467,-0.35468204,0.447172,0.29544669,-0.34824002,0.441288,0.2943951,-0.32878052,0.438278,0.3032754,-0.32186763,0.45115,0.24991258,-0.35826776,0.442213,0.27397994,-0.34939584,0.435474,0.27015906,-0.3309435,0.432378,0.27008098,-0.3265081,0.441457
0.26513326,-0.29280387,0.458236,0.27744893,-0.3237287,0.454802,0.28232332,-0.2912256,0.462113,0.3106329,-0.29274577,0.45768,0.33042069,-0.301055,0.471447,0.32415668,-0.30919276,0.473705,0.30488883,-0.3415145,0.457729,0.32692092,-0.38635084,0.482883,0.3418104,-0.40985806,0.49546,0.35665265,-0.43187647,0.506894,0.28714722,-0.3482977,0.451789,0.30966583,-0.34338896,0.442799,0.30557548,-0.32366205,0.437554,0.30264815,-0.32182812,0.449154,0.27148629,-0.35481098,0.447243,0.29529199,-0.34750742,0.440513,0.29384389,-0.32770328,0.437069,0.302394,-0.32056656,0.449651,0.2502525,-0.35817933,0.442556,0.274035,-0.3488234,0.435097,0.27004147,-0.3302835,0.43167,0.27038924,-0.32528957,0.440521
0.26544627,-0.29254467,0.458516,0.27724116,-0.32313459,0.454086,0.28258101,-0.29131215,0.462569,0.3066681,-0.29315885,0.45813,0.3295091,-0.30143161,0.471706,0.32430691,-0.30833926,0.473724,0.30364329,-0.3373022,0.456634,0.32738029,-0.38207938,0.482577,0.34349646,-0.40836738,0.495548,0.35726005,-0.42679657,0.50734,0.28645631,-0.3473353,0.4502,0.30939863,-0.33811716,0.440412,0.30564544,-0.31796844,0.434703,0.30147509,-0.31678556,0.445969,0.27109165,-0.35330987,0.445345,0.30032188,-0.34811114,0.43803,0.2999917,-0.32911263,0.434287,0.30963949,-0.32262848,0.446569,0.25129664,-0.35519634,0.440475,0.27601985,-0.34461221,0.432504,0.26932788,-0.32766992,0.428842,0.27086371,-0.3214259,0.437456
0.26612048,-0.2929414,0.459795,0.27745687,-0.32319902,0.454248,0.28328329,-0.29208889,0.464087,0.30623438,-0.29324337,0.459706,0.32801107,-0.30002315,0.47308,0.32613002,-0.30569732,0.474843,0.30357174,-0.33758062,0.456423,0.32802883,-0.38441449,0.482504,0.34235791,-0.40573856,0.495545,0.3571491,-0.42764158,0.5074,0.28622863,-0.34701796,0.449381,0.30867476,-0.33305036,0.438721,0.30391203,-0.31329429,0.432502,0.2998059,-0.31328153,0.443371,0.27101735,-0.35272351,0.444139,0.29960931,-0.3492031,0.4362,0.30196038,-0.3336389,0.432138,0.31376515,-0.32800815,0.444064,0.25094151,-0.35444631,0.439013,0.27521037,-0.34260732,0.430496,0.26839219,-0.32524023,0.426582,0.26929282,-0.3193237,0.434917
0.26505726,-0.29203262,0.457621,0.27448932,-0.33483909,0.453909,0.28505596,-0.29843757,0.471165,0.31930577,-0.31262202,0.480864,0.33667593,-0.30024089,0.471028,0.33398777,-0.2910328,0.457817,0.30109086,-0.36615528,0.469187,0.32378439,-0.40546359,0.490206,0.33514159,-0.42514327,0.500716,0.34547132,-0.44304679,0.51027,0.28366032,-0.36393805,0.450653,0.31167275,-0.34471428,0.445567,0.32426308,-0.3278582,0.442599,0.32654634,-0.31916575,0.450277,0.26820258,-0.35902853,0.435764,0.29995674,-0.34545457,0.435989,0.30378793,-0.32859599,0.436104,0.31785782,-0.31719611,0.445608,0.2481373,-0.34776017,0.419091,0.2752877,-0.33155462,0.417409,0.26969847,-0.32053391,0.416637,0.26926143,-0.31597454,0.423217
0.20088407,-0.23480231,0.358435,0.23151003,-0.27025241,0.388482,0.21424231,-0.23196567,0.374528,0.25351295,-0.23648145,0.399604,0.27204322,-0.23801639,0.422792,0.295712,-0.24621733,0.436605,0.26724252,-0.28831633,0.427644,0.32129126,-0.30098168,0.455535,0.34009597,-0.30126668,0.469481,0.35823414,-0.3006015,0.482243,0.25815651,-0.30109929,0.414843,0.31262463,-0.31328929,0.441353,0.3180477,-0.31372239,0.456818,0.30802124,-0.3204379,0.470715,0.24764546,-0.30806389,0.401292,0.29988051,-0.3222046,0.428529,0.30198199,-0.32354471,0.442465,0.29140541,-0.3325176,0.457696,0.23008929,-0.31003422,0.380241,0.276005,-0.32145459,0.402113,0.28127035,-0.3157894,0.412162,0.27268987,-0.31741895,0.42354
0.22046731,-0.2873467,0.389727,0.25640716,-0.31830778,0.421949,0.23066741,-0.28116554,0.403742,0.24678688,-0.284526,0.432342,0.27138573,-0.28424639,0.454905,0.29625122,-0.28864719,0.46581,0.29122479,-0.32942583,0.459745,0.34179438,-0.33791194,0.487366,0.34965158,-0.33882247,0.501177,0.35876425,-0.34075626,0.516861,0.28790161,-0.34708532,0.450218,0.31807272,-0.38295888,0.485803,0.35578205,-0.395398,0.506561,0.36955971,-0.39905592,0.517938,0.28117915,-0.35544041,0.439144,0.31120885,-0.39504909,0.470561,0.32678151,-0.41558831,0.486861,0.34098998,-0.43433115,0.501706,0.26738104,-0.36190256,0.420594,0.30756384,-0.36483794,0.442727,0.31436986,-0.36583662,0.452897,0.32247603,-0.36853912,0.46493
0.21495457,-0.27984024,0.38404,0.24232373,-0.31478834,0.419864,0.21908809,-0.27696784,0.39804,0.23387897,-0.28242856,0.42728,0.26082818,-0.28279448,0.447838,0.28948343,-0.28653811,0.45948,0.25788233,-0.33839182,0.45984,0.28296619,-0.38079965,0.491745,0.30754701,-0.38086821,0.507698,0.3251096,-0.37446995,0.513869,0.26835641,-0.34836729,0.451294,0.31636157,-0.34111893,0.483027,0.33053104,-0.3387566,0.501539,0.34156078,-0.33637531,0.515853,0.27196271,-0.35122334,0.440668,0.3067283,-0.39154261,0.471478,0.32352892,-0.41141304,0.487241,0.33989452,-0.43185101,0.501571,0.27554784,-0.35130264,0.422006,0.29004153,-0.38295433,0.452682,0.30653925,-0.38832165,0.466777,0.3239911,-0.39023673,0.479213
0.2145651,-0.27879945,0.384134,0.24283726,-0.31481833,0.419904,0.21667529,-0.27695379,0.398129,0.23426669,-0.28230694,0.427096,0.26159684,-0.28309948,0.448321,0.28832562,-0.28658519,0.458581,0.25836977,-0.33838961,0.459837,0.28341544,-0.38073848,0.491666,0.30797961,-0.38077969,0.50758,0.32533649,-0.37415076,0.513431,0.2688407,-0.34835957,0.451284,0.31683291,-0.34106384,0.482949,0.33101433,-0.33867622,0.50142,0.34208806,-0.33631076,0.515754,0.27272272,-0.35160833,0.440658,0.30722366,-0.39154344,0.471479,0.32402929,-0.41141811,0.487247,0.33989666,-0.43106866,0.501582,0.27604036,-0.35130264,0.422006,0.2905725,-0.38299917,0.452735,0.3070882,-0.38838571,0.466854,0.3245607,-0.39031654,0.479311
0.21212267,-0.27647938,0.382493,0.24257737,-0.3117262,0.418371,0.20986962,-0.2755049,0.397598,0.23397149,-0.28178888,0.427734,0.2611359,-0.28403937,0.452114,0.28887232,-0.29019818,0.465086,0.26617364,-0.32976697,0.45981,0.2966901,-0.36865107,0.492579,0.32112575,-0.36764479,0.508964,0.33804844,-0.3598953,0.514874,0.27567096,-0.33828829,0.449848,0.3212693,-0.32961422,0.482285,0.33604157,-0.32543152,0.501207,0.34681479,-0.32092178,0.514761,0.27988896,-0.34185909,0.438051,0.31110769,-0.38131264,0.468699,0.32710219,-0.40153173,0.484324,0.34166411,-0.41994227,0.498516,0.27846161,-0.3399577,0.418016,0.30093263,-0.36508379,0.448776,0.3121352,-0.37582675,0.462967,0.32935302,-0.3774686,0.475489
0.21214456,-0.27856108,0.385143,0.24305831,-0.31105469,0.41768,0.21070909,-0.27819825,0.400645,0.23596866,-0.28585243,0.430742,0.26134899,-0.29360892,0.456078,0.28988595,-0.29630038,0.469546,0.27231578,-0.33069874,0.457595,0.30372057,-0.36512192,0.490738,0.32784204,-0.36374407,0.507309,0.34046975,-0.35696032,0.512991,0.28006402,-0.33799288,0.446225,0.31886479,-0.32565606,0.475058,0.33152018,-0.32012327,0.491876,0.34143444,-0.31632899,0.505944,0.2825721,-0.34091571,0.433603,0.3159976,-0.37732518,0.464811,0.3331184,-0.3959635,0.48074,0.34869939,-0.41292074,0.495212,0.27696277,-0.33747271,0.413196,0.31694975,-0.33233363,0.436653,0.33515821,-0.32857695,0.447431,0.33971683,-0.32428405,0.458898
0.21097961,-0.2767113,0.384184,0.24564188,-0.30708698,0.417725,0.20999487,-0.27728892,0.400211,0.23498565,-0.28291898,0.430081,0.25922075,-0.28531282,0.455047,0.28548177,-0.28950147,0.469815,0.2727401,-0.32993774,0.458931,0.30339105,-0.36417748,0.492194,0.32373455,-0.3586511,0.508826,0.33655431,-0.3473093,0.512873,0.28260143,-0.33168248,0.447151,0.32244712,-0.31757718,0.477442,0.3335702,-0.31402816,0.495112,0.34281569,-0.31551487,0.508586,0.28705406,-0.33130532,0.434091,0.31879382,-0.36648931,0.466496,0.33546298,-0.38396576,0.483075,0.35065854,-0.39980624,0.498138,0.28528716,-0.32520932,0.412997,0.32573332,-0.32027867,0.43776,0.34416484,-0.31670893,0.449137,0.36071142,-0.31322425,0.459229
0.21076251,-0.274738,0.382435,0.25051747,-0.3035102,0.416798,0.21250509,-0.27645757,0.398648,0.23508844,-0.28401917,0.428968,0.2588103,-0.29001515,0.454746,0.2851349,-0.29286069,0.469969,0.2742669,-0.3322955,0.458746,0.30371818,-0.36673026,0.491154,0.32351119,-0.36284315,0.507358,0.33439505,-0.35077027,0.509983,0.28765831,-0.33413897,0.446945,0.32432393,-0.31850362,0.478332,0.33603335,-0.3147769,0.496642,0.34415329,-0.31464723,0.509714,0.29372087,-0.33159664,0.433785,0.32406245,-0.36780609,0.465782,0.33727355,-0.38437859,0.481996,0.35194294,-0.40025378,0.496736,0.29397218,-0.32265871,0.41243,0.33252778,-0.31666029,0.438119,0.34992062,-0.31269387,0.449922,0.3635204,-0.31139871,0.460336
