sluyters/QuantumLeap/backend/src/datasets/gesture/HandGestureDataset_SHREC2017_csv/Gesture8/finger_1/subject_22_essai_1_skeletons_world.csv
Wrist_x,Wrist_y,Wrist_z,Palm_x,Palm_y,Palm_z,thumb_base_x,thumb_base_y,thumb_base_z,thumb_first_joint_x,thumb_first_joint_y,thumb_first_joint_z,thumb_second_joint_x,thumb_second_joint_y,thumb_second_joint_z,thumb_tip_x,thumb_tip_y,thumb_tip_z,index_base_x,index_base_y,index_base_z,index_first_joint_x,index_first_joint_y,index_first_joint_z,index_second_joint_x,index_second_joint_y,index_second_joint_z,index_tip_x,index_tip_y,index_tip_z,middle_base_x,middle_base_y,middle_base_z,middle_first_joint_x,middle_first_joint_y,middle_first_joint_z,middle_second_joint_x,middle_second_joint_y,middle_second_joint_z,middle_tip_x,middle_tip_y,middle_tip_z,ring_base_x,ring_base_y,ring_base_z,ring_first_joint_x,ring_first_joint_y,ring_first_joint_z,ring_second_joint_x,ring_second_joint_y,ring_second_joint_z,ring_tip_x,ring_tip_y,ring_tip_z,pinky_base_x,pinky_base_y,pinky_base_z,pinky_first_joint_x,pinky_first_joint_y,pinky_first_joint_z,pinky_second_joint_x,pinky_second_joint_y,pinky_second_joint_z,pinky_tip_x,pinky_tip_y,pinky_tip_z,
0.227413271,-0.262313491,0.338309,0.217923845,-0.213234098,0.323296,0.211450962,-0.253962827,0.340829,0.181348481,-0.228692722,0.332401,0.154339322,-0.206134021,0.32585,0.141460019,-0.185375661,0.322814,0.188826993,-0.175253368,0.317589,0.163509935,-0.139475281,0.303781,0.149692946,-0.123731229,0.296877,0.136861436,-0.109081513,0.290601,0.206791882,-0.170900683,0.31034,0.185220974,-0.129393071,0.291403,0.170762491,-0.1087707,0.280357,0.160218707,-0.0935833259,0.272467,0.224290618,-0.171972658,0.305863,0.203862637,-0.127656797,0.287849,0.189882925,-0.112689081,0.278632,0.177347326,-0.10344688,0.270253,0.245638775,-0.183009173,0.303274,0.222349369,-0.154062182,0.287554,0.211881943,-0.14223634,0.280331,0.202023833,-0.134567452,0.273958
0.228230953,-0.264177881,0.337532,0.21700978,-0.216027552,0.320696,0.211440127,-0.258673151,0.337635,0.180985007,-0.236146703,0.327713,0.149658839,-0.205124495,0.312074,0.13607404,-0.183531052,0.30425,0.184551174,-0.179639231,0.31077,0.157495222,-0.138197487,0.294051,0.142431411,-0.127080536,0.285691,0.128617745,-0.114608359,0.278091,0.204824713,-0.176029905,0.306167,0.179545915,-0.139397482,0.285069,0.164515694,-0.11740457,0.272762,0.152914296,-0.10667748,0.263971,0.22317446,-0.178084006,0.304051,0.196636589,-0.135871243,0.284524,0.183162821,-0.125859982,0.274534,0.171069954,-0.119480375,0.265451,0.247369729,-0.186705132,0.304527,0.222572632,-0.15303155,0.286584,0.211821053,-0.143726117,0.27834,0.206684508,-0.149865371,0.271065
0.232174305,-0.269846073,0.343394,0.218348231,-0.217296867,0.323191,0.212278796,-0.259808405,0.341536,0.181056342,-0.235911449,0.324979,0.15066904,-0.203524889,0.305357,0.136283283,-0.181169712,0.300256,0.183568778,-0.174189785,0.308715,0.154629047,-0.139051286,0.288627,0.139162709,-0.124003465,0.278583,0.124970142,-0.110189813,0.269451,0.204308804,-0.173300229,0.305757,0.175398992,-0.153000851,0.281492,0.157024327,-0.140506401,0.267337,0.14720382,-0.14786387,0.257227,0.224352602,-0.178530584,0.305331,0.195032834,-0.135331607,0.282787,0.180639579,-0.131463866,0.271252,0.173163502,-0.140234053,0.260766,0.250363828,-0.191108448,0.30836,0.223948287,-0.154156566,0.287567,0.213109493,-0.1476653,0.278013,0.205040633,-0.15128842,0.269584
0.235409301,-0.274804451,0.347293,0.220844885,-0.22096658,0.324519,0.212137471,-0.259878517,0.340592,0.187722519,-0.233573305,0.317246,0.160407219,-0.201363249,0.291114,0.149063972,-0.178448227,0.282582,0.188568284,-0.170584244,0.302232,0.157118498,-0.138380146,0.277402,0.147552485,-0.127602778,0.27654,0.138132181,-0.116980059,0.275756,0.212804229,-0.173393637,0.304865,0.183538104,-0.144668252,0.277641,0.167295975,-0.150368093,0.26176,0.160367037,-0.159490676,0.250416,0.235267202,-0.18119886,0.309298,0.203725461,-0.150311416,0.282341,0.194777598,-0.160906275,0.268549,0.203593556,-0.178804384,0.273746,0.265925192,-0.200698636,0.318431,0.231070112,-0.158088276,0.294226,0.219228966,-0.152576006,0.283105,0.215947181,-0.159165155,0.273292
0.239183251,-0.279882674,0.347941,0.232877383,-0.226050322,0.323271,0.214416011,-0.264131369,0.338243,0.196111204,-0.237497497,0.310991,0.171140962,-0.206973115,0.283483,0.157214199,-0.181186959,0.268644,0.190876126,-0.172091137,0.295972,0.160737161,-0.140628001,0.268276,0.152115853,-0.130422127,0.265704,0.14369423,-0.12041333,0.263366,0.218357911,-0.176781572,0.301982,0.192768966,-0.150135817,0.272949,0.178552991,-0.156660408,0.256013,0.170496772,-0.164470703,0.243915,0.243806967,-0.186260781,0.309385,0.215110228,-0.156924527,0.279751,0.206231791,-0.167015862,0.26459,0.212331467,-0.182446064,0.267969,0.278383554,-0.207899969,0.322303,0.24553595,-0.168657428,0.296095,0.235496109,-0.165664624,0.284053,0.230933615,-0.172128884,0.273428
0.245900881,-0.283863852,0.34513,0.242442978,-0.224970665,0.321727,0.226507746,-0.267773606,0.335602,0.205834404,-0.235805183,0.308775,0.181066366,-0.205532613,0.28151,0.167202223,-0.180013416,0.266904,0.200326725,-0.171760877,0.295404,0.170741206,-0.140761146,0.26853,0.162415206,-0.13043538,0.265731,0.154315958,-0.120331032,0.263186,0.228135309,-0.176517554,0.301531,0.203574227,-0.150446045,0.273513,0.189792299,-0.157368404,0.25717,0.181482587,-0.165536763,0.245496,0.253837138,-0.1859706,0.308903,0.226123389,-0.157178073,0.280203,0.217341799,-0.16760227,0.265519,0.223722634,-0.18349457,0.269509,0.288635265,-0.207424571,0.321566,0.256267475,-0.168677364,0.29613,0.246658852,-0.165892079,0.284443,0.242163044,-0.172571437,0.274131
0.259633282,-0.286763054,0.346115,0.253559037,-0.225360153,0.322284,0.23818399,-0.268566709,0.336596,0.214984212,-0.235582563,0.309701,0.18889849,-0.205535032,0.283807,0.171153022,-0.180520226,0.269064,0.210367027,-0.17194345,0.295718,0.181218472,-0.143414142,0.268603,0.171378823,-0.134623863,0.261562,0.162497398,-0.127787443,0.255161,0.238386566,-0.176627025,0.301718,0.213862267,-0.150362438,0.273361,0.199951394,-0.157153618,0.256819,0.19097899,-0.165204336,0.245003,0.264354906,-0.186046456,0.309029,0.236652072,-0.157087201,0.280041,0.227462706,-0.167407221,0.26521,0.233471752,-0.183163678,0.269023,0.299643727,-0.207507782,0.321695,0.266865398,-0.16861129,0.296014,0.25729186,-0.165759105,0.284215,0.252497174,-0.172365584,0.273804
0.26479171,-0.281742817,0.339924,0.26151951,-0.229367777,0.327985,0.244542006,-0.265820618,0.332962,0.225567357,-0.237991364,0.311765,0.205119079,-0.212693797,0.293371,0.19425983,-0.190124635,0.28447,0.228717595,-0.181519577,0.311836,0.211636845,-0.173704915,0.293404,0.220534538,-0.202255295,0.309539,0.229841056,-0.225989835,0.323258,0.257784894,-0.186128091,0.317683,0.242331056,-0.175446385,0.299388,0.232332351,-0.193335771,0.288716,0.238833783,-0.209721677,0.297234,0.283577875,-0.194947773,0.323685,0.2662694,-0.195481657,0.304327,0.25129447,-0.209835362,0.294423,0.25485116,-0.224666231,0.303431,0.316557166,-0.214575531,0.332752,0.294641928,-0.210574303,0.315077,0.277874055,-0.218836555,0.306956,0.281443498,-0.226411657,0.313169
0.300833482,-0.296971134,0.349243,0.284615112,-0.242862834,0.329928,0.280165737,-0.284137263,0.347612,0.263360873,-0.260144543,0.331522,0.246172484,-0.236434595,0.315741,0.242733264,-0.218744455,0.311157,0.24922138,-0.196781774,0.316276,0.226222789,-0.206039737,0.296857,0.246135884,-0.230731462,0.312025,0.265422267,-0.253259692,0.326569,0.270602406,-0.197694811,0.31326,0.247534673,-0.161969979,0.289749,0.229908123,-0.174208952,0.276035,0.234465757,-0.192485908,0.282412,0.29045581,-0.20370276,0.312698,0.267371155,-0.191552499,0.290888,0.249842063,-0.202644025,0.27973,0.251878337,-0.222429177,0.287198,0.317426095,-0.220271918,0.315414,0.278246339,-0.222388493,0.295229,0.278853803,-0.238993029,0.307611,0.281551719,-0.253270946,0.319516
0.308579939,-0.29379631,0.35065,0.300286003,-0.237107143,0.327918,0.297396899,-0.275115236,0.350224,0.283748792,-0.255761505,0.335299,0.268259991,-0.235079262,0.318658,0.266167587,-0.218140746,0.31599,0.269136049,-0.189252097,0.313784,0.239777787,-0.199769496,0.293366,0.257715161,-0.222242827,0.307159,0.275883589,-0.244509424,0.321667,0.287428375,-0.192844909,0.308301,0.264052265,-0.157073694,0.282474,0.24476932,-0.148529662,0.267408,0.241536425,-0.165298542,0.272113,0.304495103,-0.20105398,0.306048,0.27093536,-0.168493307,0.282742,0.25635531,-0.180162053,0.270818,0.263450403,-0.201718668,0.276682,0.327729251,-0.220064487,0.307392,0.29424204,-0.1878732,0.285903,0.278856831,-0.173084566,0.276029,0.266009116,-0.174193625,0.267317
0.326925443,-0.290500548,0.351858,0.322067426,-0.237483861,0.328439,0.319542221,-0.275816724,0.351117,0.306534953,-0.256030006,0.335651,0.292050427,-0.235455497,0.319168,0.290889636,-0.218534931,0.316561,0.289531689,-0.189073571,0.313488,0.260031758,-0.199151869,0.292459,0.278118421,-0.221449823,0.306063,0.296764325,-0.243734849,0.320648,0.308303119,-0.192799872,0.308229,0.284774972,-0.156694459,0.281792,0.265688212,-0.147953113,0.26637,0.263235175,-0.164492439,0.270786,0.325914207,-0.201172228,0.306228,0.292116229,-0.168216798,0.282278,0.27691401,-0.179633844,0.270024,0.283821405,-0.200897013,0.275555,0.35003854,-0.220489737,0.307986,0.315947218,-0.187917884,0.285971,0.30029642,-0.172976086,0.275856,0.287406931,-0.173942093,0.266931
0.364419752,-0.282928937,0.382133,0.34997301,-0.235530493,0.342061,0.348607493,-0.258662069,0.374681,0.333244152,-0.244873665,0.349949,0.316680026,-0.220685228,0.32873,0.315580133,-0.210082346,0.315701,0.319937396,-0.177936896,0.308469,0.281627445,-0.148107136,0.27511,0.274576236,-0.165086723,0.278774,0.284328648,-0.186113684,0.293401,0.336502966,-0.195376574,0.307481,0.299000732,-0.165458869,0.268473,0.257911843,-0.166148153,0.245718,0.243498308,-0.169232396,0.239394,0.352176678,-0.214821416,0.310653,0.320910592,-0.172348912,0.273584,0.287168085,-0.17353948,0.254619,0.271592888,-0.180307297,0.248091,0.373664576,-0.246483593,0.321336,0.309807177,-0.233159381,0.289125,0.281799204,-0.226463983,0.274326,0.265219107,-0.224361841,0.268791
0.368748636,-0.281809825,0.387537,0.363185388,-0.23368315,0.347468,0.355005276,-0.255676499,0.37901,0.342787648,-0.234688535,0.352834,0.33099176,-0.215185744,0.330402,0.332012266,-0.206117571,0.31719,0.34443617,-0.175615647,0.312485,0.299501455,-0.160117304,0.278375,0.285938856,-0.167379446,0.282095,0.296596131,-0.17694517,0.297042,0.357335604,-0.197350234,0.31289,0.316992341,-0.169644026,0.273649,0.271747257,-0.165491998,0.250758,0.254458034,-0.167134897,0.244446,0.369057339,-0.220085799,0.317209,0.302206546,-0.20960314,0.279519,0.27290854,-0.202138284,0.260236,0.271358929,-0.193709547,0.253604,0.383506403,-0.253838036,0.329226,0.321307701,-0.228688195,0.296553,0.293448127,-0.216586772,0.281541,0.274973466,-0.2067668,0.275941
0.361780385,-0.272735846,0.37941,0.375477651,-0.233524641,0.349274,0.35450625,-0.242704258,0.372162,0.364239472,-0.22648141,0.355269,0.369222972,-0.209572863,0.338431,0.378139182,-0.201787766,0.326787,0.373405285,-0.181974161,0.321882,0.324270915,-0.17280974,0.292698,0.323924016,-0.189290131,0.303971,0.3296111,-0.207978592,0.31999,0.3843844,-0.205666986,0.323269,0.357458595,-0.181506006,0.290363,0.342050101,-0.167333423,0.271168,0.33125272,-0.17328202,0.272328,0.392687212,-0.229050798,0.327407,0.337666493,-0.217684406,0.295406,0.304132918,-0.212363178,0.279034,0.307132299,-0.2114948,0.280469,0.400561343,-0.263021213,0.337481,0.348725676,-0.237560169,0.309111,0.325218788,-0.225918894,0.296076,0.310677853,-0.222335819,0.296459
0.37182807,-0.276001522,0.385359,0.39599346,-0.241272275,0.354883,0.382622454,-0.248050588,0.37981,0.38891818,-0.233355051,0.364669,0.393206061,-0.214983562,0.348329,0.401074792,-0.206613956,0.336526,0.397356477,-0.191568322,0.329488,0.345680416,-0.177895586,0.301272,0.345363349,-0.194721783,0.31244,0.350937396,-0.213531198,0.328036,0.404309382,-0.214216426,0.328584,0.37427618,-0.185526581,0.295751,0.356944613,-0.168659696,0.276599,0.344821322,-0.172077518,0.277656,0.409321316,-0.236690618,0.330871,0.351112677,-0.219858583,0.299593,0.315766912,-0.21582436,0.28359,0.313929383,-0.217046804,0.28511,0.413386558,-0.269459681,0.338849,0.359703703,-0.23896057,0.310984,0.335501428,-0.225143196,0.29818,0.321420434,-0.22081136,0.298602
0.398912199,-0.276774328,0.392511,0.408424859,-0.238188197,0.35662,0.390874742,-0.249229839,0.382845,0.393599313,-0.23154196,0.361475,0.3861289,-0.210379957,0.337108,0.382823948,-0.196786011,0.319305,0.394353529,-0.183341218,0.322657,0.377747906,-0.161341459,0.288577,0.373957167,-0.170053329,0.296115,0.375790489,-0.183090599,0.312575,0.408535828,-0.20666372,0.325647,0.378278046,-0.180913824,0.288478,0.360686968,-0.165884367,0.266795,0.347644902,-0.170088936,0.264056,0.420587924,-0.230171487,0.33168,0.359008839,-0.218967838,0.294914,0.354527773,-0.23229166,0.303218,0.375047774,-0.243803462,0.321381,0.43473374,-0.265139828,0.344962,0.377933917,-0.238682473,0.313134,0.352284979,-0.226579749,0.29851,0.335261701,-0.218298115,0.295647
0.409652764,-0.280998063,0.393121,0.416964775,-0.245061802,0.358919,0.401124549,-0.25471285,0.385302,0.406534663,-0.239652378,0.366798,0.402370545,-0.215316472,0.344129,0.405471214,-0.201407218,0.329175,0.403920453,-0.189343221,0.328358,0.390676678,-0.163710633,0.295868,0.390616158,-0.172678454,0.304836,0.392634686,-0.187367452,0.321239,0.417610129,-0.210780127,0.329404,0.391069497,-0.181007657,0.293576,0.375663703,-0.163613458,0.272677,0.366531944,-0.167923545,0.271363,0.429288857,-0.233029032,0.333667,0.373139487,-0.220718443,0.298303,0.37047272,-0.237741407,0.308165,0.389866811,-0.251214744,0.326384,0.443073051,-0.267210141,0.344596,0.389438033,-0.239992725,0.314103,0.365111138,-0.227565855,0.300093,0.348774342,-0.221169103,0.298484
0.413500146,-0.282344504,0.394358,0.420803754,-0.245788526,0.360927,0.406908226,-0.257142824,0.38824,0.415518052,-0.240272523,0.372079,0.411381636,-0.218968,0.351302,0.41579891,-0.205984069,0.337558,0.413627694,-0.192232624,0.33303,0.402262431,-0.166736453,0.301336,0.403104928,-0.173687834,0.310784,0.402115207,-0.18895264,0.327065,0.422290053,-0.212740642,0.332078,0.400869248,-0.17926822,0.297088,0.387648266,-0.159586974,0.276677,0.380303522,-0.161191421,0.275937,0.431249579,-0.234051126,0.334619,0.373749543,-0.219902147,0.299757,0.371713846,-0.237365207,0.310129,0.391717315,-0.251727396,0.328349,0.441611365,-0.266655723,0.343408,0.387647537,-0.23886794,0.313935,0.363228664,-0.226214972,0.300393,0.347893094,-0.219890898,0.299356
