sluyters/QuantumLeap/backend/src/datasets/gesture/HandGestureDataset_SHREC2017_csv/Gesture8/finger_1/subject_23_essai_5_skeletons_world.csv
Wrist_x,Wrist_y,Wrist_z,Palm_x,Palm_y,Palm_z,thumb_base_x,thumb_base_y,thumb_base_z,thumb_first_joint_x,thumb_first_joint_y,thumb_first_joint_z,thumb_second_joint_x,thumb_second_joint_y,thumb_second_joint_z,thumb_tip_x,thumb_tip_y,thumb_tip_z,index_base_x,index_base_y,index_base_z,index_first_joint_x,index_first_joint_y,index_first_joint_z,index_second_joint_x,index_second_joint_y,index_second_joint_z,index_tip_x,index_tip_y,index_tip_z,middle_base_x,middle_base_y,middle_base_z,middle_first_joint_x,middle_first_joint_y,middle_first_joint_z,middle_second_joint_x,middle_second_joint_y,middle_second_joint_z,middle_tip_x,middle_tip_y,middle_tip_z,ring_base_x,ring_base_y,ring_base_z,ring_first_joint_x,ring_first_joint_y,ring_first_joint_z,ring_second_joint_x,ring_second_joint_y,ring_second_joint_z,ring_tip_x,ring_tip_y,ring_tip_z,pinky_base_x,pinky_base_y,pinky_base_z,pinky_first_joint_x,pinky_first_joint_y,pinky_first_joint_z,pinky_second_joint_x,pinky_second_joint_y,pinky_second_joint_z,pinky_tip_x,pinky_tip_y,pinky_tip_z,
0.326303777,-0.201245088,0.360636,0.333254539,-0.221599258,0.333586,0.340239589,-0.192902978,0.352064,0.354609001,-0.165224531,0.339317,0.360366231,-0.139796345,0.32757,0.357222585,-0.122216918,0.31419,0.346645549,-0.221664264,0.31276,0.311586051,-0.187988194,0.282897,0.317674712,-0.182034457,0.294881,0.321894784,-0.174748401,0.311453,0.333095519,-0.235348452,0.31797,0.299558276,-0.202046785,0.287296,0.269077923,-0.172839956,0.269404,0.259407137,-0.165182083,0.271493,0.32209284,-0.242717948,0.324624,0.282842672,-0.210229875,0.294675,0.279703251,-0.206575874,0.30704,0.28546846,-0.215051842,0.324072,0.306627183,-0.25148047,0.336465,0.306996268,-0.246200537,0.311687,0.297793836,-0.237094994,0.300302,0.289188368,-0.230693631,0.301124
0.337686934,-0.20364072,0.36097,0.340528836,-0.221524478,0.327863,0.345500086,-0.193792692,0.349383,0.35459699,-0.162397418,0.329415,0.357748013,-0.137007404,0.312728,0.349756931,-0.119388377,0.297339,0.345457999,-0.211446642,0.300946,0.29080164,-0.177550684,0.268902,0.281781648,-0.171730529,0.276338,0.281592426,-0.171301763,0.291954,0.335695708,-0.22892111,0.308749,0.280309376,-0.189093965,0.273692,0.245445722,-0.162944349,0.253242,0.234174104,-0.15215139,0.250733,0.328201905,-0.242348635,0.318069,0.272747955,-0.203237371,0.284901,0.264714328,-0.197865147,0.292521,0.273910878,-0.20482865,0.308958,0.320317919,-0.256119135,0.333926,0.293844637,-0.234617018,0.305775,0.27758945,-0.222425836,0.29284,0.260454479,-0.209443975,0.281428
0.352638553,-0.211533785,0.360068,0.343083778,-0.2287454,0.325107,0.356125555,-0.199033046,0.345995,0.354334953,-0.16774162,0.322927,0.35656382,-0.142855556,0.304556,0.346955006,-0.124751848,0.288766,0.340073655,-0.216293628,0.294288,0.277933105,-0.180035178,0.261684,0.263923852,-0.170759726,0.263787,0.262743307,-0.169800487,0.277493,0.334013743,-0.235419359,0.304923,0.270159599,-0.193788394,0.269624,0.233456621,-0.166616414,0.249033,0.220923007,-0.147831504,0.242381,0.330241305,-0.250277852,0.316736,0.268074343,-0.210539032,0.282073,0.257541962,-0.199275602,0.284144,0.273256891,-0.205605504,0.298967,0.327919471,-0.265847262,0.335769,0.293498818,-0.239380861,0.307327,0.277466335,-0.231996819,0.294259,0.252587579,-0.211825173,0.282728
0.346362539,-0.208996803,0.35741,0.341127874,-0.228930867,0.324106,0.35038213,-0.197333223,0.343545,0.353531308,-0.168064387,0.320438,0.356125207,-0.143677706,0.301913,0.346523412,-0.12642438,0.285953,0.339521243,-0.21744367,0.294149,0.279807853,-0.183329491,0.263895,0.267846492,-0.17522432,0.268243,0.266561855,-0.174024908,0.281919,0.333385638,-0.236660516,0.304878,0.270185974,-0.196129219,0.270314,0.235082006,-0.166907984,0.250151,0.231929608,-0.157456632,0.245328,0.329364364,-0.251418796,0.316624,0.266622203,-0.211868014,0.281447,0.258120561,-0.201913456,0.285676,0.271078478,-0.206185544,0.30157,0.326447024,-0.266575012,0.335327,0.286026182,-0.23095553,0.307231,0.268761177,-0.210521037,0.294323,0.264267755,-0.196072708,0.289832
0.346372993,-0.210423437,0.352748,0.330542255,-0.226458761,0.31773,0.345936582,-0.196118833,0.33863,0.349277845,-0.169269389,0.315499,0.353326021,-0.149851314,0.296838,0.343774002,-0.130283715,0.281011,0.32229167,-0.215330892,0.286831,0.257872673,-0.171970391,0.250539,0.258150784,-0.158321238,0.252227,0.282342607,-0.168124605,0.267064,0.316307517,-0.234355702,0.297513,0.250525017,-0.189972471,0.262233,0.219425349,-0.158822353,0.241653,0.217147265,-0.147810712,0.234837,0.313042234,-0.249043711,0.309369,0.249788941,-0.20436709,0.273577,0.242174865,-0.188184215,0.27536,0.255775428,-0.192513255,0.290525,0.312092503,-0.264357998,0.328461,0.270122633,-0.228731621,0.300042,0.252434625,-0.210006025,0.286985,0.248339396,-0.193595264,0.281057
0.342448647,-0.208068567,0.351934,0.328101611,-0.225510389,0.316628,0.345646361,-0.196358549,0.337914,0.347931279,-0.169423943,0.313722,0.352074135,-0.150312711,0.29393,0.343791835,-0.135075649,0.27775,0.321454302,-0.215066583,0.285755,0.25843044,-0.171866691,0.249376,0.255242306,-0.159214679,0.250974,0.278674971,-0.166928938,0.265969,0.314516128,-0.233110289,0.296245,0.250654452,-0.188766193,0.260764,0.221537273,-0.158249549,0.240066,0.215025859,-0.144455706,0.23313,0.310481596,-0.246952807,0.307968,0.250257592,-0.201987742,0.272052,0.245046535,-0.184894399,0.273741,0.261207475,-0.181229121,0.288918,0.30862688,-0.261209432,0.32695,0.26771023,-0.227321879,0.298427,0.250199479,-0.207721086,0.285322,0.245284914,-0.191684421,0.279315
0.344536947,-0.209647847,0.350473,0.324853242,-0.226176263,0.316128,0.346589916,-0.197603309,0.335926,0.345214682,-0.170830835,0.310336,0.349925268,-0.152526439,0.289356,0.342016599,-0.138590261,0.272864,0.318678531,-0.216871951,0.284912,0.2566762,-0.172364556,0.24893,0.253579229,-0.159887062,0.250061,0.276061929,-0.166726797,0.264712,0.312994045,-0.233915263,0.2963,0.250371115,-0.189543123,0.261731,0.222354543,-0.158803822,0.241566,0.217330863,-0.146704441,0.234502,0.309619927,-0.247664035,0.30868,0.250609363,-0.20238497,0.273323,0.242039889,-0.187127483,0.274538,0.258401737,-0.180869119,0.2893,0.308611151,-0.261625827,0.328276,0.267919201,-0.228311884,0.300291,0.250737233,-0.20847296,0.287433,0.245940372,-0.192516662,0.281298
0.341449757,-0.207520457,0.349301,0.324498696,-0.226754216,0.31647,0.343157029,-0.195758727,0.334295,0.343629989,-0.170663399,0.308379,0.348837956,-0.154572422,0.287226,0.339754335,-0.138948672,0.270611,0.315316295,-0.21992625,0.285195,0.251327382,-0.179300164,0.249787,0.250406998,-0.164241828,0.251198,0.273901397,-0.168343039,0.265733,0.309800998,-0.23686918,0.297516,0.249756112,-0.192019574,0.264092,0.223084328,-0.160095194,0.244595,0.219547727,-0.148823351,0.238034,0.308802806,-0.248991474,0.310531,0.250577855,-0.204604234,0.275929,0.241905088,-0.189929639,0.277442,0.256294716,-0.182609825,0.292018,0.308489993,-0.261847692,0.330635,0.268036957,-0.230202089,0.303292,0.251206019,-0.20997149,0.290729,0.248030413,-0.194872654,0.284919
0.336710014,-0.204782127,0.343992,0.315679275,-0.226295256,0.312679,0.337220346,-0.192980149,0.328295,0.337767758,-0.171770969,0.30175,0.340842515,-0.15738564,0.279579,0.331016924,-0.141183374,0.262858,0.300706597,-0.222281014,0.281046,0.240664557,-0.176110202,0.246629,0.244658584,-0.161430318,0.2466,0.268008147,-0.165590759,0.26017,0.296775802,-0.238136792,0.294602,0.237205251,-0.192903358,0.262913,0.214546808,-0.16011691,0.244428,0.213821602,-0.147604285,0.237192,0.296023063,-0.249624157,0.308502,0.239711237,-0.203507031,0.275119,0.231398212,-0.186948803,0.27516,0.251331992,-0.180340163,0.288655,0.299320567,-0.260232534,0.3294,0.257957477,-0.228457504,0.303218,0.24241969,-0.208401133,0.291189,0.245135782,-0.19397739,0.28485
0.33343006,-0.202764009,0.340696,0.306782813,-0.223577071,0.309904,0.33486261,-0.19230879,0.324772,0.330769822,-0.170402553,0.297576,0.332761924,-0.154171432,0.274441,0.32251005,-0.141573809,0.257676,0.290038852,-0.216554501,0.278161,0.231829925,-0.169980887,0.244422,0.234110715,-0.153594674,0.24295,0.260527656,-0.163440778,0.255676,0.286551645,-0.232167401,0.292128,0.229034576,-0.186563315,0.261388,0.208596688,-0.15461708,0.243456,0.207732978,-0.143374531,0.235341,0.286297182,-0.243446813,0.30632,0.231777666,-0.196976898,0.273695,0.222914095,-0.179099348,0.272252,0.241392438,-0.174763396,0.284849,0.290427582,-0.253796029,0.327479,0.250051955,-0.221723009,0.30204,0.23537434,-0.201815539,0.290352,0.233536142,-0.186210156,0.283373
0.331396037,-0.202046276,0.336715,0.299884155,-0.221492207,0.307167,0.330296763,-0.190430405,0.320658,0.32186061,-0.167790246,0.292587,0.320274683,-0.152004926,0.268491,0.307446756,-0.13811243,0.252017,0.280943948,-0.216227695,0.275694,0.222560286,-0.167957101,0.243508,0.224683306,-0.151288724,0.239739,0.25062115,-0.158964684,0.250934,0.282236461,-0.231893531,0.290108,0.222777466,-0.186033149,0.261303,0.207679667,-0.155556793,0.244501,0.206283735,-0.143091835,0.235082,0.283314474,-0.243889767,0.30456,0.229527781,-0.197150532,0.273597,0.218906487,-0.177564974,0.26979,0.234000406,-0.170103521,0.280772,0.289218706,-0.25510764,0.32583,0.245715076,-0.227439343,0.30193,0.229893773,-0.208215617,0.290949,0.22726007,-0.19163559,0.283035
0.328540882,-0.201145601,0.333264,0.296988199,-0.220430505,0.305078,0.326086789,-0.190137869,0.317154,0.312171189,-0.164750217,0.289394,0.310905352,-0.146410759,0.265186,0.297229406,-0.1326251,0.249062,0.277937098,-0.214423354,0.274022,0.220024934,-0.167839545,0.243132,0.22103247,-0.150333572,0.238223,0.239336824,-0.155438351,0.248451,0.27796913,-0.232047232,0.288806,0.22152755,-0.186798065,0.261632,0.205396023,-0.157233273,0.245781,0.204153761,-0.143025129,0.235878,0.281755127,-0.243681517,0.303443,0.226551496,-0.198280372,0.273874,0.214734846,-0.177951087,0.268897,0.230781581,-0.169682234,0.278848,0.288634818,-0.255355999,0.324722,0.245455745,-0.228398115,0.302053,0.228788353,-0.210777042,0.291638,0.223956569,-0.193415892,0.283376
0.323355044,-0.198672768,0.328994,0.293049303,-0.218584972,0.302404,0.319682637,-0.18796407,0.312829,0.302891391,-0.160766451,0.285901,0.300042245,-0.140648831,0.261755,0.285746389,-0.127020613,0.24572,0.272657079,-0.212391884,0.271846,0.210696741,-0.173275102,0.2423,0.20389619,-0.153219874,0.236576,0.223182281,-0.154124197,0.245949,0.275043151,-0.230614255,0.287053,0.218048075,-0.188066913,0.261599,0.203175888,-0.159154383,0.246751,0.202405707,-0.14464604,0.236634,0.278431424,-0.243673299,0.301899,0.223534921,-0.199531362,0.273785,0.209999688,-0.179170826,0.267973,0.222482781,-0.170575038,0.277003,0.286825031,-0.254520496,0.323176,0.244715915,-0.229581646,0.301767,0.225748482,-0.215652095,0.291931,0.207198242,-0.205579551,0.283069
0.317395663,-0.1963784,0.325103,0.276902663,-0.217110605,0.300005,0.305942138,-0.186176593,0.309031,0.289510373,-0.15884727,0.282488,0.286093758,-0.138599991,0.257942,0.272112086,-0.125223756,0.242244,0.259270197,-0.211190472,0.270101,0.201419428,-0.17306271,0.242003,0.19435287,-0.152396056,0.235304,0.21271437,-0.152724259,0.243715,0.261265507,-0.229330541,0.285516,0.207208847,-0.188965227,0.261783,0.194528812,-0.16063609,0.247939,0.192760943,-0.146045324,0.23748,0.265338922,-0.242389496,0.300402,0.212630786,-0.200182167,0.273814,0.197992759,-0.179465628,0.267,0.208519528,-0.169906409,0.275014,0.274264001,-0.254338175,0.3215,0.233764679,-0.232138595,0.301407,0.214850588,-0.219014458,0.292176,0.198538782,-0.2075629,0.28403
0.300223816,-0.19226125,0.31979,0.27103555,-0.215426094,0.297428,0.288846452,-0.181924152,0.303555,0.273714401,-0.153725261,0.276812,0.271559472,-0.134612956,0.252097,0.25730982,-0.121464352,0.236117,0.248221221,-0.212573474,0.268289,0.192342591,-0.174363775,0.242038,0.186423119,-0.153322832,0.235084,0.208338589,-0.152369798,0.242665,0.252847338,-0.229955589,0.284518,0.200036695,-0.192987235,0.263293,0.191008107,-0.164772081,0.250912,0.192741194,-0.148436152,0.240864,0.261896867,-0.242005255,0.299837,0.206734212,-0.203173796,0.275297,0.19072412,-0.183090679,0.268231,0.196854135,-0.171756724,0.275316,0.271916513,-0.253184456,0.321019,0.229470672,-0.236328054,0.302646,0.213808789,-0.221103793,0.294205,0.198293482,-0.209137229,0.286757
0.291620877,-0.191117805,0.319098,0.265473785,-0.215742601,0.297123,0.284245504,-0.18113963,0.302747,0.264094218,-0.151915682,0.27573,0.261539891,-0.13107897,0.250854,0.247301173,-0.118230294,0.234885,0.247247771,-0.212552081,0.267969,0.190695007,-0.176074307,0.241786,0.181933725,-0.156908244,0.235131,0.202344914,-0.153889017,0.242804,0.252352436,-0.230476121,0.284436,0.198757933,-0.19542385,0.26342,0.186531794,-0.169141573,0.25116,0.187637986,-0.150680652,0.241396,0.258606136,-0.242983162,0.299917,0.205529394,-0.205755198,0.27549,0.186834904,-0.189272651,0.268734,0.191181457,-0.177874188,0.275898,0.270933845,-0.253806983,0.321228,0.228910377,-0.239034342,0.302938,0.209163375,-0.227967817,0.294534,0.194895338,-0.212431105,0.287119
0.284290259,-0.188583823,0.314046,0.257874569,-0.215081615,0.29364,0.272924316,-0.178633953,0.297883,0.252306932,-0.151652158,0.271262,0.248377634,-0.130474042,0.246315,0.232676895,-0.117630449,0.230561,0.235823304,-0.213790796,0.265292,0.179998071,-0.17938303,0.240632,0.17325969,-0.157720163,0.233159,0.19409658,-0.154267494,0.239904,0.243022671,-0.232214319,0.281859,0.190029404,-0.199524628,0.262595,0.181474862,-0.171510133,0.251358,0.182811667,-0.153359312,0.24138,0.253392516,-0.243327732,0.297285,0.198031003,-0.209859869,0.274446,0.180488372,-0.190211979,0.266849,0.186868079,-0.177224389,0.273037,0.264670077,-0.254055812,0.318294,0.224558087,-0.241637927,0.301352,0.206194756,-0.228465749,0.293568,0.190905403,-0.216735674,0.2867
0.281873344,-0.187582656,0.312647,0.255781664,-0.214533675,0.293371,0.270570852,-0.177867845,0.296508,0.249278754,-0.149233332,0.269926,0.241660443,-0.127241466,0.245352,0.225848536,-0.113672167,0.23089,0.233013369,-0.213130685,0.265458,0.178040905,-0.180020428,0.241657,0.172943016,-0.158428538,0.234017,0.190322956,-0.156047576,0.240357,0.240425436,-0.231014475,0.282243,0.187897079,-0.194577612,0.264059,0.181487579,-0.167182725,0.253452,0.184574642,-0.154214763,0.243604,0.248563943,-0.243300592,0.29775,0.196398739,-0.204025887,0.275835,0.176157231,-0.187355973,0.26807,0.177829787,-0.174976251,0.273817,0.261509183,-0.253411174,0.31868,0.220937277,-0.241524946,0.30251,0.202602491,-0.229969727,0.295081,0.187237623,-0.219253393,0.288525
0.274808938,-0.186244715,0.309832,0.24124888,-0.217140085,0.292736,0.262992141,-0.177282673,0.293352,0.236920573,-0.150945467,0.265978,0.230868115,-0.132008828,0.240933,0.214726415,-0.118649064,0.225969,0.218188245,-0.217068517,0.265156,0.164562425,-0.186699437,0.242228,0.161822864,-0.164936925,0.235609,0.179067806,-0.161780819,0.242012,0.226207555,-0.233698578,0.282866,0.179607394,-0.197807215,0.266177,0.175721207,-0.170397808,0.256442,0.183246255,-0.157832559,0.24775,0.235132736,-0.244875787,0.298944,0.188260288,-0.20670406,0.278099,0.169463125,-0.189940071,0.271397,0.175959188,-0.177142216,0.277136,0.249487421,-0.253536629,0.320204,0.209378506,-0.241555349,0.304875,0.191358304,-0.231183335,0.297832,0.176169037,-0.221091934,0.291618
0.266724838,-0.184605407,0.306363,0.236183179,-0.215083604,0.290335,0.252939774,-0.176975069,0.290057,0.224356314,-0.14745893,0.26311,0.217954077,-0.127775295,0.238211,0.201837501,-0.115079407,0.223828,0.214024289,-0.215484166,0.263363,0.157922133,-0.188177709,0.241499,0.154178056,-0.165792191,0.234352,0.174121013,-0.16094553,0.240125,0.222424541,-0.232275707,0.281082,0.173041534,-0.199549085,0.265587,0.16879925,-0.172260825,0.256548,0.177470864,-0.157599486,0.247732,0.231467438,-0.24348187,0.297074,0.18190255,-0.208313899,0.277329,0.162040214,-0.192043613,0.270084,0.162835142,-0.179002746,0.275162,0.245625746,-0.252004004,0.318072,0.206139881,-0.241706271,0.30367,0.188243525,-0.23209145,0.297053,0.173119609,-0.222632744,0.291215
0.256276396,-0.183407995,0.302152,0.22755295,-0.213274611,0.287058,0.242595069,-0.175498342,0.286232,0.213689785,-0.146121441,0.260002,0.206184351,-0.125758764,0.235251,0.189306357,-0.112907712,0.221142,0.201917439,-0.214697293,0.260922,0.14980915,-0.188417158,0.240381,0.14614858,-0.165415448,0.232194,0.165191392,-0.159884194,0.237029,0.211763933,-0.231998248,0.278345,0.166081551,-0.200204347,0.264162,0.160856919,-0.173466286,0.255888,0.164569934,-0.157298999,0.246575,0.224386299,-0.242303285,0.29401,0.178177656,-0.208039722,0.275575,0.155325806,-0.192091729,0.267257,0.158047937,-0.177616655,0.271377,0.23883403,-0.250767761,0.314488,0.199768743,-0.242157148,0.301205,0.182043025,-0.233334682,0.295102,0.167077302,-0.224558711,0.289717
0.226610763,-0.178156598,0.31126,0.210519423,-0.213651284,0.298328,0.238753277,-0.182106509,0.298925,0.226124384,-0.161200721,0.274885,0.211299987,-0.137419857,0.250379,0.189132041,-0.122104665,0.234773,0.210874319,-0.22701788,0.277636,0.176476651,-0.203190478,0.254508,0.185006811,-0.193331832,0.266367,0.202554931,-0.19898557,0.280908,0.201434659,-0.232819596,0.290861,0.170423412,-0.212092884,0.272008,0.170474164,-0.180917835,0.261011,0.181993228,-0.178028338,0.265944,0.194576184,-0.234599053,0.302883,0.162753127,-0.211590904,0.281262,0.17477768,-0.1998474,0.293581,0.194787335,-0.19729762,0.307233,0.188353471,-0.231155827,0.318803,0.164586441,-0.240276017,0.301215,0.153411404,-0.244883405,0.293134,0.142363694,-0.238859736,0.286003
0.219492544,-0.177207605,0.309602,0.197950003,-0.212505424,0.296728,0.225911728,-0.180702744,0.298912,0.215587667,-0.162204102,0.276596,0.197032551,-0.136207027,0.251703,0.173208961,-0.120616664,0.236079,0.200171704,-0.22747987,0.278201,0.172338612,-0.208734157,0.264626,0.18235906,-0.199642484,0.278585,0.198693708,-0.20690864,0.292093,0.189134309,-0.231566892,0.289296,0.157491974,-0.210737713,0.27027,0.15827176,-0.179643146,0.259172,0.170850719,-0.177585852,0.265283,0.181123943,-0.232022889,0.299557,0.149334777,-0.20946192,0.278432,0.161786019,-0.199057761,0.292421,0.18496355,-0.198649291,0.307478,0.173695891,-0.227256378,0.313425,0.149472903,-0.232110335,0.295994,0.137978785,-0.234779679,0.287986,0.127473012,-0.22649118,0.28092
0.218069474,-0.180108879,0.313165,0.191503978,-0.209139798,0.290098,0.222633791,-0.181800158,0.299455,0.205284066,-0.161910788,0.271677,0.188521751,-0.137941246,0.247518,0.169639842,-0.121838893,0.234406,0.188591041,-0.216978652,0.263997,0.157311027,-0.19719116,0.244627,0.16372568,-0.18619214,0.254044,0.178694838,-0.189506845,0.26545,0.179428037,-0.222911915,0.276781,0.143967225,-0.196781967,0.249648,0.157371046,-0.182799833,0.260919,0.174484301,-0.185231284,0.274271,0.173179906,-0.225669193,0.289324,0.137840951,-0.198063976,0.260272,0.146921575,-0.185659382,0.269465,0.166080031,-0.186527919,0.284868,0.168152479,-0.224692024,0.307393,0.141611993,-0.220740844,0.284004,0.127544133,-0.21532592,0.273257,0.117630133,-0.201768793,0.263775
0.20721061,-0.179992998,0.311466,0.178229398,-0.209696669,0.288953,0.212195164,-0.181637523,0.297922,0.193250076,-0.161131261,0.270369,0.176553918,-0.137258556,0.246293,0.155499349,-0.123367615,0.233307,0.176819316,-0.217488488,0.263266,0.145394714,-0.198761145,0.244227,0.151591125,-0.187967506,0.253993,0.1665694,-0.190953336,0.265407,0.167308506,-0.223607964,0.275955,0.131913165,-0.198579756,0.249226,0.144939047,-0.184766982,0.260932,0.161886024,-0.18687215,0.274275,0.160595438,-0.226499029,0.288372,0.125409802,-0.199913431,0.259716,0.133926555,-0.187769974,0.269272,0.158158313,-0.187900246,0.28466,0.154718779,-0.225639317,0.30621,0.128528569,-0.21805598,0.28311,0.116256747,-0.214726254,0.272496,0.106430162,-0.201276179,0.263131
0.208552894,-0.181002201,0.314694,0.178630226,-0.208764781,0.292621,0.211247027,-0.181322146,0.298837,0.184785969,-0.157903541,0.270113,0.163627587,-0.137133196,0.24537,0.143083916,-0.123522647,0.230919,0.166710644,-0.212344576,0.264077,0.132418003,-0.186202877,0.24225,0.136834858,-0.171918585,0.247806,0.151803858,-0.173202233,0.258638,0.160256829,-0.219294348,0.279877,0.127271769,-0.182115707,0.254516,0.120571951,-0.17130189,0.26127,0.120602419,-0.163384522,0.272564,0.156991697,-0.222740633,0.294818,0.114703957,-0.203723978,0.266481,0.121103089,-0.187994551,0.271865,0.141141022,-0.188767643,0.285458,0.157027948,-0.222495821,0.315516,0.129716651,-0.202100014,0.293154,0.116937662,-0.192663271,0.28288,0.109183784,-0.17474029,0.273814
0.207089743,-0.18137967,0.316429,0.173803467,-0.205824628,0.293343,0.203719818,-0.180774149,0.300668,0.176828687,-0.157607332,0.271789,0.155610801,-0.137013163,0.246912,0.134788478,-0.123963828,0.232156,0.164865576,-0.212454913,0.264561,0.12894688,-0.185158948,0.240334,0.129466475,-0.171438451,0.245773,0.14772083,-0.172678953,0.257507,0.157929981,-0.219783572,0.280014,0.120910521,-0.18352435,0.253776,0.112655572,-0.173447028,0.260489,0.115791793,-0.164655086,0.272087,0.151389829,-0.224492134,0.294757,0.109108374,-0.206564441,0.265725,0.113908499,-0.190693986,0.271082,0.137071574,-0.189684702,0.284946,0.149923995,-0.22528442,0.315382,0.122164083,-0.205294247,0.292439,0.109186581,-0.196066453,0.281905,0.100656349,-0.178194826,0.27261
0.194470792,-0.176648015,0.311092,0.166531978,-0.205253141,0.292522,0.191187633,-0.175481476,0.296924,0.165551852,-0.14905912,0.269743,0.14558088,-0.12469534,0.244846,0.127988577,-0.111472212,0.229388,0.162327598,-0.214657245,0.26743,0.126010092,-0.19363199,0.249676,0.128515834,-0.181405151,0.259202,0.147315632,-0.180605354,0.270014,0.154303158,-0.22162095,0.281802,0.11204972,-0.204862104,0.25853,0.124940982,-0.189801849,0.270069,0.144115734,-0.191311223,0.282108,0.14917195,-0.224797344,0.295259,0.108288973,-0.209814457,0.26925,0.109764497,-0.19723445,0.278632,0.132708737,-0.195868092,0.292882,0.142762854,-0.223451764,0.313704,0.114967952,-0.206197579,0.29285,0.101849286,-0.198224722,0.283269,0.0972998705,-0.180361953,0.274815
0.183935705,-0.175059702,0.311364,0.159280282,-0.205772733,0.292437,0.186865266,-0.17553589,0.296894,0.156574944,-0.148802943,0.269411,0.136091132,-0.123574471,0.24439,0.118270696,-0.109898714,0.228943,0.152440886,-0.215403378,0.266823,0.117041172,-0.192621523,0.24843,0.119176242,-0.180136166,0.257414,0.13830866,-0.178957964,0.26826,0.144609088,-0.223012162,0.28151,0.105832239,-0.198128949,0.258043,0.121107134,-0.183391509,0.268938,0.141884481,-0.189333737,0.280953,0.13943044,-0.226713441,0.295259,0.0978772415,-0.211015417,0.268976,0.101162087,-0.19743102,0.277818,0.123973154,-0.195459091,0.291963,0.135755135,-0.226243323,0.314096,0.107200272,-0.207859773,0.293079,0.0937425186,-0.199356591,0.283422,0.0891579998,-0.181615687,0.274902
0.176067036,-0.174857889,0.311241,0.154139526,-0.206877859,0.29275,0.179314549,-0.17511667,0.296713,0.153739819,-0.148105002,0.269268,0.129675436,-0.121733835,0.244332,0.114787823,-0.108831775,0.22884,0.151307868,-0.215524395,0.267216,0.115493983,-0.19284937,0.249346,0.112830485,-0.180199778,0.258302,0.125556572,-0.175552294,0.268932,0.143699835,-0.223677203,0.282075,0.104416446,-0.198738042,0.259001,0.119462141,-0.18387518,0.269852,0.140451296,-0.189447959,0.281746,0.138657417,-0.227790334,0.295927,0.0967304915,-0.212049372,0.269951,0.0997396396,-0.198372048,0.278753,0.118509041,-0.196998169,0.292759,0.135062777,-0.227754916,0.314818,0.106115318,-0.209219988,0.294061,0.0924708738,-0.200643514,0.284524,0.0838763218,-0.183443571,0.276109
0.171209901,-0.173266377,0.308045,0.147542812,-0.205266798,0.289778,0.169985829,-0.172769916,0.292299,0.137197973,-0.144634549,0.26402,0.113785476,-0.119101337,0.23933,0.0946192839,-0.105773393,0.224762,0.138977975,-0.21301121,0.262736,0.099664153,-0.189104525,0.243983,0.098120338,-0.175363093,0.250488,0.111719565,-0.170515514,0.260487,0.13383709,-0.222557795,0.279232,0.0914209327,-0.197654454,0.256967,0.105191619,-0.180877405,0.264888,0.129414798,-0.184650101,0.275437,0.133865709,-0.227491851,0.294412,0.0859947373,-0.211685392,0.26869,0.0877121285,-0.196347964,0.275027,0.110894557,-0.194345011,0.287945,0.131851229,-0.228898719,0.31481,0.0978227136,-0.210482067,0.294531,0.0828806985,-0.201917746,0.285251,0.0784935146,-0.184768422,0.277063
0.164725459,-0.173361391,0.307669,0.14116102,-0.205084908,0.289437,0.166740617,-0.17239932,0.292097,0.1310691,-0.1435392,0.263973,0.107543652,-0.11798578,0.23928,0.0913902284,-0.105162989,0.224549,0.136627034,-0.212560222,0.262636,0.096875683,-0.188312008,0.24328,0.0952925076,-0.174905871,0.250167,0.108991517,-0.170300319,0.260556,0.131313067,-0.222105918,0.278912,0.0886980249,-0.197263899,0.256566,0.102467596,-0.180764835,0.264994,0.122393026,-0.184850153,0.275731,0.128150782,-0.227348903,0.293908,0.0832720866,-0.211365293,0.268176,0.0849070904,-0.196339172,0.274939,0.1041134,-0.194573256,0.288031,0.126694188,-0.228613509,0.314086,0.0947850526,-0.210060901,0.293755,0.0797893274,-0.201483879,0.284414,0.071407586,-0.184484766,0.276172
0.161525281,-0.171679289,0.304859,0.142497134,-0.206664242,0.291939,0.15875561,-0.169302802,0.287818,0.122344235,-0.140978843,0.259214,0.0966036503,-0.116770539,0.235746,0.0833175676,-0.105385802,0.221465,0.134259039,-0.213705294,0.265117,0.0865406856,-0.187812101,0.242278,0.0841261137,-0.170100894,0.242356,0.103703305,-0.164235482,0.2514,0.134588249,-0.226263123,0.284479,0.0888707214,-0.206748949,0.268915,0.0941759322,-0.183898393,0.269551,0.116343875,-0.182886327,0.275381,0.13897717,-0.232657864,0.301553,0.11065979,-0.25290395,0.283471,0.0911144869,-0.235556669,0.27581,0.0937318004,-0.218053142,0.276417,0.144908276,-0.236285292,0.323333,0.110601454,-0.215671189,0.307953,0.094687767,-0.206138055,0.300869,0.0905188479,-0.189738156,0.294619
0.159265215,-0.170580109,0.303055,0.142978844,-0.20693291,0.292465,0.153059175,-0.167849203,0.286179,0.120627799,-0.140603989,0.25773,0.0947959778,-0.117133665,0.234804,0.0777455267,-0.108375239,0.220796,0.135009663,-0.214795383,0.26669,0.0880588481,-0.191008571,0.245477,0.0853135876,-0.17345646,0.245899,0.104053033,-0.166513632,0.254438,0.136223071,-0.227582564,0.28635,0.0908070185,-0.210483298,0.272785,0.0957878323,-0.187633215,0.273864,0.114777029,-0.184391034,0.27911,0.140305161,-0.234182979,0.303466,0.112722472,-0.254229252,0.284796,0.0923731067,-0.235883034,0.275597,0.0936882237,-0.216258276,0.273442,0.14658549,-0.237366136,0.324939,0.11233797,-0.218305284,0.310953,0.096362657,-0.20946927,0.304523,0.092070642,-0.193359118,0.298849
0.157224383,-0.169578869,0.301487,0.142374092,-0.206776062,0.292446,0.150991494,-0.166636457,0.284755,0.116892081,-0.139157253,0.256782,0.0879217802,-0.114365239,0.235235,0.0700099386,-0.105945268,0.221951,0.134300496,-0.215074938,0.267413,0.0870755555,-0.192572467,0.247295,0.0796080162,-0.175959754,0.247982,0.095469358,-0.171101607,0.256196,0.136165014,-0.228164385,0.287226,0.0897765021,-0.213301901,0.274984,0.0878672347,-0.192226884,0.276403,0.112549686,-0.186063091,0.281276,0.137975158,-0.23524712,0.304333,0.112310335,-0.256511186,0.286827,0.0918543642,-0.238478372,0.277871,0.09254574,-0.217237116,0.273985,0.14394283,-0.237775528,0.325561,0.11149925,-0.219375055,0.312503,0.0955343265,-0.210650359,0.306504,0.0912318108,-0.194842461,0.301211
0.15615143,-0.169448101,0.301218,0.141814279,-0.20654427,0.292049,0.149791589,-0.166263582,0.284405,0.11350466,-0.138418604,0.256591,0.0867253327,-0.115775469,0.234374,0.0680269351,-0.107113274,0.221192,0.132448111,-0.214300268,0.266864,0.0829151467,-0.195146966,0.247189,0.0712749272,-0.181556409,0.246165,0.0809572472,-0.172082661,0.253519,0.135687194,-0.227870334,0.286756,0.0882034325,-0.215111434,0.275016,0.0863057067,-0.191433962,0.274314,0.103356185,-0.184066548,0.27834,0.139228538,-0.235186733,0.303938,0.109236616,-0.256426541,0.286888,0.089487017,-0.237756652,0.278164,0.091712113,-0.215757781,0.273004,0.145430894,-0.238540517,0.325273,0.111331033,-0.219909141,0.312715,0.0953791259,-0.211246421,0.306931,0.0910163,-0.195581751,0.301827
0.15316786,-0.168973746,0.30065,0.140987887,-0.205985179,0.29146,0.148490305,-0.165634072,0.283835,0.110599398,-0.138628297,0.25675,0.080858156,-0.117019534,0.235299,0.0636345476,-0.108888277,0.222747,0.130449147,-0.213433617,0.266265,0.0817874118,-0.19502689,0.246553,0.0707177676,-0.180254342,0.245589,0.0812201095,-0.171216773,0.252982,0.134942395,-0.227272319,0.286155,0.0868641667,-0.213368397,0.274372,0.0862826452,-0.189545082,0.273745,0.103324344,-0.182274049,0.27781,0.137507293,-0.234713027,0.303337,0.103208843,-0.253578741,0.286247,0.0853557606,-0.232792938,0.277504,0.0900307411,-0.213531828,0.272383,0.143667635,-0.23782733,0.324674,0.110560999,-0.219440716,0.312081,0.0946067076,-0.210731411,0.30629,0.0901895619,-0.195117932,0.301181
0.152480958,-0.168594543,0.300562,0.140605839,-0.205537111,0.291327,0.147700624,-0.16509397,0.283743,0.107814344,-0.137566486,0.257634,0.0772907459,-0.116426781,0.237224,0.0588578045,-0.109151308,0.225786,0.129227791,-0.212389105,0.26611,0.0815065902,-0.194697521,0.246378,0.0707520128,-0.179356221,0.245371,0.0814495131,-0.170432347,0.252756,0.13465927,-0.226811073,0.285995,0.0867667651,-0.211591882,0.274187,0.0874816142,-0.187223496,0.273506,0.107510854,-0.18209194,0.277564,0.13839773,-0.234385108,0.303177,0.09961105,-0.24916536,0.286067,0.0820831031,-0.224611033,0.277312,0.0875260113,-0.206142714,0.272151,0.143221807,-0.237113956,0.324522,0.110265973,-0.219081332,0.311914,0.0942833921,-0.210366629,0.306121,0.0897933465,-0.194792819,0.30101
0.150442058,-0.168923508,0.301931,0.137972399,-0.204730922,0.291347,0.144304595,-0.164519432,0.285063,0.104773628,-0.135193758,0.25812,0.0740576475,-0.109965021,0.238217,0.0543242637,-0.100669833,0.226742,0.126100991,-0.20878134,0.265585,0.0759842937,-0.18621631,0.245473,0.0664145757,-0.169527385,0.242769,0.0799647274,-0.166714871,0.249625,0.131693015,-0.225209929,0.285237,0.0833219461,-0.209122592,0.272839,0.0857161849,-0.184375909,0.270042,0.102363392,-0.178487994,0.273649,0.135620449,-0.233740911,0.302345,0.0978762833,-0.247827574,0.284785,0.0812509531,-0.225856908,0.275801,0.0852337312,-0.203528723,0.269138,0.14294738,-0.237259515,0.32381,0.107967772,-0.218733347,0.310952,0.0918425299,-0.209837935,0.305024,0.0870568541,-0.19436238,0.299793
0.149717253,-0.169019324,0.302372,0.137421099,-0.204700066,0.291594,0.143479263,-0.164387138,0.285479,0.104365284,-0.134927088,0.258314,0.0744308124,-0.11021656,0.23828,0.0547042309,-0.100773309,0.226609,0.126021754,-0.209601037,0.265731,0.076154468,-0.186523442,0.245425,0.0665548253,-0.16991038,0.242838,0.0797795733,-0.166030112,0.249817,0.131628336,-0.225440779,0.285371,0.0825646443,-0.209200724,0.27275,0.0851527662,-0.185095216,0.270098,0.102237173,-0.178477286,0.27383,0.135434932,-0.233890876,0.302487,0.0971838234,-0.247956175,0.284724,0.0805709797,-0.225812357,0.275636,0.0844837385,-0.203521189,0.269016,0.142701669,-0.238167358,0.323989,0.107400465,-0.219119436,0.310959,0.0912995186,-0.209981561,0.304952,0.0881553933,-0.19428495,0.299652
0.147769066,-0.168751764,0.302421,0.135990146,-0.203951811,0.291054,0.142458551,-0.164138011,0.285523,0.102467979,-0.134104827,0.258439,0.0736601644,-0.110230538,0.23807,0.0538878454,-0.100718355,0.226262,0.122813994,-0.20778064,0.264974,0.0751167577,-0.186007274,0.244417,0.0644645529,-0.169587129,0.24137,0.0735273116,-0.161418497,0.248265,0.129751826,-0.224203049,0.284492,0.0803783966,-0.208624377,0.271514,0.0831058582,-0.182510884,0.268285,0.101089395,-0.17720285,0.271966,0.134097438,-0.233243725,0.301559,0.0944469837,-0.245982992,0.283511,0.0783539332,-0.223369126,0.274278,0.0823205305,-0.200962391,0.267207,0.141278863,-0.238008558,0.323094,0.105242925,-0.219002243,0.30986,0.0892160422,-0.209570293,0.303778,0.0859399026,-0.193737902,0.298411
0.146026213,-0.168184598,0.301799,0.133591139,-0.202834009,0.29041,0.141244748,-0.163569937,0.284916,0.101688192,-0.133860027,0.257829,0.072990645,-0.110092143,0.237651,0.0532517974,-0.100614972,0.225918,0.121985601,-0.207420085,0.264342,0.0742055816,-0.186571633,0.243846,0.0592341251,-0.172683982,0.240618,0.0661529512,-0.1630659,0.247416,0.127698468,-0.223402763,0.283835,0.0756284872,-0.215802813,0.270907,0.0745515058,-0.189091285,0.267453,0.0942490771,-0.178398859,0.271045,0.133454081,-0.232599877,0.300882,0.0933144073,-0.245420437,0.282891,0.077455798,-0.222710916,0.273687,0.0815617248,-0.200291107,0.266483,0.139428512,-0.238030174,0.322398,0.103724939,-0.219138723,0.309222,0.0877546363,-0.209527491,0.303169,0.0853186628,-0.193451131,0.297827
0.143306507,-0.166953345,0.299975,0.129942423,-0.20167881,0.289052,0.137468086,-0.161757173,0.283169,0.0935557348,-0.137714706,0.258164,0.0634653887,-0.116343166,0.239866,0.0429114338,-0.109294449,0.230715,0.118876457,-0.207030998,0.26325,0.0710975629,-0.188042772,0.24327,0.0544421594,-0.175330095,0.239664,0.0526906387,-0.165954742,0.246108,0.123799613,-0.222639056,0.282746,0.0737334012,-0.21539902,0.270393,0.0725640253,-0.188445354,0.266473,0.0882467718,-0.179736705,0.26971,0.129457817,-0.232282762,0.299755,0.0868974972,-0.243697888,0.282296,0.0735286256,-0.220776655,0.273363,0.0798776342,-0.199584971,0.265991,0.136729079,-0.237786106,0.321156,0.100932235,-0.219326468,0.308438,0.085161613,-0.209448127,0.302594,0.0830278828,-0.193639167,0.297438
0.141625276,-0.166699821,0.299745,0.129736658,-0.202231355,0.289568,0.136593675,-0.161626312,0.282945,0.09477036,-0.138591036,0.259751,0.0648425,-0.116861832,0.241687,0.0443651069,-0.109870927,0.233328,0.119587197,-0.207650278,0.26404,0.0700399859,-0.190534179,0.244408,0.0519767634,-0.178668288,0.241294,0.0521396625,-0.168204215,0.247797,0.125287695,-0.223237047,0.283692,0.0740689518,-0.216809949,0.271827,0.0730487652,-0.190220212,0.268523,0.0888206048,-0.181443961,0.271778,0.130124516,-0.232940092,0.300766,0.0879956411,-0.245028304,0.283699,0.0737909884,-0.221721709,0.274967,0.0810700607,-0.200778339,0.2681,0.136899914,-0.238573439,0.322128,0.101715657,-0.220071599,0.309698,0.0858677752,-0.21046582,0.303988,0.0846242199,-0.194343727,0.298949
0.140220559,-0.16659953,0.299995,0.129079956,-0.201962894,0.289302,0.135051907,-0.161394242,0.28323,0.094043639,-0.137068836,0.257831,0.0646781779,-0.115585393,0.240594,0.0442470411,-0.108141999,0.231784,0.117963626,-0.207533766,0.263635,0.0693485482,-0.189988732,0.243911,0.0512389504,-0.177678161,0.240122,0.0510337014,-0.167158442,0.246391,0.123173263,-0.222949745,0.283128,0.0734413584,-0.215934069,0.271059,0.070217571,-0.189085066,0.266912,0.0832368619,-0.178602727,0.269976,0.128877011,-0.232281702,0.300115,0.0853496689,-0.242887127,0.282919,0.0726336541,-0.220051628,0.274122,0.0796166139,-0.199329366,0.266669,0.136254322,-0.23787626,0.321456,0.101089762,-0.219381805,0.308964,0.0847913054,-0.209755279,0.303224,0.0826292684,-0.194071194,0.29816
0.139147567,-0.166792703,0.300932,0.128850611,-0.202278375,0.289844,0.133908517,-0.161503678,0.284192,0.0941356424,-0.137289653,0.258714,0.0649649172,-0.115750572,0.241853,0.044601587,-0.108136546,0.233337,0.116926676,-0.207860677,0.26407,0.0683283301,-0.186628351,0.244232,0.053187671,-0.169716173,0.240046,0.0519918903,-0.164021129,0.246202,0.122837191,-0.223068483,0.283443,0.0730542244,-0.215771306,0.271173,0.069236558,-0.188595401,0.26653,0.0818460679,-0.177705534,0.26951,0.127849361,-0.232490782,0.300366,0.0862491338,-0.243599939,0.283028,0.0713554317,-0.219943147,0.274157,0.0770705769,-0.198024248,0.266344,0.134915296,-0.237921603,0.321692,0.0996490916,-0.219353983,0.309108,0.0838924528,-0.209516753,0.303326,0.0823343349,-0.193939154,0.298224
0.137997768,-0.166789543,0.301293,0.128594164,-0.202402486,0.290092,0.132664736,-0.161387739,0.284543,0.0940492772,-0.137215841,0.258856,0.0650696015,-0.115728998,0.242358,0.0447755505,-0.108039243,0.234066,0.116669604,-0.207959225,0.264264,0.0685313685,-0.185670812,0.244335,0.0532131519,-0.16979748,0.240161,0.0524939363,-0.162931656,0.246358,0.122578671,-0.223120153,0.283626,0.0727961886,-0.21566219,0.271248,0.0687308334,-0.188526189,0.266618,0.0812619525,-0.177497784,0.269642,0.127641281,-0.232498898,0.300549,0.0861508841,-0.243680629,0.283115,0.0709904331,-0.220347194,0.274195,0.0762377625,-0.198148902,0.266367,0.134785319,-0.237891116,0.321892,0.0994829878,-0.219244657,0.309229,0.0837211635,-0.209374527,0.303411,0.0815768783,-0.193921357,0.298278
0.136137049,-0.166436599,0.300652,0.12677076,-0.202221172,0.289709,0.130681252,-0.160936433,0.283896,0.0929879554,-0.136763617,0.257977,0.0641087097,-0.115444275,0.242305,0.044040455,-0.107820933,0.234546,0.115282328,-0.207784684,0.263965,0.0676507707,-0.190129238,0.244149,0.0505049105,-0.177438593,0.24015,0.0516466343,-0.164336085,0.246372,0.120861695,-0.222815681,0.283391,0.0717430769,-0.215512153,0.271178,0.0655268246,-0.188599109,0.266768,0.0775432116,-0.176753334,0.269802,0.126175493,-0.232055558,0.300345,0.086773258,-0.244286241,0.28304,0.0693288099,-0.223550179,0.274187,0.0712019171,-0.200353585,0.266535,0.134352482,-0.237591998,0.321685,0.0986904849,-0.218934176,0.309117,0.0829414368,-0.209122987,0.303342,0.0812027412,-0.193812857,0.298247
0.135186672,-0.166377878,0.300499,0.126365135,-0.202147012,0.289645,0.129663288,-0.16094009,0.283756,0.0924054339,-0.136695483,0.25783,0.0636603109,-0.115526477,0.24246,0.0436754088,-0.10794822,0.234915,0.114900695,-0.207788706,0.26395,0.0671372053,-0.190092725,0.244221,0.0500678505,-0.177303462,0.240178,0.051255398,-0.164552951,0.246348,0.120531099,-0.222779928,0.283379,0.0714416452,-0.215572208,0.271265,0.0647533853,-0.188813755,0.2668,0.0763279974,-0.176679026,0.26978,0.125883012,-0.231980918,0.300327,0.0868226006,-0.244667792,0.283113,0.0692802519,-0.224504753,0.274306,0.0707934628,-0.201205625,0.266641,0.13406713,-0.237449586,0.321646,0.0984269514,-0.218879254,0.309155,0.0826800433,-0.209105857,0.303416,0.0807270583,-0.193712375,0.298352
0.134257313,-0.166250775,0.300394,0.126046932,-0.20209761,0.289608,0.128638035,-0.160887623,0.283658,0.0919566028,-0.136625942,0.257685,0.0633503727,-0.11560343,0.242609,0.0434250909,-0.108063743,0.235232,0.114617197,-0.207796633,0.263945,0.0667958459,-0.190070753,0.244272,0.0497819146,-0.177231499,0.240221,0.0509695386,-0.164740414,0.246367,0.120287877,-0.222761749,0.283381,0.071216035,-0.215618645,0.271332,0.0642462611,-0.188983663,0.266859,0.0755302079,-0.176661269,0.269814,0.125670211,-0.231936898,0.300329,0.0868625544,-0.244974266,0.283173,0.0692554839,-0.225092611,0.274395,0.0705572105,-0.201744589,0.26674,0.133848648,-0.237352855,0.321638,0.0982250464,-0.218843235,0.309194,0.0824777277,-0.209094944,0.303477,0.0800244196,-0.19364188,0.298432
