sluyters/QuantumLeap/backend/src/datasets/gesture/HandGestureDataset_SHREC2017_csv/Gesture8/finger_1/subject_21_essai_1_skeletons_world.csv
Wrist_x,Wrist_y,Wrist_z,Palm_x,Palm_y,Palm_z,thumb_base_x,thumb_base_y,thumb_base_z,thumb_first_joint_x,thumb_first_joint_y,thumb_first_joint_z,thumb_second_joint_x,thumb_second_joint_y,thumb_second_joint_z,thumb_tip_x,thumb_tip_y,thumb_tip_z,index_base_x,index_base_y,index_base_z,index_first_joint_x,index_first_joint_y,index_first_joint_z,index_second_joint_x,index_second_joint_y,index_second_joint_z,index_tip_x,index_tip_y,index_tip_z,middle_base_x,middle_base_y,middle_base_z,middle_first_joint_x,middle_first_joint_y,middle_first_joint_z,middle_second_joint_x,middle_second_joint_y,middle_second_joint_z,middle_tip_x,middle_tip_y,middle_tip_z,ring_base_x,ring_base_y,ring_base_z,ring_first_joint_x,ring_first_joint_y,ring_first_joint_z,ring_second_joint_x,ring_second_joint_y,ring_second_joint_z,ring_tip_x,ring_tip_y,ring_tip_z,pinky_base_x,pinky_base_y,pinky_base_z,pinky_first_joint_x,pinky_first_joint_y,pinky_first_joint_z,pinky_second_joint_x,pinky_second_joint_y,pinky_second_joint_z,pinky_tip_x,pinky_tip_y,pinky_tip_z,
0.391069914,-0.297065538,0.435757,0.387789017,-0.24350475,0.412038,0.383765507,-0.27822014,0.439135,0.377624402,-0.245801282,0.434379,0.374350644,-0.223210057,0.436899,0.376151213,-0.20328203,0.434748,0.376257815,-0.187779341,0.399964,0.398157515,-0.159994109,0.401122,0.409325166,-0.145803268,0.4017,0.417924672,-0.131615941,0.402226,0.383050982,-0.191717495,0.387827,0.36352168,-0.155466417,0.36519,0.33687133,-0.158480617,0.351985,0.331474059,-0.172883371,0.3538,0.389028891,-0.198430451,0.379509,0.353848851,-0.188803042,0.359318,0.357898039,-0.211708397,0.368966,0.373455,-0.22633006,0.380972,0.397111753,-0.213325009,0.372778,0.36605808,-0.202004282,0.357655,0.365663132,-0.216961641,0.364223,0.375335299,-0.22884633,0.372092
0.388715005,-0.296379517,0.430422,0.383723614,-0.242493567,0.40539,0.380213301,-0.27670931,0.432367,0.379306612,-0.25491738,0.42546,0.368222209,-0.224792476,0.422489,0.369280961,-0.205149663,0.417917,0.371504872,-0.188252486,0.390667,0.392871805,-0.159053234,0.393728,0.404889388,-0.145223219,0.395258,0.414241595,-0.131405921,0.39665,0.379315564,-0.19312942,0.37984,0.35717479,-0.157640304,0.355717,0.329464449,-0.161049649,0.341646,0.323018587,-0.171426802,0.343379,0.386339378,-0.200710776,0.372692,0.350121105,-0.188211388,0.353527,0.354538831,-0.211312308,0.363664,0.369804967,-0.225943786,0.375452,0.395990655,-0.216826626,0.367534,0.362985658,-0.205825926,0.351083,0.363011454,-0.22102117,0.357866,0.371511022,-0.229006735,0.366287
0.381386133,-0.290335793,0.420415,0.380648624,-0.238022588,0.391973,0.372357028,-0.269539302,0.420783,0.374415875,-0.245096307,0.411925,0.36217228,-0.211549438,0.404278,0.366268388,-0.19330549,0.401051,0.367265307,-0.178592432,0.372992,0.39007534,-0.151815615,0.372068,0.401806252,-0.138065391,0.371606,0.410948208,-0.124368107,0.371186,0.374421186,-0.185743703,0.362942,0.351636579,-0.149665606,0.33615,0.320821758,-0.15112331,0.320521,0.312767509,-0.16344783,0.320663,0.380943733,-0.195236668,0.356673,0.345230202,-0.179298023,0.334868,0.345610119,-0.200895756,0.343695,0.35959868,-0.217536924,0.356025,0.390024704,-0.21375957,0.353024,0.354726445,-0.200257373,0.334611,0.352582318,-0.214104432,0.340422,0.362811828,-0.226091597,0.349156
0.381824553,-0.297528238,0.418077,0.378724857,-0.257166852,0.389992,0.375137019,-0.289381637,0.418468,0.372277135,-0.265410156,0.409572,0.359867259,-0.23125528,0.401705,0.364612627,-0.213869292,0.399238,0.365580577,-0.197201162,0.371281,0.388934683,-0.171184035,0.37098,0.400966106,-0.15778724,0.370829,0.41040129,-0.144607935,0.370692,0.372753043,-0.204419435,0.361325,0.350155343,-0.168665024,0.334734,0.319521539,-0.169769146,0.319222,0.311750191,-0.181835258,0.31962,0.379272238,-0.214010302,0.355108,0.34377554,-0.198534146,0.333457,0.344472817,-0.220661635,0.342564,0.358507839,-0.237296161,0.354945,0.388312248,-0.232730824,0.351474,0.353195638,-0.219291556,0.333167,0.351296988,-0.233423162,0.339181,0.361563856,-0.245458382,0.347955
0.377376722,-0.312970131,0.412299,0.371704888,-0.265378602,0.381353,0.368678369,-0.289393662,0.41078,0.364237843,-0.276394292,0.399423,0.352653094,-0.242557141,0.388498,0.351174673,-0.219776747,0.383378,0.356882345,-0.203413261,0.358352,0.37842372,-0.17821617,0.353573,0.389251353,-0.165124881,0.351184,0.399428762,-0.15292672,0.349012,0.364362463,-0.213136911,0.349765,0.339152267,-0.17593503,0.320739,0.307414006,-0.176062493,0.303807,0.298465898,-0.187197336,0.303007,0.371235358,-0.22481125,0.344874,0.333649802,-0.207057405,0.320627,0.332425453,-0.228372895,0.32887,0.346305438,-0.245661846,0.341954,0.380833743,-0.246028877,0.34321,0.345861253,-0.230450954,0.322975,0.341942185,-0.24339761,0.328336,0.350878432,-0.255774773,0.337536
0.368171133,-0.311072663,0.404021,0.357112141,-0.267182579,0.368937,0.35871077,-0.286046565,0.400513,0.348517276,-0.277192969,0.387178,0.337537332,-0.245253353,0.374771,0.335223097,-0.221036466,0.366273,0.341000802,-0.20281749,0.340677,0.359460806,-0.178072653,0.331398,0.36866242,-0.165323424,0.326759,0.377382216,-0.153474297,0.322541,0.347459398,-0.21501744,0.333127,0.314684724,-0.179060469,0.301226,0.279212946,-0.180624204,0.282616,0.271323685,-0.1873383,0.279191,0.353707269,-0.228849165,0.32938,0.310058298,-0.209583009,0.30225,0.304646465,-0.227873594,0.307854,0.319036543,-0.24437865,0.321047,0.36287528,-0.252847442,0.329639,0.323442867,-0.235340374,0.307356,0.316604296,-0.245672662,0.310799,0.325717258,-0.257410547,0.319976
0.363881721,-0.31799758,0.401073,0.354955552,-0.274359416,0.36602,0.355253256,-0.292127569,0.39707,0.342826597,-0.285314421,0.382905,0.32985478,-0.255554246,0.369419,0.327002771,-0.232124808,0.360378,0.339011176,-0.210004386,0.337175,0.342631156,-0.183246835,0.320568,0.34488143,-0.169511647,0.312264,0.347226273,-0.15678501,0.304716,0.345581754,-0.22292358,0.33024,0.315457411,-0.185109974,0.29809,0.278138549,-0.179989023,0.279336,0.266646025,-0.189545496,0.276232,0.351914802,-0.237343775,0.326997,0.307502924,-0.217959027,0.299461,0.302551575,-0.236308552,0.305566,0.317225287,-0.252962933,0.319123,0.361134619,-0.262004693,0.327853,0.321230156,-0.244048128,0.305245,0.31479156,-0.254410146,0.309038,0.324205474,-0.266208351,0.318466
0.357050273,-0.321407948,0.401288,0.340156866,-0.270893395,0.363741,0.34494005,-0.290927807,0.394698,0.324409907,-0.280002064,0.377398,0.31176638,-0.252626293,0.361975,0.309237003,-0.229885623,0.351592,0.324223096,-0.206620541,0.330028,0.327273225,-0.18214747,0.311487,0.329283049,-0.169618247,0.302217,0.331442501,-0.158026115,0.293789,0.332205293,-0.222428285,0.325416,0.296295945,-0.193274193,0.291082,0.258880744,-0.191612542,0.271053,0.248454164,-0.194940804,0.266674,0.339550431,-0.238991351,0.324261,0.287349361,-0.226975943,0.294092,0.27473345,-0.236693115,0.299136,0.282065582,-0.248053383,0.313333,0.349705972,-0.265738714,0.327944,0.302951792,-0.2480756,0.30344,0.293889896,-0.250934654,0.306446,0.292856987,-0.256867783,0.316235
0.339313748,-0.319290988,0.400826,0.327239389,-0.270567943,0.363304,0.330899192,-0.291502639,0.394011,0.310292993,-0.279228976,0.376356,0.297162915,-0.251684113,0.360625,0.294731886,-0.229080743,0.350361,0.311563432,-0.206185423,0.329333,0.314224444,-0.181732285,0.310777,0.316012373,-0.169215272,0.301499,0.317951913,-0.157636145,0.293064,0.319708045,-0.222147359,0.325005,0.28374795,-0.1929422,0.290582,0.247120366,-0.191223736,0.270503,0.237411113,-0.19462647,0.266244,0.327164994,-0.238857948,0.32408,0.275145186,-0.226711992,0.29375,0.262697421,-0.236569679,0.29898,0.270192667,-0.248040716,0.313317,0.337403341,-0.265813263,0.328036,0.290948774,-0.248046986,0.303405,0.281754843,-0.251012445,0.306541,0.280731161,-0.257022926,0.316426
0.232495804,-0.24723155,0.32476,0.273168127,-0.231074882,0.322246,0.236454478,-0.221932923,0.319821,0.249684969,-0.202350864,0.30547,0.261317601,-0.184367127,0.292453,0.274231281,-0.174424869,0.285277,0.302902252,-0.191150341,0.314488,0.298094394,-0.192052601,0.304096,0.296721855,-0.193434347,0.299587,0.295968231,-0.195212964,0.295712,0.31242338,-0.215341333,0.31968,0.309984715,-0.221250232,0.310424,0.279499908,-0.21879113,0.305025,0.272767823,-0.232969603,0.315826,0.317668925,-0.236602063,0.324128,0.314257323,-0.243409545,0.313973,0.310144993,-0.261678301,0.331372,0.304126432,-0.270794711,0.343416,0.31879594,-0.264593558,0.329776,0.313933749,-0.266849664,0.320768,0.314688214,-0.28619545,0.332937,0.316752105,-0.292470396,0.340826
0.229753266,-0.250225643,0.328693,0.257258442,-0.226485595,0.315846,0.230068781,-0.221001671,0.318479,0.23163554,-0.196450005,0.296562,0.239022083,-0.176264387,0.2796,0.248519213,-0.164901958,0.269702,0.274050269,-0.17904754,0.294576,0.259927735,-0.173983883,0.275486,0.253009063,-0.171709488,0.26594,0.246825277,-0.169831027,0.257263,0.285998049,-0.203925574,0.302733,0.27374516,-0.202855971,0.284616,0.267558934,-0.220599727,0.303072,0.261088347,-0.232668641,0.315418,0.294102961,-0.226541708,0.310346,0.280969107,-0.225824445,0.29129,0.275966402,-0.242129758,0.306617,0.272675228,-0.252672655,0.320434,0.300101308,-0.257684602,0.321165,0.288105846,-0.254061564,0.305396,0.287690615,-0.272296589,0.315949,0.289972849,-0.282218648,0.325592
0.175114377,-0.237552269,0.25196,0.205207803,-0.226740612,0.275979,0.165357895,-0.222757766,0.254998,0.185810811,-0.203956958,0.266047,0.196929583,-0.178559777,0.260885,0.207721841,-0.163725037,0.260868,0.213440068,-0.204857626,0.296106,0.232829659,-0.199891993,0.31187,0.23249696,-0.220223719,0.319752,0.23679355,-0.246564459,0.335236,0.23526656,-0.217349197,0.300496,0.256715261,-0.210891006,0.315637,0.261082612,-0.242937342,0.333963,0.253660645,-0.257241067,0.334238,0.251832773,-0.228607296,0.302421,0.2747369,-0.21715755,0.314824,0.278932521,-0.241131331,0.33003,0.270487346,-0.2568023,0.331096,0.268548435,-0.243994915,0.30148,0.276570267,-0.235555063,0.310468,0.276955238,-0.253679459,0.321488,0.270656125,-0.265274086,0.322597
0.149053214,-0.24840171,0.261228,0.18013461,-0.23426751,0.282268,0.140571524,-0.226872078,0.260352,0.16323167,-0.208581719,0.268404,0.175880766,-0.183014573,0.260807,0.188520989,-0.169435865,0.259922,0.189834778,-0.202849503,0.295573,0.217063606,-0.20047966,0.310072,0.22345982,-0.226038143,0.324193,0.214022503,-0.237683642,0.324112,0.210657056,-0.221995464,0.303745,0.239263508,-0.216815515,0.315871,0.240543752,-0.245370012,0.333576,0.229027756,-0.257245902,0.334748,0.226268342,-0.239066694,0.30899,0.253394584,-0.232049441,0.317587,0.255411804,-0.252766452,0.332224,0.242250697,-0.266324133,0.3346,0.241605922,-0.26198898,0.312413,0.253942598,-0.257368448,0.318615,0.253225204,-0.276215325,0.329181,0.247648047,-0.28625135,0.331095
0.142242901,-0.244658773,0.258185,0.169424942,-0.231492827,0.28091,0.134230161,-0.223751032,0.257715,0.151680992,-0.205227379,0.2663,0.16487386,-0.180432535,0.259551,0.177687486,-0.167036284,0.258817,0.180653648,-0.201479935,0.295862,0.206822373,-0.199030071,0.310572,0.212020992,-0.224107089,0.324165,0.202608298,-0.235572459,0.32379,0.201314258,-0.220653486,0.304106,0.229927168,-0.216381429,0.317888,0.229544172,-0.244411752,0.335012,0.217605731,-0.255760983,0.335401,0.216694438,-0.237660762,0.309292,0.243956696,-0.231546224,0.31939,0.244495064,-0.251768444,0.333536,0.230706712,-0.264735916,0.33511,0.231535287,-0.260306798,0.312418,0.243863889,-0.256512825,0.319848,0.242261703,-0.27502868,0.330094,0.236352336,-0.284623748,0.331451
0.126716934,-0.24098653,0.256652,0.150061573,-0.228680593,0.27973,0.110692086,-0.21957646,0.257195,0.124097884,-0.197384023,0.264206,0.133759474,-0.172172848,0.260428,0.142871057,-0.156518132,0.262261,0.163504941,-0.200463422,0.296161,0.183717792,-0.199439919,0.307695,0.185080161,-0.221623721,0.321461,0.175219881,-0.237119943,0.32241,0.182555874,-0.21926428,0.303286,0.206352871,-0.219438244,0.317411,0.203100132,-0.247935409,0.33499,0.19010553,-0.260311023,0.335399,0.196475057,-0.235799634,0.307527,0.220463554,-0.232352276,0.318245,0.216640533,-0.25434692,0.332788,0.203955283,-0.265544747,0.334271,0.209384925,-0.257580021,0.309478,0.221182734,-0.253781541,0.317315,0.218759806,-0.27214843,0.327848,0.212297735,-0.282003239,0.329174
0.110918924,-0.239286185,0.258189,0.138928389,-0.229402736,0.283165,0.105323981,-0.220064195,0.259588,0.113140649,-0.19799884,0.268762,0.123707491,-0.173896257,0.266662,0.133591287,-0.158878117,0.269304,0.154948775,-0.203608836,0.301939,0.173004089,-0.201409746,0.31256,0.172601717,-0.222696305,0.325799,0.162341895,-0.237982376,0.326898,0.173344221,-0.22236507,0.308658,0.196309399,-0.223134214,0.32467,0.190821436,-0.250662275,0.341759,0.177314436,-0.26238151,0.341331,0.186573118,-0.23871152,0.31243,0.210092158,-0.236001573,0.324993,0.204440753,-0.257165729,0.339129,0.191356609,-0.267734852,0.339704,0.198346057,-0.25993858,0.313565,0.209704345,-0.256662807,0.322874,0.206081301,-0.27449578,0.33315,0.199255393,-0.283899378,0.333858
0.0986183587,-0.242941105,0.26655,0.126069482,-0.230290334,0.288704,0.0860742697,-0.221793482,0.268647,0.0957811789,-0.193713495,0.268125,0.105526985,-0.170146024,0.266179,0.115538053,-0.155341931,0.268657,0.144483824,-0.203650283,0.306406,0.158235763,-0.200087641,0.315394,0.156101215,-0.221904817,0.329985,0.145634939,-0.237861401,0.332267,0.161519802,-0.221384807,0.311318,0.17883297,-0.21996382,0.324603,0.171370112,-0.248010672,0.343349,0.158987225,-0.260651622,0.344427,0.173509915,-0.236955413,0.313802,0.19227239,-0.2326281,0.324358,0.185150217,-0.254276396,0.339911,0.173583395,-0.265720122,0.341861,0.183637739,-0.257437662,0.31378,0.190984285,-0.252527448,0.321307,0.186525149,-0.270694371,0.332541,0.180642728,-0.280777364,0.334248
0.0869057142,-0.250379142,0.27953,0.118009709,-0.233945513,0.297019,0.0779767726,-0.230015609,0.282652,0.075840354,-0.199858535,0.281825,0.0755025337,-0.174496411,0.277942,0.0804360413,-0.156529151,0.278127,0.139337735,-0.20536857,0.312786,0.145323412,-0.199791304,0.319262,0.138928462,-0.221878326,0.335305,0.129611759,-0.236858764,0.339159,0.154661067,-0.221171976,0.314871,0.163295331,-0.217270372,0.323919,0.153819658,-0.246474912,0.344416,0.143348239,-0.260539317,0.347576,0.165087666,-0.235318888,0.315357,0.175553185,-0.22966697,0.32281,0.166842955,-0.252306377,0.339876,0.158259131,-0.264715482,0.343685,0.173143591,-0.254492969,0.313579,0.174366092,-0.24791459,0.318396,0.169307585,-0.266575227,0.330633,0.164982048,-0.277502431,0.333683
0.0767487709,-0.251344357,0.285384,0.110635319,-0.232844118,0.300894,0.0750475535,-0.232812227,0.2886,0.0650976271,-0.19968975,0.28735,0.0624817868,-0.175368425,0.28278,0.0660914267,-0.15667928,0.281535,0.13261165,-0.203554844,0.315424,0.134487807,-0.196106252,0.320699,0.126658593,-0.217081303,0.337106,0.117162833,-0.232719155,0.341578,0.147535403,-0.21847445,0.316725,0.151585468,-0.212373023,0.324007,0.141001118,-0.241747388,0.344937,0.134305168,-0.255310805,0.348872,0.157635474,-0.23200433,0.316705,0.163487828,-0.224615482,0.322757,0.153817052,-0.24730776,0.340201,0.146787725,-0.260588168,0.344726,0.165298428,-0.250673638,0.314591,0.163225281,-0.242533978,0.318231,0.157732051,-0.261191822,0.330707,0.15412926,-0.272744801,0.334263
0.0763815225,-0.253136756,0.28929,0.114418219,-0.240177937,0.312048,0.0754115924,-0.237335468,0.295752,0.0673667507,-0.208367428,0.300393,0.0624753695,-0.183509049,0.296885,0.0672088132,-0.164174048,0.294912,0.140069858,-0.21566862,0.3355,0.141593814,-0.209998275,0.347456,0.132489884,-0.231090786,0.362727,0.124900812,-0.249619686,0.368006,0.155310771,-0.229868934,0.335277,0.159427372,-0.2253161,0.349642,0.149232109,-0.25712465,0.369117,0.145390026,-0.274137029,0.377398,0.165274793,-0.242461073,0.333495,0.171675807,-0.236310286,0.346464,0.16227892,-0.261308072,0.362702,0.156787051,-0.27812218,0.3707,0.172041162,-0.259257434,0.328299,0.171720461,-0.254523759,0.337432,0.165424274,-0.273150215,0.349171,0.162353233,-0.285982846,0.353576
0.119791455,-0.296640115,0.345281,0.138977571,-0.255043406,0.344627,0.107203615,-0.274892404,0.342564,0.0894816467,-0.243002687,0.330883,0.0742090617,-0.21542889,0.325826,0.0711417028,-0.196560546,0.326107,0.136146948,-0.203783876,0.340857,0.122261183,-0.197162966,0.332828,0.115730164,-0.22242829,0.349649,0.112933308,-0.246721073,0.364941,0.157489268,-0.214851635,0.34396,0.141390333,-0.215602224,0.336503,0.136513486,-0.251584282,0.357943,0.142301806,-0.272017766,0.373258,0.174151077,-0.226840362,0.346559,0.158204737,-0.227041072,0.338626,0.1548716,-0.254689838,0.3565,0.155623382,-0.279316899,0.372749,0.192153159,-0.24683005,0.349749,0.17386131,-0.244382634,0.342364,0.169780074,-0.264038568,0.3549,0.164189203,-0.280236403,0.36236
0.113177301,-0.295091361,0.340518,0.126013936,-0.258458335,0.343988,0.102947454,-0.279014466,0.343782,0.0842822956,-0.255371858,0.340039,0.0713299217,-0.230281997,0.338444,0.0693311897,-0.211445433,0.339352,0.125815872,-0.215613054,0.350351,0.102065888,-0.214832016,0.348498,0.100395341,-0.242729957,0.365629,0.098379199,-0.269380488,0.381202,0.143453848,-0.220292871,0.347531,0.121113299,-0.220267664,0.344531,0.117603965,-0.25697669,0.366224,0.125735593,-0.282772099,0.381719,0.157027322,-0.226817612,0.344966,0.138612493,-0.223661539,0.342761,0.137162801,-0.252857786,0.360927,0.14939567,-0.282394545,0.377441,0.17134027,-0.239875411,0.341438,0.150713469,-0.239390032,0.338274,0.153354702,-0.262814138,0.351091,0.15752489,-0.278377967,0.357175
0.118237371,-0.303816368,0.34904,0.127295869,-0.260724819,0.347169,0.10709292,-0.28909565,0.352844,0.103065336,-0.265624084,0.349023,0.0928837982,-0.24902425,0.361951,0.0920054063,-0.239399958,0.372103,0.115613743,-0.21825615,0.350542,0.089318981,-0.196866291,0.346146,0.0792232227,-0.195530616,0.362796,0.0679544709,-0.192746154,0.377931,0.1319179,-0.216489259,0.345259,0.103043704,-0.214629557,0.338101,0.109959256,-0.252758398,0.359097,0.124099291,-0.275396686,0.374094,0.145237426,-0.218020063,0.341043,0.120412967,-0.218015094,0.334956,0.128159525,-0.249678959,0.352543,0.144916746,-0.276339024,0.368532,0.160990548,-0.225742469,0.336264,0.136799459,-0.227379689,0.330552,0.146459789,-0.249331496,0.342921,0.155978807,-0.268466615,0.349728
0.168672492,-0.310657713,0.38123,0.145661462,-0.260857582,0.363938,0.148223307,-0.303334287,0.383346,0.126984462,-0.290862516,0.384402,0.0981928232,-0.268059422,0.376849,0.0848547923,-0.249797958,0.374017,0.105832643,-0.218726079,0.354711,0.0743298738,-0.187927093,0.341465,0.0587921727,-0.174186183,0.337502,0.0433834574,-0.162732743,0.333898,0.122683677,-0.211211481,0.346287,0.0952097695,-0.207670695,0.324555,0.103853196,-0.24123506,0.341237,0.117173098,-0.259947022,0.353152,0.137912902,-0.208412398,0.340571,0.112539193,-0.213620825,0.31784,0.125559411,-0.240540771,0.331672,0.140020285,-0.25834602,0.344247,0.158940158,-0.211499235,0.336081,0.135103712,-0.220717113,0.321355,0.141884045,-0.240652125,0.331188,0.151354617,-0.26030048,0.340184
0.176446709,-0.313966067,0.389171,0.149029066,-0.262906706,0.367758,0.154257813,-0.305782746,0.388877,0.137672622,-0.295634822,0.388025,0.105217478,-0.275800771,0.379045,0.0891087815,-0.257358582,0.372132,0.104622606,-0.219403256,0.352768,0.0769623586,-0.190197108,0.345392,0.0641667186,-0.176852356,0.342696,0.0475824222,-0.165149267,0.340246,0.121800185,-0.212233336,0.345901,0.0898117387,-0.2085055,0.320943,0.102388143,-0.239289268,0.336847,0.115665987,-0.256877125,0.348207,0.137728049,-0.209774233,0.341756,0.111709953,-0.214053983,0.316444,0.12478127,-0.240360504,0.329653,0.140756848,-0.257025776,0.341661,0.160375329,-0.213437673,0.339695,0.137149752,-0.222450929,0.323283,0.143804541,-0.243767611,0.332505,0.152925377,-0.261275566,0.341856
0.181459764,-0.319304069,0.396826,0.150726248,-0.263256037,0.368836,0.157796727,-0.309491074,0.394129,0.138500489,-0.294412832,0.387366,0.105732776,-0.272479987,0.375832,0.0890397197,-0.251968447,0.365585,0.103666014,-0.215696205,0.346414,0.0809307236,-0.189559167,0.345019,0.0671984603,-0.177080011,0.344322,0.0544526973,-0.165501775,0.343688,0.120794672,-0.208736246,0.340266,0.0901666431,-0.20050589,0.310382,0.0997872481,-0.229827273,0.323424,0.112254754,-0.245051235,0.332739,0.136890804,-0.206666364,0.337175,0.109969416,-0.207150833,0.307474,0.121868161,-0.231153747,0.318307,0.136826166,-0.246375455,0.328156,0.160261914,-0.21124349,0.337259,0.137777747,-0.217476475,0.317241,0.141367021,-0.235603873,0.32468,0.150914197,-0.254756322,0.334609
0.184117829,-0.322183001,0.401751,0.152996088,-0.266358682,0.374028,0.161550155,-0.31333701,0.401002,0.13877972,-0.295982835,0.394812,0.108871679,-0.273751347,0.385841,0.0941194032,-0.255254469,0.376059,0.108351624,-0.21935746,0.354171,0.0870629197,-0.191494855,0.353203,0.0739575861,-0.178702768,0.352719,0.0618315829,-0.166869282,0.35228,0.12261807,-0.211910435,0.34573,0.085622863,-0.208703137,0.318818,0.0960771172,-0.236781493,0.330867,0.109010581,-0.25184751,0.339474,0.137629661,-0.20907499,0.340734,0.105662594,-0.214390099,0.310635,0.117544859,-0.236995586,0.320463,0.135594547,-0.250476863,0.329398,0.158467877,-0.213385666,0.338508,0.130080142,-0.222436721,0.319617,0.132414895,-0.24030072,0.326432,0.14258546,-0.260768513,0.335723
0.183842922,-0.320670388,0.402053,0.151430546,-0.265575411,0.376018,0.163092736,-0.313613437,0.404237,0.135076194,-0.295817604,0.399926,0.106348476,-0.27591949,0.394295,0.0956902372,-0.257043137,0.386133,0.107180772,-0.216976057,0.360901,0.0877309751,-0.188469378,0.360345,0.0750989284,-0.175600558,0.360067,0.0647357708,-0.166039771,0.359814,0.117425791,-0.209809167,0.349443,0.0789706249,-0.212024828,0.324886,0.0908209923,-0.238220751,0.335557,0.107600558,-0.25292729,0.343179,0.128075266,-0.207392849,0.341846,0.0958025955,-0.21348542,0.312315,0.107133349,-0.23515636,0.3209,0.124099337,-0.247840622,0.328705,0.145224809,-0.21127152,0.336289,0.118841381,-0.220958371,0.319712,0.120097643,-0.238371252,0.32578,0.128046484,-0.255182473,0.333967
0.184147082,-0.320513757,0.403319,0.151423255,-0.26498741,0.376794,0.163741606,-0.312954484,0.405383,0.135245333,-0.296723155,0.400632,0.106324503,-0.276708619,0.394823,0.0949626795,-0.256800487,0.386454,0.107892486,-0.216738045,0.361196,0.088590789,-0.187864885,0.360276,0.0756007441,-0.175095423,0.359817,0.0642193783,-0.165047616,0.359399,0.118153053,-0.209711422,0.349718,0.0794710403,-0.211570334,0.324837,0.0910505404,-0.237555244,0.335153,0.106706927,-0.251683354,0.342522,0.128808574,-0.207442962,0.34214,0.0962111785,-0.213235385,0.312292,0.107305228,-0.234744928,0.32058,0.12407511,-0.247308797,0.328116,0.145958506,-0.211562427,0.33667,0.119307328,-0.221006196,0.319885,0.120382653,-0.238267878,0.325739,0.128236871,-0.25510699,0.333916
0.184421791,-0.320674241,0.404119,0.153380578,-0.265561099,0.377639,0.164200199,-0.312611971,0.405897,0.135207229,-0.297788226,0.401246,0.106563972,-0.277075582,0.394815,0.0951767199,-0.256808829,0.38658,0.10971915,-0.218551416,0.361721,0.0904514018,-0.189674934,0.360855,0.0775365991,-0.176841899,0.360422,0.0653660988,-0.165184905,0.360028,0.120795861,-0.211413965,0.35061,0.0810030909,-0.21169566,0.325596,0.092409959,-0.238109669,0.336306,0.107382526,-0.252378778,0.343956,0.132059723,-0.209077933,0.343329,0.0984949752,-0.214419393,0.313557,0.109949074,-0.236049991,0.322186,0.128731375,-0.24928407,0.33003,0.149832212,-0.21315472,0.33821,0.120983941,-0.221749193,0.32124,0.122047571,-0.239169721,0.327321,0.129876207,-0.256202972,0.335651
0.185218631,-0.321821206,0.406014,0.153828917,-0.266236015,0.37898,0.165058851,-0.313335397,0.407555,0.135473888,-0.298950192,0.402401,0.106901747,-0.277826603,0.395621,0.0954414617,-0.257183742,0.387212,0.110305461,-0.218799412,0.362395,0.0912107743,-0.189804418,0.361444,0.0782961313,-0.176960066,0.360969,0.0660762106,-0.165327437,0.360536,0.121357997,-0.211757725,0.351386,0.0817622748,-0.211742582,0.325951,0.0929517455,-0.238031093,0.33638,0.107479563,-0.252071654,0.343829,0.132619895,-0.209535617,0.344229,0.0996133909,-0.214961069,0.314116,0.111107084,-0.236352966,0.322512,0.129224144,-0.249200161,0.330146,0.150429957,-0.213824004,0.339331,0.121875883,-0.222216782,0.322057,0.122826297,-0.239512165,0.327964,0.130626259,-0.256609719,0.336334
0.185488286,-0.320312527,0.405788,0.152667192,-0.263083557,0.379198,0.165499472,-0.311932957,0.407453,0.137252708,-0.299295766,0.402701,0.107301657,-0.278321887,0.395939,0.095233555,-0.25774891,0.387651,0.110164585,-0.217774231,0.363069,0.0908633138,-0.188915257,0.362081,0.0783141792,-0.175897197,0.361587,0.06631293,-0.164194338,0.361138,0.120869047,-0.210855211,0.352057,0.0824239751,-0.212313156,0.326926,0.0946282565,-0.239266928,0.337657,0.108405341,-0.252974485,0.345322,0.131889524,-0.208686972,0.344867,0.101921979,-0.215767551,0.315038,0.116521158,-0.23733315,0.323687,0.131949662,-0.249196142,0.331551,0.149474948,-0.212953594,0.339869,0.123198929,-0.222367907,0.322795,0.123785095,-0.239692626,0.328886,0.130926044,-0.256989513,0.337256
0.186711021,-0.320846576,0.407811,0.153496115,-0.263325863,0.380535,0.166576746,-0.312181232,0.409158,0.13795951,-0.299772537,0.403743,0.107708545,-0.279015167,0.396667,0.0950975975,-0.258188617,0.388018,0.110253891,-0.217764179,0.363547,0.0905829647,-0.18898271,0.362469,0.0782731264,-0.175786548,0.361931,0.0664642966,-0.163945889,0.361441,0.121091934,-0.210878527,0.352694,0.0827267995,-0.212336991,0.327027,0.0948430636,-0.238967331,0.337436,0.108590087,-0.252506917,0.34487,0.132268826,-0.208749982,0.345681,0.102459584,-0.215904591,0.315435,0.116889547,-0.236998864,0.32382,0.132591413,-0.248364177,0.331442,0.150137567,-0.213094823,0.340989,0.124170307,-0.222630654,0.323522,0.124391444,-0.239747899,0.329412,0.131114972,-0.257220692,0.337843
0.188138806,-0.319275401,0.408462,0.154432952,-0.263283363,0.381312,0.168255217,-0.310427183,0.409652,0.140223062,-0.299297273,0.404262,0.110816607,-0.280816561,0.39717,0.0953831581,-0.25953819,0.388334,0.111013565,-0.217793625,0.364218,0.0913368075,-0.189286315,0.363551,0.0792680815,-0.176069862,0.363217,0.0675267135,-0.164278564,0.362914,0.121874505,-0.21105622,0.3536,0.0835794378,-0.212834897,0.327918,0.0953607824,-0.23931018,0.338634,0.109667437,-0.2534155,0.346289,0.133099368,-0.209037183,0.346771,0.103657172,-0.216186552,0.316639,0.117878915,-0.236800172,0.325288,0.137716763,-0.244921792,0.333151,0.151071334,-0.213496487,0.342282,0.12498742,-0.222998574,0.324743,0.125262956,-0.24023697,0.330812,0.131819459,-0.257868043,0.339338
0.189786393,-0.320139203,0.411439,0.155672839,-0.2641639,0.383218,0.169982544,-0.310571264,0.412155,0.141521997,-0.300059572,0.4057,0.111628316,-0.281557603,0.398182,0.0955749631,-0.259975656,0.388817,0.111610513,-0.217869508,0.364811,0.0918131354,-0.189328795,0.364007,0.0798885264,-0.176002857,0.363605,0.0681785396,-0.164175057,0.363239,0.122507143,-0.211267664,0.354411,0.0840464305,-0.212772132,0.327914,0.0957215512,-0.238843951,0.338073,0.109850517,-0.25261143,0.345328,0.133818802,-0.20940229,0.347838,0.104245176,-0.216299523,0.317058,0.118476312,-0.236330871,0.325247,0.138048051,-0.244083194,0.332692,0.152013553,-0.214136446,0.343797,0.125604943,-0.223280547,0.325669,0.125739734,-0.240262027,0.331393,0.132167153,-0.257997488,0.339993
0.190913208,-0.320099298,0.413358,0.156559698,-0.264712306,0.384505,0.171330314,-0.310027274,0.413844,0.14249528,-0.300625142,0.406771,0.11221574,-0.282163686,0.399015,0.0957122886,-0.259776373,0.38938,0.112109358,-0.217995818,0.365385,0.0921899025,-0.189375077,0.364387,0.0803660863,-0.175941473,0.363887,0.0686734491,-0.16406842,0.363433,0.123003398,-0.211438564,0.355053,0.0844594704,-0.21285268,0.32811,0.0960621218,-0.238636545,0.337856,0.110076623,-0.252158062,0.344818,0.134345135,-0.209632851,0.34858,0.104700523,-0.216414903,0.317417,0.118918146,-0.236030559,0.325264,0.13823743,-0.24356802,0.332398,0.152645481,-0.214489702,0.344745,0.1260547,-0.223444329,0.326309,0.126086827,-0.240235755,0.331782,0.132395172,-0.258014573,0.340393
0.191863574,-0.319281576,0.413624,0.157711127,-0.265220445,0.385415,0.17226257,-0.309004535,0.413818,0.145348239,-0.299944055,0.407302,0.114865274,-0.281642857,0.39881,0.0961075441,-0.259493801,0.389272,0.115135753,-0.218362189,0.36638,0.0948616495,-0.189916793,0.365547,0.0838756943,-0.176520815,0.36513,0.0695448075,-0.164861419,0.364752,0.126181714,-0.212056414,0.356622,0.0893741666,-0.201860077,0.329868,0.0945958416,-0.230530883,0.340607,0.110470935,-0.257587118,0.353656,0.138506653,-0.209161453,0.350576,0.114221963,-0.216395234,0.319904,0.129023226,-0.235893263,0.328599,0.141147196,-0.246321695,0.336503,0.156997067,-0.213975227,0.347163,0.13155267,-0.223903992,0.328699,0.135924385,-0.238510926,0.334756,0.135069457,-0.259448543,0.343603
0.193111196,-0.318977446,0.413834,0.158992662,-0.26509224,0.385763,0.173476344,-0.308822726,0.414048,0.14599104,-0.30021722,0.40765,0.115477191,-0.281502254,0.399,0.096997938,-0.259911285,0.389607,0.115941174,-0.218656145,0.366846,0.095628091,-0.190334599,0.366186,0.0846154694,-0.177005464,0.365856,0.0707698987,-0.165289064,0.365555,0.127067727,-0.212266645,0.35711,0.0895288729,-0.202209496,0.330439,0.0947863624,-0.230995184,0.341293,0.110551928,-0.257209776,0.354347,0.139586582,-0.209486264,0.351072,0.114431552,-0.216792303,0.320491,0.129291403,-0.236383572,0.329282,0.142329446,-0.246703633,0.337273,0.158167131,-0.214199055,0.347651,0.132720503,-0.223724541,0.329236,0.136170445,-0.238942696,0.335362,0.136048712,-0.259589872,0.344218
0.194615266,-0.319103107,0.4146,0.160294671,-0.265140572,0.386327,0.174875353,-0.309039806,0.414766,0.146568419,-0.300617269,0.408176,0.115967685,-0.281613217,0.399416,0.0979648973,-0.260339324,0.390055,0.116551343,-0.218887667,0.367214,0.0968678828,-0.190683862,0.366722,0.0851885188,-0.177405651,0.366476,0.0719761842,-0.165681766,0.366253,0.127729514,-0.212419552,0.357468,0.0895901164,-0.202347795,0.330665,0.0948077474,-0.2310473,0.34137,0.11036621,-0.256474386,0.354425,0.140320164,-0.209722679,0.351436,0.114515459,-0.216951266,0.320726,0.129334594,-0.236462539,0.329392,0.142971714,-0.246565345,0.33727,0.158980918,-0.214393653,0.34805,0.133418269,-0.223611991,0.329551,0.136261387,-0.239102294,0.335586,0.136725166,-0.259496644,0.344437
0.196091212,-0.319050082,0.41546,0.161421973,-0.265060198,0.386927,0.176238265,-0.309081924,0.415588,0.147082271,-0.301060201,0.408764,0.116379881,-0.281843365,0.399927,0.0987206126,-0.26076054,0.390581,0.117503278,-0.218853494,0.367591,0.097592436,-0.190816026,0.367128,0.0860469493,-0.177493168,0.366897,0.0726381915,-0.16585279,0.366687,0.128696556,-0.212257982,0.357804,0.0896383323,-0.202456721,0.330843,0.0947960829,-0.231018873,0.341328,0.109799893,-0.255623179,0.354371,0.140868798,-0.209927977,0.351757,0.114568659,-0.217052055,0.320875,0.129320459,-0.236436695,0.329356,0.143384487,-0.24630981,0.337065,0.159585748,-0.214564027,0.348386,0.133897235,-0.223560014,0.329795,0.136307281,-0.239182806,0.335699,0.137439431,-0.259041129,0.344531
0.197552328,-0.318973403,0.416289,0.162538507,-0.264963759,0.387503,0.177592684,-0.3091092,0.41639,0.147534049,-0.301496737,0.409346,0.116732115,-0.282120085,0.400458,0.0994848147,-0.261198693,0.391132,0.118450707,-0.21881446,0.367959,0.0983120118,-0.190939958,0.367518,0.0868989502,-0.177570765,0.367297,0.0732949158,-0.166012999,0.367097,0.129654264,-0.212085477,0.35812,0.0896835791,-0.202558915,0.33101,0.0947783083,-0.230975556,0.341264,0.109221193,-0.254746114,0.354288,0.141300674,-0.210111945,0.352048,0.114612577,-0.217135257,0.320998,0.129292188,-0.236385008,0.329284,0.14367767,-0.246043467,0.336816,0.160059789,-0.214718885,0.348682,0.13425513,-0.223549088,0.330008,0.136337328,-0.23923553,0.335773,0.138135368,-0.258552065,0.34458
0.19769993,-0.317149344,0.414828,0.162717327,-0.263657789,0.386436,0.178303617,-0.307954281,0.415823,0.149205194,-0.301195568,0.409373,0.117421181,-0.283154432,0.401942,0.100878399,-0.262569338,0.393166,0.116163597,-0.217028813,0.368254,0.095684138,-0.189150312,0.367786,0.085647074,-0.177473863,0.367552,0.0731609645,-0.166425109,0.36734,0.125578219,-0.210587927,0.357455,0.0821359997,-0.196926998,0.331021,0.0850677236,-0.224796539,0.340659,0.0962116882,-0.247477459,0.353246,0.136548447,-0.208453051,0.350565,0.107528014,-0.216675329,0.319626,0.121814925,-0.235594686,0.327369,0.143060628,-0.243793302,0.334409,0.15452417,-0.212729724,0.34617,0.131954783,-0.221974916,0.328191,0.131992615,-0.238404396,0.333613,0.137310196,-0.256212477,0.342043
0.198743959,-0.316771522,0.415255,0.163511243,-0.26335409,0.386835,0.179477475,-0.307604697,0.416341,0.149627575,-0.301457369,0.409904,0.117814312,-0.283599207,0.402586,0.101925621,-0.263029759,0.393837,0.116677186,-0.216746094,0.368745,0.0960122674,-0.188867505,0.368148,0.0859930525,-0.177512362,0.367849,0.0730257918,-0.16683535,0.367578,0.126564653,-0.209921547,0.357826,0.0822372364,-0.197169721,0.331429,0.0851333987,-0.224970089,0.340922,0.0962669782,-0.247619677,0.353449,0.137189304,-0.20779255,0.350839,0.107955532,-0.216123514,0.319869,0.122507684,-0.234721892,0.327486,0.143470728,-0.243303521,0.334411,0.154828546,-0.212058083,0.346332,0.132014957,-0.221711242,0.328409,0.132179755,-0.238098701,0.333747,0.137534333,-0.255837751,0.342124
0.199353471,-0.316143619,0.415312,0.163894157,-0.26290801,0.386936,0.180192044,-0.307113056,0.416557,0.1501417,-0.301599633,0.410242,0.118405896,-0.283791795,0.403035,0.102697793,-0.263296047,0.394383,0.117258846,-0.216175665,0.369072,0.0963293471,-0.18825364,0.368169,0.0856906094,-0.177442172,0.367718,0.0722907096,-0.167057202,0.367308,0.126823079,-0.209266978,0.357972,0.0823014906,-0.197323802,0.331688,0.0851591193,-0.225038057,0.341025,0.0962707913,-0.247629509,0.353463,0.137215061,-0.20704959,0.350834,0.108004362,-0.215595823,0.319872,0.122545812,-0.234100386,0.327354,0.143463999,-0.242924608,0.334156,0.154637391,-0.21117222,0.346141,0.132066001,-0.221463774,0.328342,0.132219843,-0.237788669,0.33359,0.137527879,-0.255460538,0.34189
0.199956655,-0.315505904,0.415356,0.164275058,-0.262458399,0.387032,0.180901977,-0.306613172,0.416762,0.150659698,-0.301749178,0.41059,0.118995358,-0.283982583,0.403481,0.103471083,-0.26357206,0.394943,0.117841378,-0.215606032,0.369401,0.0966452544,-0.187638992,0.368187,0.0853864409,-0.177368609,0.36758,0.0715530179,-0.167275382,0.367029,0.127082727,-0.208613552,0.358121,0.0823682487,-0.197483832,0.331957,0.0851873372,-0.225112625,0.341138,0.0962765109,-0.247644197,0.353484,0.137241624,-0.206307037,0.350831,0.108055862,-0.215073883,0.319883,0.122586934,-0.23348471,0.32723,0.14346026,-0.242550831,0.333908,0.154445643,-0.210284766,0.345949,0.13211822,-0.22121841,0.328278,0.132261772,-0.237482472,0.333438,0.137522488,-0.255085887,0.341659
0.200557346,-0.314864533,0.415395,0.164654759,-0.262006603,0.387125,0.181610289,-0.306110234,0.416963,0.151180449,-0.301903823,0.410945,0.11958417,-0.284175121,0.403929,0.104246109,-0.263859149,0.395519,0.118423505,-0.215034806,0.369728,0.0969602441,-0.187024059,0.368203,0.0850817717,-0.177294087,0.36744,0.0708139673,-0.16749259,0.366747,0.127342203,-0.20795893,0.358269,0.0824352436,-0.197644457,0.332227,0.0852153053,-0.225186532,0.34125,0.0962814135,-0.247656808,0.353502,0.137268198,-0.205563661,0.350828,0.108108357,-0.214554341,0.319897,0.122628012,-0.232869152,0.327106,0.143456461,-0.242177121,0.33366,0.154254665,-0.209397548,0.345759,0.132171226,-0.220974472,0.328216,0.132303982,-0.237177212,0.333287,0.137516957,-0.254711599,0.341428
0.200875481,-0.31421925,0.415755,0.164598039,-0.261478912,0.387332,0.182000221,-0.305436271,0.417335,0.151463377,-0.301946444,0.411232,0.119769178,-0.284457203,0.404247,0.104335541,-0.264177081,0.395804,0.1184613,-0.215103435,0.369846,0.0969178733,-0.186942281,0.368042,0.0843439333,-0.176892761,0.36714,0.0697913541,-0.167290871,0.366321,0.127360661,-0.207989114,0.358321,0.0824317811,-0.197636129,0.332213,0.0851613908,-0.225043996,0.341034,0.0962116882,-0.247477459,0.353246,0.137271328,-0.205568349,0.350836,0.108078269,-0.214494649,0.319808,0.122530542,-0.232684078,0.326846,0.142791985,-0.241712366,0.333244,0.154243958,-0.209383013,0.345735,0.131557595,-0.220856524,0.328171,0.1316334,-0.237002351,0.333122,0.136783041,-0.254514486,0.341223
0.201205839,-0.313591739,0.41614,0.164545755,-0.260957784,0.38755,0.18239992,-0.304777778,0.417729,0.151743531,-0.301983015,0.411511,0.119972897,-0.284783611,0.404628,0.104430794,-0.264509756,0.396111,0.118497827,-0.215169738,0.36996,0.0968728299,-0.186855424,0.367871,0.0836028263,-0.176484684,0.366826,0.0687648215,-0.167080468,0.365876,0.127376998,-0.208015815,0.358367,0.0824255779,-0.197621256,0.332188,0.085099473,-0.224880344,0.340786,0.0961321697,-0.247272889,0.352954,0.137272111,-0.205569521,0.350838,0.108043471,-0.214425567,0.319705,0.122421449,-0.232476913,0.326555,0.14210833,-0.24121441,0.332782,0.154231479,-0.209366056,0.345707,0.130939968,-0.220732458,0.328117,0.130954962,-0.236812611,0.332936,0.136040707,-0.254300296,0.340995
