sluyters/QuantumLeap/backend/src/datasets/gesture/HandGestureDataset_SHREC2017_csv/Gesture8/finger_1/subject_1_essai_3_skeletons_world.csv
Wrist_x,Wrist_y,Wrist_z,Palm_x,Palm_y,Palm_z,thumb_base_x,thumb_base_y,thumb_base_z,thumb_first_joint_x,thumb_first_joint_y,thumb_first_joint_z,thumb_second_joint_x,thumb_second_joint_y,thumb_second_joint_z,thumb_tip_x,thumb_tip_y,thumb_tip_z,index_base_x,index_base_y,index_base_z,index_first_joint_x,index_first_joint_y,index_first_joint_z,index_second_joint_x,index_second_joint_y,index_second_joint_z,index_tip_x,index_tip_y,index_tip_z,middle_base_x,middle_base_y,middle_base_z,middle_first_joint_x,middle_first_joint_y,middle_first_joint_z,middle_second_joint_x,middle_second_joint_y,middle_second_joint_z,middle_tip_x,middle_tip_y,middle_tip_z,ring_base_x,ring_base_y,ring_base_z,ring_first_joint_x,ring_first_joint_y,ring_first_joint_z,ring_second_joint_x,ring_second_joint_y,ring_second_joint_z,ring_tip_x,ring_tip_y,ring_tip_z,pinky_base_x,pinky_base_y,pinky_base_z,pinky_first_joint_x,pinky_first_joint_y,pinky_first_joint_z,pinky_second_joint_x,pinky_second_joint_y,pinky_second_joint_z,pinky_tip_x,pinky_tip_y,pinky_tip_z,
0.48483488,-0.41018696,0.592393,0.48982649,-0.35919092,0.582706,0.47190804,-0.39002311,0.593093,0.45245765,-0.35728071,0.584921,0.43260662,-0.33055178,0.581196,0.42266226,-0.31224664,0.58137,0.48128788,-0.30267825,0.576127,0.48024257,-0.2684032,0.559915,0.48395051,-0.25285387,0.556396,0.48478331,-0.23864062,0.555169,0.49866114,-0.30864708,0.57163,0.48231275,-0.29510124,0.553633,0.46453698,-0.31248078,0.543135,0.46662231,-0.33499283,0.553451,0.50922104,-0.31488439,0.5685,0.4986111,-0.30466425,0.549827,0.49166396,-0.31706141,0.540274,0.50132022,-0.34419298,0.550958,0.52902038,-0.33057352,0.565891,0.51400677,-0.31974846,0.551775,0.5279688,-0.33613792,0.566905,0.54166795,-0.35853987,0.577739
0.48819907,-0.41198834,0.594225,0.49049646,-0.36066488,0.580752,0.47314942,-0.39121136,0.594346,0.45183861,-0.35681002,0.58538,0.43367334,-0.32811576,0.578669,0.42511457,-0.3072663,0.574505,0.47664186,-0.3007526,0.57058,0.47326688,-0.26393465,0.550911,0.47773548,-0.24830068,0.547946,0.48208346,-0.23355475,0.545271,0.49337476,-0.30625595,0.565345,0.47449333,-0.2969232,0.5436,0.4532946,-0.31367131,0.530915,0.45466617,-0.32899112,0.539598,0.50696203,-0.31348791,0.561831,0.49038794,-0.3026095,0.539361,0.47704275,-0.31695615,0.527865,0.48506466,-0.34061089,0.536738,0.52326939,-0.32787361,0.559214,0.50350049,-0.31987359,0.542126,0.51554274,-0.3375472,0.556485,0.5272485,-0.36103204,0.568066
0.48599936,-0.41048565,0.591495,0.48696467,-0.35969624,0.575636,0.47089545,-0.3885814,0.591402,0.45001798,-0.35568901,0.582198,0.43146235,-0.32583122,0.575705,0.42344453,-0.30482923,0.571368,0.47349074,-0.29872487,0.563381,0.47240648,-0.26289166,0.541172,0.47492924,-0.24657452,0.534971,0.47819256,-0.23169796,0.530146,0.48914905,-0.30486828,0.557502,0.46689434,-0.29379403,0.533435,0.44384286,-0.30892774,0.519395,0.44348182,-0.32791148,0.526909,0.50379116,-0.3154111,0.553597,0.4809471,-0.30167239,0.528714,0.46669941,-0.31252853,0.515984,0.46971747,-0.33722138,0.523546,0.51813076,-0.33158761,0.550796,0.49496936,-0.31706139,0.53213,0.50603129,-0.33424468,0.545803,0.51752518,-0.35779361,0.557675
0.48241892,-0.40773371,0.587157,0.48319516,-0.35873313,0.570434,0.46660198,-0.38514285,0.586811,0.44620128,-0.3511362,0.577293,0.42779773,-0.32094734,0.570564,0.42223359,-0.30017981,0.566382,0.47914607,-0.29738322,0.557216,0.47356859,-0.26252206,0.534896,0.47613028,-0.24745804,0.529477,0.47715675,-0.23186837,0.525922,0.49312447,-0.30619226,0.551312,0.46388761,-0.29291973,0.526426,0.43846356,-0.30656075,0.511909,0.43707574,-0.32366731,0.519037,0.5042281,-0.31612662,0.547438,0.47742512,-0.3019441,0.521772,0.46082644,-0.31172257,0.50864,0.46232074,-0.33372828,0.515788,0.51471005,-0.33085051,0.544778,0.49105769,-0.31826259,0.525833,0.50075537,-0.33500202,0.539245,0.5110808,-0.35866454,0.551113
0.47423398,-0.40170587,0.579764,0.4778804,-0.35480725,0.560712,0.461324,-0.38110841,0.579674,0.44227787,-0.34504698,0.570655,0.42651303,-0.31381653,0.564055,0.42113125,-0.29198095,0.559028,0.47576934,-0.29171721,0.546017,0.46799017,-0.25724729,0.521332,0.46529302,-0.24203683,0.511515,0.46219292,-0.22864408,0.50259,0.48793127,-0.30086851,0.538926,0.4567016,-0.28805556,0.511826,0.42749816,-0.29968049,0.496017,0.42366365,-0.31520425,0.501702,0.49750377,-0.31107024,0.534213,0.46811122,-0.29796965,0.506057,0.44767359,-0.30647037,0.491651,0.44510236,-0.32673328,0.49714,0.50838292,-0.32904802,0.53082,0.47872087,-0.31769631,0.509142,0.48566799,-0.33554613,0.521773,0.49525962,-0.35979081,0.5343
0.46999079,-0.39909235,0.575414,0.47551058,-0.35313329,0.557299,0.45760859,-0.37834815,0.574671,0.43924606,-0.34001562,0.564672,0.42525263,-0.30914971,0.558218,0.42099893,-0.28487545,0.550376,0.47442664,-0.29035397,0.542539,0.4675384,-0.25733333,0.517933,0.4676522,-0.24461589,0.507104,0.46530543,-0.23202866,0.497754,0.4871543,-0.30065476,0.536584,0.45748669,-0.2887147,0.510387,0.42764213,-0.29993322,0.495106,0.42383586,-0.31557747,0.501588,0.49710901,-0.31174971,0.53275,0.46980788,-0.29924998,0.505825,0.44897672,-0.30807481,0.49205,0.44631643,-0.3287736,0.498505,0.50823636,-0.33068485,0.530304,0.48050251,-0.31947242,0.509719,0.48777446,-0.33718383,0.522865,0.49612667,-0.36118656,0.535208
0.46543255,-0.39796191,0.572029,0.46960209,-0.35096845,0.550357,0.45214709,-0.37455055,0.568966,0.43147524,-0.33388618,0.556,0.41565527,-0.30128784,0.545904,0.40971068,-0.27675275,0.535865,0.47049692,-0.28998719,0.530097,0.46500021,-0.26021086,0.503668,0.46533553,-0.24662107,0.493466,0.46629568,-0.23422752,0.48459,0.48174129,-0.3039258,0.525574,0.45434101,-0.28573746,0.496167,0.41709897,-0.29230929,0.479014,0.41078794,-0.30607372,0.484169,0.4903402,-0.31791702,0.523126,0.46357101,-0.2940412,0.493742,0.43998949,-0.30224671,0.478708,0.43467056,-0.32174144,0.483929,0.49949183,-0.34017437,0.52278,0.46640923,-0.32794944,0.500586,0.46567686,-0.34771524,0.512833,0.4707208,-0.36688115,0.525393
0.45600239,-0.39410926,0.563746,0.46394097,-0.34982409,0.543946,0.44506977,-0.36970289,0.561624,0.42620217,-0.329266,0.549821,0.41321798,-0.29716862,0.540684,0.40789974,-0.27422314,0.531561,0.47279628,-0.29175956,0.526248,0.46501986,-0.2609341,0.501216,0.46498436,-0.24738365,0.490949,0.46540851,-0.23492524,0.481808,0.48025748,-0.30385386,0.521306,0.45399499,-0.28617288,0.493596,0.41949656,-0.29415595,0.477433,0.4119877,-0.30722246,0.483398,0.48795709,-0.31781106,0.518405,0.4654255,-0.29494838,0.490383,0.44097237,-0.30383924,0.476047,0.43390052,-0.3219457,0.482056,0.49570002,-0.33976125,0.517285,0.46370597,-0.32777652,0.496568,0.46306186,-0.34755863,0.509287,0.46759612,-0.36645334,0.521511
0.44141828,-0.38704785,0.550071,0.45677522,-0.34847626,0.530483,0.43494565,-0.36174709,0.547859,0.42410549,-0.32785591,0.535923,0.41133152,-0.29347985,0.525941,0.40707352,-0.27078101,0.516761,0.46917163,-0.29050062,0.512838,0.46427564,-0.26181538,0.488206,0.46398096,-0.24819567,0.477785,0.46417219,-0.235671,0.468492,0.47895867,-0.30519067,0.508083,0.45265373,-0.28666556,0.480581,0.41711587,-0.29368377,0.464538,0.40718779,-0.30460671,0.470651,0.4861652,-0.31965716,0.505323,0.46389965,-0.29613236,0.47756,0.4385117,-0.30439378,0.463356,0.42918009,-0.32136897,0.469542,0.49318985,-0.34216897,0.50435,0.46092517,-0.32894267,0.483647,0.46010689,-0.34857997,0.496472,0.46036907,-0.36363831,0.508731
0.44057549,-0.38686516,0.545396,0.45727817,-0.3501854,0.522846,0.43591642,-0.36450973,0.542001,0.42281538,-0.33337965,0.528648,0.40548997,-0.29775379,0.515965,0.40443705,-0.27698442,0.512537,0.4594232,-0.2871948,0.501519,0.44991131,-0.25821366,0.474156,0.44707684,-0.24443171,0.462209,0.44500971,-0.23185979,0.451638,0.47143028,-0.30067173,0.497061,0.44208055,-0.2827352,0.46686,0.40568216,-0.28940716,0.449243,0.39744801,-0.29962687,0.453971,0.48083542,-0.31442963,0.494718,0.45368157,-0.29360116,0.464499,0.42511027,-0.30012919,0.449038,0.41774667,-0.31614314,0.453778,0.49129083,-0.33665451,0.494603,0.45114681,-0.32331548,0.471789,0.45058928,-0.34231386,0.483769,0.45267287,-0.35982692,0.496443
0.43921362,-0.38591975,0.539893,0.45294674,-0.34943736,0.513403,0.43523079,-0.36670754,0.53539,0.41786436,-0.33028877,0.521922,0.39937704,-0.29473963,0.508241,0.39652732,-0.27282649,0.502547,0.44988316,-0.28545258,0.487734,0.43944189,-0.25490616,0.457622,0.4375903,-0.24124936,0.445809,0.43405143,-0.22683758,0.436774,0.46046921,-0.29996189,0.483113,0.42807633,-0.27757692,0.4494,0.38842662,-0.28112742,0.429734,0.37924128,-0.29000668,0.432272,0.46890093,-0.31457489,0.480868,0.43907857,-0.28741881,0.447591,0.40695227,-0.29190434,0.430565,0.39710451,-0.30547914,0.433049,0.47852115,-0.33777817,0.481343,0.4309933,-0.32684191,0.456046,0.42815717,-0.34331174,0.466548,0.43051102,-0.36024725,0.479523
0.43800789,-0.38715926,0.540058,0.44950848,-0.35241323,0.511246,0.43512219,-0.36828003,0.535376,0.41684151,-0.33115811,0.521796,0.39799121,-0.29509449,0.507311,0.39346264,-0.27193282,0.499339,0.4453681,-0.28534361,0.483584,0.43049606,-0.25737729,0.451212,0.42536177,-0.24316631,0.436895,0.4213992,-0.23043128,0.424428,0.45358452,-0.30257815,0.4783,0.41711439,-0.27945541,0.442583,0.37621001,-0.28119216,0.421749,0.36803036,-0.28796908,0.422664,0.46065599,-0.31746789,0.475646,0.42690728,-0.28939747,0.439936,0.39314398,-0.2920216,0.421666,0.38066245,-0.30514479,0.422253,0.46870125,-0.34096715,0.475907,0.41935008,-0.3281571,0.449459,0.41498682,-0.34348867,0.458754,0.41654427,-0.36038298,0.471667
0.44322321,-0.39328871,0.54824,0.44017028,-0.35991729,0.514492,0.43763247,-0.37255653,0.540247,0.40975804,-0.33758671,0.522205,0.39455777,-0.29843196,0.506089,0.39090366,-0.27354097,0.496801,0.42723063,-0.29309775,0.47909,0.41575126,-0.2597463,0.443747,0.41250167,-0.24456364,0.428678,0.41198713,-0.22862622,0.416135,0.43788347,-0.30956044,0.475902,0.40530642,-0.27854265,0.436267,0.36388241,-0.27989349,0.413147,0.35451899,-0.2845291,0.411278,0.44681755,-0.32570823,0.475262,0.38350008,-0.31926072,0.436546,0.35663446,-0.30944506,0.416737,0.34851756,-0.310543,0.414564,0.45794679,-0.35057744,0.478544,0.4144913,-0.33541796,0.446631,0.40696869,-0.34633097,0.454273,0.41105801,-0.35940154,0.468469
0.43492378,-0.39720775,0.544693,0.4257096,-0.35922771,0.511363,0.42230166,-0.37505469,0.537116,0.39751185,-0.33442738,0.519556,0.38646737,-0.29743421,0.505762,0.39199026,-0.27530148,0.499504,0.41732639,-0.29168256,0.476778,0.40360456,-0.25884845,0.441614,0.39829474,-0.24334247,0.425659,0.39437277,-0.22966584,0.41201,0.42743589,-0.30808635,0.47325,0.39318431,-0.27950825,0.433924,0.3530538,-0.28150028,0.410984,0.34356295,-0.28794826,0.409332,0.4357017,-0.32417041,0.472306,0.37561527,-0.31674913,0.433769,0.34707229,-0.30800686,0.414052,0.33820331,-0.309503,0.412075,0.44562446,-0.34900115,0.475171,0.40016797,-0.33383533,0.444043,0.39359085,-0.34503334,0.451684,0.39510772,-0.3599049,0.465603
0.42570856,-0.40430721,0.540802,0.42182971,-0.35972807,0.508324,0.41137528,-0.37850535,0.533535,0.38926853,-0.34078259,0.516718,0.37061066,-0.30464096,0.501352,0.36351119,-0.28046301,0.490392,0.40548285,-0.29218222,0.474761,0.38895661,-0.26106733,0.439772,0.3819145,-0.24621266,0.423563,0.37639281,-0.23314111,0.409694,0.41800939,-0.30680718,0.471185,0.38171289,-0.28175697,0.432522,0.34306756,-0.28424544,0.409968,0.33498255,-0.29065979,0.408937,0.42852484,-0.32171619,0.470151,0.37171391,-0.31564801,0.432223,0.33954757,-0.3075844,0.412818,0.32938968,-0.31023478,0.4115,0.44253322,-0.34647434,0.472805,0.38963594,-0.33457674,0.44344,0.38280901,-0.34624193,0.451311,0.38369147,-0.36086657,0.464698
0.41718928,-0.40854643,0.540636,0.40912704,-0.36205726,0.507864,0.40778911,-0.38053426,0.534073,0.3792616,-0.34158456,0.517934,0.36160107,-0.30607803,0.503717,0.35456419,-0.28177213,0.492681,0.39491175,-0.29227945,0.474919,0.37796322,-0.26090705,0.439502,0.37075514,-0.24599235,0.423184,0.36505323,-0.2328708,0.409219,0.4066012,-0.30628888,0.470389,0.36997793,-0.28107753,0.431479,0.33190319,-0.28342314,0.408782,0.32376483,-0.28943442,0.407213,0.41638742,-0.32064666,0.468588,0.3568749,-0.31413429,0.430112,0.32795199,-0.3058029,0.410427,0.31768664,-0.3079248,0.408436,0.42860532,-0.34388301,0.470353,0.37716964,-0.33298323,0.441328,0.37004361,-0.3442595,0.448727,0.37065662,-0.35862386,0.46181
0.40210163,-0.40590924,0.538793,0.39612384,-0.35482493,0.505952,0.39087281,-0.37743763,0.530801,0.36400635,-0.3305356,0.513724,0.34839964,-0.2944044,0.499751,0.34701112,-0.27135008,0.491756,0.38310313,-0.28727176,0.471245,0.36249105,-0.26182853,0.43583,0.3524077,-0.24918212,0.418304,0.34404965,-0.2381846,0.403258,0.39600132,-0.3026105,0.468398,0.3563458,-0.28590079,0.429482,0.32020567,-0.28735298,0.406781,0.31366616,-0.29147356,0.405692,0.40660769,-0.31783123,0.467986,0.34939377,-0.31479766,0.430061,0.32007989,-0.30602474,0.410658,0.30931529,-0.30803283,0.409353,0.4194969,-0.34164504,0.471434,0.3733718,-0.33315442,0.439863,0.37571413,-0.35332355,0.448822,0.39375233,-0.36057331,0.463166
0.39963772,-0.40450769,0.539249,0.39453562,-0.3546759,0.505625,0.38797044,-0.37595866,0.530727,0.36109561,-0.33053695,0.512746,0.33816989,-0.29531824,0.495997,0.33081756,-0.2703702,0.484068,0.37990549,-0.28677865,0.469684,0.3587234,-0.25999701,0.433921,0.3487454,-0.24696368,0.416704,0.34055762,-0.23565673,0.402033,0.39314691,-0.30224561,0.467175,0.347636,-0.28775926,0.427667,0.31273342,-0.28998927,0.404621,0.30578887,-0.29537114,0.403037,0.40411347,-0.31760001,0.467086,0.34835757,-0.31402397,0.428715,0.3186692,-0.30634632,0.409083,0.30723497,-0.30906152,0.407284,0.41758279,-0.34162463,0.471018,0.36834835,-0.33463938,0.43922,0.37268338,-0.35361957,0.447952,0.39100114,-0.36442115,0.462315
0.39164756,-0.40239755,0.540853,0.38209547,-0.35501681,0.505969,0.38000176,-0.37387333,0.531956,0.34815982,-0.33126958,0.512952,0.33140883,-0.29373806,0.496868,0.3315488,-0.27133796,0.487929,0.36729415,-0.28629646,0.468614,0.34377653,-0.25794482,0.432253,0.33278645,-0.24427631,0.414995,0.32349006,-0.23228755,0.400126,0.38004874,-0.30212266,0.466078,0.33202836,-0.28845228,0.425615,0.29809774,-0.28910323,0.402011,0.29198267,-0.29266983,0.399426,0.39067014,-0.31781655,0.46604,0.33543791,-0.31223488,0.426759,0.30662572,-0.30579865,0.406662,0.29489412,-0.30924966,0.403789,0.40381912,-0.34234231,0.470185,0.35261573,-0.33455001,0.437389,0.35674839,-0.35231685,0.445248,0.37715355,-0.35904302,0.458916
0.38362749,-0.40084738,0.540603,0.36776982,-0.35430001,0.503136,0.36386457,-0.37088068,0.528917,0.33206323,-0.32936262,0.506918,0.31197287,-0.29241553,0.488019,0.3073069,-0.26743616,0.47602,0.34538591,-0.28777951,0.460468,0.32037589,-0.25891595,0.422671,0.30840996,-0.2448843,0.404464,0.298204,-0.23261932,0.38877,0.36087193,-0.30426787,0.460292,0.31139228,-0.29635396,0.418183,0.27904257,-0.29231335,0.393619,0.27258201,-0.29135344,0.389301,0.37398177,-0.32037741,0.462348,0.31793513,-0.3191811,0.422301,0.29077006,-0.30853141,0.401811,0.27882176,-0.3078711,0.397324,0.39060618,-0.34509632,0.469327,0.3387179,-0.34081015,0.436096,0.34190307,-0.35523266,0.442756,0.36021666,-0.36237208,0.45608
0.37164285,-0.39774017,0.538976,0.35536119,-0.35190953,0.501222,0.35093868,-0.36834732,0.526708,0.31362411,-0.3299322,0.504294,0.30282267,-0.2913526,0.488548,0.3072989,-0.27141961,0.483688,0.33117408,-0.28696981,0.457638,0.30294738,-0.25962149,0.419636,0.28892163,-0.24600908,0.400761,0.27677905,-0.23413858,0.38445,0.34794331,-0.30297934,0.45805,0.30006526,-0.29896473,0.415819,0.26877645,-0.2920043,0.391184,0.26151928,-0.2897801,0.386679,0.36209195,-0.31860075,0.460606,0.30694911,-0.3200876,0.42064,0.28043686,-0.30773878,0.400192,0.26810904,-0.3061009,0.395564,0.37997737,-0.34255209,0.468222,0.32922603,-0.34063623,0.43505,0.32958738,-0.35568033,0.441545,0.34550587,-0.36551604,0.455538
0.3574028,-0.40073617,0.541401,0.34874875,-0.35809412,0.504945,0.34353907,-0.3731371,0.531023,0.30930849,-0.33751008,0.514409,0.2904437,-0.30028336,0.49847,0.28764506,-0.2766295,0.489833,0.33341606,-0.2902134,0.464615,0.29549768,-0.26506754,0.427588,0.27822328,-0.25336769,0.4096,0.26265478,-0.24289127,0.393514,0.34433617,-0.30574833,0.463257,0.29178703,-0.2951314,0.421731,0.2607139,-0.29400177,0.397508,0.25679562,-0.29502062,0.393883,0.35586474,-0.3221481,0.46428,0.29792137,-0.31801494,0.424389,0.27271255,-0.30954703,0.40398,0.26286923,-0.31066198,0.400113,0.370375,-0.34754759,0.469893,0.31770447,-0.34219916,0.436989,0.32361654,-0.35765727,0.444286,0.34499313,-0.36584351,0.457315
0.34384542,-0.40199865,0.538213,0.33586614,-0.35577954,0.502408,0.33201416,-0.37367707,0.528899,0.29662053,-0.33625327,0.510824,0.28675572,-0.29909603,0.496798,0.28752651,-0.27761664,0.491434,0.31984548,-0.28797751,0.463849,0.28435563,-0.26454258,0.427006,0.26688224,-0.25313001,0.409082,0.25109437,-0.24289403,0.393017,0.33268038,-0.30396146,0.461464,0.28177142,-0.29250809,0.420339,0.24902557,-0.29317321,0.39635,0.24335398,-0.29650745,0.393029,0.34341213,-0.31972674,0.461605,0.29337717,-0.30722272,0.42175,0.26701706,-0.30898479,0.40136,0.26029238,-0.31582738,0.397715,0.35678357,-0.34420797,0.466075,0.30500349,-0.33878617,0.433394,0.31083531,-0.35462565,0.441013,0.32988938,-0.36203861,0.453971
0.34401826,-0.40969074,0.545333,0.32984965,-0.3653231,0.507848,0.32458958,-0.38155639,0.534245,0.28746275,-0.34899436,0.515159,0.27146484,-0.31026936,0.498638,0.270871,-0.2869388,0.490321,0.30663524,-0.29525938,0.465881,0.27056368,-0.26879648,0.428763,0.25252066,-0.25708209,0.411115,0.23619355,-0.24656949,0.3953,0.32272752,-0.310198,0.464983,0.27654061,-0.30105141,0.422795,0.24362347,-0.30080731,0.398185,0.23610247,-0.30181975,0.393706,0.33636472,-0.32529619,0.466447,0.28357019,-0.32714478,0.426085,0.25738075,-0.32856266,0.405435,0.24790965,-0.33555745,0.400702,0.35369937,-0.34935482,0.472714,0.3039985,-0.34549199,0.438712,0.30840965,-0.36046709,0.44501,0.32964889,-0.36638918,0.458144
0.3377159,-0.41312835,0.547456,0.3289973,-0.36675248,0.510186,0.31825181,-0.38664763,0.535614,0.28503625,-0.34988273,0.515701,0.26162744,-0.31225271,0.497973,0.2579891,-0.2879541,0.488931,0.30141211,-0.29730048,0.467483,0.26283549,-0.27701133,0.430048,0.24346817,-0.26829594,0.412024,0.22591335,-0.26052045,0.395832,0.32166556,-0.31211274,0.467569,0.2677348,-0.31133542,0.425621,0.23743675,-0.3094414,0.401151,0.23132407,-0.3093826,0.397062,0.33618261,-0.32753679,0.469828,0.2842601,-0.33075455,0.430019,0.25858277,-0.33265507,0.409652,0.24968712,-0.33996344,0.405436,0.35461913,-0.3519757,0.477027,0.30520787,-0.34909041,0.443074,0.3099423,-0.36394364,0.449508,0.32869177,-0.37129219,0.463681
0.33148335,-0.41644183,0.549242,0.31620374,-0.36713308,0.511066,0.31485203,-0.3878797,0.537423,0.27193515,-0.351164,0.516821,0.2515512,-0.31292366,0.499043,0.24781793,-0.28823031,0.4894,0.29078619,-0.29743594,0.467696,0.2518003,-0.27675496,0.42965,0.23220615,-0.26781147,0.41128,0.21447212,-0.25984913,0.394812,0.30794747,-0.31219713,0.467412,0.25672107,-0.31075974,0.424834,0.22701596,-0.30855122,0.399997,0.22081632,-0.30774009,0.394954,0.32251334,-0.32713622,0.469421,0.27124283,-0.33047614,0.428897,0.24626784,-0.33211458,0.408164,0.23743741,-0.33826387,0.40289,0.34107492,-0.35096975,0.476427,0.29209365,-0.34831227,0.441881,0.29662171,-0.36215698,0.447505,0.31496979,-0.36887089,0.461335
0.32063061,-0.41029467,0.533517,0.30930336,-0.36481249,0.50046,0.30847603,-0.39046515,0.528343,0.29301953,-0.38152307,0.516402,0.27998691,-0.35601247,0.505756,0.2744996,-0.33012413,0.494318,0.29054589,-0.296838,0.468959,0.24175552,-0.27805778,0.435859,0.21798874,-0.26951391,0.419552,0.19638787,-0.26177975,0.404775,0.29964714,-0.30596296,0.462659,0.24005697,-0.29982053,0.423601,0.21449381,-0.30407622,0.400816,0.21851521,-0.31160115,0.39825,0.30866625,-0.31807168,0.459419,0.24734854,-0.30815357,0.420219,0.23260549,-0.30183785,0.400163,0.24278093,-0.29586572,0.396924,0.32089421,-0.33985345,0.459484,0.26696484,-0.32949854,0.431341,0.26244207,-0.34493672,0.437792,0.26239187,-0.3639526,0.450198
0.29761978,-0.40110396,0.509471,0.28646054,-0.35651665,0.482128,0.28763536,-0.38426297,0.507534,0.27271008,-0.37062093,0.50148,0.26231796,-0.34966958,0.496498,0.2587458,-0.32675285,0.489049,0.27166206,-0.28891782,0.458876,0.22608594,-0.2736219,0.428725,0.20345003,-0.26635216,0.414212,0.18275945,-0.25977216,0.401038,0.28048911,-0.2977801,0.450862,0.22492557,-0.29479225,0.416445,0.20189683,-0.30089913,0.396367,0.20388699,-0.31221102,0.397095,0.28817485,-0.30816492,0.445878,0.23168845,-0.29889449,0.410495,0.21731664,-0.29505623,0.392392,0.22875315,-0.29258487,0.392496,0.2982793,-0.32707898,0.443153,0.24854992,-0.31996373,0.419193,0.2458513,-0.3371462,0.428081,0.24567116,-0.3556394,0.43996
0.2947016,-0.42231641,0.526409,0.28313823,-0.36656489,0.49658,0.28589334,-0.39647312,0.524304,0.26813119,-0.37935495,0.516085,0.2565496,-0.35892093,0.50969,0.25255839,-0.33561941,0.500683,0.26910055,-0.295902,0.471221,0.22079491,-0.28228685,0.44303,0.19661183,-0.27564388,0.429164,0.17454032,-0.26964909,0.416606,0.27642557,-0.30494722,0.46247,0.21754117,-0.29904843,0.426262,0.19320106,-0.30430576,0.40514,0.19466671,-0.31445192,0.403769,0.28293084,-0.31565599,0.457025,0.22765145,-0.31250809,0.429626,0.21460531,-0.3130569,0.415609,0.22697393,-0.31303849,0.416405,0.29171926,-0.3353354,0.454044,0.24034726,-0.32679972,0.429155,0.23831103,-0.34421885,0.436279,0.23930687,-0.36385453,0.447801
0.29170424,-0.42356651,0.528832,0.28053289,-0.36755549,0.498893,0.2780424,-0.39701163,0.526637,0.26107361,-0.38002966,0.518249,0.24812411,-0.35661166,0.511771,0.24360815,-0.33207771,0.502775,0.26124419,-0.29629597,0.473344,0.2127799,-0.28371642,0.445348,0.18851276,-0.27759416,0.431579,0.16636224,-0.27207256,0.419105,0.26876777,-0.30520125,0.464658,0.2102978,-0.30025717,0.428427,0.18696912,-0.30571319,0.407293,0.19237226,-0.31589701,0.405899,0.27549353,-0.31579696,0.459273,0.22040497,-0.31351649,0.431748,0.20665733,-0.31462139,0.417665,0.21760641,-0.31586293,0.418404,0.28466479,-0.3353384,0.456378,0.23351264,-0.32758081,0.431386,0.23189525,-0.34498354,0.438485,0.23684053,-0.36514287,0.450033
0.3032917,-0.425081,0.528467,0.28445866,-0.36956477,0.498046,0.2937413,-0.40083761,0.527628,0.2689057,-0.38700224,0.519683,0.24566424,-0.36974029,0.512922,0.23311685,-0.35049981,0.503679,0.25226744,-0.30428867,0.473749,0.20419753,-0.28943778,0.446682,0.18323742,-0.28708475,0.440921,0.16348153,-0.28499791,0.435683,0.25880443,-0.30837618,0.463259,0.20167605,-0.30194585,0.430954,0.17941334,-0.30933823,0.41211,0.18175938,-0.31957161,0.410047,0.26567117,-0.31508264,0.456418,0.21450275,-0.32177749,0.430134,0.20201703,-0.32661284,0.416686,0.2128748,-0.32827585,0.415934,0.27940868,-0.33104045,0.451826,0.22953952,-0.32594831,0.427955,0.21999013,-0.34122186,0.433303,0.2193678,-0.35829976,0.443779
0.30319307,-0.42468386,0.526594,0.28353009,-0.37339473,0.498809,0.29512036,-0.40524424,0.528467,0.26981899,-0.39129758,0.523156,0.24419439,-0.3783845,0.518532,0.22992514,-0.36158917,0.510282,0.25033621,-0.31126282,0.479774,0.20099436,-0.29692205,0.455784,0.17948161,-0.29516407,0.452072,0.15917183,-0.2935913,0.448698,0.25311346,-0.31393003,0.467037,0.19464816,-0.30392987,0.438098,0.17096838,-0.31238958,0.421217,0.17371899,-0.32583962,0.419451,0.25696396,-0.31934508,0.458193,0.2050942,-0.32393713,0.435775,0.19360203,-0.33123421,0.424305,0.20589929,-0.33554382,0.424062,0.26480811,-0.33252037,0.45087,0.21771556,-0.32885312,0.43022,0.21341187,-0.3365845,0.435145,0.22656358,-0.34265808,0.444322
0.30184464,-0.4235197,0.52402,0.27957504,-0.37520364,0.498769,0.29488907,-0.40627957,0.52837,0.26861863,-0.3962756,0.526151,0.24161483,-0.38584485,0.524351,0.2298368,-0.3688638,0.51756,0.25102648,-0.31477178,0.48464,0.19911887,-0.30645582,0.46458,0.17493461,-0.30380621,0.457064,0.15266877,-0.30142808,0.450231,0.24916705,-0.31678978,0.469896,0.19231401,-0.31383779,0.444376,0.19186332,-0.32134954,0.429489,0.20761522,-0.32015766,0.427619,0.25065319,-0.32125188,0.459253,0.19892801,-0.32501736,0.440677,0.18653351,-0.33489055,0.431173,0.1985578,-0.34250836,0.430985,0.25553066,-0.33299669,0.449457,0.20991931,-0.33121109,0.432066,0.20419863,-0.33870174,0.436133,0.21596811,-0.34431474,0.44383
0.29651005,-0.42441436,0.524754,0.26707348,-0.37612979,0.499361,0.28842541,-0.40587999,0.52922,0.2569466,-0.39756664,0.527442,0.23213288,-0.38559054,0.525886,0.21748684,-0.37045218,0.519352,0.23896516,-0.31552481,0.48526,0.18859093,-0.30651782,0.464674,0.16395846,-0.3031927,0.456141,0.14136759,-0.30019152,0.448384,0.23880978,-0.31707833,0.470324,0.18213802,-0.31421846,0.444915,0.18235728,-0.32180146,0.430093,0.19818889,-0.32028045,0.427783,0.24017727,-0.32144774,0.459533,0.19065852,-0.32976249,0.441133,0.18198536,-0.33928187,0.43172,0.1972972,-0.34343753,0.431079,0.24489464,-0.33308337,0.449574,0.19972955,-0.33144413,0.43237,0.19394586,-0.3385635,0.435955,0.20571442,-0.34398116,0.4434
0.29840363,-0.42454382,0.525443,0.27284366,-0.376014,0.500527,0.29009246,-0.4061185,0.530596,0.26059965,-0.39777152,0.53034,0.23539206,-0.38879137,0.530062,0.22007255,-0.37576584,0.524308,0.24953926,-0.31565332,0.487613,0.19391495,-0.30730268,0.468383,0.17421374,-0.30452037,0.46357,0.15103051,-0.30609635,0.459195,0.24515922,-0.31791922,0.472035,0.18591301,-0.31437554,0.447667,0.17459856,-0.32132523,0.433452,0.18549289,-0.32653605,0.430489,0.24266396,-0.32250777,0.460687,0.19395563,-0.33146226,0.443481,0.19029955,-0.34301846,0.434678,0.20589564,-0.34913518,0.433393,0.24568277,-0.33441543,0.450001,0.20060235,-0.33209061,0.433871,0.19420879,-0.33824989,0.436546,0.20486949,-0.34361849,0.44326
0.30112172,-0.43133202,0.533264,0.27412499,-0.38082153,0.506744,0.29617461,-0.4142627,0.5373,0.2647527,-0.40039838,0.535682,0.23788036,-0.39190837,0.53431,0.22091689,-0.38128672,0.527926,0.24688621,-0.31915255,0.491266,0.19853983,-0.3092025,0.472321,0.1744379,-0.30643965,0.466116,0.14997596,-0.30536116,0.460476,0.24749224,-0.32266176,0.476419,0.18779667,-0.31691662,0.450304,0.17427824,-0.32430641,0.43507,0.18376706,-0.32969721,0.431608,0.24745194,-0.3286932,0.465766,0.19909349,-0.33934218,0.446707,0.19378659,-0.34597731,0.436957,0.20959165,-0.34921722,0.435085,0.2504294,-0.34219307,0.45611,0.20475122,-0.34158989,0.438447,0.19576281,-0.34490123,0.440989,0.2061985,-0.34899444,0.448191
0.29940825,-0.43588079,0.538689,0.2706844,-0.38468209,0.510214,0.29065992,-0.41506566,0.541733,0.25832131,-0.40192535,0.538773,0.23296843,-0.38613952,0.535894,0.21696222,-0.37232522,0.528518,0.24160205,-0.3209615,0.492052,0.19137909,-0.30811599,0.475973,0.16738634,-0.30252909,0.470008,0.14542349,-0.29743781,0.464585,0.23958343,-0.32601619,0.477653,0.18204866,-0.32153037,0.450269,0.16847112,-0.32874195,0.434296,0.17895126,-0.33098265,0.428802,0.24001596,-0.33245276,0.467483,0.19068916,-0.33931948,0.447143,0.18774768,-0.34676039,0.436736,0.20182056,-0.34675931,0.432661,0.24365916,-0.34660347,0.458645,0.19654044,-0.34256174,0.440089,0.18646041,-0.34687525,0.440792,0.19536445,-0.35163559,0.447595
0.29930978,-0.43662694,0.539777,0.27058591,-0.38494067,0.511492,0.29062343,-0.41585395,0.542893,0.25877473,-0.40142275,0.539798,0.23340263,-0.38557977,0.536883,0.21739252,-0.37174127,0.529498,0.24207844,-0.32153184,0.493562,0.19202829,-0.30799232,0.477505,0.16806433,-0.30250258,0.471702,0.14611369,-0.29749824,0.466426,0.24027708,-0.32588419,0.479148,0.18269644,-0.32147451,0.451796,0.16911281,-0.32879093,0.435841,0.17928312,-0.33209271,0.430702,0.24070453,-0.33231657,0.468955,0.19133953,-0.33926628,0.448642,0.18840584,-0.34679514,0.438249,0.20478877,-0.34771959,0.434554,0.24433021,-0.34644583,0.460066,0.19716213,-0.3424294,0.441496,0.18722325,-0.34705447,0.442562,0.19620301,-0.35194653,0.449511
0.30145187,-0.4357084,0.538065,0.26936253,-0.3842246,0.512503,0.29321778,-0.41745743,0.543102,0.25991675,-0.40212436,0.541617,0.23488986,-0.38705302,0.540018,0.218974,-0.37357817,0.53339,0.24234103,-0.323123,0.498956,0.19261605,-0.30629131,0.485918,0.16930978,-0.29943487,0.481014,0.14803718,-0.29318627,0.476555,0.24016709,-0.32580396,0.483274,0.18155804,-0.32095698,0.458827,0.1722573,-0.33406298,0.444567,0.18310861,-0.33888642,0.4404,0.23764965,-0.32878004,0.471877,0.19225521,-0.34098749,0.454659,0.19213096,-0.35139585,0.44585,0.20938518,-0.3529313,0.443291,0.24043575,-0.34061621,0.46121,0.19688881,-0.34212463,0.445184,0.18852245,-0.3487962,0.446623,0.19751334,-0.35319942,0.45282
0.30196579,-0.43739497,0.540012,0.27011249,-0.38468775,0.514463,0.29223694,-0.41772451,0.544975,0.26015747,-0.4028737,0.543,0.23455877,-0.3879566,0.54121,0.2181611,-0.37456135,0.534425,0.24115886,-0.32266613,0.500838,0.1930539,-0.30681914,0.487606,0.16970082,-0.30001638,0.482773,0.14837395,-0.29381489,0.478379,0.23883553,-0.32485271,0.485247,0.18212831,-0.32171254,0.460635,0.1725981,-0.33331055,0.446278,0.18375304,-0.33979762,0.442409,0.23852501,-0.32966114,0.473926,0.19127459,-0.34023046,0.456517,0.19305788,-0.35179424,0.447611,0.2107724,-0.35047287,0.445362,0.24143716,-0.34164648,0.463348,0.19577237,-0.34117157,0.44713,0.18952883,-0.34825964,0.448916,0.19935904,-0.35390225,0.455316
0.30262969,-0.43783018,0.541346,0.2720889,-0.38693153,0.518477,0.29669922,-0.42063006,0.548268,0.2632183,-0.40567482,0.547666,0.2371313,-0.39214984,0.546992,0.22050175,-0.37771879,0.540764,0.24427043,-0.32810812,0.509246,0.19684393,-0.31108286,0.499488,0.17459196,-0.30323857,0.49567,0.15438383,-0.2961129,0.492199,0.23717371,-0.32931395,0.492326,0.18519272,-0.33367365,0.471087,0.1847609,-0.34593352,0.458697,0.19663246,-0.35237078,0.45487,0.23462538,-0.33311512,0.479754,0.18701688,-0.34189666,0.465913,0.19270043,-0.3551244,0.458832,0.21495316,-0.35906088,0.456726,0.23519824,-0.34354852,0.467346,0.19871707,-0.34377146,0.454182,0.20791777,-0.34489976,0.455263,0.21936484,-0.34841506,0.460315
0.30362138,-0.44049373,0.545672,0.27451211,-0.39001964,0.523448,0.29816317,-0.42356943,0.553082,0.26222825,-0.40317417,0.543727,0.24052303,-0.3969334,0.551312,0.22368634,-0.3785824,0.54374,0.24523774,-0.33177861,0.515295,0.19981224,-0.31539561,0.506551,0.17762339,-0.30795297,0.503357,0.15743,-0.30118167,0.500454,0.23985073,-0.33224151,0.498035,0.18715149,-0.33604823,0.477794,0.18784042,-0.34921752,0.465986,0.20350183,-0.34869425,0.461834,0.23717465,-0.33549029,0.485145,0.19599723,-0.34985254,0.472349,0.20973019,-0.36088231,0.473497,0.23223172,-0.36044937,0.479122,0.23755588,-0.34529965,0.472277,0.20065249,-0.34704978,0.460045,0.20889475,-0.34847384,0.460565,0.21903214,-0.35231472,0.465071
0.30264093,-0.43975433,0.545915,0.27482862,-0.38949518,0.524731,0.29777663,-0.42348712,0.554031,0.26717494,-0.40517259,0.549986,0.24353,-0.39019997,0.553805,0.22674913,-0.37729227,0.548436,0.24672583,-0.33325234,0.518218,0.2022255,-0.31750584,0.511036,0.18018497,-0.31008164,0.507877,0.15957741,-0.30349212,0.505004,0.24091118,-0.33308262,0.500507,0.18805006,-0.33555493,0.481843,0.1898515,-0.35164586,0.470956,0.20535662,-0.35139951,0.466301,0.2378515,-0.33578692,0.487184,0.19633075,-0.35084223,0.476011,0.20916015,-0.36172785,0.475977,0.23129296,-0.3610119,0.480475,0.23770498,-0.34489275,0.47367,0.19923943,-0.34714578,0.462892,0.20111138,-0.34949654,0.462533,0.20645586,-0.35511098,0.466188
0.30265535,-0.4381085,0.54568,0.27544784,-0.38976868,0.527456,0.29895411,-0.4233141,0.555506,0.26897119,-0.40160935,0.55206,0.24498205,-0.39222626,0.558112,0.22862315,-0.37702665,0.554363,0.24456228,-0.33455317,0.525256,0.2017383,-0.32357983,0.521646,0.18036525,-0.31792677,0.519517,0.16104525,-0.31281058,0.517581,0.23587829,-0.33300981,0.506616,0.18662168,-0.34039173,0.490826,0.19295197,-0.35637551,0.481615,0.20914086,-0.35825317,0.47661,0.23061619,-0.33444184,0.492357,0.19350919,-0.35443638,0.48493,0.2093102,-0.3654181,0.483558,0.2323352,-0.36406294,0.48601,0.22814049,-0.34171986,0.477357,0.19314423,-0.3498426,0.469838,0.19917663,-0.35214554,0.468522,0.20716858,-0.35744556,0.470658
0.30340084,-0.43804753,0.547207,0.27537819,-0.38757238,0.528736,0.29963265,-0.4233029,0.556885,0.27070107,-0.39858042,0.553139,0.24624812,-0.39110049,0.559341,0.22960691,-0.37622464,0.555709,0.24666154,-0.33293339,0.526169,0.20567292,-0.31873965,0.522366,0.18436625,-0.31253115,0.520046,0.16378548,-0.31011085,0.517936,0.23788183,-0.33145718,0.507614,0.18977176,-0.33968883,0.489719,0.19626792,-0.35400363,0.479281,0.21071423,-0.35492966,0.473545,0.23252457,-0.33297646,0.493439,0.19494372,-0.3525468,0.485811,0.2090071,-0.36260907,0.484212,0.23110457,-0.36190789,0.486653,0.22990314,-0.34042872,0.47857,0.19458181,-0.34818518,0.470902,0.20045668,-0.35050836,0.469407,0.20768702,-0.35628302,0.471526
0.30381471,-0.43712587,0.548118,0.27554454,-0.38299065,0.529332,0.30013897,-0.42238622,0.557644,0.27285329,-0.39669464,0.554722,0.24881148,-0.38695983,0.560811,0.23096042,-0.37614954,0.557824,0.25008167,-0.32923623,0.526343,0.20944427,-0.31145672,0.521969,0.18767026,-0.30526108,0.519683,0.16632471,-0.3037923,0.517605,0.24123717,-0.32768078,0.50785,0.19339169,-0.33970877,0.492081,0.20144461,-0.3534126,0.482883,0.21778098,-0.35299753,0.478342,0.23576543,-0.32918722,0.493744,0.1969565,-0.34759436,0.485509,0.21081103,-0.35880858,0.484719,0.23251597,-0.35742931,0.487728,0.23288296,-0.33673875,0.478997,0.19665933,-0.34347972,0.47075,0.20238993,-0.34664309,0.469864,0.20898,-0.3516121,0.472423
0.30361674,-0.4338334,0.54668,0.27659097,-0.37917614,0.528882,0.30052285,-0.41965758,0.556761,0.27670046,-0.39262488,0.560852,0.26080667,-0.37098198,0.564146,0.25561159,-0.3496102,0.560842,0.25532904,-0.32283568,0.527313,0.21031384,-0.30983179,0.521341,0.18843132,-0.30302996,0.518348,0.16837683,-0.29800308,0.515628,0.24468512,-0.32435159,0.50853,0.20126292,-0.33557562,0.490158,0.20711858,-0.34881002,0.479441,0.21999,-0.34795337,0.474703,0.23887951,-0.32613511,0.494127,0.19992287,-0.34416937,0.486727,0.21109802,-0.35713553,0.486679,0.23190273,-0.35965985,0.488868,0.23529871,-0.33395722,0.478904,0.198695,-0.33964715,0.471299,0.20398932,-0.34416667,0.470997,0.20982844,-0.35130521,0.473556
0.30959278,-0.43406814,0.554581,0.28159128,-0.37545332,0.532884,0.30731826,-0.41220022,0.562067,0.27926043,-0.38644002,0.563244,0.26062896,-0.36450532,0.56421,0.25353308,-0.34583133,0.559182,0.25778938,-0.31741499,0.525225,0.20825297,-0.31290989,0.512013,0.2096476,-0.32963081,0.514825,0.22931543,-0.33877866,0.521162,0.25201105,-0.32036339,0.508073,0.1976705,-0.32117072,0.48766,0.20018472,-0.33326285,0.475752,0.2169304,-0.3341507,0.473006,0.24889843,-0.32548098,0.495241,0.20637671,-0.33819512,0.48222,0.2118994,-0.35475877,0.485334,0.23461635,-0.35926948,0.491746,0.24849843,-0.33714484,0.482379,0.20991629,-0.33707599,0.469813,0.21592958,-0.3413507,0.471837,0.2234649,-0.34732176,0.477045
0.3132248,-0.4311598,0.558751,0.28418137,-0.37569761,0.535673,0.3093885,-0.4096896,0.565421,0.28087662,-0.38676332,0.565488,0.26190281,-0.36391702,0.565375,0.25324313,-0.34187268,0.559468,0.25919247,-0.31669181,0.525982,0.20935721,-0.31142488,0.512045,0.21039582,-0.32794968,0.514523,0.23000687,-0.33732402,0.521013,0.25362292,-0.31993078,0.509284,0.19981294,-0.32202322,0.4875,0.20697297,-0.33328862,0.474793,0.2199018,-0.33248379,0.471437,0.25070518,-0.32537156,0.496907,0.20722033,-0.33695158,0.482478,0.21510183,-0.35055591,0.485194,0.2354551,-0.35836232,0.492033,0.2505928,-0.33760558,0.48476,0.21117533,-0.33659485,0.471043,0.21792156,-0.34051887,0.472737,0.22687404,-0.3464502,0.478222
0.3179581,-0.4335604,0.564138,0.29918478,-0.37492898,0.539476,0.31442297,-0.40813972,0.569508,0.29339875,-0.38699186,0.567603,0.27401357,-0.36308065,0.566157,0.26511782,-0.3405283,0.559493,0.27140509,-0.31613548,0.527017,0.22239159,-0.31553514,0.51433,0.22657082,-0.33241766,0.518075,0.24722158,-0.3401557,0.524578,0.26633537,-0.31998491,0.511276,0.21625794,-0.32806107,0.48726,0.22026143,-0.3369076,0.47325,0.23630943,-0.33689764,0.470246,0.26386835,-0.32604392,0.499778,0.21846066,-0.33586131,0.482954,0.22642093,-0.35040565,0.486845,0.24965015,-0.35600322,0.49488,0.26438727,-0.33926583,0.488881,0.22305637,-0.33668489,0.473081,0.23084207,-0.34111817,0.475636,0.24150985,-0.3475819,0.482187
0.33073571,-0.42671528,0.568782,0.31126168,-0.37691888,0.542205,0.33042559,-0.40701361,0.573052,0.30505046,-0.388307,0.56928,0.28470828,-0.36337288,0.566205,0.27512987,-0.34021545,0.558502,0.28151118,-0.31630003,0.526964,0.23175113,-0.31488443,0.512636,0.23537432,-0.3309818,0.515273,0.25601221,-0.33875051,0.521981,0.2768071,-0.32051681,0.511815,0.22558129,-0.32764367,0.486134,0.22872346,-0.33568176,0.471153,0.2438811,-0.33467301,0.466882,0.27472993,-0.32697504,0.500917,0.22815514,-0.3357879,0.482379,0.23541957,-0.34940645,0.485068,0.25869862,-0.35508485,0.493334,0.27590554,-0.34088702,0.490973,0.2333507,-0.33750611,0.47383,0.2404819,-0.34121539,0.475432,0.2511373,-0.34771083,0.482087
0.33761084,-0.42430932,0.566683,0.31356784,-0.37439956,0.542392,0.33218096,-0.40551676,0.571831,0.3068355,-0.38840359,0.570971,0.28728488,-0.36507167,0.570223,0.27827589,-0.3427744,0.564204,0.288414,-0.31212124,0.529951,0.23935952,-0.30851854,0.516731,0.24158457,-0.32810255,0.522021,0.2606099,-0.34083641,0.529352,0.28491504,-0.31427953,0.514616,0.23319322,-0.32332381,0.490311,0.23552497,-0.33379086,0.476133,0.24980665,-0.33753298,0.474307,0.28366041,-0.31909447,0.503431,0.23636656,-0.33024783,0.486177,0.24364984,-0.34798719,0.491757,0.26495366,-0.35783753,0.500953,0.28547525,-0.33114304,0.492865,0.2417737,-0.33043699,0.476596,0.24877416,-0.3375772,0.480441,0.25880533,-0.34590212,0.487657
0.3360281,-0.42009229,0.561642,0.31553515,-0.36915234,0.540423,0.33708145,-0.40295599,0.569709,0.31090512,-0.38843538,0.572885,0.291125,-0.36902552,0.576065,0.28254586,-0.34796572,0.572134,0.29999864,-0.30951897,0.533827,0.25621259,-0.29224309,0.526371,0.23467108,-0.28371976,0.522642,0.21997049,-0.29474626,0.521347,0.28759042,-0.31285161,0.51616,0.23925202,-0.3177837,0.496612,0.23978622,-0.33204253,0.485208,0.25450812,-0.33785648,0.48082,0.28270507,-0.31651527,0.502877,0.23729288,-0.32534193,0.491418,0.24319159,-0.34603464,0.49206,0.2629024,-0.35451251,0.496573,0.27606387,-0.32504422,0.489414,0.2377497,-0.32461953,0.478342,0.24737933,-0.33503092,0.478497,0.25474578,-0.34487759,0.482454
0.34194307,-0.41980002,0.562123,0.32541257,-0.36821399,0.540888,0.34064042,-0.40289406,0.570153,0.32159568,-0.38777969,0.572228,0.30160053,-0.36907808,0.575483,0.29188041,-0.34829655,0.571456,0.30879599,-0.30975437,0.534233,0.26479297,-0.29237301,0.526605,0.24315295,-0.28380065,0.522791,0.22853431,-0.29497523,0.521752,0.29824717,-0.31076312,0.516605,0.24763697,-0.31800446,0.496957,0.24783667,-0.33223893,0.485495,0.25872372,-0.3382563,0.481389,0.29095988,-0.31459381,0.503354,0.24579986,-0.32554121,0.491719,0.25117946,-0.3443715,0.492773,0.2688157,-0.35378184,0.497602,0.28440504,-0.32728096,0.489933,0.24619727,-0.32484891,0.47868,0.25544894,-0.33430848,0.479148,0.2653778,-0.34503125,0.48329
0.3431872,-0.41937339,0.561735,0.32232404,-0.36804507,0.540771,0.34248168,-0.40256632,0.569964,0.32209573,-0.38683578,0.571912,0.30331205,-0.36677095,0.574847,0.29469568,-0.3455121,0.57066,0.30860623,-0.30988387,0.534562,0.26485897,-0.29295444,0.527432,0.24332746,-0.28459976,0.523866,0.22591432,-0.29560254,0.522552,0.29797721,-0.31064748,0.516798,0.24771838,-0.31837063,0.497581,0.24814352,-0.33284638,0.48637,0.25855509,-0.33774282,0.481955,0.2906248,-0.3142681,0.50342,0.24585664,-0.32576559,0.4923,0.25253416,-0.34394307,0.4928,0.27388493,-0.35198252,0.496814,0.28431482,-0.32622375,0.489811,0.24614463,-0.32483041,0.479035,0.25523285,-0.3340627,0.479088,0.26239214,-0.34465023,0.482901
0.34758089,-0.4186943,0.561527,0.33579435,-0.36795112,0.540895,0.35391637,-0.40171128,0.569928,0.33313773,-0.38801876,0.572901,0.31503325,-0.36801927,0.576457,0.30303757,-0.34583476,0.572992,0.31917437,-0.31016182,0.535147,0.2753862,-0.29350416,0.528202,0.25383347,-0.28528426,0.52473,0.23932596,-0.29666159,0.523806,0.30853065,-0.31071911,0.517302,0.25821016,-0.31900993,0.498632,0.25853607,-0.33379328,0.487741,0.27255608,-0.33810992,0.483812,0.30117282,-0.31416261,0.503838,0.25629805,-0.32601172,0.492914,0.26465937,-0.34425408,0.493887,0.28669906,-0.35028845,0.497688,0.29517401,-0.32445854,0.490087,0.25637696,-0.3248445,0.479438,0.26552435,-0.3343942,0.479856,0.27533615,-0.34506085,0.483766
0.36349227,-0.4331331,0.582902,0.35878378,-0.3799997,0.558498,0.3693452,-0.41271512,0.588806,0.34902826,-0.39801311,0.592237,0.32144995,-0.39053154,0.594285,0.3003916,-0.38165119,0.589919,0.35003427,-0.32056147,0.546876,0.30103175,-0.30951927,0.53537,0.27704407,-0.30405166,0.529618,0.26582052,-0.31662899,0.528247,0.33892561,-0.32712632,0.530593,0.28171169,-0.32216975,0.507626,0.2748343,-0.33192922,0.494228,0.28771744,-0.3357553,0.490049,0.3308104,-0.33523716,0.518635,0.27909049,-0.33508226,0.502988,0.28817969,-0.35360251,0.504955,0.3108967,-0.36017574,0.509815,0.32311565,-0.3505451,0.507152,0.28060984,-0.33938534,0.492473,0.28242969,-0.34855518,0.493571,0.29109423,-0.36023096,0.499162
0.37631137,-0.43557043,0.588994,0.3721736,-0.38283151,0.56266,0.38440866,-0.41234685,0.593599,0.36162749,-0.40007361,0.595303,0.33180815,-0.39634568,0.595742,0.30938485,-0.38996288,0.590411,0.36145325,-0.32122208,0.548003,0.31097051,-0.30895732,0.534398,0.28636469,-0.30289084,0.527596,0.27469084,-0.31497466,0.525487,0.35088533,-0.3283304,0.532546,0.2917708,-0.32210628,0.507526,0.28368648,-0.33105747,0.49293,0.29593706,-0.33440351,0.488076,0.34328631,-0.33701148,0.52138,0.28971141,-0.33546998,0.50357,0.29852445,-0.35381539,0.505259,0.31921481,-0.35804216,0.506795,0.33636166,-0.35326222,0.511083,0.29198019,-0.34086563,0.494621,0.29344093,-0.34989553,0.495469,0.30237648,-0.36198463,0.501592
0.39794619,-0.44139879,0.603563,0.39005783,-0.39417863,0.572643,0.39871141,-0.4171613,0.604285,0.36685822,-0.40411975,0.600054,0.33890342,-0.39144674,0.595925,0.31736806,-0.37759256,0.587804,0.3811755,-0.32953803,0.549831,0.32683492,-0.32501024,0.529938,0.30057567,-0.32258055,0.519992,0.29283385,-0.33548993,0.517383,0.37424792,-0.33989839,0.537286,0.30864096,-0.32674325,0.50644,0.28209413,-0.32854867,0.488446,0.28809045,-0.33262317,0.483387,0.36937289,-0.35130526,0.528784,0.31094069,-0.33084831,0.504606,0.30025475,-0.34037393,0.507829,0.31601791,-0.35442358,0.51888,0.36516508,-0.3709372,0.52225,0.31374265,-0.35165209,0.500393,0.29954133,-0.35487256,0.502311,0.3079531,-0.36814306,0.510747
0.40679616,-0.4421326,0.604244,0.40183322,-0.39479232,0.57335,0.40795088,-0.41792284,0.604872,0.38070407,-0.40471352,0.600369,0.35030951,-0.39050745,0.595802,0.32876537,-0.37626696,0.587429,0.39362825,-0.33014649,0.550446,0.33866959,-0.32491983,0.530368,0.31211243,-0.32215243,0.52033,0.30409696,-0.33513729,0.517968,0.38656681,-0.34063562,0.538023,0.32008196,-0.32674487,0.507037,0.29362302,-0.32881312,0.488962,0.29556924,-0.33363555,0.484172,0.38155554,-0.35215081,0.529621,0.32285958,-0.33096941,0.505266,0.31202221,-0.34057777,0.508897,0.32770855,-0.35490824,0.520182,0.37712542,-0.37191152,0.523204,0.32496909,-0.35195425,0.501172,0.31281954,-0.35534065,0.5034,0.31915262,-0.36816145,0.512018
0.41422252,-0.44217859,0.604336,0.40409265,-0.39415833,0.572516,0.4202996,-0.41766656,0.604574,0.38772324,-0.40393956,0.600136,0.35748837,-0.39025635,0.596163,0.33261669,-0.37658849,0.588164,0.39377702,-0.32896547,0.548436,0.33841435,-0.32266718,0.528024,0.31168926,-0.31937834,0.517818,0.30258111,-0.33130759,0.514152,0.38677055,-0.33967244,0.536129,0.32011527,-0.32606482,0.504759,0.29400254,-0.32791758,0.486459,0.29744748,-0.33343989,0.480345,0.38191027,-0.35138134,0.527877,0.32189715,-0.33179141,0.503155,0.31429279,-0.34267601,0.505105,0.33282773,-0.35533606,0.515867,0.37788003,-0.37140967,0.521752,0.3256505,-0.35162006,0.499539,0.31295453,-0.35411653,0.500471,0.31938463,-0.36641745,0.50865
0.41096582,-0.44016058,0.601746,0.40337618,-0.39249694,0.570742,0.4145088,-0.41588708,0.601943,0.38414742,-0.39989699,0.59651,0.35394276,-0.38094811,0.591445,0.3344196,-0.36479666,0.582866,0.39293654,-0.32746689,0.547237,0.33748274,-0.32155572,0.526449,0.31071134,-0.31844619,0.516055,0.30270935,-0.3308206,0.514226,0.38701071,-0.33825213,0.535288,0.32028319,-0.32525209,0.503751,0.29587498,-0.32726752,0.485354,0.29921643,-0.3331446,0.481166,0.38457095,-0.34974595,0.527282,0.32444773,-0.337696,0.502245,0.33074131,-0.34851689,0.506864,0.34142241,-0.36345019,0.51882,0.38451335,-0.36816027,0.521356,0.33127036,-0.34885471,0.498695,0.32286518,-0.35090455,0.501671,0.3348231,-0.35853243,0.5108
0.42202904,-0.44165487,0.606007,0.41666272,-0.39070412,0.575838,0.42178839,-0.41672299,0.605548,0.3859442,-0.40173293,0.598283,0.35479245,-0.38691795,0.590512,0.33400857,-0.36824536,0.580783,0.40784594,-0.32623532,0.552189,0.35520236,-0.30676801,0.530504,0.33990509,-0.31717548,0.519661,0.35036838,-0.32758821,0.519696,0.40552599,-0.33807243,0.54134,0.33838445,-0.32738239,0.50944,0.3097455,-0.32987693,0.490832,0.31399456,-0.33724088,0.488699,0.40422534,-0.35062546,0.534189,0.34174668,-0.33986097,0.508401,0.34763324,-0.35181033,0.515915,0.35739205,-0.36698057,0.529318,0.40386185,-0.37147978,0.529193,0.34902565,-0.34957162,0.505741,0.3541794,-0.35355893,0.51093,0.37442685,-0.36242498,0.520793
0.43368776,-0.43320928,0.580806,0.41667641,-0.38822517,0.573688,0.42238533,-0.42520322,0.589912,0.39577596,-0.41451489,0.593898,0.37158176,-0.40283536,0.597064,0.35785706,-0.3883765,0.597104,0.3933247,-0.34335665,0.57913,0.35718989,-0.35175499,0.563064,0.35410066,-0.36685038,0.555031,0.37214962,-0.38052287,0.562138,0.40072541,-0.33538458,0.565549,0.36795433,-0.29027921,0.550378,0.34253437,-0.28595685,0.541528,0.34267032,-0.30646715,0.549413,0.40773748,-0.33147264,0.554798,0.37110014,-0.34157664,0.543608,0.3859288,-0.37134746,0.559363,0.40273157,-0.39350839,0.572253,0.41810452,-0.33219215,0.542693,0.38437079,-0.3379386,0.535959,0.3892732,-0.35735273,0.548099,0.40449766,-0.36367098,0.556779
0.43914712,-0.43878521,0.587925,0.41668482,-0.38727046,0.57253,0.42409712,-0.42723419,0.592375,0.3933265,-0.41181969,0.589764,0.36655664,-0.39698189,0.588233,0.35118349,-0.3805378,0.58501,0.38494126,-0.33574203,0.566065,0.34556031,-0.33927155,0.543011,0.34015426,-0.35137417,0.531484,0.35605592,-0.3633808,0.536606,0.39407104,-0.32927669,0.554926,0.3593359,-0.28246447,0.535471,0.33332345,-0.27669484,0.524123,0.33311158,-0.29608853,0.530932,0.40291531,-0.32685925,0.546668,0.36684947,-0.32786905,0.532302,0.37845907,-0.35879539,0.548006,0.3929806,-0.38393254,0.56008,0.41635239,-0.32996855,0.538564,0.37687925,-0.33242944,0.524289,0.38238307,-0.35074331,0.535985,0.39852626,-0.35688095,0.545545
0.44032895,-0.43994689,0.589452,0.41789916,-0.3877092,0.573402,0.42485684,-0.42789322,0.593368,0.39374958,-0.41178116,0.590001,0.36690534,-0.39657196,0.588133,0.35157693,-0.37997337,0.584787,0.38536446,-0.3354379,0.565797,0.34581072,-0.33849645,0.542227,0.34013057,-0.3504184,0.530442,0.35580225,-0.36241834,0.535478,0.39488903,-0.32930531,0.55505,0.359979,-0.28196112,0.534829,0.3338735,-0.27583525,0.523033,0.33358309,-0.29508548,0.529702,0.40408155,-0.32718922,0.547153,0.36723581,-0.32739249,0.531948,0.37872422,-0.35831672,0.547699,0.39284616,-0.38338877,0.560131,0.41798248,-0.3307248,0.539562,0.37773368,-0.33313233,0.524589,0.38319198,-0.35139329,0.536308,0.39939835,-0.35784938,0.546121
0.43157133,-0.43143333,0.578266,0.41335031,-0.38333338,0.567312,0.41823697,-0.42190648,0.585068,0.39514848,-0.40592975,0.591501,0.36987932,-0.38564756,0.586616,0.35695761,-0.36766584,0.582523,0.38553594,-0.33609904,0.567061,0.36345325,-0.29185343,0.550852,0.35310842,-0.27022086,0.542748,0.3411824,-0.26840537,0.541786,0.39434904,-0.32890417,0.554787,0.36357587,-0.28411646,0.539962,0.34353012,-0.26044628,0.531314,0.3376625,-0.26853704,0.539564,0.40264223,-0.32572695,0.545335,0.37030318,-0.33007397,0.535604,0.38174851,-0.36272212,0.551806,0.39446729,-0.3849344,0.562209,0.41483222,-0.32754403,0.535257,0.37836654,-0.33348998,0.524853,0.3835444,-0.35259058,0.537016,0.39745047,-0.3613363,0.545394
0.44058558,-0.44140835,0.590697,0.41852618,-0.38787307,0.573647,0.42436301,-0.42892573,0.594021,0.39699409,-0.412344,0.594332,0.37116516,-0.38675504,0.587579,0.35683323,-0.36707985,0.580824,0.3865257,-0.33478702,0.564568,0.36311605,-0.29105902,0.547322,0.35172643,-0.26950629,0.538699,0.34229847,-0.26867818,0.541311,0.39830925,-0.32896344,0.55415,0.36277693,-0.32756601,0.532879,0.36149531,-0.34386479,0.520471,0.37654244,-0.35140572,0.526802,0.41144303,-0.32754899,0.546584,0.37844954,-0.3094942,0.528856,0.3819511,-0.33990803,0.544398,0.39610215,-0.36317338,0.557766,0.42652093,-0.3317203,0.539511,0.38827338,-0.32995565,0.523646,0.38325683,-0.35053959,0.535245,0.39724952,-0.35999509,0.545327
0.43646226,-0.44194027,0.595559,0.42246094,-0.39115975,0.578727,0.42509613,-0.42901389,0.598116,0.39985576,-0.40465658,0.598719,0.37809199,-0.37742472,0.592054,0.36814888,-0.35584107,0.585869,0.39719505,-0.33345673,0.568898,0.37060607,-0.29326679,0.552738,0.3571325,-0.27185656,0.544658,0.34561136,-0.26920311,0.543095,0.41031592,-0.32992234,0.55948,0.37459156,-0.32679336,0.535682,0.36867335,-0.34270301,0.5218,0.37925819,-0.35171112,0.527969,0.42182488,-0.33002216,0.552723,0.39764049,-0.29336793,0.531411,0.39958507,-0.32032315,0.547475,0.41024637,-0.34694259,0.562497,0.43736089,-0.33638089,0.5466,0.39957391,-0.33137798,0.53029,0.39581063,-0.35065968,0.542412,0.40257053,-0.36541512,0.552853
0.43875409,-0.44004811,0.589013,0.42757984,-0.38918582,0.577387,0.4223257,-0.42714425,0.592004,0.40400824,-0.40564033,0.594086,0.37750245,-0.3809512,0.586352,0.36515369,-0.35720098,0.581591,0.40050442,-0.33560461,0.572063,0.37984311,-0.29708036,0.555764,0.36888804,-0.27744335,0.547615,0.3573103,-0.27597512,0.540207,0.41523588,-0.33175576,0.564093,0.38603308,-0.29751195,0.544013,0.37814146,-0.31304726,0.532299,0.3905265,-0.33303551,0.54094,0.42989244,-0.3295462,0.558221,0.40601762,-0.29726814,0.539445,0.41486246,-0.32341446,0.557636,0.42130212,-0.35239624,0.572485,0.44735282,-0.33366056,0.552539,0.41482461,-0.33220792,0.53915,0.4128905,-0.35069742,0.553022,0.41098323,-0.37113069,0.563113
0.43925509,-0.44034172,0.589819,0.42584353,-0.38949103,0.578252,0.42317117,-0.42773966,0.593327,0.40080354,-0.40314957,0.594422,0.37543343,-0.37471792,0.58676,0.36453525,-0.35594632,0.58099,0.40256215,-0.33597296,0.573591,0.38323543,-0.29810903,0.558397,0.37295343,-0.278927,0.5508,0.36111771,-0.27809732,0.543894,0.41816346,-0.33092399,0.565024,0.38890196,-0.32046569,0.544996,0.38244655,-0.33876829,0.533312,0.39464706,-0.35250732,0.541768,0.43072533,-0.32964103,0.558659,0.40167319,-0.30783097,0.539725,0.41843949,-0.33734665,0.557637,0.4384142,-0.36394132,0.572438,0.44729567,-0.33380556,0.552375,0.41808328,-0.31542967,0.539346,0.43210896,-0.33629171,0.553033,0.44928615,-0.35410194,0.562926
0.44101553,-0.44075049,0.590582,0.43244749,-0.38721168,0.578456,0.42445192,-0.42800135,0.593716,0.41362365,-0.40674478,0.59659,0.38937968,-0.38064037,0.587967,0.37729503,-0.36036599,0.583541,0.40277632,-0.33607077,0.57292,0.38553215,-0.29749403,0.557153,0.38006553,-0.28094378,0.555198,0.37776283,-0.26489734,0.55342,0.41849149,-0.33108411,0.56459,0.38972315,-0.31837597,0.544023,0.38250001,-0.33654738,0.532025,0.39406962,-0.35076608,0.54034,0.43132179,-0.32970623,0.558451,0.40317644,-0.3081548,0.54012,0.41981562,-0.33790725,0.558072,0.43938392,-0.36377662,0.572646,0.44837594,-0.33379205,0.552508,0.42338881,-0.32511353,0.538865,0.4379002,-0.34752137,0.552522,0.45550899,-0.36478722,0.562619
0.44308113,-0.44164868,0.591958,0.43447507,-0.38818441,0.57966,0.42618273,-0.42883602,0.594894,0.41385741,-0.40756255,0.596915,0.38862838,-0.3813535,0.587406,0.37587752,-0.36091119,0.582454,0.4048362,-0.33700015,0.573755,0.38728105,-0.29814195,0.558258,0.38206855,-0.28134484,0.556296,0.37936105,-0.26517475,0.554513,0.41983583,-0.33188736,0.565597,0.39112855,-0.32189191,0.544865,0.38436684,-0.33976224,0.532771,0.39570574,-0.3520393,0.541077,0.43286336,-0.3304853,0.55961,0.40538462,-0.30902047,0.541922,0.42186485,-0.33865011,0.559957,0.44110712,-0.3647075,0.574304,0.45022502,-0.33455996,0.55387,0.42732491,-0.3326662,0.538961,0.4440473,-0.3563677,0.552674,0.46241964,-0.37161464,0.563238
0.44598189,-0.4433957,0.594439,0.43487006,-0.38799046,0.579221,0.42756149,-0.42937491,0.595673,0.41339663,-0.40617808,0.595487,0.38722845,-0.37841664,0.583979,0.37502892,-0.35804985,0.579191,0.40191103,-0.33438019,0.569044,0.38324585,-0.29448369,0.551417,0.38270473,-0.27986402,0.553767,0.38109721,-0.26575095,0.555904,0.41748695,-0.32977452,0.561819,0.39038624,-0.32650134,0.538309,0.40838151,-0.36403306,0.559083,0.4234193,-0.37675872,0.574108,0.431173,-0.32887767,0.55677,0.40266046,-0.3064064,0.537261,0.4188072,-0.3356353,0.554981,0.43829921,-0.36205718,0.569937,0.44970181,-0.33376509,0.552512,0.42477399,-0.32979978,0.535444,0.44095196,-0.35313032,0.54881,0.45964204,-0.36905268,0.560001
0.43954249,-0.4362539,0.584805,0.43293242,-0.38543938,0.574504,0.42179216,-0.42290754,0.586643,0.41071162,-0.40269156,0.590141,0.3887577,-0.37487773,0.580282,0.37850848,-0.3542226,0.575397,0.40381791,-0.33522913,0.568815,0.38777111,-0.29652714,0.55472,0.38617641,-0.28090664,0.555763,0.38292781,-0.26621358,0.556712,0.42025374,-0.33115965,0.562724,0.39404198,-0.32313616,0.544006,0.41194405,-0.36318663,0.566726,0.42639195,-0.3792437,0.580628,0.43450355,-0.33053708,0.55832,0.41684114,-0.30315021,0.543777,0.42556643,-0.33197756,0.563159,0.43916946,-0.3628382,0.576775,0.45332607,-0.33541269,0.554249,0.42930979,-0.33278619,0.540896,0.44632832,-0.35692291,0.555516,0.46445646,-0.37270959,0.565885
0.4422943,-0.43558611,0.584724,0.43485725,-0.38519415,0.574688,0.42380747,-0.42230594,0.586139,0.41266183,-0.40086792,0.589494,0.39126918,-0.3731172,0.579765,0.37885397,-0.35266338,0.574617,0.40437738,-0.33474857,0.568696,0.38928542,-0.29615046,0.554749,0.38663949,-0.28049709,0.555397,0.3832013,-0.26576462,0.555986,0.4219335,-0.33094101,0.563212,0.39779599,-0.32351233,0.544793,0.41581204,-0.36384774,0.567806,0.43013012,-0.3812227,0.581691,0.43658842,-0.33058182,0.559291,0.41970194,-0.30339253,0.545235,0.42902864,-0.33289094,0.564875,0.44231873,-0.36432397,0.578397,0.45589635,-0.33575633,0.555771,0.43214662,-0.33260395,0.542328,0.44795879,-0.35733843,0.557122,0.46572039,-0.37386273,0.567589
0.44538359,-0.43662928,0.586263,0.43743352,-0.38587774,0.575895,0.42605284,-0.42256772,0.586683,0.41477277,-0.39971403,0.588844,0.39371772,-0.37100405,0.57911,0.38127474,-0.35028347,0.572548,0.40840704,-0.33410407,0.56846,0.39715533,-0.29504611,0.553643,0.39565465,-0.27987862,0.554577,0.39005402,-0.26527707,0.555426,0.42717722,-0.33032475,0.56404,0.40306062,-0.32407308,0.545381,0.42134177,-0.36461187,0.568662,0.43331972,-0.38231785,0.582719,0.44267197,-0.33054637,0.561014,0.4274417,-0.31050523,0.546351,0.43743178,-0.342369,0.566198,0.44639119,-0.36838273,0.580047,0.46546793,-0.33788726,0.558612,0.44207136,-0.33525573,0.544435,0.45333854,-0.35819185,0.559362,0.46865408,-0.37613039,0.57014
0.44835794,-0.4371483,0.587473,0.4387433,-0.38631875,0.576314,0.429766,-0.42307907,0.587466,0.41534205,-0.39944394,0.588309,0.39396191,-0.3705911,0.577796,0.38161122,-0.34957754,0.571437,0.41162222,-0.33387562,0.567761,0.39652997,-0.29469777,0.552081,0.39538789,-0.27975292,0.553418,0.39426244,-0.26551964,0.554633,0.42978672,-0.33132968,0.563553,0.40561401,-0.32141779,0.544138,0.42300581,-0.36189061,0.567288,0.43428328,-0.38058871,0.581578,0.44548437,-0.33198749,0.560748,0.43032082,-0.30125148,0.544962,0.44001741,-0.32951944,0.564676,0.44523639,-0.35890974,0.578927,0.46610416,-0.33848439,0.558707,0.44232015,-0.33544845,0.543846,0.45573398,-0.35924532,0.55867,0.46886471,-0.37649928,0.569648
0.44909932,-0.43727209,0.587481,0.43932165,-0.38631869,0.576143,0.43039172,-0.42315037,0.58744,0.41587049,-0.39946179,0.588253,0.39443373,-0.37071362,0.577652,0.38227857,-0.34958142,0.571469,0.41149917,-0.3338527,0.567412,0.39632467,-0.29458394,0.551565,0.39527627,-0.27969497,0.553,0.3942362,-0.2655072,0.554304,0.4296508,-0.33128867,0.563178,0.40541007,-0.32026723,0.543585,0.42263474,-0.36068734,0.566683,0.43449566,-0.37996763,0.581021,0.44534384,-0.33193753,0.560362,0.42988021,-0.30094302,0.544404,0.43954908,-0.32916872,0.564075,0.44608101,-0.35817394,0.578377,0.46597474,-0.33843544,0.558329,0.44215612,-0.33532542,0.543346,0.45543225,-0.35897885,0.558135,0.46888822,-0.37666092,0.569142
0.45299911,-0.43831891,0.588441,0.44303882,-0.38617278,0.575995,0.43287084,-0.42403319,0.588386,0.41896316,-0.39973025,0.58902,0.39679336,-0.37130658,0.578628,0.38350251,-0.34990108,0.572413,0.41173086,-0.33338466,0.5664,0.39579094,-0.29370095,0.549734,0.39504614,-0.27911682,0.5517,0.39427506,-0.26517946,0.553487,0.42953662,-0.3306002,0.561764,0.404646,-0.3161103,0.541058,0.42085395,-0.35595375,0.563746,0.43516693,-0.37732167,0.578357,0.44498104,-0.33110479,0.558682,0.42854941,-0.29953662,0.541712,0.43783379,-0.32754415,0.561039,0.44720323,-0.35586337,0.575612,0.46540877,-0.33750481,0.556462,0.4408236,-0.33402102,0.540843,0.45374491,-0.3574316,0.555363,0.46730743,-0.37538989,0.566489
0.45485645,-0.43980916,0.589972,0.44456376,-0.38705075,0.575741,0.4342286,-0.42495647,0.589289,0.41942582,-0.39994558,0.588978,0.39727224,-0.37144747,0.578763,0.38399097,-0.34975568,0.57227,0.41140931,-0.33260372,0.564026,0.39455274,-0.29230143,0.546116,0.39439522,-0.27871205,0.549119,0.39355584,-0.26546355,0.551848,0.42921384,-0.32994663,0.559467,0.40387365,-0.31023015,0.537042,0.41835039,-0.34867049,0.559241,0.43245348,-0.37363689,0.57432,0.44474411,-0.33061851,0.556553,0.42770063,-0.30561138,0.538843,0.43370796,-0.33659564,0.557807,0.44227795,-0.363422,0.572534,0.46546199,-0.33735951,0.55475,0.43899537,-0.33265554,0.537793,0.45168531,-0.35592378,0.551966,0.4680747,-0.37616893,0.56343
0.45571329,-0.43996761,0.589655,0.44468983,-0.3870816,0.575303,0.4351832,-0.42506019,0.589051,0.41964681,-0.40000573,0.588827,0.39765466,-0.37160041,0.578945,0.3846348,-0.34989983,0.572577,0.41163887,-0.33254686,0.563592,0.39469631,-0.29218574,0.545577,0.39427298,-0.27872503,0.54835,0.39315902,-0.26570885,0.550871,0.42932071,-0.32985491,0.558892,0.40362035,-0.30933037,0.536341,0.41788321,-0.34752654,0.558457,0.43189244,-0.37270226,0.573556,0.44474702,-0.33050353,0.55587,0.42714183,-0.3052121,0.538139,0.43403694,-0.33589663,0.557038,0.4430185,-0.36285158,0.571748,0.46533612,-0.33722592,0.553951,0.43876356,-0.3324931,0.536971,0.45144946,-0.35581434,0.551094,0.46787002,-0.3759444,0.562546
