sluyters/QuantumLeap/backend/src/datasets/gesture/HandGestureDataset_SHREC2017_csv/Gesture8/finger_1/subject_19_essai_1_skeletons_world.csv
Wrist_x,Wrist_y,Wrist_z,Palm_x,Palm_y,Palm_z,thumb_base_x,thumb_base_y,thumb_base_z,thumb_first_joint_x,thumb_first_joint_y,thumb_first_joint_z,thumb_second_joint_x,thumb_second_joint_y,thumb_second_joint_z,thumb_tip_x,thumb_tip_y,thumb_tip_z,index_base_x,index_base_y,index_base_z,index_first_joint_x,index_first_joint_y,index_first_joint_z,index_second_joint_x,index_second_joint_y,index_second_joint_z,index_tip_x,index_tip_y,index_tip_z,middle_base_x,middle_base_y,middle_base_z,middle_first_joint_x,middle_first_joint_y,middle_first_joint_z,middle_second_joint_x,middle_second_joint_y,middle_second_joint_z,middle_tip_x,middle_tip_y,middle_tip_z,ring_base_x,ring_base_y,ring_base_z,ring_first_joint_x,ring_first_joint_y,ring_first_joint_z,ring_second_joint_x,ring_second_joint_y,ring_second_joint_z,ring_tip_x,ring_tip_y,ring_tip_z,pinky_base_x,pinky_base_y,pinky_base_z,pinky_first_joint_x,pinky_first_joint_y,pinky_first_joint_z,pinky_second_joint_x,pinky_second_joint_y,pinky_second_joint_z,pinky_tip_x,pinky_tip_y,pinky_tip_z,
0.3980694,-0.35663499,0.453975,0.38466166,-0.30486153,0.443972,0.37318885,-0.34490829,0.450846,0.33895729,-0.31046231,0.439259,0.31304768,-0.28428714,0.432811,0.30384037,-0.26733724,0.433643,0.35579038,-0.25358547,0.433113,0.34855538,-0.21522571,0.433466,0.34503954,-0.1959197,0.433642,0.34293337,-0.18311213,0.433803,0.38204839,-0.25593268,0.434175,0.37099833,-0.23099536,0.41678,0.3651143,-0.24641636,0.406633,0.37443708,-0.27024837,0.417162,0.4046218,-0.26254325,0.436023,0.39012309,-0.23147627,0.418808,0.38703643,-0.23036247,0.41,0.40437062,-0.25742637,0.421605,0.43292905,-0.27884901,0.439917,0.414588,-0.26067944,0.422953,0.40610699,-0.2520904,0.415158,0.4055345,-0.25924199,0.408281
0.37833093,-0.33902603,0.431879,0.37262513,-0.29486059,0.429706,0.35647795,-0.3291168,0.43088,0.32999523,-0.29603728,0.425603,0.31074147,-0.26890286,0.421643,0.30402496,-0.25106197,0.422378,0.35073684,-0.24996249,0.426939,0.34072882,-0.21035906,0.423711,0.33586864,-0.1906704,0.422097,0.33268952,-0.17743595,0.42063,0.37627939,-0.25203708,0.427578,0.37201038,-0.23173966,0.417869,0.37015099,-0.25001685,0.412205,0.38173369,-0.27570215,0.425262,0.39751698,-0.25789915,0.428315,0.3900155,-0.23150254,0.418628,0.39051547,-0.23241015,0.413672,0.41059529,-0.26127088,0.428045,0.42278606,-0.27228622,0.429555,0.41094068,-0.25849412,0.419172,0.40542846,-0.25184574,0.414402,0.40748904,-0.26072882,0.410192
0.39296465,-0.35224037,0.449156,0.38422546,-0.30343522,0.442629,0.3726345,-0.34356455,0.450737,0.34655462,-0.30994388,0.447331,0.32550551,-0.28130801,0.44327,0.31808178,-0.26287951,0.443379,0.3617677,-0.25714059,0.440172,0.34702642,-0.21278002,0.429013,0.34573691,-0.19058113,0.423433,0.34108986,-0.17295145,0.418361,0.3840452,-0.25690073,0.436235,0.37546124,-0.23413516,0.421827,0.37069309,-0.25097073,0.413422,0.37822014,-0.27594361,0.424818,0.40255247,-0.26112958,0.433629,0.39088273,-0.23217957,0.419476,0.38892946,-0.23173486,0.412235,0.40692461,-0.25948941,0.42483,0.4248849,-0.27400953,0.43171,0.41087852,-0.25875226,0.419351,0.40445107,-0.2516492,0.413672,0.40531826,-0.26014338,0.408662
0.39316802,-0.351963,0.449278,0.39017648,-0.30268201,0.44394,0.37348161,-0.34318308,0.451351,0.34695416,-0.30593665,0.445231,0.32599103,-0.27460547,0.438381,0.31556081,-0.25861896,0.43834,0.37253184,-0.25433112,0.442928,0.36279359,-0.2119159,0.433855,0.35793843,-0.19072899,0.429319,0.36269973,-0.17572412,0.436244,0.39435151,-0.25524503,0.438711,0.38539005,-0.24266374,0.425728,0.37429939,-0.26153249,0.418154,0.38247951,-0.28041585,0.429972,0.41231783,-0.26031327,0.435759,0.40453384,-0.23607005,0.423342,0.4014454,-0.23361148,0.416988,0.41309069,-0.26237794,0.430149,0.43367495,-0.27406754,0.433228,0.42085394,-0.26163372,0.421957,0.41489796,-0.25569429,0.416779,0.40866875,-0.26333263,0.41221
0.39686276,-0.35489745,0.453749,0.39422284,-0.30438294,0.44761,0.37618574,-0.34437257,0.454458,0.35232794,-0.30371877,0.449363,0.33084126,-0.27364083,0.445308,0.31808974,-0.25688478,0.439403,0.3749883,-0.25418399,0.444305,0.3645592,-0.2108076,0.433213,0.37160272,-0.19322295,0.438853,0.37254572,-0.17791746,0.443981,0.39795888,-0.25680575,0.441597,0.39004272,-0.2443134,0.428188,0.37924104,-0.26222617,0.420367,0.38656069,-0.28283637,0.432171,0.41690793,-0.26332218,0.439964,0.41230642,-0.24640553,0.426183,0.41032979,-0.24422466,0.419133,0.42591171,-0.27132638,0.431991,0.43944918,-0.27890292,0.439115,0.42649817,-0.27032003,0.426604,0.42047573,-0.26723733,0.420856,0.41414617,-0.27872384,0.415784
0.39655993,-0.35426936,0.4537,0.3984346,-0.30167392,0.44764,0.37647374,-0.34317506,0.454595,0.35140111,-0.30180791,0.447755,0.32777067,-0.27235233,0.440587,0.31967496,-0.25391753,0.439858,0.37905259,-0.25295768,0.444627,0.36952252,-0.20947942,0.433762,0.37351139,-0.19256764,0.43851,0.37718838,-0.17659483,0.442826,0.40152209,-0.25691217,0.441705,0.39396338,-0.24547871,0.428128,0.38325366,-0.26241399,0.420209,0.38709915,-0.28687902,0.431954,0.41978749,-0.26446804,0.439888,0.41386214,-0.24522417,0.426387,0.41162299,-0.2432104,0.41948,0.42723245,-0.27057661,0.43241,0.44104523,-0.28117166,0.43881,0.42776946,-0.27154102,0.426445,0.42150847,-0.26922703,0.420764,0.41533141,-0.28116256,0.415751
0.39688435,-0.35391514,0.453818,0.39868722,-0.30113305,0.446586,0.37698011,-0.34198283,0.454482,0.3516427,-0.3010175,0.446787,0.32848521,-0.2719769,0.440304,0.32146641,-0.25444273,0.440855,0.38058942,-0.25182134,0.442475,0.3678519,-0.20814701,0.430772,0.37265569,-0.19200729,0.43672,0.37708786,-0.17674466,0.442126,0.40300585,-0.25600356,0.439503,0.39402519,-0.24198547,0.424831,0.38582893,-0.25191124,0.416272,0.38539086,-0.27771112,0.427643,0.4193368,-0.26338382,0.43776,0.41294492,-0.23963506,0.423432,0.41023345,-0.2317856,0.416102,0.42641158,-0.25696139,0.428697,0.44089047,-0.28022933,0.436971,0.42642609,-0.27020735,0.423664,0.41964953,-0.26735882,0.417551,0.41324992,-0.27872095,0.412156
0.39712905,-0.35347815,0.453998,0.39928316,-0.3011445,0.446452,0.37763476,-0.34091226,0.454703,0.35225537,-0.30094482,0.446802,0.32920901,-0.27199771,0.440532,0.32253677,-0.25475486,0.441448,0.38062434,-0.2518424,0.442179,0.36788371,-0.20797241,0.430295,0.37256548,-0.19190111,0.436221,0.37689531,-0.17675326,0.441608,0.4029414,-0.25581768,0.439063,0.39377814,-0.24067018,0.424019,0.38487518,-0.25128853,0.415243,0.3856974,-0.27708966,0.42648,0.4196218,-0.26316284,0.43723,0.41236642,-0.23832402,0.422637,0.40931558,-0.231267,0.415171,0.42536817,-0.25633261,0.427648,0.44115615,-0.27997648,0.436392,0.4263676,-0.26992984,0.422885,0.41945416,-0.26689397,0.416678,0.41305195,-0.27807058,0.411202
0.3979901,-0.35370879,0.454827,0.39967076,-0.30122342,0.446201,0.37910311,-0.34062807,0.455815,0.35305359,-0.30162278,0.447712,0.32937698,-0.27226442,0.440827,0.32222251,-0.25454167,0.441071,0.38081964,-0.25167241,0.441548,0.36906425,-0.20748579,0.429149,0.37330757,-0.19118531,0.434552,0.37620054,-0.17572465,0.439464,0.40250412,-0.25535765,0.437752,0.39061511,-0.23959952,0.421589,0.38164054,-0.24981883,0.412161,0.38313697,-0.27615306,0.422945,0.42030537,-0.26284627,0.435466,0.41006775,-0.24218931,0.419805,0.40471808,-0.238799,0.411792,0.41848692,-0.25974538,0.423782,0.4413743,-0.27977904,0.434284,0.42393997,-0.2719862,0.420161,0.41628654,-0.27543318,0.413672,0.41260809,-0.28531792,0.411086
0.39748402,-0.35229734,0.454089,0.39941543,-0.30087846,0.445427,0.3800259,-0.33958381,0.456319,0.35427709,-0.30266516,0.44919,0.33010375,-0.27295681,0.44185,0.32244382,-0.25474162,0.441412,0.38194511,-0.25223626,0.442337,0.37069415,-0.20823465,0.43035,0.37426807,-0.19138287,0.434901,0.37659321,-0.17544058,0.439038,0.40222171,-0.25506896,0.436944,0.3897116,-0.23884133,0.420336,0.38005029,-0.2490998,0.410648,0.38196535,-0.27503837,0.421101,0.41873614,-0.26181425,0.433346,0.4075298,-0.24112707,0.416779,0.40160954,-0.23679883,0.408303,0.41480777,-0.25770217,0.419786,0.43815602,-0.27777457,0.430635,0.42123123,-0.27107205,0.417128,0.41351916,-0.27360216,0.410922,0.42187156,-0.29322322,0.420068
0.39657059,-0.3514616,0.452856,0.39766736,-0.29999052,0.443085,0.37978939,-0.33862252,0.455518,0.35365248,-0.30247827,0.447922,0.32750287,-0.27219291,0.438928,0.318443,-0.25238486,0.436627,0.38085957,-0.25176944,0.439786,0.37134867,-0.20810876,0.427128,0.3757282,-0.19112185,0.431963,0.37971841,-0.17488908,0.436359,0.40025471,-0.25421462,0.433516,0.38693766,-0.23674188,0.415777,0.37569249,-0.24697644,0.405429,0.3809833,-0.27225567,0.41533,0.41721904,-0.26201518,0.429303,0.40423177,-0.23994608,0.411602,0.39728531,-0.22962763,0.402546,0.41144067,-0.25348094,0.413414,0.43582178,-0.27814727,0.426065,0.41774537,-0.27054872,0.412036,0.40936126,-0.27015098,0.40559,0.41710857,-0.29005392,0.414375
0.37547013,-0.33317642,0.42895,0.38165586,-0.28956679,0.426023,0.36055819,-0.32115303,0.43234,0.33581136,-0.29108268,0.426971,0.31808904,-0.26491657,0.426791,0.31361144,-0.24948656,0.430257,0.37188249,-0.24651638,0.428349,0.36682143,-0.20562332,0.421201,0.36920628,-0.18763268,0.423196,0.3717866,-0.17095132,0.425424,0.39162963,-0.25012803,0.423157,0.38541234,-0.23640829,0.412174,0.37969695,-0.25183877,0.405767,0.38424818,-0.27497866,0.418099,0.40727439,-0.25997465,0.419167,0.40179222,-0.23833433,0.408206,0.39963946,-0.23241865,0.402598,0.41615597,-0.25494498,0.416167,0.42388951,-0.27585233,0.415004,0.41242196,-0.26748518,0.406132,0.40698938,-0.26827425,0.402055,0.4174334,-0.29188327,0.41281
0.39411264,-0.35086911,0.450593,0.38959933,-0.3042465,0.436733,0.37598393,-0.33538643,0.45094,0.34223344,-0.30120664,0.439294,0.32321347,-0.27210236,0.435211,0.32007224,-0.25397219,0.438472,0.36625003,-0.25234858,0.427669,0.35492205,-0.20571117,0.410992,0.36072417,-0.18931118,0.415592,0.36880442,-0.17141488,0.419773,0.38666173,-0.25742358,0.423157,0.37536,-0.23839272,0.401668,0.36399179,-0.24337417,0.389132,0.36760218,-0.26762627,0.397818,0.40345231,-0.26622735,0.42079,0.39473331,-0.23594942,0.39992,0.38679003,-0.22638007,0.389243,0.39973349,-0.24676301,0.398934,0.42368998,-0.28511862,0.42042,0.40913484,-0.26972465,0.40242,0.39925566,-0.2642207,0.39415,0.40662756,-0.28525737,0.401648
0.39121368,-0.35073942,0.448753,0.38395452,-0.30547073,0.434549,0.373367,-0.33487259,0.449084,0.33775882,-0.30096907,0.437357,0.32222112,-0.27017951,0.434306,0.31989698,-0.25359483,0.438068,0.36328191,-0.25087504,0.42523,0.35190853,-0.20403413,0.408294,0.35764499,-0.18755696,0.412687,0.36525476,-0.17048088,0.41668,0.38350288,-0.25617545,0.420638,0.37392689,-0.23294756,0.39882,0.36291429,-0.23933255,0.386093,0.36567385,-0.26559333,0.394631,0.40008734,-0.26516111,0.418238,0.38995078,-0.23847956,0.396709,0.38530984,-0.22856269,0.385695,0.39658865,-0.24547859,0.395122,0.42002105,-0.28426345,0.417889,0.40425496,-0.27140357,0.399655,0.39715785,-0.26867234,0.391277,0.40390789,-0.28450698,0.398659
0.38643172,-0.34864269,0.443945,0.37874344,-0.30210797,0.429467,0.37044912,-0.33435448,0.446372,0.33377967,-0.30727682,0.437421,0.31026999,-0.27768741,0.431583,0.30326644,-0.25934821,0.431615,0.35412532,-0.25083122,0.422637,0.34270572,-0.20483614,0.404984,0.34780442,-0.18785458,0.408883,0.35746842,-0.17083473,0.412799,0.37536369,-0.25252641,0.415286,0.35635317,-0.21363151,0.39303,0.34424572,-0.21500146,0.380047,0.3494227,-0.23850564,0.387929,0.38871628,-0.25746063,0.410642,0.36981604,-0.23725595,0.386989,0.3603183,-0.22706271,0.374887,0.37120918,-0.24724354,0.383077,0.40835539,-0.27281098,0.407713,0.37928513,-0.26101268,0.390453,0.3597031,-0.26039294,0.382522,0.35311976,-0.27481947,0.389711
0.36607847,-0.3453562,0.428915,0.35100781,-0.29310669,0.408265,0.34812402,-0.33154435,0.430493,0.30895972,-0.29809638,0.419568,0.28554683,-0.26913728,0.413432,0.27399704,-0.246788,0.407655,0.32689968,-0.23652769,0.396118,0.32365649,-0.1945453,0.391863,0.31983852,-0.17495301,0.389735,0.31631466,-0.15666155,0.387801,0.34401074,-0.2385633,0.38804,0.30623521,-0.23227721,0.360114,0.2879851,-0.2454458,0.343824,0.29535546,-0.25379922,0.348816,0.35906148,-0.24555092,0.383397,0.32949157,-0.20587017,0.358326,0.31303384,-0.21140288,0.3455,0.31817967,-0.23606941,0.351773,0.37873924,-0.26361125,0.381538,0.34449586,-0.24508541,0.359976,0.33076003,-0.2547037,0.35007,0.33744993,-0.27183451,0.354877
0.35491351,-0.34026132,0.420674,0.33127513,-0.28101648,0.395247,0.34063502,-0.32608844,0.424004,0.29779474,-0.29365172,0.416544,0.2707081,-0.26834662,0.410679,0.25838496,-0.24593431,0.404346,0.30581412,-0.22448503,0.382063,0.30328676,-0.18177093,0.376688,0.29227818,-0.16740384,0.374,0.28049341,-0.15676508,0.371557,0.31761606,-0.22593281,0.370343,0.2693047,-0.21857844,0.341721,0.25181936,-0.22833726,0.325025,0.26067503,-0.23149599,0.327046,0.32893859,-0.23258044,0.363166,0.28632436,-0.20027178,0.335801,0.26360004,-0.20607255,0.3218,0.26514999,-0.2275541,0.324307,0.34523806,-0.25041971,0.359168,0.29884037,-0.23696511,0.336229,0.28288913,-0.24549652,0.32569,0.28941194,-0.26062877,0.327695
0.31914883,-0.33742943,0.417614,0.30758143,-0.27986176,0.393528,0.30600257,-0.32166362,0.420596,0.27396688,-0.29057471,0.413263,0.24701177,-0.26504654,0.406823,0.23628692,-0.24307568,0.401476,0.28345347,-0.22380994,0.380818,0.28173294,-0.18146181,0.375948,0.26933587,-0.16966732,0.373512,0.2574685,-0.15834466,0.371299,0.29583957,-0.22576853,0.369936,0.2481801,-0.21899996,0.342242,0.23261819,-0.22917371,0.326087,0.24290269,-0.23317774,0.329219,0.30749263,-0.23277736,0.363319,0.26593146,-0.20129694,0.337431,0.24385879,-0.20761325,0.324186,0.24647824,-0.2302566,0.328089,0.32384235,-0.25092016,0.359744,0.27778722,-0.23769108,0.337212,0.26212511,-0.24635673,0.32686,0.26936001,-0.26227052,0.329724
0.31115247,-0.33523935,0.414647,0.2887632,-0.27781389,0.390726,0.29794494,-0.32118997,0.41859,0.25869395,-0.29325587,0.411794,0.23163666,-0.26852715,0.406115,0.21825103,-0.2458643,0.399199,0.26039492,-0.22463736,0.379358,0.25802881,-0.18136878,0.372522,0.24830121,-0.1643213,0.369104,0.23915294,-0.1481859,0.365997,0.27241246,-0.22360206,0.367297,0.22515113,-0.21778845,0.339404,0.21226315,-0.22901686,0.323134,0.22283563,-0.23315446,0.325712,0.28412122,-0.22809718,0.359694,0.24174445,-0.20225084,0.331738,0.21810866,-0.20773908,0.317436,0.21762304,-0.22870869,0.32016,0.30125128,-0.2431591,0.354936,0.25026764,-0.24143935,0.333204,0.25344276,-0.25354849,0.343119,0.26145085,-0.26479473,0.354611
0.29574695,-0.33595656,0.414067,0.27518072,-0.27882164,0.391242,0.28209108,-0.32220383,0.417866,0.24216573,-0.29191404,0.410816,0.21732128,-0.26546886,0.405431,0.20409711,-0.24258065,0.398128,0.25150199,-0.22453917,0.380441,0.2529568,-0.18306124,0.377013,0.2428989,-0.16819974,0.375299,0.23327736,-0.15393698,0.37374,0.26383169,-0.22451244,0.368886,0.21718033,-0.21806636,0.341666,0.20421677,-0.23046196,0.325788,0.21520098,-0.23653421,0.329142,0.27531995,-0.22984239,0.361592,0.23405361,-0.20526204,0.334796,0.21038092,-0.20967338,0.321086,0.20903162,-0.23177256,0.324817,0.29135002,-0.24593547,0.357008,0.24103118,-0.24164359,0.335726,0.24400196,-0.25591779,0.346344,0.25330792,-0.26809227,0.357952
0.25886574,-0.33559526,0.412074,0.25066254,-0.27869637,0.390503,0.24583961,-0.3206208,0.415213,0.21803549,-0.28784229,0.408634,0.19362151,-0.2597878,0.401503,0.17822913,-0.23798647,0.392195,0.22906989,-0.22413107,0.37972,0.22724309,-0.18058268,0.370918,0.21643498,-0.16480878,0.366517,0.20621932,-0.1498134,0.362516,0.24230533,-0.22534318,0.369376,0.19622232,-0.2190044,0.342799,0.1849992,-0.23161074,0.327296,0.19703777,-0.2383108,0.331688,0.25428788,-0.23163955,0.362957,0.21423286,-0.20716282,0.337508,0.19105709,-0.21202118,0.324487,0.19024827,-0.2353649,0.329578,0.27037699,-0.24876525,0.359179,0.22068603,-0.24392333,0.338104,0.22369506,-0.25897097,0.349714,0.23411713,-0.27088106,0.361633
0.22682127,-0.32925739,0.403187,0.22519366,-0.2750485,0.385716,0.21566627,-0.31512234,0.407806,0.1901181,-0.28305994,0.402967,0.16978494,-0.25498365,0.398259,0.16144129,-0.23285488,0.393487,0.21023203,-0.22293674,0.379636,0.20223496,-0.18125289,0.375325,0.19155381,-0.16358047,0.37317,0.18152414,-0.14695679,0.37121,0.22315134,-0.22413979,0.368605,0.19112828,-0.18552259,0.345658,0.17068077,-0.19910356,0.332272,0.17710061,-0.21833505,0.338348,0.23414299,-0.23014725,0.361221,0.19477135,-0.20839541,0.337199,0.1719253,-0.21291231,0.324909,0.17063136,-0.23728541,0.331202,0.24779057,-0.24637952,0.355604,0.20097379,-0.24132511,0.337884,0.20368023,-0.25823774,0.350521,0.21267402,-0.27139126,0.362089
0.20114024,-0.32638694,0.399894,0.2007963,-0.27286006,0.383499,0.18986595,-0.31215595,0.404111,0.16610498,-0.27954248,0.399586,0.14551646,-0.25132551,0.394174,0.13443213,-0.22902816,0.387405,0.18653029,-0.22110093,0.377644,0.17316191,-0.17934136,0.371119,0.16647992,-0.15846921,0.367857,0.15236429,-0.14612297,0.364891,0.20004253,-0.22255476,0.367442,0.16852187,-0.18543185,0.346155,0.14885813,-0.19989418,0.333738,0.15582222,-0.21972032,0.340771,0.21143186,-0.2287328,0.360636,0.17998789,-0.20343222,0.33905,0.15703164,-0.21275583,0.328007,0.15661767,-0.23397782,0.335597,0.22534416,-0.24510621,0.35551,0.17883461,-0.24066871,0.338161,0.18192666,-0.25894247,0.351397,0.19157012,-0.27293988,0.363363
0.19022261,-0.32667097,0.400242,0.17918056,-0.27283017,0.383457,0.16810399,-0.31248888,0.404542,0.1444228,-0.27950051,0.399526,0.12428572,-0.25156844,0.394555,0.11338229,-0.22928001,0.387831,0.16551371,-0.22098149,0.37744,0.15224174,-0.17934329,0.371123,0.14560317,-0.1585153,0.367964,0.13095539,-0.14620386,0.365093,0.1788154,-0.22229734,0.367017,0.14654653,-0.18502044,0.345387,0.12695919,-0.19931379,0.332769,0.13389273,-0.2189395,0.33956,0.18997157,-0.22837255,0.360068,0.15740764,-0.20297862,0.338294,0.13463031,-0.2122019,0.327153,0.13424256,-0.23322833,0.334522,0.20351708,-0.24464428,0.35484,0.15825612,-0.23857977,0.337311,0.1592055,-0.25721577,0.350366,0.16683614,-0.27129579,0.361597
0.16804149,-0.32667913,0.400252,0.15766243,-0.27296109,0.383641,0.14620239,-0.31262328,0.404716,0.12282058,-0.27962573,0.399705,0.10314545,-0.25213335,0.395441,0.092574001,-0.23024837,0.389469,0.14479482,-0.22128243,0.377954,0.1313806,-0.17942641,0.371295,0.12467867,-0.15851617,0.367966,0.10941598,-0.14614219,0.364939,0.1579723,-0.22251236,0.367372,0.1251292,-0.1852931,0.345896,0.10568266,-0.19967316,0.333369,0.11272209,-0.21933861,0.340179,0.16894135,-0.22850384,0.360275,0.13531108,-0.20310222,0.3385,0.11270874,-0.21233552,0.327359,0.11242959,-0.23335382,0.334702,0.18211672,-0.24464704,0.354844,0.13645353,-0.23873396,0.337529,0.13730533,-0.25736773,0.350573,0.14503653,-0.27139183,0.361725
0.15143913,-0.32675912,0.40035,0.14679223,-0.27283444,0.383463,0.14069605,-0.3125947,0.404679,0.11312994,-0.27903443,0.399871,0.09445533,-0.25084535,0.395435,0.088808362,-0.22996187,0.390279,0.1341304,-0.22096569,0.377413,0.12080888,-0.17926936,0.37097,0.11414866,-0.15842268,0.367749,0.098641978,-0.14609494,0.364821,0.14728404,-0.22224041,0.366923,0.11415228,-0.18503329,0.345411,0.094785852,-0.19937009,0.332863,0.10185399,-0.21899301,0.339643,0.1582191,-0.22828376,0.359928,0.12423028,-0.20312742,0.338542,0.10178045,-0.21249184,0.3276,0.10158919,-0.23358878,0.335039,0.1713294,-0.24452432,0.354666,0.12533973,-0.238427,0.337095,0.12613706,-0.25701902,0.350098,0.13395854,-0.27109097,0.361324
0.15045807,-0.32104372,0.396578,0.14409752,-0.26317284,0.381906,0.13950524,-0.30898742,0.402181,0.11187621,-0.27896703,0.399608,0.087575694,-0.25475946,0.395443,0.074985427,-0.23380072,0.389466,0.12391795,-0.21649906,0.379003,0.10613975,-0.17710277,0.374638,0.097382873,-0.1576321,0.372881,0.089308211,-0.13994138,0.371285,0.13706375,-0.21338863,0.367535,0.098682978,-0.18334362,0.347037,0.083117711,-0.20046997,0.33508,0.090973256,-0.22007969,0.342174,0.14869035,-0.21572293,0.359521,0.10881524,-0.18345619,0.339049,0.096650129,-0.19810814,0.328575,0.10707521,-0.22080598,0.336335,0.16385572,-0.22735607,0.35268,0.11863479,-0.2307251,0.337303,0.11792602,-0.25290243,0.350507,0.12264124,-0.27021446,0.361038
0.14852634,-0.32100847,0.39817,0.13347163,-0.26345744,0.382319,0.13416844,-0.30832728,0.403512,0.099747491,-0.27884819,0.399271,0.076946002,-0.25505324,0.395899,0.065936636,-0.23406228,0.390646,0.11318943,-0.21608263,0.378274,0.095512094,-0.1768527,0.374109,0.086779185,-0.15743595,0.372417,0.078720838,-0.13978836,0.370879,0.1262685,-0.21295841,0.366794,0.087566202,-0.18306942,0.346518,0.072215628,-0.20023664,0.33469,0.080080586,-0.21973173,0.341633,0.13785559,-0.21534071,0.358884,0.097627521,-0.18296326,0.338138,0.085507554,-0.19747446,0.327524,0.095793243,-0.21990788,0.334967,0.15302616,-0.22715687,0.352371,0.10736649,-0.22990563,0.336105,0.10641392,-0.25181941,0.349006,0.11118525,-0.26923775,0.359733
0.14235951,-0.31991536,0.399285,0.12290911,-0.2639281,0.383002,0.1232975,-0.30764294,0.404825,0.089220699,-0.27986924,0.400733,0.072289488,-0.25613205,0.39964,0.066150874,-0.23691217,0.396734,0.10287334,-0.21644879,0.378915,0.085155493,-0.17710467,0.374642,0.076399146,-0.15764732,0.372917,0.068317628,-0.13996551,0.371349,0.11583197,-0.21310995,0.367055,0.076471879,-0.1827704,0.345952,0.061218017,-0.19960965,0.333642,0.069026322,-0.21876374,0.340128,0.1272804,-0.21533411,0.358873,0.086545678,-0.18256988,0.337411,0.074424717,-0.19681485,0.32643,0.084549134,-0.21887848,0.333399,0.14223715,-0.22699249,0.352116,0.096413037,-0.22965185,0.335734,0.09523078,-0.25135474,0.348362,0.099975152,-0.26870711,0.359024
0.13176688,-0.31330773,0.39619,0.11514114,-0.25752368,0.382163,0.12163119,-0.30618231,0.405688,0.089966144,-0.28251024,0.407488,0.074255585,-0.26220439,0.411716,0.067571764,-0.24375299,0.411835,0.098127381,-0.21517307,0.384681,0.080560821,-0.1770433,0.382021,0.07011277,-0.15849044,0.380691,0.060584384,-0.14157102,0.379482,0.10484852,-0.2085991,0.368425,0.069344069,-0.167855,0.351939,0.047968973,-0.18112509,0.342322,0.054798972,-0.20193729,0.348197,0.11142843,-0.20798468,0.356405,0.066449159,-0.18165445,0.339417,0.055030409,-0.1978779,0.330726,0.066289822,-0.21845716,0.336994,0.12109956,-0.2159494,0.344765,0.076753194,-0.22358544,0.332765,0.081234711,-0.24508506,0.343591,0.088673138,-0.2621474,0.352012
0.12638657,-0.31879759,0.405705,0.11233432,-0.25927014,0.38493,0.11572486,-0.30972879,0.412802,0.078993004,-0.28077123,0.410382,0.063430858,-0.25631164,0.409812,0.062390003,-0.23859356,0.408491,0.089956226,-0.21233073,0.379751,0.07455768,-0.17482216,0.378241,0.067376967,-0.15676757,0.377486,0.058434439,-0.14003875,0.3768,0.099932423,-0.20598237,0.364583,0.06741332,-0.16202827,0.341656,0.046166964,-0.17210127,0.328283,0.051654259,-0.19072064,0.331406,0.10983934,-0.20625238,0.354115,0.066347004,-0.17569811,0.331126,0.054114169,-0.18927097,0.319363,0.06341209,-0.20768736,0.322707,0.1213574,-0.21569797,0.34546,0.075918329,-0.21876408,0.327876,0.079566908,-0.23903504,0.337173,0.087219286,-0.25678072,0.346966
0.12481564,-0.32049735,0.407938,0.10860149,-0.26100333,0.386555,0.11457171,-0.3115497,0.415279,0.080723476,-0.28334211,0.413304,0.069732972,-0.26043811,0.414132,0.064427786,-0.24079916,0.412454,0.090663072,-0.21390784,0.381272,0.073861127,-0.1765387,0.379314,0.06382811,-0.15823723,0.378336,0.05465146,-0.14149837,0.377446,0.099386427,-0.20727201,0.365613,0.059890119,-0.1670741,0.342417,0.040816448,-0.17902015,0.328885,0.050302243,-0.19435834,0.331379,0.10747272,-0.20697402,0.3548,0.063392846,-0.17628977,0.330899,0.049213209,-0.18841046,0.318671,0.06139593,-0.20660365,0.321124,0.11883578,-0.21606186,0.345847,0.070208484,-0.21889096,0.328204,0.076791133,-0.23807637,0.336867,0.08561806,-0.25635031,0.346436
0.12350585,-0.31587179,0.404032,0.10804287,-0.25785375,0.385216,0.1140017,-0.30863709,0.412655,0.076589662,-0.29079441,0.412856,0.068807402,-0.27106545,0.413155,0.054282054,-0.2539501,0.410857,0.088182032,-0.21307202,0.383331,0.070093223,-0.17924085,0.385642,0.059716139,-0.16243655,0.386798,0.050166142,-0.14696929,0.387848,0.093492016,-0.20203459,0.366787,0.050229182,-0.16773076,0.346215,0.034768823,-0.18272002,0.334214,0.047020497,-0.20005168,0.337584,0.099282669,-0.19787029,0.354997,0.051305375,-0.1748039,0.334216,0.043556728,-0.18996645,0.323584,0.056806688,-0.20921646,0.327164,0.10883426,-0.20197394,0.344454,0.065227464,-0.20899887,0.329208,0.068068554,-0.23039218,0.338226,0.073926319,-0.24938576,0.347088
0.12367825,-0.3152018,0.405011,0.10752643,-0.25298058,0.38619,0.11435601,-0.30854302,0.413706,0.076559986,-0.29131405,0.414035,0.06736064,-0.27151953,0.413815,0.052524221,-0.25441436,0.411455,0.087936074,-0.21337233,0.384394,0.067849931,-0.17972584,0.386229,0.056853826,-0.16272518,0.387146,0.046425761,-0.14710341,0.38798,0.09310334,-0.2018059,0.367757,0.04616655,-0.17117626,0.347229,0.033344705,-0.18474974,0.335255,0.044088155,-0.20153439,0.338563,0.09879277,-0.19718171,0.35589,0.046631076,-0.18026296,0.335191,0.044726686,-0.19230118,0.324601,0.063549777,-0.20961207,0.328124,0.10826349,-0.20069387,0.345259,0.064994899,-0.20821722,0.33008,0.067139062,-0.23019973,0.339019,0.07283516,-0.24984209,0.347827
0.12259828,-0.31449974,0.408379,0.10594408,-0.25196284,0.389589,0.11357636,-0.30839699,0.416831,0.078725986,-0.28635352,0.416727,0.062006421,-0.26861381,0.416044,0.049419358,-0.25356665,0.413714,0.082811388,-0.2117181,0.387503,0.061618139,-0.17824222,0.389284,0.050197626,-0.16117544,0.390174,0.041252759,-0.14682108,0.390984,0.088589114,-0.19935533,0.371186,0.038160578,-0.17877523,0.350519,0.033747193,-0.19561924,0.338463,0.046506764,-0.20509717,0.341989,0.094849555,-0.19399393,0.359579,0.045013931,-0.17439012,0.342706,0.040799201,-0.18888433,0.334074,0.059433898,-0.20386973,0.339041,0.10513122,-0.19645955,0.349248,0.062752826,-0.2049159,0.333852,0.065583238,-0.23001088,0.343064,0.072350477,-0.25144021,0.352055
0.12193323,-0.31249519,0.40743,0.10479939,-0.25069478,0.388671,0.11287409,-0.30669775,0.415737,0.075117517,-0.28598804,0.41538,0.061468492,-0.26805894,0.415051,0.048546194,-0.25236018,0.41294,0.082259439,-0.21114506,0.386422,0.061163802,-0.17793965,0.388708,0.049769553,-0.16097368,0.389851,0.040417261,-0.14622493,0.39089,0.088072161,-0.19889069,0.370299,0.037663254,-0.17828129,0.349561,0.033253873,-0.19507939,0.337464,0.047177795,-0.20535635,0.341124,0.094365746,-0.1936129,0.358848,0.044672355,-0.17454274,0.343018,0.04051184,-0.18939257,0.334919,0.059310637,-0.20472329,0.340371,0.10469265,-0.19617623,0.348694,0.061427854,-0.20276046,0.333179,0.061862345,-0.2258694,0.342557,0.066103304,-0.24697499,0.351653
0.12163016,-0.31149419,0.407369,0.10430583,-0.25024648,0.388498,0.11253864,-0.30594233,0.415616,0.074367817,-0.28609095,0.415155,0.061300828,-0.26792434,0.414798,0.048126477,-0.25183939,0.412686,0.082082515,-0.2109717,0.386094,0.06100902,-0.17782917,0.388495,0.049620671,-0.16088686,0.389696,0.039994688,-0.14590659,0.390787,0.087902727,-0.19874206,0.370015,0.037488685,-0.17807396,0.349158,0.033075973,-0.19481907,0.336992,0.047578462,-0.20551644,0.340619,0.094206526,-0.19349002,0.358612,0.044562172,-0.17460989,0.343154,0.040420756,-0.18958767,0.335246,0.059267859,-0.20500537,0.34081,0.10455323,-0.19609458,0.348532,0.060975827,-0.20201068,0.332907,0.061009733,-0.22513533,0.342276,0.064900657,-0.24636166,0.351408
0.12167779,-0.31101168,0.407797,0.10447222,-0.25013808,0.38883,0.11266425,-0.30566157,0.416097,0.075858461,-0.28621173,0.415732,0.061856,-0.26790207,0.415435,0.048473489,-0.251612,0.413189,0.082838709,-0.21089677,0.38643,0.061875599,-0.17774062,0.388924,0.05054055,-0.16078782,0.390171,0.042271235,-0.14613394,0.391304,0.088437292,-0.19871568,0.370254,0.037944737,-0.17800233,0.349364,0.033418898,-0.19475764,0.337178,0.048141322,-0.20576232,0.340696,0.094554349,-0.19351359,0.358781,0.044939786,-0.17453249,0.343538,0.040569298,-0.18959516,0.33574,0.059314043,-0.20509512,0.341259,0.10467066,-0.19619947,0.348635,0.060860258,-0.20176638,0.333014,0.061450978,-0.22477494,0.34227,0.066304539,-0.24566361,0.351357
0.12228943,-0.31225626,0.410125,0.10589315,-0.25238604,0.390997,0.11282436,-0.30577128,0.41693,0.07525018,-0.28536246,0.414033,0.061513303,-0.26710231,0.414202,0.048298018,-0.2506537,0.412052,0.0843078,-0.21139367,0.386576,0.063106482,-0.17816227,0.38885,0.051775487,-0.16111677,0.389988,0.042508452,-0.14571228,0.391022,0.090371266,-0.20060427,0.372263,0.038999504,-0.17874013,0.350372,0.033789462,-0.1952104,0.337602,0.049182391,-0.20783666,0.342028,0.096931518,-0.19658966,0.36234,0.046279362,-0.17584538,0.345566,0.040915279,-0.19049978,0.336983,0.059379764,-0.2069903,0.34334,0.10911053,-0.20251032,0.354037,0.063007498,-0.20594586,0.337029,0.072004178,-0.22513587,0.347523,0.081622955,-0.23956206,0.357579
0.12326739,-0.31276393,0.412557,0.11229239,-0.25569443,0.392996,0.11356898,-0.30607355,0.418728,0.085906032,-0.28536999,0.414787,0.073984746,-0.2656046,0.41591,0.064070865,-0.24596474,0.416004,0.097081241,-0.20974387,0.387467,0.076075069,-0.17639915,0.389465,0.065207951,-0.15914417,0.390465,0.05337485,-0.14663899,0.391374,0.10352236,-0.20091304,0.373838,0.053020508,-0.17925309,0.351282,0.045066862,-0.19548881,0.338124,0.060405808,-0.20974089,0.342639,0.11038174,-0.19858315,0.364519,0.06078483,-0.17681201,0.346902,0.051771284,-0.19097925,0.337889,0.0687654,-0.21231435,0.344287,0.12140713,-0.20499283,0.356999,0.075878666,-0.20814774,0.33925,0.082457962,-0.22587102,0.349997,0.092341587,-0.24056861,0.36041
0.12676758,-0.31030021,0.413724,0.12686162,-0.24870132,0.393417,0.12075926,-0.30371451,0.419001,0.094453338,-0.28289209,0.413607,0.078799422,-0.26205052,0.413107,0.063394723,-0.24349222,0.41071,0.102841,-0.20512221,0.386232,0.077803165,-0.17442897,0.388099,0.066480161,-0.1576034,0.389033,0.0559925,-0.14201657,0.389881,0.11053152,-0.19742776,0.373527,0.059812389,-0.17760939,0.349953,0.055220585,-0.19426542,0.336201,0.070238392,-0.20848052,0.340718,0.1186461,-0.19605157,0.365042,0.068655964,-0.17505909,0.346173,0.062348562,-0.1898965,0.336518,0.078825545,-0.20825774,0.342844,0.13153817,-0.20361121,0.358627,0.086166995,-0.2078765,0.339785,0.090270019,-0.22675489,0.35077,0.094509605,-0.24248078,0.361662
0.16585246,-0.30256159,0.411775,0.14922157,-0.25068847,0.396773,0.15511774,-0.29647074,0.419041,0.11787183,-0.28521108,0.41713,0.10272465,-0.26831667,0.423086,0.087613029,-0.25204646,0.422851,0.12540926,-0.21010023,0.395769,0.093696373,-0.17647857,0.388642,0.07773595,-0.15959654,0.385241,0.063133252,-0.14415623,0.382156,0.1334542,-0.20189437,0.382079,0.083260043,-0.18439276,0.363623,0.079292106,-0.20383185,0.352856,0.095317568,-0.21994302,0.359477,0.14178006,-0.19990203,0.372268,0.091843059,-0.18260795,0.356832,0.087604784,-0.19949636,0.348935,0.10615468,-0.21875618,0.357089,0.15469718,-0.20628801,0.363381,0.11006089,-0.21375706,0.349011,0.11448656,-0.23352304,0.361121,0.120247,-0.24968463,0.370873
0.1894425,-0.30423046,0.414383,0.1694107,-0.24922732,0.394695,0.17899728,-0.29911699,0.422811,0.14297178,-0.28884639,0.422692,0.12374566,-0.26545454,0.41846,0.10810158,-0.24773438,0.415388,0.14413384,-0.20835748,0.391962,0.11179398,-0.17264058,0.380119,0.095753425,-0.1549181,0.374197,0.08281099,-0.14155819,0.3759,0.15060514,-0.19834841,0.375412,0.10308516,-0.17006575,0.354101,0.087099044,-0.18429948,0.34167,0.097628576,-0.20126349,0.344558,0.15778842,-0.1950179,0.363701,0.10832127,-0.1769794,0.345485,0.10487391,-0.19255882,0.336165,0.12157299,-0.20868422,0.340214,0.1697752,-0.20002166,0.353402,0.12585485,-0.20669283,0.337564,0.1302871,-0.2238326,0.346222,0.13583253,-0.23928682,0.355153
0.19413319,-0.30323808,0.412868,0.17916229,-0.24844363,0.393262,0.18361655,-0.29806351,0.421175,0.15339651,-0.28776967,0.420838,0.13348052,-0.2638545,0.415736,0.11813794,-0.24674274,0.413581,0.15349352,-0.207557,0.390431,0.1210985,-0.17183422,0.378487,0.10503615,-0.15411616,0.372515,0.092286101,-0.14079627,0.374264,0.16001528,-0.19764375,0.374059,0.11265437,-0.16931355,0.352723,0.096888939,-0.18364462,0.340277,0.106873,-0.20098134,0.343327,0.16728418,-0.19438493,0.362486,0.11948181,-0.17026384,0.344909,0.11235055,-0.18519351,0.335916,0.12419244,-0.20619108,0.340343,0.17945437,-0.19946787,0.352335,0.1354507,-0.20608831,0.336418,0.13988815,-0.22334302,0.34526,0.1454394,-0.23886631,0.354291
0.20334614,-0.30387495,0.418274,0.19745023,-0.24502381,0.396992,0.19805415,-0.29471617,0.42529,0.17401698,-0.28858219,0.422743,0.14523357,-0.26102704,0.412792,0.13341774,-0.24047352,0.409108,0.17141542,-0.19958138,0.391361,0.13838228,-0.16269395,0.377187,0.12196543,-0.14436044,0.370099,0.108969,-0.12998811,0.369992,0.17947289,-0.19518113,0.376148,0.13310645,-0.16811243,0.352814,0.11645926,-0.18311743,0.339203,0.12463121,-0.2001871,0.342018,0.18790216,-0.1964389,0.365692,0.15580644,-0.15935657,0.341989,0.13362877,-0.16723995,0.329862,0.1344861,-0.18667378,0.33277,0.20113013,-0.20674063,0.35714,0.15662652,-0.20832085,0.339243,0.16165862,-0.22549764,0.348294,0.16774193,-0.2413931,0.358102
0.22162217,-0.29807131,0.413136,0.2186516,-0.24538872,0.392857,0.22331865,-0.29323367,0.42049,0.1877788,-0.28716899,0.418504,0.16505389,-0.25891618,0.411252,0.14912357,-0.23979957,0.406548,0.20299482,-0.19934757,0.388347,0.16125234,-0.17428771,0.375022,0.14010909,-0.16161515,0.368359,0.12113864,-0.15052967,0.36357,0.2073529,-0.19312231,0.372996,0.1579509,-0.16969824,0.350579,0.13642462,-0.18163062,0.337503,0.14354292,-0.19978826,0.340795,0.21225382,-0.19306964,0.362328,0.174983,-0.158,0.342201,0.15235285,-0.16664435,0.331903,0.15446817,-0.18729152,0.336149,0.22052724,-0.20243606,0.353354,0.17225246,-0.20154251,0.336238,0.1792396,-0.22084823,0.345603,0.18613331,-0.23881454,0.355258
0.23116085,-0.28830929,0.399128,0.23500616,-0.23164811,0.385665,0.23878878,-0.27956736,0.410482,0.20475472,-0.28007808,0.415578,0.18401542,-0.25608242,0.412216,0.16493825,-0.24026593,0.407992,0.23031193,-0.19432166,0.39094,0.19679672,-0.16618423,0.38551,0.18351632,-0.1550536,0.390253,0.17089652,-0.14447609,0.394564,0.22971932,-0.18392975,0.372478,0.18069305,-0.17465717,0.357627,0.16029577,-0.1880246,0.348964,0.16864675,-0.20757652,0.353724,0.22987148,-0.17994751,0.358587,0.19040242,-0.15427699,0.348979,0.17272432,-0.16834275,0.344063,0.17398469,-0.19137491,0.350851,0.23136297,-0.1837142,0.34466,0.18634767,-0.17746401,0.334704,0.17254286,-0.18187927,0.34391,0.16614111,-0.19583732,0.350984
0.24427456,-0.28020951,0.396167,0.25181843,-0.23007947,0.388598,0.24290437,-0.27514385,0.407768,0.21938441,-0.2580182,0.41365,0.19048636,-0.2428905,0.41396,0.17396702,-0.2253082,0.410719,0.25108772,-0.19286343,0.398234,0.21888359,-0.16486899,0.393654,0.20572834,-0.1529612,0.398522,0.19278006,-0.14126635,0.402948,0.25308609,-0.18508067,0.381185,0.2076129,-0.18417548,0.371062,0.18891477,-0.20101869,0.365156,0.19980902,-0.22324595,0.37322,0.25478608,-0.18307381,0.367886,0.21908905,-0.15949891,0.363149,0.20360494,-0.17696231,0.360726,0.20686741,-0.20286822,0.37122,0.25692734,-0.18882674,0.353629,0.21260408,-0.18556177,0.347154,0.20091982,-0.19566857,0.358894,0.19971578,-0.21071115,0.365725
0.30375897,-0.29832995,0.427953,0.28488665,-0.24301567,0.399129,0.28803363,-0.28191152,0.428088,0.24665138,-0.26147425,0.414703,0.21443953,-0.23886688,0.404968,0.19592959,-0.21850228,0.395714,0.25263339,-0.18710089,0.379531,0.22086708,-0.15377985,0.350018,0.21457431,-0.17469175,0.361077,0.21716529,-0.20008173,0.377141,0.26632502,-0.19054444,0.370897,0.2152911,-0.18873258,0.338701,0.22267073,-0.21917242,0.352585,0.2434041,-0.23159908,0.368589,0.27982417,-0.1986916,0.366591,0.23617839,-0.18715933,0.338297,0.2158003,-0.19712273,0.323821,0.2216656,-0.20496606,0.326092,0.29960436,-0.21798612,0.366542,0.24704047,-0.21440316,0.339654,0.24180196,-0.22672122,0.348844,0.25495065,-0.23460785,0.361871
0.30859963,-0.29617308,0.426359,0.30130619,-0.24039829,0.39845,0.29236946,-0.27845558,0.425239,0.25757225,-0.25188918,0.410689,0.2257802,-0.22759648,0.399952,0.20554618,-0.20790766,0.388831,0.27222562,-0.18261864,0.377877,0.24006091,-0.1520624,0.349345,0.23672615,-0.17489082,0.361694,0.24070106,-0.20058615,0.377886,0.28793226,-0.18849083,0.371116,0.23815452,-0.1893643,0.339096,0.24569713,-0.22052982,0.354548,0.26593931,-0.2331666,0.371172,0.30262368,-0.19862123,0.368262,0.26171617,-0.18455541,0.339561,0.23859798,-0.19477139,0.324876,0.24248282,-0.20476539,0.328088,0.32290097,-0.22020706,0.369755,0.27008347,-0.21470191,0.342509,0.26585551,-0.22874911,0.352768,0.27970128,-0.23808716,0.366335
0.31586565,-0.29015821,0.414778,0.30088314,-0.23759803,0.392789,0.3113551,-0.28544461,0.421125,0.27899655,-0.26418832,0.417456,0.24826559,-0.23985084,0.409088,0.23489345,-0.21975906,0.404761,0.27314854,-0.19292854,0.385818,0.25422241,-0.14817786,0.370584,0.24829207,-0.12907086,0.369073,0.24381973,-0.12069595,0.378653,0.28613557,-0.18764164,0.371251,0.24123882,-0.17391203,0.342528,0.24987313,-0.20626743,0.355849,0.26855888,-0.22099139,0.37042,0.29530358,-0.18662193,0.361397,0.26579576,-0.14422373,0.33581,0.24591387,-0.1502407,0.32272,0.2461085,-0.17080216,0.32528,0.31193517,-0.19539177,0.35367,0.27346607,-0.19440703,0.334847,0.27694757,-0.21434812,0.344061,0.29192218,-0.22255227,0.354259
0.32931338,-0.28848185,0.413366,0.32047679,-0.22991042,0.3941,0.31417228,-0.27998571,0.419134,0.28616211,-0.25062252,0.414612,0.25422732,-0.22496956,0.403981,0.23674551,-0.20466094,0.394751,0.29294602,-0.18338621,0.388257,0.27429258,-0.13982667,0.373809,0.26306981,-0.11920943,0.366585,0.261121,-0.11523634,0.37347,0.30715503,-0.17920245,0.37523,0.27461801,-0.17639991,0.34868,0.28280191,-0.21077749,0.364837,0.29660469,-0.22836269,0.379513,0.31967043,-0.18056312,0.366378,0.2877312,-0.14953903,0.338701,0.27276366,-0.15549421,0.32454,0.27735006,-0.17699184,0.328314,0.33648373,-0.19069636,0.359353,0.30809156,-0.1845738,0.341448,0.30551361,-0.20190181,0.352624,0.3148863,-0.21054047,0.363259
0.33833898,-0.292207,0.420309,0.32621632,-0.2312547,0.396209,0.32382855,-0.27741759,0.421925,0.29363731,-0.24503008,0.412435,0.26501091,-0.2178552,0.403061,0.25333076,-0.19752073,0.398354,0.29813493,-0.17949229,0.381744,0.28886527,-0.14121071,0.378176,0.28082364,-0.12617942,0.376391,0.28313739,-0.11581164,0.388477,0.31494487,-0.17820009,0.372605,0.28203915,-0.14519572,0.341645,0.29282249,-0.1760781,0.358015,0.30828276,-0.19937648,0.374352,0.33018312,-0.18218369,0.367424,0.29489803,-0.14857235,0.334774,0.27795603,-0.15235127,0.31807,0.2812688,-0.172922,0.320666,0.35115829,-0.19606675,0.365532,0.31898687,-0.18467333,0.342047,0.31609622,-0.20221899,0.35317,0.32653614,-0.21291724,0.365748
0.35751539,-0.29170195,0.425517,0.34435934,-0.23294448,0.403133,0.33605776,-0.27904046,0.424626,0.30511092,-0.24960631,0.412542,0.27346856,-0.22480624,0.402433,0.25889825,-0.20589782,0.398034,0.30294884,-0.18292706,0.386643,0.2952017,-0.1446689,0.384279,0.29250546,-0.13085616,0.383097,0.29980176,-0.12096747,0.397198,0.3241587,-0.1810552,0.38121,0.29953454,-0.15009351,0.351851,0.31412444,-0.1793904,0.370643,0.32309078,-0.20569292,0.387162,0.34270425,-0.18356245,0.378913,0.31405036,-0.14893904,0.34889,0.3025533,-0.1565028,0.33353,0.3092784,-0.17724948,0.338512,0.36837521,-0.19545821,0.380101,0.35897589,-0.17185375,0.354541,0.36082715,-0.19068775,0.367845,0.36423833,-0.20676201,0.381999
0.35431614,-0.29578116,0.426312,0.34610273,-0.25069798,0.406215,0.33437038,-0.28139967,0.42245,0.29918742,-0.25452054,0.404386,0.27534832,-0.2293942,0.39961,0.26858227,-0.21257347,0.401532,0.31202966,-0.19664938,0.387495,0.30467389,-0.15751806,0.385248,0.30050688,-0.13840642,0.384125,0.30502443,-0.12352434,0.398905,0.33567897,-0.20030592,0.386531,0.31743814,-0.15182043,0.360015,0.33516659,-0.16484497,0.380601,0.34677628,-0.19088734,0.396654,0.3564431,-0.20826167,0.387691,0.33257523,-0.15817959,0.361943,0.32110445,-0.14957212,0.348769,0.32861551,-0.16866062,0.356156,0.38321708,-0.22663757,0.392529,0.36179312,-0.17809762,0.368429,0.37636625,-0.18662754,0.381525,0.39072389,-0.20822362,0.395838
0.36568852,-0.30303536,0.434447,0.35278488,-0.25191107,0.411232,0.34285444,-0.28751122,0.427714,0.30386541,-0.25430284,0.407783,0.28088594,-0.23032157,0.404339,0.2728942,-0.21265469,0.404926,0.31305256,-0.19526909,0.386704,0.30652493,-0.15700995,0.386182,0.30296844,-0.13821059,0.385921,0.31179013,-0.12545012,0.401333,0.33908883,-0.19980992,0.388495,0.31693827,-0.15011733,0.358809,0.33680226,-0.15825983,0.378046,0.35224113,-0.18216524,0.394822,0.36402576,-0.20668639,0.392225,0.33575545,-0.15913706,0.363034,0.32679829,-0.15716901,0.348098,0.33379424,-0.17867199,0.353651,0.39452548,-0.22583005,0.400612,0.36683025,-0.17854002,0.373307,0.37891113,-0.18656208,0.383083,0.39527949,-0.2087156,0.398341
0.37516982,-0.30861792,0.440279,0.36472451,-0.25510499,0.419702,0.3494819,-0.29194697,0.433584,0.3144034,-0.25837788,0.416307,0.28901054,-0.23417559,0.410709,0.27555748,-0.21484516,0.407096,0.32485495,-0.19974068,0.397033,0.31468678,-0.15965129,0.39307,0.30959303,-0.13998963,0.391088,0.31658434,-0.12715922,0.405739,0.35199299,-0.20390654,0.399549,0.32958369,-0.15621129,0.372126,0.31913058,-0.14271102,0.356129,0.32578814,-0.15743254,0.362302,0.37602244,-0.21238724,0.40362,0.35161017,-0.16557344,0.376447,0.34206424,-0.15473888,0.362545,0.35126197,-0.17278666,0.369331,0.4071945,-0.23160173,0.411949,0.38173981,-0.18268937,0.386351,0.37325747,-0.18138715,0.37459,0.37996373,-0.19734942,0.379173
0.3753368,-0.30727665,0.438349,0.36834997,-0.25624142,0.422247,0.35144323,-0.29222616,0.433735,0.32079027,-0.26143692,0.420038,0.29547101,-0.23869821,0.415633,0.28180937,-0.21781721,0.41195,0.33366292,-0.20415017,0.405306,0.3199907,-0.16308556,0.398593,0.3132894,-0.14335929,0.395236,0.31911312,-0.1292177,0.409091,0.35978879,-0.20696872,0.406476,0.33919967,-0.15610061,0.383316,0.32856032,-0.13803432,0.369806,0.33741133,-0.14974175,0.378016,0.38262625,-0.21411853,0.409004,0.36031564,-0.16813131,0.386324,0.34915973,-0.15365945,0.374721,0.36143068,-0.17026327,0.383839,0.41177978,-0.23130583,0.414752,0.38946965,-0.18467792,0.392952,0.38182659,-0.17840902,0.382936,0.39137871,-0.19170212,0.389349
0.37157534,-0.30319518,0.432143,0.3708197,-0.25723772,0.424212,0.35479985,-0.29252605,0.432377,0.32343929,-0.26463238,0.423456,0.29721988,-0.24726475,0.420803,0.28482596,-0.22650636,0.418446,0.34456282,-0.21138122,0.419071,0.32599372,-0.16700256,0.406514,0.31681299,-0.14604824,0.400235,0.31378668,-0.12910359,0.401358,0.36787329,-0.21144244,0.416444,0.35554299,-0.16261756,0.401638,0.34775042,-0.14983921,0.393,0.35764208,-0.14659811,0.404313,0.38777398,-0.21665194,0.415053,0.37358748,-0.16721158,0.400821,0.36740162,-0.15664394,0.393539,0.37978995,-0.15417887,0.406139,0.41169239,-0.23031955,0.414797,0.40111604,-0.18418247,0.401002,0.39649596,-0.17958088,0.394663,0.40767808,-0.182227,0.404116
0.37410951,-0.30465871,0.433503,0.37420881,-0.25845978,0.425958,0.35764814,-0.29457842,0.434404,0.32720513,-0.27028075,0.427267,0.29867112,-0.24889585,0.4218,0.28945305,-0.2348877,0.425384,0.34629833,-0.21446606,0.421936,0.32860376,-0.17038906,0.409965,0.31955471,-0.1497881,0.403979,0.31430207,-0.13056558,0.401663,0.36941916,-0.21316585,0.418569,0.35833318,-0.16494446,0.404278,0.35073369,-0.14924913,0.395941,0.36101709,-0.13953965,0.407359,0.38866544,-0.21705611,0.416531,0.37623695,-0.16882019,0.402599,0.37000664,-0.15698918,0.395472,0.38228944,-0.15303537,0.408124,0.41230848,-0.23042357,0.415451,0.40173802,-0.18532631,0.402136,0.39699534,-0.17979162,0.396019,0.40792067,-0.18147612,0.405582
0.38384943,-0.31131841,0.440143,0.38188874,-0.26662324,0.432659,0.36740833,-0.3020744,0.442679,0.33777702,-0.28239986,0.436238,0.31047472,-0.26154059,0.431905,0.29557512,-0.24149095,0.430265,0.35442936,-0.22705915,0.430766,0.33839675,-0.18430241,0.418344,0.3303698,-0.16285784,0.412133,0.32235828,-0.14789309,0.406486,0.37500984,-0.22424242,0.425326,0.36377881,-0.17579771,0.41041,0.35577445,-0.15221661,0.40171,0.36539421,-0.14243665,0.412711,0.39272941,-0.22633598,0.421574,0.38136697,-0.17809864,0.407042,0.37409444,-0.15946707,0.399607,0.38585059,-0.15362001,0.4118,0.41542496,-0.23445346,0.418477,0.40632955,-0.19329789,0.405384,0.40215289,-0.17629438,0.399368,0.41160816,-0.18091123,0.408825
0.38513682,-0.31250007,0.440592,0.38253604,-0.26790782,0.433187,0.36860693,-0.30354971,0.443291,0.33823927,-0.28278633,0.436835,0.31088877,-0.26188939,0.432481,0.2969988,-0.24301311,0.431348,0.35507772,-0.22747451,0.431554,0.33895975,-0.18460903,0.41904,0.33089004,-0.1631143,0.412782,0.32284045,-0.1481143,0.407094,0.3755415,-0.22456033,0.425929,0.36422023,-0.17601103,0.410908,0.35612616,-0.15277443,0.402146,0.36561593,-0.14291865,0.413097,0.3931421,-0.22657382,0.422017,0.3816621,-0.17823647,0.407357,0.37443632,-0.15998182,0.399856,0.38608222,-0.15329635,0.411985,0.41553893,-0.23535636,0.418718,0.40661622,-0.19343426,0.40567,0.40246303,-0.17643034,0.399676,0.41212363,-0.18004389,0.409127
0.39215438,-0.31769625,0.446045,0.38789467,-0.27372183,0.438041,0.37275056,-0.30721693,0.446289,0.34008157,-0.28470995,0.438789,0.31314713,-0.26457063,0.43515,0.30233125,-0.24906506,0.436581,0.35768307,-0.22889813,0.432863,0.34057747,-0.18608103,0.419934,0.33367938,-0.16546083,0.415538,0.32689432,-0.14962982,0.411541,0.38350613,-0.23026695,0.430199,0.36844682,-0.17951016,0.415321,0.36008524,-0.15628168,0.406641,0.36954909,-0.14542055,0.417935,0.40310581,-0.2346596,0.428784,0.38810236,-0.18293715,0.414221,0.38095805,-0.16549685,0.406771,0.39248986,-0.15621579,0.419262,0.42753003,-0.24790477,0.428511,0.4156762,-0.20365202,0.414755,0.4104374,-0.18836392,0.408435,0.42136235,-0.18093128,0.417867
0.39792665,-0.32381219,0.448382,0.39520783,-0.28174534,0.443523,0.38111642,-0.31693186,0.452222,0.35531759,-0.30248473,0.452352,0.327445,-0.28393544,0.449082,0.31680131,-0.26987669,0.451878,0.3704637,-0.24456435,0.445097,0.3551767,-0.20115796,0.435398,0.34673176,-0.18340392,0.430548,0.33892473,-0.1668127,0.42614,0.3904663,-0.24105727,0.438764,0.3774862,-0.19452694,0.426636,0.37069841,-0.16535152,0.419561,0.3651827,-0.14703388,0.414508,0.40772365,-0.2399989,0.434021,0.39569286,-0.19260573,0.422107,0.38941305,-0.17404756,0.416012,0.4010122,-0.16361187,0.429012,0.42828971,-0.25003359,0.429308,0.41978014,-0.20816863,0.418496,0.41598656,-0.19137305,0.413528,0.41268567,-0.17861906,0.409145
0.40432978,-0.33169157,0.454291,0.40116242,-0.29159722,0.449778,0.38782113,-0.32599156,0.457756,0.35696486,-0.30587489,0.454116,0.33036453,-0.28693791,0.451764,0.3189088,-0.2714163,0.45278,0.37444926,-0.25417713,0.451109,0.35828316,-0.21205859,0.441548,0.3496005,-0.19246904,0.436768,0.34276495,-0.17183928,0.432422,0.39473114,-0.25072211,0.445356,0.38224045,-0.20401718,0.433692,0.37447779,-0.17771272,0.426888,0.36961221,-0.15605363,0.422028,0.41210775,-0.25218446,0.441058,0.3994663,-0.20618693,0.429405,0.39469252,-0.18141444,0.423443,0.38917883,-0.16144764,0.418023,0.43374456,-0.26166739,0.436806,0.42587709,-0.21858513,0.426284,0.42151484,-0.20404754,0.42145,0.41939501,-0.18871253,0.417184
0.40570205,-0.33421808,0.455749,0.40189958,-0.29363451,0.450924,0.38844023,-0.32804632,0.458563,0.35825311,-0.31042787,0.456632,0.3319444,-0.29146148,0.454435,0.31959142,-0.27407836,0.454617,0.37507515,-0.25443013,0.451213,0.35829726,-0.21277598,0.441381,0.34958277,-0.1925862,0.436465,0.34225234,-0.17240827,0.431995,0.3960964,-0.25186202,0.446201,0.38307636,-0.20532981,0.434417,0.37517674,-0.17874857,0.427543,0.36988575,-0.15787932,0.422633,0.41406236,-0.25407665,0.442543,0.40129581,-0.20735676,0.431058,0.3943823,-0.18655322,0.425182,0.387882,-0.16830799,0.41984,0.4363039,-0.26447679,0.439095,0.42773667,-0.22130802,0.42834,0.42339946,-0.20531338,0.423398,0.42070792,-0.18973952,0.419037
0.4065214,-0.33588607,0.45661,0.40232359,-0.29469268,0.451559,0.38892351,-0.32936978,0.459179,0.35859261,-0.31120952,0.457467,0.33196562,-0.29237525,0.455072,0.31987028,-0.27535656,0.455447,0.37539994,-0.25459314,0.451387,0.358315,-0.21302426,0.441341,0.34954099,-0.19260559,0.436319,0.34197392,-0.17267953,0.431753,0.39667662,-0.25232179,0.446623,0.3833635,-0.20577332,0.434668,0.37535076,-0.17906646,0.427694,0.36982721,-0.15870669,0.422712,0.4148586,-0.2547969,0.443192,0.40183703,-0.20771076,0.431536,0.39477935,-0.18737714,0.425573,0.38820053,-0.16914872,0.420151,0.43734904,-0.2655309,0.440051,0.42842964,-0.22225762,0.429099,0.42404627,-0.20574452,0.424066,0.42102744,-0.19009953,0.419626
0.41008388,-0.34147956,0.45932,0.40460636,-0.29857341,0.454033,0.39226994,-0.33431956,0.461882,0.36051226,-0.31461287,0.459856,0.33325165,-0.29653841,0.457396,0.32209266,-0.28191636,0.459366,0.37770381,-0.25668249,0.45369,0.36010719,-0.21514405,0.443414,0.35112228,-0.19460888,0.438276,0.3428889,-0.17584047,0.433605,0.39897227,-0.25428963,0.448866,0.38476443,-0.20779809,0.436727,0.37627837,-0.18098185,0.429646,0.36993177,-0.16268893,0.424589,0.41718426,-0.25668991,0.445408,0.40345576,-0.20976921,0.433514,0.39597557,-0.18899762,0.427428,0.38907269,-0.17055297,0.421896,0.43978877,-0.26738751,0.442278,0.43111216,-0.22416725,0.431564,0.42688847,-0.20709062,0.426641,0.42312023,-0.19241271,0.422298
