sluyters/QuantumLeap/backend/src/datasets/gesture/HandGestureDataset_SHREC2017_csv/Gesture8/finger_1/subject_5_essai_4_skeletons_world.csv
Wrist_x,Wrist_y,Wrist_z,Palm_x,Palm_y,Palm_z,thumb_base_x,thumb_base_y,thumb_base_z,thumb_first_joint_x,thumb_first_joint_y,thumb_first_joint_z,thumb_second_joint_x,thumb_second_joint_y,thumb_second_joint_z,thumb_tip_x,thumb_tip_y,thumb_tip_z,index_base_x,index_base_y,index_base_z,index_first_joint_x,index_first_joint_y,index_first_joint_z,index_second_joint_x,index_second_joint_y,index_second_joint_z,index_tip_x,index_tip_y,index_tip_z,middle_base_x,middle_base_y,middle_base_z,middle_first_joint_x,middle_first_joint_y,middle_first_joint_z,middle_second_joint_x,middle_second_joint_y,middle_second_joint_z,middle_tip_x,middle_tip_y,middle_tip_z,ring_base_x,ring_base_y,ring_base_z,ring_first_joint_x,ring_first_joint_y,ring_first_joint_z,ring_second_joint_x,ring_second_joint_y,ring_second_joint_z,ring_tip_x,ring_tip_y,ring_tip_z,pinky_base_x,pinky_base_y,pinky_base_z,pinky_first_joint_x,pinky_first_joint_y,pinky_first_joint_z,pinky_second_joint_x,pinky_second_joint_y,pinky_second_joint_z,pinky_tip_x,pinky_tip_y,pinky_tip_z,
0.46296794,-0.33104665,0.495354,0.4596285,-0.28527841,0.489604,0.44477969,-0.31911522,0.495259,0.41452816,-0.29348225,0.490139,0.38795384,-0.27090447,0.48367,0.37622984,-0.25328644,0.481411,0.43524846,-0.24446393,0.486103,0.42593998,-0.20461405,0.482218,0.42127265,-0.18469384,0.480275,0.41702299,-0.16653935,0.478509,0.45661122,-0.24545418,0.484476,0.44827126,-0.20521248,0.475034,0.4441969,-0.17928256,0.469526,0.44132633,-0.16338246,0.465592,0.47286823,-0.25595789,0.483571,0.46660964,-0.21401773,0.472057,0.46351563,-0.19270436,0.466167,0.46072012,-0.17320059,0.460811,0.49381722,-0.26895196,0.483304,0.49402349,-0.23291521,0.473578,0.49506948,-0.21666525,0.469109,0.49519873,-0.20567307,0.465166
0.46601148,-0.33439887,0.499829,0.46029874,-0.28651734,0.490965,0.44734449,-0.32178061,0.499201,0.41370662,-0.29315529,0.489564,0.38603519,-0.2685896,0.479779,0.37531076,-0.25218412,0.479701,0.4341267,-0.2440763,0.484964,0.42557123,-0.20464532,0.4816,0.42127159,-0.18486831,0.479918,0.41735041,-0.16680449,0.478389,0.45512525,-0.2451761,0.48305,0.44225327,-0.20256256,0.468061,0.43623181,-0.17764637,0.459316,0.43372748,-0.16038136,0.456481,0.47147932,-0.25476519,0.482144,0.46276317,-0.2112956,0.467997,0.4596211,-0.20248463,0.460759,0.45520671,-0.1952063,0.45418,0.49272318,-0.26811096,0.482312,0.49182477,-0.23230145,0.470243,0.49149196,-0.21617642,0.464697,0.49107447,-0.20359622,0.459805
0.46752712,-0.33753201,0.503185,0.45798269,-0.29292724,0.493715,0.44762176,-0.32359245,0.501089,0.41475212,-0.29407377,0.490902,0.38506436,-0.26679204,0.47626,0.37336494,-0.2471933,0.47158,0.43330965,-0.24737091,0.485536,0.42578677,-0.20823649,0.481194,0.42198671,-0.18852752,0.479023,0.41852584,-0.17046388,0.477049,0.45553764,-0.25113043,0.485261,0.44221342,-0.20525766,0.469422,0.43508613,-0.20163873,0.460183,0.44423545,-0.22033032,0.470432,0.47403762,-0.25844113,0.485749,0.45648102,-0.21714139,0.471343,0.45162098,-0.21537483,0.463972,0.44708201,-0.22854731,0.457272,0.49653024,-0.27408332,0.487654,0.49291603,-0.23563036,0.474254,0.48689616,-0.23373268,0.468097,0.47937952,-0.24172633,0.462664
0.45087619,-0.34430898,0.506967,0.44298808,-0.29159332,0.490652,0.43238696,-0.32598896,0.503324,0.4030384,-0.28687066,0.490229,0.38397888,-0.25652563,0.478688,0.37584484,-0.233405,0.470566,0.42605008,-0.23960816,0.476519,0.41631873,-0.20076717,0.471109,0.41337754,-0.18074823,0.468508,0.41392558,-0.16696784,0.470736,0.44312658,-0.2481093,0.476086,0.43355445,-0.21058064,0.454155,0.41514145,-0.2179789,0.441361,0.41573243,-0.23691343,0.449157,0.46050048,-0.25843309,0.476961,0.44332983,-0.22401031,0.457139,0.43276481,-0.2259566,0.446997,0.42257365,-0.23451879,0.437778,0.4815374,-0.27778434,0.480284,0.46286903,-0.23938783,0.461861,0.45446605,-0.23342519,0.453396,0.44710383,-0.2328955,0.445928
0.45459875,-0.35704888,0.528806,0.43943692,-0.30019807,0.498228,0.43198378,-0.33266783,0.51827,0.40007453,-0.29301375,0.498569,0.3770384,-0.25863672,0.48013,0.37045022,-0.23346871,0.467298,0.40692684,-0.24057249,0.467135,0.40435823,-0.20278758,0.462108,0.40306677,-0.18383309,0.459594,0.4019148,-0.16617614,0.457309,0.43055407,-0.25151865,0.470929,0.40067501,-0.24139502,0.43655,0.40535827,-0.27098209,0.450591,0.41761326,-0.28386021,0.467434,0.4511359,-0.26472476,0.476357,0.42377395,-0.25031968,0.444123,0.40519151,-0.2595748,0.427631,0.40343619,-0.26585478,0.428313,0.47758638,-0.28841675,0.487076,0.43897137,-0.28327584,0.458635,0.43751394,-0.29727334,0.466898,0.44170661,-0.31346339,0.480112
0.44589248,-0.36055808,0.532788,0.43049024,-0.30213915,0.500175,0.42235525,-0.33501528,0.520231,0.41630166,-0.3108056,0.502178,0.39118233,-0.27158116,0.483483,0.37445598,-0.24752902,0.472089,0.39538056,-0.24029918,0.465374,0.38974032,-0.21635648,0.444828,0.37201472,-0.2260019,0.434555,0.37027106,-0.24179892,0.442524,0.42046236,-0.25231827,0.47106,0.38870094,-0.24031865,0.43503,0.39140022,-0.26939561,0.446975,0.40281407,-0.2855245,0.463757,0.44248299,-0.26657064,0.478197,0.41275112,-0.25010714,0.443925,0.39359546,-0.25873842,0.42639,0.39056548,-0.26406302,0.425163,0.47099652,-0.29184246,0.491229,0.4307916,-0.2851785,0.461277,0.4278633,-0.2983649,0.468165,0.4317486,-0.31459545,0.481377
0.41465511,-0.35811553,0.528542,0.41096649,-0.30372129,0.503095,0.39307823,-0.33404371,0.517929,0.39341115,-0.31075127,0.502042,0.37337024,-0.2764017,0.489097,0.36283523,-0.25349019,0.482528,0.38178944,-0.24513354,0.474927,0.36847822,-0.21667904,0.445849,0.34765514,-0.22424504,0.43131,0.34243675,-0.23742232,0.434458,0.4068808,-0.25696988,0.480377,0.37718764,-0.25601166,0.449942,0.38359534,-0.2877447,0.466461,0.39504083,-0.30202573,0.482656,0.42835887,-0.27082577,0.48678,0.40126548,-0.26941276,0.457565,0.38554082,-0.27944799,0.442617,0.38675858,-0.29000304,0.445662,0.45514749,-0.29508889,0.497937,0.41864203,-0.29128525,0.472044,0.41831079,-0.30668561,0.481916,0.42162174,-0.32303728,0.494856
0.40438197,-0.35396551,0.522417,0.39901383,-0.30282117,0.501604,0.38652356,-0.33308272,0.516439,0.38113289,-0.30996672,0.505001,0.3612602,-0.2759632,0.493861,0.35250202,-0.25447476,0.489277,0.3769157,-0.24874401,0.481922,0.3674646,-0.22240451,0.45763,0.34844253,-0.23161381,0.445483,0.34538807,-0.24676766,0.451559,0.39857461,-0.25838531,0.483023,0.37224106,-0.25999401,0.456941,0.38055286,-0.29378383,0.476251,0.39150171,-0.30777958,0.491851,0.4166257,-0.27011251,0.485498,0.3935009,-0.27149533,0.461102,0.38026156,-0.28323801,0.44862,0.38432971,-0.29592332,0.45476,0.43842258,-0.29118469,0.491349,0.4055735,-0.28972282,0.469512,0.40687291,-0.30627705,0.481274,0.40951207,-0.3221645,0.493519
0.40691244,-0.3555189,0.530004,0.39546041,-0.29958134,0.507656,0.39124731,-0.33647976,0.527068,0.38078349,-0.31461578,0.521527,0.35993739,-0.28159854,0.510559,0.35144981,-0.25858581,0.504226,0.37335272,-0.24835764,0.490848,0.34358477,-0.21883013,0.46839,0.32849757,-0.20377481,0.457162,0.32511978,-0.21564786,0.463188,0.39084673,-0.25628597,0.487705,0.35250637,-0.26113008,0.46072,0.36196153,-0.29274865,0.479038,0.37865414,-0.30552136,0.49567,0.40580022,-0.26653943,0.486803,0.37015339,-0.27094067,0.460364,0.35799388,-0.28080444,0.446836,0.36555352,-0.2907749,0.45175,0.42448176,-0.28568082,0.488867,0.38412433,-0.28662083,0.46757,0.38838402,-0.30163647,0.478768,0.39410436,-0.31644677,0.491086
0.39848597,-0.35484422,0.532599,0.3798559,-0.29809188,0.50967,0.38072896,-0.33458035,0.53231,0.34566034,-0.30461823,0.521739,0.32492569,-0.27590166,0.515707,0.31725504,-0.25347517,0.510068,0.35921673,-0.24674374,0.495808,0.3236409,-0.22460227,0.473277,0.30552911,-0.21334774,0.462012,0.29856488,-0.21564142,0.467101,0.37364958,-0.25055742,0.489199,0.3317854,-0.24900674,0.460742,0.34407495,-0.27990008,0.477527,0.36059734,-0.29763855,0.493266,0.38625683,-0.25771964,0.48549,0.34694466,-0.25577518,0.457359,0.33757493,-0.26479421,0.442967,0.34499535,-0.27661171,0.446433,0.40260375,-0.27387604,0.484306,0.35998531,-0.26639303,0.464144,0.35901877,-0.27904283,0.474501,0.36541241,-0.29001714,0.485612
0.38141186,-0.35505497,0.53348,0.37135141,-0.3027504,0.514311,0.3705283,-0.33968763,0.53635,0.33996842,-0.31069072,0.529421,0.32189033,-0.28407233,0.527171,0.31765624,-0.26406661,0.525635,0.35622889,-0.25487142,0.506586,0.31947643,-0.23405826,0.489724,0.30061552,-0.22341163,0.481293,0.29143263,-0.22576923,0.487982,0.36685448,-0.25677495,0.497198,0.32199257,-0.25525108,0.471925,0.33559884,-0.28677771,0.488779,0.35372709,-0.30497508,0.503923,0.37616064,-0.26224654,0.490917,0.33331386,-0.25979382,0.464861,0.32665996,-0.26988739,0.45153,0.33666049,-0.28282165,0.455544,0.38824673,-0.27615155,0.486158,0.34548174,-0.26959312,0.469692,0.34644988,-0.2828166,0.480229,0.35393734,-0.29365514,0.490109
0.37092322,-0.35544688,0.534431,0.36014759,-0.30213086,0.515014,0.36368905,-0.34148015,0.539718,0.3350595,-0.31702696,0.536817,0.31860128,-0.29195813,0.537618,0.31469322,-0.27138746,0.53648,0.34980358,-0.25577571,0.510146,0.30947592,-0.24229871,0.496128,0.28874288,-0.23544067,0.489119,0.27624067,-0.23808061,0.494972,0.35533163,-0.25679416,0.497679,0.30697951,-0.25652738,0.476639,0.31734627,-0.28492037,0.491109,0.33882631,-0.29440188,0.504165,0.36040766,-0.26148309,0.488884,0.31249675,-0.2581382,0.461955,0.32513934,-0.28290232,0.47343,0.34659965,-0.30325276,0.489172,0.36741226,-0.27433123,0.481179,0.32464708,-0.2709418,0.466326,0.33033059,-0.28731211,0.475288,0.34249614,-0.29997093,0.484449
0.38035498,-0.36236109,0.559573,0.35922568,-0.30514231,0.529442,0.37135002,-0.34526462,0.561535,0.3457252,-0.30931236,0.554352,0.34370783,-0.27947799,0.550444,0.33565345,-0.25757956,0.542351,0.33641851,-0.25543081,0.514135,0.28771516,-0.24035463,0.4903,0.26334686,-0.23281512,0.478383,0.24611332,-0.23610805,0.47744,0.34210283,-0.26164801,0.502542,0.28907799,-0.26781393,0.472992,0.3000492,-0.28580039,0.480816,0.31727,-0.28543718,0.486405,0.34825295,-0.27044906,0.495273,0.2989075,-0.2560836,0.469532,0.29974498,-0.27837925,0.476053,0.31962089,-0.29396826,0.489052,0.35829794,-0.28777663,0.490881,0.31213671,-0.28749096,0.469728,0.31773287,-0.29774555,0.474343,0.33216355,-0.2990244,0.478415
0.37545388,-0.3570038,0.56947,0.35174472,-0.30204119,0.535173,0.3567297,-0.33223363,0.567416,0.33067757,-0.30648141,0.554185,0.30887224,-0.28056424,0.543089,0.29746701,-0.2600618,0.53129,0.33215292,-0.24698198,0.512425,0.28314443,-0.2379837,0.48541,0.25804189,-0.23158412,0.471903,0.24068232,-0.2336027,0.470217,0.33896326,-0.25691126,0.504555,0.28138236,-0.2562612,0.470357,0.28558143,-0.27818247,0.478211,0.301461,-0.28281531,0.48382,0.34579208,-0.2690367,0.500664,0.29330866,-0.26575649,0.472206,0.29820363,-0.28384986,0.478839,0.32072191,-0.29236863,0.492585,0.35611622,-0.2908528,0.500858,0.30638916,-0.28561068,0.475349,0.31100947,-0.29911409,0.479859,0.32417904,-0.30468223,0.483838
0.36806114,-0.35532275,0.578118,0.3531919,-0.30413508,0.542561,0.357844,-0.33330842,0.57483,0.32716613,-0.30582571,0.559741,0.30424495,-0.28107681,0.547091,0.29597192,-0.26176185,0.534883,0.32805398,-0.24715925,0.517537,0.27713272,-0.23995482,0.488818,0.251959,-0.23629581,0.474459,0.23722191,-0.23695539,0.472061,0.33629605,-0.25832812,0.510816,0.27909765,-0.25904006,0.475331,0.28330372,-0.27939252,0.48278,0.30140901,-0.28394609,0.488101,0.34435494,-0.27134889,0.507966,0.2917976,-0.26938803,0.477798,0.29902215,-0.28649362,0.484072,0.32170656,-0.29460603,0.498289,0.35623635,-0.29397076,0.509571,0.30881629,-0.28976071,0.482861,0.3109863,-0.30176132,0.48708,0.32631885,-0.30763244,0.490802
0.36539569,-0.35609638,0.581352,0.34068259,-0.30334827,0.544902,0.35079569,-0.33172898,0.577738,0.31764495,-0.30704218,0.562031,0.29437146,-0.2821071,0.549085,0.28216839,-0.26236968,0.536169,0.31850959,-0.24788107,0.518947,0.26757685,-0.24058255,0.490031,0.24241064,-0.23687437,0.475573,0.22448592,-0.23852704,0.472454,0.32677865,-0.25912408,0.51236,0.26964897,-0.25954477,0.476313,0.27340723,-0.27926797,0.482682,0.28849264,-0.28202653,0.487231,0.33489467,-0.27224924,0.509687,0.28234016,-0.27012004,0.479191,0.28680257,-0.28626599,0.48459,0.30901857,-0.29356924,0.498581,0.34691366,-0.29508639,0.511628,0.29721722,-0.29031173,0.484533,0.30145281,-0.30225112,0.488059,0.31401411,-0.30633713,0.491169
0.36327489,-0.35564218,0.581655,0.3409997,-0.30365173,0.545603,0.34912302,-0.33184685,0.577954,0.31595777,-0.30821484,0.562237,0.28746892,-0.2857962,0.548667,0.27268105,-0.26688871,0.535466,0.31864269,-0.2482775,0.519775,0.26788726,-0.24127592,0.491099,0.24279573,-0.23771737,0.476761,0.22514076,-0.2397423,0.474203,0.32715095,-0.2595601,0.513417,0.27019549,-0.26025097,0.477485,0.27450301,-0.28045137,0.484632,0.28995511,-0.28346957,0.489737,0.33546762,-0.27271745,0.510903,0.28298925,-0.27080131,0.480431,0.28791761,-0.28733908,0.486465,0.31028345,-0.29468121,0.500647,0.34772158,-0.29558366,0.512976,0.29804787,-0.29100428,0.485867,0.3026564,-0.30325476,0.489883,0.31553718,-0.30756052,0.493427
0.36299081,-0.35627682,0.583367,0.34190294,-0.30439868,0.547032,0.3491263,-0.33263882,0.579376,0.31600867,-0.30910457,0.563245,0.28875414,-0.28520112,0.549952,0.27755327,-0.26509448,0.537829,0.31912617,-0.24872896,0.520677,0.26776842,-0.24124075,0.490886,0.24243495,-0.23742597,0.47599,0.22464973,-0.23926627,0.473031,0.32784347,-0.26012826,0.514593,0.27060231,-0.26061655,0.478138,0.27486475,-0.28073751,0.485144,0.29025237,-0.28367623,0.490147,0.33636019,-0.2734083,0.512325,0.28347357,-0.27119863,0.481186,0.28772388,-0.28796366,0.487093,0.3098003,-0.29635177,0.5016,0.3488989,-0.29647134,0.51473,0.29902058,-0.29182143,0.487357,0.30359998,-0.30403172,0.491285,0.31645119,-0.30827366,0.494751
0.36494369,-0.35829292,0.587135,0.34497165,-0.30686571,0.550717,0.3515427,-0.33475017,0.583032,0.31788088,-0.31273801,0.566739,0.29158299,-0.28769818,0.553635,0.27616731,-0.2692701,0.540865,0.32214011,-0.25111512,0.524174,0.27083854,-0.24407428,0.494478,0.24547042,-0.24035828,0.47963,0.22738632,-0.2418985,0.476697,0.33097293,-0.26297806,0.518204,0.27422191,-0.26397488,0.481894,0.27852541,-0.28371236,0.488906,0.29318671,-0.28620057,0.493915,0.3394813,-0.27641765,0.516037,0.28635889,-0.27329986,0.484971,0.28978928,-0.29032966,0.490879,0.3116236,-0.29966705,0.505701,0.35202726,-0.29962117,0.518572,0.30238507,-0.29525023,0.491103,0.30696761,-0.30720638,0.495022,0.31928808,-0.31103347,0.49848
0.36571437,-0.35912033,0.588823,0.34642726,-0.30800259,0.552311,0.35264664,-0.33567469,0.584628,0.31901823,-0.31389384,0.568211,0.29237469,-0.28899806,0.554961,0.27667823,-0.27073086,0.542079,0.32353483,-0.25222444,0.525597,0.27217651,-0.24519225,0.495788,0.24674575,-0.24145548,0.480884,0.22854852,-0.24296718,0.477889,0.33243855,-0.26428449,0.519713,0.27549812,-0.26517884,0.483313,0.27976148,-0.28477573,0.490273,0.29439563,-0.28717623,0.495245,0.34093215,-0.27784135,0.517624,0.28761949,-0.27410966,0.486442,0.2905293,-0.29125014,0.492306,0.31214733,-0.30111301,0.50724,0.35346715,-0.30116626,0.520266,0.30368952,-0.29665949,0.492713,0.30824233,-0.30852852,0.496597,0.32054656,-0.31225716,0.500024
0.37039218,-0.36360678,0.596685,0.3530698,-0.31258604,0.560738,0.35748576,-0.34026664,0.592741,0.32390246,-0.31899068,0.576555,0.29635487,-0.29443023,0.563315,0.27989363,-0.27715031,0.550362,0.33000517,-0.25720141,0.534669,0.278063,-0.25535535,0.505541,0.25372372,-0.25530806,0.490976,0.23713181,-0.26092207,0.488562,0.33694364,-0.2655207,0.528646,0.2814451,-0.26979627,0.492543,0.28575395,-0.29028805,0.500117,0.30080996,-0.29350511,0.505528,0.3460569,-0.27808593,0.526398,0.29432321,-0.2771639,0.495345,0.29577658,-0.29551651,0.501706,0.31777446,-0.3063739,0.516786,0.35950969,-0.30039956,0.528773,0.3099231,-0.3009018,0.501502,0.31424869,-0.31340747,0.505785,0.32667268,-0.31812924,0.509565
0.37038428,-0.36351619,0.596928,0.35312273,-0.31228827,0.561196,0.35769645,-0.34045655,0.593158,0.32405043,-0.3192446,0.577197,0.29650434,-0.29480687,0.564175,0.2800609,-0.27750921,0.551361,0.32990289,-0.25704419,0.535472,0.27863118,-0.25587713,0.506574,0.25431749,-0.25590554,0.492125,0.2377623,-0.26161581,0.489861,0.33735793,-0.26584718,0.529296,0.28184537,-0.26965311,0.493471,0.2860947,-0.29053753,0.501193,0.30122039,-0.29420154,0.506708,0.34639218,-0.27835535,0.526908,0.29484543,-0.27678189,0.49634,0.29649754,-0.29538085,0.502833,0.31820349,-0.30666827,0.51777,0.35972181,-0.30057681,0.529085,0.31031187,-0.30022403,0.501982,0.31445738,-0.31300332,0.50636,0.326785,-0.31825543,0.510223
0.37055554,-0.36353128,0.597183,0.35381806,-0.31220145,0.562226,0.35801073,-0.34082836,0.593669,0.32445604,-0.31969728,0.577908,0.29711431,-0.29499896,0.565202,0.28086213,-0.27737495,0.552636,0.32906201,-0.25569188,0.537275,0.27953738,-0.25487473,0.507974,0.2552474,-0.24936615,0.493323,0.23810159,-0.25258341,0.491459,0.33863006,-0.26562622,0.531018,0.28335111,-0.26791475,0.495509,0.28757331,-0.29181575,0.504068,0.30263237,-0.29643134,0.510181,0.34791998,-0.27775193,0.528504,0.29699926,-0.27551409,0.498541,0.30044313,-0.29480983,0.505738,0.32134211,-0.30606004,0.520712,0.36151134,-0.29955062,0.530424,0.312822,-0.29694312,0.503671,0.31611325,-0.31106944,0.508595,0.32836925,-0.31956267,0.512939
0.37006012,-0.36345254,0.598397,0.35451335,-0.31234447,0.563277,0.35863231,-0.34147765,0.594691,0.32488299,-0.32014907,0.578657,0.29748942,-0.29417089,0.565958,0.2815205,-0.27683064,0.553302,0.32942268,-0.25573174,0.537992,0.27992547,-0.25429843,0.508542,0.25560678,-0.24972771,0.493817,0.23864686,-0.25321334,0.491892,0.33930105,-0.26553433,0.531923,0.28407875,-0.26779335,0.496132,0.28779796,-0.29188853,0.504647,0.30262387,-0.29702167,0.51073,0.34887168,-0.27759074,0.529577,0.29784499,-0.2759556,0.49907,0.30037533,-0.29679913,0.506216,0.32122559,-0.3084893,0.521389,0.3641583,-0.29671093,0.531718,0.31411902,-0.29689609,0.504791,0.31746658,-0.31112459,0.509687,0.32931843,-0.3196995,0.514006
0.37003922,-0.36262461,0.597221,0.36822984,-0.31082757,0.564496,0.35860511,-0.34100842,0.59378,0.33651595,-0.32049168,0.577679,0.31092498,-0.2931233,0.566595,0.29464126,-0.27456868,0.554445,0.34351634,-0.25623333,0.540951,0.29520252,-0.25407294,0.513306,0.27122769,-0.25292834,0.499484,0.25610313,-0.25846297,0.49971,0.35435377,-0.26557381,0.535281,0.3003899,-0.26916661,0.501246,0.30395086,-0.29505035,0.512417,0.31343333,-0.30326221,0.520395,0.36465524,-0.27724709,0.533082,0.31490697,-0.27912711,0.503994,0.31812944,-0.30096856,0.513305,0.33676212,-0.31650931,0.528771,0.37935135,-0.29857223,0.535062,0.33107636,-0.29723225,0.508998,0.3356558,-0.31286031,0.515577,0.34804381,-0.32109809,0.521383
0.41082213,-0.35920755,0.591912,0.38207507,-0.30596264,0.559929,0.40016191,-0.34316838,0.59371,0.36734702,-0.32461951,0.586966,0.33921637,-0.30608684,0.581579,0.32146182,-0.28924247,0.573054,0.35251996,-0.25637656,0.543326,0.30191561,-0.25164333,0.520801,0.27687304,-0.24923389,0.509538,0.2582612,-0.25123496,0.507006,0.35659178,-0.25936519,0.531375,0.30137394,-0.26773919,0.499394,0.3066101,-0.2905937,0.503952,0.32133658,-0.29720069,0.507208,0.36221925,-0.2658312,0.523951,0.31265348,-0.27530331,0.497917,0.3201524,-0.29372218,0.501866,0.33985873,-0.30878396,0.513956,0.37314212,-0.28106163,0.519634,0.32830704,-0.28546385,0.498173,0.33409137,-0.29824594,0.500781,0.33892167,-0.30881232,0.503082
0.41492736,-0.35804116,0.58999,0.39215094,-0.30543698,0.558967,0.40424212,-0.34204358,0.591764,0.3760209,-0.32843643,0.584462,0.34617215,-0.31559059,0.57816,0.32727857,-0.30233197,0.569178,0.36276456,-0.25617696,0.542903,0.31292248,-0.25210671,0.52176,0.28818528,-0.25004146,0.511189,0.27052946,-0.25289498,0.510356,0.36711397,-0.25931491,0.531272,0.31475194,-0.26827842,0.501202,0.31592238,-0.29344489,0.507909,0.32702701,-0.30243387,0.512701,0.3729472,-0.26587636,0.52404,0.32619871,-0.27624562,0.50045,0.33121477,-0.2969958,0.506199,0.34555074,-0.31293211,0.518021,0.38405526,-0.28116007,0.519816,0.33881129,-0.28556298,0.498346,0.34537134,-0.29912022,0.502249,0.35404161,-0.30938333,0.505692
0.41431541,-0.35555144,0.590717,0.38971629,-0.30178167,0.557428,0.40228437,-0.33783134,0.590227,0.36872681,-0.30953532,0.579055,0.34025606,-0.29598188,0.569029,0.3233295,-0.2789387,0.557604,0.36022558,-0.24718475,0.537216,0.30984358,-0.24376754,0.512768,0.28487008,-0.24200882,0.500544,0.26600244,-0.24623919,0.499101,0.36591055,-0.25589936,0.52771,0.31167058,-0.26313366,0.494973,0.31915868,-0.28360665,0.502099,0.32516736,-0.29823833,0.507189,0.37329659,-0.26444848,0.522396,0.32337884,-0.27201731,0.495758,0.32747856,-0.28374009,0.501819,0.3377045,-0.29903222,0.514997,0.38608953,-0.28211885,0.520763,0.33891852,-0.28480733,0.496769,0.3467137,-0.29803352,0.500864,0.35629996,-0.30782204,0.504478
0.45367749,-0.35098163,0.597388,0.41844692,-0.30365078,0.559903,0.43688012,-0.33400631,0.59522,0.40008127,-0.31323654,0.578877,0.36876269,-0.29732241,0.565754,0.349229,-0.28057278,0.551893,0.37729882,-0.25557267,0.535136,0.32462877,-0.24422849,0.506904,0.2985791,-0.23853777,0.492788,0.27851096,-0.2394863,0.485591,0.38710797,-0.26182011,0.526438,0.33350863,-0.27257531,0.488989,0.3229141,-0.29171512,0.488527,0.33645146,-0.30739611,0.501928,0.39795732,-0.27057191,0.522106,0.34690008,-0.28003279,0.484888,0.35142906,-0.2932894,0.484389,0.36657655,-0.31443344,0.499219,0.41597284,-0.28770729,0.522225,0.36693488,-0.29001139,0.497074,0.35343034,-0.29696371,0.496441,0.34875765,-0.30865675,0.505047
0.46468141,-0.35108974,0.597572,0.44007284,-0.30371694,0.560025,0.4585231,-0.33404222,0.595284,0.42157971,-0.31301524,0.578468,0.39057924,-0.29714532,0.565417,0.37101459,-0.28032878,0.551413,0.39848402,-0.25554164,0.535071,0.34522761,-0.24394135,0.506308,0.31890357,-0.23812053,0.491926,0.29900042,-0.2391026,0.484813,0.40849924,-0.26185344,0.526505,0.35323767,-0.2723245,0.488539,0.34267832,-0.29165481,0.488426,0.35644293,-0.30751615,0.502124,0.41954845,-0.2706652,0.522286,0.3671598,-0.28007899,0.484968,0.37145804,-0.29352433,0.484777,0.38693775,-0.31478049,0.49977,0.43785101,-0.28788523,0.522548,0.38810386,-0.29056453,0.497195,0.37457066,-0.29805582,0.496791,0.37017203,-0.30976607,0.505557
0.45773455,-0.35439682,0.556204,0.43410349,-0.30096812,0.531347,0.45088321,-0.34143334,0.562076,0.42776648,-0.31338062,0.560459,0.402612,-0.3030668,0.558681,0.38589779,-0.28984612,0.552028,0.41218045,-0.25517128,0.524001,0.36550544,-0.25646236,0.507114,0.34217664,-0.25710577,0.498671,0.32654793,-0.26321252,0.499369,0.41309806,-0.25435801,0.509155,0.36470647,-0.22855842,0.485329,0.34884943,-0.24370566,0.491699,0.35399219,-0.26596273,0.502627,0.41573322,-0.25765004,0.498811,0.36957271,-0.26719393,0.48181,0.37489753,-0.28619369,0.488264,0.38317821,-0.30512,0.497707,0.42238424,-0.26904362,0.490035,0.3778573,-0.27314994,0.473999,0.37340777,-0.28743533,0.478556,0.37208693,-0.30213403,0.485967
0.46344632,-0.35461219,0.556542,0.4449217,-0.30101339,0.531189,0.45579408,-0.3410959,0.561564,0.43730544,-0.31250947,0.55895,0.41172839,-0.30162718,0.555862,0.39485759,-0.28815374,0.548472,0.42168736,-0.25450644,0.522497,0.37629165,-0.25658472,0.506955,0.35359794,-0.2591139,0.499185,0.33945285,-0.26809843,0.501108,0.42360947,-0.25426664,0.508555,0.37483193,-0.22815546,0.483731,0.36065582,-0.24418987,0.491788,0.36643098,-0.26688643,0.503524,0.42713216,-0.25806076,0.498993,0.38000904,-0.26705304,0.480805,0.38586022,-0.28653907,0.488261,0.39466955,-0.30593401,0.498584,0.43493183,-0.27011521,0.491213,0.38920515,-0.27368013,0.474132,0.38527581,-0.28839862,0.479443,0.38446648,-0.30350911,0.487514
0.49682702,-0.36763571,0.558852,0.47838259,-0.3139419,0.530996,0.4914348,-0.35117809,0.562962,0.47178742,-0.31848886,0.558293,0.44843175,-0.30443933,0.553992,0.43344473,-0.2898494,0.545724,0.46092224,-0.26363406,0.519696,0.41263615,-0.25999225,0.502336,0.38824892,-0.25952754,0.493656,0.37223757,-0.26524638,0.493939,0.46174156,-0.26698191,0.506127,0.41451808,-0.23677177,0.479378,0.39750203,-0.24858319,0.484912,0.40053502,-0.26995751,0.496607,0.46395057,-0.27377695,0.497061,0.41149352,-0.27612813,0.477047,0.41261277,-0.29333122,0.482981,0.4187066,-0.31166496,0.493433,0.46940891,-0.28946331,0.490219,0.41931743,-0.28604249,0.471702,0.41214099,-0.29787894,0.475807,0.40966542,-0.31115644,0.483915
0.50056074,-0.36886291,0.557261,0.48650905,-0.31721331,0.528444,0.49455511,-0.35181606,0.560594,0.47911248,-0.32045022,0.554514,0.45501715,-0.30609583,0.549055,0.43954151,-0.29142979,0.540045,0.46785252,-0.26592508,0.515614,0.41828146,-0.26173766,0.496985,0.3933119,-0.26094755,0.48767,0.37723956,-0.26657865,0.487742,0.46914997,-0.27004511,0.502718,0.42084706,-0.23963054,0.474871,0.40435141,-0.25181752,0.480873,0.40781328,-0.27333328,0.493059,0.47183747,-0.27751956,0.494278,0.41802438,-0.27710698,0.47307,0.41777086,-0.29441921,0.479153,0.41946624,-0.31138512,0.490146,0.4780041,-0.29409588,0.488312,0.42641202,-0.28970749,0.468795,0.41921965,-0.3013888,0.472995,0.41709026,-0.3147731,0.481492
0.45936925,-0.33827373,0.520529,0.46713348,-0.29194828,0.502608,0.45410631,-0.32463162,0.52499,0.4509763,-0.29466118,0.52636,0.45105243,-0.27129623,0.530632,0.45429324,-0.25619985,0.529964,0.46410936,-0.25273902,0.497595,0.43163202,-0.22910484,0.476689,0.41479304,-0.21867997,0.466237,0.41153066,-0.23045104,0.471267,0.47174503,-0.25400312,0.486609,0.43704854,-0.22789196,0.466183,0.43845154,-0.25556585,0.482613,0.45031895,-0.27624173,0.495158,0.47791777,-0.25821632,0.478919,0.44617857,-0.23603517,0.461349,0.4493975,-0.26067453,0.474909,0.46364039,-0.27993738,0.487421,0.4851805,-0.2694107,0.472316,0.45045161,-0.24770188,0.457501,0.45172675,-0.26609542,0.467692,0.46338085,-0.28182052,0.476858
0.48855996,-0.36384378,0.562266,0.50759479,-0.32051786,0.545158,0.48120387,-0.34132595,0.553466,0.45410765,-0.29640715,0.532187,0.43139444,-0.26115638,0.514435,0.42378432,-0.23754592,0.505872,0.49944147,-0.26587392,0.524153,0.48214756,-0.26354116,0.50071,0.47360902,-0.26258085,0.488988,0.46707281,-0.27748696,0.495491,0.51977858,-0.28399494,0.529885,0.51233836,-0.27691968,0.506494,0.5255334,-0.30282291,0.526246,0.52396672,-0.32296569,0.540907,0.53566388,-0.30206548,0.535891,0.5190345,-0.30014696,0.512894,0.5160836,-0.3197238,0.529035,0.5199238,-0.32895731,0.544806,0.552884,-0.32954644,0.545409,0.5363686,-0.32656568,0.524692,0.54315817,-0.34810833,0.536716,0.55037324,-0.36833737,0.54867
0.49820473,-0.36094892,0.55231,0.51360203,-0.31253237,0.538799,0.48262392,-0.33869965,0.544897,0.46468354,-0.29845501,0.527806,0.44363796,-0.26972818,0.508284,0.43649193,-0.24989503,0.496639,0.49887408,-0.26444278,0.521634,0.49566705,-0.26546293,0.502211,0.49017985,-0.26976016,0.4925,0.48952624,-0.28998211,0.500825,0.52399099,-0.27696496,0.526736,0.52528223,-0.27249482,0.507932,0.53243829,-0.30564315,0.52896,0.53373313,-0.31737254,0.542362,0.54226112,-0.29042195,0.531953,0.5236106,-0.30399436,0.512569,0.52479412,-0.32728713,0.52972,0.53029761,-0.33558206,0.546802,0.5622532,-0.31196655,0.540031,0.5378854,-0.31807907,0.521855,0.53818605,-0.33208463,0.534692,0.54006717,-0.34561798,0.547786
0.52933839,-0.36621603,0.578066,0.53542414,-0.31607171,0.553536,0.51118941,-0.34370284,0.568457,0.4881606,-0.30153958,0.547495,0.46558751,-0.26950222,0.528628,0.4561975,-0.2453755,0.517786,0.51392067,-0.26063744,0.527155,0.49996429,-0.25026852,0.499282,0.48174734,-0.25732738,0.485345,0.47398697,-0.27247786,0.489187,0.53682249,-0.27424649,0.531636,0.52677433,-0.25604098,0.502263,0.53284634,-0.28682902,0.519524,0.53759597,-0.30371915,0.535567,0.55567814,-0.28901127,0.537172,0.52796367,-0.2961833,0.50927,0.53020789,-0.32059696,0.523405,0.53387608,-0.32976274,0.536255,0.57803005,-0.31323849,0.547174,0.5457419,-0.31419363,0.522066,0.54658728,-0.32941196,0.532422,0.55106896,-0.34520913,0.545275
0.533054,-0.36595131,0.580376,0.54059802,-0.31686646,0.559302,0.51129501,-0.34120124,0.566652,0.49269896,-0.3016177,0.543117,0.47459679,-0.27121685,0.521932,0.46568445,-0.24718011,0.510002,0.51594214,-0.25993988,0.529848,0.495773,-0.26471938,0.501204,0.48283199,-0.27042387,0.486882,0.47370693,-0.28544861,0.489511,0.54301091,-0.27251593,0.540489,0.54443389,-0.25502794,0.51362,0.55321734,-0.2858345,0.529486,0.5545535,-0.30251981,0.544185,0.56573416,-0.28812328,0.550834,0.54916487,-0.2967462,0.523329,0.55231499,-0.32166973,0.536214,0.55174617,-0.33077022,0.547928,0.5924924,-0.31341944,0.566051,0.57070612,-0.31705619,0.541927,0.57038217,-0.33277735,0.551376,0.57395413,-0.34904217,0.56353
0.53230018,-0.3639332,0.579796,0.5399319,-0.31522743,0.559242,0.51144373,-0.3394538,0.566561,0.49056376,-0.29478575,0.543971,0.47201473,-0.26119974,0.524072,0.46433825,-0.23720188,0.514255,0.51712985,-0.25701152,0.530699,0.49859308,-0.26410562,0.502614,0.48449984,-0.27083845,0.488572,0.4761466,-0.28644457,0.491686,0.54378885,-0.27200257,0.540892,0.54562113,-0.25569102,0.51444,0.55455429,-0.28694454,0.530834,0.55586025,-0.30367315,0.545548,0.56551202,-0.28786425,0.550829,0.54986682,-0.29669977,0.523757,0.55343995,-0.32188888,0.537077,0.55302878,-0.3317144,0.549187,0.59080561,-0.31331739,0.565489,0.5701306,-0.31708706,0.541742,0.57040896,-0.33326123,0.551536,0.57419139,-0.34975772,0.563692
0.52226985,-0.3561275,0.569224,0.53213632,-0.30843781,0.552835,0.50607164,-0.33469097,0.561055,0.48858231,-0.29370125,0.541617,0.47303275,-0.26188524,0.524536,0.46605723,-0.23810802,0.51514,0.51435396,-0.25284889,0.533037,0.50794266,-0.2281144,0.510527,0.50505973,-0.21545084,0.499272,0.52027716,-0.21291697,0.506271,0.53933954,-0.26827022,0.538203,0.52458898,-0.27212783,0.51618,0.53976225,-0.30709085,0.536362,0.5419543,-0.32371172,0.550664,0.55729888,-0.28318436,0.54369,0.54746643,-0.29090251,0.52575,0.55623561,-0.31746878,0.54245,0.56185846,-0.33633674,0.557631,0.57689935,-0.30574024,0.552491,0.55795162,-0.30749994,0.532381,0.56414508,-0.32861826,0.544668,0.56957436,-0.34585148,0.556925
0.52241371,-0.35594902,0.56927,0.5326569,-0.31009859,0.553364,0.50746822,-0.33526642,0.562788,0.49123644,-0.29537009,0.546063,0.47578088,-0.26237809,0.532928,0.4699934,-0.23958574,0.522698,0.51549305,-0.25494278,0.535946,0.50879942,-0.22968331,0.514754,0.50158574,-0.21587587,0.504158,0.51569417,-0.21051775,0.511889,0.53879201,-0.26852169,0.539164,0.53212881,-0.24716085,0.517196,0.55396835,-0.27267743,0.537919,0.56015714,-0.29748431,0.55237,0.55582706,-0.28254982,0.543011,0.54487689,-0.28873425,0.524472,0.55491645,-0.31611015,0.541579,0.56167059,-0.33560567,0.557131,0.57402704,-0.30427436,0.549801,0.55551399,-0.30536999,0.53052,0.56309326,-0.32717878,0.543206,0.56969021,-0.3449817,0.555637
0.52412007,-0.35634126,0.569967,0.53394552,-0.30958682,0.555976,0.50832437,-0.33566773,0.563166,0.49259766,-0.29917386,0.547772,0.47584638,-0.26625161,0.531671,0.46583,-0.24475774,0.523809,0.50871118,-0.25641738,0.53929,0.50203382,-0.22552369,0.519173,0.49893016,-0.20967038,0.509115,0.51347514,-0.20175532,0.517313,0.53222523,-0.26545554,0.543485,0.53349012,-0.25843563,0.52422,0.56877166,-0.2704855,0.545343,0.5817482,-0.29391728,0.558942,0.55152231,-0.27639084,0.547992,0.54920964,-0.28306391,0.531503,0.5590073,-0.31141001,0.548913,0.56725686,-0.33561023,0.56474,0.57442299,-0.29593966,0.555295,0.56084221,-0.29726914,0.537027,0.56844062,-0.31900553,0.549935,0.57446277,-0.33809983,0.56137
0.52486853,-0.35664631,0.570383,0.53253328,-0.30892398,0.556356,0.50920526,-0.33650792,0.564212,0.48869373,-0.30229833,0.549612,0.46779186,-0.27032504,0.531901,0.4628437,-0.24725671,0.52559,0.50794096,-0.25727825,0.54043,0.5012717,-0.22624458,0.520662,0.49816928,-0.21030615,0.510778,0.50074579,-0.19761052,0.507104,0.53079584,-0.26590415,0.543833,0.53159476,-0.258827,0.524362,0.56510145,-0.2728587,0.545617,0.57544705,-0.29680735,0.559332,0.54951512,-0.27648911,0.54769,0.54661547,-0.28304124,0.530773,0.55667583,-0.31147914,0.548278,0.56223683,-0.33264129,0.564192,0.57170056,-0.2955973,0.554229,0.55819355,-0.29714645,0.536149,0.56606844,-0.31898731,0.549162,0.57228438,-0.33815265,0.560571
0.52598145,-0.35748157,0.571335,0.53159572,-0.30898028,0.556181,0.51004132,-0.33746385,0.565272,0.48960885,-0.30218414,0.548266,0.46611461,-0.27019007,0.531167,0.45751684,-0.24901971,0.52656,0.50635827,-0.25740239,0.539725,0.49652032,-0.22446397,0.519263,0.49246421,-0.20742273,0.509033,0.50118469,-0.19650577,0.512302,0.52879895,-0.26586939,0.542652,0.52608327,-0.25852777,0.522074,0.55969834,-0.27240009,0.543097,0.5733367,-0.29552226,0.557139,0.54726082,-0.27635656,0.546202,0.54263669,-0.24745231,0.526139,0.56867693,-0.2620227,0.542795,0.58648001,-0.28802846,0.558278,0.56932173,-0.29542397,0.552535,0.55508561,-0.29621076,0.533835,0.56306413,-0.31797153,0.546698,0.56975148,-0.33727302,0.558267
0.52676876,-0.35886921,0.572095,0.52665869,-0.3133378,0.557493,0.51143196,-0.33960064,0.567164,0.48796849,-0.30859274,0.549615,0.47033135,-0.27626796,0.539958,0.46376398,-0.25768941,0.540013,0.4992769,-0.26563519,0.542771,0.49092139,-0.22978094,0.523331,0.48687222,-0.2114982,0.513611,0.49804856,-0.19686522,0.515679,0.52087561,-0.27280442,0.544458,0.52109696,-0.25570168,0.524135,0.55555519,-0.26296987,0.545427,0.5756,-0.28206768,0.559461,0.53884912,-0.28224374,0.546947,0.53753916,-0.25479716,0.527687,0.56493101,-0.2701156,0.545138,0.58517716,-0.29254992,0.559887,0.56080563,-0.30013244,0.551943,0.55253127,-0.29694592,0.533977,0.56137143,-0.31897553,0.547052,0.56925843,-0.33779646,0.558445
0.52654117,-0.35864842,0.570896,0.51944097,-0.31503591,0.553806,0.50968321,-0.34149647,0.564834,0.47891608,-0.31215962,0.545524,0.4528553,-0.27841895,0.529235,0.44399578,-0.25825653,0.526143,0.48539114,-0.26536225,0.536212,0.47607208,-0.22905584,0.514471,0.47151276,-0.21065686,0.503601,0.47006282,-0.1920773,0.493719,0.50889957,-0.27074035,0.538548,0.49929358,-0.23450491,0.515515,0.49450874,-0.21672063,0.502079,0.50822628,-0.21162096,0.509402,0.52909881,-0.2789091,0.541759,0.52048724,-0.24044096,0.520091,0.51615554,-0.220598,0.509005,0.51219972,-0.21896106,0.498926,0.5558001,-0.29684404,0.547961,0.53922507,-0.29184779,0.528152,0.55220894,-0.31483858,0.540689,0.5631661,-0.3338778,0.552523
0.52114603,-0.36551766,0.554781,0.52075916,-0.32376407,0.546007,0.50657514,-0.35786105,0.550603,0.48320769,-0.32758904,0.545606,0.45842193,-0.29776716,0.534133,0.45056704,-0.27745844,0.530142,0.4880341,-0.27940095,0.535629,0.47603218,-0.23687367,0.520879,0.47058535,-0.21753504,0.513504,0.46565062,-0.1997395,0.506799,0.51305035,-0.28163807,0.538141,0.50435238,-0.23811094,0.522524,0.49686749,-0.21390612,0.513414,0.49310192,-0.19743916,0.506907,0.53454182,-0.28699942,0.540868,0.52554631,-0.24395711,0.526213,0.5226567,-0.22383721,0.518715,0.51582977,-0.2067328,0.511899,0.56166161,-0.30004135,0.54533,0.55292391,-0.26184724,0.533407,0.55148861,-0.24884366,0.527929,0.56409166,-0.24400293,0.536141
0.51631268,-0.36124051,0.550381,0.51939029,-0.32170825,0.544838,0.50230223,-0.35371611,0.546457,0.47953415,-0.32436311,0.542389,0.45598114,-0.29600856,0.533156,0.44836556,-0.27684388,0.53113,0.48930231,-0.27832303,0.536687,0.47905606,-0.23823363,0.524506,0.47421827,-0.2188991,0.518415,0.46983221,-0.2010541,0.512878,0.51482041,-0.28119594,0.539869,0.50589287,-0.23815813,0.527145,0.49876339,-0.20974257,0.519723,0.4945156,-0.19108941,0.514421,0.5364407,-0.28695837,0.542904,0.52868056,-0.24502644,0.53092,0.52158869,-0.22154649,0.526289,0.51935312,-0.20349254,0.522079,0.56315964,-0.30022843,0.547279,0.56514219,-0.26677077,0.545466,0.56681571,-0.25046563,0.544634,0.56855155,-0.23689512,0.543899
0.52513129,-0.367395,0.547665,0.51974004,-0.3227777,0.544235,0.50218366,-0.35399342,0.543354,0.4820887,-0.33134578,0.539515,0.45608694,-0.30528716,0.531509,0.44843213,-0.28883938,0.533039,0.48651457,-0.28609996,0.536854,0.47773415,-0.24573315,0.526934,0.47495806,-0.22250759,0.521975,0.47246055,-0.20410677,0.517466,0.51431802,-0.28482857,0.54116,0.50589702,-0.23946059,0.530948,0.49807414,-0.21535691,0.524991,0.49806473,-0.19563832,0.520736,0.53738348,-0.28869019,0.544962,0.52887899,-0.24613484,0.535542,0.52483246,-0.22453079,0.530722,0.52211837,-0.20567483,0.52634,0.5630334,-0.30011087,0.54995,0.56633449,-0.2678241,0.548203,0.56708527,-0.25184962,0.5474,0.56860115,-0.23826543,0.546691
0.51986471,-0.35834348,0.55318,0.51678523,-0.31276855,0.548643,0.49928163,-0.34704238,0.548542,0.47664771,-0.32130339,0.542887,0.45050239,-0.29235541,0.529717,0.44423615,-0.27545245,0.531254,0.48828549,-0.26968153,0.540197,0.47497573,-0.23324895,0.528209,0.46865799,-0.21348201,0.522215,0.4629021,-0.19527938,0.516766,0.51433852,-0.27395741,0.544564,0.50283922,-0.22902958,0.532709,0.49627509,-0.20276091,0.525793,0.49742863,-0.1909754,0.520854,0.53622642,-0.2807917,0.548497,0.52892392,-0.2378118,0.542019,0.52589991,-0.21703603,0.538706,0.52315103,-0.19802345,0.535693,0.56525919,-0.29146247,0.553795,0.56222847,-0.25914285,0.551891,0.56362523,-0.24425871,0.551016,0.56488612,-0.23094634,0.550244
0.5221354,-0.36413048,0.551676,0.51886267,-0.32262199,0.546569,0.50211456,-0.35202279,0.547772,0.47750696,-0.32106224,0.538568,0.4522696,-0.29449569,0.532355,0.44367882,-0.27782618,0.532617,0.48323068,-0.27969942,0.538696,0.47201633,-0.23528008,0.526327,0.46453541,-0.2172606,0.520142,0.45986549,-0.19638887,0.51452,0.50816221,-0.28246757,0.541978,0.50019782,-0.23943471,0.529675,0.49400697,-0.21315141,0.522499,0.49216352,-0.19234381,0.517373,0.53229483,-0.28901986,0.54506,0.52831435,-0.26601169,0.532699,0.52779523,-0.28155573,0.526375,0.54489662,-0.30554602,0.537974,0.55831865,-0.29903042,0.549429,0.56439127,-0.26978837,0.552447,0.56756508,-0.25557147,0.553834,0.57039717,-0.24295572,0.555058
0.51307628,-0.3576358,0.543917,0.51175102,-0.32152084,0.544906,0.4931393,-0.34650128,0.54075,0.47306377,-0.32130997,0.53885,0.44804775,-0.29519449,0.531689,0.44278061,-0.2803229,0.53548,0.48441342,-0.28123507,0.541563,0.47919442,-0.23967458,0.535257,0.47501787,-0.22112764,0.532104,0.47216676,-0.20265839,0.529238,0.51058786,-0.28427338,0.545795,0.50557495,-0.24143589,0.539685,0.50712583,-0.21835297,0.543505,0.50963004,-0.20239374,0.546234,0.53241091,-0.28987088,0.549203,0.51541829,-0.24854131,0.541634,0.50733242,-0.22773431,0.537762,0.50270837,-0.21001627,0.537108,0.5591957,-0.30106741,0.553107,0.56158034,-0.26989668,0.552597,0.56548797,-0.25473707,0.552363,0.56975546,-0.24125687,0.552156
