sluyters/QuantumLeap/backend/src/datasets/dynamic/HandGestureDataset_SHREC2017_csv/Gesture4/finger_2/subject_21_essai_3_skeletons_world.csv
Wrist_x,Wrist_y,Wrist_z,Palm_x,Palm_y,Palm_z,thumb_base_x,thumb_base_y,thumb_base_z,thumb_first_joint_x,thumb_first_joint_y,thumb_first_joint_z,thumb_second_joint_x,thumb_second_joint_y,thumb_second_joint_z,thumb_tip_x,thumb_tip_y,thumb_tip_z,index_base_x,index_base_y,index_base_z,index_first_joint_x,index_first_joint_y,index_first_joint_z,index_second_joint_x,index_second_joint_y,index_second_joint_z,index_tip_x,index_tip_y,index_tip_z,middle_base_x,middle_base_y,middle_base_z,middle_first_joint_x,middle_first_joint_y,middle_first_joint_z,middle_second_joint_x,middle_second_joint_y,middle_second_joint_z,middle_tip_x,middle_tip_y,middle_tip_z,ring_base_x,ring_base_y,ring_base_z,ring_first_joint_x,ring_first_joint_y,ring_first_joint_z,ring_second_joint_x,ring_second_joint_y,ring_second_joint_z,ring_tip_x,ring_tip_y,ring_tip_z,pinky_base_x,pinky_base_y,pinky_base_z,pinky_first_joint_x,pinky_first_joint_y,pinky_first_joint_z,pinky_second_joint_x,pinky_second_joint_y,pinky_second_joint_z,pinky_tip_x,pinky_tip_y,pinky_tip_z,
0.310669116,-0.255132091,0.366266,0.306328512,-0.209296702,0.358691,0.291951014,-0.24375009,0.365938,0.258959975,-0.236041945,0.365132,0.218453215,-0.222540934,0.345352,0.197067424,-0.208689421,0.33702,0.279148763,-0.169146905,0.353682,0.273968096,-0.133690281,0.355174,0.270727711,-0.116763045,0.35592,0.26771293,-0.10117971,0.356598,0.301294202,-0.169761341,0.351859,0.303959563,-0.130230652,0.353603,0.304862163,-0.107989679,0.35462,0.30550971,-0.0919996255,0.355346,0.319912703,-0.174073832,0.350993,0.321379963,-0.135881649,0.346327,0.322429574,-0.116207457,0.34394,0.323473783,-0.098234369,0.34177,0.342618478,-0.186099559,0.351125,0.349314145,-0.157875655,0.342362,0.350174739,-0.143960505,0.338336,0.356322384,-0.133469674,0.334784
0.309866288,-0.255193441,0.365899,0.305464652,-0.209373025,0.358262,0.290966505,-0.243617264,0.36531,0.257497715,-0.236887466,0.363209,0.217587456,-0.221501989,0.341782,0.195513632,-0.206458784,0.331408,0.278091433,-0.168756496,0.352915,0.27056057,-0.13221663,0.350654,0.268771541,-0.114640551,0.349524,0.265036914,-0.0985950718,0.348497,0.300434459,-0.169609819,0.351408,0.301697789,-0.129580542,0.351042,0.301948245,-0.107905518,0.350829,0.302502417,-0.0914471145,0.350676,0.31926241,-0.174120558,0.350805,0.317279172,-0.134986778,0.343795,0.315362267,-0.114977407,0.340208,0.316558732,-0.0964893998,0.336948,0.342260784,-0.186401228,0.351254,0.345093066,-0.1567272,0.342084,0.347398298,-0.143645211,0.33787,0.349521784,-0.131952807,0.334153
0.309255256,-0.255412142,0.365758,0.304840587,-0.209613422,0.358114,0.290367852,-0.243805864,0.365165,0.257130011,-0.236708837,0.362717,0.217429937,-0.221075671,0.340697,0.195250093,-0.20565313,0.329865,0.27765625,-0.16867128,0.352772,0.269907519,-0.132086997,0.349705,0.267953892,-0.1140382,0.348172,0.264318246,-0.0977446949,0.346778,0.299983314,-0.169593322,0.351276,0.300810589,-0.129518878,0.35008,0.301065677,-0.107338161,0.349383,0.301508565,-0.0907214627,0.348885,0.318809828,-0.174160595,0.350684,0.316063978,-0.134771685,0.34307,0.314020035,-0.114604346,0.339174,0.314550657,-0.0960483509,0.335632,0.341815314,-0.186514073,0.351152,0.344331633,-0.156426571,0.341899,0.346403753,-0.143511738,0.337648,0.348333596,-0.13193859,0.333896
0.273788773,-0.213690008,0.311758,0.279561585,-0.186723269,0.324577,0.254542426,-0.204403504,0.313166,0.22741716,-0.204647194,0.324079,0.198976929,-0.205692145,0.309512,0.186943681,-0.198644091,0.314788,0.262725246,-0.160024369,0.334075,0.262472963,-0.128213284,0.337731,0.263215488,-0.11130374,0.339559,0.262854939,-0.0956311541,0.34122,0.286775966,-0.162628992,0.336078,0.293062568,-0.127925409,0.340976,0.298231433,-0.10773179,0.343833,0.301427328,-0.0895642807,0.345874,0.305856385,-0.167513576,0.336657,0.311960312,-0.135145052,0.340844,0.31466963,-0.119090434,0.342986,0.319919771,-0.0995043926,0.344933,0.326498306,-0.178211194,0.335394,0.341635235,-0.154762131,0.339544,0.34795924,-0.144792187,0.341451,0.35460408,-0.135833257,0.343133
0.306479283,-0.254674803,0.362409,0.299835231,-0.207752075,0.351615,0.283835969,-0.24013299,0.357175,0.255973036,-0.246075273,0.345697,0.209383574,-0.218781682,0.320039,0.188663322,-0.205124669,0.311857,0.263753066,-0.165612664,0.338526,0.261264253,-0.12926456,0.333883,0.260254799,-0.110802505,0.331562,0.259349396,-0.0937511294,0.329452,0.289961797,-0.166556707,0.341931,0.284627709,-0.126570642,0.33189,0.281957701,-0.102035623,0.326032,0.280321992,-0.0848491363,0.321848,0.312790616,-0.17263208,0.345634,0.301048971,-0.13302187,0.330033,0.295394663,-0.111957568,0.322051,0.290311126,-0.092865122,0.314795,0.342148905,-0.186930594,0.351638,0.335177082,-0.155158429,0.338893,0.333006806,-0.141457313,0.333037,0.333590149,-0.12954845,0.32787
0.307584261,-0.256943969,0.363651,0.297568057,-0.207346733,0.3504,0.284541079,-0.242255188,0.358205,0.255964434,-0.245053882,0.344845,0.211224753,-0.219550367,0.319815,0.187851514,-0.202326187,0.305492,0.261457791,-0.165003484,0.335562,0.255506682,-0.129014856,0.325085,0.254206288,-0.112236157,0.319847,0.251027228,-0.093157649,0.315979,0.286929476,-0.165856004,0.338512,0.279675342,-0.125756641,0.326027,0.275682087,-0.10100086,0.318744,0.273098242,-0.0836849976,0.313542,0.30916436,-0.171633481,0.342045,0.29592659,-0.132481762,0.324397,0.2892188,-0.111569678,0.315367,0.283181306,-0.0925830584,0.307159,0.338186612,-0.185935043,0.348221,0.328033275,-0.157966515,0.332761,0.323138251,-0.143923118,0.325657,0.318848268,-0.131391083,0.31939
0.307469517,-0.258001236,0.363662,0.294397733,-0.208016199,0.348057,0.285787126,-0.244583007,0.36006,0.256338269,-0.244273664,0.34427,0.218476044,-0.22149331,0.318233,0.192308658,-0.201028396,0.302559,0.259709493,-0.166175158,0.33412,0.248965415,-0.12882578,0.315564,0.243620854,-0.11209999,0.306286,0.244311266,-0.094617036,0.305007,0.282898397,-0.165933149,0.334057,0.268112521,-0.126413069,0.313625,0.259724288,-0.101735304,0.301706,0.253741207,-0.0840199393,0.293193,0.302977922,-0.170850744,0.335306,0.28773341,-0.135835474,0.316044,0.279949664,-0.116375794,0.306188,0.272896302,-0.0984060499,0.297229,0.329500303,-0.183590537,0.339147,0.315372282,-0.159604513,0.32285,0.308779436,-0.14709631,0.315361,0.302976826,-0.135893371,0.308754
0.310223068,-0.260690985,0.367286,0.293460559,-0.206447634,0.346405,0.2860817,-0.24549697,0.360871,0.255118819,-0.239381755,0.340955,0.224737326,-0.220683289,0.314972,0.204641432,-0.203949438,0.297174,0.252458707,-0.163195806,0.32575,0.240366662,-0.127959768,0.303574,0.234575458,-0.110314235,0.292485,0.229345551,-0.0941252439,0.282405,0.27700474,-0.164660079,0.327672,0.260814621,-0.124081353,0.302935,0.251480788,-0.100492382,0.288505,0.244836082,-0.0835108188,0.278197,0.299285748,-0.169568788,0.330994,0.279683978,-0.133165163,0.307364,0.269570416,-0.116008542,0.295274,0.260778044,-0.096590318,0.284284,0.328581199,-0.182419868,0.33808,0.30910014,-0.158817618,0.318147,0.29815779,-0.151201994,0.308989,0.290201957,-0.143858189,0.300908
0.311286827,-0.261706381,0.369008,0.29264175,-0.206598774,0.346148,0.286436305,-0.246341043,0.361877,0.255143178,-0.234447942,0.340879,0.223836693,-0.220344668,0.315114,0.20407266,-0.204190494,0.297245,0.248779892,-0.161418796,0.3234,0.235723866,-0.127353958,0.299792,0.229237435,-0.110140056,0.287988,0.22336923,-0.0943660406,0.277257,0.274290445,-0.162986621,0.32564,0.255729841,-0.123263156,0.299222,0.243102488,-0.101672917,0.283812,0.238357188,-0.0839001676,0.273432,0.297059062,-0.168113305,0.32939,0.274522988,-0.133657789,0.304218,0.260929974,-0.117865028,0.291339,0.250545137,-0.102558237,0.279631,0.326861554,-0.18033762,0.33728,0.302721022,-0.159714157,0.316144,0.288630486,-0.15118668,0.306433,0.283767163,-0.154401516,0.297865
0.313924927,-0.264611887,0.372951,0.294073691,-0.211002811,0.349024,0.287281563,-0.248312521,0.363792,0.255283575,-0.233426364,0.340342,0.227925826,-0.211922657,0.314169,0.215199387,-0.195405604,0.296126,0.244691833,-0.166525453,0.323083,0.233405155,-0.130228124,0.298776,0.227230624,-0.113380311,0.286622,0.221857116,-0.0980357309,0.275824,0.272427707,-0.164739616,0.32756,0.255500261,-0.122427704,0.300106,0.244523566,-0.126347982,0.284091,0.234802029,-0.136291094,0.272652,0.296315809,-0.169700387,0.333239,0.266423916,-0.130986069,0.306577,0.259717548,-0.120122392,0.292935,0.251630636,-0.1230842,0.280534,0.328121313,-0.183300525,0.343566,0.304537552,-0.16540598,0.321306,0.294330517,-0.160690863,0.311079,0.288901991,-0.159663773,0.302055
0.31747203,-0.267566019,0.377121,0.295600509,-0.211128932,0.351515,0.290098721,-0.251543359,0.367469,0.260884609,-0.23364232,0.343288,0.232604529,-0.213261792,0.317589,0.22029517,-0.196471806,0.299639,0.243568119,-0.16736098,0.32394,0.224898234,-0.127836873,0.298233,0.218011068,-0.118703822,0.28538,0.211493579,-0.123946771,0.273695,0.26988366,-0.166904556,0.328543,0.242004483,-0.131094656,0.299564,0.231966307,-0.125867595,0.28266,0.227022715,-0.134555933,0.270586,0.293806745,-0.170707768,0.334466,0.265031978,-0.129344785,0.30665,0.256017527,-0.122455109,0.292419,0.2501034,-0.126602159,0.279481,0.326133143,-0.182950021,0.345335,0.303927043,-0.166269864,0.322131,0.292466662,-0.160850685,0.311469,0.288214917,-0.161340467,0.302062
0.323885916,-0.272597272,0.38473,0.297609939,-0.214457977,0.354668,0.294439557,-0.255915326,0.372974,0.263951222,-0.235357209,0.346155,0.238340605,-0.215234832,0.321012,0.223915733,-0.198769443,0.30337,0.241315046,-0.168962777,0.321761,0.227648012,-0.143182167,0.293183,0.220298563,-0.129020138,0.278894,0.214091679,-0.131860958,0.265904,0.269276796,-0.167811213,0.3277,0.239429331,-0.129860107,0.295276,0.227819292,-0.122830448,0.276363,0.221655416,-0.130208322,0.262853,0.294345079,-0.171974821,0.335093,0.265759595,-0.148164159,0.303702,0.258061885,-0.150144404,0.287642,0.25171261,-0.157107349,0.273042,0.330372461,-0.184907201,0.348371,0.303864483,-0.166953149,0.322592,0.291447075,-0.160618181,0.310747,0.286189553,-0.160881711,0.300296
0.331289333,-0.277868047,0.394278,0.30181318,-0.219984301,0.364073,0.300872102,-0.261739442,0.381674,0.273321019,-0.238247793,0.353971,0.252190536,-0.216686014,0.3293,0.240747635,-0.198816467,0.311936,0.248156932,-0.173073907,0.330013,0.232776173,-0.140180252,0.300925,0.224465451,-0.147972373,0.286382,0.223567674,-0.160448581,0.286677,0.276419838,-0.172888698,0.336975,0.259307153,-0.146813788,0.304421,0.247284024,-0.158174918,0.28543,0.245482102,-0.168302228,0.285581,0.302538513,-0.176973042,0.345224,0.271108088,-0.143839181,0.31343,0.264744154,-0.150402227,0.297163,0.256188983,-0.155127895,0.282376,0.338472212,-0.190450491,0.359532,0.312348952,-0.172809936,0.333512,0.300501375,-0.164957434,0.321557,0.295887789,-0.166011458,0.311008
0.334679599,-0.278844025,0.400339,0.308747093,-0.22399595,0.37202,0.304424993,-0.263864294,0.387643,0.278772487,-0.239550636,0.359981,0.255775444,-0.219243964,0.334755,0.244554889,-0.201329832,0.317217,0.258360528,-0.177008288,0.338983,0.245553941,-0.144987022,0.310179,0.233565904,-0.152902362,0.295777,0.232355147,-0.165834902,0.29663,0.287269425,-0.178577751,0.346615,0.265732465,-0.144321003,0.315437,0.255024164,-0.15478995,0.29725,0.256226498,-0.16779632,0.298252,0.315334741,-0.186050598,0.355258,0.285857281,-0.152601531,0.324523,0.277931907,-0.160060769,0.308799,0.267752699,-0.163680842,0.294504,0.350177574,-0.201532388,0.369744,0.325001907,-0.183256265,0.344563,0.313425038,-0.174826912,0.332993,0.305879315,-0.172672098,0.322785
0.344001316,-0.284827066,0.412438,0.318292488,-0.23063971,0.382538,0.315844477,-0.271541335,0.402837,0.298517427,-0.243500408,0.378396,0.274277189,-0.218052458,0.35839,0.263707942,-0.200393218,0.353996,0.271591717,-0.1823022,0.35244,0.241421209,-0.154565471,0.323436,0.232227594,-0.161828722,0.308934,0.240449411,-0.174727754,0.310067,0.297097256,-0.184460581,0.355714,0.270256298,-0.146649243,0.323592,0.258542573,-0.157475874,0.304854,0.25983906,-0.171058064,0.305943,0.32066391,-0.189927196,0.360902,0.28785779,-0.148770271,0.330527,0.273864898,-0.142800835,0.314986,0.263738647,-0.148855456,0.300858,0.352509779,-0.204261,0.371556,0.325195321,-0.185776183,0.346406,0.312625578,-0.177256783,0.33485,0.304618782,-0.177547769,0.324654
0.346022574,-0.285915686,0.416429,0.320831444,-0.232471343,0.386656,0.318726022,-0.272447945,0.407343,0.303321864,-0.246674493,0.383503,0.279755226,-0.221357511,0.362938,0.268681348,-0.20342826,0.357668,0.273420019,-0.184592262,0.357284,0.243291316,-0.156073144,0.328808,0.231999108,-0.160574942,0.31457,0.239364874,-0.177954665,0.315963,0.298798373,-0.186219758,0.359948,0.271536601,-0.148055237,0.327982,0.257463327,-0.157732975,0.309336,0.2591558,-0.171720453,0.310571,0.322084099,-0.19178967,0.364622,0.288296376,-0.149826835,0.33456,0.274483985,-0.14413039,0.31918,0.264814287,-0.14991666,0.305198,0.354147829,-0.205557011,0.37465,0.326289632,-0.187105378,0.34971,0.311073275,-0.179101553,0.338251,0.302022634,-0.17909883,0.32814
0.352473469,-0.291282878,0.42576,0.32746289,-0.237171398,0.397864,0.324830662,-0.276851612,0.416549,0.31022529,-0.250785638,0.39267,0.286620615,-0.222255557,0.372024,0.272216673,-0.204322795,0.362117,0.280315643,-0.187917163,0.369464,0.250443317,-0.156471955,0.341819,0.240867302,-0.16129631,0.327996,0.246969001,-0.180846311,0.330165,0.306065381,-0.190109787,0.372838,0.279514159,-0.150204097,0.342207,0.265695864,-0.157390425,0.324339,0.269491431,-0.176673248,0.326471,0.329631296,-0.196206655,0.37794,0.29601751,-0.15306266,0.348887,0.28220175,-0.146240025,0.334022,0.273956293,-0.153548103,0.320509,0.361610712,-0.211420268,0.388189,0.332500235,-0.190785646,0.364043,0.31910199,-0.181286481,0.352949,0.311900837,-0.183081632,0.34316
0.351836115,-0.290505202,0.425013,0.331710492,-0.2385847,0.403594,0.326107842,-0.277386284,0.418022,0.313392332,-0.249848245,0.397359,0.290709819,-0.21793286,0.377214,0.280375371,-0.202974315,0.37276,0.289570035,-0.191085024,0.381891,0.261674113,-0.156604666,0.358949,0.25333794,-0.159472308,0.347478,0.261050806,-0.176858316,0.352709,0.314563236,-0.192014663,0.384379,0.290449484,-0.150809054,0.358927,0.279244354,-0.156921924,0.344081,0.285066827,-0.175421332,0.349303,0.337184139,-0.196962258,0.388212,0.306032532,-0.154309778,0.364103,0.293792216,-0.145897077,0.351768,0.286333246,-0.149576057,0.340555,0.368169408,-0.213109443,0.395981,0.340530445,-0.188399,0.375596,0.328088644,-0.178115268,0.36623,0.320306888,-0.176336997,0.357966
0.351736892,-0.289587802,0.424371,0.334704173,-0.239057416,0.40701,0.32534242,-0.274889451,0.416294,0.324608403,-0.253029274,0.409834,0.300035793,-0.218242384,0.388591,0.287720978,-0.201403561,0.383071,0.292154364,-0.192266652,0.386386,0.263673728,-0.156007367,0.365078,0.256692017,-0.157162357,0.354424,0.266448348,-0.177244955,0.360573,0.319172914,-0.193688465,0.391436,0.294707247,-0.150061444,0.369059,0.28618309,-0.154482705,0.356006,0.294199079,-0.173295218,0.362502,0.343495047,-0.198922129,0.397039,0.313250612,-0.155706724,0.378043,0.303236165,-0.146330396,0.368325,0.298683581,-0.149090893,0.35949,0.374407992,-0.209527159,0.406279,0.348363883,-0.185957038,0.38765,0.336330676,-0.175023263,0.379091,0.329535165,-0.172143766,0.371539
0.353536116,-0.289082414,0.426263,0.335731954,-0.226312962,0.409377,0.327194874,-0.274139475,0.418325,0.3276393,-0.241806616,0.414673,0.301897303,-0.211289454,0.397635,0.287440247,-0.191699235,0.391946,0.291853412,-0.182133742,0.389214,0.264596211,-0.150142752,0.368186,0.258831552,-0.156114128,0.357672,0.26864383,-0.173172344,0.363981,0.318542855,-0.182379153,0.394227,0.295353112,-0.143723065,0.372247,0.288138812,-0.153580652,0.359426,0.296403384,-0.17261302,0.366107,0.342727831,-0.186595117,0.399762,0.311035873,-0.144939207,0.378099,0.300593677,-0.137360976,0.367016,0.296426134,-0.145477459,0.35694,0.375089694,-0.199188643,0.408848,0.348570509,-0.175362149,0.390507,0.336312965,-0.164303965,0.38208,0.32934873,-0.161189929,0.374645
0.354751335,-0.28838738,0.428378,0.336129936,-0.227181474,0.411737,0.329236046,-0.274370266,0.421289,0.327555323,-0.243461664,0.417583,0.301549204,-0.213018226,0.400558,0.287450622,-0.193403494,0.395102,0.29345556,-0.183285717,0.392792,0.266152709,-0.15119528,0.372407,0.259810931,-0.154627636,0.362214,0.26984632,-0.172091035,0.36888,0.319323373,-0.18325227,0.396809,0.295834111,-0.144413863,0.37512,0.287213952,-0.151697867,0.362467,0.295576496,-0.17084398,0.369395,0.342761057,-0.187240733,0.401503,0.31164985,-0.14613496,0.380383,0.301218967,-0.139412219,0.369577,0.297579761,-0.146855763,0.359754,0.374146006,-0.199557755,0.409561,0.347703268,-0.177288459,0.391588,0.335462828,-0.166936007,0.383331,0.32852046,-0.164576042,0.376044
0.355452014,-0.287839823,0.429422,0.33642109,-0.227578166,0.412718,0.330065284,-0.273955161,0.422615,0.327585568,-0.244058209,0.41863,0.301416517,-0.21358433,0.401513,0.287416009,-0.193947769,0.396105,0.294066644,-0.183717836,0.394088,0.266687865,-0.151555419,0.373837,0.260195899,-0.154956541,0.363712,0.270165879,-0.172447283,0.370448,0.319634161,-0.183572203,0.397732,0.295954393,-0.144624191,0.376025,0.287079145,-0.151819417,0.363363,0.295402159,-0.170973513,0.370318,0.342807841,-0.187475024,0.402124,0.311810946,-0.146514205,0.381093,0.301344809,-0.140060374,0.370332,0.297649517,-0.147295829,0.36055,0.373867997,-0.199699452,0.409837,0.347382921,-0.177914492,0.391913,0.33511651,-0.167783273,0.383677,0.328156741,-0.165662437,0.376411
0.357071371,-0.288500772,0.431832,0.338412072,-0.229743185,0.416603,0.332109952,-0.275119819,0.4258,0.320239705,-0.24506599,0.422244,0.292089773,-0.217757238,0.410372,0.278095641,-0.200714457,0.406884,0.296255352,-0.186491707,0.399838,0.269028644,-0.154300673,0.380893,0.262494056,-0.157603705,0.37142,0.272735963,-0.175328361,0.378798,0.321387875,-0.1859917,0.402941,0.297836223,-0.146943298,0.382525,0.284791729,-0.153355311,0.370616,0.297785137,-0.173522723,0.378177,0.344124394,-0.189562206,0.406765,0.313925067,-0.149560041,0.387058,0.301867614,-0.149624385,0.376976,0.300245733,-0.160202327,0.36781,0.374523876,-0.201320377,0.413584,0.343437903,-0.176101633,0.39667,0.330633458,-0.164632339,0.388899,0.322824274,-0.160715635,0.382043
0.361443932,-0.291009565,0.437821,0.341363395,-0.23392896,0.423066,0.335673448,-0.277441034,0.431422,0.323248166,-0.249278611,0.427483,0.294459599,-0.221350393,0.414835,0.280627585,-0.204499457,0.411651,0.297181199,-0.192078003,0.406124,0.269311144,-0.159212791,0.387222,0.262632374,-0.161617312,0.377771,0.272885324,-0.178881497,0.385165,0.322545778,-0.191359741,0.40983,0.298280246,-0.151631083,0.38975,0.289471897,-0.157660886,0.378037,0.302133535,-0.177252402,0.385694,0.34557294,-0.194716136,0.414109,0.314911931,-0.15558096,0.39454,0.30694658,-0.154715344,0.384528,0.30560316,-0.165429014,0.375426,0.376511079,-0.206203123,0.421394,0.346902248,-0.180189084,0.404622,0.334043233,-0.167545985,0.396915,0.327725557,-0.163044468,0.390116
0.361984191,-0.290761846,0.439356,0.34182484,-0.235225453,0.424537,0.336407851,-0.278137355,0.43298,0.323896872,-0.250412679,0.428763,0.294974649,-0.222342444,0.415936,0.281199765,-0.20556435,0.412842,0.297932035,-0.193355337,0.407586,0.270054783,-0.160362681,0.388661,0.263388806,-0.162669164,0.379199,0.273642633,-0.179902751,0.386584,0.323260687,-0.192590167,0.411243,0.298957688,-0.152727319,0.391114,0.290157518,-0.158624262,0.379372,0.30223308,-0.178024768,0.387012,0.346257108,-0.1959128,0.415488,0.315585683,-0.156787411,0.395887,0.307689578,-0.155941512,0.385859,0.306391809,-0.166638938,0.376743,0.377165167,-0.207364828,0.422741,0.348033948,-0.180776916,0.405942,0.335144045,-0.168098119,0.398223,0.328186265,-0.163237071,0.391412
