sluyters/QuantumLeap/backend/src/datasets/dynamic/HandGestureDataset_SHREC2017_csv/Gesture4/finger_2/subject_3_essai_1_skeletons_world.csv
Wrist_x,Wrist_y,Wrist_z,Palm_x,Palm_y,Palm_z,thumb_base_x,thumb_base_y,thumb_base_z,thumb_first_joint_x,thumb_first_joint_y,thumb_first_joint_z,thumb_second_joint_x,thumb_second_joint_y,thumb_second_joint_z,thumb_tip_x,thumb_tip_y,thumb_tip_z,index_base_x,index_base_y,index_base_z,index_first_joint_x,index_first_joint_y,index_first_joint_z,index_second_joint_x,index_second_joint_y,index_second_joint_z,index_tip_x,index_tip_y,index_tip_z,middle_base_x,middle_base_y,middle_base_z,middle_first_joint_x,middle_first_joint_y,middle_first_joint_z,middle_second_joint_x,middle_second_joint_y,middle_second_joint_z,middle_tip_x,middle_tip_y,middle_tip_z,ring_base_x,ring_base_y,ring_base_z,ring_first_joint_x,ring_first_joint_y,ring_first_joint_z,ring_second_joint_x,ring_second_joint_y,ring_second_joint_z,ring_tip_x,ring_tip_y,ring_tip_z,pinky_base_x,pinky_base_y,pinky_base_z,pinky_first_joint_x,pinky_first_joint_y,pinky_first_joint_z,pinky_second_joint_x,pinky_second_joint_y,pinky_second_joint_z,pinky_tip_x,pinky_tip_y,pinky_tip_z,
0.33885297,-0.38080368,0.479935,0.34283974,-0.3305926,0.480062,0.31879305,-0.36828252,0.477312,0.29178332,-0.33506347,0.466075,0.26492956,-0.31073262,0.449697,0.25354832,-0.29182901,0.440808,0.31999618,-0.28917354,0.476752,0.31057422,-0.24973893,0.469699,0.30642905,-0.23353621,0.466172,0.30246134,-0.2234909,0.462966,0.34703787,-0.29397716,0.480172,0.34328557,-0.25100253,0.473251,0.34109475,-0.22597673,0.469213,0.33955207,-0.20815064,0.466329,0.36895436,-0.30206425,0.482976,0.37671173,-0.26634802,0.48471,0.38092861,-0.24827377,0.485921,0.38478783,-0.23185597,0.487054,0.39378429,-0.31879971,0.486222,0.40463586,-0.28849492,0.484458,0.41061033,-0.27653762,0.483648,0.41490665,-0.26881359,0.482933
0.33979663,-0.38272924,0.481195,0.34289341,-0.33144657,0.480114,0.31904111,-0.36695647,0.477816,0.29148113,-0.3352331,0.4654,0.26443451,-0.30985891,0.44892,0.25296436,-0.29087082,0.439764,0.31870094,-0.28904234,0.475098,0.30989178,-0.2498228,0.466948,0.30582087,-0.23253422,0.462873,0.3020878,-0.21645682,0.459169,0.34616338,-0.29414666,0.479167,0.342461,-0.25076476,0.471142,0.34029577,-0.22554954,0.46646,0.33875879,-0.20759613,0.463116,0.36859473,-0.30256255,0.482624,0.37763713,-0.2674561,0.485138,0.38248522,-0.24969236,0.486718,0.38742455,-0.23680451,0.488154,0.39430014,-0.31985734,0.486839,0.40429116,-0.28879695,0.483996,0.409787,-0.27635854,0.48269,0.41403363,-0.26726129,0.481538
0.34382232,-0.37724044,0.484642,0.34507694,-0.32800363,0.480973,0.32292749,-0.36444108,0.481238,0.29876433,-0.33119901,0.468073,0.27064575,-0.30476511,0.450311,0.25396482,-0.2881589,0.438892,0.31881268,-0.28578102,0.474355,0.30930404,-0.24556238,0.464478,0.30767016,-0.22415551,0.45954,0.3041615,-0.20593188,0.45505,0.34643107,-0.28699771,0.477758,0.34569054,-0.24394375,0.469983,0.3453603,-0.21904297,0.465448,0.34512999,-0.20121642,0.462209,0.3689112,-0.29387238,0.48092,0.37732412,-0.25754512,0.480827,0.38160695,-0.23904905,0.480779,0.38493648,-0.22859965,0.480735,0.39516653,-0.30939387,0.485239,0.40264076,-0.2769607,0.48016,0.40631571,-0.27070244,0.477827,0.41017571,-0.26150453,0.475768
0.34937571,-0.37365587,0.487627,0.35382575,-0.32151252,0.480033,0.33475839,-0.35859278,0.48613,0.30946471,-0.33365402,0.474151,0.27545565,-0.30744061,0.453729,0.26160826,-0.2878131,0.441817,0.32071961,-0.28272553,0.4735,0.31066494,-0.24180354,0.460791,0.30561659,-0.22143578,0.454436,0.30102804,-0.20290673,0.448659,0.34542815,-0.28308546,0.473381,0.34508541,-0.24106768,0.467986,0.34492988,-0.21671837,0.464839,0.34482662,-0.19923461,0.46259,0.36881931,-0.28596517,0.474029,0.36936936,-0.24483202,0.46528,0.36980666,-0.22683313,0.460804,0.37013106,-0.2120089,0.456735,0.39479039,-0.29869719,0.476096,0.39566524,-0.26289116,0.466193,0.39542521,-0.25584906,0.461642,0.3951363,-0.25036598,0.457628
0.35221038,-0.3729617,0.489038,0.3532935,-0.3204653,0.479472,0.33619728,-0.35777052,0.486565,0.30562784,-0.33296142,0.472981,0.27651456,-0.30720073,0.451103,0.26105245,-0.28795212,0.439346,0.32150584,-0.27937307,0.470482,0.31089554,-0.23826795,0.456071,0.30553933,-0.2182516,0.448865,0.30066797,-0.19998035,0.442314,0.3468052,-0.27990752,0.471091,0.34315837,-0.23566031,0.462013,0.34035877,-0.21248354,0.456718,0.34233657,-0.19596578,0.452935,0.36842746,-0.28489298,0.472531,0.36735711,-0.24315013,0.459408,0.36659919,-0.22381379,0.452694,0.36392777,-0.20692092,0.446591,0.39499469,-0.29873802,0.475863,0.39384549,-0.26221438,0.464363,0.39308335,-0.25431401,0.459079,0.39242241,-0.24763462,0.454417
0.35946234,-0.36794155,0.492261,0.35216354,-0.31588514,0.478884,0.33729346,-0.35628677,0.488089,0.30432975,-0.32492188,0.471696,0.27470773,-0.30483496,0.44696,0.2604597,-0.28689143,0.434906,0.31871015,-0.26897763,0.465392,0.30601676,-0.2274282,0.447795,0.30045485,-0.21102042,0.438997,0.29493947,-0.19363641,0.430998,0.3447972,-0.27086399,0.467165,0.33939878,-0.22823661,0.453729,0.33818963,-0.20404573,0.445891,0.33479081,-0.19000303,0.440292,0.36704617,-0.27706136,0.469938,0.36462779,-0.23947826,0.45277,0.36347688,-0.22003539,0.443987,0.3598564,-0.20192468,0.436002,0.39434684,-0.29247252,0.475481,0.3908863,-0.25954728,0.461179,0.38915943,-0.25067022,0.454608,0.38766372,-0.24300047,0.44881
0.35871571,-0.36540327,0.491676,0.35041384,-0.31006944,0.477111,0.33781184,-0.35148117,0.486782,0.30333253,-0.32239978,0.469315,0.27607393,-0.30241922,0.443671,0.26098271,-0.28427332,0.427674,0.31722499,-0.26560263,0.461968,0.30439926,-0.22364605,0.443308,0.29818468,-0.20550016,0.433978,0.29256821,-0.18936926,0.425497,0.34359918,-0.26814418,0.464352,0.33801598,-0.2221298,0.448408,0.33546769,-0.20040399,0.439107,0.33376385,-0.18638085,0.432463,0.36610886,-0.27492494,0.467746,0.36409642,-0.23692927,0.4498,0.36312864,-0.21734781,0.440618,0.36228904,-0.19945542,0.432271,0.39376129,-0.29110737,0.474217,0.38918764,-0.25837173,0.458531,0.38734051,-0.2465004,0.451323,0.38528575,-0.23779909,0.444964
0.34924939,-0.34205774,0.480233,0.35680891,-0.29096979,0.477514,0.32926674,-0.31886032,0.476094,0.33653743,-0.2908025,0.47351,0.3333725,-0.25811469,0.458076,0.34887229,-0.24663404,0.460191,0.33580838,-0.24586189,0.470523,0.33004569,-0.22445852,0.459734,0.3272733,-0.21315835,0.454385,0.32488335,-0.20251892,0.449632,0.36295273,-0.25393728,0.475132,0.36287815,-0.217685,0.465196,0.36242105,-0.20659603,0.4594,0.3593141,-0.19790547,0.456496,0.38493304,-0.2647601,0.479193,0.38670763,-0.24087187,0.468821,0.38701179,-0.22821111,0.46442,0.38862325,-0.21440507,0.461718,0.40989469,-0.28494598,0.484396,0.40373068,-0.26992497,0.474395,0.40089874,-0.26338837,0.4698,0.39883392,-0.25730633,0.466156
0.34972584,-0.3432635,0.480394,0.35520959,-0.29091654,0.476263,0.32902659,-0.32010898,0.476029,0.32245117,-0.30324762,0.461682,0.30019735,-0.27371236,0.451099,0.2974914,-0.25882061,0.457278,0.33278217,-0.24522074,0.468124,0.32361989,-0.21694064,0.456263,0.32029292,-0.20395671,0.450333,0.31957774,-0.19678927,0.444941,0.35988867,-0.25289545,0.472643,0.35969725,-0.21586608,0.461425,0.35928507,-0.20431731,0.454881,0.35920599,-0.19567892,0.450207,0.38194387,-0.26347623,0.476769,0.38355526,-0.23870324,0.46571,0.38416279,-0.22604627,0.460616,0.38544673,-0.21266923,0.457072,0.40722018,-0.283517,0.482292,0.40071558,-0.26824458,0.471331,0.39746614,-0.26133578,0.466294,0.39513946,-0.25506517,0.462194
0.35215384,-0.34114965,0.48292,0.35133795,-0.28723179,0.470807,0.32878414,-0.31932632,0.474402,0.31889247,-0.29974781,0.453608,0.29203758,-0.26593172,0.426539,0.28193946,-0.24368821,0.41642,0.32090083,-0.2368669,0.452473,0.30841957,-0.20915304,0.433031,0.30238699,-0.19562218,0.42331,0.29703558,-0.18353349,0.414472,0.34980591,-0.24559349,0.460197,0.34437244,-0.20553081,0.441641,0.34055786,-0.19356601,0.430816,0.33798769,-0.1847902,0.423085,0.37429108,-0.25746108,0.467745,0.37052149,-0.22935653,0.449518,0.3678615,-0.21532563,0.440193,0.36666766,-0.20088418,0.431715,0.40404376,-0.27990193,0.478636,0.39285741,-0.26183792,0.461631,0.38773586,-0.25327062,0.453818,0.38327102,-0.24573649,0.446924
0.35350542,-0.33435658,0.479678,0.35521653,-0.27672073,0.463029,0.32948196,-0.31630047,0.471152,0.3191094,-0.2982482,0.449304,0.28895818,-0.26561972,0.42238,0.27654369,-0.2434083,0.411386,0.31892692,-0.22626324,0.441935,0.2999689,-0.20252631,0.419643,0.29394543,-0.18865682,0.408498,0.28526633,-0.17686872,0.398365,0.3475422,-0.23226208,0.448445,0.33344467,-0.18981899,0.426025,0.32621542,-0.18296589,0.412947,0.32220831,-0.17802849,0.403606,0.37245571,-0.24214266,0.455439,0.36032275,-0.21510439,0.433488,0.35429696,-0.20177309,0.422257,0.34891376,-0.18945671,0.412048,0.40395059,-0.2627265,0.466467,0.38646187,-0.24735891,0.446765,0.37841905,-0.24022102,0.437713,0.37106532,-0.23421015,0.429726
0.3559538,-0.33422905,0.48027,0.35540221,-0.27738523,0.46329,0.33163988,-0.31632941,0.471682,0.3196489,-0.29865317,0.4497,0.28896017,-0.26694725,0.422794,0.27589707,-0.24484531,0.411765,0.31893257,-0.22679406,0.441916,0.30042671,-0.20239209,0.419387,0.29235584,-0.1892123,0.408122,0.28501929,-0.17705334,0.397882,0.34751193,-0.23278949,0.448415,0.33304262,-0.19025751,0.425714,0.32552943,-0.18333273,0.412472,0.32143418,-0.17730079,0.403014,0.37243187,-0.24268285,0.455433,0.35978912,-0.22140818,0.433106,0.35349807,-0.21089456,0.421683,0.34787981,-0.20121043,0.411298,0.40399733,-0.26331641,0.466547,0.38612738,-0.24783083,0.446638,0.37790516,-0.24064045,0.43749,0.36965123,-0.23496247,0.429419
0.35811539,-0.33557763,0.481905,0.35135517,-0.28018367,0.463591,0.33286855,-0.31712046,0.472323,0.31949127,-0.29924132,0.44904,0.2893321,-0.26980287,0.422401,0.27281959,-0.24560829,0.407105,0.31516327,-0.22777633,0.440124,0.2990009,-0.20126138,0.416225,0.29029116,-0.18865024,0.404276,0.28245852,-0.17733808,0.393413,0.34413366,-0.23448572,0.447547,0.32960463,-0.1948554,0.423672,0.32223211,-0.19002569,0.409745,0.31706003,-0.18661864,0.399797,0.37147357,-0.24377446,0.455456,0.35789485,-0.22188214,0.431832,0.35137412,-0.21093524,0.419746,0.3455449,-0.20087058,0.408758,0.4041166,-0.26510806,0.467839,0.38550093,-0.24802551,0.446918,0.37693864,-0.24009412,0.437305,0.36855043,-0.23443902,0.428824
0.35854887,-0.33549735,0.481573,0.34959512,-0.28008637,0.462345,0.33274414,-0.31684473,0.471414,0.31847619,-0.29890673,0.447364,0.28882636,-0.27065434,0.420616,0.27420359,-0.24836474,0.404065,0.31199591,-0.22806811,0.43758,0.29407879,-0.20228995,0.412815,0.28556468,-0.19064557,0.400432,0.27810614,-0.18084789,0.389175,0.34275669,-0.23354334,0.445501,0.32616002,-0.19377327,0.420842,0.31839827,-0.18914275,0.406458,0.31294014,-0.1858858,0.396183,0.36934435,-0.24329712,0.45391,0.35502637,-0.22118131,0.429452,0.34818971,-0.21022059,0.416939,0.34206766,-0.20015774,0.405563,0.40263854,-0.26486021,0.467032,0.3836493,-0.24811658,0.445457,0.37437696,-0.24079788,0.435544,0.36721132,-0.23346853,0.426797
0.35882747,-0.33894355,0.483778,0.34751936,-0.28287112,0.464486,0.33198381,-0.31698506,0.471017,0.31063308,-0.29076433,0.444488,0.29234118,-0.26305601,0.417545,0.28477398,-0.24168465,0.400615,0.30349619,-0.22841416,0.436325,0.29167976,-0.20185043,0.410228,0.28352567,-0.19191222,0.397179,0.28112201,-0.18757496,0.385317,0.33690676,-0.23708613,0.447587,0.32639317,-0.21022255,0.422884,0.32208708,-0.19777493,0.408474,0.3160848,-0.1879214,0.398182,0.36424915,-0.24942644,0.458753,0.35442404,-0.22524568,0.433376,0.34880023,-0.22018141,0.420392,0.34620297,-0.22070374,0.408589,0.3991478,-0.27321821,0.4751,0.3773748,-0.26269614,0.45302,0.36815285,-0.25870289,0.442876,0.36000183,-0.25521264,0.433925
0.35572375,-0.33714007,0.479854,0.34385201,-0.28658343,0.462246,0.32693369,-0.31690042,0.467141,0.31270363,-0.29634619,0.441027,0.29147306,-0.26904134,0.41402,0.28365528,-0.24386709,0.397809,0.30234337,-0.23639417,0.435166,0.29223526,-0.21225717,0.410134,0.2870825,-0.20102742,0.397618,0.28196878,-0.19012988,0.38624,0.334324,-0.24456741,0.446822,0.32628299,-0.2032415,0.423537,0.32158894,-0.19359915,0.409954,0.31730506,-0.19013876,0.400252,0.36242251,-0.2563874,0.458147,0.35002562,-0.23390845,0.433935,0.34382746,-0.22221756,0.421548,0.33829225,-0.21145788,0.410287,0.39926068,-0.27701354,0.474387,0.38310509,-0.26758742,0.453301,0.3635927,-0.27187581,0.443613,0.35854236,-0.27920368,0.446332
0.35595451,-0.3365078,0.479367,0.34235042,-0.28907946,0.459988,0.32764784,-0.31731995,0.466952,0.31262755,-0.29612091,0.440715,0.29373626,-0.27032954,0.413501,0.28687872,-0.24884314,0.396413,0.30070002,-0.23483062,0.432218,0.28946509,-0.20986448,0.406226,0.28341987,-0.19955593,0.39323,0.27744495,-0.19236413,0.381416,0.33213547,-0.2425598,0.443011,0.32251976,-0.20123927,0.41822,0.31667564,-0.19682303,0.403759,0.30838779,-0.20025274,0.39343,0.35987083,-0.25410399,0.4538,0.34568555,-0.23172461,0.428467,0.33854502,-0.22011236,0.415506,0.33213452,-0.20944305,0.403723,0.39542405,-0.27713773,0.469722,0.38035084,-0.26460013,0.447641,0.36038008,-0.26850595,0.437495,0.35519874,-0.27517301,0.439913
0.35478836,-0.33608341,0.47695,0.34082714,-0.28749843,0.457224,0.32673928,-0.31615017,0.464027,0.30854203,-0.29074756,0.43726,0.29034666,-0.26033467,0.410877,0.28434993,-0.23899468,0.394345,0.29876721,-0.2326364,0.428589,0.28619889,-0.20913827,0.402151,0.27977291,-0.20067622,0.388932,0.27397264,-0.19584868,0.376915,0.33048482,-0.24085511,0.439943,0.32170887,-0.20725926,0.414884,0.31700913,-0.19141495,0.400267,0.31077363,-0.18881389,0.389825,0.3585063,-0.252817,0.451228,0.34490089,-0.23110344,0.425508,0.34232536,-0.22271983,0.412348,0.33715759,-0.21321744,0.400386,0.39449377,-0.27639372,0.467788,0.37847741,-0.26354437,0.445435,0.35898529,-0.26785962,0.435165,0.35418587,-0.27452933,0.437288
0.35442711,-0.33624915,0.475604,0.33941463,-0.28615415,0.454896,0.32622358,-0.31647854,0.462717,0.30593792,-0.28913168,0.435777,0.28984378,-0.26032405,0.409402,0.28287873,-0.2400336,0.392911,0.29756189,-0.23084959,0.425712,0.28348192,-0.2080372,0.398692,0.27667109,-0.20157978,0.385182,0.27105088,-0.19508736,0.3729,0.32909437,-0.23910579,0.436755,0.31997643,-0.20751703,0.410878,0.31454787,-0.188806,0.395782,0.30561398,-0.19315514,0.385,0.35700594,-0.25115723,0.44788,0.34537363,-0.23367436,0.421509,0.33998364,-0.22889637,0.408017,0.3347562,-0.22200681,0.395751,0.39298024,-0.27495865,0.464424,0.37307658,-0.26368272,0.441512,0.35418483,-0.26709097,0.430984,0.35061209,-0.2727823,0.432874
0.35203134,-0.33531377,0.47228,0.33810948,-0.28517278,0.452412,0.32360617,-0.31528508,0.459046,0.30403178,-0.28839469,0.431974,0.28950032,-0.25854981,0.405494,0.28463523,-0.23668677,0.389003,0.29641266,-0.22952018,0.42329,0.28271726,-0.20687861,0.396625,0.27678138,-0.20086001,0.383293,0.2721186,-0.19806065,0.371173,0.3282951,-0.23849768,0.435007,0.32030192,-0.20733443,0.409848,0.31554783,-0.18877164,0.395171,0.30877221,-0.19172671,0.384688,0.35643032,-0.25109904,0.446605,0.34649347,-0.23630618,0.4207,0.34130195,-0.22918079,0.407446,0.33678168,-0.2232224,0.395397,0.39251899,-0.27547889,0.463554,0.37418528,-0.26329309,0.441081,0.35528177,-0.26795534,0.430755,0.35055595,-0.27375285,0.432708
0.35342708,-0.33890209,0.474785,0.33939997,-0.28627138,0.453976,0.32408522,-0.32014573,0.461556,0.30734901,-0.29209544,0.434293,0.28923969,-0.26481163,0.407648,0.28268914,-0.24144468,0.391613,0.29729235,-0.23070601,0.42429,0.28356896,-0.20727732,0.397055,0.27751348,-0.20115488,0.383437,0.27229964,-0.19879023,0.371058,0.32907196,-0.23925796,0.435747,0.32079378,-0.20914178,0.409804,0.31574633,-0.19099605,0.394671,0.30891804,-0.1943697,0.383861,0.35718764,-0.25155955,0.447223,0.35047515,-0.22832395,0.420685,0.34145171,-0.22907357,0.407107,0.32994212,-0.23750057,0.394764,0.39275711,-0.27530907,0.464192,0.37398854,-0.26482902,0.441178,0.35546715,-0.26843917,0.430604,0.35079395,-0.27492425,0.432321
0.35262737,-0.34033855,0.474338,0.33923522,-0.28615255,0.453365,0.32393567,-0.32044751,0.461034,0.30651434,-0.29219906,0.433671,0.28936268,-0.26448945,0.407073,0.28471753,-0.24218377,0.390579,0.29669185,-0.23073211,0.423482,0.28280671,-0.20891021,0.396114,0.27821796,-0.20264599,0.382429,0.27133835,-0.19916661,0.369989,0.32851327,-0.23908134,0.434991,0.31951779,-0.20839022,0.408917,0.31357701,-0.19200759,0.393707,0.3062351,-0.19468873,0.382843,0.35670283,-0.25121958,0.446527,0.34730438,-0.22848527,0.419857,0.3405845,-0.22854243,0.406212,0.32849892,-0.23683686,0.393808,0.39305168,-0.27513065,0.463594,0.3740578,-0.26411164,0.440477,0.35493153,-0.26833787,0.429856,0.34989169,-0.27481629,0.431497
0.35337087,-0.34272927,0.475639,0.33942597,-0.28636,0.453303,0.32379996,-0.32218546,0.461271,0.30702912,-0.29293499,0.432733,0.29918566,-0.26737064,0.405453,0.29851351,-0.24913527,0.387794,0.29537003,-0.23002381,0.421222,0.28083746,-0.21227009,0.392583,0.27362282,-0.20615089,0.378264,0.26679418,-0.20383505,0.365246,0.32760874,-0.23859194,0.433736,0.31543563,-0.20497456,0.406628,0.3059104,-0.20441869,0.390815,0.29938958,-0.21359774,0.37952,0.35657529,-0.25112634,0.446233,0.34647138,-0.22767645,0.418377,0.33879981,-0.22757802,0.404125,0.32609761,-0.23566376,0.391168,0.39415296,-0.27568157,0.464657,0.37395782,-0.26530199,0.440662,0.35530907,-0.26932672,0.429637,0.34887842,-0.27454178,0.430421
0.34977185,-0.34107863,0.471275,0.34352092,-0.29002184,0.458731,0.32358354,-0.32395359,0.461557,0.31654321,-0.29855097,0.43946,0.30018201,-0.26930919,0.423658,0.29274931,-0.24915309,0.416388,0.30726895,-0.23984487,0.438584,0.29671578,-0.22815043,0.418224,0.29310433,-0.23492493,0.408044,0.29260724,-0.24577491,0.398894,0.33828108,-0.24666663,0.447742,0.3320432,-0.22834167,0.428768,0.3243354,-0.24281987,0.4177,0.3170206,-0.25615559,0.411724,0.36470183,-0.25699955,0.456514,0.35178852,-0.22982132,0.436822,0.35000928,-0.23530638,0.426748,0.34792915,-0.25063622,0.417589,0.39775408,-0.27817515,0.468904,0.38287173,-0.27283438,0.451372,0.36642529,-0.27893515,0.443317,0.36229807,-0.28843052,0.448249
0.34889931,-0.3412357,0.469573,0.3425691,-0.2893978,0.457028,0.32265374,-0.32419544,0.459823,0.31598611,-0.29746818,0.437696,0.30023821,-0.26891649,0.422114,0.29161081,-0.24881125,0.419075,0.30586209,-0.23951378,0.436841,0.29479772,-0.22722318,0.416464,0.29203743,-0.23394739,0.406275,0.29160896,-0.24483094,0.397247,0.33690966,-0.24612821,0.446038,0.32977144,-0.22724167,0.427062,0.32403137,-0.24033318,0.415992,0.32935235,-0.262466,0.42355,0.36352629,-0.25629683,0.454842,0.3510943,-0.23256368,0.435139,0.35306972,-0.23831997,0.425058,0.34748369,-0.25049648,0.416659,0.39638064,-0.27719533,0.46727,0.3811732,-0.2722047,0.449731,0.36478331,-0.27840708,0.441673,0.36032891,-0.28797282,0.446594
0.34886371,-0.34128698,0.469001,0.34151745,-0.28876974,0.455793,0.32204748,-0.32389372,0.458558,0.31462181,-0.29616482,0.435596,0.29787147,-0.26820518,0.419604,0.28950536,-0.24775295,0.416921,0.30316507,-0.23940941,0.43431,0.29066033,-0.22686385,0.413153,0.28930359,-0.23359565,0.402575,0.30010033,-0.25374159,0.408783,0.33511427,-0.24521984,0.444223,0.32669606,-0.22583242,0.424664,0.3214872,-0.23814587,0.413254,0.32736897,-0.26001848,0.42037,0.36228265,-0.2556259,0.453681,0.34906533,-0.23140102,0.433266,0.34711767,-0.23624331,0.422821,0.34461057,-0.24861204,0.413326,0.39596584,-0.27689517,0.466986,0.3796871,-0.27185951,0.448908,0.36337653,-0.27778343,0.440602,0.35854238,-0.28739502,0.445153
0.34876418,-0.34147696,0.468386,0.34063813,-0.28851161,0.454484,0.32198644,-0.32434684,0.458104,0.31439706,-0.2965259,0.435125,0.29787831,-0.26889044,0.419304,0.28891778,-0.24844888,0.416442,0.30174055,-0.23897253,0.432787,0.288864,-0.23018385,0.411269,0.28771072,-0.2373175,0.400509,0.2986022,-0.2540254,0.406637,0.33269406,-0.24504224,0.442305,0.32430548,-0.22521757,0.422148,0.31919431,-0.23714994,0.410389,0.32539472,-0.25894911,0.417368,0.35990325,-0.25485458,0.451507,0.34655745,-0.23075546,0.430659,0.34482085,-0.23728061,0.419993,0.34232953,-0.24757287,0.410552,0.39403425,-0.27583085,0.464633,0.37645151,-0.27125895,0.446164,0.360052,-0.27697869,0.437679,0.35484082,-0.28682905,0.442139
0.34969319,-0.34261299,0.469287,0.34075654,-0.28917902,0.454667,0.32252973,-0.32540081,0.45862,0.31448545,-0.29673106,0.435098,0.29782365,-0.26833106,0.418536,0.28920536,-0.2474572,0.413005,0.30094749,-0.23886206,0.432039,0.28858061,-0.23248499,0.409869,0.28719116,-0.2396753,0.398785,0.29761284,-0.25795185,0.404532,0.3321387,-0.24505997,0.44186,0.323213,-0.22508364,0.421082,0.31804513,-0.23671854,0.408961,0.32422411,-0.25831717,0.415586,0.35962079,-0.2550037,0.451381,0.34632023,-0.23436572,0.429898,0.34528245,-0.24493383,0.418906,0.34296102,-0.25436468,0.410383,0.39424815,-0.2761294,0.465003,0.37616723,-0.27160746,0.446029,0.35955722,-0.27717645,0.437311,0.35401865,-0.28696753,0.441484
0.35015469,-0.34362162,0.469827,0.3397796,-0.28920789,0.453632,0.32298098,-0.32668089,0.459271,0.31458932,-0.2973895,0.435485,0.29822228,-0.26948685,0.419419,0.28915608,-0.24822599,0.414737,0.29815761,-0.2389487,0.430191,0.28633356,-0.23190484,0.407085,0.2845766,-0.23891942,0.395532,0.2947886,-0.25700914,0.400932,0.32929798,-0.24451452,0.439444,0.31885953,-0.22598933,0.41732,0.31397823,-0.23653187,0.404415,0.32025812,-0.25623341,0.410605,0.35715067,-0.25382354,0.448653,0.3434589,-0.23557251,0.426114,0.34072492,-0.24026281,0.414582,0.35096182,-0.25636749,0.420404,0.39161549,-0.27476856,0.462183,0.37177724,-0.27125277,0.442289,0.35494678,-0.27589247,0.433149,0.34889954,-0.28601462,0.437008
0.34998195,-0.34356093,0.469115,0.33945605,-0.28957166,0.453323,0.32354704,-0.32777623,0.459733,0.31578417,-0.29889058,0.437199,0.29980729,-0.27098632,0.421474,0.29124912,-0.25019761,0.4154,0.29944142,-0.23979581,0.431643,0.28820584,-0.23544712,0.409408,0.28581636,-0.24868942,0.398291,0.29077317,-0.25903452,0.404372,0.32961617,-0.24462689,0.439489,0.31914086,-0.22683027,0.417742,0.31437171,-0.2381071,0.405056,0.32187732,-0.25797793,0.41177,0.3559055,-0.25364196,0.447499,0.34316571,-0.2357256,0.42567,0.34072009,-0.2406884,0.414501,0.35157855,-0.25737461,0.420976,0.38911264,-0.27328481,0.459563,0.3699397,-0.27040377,0.440157,0.35367079,-0.27470492,0.431241,0.34760254,-0.28557374,0.435564
0.3491624,-0.34354347,0.468297,0.33865257,-0.28966312,0.452679,0.32272515,-0.32785183,0.458979,0.31528095,-0.29870345,0.436549,0.29984156,-0.27054177,0.421067,0.29083842,-0.24946819,0.415672,0.29899112,-0.23979504,0.431188,0.28803811,-0.23575092,0.409096,0.28564413,-0.24853957,0.398051,0.29065596,-0.25893011,0.404209,0.32914539,-0.24459521,0.438998,0.31885641,-0.22701382,0.417402,0.31412202,-0.23838632,0.404804,0.32164126,-0.25848095,0.411593,0.35540545,-0.25357546,0.446962,0.34288129,-0.23570767,0.425277,0.34049507,-0.24078771,0.414182,0.35147204,-0.25827846,0.420736,0.38855065,-0.27315694,0.458941,0.36948357,-0.27042224,0.439653,0.35320758,-0.27477703,0.43079,0.3471822,-0.2856963,0.435173
0.34835207,-0.34350567,0.467496,0.33793142,-0.2897758,0.452092,0.32194109,-0.32790434,0.458257,0.31477681,-0.29862484,0.435954,0.29924784,-0.27021674,0.420501,0.29050324,-0.24942727,0.414811,0.29862623,-0.23979752,0.430831,0.28785165,-0.23593457,0.408915,0.28543206,-0.24847664,0.397957,0.29055927,-0.25892582,0.404209,0.32875579,-0.24456532,0.438597,0.31859818,-0.22714143,0.417185,0.31389898,-0.23860807,0.404695,0.32147394,-0.25893208,0.411575,0.35498038,-0.25350705,0.446504,0.34259802,-0.23567307,0.424996,0.34027474,-0.24086913,0.413991,0.35157444,-0.2592994,0.420641,0.38805277,-0.27301989,0.45838,0.36907576,-0.27041558,0.439235,0.35251045,-0.27526036,0.430439,0.34684209,-0.28581099,0.434894
0.34767562,-0.34355495,0.466989,0.33717017,-0.2898239,0.451521,0.32117944,-0.3279183,0.457649,0.31439175,-0.29866571,0.435231,0.29851124,-0.27102466,0.418915,0.29037311,-0.24952729,0.41368,0.29769508,-0.23979218,0.430091,0.28726083,-0.23581047,0.408081,0.28474866,-0.24820529,0.397076,0.2901383,-0.25950944,0.403264,0.32792368,-0.24458647,0.437971,0.31805528,-0.22709718,0.4165,0.31327456,-0.23862606,0.403976,0.31992877,-0.25997571,0.410804,0.35424923,-0.25355375,0.445976,0.34207573,-0.23546608,0.424386,0.33980689,-0.24167736,0.413339,0.35122801,-0.26192466,0.419928,0.38746606,-0.27310979,0.457979,0.36866654,-0.27038033,0.438774,0.35209353,-0.27519332,0.42995,0.34634193,-0.28571783,0.43436
0.34670682,-0.34316916,0.465904,0.33637253,-0.28969608,0.450719,0.32003482,-0.32738683,0.456299,0.31301376,-0.29810197,0.433681,0.29715458,-0.26971125,0.415975,0.29363853,-0.249744,0.403762,0.29674204,-0.23961981,0.429119,0.28657761,-0.2354531,0.407144,0.28406353,-0.24771348,0.396157,0.28971718,-0.25985001,0.402297,0.32727882,-0.24461257,0.437416,0.31777631,-0.22709514,0.416176,0.31306698,-0.23875473,0.403786,0.32023631,-0.26076482,0.410618,0.35387782,-0.25373389,0.445739,0.34193678,-0.23544547,0.424243,0.33970776,-0.24203844,0.413246,0.35103986,-0.26320259,0.419803,0.38740928,-0.27345874,0.458061,0.36880979,-0.27066146,0.438964,0.35225275,-0.27551867,0.43019,0.3461542,-0.28651367,0.434586
