sluyters/QuantumLeap/backend/src/datasets/dynamic/HandGestureDataset_SHREC2017_csv/Gesture4/finger_2/subject_24_essai_5_skeletons_world.csv
Wrist_x,Wrist_y,Wrist_z,Palm_x,Palm_y,Palm_z,thumb_base_x,thumb_base_y,thumb_base_z,thumb_first_joint_x,thumb_first_joint_y,thumb_first_joint_z,thumb_second_joint_x,thumb_second_joint_y,thumb_second_joint_z,thumb_tip_x,thumb_tip_y,thumb_tip_z,index_base_x,index_base_y,index_base_z,index_first_joint_x,index_first_joint_y,index_first_joint_z,index_second_joint_x,index_second_joint_y,index_second_joint_z,index_tip_x,index_tip_y,index_tip_z,middle_base_x,middle_base_y,middle_base_z,middle_first_joint_x,middle_first_joint_y,middle_first_joint_z,middle_second_joint_x,middle_second_joint_y,middle_second_joint_z,middle_tip_x,middle_tip_y,middle_tip_z,ring_base_x,ring_base_y,ring_base_z,ring_first_joint_x,ring_first_joint_y,ring_first_joint_z,ring_second_joint_x,ring_second_joint_y,ring_second_joint_z,ring_tip_x,ring_tip_y,ring_tip_z,pinky_base_x,pinky_base_y,pinky_base_z,pinky_first_joint_x,pinky_first_joint_y,pinky_first_joint_z,pinky_second_joint_x,pinky_second_joint_y,pinky_second_joint_z,pinky_tip_x,pinky_tip_y,pinky_tip_z,
0.373020247,-0.333402967,0.504245,0.362763542,-0.282932266,0.496802,0.350641472,-0.319411215,0.504685,0.31846139,-0.3064294,0.499221,0.282635605,-0.289320983,0.474639,0.261473938,-0.272133557,0.461649,0.335792442,-0.237168593,0.492398,0.318510906,-0.199004617,0.481954,0.30957789,-0.180466364,0.476732,0.301422691,-0.163510651,0.471985,0.358192606,-0.237547853,0.489581,0.352114933,-0.194754251,0.478817,0.348048815,-0.170665518,0.472538,0.344985334,-0.15376233,0.468053,0.376263498,-0.244004101,0.487918,0.376696385,-0.203510161,0.47989,0.376624709,-0.183641949,0.475783,0.376589503,-0.165463674,0.472049,0.400626879,-0.256729759,0.487147,0.41228544,-0.227674002,0.478624,0.41812415,-0.215565554,0.474708,0.42334153,-0.204807695,0.471252
0.37281065,-0.333001025,0.505624,0.363543072,-0.284006921,0.49768,0.350569814,-0.318997929,0.505732,0.317978894,-0.305943076,0.49919,0.282193389,-0.289012198,0.474353,0.263072062,-0.269489586,0.460676,0.33599566,-0.237108111,0.492527,0.318968024,-0.199188331,0.48275,0.310189507,-0.18067095,0.477862,0.302177145,-0.163742696,0.473418,0.358580638,-0.237914807,0.48998,0.353149794,-0.195485522,0.480353,0.349479288,-0.171535412,0.474737,0.346751574,-0.154560074,0.470725,0.377329577,-0.245996616,0.488584,0.377367388,-0.203772148,0.480068,0.377358424,-0.183776729,0.475712,0.377372416,-0.165516774,0.471751,0.401263436,-0.257127891,0.488209,0.411489288,-0.228092518,0.479479,0.418347492,-0.216313462,0.475468,0.423433184,-0.205442328,0.471929
0.372467064,-0.332479884,0.506818,0.363798772,-0.283969546,0.498418,0.350611321,-0.318786892,0.506614,0.318050367,-0.305998586,0.499738,0.28225241,-0.289168688,0.474757,0.262556974,-0.270181857,0.460923,0.336090723,-0.237073355,0.492582,0.319245469,-0.199310731,0.483222,0.310569997,-0.180816798,0.478542,0.302651798,-0.163911622,0.474287,0.358861363,-0.238155771,0.490298,0.353792247,-0.195920297,0.481291,0.350342118,-0.172042824,0.476037,0.347798296,-0.155031869,0.472283,0.37774116,-0.245728716,0.489161,0.37788844,-0.203993231,0.480325,0.377906076,-0.183909961,0.475805,0.377939347,-0.16559156,0.471695,0.401815654,-0.257471958,0.489169,0.412292818,-0.228778913,0.480318,0.418814279,-0.216870247,0.476251,0.423834735,-0.205931246,0.472663
0.373321165,-0.332542664,0.50977,0.364426604,-0.281670793,0.500298,0.350532802,-0.316549239,0.50912,0.31617941,-0.301213683,0.502733,0.283604972,-0.290616066,0.47761,0.261254762,-0.272745079,0.462322,0.337148248,-0.235668003,0.49321,0.322151067,-0.197024349,0.48529,0.315309807,-0.175841166,0.48133,0.305897003,-0.163084769,0.477731,0.359742478,-0.237694242,0.491177,0.356794579,-0.195899036,0.484039,0.356632057,-0.169244932,0.479876,0.352601766,-0.15532351,0.476902,0.379048608,-0.242864538,0.490344,0.379766855,-0.203230319,0.481352,0.380974095,-0.181869659,0.476751,0.380357455,-0.164810555,0.472569,0.403055398,-0.25712757,0.490886,0.414756096,-0.229810126,0.481573,0.420459516,-0.217601043,0.477294,0.425538806,-0.206776983,0.473518
0.372921906,-0.331488762,0.511011,0.364840272,-0.281371498,0.500997,0.35088856,-0.316190239,0.510072,0.316630975,-0.301643874,0.503451,0.283765563,-0.29082686,0.478314,0.261272201,-0.273121346,0.462775,0.337278027,-0.234909684,0.493181,0.322636562,-0.196361049,0.48567,0.315692374,-0.176054515,0.481914,0.306903597,-0.162478415,0.4785,0.360031124,-0.237189021,0.491355,0.357501187,-0.195464379,0.484536,0.357138902,-0.169485463,0.480558,0.353753047,-0.154965811,0.477717,0.379467716,-0.242579342,0.490744,0.380919381,-0.203230747,0.482455,0.382594807,-0.181904888,0.478213,0.382262611,-0.164965778,0.474358,0.403425264,-0.256855569,0.491638,0.415623182,-0.230113122,0.482197,0.421442367,-0.218029106,0.477859,0.426624502,-0.207316379,0.474031
0.372841644,-0.329881921,0.513789,0.365876977,-0.279153716,0.502733,0.351906351,-0.31483153,0.512446,0.319977084,-0.305704286,0.504542,0.286118002,-0.291368235,0.479236,0.263051647,-0.273987658,0.462534,0.338190025,-0.231620708,0.493729,0.323089518,-0.194311423,0.485513,0.315513198,-0.175562731,0.481406,0.306811,-0.161478265,0.477672,0.361171163,-0.235161662,0.492101,0.360080568,-0.193082645,0.485874,0.358912792,-0.169608592,0.482241,0.358089125,-0.152604631,0.479646,0.380380642,-0.241585931,0.491746,0.382502521,-0.202394251,0.483883,0.385253842,-0.181360959,0.479859,0.385113521,-0.165157642,0.476202,0.404309658,-0.256772626,0.49311,0.416640125,-0.230519002,0.483254,0.42241001,-0.218489362,0.478726,0.427548104,-0.207827361,0.474731
0.37314939,-0.328780043,0.51549,0.366475132,-0.279013842,0.503686,0.352752385,-0.31472404,0.513855,0.320895209,-0.305872791,0.505338,0.286337237,-0.292087608,0.479998,0.264131346,-0.274767855,0.462889,0.338227281,-0.231377883,0.493827,0.323001037,-0.194050443,0.48531,0.315357493,-0.175279802,0.481051,0.306808161,-0.160798431,0.47718,0.361324076,-0.234867633,0.492339,0.360169147,-0.192870922,0.485833,0.359023494,-0.169301764,0.482038,0.358212679,-0.152249913,0.479327,0.380703044,-0.241407465,0.492162,0.382975448,-0.202243033,0.484128,0.38560367,-0.181354771,0.480018,0.385585349,-0.164885962,0.476282,0.404853471,-0.256815735,0.493849,0.417061755,-0.23063455,0.483651,0.422773022,-0.218646933,0.478965,0.427858235,-0.208024679,0.474831
0.373933274,-0.328519326,0.515852,0.3667814,-0.280298428,0.503981,0.352929323,-0.314268793,0.513909,0.32132669,-0.305317941,0.505751,0.286021387,-0.291928702,0.480438,0.263285293,-0.274971275,0.463482,0.33817154,-0.231235245,0.493714,0.323224072,-0.1937055,0.484905,0.315721428,-0.17483136,0.480501,0.308856438,-0.157648224,0.476496,0.361653737,-0.233838079,0.492605,0.35979552,-0.192352428,0.485254,0.358325275,-0.168592561,0.480966,0.357283194,-0.151425935,0.477903,0.38148175,-0.240063267,0.492747,0.384375347,-0.201035226,0.484413,0.385870789,-0.181010985,0.480149,0.386340336,-0.164144439,0.476273,0.405704679,-0.255129652,0.494823,0.418475259,-0.230990051,0.484946,0.424438498,-0.219154139,0.480407,0.429754811,-0.208658536,0.476403
0.373140096,-0.327131052,0.516128,0.366651033,-0.280446846,0.503583,0.352727715,-0.314012623,0.513739,0.320036461,-0.305563461,0.504552,0.284404037,-0.291124281,0.479062,0.265456426,-0.275943231,0.461367,0.337087236,-0.231398861,0.492311,0.323027222,-0.193313955,0.484176,0.315930247,-0.174509602,0.480109,0.309435526,-0.157366526,0.476411,0.360823376,-0.234008966,0.491563,0.358517811,-0.192410667,0.483743,0.357176179,-0.167898306,0.479181,0.354362741,-0.152495347,0.475923,0.380780786,-0.240698128,0.492062,0.381730145,-0.201896203,0.48251,0.382244093,-0.181683242,0.477622,0.382719909,-0.163274951,0.473179,0.405685635,-0.25535967,0.494666,0.4181647,-0.23066801,0.484529,0.424032239,-0.21883636,0.479871,0.429263373,-0.208345554,0.475762
0.375857608,-0.32828505,0.519892,0.368043581,-0.279067445,0.505007,0.355435323,-0.315098552,0.517544,0.323860587,-0.295871445,0.503476,0.29430998,-0.285907288,0.477774,0.273565906,-0.27072747,0.459777,0.337251344,-0.231291569,0.492286,0.322481266,-0.191127015,0.479275,0.315729606,-0.171621043,0.47277,0.30854791,-0.153776529,0.46759,0.360478184,-0.233491499,0.490806,0.35288164,-0.190172357,0.475643,0.350035434,-0.163409076,0.466798,0.34866527,-0.148229668,0.46588,0.380376491,-0.238956257,0.490916,0.376248284,-0.198550977,0.475725,0.373493735,-0.178101409,0.467952,0.373183193,-0.158951495,0.4627,0.404994884,-0.253716441,0.493444,0.409383961,-0.219760795,0.479299,0.410239073,-0.20483294,0.4728,0.407932683,-0.200696076,0.467066
0.37478105,-0.326403017,0.517803,0.365646761,-0.277869033,0.501428,0.354695278,-0.313473187,0.51581,0.32315818,-0.30228471,0.501953,0.294524413,-0.294617519,0.476843,0.272638375,-0.28016187,0.458512,0.334866589,-0.228848108,0.488179,0.319228211,-0.189316505,0.469025,0.312174672,-0.171421749,0.459448,0.304987501,-0.152400051,0.454097,0.357482962,-0.230820826,0.485806,0.348098417,-0.186994323,0.466568,0.342070473,-0.163698157,0.455345,0.340174848,-0.14462539,0.451248,0.376532994,-0.238437288,0.485313,0.370850933,-0.19513065,0.468191,0.366921905,-0.174116117,0.459431,0.363355533,-0.154978879,0.451467,0.403177235,-0.250591499,0.487373,0.398109067,-0.218122629,0.471147,0.395461494,-0.202537685,0.463691,0.389793386,-0.19885024,0.457113
0.379009556,-0.328979147,0.523197,0.365672412,-0.27728846,0.50079,0.354794714,-0.312594363,0.515401,0.327506,-0.30304974,0.493948,0.295927733,-0.288315729,0.468261,0.276735059,-0.271859599,0.45063,0.331012453,-0.231221313,0.476251,0.318289301,-0.190164916,0.459216,0.311631632,-0.172956518,0.450699,0.305509806,-0.158119315,0.442956,0.357661589,-0.235600176,0.479413,0.346064178,-0.192117574,0.459352,0.33931032,-0.167514599,0.44765,0.334493719,-0.149877022,0.439291,0.380810525,-0.243452195,0.484014,0.367564176,-0.201960365,0.462515,0.360785249,-0.180749927,0.451516,0.354654771,-0.161890549,0.441516,0.41012972,-0.260404004,0.493036,0.391769648,-0.226469483,0.471119,0.383334154,-0.210917243,0.461049,0.376705154,-0.208892636,0.452164
0.379705512,-0.328480302,0.523711,0.366290905,-0.277157539,0.500964,0.355411124,-0.312172737,0.515744,0.327579597,-0.303117841,0.494059,0.295981451,-0.288368065,0.468346,0.276814893,-0.271938027,0.45076,0.330828268,-0.231092655,0.475986,0.318120181,-0.190063873,0.458972,0.311469835,-0.17286672,0.450465,0.305354622,-0.158038999,0.442731,0.357548937,-0.23552597,0.479262,0.345870561,-0.192010087,0.459095,0.339068524,-0.167395227,0.447331,0.334218078,-0.149753515,0.438929,0.380790069,-0.243439117,0.483988,0.367406824,-0.201873907,0.462317,0.36055672,-0.180635436,0.45123,0.354361579,-0.161756715,0.441151,0.410275292,-0.260496433,0.493211,0.391727238,-0.226444968,0.471068,0.383205281,-0.210846334,0.460894,0.376499375,-0.208778526,0.451917
0.381656169,-0.329015363,0.525068,0.36773869,-0.277137803,0.499194,0.356352756,-0.312204635,0.515802,0.32761716,-0.302861623,0.492336,0.299766078,-0.294080745,0.467378,0.277459432,-0.273926147,0.450187,0.327501319,-0.228280549,0.470525,0.316226013,-0.188192917,0.455516,0.310433147,-0.172497313,0.448011,0.305126279,-0.159103431,0.441189,0.354593955,-0.232559574,0.474509,0.342896503,-0.190126575,0.455068,0.336123131,-0.166102377,0.443728,0.33133236,-0.149251233,0.435627,0.378466813,-0.240477916,0.480097,0.357001279,-0.202636557,0.452121,0.34525254,-0.18421593,0.437807,0.334570058,-0.16740542,0.424795,0.408674355,-0.256826798,0.490839,0.38849899,-0.224730244,0.466741,0.3791254,-0.212006299,0.455669,0.371625699,-0.207450024,0.4459
0.383081101,-0.329179289,0.525862,0.368098584,-0.277708096,0.499979,0.357067207,-0.312191097,0.515681,0.330340543,-0.302594436,0.491237,0.302470843,-0.286936665,0.465346,0.283306267,-0.269176916,0.447906,0.327273836,-0.228541471,0.470148,0.314359317,-0.18754282,0.45303,0.307963201,-0.172028859,0.444471,0.303146013,-0.162231278,0.436689,0.355263173,-0.233010562,0.475287,0.336578846,-0.185745259,0.448444,0.323728725,-0.170899759,0.432786,0.317028158,-0.174758151,0.421601,0.379959174,-0.241090869,0.481826,0.357726166,-0.204284963,0.453511,0.345898607,-0.186006119,0.439024,0.335144057,-0.169322878,0.425854,0.411323815,-0.25798247,0.493687,0.387814912,-0.219575632,0.469336,0.380333285,-0.210308468,0.458147,0.37332704,-0.209340645,0.448275
0.387321491,-0.332338294,0.529925,0.371098536,-0.28076654,0.501513,0.359978764,-0.314830043,0.518305,0.331560931,-0.3031339,0.492127,0.303442744,-0.287226077,0.466124,0.285832603,-0.270636643,0.448673,0.324206909,-0.231077974,0.468205,0.312295777,-0.187996221,0.450125,0.308645646,-0.185485958,0.441085,0.304424961,-0.18063429,0.432866,0.353465512,-0.233659749,0.474409,0.336302171,-0.18781706,0.44761,0.32346806,-0.172200139,0.431977,0.316632727,-0.175326337,0.420811,0.379541501,-0.241366653,0.482049,0.355373895,-0.211779219,0.451612,0.344246961,-0.196277698,0.43604,0.334143526,-0.182127879,0.421884,0.411547637,-0.25759231,0.495613,0.38924709,-0.223318203,0.469673,0.379627354,-0.210469782,0.457755,0.372049717,-0.21229651,0.447239
0.390283086,-0.334179159,0.532266,0.370958583,-0.28054018,0.502612,0.36222247,-0.316747696,0.520008,0.334927789,-0.302688895,0.493093,0.309544324,-0.281861733,0.467139,0.295851087,-0.265615901,0.44979,0.321442358,-0.232629865,0.467683,0.311826852,-0.189840714,0.449018,0.307533148,-0.186326964,0.439686,0.303356171,-0.182270167,0.431202,0.352688866,-0.233752974,0.474322,0.332548336,-0.190333333,0.446937,0.323058198,-0.175186483,0.430963,0.315879658,-0.176947631,0.419552,0.378892677,-0.240595391,0.482431,0.354657911,-0.212868867,0.450952,0.343331011,-0.198264,0.434846,0.333045609,-0.184936378,0.420204,0.41163746,-0.256262055,0.496748,0.382561277,-0.231865424,0.47008,0.377471051,-0.238244524,0.457827,0.372740253,-0.24069907,0.447015
0.391987275,-0.335203113,0.533278,0.372054935,-0.282116016,0.502779,0.363903813,-0.318335416,0.521226,0.336625818,-0.30382658,0.494463,0.307647787,-0.286391285,0.468811,0.293984678,-0.269493128,0.451373,0.32088802,-0.233142057,0.467557,0.311703026,-0.191931635,0.449034,0.307086166,-0.187544756,0.439773,0.302928531,-0.183835997,0.431354,0.349513596,-0.235071381,0.473683,0.328471379,-0.191226144,0.442447,0.316880784,-0.181703731,0.424226,0.308516069,-0.186741128,0.411211,0.377413273,-0.241355876,0.481446,0.353056503,-0.213392202,0.449583,0.341390342,-0.202197717,0.43328,0.331203526,-0.191454111,0.41846,0.411214831,-0.257298739,0.495491,0.380725091,-0.232127745,0.468478,0.374952757,-0.237650834,0.456066,0.370513187,-0.241325201,0.445115
0.394411448,-0.33638601,0.535129,0.372357474,-0.282778762,0.503448,0.366156272,-0.320009955,0.523134,0.352788612,-0.30720208,0.496374,0.321948985,-0.283362059,0.471081,0.302128317,-0.266509704,0.457025,0.320093028,-0.233371535,0.467523,0.307103486,-0.193235452,0.445568,0.300841038,-0.188607438,0.43459,0.292452983,-0.193387477,0.424611,0.348400688,-0.235087304,0.473223,0.325935454,-0.193406538,0.441803,0.314160336,-0.181503356,0.423475,0.305466921,-0.186547897,0.410384,0.374333862,-0.241099252,0.480741,0.350187867,-0.214438074,0.448205,0.337084849,-0.20364333,0.431559,0.326281785,-0.194424044,0.416426,0.409971782,-0.256077716,0.494688,0.377960177,-0.233985865,0.467158,0.371349022,-0.238994227,0.454508,0.368033682,-0.241993212,0.443347
0.396074532,-0.33762732,0.536613,0.373125729,-0.283678828,0.50485,0.367000451,-0.321312554,0.523712,0.354163389,-0.307135976,0.496052,0.322198483,-0.283166839,0.470358,0.303481925,-0.266048612,0.457254,0.317911468,-0.234681449,0.467728,0.302099626,-0.20312586,0.442092,0.295421997,-0.187036914,0.429274,0.288675952,-0.18916182,0.417621,0.347688162,-0.235696549,0.474548,0.321309419,-0.189608512,0.445207,0.313743061,-0.18410606,0.428092,0.308393472,-0.190081987,0.415866,0.374353822,-0.241591545,0.482996,0.350059159,-0.216733797,0.450081,0.338190157,-0.205225896,0.43324,0.327553401,-0.195813808,0.417931,0.407154037,-0.253619574,0.498049,0.384568814,-0.247040475,0.470292,0.378866738,-0.252712946,0.457539,0.379454757,-0.253724327,0.456283
0.397582867,-0.338685724,0.538297,0.374040614,-0.284904962,0.50613,0.368884702,-0.323385346,0.52614,0.356603263,-0.308876886,0.4992,0.324915264,-0.284838921,0.473968,0.307535458,-0.265424161,0.460491,0.320680226,-0.234739769,0.469682,0.300006897,-0.203105332,0.438117,0.290587244,-0.190255871,0.422335,0.281778939,-0.18929006,0.407988,0.349039052,-0.23598426,0.475442,0.329279334,-0.203098994,0.441623,0.318459488,-0.199008575,0.421895,0.309651164,-0.205931297,0.407804,0.376296847,-0.241961943,0.483052,0.350417098,-0.2200594,0.450187,0.340692109,-0.215369979,0.433372,0.331066722,-0.211248247,0.418086,0.410381678,-0.256777326,0.497186,0.384921332,-0.247831494,0.469407,0.379136091,-0.253435679,0.456644,0.379902692,-0.254479488,0.45545
0.399166068,-0.339752194,0.539588,0.374511264,-0.285627771,0.506811,0.369734985,-0.324424405,0.526656,0.356769853,-0.309237996,0.498936,0.325000734,-0.285116138,0.473501,0.306936356,-0.267120904,0.460321,0.320142893,-0.234744942,0.468984,0.300312312,-0.210018081,0.436835,0.290584203,-0.196573863,0.420761,0.282957053,-0.199969875,0.406148,0.349010355,-0.23627278,0.475542,0.328751538,-0.204250126,0.441281,0.318051281,-0.20021228,0.421295,0.309421724,-0.207033093,0.40702,0.375512236,-0.242167212,0.483863,0.350734213,-0.218828217,0.450382,0.340098821,-0.214283196,0.433252,0.330296901,-0.209417997,0.417679,0.41156761,-0.257672695,0.498932,0.386366752,-0.249433053,0.47073,0.380487792,-0.254854176,0.457772,0.380826063,-0.255547053,0.4561
0.401159407,-0.341163042,0.54141,0.375916045,-0.287041326,0.50872,0.371296981,-0.32605929,0.528166,0.35785661,-0.309812971,0.500147,0.326658986,-0.285615048,0.474615,0.312930608,-0.267163531,0.462281,0.321210841,-0.235748822,0.470554,0.302030059,-0.216367516,0.438275,0.292465298,-0.20589669,0.422136,0.284474115,-0.211150827,0.407464,0.350441806,-0.237426654,0.477532,0.330083074,-0.204017639,0.443327,0.317751308,-0.211212499,0.423374,0.30629467,-0.216856902,0.409121,0.377254722,-0.243449847,0.486192,0.352556654,-0.220350004,0.452649,0.341697727,-0.21504323,0.435488,0.33184411,-0.209990747,0.419886,0.414274375,-0.259305612,0.501645,0.388754153,-0.251380443,0.473422,0.382908967,-0.25682962,0.460454,0.383218179,-0.257455974,0.458715
0.401459837,-0.341687128,0.541718,0.37566521,-0.287599771,0.508882,0.371436004,-0.326835999,0.528351,0.358049101,-0.309749267,0.500212,0.327274298,-0.285532208,0.47465,0.314163744,-0.267121594,0.462215,0.321143731,-0.235872289,0.470465,0.301861294,-0.216246796,0.438049,0.292248531,-0.205740937,0.42184,0.284214611,-0.210965241,0.407106,0.350436946,-0.237564661,0.477555,0.329933452,-0.203383413,0.44325,0.317659518,-0.211138077,0.423239,0.306569564,-0.217049614,0.409477,0.377307845,-0.243603351,0.48632,0.35260946,-0.220650292,0.452657,0.34158871,-0.214839045,0.435434,0.331670761,-0.209665484,0.419776,0.414358683,-0.259462679,0.50192,0.389032446,-0.251796162,0.473613,0.383167114,-0.257209973,0.460607,0.383401826,-0.25775675,0.458766
0.401730712,-0.342097389,0.541817,0.375327762,-0.287894127,0.508729,0.371428264,-0.327313252,0.528154,0.357912478,-0.309370036,0.499735,0.328034631,-0.28508346,0.474072,0.317888731,-0.266541703,0.461343,0.32074942,-0.235649581,0.469774,0.301702587,-0.215728578,0.437126,0.292111466,-0.205159001,0.420802,0.284045743,-0.210296767,0.405962,0.350211718,-0.237462019,0.477164,0.329735418,-0.202738239,0.442691,0.31767197,-0.210748594,0.422581,0.315569666,-0.223052131,0.4209,0.377245261,-0.243605333,0.486197,0.352824672,-0.221167295,0.452301,0.341514446,-0.214459546,0.434959,0.331558675,-0.209166253,0.419194,0.413978822,-0.259444419,0.502153,0.389346481,-0.25202266,0.473689,0.383409455,-0.257384635,0.460612,0.383437937,-0.257803267,0.458563
0.403291804,-0.34360278,0.543657,0.376960943,-0.289438147,0.510919,0.373584191,-0.329451406,0.53096,0.360795555,-0.31152732,0.50347,0.331437683,-0.286612964,0.478314,0.318544645,-0.267501024,0.465402,0.323141454,-0.237848634,0.473415,0.304216454,-0.209482606,0.441339,0.296028866,-0.210651736,0.425301,0.285352195,-0.218304452,0.410721,0.352325565,-0.239120294,0.479687,0.326384201,-0.211202367,0.445458,0.315370431,-0.22212036,0.425491,0.317228057,-0.227343125,0.424359,0.378696163,-0.244867544,0.487769,0.354036571,-0.221866473,0.454393,0.342527586,-0.214390253,0.437317,0.332751807,-0.209933873,0.421793,0.414503049,-0.260219792,0.502551,0.389918133,-0.252691132,0.474412,0.384468678,-0.25873165,0.461484,0.384708832,-0.258974498,0.459901
0.404639801,-0.344910168,0.545109,0.378355485,-0.29074778,0.512686,0.37525746,-0.331071725,0.532975,0.362744005,-0.312795815,0.506052,0.333908703,-0.287276418,0.481193,0.320252613,-0.268193692,0.46818,0.326648679,-0.24009064,0.476101,0.30782602,-0.21065556,0.444387,0.29741955,-0.211646637,0.428531,0.28680832,-0.219487425,0.414116,0.353348062,-0.240362904,0.481755,0.327338498,-0.211683505,0.447762,0.316352896,-0.222780723,0.427933,0.319210338,-0.229027231,0.42715,0.379772246,-0.245887675,0.489301,0.355453908,-0.223208536,0.456306,0.342848346,-0.214544173,0.439425,0.332493494,-0.208158012,0.424078,0.415150029,-0.260829361,0.503401,0.3906064,-0.253013755,0.475518,0.384946561,-0.258677863,0.462706,0.385934988,-0.259837932,0.461416
0.405999975,-0.346020882,0.546578,0.379380148,-0.291482003,0.51381,0.37641065,-0.33198483,0.534216,0.3635897,-0.313133749,0.507058,0.334784421,-0.287433904,0.482431,0.320892324,-0.268093423,0.469318,0.326891414,-0.240110913,0.47671,0.307650442,-0.212489531,0.444707,0.297506283,-0.219328918,0.428706,0.287033007,-0.223629979,0.414159,0.354682752,-0.240950353,0.482549,0.328138912,-0.212930539,0.448311,0.3170077,-0.224095028,0.428338,0.318119155,-0.233838967,0.427295,0.380777305,-0.24646489,0.490279,0.355693509,-0.223991019,0.45701,0.341543867,-0.212819431,0.439988,0.330040982,-0.20350898,0.424514,0.416273323,-0.261584541,0.50465,0.390509225,-0.250568766,0.476568,0.383942117,-0.255827757,0.463666,0.386563243,-0.260530311,0.46217
0.407654345,-0.347385537,0.54831,0.380623153,-0.292327155,0.51506,0.377914585,-0.333245627,0.535804,0.365070895,-0.313719224,0.508496,0.336921035,-0.287883412,0.484023,0.32353683,-0.268455729,0.470873,0.327505731,-0.240402059,0.477462,0.30809499,-0.2131744,0.445138,0.297689077,-0.219608688,0.428976,0.286966353,-0.224949974,0.414284,0.354930627,-0.241197206,0.48334,0.330482425,-0.223699815,0.448771,0.319515259,-0.234775029,0.428606,0.319270077,-0.23809766,0.427244,0.381564237,-0.246938643,0.491144,0.356022349,-0.224168549,0.457564,0.34174305,-0.212803318,0.440383,0.329992668,-0.204372418,0.424765,0.417276515,-0.262210189,0.50568,0.390746993,-0.249469743,0.477366,0.384414917,-0.255476529,0.464357,0.386940743,-0.260933393,0.462618
0.408451287,-0.348185972,0.548942,0.381484106,-0.292909909,0.515637,0.378719955,-0.333839516,0.53645,0.365667682,-0.313797374,0.509156,0.337764909,-0.288131832,0.484762,0.324366147,-0.268582685,0.471501,0.327954159,-0.240624632,0.47802,0.308555185,-0.213744515,0.445662,0.298039393,-0.219915518,0.429483,0.287230042,-0.225841246,0.414775,0.355848786,-0.241616016,0.483863,0.33084106,-0.223942571,0.449258,0.319861905,-0.235029739,0.429071,0.319774147,-0.239206928,0.427682,0.382043914,-0.247220644,0.491643,0.356420534,-0.224563801,0.458039,0.341702473,-0.213371198,0.440846,0.329521537,-0.204955768,0.425216,0.417796245,-0.262532977,0.506161,0.391251445,-0.248832716,0.477827,0.384688984,-0.254921877,0.464808,0.387526919,-0.261682766,0.46305
0.409219336,-0.348805161,0.549335,0.382055415,-0.293390864,0.515997,0.379478921,-0.334425102,0.536897,0.366255087,-0.313854373,0.509657,0.338423225,-0.28832614,0.485339,0.325037371,-0.268702559,0.472027,0.328280982,-0.24078835,0.478428,0.308905253,-0.214166705,0.446067,0.29831828,-0.220145533,0.429886,0.2874626,-0.226434546,0.415177,0.356241678,-0.24200033,0.484193,0.331068613,-0.224096599,0.449567,0.320084057,-0.235192973,0.429369,0.320083595,-0.239803939,0.427978,0.382401628,-0.247599926,0.491911,0.356392069,-0.224464919,0.45831,0.341909523,-0.213308339,0.441119,0.329693366,-0.204684041,0.42549,0.418157454,-0.262924915,0.506361,0.391412047,-0.248663229,0.478025,0.384812773,-0.254749137,0.465006,0.387687655,-0.262055916,0.46325
0.409001235,-0.348101364,0.54901,0.390742141,-0.288484278,0.523358,0.38201592,-0.335490234,0.540278,0.37930753,-0.304984146,0.528252,0.367821507,-0.280792586,0.515959,0.363077815,-0.260318584,0.507416,0.348615206,-0.23434411,0.495511,0.327363297,-0.233654183,0.469066,0.316411329,-0.234451634,0.455844,0.307123177,-0.244433125,0.443823,0.375673211,-0.23857365,0.498887,0.352784347,-0.231280489,0.470074,0.33794281,-0.245605958,0.453266,0.341634362,-0.25627946,0.456502,0.399651496,-0.246723235,0.503954,0.377413751,-0.244355267,0.476307,0.366031884,-0.243300259,0.462162,0.355744362,-0.242490589,0.449382,0.428501786,-0.266402101,0.514046,0.401948219,-0.255138214,0.490214,0.396707194,-0.262438197,0.479265,0.402516946,-0.272735062,0.481143
0.409620076,-0.348113364,0.549828,0.391031824,-0.288698151,0.523746,0.382659176,-0.334916175,0.540997,0.379316146,-0.304991074,0.528264,0.36766681,-0.280674491,0.515742,0.362828091,-0.260139538,0.507067,0.348600431,-0.234334179,0.49549,0.327151832,-0.23350325,0.468763,0.316155834,-0.234894547,0.4554,0.306784358,-0.244689019,0.443251,0.375655139,-0.238562173,0.498863,0.352516423,-0.231104842,0.469717,0.337841884,-0.244982524,0.452715,0.341214228,-0.256184802,0.455746,0.399661012,-0.24672911,0.503966,0.377182377,-0.244205465,0.476015,0.365677069,-0.243064414,0.461714,0.355278884,-0.242173299,0.448794,0.429401501,-0.265963006,0.51417,0.402248237,-0.255173087,0.490097,0.396585982,-0.262225766,0.479037,0.402255391,-0.272767745,0.480759
0.410198603,-0.348082527,0.550594,0.391277457,-0.288879501,0.524075,0.383292445,-0.334324294,0.5417,0.379458319,-0.305105388,0.528462,0.367723842,-0.280718028,0.515822,0.362814496,-0.26012979,0.507048,0.3485744,-0.23431668,0.495453,0.326942461,-0.233353812,0.468463,0.315893437,-0.235149106,0.454968,0.30644358,-0.244791529,0.4427,0.375589626,-0.238520569,0.498776,0.352201219,-0.230898198,0.469297,0.337605774,-0.244418771,0.452102,0.340705975,-0.255960863,0.454928,0.39958964,-0.246685048,0.503876,0.376880482,-0.244010004,0.475634,0.365258101,-0.242785928,0.461185,0.354751658,-0.24181392,0.448128,0.429780626,-0.265700376,0.514148,0.402336031,-0.255112497,0.489843,0.396337729,-0.261962503,0.478676,0.401861953,-0.272889253,0.480244
0.410738409,-0.348018085,0.551308,0.391516371,-0.289055891,0.524395,0.383874235,-0.333698644,0.54235,0.37957895,-0.305202382,0.52863,0.367755922,-0.280742518,0.515867,0.362784443,-0.260108243,0.507006,0.348561033,-0.234307694,0.495434,0.326762401,-0.233225296,0.468205,0.315658986,-0.235310585,0.45459,0.306136144,-0.24482601,0.442212,0.375546703,-0.238493311,0.498719,0.351934796,-0.230723535,0.468942,0.337375953,-0.243958242,0.451572,0.340247204,-0.255734538,0.454211,0.399548402,-0.24665959,0.503824,0.376630884,-0.243848403,0.475319,0.364901702,-0.24254903,0.460735,0.354298054,-0.241504724,0.447555,0.430032301,-0.265558043,0.514164,0.40240757,-0.255067632,0.48965,0.396137786,-0.261753297,0.478387,0.401543786,-0.272794255,0.479813
0.412136555,-0.348443671,0.553616,0.392565648,-0.289788179,0.525642,0.385241459,-0.33362277,0.544505,0.379478189,-0.305288684,0.528491,0.358431986,-0.279358219,0.514857,0.345775591,-0.256910136,0.504811,0.348862266,-0.234678274,0.495794,0.326547187,-0.233489905,0.467935,0.315383763,-0.237981583,0.454006,0.305511002,-0.244872196,0.441343,0.375795601,-0.238804417,0.498955,0.351449778,-0.239681842,0.468382,0.337744863,-0.252583039,0.450548,0.33981251,-0.263684808,0.452672,0.399824733,-0.246956256,0.504052,0.376170598,-0.243587317,0.474853,0.364153932,-0.242506337,0.459913,0.353290978,-0.241913023,0.44634,0.430622332,-0.26578085,0.514555,0.402656649,-0.254361067,0.48949,0.39560957,-0.260472049,0.477973,0.400669681,-0.272314061,0.47901
0.412279773,-0.34803903,0.554286,0.392730401,-0.289881525,0.525757,0.385427297,-0.332752291,0.545033,0.379537882,-0.305448259,0.528575,0.358335217,-0.279282799,0.514718,0.345596816,-0.256777307,0.50455,0.348592357,-0.23460883,0.495365,0.32597802,-0.233361687,0.467145,0.314666643,-0.237805319,0.453035,0.304705839,-0.24466251,0.440207,0.375530533,-0.238738059,0.49854,0.350823987,-0.239255065,0.467548,0.336936011,-0.251978137,0.449469,0.338787079,-0.262889103,0.451306,0.399608455,-0.246906787,0.503699,0.37552209,-0.243192019,0.474111,0.363345187,-0.242270535,0.458973,0.352368026,-0.242009351,0.445212,0.430649577,-0.265696573,0.514363,0.402376541,-0.253958799,0.488994,0.39497154,-0.259717555,0.477338,0.399739702,-0.271550104,0.478156
0.412352685,-0.347573801,0.554861,0.392878649,-0.289970751,0.52588,0.38553575,-0.331849451,0.54547,0.379509403,-0.305505,0.528536,0.358140287,-0.279130873,0.514438,0.345346806,-0.25659155,0.504185,0.348371048,-0.234539972,0.495018,0.325509616,-0.23322537,0.466492,0.314076422,-0.237619648,0.452229,0.304070714,-0.244843755,0.439262,0.375333217,-0.238685565,0.498233,0.350336261,-0.238922445,0.466898,0.336299574,-0.251502177,0.44862,0.337968836,-0.26225417,0.450216,0.399467577,-0.246879824,0.503464,0.375036746,-0.242895312,0.473553,0.362726027,-0.242073856,0.458249,0.351654038,-0.242038298,0.444337,0.431354949,-0.265330331,0.514286,0.402387535,-0.253673493,0.488666,0.394510841,-0.258984339,0.476895,0.399001735,-0.270914822,0.477527
0.412827344,-0.347431854,0.555963,0.393641468,-0.290514623,0.526837,0.385603516,-0.330863214,0.545827,0.372159139,-0.312632388,0.521951,0.346435092,-0.288628364,0.503004,0.330743774,-0.266803239,0.490828,0.348329872,-0.234581073,0.494938,0.325085135,-0.233073945,0.465905,0.313465732,-0.237354086,0.451389,0.303323712,-0.244918004,0.438192,0.375972849,-0.239152806,0.499051,0.350828233,-0.234005985,0.46753,0.336131555,-0.243363753,0.449142,0.338048974,-0.258656395,0.450537,0.400747102,-0.247718096,0.505035,0.378050699,-0.255967732,0.47471,0.366766006,-0.261824454,0.459195,0.356753142,-0.267984251,0.445091,0.433480316,-0.266658896,0.516765,0.404514305,-0.254754916,0.490864,0.395084547,-0.256429777,0.478964,0.398330708,-0.269084718,0.479401
0.412169831,-0.346432206,0.555705,0.393244511,-0.290299865,0.526483,0.385453618,-0.329809359,0.546061,0.371689706,-0.311868139,0.521903,0.347408114,-0.288666159,0.505061,0.333922948,-0.268310874,0.49537,0.348286193,-0.234716894,0.495142,0.325216017,-0.23337143,0.466347,0.313681456,-0.237855813,0.45195,0.303656864,-0.246042871,0.438862,0.375453949,-0.23894873,0.498605,0.349335791,-0.23134145,0.467067,0.335813539,-0.242970927,0.44867,0.337525893,-0.25872501,0.450106,0.399799496,-0.247223135,0.504061,0.373494357,-0.250754646,0.473897,0.35673884,-0.259837257,0.458465,0.352090085,-0.276452022,0.459992,0.431438331,-0.265999434,0.515188,0.403441869,-0.253867515,0.489382,0.393278893,-0.254810276,0.477525,0.39399471,-0.264138446,0.478024
0.41208852,-0.345916812,0.556224,0.393310323,-0.290411014,0.526713,0.385394736,-0.328833121,0.546424,0.371670705,-0.311728751,0.52208,0.347424693,-0.288422126,0.5053,0.334065601,-0.268073088,0.495523,0.348028092,-0.234675183,0.494988,0.324804904,-0.233239322,0.465961,0.313194153,-0.237756779,0.451448,0.303105367,-0.246448873,0.438253,0.375274451,-0.238935365,0.498561,0.34982472,-0.231300647,0.466799,0.335550934,-0.242618041,0.448272,0.336941298,-0.258653166,0.44954,0.399716812,-0.247244667,0.504133,0.37336668,-0.250668926,0.473735,0.356519412,-0.259677433,0.458183,0.351731865,-0.276170757,0.459524,0.432087199,-0.265878955,0.515443,0.403654059,-0.253789283,0.489459,0.392862842,-0.254241633,0.477521,0.384314937,-0.257278935,0.466987
0.412398619,-0.346373203,0.557057,0.393542317,-0.290817539,0.527458,0.385576451,-0.329206772,0.547112,0.371339897,-0.311914039,0.522603,0.346056357,-0.287535183,0.506311,0.332911447,-0.267564455,0.496265,0.348045099,-0.234957101,0.495489,0.324711306,-0.233743687,0.466333,0.313047325,-0.23831003,0.451755,0.302917784,-0.246979064,0.438502,0.375432026,-0.239288202,0.49922,0.34974859,-0.232117118,0.46738,0.335425831,-0.243203128,0.448806,0.336488841,-0.258321971,0.450003,0.400010644,-0.247664099,0.504932,0.372612953,-0.252206177,0.474418,0.352401916,-0.264008653,0.458807,0.350718191,-0.276793057,0.460061,0.432565256,-0.266392023,0.516419,0.403993335,-0.253939627,0.490352,0.393078387,-0.254537433,0.478376,0.386588443,-0.260307439,0.467809
0.412349946,-0.346528591,0.557406,0.393381411,-0.290934025,0.527677,0.385499191,-0.329359557,0.547433,0.371119796,-0.312007362,0.522887,0.345485394,-0.287443107,0.506765,0.332322852,-0.267342281,0.496862,0.347779358,-0.235048446,0.495588,0.324371873,-0.234071182,0.466352,0.312673356,-0.238690113,0.451734,0.302519175,-0.247336524,0.438445,0.375164939,-0.239370739,0.499315,0.349235881,-0.232644365,0.467378,0.334857819,-0.24346863,0.448749,0.335818612,-0.259065216,0.449876,0.399752493,-0.2477422,0.505035,0.371983344,-0.252800375,0.474435,0.35238041,-0.263992541,0.458779,0.34994028,-0.276879651,0.45996,0.432336502,-0.266470256,0.516552,0.403651372,-0.253661645,0.490419,0.392741553,-0.254436589,0.478411,0.386220896,-0.260188241,0.467817
0.412230156,-0.346624267,0.557659,0.393256881,-0.291077523,0.527945,0.385376066,-0.329473227,0.547689,0.371082203,-0.311936066,0.523147,0.34541206,-0.287241999,0.507306,0.331845392,-0.266613106,0.49795,0.347642549,-0.235227078,0.495871,0.324223013,-0.234536214,0.466645,0.312520279,-0.239238618,0.452032,0.302369244,-0.247896765,0.438748,0.375039638,-0.23954391,0.499599,0.348945879,-0.233319938,0.467674,0.334556815,-0.24392941,0.449051,0.33547151,-0.26006771,0.450188,0.399635803,-0.247908128,0.505317,0.371828025,-0.253306923,0.474728,0.352507292,-0.264128401,0.459078,0.348147663,-0.276649917,0.460268,0.432229744,-0.266623813,0.516831,0.403516039,-0.253780046,0.490706,0.392752078,-0.254933858,0.478702,0.386257137,-0.260725944,0.468111
0.412410179,-0.347089835,0.558318,0.393074824,-0.291293824,0.528136,0.385472172,-0.329890913,0.548257,0.371317767,-0.311959934,0.523591,0.344395001,-0.286312013,0.508476,0.330495924,-0.265472379,0.499739,0.347145352,-0.23527383,0.49564,0.323515232,-0.234708939,0.466133,0.311708432,-0.239208464,0.45138,0.301449547,-0.247679228,0.437968,0.374508985,-0.239571028,0.499343,0.348732931,-0.235301904,0.467075,0.333427045,-0.243803028,0.448253,0.33408155,-0.260290933,0.449136,0.399110275,-0.247934243,0.505082,0.371459355,-0.252714339,0.474187,0.353842431,-0.261933611,0.45838,0.349076535,-0.275618103,0.459307,0.431777532,-0.266679675,0.516697,0.402838144,-0.253673345,0.490333,0.393183381,-0.257409522,0.478219,0.386330785,-0.262250094,0.467531
0.412151727,-0.347352056,0.558503,0.392947173,-0.291571992,0.52848,0.385210667,-0.330135029,0.548437,0.371388028,-0.311888334,0.523774,0.344749484,-0.28615357,0.508788,0.330867344,-0.26532783,0.500248,0.347096283,-0.23553935,0.496082,0.323535344,-0.23519899,0.466649,0.311761365,-0.23956737,0.451933,0.301512877,-0.247974814,0.438555,0.37450665,-0.239858674,0.499838,0.348835709,-0.235169485,0.467683,0.333788078,-0.244080204,0.448926,0.334480277,-0.260667944,0.449889,0.399138767,-0.248240706,0.505608,0.371720744,-0.253429522,0.474801,0.352835546,-0.263695912,0.459039,0.34836328,-0.275857447,0.460045,0.431822582,-0.267008291,0.517233,0.402982307,-0.254325331,0.490939,0.393044372,-0.258493036,0.478858,0.386501102,-0.263069895,0.468199
0.411583031,-0.347512473,0.558381,0.392489315,-0.291659169,0.528428,0.384623596,-0.330226682,0.548274,0.371103058,-0.311700076,0.52357,0.344555908,-0.285830787,0.508468,0.330647582,-0.264905741,0.499884,0.346692195,-0.23552168,0.496022,0.323150287,-0.235492484,0.466599,0.311384966,-0.239725814,0.451888,0.301123392,-0.248036418,0.438514,0.37415144,-0.239893797,0.499852,0.348535564,-0.234868462,0.467741,0.333741395,-0.244203017,0.44901,0.33442782,-0.260844092,0.450001,0.398818667,-0.248324201,0.505676,0.370712053,-0.254700681,0.474889,0.352816966,-0.264101318,0.459138,0.348441028,-0.276068525,0.460167,0.431532853,-0.267160095,0.517352,0.402770604,-0.254817985,0.491078,0.392510811,-0.259409855,0.479007,0.386934569,-0.265005241,0.468355
0.411881878,-0.348407342,0.559438,0.392813936,-0.292328918,0.529431,0.384825872,-0.330997589,0.549238,0.371600758,-0.312159062,0.524431,0.344921571,-0.286017969,0.508983,0.330734716,-0.264799611,0.499993,0.346924199,-0.235936574,0.496873,0.323334169,-0.23620118,0.467371,0.311543485,-0.240296703,0.45262,0.301238943,-0.248515134,0.43921,0.374497603,-0.24037915,0.500804,0.348312304,-0.246037815,0.468646,0.333829384,-0.257203477,0.449887,0.334455991,-0.273617222,0.450834,0.399264349,-0.248885129,0.506716,0.371404013,-0.255473548,0.475859,0.353424383,-0.264646425,0.460071,0.349762454,-0.271475044,0.461045,0.432104538,-0.267846112,0.518505,0.403348626,-0.255812032,0.492181,0.392670405,-0.260701111,0.480086,0.386583504,-0.264665071,0.469414
0.411397101,-0.348833324,0.559448,0.392382178,-0.292614256,0.529422,0.384338469,-0.331363135,0.549234,0.371253151,-0.312082041,0.524412,0.344637772,-0.285998872,0.508831,0.330371881,-0.264734981,0.499861,0.346535749,-0.236091914,0.496834,0.322949096,-0.236661826,0.467315,0.311156485,-0.240615768,0.452555,0.300826092,-0.248727157,0.439137,0.374112597,-0.240561566,0.500777,0.348281831,-0.246871473,0.468605,0.333792282,-0.258010622,0.449837,0.334409254,-0.274413379,0.450771,0.398878941,-0.249098708,0.506701,0.371089501,-0.256401001,0.475827,0.353311737,-0.264836421,0.460031,0.349586887,-0.273116761,0.460991,0.431715181,-0.268114152,0.518507,0.402737238,-0.258205604,0.49217,0.392493976,-0.260715141,0.480069,0.386038018,-0.265189476,0.469392
0.410608123,-0.349193425,0.558848,0.391643838,-0.292802549,0.528826,0.383574589,-0.331661462,0.548655,0.370565927,-0.311994828,0.523856,0.344079384,-0.285889168,0.508356,0.329837618,-0.264651781,0.499552,0.345881384,-0.236148184,0.496267,0.322060404,-0.237223348,0.466762,0.310455547,-0.240589402,0.45201,0.300095856,-0.248555968,0.438598,0.373417354,-0.24063211,0.500184,0.34752984,-0.246861507,0.468016,0.33300536,-0.257405992,0.449252,0.333589491,-0.273934523,0.450192,0.398147487,-0.249190525,0.506086,0.370515773,-0.25638114,0.475224,0.352485012,-0.26513685,0.459434,0.349124754,-0.273652756,0.460402,0.430941022,-0.268251602,0.517865,0.402148999,-0.258192813,0.491537,0.391759387,-0.260354071,0.479439,0.385264771,-0.264874689,0.468766
0.408552722,-0.348513711,0.556518,0.389813473,-0.292181721,0.526746,0.381536814,-0.330898798,0.546267,0.368250221,-0.311666657,0.521419,0.342857278,-0.285190086,0.506858,0.329108902,-0.264368398,0.498887,0.344226547,-0.235510644,0.494278,0.320733887,-0.235109941,0.464861,0.307816382,-0.232740335,0.450404,0.298681609,-0.245726771,0.437261,0.371799677,-0.24008702,0.498343,0.346151466,-0.24614072,0.466348,0.331681602,-0.256423451,0.447684,0.331742891,-0.272962667,0.448738,0.396555575,-0.248717408,0.504346,0.369192728,-0.255751122,0.4736,0.351222461,-0.264412909,0.45787,0.348111516,-0.272442962,0.458946,0.429360522,-0.267859582,0.516203,0.400861094,-0.257613103,0.489971,0.390230992,-0.259529632,0.477919,0.383553274,-0.263711468,0.467285
