sluyters/QuantumLeap/backend/src/datasets/dynamic/HandGestureDataset_SHREC2017_csv/Gesture4/finger_2/subject_11_essai_2_skeletons_world.csv
Wrist_x,Wrist_y,Wrist_z,Palm_x,Palm_y,Palm_z,thumb_base_x,thumb_base_y,thumb_base_z,thumb_first_joint_x,thumb_first_joint_y,thumb_first_joint_z,thumb_second_joint_x,thumb_second_joint_y,thumb_second_joint_z,thumb_tip_x,thumb_tip_y,thumb_tip_z,index_base_x,index_base_y,index_base_z,index_first_joint_x,index_first_joint_y,index_first_joint_z,index_second_joint_x,index_second_joint_y,index_second_joint_z,index_tip_x,index_tip_y,index_tip_z,middle_base_x,middle_base_y,middle_base_z,middle_first_joint_x,middle_first_joint_y,middle_first_joint_z,middle_second_joint_x,middle_second_joint_y,middle_second_joint_z,middle_tip_x,middle_tip_y,middle_tip_z,ring_base_x,ring_base_y,ring_base_z,ring_first_joint_x,ring_first_joint_y,ring_first_joint_z,ring_second_joint_x,ring_second_joint_y,ring_second_joint_z,ring_tip_x,ring_tip_y,ring_tip_z,pinky_base_x,pinky_base_y,pinky_base_z,pinky_first_joint_x,pinky_first_joint_y,pinky_first_joint_z,pinky_second_joint_x,pinky_second_joint_y,pinky_second_joint_z,pinky_tip_x,pinky_tip_y,pinky_tip_z,
0.42473155,-0.35334307,0.554571,0.42702093,-0.30623749,0.54979,0.40195666,-0.33444065,0.54967,0.37648992,-0.31044786,0.53516,0.34226962,-0.28300721,0.511092,0.32541634,-0.2636393,0.502451,0.39653154,-0.25077279,0.539952,0.38168678,-0.20647052,0.526857,0.37651112,-0.1920006,0.520309,0.37165909,-0.17653875,0.514357,0.42323989,-0.25618805,0.544095,0.41559585,-0.20717847,0.530926,0.41166497,-0.18006697,0.523244,0.40844226,-0.16094152,0.517757,0.4470748,-0.26101896,0.547832,0.43927337,-0.21155597,0.534954,0.43679906,-0.1883606,0.528365,0.43459597,-0.16694922,0.522375,0.47510092,-0.27448708,0.552962,0.47542803,-0.23455213,0.541656,0.47655335,-0.21625921,0.536462,0.47351753,-0.2076382,0.531878
0.42639663,-0.35360943,0.555199,0.42468429,-0.30792655,0.550057,0.40322155,-0.3347226,0.550001,0.37617753,-0.310398,0.534963,0.34177967,-0.28274627,0.511163,0.32478887,-0.26151412,0.504009,0.39629934,-0.25067201,0.539565,0.38173318,-0.20771146,0.525962,0.37527883,-0.18879441,0.51916,0.37014543,-0.17270484,0.512977,0.42258136,-0.2548526,0.543931,0.41474672,-0.20675705,0.530373,0.4108274,-0.18003751,0.522464,0.40856165,-0.16199899,0.516814,0.44490579,-0.26213387,0.547877,0.43982008,-0.21355674,0.534609,0.43756645,-0.19048243,0.527821,0.43577775,-0.169472,0.52165,0.4726165,-0.27462121,0.553306,0.47035787,-0.24207105,0.541113,0.4758304,-0.22842586,0.535512,0.4765924,-0.21038674,0.530569
0.42805703,-0.35389822,0.555781,0.4256071,-0.30800038,0.55042,0.40477505,-0.33529467,0.550705,0.36933177,-0.31146898,0.536003,0.34180158,-0.28331398,0.511222,0.3251307,-0.26369872,0.501103,0.39654093,-0.25099601,0.539898,0.3810856,-0.20662253,0.526195,0.37535509,-0.1894127,0.519343,0.37039793,-0.17346158,0.513114,0.42318399,-0.25584353,0.54404,0.41447762,-0.20726278,0.530285,0.41048746,-0.18026664,0.522261,0.40832246,-0.16259488,0.516529,0.44506817,-0.26346101,0.547818,0.43795806,-0.21511893,0.53428,0.43665343,-0.1900924,0.527354,0.43557758,-0.17016241,0.521057,0.47308435,-0.27615674,0.553076,0.47084212,-0.24217761,0.540668,0.47445227,-0.22741938,0.534967,0.47587342,-0.21090314,0.529937
0.42962012,-0.35410404,0.556233,0.42643989,-0.30800867,0.550666,0.40600073,-0.33559319,0.550959,0.36935038,-0.31148467,0.53603,0.3418412,-0.28373987,0.5113,0.3250435,-0.26382223,0.500363,0.39642041,-0.2510908,0.539738,0.380548,-0.20656173,0.525786,0.37491382,-0.18977014,0.51881,0.3700854,-0.17395434,0.512468,0.42315478,-0.25572206,0.544042,0.41397558,-0.20716041,0.530063,0.41002919,-0.18044469,0.521908,0.4079559,-0.16314283,0.516083,0.44515802,-0.26311686,0.547968,0.43851321,-0.21481192,0.534235,0.43650162,-0.19030487,0.527209,0.43557747,-0.17067522,0.520821,0.47290891,-0.27657704,0.553431,0.47182183,-0.24253887,0.540791,0.47416909,-0.2271687,0.534983,0.47569537,-0.21141979,0.529859
0.43097134,-0.35399833,0.556383,0.42703554,-0.30771507,0.550592,0.40695896,-0.33555061,0.550846,0.37394576,-0.31080479,0.535404,0.34215464,-0.28413331,0.510694,0.3250219,-0.2637983,0.499454,0.39545478,-0.24979432,0.539165,0.3798777,-0.20739302,0.524943,0.37409235,-0.19007103,0.517833,0.36923955,-0.17422148,0.511369,0.42233216,-0.2543279,0.543703,0.4133426,-0.20690981,0.529474,0.40937578,-0.18045908,0.521174,0.40716845,-0.16309167,0.515245,0.44482583,-0.26111089,0.547837,0.43866375,-0.21330884,0.53395,0.4363405,-0.19031681,0.526845,0.43551731,-0.17085438,0.520386,0.47258347,-0.27532845,0.55358,0.47324615,-0.24256607,0.540882,0.47467314,-0.22653527,0.535047,0.47597149,-0.21120569,0.5299
0.43107919,-0.35429727,0.55607,0.42704326,-0.30800203,0.550283,0.40696787,-0.33581412,0.55042,0.37328371,-0.31050489,0.534865,0.34203712,-0.28409119,0.510109,0.32487725,-0.2636761,0.498574,0.3952702,-0.25006564,0.538719,0.37930749,-0.20723577,0.524406,0.37350397,-0.18982056,0.517249,0.36855496,-0.17393356,0.510743,0.4222226,-0.25464362,0.543397,0.41316966,-0.2068736,0.529157,0.40926952,-0.1804211,0.52085,0.40705274,-0.16284928,0.514916,0.44478453,-0.26146345,0.547645,0.43862332,-0.2137173,0.533749,0.43627993,-0.19035436,0.52664,0.43557065,-0.17102764,0.520177,0.47263821,-0.27572571,0.553524,0.47342321,-0.24227472,0.540839,0.47490866,-0.2261233,0.53501,0.47612866,-0.21101391,0.529868
0.42657488,-0.35152821,0.550242,0.42311968,-0.30657351,0.545525,0.40448853,-0.33469109,0.547097,0.37059613,-0.31103581,0.534244,0.34123561,-0.28511134,0.508844,0.32433636,-0.26379716,0.497959,0.39448304,-0.25077061,0.537863,0.37983679,-0.20867299,0.525776,0.37531844,-0.19081695,0.519732,0.370929,-0.17511632,0.514238,0.41938378,-0.25415119,0.539901,0.41169281,-0.20620028,0.527093,0.40842906,-0.18010381,0.519622,0.40662045,-0.16276972,0.514285,0.43972934,-0.26284705,0.541904,0.43549419,-0.21261312,0.529416,0.43394318,-0.18956843,0.523027,0.43344895,-0.17026283,0.517219,0.46581667,-0.27628493,0.544945,0.47611351,-0.23687612,0.535433,0.4799133,-0.22321556,0.531063,0.47795898,-0.20928919,0.527207
0.42796821,-0.35365729,0.552478,0.42430361,-0.30784128,0.547138,0.40491297,-0.33607409,0.548147,0.37307763,-0.31545676,0.533879,0.34097031,-0.28599316,0.508316,0.32389945,-0.2649151,0.494973,0.39401807,-0.25098905,0.53753,0.37872194,-0.20841412,0.524352,0.3736281,-0.19024418,0.517764,0.36885282,-0.17405187,0.511774,0.41991508,-0.25484869,0.54077,0.41170919,-0.20635517,0.527144,0.40824676,-0.18014374,0.519195,0.40628173,-0.16260456,0.513517,0.44259343,-0.26127536,0.543805,0.43657505,-0.21318389,0.530605,0.43479888,-0.1899208,0.523851,0.43404155,-0.1704601,0.517711,0.46986441,-0.27449156,0.548168,0.47367245,-0.23665685,0.537339,0.47620825,-0.22468717,0.532363,0.47775661,-0.21341737,0.527973
0.42689638,-0.35344818,0.551613,0.42268405,-0.30731617,0.545501,0.40439862,-0.33636372,0.547949,0.37598261,-0.31254786,0.534324,0.34308502,-0.28632939,0.507982,0.32518862,-0.26462768,0.494793,0.39215585,-0.25082274,0.53607,0.37786691,-0.20862414,0.522644,0.37182406,-0.18907959,0.51593,0.36717642,-0.17274438,0.509827,0.41699203,-0.25465338,0.538214,0.40914011,-0.20527618,0.523951,0.40556326,-0.1790736,0.515631,0.40353926,-0.16167767,0.509688,0.43927198,-0.26027268,0.540399,0.43429101,-0.21293656,0.52643,0.43273409,-0.18934295,0.519284,0.43020576,-0.16912239,0.512787,0.46558598,-0.27296286,0.543849,0.47360977,-0.23834268,0.532703,0.47900345,-0.2293046,0.527582,0.48066721,-0.21574747,0.523064
0.42467344,-0.35238799,0.549699,0.42019999,-0.30612005,0.543016,0.40294392,-0.33587804,0.546912,0.37391605,-0.31260704,0.53422,0.34181604,-0.28586576,0.508005,0.32533069,-0.2642644,0.49395,0.3900513,-0.25093559,0.53418,0.37640296,-0.20752582,0.520815,0.37038966,-0.1880367,0.514132,0.36538436,-0.17068239,0.508057,0.41421221,-0.25404315,0.535048,0.40674886,-0.20414257,0.520403,0.40297331,-0.17774432,0.51186,0.40069094,-0.1601119,0.505758,0.43471888,-0.25918698,0.536223,0.43087825,-0.21065882,0.52179,0.43006292,-0.18830132,0.514405,0.42844095,-0.16781783,0.507692,0.4599303,-0.27147655,0.53854,0.47025255,-0.23940419,0.527278,0.47515109,-0.22655175,0.522104,0.47753065,-0.21340375,0.517539
0.42188877,-0.3499951,0.54704,0.41511273,-0.29403598,0.538196,0.39977553,-0.33299169,0.54355,0.37259536,-0.30216642,0.529804,0.34195865,-0.27546473,0.502782,0.32482669,-0.25701876,0.486029,0.38536071,-0.23569835,0.526745,0.36879747,-0.19526871,0.511581,0.36202761,-0.18171758,0.503999,0.35492724,-0.16280992,0.497106,0.40976402,-0.23896532,0.527652,0.4031585,-0.18898869,0.510844,0.39654658,-0.1696342,0.501039,0.39762305,-0.15698863,0.50063,0.43028702,-0.24479621,0.529009,0.42819383,-0.19683917,0.512421,0.42428851,-0.18350782,0.503933,0.42188934,-0.16916983,0.496218,0.45583249,-0.25807178,0.531838,0.46399367,-0.2345375,0.518619,0.46906328,-0.22094598,0.512545,0.47237128,-0.20971632,0.507186
0.42148896,-0.34918287,0.546898,0.41476872,-0.29379232,0.53775,0.39908884,-0.33188402,0.543093,0.37199477,-0.30167935,0.52895,0.34136353,-0.27498534,0.501907,0.32434291,-0.25529597,0.485033,0.38457278,-0.23521643,0.525668,0.36775145,-0.19471487,0.51013,0.36063541,-0.18037905,0.502361,0.3533746,-0.16232984,0.495298,0.40913577,-0.23859894,0.526843,0.40224934,-0.1885625,0.509692,0.39604609,-0.16856588,0.499687,0.39848489,-0.15657938,0.501094,0.42982584,-0.24453384,0.528442,0.42745095,-0.19649767,0.511532,0.42357215,-0.18282578,0.50288,0.42086654,-0.1687597,0.495015,0.45562936,-0.25795678,0.531601,0.46379258,-0.23359539,0.518011,0.46835128,-0.2206106,0.511767,0.47168894,-0.20957342,0.506257
0.42108803,-0.34871899,0.54651,0.41571021,-0.30137516,0.537947,0.39858299,-0.3312712,0.542628,0.37237501,-0.30313951,0.52846,0.3420789,-0.27645728,0.501547,0.32560132,-0.25431382,0.484491,0.3856459,-0.24381536,0.526249,0.3689413,-0.20012395,0.511037,0.3615126,-0.18130892,0.50343,0.35563909,-0.16600243,0.496515,0.40964452,-0.24673177,0.527737,0.40072921,-0.19890962,0.511119,0.39806766,-0.16996891,0.501425,0.39576969,-0.15459949,0.496272,0.43047518,-0.25257736,0.529552,0.42680254,-0.20571393,0.513132,0.42532145,-0.18342739,0.504731,0.42316424,-0.16726003,0.497094,0.45605104,-0.26428479,0.532891,0.4579011,-0.24268122,0.517679,0.45825005,-0.23247997,0.510689,0.45878559,-0.22323846,0.504522
0.41517032,-0.34426311,0.540424,0.40817129,-0.29083276,0.531567,0.39022652,-0.32356313,0.533748,0.36176867,-0.29187888,0.516433,0.3361064,-0.26222644,0.489419,0.32315827,-0.23881249,0.472833,0.37649021,-0.22959705,0.516245,0.35940113,-0.18916746,0.498976,0.35163652,-0.17335778,0.490341,0.34482788,-0.16030013,0.482492,0.40423282,-0.23620198,0.521007,0.39816988,-0.18995218,0.503691,0.39324965,-0.16415886,0.493591,0.39016896,-0.15025836,0.486376,0.42699017,-0.24402868,0.525535,0.4240976,-0.19553899,0.508115,0.42077859,-0.18185216,0.499202,0.41764934,-0.16937622,0.491099,0.45554235,-0.26331572,0.532167,0.45552191,-0.23992667,0.514597,0.45588973,-0.22881091,0.506524,0.45643848,-0.21878249,0.4994
0.41741415,-0.34633982,0.544556,0.40756643,-0.29140134,0.530071,0.39061473,-0.32478823,0.534485,0.36241601,-0.29405767,0.512886,0.33655006,-0.26237592,0.486466,0.32368892,-0.23942582,0.470516,0.37065787,-0.22692709,0.506039,0.35079712,-0.18235495,0.489762,0.34446705,-0.16976753,0.481623,0.33894652,-0.15899684,0.474225,0.39926236,-0.23397512,0.5128,0.39339547,-0.18491962,0.499267,0.39136868,-0.15969834,0.491373,0.39017577,-0.14598432,0.485734,0.42223456,-0.24299965,0.519361,0.41150996,-0.19082802,0.496037,0.40646416,-0.17862755,0.484104,0.40205,-0.16726537,0.473256,0.45240898,-0.26120484,0.529194,0.44928757,-0.23449523,0.50654,0.44813824,-0.22195046,0.496131,0.44577748,-0.2123214,0.486947
0.41748664,-0.34646037,0.545483,0.40312757,-0.28989364,0.526699,0.38915486,-0.32357852,0.533311,0.36402033,-0.2925925,0.509117,0.33739265,-0.26340222,0.482554,0.32257062,-0.23925323,0.467483,0.36363915,-0.22298352,0.496611,0.34192843,-0.1782723,0.478497,0.33462226,-0.16432623,0.469441,0.32842303,-0.15492345,0.461207,0.39274576,-0.22999206,0.504304,0.38697055,-0.18136301,0.492057,0.38531326,-0.15599967,0.484913,0.38577571,-0.14356218,0.47981,0.41769349,-0.23925497,0.511928,0.40149354,-0.18552042,0.484015,0.39546947,-0.17292108,0.469734,0.39015917,-0.16126336,0.456751,0.44945562,-0.25737999,0.523621,0.44258115,-0.2292,0.497404,0.43961523,-0.2161003,0.485359,0.43678135,-0.20491102,0.47473
0.4094562,-0.33876516,0.536702,0.39617107,-0.2819628,0.514989,0.38115808,-0.31394661,0.525163,0.35379736,-0.28285343,0.5014,0.33067693,-0.2534711,0.475041,0.31812861,-0.23444247,0.460354,0.35773996,-0.21058932,0.483273,0.33836566,-0.16556187,0.466752,0.33141806,-0.15518587,0.458491,0.32343036,-0.1486822,0.450981,0.38541292,-0.21837726,0.4891,0.37714723,-0.16830143,0.473297,0.37367529,-0.14662341,0.464079,0.37135746,-0.13189873,0.457494,0.40910225,-0.22834543,0.495392,0.39295112,-0.17839031,0.471963,0.3877358,-0.16879868,0.459976,0.38312851,-0.16058373,0.449079,0.43924589,-0.24744014,0.505885,0.42450977,-0.21847735,0.477931,0.41771487,-0.20577246,0.465087,0.41141975,-0.19632615,0.453754
0.40686728,-0.33639328,0.533804,0.39376213,-0.27955192,0.511624,0.37846745,-0.31137333,0.5218,0.35342438,-0.28039084,0.497522,0.33081921,-0.25631393,0.470482,0.32127146,-0.23736821,0.452307,0.35458339,-0.20896562,0.478962,0.33557541,-0.16443125,0.463245,0.32844314,-0.15564616,0.455387,0.32120897,-0.14858949,0.448243,0.38252274,-0.21694943,0.485177,0.37384875,-0.16690166,0.468941,0.36956551,-0.14537998,0.459469,0.36662354,-0.13031312,0.452704,0.40653479,-0.22709429,0.491821,0.3889708,-0.17380391,0.4656,0.38086447,-0.16329974,0.452186,0.37217687,-0.14905895,0.43999,0.43719948,-0.24643618,0.502799,0.42051383,-0.21530615,0.474397,0.41257365,-0.20358098,0.461347,0.40516293,-0.19589879,0.449833
0.40691584,-0.33479728,0.533651,0.39539115,-0.27731333,0.510959,0.37958343,-0.31127211,0.522227,0.35708482,-0.27970429,0.498534,0.33740249,-0.25317319,0.472025,0.32520855,-0.23582604,0.453873,0.35403706,-0.20932713,0.478583,0.33033531,-0.16394409,0.457125,0.32069903,-0.15374878,0.446396,0.31257967,-0.14745708,0.436642,0.38148517,-0.21593217,0.483903,0.36890424,-0.16460281,0.464345,0.35987434,-0.1480367,0.452936,0.35538376,-0.13743189,0.444787,0.40517407,-0.2249228,0.489846,0.386672,-0.17181852,0.46374,0.37783459,-0.1590916,0.450384,0.37030667,-0.14770906,0.438241,0.43739282,-0.23828446,0.500054,0.41528836,-0.21172701,0.471515,0.40543783,-0.20082099,0.458403,0.39663431,-0.19397882,0.446833
0.40316887,-0.32981776,0.528572,0.39115631,-0.26413384,0.503184,0.37405279,-0.30438672,0.515328,0.34918555,-0.2602954,0.493492,0.33167275,-0.23308939,0.468838,0.33179739,-0.2213343,0.449886,0.34360716,-0.19398016,0.4664,0.31578222,-0.16024019,0.435121,0.30258656,-0.14568699,0.419482,0.29535472,-0.14942966,0.405264,0.37212486,-0.19996062,0.472913,0.34937635,-0.15255127,0.440454,0.33717797,-0.1355291,0.42152,0.32848657,-0.1388893,0.407995,0.39709076,-0.20856269,0.480023,0.3717436,-0.15537456,0.449049,0.36209002,-0.15369442,0.433202,0.35338831,-0.15252605,0.418796,0.42992127,-0.22632134,0.491996,0.40290449,-0.2054996,0.461201,0.38932116,-0.19806101,0.447052,0.38052807,-0.19816967,0.434568
0.40306269,-0.32965332,0.528454,0.39008137,-0.2723711,0.500925,0.37465501,-0.30468648,0.515685,0.3507993,-0.26905843,0.493459,0.33450716,-0.24413057,0.468564,0.33494659,-0.23463974,0.449686,0.34416344,-0.20075235,0.462967,0.3141343,-0.16830125,0.430812,0.29956751,-0.1545594,0.414735,0.29021343,-0.15908213,0.400119,0.37153389,-0.20749034,0.468101,0.34655939,-0.1607099,0.433197,0.3317597,-0.14470444,0.412837,0.32034906,-0.14858707,0.398293,0.39553444,-0.21678184,0.474224,0.36971534,-0.16341983,0.44134,0.35716191,-0.16268247,0.424515,0.3457636,-0.16236563,0.40922,0.42715405,-0.23549325,0.485306,0.39499582,-0.21501163,0.453378,0.38102176,-0.20918958,0.438709,0.37017067,-0.20988346,0.425765
0.4013579,-0.32780635,0.525707,0.38868425,-0.27183785,0.498737,0.37270734,-0.30313025,0.512638,0.34912162,-0.26795888,0.490603,0.33307938,-0.24282099,0.465564,0.33359685,-0.23326627,0.446632,0.34320141,-0.20015159,0.460872,0.31373792,-0.1675316,0.428828,0.29946014,-0.15369298,0.412807,0.29024407,-0.15814062,0.398241,0.3709646,-0.20725105,0.466579,0.34681409,-0.16048096,0.432118,0.3324708,-0.1459545,0.412015,0.32115603,-0.15136662,0.397656,0.39526835,-0.21683387,0.473136,0.36931726,-0.16313828,0.439672,0.35671948,-0.16214832,0.422551,0.34527917,-0.16159308,0.406986,0.42718066,-0.23588344,0.484661,0.39568807,-0.21287812,0.452964,0.38324182,-0.20264397,0.438401,0.37265408,-0.19766472,0.425551
0.39935772,-0.32608261,0.52323,0.38660591,-0.27136787,0.495271,0.37188478,-0.30090532,0.509558,0.34733505,-0.26774176,0.487313,0.33204391,-0.24400073,0.462154,0.33188276,-0.23356229,0.443251,0.34016458,-0.19921425,0.455867,0.31196006,-0.16994783,0.422926,0.29761987,-0.15662204,0.406456,0.28744399,-0.15836863,0.391484,0.36880751,-0.20738516,0.461934,0.34551076,-0.16297197,0.426586,0.33005144,-0.14693964,0.405966,0.31846903,-0.15287442,0.391238,0.39334088,-0.21723303,0.468854,0.36736977,-0.16355925,0.434827,0.35587135,-0.16525585,0.417418,0.3432283,-0.16245768,0.401591,0.42560751,-0.23665663,0.48095,0.39291283,-0.21343794,0.448483,0.37893089,-0.20665607,0.433566,0.36803902,-0.20399512,0.420404
0.40019417,-0.32604169,0.522773,0.38651252,-0.27184447,0.49486,0.37152392,-0.30114752,0.508779,0.34745941,-0.26797759,0.48684,0.33176118,-0.24300393,0.461733,0.33239751,-0.23358882,0.442804,0.33975605,-0.19952412,0.455105,0.31083279,-0.16963849,0.421996,0.29654398,-0.15695213,0.405442,0.28731578,-0.16256457,0.390393,0.36802152,-0.20698043,0.461578,0.34423483,-0.16133267,0.426246,0.32982379,-0.14732352,0.405635,0.31831702,-0.1530445,0.390914,0.39282899,-0.21688304,0.46883,0.36599751,-0.16347583,0.433133,0.35325219,-0.16412867,0.41487,0.33948396,-0.16099398,0.398266,0.42548806,-0.23637634,0.481316,0.39354039,-0.21252457,0.448781,0.37991546,-0.20739044,0.433832,0.36921673,-0.2080529,0.420642
0.39971484,-0.32619628,0.521883,0.38522652,-0.27179228,0.493272,0.37111811,-0.30152373,0.508057,0.34753942,-0.27086932,0.486315,0.32992169,-0.24438195,0.462017,0.32911325,-0.23177431,0.443151,0.33835483,-0.20133079,0.45315,0.30808182,-0.1696346,0.419774,0.29283655,-0.15815455,0.403086,0.2843883,-0.16297217,0.387915,0.36637775,-0.20847419,0.459158,0.34120229,-0.16229534,0.423254,0.32639138,-0.14788829,0.40231,0.3146228,-0.15237201,0.38735,0.39074724,-0.21712469,0.466076,0.36223536,-0.16528602,0.429895,0.34730891,-0.16905096,0.411384,0.33478316,-0.17096485,0.394555,0.42314491,-0.23636805,0.478256,0.39041796,-0.21291382,0.445364,0.37707987,-0.20886006,0.430252,0.36679224,-0.21125015,0.416917
0.40083583,-0.32716704,0.522794,0.38551705,-0.2726058,0.493784,0.37164582,-0.30253272,0.508667,0.34742797,-0.27165414,0.486678,0.32921804,-0.24640243,0.462433,0.32964918,-0.23366715,0.443568,0.33761176,-0.20169391,0.452971,0.30542143,-0.17347942,0.419206,0.29109792,-0.16617427,0.402323,0.28252903,-0.17362614,0.386975,0.36580106,-0.20880377,0.459194,0.34008936,-0.16253988,0.422936,0.32273623,-0.15041513,0.401785,0.31238616,-0.15508804,0.386677,0.39053507,-0.21760158,0.466316,0.36196139,-0.16485977,0.429733,0.34626212,-0.16878824,0.411017,0.33354184,-0.17214621,0.394001,0.42328294,-0.23688904,0.478796,0.3893299,-0.21717048,0.445584,0.37555998,-0.21334028,0.430324,0.36525253,-0.21651129,0.41686
0.40095673,-0.32745421,0.521902,0.38500334,-0.27267705,0.493226,0.37163437,-0.30291726,0.507844,0.34692682,-0.2717847,0.486287,0.32850491,-0.24622678,0.462163,0.32888653,-0.23366547,0.443306,0.33709623,-0.20186906,0.452769,0.3054257,-0.1742498,0.419219,0.29118619,-0.16622466,0.402445,0.28268965,-0.17372484,0.387195,0.36531093,-0.2089187,0.459034,0.33967397,-0.16280648,0.423058,0.32276198,-0.15095445,0.402072,0.31221424,-0.15622392,0.387082,0.3901347,-0.21777541,0.466167,0.36154398,-0.1650194,0.429836,0.34621318,-0.1688461,0.411248,0.33358252,-0.17276619,0.394349,0.42289645,-0.23696886,0.478615,0.38921295,-0.21773269,0.445616,0.37554901,-0.21422694,0.430454,0.36535232,-0.21762371,0.417076
0.40227868,-0.32909324,0.52286,0.38523104,-0.27424856,0.493852,0.37274971,-0.30582021,0.508827,0.34801956,-0.27415205,0.488429,0.33039903,-0.24785015,0.464618,0.3314834,-0.23518351,0.445832,0.3353711,-0.20356135,0.453155,0.30432613,-0.17660926,0.419448,0.289927,-0.1670317,0.402594,0.28140969,-0.17445061,0.387272,0.36349259,-0.21020703,0.459265,0.33687284,-0.16408991,0.423016,0.31772464,-0.15652061,0.40187,0.30896006,-0.16125435,0.386766,0.38832145,-0.21946607,0.466294,0.3584898,-0.16877413,0.429756,0.34202664,-0.17630022,0.411062,0.32922473,-0.18323314,0.394068,0.42233408,-0.23789313,0.478661,0.38762827,-0.21974516,0.445478,0.37360256,-0.21604816,0.430233,0.36362704,-0.21744688,0.41678
0.40275603,-0.33099658,0.524382,0.38533815,-0.2742424,0.494639,0.37307604,-0.3062465,0.510237,0.34912398,-0.27637698,0.490037,0.33185644,-0.24953807,0.466659,0.33088113,-0.23546185,0.447958,0.33407599,-0.20436561,0.453206,0.30063762,-0.17764041,0.419052,0.28578501,-0.16819322,0.401975,0.27952133,-0.17453151,0.386451,0.36207435,-0.21078617,0.459176,0.33153118,-0.16998267,0.422312,0.31525433,-0.16493932,0.400809,0.30326359,-0.17518828,0.385449,0.38740979,-0.2197119,0.46614,0.35461858,-0.17010397,0.429072,0.3403501,-0.17572371,0.410108,0.32731394,-0.18251423,0.392867,0.42041024,-0.23834582,0.47853,0.38625194,-0.21990421,0.444897,0.37186867,-0.21570725,0.429444,0.361572,-0.21677282,0.415809
0.40236965,-0.33235513,0.524274,0.38495937,-0.2744381,0.494587,0.37273472,-0.30767446,0.510152,0.34945661,-0.27694911,0.490254,0.33212955,-0.25016739,0.467037,0.33076169,-0.23563436,0.448364,0.33356659,-0.20470455,0.453227,0.30038115,-0.17758036,0.419116,0.28551728,-0.16820814,0.40206,0.27882195,-0.17484876,0.386555,0.36156515,-0.21107158,0.45919,0.33157986,-0.17000762,0.422374,0.31532433,-0.16497594,0.400898,0.30334857,-0.17523736,0.385557,0.38689107,-0.2199259,0.466144,0.35438013,-0.17012769,0.429123,0.34011684,-0.17569956,0.410182,0.32709098,-0.18250525,0.392963,0.41988195,-0.2384559,0.478515,0.3857498,-0.22018277,0.44492,0.37127527,-0.215761,0.429485,0.36081527,-0.21669035,0.415865
0.40278419,-0.3335215,0.52524,0.38490513,-0.27617923,0.495422,0.37306782,-0.30901731,0.511163,0.35052846,-0.27824294,0.492025,0.33178902,-0.25100539,0.468175,0.32743067,-0.23508609,0.451006,0.33170392,-0.20611379,0.45401,0.29915028,-0.17653108,0.419859,0.28159497,-0.16306489,0.402784,0.27494395,-0.17408086,0.387261,0.35964861,-0.2121904,0.45987,0.3289823,-0.17523424,0.42295,0.31280731,-0.17399712,0.401414,0.30108802,-0.1847651,0.386031,0.38440455,-0.22094246,0.466748,0.35385768,-0.1700835,0.429664,0.33963134,-0.17555071,0.410691,0.32665089,-0.18230158,0.393442,0.41743167,-0.23900973,0.479046,0.38129203,-0.21557776,0.445391,0.36666719,-0.20921619,0.429928,0.35648163,-0.21400087,0.416285
0.40268035,-0.33407377,0.52553,0.3846124,-0.27634311,0.495642,0.37297147,-0.30986055,0.511597,0.35095026,-0.27872405,0.492719,0.33223734,-0.25133329,0.469115,0.32534049,-0.23193677,0.453635,0.33145132,-0.20627153,0.454347,0.2988504,-0.17610136,0.420248,0.28188441,-0.16323249,0.403198,0.27461122,-0.17319401,0.387699,0.35925224,-0.21220413,0.460006,0.32905308,-0.17527195,0.423041,0.31285719,-0.17402486,0.401478,0.30112312,-0.18478664,0.386076,0.38388305,-0.22083446,0.466724,0.35327537,-0.16992773,0.429662,0.33909571,-0.17533512,0.410701,0.3261647,-0.1820554,0.393462,0.41675871,-0.23874539,0.478839,0.38111995,-0.21548047,0.44519,0.36786156,-0.21311498,0.429729,0.35810726,-0.21433407,0.416088
0.40068334,-0.33296868,0.52374,0.38263286,-0.2763737,0.494866,0.3712899,-0.30927974,0.510253,0.3498,-0.27806581,0.491434,0.33149609,-0.25090147,0.468194,0.32858359,-0.2351925,0.451279,0.33072066,-0.20665718,0.454942,0.2976064,-0.17490498,0.421637,0.28262744,-0.16395555,0.404984,0.27369436,-0.17089121,0.389846,0.35842872,-0.21243079,0.46044,0.32956014,-0.17581304,0.424347,0.31375954,-0.17481159,0.403293,0.30232629,-0.18582957,0.388255,0.3834844,-0.22087981,0.466956,0.35121382,-0.16862754,0.430764,0.33619964,-0.16871872,0.412247,0.32375771,-0.17316289,0.395414,0.41604349,-0.23856483,0.478692,0.3810804,-0.21575394,0.445755,0.36813918,-0.21319887,0.430622,0.35743502,-0.21512126,0.41727
0.40025683,-0.33316481,0.523997,0.38243793,-0.27655229,0.495234,0.37075525,-0.30965214,0.510483,0.34975841,-0.27826697,0.491695,0.33147011,-0.25100543,0.468336,0.32765787,-0.23410167,0.451841,0.33048004,-0.20682375,0.455364,0.29741063,-0.17503786,0.422099,0.28243679,-0.16406074,0.405466,0.27356334,-0.17098417,0.390345,0.35826138,-0.21257353,0.460938,0.32947235,-0.17591369,0.424934,0.31374129,-0.17489131,0.403931,0.30240437,-0.18594521,0.388929,0.38281432,-0.22100654,0.467509,0.35105556,-0.16817503,0.431375,0.33613202,-0.16862241,0.412888,0.32379661,-0.17302085,0.396081,0.41546016,-0.23857379,0.479295,0.38115653,-0.21583608,0.446412,0.36722704,-0.21128078,0.431304,0.35768731,-0.21526681,0.417973
0.40005421,-0.33334293,0.524545,0.38194697,-0.27681637,0.495686,0.37048588,-0.30998149,0.511025,0.34994779,-0.27888411,0.492314,0.33168111,-0.2514788,0.468838,0.32757922,-0.23395616,0.452788,0.33035541,-0.20697249,0.455731,0.29731802,-0.1751324,0.422412,0.28231984,-0.1641225,0.405752,0.27345816,-0.17102347,0.390607,0.3581269,-0.21266678,0.461275,0.32934552,-0.17593459,0.425191,0.3135957,-0.17486417,0.404141,0.30227397,-0.18590565,0.389106,0.38268072,-0.22105962,0.467829,0.35086986,-0.16786054,0.431629,0.33611451,-0.16859283,0.413108,0.32378303,-0.17295924,0.396271,0.41534666,-0.23858873,0.479606,0.38108289,-0.21581785,0.446667,0.36716292,-0.21134319,0.431532,0.35760055,-0.21520988,0.418178
0.40036663,-0.3337746,0.525758,0.38181287,-0.27707459,0.496485,0.37061229,-0.31039659,0.512068,0.35096731,-0.27970929,0.493644,0.33259792,-0.25188503,0.469892,0.32786758,-0.23260929,0.454362,0.33037542,-0.20677512,0.455988,0.29727673,-0.17458699,0.422352,0.28217856,-0.16344541,0.405534,0.27320432,-0.17023103,0.390245,0.35818426,-0.21248885,0.461583,0.33040451,-0.17432777,0.425143,0.31337441,-0.17414332,0.403886,0.3028973,-0.18299864,0.388703,0.38279622,-0.22091439,0.468207,0.350877,-0.1675542,0.431658,0.33624787,-0.16882068,0.412958,0.32458417,-0.17633755,0.395958,0.41559059,-0.23852088,0.480124,0.38121437,-0.21542523,0.446897,0.36720216,-0.2108939,0.43163,0.35745778,-0.21473796,0.41816
