sluyters/QuantumLeap/backend/src/datasets/dynamic/HandGestureDataset_SHREC2017_csv/Gesture4/finger_2/subject_6_essai_1_skeletons_world.csv
Wrist_x,Wrist_y,Wrist_z,Palm_x,Palm_y,Palm_z,thumb_base_x,thumb_base_y,thumb_base_z,thumb_first_joint_x,thumb_first_joint_y,thumb_first_joint_z,thumb_second_joint_x,thumb_second_joint_y,thumb_second_joint_z,thumb_tip_x,thumb_tip_y,thumb_tip_z,index_base_x,index_base_y,index_base_z,index_first_joint_x,index_first_joint_y,index_first_joint_z,index_second_joint_x,index_second_joint_y,index_second_joint_z,index_tip_x,index_tip_y,index_tip_z,middle_base_x,middle_base_y,middle_base_z,middle_first_joint_x,middle_first_joint_y,middle_first_joint_z,middle_second_joint_x,middle_second_joint_y,middle_second_joint_z,middle_tip_x,middle_tip_y,middle_tip_z,ring_base_x,ring_base_y,ring_base_z,ring_first_joint_x,ring_first_joint_y,ring_first_joint_z,ring_second_joint_x,ring_second_joint_y,ring_second_joint_z,ring_tip_x,ring_tip_y,ring_tip_z,pinky_base_x,pinky_base_y,pinky_base_z,pinky_first_joint_x,pinky_first_joint_y,pinky_first_joint_z,pinky_second_joint_x,pinky_second_joint_y,pinky_second_joint_z,pinky_tip_x,pinky_tip_y,pinky_tip_z,
0.59986905,-0.39376207,0.578945,0.6064992,-0.35444516,0.583785,0.58126603,-0.38003722,0.580525,0.55107948,-0.35510007,0.57686,0.52481031,-0.33333388,0.573072,0.51262162,-0.31536414,0.571478,0.58899197,-0.30532337,0.589696,0.58480128,-0.2681294,0.588659,0.58377282,-0.24996174,0.58814,0.58298441,-0.23332344,0.587669,0.61429376,-0.30819101,0.589474,0.61638365,-0.26614143,0.587226,0.61980765,-0.24284946,0.588243,0.62233375,-0.22604483,0.588969,0.63458739,-0.31373739,0.5889,0.63794549,-0.27421047,0.587279,0.63967682,-0.25412175,0.586449,0.64357486,-0.23762851,0.585695,0.65772495,-0.32635557,0.587476,0.66856818,-0.29409132,0.587137,0.67436547,-0.27926878,0.586982,0.68146289,-0.26795489,0.586844
0.59977375,-0.39415998,0.57902,0.60637274,-0.35480138,0.58378,0.58107115,-0.38036307,0.58048,0.55097902,-0.35503919,0.576479,0.52474652,-0.33296468,0.572432,0.51260758,-0.31481861,0.57067,0.58870935,-0.30555188,0.589476,0.58534293,-0.26868378,0.589024,0.58480259,-0.25077178,0.588799,0.58415427,-0.23417327,0.588593,0.61413021,-0.3084839,0.589374,0.61631783,-0.26650097,0.587224,0.61995935,-0.24341935,0.588467,0.62265292,-0.22669771,0.589355,0.63452932,-0.31408951,0.588904,0.63768163,-0.27436855,0.586969,0.63930927,-0.254171,0.585979,0.64303039,-0.23752482,0.585079,0.65780506,-0.32679308,0.587618,0.66875693,-0.29436595,0.587241,0.67449217,-0.27949723,0.587068,0.68157226,-0.26824964,0.586915
0.59964769,-0.39460519,0.579106,0.60597426,-0.35506005,0.583581,0.58099816,-0.38085463,0.580624,0.55076347,-0.35477922,0.575859,0.52484458,-0.33250614,0.571904,0.51301726,-0.31435452,0.570344,0.58816468,-0.30572395,0.589117,0.58394415,-0.26805596,0.587365,0.58196701,-0.2497896,0.586488,0.58082112,-0.23285823,0.585692,0.61341151,-0.30855133,0.588841,0.61568147,-0.26655345,0.58662,0.61754669,-0.2422999,0.585841,0.61887968,-0.22496419,0.585284,0.63368077,-0.31408266,0.588252,0.63756286,-0.27459794,0.586791,0.63956783,-0.2544841,0.586043,0.6433624,-0.23759991,0.585363,0.6568331,-0.32671638,0.586867,0.66760447,-0.29409485,0.586189,0.67304229,-0.27918014,0.585877,0.67998698,-0.26802426,0.585603
0.59968004,-0.39474281,0.579041,0.60590084,-0.35517895,0.583482,0.58089842,-0.38097523,0.580441,0.55066104,-0.35473716,0.575439,0.5246716,-0.33233595,0.57132,0.51292256,-0.31430016,0.569965,0.58782992,-0.30578863,0.588843,0.58409933,-0.26824376,0.587238,0.58235392,-0.2500293,0.586436,0.5812021,-0.23302574,0.585707,0.6132157,-0.30862521,0.588703,0.6161054,-0.26685197,0.587005,0.61814466,-0.24266263,0.586354,0.6196023,-0.22538506,0.58589,0.63361344,-0.31417018,0.588229,0.63770073,-0.27469001,0.586794,0.63979458,-0.25457489,0.586059,0.64354375,-0.2374719,0.585392,0.65693976,-0.32683195,0.586987,0.66790049,-0.294273,0.58638,0.67342698,-0.27938452,0.586101,0.68050425,-0.26845999,0.585855
0.59885565,-0.39311901,0.577264,0.60482396,-0.35308447,0.581603,0.57956639,-0.37926563,0.578236,0.55681816,-0.35173428,0.572385,0.52365059,-0.3317244,0.569028,0.5133773,-0.31512779,0.57031,0.58559563,-0.30361746,0.586354,0.58208058,-0.26633431,0.585372,0.58103649,-0.24922462,0.584881,0.58054362,-0.23293196,0.584434,0.61189952,-0.30375778,0.586705,0.61507134,-0.262435,0.586146,0.61692666,-0.23826327,0.585819,0.62043799,-0.22510988,0.587138,0.63169229,-0.30869141,0.586643,0.63756156,-0.26995631,0.586006,0.64054818,-0.25023285,0.58568,0.64428769,-0.23693493,0.585383,0.65685591,-0.31974215,0.585906,0.66800017,-0.2879625,0.585644,0.67392382,-0.27763359,0.585524,0.68085381,-0.2679515,0.585418
0.59892629,-0.39268878,0.577463,0.60484606,-0.3523723,0.581622,0.57972448,-0.37879148,0.578451,0.55707498,-0.35189651,0.572649,0.52319349,-0.33150856,0.568272,0.51202757,-0.31452259,0.568941,0.58548404,-0.30311857,0.58625,0.58082602,-0.26556374,0.584747,0.58002154,-0.24838974,0.583996,0.57941439,-0.23194935,0.583312,0.61149427,-0.30285109,0.586518,0.61443524,-0.26131466,0.585499,0.61615695,-0.23702715,0.584905,0.6210275,-0.22447819,0.587313,0.6320063,-0.30579176,0.586403,0.63816896,-0.26743862,0.586031,0.64129601,-0.24796233,0.58584,0.64522363,-0.23712932,0.585667,0.65664117,-0.3172511,0.585632,0.66711071,-0.28509274,0.585248,0.67380836,-0.27673779,0.585072,0.68045554,-0.26764182,0.584917
0.60075383,-0.39409802,0.5791,0.60447726,-0.35520504,0.582586,0.58141255,-0.38014779,0.580072,0.55227038,-0.35539706,0.574396,0.51955703,-0.32993345,0.561638,0.50961153,-0.31348289,0.565429,0.58560094,-0.30501617,0.586641,0.58000082,-0.26715725,0.583175,0.57703806,-0.24872161,0.581442,0.57526294,-0.2309586,0.579866,0.61103368,-0.30811601,0.586689,0.61475278,-0.26675366,0.585366,0.6173786,-0.24280044,0.584594,0.61912263,-0.22543418,0.584042,0.63152786,-0.31391142,0.586448,0.63649853,-0.28197264,0.592025,0.64632903,-0.26237195,0.594879,0.65185174,-0.25293617,0.597473,0.65508246,-0.32693887,0.585628,0.6645895,-0.29369543,0.583751,0.66726945,-0.27883763,0.582889,0.67678739,-0.26625849,0.582128
0.59972021,-0.39349762,0.577825,0.60386075,-0.35509473,0.581932,0.58120415,-0.38019859,0.57969,0.55384969,-0.35646062,0.574906,0.51875839,-0.32762205,0.555527,0.50631907,-0.3104239,0.554932,0.58623618,-0.30593055,0.587596,0.58154747,-0.26830148,0.584894,0.57938034,-0.24861578,0.583543,0.57773883,-0.23214891,0.582315,0.61082545,-0.30847112,0.586767,0.6134197,-0.26653872,0.583967,0.61562695,-0.24253118,0.582335,0.61701445,-0.22493435,0.581168,0.63054741,-0.31376342,0.585753,0.6344066,-0.27405017,0.58384,0.63631741,-0.2538591,0.582861,0.64003489,-0.2402731,0.581971,0.65307337,-0.32609963,0.58392,0.662554,-0.29281886,0.582057,0.66605115,-0.27885759,0.581202,0.6711267,-0.26752713,0.580447
0.59832438,-0.39254245,0.576334,0.60317145,-0.35473577,0.581267,0.57994098,-0.37940041,0.578376,0.5564945,-0.35521781,0.573052,0.52093027,-0.32525566,0.552436,0.50850324,-0.30633162,0.550033,0.58620468,-0.30620434,0.587829,0.58340772,-0.26942843,0.586641,0.58228659,-0.25053099,0.586047,0.58130729,-0.23332073,0.585507,0.61092443,-0.30872053,0.587075,0.61406465,-0.26700547,0.584709,0.61712638,-0.24315034,0.584493,0.61932107,-0.22604995,0.584338,0.63071881,-0.31395521,0.586056,0.63436627,-0.27412591,0.583775,0.63617725,-0.25389174,0.582608,0.64134122,-0.23668551,0.581547,0.65324465,-0.32615506,0.58409,0.66395926,-0.29329592,0.583226,0.66900587,-0.27947607,0.582829,0.67692354,-0.26697734,0.582478
0.59434254,-0.38971225,0.572414,0.60112676,-0.35147333,0.578377,0.57543555,-0.37623296,0.57394,0.55251026,-0.34834443,0.567954,0.52018638,-0.31348059,0.543725,0.50222813,-0.28891829,0.532269,0.58322233,-0.30535527,0.585153,0.58030754,-0.26812004,0.583749,0.57900348,-0.24870443,0.583046,0.57849903,-0.23223346,0.582408,0.60892808,-0.3081048,0.585411,0.61363935,-0.26713568,0.584091,0.61695613,-0.24345792,0.583321,0.61921914,-0.22604959,0.582771,0.62953543,-0.31375424,0.585145,0.63487921,-0.27462416,0.583915,0.63758662,-0.25464198,0.583286,0.64299652,-0.23722841,0.582714,0.65301403,-0.3263344,0.583922,0.66480842,-0.29386917,0.583923,0.67089313,-0.27926608,0.583924,0.67845025,-0.26752762,0.583925
0.59156295,-0.38763116,0.569678,0.59825369,-0.34963993,0.575667,0.57274058,-0.37421137,0.571331,0.55184164,-0.34601867,0.565505,0.518723,-0.31211772,0.539451,0.5058254,-0.28840794,0.523885,0.58071093,-0.30248453,0.582623,0.57796045,-0.26706994,0.581185,0.57764626,-0.24836201,0.580466,0.57666207,-0.23136273,0.579813,0.60589833,-0.30674783,0.582734,0.61111799,-0.26605409,0.581404,0.61459705,-0.24232694,0.580628,0.61768504,-0.2260563,0.580074,0.62634964,-0.31232187,0.582344,0.63216842,-0.27346775,0.581113,0.63515116,-0.25361486,0.580483,0.64017647,-0.23506541,0.57991,0.6497073,-0.32474083,0.580969,0.66002288,-0.29274892,0.579488,0.66475997,-0.27785538,0.578808,0.67026917,-0.2663382,0.578207
0.59005846,-0.38638568,0.56817,0.59690502,-0.34870439,0.574427,0.56962206,-0.37191607,0.5683,0.55177299,-0.34379029,0.560741,0.52918619,-0.31250351,0.532168,0.51963404,-0.29031454,0.514394,0.57759291,-0.30099283,0.579728,0.57469602,-0.26561372,0.57771,0.57508077,-0.2466039,0.576702,0.57820782,-0.23223935,0.575785,0.60468287,-0.30632769,0.581809,0.61041942,-0.265787,0.580465,0.61394577,-0.24194128,0.579681,0.61654688,-0.2248194,0.57912,0.62689294,-0.31276743,0.583019,0.63342491,-0.27405405,0.581975,0.63680845,-0.25425166,0.581441,0.64166945,-0.23538042,0.580955,0.65253196,-0.3262286,0.583508,0.66196852,-0.29366507,0.581249,0.66630168,-0.2785484,0.580211,0.67118801,-0.26637317,0.579295
0.59599814,-0.38977609,0.573631,0.59892438,-0.3494878,0.576263,0.57337641,-0.37393995,0.571917,0.55697028,-0.34596465,0.561368,0.53007925,-0.31449858,0.532835,0.519823,-0.29230742,0.51533,0.57407878,-0.29905201,0.576316,0.57736504,-0.26050073,0.572048,0.57823937,-0.25020072,0.569915,0.57916768,-0.24042252,0.567975,0.60242808,-0.30289212,0.579368,0.60377781,-0.26026593,0.574519,0.60521642,-0.24083254,0.571691,0.6056083,-0.23151742,0.56967,0.62580863,-0.30956847,0.581669,0.63112692,-0.27049729,0.57766,0.63516115,-0.25312157,0.57561,0.63931363,-0.2477702,0.573745,0.65406885,-0.32180527,0.584006,0.64706593,-0.28534731,0.577606,0.64420786,-0.2695736,0.574665,0.64169199,-0.25546131,0.57207
0.60083791,-0.39225901,0.577967,0.60059716,-0.34918619,0.577484,0.57669587,-0.37547279,0.575002,0.56146027,-0.34758717,0.562328,0.53325072,-0.31551194,0.533892,0.52176652,-0.2922855,0.516395,0.57145429,-0.29615728,0.573438,0.57298374,-0.2567276,0.566647,0.5724926,-0.24674516,0.563251,0.57216969,-0.23731976,0.560165,0.60031007,-0.29939521,0.576914,0.59851212,-0.25673134,0.56892,0.5996303,-0.24434064,0.564257,0.59915959,-0.23791488,0.560926,0.6249995,-0.30399908,0.579813,0.62660235,-0.26328088,0.572754,0.62970967,-0.26150452,0.569142,0.62247033,-0.27454631,0.565859,0.65455908,-0.31804444,0.583336,0.64486147,-0.28400315,0.574413,0.64051441,-0.26773357,0.570313,0.63668096,-0.25323009,0.566695
0.5997693,-0.39209409,0.577433,0.60059316,-0.34943697,0.577495,0.57762541,-0.37639406,0.57633,0.5693452,-0.3516092,0.565926,0.54990962,-0.32713892,0.541033,0.5428574,-0.30748453,0.526108,0.57772395,-0.29424415,0.576189,0.58434397,-0.25573794,0.569891,0.58514355,-0.25090215,0.566741,0.58574943,-0.24761423,0.563878,0.60382465,-0.29751189,0.577569,0.60958443,-0.25569966,0.570335,0.60846372,-0.26313079,0.566116,0.61969321,-0.287257,0.579115,0.62746297,-0.30408446,0.578699,0.63890018,-0.26496047,0.571892,0.63764397,-0.26948604,0.568409,0.63277639,-0.28457295,0.567112,0.65311675,-0.31836143,0.580035,0.64379344,-0.2838873,0.572106,0.63941954,-0.26872363,0.568463,0.63555528,-0.25513732,0.565248
0.60611771,-0.39789016,0.58405,0.59904776,-0.35436566,0.576654,0.57965373,-0.37917509,0.578753,0.56707932,-0.36252479,0.562047,0.54038594,-0.33254084,0.532348,0.52920153,-0.31043518,0.513434,0.56296181,-0.29641251,0.564057,0.56105643,-0.25873936,0.55123,0.56056255,-0.25148206,0.544817,0.56000561,-0.24731635,0.538986,0.590685,-0.300093,0.567927,0.58684664,-0.26064952,0.55342,0.58559044,-0.26390279,0.544958,0.59730922,-0.28636905,0.555598,0.61505243,-0.30771197,0.571706,0.61797655,-0.2978734,0.558449,0.64585457,-0.32830785,0.577406,0.65834159,-0.35015798,0.590332,0.64601582,-0.32376078,0.577327,0.63183974,-0.29554491,0.563099,0.62426526,-0.28087229,0.556561,0.61757989,-0.26778937,0.550793
0.60350073,-0.39670837,0.581412,0.60306716,-0.3580756,0.580373,0.57978356,-0.37986165,0.578778,0.56979506,-0.36531804,0.566362,0.55273797,-0.34133192,0.543825,0.54731594,-0.32247693,0.528884,0.57508082,-0.30458816,0.576276,0.57964561,-0.27505675,0.568057,0.57998712,-0.27727203,0.563947,0.5771152,-0.28916351,0.56092,0.60273444,-0.30814872,0.579146,0.6060705,-0.2712635,0.570688,0.60840408,-0.28111206,0.565754,0.62165543,-0.30147122,0.578338,0.62570731,-0.31360268,0.581591,0.63217124,-0.30551929,0.57278,0.66086758,-0.33682399,0.592381,0.67159032,-0.3581298,0.603769,0.65426319,-0.3283667,0.584658,0.645108,-0.30424804,0.575469,0.64044561,-0.29472632,0.571247,0.63769561,-0.28447596,0.568237
0.60360523,-0.39715975,0.581487,0.60249257,-0.35856266,0.579683,0.57930532,-0.37992964,0.578238,0.56813258,-0.36366139,0.564957,0.55196,-0.33945529,0.542336,0.5464008,-0.32003546,0.527556,0.57334201,-0.30438837,0.574202,0.57695494,-0.27370161,0.56529,0.57692636,-0.27572969,0.560835,0.57363645,-0.28734806,0.557401,0.60131298,-0.30792941,0.577555,0.60502752,-0.2742865,0.568321,0.60372632,-0.29040148,0.562935,0.61318777,-0.31459675,0.575262,0.6245943,-0.31333525,0.580458,0.62955438,-0.30447053,0.570804,0.6583067,-0.33549729,0.590298,0.66981119,-0.35751863,0.601984,0.65377626,-0.32844275,0.584188,0.64369765,-0.30436491,0.574286,0.63944361,-0.29465988,0.569737,0.6366827,-0.28516322,0.566038
0.60365092,-0.39770879,0.581591,0.60221338,-0.3594462,0.579302,0.57914154,-0.38029822,0.57807,0.56863791,-0.35923999,0.564378,0.55761754,-0.33306628,0.539548,0.55439397,-0.31273717,0.523941,0.57216774,-0.30376914,0.573087,0.57545806,-0.27300726,0.563616,0.57503324,-0.2750382,0.558881,0.57137866,-0.28658319,0.555182,0.60075433,-0.30821939,0.576601,0.6039123,-0.27430104,0.566893,0.60203416,-0.29000851,0.56123,0.61128888,-0.31406713,0.573406,0.62412187,-0.31364623,0.579676,0.62942427,-0.31114216,0.569543,0.65711937,-0.34306099,0.588982,0.67048009,-0.35971143,0.602652,0.65331108,-0.32868953,0.583683,0.64283039,-0.30438484,0.57337,0.63865597,-0.29460242,0.568632,0.63575258,-0.28541501,0.564623
0.60514601,-0.3996616,0.582909,0.60305908,-0.36013519,0.579932,0.58043488,-0.38214147,0.579125,0.57991304,-0.35883849,0.564992,0.57194373,-0.33054683,0.535055,0.5752987,-0.31236331,0.52207,0.57213241,-0.30389254,0.572828,0.57496803,-0.27298114,0.562705,0.57416108,-0.27492958,0.557644,0.57019304,-0.28636781,0.553681,0.60081824,-0.30838617,0.576418,0.60355975,-0.27460931,0.566054,0.60123011,-0.29003221,0.560008,0.61026971,-0.31395127,0.571986,0.62480654,-0.31560706,0.579612,0.62966249,-0.31300102,0.568858,0.6570097,-0.34500129,0.588236,0.67008384,-0.36660811,0.602142,0.65401586,-0.33097517,0.583866,0.64275303,-0.30580972,0.57301,0.63854489,-0.2949143,0.568023,0.6353082,-0.28576773,0.563622
0.60606002,-0.40127074,0.583641,0.60350149,-0.3605223,0.580235,0.58131317,-0.38375187,0.579744,0.58032873,-0.35909571,0.565397,0.57237238,-0.33079456,0.535456,0.57710481,-0.31334395,0.523709,0.57209558,-0.30396779,0.572642,0.57471833,-0.27298636,0.562202,0.57371991,-0.27490337,0.556982,0.56954555,-0.28626997,0.552843,0.60077861,-0.3084552,0.576217,0.6032431,-0.27474635,0.565452,0.60058695,-0.28992722,0.559173,0.60950005,-0.31375889,0.571033,0.62479846,-0.31569022,0.579432,0.62939395,-0.31344631,0.568316,0.65660875,-0.3454539,0.587662,0.66984745,-0.36701142,0.601812,0.65411531,-0.33111539,0.583776,0.64259912,-0.3058657,0.572602,0.63826503,-0.2950029,0.567468,0.63494617,-0.28593621,0.562937
0.60971279,-0.40459184,0.58686,0.6052131,-0.36148909,0.581555,0.58384471,-0.38635015,0.581851,0.58138455,-0.35953757,0.565867,0.57294812,-0.33073505,0.536109,0.57741527,-0.31279098,0.524993,0.57086066,-0.30322936,0.571032,0.5717191,-0.27152478,0.558764,0.56974069,-0.27304391,0.552631,0.5808995,-0.29208307,0.563387,0.60021608,-0.30808127,0.575296,0.60461587,-0.2870025,0.562689,0.59793365,-0.30500881,0.555334,0.60507393,-0.32732853,0.56656,0.62499523,-0.31570472,0.57923,0.62843937,-0.31396655,0.566238,0.65512644,-0.34584659,0.585303,0.66743807,-0.36579563,0.599149,0.65559874,-0.33178687,0.58472,0.64440668,-0.30842996,0.571943,0.64304773,-0.30401442,0.566072,0.64117467,-0.29823704,0.56181
0.6099076,-0.40579841,0.58691,0.60539441,-0.36155562,0.581485,0.58415571,-0.38757103,0.581888,0.58166931,-0.35960795,0.565865,0.57302262,-0.33058175,0.536236,0.57742963,-0.31243677,0.525509,0.57095507,-0.30321779,0.570846,0.57183376,-0.27155285,0.558516,0.56981131,-0.27311149,0.552351,0.58094139,-0.29218007,0.563087,0.60029344,-0.30805717,0.575084,0.60426988,-0.28683826,0.562367,0.59751912,-0.30479736,0.554949,0.60462752,-0.32708703,0.566142,0.62506473,-0.31567613,0.579006,0.628431,-0.3138833,0.565921,0.65496256,-0.34575227,0.584977,0.66735492,-0.3656327,0.599033,0.6556704,-0.33176361,0.584499,0.64473136,-0.30917886,0.571639,0.64265923,-0.30383075,0.56573,0.64039176,-0.29787287,0.561124
0.65542525,-0.43930532,0.607529,0.63175903,-0.38994531,0.593537,0.6266422,-0.42776005,0.603038,0.6131957,-0.396776,0.586263,0.59485688,-0.36438328,0.562209,0.59760721,-0.34600821,0.557337,0.57781658,-0.33672228,0.576514,0.56958746,-0.34544054,0.55909,0.56450077,-0.35727764,0.550378,0.57562901,-0.37613874,0.559094,0.60408149,-0.3328276,0.577029,0.58300845,-0.29135638,0.556949,0.57741933,-0.3015013,0.545236,0.59070443,-0.32114866,0.553909,0.62780004,-0.33344867,0.578576,0.61457012,-0.29657429,0.559411,0.60665123,-0.28541192,0.549605,0.62229903,-0.30085986,0.558837,0.65999164,-0.34154524,0.582545,0.63664456,-0.30552625,0.564565,0.62796726,-0.29280214,0.556304,0.62020587,-0.28063585,0.549214
0.65562807,-0.43944127,0.607717,0.63190698,-0.39003663,0.593676,0.62673988,-0.42782672,0.603132,0.61317269,-0.39676111,0.586241,0.59477329,-0.36433208,0.56213,0.5974839,-0.34593681,0.557222,0.57780054,-0.33671294,0.576498,0.56948457,-0.34537814,0.558989,0.56435308,-0.35718416,0.550234,0.57544884,-0.37602101,0.558919,0.60416629,-0.33287432,0.57711,0.58303252,-0.29136841,0.556972,0.57740874,-0.30149577,0.545226,0.59024192,-0.32169549,0.553878,0.62797799,-0.33354319,0.57874,0.6140024,-0.29572802,0.559524,0.60674726,-0.2854571,0.549692,0.6223703,-0.30089431,0.558901,0.66029867,-0.34170413,0.582816,0.63680024,-0.30575098,0.564767,0.62805,-0.29294393,0.556474,0.62021529,-0.28109212,0.549252
0.65567446,-0.43947236,0.60776,0.63195488,-0.3900662,0.593721,0.62674404,-0.42782956,0.603136,0.61312562,-0.39673065,0.586196,0.59469605,-0.36428477,0.562057,0.59739276,-0.34588404,0.557137,0.57779753,-0.33671119,0.576495,0.56945706,-0.34536146,0.558962,0.56431308,-0.35715884,0.550195,0.57540147,-0.37599006,0.558873,0.60421545,-0.33290143,0.577157,0.58307649,-0.29139038,0.557014,0.57744898,-0.30151678,0.545264,0.59002257,-0.32205536,0.553914,0.62807456,-0.33359448,0.578829,0.6136818,-0.29523082,0.559609,0.60683888,-0.2855002,0.549775,0.62246161,-0.30093846,0.558983,0.66045388,-0.34178445,0.582953,0.63688415,-0.30589827,0.564887,0.62809156,-0.29304353,0.556586,0.62021627,-0.28141511,0.549274
0.64971896,-0.43344861,0.60168,0.62584314,-0.37813622,0.590577,0.61906202,-0.42083508,0.595443,0.61836949,-0.38224072,0.588497,0.61361644,-0.34977207,0.577944,0.62226911,-0.33172421,0.582878,0.56814385,-0.32475882,0.573778,0.56355363,-0.32301678,0.556947,0.5563811,-0.33657898,0.548532,0.56638699,-0.35878243,0.557596,0.59634505,-0.32159882,0.577477,0.58034546,-0.28759491,0.5596,0.58181866,-0.30234605,0.549173,0.59589643,-0.32404185,0.55862,0.62172945,-0.32272349,0.581412,0.60522936,-0.29142197,0.563759,0.60463586,-0.28692312,0.554728,0.62847102,-0.30360426,0.564605,0.65916252,-0.33349951,0.587784,0.63864645,-0.30661374,0.570899,0.63233708,-0.30264204,0.563141,0.63353243,-0.29687714,0.556296
0.64723712,-0.43057307,0.599141,0.62415115,-0.37717403,0.589216,0.61706631,-0.41842492,0.593431,0.61861822,-0.38244913,0.588974,0.61427938,-0.35023253,0.578817,0.62165286,-0.33228859,0.584163,0.56820554,-0.32486937,0.574034,0.56460832,-0.32369858,0.558202,0.55757575,-0.33732601,0.550287,0.56742514,-0.35917193,0.559771,0.59615163,-0.3215871,0.577506,0.58127844,-0.28817589,0.560724,0.58408608,-0.29785481,0.550934,0.60040022,-0.31750503,0.560805,0.62120994,-0.32255747,0.581161,0.60583907,-0.2918423,0.56457,0.60583132,-0.28762383,0.556081,0.63021028,-0.30435407,0.566415,0.65807782,-0.33281188,0.587019,0.6379799,-0.30735642,0.571045,0.6368351,-0.30321723,0.563706,0.63481933,-0.29924032,0.557499
