sluyters/QuantumLeap/backend/src/datasets/dynamic/HandGestureDataset_SHREC2017_csv/Gesture4/finger_2/subject_25_essai_5_skeletons_world.csv
Wrist_x,Wrist_y,Wrist_z,Palm_x,Palm_y,Palm_z,thumb_base_x,thumb_base_y,thumb_base_z,thumb_first_joint_x,thumb_first_joint_y,thumb_first_joint_z,thumb_second_joint_x,thumb_second_joint_y,thumb_second_joint_z,thumb_tip_x,thumb_tip_y,thumb_tip_z,index_base_x,index_base_y,index_base_z,index_first_joint_x,index_first_joint_y,index_first_joint_z,index_second_joint_x,index_second_joint_y,index_second_joint_z,index_tip_x,index_tip_y,index_tip_z,middle_base_x,middle_base_y,middle_base_z,middle_first_joint_x,middle_first_joint_y,middle_first_joint_z,middle_second_joint_x,middle_second_joint_y,middle_second_joint_z,middle_tip_x,middle_tip_y,middle_tip_z,ring_base_x,ring_base_y,ring_base_z,ring_first_joint_x,ring_first_joint_y,ring_first_joint_z,ring_second_joint_x,ring_second_joint_y,ring_second_joint_z,ring_tip_x,ring_tip_y,ring_tip_z,pinky_base_x,pinky_base_y,pinky_base_z,pinky_first_joint_x,pinky_first_joint_y,pinky_first_joint_z,pinky_second_joint_x,pinky_second_joint_y,pinky_second_joint_z,pinky_tip_x,pinky_tip_y,pinky_tip_z,
0.410972781,-0.346454388,0.499126,0.38499421,-0.294638127,0.482031,0.384748755,-0.337075877,0.494868,0.357500625,-0.312278927,0.488384,0.330522597,-0.290257772,0.483506,0.320253145,-0.270970733,0.476208,0.335247974,-0.250956776,0.465004,0.319535685,-0.25546168,0.445607,0.339813302,-0.280087985,0.461472,0.357200954,-0.28951474,0.477848,0.358833972,-0.245943356,0.465066,0.331316709,-0.22683499,0.442178,0.324858516,-0.238284526,0.428826,0.337302743,-0.258725376,0.436357,0.380828915,-0.246025623,0.466608,0.361000349,-0.247693634,0.445325,0.375615116,-0.277106584,0.462734,0.390802051,-0.28991318,0.479871,0.411527976,-0.254012167,0.471144,0.382556919,-0.257097445,0.451854,0.385194283,-0.275357493,0.464607,0.392104626,-0.291047117,0.476341
0.411233228,-0.347174623,0.499908,0.385101383,-0.2954724,0.482847,0.384948637,-0.33790404,0.495609,0.357927374,-0.312975049,0.489093,0.330995421,-0.290931536,0.484255,0.320538912,-0.271438658,0.477169,0.33563332,-0.251546926,0.465792,0.320072584,-0.256032297,0.446387,0.340473794,-0.280675871,0.462258,0.35756277,-0.290643577,0.478627,0.359247373,-0.246485122,0.465915,0.331756633,-0.227272761,0.443047,0.325235014,-0.23848313,0.429708,0.337698306,-0.258984845,0.43725,0.38127638,-0.246522871,0.467505,0.361538563,-0.248537246,0.446223,0.376218767,-0.27798682,0.46364,0.391427031,-0.290773852,0.480807,0.412035676,-0.254448906,0.472093,0.382872131,-0.257958418,0.452806,0.385989366,-0.275925862,0.465566,0.392887253,-0.291457322,0.477301
0.411492356,-0.347893295,0.500688,0.385151317,-0.296262448,0.483591,0.385144821,-0.33872864,0.496345,0.358335835,-0.313655152,0.489777,0.331434085,-0.291575193,0.484954,0.320783646,-0.27187145,0.478068,0.335966506,-0.252037741,0.466457,0.320497088,-0.256484748,0.447004,0.340986878,-0.281133585,0.462866,0.357787803,-0.291661621,0.479223,0.359601836,-0.246934835,0.466625,0.332091977,-0.227611591,0.44372,0.325493918,-0.238610965,0.430358,0.337953046,-0.259145047,0.437885,0.381660739,-0.246937746,0.468255,0.361955909,-0.249202899,0.446925,0.376675893,-0.278671879,0.464333,0.391893038,-0.291437057,0.481514,0.412478219,-0.254820809,0.472894,0.383029469,-0.258712718,0.453571,0.386616944,-0.276374511,0.466323,0.393512575,-0.291785146,0.478068
0.412042137,-0.348292593,0.501372,0.385618237,-0.296730025,0.484348,0.385662043,-0.339195116,0.497012,0.358934808,-0.314174716,0.490449,0.331961565,-0.29218743,0.485665,0.321234461,-0.272460762,0.478852,0.3363438,-0.252630394,0.467241,0.321057009,-0.25707775,0.447817,0.341681479,-0.281750819,0.463695,0.358533466,-0.292371045,0.48005,0.359992955,-0.247468653,0.467454,0.332537953,-0.228057352,0.444605,0.325889505,-0.238821207,0.431277,0.338380039,-0.259427175,0.438831,0.382069094,-0.24741565,0.469114,0.36248972,-0.250056485,0.447824,0.377283964,-0.279567558,0.465249,0.392531246,-0.292318752,0.482471,0.412919956,-0.255220369,0.473778,0.383574562,-0.259115488,0.454489,0.387389675,-0.276926877,0.467255,0.394267028,-0.292170326,0.478994
0.412131791,-0.348453706,0.501307,0.386139432,-0.297339049,0.484913,0.385858937,-0.339488862,0.497059,0.359539488,-0.314756724,0.490862,0.332630052,-0.293070541,0.486412,0.322028779,-0.273414332,0.47975,0.337219148,-0.253618903,0.468376,0.322389719,-0.258314431,0.449381,0.343242266,-0.283132007,0.465403,0.36016253,-0.293862198,0.481772,0.360916001,-0.248429548,0.468642,0.333784638,-0.22881323,0.446341,0.325712877,-0.237486199,0.433332,0.339824556,-0.260206715,0.441132,0.382996971,-0.248326684,0.470292,0.363168346,-0.25345366,0.449487,0.378380279,-0.283260748,0.467072,0.393965568,-0.296618128,0.484756,0.413776561,-0.256019676,0.474843,0.384992931,-0.259931037,0.455956,0.389241021,-0.278364278,0.468852,0.395541739,-0.293433452,0.480499
0.412878945,-0.349170602,0.502042,0.38677123,-0.298033157,0.485617,0.386602144,-0.340263132,0.49781,0.36041447,-0.315575338,0.491644,0.333367382,-0.294014057,0.48726,0.322824931,-0.274369236,0.480651,0.337782782,-0.254373085,0.469078,0.323099972,-0.259052619,0.450077,0.34405221,-0.283894059,0.466092,0.361011146,-0.29471693,0.482449,0.361443232,-0.249118046,0.469316,0.334219904,-0.229012794,0.446992,0.326229654,-0.237375992,0.433969,0.33997757,-0.259995351,0.441759,0.383496459,-0.248959998,0.470944,0.3640084,-0.254068902,0.450127,0.379172585,-0.284008169,0.467704,0.394655767,-0.297678209,0.485267,0.414255893,-0.256585464,0.475475,0.385696349,-0.260263693,0.456576,0.390103928,-0.279057567,0.469466,0.396085483,-0.294154635,0.481116
0.414132245,-0.350572017,0.503405,0.38750862,-0.298974522,0.486387,0.38821623,-0.34201391,0.499692,0.362921008,-0.318105057,0.49385,0.335478492,-0.296712981,0.489413,0.324582966,-0.275974122,0.482448,0.338672653,-0.255429413,0.470098,0.324343772,-0.260833664,0.451107,0.345582852,-0.285656609,0.466993,0.361981802,-0.295816658,0.48324,0.361704381,-0.249712659,0.469498,0.337089103,-0.234713166,0.446782,0.32898606,-0.242048711,0.433531,0.339863901,-0.260951872,0.441109,0.384402115,-0.249830223,0.470488,0.363871435,-0.254234099,0.449554,0.378839309,-0.284157148,0.466982,0.394088056,-0.29792149,0.484257,0.414598595,-0.25739134,0.474363,0.38489905,-0.25977695,0.455329,0.388664519,-0.279498111,0.4681,0.395040609,-0.29389804,0.479751
0.41481405,-0.351490263,0.504073,0.388136118,-0.299831221,0.487019,0.388766367,-0.342828189,0.500204,0.363280175,-0.318628449,0.494131,0.335876553,-0.297106785,0.489643,0.325345411,-0.276732871,0.482763,0.3391238,-0.256154924,0.470509,0.324766525,-0.261306441,0.451394,0.345973086,-0.286172269,0.467272,0.362569783,-0.296603662,0.48352,0.362284353,-0.250526829,0.470094,0.337491996,-0.234993698,0.447316,0.329547633,-0.243094547,0.43403,0.340265122,-0.261692321,0.441589,0.385165705,-0.251047216,0.47124,0.364635694,-0.254964035,0.450195,0.379543281,-0.284984885,0.467616,0.394683395,-0.298876351,0.484754,0.415509808,-0.258693852,0.475303,0.385880364,-0.26049046,0.456187,0.38978656,-0.280128446,0.468951,0.395841582,-0.295012918,0.480628
0.415483578,-0.3523983,0.504726,0.388758816,-0.300684305,0.487645,0.389310248,-0.343636901,0.500708,0.363615196,-0.319084661,0.494425,0.336233254,-0.297454857,0.48989,0.326100921,-0.277485639,0.483068,0.33958125,-0.256884802,0.470929,0.325155222,-0.261722538,0.4517,0.346337601,-0.286624064,0.467571,0.363166441,-0.297397571,0.483812,0.362866586,-0.251342397,0.470693,0.337904698,-0.23528106,0.447863,0.330121578,-0.244147699,0.434546,0.340683334,-0.262446179,0.442091,0.385926534,-0.252261152,0.471989,0.365353528,-0.255618619,0.450845,0.380213093,-0.285721459,0.468259,0.395240967,-0.299692052,0.485256,0.416411331,-0.259989584,0.476232,0.386860346,-0.261203185,0.457043,0.39090752,-0.280758098,0.469801,0.39664017,-0.296126625,0.481502
0.416145757,-0.353300246,0.50537,0.389378339,-0.301534891,0.488267,0.389851791,-0.344443488,0.501209,0.363935465,-0.319495725,0.494731,0.336560374,-0.297770263,0.490148,0.326851521,-0.27823418,0.483366,0.340043602,-0.257617966,0.471356,0.325519153,-0.262098226,0.452018,0.346682596,-0.287029925,0.467882,0.363765821,-0.298193436,0.484108,0.363450341,-0.252158848,0.471294,0.338323436,-0.235572625,0.448418,0.330703382,-0.245204863,0.435073,0.341110034,-0.263207058,0.442604,0.386684692,-0.253472047,0.472735,0.366036118,-0.25621853,0.451498,0.380857903,-0.286393284,0.468907,0.39576838,-0.300407314,0.485757,0.417306615,-0.261280681,0.477154,0.387838176,-0.261914487,0.457896,0.39202652,-0.281386465,0.470649,0.397434758,-0.297237973,0.482371
0.416139717,-0.353702608,0.505186,0.389490242,-0.301886613,0.488081,0.389845841,-0.344756976,0.501004,0.364036214,-0.319798194,0.494585,0.336742963,-0.298019344,0.49003,0.327360945,-0.278571691,0.483189,0.340233139,-0.257837775,0.471144,0.325636883,-0.262324944,0.451792,0.346759848,-0.28729058,0.467656,0.363849746,-0.298467693,0.483885,0.363673434,-0.252463126,0.471106,0.338177821,-0.235471234,0.448225,0.3305544,-0.245094399,0.434877,0.341369795,-0.263896518,0.442407,0.386605981,-0.253479408,0.472567,0.366202367,-0.256525513,0.451319,0.38096048,-0.286790385,0.468727,0.395809083,-0.301047482,0.485502,0.417241426,-0.261322998,0.47701,0.388197484,-0.262173536,0.457744,0.392224654,-0.281787063,0.470496,0.397398912,-0.297911812,0.482221
0.416140268,-0.354110559,0.50501,0.38960774,-0.302242673,0.487902,0.389841427,-0.345071769,0.500801,0.364134031,-0.320098134,0.494435,0.336921469,-0.298264812,0.489906,0.327866329,-0.278905639,0.483005,0.340419705,-0.258055294,0.470928,0.325748028,-0.26254631,0.451557,0.346828863,-0.287544393,0.467419,0.363927588,-0.298736919,0.483654,0.363901936,-0.252771149,0.470925,0.338035224,-0.235371944,0.448036,0.330407699,-0.244985625,0.434684,0.341630485,-0.264586883,0.442211,0.38652569,-0.253470972,0.472415,0.366376022,-0.256837714,0.451149,0.381070639,-0.287193479,0.468556,0.39585574,-0.30169277,0.485254,0.417182902,-0.261348688,0.476891,0.388574242,-0.262444371,0.457612,0.392440978,-0.282201341,0.470364,0.397381511,-0.298601833,0.482093
0.41621963,-0.354376261,0.504924,0.389596772,-0.302187987,0.487381,0.389859011,-0.345145995,0.500602,0.363802629,-0.320020031,0.494079,0.336454664,-0.297996052,0.489314,0.327464995,-0.27871431,0.4822,0.34029232,-0.257591024,0.469968,0.325746426,-0.262279808,0.450277,0.346333657,-0.286916888,0.466036,0.363378462,-0.298107287,0.482306,0.364174833,-0.252791299,0.469971,0.33766089,-0.234381757,0.446697,0.329759323,-0.243575826,0.433121,0.340365586,-0.262324197,0.440473,0.386136188,-0.252856288,0.471503,0.370442223,-0.248852404,0.449884,0.384083883,-0.280109483,0.467176,0.394356089,-0.300548765,0.482814,0.416842163,-0.260876341,0.4761,0.389039168,-0.262400541,0.456531,0.392403863,-0.282399964,0.469189,0.396663508,-0.298758164,0.480984
0.416195931,-0.354643458,0.50484,0.389851566,-0.302436215,0.487323,0.389788661,-0.34523994,0.500424,0.363418148,-0.320019706,0.493796,0.336115094,-0.297901719,0.488935,0.327338947,-0.278782213,0.481574,0.340633306,-0.25758838,0.469808,0.325803609,-0.262095761,0.450069,0.346613499,-0.287077413,0.465832,0.363587739,-0.298226593,0.482104,0.364307966,-0.252641189,0.469938,0.337990766,-0.234243441,0.446668,0.330027826,-0.243291403,0.433093,0.340881982,-0.26276154,0.440451,0.386376524,-0.252814338,0.471573,0.36634355,-0.256704676,0.44992,0.380749729,-0.287155421,0.467218,0.395467973,-0.301755577,0.483688,0.417187147,-0.260966232,0.476286,0.389442893,-0.262560343,0.456696,0.392703429,-0.282587203,0.469357,0.396909254,-0.299768324,0.481162
0.410941925,-0.34966089,0.498943,0.388122058,-0.291767788,0.486643,0.386003074,-0.341203874,0.495998,0.359200533,-0.308321028,0.492395,0.333859194,-0.286560567,0.488473,0.326018818,-0.268268583,0.481404,0.345129887,-0.248485616,0.474542,0.332497226,-0.253290877,0.457946,0.354127725,-0.279766116,0.474748,0.37152963,-0.297544667,0.489932,0.369072176,-0.244530855,0.474436,0.348966107,-0.238712542,0.455857,0.345990403,-0.258412817,0.44502,0.355604011,-0.26820252,0.454365,0.390743043,-0.245354063,0.475423,0.375774345,-0.253118371,0.458137,0.390059389,-0.285122937,0.476632,0.402379727,-0.306476832,0.492194,0.419866617,-0.253923526,0.478542,0.395633205,-0.263274977,0.462539,0.405958977,-0.281098531,0.476189,0.415407444,-0.296783025,0.487445
0.410736508,-0.347936638,0.498758,0.387033615,-0.288272926,0.485559,0.385005464,-0.338947596,0.494771,0.356097907,-0.305942168,0.490261,0.328526273,-0.284651471,0.484387,0.319337763,-0.268756881,0.475025,0.340994202,-0.246138567,0.471534,0.330674075,-0.24506626,0.454558,0.354460808,-0.269960723,0.47121,0.369362855,-0.28710906,0.485975,0.363320573,-0.239235753,0.47246,0.348473332,-0.21932499,0.452918,0.345856359,-0.237320649,0.441519,0.354542528,-0.252584786,0.450495,0.385448973,-0.238198674,0.474374,0.374703424,-0.215962201,0.455734,0.391953546,-0.245542922,0.474011,0.403075706,-0.267554854,0.488838,0.415517987,-0.244317958,0.478729,0.400304229,-0.23653861,0.461801,0.415941874,-0.258015267,0.475276,0.429066066,-0.275166869,0.486458
0.412238782,-0.347510627,0.500788,0.38760862,-0.287863387,0.486659,0.38568487,-0.333617005,0.496594,0.354768323,-0.30568197,0.48988,0.323480039,-0.285074941,0.48265,0.312669658,-0.267138439,0.472534,0.340443752,-0.245687129,0.471739,0.330509622,-0.244357172,0.454016,0.354019176,-0.269198464,0.470488,0.369689631,-0.282646211,0.485436,0.363411311,-0.2390387,0.472638,0.348084603,-0.218669131,0.452263,0.345067064,-0.236338749,0.440377,0.353442172,-0.251466624,0.449013,0.385577387,-0.238174579,0.474611,0.374247024,-0.215410053,0.455171,0.391349673,-0.244789484,0.473251,0.402656899,-0.266980775,0.488322,0.415774785,-0.244591857,0.479183,0.400055664,-0.2361984,0.461631,0.415602762,-0.257499722,0.474943,0.42888624,-0.274769972,0.486283
0.413156015,-0.346175414,0.50157,0.391474949,-0.289430733,0.490373,0.384581668,-0.335121483,0.494033,0.350321556,-0.302414785,0.483194,0.32190827,-0.285732864,0.469218,0.301174542,-0.264012198,0.459527,0.342341031,-0.246151865,0.473253,0.333000815,-0.221586634,0.457294,0.327165726,-0.209473396,0.449314,0.334116448,-0.208508651,0.458185,0.370624062,-0.243457868,0.479262,0.349582606,-0.203532838,0.460995,0.343187188,-0.196618724,0.450339,0.356383673,-0.213443722,0.459408,0.396000788,-0.24334456,0.485185,0.369130932,-0.208856818,0.466438,0.358771003,-0.196594057,0.456847,0.369040879,-0.200951199,0.466108,0.430102826,-0.252173867,0.493949,0.400185024,-0.218092968,0.477091,0.395198388,-0.213018909,0.469345,0.4085732,-0.225045283,0.475644
0.418651705,-0.349477373,0.508189,0.393586474,-0.291080752,0.492355,0.390403324,-0.338855957,0.501415,0.350473906,-0.308164441,0.481475,0.317338712,-0.284395833,0.467198,0.296006837,-0.267185461,0.457545,0.345632342,-0.245963671,0.473025,0.328350555,-0.213035949,0.452916,0.319137312,-0.195876995,0.442862,0.325494195,-0.203291833,0.450262,0.371720825,-0.242444895,0.476641,0.352646942,-0.203488786,0.454411,0.340830489,-0.179449686,0.441443,0.34813346,-0.182707586,0.449187,0.395553579,-0.243660383,0.480998,0.382365669,-0.204793581,0.459911,0.375063929,-0.183538946,0.449122,0.38396224,-0.18768985,0.457408,0.429128127,-0.256030581,0.488653,0.424861263,-0.230382767,0.469206,0.423067431,-0.218397766,0.460271,0.433299628,-0.214892421,0.465642
0.414757717,-0.345444806,0.503715,0.393309124,-0.291332552,0.491642,0.388963103,-0.336640094,0.499758,0.348171962,-0.309197874,0.483764,0.311697892,-0.285956447,0.466175,0.292772431,-0.268747814,0.459532,0.350490239,-0.249207534,0.478423,0.335695945,-0.216853285,0.461929,0.327743984,-0.199942792,0.453682,0.333213046,-0.190146945,0.462757,0.376102986,-0.24655583,0.479661,0.359752927,-0.205900518,0.46119,0.352573349,-0.180333788,0.450415,0.347071071,-0.166798492,0.442718,0.398108256,-0.247853677,0.481733,0.387758797,-0.206764536,0.464307,0.384635327,-0.184959672,0.455391,0.393211477,-0.188807008,0.465451,0.427480003,-0.256809863,0.486096,0.436661235,-0.232734156,0.474976,0.440888032,-0.220392371,0.469867,0.457217242,-0.215180107,0.478374
0.40733359,-0.339769641,0.495803,0.391098436,-0.299312834,0.487319,0.383207898,-0.331427997,0.493188,0.340540165,-0.311796621,0.48201,0.306404079,-0.291510054,0.467781,0.291925002,-0.271025939,0.461142,0.361462168,-0.251187229,0.478242,0.340902771,-0.21663975,0.464801,0.332863667,-0.199230944,0.458081,0.337317368,-0.189776331,0.468389,0.386302248,-0.252508102,0.478908,0.371968801,-0.207430945,0.463707,0.365441875,-0.181955256,0.457141,0.360769923,-0.163567826,0.452452,0.407646362,-0.257662255,0.480198,0.395781716,-0.212022141,0.465705,0.389538278,-0.191866222,0.45829,0.387525547,-0.174921848,0.455857,0.434383532,-0.271308712,0.483068,0.440406277,-0.237052503,0.473195,0.441464417,-0.220650263,0.468659,0.444867874,-0.208344995,0.464656
0.406277839,-0.339302875,0.495535,0.392023718,-0.298512994,0.487554,0.382718951,-0.330691058,0.493297,0.341393248,-0.312615973,0.483759,0.307355977,-0.293003751,0.468927,0.290057373,-0.27656603,0.463942,0.362360883,-0.251672865,0.479296,0.345363781,-0.21452505,0.466324,0.336690359,-0.197626262,0.459838,0.339950086,-0.190097844,0.470325,0.386993602,-0.252767087,0.479644,0.37394364,-0.20778899,0.464947,0.36746199,-0.18197836,0.457788,0.362827795,-0.163388056,0.452675,0.408123056,-0.257713644,0.480628,0.397244749,-0.212424366,0.466601,0.391525551,-0.191469858,0.459424,0.388653865,-0.173260095,0.455623,0.434529139,-0.271066159,0.483058,0.442214492,-0.237440888,0.473847,0.445745216,-0.222114926,0.469615,0.447690489,-0.208891629,0.46588
0.405490955,-0.338803455,0.495255,0.392712797,-0.29630494,0.487561,0.382257235,-0.329824963,0.493127,0.342257635,-0.313480895,0.484422,0.30740428,-0.294494637,0.469701,0.290196446,-0.27897658,0.465639,0.363089742,-0.251292553,0.479641,0.346163215,-0.214229831,0.4669,0.337555444,-0.196849253,0.460529,0.341516692,-0.187274615,0.471099,0.387730671,-0.25221468,0.479943,0.374499966,-0.207069643,0.465518,0.368152912,-0.181317672,0.458817,0.363612412,-0.162769358,0.45403,0.408856931,-0.257004877,0.480863,0.397623732,-0.211880316,0.467095,0.390974277,-0.189596165,0.460051,0.389445024,-0.172270618,0.45715,0.435243261,-0.270139523,0.483174,0.44362451,-0.236857286,0.474469,0.447489261,-0.221624933,0.47047,0.450916943,-0.208152738,0.46694
0.405241145,-0.33866725,0.495505,0.393737517,-0.295592327,0.487735,0.38221875,-0.329231886,0.49337,0.342862998,-0.314072073,0.484998,0.30749146,-0.295299797,0.470184,0.290301826,-0.280216278,0.466545,0.363411116,-0.251071756,0.479756,0.346392161,-0.213975481,0.466957,0.33775617,-0.196325019,0.460558,0.341705836,-0.186494115,0.471106,0.388058747,-0.251911438,0.480042,0.374574128,-0.206597548,0.46555,0.36849158,-0.180984088,0.459323,0.364138859,-0.162520001,0.454875,0.409204153,-0.256637538,0.480957,0.397625904,-0.211507543,0.467122,0.39101576,-0.189290024,0.460044,0.390067585,-0.171876161,0.45818,0.435636422,-0.269698446,0.483272,0.444132785,-0.236459566,0.474569,0.448050303,-0.22122515,0.47057,0.451522927,-0.207755924,0.467041
0.405081945,-0.339239672,0.495526,0.394060654,-0.295755172,0.487758,0.382256806,-0.329428189,0.493399,0.343136192,-0.314344318,0.485216,0.307555085,-0.295793641,0.470491,0.290354694,-0.280950186,0.467072,0.363578284,-0.250921337,0.479791,0.346532436,-0.213824454,0.466995,0.337892417,-0.196019762,0.460597,0.341845124,-0.186040619,0.471146,0.388228684,-0.251711824,0.480068,0.374626526,-0.206318908,0.465579,0.368707917,-0.180790434,0.459643,0.364471481,-0.162377749,0.455403,0.409379865,-0.25639655,0.480975,0.397631286,-0.211285849,0.467143,0.391066867,-0.189097475,0.460067,0.390444401,-0.171640643,0.458802,0.435827434,-0.269405993,0.483281,0.444424679,-0.236213907,0.474615,0.448390736,-0.220987198,0.470634,0.451905125,-0.207526554,0.467121
0.402956928,-0.339067581,0.493518,0.39394261,-0.295618333,0.487385,0.381487219,-0.329538803,0.492731,0.344269142,-0.315443925,0.486708,0.308251339,-0.297708175,0.472013,0.290669411,-0.283245104,0.468587,0.365337228,-0.252148824,0.482219,0.349316577,-0.215392275,0.471023,0.341545254,-0.19694145,0.465425,0.333424079,-0.18018131,0.460336,0.389170862,-0.252250181,0.481315,0.376835661,-0.207238451,0.468412,0.370304093,-0.180570321,0.461423,0.36522498,-0.162310895,0.45643,0.409452032,-0.256289349,0.481108,0.398996174,-0.211797783,0.46875,0.393163945,-0.189830445,0.462427,0.391982613,-0.170841231,0.460447,0.434532468,-0.268342699,0.48184,0.443769626,-0.235544944,0.473903,0.448038259,-0.220474071,0.470256,0.451824793,-0.20714451,0.467039
0.403476499,-0.341009145,0.494595,0.394373814,-0.295904378,0.487742,0.382073486,-0.330748584,0.493663,0.34482125,-0.315993855,0.48741,0.308622273,-0.298365847,0.472727,0.290944877,-0.283962811,0.469283,0.365039198,-0.251952843,0.481902,0.34849433,-0.214778251,0.470111,0.340386092,-0.196075314,0.464216,0.332158007,-0.179106965,0.458856,0.388836469,-0.25198161,0.48096,0.37594966,-0.206539779,0.467373,0.370425808,-0.180424346,0.461697,0.366146026,-0.162433119,0.457642,0.409146156,-0.255988984,0.480783,0.401168846,-0.212797795,0.471305,0.396657434,-0.191304799,0.466455,0.393367515,-0.171219443,0.462046,0.434378754,-0.268060044,0.481666,0.443186108,-0.235006547,0.473271,0.447241471,-0.219840302,0.469414,0.450829538,-0.206442698,0.466011
0.402300193,-0.341922943,0.494129,0.394310812,-0.295827117,0.487523,0.38124203,-0.331158551,0.493349,0.344842373,-0.316046157,0.487381,0.308727928,-0.298681577,0.472993,0.291204701,-0.284537202,0.469882,0.365103309,-0.252004381,0.482044,0.348655439,-0.214797237,0.470476,0.340541063,-0.196023339,0.464692,0.332438063,-0.178979667,0.459434,0.388821121,-0.251932767,0.480985,0.376118031,-0.206473764,0.467629,0.370838714,-0.180478929,0.462299,0.366789553,-0.162503552,0.458492,0.409046733,-0.25584506,0.480692,0.401210657,-0.212704958,0.471356,0.396817234,-0.191216746,0.46658,0.393547854,-0.171137117,0.462238,0.434138565,-0.267771055,0.481397,0.443065919,-0.234771425,0.473136,0.447175032,-0.219626589,0.46934,0.450809673,-0.206249691,0.465991
0.40193862,-0.342962724,0.494608,0.394800571,-0.29670435,0.487785,0.381010731,-0.331658116,0.49372,0.344956293,-0.316404941,0.487701,0.308663753,-0.29963972,0.473609,0.291140521,-0.28497821,0.470188,0.365078363,-0.252019618,0.482022,0.34842611,-0.21469599,0.470266,0.340000087,-0.196318322,0.464388,0.332281502,-0.179386454,0.459044,0.388861856,-0.252013616,0.481033,0.37603425,-0.206401457,0.467472,0.370671748,-0.180852012,0.462204,0.366834525,-0.162446229,0.458442,0.409154198,-0.255989377,0.480815,0.401164085,-0.212660025,0.471133,0.39670879,-0.191067293,0.466179,0.393283119,-0.171777144,0.461676,0.434349538,-0.268010929,0.481645,0.443193781,-0.234928792,0.473271,0.447260334,-0.219752171,0.469424,0.450853184,-0.20635239,0.466029
