sluyters/QuantumLeap/backend/src/datasets/dynamic/HandGestureDataset_SHREC2017_csv/Gesture8/finger_2/subject_26_essai_5_skeletons_world.csv
Wrist_x,Wrist_y,Wrist_z,Palm_x,Palm_y,Palm_z,thumb_base_x,thumb_base_y,thumb_base_z,thumb_first_joint_x,thumb_first_joint_y,thumb_first_joint_z,thumb_second_joint_x,thumb_second_joint_y,thumb_second_joint_z,thumb_tip_x,thumb_tip_y,thumb_tip_z,index_base_x,index_base_y,index_base_z,index_first_joint_x,index_first_joint_y,index_first_joint_z,index_second_joint_x,index_second_joint_y,index_second_joint_z,index_tip_x,index_tip_y,index_tip_z,middle_base_x,middle_base_y,middle_base_z,middle_first_joint_x,middle_first_joint_y,middle_first_joint_z,middle_second_joint_x,middle_second_joint_y,middle_second_joint_z,middle_tip_x,middle_tip_y,middle_tip_z,ring_base_x,ring_base_y,ring_base_z,ring_first_joint_x,ring_first_joint_y,ring_first_joint_z,ring_second_joint_x,ring_second_joint_y,ring_second_joint_z,ring_tip_x,ring_tip_y,ring_tip_z,pinky_base_x,pinky_base_y,pinky_base_z,pinky_first_joint_x,pinky_first_joint_y,pinky_first_joint_z,pinky_second_joint_x,pinky_second_joint_y,pinky_second_joint_z,pinky_tip_x,pinky_tip_y,pinky_tip_z,
0.541119541,-0.340579049,0.494793,0.552476432,-0.300256946,0.493798,0.524979362,-0.326897559,0.493112,0.506558915,-0.304620092,0.483171,0.469630098,-0.273595268,0.455999,0.452181557,-0.250597024,0.441099,0.535001169,-0.254891554,0.491038,0.537387266,-0.214910084,0.482613,0.537296664,-0.193664802,0.478401,0.534871955,-0.17558012,0.474572,0.560427426,-0.261961301,0.492844,0.559412968,-0.215734947,0.484125,0.560728103,-0.189655277,0.479038,0.562629767,-0.171692238,0.475405,0.580950573,-0.271382126,0.494416,0.5876392,-0.229642499,0.489893,0.593671631,-0.209663311,0.48758,0.601572856,-0.195574623,0.485477,0.604371944,-0.289137091,0.496424,0.628505624,-0.257820042,0.493296,0.63841128,-0.243510609,0.491859,0.647235607,-0.230789531,0.490592
0.537536579,-0.33994062,0.491037,0.550368526,-0.303430026,0.488565,0.521254899,-0.326045371,0.489315,0.496867434,-0.306303548,0.47958,0.462116557,-0.276067388,0.452479,0.4474198,-0.251022179,0.438495,0.531844785,-0.255900286,0.484787,0.529072912,-0.213667172,0.475006,0.527759713,-0.192214888,0.470116,0.525336193,-0.17300713,0.46567,0.557375587,-0.266596418,0.486196,0.561065069,-0.221477468,0.479981,0.564822864,-0.195605938,0.476356,0.564417975,-0.174542155,0.473767,0.577025786,-0.276738943,0.487566,0.585753706,-0.235645824,0.483417,0.594033697,-0.215766381,0.481294,0.599479182,-0.196244383,0.479364,0.599056652,-0.295363182,0.489566,0.614796899,-0.262579573,0.4845,0.624193457,-0.248553667,0.482172,0.632646974,-0.236012089,0.480119
0.534929776,-0.339882939,0.48826,0.544063223,-0.305631067,0.484478,0.514601472,-0.323854287,0.485344,0.49379972,-0.307652327,0.47353,0.45535562,-0.274437773,0.446364,0.438577296,-0.250027186,0.432599,0.524254722,-0.256149652,0.478345,0.519779631,-0.213430564,0.466959,0.51759841,-0.191813232,0.461266,0.516030394,-0.172350939,0.45609,0.550157727,-0.264546345,0.480854,0.552435004,-0.219143745,0.473574,0.554605359,-0.19407536,0.469327,0.557914983,-0.174771733,0.466294,0.571188278,-0.275157936,0.483241,0.574643362,-0.231862491,0.473952,0.581254706,-0.213393962,0.469199,0.58765367,-0.196765635,0.464879,0.595399832,-0.294555519,0.486645,0.610251757,-0.262437866,0.481287,0.619914494,-0.248906039,0.478825,0.628935521,-0.242773817,0.476653
0.525655184,-0.338617606,0.481908,0.535282844,-0.305274169,0.4779,0.508833992,-0.326599802,0.479434,0.480584637,-0.306105907,0.468778,0.445341159,-0.275581724,0.442069,0.43032166,-0.249827459,0.427511,0.516641282,-0.255885463,0.472178,0.511717603,-0.213242093,0.460735,0.509829758,-0.192241256,0.455014,0.508612541,-0.17344656,0.449812,0.54185142,-0.264387805,0.474076,0.545356853,-0.219467561,0.467285,0.551448031,-0.196819724,0.463323,0.55253785,-0.175825116,0.460493,0.562637921,-0.278329615,0.475983,0.573616897,-0.23748411,0.472214,0.581968759,-0.215463103,0.470286,0.589620257,-0.19642484,0.468533,0.585521432,-0.298457482,0.478858,0.596814274,-0.265570249,0.472621,0.606156017,-0.253013752,0.469755,0.613476206,-0.247145535,0.467227
0.51513884,-0.342256831,0.470682,0.519327418,-0.308132026,0.467268,0.496792756,-0.327599444,0.469262,0.467727364,-0.309134869,0.460139,0.432563648,-0.279470552,0.434626,0.415088154,-0.256344049,0.42043,0.502284235,-0.259684029,0.463259,0.49871799,-0.217382958,0.452909,0.497102328,-0.196079854,0.447734,0.497902915,-0.174645612,0.443029,0.526965185,-0.267393481,0.464011,0.527849891,-0.221452323,0.455203,0.528995571,-0.195019223,0.450065,0.53033719,-0.176403865,0.446395,0.546895048,-0.27749407,0.464924,0.560445753,-0.237364151,0.461622,0.5688132,-0.217122475,0.459932,0.578562751,-0.195900114,0.459442,0.56954811,-0.29635123,0.466534,0.583708147,-0.26415214,0.460951,0.59313925,-0.25115549,0.458386,0.600305848,-0.240359598,0.456122
0.475110215,-0.345384376,0.454713,0.485922334,-0.303539642,0.452541,0.45911952,-0.328881026,0.454057,0.436917679,-0.306276967,0.445315,0.402591806,-0.277148255,0.417719,0.385260159,-0.253996386,0.401896,0.472865606,-0.256194116,0.450303,0.470694887,-0.212325432,0.441266,0.471976254,-0.193820077,0.436748,0.473909347,-0.179274669,0.43264,0.496117104,-0.263992779,0.45047,0.501272852,-0.219363085,0.443415,0.504859254,-0.193490192,0.439301,0.508073146,-0.175216096,0.436361,0.51442864,-0.273998037,0.450793,0.530783156,-0.23497748,0.445051,0.540089142,-0.215361613,0.442113,0.548687899,-0.19733318,0.439442,0.534481384,-0.292366609,0.451515,0.554669282,-0.262373073,0.446585,0.5656231,-0.250039991,0.44432,0.575853137,-0.239951563,0.442321
0.472830261,-0.346671279,0.454274,0.479111425,-0.301878318,0.447933,0.456192506,-0.329867312,0.453248,0.425071607,-0.307281089,0.445156,0.388434338,-0.279244123,0.42173,0.369936027,-0.256557353,0.410206,0.460015307,-0.254405704,0.442551,0.453068072,-0.212174105,0.430085,0.449658587,-0.190684058,0.423852,0.446599804,-0.17091234,0.418186,0.482892213,-0.261424315,0.441922,0.479042039,-0.21354874,0.428296,0.477595733,-0.187039694,0.420347,0.477007003,-0.168898926,0.414669,0.501407773,-0.271018776,0.441946,0.506569191,-0.22694423,0.432311,0.510592541,-0.205903249,0.427382,0.515013248,-0.188566431,0.422901,0.522600099,-0.28937754,0.44296,0.535069294,-0.254586882,0.433453,0.541924397,-0.24019751,0.429084,0.54605451,-0.234614498,0.42523
0.452331392,-0.342706698,0.444395,0.450089928,-0.300489314,0.43927,0.428653177,-0.329952723,0.445598,0.401002458,-0.306689641,0.439617,0.364432448,-0.278091121,0.416616,0.346196773,-0.255211769,0.405447,0.435249237,-0.254030567,0.437475,0.429768868,-0.209961091,0.426641,0.427039817,-0.18784681,0.421224,0.424565251,-0.167694125,0.416299,0.455949232,-0.259024486,0.434412,0.45208546,-0.211215554,0.422431,0.450592325,-0.185234517,0.415442,0.44990994,-0.168264681,0.41045,0.472498164,-0.266861012,0.432327,0.48153076,-0.224328434,0.422944,0.486108819,-0.20264897,0.418143,0.491196062,-0.186235056,0.413779,0.491148674,-0.282933357,0.430667,0.503841311,-0.248788184,0.421001,0.510095366,-0.233776537,0.41656,0.514510494,-0.225994329,0.412641
0.406540729,-0.341852327,0.435702,0.413707443,-0.296902771,0.42969,0.391012093,-0.325404736,0.43581,0.361749288,-0.301629046,0.428771,0.324713974,-0.271741415,0.407623,0.307554655,-0.251530185,0.39267,0.398881181,-0.248772442,0.425946,0.392485805,-0.206993204,0.414079,0.389338781,-0.185754544,0.408145,0.386301202,-0.168615775,0.402751,0.420212514,-0.255201906,0.423991,0.419810123,-0.208530679,0.414203,0.419787757,-0.18369361,0.408493,0.419633554,-0.168476971,0.404415,0.437393926,-0.26429284,0.422894,0.442427319,-0.220543561,0.409504,0.447952813,-0.19953351,0.405346,0.453079106,-0.180240138,0.401566,0.456915361,-0.282043923,0.422536,0.471266451,-0.249409948,0.41272,0.477993865,-0.234276353,0.40821,0.484003258,-0.220845464,0.40423
0.393541945,-0.337898564,0.429858,0.393009788,-0.293778986,0.42343,0.379089078,-0.322536732,0.430989,0.341677827,-0.30154152,0.426308,0.303693156,-0.272737485,0.405162,0.284650056,-0.250942052,0.392565,0.379449959,-0.246351872,0.420705,0.373124195,-0.200446828,0.408855,0.370054715,-0.180883699,0.40293,0.367239376,-0.164820113,0.397543,0.399554112,-0.251937684,0.417337,0.405636914,-0.2086753,0.414626,0.41021266,-0.18449909,0.413044,0.413616366,-0.166713738,0.411914,0.415469579,-0.260256508,0.415114,0.421241575,-0.216604848,0.40089,0.426797826,-0.195912938,0.395979,0.43198556,-0.176873424,0.391515,0.433187048,-0.276881818,0.413492,0.445650283,-0.244263554,0.402524,0.451541079,-0.229103867,0.397485,0.452577547,-0.225394372,0.393038
0.354014816,-0.342310818,0.432093,0.358000784,-0.296576207,0.42152,0.340236077,-0.326949337,0.433574,0.309759612,-0.304426722,0.428819,0.272420136,-0.277300788,0.407781,0.254762679,-0.255579283,0.397779,0.343300371,-0.248148557,0.416559,0.355290331,-0.207859919,0.409197,0.360647249,-0.188131327,0.405516,0.36783994,-0.169188034,0.402169,0.361677608,-0.253524568,0.411498,0.367455091,-0.20886704,0.406179,0.370175062,-0.183322131,0.403076,0.370800471,-0.167497338,0.400859,0.376481333,-0.261814563,0.408235,0.385574439,-0.218851602,0.399806,0.389489538,-0.198638554,0.395494,0.393201148,-0.179931279,0.391574,0.393379058,-0.278658032,0.406031,0.397480347,-0.241731168,0.390949,0.39883552,-0.226243305,0.384019,0.397357691,-0.217963561,0.377905
0.308711594,-0.338266542,0.422898,0.312444213,-0.291483052,0.413121,0.292620612,-0.322821816,0.422699,0.259454155,-0.297861365,0.416021,0.223265127,-0.270533707,0.395535,0.204954947,-0.250851955,0.380879,0.29481997,-0.242631174,0.406562,0.314458998,-0.207324489,0.409014,0.324325286,-0.189576928,0.410241,0.333320238,-0.173386801,0.411355,0.315782852,-0.247854348,0.403854,0.326421724,-0.207535962,0.407406,0.332656742,-0.183860014,0.409478,0.337126185,-0.166792298,0.410957,0.332675523,-0.256023684,0.402459,0.340299073,-0.213164078,0.390331,0.343898929,-0.192778326,0.384126,0.34728512,-0.174147285,0.378485,0.352070329,-0.272750695,0.402335,0.358823722,-0.239280911,0.388608,0.362085675,-0.223698073,0.382301,0.359464444,-0.221341186,0.376736
0.255144684,-0.346126629,0.417659,0.266582474,-0.299499374,0.407329,0.245002794,-0.330739892,0.421754,0.220837894,-0.305701048,0.423977,0.187768725,-0.277228775,0.407118,0.171557411,-0.25599462,0.397536,0.261440656,-0.251396111,0.405812,0.270837531,-0.215425168,0.412464,0.275044118,-0.197114049,0.41579,0.278880636,-0.180348083,0.418814,0.276756661,-0.256733065,0.397537,0.277824574,-0.214451097,0.379106,0.278337487,-0.189699204,0.368354,0.278806865,-0.171792367,0.360675,0.288196677,-0.264744259,0.391608,0.289566083,-0.229734924,0.371515,0.290422477,-0.211568365,0.361235,0.291416516,-0.194765408,0.351889,0.299938937,-0.280898727,0.386224,0.311335836,-0.266022775,0.369385,0.317054138,-0.259135973,0.361648,0.310490719,-0.257272395,0.354821
0.224964303,-0.348201921,0.420676,0.239734247,-0.303327876,0.413481,0.211720727,-0.32920903,0.419772,0.181239944,-0.30378174,0.416619,0.149936901,-0.277404,0.403918,0.133192447,-0.257007346,0.393109,0.23254081,-0.252558744,0.4077,0.235495835,-0.211378446,0.394016,0.237032058,-0.1906123,0.387175,0.230667921,-0.184885166,0.380955,0.253045075,-0.262231669,0.40666,0.254247626,-0.218633555,0.392204,0.255067183,-0.19280353,0.383771,0.255711816,-0.174155929,0.377748,0.268816318,-0.273871981,0.406418,0.271012597,-0.226711005,0.392592,0.269847953,-0.207188371,0.385518,0.265725153,-0.197389836,0.379087,0.285479116,-0.294441748,0.407252,0.275171364,-0.258416308,0.393983,0.270423218,-0.241552589,0.387886,0.264888131,-0.24068387,0.382507
0.192813233,-0.354429021,0.422105,0.21420686,-0.312454971,0.419821,0.187460903,-0.342887012,0.428335,0.15667882,-0.326845725,0.433093,0.123429306,-0.299965034,0.418882,0.106589715,-0.278975701,0.410918,0.220256195,-0.27564409,0.426181,0.206491067,-0.237778168,0.422037,0.199469321,-0.218423903,0.419965,0.187315455,-0.214215376,0.418082,0.23265887,-0.27592945,0.417656,0.212756385,-0.243730279,0.409817,0.200396275,-0.223642449,0.405244,0.19117848,-0.208617423,0.401977,0.241509283,-0.279436756,0.410835,0.230850498,-0.238252039,0.405874,0.22057214,-0.222035411,0.403336,0.208259598,-0.225933157,0.401028,0.249509223,-0.289838624,0.403148,0.255303879,-0.259398311,0.394286,0.254097633,-0.245545345,0.390215,0.240423798,-0.239935832,0.386622
0.14880985,-0.340894219,0.414133,0.172155483,-0.303185618,0.416179,0.141817469,-0.331382735,0.419387,0.113379055,-0.315868413,0.423354,0.0845492812,-0.293891349,0.415844,0.0697767031,-0.274226413,0.409894,0.177297302,-0.271999615,0.424106,0.157255993,-0.242738939,0.422673,0.146495008,-0.227029377,0.421957,0.136237252,-0.212055486,0.421306,0.192215747,-0.27104727,0.418119,0.185042295,-0.228342283,0.413923,0.167465605,-0.230957144,0.411475,0.16013344,-0.24592071,0.409726,0.203070007,-0.27310462,0.413017,0.205012869,-0.231999866,0.410715,0.189232814,-0.230602863,0.409538,0.175630244,-0.242843846,0.408468,0.213295024,-0.281010261,0.406683,0.186640055,-0.260027709,0.402708,0.178026877,-0.274519515,0.400881,0.182826851,-0.298256033,0.412257
0.197042709,-0.369634053,0.439191,0.177614486,-0.317739644,0.420388,0.174623946,-0.358439418,0.438217,0.136916339,-0.332753018,0.42557,0.10751153,-0.311860053,0.419675,0.0949685726,-0.292736168,0.416668,0.1443143,-0.270599894,0.407029,0.128718942,-0.235579442,0.409494,0.120723723,-0.217629436,0.410727,0.113338733,-0.201051696,0.411848,0.162632834,-0.269093882,0.402565,0.150827821,-0.22216387,0.391494,0.138803171,-0.19830068,0.385036,0.124566221,-0.196668813,0.380423,0.179278019,-0.272213584,0.400495,0.144193402,-0.271973686,0.378754,0.155429521,-0.305606749,0.396291,0.174852909,-0.31866374,0.412075,0.201808891,-0.283990158,0.400979,0.182980098,-0.23986913,0.38039,0.172149006,-0.222838228,0.37093,0.162664033,-0.217882278,0.368381
0.154707503,-0.350506395,0.429463,0.145282934,-0.299931033,0.415099,0.137093653,-0.335483943,0.429474,0.102722465,-0.321230263,0.42958,0.0713352391,-0.307351697,0.425993,0.0514678082,-0.292686795,0.421123,0.116558726,-0.254089867,0.405844,0.0990906494,-0.213590782,0.400436,0.0903283629,-0.193275332,0.397733,0.079673049,-0.175769925,0.395275,0.136038667,-0.254805518,0.401483,0.116610591,-0.207392441,0.383246,0.105241559,-0.179637403,0.372608,0.0971029611,-0.159763925,0.36501,0.153007877,-0.25947445,0.39912,0.137042184,-0.209755692,0.379276,0.126170733,-0.186866327,0.369123,0.116232191,-0.186757293,0.378697,0.174686876,-0.272457015,0.398567,0.172003615,-0.227656673,0.380582,0.161533751,-0.219861311,0.372319,0.150744398,-0.217353022,0.365028
0.12120743,-0.344565468,0.423791,0.119359944,-0.29589027,0.413951,0.110857485,-0.334603073,0.430447,0.0775973088,-0.327623682,0.440278,0.0520716915,-0.305209019,0.431328,0.0301457839,-0.290190119,0.422989,0.105468062,-0.253232055,0.415968,0.0945457311,-0.21146336,0.410564,0.0823323971,-0.192934825,0.407862,0.0632367056,-0.186667405,0.405406,0.117585028,-0.250738818,0.404623,0.100523622,-0.20336653,0.390368,0.0905929192,-0.175797529,0.382053,0.0840398341,-0.157127232,0.3785,0.127742508,-0.252719669,0.396125,0.123946235,-0.204542723,0.380451,0.110469913,-0.18603262,0.372432,0.0966118088,-0.169954929,0.365142,0.140122144,-0.262480359,0.387636,0.0998376601,-0.258180714,0.376903,0.09997998,-0.27191839,0.371972,0.109066103,-0.290761064,0.379725
0.123907189,-0.353922654,0.436955,0.11243015,-0.297889917,0.418036,0.111435099,-0.341363137,0.439952,0.0768823294,-0.3257282,0.439766,0.0443915291,-0.305959501,0.43094,0.0273688959,-0.289688934,0.423238,0.0900422258,-0.250377114,0.409595,0.085448233,-0.210814337,0.408744,0.0711202564,-0.19523485,0.408318,0.0521915517,-0.188152979,0.407931,0.10279809,-0.247967149,0.400102,0.0895017875,-0.20363973,0.393364,0.0816666913,-0.177508226,0.389433,0.0760328597,-0.158713234,0.386625,0.114286049,-0.250441391,0.393904,0.102605463,-0.204766041,0.383535,0.0866437601,-0.187368548,0.37823,0.0715987561,-0.171017417,0.373407,0.129744763,-0.261663698,0.389537,0.0870461066,-0.254422572,0.371233,0.0869513205,-0.265279499,0.362824,0.0950715208,-0.281670734,0.367797
0.124300179,-0.353706603,0.438668,0.112228637,-0.296646405,0.418504,0.111155194,-0.340989791,0.440958,0.0763989042,-0.324041405,0.440708,0.0443044954,-0.306399297,0.432095,0.0242917054,-0.289955692,0.424765,0.0887004435,-0.248490909,0.408371,0.0715324028,-0.208245377,0.404886,0.0620684708,-0.188832422,0.403143,0.0473990862,-0.182493756,0.401559,0.101644235,-0.246074997,0.399391,0.0866740771,-0.201847307,0.39187,0.074425545,-0.174923757,0.387482,0.0715062011,-0.157020035,0.384349,0.113397602,-0.248598912,0.39372,0.102376764,-0.20287304,0.383012,0.0870108378,-0.185130955,0.377533,0.0725334915,-0.168459172,0.372552,0.129381675,-0.260005512,0.39017,0.0865833669,-0.254037535,0.370737,0.0858743857,-0.264573938,0.361808,0.092588867,-0.281320813,0.366381
0.124201193,-0.355616346,0.440603,0.112165988,-0.298544817,0.420012,0.110907308,-0.342994551,0.442978,0.0760535835,-0.324698418,0.441019,0.0440612889,-0.306147839,0.431737,0.0256931927,-0.289409922,0.423688,0.0887287405,-0.25001037,0.409712,0.0715576297,-0.210458728,0.40583,0.0626058695,-0.190877158,0.403889,0.0462771357,-0.183158012,0.402125,0.101642848,-0.247493773,0.400495,0.0850788733,-0.202423817,0.390776,0.0726259605,-0.176188841,0.385107,0.0650613878,-0.157283489,0.381057,0.113356586,-0.249971329,0.394665,0.101408418,-0.202199982,0.373451,0.0793028313,-0.202779899,0.362596,0.0703250308,-0.215235808,0.352729,0.129278413,-0.261392007,0.390994,0.0863693185,-0.253359782,0.371392,0.0827455216,-0.263491381,0.362386,0.0860899267,-0.281371659,0.366754
0.123793942,-0.356109004,0.441246,0.111441535,-0.299080942,0.420427,0.110069538,-0.343473225,0.443315,0.0754433858,-0.325030497,0.441177,0.0436447822,-0.306727348,0.432399,0.0240823183,-0.289654739,0.424798,0.0864423378,-0.250395102,0.409594,0.07116778,-0.211229608,0.406546,0.0630648213,-0.19169894,0.405022,0.0445076847,-0.182500269,0.403637,0.10063355,-0.247895236,0.400693,0.0824515545,-0.203141101,0.391384,0.0721965231,-0.176864705,0.385954,0.0648239366,-0.157973275,0.382075,0.112688334,-0.25040165,0.395144,0.10037052,-0.199810696,0.373678,0.0793412454,-0.202903735,0.362695,0.0703234337,-0.215266382,0.352711,0.129070934,-0.261875298,0.391838,0.0863229281,-0.25313934,0.371915,0.0817565314,-0.263173986,0.362761,0.0842593701,-0.281237541,0.367088
0.123479751,-0.356314993,0.441523,0.11078662,-0.2991839,0.420295,0.109450249,-0.343698771,0.443402,0.07493517,-0.325032106,0.440918,0.0432368205,-0.306958409,0.432474,0.0238155713,-0.289925139,0.425064,0.0843646633,-0.251354098,0.408959,0.0700276647,-0.212409515,0.4067,0.0627508849,-0.192190155,0.40557,0.0443242544,-0.182967251,0.404544,0.098845424,-0.247770659,0.400173,0.0815717124,-0.203397048,0.391304,0.0713823195,-0.177220937,0.386131,0.0640497075,-0.158383306,0.382435,0.111883975,-0.250308154,0.394754,0.0999043167,-0.200755633,0.372969,0.0786256846,-0.20272003,0.361823,0.0696826946,-0.214973379,0.351691,0.128549389,-0.261784541,0.391665,0.085463944,-0.250332382,0.371403,0.0791065781,-0.260785071,0.362093,0.0796541828,-0.279140616,0.366274
0.123225823,-0.356376726,0.441615,0.110370087,-0.299306586,0.420283,0.108994602,-0.343817914,0.44341,0.0746191983,-0.32513085,0.440878,0.0429667941,-0.30712589,0.432543,0.0236376049,-0.290103099,0.425238,0.0837161113,-0.251338,0.408773,0.0696138616,-0.212452764,0.406741,0.0625356475,-0.192402507,0.405725,0.0441826094,-0.183117557,0.404801,0.098285334,-0.247907207,0.400061,0.0810375542,-0.20353562,0.391227,0.0708631083,-0.177359942,0.386074,0.0635412474,-0.158522707,0.382393,0.111409941,-0.250383915,0.394712,0.0995671928,-0.200742187,0.372764,0.0783007752,-0.202710707,0.361535,0.069391788,-0.214914967,0.351326,0.128258558,-0.261839207,0.391722,0.0853493028,-0.249919685,0.37135,0.0787181449,-0.260296069,0.36199,0.0790316789,-0.278647639,0.36614
0.123027951,-0.356401265,0.441657,0.110072446,-0.299393928,0.420274,0.108648576,-0.343893255,0.443398,0.0743953915,-0.325209149,0.44086,0.0427744496,-0.307248878,0.432597,0.0235108717,-0.290234789,0.425369,0.083327819,-0.251331181,0.408666,0.0693666489,-0.212482591,0.406773,0.0623920742,-0.192543394,0.405827,0.0440875112,-0.183214901,0.404966,0.0979164541,-0.248009845,0.400005,0.0806822936,-0.203630266,0.39118,0.0705159906,-0.177450333,0.386031,0.0632003755,-0.158611092,0.382354,0.111077024,-0.250450753,0.394702,0.0993501976,-0.200749267,0.372657,0.0781091962,-0.202713304,0.361377,0.069220573,-0.214889588,0.351123,0.128054906,-0.261886459,0.391775,0.0852862251,-0.24968876,0.371343,0.0784907519,-0.260021751,0.361955,0.0786647235,-0.278376195,0.366092
0.122294271,-0.355557026,0.440408,0.109776302,-0.299575995,0.420134,0.108069419,-0.343511593,0.442691,0.0742916897,-0.325066885,0.440808,0.0425420397,-0.307119958,0.432534,0.0230558685,-0.290240658,0.425206,0.0836119768,-0.252319135,0.409921,0.0702302621,-0.212704275,0.40781,0.0626143361,-0.193265994,0.406754,0.0441432064,-0.184354664,0.405795,0.0975604337,-0.249499717,0.400916,0.0799234915,-0.204838622,0.391364,0.0695292179,-0.17851823,0.385791,0.0620540305,-0.159589664,0.381811,0.11015556,-0.251685582,0.395235,0.0992840841,-0.201506522,0.372429,0.0780454427,-0.202960463,0.360761,0.0690672828,-0.214834236,0.350154,0.127183734,-0.262647315,0.391689,0.0883475483,-0.242826594,0.372193,0.0767791939,-0.25166465,0.363235,0.0721435415,-0.269772475,0.367762
0.121551948,-0.354003001,0.438144,0.109613018,-0.299478246,0.419486,0.107416349,-0.342136768,0.440569,0.0746428486,-0.324499561,0.440048,0.0432025647,-0.307295743,0.432894,0.0235766057,-0.291000637,0.426148,0.0840006488,-0.252995535,0.410494,0.0705167127,-0.213664314,0.408183,0.0629314033,-0.19374055,0.407028,0.0451953586,-0.185378858,0.405977,0.0980375599,-0.25044924,0.401799,0.0801197914,-0.205417072,0.391514,0.0695789708,-0.178925827,0.385514,0.0620071157,-0.159896416,0.381228,0.111212166,-0.252677118,0.396235,0.0995448288,-0.201945291,0.37227,0.0781853102,-0.203121546,0.360009,0.0690835041,-0.214588229,0.348862,0.128056488,-0.263767786,0.392577,0.096422689,-0.235978704,0.374043,0.0823682475,-0.242926638,0.365528,0.0754940534,-0.260355916,0.370717
0.121151021,-0.354237456,0.438402,0.109719756,-0.300048112,0.419876,0.106766547,-0.342570806,0.440856,0.0751119496,-0.324870133,0.440558,0.0437593257,-0.307643765,0.433474,0.0239831487,-0.291479918,0.426713,0.0843095137,-0.253554574,0.411007,0.0709565996,-0.214016944,0.40846,0.0631696183,-0.194083589,0.407186,0.0452502693,-0.185874539,0.406028,0.0983604951,-0.251071625,0.402316,0.0802795198,-0.205883032,0.391687,0.0696489253,-0.179315427,0.385487,0.0620153731,-0.160238301,0.381058,0.111457573,-0.25332133,0.396743,0.0997351016,-0.202263692,0.372132,0.0783099415,-0.203294194,0.35954,0.0691338448,-0.214523943,0.348093,0.128302827,-0.264444774,0.393053,0.0965691109,-0.236337048,0.374611,0.0825057052,-0.243332039,0.366138,0.075628458,-0.260819436,0.371377
