sluyters/QuantumLeap/backend/src/datasets/dynamic/HandGestureDataset_SHREC2017_csv/Gesture8/finger_2/subject_2_essai_1_skeletons_world.csv
Wrist_x,Wrist_y,Wrist_z,Palm_x,Palm_y,Palm_z,thumb_base_x,thumb_base_y,thumb_base_z,thumb_first_joint_x,thumb_first_joint_y,thumb_first_joint_z,thumb_second_joint_x,thumb_second_joint_y,thumb_second_joint_z,thumb_tip_x,thumb_tip_y,thumb_tip_z,index_base_x,index_base_y,index_base_z,index_first_joint_x,index_first_joint_y,index_first_joint_z,index_second_joint_x,index_second_joint_y,index_second_joint_z,index_tip_x,index_tip_y,index_tip_z,middle_base_x,middle_base_y,middle_base_z,middle_first_joint_x,middle_first_joint_y,middle_first_joint_z,middle_second_joint_x,middle_second_joint_y,middle_second_joint_z,middle_tip_x,middle_tip_y,middle_tip_z,ring_base_x,ring_base_y,ring_base_z,ring_first_joint_x,ring_first_joint_y,ring_first_joint_z,ring_second_joint_x,ring_second_joint_y,ring_second_joint_z,ring_tip_x,ring_tip_y,ring_tip_z,pinky_base_x,pinky_base_y,pinky_base_z,pinky_first_joint_x,pinky_first_joint_y,pinky_first_joint_z,pinky_second_joint_x,pinky_second_joint_y,pinky_second_joint_z,pinky_tip_x,pinky_tip_y,pinky_tip_z,
0.31415463,-0.33233932,0.422816,0.30586137,-0.28377252,0.416726,0.29100644,-0.32355388,0.415895,0.26556688,-0.29317072,0.397376,0.24199359,-0.27987991,0.399465,0.23018191,-0.26406088,0.395812,0.27214805,-0.25102662,0.404627,0.26044165,-0.20967212,0.397902,0.25815878,-0.19643541,0.39454,0.25318308,-0.19360236,0.391483,0.30129406,-0.25315232,0.41278,0.30035016,-0.20640638,0.406828,0.29930944,-0.18160165,0.403356,0.29579704,-0.16601205,0.400876,0.32661136,-0.25996774,0.420178,0.32561833,-0.21153291,0.408917,0.32636478,-0.19772603,0.403156,0.3265598,-0.19719295,0.397918,0.35760827,-0.27652068,0.429764,0.35138916,-0.23405377,0.419504,0.35233359,-0.22669719,0.41479,0.35401571,-0.21791979,0.410631
0.31045854,-0.32746752,0.417395,0.30485052,-0.28131233,0.414291,0.28858021,-0.31976078,0.411954,0.26624574,-0.2924184,0.396101,0.24467445,-0.28067992,0.400877,0.23373087,-0.26582113,0.398936,0.27320078,-0.25119068,0.405531,0.26418647,-0.21210456,0.403238,0.26332729,-0.20051507,0.402091,0.2612678,-0.19834952,0.401049,0.30140403,-0.25252135,0.412279,0.3013023,-0.20704906,0.408107,0.30103895,-0.18260587,0.405673,0.29854706,-0.16685761,0.403935,0.32556424,-0.25847119,0.418187,0.327101,-0.21246912,0.410728,0.32938849,-0.19836928,0.406912,0.33134333,-0.19636861,0.403443,0.35458353,-0.27358991,0.42551,0.35286962,-0.23449573,0.420737,0.35580323,-0.22863922,0.418544,0.3593647,-0.22152737,0.416609
0.31045643,-0.32662714,0.416951,0.30714868,-0.28159859,0.415965,0.28941834,-0.3195667,0.412669,0.26952703,-0.29012275,0.398884,0.24960999,-0.27949502,0.40562,0.23979464,-0.2637224,0.404936,0.27947172,-0.25101857,0.409722,0.27629625,-0.21144332,0.409969,0.27774992,-0.20400695,0.410093,0.27527048,-0.20050802,0.410205,0.30714105,-0.25252385,0.415326,0.30876615,-0.21048412,0.414588,0.31432065,-0.18725296,0.414158,0.3167535,-0.17055335,0.413851,0.33049133,-0.25850312,0.420053,0.33442239,-0.21664889,0.417118,0.34155651,-0.20159847,0.415616,0.3432955,-0.19677535,0.414251,0.35796355,-0.27343228,0.425632,0.35862546,-0.23589626,0.423613,0.36282021,-0.23038581,0.422685,0.36504126,-0.22495763,0.422538
0.31056455,-0.32494295,0.415775,0.31355073,-0.28315004,0.419744,0.28955128,-0.3177046,0.411411,0.26769341,-0.29185424,0.39938,0.24719077,-0.28225084,0.407356,0.23886046,-0.26635588,0.40822,0.28832504,-0.25450059,0.4156,0.29572043,-0.21632216,0.413806,0.29975065,-0.2025688,0.412909,0.30368017,-0.18931124,0.412094,0.31697913,-0.25771368,0.422314,0.31646429,-0.21508734,0.41965,0.32199029,-0.20502302,0.418096,0.32426174,-0.21264812,0.416986,0.34062105,-0.26485278,0.427404,0.34427883,-0.22304238,0.425251,0.35051573,-0.22009405,0.42415,0.35116468,-0.23492829,0.423149,0.36749405,-0.28069078,0.432461,0.35547834,-0.24212767,0.426519,0.35712451,-0.23322372,0.423789,0.35713105,-0.23670414,0.42138
0.31760696,-0.33219448,0.424273,0.32328694,-0.29844181,0.421208,0.29536125,-0.3233961,0.418538,0.27205035,-0.29603857,0.402372,0.25810562,-0.28123887,0.406813,0.25225909,-0.26246692,0.404739,0.29588264,-0.26307772,0.412067,0.30347264,-0.22433181,0.403646,0.3076128,-0.20614462,0.399435,0.311613,-0.19032236,0.395608,0.3244347,-0.26958255,0.419222,0.31764983,-0.22184577,0.40821,0.31811239,-0.20234977,0.401786,0.3191028,-0.20522666,0.397198,0.348027,-0.27991179,0.425459,0.33647048,-0.23464564,0.412625,0.3330813,-0.2110577,0.406059,0.32942716,-0.19240001,0.400089,0.37507793,-0.30030304,0.433151,0.36043434,-0.25944442,0.424835,0.3624792,-0.25431313,0.421015,0.36445179,-0.26369091,0.417643
0.31956729,-0.33424205,0.425975,0.33466764,-0.30122409,0.421707,0.29778663,-0.32477581,0.420462,0.28770046,-0.29022676,0.404119,0.27437584,-0.27158528,0.408458,0.27325746,-0.25206449,0.406101,0.31532744,-0.26158909,0.412328,0.33099983,-0.22654329,0.402757,0.33905078,-0.2102954,0.397971,0.34653588,-0.19628851,0.393621,0.34204738,-0.27341214,0.418941,0.3485609,-0.23054771,0.413784,0.3568072,-0.21214005,0.410775,0.3603387,-0.21461327,0.408626,0.36301712,-0.28798238,0.424867,0.3631979,-0.2462831,0.411124,0.36342363,-0.22458754,0.404093,0.36460792,-0.20646229,0.397701,0.38519985,-0.31299635,0.432431,0.38026363,-0.2723123,0.425481,0.38458592,-0.26673816,0.422287,0.38569986,-0.27515241,0.41947
0.32140339,-0.33754058,0.428201,0.337993,-0.31386392,0.434975,0.29944308,-0.32651223,0.421761,0.30066671,-0.29649733,0.408621,0.28864752,-0.27728596,0.414681,0.29113032,-0.25898549,0.415382,0.32274847,-0.27619964,0.42927,0.33131803,-0.23869308,0.423329,0.34107115,-0.23369603,0.420358,0.34529283,-0.24674025,0.417658,0.34935784,-0.29109866,0.439364,0.37251995,-0.25847938,0.437985,0.38791228,-0.24071305,0.437181,0.40015145,-0.23843192,0.436606,0.36940469,-0.30729213,0.446925,0.38841676,-0.31376371,0.442358,0.39975813,-0.3178067,0.440172,0.39551138,-0.33621359,0.438493,0.38916947,-0.33253301,0.454272,0.40042216,-0.32953202,0.449343,0.38618027,-0.34082803,0.447078,0.38222835,-0.35893735,0.457262
0.32699056,-0.34415734,0.434824,0.34499432,-0.32062271,0.444806,0.30523352,-0.33217418,0.428336,0.31510039,-0.30406431,0.41652,0.29861836,-0.27841396,0.414614,0.30283156,-0.26137863,0.41714,0.32681321,-0.2845231,0.440466,0.34575645,-0.25979945,0.437128,0.3573457,-0.25082402,0.435458,0.36820211,-0.25559119,0.43394,0.35385098,-0.29990722,0.451273,0.38175202,-0.30140116,0.453165,0.40028236,-0.30229233,0.454268,0.41522913,-0.32890394,0.467859,0.37464879,-0.31611315,0.459062,0.39711887,-0.31432417,0.457392,0.41016104,-0.31336701,0.456537,0.42019213,-0.3387974,0.470295,0.39597036,-0.34079717,0.466064,0.41309286,-0.3293553,0.463802,0.40853353,-0.33202819,0.462763,0.40369577,-0.34856492,0.473268
0.3275454,-0.34661242,0.434628,0.34506939,-0.32112824,0.444798,0.30611022,-0.33276879,0.428069,0.31991184,-0.30754852,0.416265,0.30654704,-0.27992413,0.413741,0.31413618,-0.26328047,0.415327,0.3276158,-0.28526092,0.440446,0.34700233,-0.26088354,0.437224,0.35844479,-0.25077339,0.435613,0.36979754,-0.25338557,0.434148,0.35463869,-0.300952,0.451386,0.38329724,-0.30098403,0.453474,0.40228978,-0.30088817,0.454692,0.41779238,-0.32690948,0.468268,0.37536934,-0.31739681,0.459265,0.39810758,-0.31603098,0.457741,0.41130326,-0.31531163,0.456961,0.42119641,-0.34078488,0.470688,0.39650749,-0.34232679,0.466333,0.41399302,-0.33124005,0.464216,0.4095077,-0.33394605,0.463244,0.40455762,-0.35035988,0.473732
0.3657301,-0.36637326,0.454773,0.37239322,-0.32531959,0.457934,0.34486296,-0.35074621,0.44505,0.33628903,-0.3158487,0.427225,0.31957512,-0.28448171,0.413742,0.3174581,-0.26388476,0.408316,0.34747265,-0.28694639,0.446167,0.35940178,-0.25948275,0.435552,0.36616824,-0.24552876,0.430245,0.37622005,-0.2464151,0.42542,0.37663636,-0.29950278,0.459982,0.39667713,-0.26359957,0.455124,0.4128892,-0.25065893,0.45229,0.43329915,-0.26545772,0.463194,0.40003381,-0.31428547,0.471011,0.42287098,-0.30038769,0.463024,0.43581427,-0.29291326,0.458938,0.4593062,-0.31579865,0.469847,0.42571101,-0.33878041,0.482995,0.43238723,-0.33633646,0.474525,0.43047523,-0.33932982,0.470633,0.43075354,-0.35487428,0.478664
0.32757553,-0.29503398,0.426242,0.36290795,-0.2730885,0.430059,0.3214437,-0.27415933,0.421803,0.34610906,-0.25183844,0.418991,0.34618314,-0.22567903,0.420396,0.36511572,-0.21716346,0.426069,0.36958347,-0.23689006,0.425746,0.39745928,-0.21693511,0.418686,0.4241327,-0.21252347,0.427137,0.44849178,-0.2143542,0.43482,0.3847109,-0.25969637,0.432532,0.40310577,-0.26967656,0.429105,0.40084528,-0.2996414,0.452445,0.39358908,-0.30597557,0.461289,0.39350029,-0.28080973,0.437696,0.41059861,-0.29119321,0.433052,0.42077952,-0.29740578,0.430676,0.42520025,-0.32269034,0.445197,0.39731098,-0.30913731,0.442867,0.41490651,-0.30457645,0.436095,0.41098568,-0.31661525,0.432984,0.41276137,-0.33864845,0.443513
0.33009814,-0.29730077,0.426277,0.36826513,-0.28101021,0.431037,0.32421552,-0.27592566,0.421551,0.36310597,-0.26787336,0.426142,0.39408972,-0.25654678,0.431859,0.4168433,-0.25550644,0.435786,0.37563294,-0.24567926,0.426758,0.40464848,-0.2307735,0.420255,0.43912092,-0.23301432,0.435767,0.47026923,-0.2403587,0.44987,0.39010443,-0.26986197,0.434122,0.41067381,-0.27726445,0.430789,0.41094822,-0.30709747,0.453875,0.40069404,-0.31431071,0.462327,0.39840158,-0.29188635,0.439658,0.41685899,-0.29952597,0.434057,0.42782585,-0.30417009,0.431192,0.43328644,-0.32861424,0.445247,0.40162543,-0.32089163,0.445074,0.41964867,-0.31775594,0.438967,0.41428269,-0.3302763,0.436161,0.41513741,-0.35225236,0.446742
0.356755,-0.29068445,0.424473,0.39239803,-0.27723834,0.430994,0.35187252,-0.2684179,0.419199,0.37123478,-0.24194393,0.412821,0.38791537,-0.22013618,0.406592,0.40291914,-0.20939984,0.405588,0.40017041,-0.24357326,0.426757,0.43125758,-0.23360957,0.421312,0.47022615,-0.23964856,0.439245,0.50533851,-0.24974258,0.455547,0.41421671,-0.26928348,0.435219,0.45602799,-0.26026026,0.43361,0.48608121,-0.28246864,0.456224,0.48013933,-0.29579826,0.463904,0.42218465,-0.2922098,0.441463,0.44582864,-0.2992355,0.437169,0.45974256,-0.30347649,0.434973,0.46816702,-0.32714499,0.449033,0.42497442,-0.32159723,0.447355,0.44631526,-0.3194377,0.442513,0.44005589,-0.33210671,0.440288,0.44066257,-0.35345762,0.450921
0.35914326,-0.32076498,0.413492,0.38460969,-0.28566554,0.409407,0.34900953,-0.30221475,0.411648,0.36032964,-0.26982958,0.40572,0.35614683,-0.24730467,0.4101,0.36903027,-0.2333799,0.413031,0.38186115,-0.24716367,0.405086,0.39975128,-0.21633928,0.393894,0.41487405,-0.20746536,0.394492,0.42905388,-0.20023082,0.395036,0.40002253,-0.26412187,0.406761,0.40230094,-0.26503772,0.395636,0.40699981,-0.30141692,0.419513,0.40523036,-0.31395044,0.431094,0.41246155,-0.28181893,0.408598,0.41739826,-0.28350646,0.397939,0.40435968,-0.29686488,0.392486,0.40174319,-0.31936387,0.405867,0.42246922,-0.30865785,0.411462,0.41565511,-0.30308886,0.399586,0.3978544,-0.31107944,0.39413,0.39731543,-0.32540181,0.403749
0.36021281,-0.31361787,0.411513,0.39399486,-0.27882986,0.408943,0.35031102,-0.29404353,0.408624,0.37190775,-0.26077592,0.407172,0.38728673,-0.23699322,0.404477,0.40019367,-0.22268899,0.402318,0.39502746,-0.240738,0.403879,0.418013,-0.22260589,0.393446,0.42313171,-0.21806328,0.38823,0.41940153,-0.21839502,0.383487,0.41318027,-0.26064055,0.407277,0.43715079,-0.23491483,0.397048,0.44245465,-0.23237031,0.39108,0.4483787,-0.25198382,0.403447,0.42506798,-0.28040878,0.410364,0.44451644,-0.24870379,0.399412,0.43933635,-0.25676826,0.393809,0.44067221,-0.28196107,0.407009,0.43328691,-0.30888329,0.41437,0.42700951,-0.30541554,0.403199,0.41035812,-0.3158437,0.398067,0.41111872,-0.33185156,0.407815
0.36011971,-0.31325197,0.408978,0.39284554,-0.28464451,0.402041,0.35084755,-0.29349336,0.406187,0.3718984,-0.26631202,0.400996,0.38610565,-0.24156722,0.396038,0.3990518,-0.2273866,0.393374,0.39327735,-0.24516546,0.395162,0.41330928,-0.22617287,0.381356,0.41670275,-0.22107205,0.374453,0.41125183,-0.22057953,0.368178,0.40989436,-0.26506243,0.397546,0.43022312,-0.2379911,0.383243,0.43287409,-0.23447499,0.3749,0.43748229,-0.25340514,0.38606,0.42088294,-0.2850257,0.400286,0.4373358,-0.25198726,0.385775,0.42977128,-0.25881947,0.37835,0.42956887,-0.28294591,0.390361,0.42874207,-0.31418378,0.404718,0.41907859,-0.3085868,0.390342,0.40033325,-0.31719399,0.383737,0.39986885,-0.3321353,0.392495
0.35861812,-0.33472354,0.400188,0.37806066,-0.2946614,0.388889,0.34738886,-0.31821338,0.397596,0.34573285,-0.28652904,0.382447,0.33472035,-0.2566824,0.379521,0.34183618,-0.23988908,0.378326,0.37165722,-0.2550675,0.380332,0.38525875,-0.22357388,0.363233,0.39135391,-0.21404774,0.354683,0.39288621,-0.20742453,0.347481,0.39006333,-0.26932139,0.381569,0.40443403,-0.24328515,0.363506,0.41371437,-0.22941485,0.352969,0.43252798,-0.24543086,0.362812,0.40303356,-0.28523358,0.38385,0.39676583,-0.29652076,0.367146,0.39958913,-0.32560718,0.386634,0.40720618,-0.33532731,0.405415,0.41440162,-0.31059847,0.388582,0.39664914,-0.31399139,0.371152,0.39779721,-0.33566625,0.386303,0.40676871,-0.34498282,0.400942
0.35485529,-0.32082699,0.400671,0.37323059,-0.28967764,0.382297,0.34217723,-0.30480786,0.395913,0.3353898,-0.26725631,0.38565,0.33459218,-0.23968649,0.385511,0.33784524,-0.22067883,0.383081,0.36896617,-0.24682108,0.367647,0.37156423,-0.22133529,0.344127,0.373546,-0.20842526,0.332449,0.37586133,-0.19658259,0.321913,0.3865451,-0.26583437,0.370393,0.39095443,-0.24407685,0.345599,0.39465321,-0.2312505,0.331151,0.39802294,-0.22206534,0.320915,0.39913433,-0.28567257,0.374707,0.40305962,-0.24936279,0.350131,0.42030144,-0.27820578,0.367665,0.42371239,-0.30616745,0.384615,0.41026403,-0.31556751,0.383093,0.41338353,-0.27517581,0.361488,0.40881289,-0.27298195,0.351561,0.41184989,-0.28988055,0.357401
0.35115496,-0.33142599,0.398288,0.35472333,-0.29326595,0.370051,0.3408205,-0.31239727,0.394384,0.32196879,-0.27248802,0.380263,0.31809659,-0.24156636,0.375488,0.32090363,-0.22214122,0.372111,0.34687611,-0.24869338,0.352158,0.34307295,-0.21803842,0.321365,0.34121938,-0.20269533,0.305969,0.33789525,-0.19096361,0.291972,0.36085713,-0.26646414,0.351758,0.35700306,-0.23848225,0.318641,0.35498881,-0.22213721,0.299323,0.35368153,-0.21044917,0.285524,0.37140995,-0.28567407,0.354582,0.36211835,-0.26379413,0.322218,0.35778684,-0.25267194,0.30566,0.35376349,-0.24303019,0.290608,0.38191018,-0.31569195,0.363126,0.38835834,-0.27559912,0.343788,0.38184637,-0.27511883,0.334903,0.38215603,-0.29221883,0.341635
0.33151522,-0.32550829,0.392819,0.33493822,-0.28631897,0.361545,0.32039531,-0.30340462,0.385185,0.30480307,-0.25782929,0.369226,0.30337617,-0.22714857,0.362771,0.30542258,-0.20749737,0.356115,0.3250794,-0.24331903,0.337238,0.31209451,-0.21215202,0.303384,0.30257295,-0.20057872,0.286457,0.29403471,-0.19006161,0.271069,0.34066405,-0.2647772,0.341283,0.33353178,-0.23895072,0.305347,0.32946858,-0.22389272,0.284385,0.32876521,-0.21453957,0.27118,0.35262164,-0.28624825,0.348108,0.34139457,-0.26682407,0.313126,0.3357243,-0.25718545,0.295228,0.33019073,-0.24906458,0.278957,0.36470823,-0.31730696,0.361789,0.3672693,-0.27713769,0.334953,0.35443745,-0.27635013,0.322624,0.34713556,-0.28927267,0.325763
0.31775033,-0.31937081,0.389024,0.33066662,-0.28733141,0.35953,0.30865356,-0.29782123,0.381558,0.30117984,-0.25750706,0.366525,0.30171415,-0.2276785,0.361178,0.30479545,-0.20839051,0.354879,0.32330077,-0.24471967,0.336247,0.31210398,-0.21498525,0.30356,0.30429508,-0.20305587,0.287216,0.29622199,-0.19341621,0.272359,0.33644394,-0.26942483,0.340422,0.33383372,-0.24143478,0.305885,0.33144454,-0.22669573,0.285739,0.33270426,-0.2180639,0.273723,0.34666664,-0.29170642,0.347156,0.34038499,-0.27253645,0.313582,0.33710995,-0.26066756,0.296404,0.33310833,-0.25294357,0.280788,0.35603673,-0.32350661,0.360397,0.36192732,-0.28445802,0.335036,0.35048611,-0.28347922,0.323383,0.3462504,-0.29368527,0.327336
0.30614381,-0.32144336,0.388678,0.31838734,-0.28934999,0.360932,0.29766119,-0.29747705,0.379622,0.28823949,-0.25346331,0.36278,0.28734837,-0.22316639,0.352011,0.29966012,-0.20682054,0.350522,0.31497022,-0.24368515,0.336274,0.30219832,-0.22018385,0.303648,0.29600586,-0.20844475,0.287335,0.2883877,-0.19980921,0.272505,0.32944671,-0.26912347,0.342956,0.33628363,-0.2432567,0.309722,0.32146447,-0.23423587,0.290336,0.29936382,-0.23291198,0.276489,0.33970608,-0.29399782,0.351561,0.34068022,-0.25657645,0.317821,0.32760357,-0.25069026,0.300558,0.30004424,-0.25001222,0.284865,0.34820316,-0.32917948,0.366606,0.35280902,-0.28783263,0.337324,0.34042794,-0.28470658,0.323869,0.33061542,-0.29504218,0.325177
0.2899358,-0.3205403,0.38679,0.30347567,-0.28686296,0.356935,0.28429283,-0.29648643,0.379084,0.2682709,-0.25515134,0.357929,0.26223069,-0.21682291,0.34194,0.26947885,-0.19946443,0.339595,0.3030901,-0.24104315,0.333164,0.28984702,-0.21930301,0.3001,0.28339289,-0.20845464,0.283568,0.27590872,-0.20011173,0.268539,0.31402411,-0.265112,0.337593,0.3124038,-0.24030527,0.302751,0.29646697,-0.23377547,0.282426,0.27622607,-0.23094071,0.267909,0.32147262,-0.28899712,0.344576,0.31491204,-0.27451978,0.309986,0.28492804,-0.26733052,0.292289,0.25087815,-0.25489168,0.2762,0.32698383,-0.32362746,0.358169,0.31664437,-0.2958743,0.326646,0.29634959,-0.29453678,0.312163,0.29030796,-0.30566149,0.31207
0.25494941,-0.29030253,0.349605,0.27977464,-0.26424159,0.325767,0.24851511,-0.26534074,0.339866,0.25428388,-0.25075389,0.318589,0.25729778,-0.24192608,0.298543,0.26358689,-0.24058404,0.286348,0.28058681,-0.22105614,0.301927,0.26393553,-0.21539414,0.272167,0.25994371,-0.21635803,0.261346,0.25674595,-0.21786531,0.25151,0.2943428,-0.24781636,0.310323,0.27922393,-0.24288089,0.280319,0.26660122,-0.24229332,0.262816,0.25555559,-0.24293025,0.250314,0.30335807,-0.27314545,0.319904,0.28212235,-0.26775737,0.288687,0.27152276,-0.26567564,0.272715,0.26213101,-0.26434938,0.25823,0.30930212,-0.30771288,0.335325,0.30326278,-0.2869879,0.306932,0.2785355,-0.28733129,0.293887,0.2691426,-0.30041468,0.295468
0.25093706,-0.2906605,0.351037,0.24727752,-0.25691456,0.315626,0.23283973,-0.26773508,0.344369,0.22538575,-0.22775429,0.329495,0.23307271,-0.20009054,0.327966,0.24580781,-0.1865615,0.328334,0.23890797,-0.21465869,0.290782,0.2224567,-0.18954262,0.254561,0.21427894,-0.17699011,0.23645,0.20688237,-0.16558366,0.219986,0.25064041,-0.2362218,0.292684,0.23405661,-0.21223713,0.253841,0.22446449,-0.19828236,0.231183,0.21766374,-0.1883372,0.214999,0.25980843,-0.25759857,0.298206,0.23740509,-0.23792467,0.260249,0.22604348,-0.22798242,0.24083,0.21579352,-0.21904117,0.223175,0.26940776,-0.28830327,0.311181,0.2590419,-0.26726298,0.277366,0.23108533,-0.26122721,0.26183,0.21689739,-0.26706591,0.259565
0.23294799,-0.28719723,0.348394,0.23377745,-0.2536912,0.312285,0.22519778,-0.26601264,0.341932,0.21248009,-0.22584782,0.327274,0.22050598,-0.19802754,0.325424,0.23265295,-0.18401307,0.325128,0.22562733,-0.2106208,0.287409,0.20943366,-0.18624825,0.250724,0.20133522,-0.17408297,0.232382,0.19398873,-0.16302782,0.215707,0.23719174,-0.23186661,0.28889,0.21525603,-0.20985574,0.249606,0.20254329,-0.19709274,0.226691,0.19351461,-0.18802415,0.210323,0.24622629,-0.25317736,0.294144,0.22363402,-0.23449137,0.2558,0.21214888,-0.22504216,0.236182,0.20176785,-0.21654216,0.218348,0.25568684,-0.28419102,0.306943,0.2460552,-0.26586045,0.273022,0.21797786,-0.2587265,0.257436,0.20317771,-0.26352795,0.254965
0.22362535,-0.27963352,0.34054,0.21821655,-0.24910075,0.30441,0.20925108,-0.25751788,0.332325,0.19206898,-0.2192037,0.319368,0.20551697,-0.1950069,0.319618,0.22078841,-0.18360967,0.323355,0.20579765,-0.20827136,0.27715,0.19643666,-0.19455151,0.241447,0.19174673,-0.18768428,0.223595,0.18747626,-0.18143608,0.207366,0.21963755,-0.23073569,0.281003,0.20651552,-0.20498766,0.241533,0.19064796,-0.19672266,0.218508,0.1806842,-0.18947915,0.202062,0.23086886,-0.2525007,0.288213,0.20601037,-0.23036007,0.249387,0.19334395,-0.21913071,0.229523,0.18187125,-0.20900241,0.211465,0.24334705,-0.28289669,0.303248,0.24245808,-0.24401471,0.270021,0.22178786,-0.24083037,0.254755,0.20829951,-0.24616043,0.25315
0.21345443,-0.28012457,0.341195,0.2025728,-0.24624324,0.304453,0.19934151,-0.25899606,0.334502,0.18393694,-0.21971452,0.317596,0.18996724,-0.19132082,0.314111,0.19355229,-0.17254968,0.307587,0.18831712,-0.20334962,0.278982,0.17180796,-0.17540739,0.241858,0.16124929,-0.16311092,0.223296,0.15023664,-0.15294962,0.206422,0.20230019,-0.22396845,0.280649,0.18368741,-0.19855478,0.24092,0.17286092,-0.18374933,0.217744,0.16514875,-0.17318762,0.201191,0.21398238,-0.24493541,0.286126,0.1886254,-0.21516949,0.247774,0.17563487,-0.19998902,0.228153,0.16383422,-0.18620387,0.210314,0.22752687,-0.27565779,0.299301,0.22476103,-0.23277226,0.266422,0.20436402,-0.2292764,0.251316,0.19199753,-0.23626868,0.249768
0.20338977,-0.27590958,0.338947,0.1864579,-0.24019174,0.300116,0.18712917,-0.25646193,0.33332,0.17015478,-0.21589055,0.317622,0.18110901,-0.18777039,0.31232,0.18424262,-0.16902411,0.305927,0.16676124,-0.20031727,0.275157,0.16369084,-0.16843142,0.238957,0.15028178,-0.1610502,0.220858,0.13807863,-0.15440372,0.204403,0.18093349,-0.21914955,0.274958,0.16374152,-0.19363834,0.23569,0.15356037,-0.17896624,0.212783,0.14345401,-0.17066818,0.196421,0.19354142,-0.23825003,0.279131,0.16776142,-0.2164283,0.239244,0.15458277,-0.20533512,0.218837,0.14058126,-0.1967289,0.200285,0.20956048,-0.26618166,0.291212,0.15292813,-0.2497367,0.256197,0.15262144,-0.24772841,0.260187,0.16465298,-0.25385873,0.274058
0.19077985,-0.27157558,0.33393,0.1739572,-0.2344454,0.294938,0.18188845,-0.25404903,0.331076,0.16043635,-0.21661718,0.317962,0.17152138,-0.18856347,0.313351,0.17456899,-0.16976441,0.307731,0.15892892,-0.19322988,0.273667,0.15257722,-0.16575179,0.236788,0.13769269,-0.15758783,0.218349,0.12413795,-0.15020246,0.201586,0.16836487,-0.21066329,0.269677,0.1474315,-0.18373989,0.229411,0.13522727,-0.16804195,0.205922,0.12387885,-0.15823669,0.189145,0.1770743,-0.22903663,0.270744,0.1511503,-0.20893344,0.230433,0.13788766,-0.19866951,0.209809,0.12293122,-0.19055966,0.19106,0.18869054,-0.25696266,0.279312,0.16738177,-0.2255214,0.244823,0.15278667,-0.21431162,0.228976,0.13668138,-0.21838314,0.223866
0.18145689,-0.26970682,0.333094,0.1632328,-0.23416063,0.294618,0.16797416,-0.25192085,0.330114,0.14916432,-0.21589087,0.316886,0.16085447,-0.18831551,0.312945,0.16406004,-0.16971196,0.307611,0.14839313,-0.1930469,0.273407,0.14199093,-0.16564115,0.236576,0.12715663,-0.15744422,0.218161,0.11357266,-0.15005804,0.20142,0.1580258,-0.21065228,0.269691,0.13682827,-0.18359915,0.229245,0.12446525,-0.16782198,0.205652,0.11308704,-0.15790358,0.1888,0.16684026,-0.22914301,0.270927,0.15125414,-0.19924906,0.230999,0.13432122,-0.18870831,0.210571,0.11336469,-0.18138465,0.192,0.17846128,-0.25713295,0.27959,0.15721638,-0.22612223,0.245437,0.14279674,-0.21500774,0.229745,0.12692311,-0.21960496,0.225146
0.16429794,-0.26360504,0.329961,0.15123784,-0.22754669,0.291568,0.15724951,-0.24565589,0.327975,0.14481934,-0.20248957,0.315106,0.13979177,-0.17074635,0.305715,0.14062755,-0.14999329,0.296338,0.13940724,-0.18890447,0.271741,0.1348063,-0.1509528,0.233872,0.107197,-0.1449768,0.214938,0.083572372,-0.14048807,0.197725,0.1460445,-0.207085,0.266694,0.12591232,-0.17724538,0.22666,0.11288998,-0.16041396,0.203306,0.10358835,-0.14839778,0.186625,0.15228528,-0.22525891,0.266824,0.1288771,-0.19835969,0.226739,0.11690097,-0.18460022,0.206231,0.096069985,-0.17591113,0.187586,0.16086625,-0.25165664,0.27421,0.13963904,-0.22880347,0.238869,0.12988553,-0.21830957,0.222631,0.11422463,-0.22182611,0.218009
0.16215337,-0.25994589,0.329129,0.15134094,-0.22589349,0.290686,0.15556931,-0.24134471,0.326372,0.14332443,-0.20000243,0.320779,0.1459555,-0.17082082,0.318028,0.15157111,-0.15194521,0.313512,0.14034293,-0.18705827,0.269791,0.13286383,-0.1490171,0.232566,0.10578283,-0.13876795,0.213953,0.08327161,-0.13757489,0.197032,0.14648831,-0.20625766,0.26578,0.1252233,-0.1763605,0.225192,0.11198336,-0.15927681,0.201515,0.10313942,-0.14795526,0.185707,0.15231333,-0.2252207,0.266769,0.13110947,-0.19656717,0.226939,0.11688531,-0.18318363,0.206561,0.095716237,-0.17398658,0.188035,0.16035478,-0.25238416,0.275144,0.13873424,-0.22941874,0.239872,0.12879861,-0.21887773,0.223665,0.11751185,-0.21930017,0.219223
0.15454707,-0.25176798,0.325747,0.14726164,-0.22224309,0.287203,0.14906653,-0.2329548,0.322804,0.13420375,-0.19393757,0.317176,0.13651687,-0.16373853,0.312833,0.14606372,-0.14752228,0.308969,0.13483664,-0.18361537,0.26601,0.12840905,-0.14351045,0.228851,0.10163977,-0.13538682,0.210272,0.081283802,-0.13367049,0.193381,0.14092884,-0.20297327,0.262231,0.11589001,-0.17389763,0.221536,0.10270607,-0.15780488,0.19822,0.098905224,-0.14597163,0.182532,0.14302475,-0.22161046,0.263422,0.12553474,-0.19391418,0.223593,0.1072674,-0.17959499,0.203216,0.089545176,-0.16933259,0.184691,0.14981041,-0.24860094,0.272047,0.12480793,-0.2255291,0.236838,0.11330518,-0.21495324,0.220661,0.098055234,-0.20706685,0.206387
0.15409636,-0.25396166,0.330703,0.13722996,-0.21829898,0.29093,0.14881344,-0.23479272,0.327742,0.13467726,-0.19441177,0.320111,0.12748446,-0.16219762,0.313336,0.12946901,-0.14163969,0.305945,0.12739451,-0.17852001,0.269165,0.11322727,-0.14179073,0.232043,0.088496459,-0.13113704,0.213481,0.066441457,-0.12143405,0.196608,0.13160484,-0.19835968,0.265163,0.1300602,-0.16727974,0.225673,0.10607248,-0.15540245,0.202637,0.081161679,-0.14782526,0.186182,0.13601935,-0.21801222,0.266307,0.10569801,-0.19283375,0.225761,0.090176284,-0.17995813,0.205016,0.074093453,-0.16877713,0.186158,0.14270765,-0.24620628,0.275111,0.12018803,-0.22309376,0.239211,0.10938614,-0.21260161,0.222717,0.091635516,-0.20486937,0.208163
0.14703697,-0.25255317,0.334229,0.13553179,-0.22059587,0.294132,0.14237954,-0.23269123,0.330796,0.12781452,-0.19479686,0.322169,0.12096208,-0.16366946,0.314737,0.12639353,-0.14287204,0.307672,0.1230628,-0.18012666,0.271582,0.10760711,-0.14244529,0.234828,0.081452135,-0.1325549,0.216451,0.058431033,-0.12351027,0.199745,0.12685637,-0.20047088,0.268154,0.12322703,-0.16753513,0.229028,0.10029469,-0.15383275,0.206204,0.080196724,-0.14824225,0.189901,0.130934,-0.22065874,0.269808,0.1031761,-0.1918339,0.229464,0.088979197,-0.17708398,0.208823,0.062224367,-0.16703219,0.190059,0.13721503,-0.24961446,0.279254,0.11543578,-0.22518766,0.243267,0.10276298,-0.2146289,0.226732,0.090498631,-0.20743382,0.212142
0.16979206,-0.26810144,0.340839,0.14666361,-0.23054921,0.300282,0.15983945,-0.24770908,0.338633,0.14421909,-0.21343862,0.328675,0.13177976,-0.18380494,0.320711,0.12296135,-0.16323146,0.310895,0.1229719,-0.19159711,0.279191,0.098165888,-0.15473139,0.243384,0.082957823,-0.13838524,0.225481,0.062759237,-0.12710915,0.209205,0.13020041,-0.20857176,0.274006,0.10306458,-0.17216946,0.234123,0.086543082,-0.15132318,0.210858,0.063083317,-0.14476306,0.19424,0.1395431,-0.22548126,0.274265,0.11727524,-0.18707003,0.236484,0.098329611,-0.1709979,0.217155,0.074539426,-0.16095762,0.199583,0.1539184,-0.25322814,0.282206,0.12025932,-0.22161322,0.249296,0.10484247,-0.2070945,0.234176,0.084329394,-0.20130994,0.220834
0.16668815,-0.2646948,0.338958,0.14433246,-0.22914589,0.298049,0.15707189,-0.24460065,0.336536,0.14217835,-0.2126707,0.327956,0.13021268,-0.18351747,0.321275,0.12113725,-0.16292301,0.311932,0.11904097,-0.1906567,0.276507,0.090283889,-0.15209788,0.242606,0.072379948,-0.13524394,0.225655,0.052322464,-0.1230591,0.210246,0.12712242,-0.20736679,0.271545,0.091152888,-0.18240486,0.230053,0.071299914,-0.167449,0.20585,0.051360706,-0.16028063,0.188562,0.13520463,-0.22413172,0.272025,0.11451646,-0.18457912,0.234932,0.091487366,-0.16745752,0.215954,0.070478399,-0.15947883,0.198701,0.1533431,-0.25297065,0.280286,0.11811989,-0.21983481,0.247392,0.10222955,-0.20531986,0.232278,0.08196715,-0.19991048,0.218942
0.16734025,-0.26470281,0.339253,0.1431096,-0.22802416,0.298403,0.15950208,-0.24643053,0.337147,0.14211418,-0.21324901,0.328889,0.13005264,-0.18398015,0.322249,0.12133506,-0.163159,0.312952,0.11591638,-0.1917311,0.277316,0.089445859,-0.15231767,0.243634,0.071761426,-0.13521545,0.226793,0.050786611,-0.12408607,0.211483,0.1262123,-0.20755263,0.271937,0.10174019,-0.1697114,0.231565,0.073634064,-0.15642196,0.208014,0.051055317,-0.15170945,0.191192,0.13503707,-0.22420867,0.272068,0.094203193,-0.19440777,0.234142,0.073274284,-0.17933925,0.214738,0.054263388,-0.16563936,0.197098,0.15282076,-0.25202548,0.279919,0.11729556,-0.21975947,0.247428,0.10122218,-0.20549994,0.2325,0.081068055,-0.20044275,0.219328
0.16545314,-0.26294877,0.338715,0.14109732,-0.22710506,0.297999,0.15780505,-0.24522462,0.336941,0.14062092,-0.21415431,0.329928,0.1286776,-0.1852364,0.32427,0.12025431,-0.16429327,0.315556,0.11484076,-0.19145169,0.277422,0.086976227,-0.1516258,0.243768,0.071027761,-0.13460525,0.22694,0.050016366,-0.12364286,0.211643,0.12360282,-0.2069888,0.27162,0.089954588,-0.16962276,0.232015,0.068987109,-0.15018865,0.208913,0.050782169,-0.13879613,0.192411,0.13426973,-0.22334351,0.271387,0.092235688,-0.19380307,0.233304,0.071080008,-0.1790071,0.213819,0.051886905,-0.16555272,0.196106,0.15011385,-0.24927158,0.278798,0.11469834,-0.21878058,0.24669,0.097950788,-0.20494939,0.231937,0.079529577,-0.20031092,0.21892
0.16374346,-0.26216744,0.341991,0.13617012,-0.22386379,0.300763,0.15567323,-0.24366165,0.339209,0.13519691,-0.20552273,0.334315,0.12074932,-0.17859598,0.330277,0.11058575,-0.15842239,0.322508,0.10875292,-0.18601826,0.278591,0.084072888,-0.14634607,0.244924,0.067884357,-0.13190417,0.22809,0.042759188,-0.12506145,0.212787,0.11864796,-0.20246874,0.274053,0.089992676,-0.17008219,0.233819,0.069270098,-0.15150874,0.210349,0.050914788,-0.14086552,0.193585,0.12993241,-0.21940553,0.274918,0.090397926,-0.19383796,0.236043,0.068992806,-0.179439,0.216154,0.051228175,-0.16638172,0.198072,0.14811101,-0.24447496,0.283678,0.11329138,-0.21940866,0.250592,0.095840199,-0.20651054,0.23539,0.078375147,-0.20265715,0.221977
0.16380773,-0.2612789,0.342733,0.13532698,-0.22375906,0.30172,0.15551986,-0.24339576,0.340543,0.13417789,-0.20631958,0.335248,0.11879324,-0.17928907,0.330597,0.10819485,-0.1588679,0.322283,0.10695786,-0.18619483,0.280446,0.075334138,-0.14644281,0.247375,0.060508046,-0.12728951,0.23084,0.040295039,-0.12451568,0.215808,0.11639321,-0.20219991,0.275148,0.08061545,-0.16763065,0.235203,0.06135435,-0.14809876,0.211901,0.04213173,-0.13809704,0.195257,0.12736065,-0.21884936,0.275364,0.10038138,-0.17839607,0.237827,0.073591328,-0.16918056,0.218621,0.049770542,-0.16475148,0.201162,0.14527771,-0.24372418,0.283343,0.10251951,-0.21857556,0.251373,0.084134634,-0.20723267,0.236684,0.065446293,-0.20354172,0.223723
0.16385973,-0.2606421,0.343251,0.1351034,-0.22335666,0.302511,0.15517512,-0.24332643,0.341569,0.13409675,-0.20665979,0.335764,0.11773195,-0.17979103,0.330679,0.10649535,-0.15947217,0.322112,0.10519913,-0.18457573,0.282047,0.07773894,-0.14560223,0.249525,0.066550604,-0.12382077,0.233264,0.040545069,-0.1208119,0.218482,0.1139875,-0.20007946,0.276116,0.080926938,-0.1658936,0.236567,0.061478717,-0.14273248,0.213497,0.041346803,-0.13682662,0.197018,0.12455375,-0.21656141,0.275779,0.10024716,-0.17634482,0.23869,0.072691323,-0.16416407,0.219715,0.049700378,-0.16301811,0.202464,0.1422265,-0.24163052,0.283076,0.10528233,-0.21169596,0.251487,0.083771294,-0.20563477,0.236973,0.065324908,-0.20221989,0.224166
0.16512907,-0.26087929,0.344545,0.13552433,-0.2235788,0.30405,0.15596688,-0.24404998,0.343272,0.13460425,-0.20723714,0.33672,0.11764173,-0.18019034,0.331015,0.1061048,-0.15980017,0.322078,0.10613619,-0.18488171,0.284249,0.075661261,-0.1470354,0.251758,0.058853513,-0.12631263,0.235512,0.03695494,-0.12352319,0.220743,0.11472535,-0.19996128,0.277814,0.081392107,-0.16300725,0.238588,0.061984511,-0.14235902,0.215705,0.040632911,-0.13403451,0.199361,0.12513926,-0.21613705,0.277035,0.10044429,-0.17330984,0.24062,0.073389636,-0.16403457,0.221989,0.050042137,-0.1606054,0.205051,0.14265711,-0.24093269,0.283781,0.10584536,-0.21088489,0.25248,0.083870193,-0.20308182,0.238098,0.065778042,-0.20172259,0.225409
0.16667015,-0.26087834,0.34498,0.13570147,-0.2234553,0.304605,0.15692015,-0.24442891,0.343892,0.13502265,-0.20778009,0.337124,0.11784797,-0.18073246,0.331242,0.10616449,-0.16037668,0.3222,0.10672998,-0.18489371,0.285109,0.081267335,-0.14434077,0.252984,0.068411832,-0.12448565,0.236921,0.04518643,-0.11861009,0.222319,0.11513482,-0.19972018,0.278446,0.082017186,-0.16305302,0.239389,0.062647119,-0.14243296,0.216605,0.041365542,-0.13407317,0.200332,0.12541558,-0.21574766,0.277466,0.087811721,-0.18187893,0.241007,0.07182406,-0.16474483,0.222354,0.047997377,-0.16062181,0.205396,0.1428144,-0.24047546,0.283961,0.10624448,-0.21059005,0.2528,0.084266281,-0.2028759,0.238483,0.06612709,-0.20132518,0.22585
0.16978763,-0.26178643,0.346311,0.13658705,-0.22361039,0.306124,0.15940453,-0.24576861,0.345515,0.13765946,-0.20989559,0.338901,0.11991003,-0.18396462,0.333117,0.10738509,-0.16221185,0.324077,0.10833582,-0.18542555,0.287109,0.080765081,-0.14619144,0.255283,0.069857531,-0.12547561,0.23937,0.042760262,-0.12243468,0.224904,0.11625488,-0.20075679,0.280088,0.082868754,-0.16436864,0.241268,0.063245736,-0.14375895,0.218623,0.041863084,-0.13542855,0.202448,0.12641136,-0.21656507,0.278792,0.088440745,-0.18331714,0.242333,0.071296079,-0.16614296,0.223679,0.047171112,-0.16169224,0.206721,0.14374638,-0.24108923,0.28489,0.10715209,-0.21160246,0.254131,0.085153379,-0.20525939,0.239999,0.066968173,-0.20246358,0.227529
0.16967484,-0.26123718,0.346794,0.13715395,-0.22397554,0.306638,0.15910145,-0.24534837,0.346043,0.13853589,-0.21077116,0.339434,0.1208647,-0.18489241,0.333669,0.10800483,-0.16314184,0.324654,0.10896016,-0.18600099,0.287697,0.081460592,-0.14656393,0.255878,0.070010061,-0.12610593,0.239968,0.043573813,-0.12245034,0.225505,0.11676911,-0.20104592,0.280622,0.083187002,-0.16477559,0.241834,0.063423901,-0.14414304,0.219208,0.042022999,-0.13579311,0.203047,0.12689501,-0.21680068,0.279278,0.088682132,-0.18386222,0.242862,0.070897506,-0.16680322,0.224231,0.046614887,-0.16216037,0.207293,0.14427062,-0.24133462,0.285316,0.10753945,-0.21189876,0.254556,0.085453134,-0.20536872,0.240423,0.067324579,-0.20260341,0.227953
0.16952101,-0.26078718,0.347358,0.13760666,-0.22430393,0.30716,0.15886434,-0.24488366,0.346542,0.1378905,-0.21068208,0.339635,0.12002839,-0.18420381,0.333616,0.10852883,-0.16331606,0.324465,0.10941866,-0.18632035,0.288112,0.080558931,-0.1476357,0.255912,0.061706033,-0.12992834,0.239812,0.041994169,-0.12384522,0.225175,0.11723982,-0.2012682,0.281116,0.08364028,-0.16495972,0.242276,0.063865094,-0.14424422,0.21962,0.042457064,-0.13586186,0.203436,0.12740017,-0.21707346,0.279842,0.089180345,-0.1841041,0.24333,0.070913066,-0.16713273,0.224649,0.046498955,-0.16232765,0.207667,0.14485596,-0.24174006,0.285967,0.10805988,-0.21221315,0.255108,0.08588567,-0.205526,0.24093,0.067753375,-0.20276526,0.22842
0.16990849,-0.26033611,0.348271,0.13860132,-0.22473527,0.307918,0.15906676,-0.24431413,0.347215,0.14044699,-0.21200938,0.340368,0.12276015,-0.18528934,0.33443,0.11019609,-0.16409227,0.32537,0.11033416,-0.18665283,0.288477,0.081905974,-0.14790435,0.255137,0.06413416,-0.13164194,0.238467,0.040683684,-0.12675289,0.223312,0.11868197,-0.20239451,0.281775,0.084995095,-0.16567888,0.242734,0.065908038,-0.14519851,0.21996,0.043509962,-0.13732437,0.203693,0.12965025,-0.21899633,0.28076,0.091575187,-0.18471548,0.243882,0.073105424,-0.16948689,0.225015,0.047696349,-0.16374788,0.207862,0.1485329,-0.24305567,0.28721,0.11080416,-0.21279095,0.256055,0.088010113,-0.20747009,0.24174,0.069907466,-0.20375666,0.229109
0.1703156,-0.25971465,0.349019,0.13947665,-0.22520295,0.308694,0.15947684,-0.24375,0.348001,0.14115822,-0.21230034,0.340888,0.12324162,-0.18551766,0.334718,0.1108073,-0.16428418,0.32552,0.11124123,-0.18726373,0.289316,0.090233579,-0.14957196,0.254439,0.06809267,-0.13444389,0.237001,0.043199107,-0.12796524,0.221149,0.11950878,-0.2028482,0.282568,0.085985991,-0.1663736,0.243541,0.067024991,-0.14601816,0.220775,0.044314498,-0.13802534,0.204513,0.13056179,-0.21930088,0.281513,0.092678839,-0.18525913,0.244211,0.074427061,-0.17005868,0.225126,0.048340336,-0.1646481,0.207776,0.14949559,-0.24331963,0.287911,0.11025133,-0.21339085,0.256765,0.088066183,-0.20562845,0.242455,0.069382983,-0.2011797,0.229829
0.172798,-0.26144465,0.350801,0.1472415,-0.22640115,0.310871,0.16210391,-0.24582175,0.350324,0.15319037,-0.21775853,0.344092,0.13409491,-0.19241272,0.338794,0.11788373,-0.16874304,0.330116,0.11808229,-0.1901662,0.292403,0.092564641,-0.15168098,0.257971,0.069991337,-0.13693369,0.240755,0.044983794,-0.13023515,0.225104,0.12642322,-0.20371702,0.285001,0.090556185,-0.16844456,0.246405,0.067645303,-0.147317,0.223891,0.045641993,-0.13944967,0.207809,0.1369005,-0.21881897,0.283363,0.097290197,-0.18755431,0.246591,0.074965467,-0.17084569,0.227778,0.049125132,-0.1660101,0.210675,0.15872482,-0.24279847,0.289022,0.11485042,-0.21366506,0.258273,0.09416361,-0.20523978,0.244145,0.07443206,-0.19844568,0.23168
0.17680317,-0.26522864,0.357256,0.14537079,-0.22945671,0.315926,0.16476087,-0.24768467,0.354254,0.14538259,-0.20652022,0.344741,0.12589458,-0.17978558,0.336581,0.11587064,-0.16341844,0.326357,0.11897449,-0.19054749,0.29341,0.093653154,-0.15221248,0.258981,0.079628194,-0.13483487,0.241767,0.051187793,-0.13218848,0.226117,0.12889562,-0.2065692,0.289149,0.098501358,-0.17534281,0.248681,0.079697106,-0.15732237,0.225075,0.05884824,-0.15019818,0.208214,0.14078821,-0.22388053,0.290254,0.10455848,-0.19490919,0.251964,0.085171974,-0.18047342,0.232373,0.06028442,-0.17487189,0.214564,0.16103323,-0.24798502,0.299307,0.12512265,-0.22481394,0.266248,0.10609024,-0.21608896,0.251059,0.089348796,-0.20837164,0.237656
0.17935649,-0.26536321,0.358748,0.15752234,-0.22936861,0.317409,0.16698397,-0.24749305,0.355159,0.15600923,-0.2066586,0.344959,0.1361341,-0.17934904,0.33575,0.12671763,-0.15857986,0.325384,0.13116256,-0.19017013,0.294093,0.10699089,-0.15252758,0.258598,0.086695091,-0.13908728,0.240851,0.063883537,-0.13230043,0.224717,0.14192504,-0.20726483,0.290626,0.10946392,-0.17615884,0.249856,0.09054271,-0.15801632,0.226074,0.069480508,-0.15083828,0.209086,0.15399616,-0.22472362,0.292387,0.11571739,-0.19608245,0.253502,0.096135141,-0.18142839,0.233607,0.070759088,-0.1756704,0.215521,0.17316685,-0.25031758,0.302189,0.13665201,-0.22658812,0.26836,0.11734127,-0.21759992,0.252817,0.1003713,-0.20964483,0.239103
0.18606257,-0.26172568,0.358691,0.17041391,-0.22611475,0.317236,0.17973369,-0.24314792,0.354838,0.16590795,-0.20533023,0.344477,0.14543556,-0.17810099,0.33503,0.13647939,-0.15717578,0.324742,0.14081587,-0.18965598,0.293511,0.10863926,-0.15797939,0.256625,0.091275871,-0.14300856,0.238182,0.074809385,-0.12988606,0.221415,0.15209049,-0.20687262,0.290378,0.11974334,-0.17591224,0.249392,0.097378726,-0.16023367,0.225484,0.071806388,-0.1529819,0.208407,0.16456749,-0.22441752,0.292427,0.12593831,-0.19579575,0.253361,0.10618226,-0.18115164,0.233374,0.080428812,-0.1757488,0.215204,0.18416861,-0.25007818,0.302579,0.1471279,-0.22667913,0.268603,0.12764779,-0.21782355,0.252992,0.11053082,-0.20998204,0.239218
0.19925466,-0.25646814,0.359282,0.18094272,-0.2260194,0.317753,0.19172915,-0.2390056,0.355386,0.17671255,-0.20541495,0.344945,0.15628716,-0.17812297,0.335557,0.14736486,-0.15720171,0.325435,0.15114703,-0.18917936,0.293936,0.12093109,-0.15590876,0.257304,0.10452024,-0.14012143,0.238987,0.088896194,-0.12624623,0.222336,0.16238204,-0.20644369,0.290848,0.12971171,-0.17500795,0.24985,0.10715867,-0.15905458,0.225934,0.083758821,-0.15432413,0.208851,0.17489122,-0.2241207,0.292942,0.13599669,-0.19511276,0.253974,0.11610286,-0.18027049,0.234036,0.089942421,-0.17484529,0.215912,0.1946275,-0.25007,0.303159,0.15731104,-0.22630851,0.26923,0.13766728,-0.21730746,0.25364,0.12040301,-0.20933965,0.239885
0.20957358,-0.25620431,0.359237,0.19147345,-0.22598455,0.317704,0.20225269,-0.23892614,0.355322,0.18258153,-0.20726598,0.343301,0.15856728,-0.18208034,0.332949,0.14638036,-0.15853958,0.32184,0.16163174,-0.18913109,0.293861,0.13138857,-0.1558409,0.257192,0.11249893,-0.14179899,0.238857,0.091105124,-0.12840727,0.222189,0.17290387,-0.20640678,0.290796,0.14021647,-0.17496662,0.249791,0.11765232,-0.15901023,0.225871,0.093963856,-0.15427536,0.208785,0.18544739,-0.22409622,0.29291,0.14654575,-0.19508203,0.253934,0.12664841,-0.1802366,0.233992,0.10014709,-0.17480642,0.215864,0.20522621,-0.2500634,0.303151,0.16790106,-0.22628917,0.269207,0.14821783,-0.21728261,0.253611,0.13091519,-0.20930911,0.23985
0.22609954,-0.25726247,0.360358,0.20229423,-0.22586618,0.318799,0.21380369,-0.2399164,0.356741,0.19303839,-0.20716686,0.342986,0.16844161,-0.18127265,0.331441,0.15633508,-0.16040169,0.319367,0.17293505,-0.18800868,0.295348,0.13477169,-0.1566048,0.258949,0.11917584,-0.14062885,0.240749,0.094266969,-0.13471723,0.224204,0.18345163,-0.20536097,0.291875,0.15027,-0.17372776,0.251037,0.12739347,-0.15755718,0.227214,0.10291529,-0.15291385,0.210199,0.19544553,-0.22331811,0.293655,0.15686552,-0.19512895,0.254509,0.13711302,-0.18070851,0.234481,0.10974124,-0.17567334,0.216273,0.21470741,-0.24991553,0.30352,0.17967673,-0.21849041,0.27002,0.1547458,-0.21312846,0.254628,0.13866193,-0.20951524,0.241047
0.23611348,-0.2573237,0.359475,0.21228672,-0.22611405,0.317925,0.22399247,-0.23988918,0.355951,0.20339769,-0.20779511,0.342654,0.17899511,-0.18211049,0.331466,0.16685242,-0.16125277,0.319434,0.18281773,-0.18849594,0.294604,0.14749186,-0.15677171,0.258438,0.12947062,-0.14116467,0.240354,0.10435357,-0.13813847,0.223915,0.19342116,-0.20561726,0.291006,0.16032937,-0.17394359,0.250223,0.13749472,-0.15779567,0.226433,0.11280873,-0.15320727,0.20944,0.20548265,-0.22336734,0.292683,0.16694847,-0.19525226,0.253641,0.14722265,-0.18086938,0.233666,0.11958999,-0.17590609,0.215507,0.22481858,-0.24971194,0.302429,0.1846961,-0.22921176,0.268354,0.16163419,-0.22296005,0.252698,0.14036307,-0.21822364,0.238884
0.24671486,-0.2577595,0.359479,0.22289185,-0.2261297,0.317947,0.2345345,-0.24038764,0.355996,0.21398262,-0.20783756,0.342724,0.18956646,-0.1821506,0.331539,0.17737658,-0.16129113,0.31951,0.19341468,-0.18855097,0.29469,0.15807685,-0.15682146,0.25852,0.14004917,-0.14121225,0.240435,0.11454549,-0.13818721,0.223994,0.20402253,-0.20564129,0.29104,0.17093863,-0.17398321,0.25028,0.14810373,-0.15784445,0.226503,0.12309732,-0.15326579,0.20952,0.21608456,-0.22335818,0.292671,0.17754523,-0.19522532,0.253606,0.15781887,-0.180833,0.233619,0.12977673,-0.17585957,0.21545,0.23541604,-0.24965579,0.302361,0.19517309,-0.22903324,0.268145,0.1719217,-0.22271741,0.252423,0.1503659,-0.21792035,0.238552
0.25204615,-0.2577889,0.35952,0.23352342,-0.22616953,0.318003,0.24511512,-0.24038696,0.355995,0.22444604,-0.20776358,0.342602,0.20000966,-0.18206983,0.331392,0.18779814,-0.16123712,0.319403,0.20396171,-0.18855417,0.294695,0.16862415,-0.15682995,0.258534,0.15059535,-0.14122282,0.240453,0.1247134,-0.1382014,0.224017,0.21464924,-0.20568721,0.291105,0.18154113,-0.17401171,0.250321,0.15868916,-0.15786327,0.22653,0.13335366,-0.15327823,0.209537,0.22678243,-0.22344442,0.292784,0.18817096,-0.19523148,0.253614,0.16841155,-0.18079739,0.233573,0.13993336,-0.17578202,0.215355,0.24619833,-0.24979203,0.302526,0.2057893,-0.22902812,0.268139,0.18232443,-0.2226433,0.252339,0.16046015,-0.21777967,0.238398
0.28474921,-0.2586286,0.358302,0.25427503,-0.22521412,0.317227,0.27394987,-0.24139617,0.355939,0.24242708,-0.23603387,0.333775,0.21991148,-0.22014842,0.322145,0.20577018,-0.19856382,0.306091,0.22608048,-0.1870791,0.295691,0.18213287,-0.15673823,0.262685,0.15728165,-0.1430743,0.246182,0.13171912,-0.14123474,0.231179,0.23452469,-0.20357652,0.290615,0.20223563,-0.17382852,0.250236,0.18000436,-0.15841479,0.226681,0.15433766,-0.15324615,0.209856,0.24495859,-0.22101517,0.291021,0.20836228,-0.19421973,0.252595,0.18939942,-0.18064813,0.232935,0.15989104,-0.17542048,0.215063,0.26269306,-0.24735917,0.299227,0.22356197,-0.22319817,0.266789,0.19851096,-0.21690368,0.251885,0.17579609,-0.21209902,0.238734
0.29040866,-0.25897002,0.358775,0.2652693,-0.22560956,0.317784,0.27960216,-0.24173256,0.356435,0.25331576,-0.23619935,0.334009,0.23101478,-0.22019079,0.322207,0.21676942,-0.19857485,0.306108,0.23705279,-0.1874739,0.296315,0.19288557,-0.15701747,0.263153,0.17090235,-0.14184298,0.246571,0.14468974,-0.14011746,0.231498,0.24555021,-0.20400452,0.291226,0.21103154,-0.17569786,0.250984,0.18749822,-0.16112724,0.227509,0.15806274,-0.15508782,0.210741,0.25602278,-0.22146401,0.291612,0.21918572,-0.19442733,0.252865,0.20010633,-0.18072956,0.23304,0.17005561,-0.1753846,0.215019,0.27378744,-0.24781632,0.29978,0.23446083,-0.22349015,0.267138,0.20910534,-0.21712327,0.25214,0.18600331,-0.21225272,0.238907
0.18897875,-0.24729158,0.307175,0.22646997,-0.23302623,0.323818,0.18273126,-0.229161,0.307389,0.20989031,-0.20763606,0.313239,0.22890952,-0.18853791,0.323769,0.25043728,-0.18443332,0.327018,0.23322474,-0.20898591,0.331536,0.2587176,-0.20392392,0.338043,0.24504285,-0.21712287,0.341297,0.2381597,-0.23843949,0.357477,0.2486161,-0.22935616,0.3346,0.27940897,-0.22716988,0.343814,0.26242696,-0.24484234,0.349188,0.25615719,-0.26609564,0.36565,0.25762274,-0.2474444,0.335266,0.2875072,-0.24596739,0.342906,0.27208012,-0.26006131,0.346814,0.26538143,-0.28252184,0.364357,0.26166997,-0.27070386,0.332888,0.28178941,-0.26391552,0.338303,0.27034535,-0.2776003,0.340792,0.25969648,-0.29234986,0.344811
0.1789648,-0.22863686,0.28541,0.22216372,-0.2239206,0.311866,0.1744118,-0.21307058,0.287389,0.19964011,-0.20585115,0.29271,0.21773959,-0.18495641,0.304161,0.23502631,-0.17418272,0.315083,0.23568019,-0.20368559,0.326355,0.27125338,-0.20553214,0.342577,0.26164702,-0.2214801,0.350687,0.24979553,-0.24397461,0.367559,0.24711596,-0.22461569,0.329006,0.29182532,-0.22979325,0.348915,0.28034184,-0.25143421,0.360529,0.26926368,-0.27384456,0.377754,0.25457357,-0.24139219,0.328234,0.29763688,-0.24763287,0.346191,0.28712287,-0.26523982,0.355378,0.27626449,-0.28874279,0.373712,0.25548018,-0.26126385,0.322367,0.28748465,-0.26205514,0.337137,0.28006987,-0.27875067,0.343924,0.27343433,-0.30266196,0.358148
0.24034543,-0.26824692,0.365091,0.26587203,-0.24304944,0.351553,0.22968769,-0.25983209,0.358373,0.22559969,-0.23837366,0.337689,0.22316749,-0.21453901,0.322488,0.22832706,-0.19683657,0.315054,0.25916068,-0.19863872,0.336404,0.24881787,-0.18629376,0.314826,0.25043204,-0.20995925,0.331621,0.25569346,-0.23436038,0.346845,0.27995519,-0.21900817,0.342781,0.26089118,-0.21385134,0.321946,0.25499964,-0.24351012,0.343019,0.26201124,-0.25435876,0.358583,0.29522364,-0.24044712,0.349548,0.28901314,-0.22780505,0.327626,0.283108,-0.22316504,0.31641,0.28926342,-0.23509298,0.324882,0.30909408,-0.27321779,0.359819,0.29912825,-0.25787352,0.339251,0.29428537,-0.27055778,0.348461,0.28995246,-0.28705921,0.36283
0.26177126,-0.27645002,0.377169,0.28110778,-0.23871215,0.354175,0.2496815,-0.25601649,0.36944,0.25695645,-0.23606226,0.3577,0.25678682,-0.21156111,0.342445,0.26297418,-0.19647328,0.333381,0.26946966,-0.19302818,0.333436,0.248785,-0.17397628,0.304695,0.25901279,-0.17852092,0.315284,0.26497919,-0.20393153,0.333053,0.29005617,-0.21309805,0.339278,0.25982007,-0.20649707,0.310056,0.25429177,-0.23320078,0.327912,0.26138424,-0.24360222,0.344088,0.30591308,-0.23448357,0.34666,0.29118187,-0.21935435,0.316954,0.28228762,-0.2131536,0.301755,0.28536672,-0.22511608,0.306039,0.32176121,-0.26728644,0.359415,0.30268894,-0.25681311,0.3321,0.30218884,-0.27255186,0.342717,0.29745981,-0.28767308,0.35708
0.27182385,-0.27847109,0.384638,0.29645654,-0.24176129,0.361452,0.2608581,-0.25730028,0.376722,0.25111124,-0.2182551,0.363992,0.24596666,-0.19014398,0.362742,0.24431685,-0.16932779,0.357437,0.286674,-0.19665624,0.340373,0.27676882,-0.18616167,0.312558,0.27220829,-0.18107596,0.29865,0.26511714,-0.19403436,0.302749,0.30682511,-0.21773908,0.34643,0.28489844,-0.21337135,0.317031,0.27683719,-0.23792758,0.334718,0.28227448,-0.24674576,0.350905,0.32192394,-0.23954065,0.354011,0.30353078,-0.23480719,0.324072,0.26876542,-0.23136867,0.308755,0.2619405,-0.23055744,0.312861,0.336353,-0.27205689,0.367028,0.31812735,-0.2634546,0.339532,0.30055968,-0.26225473,0.326899,0.28739712,-0.27015979,0.329446
0.2986227,-0.28566825,0.396466,0.30447724,-0.24528584,0.367521,0.28224576,-0.26291178,0.386764,0.26009284,-0.22437672,0.368503,0.24983072,-0.19861769,0.367204,0.2444757,-0.17331707,0.358942,0.28698498,-0.19885844,0.341451,0.27109687,-0.18164668,0.307835,0.25977249,-0.17180132,0.291028,0.25434312,-0.18570523,0.291171,0.3097268,-0.21939342,0.348768,0.28294523,-0.21236006,0.314567,0.27821192,-0.24025439,0.328427,0.28656468,-0.25088459,0.345149,0.327936,-0.24112727,0.35803,0.29275273,-0.24271008,0.323344,0.28580684,-0.25931908,0.335155,0.2966168,-0.26585591,0.353879,0.35211266,-0.27114567,0.374051,0.30195614,-0.26748228,0.342514,0.27384045,-0.25928179,0.328025,0.26998531,-0.25402839,0.32757
0.29542708,-0.28081002,0.392365,0.31213237,-0.23648632,0.369465,0.27995836,-0.25856913,0.383116,0.26354176,-0.2128057,0.369857,0.25529932,-0.18373337,0.366274,0.26046815,-0.16749568,0.368944,0.30042796,-0.19149548,0.346706,0.28643596,-0.17994459,0.317483,0.27973754,-0.1742898,0.302872,0.27632216,-0.18811761,0.306116,0.32246504,-0.21303385,0.354628,0.29882749,-0.21183347,0.32542,0.29357974,-0.23978307,0.342429,0.29879842,-0.24987553,0.358333,0.33913425,-0.23514106,0.363713,0.32860345,-0.21419932,0.333392,0.31530795,-0.21407665,0.31788,0.30733684,-0.23379085,0.321403,0.35576537,-0.27104124,0.378393,0.31522246,-0.26418527,0.35072,0.29031441,-0.25810087,0.338005,0.28300636,-0.26140466,0.34014
0.30022379,-0.28108626,0.396197,0.31456493,-0.23633699,0.372546,0.28483457,-0.2586335,0.386376,0.26444535,-0.21289419,0.371356,0.25560292,-0.18435083,0.368103,0.25986906,-0.16759157,0.370352,0.30119818,-0.19105694,0.348677,0.28718072,-0.17992661,0.318727,0.28009421,-0.17480488,0.303751,0.27681016,-0.18822875,0.30636,0.32409939,-0.21239787,0.357223,0.32550937,-0.18205678,0.327376,0.33104096,-0.20931473,0.343121,0.33025409,-0.22987368,0.359171,0.34163844,-0.23443224,0.366906,0.32908171,-0.21556861,0.335793,0.32049504,-0.2071391,0.319875,0.31816199,-0.22558925,0.32271,0.35908466,-0.26718913,0.382409,0.31894296,-0.26411939,0.354118,0.29378036,-0.25810185,0.341119,0.28878388,-0.25845691,0.342731
0.30936323,-0.2859314,0.404424,0.31745299,-0.23682116,0.375448,0.28855849,-0.26202919,0.393611,0.26909315,-0.21705792,0.376094,0.25643632,-0.18649879,0.369079,0.25957674,-0.16939736,0.370807,0.29741493,-0.18784933,0.34786,0.28795122,-0.16622904,0.31508,0.28437401,-0.15602661,0.29869,0.28065083,-0.16601343,0.298478,0.32193097,-0.20734541,0.356676,0.31558686,-0.17055288,0.32249,0.32346954,-0.19415148,0.335399,0.32456177,-0.22149801,0.351817,0.34218538,-0.22517706,0.367176,0.33646046,-0.19754739,0.331883,0.31078275,-0.201427,0.313826,0.29506548,-0.21075325,0.313275,0.36612504,-0.25781225,0.384616,0.32360727,-0.25148935,0.352851,0.29450125,-0.24441604,0.338256,0.28546062,-0.24230674,0.337236
0.30412846,-0.2835368,0.403643,0.32678019,-0.24149179,0.389079,0.29279218,-0.26508927,0.399644,0.27678696,-0.22404493,0.387793,0.26267512,-0.19320617,0.379393,0.26101436,-0.17080863,0.374052,0.31664226,-0.1982881,0.377159,0.30705252,-0.18185352,0.356741,0.30258847,-0.17338771,0.346533,0.30048668,-0.18880337,0.355066,0.33611061,-0.21553081,0.379644,0.33453276,-0.19384568,0.358213,0.33467986,-0.18075437,0.345847,0.33540515,-0.17115125,0.337097,0.35033557,-0.23425306,0.383318,0.3532775,-0.21622223,0.362264,0.35572486,-0.20677848,0.351493,0.35763681,-0.22001543,0.36069,0.36485716,-0.26632055,0.390254,0.33392248,-0.25442108,0.369947,0.31258993,-0.25821189,0.360617,0.31038804,-0.26406575,0.367056
0.30123958,-0.28658695,0.404342,0.3084242,-0.24541201,0.382163,0.29383966,-0.26535718,0.40088,0.26877749,-0.23350595,0.389012,0.25690231,-0.20296138,0.381314,0.24972732,-0.18190821,0.369462,0.29783691,-0.20222966,0.367572,0.2914867,-0.16573824,0.341869,0.28838939,-0.14737332,0.329018,0.28896386,-0.15096855,0.334697,0.31520634,-0.21778092,0.367795,0.3152006,-0.18307982,0.339853,0.31143875,-0.16174918,0.323554,0.30962666,-0.14761929,0.311912,0.3287324,-0.23567069,0.370455,0.3349254,-0.20383394,0.343201,0.33604839,-0.18770852,0.329257,0.33938288,-0.19440437,0.335197,0.34260127,-0.26492795,0.377672,0.35267829,-0.23057864,0.354024,0.35136088,-0.22017749,0.343159,0.35183158,-0.22806489,0.347992
0.30351263,-0.2883938,0.407368,0.31522218,-0.24244682,0.38565,0.29419367,-0.26638643,0.402336,0.26921295,-0.23392418,0.390768,0.24911092,-0.20516937,0.380026,0.24479029,-0.18502627,0.376031,0.29902312,-0.20050096,0.369135,0.28857378,-0.16160349,0.342952,0.28346915,-0.14327084,0.32986,0.28681334,-0.14995213,0.335385,0.31921461,-0.21351575,0.371579,0.31700346,-0.17843047,0.3438,0.31553437,-0.15817897,0.327596,0.31417594,-0.14654711,0.316022,0.33537546,-0.23151132,0.376018,0.33753854,-0.19430028,0.348943,0.33739959,-0.17668889,0.335091,0.34434436,-0.18178843,0.341073,0.35260317,-0.2609861,0.385176,0.36061832,-0.22447999,0.36192,0.35986312,-0.21354107,0.351235,0.36196336,-0.2219073,0.356116
0.30246338,-0.28787674,0.406494,0.31234642,-0.244727,0.386676,0.292394,-0.26624311,0.401353,0.25976814,-0.23667885,0.385857,0.24827457,-0.20782923,0.382188,0.24664324,-0.18942673,0.381425,0.29904564,-0.20107416,0.370864,0.2844117,-0.16794047,0.345969,0.27846511,-0.15161323,0.333521,0.28761191,-0.14781821,0.339785,0.31960598,-0.21725726,0.373837,0.31359805,-0.17738891,0.347619,0.31159543,-0.15484944,0.332325,0.30970334,-0.13940418,0.3214,0.33574221,-0.23324824,0.3785,0.33504717,-0.19260911,0.352909,0.33459625,-0.17325424,0.339816,0.34625824,-0.18130668,0.346631,0.35309751,-0.26268018,0.387555,0.36169812,-0.22585899,0.365866,0.36180313,-0.21455815,0.355901,0.36522069,-0.2230671,0.361489
0.30462376,-0.28785132,0.408255,0.31148883,-0.24617222,0.389237,0.29166371,-0.26988606,0.404637,0.26047492,-0.23949625,0.390469,0.24186831,-0.21133086,0.384666,0.24454122,-0.19382236,0.386484,0.29387607,-0.20095712,0.375845,0.28404468,-0.1662999,0.352328,0.27926198,-0.14862937,0.34057,0.28972641,-0.13941468,0.34754,0.31379328,-0.21452208,0.376916,0.31355426,-0.17416221,0.351672,0.31281697,-0.15118437,0.336947,0.3132852,-0.13824352,0.326428,0.32961045,-0.23093691,0.379922,0.33140491,-0.19383517,0.355293,0.33040542,-0.17675483,0.342693,0.34671912,-0.17558242,0.350117,0.34641629,-0.25881423,0.386936,0.35707904,-0.22316546,0.366004,0.35415928,-0.21001224,0.356386,0.36022688,-0.2199522,0.362468
0.30743307,-0.29077461,0.411101,0.31633859,-0.25200907,0.39427,0.2909916,-0.27666001,0.406631,0.26394963,-0.25294464,0.391043,0.24700892,-0.22818006,0.38832,0.24132074,-0.21026236,0.387377,0.29380146,-0.21708732,0.3807,0.2805671,-0.16867802,0.358364,0.27540143,-0.15132924,0.347197,0.28536441,-0.14781478,0.3548,0.31758324,-0.22553147,0.383366,0.31483522,-0.18057834,0.359854,0.31326728,-0.1548578,0.346138,0.31677352,-0.13782424,0.336341,0.33809223,-0.23727083,0.387443,0.33719493,-0.19800373,0.364255,0.33395474,-0.17671719,0.352391,0.33452241,-0.15961344,0.342516,0.35667736,-0.25894445,0.395266,0.34974846,-0.25545035,0.37454,0.33090235,-0.26236754,0.365017,0.32874115,-0.26773838,0.371199
0.30887396,-0.29175183,0.412972,0.31656035,-0.25229322,0.397255,0.28990463,-0.2790585,0.407314,0.2619961,-0.25317996,0.391665,0.24203627,-0.23358396,0.393168,0.23095295,-0.21506072,0.387405,0.2865923,-0.212774,0.382571,0.27432696,-0.16904283,0.360383,0.26818901,-0.14722148,0.34929,0.26330947,-0.13617686,0.339205,0.31294903,-0.22047535,0.387072,0.3084187,-0.17395234,0.364384,0.30626324,-0.15026516,0.35115,0.3049194,-0.13498297,0.341696,0.33473963,-0.23217244,0.392537,0.3343791,-0.18997504,0.370847,0.33452483,-0.17049648,0.35975,0.33482605,-0.15255969,0.349662,0.35975877,-0.25468012,0.401734,0.35817059,-0.21100635,0.383191,0.35787399,-0.20475268,0.374672,0.37184498,-0.20696417,0.381498
0.30502072,-0.29101872,0.408726,0.31353348,-0.25214327,0.397513,0.28796443,-0.27870363,0.404976,0.25852653,-0.25472447,0.393355,0.23856606,-0.23376414,0.391958,0.22617549,-0.21423213,0.384603,0.28975583,-0.21529026,0.387426,0.27574527,-0.16894719,0.36962,0.26897853,-0.14624884,0.360717,0.26456307,-0.13757352,0.352624,0.31485872,-0.2226354,0.390248,0.3138772,-0.17705893,0.371871,0.31425678,-0.15072748,0.363493,0.31525549,-0.13231074,0.357508,0.33493201,-0.23370258,0.393826,0.33671732,-0.18962036,0.38096,0.33924494,-0.16895534,0.374377,0.34168199,-0.14988024,0.368393,0.35687918,-0.25480832,0.400022,0.35915646,-0.21348113,0.384895,0.36082806,-0.20671878,0.377945,0.37641757,-0.20959087,0.386321
0.30608604,-0.2962781,0.411623,0.31447527,-0.25586694,0.403347,0.28998104,-0.28754793,0.405971,0.25518644,-0.26062993,0.390436,0.23260911,-0.24080618,0.38806,0.22017342,-0.22127688,0.380828,0.28366891,-0.2198181,0.391991,0.26939118,-0.17525463,0.375371,0.26467466,-0.15724479,0.367061,0.26042408,-0.14045592,0.359507,0.31111752,-0.22591109,0.397956,0.30459672,-0.17809475,0.382067,0.30194328,-0.15187261,0.372798,0.30126007,-0.13537827,0.366178,0.33385259,-0.23608983,0.403788,0.33373949,-0.19381199,0.388661,0.33380949,-0.17183482,0.380921,0.33395701,-0.15163032,0.373885,0.36014328,-0.25659561,0.411999,0.3595372,-0.21585222,0.400719,0.36304455,-0.20822958,0.395536,0.37945625,-0.20843616,0.404812
0.30777562,-0.29760165,0.412593,0.31485502,-0.25706829,0.405747,0.29203173,-0.29001595,0.407903,0.25798573,-0.26449045,0.393169,0.23350178,-0.24815363,0.388851,0.21924388,-0.2303408,0.383337,0.28051446,-0.22445026,0.396326,0.26439441,-0.18052846,0.384613,0.26195663,-0.16545831,0.378757,0.25981188,-0.15119616,0.373432,0.30723697,-0.22617572,0.401274,0.30333524,-0.17969065,0.387878,0.30157211,-0.15310816,0.380064,0.30042226,-0.13414282,0.374483,0.32970388,-0.23265205,0.40611,0.32741532,-0.18844049,0.39309,0.32781509,-0.16764402,0.386429,0.32831497,-0.14833565,0.380374,0.35626095,-0.24857515,0.412914,0.35695051,-0.20846927,0.40347,0.36161789,-0.19796601,0.399131,0.3788567,-0.19498119,0.40913
0.30932465,-0.29886762,0.412393,0.31249032,-0.25749655,0.40581,0.29249315,-0.29120633,0.407917,0.25931907,-0.26783192,0.39359,0.23355813,-0.24883603,0.388556,0.21994002,-0.23152332,0.384045,0.28005862,-0.22617233,0.396798,0.26283893,-0.18103291,0.38294,0.25976225,-0.16624298,0.37601,0.25703959,-0.15229348,0.369711,0.30666628,-0.22745721,0.401509,0.30216963,-0.18090427,0.388396,0.29979475,-0.15405955,0.380747,0.29814839,-0.13491581,0.375284,0.32905451,-0.23356,0.406121,0.32594129,-0.18852562,0.393518,0.32644382,-0.16785699,0.387071,0.32721126,-0.1489569,0.381209,0.35554648,-0.24902196,0.41262,0.35681024,-0.20918429,0.403698,0.36174022,-0.19866267,0.399599,0.37919619,-0.19579711,0.409783
0.31147173,-0.30093179,0.41489,0.31102415,-0.25893077,0.407893,0.29430274,-0.29388076,0.410331,0.25929251,-0.26904421,0.394384,0.23308325,-0.24974517,0.388831,0.21986305,-0.23304696,0.385347,0.27306498,-0.22925883,0.398573,0.26168851,-0.1840268,0.385336,0.25599953,-0.16799548,0.378717,0.2572927,-0.15375065,0.372701,0.29951028,-0.22893484,0.403297,0.29235569,-0.18237214,0.389894,0.29110159,-0.15689388,0.385905,0.29022501,-0.13843677,0.383056,0.3223598,-0.2337089,0.407963,0.32360612,-0.1893911,0.3961,0.32426134,-0.16848165,0.390031,0.32514254,-0.14939355,0.384513,0.35047064,-0.24771951,0.414602,0.35682019,-0.21026104,0.407096,0.35915305,-0.19680987,0.403648,0.3798305,-0.19469123,0.414206
0.31044088,-0.30109466,0.412793,0.31001033,-0.25922115,0.407802,0.29241059,-0.29293886,0.407846,0.25793821,-0.2707271,0.394419,0.23058339,-0.2531011,0.389632,0.21831109,-0.2353286,0.38569,0.2739164,-0.22969192,0.398864,0.25920292,-0.18566726,0.387016,0.25582491,-0.16911564,0.381091,0.25647888,-0.15734001,0.375706,0.30109729,-0.2303163,0.404523,0.29627157,-0.18446715,0.39355,0.29347653,-0.15772688,0.387149,0.29461186,-0.13842431,0.382577,0.32434805,-0.23576923,0.409738,0.32317983,-0.19124833,0.39971,0.3241453,-0.16999363,0.39458,0.32511456,-0.15033332,0.389916,0.35448896,-0.25095254,0.416628,0.35575731,-0.21225732,0.410767,0.36079309,-0.19880706,0.408074,0.37742425,-0.19271338,0.418996
