sluyters/QuantumLeap/backend/src/datasets/dynamic/HandGestureDataset_SHREC2017_csv/Gesture8/finger_2/subject_25_essai_5_skeletons_world.csv
Wrist_x,Wrist_y,Wrist_z,Palm_x,Palm_y,Palm_z,thumb_base_x,thumb_base_y,thumb_base_z,thumb_first_joint_x,thumb_first_joint_y,thumb_first_joint_z,thumb_second_joint_x,thumb_second_joint_y,thumb_second_joint_z,thumb_tip_x,thumb_tip_y,thumb_tip_z,index_base_x,index_base_y,index_base_z,index_first_joint_x,index_first_joint_y,index_first_joint_z,index_second_joint_x,index_second_joint_y,index_second_joint_z,index_tip_x,index_tip_y,index_tip_z,middle_base_x,middle_base_y,middle_base_z,middle_first_joint_x,middle_first_joint_y,middle_first_joint_z,middle_second_joint_x,middle_second_joint_y,middle_second_joint_z,middle_tip_x,middle_tip_y,middle_tip_z,ring_base_x,ring_base_y,ring_base_z,ring_first_joint_x,ring_first_joint_y,ring_first_joint_z,ring_second_joint_x,ring_second_joint_y,ring_second_joint_z,ring_tip_x,ring_tip_y,ring_tip_z,pinky_base_x,pinky_base_y,pinky_base_z,pinky_first_joint_x,pinky_first_joint_y,pinky_first_joint_z,pinky_second_joint_x,pinky_second_joint_y,pinky_second_joint_z,pinky_tip_x,pinky_tip_y,pinky_tip_z,
0.385486959,-0.328138942,0.446112,0.37330149,-0.279666907,0.430942,0.364819625,-0.318769304,0.44441,0.32915973,-0.301565516,0.43215,0.293358499,-0.281226219,0.416612,0.27764191,-0.265641471,0.413537,0.339492088,-0.239029645,0.419709,0.317919975,-0.203411015,0.401707,0.307087221,-0.18549516,0.392706,0.297193432,-0.169013056,0.384536,0.362818932,-0.238362321,0.417903,0.345408235,-0.191684753,0.397016,0.336162229,-0.167945958,0.384832,0.33107186,-0.151538572,0.378731,0.383221798,-0.242583104,0.417929,0.369595934,-0.197573992,0.401386,0.363820178,-0.18091958,0.392922,0.358651535,-0.165497062,0.385228,0.409127764,-0.255869569,0.42061,0.409301199,-0.228988737,0.404495,0.409628932,-0.216593217,0.397091,0.410060354,-0.205792062,0.390558
0.390144517,-0.33219849,0.451681,0.375134885,-0.281225014,0.433058,0.36896208,-0.322428995,0.449572,0.332176729,-0.304068887,0.435856,0.293586219,-0.28091494,0.416395,0.275682831,-0.263037274,0.409849,0.3392407,-0.238999027,0.419243,0.315908174,-0.2017728,0.398702,0.304236737,-0.183195627,0.388431,0.293598166,-0.166200018,0.379094,0.362211379,-0.238184609,0.417051,0.346278474,-0.192177138,0.397606,0.337462656,-0.168697792,0.386262,0.33118249,-0.151654814,0.37816,0.382585913,-0.242461867,0.417104,0.36771333,-0.196809666,0.399162,0.361270684,-0.179789983,0.389983,0.355486267,-0.16408507,0.381638,0.409010068,-0.25614518,0.42042,0.406482805,-0.227746107,0.401736,0.405501711,-0.214692739,0.393151,0.404732227,-0.203354075,0.385576
0.390025667,-0.332349405,0.451186,0.375071825,-0.281456435,0.432849,0.36896599,-0.322698918,0.449261,0.33217617,-0.303943535,0.435633,0.29387704,-0.280869866,0.416369,0.276034253,-0.262980542,0.409835,0.339372319,-0.239432078,0.419441,0.316419077,-0.202262975,0.399086,0.304925111,-0.183644149,0.388908,0.294448788,-0.166608902,0.379656,0.362200165,-0.238487872,0.417088,0.346420832,-0.192631557,0.397613,0.337622784,-0.168923381,0.386253,0.331353361,-0.15173167,0.378138,0.382448064,-0.242648683,0.416978,0.367820976,-0.197206807,0.399191,0.361385247,-0.179877395,0.390091,0.355603192,-0.163894103,0.381818,0.408713474,-0.256181414,0.420055,0.406276912,-0.227782015,0.40155,0.405341393,-0.214680748,0.393047,0.404619839,-0.203209804,0.385545
0.390207486,-0.332756375,0.451039,0.375249591,-0.281868361,0.432918,0.369248147,-0.323212061,0.449289,0.332415509,-0.304037892,0.435725,0.294351178,-0.281000222,0.416603,0.276518224,-0.263050201,0.410018,0.33968843,-0.239995007,0.419867,0.317067955,-0.202841347,0.399644,0.305729554,-0.184162584,0.389533,0.295394852,-0.167071769,0.380341,0.362377364,-0.238914969,0.417342,0.346799425,-0.193217565,0.397891,0.338045897,-0.169280431,0.386545,0.331807762,-0.151938385,0.37844,0.382511083,-0.242962725,0.417071,0.368085365,-0.197688428,0.39939,0.361633199,-0.180031217,0.390343,0.355833754,-0.163755797,0.38212,0.408642519,-0.256358915,0.419922,0.406257194,-0.227922232,0.401548,0.405349262,-0.214757756,0.393106,0.40465759,-0.203141017,0.385657
0.390488359,-0.333402329,0.451081,0.375480907,-0.282371936,0.433088,0.369576509,-0.323882633,0.449453,0.332596556,-0.304085277,0.435851,0.294736757,-0.280958606,0.416824,0.276736244,-0.262804283,0.409863,0.339980927,-0.240501828,0.42027,0.317699546,-0.203341235,0.400087,0.306520274,-0.18459363,0.389996,0.296331752,-0.167441426,0.380822,0.362568663,-0.239339756,0.417622,0.347336011,-0.193786431,0.398332,0.338708308,-0.169648034,0.387079,0.332561288,-0.152172201,0.379042,0.382628354,-0.243326881,0.417236,0.368402303,-0.198179547,0.399606,0.361918928,-0.18010541,0.390587,0.356086759,-0.163486901,0.382387,0.408695212,-0.256670507,0.419931,0.406391406,-0.22800811,0.401657,0.405510674,-0.214757116,0.39326,0.404849899,-0.202976216,0.385852
0.390018044,-0.333567666,0.450844,0.375347556,-0.282569893,0.433087,0.369159487,-0.323993955,0.449241,0.332234031,-0.303844909,0.435686,0.294573632,-0.280621572,0.416754,0.276697746,-0.262436814,0.409857,0.340118109,-0.240655126,0.420443,0.318176863,-0.203418096,0.400411,0.307168343,-0.184629335,0.390395,0.297135599,-0.167437982,0.381289,0.362723102,-0.239573722,0.417825,0.347853813,-0.194188804,0.398787,0.339401328,-0.169793832,0.387681,0.333381712,-0.152167555,0.379748,0.382761461,-0.243622418,0.41744,0.368868177,-0.198692952,0.399994,0.362476423,-0.18019269,0.391068,0.356757062,-0.163360658,0.382953,0.408744519,-0.257029886,0.420096,0.406809743,-0.228327272,0.402026,0.406101824,-0.215056752,0.393724,0.405594964,-0.2032462,0.386399
0.389204781,-0.333194758,0.449966,0.37527028,-0.282659679,0.433013,0.368394154,-0.323587982,0.448378,0.33155148,-0.302880329,0.434724,0.294432623,-0.277579646,0.416713,0.276824978,-0.26152863,0.409439,0.340490477,-0.240919364,0.420866,0.319278381,-0.203723462,0.40132,0.309267755,-0.184507646,0.391547,0.298928686,-0.167729488,0.382662,0.363278218,-0.239983402,0.418441,0.348767982,-0.194635215,0.399521,0.340727052,-0.169855072,0.388485,0.334592966,-0.152159066,0.380602,0.38340818,-0.244119888,0.418134,0.369930473,-0.199342471,0.400876,0.364134991,-0.180061361,0.392046,0.358016675,-0.162679737,0.384019,0.409371525,-0.25757494,0.42074,0.408739266,-0.229050446,0.40365,0.410050127,-0.215094708,0.395797,0.410547682,-0.202947586,0.388869
0.388848335,-0.33321246,0.449616,0.375191276,-0.282748141,0.432937,0.368102976,-0.323598133,0.448092,0.331321067,-0.302329744,0.434355,0.294735108,-0.276888554,0.416442,0.277150051,-0.260807934,0.409314,0.340658205,-0.241038835,0.421036,0.319913503,-0.203730607,0.401642,0.310073612,-0.184406487,0.391945,0.300015879,-0.16762306,0.383129,0.363437429,-0.240131608,0.418601,0.349372845,-0.194908861,0.3999,0.341448743,-0.16977609,0.388992,0.335578972,-0.152048345,0.3812,0.383533145,-0.244285255,0.418259,0.370511079,-0.199732719,0.401235,0.364951325,-0.179752457,0.392525,0.358935839,-0.162526023,0.384607,0.409407992,-0.257748609,0.420777,0.409364228,-0.229041693,0.403985,0.411142297,-0.214926164,0.396269,0.411910244,-0.202735344,0.389461
0.388915516,-0.333579476,0.449722,0.375087894,-0.282769978,0.432803,0.368231681,-0.323949463,0.44829,0.331515698,-0.302389674,0.434696,0.294791932,-0.278876901,0.416293,0.277481654,-0.260595249,0.409705,0.340581751,-0.240908626,0.420878,0.320069448,-0.203508582,0.401299,0.309780394,-0.184622171,0.39151,0.300404463,-0.167331385,0.38261,0.363184402,-0.239939536,0.41826,0.349889764,-0.195099672,0.400099,0.342840825,-0.169158377,0.389505,0.33679773,-0.152003225,0.381938,0.383141401,-0.244061338,0.417791,0.370594056,-0.199870596,0.40095,0.364577331,-0.179849633,0.392333,0.359288271,-0.162259697,0.384499,0.408887467,-0.257522865,0.420203,0.408576578,-0.228312961,0.402953,0.408612606,-0.214809767,0.395027,0.408764232,-0.202762252,0.388034
0.387649123,-0.33284278,0.448679,0.374289288,-0.282069695,0.431954,0.366926361,-0.322992235,0.447111,0.329078004,-0.299395446,0.433404,0.293125577,-0.275424062,0.415551,0.276327425,-0.258962248,0.408886,0.340012067,-0.239979948,0.419969,0.319735579,-0.202645753,0.400554,0.309563164,-0.183783874,0.390846,0.300293953,-0.166510882,0.382021,0.362781575,-0.23928126,0.417578,0.349743717,-0.194485722,0.399651,0.342969812,-0.168294946,0.389193,0.336924999,-0.151403882,0.381723,0.382844105,-0.243622393,0.417278,0.370644213,-0.199656786,0.400679,0.365673831,-0.17865002,0.392186,0.359622786,-0.161565564,0.384465,0.408647446,-0.257337684,0.419852,0.408678416,-0.228041418,0.402787,0.408878214,-0.214458091,0.394947,0.409172578,-0.202339702,0.388029
0.381888647,-0.328503094,0.44343,0.361056003,-0.271672303,0.424479,0.360296322,-0.317569328,0.440444,0.3123565,-0.287913678,0.425646,0.276968489,-0.265994209,0.409355,0.257470592,-0.247091835,0.398659,0.327385092,-0.226562561,0.409331,0.305638881,-0.189074899,0.387923,0.294735023,-0.170160592,0.377219,0.287569158,-0.156226023,0.367488,0.351216818,-0.228198215,0.408189,0.337415981,-0.181502506,0.390843,0.330122344,-0.159870046,0.380725,0.326931368,-0.148511496,0.373498,0.371968098,-0.234536635,0.409139,0.360156863,-0.190598339,0.391954,0.354477212,-0.169547764,0.383162,0.351091116,-0.157402106,0.376117,0.398251754,-0.250724019,0.413556,0.400246051,-0.224115496,0.396031,0.400439356,-0.210347786,0.387978,0.400925122,-0.198606152,0.380873
0.3680648,-0.321235884,0.43881,0.345311725,-0.268764521,0.419225,0.342220575,-0.308219807,0.435659,0.299358717,-0.283323414,0.420021,0.266261475,-0.260656045,0.40559,0.248926896,-0.241702815,0.396908,0.310053537,-0.225653291,0.403486,0.287125387,-0.18596561,0.381775,0.275739181,-0.166902669,0.370919,0.265653094,-0.151876631,0.36105,0.333974696,-0.226168097,0.402391,0.317753908,-0.178755205,0.382444,0.308987481,-0.155698992,0.370808,0.302761934,-0.139092723,0.362497,0.354905649,-0.231492915,0.403442,0.340788069,-0.186887449,0.384811,0.333928427,-0.165469001,0.375278,0.328126525,-0.147904587,0.366613,0.381572748,-0.246288613,0.408088,0.380090983,-0.215927409,0.389246,0.379555314,-0.201808794,0.38059,0.379165722,-0.189251137,0.372951
0.344642026,-0.313118265,0.432699,0.322593705,-0.259472282,0.413525,0.315157177,-0.300445446,0.430942,0.276642756,-0.277915605,0.417386,0.240713379,-0.256145518,0.400263,0.220801105,-0.238344363,0.388025,0.289041041,-0.215246129,0.399836,0.2671495,-0.174591389,0.378658,0.255553779,-0.164275145,0.368068,0.244875781,-0.154716442,0.358442,0.311356944,-0.215733069,0.397044,0.292256519,-0.172730189,0.372602,0.281114099,-0.147466701,0.358343,0.27314352,-0.129390501,0.348159,0.331111299,-0.221159321,0.396656,0.323266214,-0.175729796,0.381968,0.318394282,-0.157805555,0.374453,0.313348813,-0.145899847,0.367621,0.356662778,-0.236397142,0.399557,0.355552207,-0.205085862,0.380589,0.355154407,-0.190555095,0.371873,0.353625287,-0.181138433,0.364183
0.32215302,-0.309129198,0.425062,0.300885903,-0.260476984,0.409173,0.304256913,-0.300572872,0.426742,0.259826688,-0.281045107,0.416538,0.225564396,-0.258908775,0.402172,0.206738665,-0.240469784,0.392269,0.270132201,-0.220246985,0.401895,0.248182009,-0.180420481,0.383508,0.235462149,-0.166582054,0.374314,0.223705799,-0.153730207,0.365957,0.28925993,-0.217377973,0.395516,0.27688538,-0.173441362,0.38286,0.269647101,-0.147579542,0.375477,0.264467734,-0.128993732,0.370204,0.306374853,-0.219950052,0.391848,0.290180747,-0.177742019,0.370959,0.281896385,-0.155995512,0.360272,0.274365961,-0.136125139,0.350557,0.328885031,-0.231686698,0.390358,0.327330808,-0.200155795,0.372451,0.32669855,-0.185548268,0.364224,0.326210602,-0.172551558,0.356965
0.303224292,-0.308074274,0.421127,0.283056235,-0.255897985,0.40625,0.285044132,-0.298896608,0.422168,0.240761772,-0.273947301,0.411844,0.209596724,-0.25409179,0.402273,0.194248759,-0.236096884,0.39728,0.253618422,-0.214963131,0.398745,0.231939359,-0.180305859,0.380215,0.220092833,-0.164649099,0.370951,0.209164116,-0.150126995,0.362528,0.272984634,-0.21326886,0.393462,0.255754525,-0.169638102,0.374077,0.245674696,-0.143928402,0.36277,0.238459426,-0.125432432,0.354693,0.29030854,-0.216786945,0.390595,0.280951892,-0.170483112,0.372683,0.271762251,-0.153541703,0.363518,0.263332686,-0.137716181,0.355187,0.312957751,-0.229668791,0.38986,0.316665828,-0.195879961,0.373678,0.318370214,-0.180356068,0.366244,0.31987263,-0.166657855,0.359683
0.280184853,-0.301496905,0.413322,0.2597513,-0.251142799,0.401143,0.254676807,-0.295318426,0.41737,0.220101934,-0.274954227,0.411763,0.187257674,-0.254695902,0.40064,0.169547463,-0.237289758,0.393899,0.233370019,-0.21442011,0.399142,0.207319964,-0.180595159,0.385351,0.19406055,-0.163338638,0.378455,0.181856494,-0.147430484,0.372186,0.250392923,-0.209284384,0.390675,0.230686993,-0.165494886,0.371876,0.217144632,-0.142582415,0.360909,0.205929976,-0.128991989,0.353076,0.265476091,-0.2098255,0.384918,0.24785355,-0.165547826,0.367117,0.243432807,-0.145815646,0.364854,0.239333651,-0.12736069,0.362796,0.285157208,-0.218904519,0.380349,0.281167274,-0.189864798,0.363789,0.279475376,-0.176196556,0.356181,0.277703274,-0.164298183,0.349467
0.252302471,-0.282603864,0.408986,0.234845117,-0.233834592,0.396114,0.236722404,-0.279713373,0.415138,0.201403987,-0.266713269,0.412799,0.166738259,-0.249556884,0.400945,0.146159442,-0.234463269,0.392954,0.205015374,-0.201773402,0.396428,0.175157908,-0.169270444,0.383256,0.159935583,-0.152690331,0.37667,0.145909238,-0.137407235,0.370682,0.22010252,-0.193014254,0.385051,0.194530353,-0.149614366,0.368743,0.179713832,-0.124516528,0.359229,0.173648796,-0.109514597,0.361743,0.234002798,-0.190487711,0.376966,0.209357339,-0.151066873,0.357641,0.196618524,-0.130594278,0.347754,0.18495043,-0.111778805,0.338765,0.253039439,-0.195686262,0.369811,0.244194542,-0.172904063,0.350393,0.24022965,-0.162159822,0.341472,0.236791338,-0.152508987,0.3336
0.215912031,-0.289628119,0.412073,0.204696862,-0.24089228,0.400327,0.202152961,-0.282184947,0.416075,0.167826026,-0.264852515,0.411902,0.137152861,-0.247204396,0.404514,0.12030853,-0.230897899,0.399516,0.180856145,-0.203898535,0.398524,0.154049012,-0.170993321,0.384251,0.139157291,-0.155602911,0.377115,0.12530488,-0.141292297,0.370627,0.195169881,-0.199904367,0.390231,0.173456154,-0.156183883,0.372307,0.160725689,-0.130506014,0.361852,0.15199407,-0.112368258,0.355305,0.208333415,-0.201361357,0.384574,0.192473665,-0.156298582,0.366378,0.184391526,-0.13343209,0.357069,0.171267706,-0.117254601,0.348606,0.226061927,-0.211594869,0.380046,0.223933594,-0.174116998,0.363933,0.222932076,-0.15698851,0.35653,0.222035064,-0.141926321,0.349998
0.211091057,-0.290299534,0.4137,0.189905042,-0.240312653,0.399474,0.196496506,-0.283716722,0.417948,0.156283461,-0.265501986,0.413847,0.126832289,-0.248595735,0.40814,0.108210551,-0.232915238,0.401683,0.161314407,-0.204464857,0.396514,0.134061802,-0.168865888,0.381489,0.11804019,-0.153889285,0.373976,0.102279178,-0.141888674,0.367147,0.176774301,-0.198715991,0.387247,0.155705946,-0.152787713,0.367291,0.139808207,-0.129081241,0.35565,0.128881614,-0.112424967,0.348806,0.191089202,-0.198761358,0.381034,0.173625648,-0.155883662,0.368316,0.164707868,-0.134003275,0.361808,0.150822433,-0.119705392,0.355893,0.210639724,-0.207288434,0.376294,0.201327117,-0.171352481,0.358192,0.197050829,-0.154747427,0.349874,0.186123258,-0.15097669,0.342535
0.204541257,-0.291216227,0.424593,0.174675898,-0.239265935,0.405081,0.180253053,-0.280350463,0.427483,0.143182131,-0.264804723,0.420619,0.110584032,-0.249040454,0.411788,0.0922633236,-0.232844126,0.405176,0.136628455,-0.205318854,0.397215,0.113499894,-0.165573927,0.382656,0.096719914,-0.150793649,0.375377,0.0811555249,-0.137110376,0.368759,0.154143371,-0.199680258,0.38831,0.132769677,-0.155165712,0.373479,0.119271803,-0.12980855,0.364828,0.109600298,-0.111633213,0.358649,0.170848638,-0.199627547,0.382922,0.151768619,-0.155993933,0.367992,0.141082951,-0.134319384,0.360353,0.127620008,-0.11832209,0.353409,0.194310102,-0.207566336,0.380066,0.179889571,-0.172725885,0.358436,0.173252765,-0.156641337,0.348498,0.16365739,-0.151209964,0.339729
0.19679648,-0.288234676,0.417604,0.170297524,-0.240731451,0.4032,0.176250306,-0.283241461,0.423629,0.142036984,-0.267044973,0.419936,0.111131732,-0.251501847,0.413696,0.0933370891,-0.235671949,0.408248,0.136745664,-0.211567376,0.402437,0.110881155,-0.173727424,0.386844,0.0953042891,-0.157084976,0.379048,0.0814128778,-0.140055284,0.37196,0.148833655,-0.20254538,0.39082,0.129358266,-0.157674668,0.376348,0.112436582,-0.134822439,0.367906,0.100148077,-0.118221687,0.361876,0.160914911,-0.199795011,0.38269,0.14639904,-0.154864848,0.367803,0.132229025,-0.136151036,0.360186,0.11908829,-0.118777961,0.353262,0.178821074,-0.204891822,0.37575,0.167241203,-0.166626029,0.356442,0.161927933,-0.149126857,0.347571,0.149619955,-0.144203394,0.339743
0.178399103,-0.290919075,0.415049,0.15248488,-0.243755013,0.402934,0.164632638,-0.288058113,0.421493,0.124080499,-0.270230757,0.418784,0.0953275535,-0.253557541,0.414266,0.079204182,-0.237423906,0.410077,0.124988378,-0.212502957,0.404077,0.0984307832,-0.176775567,0.389707,0.0842807803,-0.159258242,0.382522,0.0712526117,-0.143143189,0.37599,0.137670472,-0.203507182,0.392521,0.114119392,-0.160861642,0.377849,0.099170697,-0.136429298,0.369291,0.0883940552,-0.118811254,0.363177,0.149847002,-0.200718411,0.384215,0.136319083,-0.156976676,0.371736,0.121833005,-0.139304061,0.365351,0.108294883,-0.122783063,0.359547,0.167176044,-0.205630479,0.376669,0.15484271,-0.169686056,0.358902,0.149158065,-0.153064519,0.350739,0.13659708,-0.149502277,0.343536
0.16621727,-0.291057281,0.421973,0.139701355,-0.237990015,0.405498,0.142725502,-0.280960455,0.426022,0.105910393,-0.26741577,0.422144,0.0758900421,-0.24974473,0.414223,0.0590852838,-0.233655748,0.409009,0.106063533,-0.203684257,0.400941,0.0833897926,-0.163728845,0.384415,0.0670944519,-0.148770586,0.376152,0.0519295336,-0.134895304,0.36864,0.122643402,-0.197339046,0.391336,0.100029739,-0.153562912,0.373125,0.0862281511,-0.128163981,0.362501,0.0817825834,-0.113557789,0.356549,0.138192148,-0.196807921,0.38507,0.122466248,-0.152554085,0.370097,0.108424596,-0.134497308,0.362437,0.095313647,-0.11763431,0.355473,0.159694762,-0.204397554,0.380661,0.145197557,-0.173075589,0.36066,0.138465866,-0.158445981,0.35147,0.133738229,-0.148427542,0.343362
0.163690999,-0.29366274,0.423121,0.138485336,-0.248425255,0.407911,0.142467077,-0.287962426,0.428057,0.107117012,-0.270238753,0.422611,0.0773106841,-0.252018387,0.415153,0.0608141718,-0.235123042,0.409447,0.106622915,-0.215385217,0.405257,0.0846412438,-0.175411468,0.3892,0.0693165048,-0.159336967,0.381171,0.0539096198,-0.140691518,0.373872,0.122205807,-0.207284931,0.394838,0.0989025741,-0.16412348,0.377717,0.0851998411,-0.138738786,0.367729,0.0753577514,-0.120503514,0.360595,0.136836819,-0.205344548,0.387775,0.115831836,-0.163205859,0.370931,0.105025141,-0.141514501,0.362312,0.093527276,-0.120814644,0.354478,0.157173426,-0.211372585,0.382218,0.13879005,-0.180314192,0.363188,0.130209976,-0.16578404,0.354445,0.122559298,-0.152807824,0.34673
0.160174081,-0.290613291,0.419405,0.136124029,-0.241617592,0.403843,0.140741679,-0.28572092,0.425085,0.10585711,-0.269148918,0.420878,0.0759860996,-0.252336281,0.414452,0.0589817004,-0.23620561,0.409123,0.103141021,-0.211362827,0.401945,0.0735641344,-0.17186905,0.386355,0.0576906458,-0.155113428,0.37856,0.0430575589,-0.139694042,0.371474,0.11721404,-0.203310484,0.390468,0.0911569265,-0.15742573,0.374078,0.0770541658,-0.132078283,0.364518,0.0708681344,-0.11672896,0.357728,0.130748409,-0.201356107,0.382569,0.107123403,-0.156380034,0.367706,0.0927595988,-0.136709487,0.360101,0.0795097745,-0.118567663,0.353188,0.145259172,-0.206542017,0.376101,0.128917014,-0.171580075,0.356076,0.121360508,-0.155383198,0.346875,0.114665021,-0.141013621,0.338757
0.160228546,-0.292824966,0.422527,0.134370147,-0.245130032,0.405261,0.140559941,-0.287702076,0.427041,0.105296805,-0.27251932,0.42311,0.0727987853,-0.256236402,0.415781,0.0547826188,-0.240392205,0.409672,0.100781682,-0.211634359,0.400836,0.0754930521,-0.171686548,0.385527,0.0592562998,-0.161367061,0.377872,0.0420450518,-0.151571444,0.370913,0.115959922,-0.204024403,0.39042,0.0935266207,-0.160547313,0.374178,0.0797881023,-0.135301951,0.364704,0.0698890216,-0.117144823,0.357936,0.130538763,-0.202490388,0.383565,0.10316874,-0.161127475,0.3631,0.088021558,-0.141083922,0.352629,0.0739837725,-0.122890754,0.343111,0.151272259,-0.209010627,0.378608,0.13355599,-0.179216103,0.358398,0.119958451,-0.16685291,0.349113,0.110897966,-0.154646646,0.34092
0.159503942,-0.292858557,0.422374,0.133879814,-0.245099862,0.404589,0.139914053,-0.287817667,0.426393,0.104439477,-0.272491414,0.422149,0.0722171421,-0.256680398,0.414996,0.0542872898,-0.240889077,0.409056,0.0961228218,-0.212992946,0.399214,0.0775757852,-0.171549327,0.383446,0.0586723082,-0.160890083,0.375562,0.0415309902,-0.151104805,0.368395,0.115056616,-0.204030497,0.389302,0.0923436509,-0.159902093,0.371553,0.075762035,-0.136216913,0.3612,0.0676544561,-0.118709102,0.353805,0.13014982,-0.202655835,0.382914,0.102151273,-0.161909009,0.361932,0.0865337378,-0.142296648,0.351197,0.0720461241,-0.124481023,0.341438,0.151561666,-0.209356346,0.378591,0.132627935,-0.179839226,0.358173,0.120347689,-0.167204434,0.348792,0.114369163,-0.153335182,0.340514
0.156647185,-0.292583114,0.422637,0.133628648,-0.245383851,0.404603,0.1395223,-0.288394675,0.426656,0.103862244,-0.27289011,0.422258,0.0716464264,-0.256533065,0.414319,0.0553661753,-0.239415769,0.409169,0.0969969313,-0.211635248,0.399081,0.0757595241,-0.171377903,0.383621,0.0583456119,-0.161325375,0.375891,0.0411141063,-0.151729931,0.368864,0.114673863,-0.204295831,0.389102,0.0921167754,-0.160273201,0.371794,0.077904105,-0.136478318,0.361698,0.0668489089,-0.117756099,0.354486,0.130002293,-0.202909048,0.382684,0.101854835,-0.162331948,0.361691,0.0860701813,-0.142885092,0.350951,0.0714103682,-0.125222313,0.341187,0.151668119,-0.209584446,0.378369,0.132082847,-0.180197559,0.357882,0.120111134,-0.167882129,0.348469,0.110694747,-0.156411397,0.340163
0.156564375,-0.293061961,0.422997,0.133431572,-0.245519182,0.404523,0.139244911,-0.288813464,0.426853,0.10345247,-0.273092539,0.422232,0.0713601677,-0.256646061,0.414238,0.0552635336,-0.239544664,0.40909,0.096661076,-0.211647004,0.398527,0.075677668,-0.171152881,0.382879,0.0580270267,-0.161113563,0.375055,0.0407767925,-0.151566741,0.367942,0.114322782,-0.204302546,0.388644,0.0918066309,-0.160245216,0.371315,0.0774059953,-0.136325377,0.361207,0.0663750771,-0.117824747,0.353987,0.129841894,-0.202981021,0.382348,0.101562299,-0.162313375,0.361058,0.0856757589,-0.142909482,0.350165,0.0709251705,-0.12530017,0.340263,0.151751747,-0.209753934,0.378253,0.131681687,-0.180311827,0.357507,0.119878294,-0.168060411,0.347975,0.110251298,-0.156920178,0.339564
0.156360856,-0.293156489,0.422885,0.133261133,-0.245561308,0.404376,0.13894903,-0.288945847,0.426732,0.103150828,-0.273214359,0.422178,0.0711531393,-0.256663859,0.414091,0.0551895985,-0.239633978,0.409029,0.096483126,-0.211755368,0.398347,0.0757037429,-0.171185322,0.382793,0.0579076626,-0.161185045,0.375016,0.0406365402,-0.151698531,0.367947,0.114116109,-0.204386324,0.388467,0.0916005168,-0.16025203,0.371035,0.0770711929,-0.136218625,0.360867,0.0660315002,-0.117865042,0.353604,0.129750777,-0.203069006,0.382177,0.101452049,-0.162406295,0.36091,0.0855215843,-0.143061291,0.35003,0.0707237014,-0.125504776,0.340138,0.151781644,-0.209833717,0.378096,0.131449229,-0.180435932,0.357352,0.119787348,-0.168235413,0.34782,0.110052309,-0.157320591,0.339411
0.157778261,-0.292612144,0.421473,0.133017432,-0.242702812,0.40105,0.138167145,-0.287074466,0.423805,0.10038221,-0.272154461,0.414873,0.0668667481,-0.253941286,0.402692,0.051056211,-0.236953728,0.397984,0.0943124813,-0.209466097,0.391919,0.072209337,-0.167966409,0.376176,0.0539744214,-0.159376202,0.368304,0.0392886006,-0.149199573,0.361149,0.111879504,-0.202845741,0.383496,0.0879800252,-0.158078244,0.363661,0.07236685,-0.133967219,0.352734,0.0617598836,-0.116625085,0.345296,0.128610021,-0.202166212,0.378597,0.0994928915,-0.160921486,0.355029,0.0824464177,-0.141836251,0.342972,0.068335593,-0.124173254,0.33344,0.152176769,-0.209741348,0.376467,0.130067694,-0.180239797,0.354878,0.119248316,-0.167502851,0.344959,0.109327903,-0.156018225,0.336207
0.155047158,-0.290179067,0.418842,0.132246308,-0.241600783,0.399424,0.137672812,-0.28603546,0.422707,0.0989571444,-0.274397776,0.417608,0.0682683645,-0.255527621,0.408853,0.0529757862,-0.238628184,0.404026,0.0944300414,-0.2092927,0.392878,0.07858672,-0.160754928,0.373987,0.0553560555,-0.156976732,0.364541,0.037683543,-0.1496221,0.355955,0.111340775,-0.201925979,0.382734,0.0871353795,-0.156489979,0.363,0.0719303432,-0.132287487,0.351488,0.0613823073,-0.115371805,0.343696,0.1270031,-0.200134578,0.376318,0.101935516,-0.15749296,0.357694,0.0882030266,-0.135796631,0.348165,0.0742288837,-0.119332985,0.339503,0.150147178,-0.207231414,0.372248,0.128642302,-0.17844465,0.350386,0.118456069,-0.165284344,0.340342,0.10798509,-0.153655094,0.331479
0.154393458,-0.290304313,0.418348,0.131277496,-0.241821149,0.398766,0.136958442,-0.286096812,0.42211,0.098112939,-0.274133393,0.416978,0.0676625178,-0.255505914,0.408145,0.0525333975,-0.238631767,0.403484,0.0941186615,-0.208409436,0.391988,0.075738964,-0.161695828,0.37271,0.0557745265,-0.156087275,0.36307,0.0381760583,-0.149267909,0.354307,0.110925489,-0.201237643,0.381934,0.0867583267,-0.155789081,0.362379,0.0717337716,-0.131486519,0.350972,0.0611609644,-0.114567575,0.342824,0.126577037,-0.199661336,0.375608,0.101809809,-0.156721721,0.356893,0.0879884502,-0.135466272,0.347318,0.0743806989,-0.118253072,0.338613,0.149107991,-0.206874203,0.371671,0.127930448,-0.178005428,0.349682,0.117946024,-0.164713114,0.339578,0.107866301,-0.153149853,0.330664
