sluyters/QuantumLeap/backend/src/datasets/dynamic/HandGestureDataset_SHREC2017_csv/Gesture8/finger_2/subject_11_essai_4_skeletons_world.csv
Wrist_x,Wrist_y,Wrist_z,Palm_x,Palm_y,Palm_z,thumb_base_x,thumb_base_y,thumb_base_z,thumb_first_joint_x,thumb_first_joint_y,thumb_first_joint_z,thumb_second_joint_x,thumb_second_joint_y,thumb_second_joint_z,thumb_tip_x,thumb_tip_y,thumb_tip_z,index_base_x,index_base_y,index_base_z,index_first_joint_x,index_first_joint_y,index_first_joint_z,index_second_joint_x,index_second_joint_y,index_second_joint_z,index_tip_x,index_tip_y,index_tip_z,middle_base_x,middle_base_y,middle_base_z,middle_first_joint_x,middle_first_joint_y,middle_first_joint_z,middle_second_joint_x,middle_second_joint_y,middle_second_joint_z,middle_tip_x,middle_tip_y,middle_tip_z,ring_base_x,ring_base_y,ring_base_z,ring_first_joint_x,ring_first_joint_y,ring_first_joint_z,ring_second_joint_x,ring_second_joint_y,ring_second_joint_z,ring_tip_x,ring_tip_y,ring_tip_z,pinky_base_x,pinky_base_y,pinky_base_z,pinky_first_joint_x,pinky_first_joint_y,pinky_first_joint_z,pinky_second_joint_x,pinky_second_joint_y,pinky_second_joint_z,pinky_tip_x,pinky_tip_y,pinky_tip_z,
0.4604723,-0.35287085,0.566119,0.45558888,-0.30592545,0.558726,0.43530444,-0.33499849,0.559501,0.40065052,-0.30164858,0.541523,0.37266339,-0.27221471,0.521485,0.35902803,-0.25165537,0.511657,0.421771,-0.24863648,0.544878,0.40469148,-0.20622932,0.528389,0.39708427,-0.18469429,0.520145,0.39030991,-0.1677458,0.512649,0.450061,-0.25430372,0.550411,0.44162328,-0.20335115,0.538855,0.43831438,-0.17907792,0.532114,0.43696758,-0.17590988,0.527299,0.47420941,-0.26159207,0.555532,0.46248211,-0.21361326,0.538371,0.45869205,-0.18839024,0.529592,0.44976365,-0.16387498,0.52161,0.5042996,-0.27657973,0.562712,0.48924417,-0.22888279,0.54717,0.48797776,-0.21400241,0.54003,0.48526779,-0.2015375,0.533729
0.45599445,-0.34963411,0.561233,0.45378559,-0.30462492,0.556681,0.43326532,-0.3333782,0.557381,0.40210638,-0.30273766,0.543061,0.37238162,-0.27188418,0.521037,0.35880678,-0.25101523,0.511661,0.42458886,-0.25167517,0.548429,0.41602113,-0.2042498,0.536313,0.41654119,-0.1838396,0.537677,0.41700452,-0.16491735,0.538917,0.45130342,-0.2552905,0.551564,0.4421307,-0.20381296,0.538401,0.43734708,-0.17628395,0.530723,0.43462997,-0.15673852,0.525239,0.47359275,-0.26162851,0.554493,0.46788897,-0.21391569,0.541345,0.46480111,-0.18799632,0.534619,0.46087826,-0.1674601,0.528504,0.50073752,-0.27565337,0.558648,0.50612107,-0.23737917,0.556354,0.5091924,-0.21892297,0.556495,0.5119019,-0.20264507,0.55662
0.45869474,-0.35075415,0.563104,0.46317851,-0.30393796,0.553384,0.43544523,-0.33432038,0.557963,0.40845932,-0.30244812,0.541267,0.37402295,-0.27319564,0.522458,0.36007874,-0.25145341,0.513453,0.4283066,-0.24784221,0.539569,0.41356807,-0.20354176,0.522429,0.40619071,-0.18113071,0.513859,0.39957571,-0.16186857,0.506068,0.45514848,-0.25098624,0.542485,0.44107109,-0.1994217,0.524014,0.43336016,-0.1737035,0.513238,0.42788044,-0.15490238,0.505542,0.47809815,-0.25719516,0.545634,0.46619637,-0.20478368,0.527299,0.4607857,-0.18396546,0.517918,0.45595452,-0.16452488,0.509391,0.50701285,-0.27162227,0.550808,0.49631834,-0.22619936,0.5378,0.49361459,-0.21536644,0.531824,0.49133128,-0.20550167,0.52655
0.45923602,-0.35172441,0.563662,0.45288126,-0.30402755,0.551575,0.43557145,-0.33433181,0.558615,0.40270056,-0.30231742,0.541681,0.37442146,-0.27275923,0.523141,0.36076558,-0.25086979,0.514059,0.42608866,-0.24816515,0.536051,0.41396937,-0.20526934,0.517022,0.40763355,-0.18263372,0.507508,0.40188268,-0.16192519,0.498859,0.45225016,-0.25578895,0.538023,0.44085679,-0.20623322,0.517286,0.43425025,-0.1770629,0.505189,0.42955083,-0.15609666,0.496548,0.47371749,-0.26412734,0.540579,0.46369045,-0.21076844,0.520014,0.45951629,-0.19736648,0.509493,0.45593489,-0.1848096,0.499929,0.50015683,-0.28116344,0.545392,0.48977005,-0.23347485,0.525749,0.48603113,-0.21882473,0.516724,0.48284543,-0.20564041,0.508761
0.44918368,-0.35265934,0.557496,0.44618562,-0.31606261,0.545821,0.43017118,-0.33362072,0.55412,0.40027744,-0.30239354,0.539245,0.37397997,-0.27197462,0.52245,0.36304965,-0.24944428,0.514579,0.42670968,-0.25532888,0.532667,0.41955776,-0.2079528,0.514583,0.42060884,-0.18652989,0.51121,0.42161624,-0.16677771,0.508143,0.44983062,-0.26349415,0.532731,0.44416828,-0.21462119,0.512708,0.44094209,-0.18584581,0.501028,0.43867559,-0.16516019,0.492685,0.46867483,-0.27377284,0.533684,0.47110905,-0.22486805,0.52261,0.47311374,-0.20183331,0.516944,0.4751399,-0.1814856,0.511793,0.49090592,-0.2929027,0.536528,0.48515453,-0.24668739,0.517563,0.48260342,-0.22981929,0.50885,0.48043597,-0.21498407,0.501161
0.44344473,-0.35405173,0.552539,0.44352335,-0.31553028,0.541569,0.42581649,-0.33533375,0.55062,0.39668762,-0.30515191,0.537634,0.37404358,-0.27195461,0.522741,0.36217502,-0.25015824,0.514685,0.42651073,-0.25606872,0.53075,0.41982548,-0.20857197,0.513924,0.42061357,-0.18864721,0.510826,0.42141189,-0.17007001,0.508009,0.44825569,-0.26366302,0.529269,0.44318302,-0.21497594,0.51024,0.44030431,-0.1862874,0.499139,0.43811419,-0.16683374,0.491211,0.46583752,-0.27340307,0.528897,0.46308532,-0.22612863,0.510048,0.46100209,-0.20077084,0.500405,0.45912666,-0.17765813,0.491638,0.48635725,-0.29175084,0.53006,0.48294055,-0.25051389,0.512153,0.48032558,-0.23362778,0.503926,0.47711616,-0.21572969,0.496667
0.43971364,-0.35340955,0.548463,0.43916015,-0.31260348,0.535356,0.42319225,-0.33500376,0.548478,0.39873361,-0.30450563,0.537757,0.37428365,-0.27176504,0.523115,0.36544182,-0.25011901,0.516196,0.42287442,-0.25379759,0.525266,0.42127229,-0.20740294,0.506337,0.41749856,-0.18668535,0.496872,0.41342078,-0.16877704,0.488267,0.44295318,-0.26090138,0.52066,0.43787064,-0.21129745,0.499785,0.43692841,-0.18418866,0.487609,0.43064986,-0.16567723,0.478911,0.45925521,-0.26911159,0.51788,0.45714995,-0.21947906,0.496634,0.45603572,-0.19417143,0.485764,0.45095653,-0.17830748,0.475882,0.47774861,-0.2862975,0.51649,0.47652769,-0.24157651,0.497346,0.47311093,-0.22629138,0.48855,0.46647373,-0.21199695,0.480789
0.42519132,-0.35590245,0.534607,0.43182457,-0.31714182,0.522415,0.41156943,-0.33781553,0.536053,0.39106311,-0.30883057,0.52732,0.37251397,-0.27542819,0.520614,0.36427462,-0.25111357,0.515212,0.42089388,-0.25944617,0.51479,0.41535978,-0.21436206,0.497387,0.41143885,-0.19270572,0.488686,0.40723049,-0.1734862,0.480775,0.437776,-0.26507993,0.508746,0.43204542,-0.21771409,0.488941,0.42883267,-0.18966093,0.477389,0.42544467,-0.17048404,0.469137,0.45143633,-0.27327787,0.504713,0.44834436,-0.22461683,0.484803,0.4468022,-0.19961952,0.474617,0.44129128,-0.18130985,0.465357,0.46734306,-0.28997944,0.501695,0.46446787,-0.24517955,0.48369,0.46046075,-0.22760813,0.475417,0.45741866,-0.20936347,0.468118
0.42568698,-0.35846024,0.537532,0.42779441,-0.31097045,0.520531,0.41108928,-0.33860405,0.537085,0.38391408,-0.30092889,0.525479,0.36714278,-0.26768003,0.514044,0.362271,-0.24857624,0.512216,0.41428624,-0.25277383,0.506871,0.40815225,-0.20422962,0.484914,0.40303626,-0.18374071,0.473936,0.39844156,-0.16489459,0.463955,0.43110896,-0.26003158,0.501469,0.42265666,-0.21283376,0.476704,0.41811528,-0.18567553,0.462259,0.41429682,-0.16687617,0.45194,0.44486013,-0.26967063,0.498336,0.43585418,-0.22498592,0.473711,0.43185735,-0.20184241,0.461112,0.42666418,-0.18290856,0.449659,0.46117725,-0.28831258,0.497093,0.4531535,-0.24799617,0.474772,0.44935025,-0.23025216,0.464516,0.44607959,-0.21442043,0.455467
0.41624059,-0.35872854,0.532012,0.41646321,-0.3106128,0.514186,0.40513032,-0.33606501,0.532018,0.37810211,-0.29930558,0.52099,0.3592548,-0.26561891,0.509128,0.35924458,-0.24407622,0.506629,0.40808487,-0.24932123,0.500446,0.40022355,-0.2076445,0.478442,0.39479549,-0.18738077,0.46744,0.38991892,-0.16872036,0.457438,0.42191823,-0.26136398,0.494199,0.4124055,-0.21539216,0.469516,0.40699024,-0.18819253,0.455117,0.40550004,-0.16639774,0.444833,0.43349279,-0.27276716,0.490434,0.42716093,-0.22721158,0.465535,0.42355282,-0.20415185,0.452796,0.41928494,-0.18145134,0.441216,0.44647325,-0.29324269,0.48856,0.43933532,-0.25443075,0.465783,0.43619429,-0.2363438,0.455318,0.4335041,-0.22023488,0.446084
0.39727029,-0.35341092,0.521653,0.4063101,-0.31026262,0.507572,0.38874571,-0.33253101,0.523328,0.36859254,-0.29583766,0.514777,0.35436355,-0.26393661,0.507539,0.35415027,-0.24305647,0.505383,0.40678308,-0.25184731,0.498771,0.3996935,-0.21414097,0.480536,0.39623461,-0.19442791,0.471887,0.40025371,-0.17616689,0.470937,0.4201926,-0.26181505,0.491784,0.41342442,-0.22280759,0.470329,0.41023418,-0.19849531,0.458522,0.40820822,-0.18067998,0.450164,0.43032689,-0.27329981,0.48712,0.42514519,-0.23643661,0.465087,0.42340727,-0.21593108,0.454292,0.42216249,-0.19686318,0.444566,0.43960365,-0.29650456,0.483629,0.43177132,-0.2645198,0.464846,0.42865503,-0.24948593,0.456494,0.4261168,-0.23595573,0.449202
0.37897238,-0.34905879,0.508658,0.37887395,-0.30794942,0.48836,0.37381246,-0.32882422,0.511953,0.35370867,-0.29631172,0.505696,0.3403441,-0.26375874,0.498534,0.34116602,-0.23920261,0.494859,0.38079877,-0.24814768,0.476754,0.3706768,-0.20491667,0.452282,0.36566121,-0.18315737,0.440047,0.36622579,-0.16478264,0.433563,0.3871851,-0.25669835,0.465601,0.37702434,-0.20914862,0.437705,0.37115321,-0.18127483,0.421433,0.3669881,-0.16129419,0.40981,0.39198367,-0.26728859,0.45799,0.38170082,-0.22135119,0.429244,0.37607708,-0.19783736,0.414537,0.37102246,-0.17633493,0.401166,0.39684039,-0.28679581,0.451899,0.39221675,-0.24370549,0.426671,0.38739663,-0.22482154,0.415081,0.38318437,-0.2080697,0.404853
0.37547901,-0.35006169,0.507767,0.3751981,-0.30658204,0.485722,0.37093137,-0.32965124,0.511123,0.35140147,-0.29629968,0.505089,0.3375516,-0.26323561,0.497222,0.3351744,-0.24086734,0.492353,0.37611303,-0.24616262,0.472843,0.36347765,-0.2026869,0.445999,0.3548591,-0.18174276,0.432576,0.35277038,-0.16162971,0.421939,0.38169982,-0.25434474,0.461004,0.36629404,-0.20680909,0.431503,0.35832912,-0.17885211,0.414294,0.35266129,-0.15881973,0.402002,0.38594423,-0.26466434,0.452963,0.37312987,-0.21853538,0.421905,0.36209975,-0.19694885,0.406014,0.35258776,-0.17685508,0.391569,0.39037522,-0.28393711,0.446615,0.37779477,-0.24203029,0.420324,0.37141757,-0.22302956,0.408245,0.36582274,-0.20617475,0.397586
0.3569773,-0.35016541,0.49873,0.3521244,-0.3060791,0.473702,0.35323633,-0.32814535,0.500462,0.32829508,-0.2935447,0.492178,0.31370924,-0.25989383,0.482708,0.31058527,-0.23687923,0.476164,0.35111214,-0.24381491,0.456528,0.33510715,-0.20251765,0.426526,0.32712992,-0.18177863,0.411525,0.31989506,-0.16286455,0.397888,0.35656294,-0.25399945,0.445639,0.34005012,-0.20815843,0.413053,0.33045729,-0.18130623,0.394045,0.3236254,-0.16206612,0.380467,0.36082995,-0.26597382,0.438611,0.34482115,-0.2227064,0.404586,0.33430361,-0.20137659,0.387178,0.32330143,-0.18249308,0.371352,0.36552251,-0.28721422,0.433906,0.35231513,-0.24661961,0.404919,0.34473108,-0.2285324,0.391601,0.33806842,-0.21249824,0.379849
0.33487621,-0.35108176,0.493946,0.32851534,-0.30695693,0.46551,0.33207919,-0.3275948,0.49426,0.30859383,-0.29051511,0.484241,0.29437854,-0.25713217,0.473976,0.29025664,-0.23395239,0.465388,0.32820373,-0.24479764,0.443965,0.30714245,-0.20581669,0.411356,0.29662493,-0.18623298,0.395051,0.28707329,-0.16836645,0.380229,0.33077519,-0.25753014,0.433627,0.31223299,-0.21052276,0.400673,0.30142854,-0.18304927,0.381449,0.29371892,-0.1633982,0.367719,0.33280654,-0.27146418,0.427315,0.31274372,-0.22670866,0.393318,0.3025036,-0.20372116,0.375924,0.29321159,-0.18276051,0.360111,0.33504637,-0.29472646,0.423961,0.31988119,-0.25574529,0.39252,0.31021378,-0.23863293,0.378074,0.30154784,-0.22352736,0.365328
0.31156649,-0.33940034,0.482174,0.30397462,-0.29216235,0.450701,0.31045415,-0.31520661,0.481323,0.29379592,-0.27188565,0.473767,0.27670942,-0.24100065,0.465786,0.27222239,-0.21779981,0.457836,0.30264938,-0.22994109,0.425381,0.27969083,-0.19148242,0.389814,0.26814681,-0.17223227,0.372031,0.25765531,-0.15470811,0.355865,0.30248393,-0.24435365,0.415412,0.277526,-0.1974278,0.379945,0.26296809,-0.17002975,0.359256,0.25257066,-0.15044662,0.344479,0.30250693,-0.2596073,0.409637,0.28331623,-0.21469186,0.372409,0.27045765,-0.19234821,0.353363,0.25789984,-0.17220923,0.336047,0.30279595,-0.28427722,0.407369,0.30250018,-0.2466554,0.372316,0.27770251,-0.23497899,0.356211,0.25485697,-0.22522316,0.342
0.28051755,-0.34113933,0.489466,0.28592378,-0.30224361,0.457588,0.28129407,-0.31581983,0.486927,0.27750113,-0.27570129,0.478626,0.25809573,-0.24518613,0.467737,0.25284929,-0.22207257,0.458535,0.29028556,-0.24232474,0.429882,0.28474521,-0.20040039,0.396925,0.27130933,-0.18197953,0.380446,0.24819417,-0.1714682,0.365465,0.29119473,-0.25918905,0.421845,0.27356519,-0.22081705,0.382713,0.26331652,-0.1983796,0.359886,0.23750242,-0.18853321,0.343581,0.29162402,-0.27605581,0.417692,0.28162016,-0.22926994,0.38289,0.26163897,-0.21089666,0.365084,0.24339742,-0.19410753,0.348897,0.29151509,-0.3019335,0.417412,0.27985029,-0.26205012,0.384873,0.26309866,-0.24767372,0.369923,0.24119718,-0.23920252,0.356731
0.27017449,-0.34169272,0.49026,0.26487146,-0.30252234,0.45801,0.26012965,-0.31618888,0.487496,0.25661797,-0.27590348,0.478977,0.23707345,-0.24528206,0.46792,0.23179612,-0.22205804,0.458505,0.26925301,-0.2422447,0.42974,0.26387669,-0.20027366,0.396674,0.25032761,-0.18183411,0.380142,0.22723015,-0.17130258,0.365112,0.27023658,-0.25919212,0.42185,0.25227002,-0.22058856,0.382317,0.24180937,-0.19803287,0.359257,0.21608814,-0.18809642,0.342785,0.27072176,-0.27615693,0.417845,0.26071071,-0.22922024,0.382807,0.23868737,-0.21184851,0.364881,0.21749892,-0.1966763,0.348584,0.27066885,-0.30221344,0.417799,0.25895172,-0.26221693,0.385118,0.24206326,-0.24779357,0.370102,0.22021506,-0.23928433,0.356853
0.25350578,-0.33767902,0.488153,0.25190646,-0.29710708,0.454243,0.25188608,-0.31038526,0.482145,0.23388451,-0.26771756,0.463575,0.22372941,-0.23483658,0.449938,0.22566132,-0.21309914,0.439927,0.2508098,-0.23569656,0.420707,0.22662718,-0.19867208,0.385758,0.2145224,-0.18009097,0.368283,0.20350907,-0.16315139,0.352397,0.25478874,-0.25495195,0.416222,0.24228712,-0.21151323,0.376688,0.21991541,-0.19136927,0.353627,0.19672984,-0.18113198,0.337154,0.25793503,-0.27384934,0.415148,0.2496248,-0.2246004,0.378829,0.22550846,-0.20903827,0.360247,0.20352222,-0.19486727,0.343355,0.26138005,-0.30219384,0.418833,0.24877058,-0.26031497,0.384776,0.23211511,-0.24579201,0.369128,0.21533775,-0.23767346,0.355321
0.21015245,-0.31565179,0.478311,0.22820516,-0.28151986,0.443857,0.21274456,-0.28601954,0.468327,0.20752863,-0.26241589,0.444559,0.20666193,-0.23737901,0.425736,0.21458805,-0.22311719,0.416293,0.24143764,-0.22441893,0.405015,0.20426406,-0.1925536,0.36979,0.18561341,-0.17783381,0.352177,0.16860777,-0.16442091,0.336166,0.24672825,-0.24626774,0.405226,0.22297382,-0.20757145,0.364089,0.19111429,-0.19295689,0.340093,0.16493074,-0.18487291,0.322952,0.24763837,-0.26576741,0.408057,0.23345795,-0.22228071,0.368639,0.20393442,-0.21200694,0.348472,0.17733122,-0.20264027,0.330138,0.24814355,-0.29717743,0.416474,0.2325475,-0.2617013,0.379889,0.20660301,-0.25163979,0.363079,0.18333674,-0.24312559,0.348247
0.17858084,-0.29347144,0.466605,0.207325,-0.27080494,0.441025,0.18776977,-0.26720947,0.459646,0.18752852,-0.23889675,0.439276,0.18597296,-0.21532485,0.421312,0.18902895,-0.2036735,0.408112,0.23680959,-0.22308075,0.412745,0.19587448,-0.20023445,0.384264,0.17524472,-0.18896873,0.370587,0.15620177,-0.17868209,0.358269,0.2368209,-0.24585711,0.412344,0.21255293,-0.21484299,0.378979,0.178977,-0.20191122,0.359516,0.15281008,-0.19407072,0.345613,0.23487089,-0.2668262,0.413988,0.20593229,-0.23591055,0.382102,0.17819873,-0.22579334,0.365788,0.15268198,-0.21659571,0.350958,0.22855772,-0.29598472,0.419691,0.21962454,-0.26911322,0.389436,0.19210225,-0.25814082,0.375536,0.16831437,-0.24849295,0.36327
0.16932009,-0.29032417,0.464515,0.19231135,-0.26698213,0.440432,0.17982092,-0.26502106,0.458914,0.17501069,-0.23112664,0.440281,0.17400779,-0.20499384,0.422969,0.17383183,-0.19367957,0.408984,0.22624376,-0.22151044,0.414974,0.18224816,-0.19830283,0.388364,0.15977946,-0.18691804,0.375596,0.13902539,-0.17650908,0.36409,0.22477026,-0.24337406,0.413429,0.20515243,-0.21125165,0.38167,0.16711355,-0.20298459,0.363144,0.16096568,-0.21119326,0.368119,0.22137661,-0.26352871,0.414016,0.19905956,-0.23077123,0.384034,0.16619298,-0.22667679,0.368694,0.16132629,-0.23825094,0.374668,0.21290196,-0.29159759,0.418242,0.19335141,-0.2656487,0.389583,0.1670585,-0.25054976,0.376415,0.14489482,-0.23754848,0.364797
0.15599603,-0.28818376,0.465842,0.18314526,-0.2661759,0.441422,0.16731323,-0.26254778,0.459553,0.16461492,-0.22312304,0.440046,0.16281522,-0.19103659,0.42136,0.1532053,-0.18185523,0.40429,0.21759105,-0.22075767,0.41486,0.17362612,-0.19728668,0.387532,0.14998946,-0.18599332,0.374059,0.12823972,-0.17568567,0.361874,0.21629931,-0.24319804,0.414041,0.18794577,-0.2119971,0.381824,0.15105904,-0.20035826,0.36303,0.131803,-0.20545427,0.367837,0.21300641,-0.263806,0.415251,0.18835739,-0.23214034,0.384592,0.15562313,-0.22785094,0.368905,0.15069834,-0.23886324,0.374626,0.20454795,-0.29237156,0.420268,0.17573139,-0.26371758,0.391054,0.15097164,-0.24577651,0.377631,0.13409271,-0.23301074,0.366513
0.14958168,-0.28108977,0.459465,0.17322703,-0.25780746,0.436201,0.1661666,-0.26244528,0.461254,0.16398711,-0.22739096,0.452881,0.16516659,-0.19764187,0.444893,0.15713581,-0.18244575,0.433152,0.22028771,-0.22598421,0.420458,0.18372934,-0.19175644,0.400765,0.17245685,-0.2097195,0.414192,0.1830552,-0.23254483,0.428633,0.2066448,-0.23896183,0.410118,0.16441233,-0.19199594,0.381709,0.13309374,-0.17053829,0.365137,0.11593366,-0.16462984,0.368888,0.19315555,-0.24955509,0.403404,0.16230852,-0.20324841,0.379581,0.13616415,-0.20099978,0.367392,0.13865947,-0.21831423,0.372872,0.17214032,-0.26541366,0.398815,0.15102052,-0.21591478,0.375342,0.12691614,-0.21537525,0.364557,0.12477049,-0.23170881,0.36798
0.14903977,-0.28365861,0.463986,0.17351457,-0.25997721,0.43863,0.16520533,-0.26337679,0.462622,0.16157931,-0.22813691,0.449714,0.1540663,-0.20200925,0.436287,0.14609912,-0.18830455,0.422526,0.21309515,-0.22169284,0.417398,0.17168875,-0.18500971,0.393695,0.16121188,-0.17794955,0.407642,0.14771299,-0.18248418,0.422567,0.20511932,-0.2375626,0.410201,0.15459719,-0.19421354,0.37877,0.12509236,-0.17081561,0.360436,0.10657442,-0.16475444,0.363947,0.19398349,-0.25077068,0.406234,0.1614584,-0.20498192,0.378477,0.13549537,-0.19856524,0.364275,0.13815652,-0.21321614,0.369205,0.1758917,-0.27048126,0.405223,0.15185381,-0.22000439,0.378356,0.12685604,-0.21813446,0.366011,0.12388825,-0.23387092,0.368989
0.14492817,-0.28438047,0.469411,0.16913821,-0.25738087,0.443074,0.16234312,-0.2646314,0.467863,0.15884686,-0.23308778,0.454753,0.14690936,-0.21082597,0.440716,0.14093026,-0.20066125,0.427093,0.20873284,-0.21707169,0.420859,0.16692341,-0.18078361,0.396512,0.15577696,-0.17349749,0.409931,0.14192137,-0.17831874,0.4249,0.1998141,-0.23135753,0.413543,0.15079752,-0.18910299,0.381276,0.12266279,-0.16478619,0.362453,0.10611219,-0.16558169,0.365345,0.19026786,-0.24543916,0.409556,0.14355672,-0.20300881,0.381048,0.11957459,-0.18147812,0.366462,0.10165287,-0.18040935,0.370731,0.17438164,-0.26661796,0.408663,0.14504688,-0.21942141,0.381155,0.12243187,-0.2169719,0.368516,0.11580979,-0.22854391,0.370971
0.14250026,-0.28378983,0.475078,0.1675971,-0.25422793,0.449517,0.15649715,-0.2609701,0.473587,0.15370125,-0.22939747,0.460508,0.1453297,-0.20785087,0.447213,0.14127444,-0.20092016,0.433738,0.20784268,-0.21493786,0.42797,0.16628975,-0.17904238,0.40405,0.15507244,-0.17168707,0.417932,0.14277554,-0.17888911,0.432916,0.19894752,-0.22951569,0.420857,0.15030812,-0.18790224,0.389215,0.12227566,-0.16387392,0.370757,0.10632015,-0.16730937,0.374167,0.18936949,-0.24373128,0.416976,0.14297068,-0.2019025,0.388989,0.11905898,-0.18060966,0.374671,0.10257117,-0.18208209,0.379484,0.1733684,-0.26485413,0.416096,0.14438435,-0.21840309,0.389033,0.12112458,-0.21504208,0.376598,0.11247722,-0.22578452,0.379484
0.14284923,-0.28368711,0.478243,0.16957915,-0.25573031,0.452975,0.15793741,-0.26099207,0.476883,0.15643092,-0.23065453,0.463977,0.14804764,-0.20913987,0.450663,0.14185711,-0.19927146,0.436847,0.21035218,-0.21757058,0.431817,0.16918911,-0.18127008,0.408161,0.15826578,-0.17372819,0.422159,0.1444003,-0.17782489,0.437087,0.20088346,-0.23203139,0.424645,0.15391059,-0.18951859,0.393285,0.12676687,-0.16492273,0.374993,0.10919563,-0.16516437,0.378562,0.19081728,-0.24607311,0.420692,0.14489267,-0.20380379,0.392994,0.12123248,-0.18228674,0.378822,0.10359515,-0.18094356,0.383813,0.174221,-0.2668258,0.419685,0.1457603,-0.22024296,0.392868,0.1225778,-0.21660357,0.380546,0.11391265,-0.22722956,0.383573
0.19143549,-0.31079162,0.45891,0.18215677,-0.2659537,0.44434,0.18098692,-0.30622748,0.468776,0.16975589,-0.27559876,0.474379,0.18345046,-0.26155602,0.483533,0.18448346,-0.24221909,0.485301,0.18898935,-0.21532671,0.445229,0.16616081,-0.17200226,0.43025,0.14279924,-0.16085607,0.422761,0.12722233,-0.17441835,0.427621,0.19016483,-0.21203622,0.428004,0.14525306,-0.17792106,0.410565,0.1121453,-0.17413493,0.400392,0.10263457,-0.19351154,0.404998,0.19089108,-0.21307158,0.414956,0.14576556,-0.18043304,0.398585,0.12350456,-0.18863394,0.390209,0.12275185,-0.21389914,0.395595,0.19133414,-0.22158933,0.40155,0.14295259,-0.21586119,0.389717,0.14510253,-0.23701626,0.399538,0.16460721,-0.24921362,0.407915
0.19342146,-0.3191912,0.464846,0.19903394,-0.26386428,0.448947,0.19218905,-0.30576868,0.47418,0.1831031,-0.27465761,0.479636,0.19517584,-0.25784155,0.487081,0.18740281,-0.23932685,0.484603,0.19301411,-0.20993298,0.448159,0.16693486,-0.1698017,0.430873,0.14182849,-0.16778883,0.42223,0.12633098,-0.17747761,0.426199,0.19406573,-0.2077766,0.431122,0.14574108,-0.17801875,0.412548,0.11228307,-0.17537943,0.401714,0.10358511,-0.19491786,0.405804,0.19532833,-0.20984955,0.418331,0.14025819,-0.19733119,0.400454,0.12431542,-0.21338019,0.391307,0.1345524,-0.23449078,0.396006,0.19539757,-0.2217348,0.405426,0.14512915,-0.21727145,0.392423,0.14641073,-0.23360589,0.401924,0.16281295,-0.24483314,0.410184
0.19779753,-0.31970531,0.467393,0.19970399,-0.26505626,0.450859,0.1961599,-0.30615247,0.47666,0.18473476,-0.27564744,0.481904,0.1968721,-0.25849077,0.488824,0.19319044,-0.23788118,0.487499,0.19335563,-0.2106702,0.449497,0.15701985,-0.17340886,0.434226,0.13361356,-0.16054149,0.426591,0.11676746,-0.17297028,0.430817,0.19431597,-0.20839252,0.432321,0.13808761,-0.18905174,0.411081,0.12549213,-0.2087187,0.398691,0.1397995,-0.22387383,0.401714,0.19467549,-0.21206232,0.419464,0.14021419,-0.18524349,0.397554,0.12286786,-0.19939188,0.386344,0.13370718,-0.2203532,0.389439,0.19645416,-0.22164327,0.406573,0.14584568,-0.21767117,0.393227,0.1462697,-0.23389172,0.402311,0.16268535,-0.24513257,0.41053
0.20892024,-0.31947076,0.47041,0.20627966,-0.26788106,0.455069,0.20808268,-0.30717324,0.481804,0.20138782,-0.28035621,0.489715,0.21594088,-0.26364611,0.496833,0.21344259,-0.24305775,0.496,0.20790903,-0.21548242,0.45724,0.16768191,-0.17713907,0.43816,0.14091944,-0.16741845,0.42862,0.12390188,-0.17752311,0.429431,0.20566846,-0.21190625,0.437868,0.14798569,-0.19096331,0.415101,0.13053284,-0.21014214,0.401821,0.14390183,-0.22396076,0.402132,0.20420126,-0.21280867,0.423112,0.14210537,-0.18507706,0.394534,0.12880621,-0.19947843,0.379913,0.14132387,-0.21757305,0.378439,0.2000007,-0.22105958,0.407785,0.14982534,-0.22007499,0.39758,0.14832262,-0.23433645,0.404257,0.16384924,-0.24470003,0.410438
0.2113294,-0.32007642,0.471222,0.2121033,-0.26878127,0.456004,0.21080117,-0.30778488,0.482622,0.20269938,-0.28080539,0.490592,0.21725513,-0.26414182,0.497789,0.21478377,-0.24358729,0.497026,0.20925075,-0.2160162,0.458279,0.16814868,-0.17823417,0.43907,0.14313866,-0.16639638,0.429466,0.1267173,-0.17982796,0.430344,0.20702934,-0.21245831,0.438942,0.14936463,-0.19155314,0.416264,0.1358906,-0.21056071,0.403035,0.14630891,-0.22463836,0.403477,0.20557566,-0.21337341,0.424206,0.14640529,-0.1869094,0.395725,0.13016947,-0.20012349,0.381153,0.14215014,-0.21785938,0.379827,0.20282045,-0.22178205,0.408884,0.1524543,-0.21993514,0.398722,0.15361663,-0.2344776,0.405525,0.16623813,-0.2455377,0.411739
0.21200984,-0.31825913,0.468846,0.21259046,-0.26753092,0.454601,0.21184505,-0.30626286,0.480506,0.2033826,-0.27955975,0.489117,0.21828938,-0.26345516,0.497135,0.21664039,-0.24326403,0.496937,0.21028159,-0.21550374,0.457945,0.16901372,-0.17846402,0.439441,0.14414593,-0.16761278,0.43019,0.12770363,-0.18029054,0.431687,0.20798514,-0.21191688,0.438629,0.15112173,-0.18284652,0.416802,0.13788185,-0.2032702,0.40407,0.14970462,-0.22338679,0.405155,0.20643709,-0.2127665,0.423836,0.14861586,-0.1792724,0.396185,0.1326696,-0.19077869,0.382038,0.14182534,-0.20917743,0.38142,0.20526155,-0.22108606,0.408303,0.15632151,-0.21853393,0.398798,0.15441099,-0.23401434,0.406119,0.16731332,-0.24539906,0.412302
0.21262734,-0.31825604,0.467425,0.21271047,-0.2675669,0.452655,0.21705941,-0.30664849,0.478571,0.20694304,-0.28324356,0.486352,0.22433095,-0.27026756,0.496363,0.22551891,-0.25114483,0.497534,0.2137228,-0.21891559,0.454962,0.17425308,-0.18278538,0.438701,0.14726547,-0.17105507,0.430571,0.12907943,-0.18140526,0.433157,0.21210565,-0.21478335,0.436095,0.1590606,-0.18322641,0.413626,0.13786405,-0.20065752,0.400519,0.14851051,-0.22048222,0.401855,0.21107204,-0.21522398,0.421711,0.15641811,-0.18320694,0.401677,0.13670004,-0.19598194,0.391427,0.1461515,-0.22072372,0.393593,0.21043386,-0.22316992,0.406743,0.15888844,-0.21716115,0.396363,0.15580551,-0.23351313,0.404109,0.170049,-0.24466797,0.410765
0.21617268,-0.31516662,0.463738,0.21693622,-0.25809983,0.449123,0.21693696,-0.30355899,0.475452,0.20532703,-0.27493661,0.484022,0.22472678,-0.26165863,0.494084,0.21965736,-0.24372835,0.493942,0.21542021,-0.20621539,0.45225,0.16736877,-0.17818532,0.433026,0.14525323,-0.18679412,0.423414,0.14160657,-0.20544217,0.424266,0.21225777,-0.20127163,0.432738,0.1541577,-0.20098819,0.410688,0.1508798,-0.22088269,0.397825,0.16671503,-0.23228085,0.398416,0.21002019,-0.20107661,0.417811,0.14857052,-0.18576294,0.389883,0.13522395,-0.20033062,0.375594,0.14660731,-0.21736565,0.374411,0.20806955,-0.20833747,0.402174,0.15797722,-0.20446775,0.392639,0.15164066,-0.22229405,0.39946,0.16408189,-0.23747384,0.405462
0.21670844,-0.31333626,0.461829,0.21688333,-0.2571811,0.447179,0.21704791,-0.3017614,0.473288,0.20662508,-0.27399248,0.48137,0.22686061,-0.26587975,0.492494,0.22276647,-0.24606833,0.49308,0.21292695,-0.20549449,0.449964,0.16479614,-0.17800396,0.430402,0.14295713,-0.18694287,0.42062,0.13973233,-0.2059529,0.421802,0.21096719,-0.20018203,0.430753,0.15353679,-0.20079917,0.40851,0.15091106,-0.22064348,0.395535,0.16709067,-0.23192077,0.396505,0.2098072,-0.1996863,0.416077,0.14874664,-0.18532933,0.388056,0.13615007,-0.2000268,0.37372,0.14824124,-0.21705971,0.372988,0.20931856,-0.20659336,0.400743,0.15927276,-0.20487387,0.390831,0.15665799,-0.22554175,0.39812,0.16704781,-0.23848473,0.404435
0.24515984,-0.3027378,0.431456,0.23185801,-0.2588305,0.427575,0.24630281,-0.29948101,0.44719,0.25459329,-0.33309343,0.477472,0.2801622,-0.3534554,0.505648,0.28056491,-0.36826558,0.523107,0.22342623,-0.2222229,0.443919,0.18457409,-0.19195538,0.435473,0.16006762,-0.19290142,0.431249,0.14777361,-0.21314032,0.436289,0.21719572,-0.2105367,0.423223,0.1649303,-0.20957612,0.417587,0.17345364,-0.24315933,0.429467,0.19517527,-0.25609574,0.435234,0.21309051,-0.20421252,0.406494,0.15955697,-0.19584591,0.396856,0.15455171,-0.21524728,0.391925,0.17115848,-0.23469418,0.397398,0.21016571,-0.20299714,0.387139,0.16909984,-0.21732642,0.38729,0.16638751,-0.23726164,0.395944,0.17990151,-0.24869931,0.399246
0.25035134,-0.30255045,0.431189,0.24192238,-0.25826753,0.426645,0.25117459,-0.29894995,0.446397,0.2651226,-0.33288066,0.477167,0.29084235,-0.3534526,0.505644,0.29170216,-0.36879358,0.523857,0.23277868,-0.22117716,0.44183,0.19532078,-0.19209952,0.4358,0.17136579,-0.19358848,0.432785,0.1660575,-0.21469638,0.439011,0.22677341,-0.20970395,0.421549,0.17511774,-0.20892669,0.416293,0.18436493,-0.24287057,0.428957,0.20615714,-0.25585979,0.434833,0.22289498,-0.20356898,0.405213,0.17227878,-0.19831979,0.401869,0.16868882,-0.21976889,0.400158,0.18690951,-0.24099328,0.408064,0.22032348,-0.2026217,0.386423,0.17894457,-0.21635675,0.385562,0.17649912,-0.23650601,0.394683,0.19006325,-0.24824894,0.398523
0.25559846,-0.30243678,0.431027,0.25236856,-0.25814222,0.426438,0.26168964,-0.29883342,0.446223,0.27580588,-0.3328702,0.477152,0.30150866,-0.35343373,0.505617,0.30250126,-0.36887172,0.523968,0.2430427,-0.22105001,0.441576,0.20599787,-0.19216388,0.435946,0.18223939,-0.19374325,0.433131,0.17716066,-0.21492037,0.439469,0.2370667,-0.2095771,0.421294,0.18568368,-0.20877763,0.415996,0.19534002,-0.24269392,0.428645,0.21716835,-0.25568268,0.434532,0.23322585,-0.20344238,0.404961,0.18342905,-0.19880095,0.402844,0.18029826,-0.22064872,0.40176,0.19902149,-0.24215494,0.410031,0.23072477,-0.20249428,0.38618,0.18940663,-0.21620019,0.385283,0.18700315,-0.23633224,0.394393,0.20040887,-0.24807327,0.398241
0.27262537,-0.30388074,0.432249,0.2637418,-0.25935737,0.426675,0.27263848,-0.29990516,0.446716,0.28564099,-0.33449416,0.4771,0.31130256,-0.35516107,0.505787,0.31240209,-0.37030889,0.524046,0.25299967,-0.22180638,0.440155,0.21681117,-0.19420144,0.436041,0.19358149,-0.19586822,0.433984,0.18891913,-0.21752449,0.441314,0.24789722,-0.21023273,0.420425,0.19658717,-0.20909893,0.413729,0.2058214,-0.24354715,0.427171,0.22793778,-0.25704266,0.433812,0.24482291,-0.2040394,0.404622,0.19664244,-0.20117965,0.404653,0.19276399,-0.22364497,0.404669,0.21238209,-0.24631724,0.414196,0.24333813,-0.20308606,0.386617,0.20206874,-0.21806228,0.384322,0.21643979,-0.23987669,0.393957,0.22875504,-0.25590179,0.398501
0.27707973,-0.30997938,0.434664,0.26636655,-0.26998014,0.415085,0.2802462,-0.30182023,0.444907,0.28585277,-0.31995613,0.47552,0.30716169,-0.32316496,0.502247,0.30188711,-0.32597812,0.515639,0.25469717,-0.21519902,0.412574,0.21050816,-0.18102829,0.388717,0.18835079,-0.16389658,0.376789,0.16733107,-0.16811746,0.373521,0.24791991,-0.21572192,0.393133,0.20902802,-0.17152623,0.36974,0.1742254,-0.16125363,0.356094,0.1596628,-0.17328479,0.35356,0.24362105,-0.21989434,0.378648,0.20324037,-0.18207669,0.366624,0.18247684,-0.16263024,0.360471,0.1604636,-0.16832606,0.361061,0.2409318,-0.23199933,0.364264,0.21274162,-0.18968578,0.35166,0.19614491,-0.19908383,0.353842,0.197759,-0.21906567,0.35952
0.28632557,-0.31556322,0.436095,0.27713687,-0.27017982,0.415392,0.28953152,-0.30485325,0.445847,0.2974475,-0.32101251,0.47709,0.31776086,-0.32316947,0.502254,0.31106129,-0.32449376,0.513291,0.26446143,-0.21459188,0.41141,0.21956725,-0.17981559,0.386113,0.197151,-0.1624507,0.373465,0.17584094,-0.16619873,0.369258,0.25781471,-0.21519844,0.392179,0.21797967,-0.1702514,0.366992,0.18339647,-0.15743744,0.3523,0.16623417,-0.16720637,0.348764,0.25368831,-0.21949073,0.377953,0.21282703,-0.1812354,0.36493,0.19189299,-0.16163588,0.358267,0.16976029,-0.16689157,0.357984,0.25133391,-0.23185794,0.364042,0.22249301,-0.1891194,0.35061,0.20648387,-0.19883965,0.353408,0.20831788,-0.21888288,0.35922
0.3351562,-0.36617352,0.450468,0.3119828,-0.31895423,0.429443,0.33047502,-0.35213072,0.459424,0.33629226,-0.3695758,0.49033,0.36854496,-0.3707046,0.517495,0.37104595,-0.37179744,0.532879,0.28840594,-0.26541531,0.424237,0.24901634,-0.2254033,0.396359,0.2292249,-0.20548799,0.382421,0.21132001,-0.18818591,0.370653,0.28601837,-0.26607962,0.405871,0.26158672,-0.2128419,0.377855,0.2256212,-0.21202576,0.361513,0.217493,-0.22618443,0.35897,0.28585067,-0.27027522,0.392382,0.24911134,-0.22520611,0.375511,0.22766986,-0.20456785,0.366879,0.20609837,-0.2061044,0.36738,0.28906169,-0.28220696,0.379395,0.254164,-0.24181919,0.364402,0.2382879,-0.22345948,0.357513,0.2217958,-0.22663771,0.357709
0.298572,-0.33432731,0.463636,0.2947021,-0.29680699,0.434467,0.29881135,-0.31674872,0.465317,0.27264851,-0.29206087,0.462394,0.25398551,-0.27432799,0.467674,0.23860959,-0.25657034,0.463513,0.30454983,-0.23812186,0.414037,0.2518254,-0.2057973,0.385815,0.22596754,-0.18988896,0.371704,0.20368543,-0.17886437,0.358876,0.29574797,-0.2494614,0.401762,0.25029924,-0.20250881,0.369288,0.22218995,-0.17641023,0.350345,0.20179115,-0.17382489,0.349021,0.28844052,-0.26230727,0.393912,0.25238677,-0.21286729,0.366939,0.22459741,-0.19388674,0.353139,0.20112781,-0.19964848,0.353265,0.27953046,-0.28427736,0.388835,0.26529156,-0.23259937,0.362837,0.24082695,-0.21789495,0.350892,0.22066689,-0.22250306,0.35012
0.29807389,-0.33356214,0.462842,0.29797478,-0.29430965,0.434937,0.3013924,-0.31649425,0.466442,0.27973239,-0.28939312,0.46517,0.25555684,-0.26677107,0.462229,0.23629348,-0.24982785,0.454934,0.3153699,-0.23581333,0.41784,0.26035558,-0.21509844,0.398475,0.23390909,-0.20499774,0.388792,0.21899628,-0.2082655,0.38306,0.30375007,-0.24565968,0.403649,0.25329317,-0.20304596,0.373366,0.22325848,-0.17890481,0.355701,0.20443508,-0.16793091,0.353857,0.29399152,-0.2570607,0.394126,0.26392438,-0.21075542,0.369898,0.23744666,-0.19152172,0.357502,0.2115911,-0.17593399,0.346232,0.28194188,-0.27690855,0.38687,0.2764012,-0.23047452,0.363339,0.25048852,-0.21864604,0.352528,0.23365644,-0.22290044,0.351473
0.30703719,-0.34427314,0.472573,0.30638739,-0.29886004,0.447524,0.31282598,-0.32320394,0.477742,0.28425701,-0.29820336,0.475408,0.26281608,-0.27443978,0.473246,0.24735967,-0.25494724,0.466555,0.30987946,-0.23948425,0.434558,0.25596175,-0.22803408,0.417969,0.23001315,-0.22236415,0.409674,0.21663205,-0.23003754,0.411907,0.3002012,-0.24724149,0.419439,0.27659921,-0.19494483,0.391964,0.24254704,-0.17561505,0.375937,0.22538573,-0.16700294,0.375655,0.29245768,-0.25726489,0.408932,0.27520159,-0.20440941,0.387671,0.24405581,-0.2024361,0.376793,0.21667277,-0.20049263,0.366904,0.2836098,-0.27611674,0.400086,0.28194691,-0.23635085,0.370135,0.25947341,-0.22135431,0.356374,0.23869212,-0.22346699,0.354916
0.31093802,-0.35571781,0.48454,0.31126667,-0.30958277,0.459435,0.29937219,-0.34370995,0.482541,0.27086361,-0.30574955,0.46872,0.25206753,-0.27572496,0.462866,0.24401966,-0.25076572,0.457316,0.30322275,-0.24588395,0.437618,0.27013666,-0.2103876,0.409077,0.25347848,-0.19247133,0.394806,0.24294117,-0.19010075,0.398695,0.31388414,-0.25476977,0.431288,0.26153633,-0.23349459,0.399811,0.23895334,-0.24346801,0.381449,0.24445697,-0.25625501,0.385305,0.32293988,-0.2663857,0.428017,0.29411073,-0.21683668,0.398704,0.27440734,-0.1961984,0.383706,0.25460337,-0.17953911,0.370072,0.3340666,-0.28869047,0.427797,0.3361868,-0.23881045,0.398808,0.31523221,-0.22905276,0.385488,0.30643392,-0.2329203,0.388908
0.34291227,-0.36154156,0.481274,0.32788566,-0.30838818,0.455164,0.32295998,-0.34229666,0.477991,0.28780902,-0.31109565,0.462425,0.26093033,-0.2829818,0.452228,0.25204882,-0.2617329,0.448322,0.29226372,-0.245625,0.430993,0.27424208,-0.19462044,0.402162,0.25980798,-0.17736153,0.387747,0.25370455,-0.18795268,0.391958,0.31042337,-0.25083358,0.42589,0.29018369,-0.19758241,0.392037,0.27116544,-0.17899406,0.37229,0.2647756,-0.19233434,0.37549,0.32756267,-0.2577489,0.423705,0.30768149,-0.20519498,0.390073,0.29499423,-0.1824225,0.372867,0.27548303,-0.18114391,0.357224,0.34994416,-0.27463822,0.424926,0.33242736,-0.22404559,0.395003,0.3135973,-0.2245591,0.381254,0.31252749,-0.23018497,0.383978
0.32898728,-0.35581083,0.475333,0.32461802,-0.30720561,0.453417,0.30648772,-0.33734476,0.471173,0.27692484,-0.30107637,0.455532,0.25374239,-0.27388855,0.448332,0.24940912,-0.25758572,0.447164,0.29819914,-0.24188181,0.431402,0.27775129,-0.19710441,0.404313,0.27098315,-0.17705249,0.390769,0.26761577,-0.18252111,0.39675,0.31521301,-0.25025168,0.428844,0.29727662,-0.20261313,0.398791,0.28892708,-0.17796789,0.38126,0.2748595,-0.17086935,0.368737,0.3327896,-0.25973432,0.42843,0.32704954,-0.2075351,0.40705,0.3232732,-0.18147685,0.396112,0.3119712,-0.17238531,0.386168,0.35544671,-0.27875098,0.431145,0.35130641,-0.22711845,0.40544,0.33794722,-0.22261135,0.39363,0.33983929,-0.22790991,0.399374
0.33191199,-0.35716884,0.476537,0.33049544,-0.30627429,0.455983,0.31336392,-0.33603868,0.468935,0.2840282,-0.29807234,0.453961,0.258834,-0.27074472,0.444015,0.24832185,-0.25412941,0.443046,0.30137014,-0.23663099,0.430788,0.28171979,-0.19712948,0.404257,0.27297792,-0.17612279,0.390991,0.2709295,-0.18253566,0.397605,0.32561243,-0.24471512,0.432937,0.30883003,-0.19957266,0.40386,0.29909609,-0.17292268,0.386898,0.28242313,-0.17209007,0.374783,0.34659534,-0.25552666,0.43629,0.33422141,-0.20495065,0.407477,0.32784409,-0.17922201,0.392735,0.31444259,-0.17295576,0.379334,0.37335925,-0.27653622,0.443294,0.36798633,-0.22435374,0.41747,0.35644732,-0.21951682,0.405605,0.36048247,-0.22414571,0.411392
0.33597141,-0.35815126,0.474401,0.33715571,-0.30575346,0.458478,0.31559948,-0.33625797,0.468943,0.29101813,-0.30213473,0.455038,0.26512817,-0.27398611,0.443636,0.25318585,-0.25261973,0.435686,0.30988377,-0.24223881,0.439491,0.2968242,-0.20092307,0.417209,0.2891121,-0.17961326,0.406067,0.29021373,-0.18541056,0.414862,0.33366075,-0.24948436,0.440625,0.32262662,-0.20441309,0.416203,0.31497747,-0.17741155,0.401957,0.30589242,-0.16610521,0.391782,0.35393963,-0.25941179,0.442786,0.34614428,-0.20786632,0.418579,0.34100142,-0.18169518,0.406194,0.330051,-0.17346626,0.394935,0.37926425,-0.27895298,0.447692,0.37616998,-0.22858203,0.426259,0.36997475,-0.21508102,0.416411,0.37892086,-0.21161007,0.424215
0.33830971,-0.3576303,0.475954,0.34115537,-0.30628095,0.462302,0.3165097,-0.33444158,0.46845,0.29118199,-0.29945547,0.455333,0.26490416,-0.27163837,0.442946,0.25130962,-0.2498543,0.436237,0.31704305,-0.23961356,0.442551,0.30157174,-0.19562464,0.421388,0.29383399,-0.17344574,0.410806,0.29860695,-0.17763789,0.420019,0.34213276,-0.25120981,0.446995,0.33187984,-0.20095646,0.424382,0.32501818,-0.17333333,0.411191,0.31839947,-0.16361794,0.401769,0.36449667,-0.26252555,0.451704,0.35591257,-0.2076287,0.429292,0.3508132,-0.18101981,0.417826,0.34390249,-0.17194954,0.407402,0.39272042,-0.2812933,0.459311,0.38958461,-0.23444671,0.442205,0.38604509,-0.21787712,0.434346,0.38400447,-0.20483592,0.427411
0.35497642,-0.35995733,0.483158,0.36106746,-0.30662421,0.470839,0.3319723,-0.33781202,0.475869,0.3075994,-0.30343295,0.460106,0.28082853,-0.27692745,0.449711,0.26241505,-0.2560718,0.442943,0.32691766,-0.24581456,0.452381,0.31170666,-0.20562996,0.432474,0.30359222,-0.18718658,0.42252,0.30849087,-0.18025737,0.432248,0.35405823,-0.25138035,0.457027,0.34136323,-0.20428291,0.435729,0.3331652,-0.17937166,0.423305,0.32734383,-0.16115397,0.414431,0.37751073,-0.25978824,0.4618,0.36563577,-0.21110919,0.440747,0.36033651,-0.18519178,0.429976,0.35396435,-0.16164074,0.420184,0.40735371,-0.27735011,0.469288,0.4003339,-0.22757103,0.451038,0.39595786,-0.21111274,0.442653,0.39216706,-0.19630784,0.435254
0.37192711,-0.35527588,0.485193,0.36734848,-0.29955044,0.474858,0.3467969,-0.33562134,0.478435,0.31256587,-0.29773985,0.462262,0.28505045,-0.27195868,0.45228,0.27199569,-0.25610942,0.449448,0.33123895,-0.24220956,0.458583,0.31782597,-0.20190354,0.440832,0.31040896,-0.18422423,0.431957,0.31700086,-0.17852636,0.442535,0.35852814,-0.24587857,0.463271,0.34442739,-0.2001704,0.443972,0.33590055,-0.17445037,0.432714,0.32981477,-0.15563075,0.424673,0.3822133,-0.2525451,0.467925,0.37173341,-0.20266518,0.449199,0.36603749,-0.17852244,0.439618,0.36089585,-0.156251,0.430908,0.41262998,-0.26771784,0.474981,0.40638389,-0.21905963,0.45859,0.40195121,-0.20521097,0.451059,0.39811304,-0.19265758,0.444414
0.37379963,-0.35273274,0.48458,0.36897432,-0.29928624,0.475465,0.3486565,-0.33389344,0.478263,0.31338027,-0.29765161,0.462006,0.28468578,-0.27478127,0.452873,0.27282386,-0.25590492,0.449973,0.33316111,-0.24313662,0.460672,0.32052993,-0.20287475,0.444141,0.31367704,-0.18482382,0.435876,0.32075359,-0.17524649,0.446943,0.36045739,-0.2464565,0.465246,0.3475065,-0.20049445,0.4472,0.33969657,-0.17477065,0.436673,0.33412674,-0.15591593,0.429154,0.3840806,-0.25277343,0.469712,0.37473777,-0.20267602,0.452308,0.36959099,-0.17932517,0.443403,0.36496225,-0.15767306,0.435309,0.41430823,-0.26738952,0.476365,0.40776103,-0.21922545,0.461109,0.40388705,-0.20486672,0.4541,0.4005433,-0.1918412,0.447915
0.37082824,-0.35503511,0.48953,0.36938552,-0.30012727,0.482839,0.34615471,-0.33465365,0.482207,0.3205223,-0.29916935,0.476534,0.29446423,-0.27205639,0.464074,0.27792668,-0.25233346,0.453917,0.34044395,-0.24473288,0.468682,0.32773143,-0.19752096,0.453197,0.32143422,-0.18200518,0.445454,0.32860876,-0.17590769,0.456698,0.36937927,-0.25068603,0.475344,0.36106472,-0.20269212,0.459568,0.35601845,-0.17634099,0.450366,0.34948954,-0.15900562,0.443792,0.39398711,-0.25996414,0.481341,0.38535811,-0.2090144,0.465485,0.37987528,-0.18544877,0.457373,0.37579155,-0.16315489,0.449998,0.42301206,-0.27862724,0.489463,0.41527824,-0.23163402,0.474659,0.41197576,-0.21083281,0.467857,0.41090623,-0.19501576,0.461856
0.38119174,-0.35312405,0.498421,0.37737833,-0.29712358,0.492165,0.35522751,-0.33076342,0.491031,0.32574116,-0.2936962,0.482111,0.29985891,-0.26663109,0.469138,0.28760355,-0.24521808,0.461426,0.35062565,-0.23902489,0.478266,0.33545527,-0.20002138,0.462637,0.32913403,-0.18033458,0.454823,0.33568712,-0.17008976,0.465992,0.3793777,-0.24726909,0.485171,0.37013643,-0.19939342,0.469838,0.36461661,-0.17332154,0.460893,0.36070839,-0.15419858,0.454504,0.4035072,-0.25763262,0.491336,0.39401412,-0.20724109,0.475764,0.3892239,-0.18242725,0.467798,0.38489279,-0.15963291,0.460555,0.43275975,-0.27694426,0.499595,0.42345289,-0.2289245,0.485036,0.41918703,-0.20731548,0.478347,0.41573323,-0.18968657,0.472445
0.38869438,-0.35373939,0.512095,0.38894706,-0.30245655,0.503305,0.36416435,-0.33282353,0.503965,0.34095421,-0.29978887,0.490691,0.3124882,-0.27204126,0.473316,0.29437488,-0.24906805,0.465652,0.35823536,-0.243043,0.486547,0.34203458,-0.20045026,0.468514,0.33394701,-0.1804877,0.459497,0.33992844,-0.16861905,0.469772,0.3874177,-0.25060079,0.493478,0.37632384,-0.19825138,0.47553,0.3698017,-0.17204499,0.46506,0.36417767,-0.15406303,0.457582,0.4120622,-0.26049487,0.49986,0.39991622,-0.20843877,0.481617,0.39388754,-0.18281668,0.472283,0.38841739,-0.15942684,0.463798,0.44388511,-0.27688204,0.50875,0.4305489,-0.23051896,0.491379,0.42545565,-0.20860255,0.483759,0.42125821,-0.1902794,0.477036
0.3912618,-0.35266415,0.51456,0.39406729,-0.3010333,0.507033,0.36729672,-0.33228444,0.507143,0.34459942,-0.2960982,0.498485,0.31849199,-0.26752579,0.48183,0.30675384,-0.24585144,0.473711,0.36420478,-0.24325657,0.492126,0.34875154,-0.20103798,0.475297,0.34107208,-0.18021178,0.466883,0.34752357,-0.16766247,0.477718,0.39313888,-0.25031302,0.49863,0.38264123,-0.1964434,0.481997,0.37617789,-0.17343838,0.472294,0.37202766,-0.15491503,0.465363,0.41745043,-0.25971934,0.504565,0.40521669,-0.20763264,0.487544,0.39939396,-0.18249753,0.478836,0.39414548,-0.15964243,0.470919,0.4470682,-0.27787398,0.512739,0.43552486,-0.22997256,0.495962,0.43020564,-0.20815201,0.488253,0.42512524,-0.1909378,0.481452
0.40658424,-0.35069609,0.525933,0.40403076,-0.29480673,0.514628,0.3814001,-0.33131485,0.518019,0.35495664,-0.2967593,0.503661,0.32220993,-0.26905897,0.484959,0.30897,-0.24759175,0.475961,0.366649,-0.24035208,0.496205,0.34624317,-0.19198775,0.476836,0.33708505,-0.17416319,0.467152,0.34537695,-0.16627638,0.47703,0.39452438,-0.24195311,0.502004,0.37807474,-0.19102074,0.481562,0.36887366,-0.16423367,0.469638,0.36239609,-0.14563413,0.46112,0.41928953,-0.24901364,0.507654,0.40614973,-0.19743251,0.49294,0.39997003,-0.17246512,0.485412,0.39468581,-0.15079403,0.478568,0.45060782,-0.26459218,0.516043,0.43423121,-0.21552128,0.496981,0.4267038,-0.19331867,0.488222,0.42113939,-0.17720912,0.480494
0.40187349,-0.34981632,0.520776,0.40109029,-0.3042034,0.513641,0.3775361,-0.33076173,0.513783,0.35476963,-0.29818331,0.502428,0.32394757,-0.26955313,0.48566,0.31150009,-0.24860903,0.478379,0.37070063,-0.24553528,0.499555,0.35429821,-0.2011805,0.483255,0.34477068,-0.17921789,0.475105,0.35196345,-0.16867895,0.486198,0.39950316,-0.25175602,0.505674,0.38748807,-0.19986367,0.489474,0.38110145,-0.17359809,0.480024,0.37689369,-0.15305073,0.476686,0.42376036,-0.26046809,0.511263,0.41121077,-0.20863596,0.496386,0.40546992,-0.18372357,0.488774,0.39952218,-0.15830399,0.481855,0.45346726,-0.27778895,0.518966,0.4429047,-0.22824517,0.505304,0.43747645,-0.20679069,0.499027,0.43461508,-0.19114251,0.493489
