sluyters/QuantumLeap/src/datasets/gesture/HandGestureDataset_SHREC2017_csv/Gesture2/finger_1/subject_24_essai_3_skeletons_world.csv
Wrist_x,Wrist_y,Wrist_z,Palm_x,Palm_y,Palm_z,thumb_base_x,thumb_base_y,thumb_base_z,thumb_first_joint_x,thumb_first_joint_y,thumb_first_joint_z,thumb_second_joint_x,thumb_second_joint_y,thumb_second_joint_z,thumb_tip_x,thumb_tip_y,thumb_tip_z,index_base_x,index_base_y,index_base_z,index_first_joint_x,index_first_joint_y,index_first_joint_z,index_second_joint_x,index_second_joint_y,index_second_joint_z,index_tip_x,index_tip_y,index_tip_z,middle_base_x,middle_base_y,middle_base_z,middle_first_joint_x,middle_first_joint_y,middle_first_joint_z,middle_second_joint_x,middle_second_joint_y,middle_second_joint_z,middle_tip_x,middle_tip_y,middle_tip_z,ring_base_x,ring_base_y,ring_base_z,ring_first_joint_x,ring_first_joint_y,ring_first_joint_z,ring_second_joint_x,ring_second_joint_y,ring_second_joint_z,ring_tip_x,ring_tip_y,ring_tip_z,pinky_base_x,pinky_base_y,pinky_base_z,pinky_first_joint_x,pinky_first_joint_y,pinky_first_joint_z,pinky_second_joint_x,pinky_second_joint_y,pinky_second_joint_z,pinky_tip_x,pinky_tip_y,pinky_tip_z,r
0.416317162,-0.363721911,0.540105,0.41587156,-0.312631602,0.518098,0.396944926,-0.339797124,0.531543,0.384689452,-0.312293465,0.519869,0.371255711,-0.279798226,0.50092,0.371591507,-0.255819227,0.493451,0.390039795,-0.254060694,0.492938,0.389737934,-0.218371362,0.491251,0.390797593,-0.199529222,0.490407,0.395965641,-0.181566367,0.490174,0.414448538,-0.267394882,0.497134,0.417174211,-0.22222806,0.479732,0.406571656,-0.22047582,0.469581,0.40958459,-0.23700004,0.479313,0.434835463,-0.282850504,0.502522,0.417833991,-0.243359178,0.475802,0.402123514,-0.251264402,0.462131,0.387368731,-0.26029712,0.449703,0.459175627,-0.309377324,0.512367,0.443710328,-0.2709709,0.489228,0.43358103,-0.269462598,0.478597,0.422640924,-0.275407614,0.469216
0.414906669,-0.363918353,0.539608,0.41405267,-0.312047392,0.516236,0.394986612,-0.339591346,0.530282,0.383903854,-0.312232769,0.517559,0.369818198,-0.279420028,0.497827,0.36734577,-0.257820998,0.488295,0.385764846,-0.254159336,0.489222,0.389385232,-0.218122673,0.489266,0.391248672,-0.199568987,0.489288,0.395057399,-0.181630776,0.489309,0.411884537,-0.26666226,0.493972,0.412647326,-0.221450184,0.474971,0.402735643,-0.218942202,0.463886,0.403738982,-0.237940333,0.472957,0.432821484,-0.282301711,0.499936,0.413931113,-0.244667666,0.471962,0.397877071,-0.251924911,0.457649,0.383075735,-0.25936122,0.444638,0.458054192,-0.309130226,0.510677,0.442554352,-0.27079504,0.486569,0.432230757,-0.268128324,0.475492,0.421155603,-0.273014641,0.465718
0.415402706,-0.36653498,0.542118,0.409276968,-0.315450715,0.516198,0.393745388,-0.342030869,0.531809,0.383782807,-0.322725191,0.518104,0.369254415,-0.291291746,0.495806,0.368618344,-0.272173322,0.486223,0.375560554,-0.256906439,0.486282,0.379874634,-0.221725968,0.486838,0.38209676,-0.203533616,0.487115,0.387062552,-0.183938437,0.487368,0.401305039,-0.269536698,0.491507,0.397636813,-0.222072489,0.471777,0.384522949,-0.221648989,0.460268,0.385883152,-0.241705931,0.469013,0.423490167,-0.28465466,0.498086,0.408269176,-0.250937992,0.468016,0.388378887,-0.255268657,0.452632,0.367992859,-0.262159861,0.438646,0.45112431,-0.31121267,0.509956,0.440060438,-0.270704731,0.484214,0.428953107,-0.267273121,0.472386,0.416521739,-0.271751266,0.461951
0.414209217,-0.367660447,0.542436,0.408446852,-0.316164254,0.516229,0.393377933,-0.342717852,0.532072,0.383864289,-0.32279371,0.518214,0.369338572,-0.291358135,0.495919,0.368618344,-0.272173322,0.486223,0.37538524,-0.256786513,0.486055,0.37975603,-0.221656741,0.486686,0.382007337,-0.203485982,0.487001,0.386030277,-0.184806764,0.487288,0.401106635,-0.26940344,0.491264,0.397543257,-0.222020239,0.471666,0.384494544,-0.221632616,0.460234,0.385902898,-0.241718299,0.469037,0.423292062,-0.284521501,0.497853,0.407884474,-0.25070154,0.467575,0.387908678,-0.254959605,0.452084,0.36745175,-0.261774373,0.438001,0.450969499,-0.311105872,0.509781,0.439575024,-0.271126314,0.483874,0.428348559,-0.267487568,0.471971,0.415472009,-0.271940017,0.461468
0.408824744,-0.364693859,0.537699,0.40016375,-0.315025499,0.510658,0.386584718,-0.338680339,0.525345,0.375457818,-0.31945263,0.507136,0.363935851,-0.289084038,0.482533,0.365652419,-0.271165889,0.472546,0.366429131,-0.251728345,0.477428,0.372476219,-0.216547775,0.478275,0.375594369,-0.198330143,0.478698,0.379774498,-0.181859848,0.479715,0.393878814,-0.266092304,0.484898,0.393143109,-0.219502377,0.466545,0.381848363,-0.219220633,0.455839,0.382698166,-0.23952503,0.464825,0.418844279,-0.282238453,0.493423,0.403092049,-0.247813198,0.461791,0.382777352,-0.251566133,0.445607,0.361629808,-0.257831529,0.430895,0.448347567,-0.310354226,0.507762,0.436842916,-0.271024174,0.480932,0.424600453,-0.267686469,0.468605,0.410696828,-0.271266703,0.457729
0.404085914,-0.362534138,0.533794,0.391639715,-0.312328642,0.505496,0.379414901,-0.338115875,0.521291,0.370645845,-0.316764012,0.502389,0.360154334,-0.286767749,0.477732,0.361965892,-0.268741646,0.467134,0.36087705,-0.248329537,0.471259,0.365253227,-0.211704606,0.469027,0.367956794,-0.19296511,0.467911,0.36965627,-0.176207845,0.466896,0.387944415,-0.262700602,0.47854,0.386244762,-0.215534418,0.458469,0.375218759,-0.21528916,0.446761,0.376184281,-0.235069186,0.455099,0.411151566,-0.279338485,0.487019,0.398040303,-0.245130432,0.454535,0.378264053,-0.248790044,0.437915,0.355935664,-0.25456998,0.422806,0.439888062,-0.307878825,0.501505,0.429513881,-0.269308796,0.473996,0.418485888,-0.266005743,0.461357,0.403644437,-0.268673112,0.450205
0.392343623,-0.354439138,0.520878,0.378514574,-0.303667591,0.491634,0.363590929,-0.330046469,0.507478,0.356827427,-0.307690707,0.487849,0.347956846,-0.278522983,0.463127,0.351267845,-0.261257253,0.452924,0.347855891,-0.238701389,0.455649,0.354892443,-0.203220497,0.454684,0.358547943,-0.184860655,0.454201,0.360988917,-0.169262899,0.453763,0.375285566,-0.254114261,0.463777,0.375066534,-0.207378519,0.443438,0.364867549,-0.207742378,0.431573,0.364840663,-0.227555168,0.43965,0.398669937,-0.271590917,0.473036,0.387035491,-0.238274855,0.439634,0.367143023,-0.241972186,0.422544,0.343557097,-0.246492253,0.407008,0.427403505,-0.301083913,0.488591,0.418270862,-0.263053709,0.460428,0.407601914,-0.260038048,0.447488,0.392084299,-0.263880021,0.436071
0.373641048,-0.345743623,0.506422,0.365534729,-0.292300766,0.476577,0.346693801,-0.320171578,0.493088,0.343846761,-0.295596846,0.47413,0.334489178,-0.268218349,0.449503,0.338583655,-0.252389865,0.438738,0.335284303,-0.226566062,0.440283,0.339995418,-0.190152884,0.435676,0.342484042,-0.171393425,0.433372,0.344829019,-0.153999308,0.431278,0.36222311,-0.242262806,0.448147,0.360107638,-0.195086527,0.424605,0.347071716,-0.19574261,0.410872,0.345725661,-0.21457109,0.41758,0.385194202,-0.259877927,0.457242,0.372337121,-0.228789637,0.423493,0.35116811,-0.232975381,0.406226,0.328605272,-0.23708696,0.390528,0.41338959,-0.28931915,0.472699,0.403969749,-0.252876041,0.444249,0.392368528,-0.250587291,0.431178,0.376518384,-0.255116281,0.419645
0.359114841,-0.336140468,0.493663,0.354126123,-0.281034544,0.461895,0.336487379,-0.309419166,0.480589,0.333685841,-0.286528459,0.461046,0.323416703,-0.260473961,0.436735,0.326174897,-0.244680309,0.425109,0.325040684,-0.217012097,0.424674,0.329149309,-0.180665767,0.418803,0.331354335,-0.161906657,0.415867,0.333452954,-0.144488717,0.413198,0.35089069,-0.232946027,0.431633,0.347993677,-0.186014255,0.406523,0.332265983,-0.186775493,0.391875,0.329648343,-0.205065782,0.398018,0.373097144,-0.250761566,0.440151,0.357396553,-0.220678295,0.405345,0.334186428,-0.224560876,0.387536,0.309939514,-0.227609244,0.371347,0.400614454,-0.280436212,0.455236,0.389784125,-0.244720002,0.425915,0.376553119,-0.242544038,0.412444,0.359524153,-0.246610689,0.400557
0.345703265,-0.323400444,0.478198,0.341273576,-0.273090935,0.444698,0.32407784,-0.29727058,0.464455,0.318793069,-0.278254645,0.442314,0.308267412,-0.253238506,0.417526,0.309698165,-0.238425642,0.404564,0.310973547,-0.209030691,0.405503,0.314472307,-0.172708777,0.397912,0.31639116,-0.153956986,0.394116,0.31824314,-0.136538717,0.390666,0.336799713,-0.225604333,0.412786,0.333302149,-0.178802597,0.386023,0.316353052,-0.179974386,0.370411,0.312620081,-0.197698197,0.375669,0.359057555,-0.243946804,0.421723,0.342348638,-0.215058859,0.38569,0.318063963,-0.2187516,0.367254,0.29302998,-0.220395458,0.350494,0.386748793,-0.27423392,0.437577,0.375527914,-0.239297192,0.407353,0.36082505,-0.238433306,0.393466,0.342600605,-0.242060123,0.381213
0.33431581,-0.313468313,0.463757,0.334189877,-0.266353976,0.435649,0.314236234,-0.288355174,0.451652,0.314393679,-0.274089738,0.436094,0.304680577,-0.249750262,0.411747,0.305732265,-0.234587689,0.398056,0.308694118,-0.205613785,0.40204,0.309873253,-0.167576247,0.392535,0.31009447,-0.149065681,0.387782,0.310272247,-0.132116743,0.383462,0.334124467,-0.221977663,0.408875,0.330295881,-0.175266453,0.380797,0.312833602,-0.176476259,0.364419,0.308322903,-0.193640263,0.368977,0.355560202,-0.239837149,0.416969,0.345047421,-0.188625652,0.388003,0.3318784,-0.184576729,0.373183,0.314593964,-0.192840695,0.359711,0.381377872,-0.268917453,0.430972,0.374101165,-0.236474807,0.403649,0.360349079,-0.236911678,0.391094,0.342772431,-0.241079937,0.380017
0.31982578,-0.301093291,0.446336,0.318931182,-0.252159024,0.417139,0.300113975,-0.276034577,0.434036,0.295765152,-0.258195308,0.413314,0.285894042,-0.235536191,0.388216,0.287430799,-0.22185899,0.374897,0.294448668,-0.191816108,0.382573,0.293113843,-0.151986091,0.369511,0.291400014,-0.133808638,0.36298,0.289656056,-0.117428109,0.357043,0.319470691,-0.208821315,0.389326,0.314483188,-0.162506756,0.357685,0.294499867,-0.164108488,0.339228,0.287382978,-0.179677098,0.341649,0.340465809,-0.227101077,0.39745,0.330104667,-0.178293894,0.367984,0.316180754,-0.175069858,0.352908,0.297857632,-0.183285189,0.339202,0.365598223,-0.256459955,0.411661,0.359596694,-0.226197755,0.383744,0.344691989,-0.227482686,0.370918,0.325935738,-0.23089431,0.3596
0.303843481,-0.286627872,0.426996,0.303429968,-0.240238364,0.397703,0.281879511,-0.259936536,0.412771,0.27845525,-0.245575302,0.389521,0.269560498,-0.224306924,0.363596,0.271171342,-0.210937809,0.349391,0.277499614,-0.180411948,0.360645,0.274201361,-0.140166911,0.344733,0.271924796,-0.122220984,0.336778,0.269778091,-0.106158072,0.329545,0.304627022,-0.197842509,0.369799,0.29937354,-0.151953046,0.337061,0.280617369,-0.155108911,0.317964,0.272615811,-0.170083742,0.31892,0.327306342,-0.216378695,0.379907,0.315842472,-0.167576762,0.348794,0.302756181,-0.16562001,0.332876,0.284462419,-0.174052525,0.318405,0.354297774,-0.245847934,0.396469,0.349468135,-0.216983756,0.368146,0.333668624,-0.220453284,0.355133,0.312782896,-0.221569818,0.34365
0.30139331,-0.28607202,0.424997,0.301073967,-0.241270048,0.395399,0.278959101,-0.259680125,0.410026,0.272292524,-0.248129017,0.383653,0.263953169,-0.229608186,0.357993,0.264610997,-0.216786952,0.342444,0.274562365,-0.181236377,0.357199,0.269705207,-0.145420473,0.339755,0.267266864,-0.12686931,0.331033,0.264716176,-0.107252275,0.323104,0.302215155,-0.199110547,0.367204,0.298956743,-0.153177996,0.33623,0.282465287,-0.155438482,0.318163,0.276220546,-0.170837154,0.320077,0.325376345,-0.218023455,0.378038,0.314129743,-0.17153543,0.345633,0.299206665,-0.172475016,0.329053,0.280156851,-0.180007257,0.313981,0.352977335,-0.247947791,0.395504,0.350114093,-0.226091877,0.366933,0.331802931,-0.229826431,0.353806,0.31095356,-0.230311258,0.342223
0.295032058,-0.282576911,0.418926,0.296265933,-0.239195636,0.38944,0.272181156,-0.257434928,0.40304,0.266817176,-0.246244665,0.376496,0.256504959,-0.226243302,0.350604,0.256058824,-0.212549355,0.335124,0.269396331,-0.182014108,0.350159,0.263397384,-0.146138736,0.328923,0.259983035,-0.128558261,0.318305,0.256990906,-0.112292614,0.308652,0.297694104,-0.200255598,0.361351,0.295308738,-0.153940061,0.331371,0.283422578,-0.152540823,0.313882,0.287460319,-0.164238859,0.315978,0.321313455,-0.219355758,0.373154,0.312250675,-0.171736284,0.341834,0.300273253,-0.176540202,0.325811,0.279261007,-0.181501082,0.311243,0.349297555,-0.249265409,0.39174,0.349255889,-0.234494401,0.363149,0.328730878,-0.237534895,0.350013,0.306449054,-0.235931163,0.338422
0.282213189,-0.271168302,0.402535,0.283820672,-0.224796037,0.371971,0.259552004,-0.245395436,0.385,0.253331625,-0.234452009,0.355656,0.238674633,-0.21268138,0.329073,0.23644561,-0.199002817,0.311789,0.255435985,-0.168093728,0.329907,0.248276634,-0.130792451,0.307698,0.244866172,-0.11268141,0.296593,0.241897861,-0.0962786077,0.286498,0.285468367,-0.184619985,0.342855,0.281281242,-0.138127907,0.311998,0.272563452,-0.138772379,0.293998,0.271369175,-0.154052696,0.294568,0.310399151,-0.202093812,0.356199,0.302550215,-0.156844166,0.323567,0.290077328,-0.161485265,0.306872,0.269801631,-0.169575087,0.291695,0.339838298,-0.229719251,0.376771,0.341234885,-0.221444964,0.347673,0.319283668,-0.223814148,0.334304,0.293701488,-0.221098743,0.322507
0.27203568,-0.259689436,0.388452,0.27395416,-0.214023279,0.358564,0.247893771,-0.231206579,0.370337,0.241657309,-0.221514336,0.340677,0.225201177,-0.1999785,0.314818,0.224823463,-0.189499348,0.29827,0.246755574,-0.156857646,0.316208,0.239863536,-0.11955623,0.293228,0.236633531,-0.10205648,0.281738,0.23385553,-0.086072308,0.271292,0.277342371,-0.173623308,0.330093,0.274715909,-0.128916895,0.299471,0.262840342,-0.135365447,0.281608,0.258212206,-0.149351403,0.281697,0.302594948,-0.191075574,0.344147,0.297940778,-0.149101258,0.310909,0.284354591,-0.155013871,0.293903,0.259485449,-0.161981237,0.278444,0.332120392,-0.218235127,0.365448,0.331721904,-0.215848583,0.336744,0.309319482,-0.217262328,0.323556,0.286334319,-0.214274914,0.311919
0.265449337,-0.245720368,0.373659,0.272690576,-0.205474256,0.340659,0.242354145,-0.223086084,0.356299,0.240487493,-0.217534528,0.325379,0.220793491,-0.196353353,0.299611,0.216147407,-0.184348034,0.281902,0.239270238,-0.150793561,0.297227,0.227615849,-0.113060606,0.272808,0.22184336,-0.0953822552,0.260599,0.21669461,-0.0792395037,0.249499,0.269808312,-0.166195772,0.309223,0.261549916,-0.12003403,0.275867,0.246221111,-0.125815822,0.25641,0.239542685,-0.141258798,0.255575,0.29564394,-0.182694051,0.321997,0.285294457,-0.143643928,0.285628,0.266504946,-0.150381483,0.267022,0.241080059,-0.154628372,0.250106,0.326935211,-0.209042712,0.342286,0.324346875,-0.207140032,0.312092,0.299174527,-0.207171372,0.29822,0.27459867,-0.202851779,0.285979
0.20181841,-0.185517089,0.289706,0.238596947,-0.160980918,0.292063,0.195114639,-0.158817555,0.281773,0.196575731,-0.129813805,0.26583,0.197080523,-0.103381457,0.250487,0.203866808,-0.0853609182,0.243756,0.251707914,-0.114685655,0.283591,0.256205065,-0.114366568,0.273944,0.260213803,-0.114795167,0.269775,0.264953905,-0.115516769,0.26618,0.271630284,-0.139092512,0.294309,0.29730788,-0.134941631,0.288614,0.281690123,-0.1503234,0.285292,0.277373897,-0.166506236,0.297101,0.285264602,-0.16162693,0.302924,0.30834624,-0.154374073,0.29442,0.316896731,-0.181894022,0.311853,0.309605141,-0.199977311,0.322251,0.296023261,-0.192657088,0.312689,0.326652209,-0.201455371,0.310284,0.329133472,-0.20292285,0.309179,0.319121856,-0.200500008,0.310012
0.194213713,-0.180364126,0.27922,0.228750454,-0.154622767,0.277967,0.185629494,-0.151875656,0.267697,0.186737743,-0.12496431,0.247499,0.187558611,-0.0997187733,0.229955,0.19485621,-0.0837639251,0.220648,0.237775556,-0.105086183,0.262608,0.242269919,-0.109184943,0.24874,0.245719769,-0.111914956,0.241805,0.243624987,-0.127880903,0.249594,0.258830165,-0.130829608,0.276773,0.270745877,-0.139380969,0.267742,0.260428026,-0.151438097,0.262473,0.249294169,-0.16471548,0.272004,0.273697994,-0.154719947,0.288542,0.296956417,-0.147431239,0.276022,0.303742109,-0.174150042,0.291399,0.292480786,-0.19003561,0.302598,0.28640687,-0.187882522,0.302595,0.315635999,-0.19807826,0.301707,0.322107194,-0.200247081,0.301299,0.322562289,-0.203938905,0.310159
0.184510605,-0.172851961,0.267533,0.221258266,-0.151487353,0.272984,0.178045981,-0.145972809,0.258353,0.182319815,-0.121672356,0.242297,0.186911557,-0.0988384482,0.228186,0.197321695,-0.084273627,0.221573,0.231237974,-0.106695191,0.264954,0.248793616,-0.111824076,0.256964,0.257167715,-0.115293252,0.252968,0.259086309,-0.133310273,0.262739,0.249637009,-0.132787873,0.278176,0.276365814,-0.142428465,0.275604,0.274055922,-0.156689751,0.274104,0.274725904,-0.175399329,0.285631,0.262122435,-0.156481532,0.288579,0.292222281,-0.153929541,0.282224,0.311155939,-0.178552235,0.298256,0.300994644,-0.196413403,0.307227,0.271720682,-0.188567875,0.299957,0.284164755,-0.18911303,0.294205,0.267329295,-0.195720272,0.291562,0.262640119,-0.202209332,0.299355
0.179434771,-0.167134802,0.261864,0.214490612,-0.14573486,0.268215,0.174089017,-0.140735735,0.252639,0.180805816,-0.109021282,0.236859,0.187001035,-0.0877687102,0.221601,0.197494253,-0.0742416728,0.213986,0.235521195,-0.103198503,0.260717,0.260075326,-0.11846252,0.262636,0.274942988,-0.128207122,0.263595,0.280413207,-0.150500491,0.276091,0.247789982,-0.129392644,0.274264,0.273281484,-0.141613476,0.272609,0.274606581,-0.155336984,0.271644,0.266781393,-0.171930907,0.283203,0.258516066,-0.152589819,0.284857,0.289739565,-0.153662893,0.279247,0.307891681,-0.17743485,0.29503,0.297308358,-0.193969423,0.3036,0.262972432,-0.180830546,0.296315,0.278431506,-0.187156387,0.291219,0.274355802,-0.201949624,0.302929,0.267770491,-0.20593212,0.309263
0.172115237,-0.159537466,0.252146,0.212105282,-0.142900155,0.265617,0.169056874,-0.135394384,0.245522,0.178456977,-0.107171535,0.234574,0.187529283,-0.0873230028,0.223307,0.200602288,-0.0745376809,0.218726,0.238071309,-0.103330602,0.266046,0.268731157,-0.121115783,0.27498,0.289972425,-0.133669462,0.279447,0.29569682,-0.154349871,0.293728,0.2518105,-0.128801263,0.27845,0.28294615,-0.146592109,0.28394,0.290027927,-0.16308757,0.287143,0.285742033,-0.180381048,0.300347,0.259516319,-0.151001225,0.287476,0.301207697,-0.15652713,0.289847,0.316367196,-0.181690827,0.305665,0.302884525,-0.19670942,0.311026,0.261979908,-0.179446324,0.295956,0.28015885,-0.188683713,0.296502,0.275635039,-0.202472542,0.308316,0.271272829,-0.207744782,0.314869
0.18212917,-0.167667723,0.268288,0.220006689,-0.143368163,0.277861,0.17784037,-0.139528062,0.262152,0.207174003,-0.130811277,0.266876,0.229248842,-0.112419284,0.265705,0.243866657,-0.0984871706,0.268339,0.239275071,-0.0995153697,0.276364,0.248316474,-0.101036791,0.272848,0.254110083,-0.102090936,0.271089,0.258400073,-0.112561175,0.282881,0.257939148,-0.123761167,0.286981,0.275765914,-0.133515707,0.288429,0.263212744,-0.150811843,0.289273,0.25566665,-0.166071769,0.302591,0.269863166,-0.145662374,0.294879,0.302033943,-0.13651354,0.29293,0.310769215,-0.161103816,0.310137,0.298823861,-0.176811507,0.317798,0.277397965,-0.174815541,0.302651,0.286427095,-0.180956079,0.300336,0.288556798,-0.202670278,0.31316,0.287201364,-0.208972129,0.32021
0.202984759,-0.182647133,0.302358,0.234869532,-0.152075188,0.303613,0.193363347,-0.151156458,0.295167,0.224474752,-0.144690116,0.298059,0.248002247,-0.127308317,0.297368,0.263165328,-0.112896274,0.298988,0.248404567,-0.10626269,0.295358,0.24657392,-0.105495366,0.285316,0.246195972,-0.105342866,0.280295,0.262019571,-0.113748032,0.291001,0.268142881,-0.129428905,0.304808,0.277266879,-0.131981579,0.298048,0.258916584,-0.147312944,0.294104,0.252262268,-0.162574384,0.306046,0.281564847,-0.150949563,0.312476,0.301167072,-0.14113874,0.303358,0.305791921,-0.165672827,0.321323,0.297429381,-0.181108031,0.332181,0.291982787,-0.180729318,0.321303,0.291091652,-0.183126566,0.312905,0.29446435,-0.205068274,0.326151,0.296062388,-0.21214423,0.334242
0.215032305,-0.191498491,0.31952,0.246775595,-0.158272182,0.318963,0.20587191,-0.161139308,0.315226,0.237065731,-0.149796868,0.317632,0.245128445,-0.121244952,0.317599,0.248282955,-0.104131937,0.318784,0.259102061,-0.111076383,0.313182,0.254296656,-0.106491133,0.303539,0.251511912,-0.106185479,0.298718,0.266814326,-0.103107722,0.310458,0.277437319,-0.131723619,0.318433,0.280501395,-0.129483287,0.310136,0.260971232,-0.144367751,0.305295,0.259148767,-0.164957379,0.317741,0.289913992,-0.151235111,0.322805,0.303063972,-0.137793953,0.313479,0.309409428,-0.164158995,0.332667,0.306443655,-0.184602723,0.344099,0.299721387,-0.178877258,0.32804,0.295670976,-0.177351646,0.319149,0.301448244,-0.200245463,0.33328,0.303988512,-0.213064706,0.341888
0.221840421,-0.19230548,0.335274,0.255650022,-0.161147349,0.33659,0.216200762,-0.166694475,0.331677,0.24586468,-0.153372005,0.335528,0.255233478,-0.125640545,0.336778,0.259338408,-0.109132062,0.338798,0.268608931,-0.11643204,0.332911,0.264885474,-0.110805996,0.324953,0.263235582,-0.107770894,0.320975,0.275003953,-0.110097994,0.333249,0.287066768,-0.136644944,0.337844,0.291553367,-0.132795034,0.331374,0.273834895,-0.147571499,0.3276,0.26985246,-0.165511878,0.340578,0.299573635,-0.155752587,0.34179,0.313315725,-0.140895183,0.334223,0.320739539,-0.166970644,0.353554,0.316291136,-0.185321113,0.364332,0.309273976,-0.182805168,0.346224,0.306225039,-0.180353935,0.338769,0.312308317,-0.203265605,0.353038,0.316234735,-0.212981324,0.361755
0.301812501,-0.241287379,0.399955,0.302750388,-0.190713731,0.378251,0.283414969,-0.220456537,0.394216,0.282459289,-0.192739231,0.386028,0.277504225,-0.163813882,0.377255,0.276016004,-0.1412598,0.370547,0.280119616,-0.134541324,0.356852,0.260881622,-0.110943663,0.332489,0.251259565,-0.0987071446,0.320308,0.255585673,-0.0919733311,0.325908,0.302674202,-0.144638802,0.357577,0.284059356,-0.129566013,0.330624,0.260230736,-0.142468325,0.314902,0.25677505,-0.158528618,0.32049,0.321454173,-0.157195627,0.36008,0.3083683,-0.13850299,0.334471,0.311171035,-0.163436456,0.350384,0.315194876,-0.185097897,0.367082,0.344032177,-0.179898236,0.366481,0.313194922,-0.178582739,0.344458,0.314058749,-0.19689307,0.35585,0.319915945,-0.211978864,0.368018
0.303661771,-0.241351106,0.402863,0.305654746,-0.191523789,0.382235,0.286473216,-0.221163037,0.398485,0.294783354,-0.20013977,0.394545,0.285462949,-0.168595616,0.385484,0.282330938,-0.14563032,0.3789,0.285272358,-0.136264584,0.363255,0.266126059,-0.110091211,0.340294,0.256454844,-0.0968322677,0.328814,0.260595159,-0.0888348238,0.335038,0.306648622,-0.145991133,0.362585,0.288117969,-0.130185886,0.336359,0.264272426,-0.143093973,0.321061,0.261112525,-0.159514135,0.327056,0.324271289,-0.158153842,0.363845,0.311585893,-0.139088972,0.339188,0.314359847,-0.163890599,0.355434,0.31814481,-0.185479315,0.371881,0.345205144,-0.180208992,0.368613,0.314896402,-0.178671092,0.347687,0.315747885,-0.196857635,0.359366,0.321375737,-0.211874238,0.37126
0.314606265,-0.247062266,0.417504,0.32254639,-0.197121582,0.403076,0.299147313,-0.224939271,0.414618,0.311006752,-0.205467506,0.416307,0.305439084,-0.176171179,0.409526,0.303213813,-0.154274232,0.40506,0.309585815,-0.144744463,0.390023,0.291872386,-0.120190045,0.372425,0.282871638,-0.107216136,0.363627,0.287588298,-0.0994294134,0.372466,0.3299548,-0.155569249,0.389332,0.311685187,-0.140166967,0.368888,0.287922969,-0.15364321,0.356962,0.286682073,-0.171370611,0.36556,0.346291326,-0.168438994,0.390032,0.334933166,-0.150470431,0.371328,0.33700787,-0.175136045,0.389278,0.339445887,-0.195731784,0.404002,0.364588939,-0.190846321,0.393152,0.333822896,-0.189081575,0.376239,0.334131613,-0.206961468,0.389242,0.339350375,-0.221571405,0.400236
0.333168517,-0.25333482,0.441444,0.340902137,-0.205641513,0.425003,0.319466517,-0.233449057,0.439581,0.329231335,-0.212817435,0.43974,0.324448722,-0.183111157,0.433686,0.322883267,-0.161236435,0.429195,0.328569509,-0.152966031,0.411929,0.307499916,-0.127001255,0.393859,0.296747153,-0.11338846,0.384824,0.299401931,-0.104991641,0.393128,0.347034344,-0.163037491,0.409342,0.325259176,-0.144455296,0.387445,0.300246522,-0.156472957,0.374671,0.298734372,-0.174172985,0.382475,0.361913309,-0.175350893,0.408658,0.343398023,-0.159802988,0.389192,0.344436599,-0.184290645,0.406567,0.349121954,-0.203776306,0.421368,0.37876349,-0.197277554,0.410469,0.345767279,-0.193025445,0.392853,0.345265846,-0.210102455,0.405401,0.350966687,-0.225207143,0.416467
