sluyters/QuantumLeap/src/datasets/gesture/HandGestureDataset_SHREC2017_csv/Gesture2/finger_1/subject_23_essai_1_skeletons_world.csv
Wrist_x,Wrist_y,Wrist_z,Palm_x,Palm_y,Palm_z,thumb_base_x,thumb_base_y,thumb_base_z,thumb_first_joint_x,thumb_first_joint_y,thumb_first_joint_z,thumb_second_joint_x,thumb_second_joint_y,thumb_second_joint_z,thumb_tip_x,thumb_tip_y,thumb_tip_z,index_base_x,index_base_y,index_base_z,index_first_joint_x,index_first_joint_y,index_first_joint_z,index_second_joint_x,index_second_joint_y,index_second_joint_z,index_tip_x,index_tip_y,index_tip_z,middle_base_x,middle_base_y,middle_base_z,middle_first_joint_x,middle_first_joint_y,middle_first_joint_z,middle_second_joint_x,middle_second_joint_y,middle_second_joint_z,middle_tip_x,middle_tip_y,middle_tip_z,ring_base_x,ring_base_y,ring_base_z,ring_first_joint_x,ring_first_joint_y,ring_first_joint_z,ring_second_joint_x,ring_second_joint_y,ring_second_joint_z,ring_tip_x,ring_tip_y,ring_tip_z,pinky_base_x,pinky_base_y,pinky_base_z,pinky_first_joint_x,pinky_first_joint_y,pinky_first_joint_z,pinky_second_joint_x,pinky_second_joint_y,pinky_second_joint_z,pinky_tip_x,pinky_tip_y,pinky_tip_z,r
0.308881133,-0.270792184,0.415457,0.315023639,-0.214709748,0.402137,0.293601627,-0.251490663,0.410492,0.28686273,-0.226741194,0.39461,0.264326215,-0.195262571,0.373285,0.259599057,-0.176950422,0.368372,0.295728176,-0.178566755,0.39086,0.3027759,-0.152549544,0.402761,0.305841081,-0.138379614,0.408711,0.308389507,-0.125075593,0.414121,0.315983873,-0.185469427,0.393632,0.308762478,-0.152870976,0.375811,0.318182718,-0.17190793,0.395075,0.319815828,-0.194658756,0.407568,0.332968268,-0.194406994,0.396832,0.320737947,-0.159196057,0.379331,0.3117067,-0.166623873,0.370377,0.31690873,-0.186539974,0.378552,0.353509094,-0.211173196,0.402304,0.337331067,-0.182761864,0.386446,0.348029526,-0.198674357,0.398345,0.357954397,-0.21616719,0.408539
0.315483084,-0.269954993,0.419795,0.319418188,-0.216689144,0.405709,0.300864431,-0.251722533,0.415853,0.294018257,-0.230668152,0.401111,0.268948899,-0.198828003,0.37897,0.260778567,-0.18051654,0.372114,0.301750305,-0.181553475,0.39542,0.312123585,-0.157302969,0.411396,0.318139539,-0.145376503,0.419383,0.322261977,-0.132849833,0.426645,0.319498848,-0.186970155,0.396714,0.311169105,-0.152562653,0.378474,0.318937405,-0.164431875,0.397742,0.323538684,-0.185595951,0.410388,0.335647548,-0.195021846,0.398752,0.322391843,-0.161224751,0.381332,0.310321099,-0.173510161,0.372419,0.317650774,-0.189191505,0.380639,0.356781663,-0.210382467,0.402947,0.33813728,-0.182983726,0.387065,0.348113458,-0.199161594,0.398979,0.358054291,-0.216631352,0.409189
0.321912227,-0.269509521,0.42347,0.32384174,-0.217325621,0.407619,0.307605669,-0.252350027,0.419422,0.297315009,-0.232694656,0.404317,0.27273112,-0.202062143,0.382806,0.264882853,-0.182187888,0.376379,0.302975602,-0.182109895,0.396526,0.311266828,-0.157087735,0.410546,0.314909684,-0.14353075,0.417556,0.317908481,-0.130636828,0.423929,0.321861023,-0.186871999,0.397498,0.30874062,-0.15114436,0.377899,0.316754525,-0.163158273,0.396755,0.321890979,-0.184338567,0.409762,0.338045643,-0.194143787,0.399391,0.322088019,-0.158716656,0.380827,0.311682516,-0.165959335,0.371329,0.316544556,-0.185583191,0.378983,0.359288399,-0.207820519,0.403639,0.337885196,-0.182334865,0.386795,0.347396989,-0.198674924,0.398429,0.357792245,-0.216140277,0.408868
0.321667556,-0.270838262,0.422936,0.324846373,-0.217595666,0.407563,0.309212085,-0.252786625,0.41955,0.299011805,-0.233387751,0.405339,0.2744896,-0.202882738,0.384193,0.266602594,-0.183194221,0.378036,0.304632186,-0.182932944,0.39748,0.312735184,-0.157702993,0.411189,0.316284939,-0.144087189,0.418043,0.319190579,-0.131137529,0.424274,0.322949984,-0.187248198,0.397746,0.308709722,-0.150306071,0.378639,0.317450772,-0.164858861,0.397639,0.323809763,-0.189643561,0.410514,0.338632241,-0.194132931,0.399027,0.323183126,-0.159017814,0.381137,0.312433161,-0.166440208,0.371984,0.316964849,-0.187362695,0.379918,0.359212945,-0.207774396,0.40249,0.337964408,-0.181993422,0.386163,0.347155557,-0.197972496,0.397906,0.357160758,-0.215514159,0.408206
0.328819148,-0.269802325,0.425439,0.328921273,-0.218803976,0.409212,0.315080518,-0.255036988,0.422271,0.306466411,-0.236141311,0.408235,0.28151886,-0.205979823,0.387582,0.270773819,-0.186038849,0.381656,0.310323201,-0.185082156,0.399076,0.316689832,-0.159241387,0.412435,0.320205837,-0.145603891,0.419114,0.320930811,-0.131699554,0.425187,0.328291421,-0.188712889,0.398849,0.309978803,-0.150217872,0.379149,0.319745886,-0.165748142,0.397923,0.326898338,-0.187479345,0.410942,0.343844736,-0.19509204,0.399783,0.328099824,-0.159287477,0.381505,0.315050323,-0.166850665,0.372153,0.318365301,-0.185964619,0.379845,0.363567195,-0.209111192,0.402945,0.346257238,-0.179225092,0.386273,0.353905472,-0.191041947,0.39787,0.358912338,-0.212999803,0.408234
0.331798941,-0.268884969,0.42456,0.330837493,-0.217716503,0.408318,0.315954861,-0.254159232,0.421454,0.309891469,-0.234824072,0.407497,0.285003275,-0.205022647,0.386734,0.274718154,-0.185674442,0.380607,0.31262327,-0.182989506,0.398255,0.319955307,-0.156942691,0.411276,0.323154032,-0.143014166,0.417787,0.323310513,-0.130901092,0.423705,0.330699855,-0.18665311,0.397947,0.313708356,-0.147293085,0.37825,0.324098484,-0.163110809,0.397018,0.332420383,-0.184886837,0.410034,0.34632555,-0.193055628,0.398815,0.334311385,-0.153601532,0.380565,0.322220546,-0.158991312,0.371228,0.323826548,-0.181719266,0.378925,0.366116644,-0.207078212,0.4019,0.347328191,-0.177410441,0.385248,0.355248358,-0.189280857,0.396843,0.363637325,-0.206794806,0.407199
0.329695748,-0.267518884,0.423277,0.333083639,-0.215012466,0.405653,0.315521952,-0.252215861,0.419626,0.309294814,-0.229310725,0.404813,0.285711403,-0.195463646,0.384408,0.278259737,-0.17967022,0.378624,0.316957962,-0.176210813,0.394381,0.326994569,-0.14903324,0.405448,0.331651095,-0.134561947,0.410981,0.335631887,-0.120809728,0.416011,0.331934684,-0.182616612,0.394398,0.320173139,-0.142077254,0.373556,0.329623917,-0.156719404,0.391948,0.333645853,-0.179666544,0.40526,0.347468283,-0.190049916,0.395629,0.337224088,-0.153414418,0.376225,0.320332856,-0.158061754,0.366298,0.321006628,-0.178824768,0.373442,0.365428414,-0.205983196,0.399319,0.348828432,-0.175039921,0.381734,0.356330885,-0.186572937,0.393066,0.362205493,-0.204799426,0.403649
0.332165848,-0.266491651,0.422578,0.334835345,-0.212379267,0.404132,0.318244055,-0.251383468,0.419355,0.310586429,-0.228605817,0.405006,0.288002543,-0.196302201,0.385027,0.280231545,-0.179122351,0.379183,0.317685482,-0.175452159,0.393083,0.327411375,-0.148131542,0.403964,0.331856983,-0.133597555,0.409404,0.335607581,-0.119796738,0.41435,0.334788212,-0.180826347,0.392353,0.319260545,-0.140357742,0.371001,0.328120154,-0.154315535,0.389124,0.332864682,-0.177059725,0.402536,0.349450223,-0.188687088,0.393026,0.335532662,-0.152053533,0.373392,0.318850784,-0.157237172,0.363347,0.321361826,-0.176126752,0.370263,0.365933855,-0.20389707,0.39616,0.347297962,-0.173590552,0.378351,0.354288694,-0.185063095,0.389514,0.36021297,-0.203018772,0.400111
0.330663567,-0.224878663,0.428449,0.355095668,-0.192330401,0.41034,0.329489497,-0.206125731,0.426497,0.324899637,-0.171752874,0.416824,0.321799405,-0.143997946,0.409391,0.322354097,-0.125816939,0.401899,0.360765466,-0.15910902,0.401009,0.336146,-0.143653765,0.384209,0.316623383,-0.14677933,0.375809,0.311283641,-0.161097536,0.382604,0.369012675,-0.172556637,0.398776,0.339511786,-0.153826166,0.377989,0.336445661,-0.170700445,0.396051,0.33318785,-0.185934901,0.40924,0.374575828,-0.186086587,0.39819,0.354686042,-0.163526941,0.379552,0.332680893,-0.169957532,0.370017,0.329196875,-0.182446849,0.377172,0.375825867,-0.206424552,0.399793,0.358445653,-0.181712997,0.382737,0.342887503,-0.186232888,0.374901,0.340345597,-0.199330997,0.379569
0.330175779,-0.221898671,0.424883,0.354274398,-0.189668087,0.406207,0.329929231,-0.20363783,0.423617,0.328950182,-0.168363222,0.414398,0.326624117,-0.140806154,0.407091,0.323294734,-0.123658174,0.398889,0.364463269,-0.156426046,0.397519,0.340730179,-0.137904335,0.380993,0.320871209,-0.139565566,0.372729,0.311668873,-0.156480647,0.379389,0.367974761,-0.170069324,0.394281,0.337454636,-0.15078766,0.37328,0.333881852,-0.167083135,0.390973,0.331558602,-0.182412257,0.404124,0.372468814,-0.183166741,0.392906,0.351939573,-0.160294574,0.374394,0.32965287,-0.166477334,0.364922,0.326271822,-0.181466335,0.371881,0.375295487,-0.203214989,0.39365,0.354658316,-0.177968543,0.376661,0.338825928,-0.182260314,0.368855,0.337193819,-0.193172951,0.373367
0.322549183,-0.211092726,0.414548,0.351450923,-0.18216211,0.397382,0.32446176,-0.188909874,0.411398,0.321108657,-0.14569085,0.397315,0.314277027,-0.115770805,0.382428,0.313835144,-0.0979931625,0.37174,0.365510929,-0.149925796,0.386911,0.345677953,-0.133974921,0.369662,0.323177662,-0.13581599,0.361037,0.309940802,-0.14702996,0.367956,0.37092148,-0.166941667,0.386421,0.347492959,-0.148554687,0.366027,0.342995903,-0.162807969,0.384536,0.333392459,-0.176388104,0.397723,0.371796685,-0.181349219,0.387202,0.35883267,-0.163527655,0.368372,0.334131293,-0.166940472,0.358737,0.323882624,-0.180511432,0.366114,0.372585776,-0.202469979,0.390302,0.360691222,-0.18097979,0.373164,0.343520311,-0.183439214,0.365289,0.334866582,-0.193838936,0.370143
0.320848657,-0.20729687,0.410729,0.351878543,-0.178370196,0.39269,0.323006674,-0.185296745,0.407255,0.319110498,-0.145056139,0.392624,0.312123304,-0.115251025,0.377842,0.311627054,-0.0975220171,0.367226,0.362771768,-0.148170537,0.381482,0.343804326,-0.131971086,0.363555,0.32541001,-0.133756546,0.354592,0.312858343,-0.143005228,0.361188,0.368466574,-0.165321995,0.38117,0.344355195,-0.147603406,0.360061,0.339912881,-0.16218078,0.378325,0.335742068,-0.17592643,0.391694,0.3715369,-0.181199754,0.382159,0.355983357,-0.162661755,0.362615,0.331014562,-0.16615433,0.352615,0.324555687,-0.179455683,0.359642,0.371944964,-0.203309801,0.385616,0.358438476,-0.180264327,0.367899,0.341069526,-0.18283041,0.359759,0.335943312,-0.194123228,0.364352
0.317984128,-0.203966813,0.405454,0.348747562,-0.177326993,0.384306,0.318133696,-0.181054754,0.398904,0.315180923,-0.143755543,0.380112,0.305964821,-0.114025898,0.362246,0.3041217,-0.0968518662,0.34986,0.358575755,-0.14600177,0.368066,0.336542507,-0.132196258,0.346406,0.311909486,-0.133298294,0.335576,0.300193525,-0.138320599,0.340441,0.363552872,-0.163475926,0.370801,0.338019999,-0.151670898,0.346833,0.332036856,-0.166505163,0.363896,0.327363264,-0.175695695,0.377922,0.368843399,-0.180974541,0.374512,0.353363196,-0.167184512,0.351381,0.326099126,-0.169661501,0.339547,0.315436902,-0.177254909,0.344808,0.372188794,-0.205369876,0.381579,0.356873521,-0.188003909,0.361092,0.337360149,-0.190543551,0.351679,0.330497548,-0.201034727,0.354992
0.316069372,-0.201655903,0.401795,0.346414396,-0.176554528,0.380445,0.318339658,-0.176550564,0.395391,0.313464189,-0.142512776,0.376756,0.304815619,-0.11320621,0.359414,0.303568304,-0.0959177927,0.34749,0.356435252,-0.145344137,0.364312,0.33381924,-0.131750638,0.342652,0.308690846,-0.132859944,0.331822,0.298493578,-0.141228065,0.336672,0.36335317,-0.164832278,0.366812,0.334421348,-0.151072663,0.342718,0.328261526,-0.165564484,0.359749,0.324775979,-0.178308365,0.373811,0.367537063,-0.182696202,0.370343,0.349324628,-0.166698676,0.347171,0.322157835,-0.168603659,0.335316,0.31279284,-0.179284816,0.340549,0.369428896,-0.207224776,0.377223,0.35153966,-0.187642089,0.356689,0.331647757,-0.190095431,0.347254,0.324694425,-0.200371721,0.350541
0.266075928,-0.138489091,0.343637,0.292284058,-0.157856831,0.331496,0.280530275,-0.138508214,0.347544,0.296208526,-0.11329797,0.343787,0.287055037,-0.0879086364,0.328619,0.283236826,-0.0727184936,0.315606,0.316642238,-0.163614805,0.331764,0.322744126,-0.136188518,0.322832,0.302605975,-0.131955723,0.318366,0.29798727,-0.143724658,0.326996,0.307052933,-0.16888445,0.323743,0.309293916,-0.134711731,0.30925,0.304458911,-0.136076283,0.326882,0.29975761,-0.147954865,0.337659,0.29752516,-0.172383994,0.317981,0.302743969,-0.140578289,0.30698,0.280379807,-0.130661763,0.301352,0.273403167,-0.141705121,0.310284,0.282922349,-0.174761049,0.31271,0.288572271,-0.143447719,0.301786,0.277913436,-0.129782294,0.296768,0.2731686,-0.129116476,0.302758
0.254823175,-0.134365508,0.328605,0.284584539,-0.155195112,0.322268,0.269707501,-0.134034965,0.333995,0.288678318,-0.111869028,0.333036,0.279073214,-0.0879565992,0.315513,0.275592453,-0.07425497,0.301618,0.311540628,-0.161461073,0.326599,0.322661282,-0.137393447,0.321871,0.304648412,-0.134254267,0.319508,0.301090237,-0.146476544,0.329761,0.302005234,-0.167426316,0.318222,0.311283471,-0.139970005,0.308563,0.307544258,-0.142068047,0.327112,0.29966558,-0.149970018,0.336428,0.292248866,-0.171340129,0.311765,0.304434887,-0.147386209,0.305323,0.284553722,-0.138730591,0.302027,0.276924595,-0.146325513,0.312751,0.278003619,-0.177526212,0.304939,0.287989001,-0.149432663,0.297794,0.278902228,-0.135659493,0.294511,0.273650947,-0.131646439,0.30187
0.251019999,-0.134188951,0.323319,0.286449476,-0.157910438,0.323906,0.268450135,-0.134463186,0.331801,0.29273724,-0.114420157,0.336454,0.289841969,-0.0921019986,0.325259,0.289338677,-0.079415786,0.314597,0.319960979,-0.16657977,0.334739,0.339380088,-0.147857662,0.33645,0.323524093,-0.146261579,0.337306,0.319933488,-0.158849447,0.348865,0.308436655,-0.174092314,0.324281,0.325160088,-0.152176758,0.321172,0.319606091,-0.153770462,0.339133,0.311108881,-0.160524471,0.347737,0.296415834,-0.178305541,0.315633,0.314961894,-0.160086503,0.315892,0.297408227,-0.152690207,0.316024,0.291764145,-0.160601521,0.328124,0.277157731,-0.183753372,0.30534,0.293201976,-0.159791416,0.303775,0.286237742,-0.146707107,0.303056,0.283288091,-0.142675796,0.3115
0.254084478,-0.137710762,0.32703,0.280805668,-0.157898412,0.31658,0.267280521,-0.135010769,0.329754,0.283711391,-0.113571977,0.324405,0.271639644,-0.0926822855,0.303745,0.268702136,-0.0777216502,0.290224,0.304377399,-0.160326688,0.316012,0.311348609,-0.138905631,0.306852,0.309796126,-0.143839532,0.321601,0.304251424,-0.152587407,0.331107,0.295852488,-0.169702013,0.309907,0.300116271,-0.142577706,0.296183,0.296975358,-0.1452576,0.315083,0.292050266,-0.155287673,0.325979,0.287217918,-0.176781583,0.305604,0.29364269,-0.152020448,0.294692,0.291965534,-0.153022577,0.310672,0.285316922,-0.163259847,0.321461,0.273716919,-0.183856455,0.301845,0.280559335,-0.155775092,0.291036,0.269972873,-0.140968448,0.286069,0.265647548,-0.13987923,0.292692
0.251532434,-0.136937113,0.323211,0.278703992,-0.157137876,0.313654,0.264457389,-0.133555387,0.325259,0.28121116,-0.113225617,0.319044,0.267705655,-0.0912072427,0.297567,0.263607016,-0.0795091293,0.283128,0.30226707,-0.158678189,0.31258,0.309806098,-0.139897411,0.303296,0.308372496,-0.144971004,0.318442,0.303087353,-0.153767083,0.328156,0.294121734,-0.168878931,0.307552,0.298956112,-0.145336379,0.294259,0.296206504,-0.148000165,0.31371,0.291199937,-0.155534799,0.324624,0.285729052,-0.176631376,0.304073,0.291765232,-0.155663851,0.293212,0.290320018,-0.156919704,0.309635,0.284279091,-0.164142654,0.32058,0.271889976,-0.186063296,0.301175,0.279106949,-0.159629005,0.290441,0.269151918,-0.144379251,0.285509,0.265484188,-0.140940529,0.292412
0.250625803,-0.136509041,0.32149,0.277929077,-0.156553404,0.312227,0.263477077,-0.13262873,0.323118,0.279917605,-0.111693691,0.316351,0.267133145,-0.0903446805,0.294476,0.261494719,-0.0789387777,0.279974,0.301450006,-0.157364119,0.31074,0.308618206,-0.139001147,0.301257,0.307340383,-0.144033266,0.316565,0.301495969,-0.151602129,0.326423,0.293441479,-0.168081128,0.306312,0.298246105,-0.145154881,0.293106,0.296369049,-0.147122465,0.312786,0.290723666,-0.154194249,0.323741,0.285135793,-0.176258815,0.303308,0.29095075,-0.155768272,0.292334,0.290036026,-0.156803167,0.308938,0.283662397,-0.163807531,0.320002,0.271844712,-0.184575582,0.300932,0.278704011,-0.1599075,0.290126,0.268950626,-0.144518535,0.285161,0.265447662,-0.141268014,0.292153
0.248619345,-0.135938758,0.318603,0.275993885,-0.155607723,0.309588,0.260284884,-0.130991743,0.318577,0.276065078,-0.109929395,0.309586,0.263189475,-0.0941390307,0.286564,0.258913523,-0.0857608708,0.271737,0.298767169,-0.154895017,0.306126,0.304321708,-0.137273548,0.295446,0.303384745,-0.142470375,0.311075,0.298259715,-0.150954562,0.321533,0.291557816,-0.166824095,0.303832,0.296316199,-0.145687688,0.290339,0.294369616,-0.147177886,0.3105,0.289207541,-0.154165456,0.321709,0.284679506,-0.176210977,0.302566,0.289428772,-0.157368947,0.290647,0.289481108,-0.158383169,0.307618,0.282936649,-0.163947815,0.31921,0.272597651,-0.187158946,0.302214,0.279121099,-0.162573607,0.29071,0.268890121,-0.146892662,0.285424,0.265432886,-0.144418727,0.292466
0.250432301,-0.137163659,0.320624,0.27393788,-0.155869726,0.306041,0.260613689,-0.131315832,0.317407,0.273353856,-0.111016592,0.303509,0.258429135,-0.0937593833,0.281135,0.252185494,-0.0856081648,0.26529,0.292884161,-0.151414306,0.296468,0.291124989,-0.137847485,0.280483,0.289185884,-0.14166953,0.295322,0.287090958,-0.146050142,0.307559,0.286613578,-0.165715766,0.296728,0.282791514,-0.148278696,0.27825,0.280266572,-0.14891932,0.297444,0.278865992,-0.15190983,0.310153,0.279239535,-0.17692665,0.297949,0.275217876,-0.160930667,0.280638,0.275085742,-0.160448894,0.296764,0.273562952,-0.161475076,0.310196,0.265998319,-0.191612431,0.301241,0.268747391,-0.16759929,0.285393,0.259630269,-0.151585959,0.280511,0.258891941,-0.148709935,0.287996
0.260457186,-0.14337589,0.333688,0.27491689,-0.15591323,0.30651,0.26419238,-0.132740754,0.322166,0.258485976,-0.114435427,0.297258,0.246793904,-0.0990745861,0.275005,0.239655603,-0.0935967791,0.259481,0.285882509,-0.138727715,0.281757,0.247543827,-0.114728868,0.254112,0.249905163,-0.11225334,0.263882,0.255782884,-0.110906313,0.278693,0.282645485,-0.158540818,0.289154,0.256262854,-0.141294687,0.260436,0.247078961,-0.138474478,0.273225,0.251866577,-0.142946689,0.287627,0.278721161,-0.175016318,0.297118,0.256399546,-0.161410697,0.26818,0.249035639,-0.157628214,0.278831,0.25378469,-0.157705856,0.294771,0.272658235,-0.195799903,0.309976,0.245665486,-0.169333159,0.285132,0.248291395,-0.159887072,0.292681,0.257575396,-0.161848005,0.304352
0.258572159,-0.142979284,0.331438,0.273474784,-0.155829696,0.304859,0.262880312,-0.132402013,0.319615,0.256718247,-0.114668363,0.294458,0.245130606,-0.100078481,0.272019,0.238203809,-0.0952094828,0.256576,0.284613044,-0.139282082,0.279957,0.246792987,-0.116152274,0.252445,0.250508451,-0.117020504,0.262184,0.255491475,-0.11351265,0.27693,0.281784146,-0.159321419,0.287886,0.256237074,-0.143564495,0.259606,0.247075653,-0.140592578,0.272373,0.251577419,-0.144481918,0.286609,0.278151713,-0.175938084,0.296245,0.256407275,-0.163696159,0.267543,0.249108069,-0.15993189,0.278166,0.250783423,-0.161061342,0.294,0.271964556,-0.195908612,0.309495,0.245912659,-0.171422599,0.284885,0.248570859,-0.161893974,0.292421,0.257679896,-0.163398724,0.304004
0.256935848,-0.143697673,0.329307,0.271456403,-0.155908878,0.303106,0.260835257,-0.131585345,0.316936,0.254530963,-0.115920549,0.291285,0.242859669,-0.102152317,0.268488,0.23502965,-0.0981868384,0.252914,0.28226781,-0.141436829,0.277663,0.244836786,-0.118800297,0.250065,0.247451338,-0.117354011,0.259513,0.253791844,-0.117228504,0.274178,0.279762594,-0.161696288,0.286374,0.254792212,-0.147338725,0.258397,0.24552452,-0.143728442,0.270813,0.249683094,-0.145090876,0.284829,0.27636917,-0.178427551,0.295351,0.255282022,-0.167772176,0.266684,0.247966347,-0.163657872,0.276998,0.249343981,-0.1620475,0.292695,0.270905173,-0.196631111,0.309283,0.245066511,-0.172210814,0.284774,0.247759081,-0.162528906,0.292081,0.256840705,-0.164111684,0.30354
0.249708032,-0.140524424,0.319873,0.266050524,-0.155151457,0.297076,0.253622825,-0.12790533,0.30644,0.244536733,-0.117006568,0.280227,0.236123683,-0.105573458,0.257384,0.233615944,-0.103194292,0.243269,0.277804165,-0.146977868,0.271601,0.243636613,-0.129395535,0.245255,0.243050737,-0.125874074,0.254485,0.247282712,-0.120239424,0.268569,0.275480157,-0.167056512,0.282519,0.242369149,-0.153509013,0.257196,0.23594691,-0.14671026,0.269407,0.246287032,-0.146388204,0.282399,0.272608313,-0.180876233,0.293079,0.244095347,-0.173976748,0.266159,0.237868753,-0.167673735,0.276259,0.246119951,-0.164099155,0.291163,0.266522503,-0.199806838,0.308448,0.243350558,-0.183040377,0.285568,0.244927588,-0.173393893,0.29276,0.254143291,-0.169333364,0.3036
0.249620528,-0.14106562,0.319678,0.266787429,-0.155932371,0.29775,0.253900671,-0.128133098,0.306429,0.244480437,-0.117728281,0.280494,0.236229882,-0.106499073,0.257945,0.232122491,-0.104573003,0.243763,0.278634006,-0.148001991,0.272834,0.244924594,-0.130783318,0.247018,0.244563075,-0.127465677,0.256555,0.247802671,-0.125809932,0.270551,0.276294488,-0.168061097,0.283746,0.24369742,-0.15499372,0.259059,0.237614598,-0.148374341,0.271669,0.247355005,-0.148114336,0.284583,0.273322094,-0.182498188,0.294241,0.245298606,-0.175392248,0.267905,0.239348416,-0.169284654,0.278339,0.246647615,-0.165861777,0.293141,0.266869661,-0.200924068,0.309423,0.244302606,-0.184228775,0.287013,0.246105608,-0.174749918,0.294468,0.254745795,-0.171597197,0.305246
0.249292287,-0.141110975,0.319206,0.267112594,-0.156624487,0.29815,0.254221386,-0.128042129,0.30602,0.243926798,-0.117980355,0.280268,0.235718502,-0.106987585,0.257957,0.231106474,-0.105316119,0.243852,0.279233899,-0.148335372,0.273647,0.245836828,-0.131641075,0.24832,0.245513691,-0.128542383,0.258034,0.248497363,-0.126975567,0.271908,0.277104597,-0.168483393,0.284705,0.244945569,-0.156108526,0.260682,0.239017673,-0.149623475,0.27353,0.248344798,-0.149410381,0.286353,0.274150973,-0.183401187,0.29526,0.246576318,-0.17648334,0.269487,0.240731602,-0.170542846,0.280116,0.247321722,-0.167207003,0.294769,0.267620382,-0.20162697,0.310402,0.245500255,-0.185220511,0.288463,0.247380247,-0.175854994,0.296078,0.255637682,-0.17312017,0.306752
0.24887216,-0.141380617,0.318826,0.267520471,-0.157228754,0.298655,0.254369668,-0.128239721,0.305739,0.243724455,-0.118279357,0.280209,0.235674454,-0.107541764,0.258118,0.230910312,-0.106085384,0.244123,0.280010802,-0.148785685,0.274612,0.247115151,-0.132627648,0.2498,0.246932768,-0.129746129,0.259712,0.249746545,-0.128249518,0.273462,0.278014555,-0.168985414,0.285775,0.245761623,-0.156748113,0.262425,0.240210889,-0.150398162,0.275535,0.24961913,-0.15052422,0.288366,0.275060169,-0.184174358,0.296354,0.248082496,-0.17764902,0.271166,0.242371458,-0.171870083,0.282012,0.248362258,-0.168526293,0.296515,0.268429896,-0.202234354,0.311413,0.246826244,-0.186233195,0.289959,0.248809716,-0.176979338,0.29775,0.256756046,-0.174437301,0.308322
0.248289236,-0.141764507,0.318358,0.267678718,-0.157595777,0.298869,0.254306272,-0.12858193,0.305357,0.243462154,-0.118388951,0.280011,0.235522074,-0.107815001,0.258076,0.230669401,-0.106487917,0.244154,0.280479074,-0.149056982,0.275193,0.247978735,-0.133272009,0.250786,0.247908534,-0.130534849,0.26085,0.250593113,-0.129064865,0.274501,0.27856738,-0.169290824,0.286424,0.246367728,-0.157206266,0.263596,0.241074712,-0.150955581,0.276908,0.250471859,-0.151285508,0.289738,0.275600117,-0.184645449,0.297012,0.2490846,-0.178419034,0.272281,0.243479498,-0.172754807,0.283294,0.249035775,-0.169422676,0.29768,0.268890319,-0.202579577,0.311995,0.247675006,-0.186880917,0.290919,0.249744972,-0.177709263,0.298846,0.25747479,-0.175298462,0.309337
0.247803297,-0.141637304,0.31788,0.264981114,-0.155505394,0.295889,0.25444214,-0.128646359,0.305002,0.243019013,-0.118216147,0.279383,0.233511818,-0.107290969,0.256017,0.227878108,-0.105444071,0.24095,0.276151302,-0.147015027,0.271414,0.246338099,-0.135338166,0.245723,0.243169441,-0.130693921,0.255589,0.24450604,-0.128587491,0.269668,0.273635253,-0.166269556,0.281846,0.24211082,-0.154730984,0.257062,0.235554319,-0.147776053,0.270085,0.244659018,-0.148209404,0.283138,0.270290048,-0.181884833,0.29195,0.242966867,-0.173955652,0.265672,0.237635859,-0.168605262,0.27646,0.243497543,-0.166019715,0.291381,0.263602995,-0.198944122,0.306677,0.242352318,-0.182213261,0.284261,0.244117955,-0.173438818,0.291983,0.251773865,-0.171554728,0.302867
0.24724381,-0.141594473,0.317358,0.264919144,-0.155952154,0.295903,0.254252489,-0.128679702,0.304571,0.242853392,-0.118166121,0.279108,0.233143406,-0.107405364,0.255716,0.227828266,-0.105595879,0.240719,0.27642297,-0.147284223,0.271746,0.246993736,-0.135698373,0.246377,0.243940081,-0.13110811,0.256399,0.245182433,-0.128943211,0.270414,0.27382476,-0.166429146,0.282203,0.24327428,-0.155453043,0.25782,0.236694611,-0.148689498,0.271048,0.245338517,-0.148959616,0.284021,0.270412001,-0.181923258,0.29229,0.243658186,-0.17425647,0.266372,0.238406692,-0.16914981,0.277332,0.243952789,-0.166613332,0.292175,0.26357673,-0.198835958,0.306931,0.243063784,-0.182285254,0.284807,0.244803741,-0.173605181,0.292665,0.252063113,-0.171854937,0.303499
0.246113739,-0.140794593,0.315695,0.264401977,-0.156427258,0.295308,0.253453747,-0.128298311,0.303076,0.241878242,-0.117714467,0.277924,0.232019197,-0.107099801,0.25456,0.226978612,-0.105332787,0.239688,0.276402566,-0.147355892,0.271769,0.247659398,-0.136064087,0.247041,0.24484487,-0.131594398,0.25735,0.245917761,-0.129329925,0.271225,0.273805023,-0.166446633,0.28229,0.24438532,-0.156150178,0.258713,0.238029767,-0.149677156,0.272318,0.246218315,-0.149765266,0.285117,0.270336003,-0.181841084,0.292356,0.2444118,-0.17465711,0.267156,0.239365695,-0.169828437,0.278429,0.244565348,-0.167258238,0.293108,0.263321971,-0.198580853,0.306837,0.243669381,-0.182393428,0.285301,0.245510181,-0.173877389,0.293411,0.252407907,-0.172170175,0.304135
0.24497318,-0.139949521,0.313869,0.263317811,-0.156485159,0.294027,0.252598081,-0.127866727,0.301411,0.240799275,-0.11716412,0.276488,0.230754727,-0.106553568,0.253115,0.225850079,-0.10474086,0.238295,0.275892896,-0.147161781,0.270896,0.248375805,-0.136715857,0.246532,0.245682977,-0.13234687,0.257041,0.24660285,-0.130028194,0.270854,0.273202747,-0.166291156,0.281356,0.244186421,-0.156076637,0.258185,0.238047619,-0.149809967,0.272051,0.245505392,-0.150273702,0.284785,0.269528866,-0.181478585,0.291335,0.243980723,-0.174291566,0.266525,0.239088128,-0.169627505,0.278017,0.243653444,-0.167653303,0.292625,0.262607129,-0.197967192,0.305643,0.243198004,-0.18226222,0.284418,0.245123646,-0.17391125,0.292701,0.251420648,-0.17304743,0.303383
0.244522691,-0.139327031,0.312849,0.263074723,-0.156695035,0.293533,0.252315412,-0.127524684,0.300402,0.240137143,-0.116821774,0.275571,0.229955308,-0.106214343,0.252192,0.225204405,-0.104386946,0.237453,0.275684897,-0.14721807,0.270614,0.249122706,-0.137282132,0.246538,0.246437404,-0.132935338,0.257113,0.247208998,-0.130552005,0.270839,0.27308416,-0.166367579,0.281199,0.244639226,-0.156404303,0.258437,0.238548425,-0.150222588,0.272393,0.245430585,-0.150828359,0.285008,0.269441574,-0.1815574,0.291243,0.244265046,-0.174492802,0.266771,0.239422909,-0.16986184,0.278335,0.243476915,-0.168160445,0.292837,0.262218579,-0.19812947,0.305562,0.243600706,-0.1827414,0.284624,0.24551801,-0.174444123,0.292969,0.251688607,-0.173624117,0.303574
0.2446514,-0.13936142,0.312819,0.263368408,-0.156993831,0.293795,0.252457897,-0.127622736,0.300308,0.24013607,-0.116993724,0.275467,0.229722573,-0.106472751,0.252048,0.224955259,-0.104715106,0.237341,0.27594684,-0.147640497,0.270907,0.25004689,-0.137895149,0.246961,0.24727927,-0.13351138,0.257511,0.247932298,-0.131070921,0.271175,0.27344102,-0.166792894,0.281646,0.245447096,-0.156949532,0.25912,0.23930415,-0.150971868,0.27305,0.245976991,-0.151464475,0.28557,0.26985374,-0.181983243,0.291797,0.24494223,-0.175013253,0.267494,0.240055749,-0.170414427,0.279033,0.244153409,-0.168776585,0.293456,0.262652247,-0.198541999,0.306206,0.244590718,-0.183596397,0.285422,0.246367733,-0.175337137,0.293752,0.252333156,-0.174555468,0.304297
0.244708984,-0.138979748,0.312246,0.263702845,-0.156907841,0.293661,0.252520398,-0.12730701,0.299694,0.240107531,-0.116748587,0.274889,0.22944541,-0.106284693,0.251405,0.225203119,-0.104483435,0.236812,0.276338187,-0.147815719,0.270889,0.253607267,-0.139614525,0.247164,0.250659652,-0.135213903,0.257719,0.248827553,-0.131234351,0.271298,0.273925762,-0.166868351,0.281792,0.247241157,-0.157650323,0.259617,0.241618713,-0.152546077,0.27356,0.246777568,-0.151831681,0.285958,0.270411571,-0.182068782,0.292049,0.245822959,-0.175190181,0.268016,0.240921256,-0.170636947,0.279562,0.245054313,-0.169069628,0.293879,0.263231243,-0.198616486,0.306525,0.24671654,-0.183844681,0.28598,0.247403948,-0.175642217,0.294322,0.253159908,-0.175013433,0.304788
0.244774649,-0.138581071,0.311668,0.263955976,-0.156809937,0.293434,0.252672471,-0.127017032,0.299143,0.240252708,-0.116508558,0.274422,0.229446193,-0.106100198,0.250943,0.225749242,-0.104239054,0.23646,0.276638371,-0.14780112,0.27083,0.25426292,-0.139515327,0.247309,0.251360641,-0.135147959,0.257918,0.249545423,-0.131380374,0.271438,0.274263337,-0.166924491,0.281789,0.247926712,-0.157742289,0.259888,0.242349713,-0.152658254,0.273904,0.24749791,-0.152128334,0.286226,0.270727032,-0.182079622,0.292068,0.24646848,-0.175201438,0.268269,0.241613276,-0.170710076,0.279875,0.245807549,-0.169243828,0.294122,0.26347675,-0.198552226,0.306526,0.247302196,-0.18381491,0.286178,0.248167024,-0.175745661,0.29457,0.253732682,-0.175305024,0.304986
0.244773911,-0.138129222,0.310994,0.264137146,-0.156667168,0.293111,0.252765054,-0.126675022,0.298505,0.240320232,-0.116176159,0.273877,0.22933461,-0.105780292,0.250387,0.226161957,-0.10383303,0.236005,0.276921503,-0.147863653,0.270685,0.254666723,-0.139430669,0.247373,0.251819944,-0.135099314,0.258042,0.250065944,-0.131473406,0.271504,0.274533449,-0.166946323,0.28169,0.248425863,-0.157791299,0.260062,0.242908242,-0.152738294,0.274159,0.248206817,-0.152494103,0.286407,0.270961684,-0.182058556,0.291982,0.247000007,-0.175130638,0.26842,0.242191315,-0.170691852,0.280092,0.24645702,-0.169337355,0.294269,0.263625633,-0.198456335,0.306412,0.247697045,-0.18374587,0.286261,0.248813412,-0.175762596,0.294709,0.254200835,-0.175524225,0.305076
0.244690955,-0.137612907,0.310138,0.264334571,-0.156562787,0.292807,0.252863852,-0.1263477,0.29781,0.240559343,-0.115914921,0.273421,0.229191998,-0.105552223,0.249879,0.226265546,-0.103542069,0.235531,0.277423741,-0.148116326,0.270793,0.25541918,-0.139658066,0.247855,0.252759741,-0.135409187,0.258706,0.251035361,-0.131838341,0.272092,0.274906545,-0.167087109,0.281739,0.249164747,-0.158034698,0.260531,0.243875145,-0.153070644,0.274863,0.249504533,-0.153181478,0.287033,0.271201302,-0.182083044,0.291945,0.254336476,-0.177878266,0.268785,0.250027611,-0.174084908,0.280656,0.249060947,-0.170244384,0.294749,0.263656377,-0.198294095,0.306202,0.248073423,-0.183704056,0.286375,0.249601997,-0.175847355,0.294979,0.254793629,-0.175813733,0.305293
0.245219963,-0.13766094,0.31014,0.264782003,-0.156658448,0.292798,0.253421646,-0.126434063,0.297856,0.241172131,-0.115903307,0.273505,0.229591961,-0.105472262,0.249929,0.226590094,-0.103408003,0.235549,0.277894979,-0.148275074,0.270836,0.255668605,-0.139656488,0.247911,0.253069937,-0.135430121,0.2588,0.251959627,-0.132175033,0.272196,0.275314698,-0.167217964,0.281724,0.249601236,-0.157996573,0.260503,0.24440463,-0.153021981,0.274882,0.25018083,-0.153279183,0.287071,0.271559617,-0.182186396,0.291882,0.254283486,-0.177841206,0.268729,0.250012467,-0.174074364,0.280639,0.249556894,-0.170498853,0.294747,0.263964859,-0.198358004,0.306086,0.248443723,-0.183732826,0.286256,0.250017547,-0.17591258,0.294891,0.255301251,-0.176130184,0.305218
0.24585494,-0.137768441,0.310276,0.265270293,-0.156778214,0.292834,0.25406621,-0.126563728,0.298004,0.241835245,-0.115915837,0.273646,0.230043467,-0.105415903,0.250035,0.22696184,-0.10329542,0.235616,0.278335598,-0.148417452,0.270849,0.255780248,-0.139610497,0.247875,0.253206177,-0.135390396,0.258766,0.252779,-0.132456087,0.272183,0.275711373,-0.167341768,0.281697,0.249961192,-0.157909921,0.260395,0.244822565,-0.152903769,0.274776,0.250757929,-0.153316456,0.286996,0.271927433,-0.182296069,0.291829,0.254174668,-0.177765101,0.268614,0.249912689,-0.174004892,0.280527,0.249870637,-0.170647553,0.29466,0.264310681,-0.198449856,0.306013,0.248807288,-0.183756542,0.286129,0.250399655,-0.175954436,0.294764,0.255781196,-0.17642759,0.305111
0.246513214,-0.137888855,0.310441,0.265768757,-0.156903927,0.292881,0.254727211,-0.126701493,0.298171,0.242503886,-0.115930894,0.273793,0.230501585,-0.105362449,0.250148,0.227341445,-0.103186267,0.235691,0.278766041,-0.148554377,0.270852,0.255834008,-0.139554493,0.247812,0.25327303,-0.135336253,0.258696,0.25356883,-0.132721144,0.272135,0.27610526,-0.167463836,0.281667,0.250304812,-0.157812962,0.26027,0.245213053,-0.152768953,0.27464,0.251306882,-0.153337053,0.28689,0.272299256,-0.182408326,0.29178,0.254055441,-0.177681716,0.268488,0.249793313,-0.173921775,0.280393,0.250090039,-0.170744899,0.294553,0.264672387,-0.198553485,0.305958,0.249175422,-0.18378349,0.286007,0.250778746,-0.175994378,0.294634,0.256257671,-0.176722663,0.305001
0.247409093,-0.1380075,0.310996,0.266703915,-0.157061349,0.293521,0.255625195,-0.12683674,0.298742,0.243482481,-0.116158528,0.274394,0.231067176,-0.10572835,0.250704,0.227922917,-0.103588673,0.23624,0.27972381,-0.148751469,0.271545,0.256722455,-0.139724077,0.24856,0.254201806,-0.135500294,0.259465,0.254513575,-0.132865398,0.272891,0.27706625,-0.167646759,0.282362,0.251406868,-0.158126277,0.261031,0.24719729,-0.152858218,0.275428,0.252563442,-0.153678278,0.287663,0.273261507,-0.182574108,0.29247,0.254746992,-0.178001726,0.269238,0.250643714,-0.174631243,0.281165,0.251102275,-0.171324,0.295311,0.265635234,-0.198692901,0.306632,0.250259953,-0.184104421,0.28673,0.251898297,-0.176325781,0.295376,0.257283595,-0.176835086,0.305732
0.248389309,-0.13817319,0.311657,0.267656215,-0.157229004,0.29418,0.256591692,-0.12700594,0.299393,0.244496569,-0.116403082,0.275035,0.23166687,-0.106109844,0.251297,0.228534285,-0.1040046,0.23682,0.280632016,-0.148922328,0.27219,0.257498263,-0.139832551,0.249199,0.254993215,-0.135591507,0.260094,0.25533853,-0.132947732,0.273519,0.27798982,-0.167807217,0.283019,0.252408612,-0.158376653,0.261688,0.247825283,-0.153191147,0.276073,0.253703381,-0.153949069,0.288304,0.274203037,-0.182726341,0.293138,0.255363211,-0.178323697,0.269902,0.251335232,-0.175191323,0.281819,0.252026746,-0.171842279,0.295962,0.266602995,-0.198836435,0.307312,0.251304901,-0.184396575,0.287408,0.252956851,-0.1766141,0.296046,0.258257261,-0.176910538,0.3064
