sluyters/QuantumLeap/src/datasets/gesture/HandGestureDataset_SHREC2017_csv/Gesture2/finger_1/subject_27_essai_4_skeletons_world.csv
Wrist_x,Wrist_y,Wrist_z,Palm_x,Palm_y,Palm_z,thumb_base_x,thumb_base_y,thumb_base_z,thumb_first_joint_x,thumb_first_joint_y,thumb_first_joint_z,thumb_second_joint_x,thumb_second_joint_y,thumb_second_joint_z,thumb_tip_x,thumb_tip_y,thumb_tip_z,index_base_x,index_base_y,index_base_z,index_first_joint_x,index_first_joint_y,index_first_joint_z,index_second_joint_x,index_second_joint_y,index_second_joint_z,index_tip_x,index_tip_y,index_tip_z,middle_base_x,middle_base_y,middle_base_z,middle_first_joint_x,middle_first_joint_y,middle_first_joint_z,middle_second_joint_x,middle_second_joint_y,middle_second_joint_z,middle_tip_x,middle_tip_y,middle_tip_z,ring_base_x,ring_base_y,ring_base_z,ring_first_joint_x,ring_first_joint_y,ring_first_joint_z,ring_second_joint_x,ring_second_joint_y,ring_second_joint_z,ring_tip_x,ring_tip_y,ring_tip_z,pinky_base_x,pinky_base_y,pinky_base_z,pinky_first_joint_x,pinky_first_joint_y,pinky_first_joint_z,pinky_second_joint_x,pinky_second_joint_y,pinky_second_joint_z,pinky_tip_x,pinky_tip_y,pinky_tip_z,r
0.350521089,-0.365708335,0.468097,0.33311037,-0.317741795,0.456796,0.322283294,-0.349574472,0.460802,0.306039621,-0.316413482,0.439894,0.278811048,-0.286862294,0.429355,0.266855237,-0.272336729,0.43416,0.282978075,-0.263776818,0.438965,0.26445042,-0.22087224,0.430312,0.255813778,-0.202096694,0.425985,0.246442551,-0.184766622,0.422111,0.310131608,-0.263014156,0.44373,0.291034033,-0.234161739,0.423719,0.29083791,-0.252716692,0.412045,0.303182215,-0.27343579,0.422199,0.334944166,-0.265162432,0.44846,0.301525809,-0.221477831,0.427139,0.301606296,-0.229955171,0.41623,0.318069263,-0.253691454,0.427366,0.366099149,-0.276906269,0.45569,0.347607279,-0.265943454,0.435185,0.329470012,-0.27689758,0.425764,0.329337706,-0.292485159,0.433803
0.34949339,-0.366302805,0.468092,0.333037271,-0.318061559,0.456965,0.321166206,-0.350293737,0.460751,0.306141499,-0.316309297,0.439811,0.279118624,-0.286555047,0.429183,0.267336173,-0.271913818,0.434024,0.283350957,-0.263885236,0.439215,0.264518442,-0.221150595,0.430574,0.255731865,-0.202489917,0.426254,0.246437594,-0.185676424,0.422326,0.310570834,-0.26319146,0.4441,0.291429443,-0.234717451,0.42425,0.290853211,-0.253093695,0.412671,0.303186999,-0.273934601,0.42287,0.335279267,-0.265497367,0.448916,0.302050275,-0.221974689,0.42771,0.302063528,-0.230303781,0.416861,0.319424782,-0.254842273,0.428034,0.366625032,-0.277010795,0.456225,0.348124076,-0.266338838,0.435832,0.330010147,-0.277351528,0.426462,0.329892672,-0.292978025,0.434534
0.348857006,-0.36639023,0.467456,0.33196647,-0.318567351,0.456721,0.320343076,-0.35084489,0.460154,0.305908807,-0.315929416,0.439324,0.278977669,-0.285995682,0.428537,0.267342656,-0.271313022,0.433424,0.28356535,-0.263925929,0.439329,0.26472804,-0.221473447,0.431016,0.255614434,-0.203225219,0.42686,0.247020742,-0.18614434,0.423081,0.310836511,-0.26328676,0.444308,0.291850038,-0.235174622,0.42484,0.291211644,-0.253588196,0.413483,0.303574931,-0.274583512,0.423812,0.335468098,-0.265696544,0.449174,0.302531333,-0.222384144,0.428305,0.302619307,-0.230727526,0.417628,0.320524086,-0.255754004,0.428933,0.366904086,-0.277012539,0.456487,0.348576971,-0.266685335,0.436399,0.330557246,-0.277811329,0.427169,0.330512928,-0.293528875,0.435351
0.350591585,-0.368929128,0.469993,0.332937888,-0.320700132,0.458951,0.32138347,-0.353254355,0.462138,0.30710266,-0.316295602,0.440587,0.28928173,-0.283256546,0.433661,0.280384127,-0.267409292,0.439244,0.285504294,-0.264490585,0.440642,0.265719658,-0.222299518,0.430472,0.258890911,-0.205300735,0.425387,0.249850953,-0.18863192,0.420771,0.313202398,-0.264359065,0.446184,0.296932277,-0.245624455,0.426357,0.29729006,-0.26425979,0.414792,0.305684047,-0.279999777,0.424903,0.338102027,-0.267190183,0.451534,0.310845554,-0.228461967,0.430129,0.311970249,-0.239688662,0.419178,0.329933479,-0.265241344,0.430185,0.370160933,-0.278342921,0.459469,0.348322024,-0.273899374,0.438955,0.33181237,-0.280673004,0.429529,0.327454757,-0.304184312,0.437485
0.350799031,-0.369276905,0.470129,0.333427111,-0.320907477,0.45932,0.321653113,-0.353570629,0.462329,0.307543381,-0.31610205,0.440882,0.289150985,-0.283128524,0.433465,0.280036873,-0.267078108,0.4387,0.286278351,-0.264737006,0.441263,0.265859719,-0.222443547,0.430068,0.258241111,-0.205583534,0.424471,0.249164657,-0.188930244,0.419609,0.314003248,-0.26468206,0.446822,0.297999894,-0.245176334,0.427226,0.298034482,-0.264448575,0.415796,0.306766191,-0.280793579,0.425991,0.338488588,-0.268013634,0.45217,0.311462722,-0.228915567,0.430983,0.312688444,-0.240240456,0.420143,0.330741851,-0.265891214,0.431239,0.37091683,-0.278778816,0.460069,0.348952084,-0.274394814,0.439749,0.33215159,-0.282046617,0.430412,0.328169568,-0.304848325,0.43844
0.351687299,-0.371081415,0.471502,0.330564006,-0.31702109,0.455936,0.323209055,-0.356077881,0.464776,0.308844315,-0.314006229,0.444041,0.282116845,-0.275742782,0.424234,0.270365593,-0.257481521,0.425081,0.282977406,-0.25930674,0.435421,0.254660589,-0.212965153,0.413208,0.242182066,-0.1928605,0.402101,0.238129376,-0.180646587,0.406136,0.307695408,-0.2584671,0.437939,0.285144342,-0.229030672,0.413994,0.282300646,-0.245224604,0.400026,0.294006312,-0.267409988,0.408785,0.329619522,-0.260593809,0.441126,0.29770276,-0.218307497,0.416764,0.300571777,-0.229826365,0.4043,0.313953052,-0.251022802,0.414146,0.359969574,-0.270388299,0.447104,0.334365754,-0.264796675,0.423761,0.315628094,-0.273903047,0.413035,0.313349099,-0.290956501,0.419983
0.350257053,-0.370351046,0.469791,0.329263027,-0.316177506,0.453943,0.320661769,-0.353795578,0.461214,0.318595608,-0.322749589,0.456439,0.28881873,-0.282132928,0.43513,0.273946886,-0.260801427,0.431675,0.278835571,-0.254559213,0.430949,0.251541098,-0.209796394,0.407413,0.238876512,-0.190407725,0.395645,0.236339012,-0.181272497,0.399141,0.306108449,-0.256594139,0.435619,0.285713821,-0.22459906,0.411144,0.281180384,-0.23751234,0.396867,0.290198056,-0.262279639,0.40522,0.329314528,-0.259900711,0.440598,0.299518119,-0.218212356,0.414995,0.29869808,-0.227747966,0.401897,0.311966558,-0.249180365,0.411071,0.361328414,-0.271093514,0.448756,0.334038466,-0.265513001,0.424484,0.314984164,-0.274267472,0.413332,0.312702508,-0.290365281,0.419788
0.349053912,-0.369089873,0.468699,0.327320307,-0.313627791,0.451535,0.317898401,-0.350594502,0.457679,0.314271567,-0.315894048,0.450656,0.285838181,-0.275499256,0.428396,0.269939477,-0.2563545,0.425123,0.273280307,-0.248257568,0.424527,0.242613235,-0.202845642,0.398472,0.229474638,-0.183543518,0.385445,0.226861232,-0.175162943,0.38704,0.302457198,-0.251557146,0.431691,0.28305518,-0.217481834,0.405744,0.282227716,-0.230683259,0.390608,0.287726041,-0.251963995,0.397883,0.327600651,-0.257810241,0.438815,0.29730838,-0.213226904,0.410953,0.29724925,-0.22181435,0.396699,0.31027042,-0.246617349,0.404422,0.361485367,-0.270347374,0.449723,0.333591154,-0.264923312,0.423681,0.313881474,-0.273132053,0.411716,0.312930518,-0.285547944,0.417075
0.342944849,-0.362454274,0.460941,0.31685271,-0.302315561,0.441461,0.31031982,-0.342132443,0.447196,0.305381521,-0.303647372,0.433662,0.275460611,-0.263804036,0.409428,0.254667488,-0.238816722,0.398335,0.261233286,-0.237765407,0.409298,0.229519401,-0.192317965,0.380168,0.216435972,-0.173171145,0.365604,0.21100128,-0.160842571,0.36285,0.290868203,-0.239571489,0.418937,0.275314904,-0.206000351,0.390702,0.273679985,-0.220524378,0.374231,0.277564403,-0.237371704,0.379724,0.31716896,-0.244729082,0.428263,0.290295925,-0.202226555,0.397367,0.291297546,-0.210787564,0.38156,0.30124694,-0.232302325,0.387052,0.352395801,-0.258211228,0.442128,0.330117072,-0.2535642,0.413676,0.309678125,-0.261360968,0.400604,0.304368986,-0.276298085,0.404259
0.333699542,-0.349275288,0.450221,0.311670236,-0.287572846,0.43182,0.299939553,-0.327757808,0.434309,0.270806448,-0.284749117,0.407649,0.249795596,-0.249072161,0.380439,0.239635619,-0.221225352,0.363255,0.249990015,-0.226379436,0.397873,0.221151934,-0.186471982,0.368328,0.207619391,-0.167189947,0.353555,0.205077817,-0.156693841,0.354608,0.280632096,-0.227873171,0.410543,0.271176616,-0.201523369,0.383424,0.269648586,-0.216699246,0.367604,0.273557412,-0.232187619,0.37236,0.308205414,-0.232577469,0.422286,0.288923016,-0.198773614,0.391462,0.293928457,-0.209004924,0.375691,0.297669695,-0.227713415,0.380031,0.345790261,-0.245214451,0.438891,0.327162445,-0.239649594,0.410833,0.311365142,-0.249581082,0.397941,0.30869828,-0.265707331,0.400789
0.325704973,-0.338427151,0.439002,0.30134924,-0.278471316,0.419955,0.292081592,-0.315753811,0.421413,0.263715872,-0.277880367,0.398002,0.242161509,-0.241192401,0.367106,0.23249588,-0.214027405,0.350532,0.237994413,-0.215985683,0.383455,0.209149026,-0.175600004,0.352748,0.196061156,-0.156369565,0.337394,0.189877025,-0.143106855,0.333544,0.269077165,-0.217803599,0.397931,0.265749809,-0.193890178,0.370389,0.263584517,-0.209856763,0.354324,0.263165579,-0.223055977,0.357793,0.296955758,-0.222783416,0.411205,0.285698144,-0.191382447,0.379382,0.286844198,-0.202457502,0.363101,0.289126149,-0.218554836,0.365814,0.334712934,-0.235758253,0.429731,0.319980867,-0.23381144,0.401039,0.303618144,-0.243038619,0.387857,0.299685504,-0.257949526,0.389489
0.326700798,-0.323911992,0.432181,0.295256196,-0.268587555,0.411512,0.290490404,-0.305763352,0.412773,0.255154032,-0.27068823,0.388396,0.234740501,-0.235709016,0.358429,0.223752977,-0.209175002,0.341358,0.228530159,-0.210685654,0.371515,0.201583363,-0.1729266,0.339083,0.188568786,-0.15413863,0.322867,0.181184777,-0.140417377,0.315946,0.257557067,-0.209142495,0.387615,0.25998475,-0.188715366,0.358879,0.257165635,-0.203187406,0.342116,0.253936823,-0.213943446,0.34363,0.284158408,-0.211137569,0.402341,0.286948695,-0.188915389,0.37018,0.281699612,-0.198816499,0.353725,0.280700645,-0.212316701,0.354495,0.321240645,-0.220075426,0.422829,0.315243707,-0.21695973,0.392936,0.301000815,-0.226872299,0.379202,0.298037178,-0.241748769,0.379053
0.316964412,-0.311121275,0.418723,0.287569426,-0.257603441,0.401051,0.282005428,-0.294464313,0.399114,0.23651662,-0.263184543,0.37098,0.213204705,-0.235408663,0.343415,0.193217988,-0.212723352,0.327598,0.220731326,-0.206105768,0.363183,0.198250252,-0.169128279,0.33277,0.187648929,-0.150869999,0.318766,0.178566768,-0.134413192,0.307104,0.248183061,-0.203633074,0.380619,0.265540904,-0.192099092,0.35531,0.259772247,-0.204575429,0.340546,0.254256651,-0.21409058,0.342672,0.273246982,-0.204745532,0.39623,0.293134564,-0.193011023,0.375548,0.293730475,-0.207366583,0.364967,0.2924422,-0.221321935,0.36886,0.307976169,-0.212337202,0.417358,0.312628657,-0.213000557,0.38985,0.300300892,-0.223361967,0.377211,0.298579428,-0.238252153,0.377453
0.30305467,-0.285337794,0.404087,0.262469003,-0.231608449,0.37551,0.272573554,-0.275957322,0.385,0.221590801,-0.250937912,0.355324,0.198004879,-0.230066538,0.323756,0.17664888,-0.210160811,0.303963,0.198643774,-0.186348171,0.329638,0.16856088,-0.152169001,0.292362,0.153469042,-0.134992741,0.273724,0.141589239,-0.120822418,0.259912,0.220791563,-0.178224942,0.342468,0.236766038,-0.17094558,0.310226,0.248795655,-0.196078213,0.322282,0.250722625,-0.210688167,0.337729,0.241540889,-0.174866054,0.35507,0.261564979,-0.16951606,0.327301,0.274001989,-0.190278475,0.338259,0.281569932,-0.208649705,0.353849,0.271349772,-0.177218087,0.37412,0.272772315,-0.178267359,0.33863,0.276963759,-0.196949193,0.346186,0.287597878,-0.218490431,0.361606
0.214675765,-0.247110334,0.314076,0.199130341,-0.196651291,0.30388,0.180575683,-0.224235758,0.298232,0.182231318,-0.186820018,0.298322,0.190323409,-0.151750318,0.276198,0.201577946,-0.132430108,0.276487,0.152040165,-0.141410075,0.276515,0.14054711,-0.121094225,0.25272,0.143245179,-0.129996234,0.240823,0.152770666,-0.146725655,0.245689,0.182956332,-0.147216204,0.292091,0.173324301,-0.1289041,0.273231,0.191940054,-0.164118003,0.291084,0.201028291,-0.181879724,0.30351,0.210968491,-0.154744587,0.305635,0.195339708,-0.133958605,0.281833,0.204235713,-0.16619198,0.297414,0.213715648,-0.192473563,0.313249,0.249046286,-0.169788095,0.323252,0.220697723,-0.150608373,0.301714,0.219973223,-0.175264553,0.313839,0.220598042,-0.199094777,0.32612
0.214928877,-0.255574518,0.31643,0.191786006,-0.206136166,0.299697,0.181548119,-0.234150153,0.302145,0.176365054,-0.212600586,0.299502,0.183054046,-0.18254514,0.27554,0.19109918,-0.161410762,0.271259,0.13854207,-0.144612243,0.269053,0.121408692,-0.136548133,0.24142,0.112771216,-0.132869811,0.227603,0.113629834,-0.140677303,0.23264,0.167922659,-0.146937985,0.28035,0.149847265,-0.140614202,0.254752,0.159382446,-0.159177183,0.274277,0.166530821,-0.175270507,0.289665,0.194932903,-0.152218053,0.290843,0.178254211,-0.15051498,0.26194,0.195761606,-0.183385466,0.279098,0.210975041,-0.203050006,0.297718,0.232266618,-0.165739783,0.305721,0.201758076,-0.165603751,0.279176,0.207728833,-0.191726,0.292433,0.214852528,-0.217225414,0.306916
0.21353002,-0.257424469,0.314528,0.190510049,-0.20582566,0.296997,0.179953238,-0.235747614,0.299905,0.171253551,-0.209785127,0.291158,0.174193787,-0.18324642,0.263171,0.179735232,-0.156711208,0.25538,0.13668981,-0.143477483,0.265311,0.118494745,-0.135939091,0.236976,0.109305984,-0.132545941,0.222808,0.109478141,-0.14082642,0.227435,0.166094604,-0.145984945,0.276728,0.146760388,-0.14034858,0.25037,0.155393908,-0.159858715,0.269524,0.161960965,-0.177185023,0.285071,0.193250557,-0.151448003,0.287377,0.175231875,-0.150446032,0.257701,0.192592404,-0.182953536,0.274529,0.208193204,-0.202167269,0.293235,0.230955112,-0.165294135,0.302552,0.199164655,-0.165744964,0.275348,0.20501667,-0.191504177,0.288326,0.212312245,-0.216892891,0.302932
0.212958686,-0.266328829,0.320211,0.182628056,-0.209759135,0.297243,0.178121709,-0.24411176,0.303109,0.163522677,-0.216746438,0.283733,0.150134983,-0.18714107,0.262627,0.14413558,-0.162738119,0.251322,0.125979726,-0.146515494,0.258232,0.111956812,-0.136065128,0.225184,0.104995156,-0.131038211,0.208659,0.109452753,-0.140425776,0.21005,0.156398592,-0.148826829,0.270687,0.149648063,-0.155502291,0.239328,0.168527987,-0.184627911,0.255242,0.184258836,-0.219213038,0.271581,0.18386017,-0.154297105,0.28258,0.172941427,-0.159928875,0.247743,0.182243921,-0.193882619,0.261691,0.190907054,-0.222766362,0.28133,0.221060827,-0.168159755,0.3,0.208846642,-0.1742675,0.268459,0.226503335,-0.191686594,0.279025,0.237568958,-0.196199912,0.294223
0.211879545,-0.266880786,0.321316,0.182988098,-0.210172664,0.297829,0.177319605,-0.245340678,0.304224,0.164055203,-0.217452291,0.284657,0.150903874,-0.188099481,0.263972,0.144972904,-0.16368351,0.252782,0.126070467,-0.146621026,0.258418,0.111889195,-0.135982951,0.225048,0.104846212,-0.130852322,0.208363,0.109220872,-0.140128277,0.209605,0.156389925,-0.148818582,0.270672,0.149334795,-0.155176768,0.238827,0.168121262,-0.184182331,0.254626,0.183935885,-0.218828823,0.271105,0.183766477,-0.154218476,0.282436,0.17256098,-0.159577054,0.247198,0.181797523,-0.193407713,0.26105,0.190555545,-0.222356192,0.280812,0.220895032,-0.168033635,0.299775,0.208386098,-0.173883209,0.267867,0.225952145,-0.19122013,0.278346,0.23709741,-0.195810476,0.293639
0.211200392,-0.267164447,0.32192,0.18318778,-0.210402011,0.298154,0.176764509,-0.24597745,0.304768,0.164202742,-0.217647852,0.284913,0.151092524,-0.188334631,0.264302,0.145144957,-0.163877769,0.253082,0.12608559,-0.146638615,0.258449,0.111804675,-0.135880231,0.224878,0.104709848,-0.130682134,0.208092,0.109010877,-0.139858858,0.209202,0.156391659,-0.148820232,0.270675,0.149178474,-0.155014332,0.238577,0.1678697,-0.183906736,0.254245,0.183710634,-0.218560841,0.270773,0.183766477,-0.154218476,0.282436,0.172397633,-0.159425997,0.246964,0.18155378,-0.193148403,0.2607,0.190350592,-0.222117059,0.28051,0.220920085,-0.168052693,0.299809,0.208255403,-0.173774154,0.267699,0.225736215,-0.191037391,0.27808,0.236909275,-0.195655103,0.293406
0.209861128,-0.266391872,0.321321,0.182456508,-0.209672398,0.297595,0.175633764,-0.245525889,0.304241,0.163982695,-0.216920245,0.285361,0.151723676,-0.187112946,0.264812,0.145855496,-0.162748667,0.25435,0.125490929,-0.145978661,0.258011,0.111224411,-0.134980508,0.224498,0.104135949,-0.129656254,0.207742,0.108427757,-0.138668519,0.20892,0.155686547,-0.148125827,0.270163,0.145905589,-0.1424101,0.238096,0.163524259,-0.162386272,0.253848,0.180725364,-0.197061232,0.270392,0.182958677,-0.153493263,0.281861,0.171618147,-0.158429387,0.246443,0.180712527,-0.192044589,0.260255,0.189400516,-0.220545589,0.280074,0.219980437,-0.16728136,0.299153,0.207345118,-0.172744538,0.26708,0.224881152,-0.190092666,0.277523,0.236062289,-0.194826319,0.29286
0.209297331,-0.266335074,0.321489,0.182303372,-0.209562777,0.297725,0.175150852,-0.245655679,0.304425,0.164024825,-0.216713455,0.285934,0.152519831,-0.186892635,0.265846,0.146623111,-0.162448047,0.255706,0.125320384,-0.145799277,0.25813,0.111040299,-0.134640025,0.2246,0.103944551,-0.129231568,0.207836,0.108215481,-0.138130743,0.209015,0.155490185,-0.147924914,0.270248,0.145935004,-0.14243881,0.238144,0.163559045,-0.162420816,0.253902,0.18077215,-0.197112248,0.270462,0.182737686,-0.153279449,0.281921,0.171393841,-0.158056524,0.246479,0.180423453,-0.191611974,0.260297,0.18904589,-0.219854953,0.280128,0.219733414,-0.167059541,0.299189,0.207096512,-0.172375146,0.267091,0.224651563,-0.1897657,0.277538,0.235839581,-0.194564809,0.292886
0.20888006,-0.266298574,0.321622,0.182206852,-0.209496138,0.297821,0.17479023,-0.245755428,0.304566,0.164057595,-0.216581351,0.286325,0.153061297,-0.186755623,0.266553,0.147142273,-0.162252292,0.256623,0.125205543,-0.145678364,0.258207,0.110913089,-0.134407626,0.224659,0.103810116,-0.128939928,0.207885,0.108064447,-0.137760067,0.20906,0.155358364,-0.147790115,0.270303,0.14594726,-0.142450772,0.238164,0.163571284,-0.16243297,0.253921,0.18079287,-0.19713484,0.270493,0.182589145,-0.153135886,0.281959,0.17123599,-0.157800306,0.246491,0.180219879,-0.191312084,0.260309,0.18880055,-0.219384565,0.28015,0.219568072,-0.166911163,0.299212,0.206923575,-0.172122911,0.267089,0.224487988,-0.189538824,0.277535,0.235681174,-0.194382263,0.292891
0.20971731,-0.267328294,0.322976,0.183067613,-0.210335385,0.298771,0.175516054,-0.246849001,0.305764,0.17016299,-0.223500079,0.29307,0.16975407,-0.192186899,0.271754,0.175390432,-0.173683962,0.269722,0.125645047,-0.146324152,0.258646,0.112219683,-0.136419776,0.224775,0.105184246,-0.131179678,0.20784,0.108489251,-0.138270247,0.208765,0.15582296,-0.148380821,0.270784,0.14685224,-0.143671185,0.238287,0.16808028,-0.168587807,0.253777,0.182084159,-0.198655605,0.270394,0.183098398,-0.153693181,0.282506,0.171685141,-0.158262658,0.246678,0.180539285,-0.19152367,0.260259,0.189128226,-0.219384569,0.280151,0.220179714,-0.167448623,0.299892,0.207470206,-0.172601139,0.267468,0.224856068,-0.189788766,0.277717,0.236015419,-0.194588669,0.293102
0.209733947,-0.267424149,0.323242,0.183606678,-0.210759078,0.29921,0.175565832,-0.246931741,0.30593,0.167226893,-0.218631842,0.287047,0.153512331,-0.188494066,0.265153,0.148567411,-0.164573035,0.254666,0.126310045,-0.14677749,0.2591,0.112805921,-0.137123497,0.225291,0.105669563,-0.132047157,0.208387,0.109922238,-0.141323789,0.209287,0.156616258,-0.149011196,0.271424,0.147591547,-0.136545459,0.239097,0.162931315,-0.148314621,0.254529,0.18016254,-0.180730462,0.271066,0.184013028,-0.154457758,0.283285,0.173279846,-0.16067293,0.247561,0.182054964,-0.193876688,0.261086,0.189665953,-0.220127316,0.280915,0.221237387,-0.168365896,0.300815,0.209197687,-0.175069935,0.268501,0.226456363,-0.19204614,0.278709,0.236946837,-0.195661457,0.29404
0.209535227,-0.268257449,0.324414,0.184326887,-0.211434143,0.300042,0.175566273,-0.248183864,0.307188,0.168927516,-0.220183794,0.289325,0.156301663,-0.19023474,0.267977,0.152110904,-0.166636039,0.258164,0.126981346,-0.147309095,0.259769,0.113273738,-0.137686239,0.22579,0.106017152,-0.132654901,0.2088,0.110168492,-0.14202588,0.209661,0.157199508,-0.149469323,0.271863,0.147663769,-0.136612277,0.239214,0.162786006,-0.148182347,0.254302,0.180125984,-0.180693791,0.271011,0.184509022,-0.154871619,0.283559,0.17338472,-0.161093207,0.247601,0.182007011,-0.194173875,0.26113,0.189776783,-0.220347917,0.281054,0.221623468,-0.16874715,0.300939,0.209178452,-0.175455707,0.268398,0.226387976,-0.192398476,0.278603,0.23706155,-0.195992265,0.294013
0.211396502,-0.270820086,0.328984,0.188186952,-0.214765914,0.305317,0.17779314,-0.251238497,0.312227,0.174543945,-0.222262857,0.294854,0.16292679,-0.192610566,0.27327,0.153608554,-0.168104966,0.260429,0.142124992,-0.14691184,0.266171,0.120046471,-0.140284967,0.232845,0.111388523,-0.137967481,0.216183,0.11591622,-0.150044917,0.217626,0.172811972,-0.152149403,0.277952,0.153703356,-0.140980229,0.245909,0.168167602,-0.153537149,0.26072,0.184644451,-0.18707338,0.277576,0.200326586,-0.160075661,0.28934,0.179301789,-0.168286112,0.254068,0.186903035,-0.200620355,0.268183,0.194006663,-0.224853215,0.288064,0.237026226,-0.176934847,0.306253,0.214708197,-0.182408944,0.274261,0.232064058,-0.200660023,0.284948,0.244681292,-0.205507835,0.300351
0.212749116,-0.271406589,0.33067,0.192286224,-0.21528658,0.307241,0.179586858,-0.252087039,0.314558,0.177054368,-0.223851971,0.2983,0.165052956,-0.194950605,0.277876,0.157335258,-0.168418096,0.266968,0.143445853,-0.148242808,0.269072,0.123499849,-0.138223705,0.236209,0.114443382,-0.135709915,0.219778,0.118005234,-0.152590026,0.221765,0.173745087,-0.15280769,0.280153,0.155682677,-0.141753243,0.248288,0.170239822,-0.154892348,0.264067,0.186343135,-0.188640089,0.281047,0.200917063,-0.160184234,0.290948,0.180816324,-0.168663824,0.256077,0.188253999,-0.202528462,0.270789,0.196638264,-0.227622405,0.290746,0.237242644,-0.176384924,0.30712,0.215207498,-0.181040145,0.275392,0.233510591,-0.200721293,0.286561,0.246819638,-0.207160955,0.302059
0.213478396,-0.27123707,0.331627,0.194027009,-0.215097736,0.308489,0.180788103,-0.252182789,0.316021,0.1824396,-0.226147773,0.305146,0.167621894,-0.197455105,0.284576,0.164072139,-0.174736072,0.273963,0.144441931,-0.149798455,0.271164,0.125132624,-0.138287841,0.238739,0.116484838,-0.127994409,0.222526,0.121260257,-0.149613866,0.224949,0.174497673,-0.153876304,0.281736,0.15754827,-0.142879918,0.250116,0.172804117,-0.156792506,0.266828,0.188933877,-0.190716908,0.28381,0.201350116,-0.160831418,0.292092,0.182572102,-0.170296414,0.257625,0.189782695,-0.20275627,0.272793,0.197478694,-0.224684503,0.292817,0.237130762,-0.176448167,0.307697,0.216454865,-0.182495926,0.276261,0.234666803,-0.202583222,0.287801,0.248145745,-0.208250675,0.30334
0.214675316,-0.271221727,0.333152,0.197784812,-0.214332882,0.311377,0.182508261,-0.252539246,0.318197,0.185634601,-0.228345012,0.309822,0.172040815,-0.198166164,0.289375,0.180352632,-0.178238161,0.287502,0.147109753,-0.151953032,0.275926,0.129239272,-0.137420673,0.244691,0.120256539,-0.130280851,0.229073,0.12599703,-0.15245341,0.232343,0.177263856,-0.15571005,0.286201,0.163557644,-0.137496615,0.255826,0.16409412,-0.13464826,0.250661,0.177316853,-0.161680793,0.263631,0.204072066,-0.162373347,0.296215,0.187871635,-0.173267467,0.263046,0.194464466,-0.204322122,0.278982,0.202382487,-0.221347482,0.29944,0.239572802,-0.177555454,0.311221,0.221102421,-0.184746628,0.280869,0.239727296,-0.204759965,0.293051,0.252331805,-0.210583196,0.308715
0.216824196,-0.271877709,0.336219,0.201433495,-0.216019453,0.316953,0.185142486,-0.250939613,0.320293,0.185986991,-0.223466231,0.308327,0.171105241,-0.193310868,0.286305,0.165583394,-0.170470052,0.274348,0.15137012,-0.153390554,0.282306,0.133914017,-0.140368904,0.252186,0.125157415,-0.133722331,0.237126,0.133128573,-0.153491273,0.240412,0.183182087,-0.156896175,0.294678,0.17657652,-0.166181806,0.266725,0.189054304,-0.204142681,0.284488,0.195732775,-0.219475598,0.30085,0.210846623,-0.163986278,0.306237,0.198329976,-0.176176641,0.274708,0.20405982,-0.210305781,0.290289,0.210478419,-0.228041231,0.309996,0.247097169,-0.179470887,0.322742,0.233839028,-0.189133714,0.294038,0.250875221,-0.206847192,0.305983,0.263197957,-0.213590519,0.321165
0.220507861,-0.273208535,0.341126,0.205478157,-0.216462041,0.32337,0.188665439,-0.252721565,0.32572,0.193268309,-0.225128425,0.318004,0.176899299,-0.194871691,0.29764,0.173144441,-0.171721163,0.288025,0.157189536,-0.154816061,0.290552,0.140562823,-0.140912614,0.261677,0.132545274,-0.131045716,0.24724,0.143173974,-0.152837401,0.251265,0.188280749,-0.158932889,0.302841,0.182760608,-0.169451423,0.276309,0.196167383,-0.208560967,0.294749,0.202495306,-0.22446168,0.310699,0.215564171,-0.165740297,0.314223,0.20593437,-0.177836818,0.284091,0.21398371,-0.212440443,0.300271,0.217670378,-0.233540492,0.319698,0.251012586,-0.180769194,0.330307,0.240052327,-0.192018732,0.302805,0.257795618,-0.21055581,0.315258,0.268923925,-0.213989776,0.330379
0.225850566,-0.273870229,0.34892,0.212245189,-0.218025989,0.332442,0.194968987,-0.254781597,0.33462,0.198983139,-0.227891177,0.32605,0.181126547,-0.197013341,0.305564,0.176672849,-0.173694212,0.296042,0.167149439,-0.15632588,0.301982,0.149168119,-0.141368882,0.27451,0.140057295,-0.133858529,0.260774,0.151201983,-0.155031043,0.265859,0.195968103,-0.162215889,0.31339,0.190247623,-0.172091796,0.28804,0.204736896,-0.21270669,0.30758,0.210874612,-0.232541907,0.322883,0.222854671,-0.168866794,0.323956,0.213325087,-0.180555652,0.295256,0.222007328,-0.21608439,0.312424,0.2276781,-0.235410086,0.33201,0.2576598,-0.183701633,0.338886,0.246799212,-0.194451777,0.31253,0.265558707,-0.214175318,0.325801,0.277611554,-0.219765252,0.34105
