sluyters/QuantumLeap/src/datasets/gesture/HandGestureDataset_SHREC2017_csv/Gesture2/finger_1/subject_26_essai_3_skeletons_world.csv
Wrist_x,Wrist_y,Wrist_z,Palm_x,Palm_y,Palm_z,thumb_base_x,thumb_base_y,thumb_base_z,thumb_first_joint_x,thumb_first_joint_y,thumb_first_joint_z,thumb_second_joint_x,thumb_second_joint_y,thumb_second_joint_z,thumb_tip_x,thumb_tip_y,thumb_tip_z,index_base_x,index_base_y,index_base_z,index_first_joint_x,index_first_joint_y,index_first_joint_z,index_second_joint_x,index_second_joint_y,index_second_joint_z,index_tip_x,index_tip_y,index_tip_z,middle_base_x,middle_base_y,middle_base_z,middle_first_joint_x,middle_first_joint_y,middle_first_joint_z,middle_second_joint_x,middle_second_joint_y,middle_second_joint_z,middle_tip_x,middle_tip_y,middle_tip_z,ring_base_x,ring_base_y,ring_base_z,ring_first_joint_x,ring_first_joint_y,ring_first_joint_z,ring_second_joint_x,ring_second_joint_y,ring_second_joint_z,ring_tip_x,ring_tip_y,ring_tip_z,pinky_base_x,pinky_base_y,pinky_base_z,pinky_first_joint_x,pinky_first_joint_y,pinky_first_joint_z,pinky_second_joint_x,pinky_second_joint_y,pinky_second_joint_z,pinky_tip_x,pinky_tip_y,pinky_tip_z,r
0.401589699,-0.350505151,0.548504,0.397758446,-0.341717531,0.513925,0.415382483,-0.335219853,0.543151,0.390346007,-0.289389686,0.519273,0.366867547,-0.25320883,0.495666,0.349796762,-0.231662012,0.476162,0.421927839,-0.327928635,0.483474,0.378795252,-0.285314335,0.447271,0.374345657,-0.283052924,0.457773,0.379208095,-0.287147362,0.467321,0.402582757,-0.34291749,0.480993,0.349978265,-0.292644071,0.438015,0.342799622,-0.287752687,0.451165,0.34984212,-0.297715675,0.470839,0.386913074,-0.356001749,0.482676,0.349722129,-0.317896448,0.446005,0.345166267,-0.307156788,0.456437,0.351910957,-0.309052769,0.475412,0.368309458,-0.372565202,0.491129,0.334234295,-0.325899507,0.45846,0.32992466,-0.320229982,0.465809,0.331467491,-0.320380871,0.480156
0.39904849,-0.349557466,0.555843,0.387051661,-0.342847022,0.517831,0.410328073,-0.331564733,0.546878,0.375210485,-0.287345438,0.51781,0.348968893,-0.250869056,0.492857,0.332312347,-0.229332559,0.472506,0.40110539,-0.325704946,0.480345,0.349607127,-0.280348964,0.439631,0.345043433,-0.275878147,0.446901,0.347965021,-0.278749136,0.453511,0.38387743,-0.343026224,0.481629,0.325139647,-0.290447411,0.435308,0.315744766,-0.282834357,0.444443,0.325636448,-0.29248235,0.464066,0.370647714,-0.358172602,0.486784,0.322707791,-0.317536999,0.44614,0.317469352,-0.304427054,0.453364,0.327959306,-0.30632646,0.472661,0.356182434,-0.377334991,0.499912,0.317299936,-0.328548997,0.464271,0.312402881,-0.320893869,0.469076,0.314748043,-0.320952252,0.483484
0.393215771,-0.346272941,0.558989,0.378881899,-0.33904817,0.519447,0.403885327,-0.332000478,0.550891,0.367431189,-0.286601901,0.523298,0.341378248,-0.250092827,0.500853,0.32426137,-0.227408033,0.481353,0.392162073,-0.316918808,0.48205,0.339190443,-0.270545374,0.441433,0.333466264,-0.266813838,0.446776,0.335939297,-0.27052462,0.451634,0.37443477,-0.334068799,0.481788,0.313957012,-0.280483106,0.434728,0.302632562,-0.272706755,0.441359,0.312637285,-0.283729046,0.460463,0.360933961,-0.349499167,0.485833,0.31083885,-0.305653812,0.445024,0.304097066,-0.292740243,0.450307,0.314442227,-0.296250745,0.468896,0.346436719,-0.369831271,0.497962,0.306342532,-0.319973737,0.462238,0.300456941,-0.312347174,0.465529,0.30228869,-0.312913506,0.479377
0.384573913,-0.34120606,0.558522,0.36973775,-0.327403285,0.518385,0.392916757,-0.323532645,0.549348,0.359492688,-0.27043635,0.522085,0.336961603,-0.231570938,0.498886,0.317344042,-0.208011334,0.479816,0.379804278,-0.303227965,0.479183,0.322450205,-0.260042323,0.437593,0.319623467,-0.257595163,0.441916,0.324461483,-0.260688774,0.445845,0.364815211,-0.322767201,0.480159,0.301193894,-0.273475548,0.432592,0.290784218,-0.267433203,0.437958,0.307822815,-0.280735589,0.456848,0.35367723,-0.340074525,0.485288,0.294644838,-0.291072814,0.443686,0.285994128,-0.278042275,0.447957,0.292937561,-0.277762268,0.466462,0.342142287,-0.362524396,0.498787,0.298811633,-0.315294013,0.462527,0.293113979,-0.307558913,0.465025,0.298777747,-0.310594309,0.478755
0.377415677,-0.334791965,0.55641,0.369532611,-0.325470476,0.517557,0.386356243,-0.314025604,0.547244,0.357982271,-0.268325783,0.520674,0.335075077,-0.2297792,0.497488,0.315191673,-0.206454271,0.478306,0.380260353,-0.301880083,0.479238,0.322447061,-0.259222327,0.438044,0.320324006,-0.257373337,0.444266,0.325174844,-0.260384701,0.449923,0.36579095,-0.32182186,0.480554,0.302295079,-0.273663148,0.433668,0.293301246,-0.269095723,0.441466,0.309881018,-0.28246522,0.460874,0.35495384,-0.339348863,0.485825,0.296105227,-0.29222181,0.444693,0.28801647,-0.2803017,0.450867,0.294638058,-0.279871321,0.469942,0.343568786,-0.361844522,0.499246,0.300003994,-0.315337696,0.463265,0.295077676,-0.30857047,0.467249,0.299716006,-0.311383515,0.481457
0.36764907,-0.31816633,0.545358,0.361508165,-0.306410732,0.50645,0.377964258,-0.298077802,0.534477,0.347371823,-0.246050531,0.504947,0.322080801,-0.208204109,0.479347,0.300850709,-0.186196884,0.459297,0.368674545,-0.286591875,0.465858,0.30899501,-0.244932964,0.42349,0.306829383,-0.24060242,0.429103,0.310923395,-0.240685177,0.434205,0.355691791,-0.307157901,0.469394,0.295290887,-0.264819617,0.422286,0.289792065,-0.255662957,0.429375,0.306634232,-0.264753053,0.44864,0.346298774,-0.324770651,0.476499,0.285546596,-0.277596334,0.434528,0.275968889,-0.264724328,0.440111,0.280796343,-0.261474078,0.459288,0.33696498,-0.346608298,0.492059,0.292577819,-0.302003165,0.455527,0.287869277,-0.293985169,0.459047,0.291010174,-0.294235294,0.47327
0.358319792,-0.295335108,0.530054,0.351473075,-0.294809401,0.491663,0.368372524,-0.279770842,0.519428,0.338006472,-0.231960688,0.490566,0.313174409,-0.194287962,0.465521,0.29303228,-0.176633431,0.446225,0.360038947,-0.272110356,0.451756,0.300549053,-0.230852796,0.409747,0.298764045,-0.227272371,0.416121,0.302654904,-0.231016565,0.421916,0.346903957,-0.292721664,0.455101,0.286762793,-0.25058861,0.408327,0.281753317,-0.242271429,0.416382,0.298242843,-0.254437606,0.435829,0.337309864,-0.310364538,0.461993,0.276777866,-0.263403895,0.42036,0.267594451,-0.25101089,0.426703,0.272390477,-0.247852867,0.446048,0.327612416,-0.332227875,0.477209,0.283376624,-0.287764164,0.440898,0.278953402,-0.280271172,0.445014,0.282096293,-0.280633425,0.459389
0.343209938,-0.274493426,0.507382,0.337324118,-0.272966191,0.46989,0.35241892,-0.259026057,0.495352,0.321675807,-0.209893504,0.463876,0.295975446,-0.172722649,0.436359,0.275956142,-0.151465051,0.415439,0.344627417,-0.257286618,0.428765,0.285532838,-0.216918888,0.386292,0.284040032,-0.211883939,0.392962,0.288566883,-0.211327107,0.399025,0.332399162,-0.278010637,0.434184,0.273370517,-0.238285488,0.387958,0.268873295,-0.228590075,0.396454,0.285624387,-0.236356478,0.415842,0.323503894,-0.295387287,0.442687,0.263727694,-0.250026152,0.400916,0.255032789,-0.237114017,0.407572,0.260055257,-0.232556457,0.427097,0.314497384,-0.316236024,0.459604,0.270982351,-0.27329222,0.423269,0.266835674,-0.265031191,0.427636,0.270077834,-0.264424541,0.442116
0.327817066,-0.25122627,0.478288,0.325213947,-0.252481328,0.440832,0.337140877,-0.236635476,0.466548,0.309792638,-0.189775981,0.435762,0.283579751,-0.152587146,0.40874,0.263092383,-0.131206683,0.38806,0.331802079,-0.236074984,0.400108,0.271469598,-0.195681278,0.357816,0.270416296,-0.191251689,0.364697,0.275389276,-0.191310139,0.370952,0.319433913,-0.256891475,0.405159,0.259017119,-0.216682035,0.358957,0.255019638,-0.207538427,0.367711,0.272359567,-0.21566264,0.387171,0.310540644,-0.274360775,0.413356,0.249670549,-0.228572735,0.371711,0.24126453,-0.215851617,0.378575,0.246746833,-0.211495173,0.398133,0.301740248,-0.29538383,0.42991,0.257367445,-0.252042058,0.393648,0.253532488,-0.244091436,0.398176,0.25713685,-0.243653537,0.412694
0.312960087,-0.231049891,0.450047,0.310895242,-0.238463217,0.415697,0.322832014,-0.217469643,0.437804,0.297085663,-0.17249722,0.406129,0.273661606,-0.136000993,0.377473,0.255298574,-0.11554121,0.356035,0.322091248,-0.23000895,0.376427,0.266702559,-0.191532234,0.335429,0.266216231,-0.185972836,0.344772,0.270914981,-0.184849453,0.353266,0.309156701,-0.249596915,0.382983,0.255120624,-0.21352325,0.339119,0.252657481,-0.203887833,0.351064,0.268406937,-0.210021233,0.37068,0.299320994,-0.265550293,0.392083,0.244142045,-0.223103214,0.351999,0.238069351,-0.210941644,0.361341,0.243357894,-0.204610324,0.381259,0.288476568,-0.283756004,0.409102,0.248582599,-0.243404608,0.374085,0.245588624,-0.235358466,0.380571,0.248892036,-0.233724049,0.395411
0.305735886,-0.221451376,0.437878,0.297174942,-0.217377102,0.398965,0.316810659,-0.204756002,0.425119,0.292633982,-0.1646251,0.391938,0.269524019,-0.134134039,0.363554,0.251576262,-0.118408641,0.342253,0.300613056,-0.201627271,0.355926,0.242936428,-0.156904705,0.312526,0.23493439,-0.148183036,0.31688,0.22727267,-0.137800995,0.320837,0.287247621,-0.221111815,0.361906,0.240357709,-0.19006958,0.314844,0.229942681,-0.178657813,0.320402,0.241322344,-0.184391799,0.33917,0.277754364,-0.237668938,0.371024,0.226258335,-0.210029689,0.328388,0.220603358,-0.1942647,0.332729,0.225253203,-0.188356431,0.351679,0.268646267,-0.257806639,0.388922,0.231414847,-0.211139935,0.35205,0.227295594,-0.201712826,0.354609,0.232308746,-0.197416181,0.368579
0.286465907,-0.200833143,0.406208,0.28263563,-0.205347047,0.369605,0.300089654,-0.184338642,0.392161,0.274296307,-0.151249001,0.357359,0.250718099,-0.122953302,0.32739,0.233058717,-0.109261596,0.3057,0.286774708,-0.192939387,0.326456,0.229154508,-0.149841518,0.283378,0.222968179,-0.143175879,0.289349,0.21636525,-0.133679108,0.294777,0.275359408,-0.213349161,0.334745,0.230515239,-0.187000966,0.289294,0.221244376,-0.176200847,0.296988,0.232270276,-0.180514153,0.315845,0.267122093,-0.230380278,0.345516,0.215228333,-0.203688849,0.30358,0.211259382,-0.188345473,0.30956,0.216905069,-0.182320909,0.328882,0.258850677,-0.250413512,0.364898,0.221760696,-0.205873278,0.328638,0.218629424,-0.19837588,0.332493,0.223936732,-0.195066196,0.34675
0.292694915,-0.238313687,0.377869,0.273578921,-0.207655241,0.337406,0.299643829,-0.216627689,0.374074,0.26828583,-0.184642878,0.345015,0.253449237,-0.155052872,0.325255,0.247110931,-0.134566489,0.305011,0.269615883,-0.159298835,0.304988,0.223110741,-0.118129235,0.268179,0.212096611,-0.104243624,0.264232,0.201717674,-0.0910449451,0.260644,0.256361385,-0.178040579,0.298869,0.205090972,-0.140659375,0.254824,0.182299376,-0.133084092,0.249559,0.184247032,-0.14016582,0.263839,0.247824033,-0.196685538,0.298191,0.193227731,-0.163708922,0.258537,0.173139128,-0.153615461,0.25439,0.167852679,-0.155665807,0.268745,0.241653932,-0.22461305,0.30501,0.194656521,-0.18128213,0.273848,0.182069934,-0.169734408,0.270051,0.179556226,-0.167556476,0.279546
0.249822931,-0.186322876,0.338891,0.245331609,-0.167893456,0.29777,0.257202595,-0.163851705,0.330212,0.23143061,-0.130116249,0.301077,0.209549942,-0.100674917,0.276103,0.19674847,-0.0840454751,0.256023,0.250532922,-0.127547775,0.258545,0.183252585,-0.0942895096,0.217228,0.170525029,-0.0883572432,0.219568,0.158088294,-0.0825548885,0.221695,0.242327255,-0.150547619,0.258607,0.168313418,-0.112438208,0.210835,0.158858614,-0.114154474,0.213645,0.164355614,-0.124008331,0.231808,0.236723181,-0.172027977,0.263089,0.164899022,-0.133831336,0.221599,0.153789062,-0.133994983,0.223878,0.152810651,-0.141675696,0.241542,0.231460183,-0.201877003,0.276022,0.176612902,-0.160459079,0.23996,0.165410579,-0.15381911,0.240912,0.162982713,-0.15519204,0.253973
0.261675808,-0.182785029,0.343131,0.25153079,-0.168714174,0.301792,0.275261317,-0.156689693,0.33136,0.231871503,-0.130103424,0.298257,0.209883796,-0.105599349,0.270207,0.196901962,-0.0922535319,0.249069,0.249832212,-0.135192267,0.258392,0.181200808,-0.0953126396,0.215375,0.166700597,-0.0876361169,0.215147,0.153321255,-0.0804587707,0.214939,0.240532316,-0.158825033,0.262421,0.169663289,-0.11562228,0.214682,0.161383301,-0.114368098,0.21434,0.173502847,-0.121793915,0.231502,0.234980815,-0.17982195,0.270195,0.170100403,-0.138468829,0.227594,0.157472644,-0.135996361,0.227334,0.158644762,-0.144238426,0.244432,0.231583125,-0.207207093,0.286988,0.180857702,-0.160891309,0.25039,0.170104663,-0.150834371,0.249375,0.175433186,-0.149675138,0.261863
0.263059283,-0.181286906,0.343165,0.251575338,-0.167902291,0.301789,0.268927684,-0.159845065,0.332139,0.232680324,-0.131597969,0.299729,0.208906696,-0.107429257,0.272256,0.19550472,-0.0942452742,0.251304,0.250605858,-0.131993876,0.259332,0.181961405,-0.0953384825,0.216566,0.168170475,-0.0877058362,0.217198,0.155311321,-0.0805261138,0.217772,0.240039069,-0.157184209,0.262382,0.168667147,-0.114604546,0.214444,0.162443264,-0.114052294,0.215169,0.174078793,-0.121873049,0.232737,0.233664155,-0.177855655,0.269353,0.169348814,-0.136799811,0.226858,0.157670531,-0.135030658,0.227452,0.15933838,-0.143534447,0.244848,0.229177679,-0.205039769,0.285222,0.178337541,-0.158873445,0.248594,0.167953457,-0.149261946,0.248237,0.172601511,-0.149137798,0.26099
0.260781243,-0.179114865,0.341896,0.249665357,-0.166542816,0.300729,0.266776677,-0.157841848,0.330679,0.220150616,-0.133093736,0.298498,0.20423601,-0.106927923,0.270971,0.19382553,-0.093594649,0.250502,0.249088148,-0.131390948,0.258169,0.180602352,-0.0944885065,0.215239,0.167320446,-0.0869902332,0.216408,0.154781833,-0.0798369469,0.217471,0.238881419,-0.156135511,0.261523,0.166197744,-0.113754611,0.213566,0.162113078,-0.113541199,0.214984,0.173340918,-0.121529611,0.232777,0.232630313,-0.177059751,0.268722,0.161222201,-0.134358471,0.226116,0.156887573,-0.134707868,0.227249,0.159821242,-0.14361786,0.244906,0.227951809,-0.204578338,0.284815,0.176979667,-0.15739178,0.248067,0.179766629,-0.150312039,0.248127,0.196680152,-0.161777594,0.261084
0.259649531,-0.17775106,0.341746,0.247310372,-0.165649648,0.300792,0.265472932,-0.156534114,0.330071,0.220143657,-0.132980266,0.298956,0.205952043,-0.107682565,0.273691,0.196345123,-0.0952780826,0.254775,0.246528817,-0.131374421,0.257778,0.179418823,-0.0939881678,0.214602,0.166391408,-0.0864637905,0.215949,0.154054192,-0.0792199406,0.217174,0.237170407,-0.155023167,0.261788,0.164814779,-0.112487591,0.213891,0.160671831,-0.11350459,0.215556,0.180144566,-0.124563591,0.230828,0.231091145,-0.176285354,0.269505,0.159602369,-0.133926726,0.226755,0.148077018,-0.131791435,0.228072,0.15847262,-0.143586449,0.24586,0.224852477,-0.204044275,0.286159,0.177070535,-0.157278409,0.24931,0.180220334,-0.149737036,0.249513,0.196957116,-0.161290104,0.261925
0.26578028,-0.182363538,0.351102,0.253160839,-0.169600792,0.309969,0.271842553,-0.160787261,0.339145,0.225538861,-0.139807978,0.30802,0.211170604,-0.113422978,0.282652,0.202514712,-0.0993906205,0.263393,0.249061866,-0.136546067,0.266467,0.18484181,-0.0977635485,0.223261,0.171689864,-0.0902797612,0.223644,0.158268491,-0.0816731136,0.223992,0.240061181,-0.159918619,0.270796,0.168933552,-0.117282968,0.223007,0.164396936,-0.118198097,0.223453,0.184238122,-0.128343536,0.236689,0.234169685,-0.181110467,0.278793,0.164290736,-0.138612676,0.236055,0.153936572,-0.137284747,0.236409,0.160224651,-0.147498691,0.253808,0.229697971,-0.209505854,0.295808,0.183092807,-0.162621414,0.25906,0.18587208,-0.154430605,0.25852,0.202220663,-0.165811976,0.269394
0.275859779,-0.189942951,0.367989,0.262713558,-0.182236505,0.32711,0.285742369,-0.168745157,0.355483,0.237645162,-0.15115926,0.323692,0.224274502,-0.124364169,0.300036,0.21161986,-0.110581437,0.279404,0.261228026,-0.146777717,0.283065,0.194813504,-0.107545898,0.239622,0.181476837,-0.0990532463,0.240051,0.169064116,-0.0910605528,0.240441,0.252858979,-0.170602079,0.288178,0.181762115,-0.127165872,0.240522,0.178624256,-0.127977289,0.241052,0.196940607,-0.140195453,0.254139,0.247015873,-0.194130015,0.296793,0.17711125,-0.148810574,0.25394,0.166806952,-0.14818281,0.254347,0.174284922,-0.160068048,0.271814,0.242911243,-0.221719838,0.314478,0.195800714,-0.173082201,0.277672,0.199556329,-0.16637384,0.277175,0.216132799,-0.178765504,0.289042
0.29239572,-0.210832365,0.39188,0.274735079,-0.198426276,0.350194,0.296258455,-0.185761469,0.380647,0.252538536,-0.169628519,0.351205,0.234822888,-0.141361843,0.327269,0.219252129,-0.12659956,0.306771,0.270361111,-0.160862408,0.307259,0.203470577,-0.121980798,0.264874,0.187910757,-0.112685814,0.263228,0.17443233,-0.104315354,0.261731,0.258842721,-0.18445671,0.310494,0.188340992,-0.1406321,0.263039,0.183676865,-0.139359261,0.260868,0.201062216,-0.153741653,0.273999,0.252501281,-0.205712064,0.31765,0.182849054,-0.161912369,0.275545,0.174133251,-0.160810615,0.273862,0.183252568,-0.172795363,0.29019,0.248319336,-0.234364315,0.333792,0.201792218,-0.185778203,0.297687,0.206325348,-0.178700084,0.295575,0.222801881,-0.190691994,0.306224
0.307646763,-0.229824813,0.413738,0.287169973,-0.2128293,0.371886,0.314490695,-0.208497872,0.404733,0.267868835,-0.187635514,0.379274,0.24822957,-0.156154696,0.35601,0.231427667,-0.138908463,0.336312,0.281501544,-0.171303971,0.331739,0.218026709,-0.134338095,0.291777,0.200561971,-0.124501197,0.287789,0.185800084,-0.116139448,0.284163,0.269701827,-0.19312266,0.332027,0.200499861,-0.151259262,0.285792,0.194631062,-0.150747676,0.280553,0.211776467,-0.163177183,0.293394,0.26226017,-0.213624922,0.336774,0.194197235,-0.172005249,0.29662,0.18738361,-0.173244917,0.292572,0.200131193,-0.187819552,0.307169,0.257148348,-0.242241423,0.350152,0.210565175,-0.196220095,0.315748,0.213703369,-0.188685011,0.311826,0.230196415,-0.200278438,0.322097
0.324836566,-0.301552532,0.417548,0.313735327,-0.24884653,0.392393,0.31502646,-0.284045078,0.42076,0.288514492,-0.269528918,0.41297,0.259517775,-0.238899225,0.399688,0.247901605,-0.216109693,0.392883,0.294372226,-0.192575681,0.379497,0.257502677,-0.157796752,0.35505,0.257185742,-0.151153744,0.368579,0.255693346,-0.143609946,0.380878,0.303450239,-0.197478113,0.368436,0.249244999,-0.188849427,0.33285,0.261622429,-0.216936009,0.349517,0.284312858,-0.231643988,0.367861,0.312599909,-0.206323668,0.362038,0.261008387,-0.209738414,0.337457,0.269322814,-0.23114275,0.350949,0.292895417,-0.239291633,0.36639,0.326477235,-0.225842545,0.359341,0.276687504,-0.217013435,0.336398,0.280576871,-0.225918912,0.346308,0.297205041,-0.233497916,0.35856
0.332187942,-0.316905503,0.434304,0.316334163,-0.266423613,0.409675,0.321462663,-0.299189167,0.437106,0.296011339,-0.288470105,0.431446,0.269086154,-0.258114246,0.417407,0.258021777,-0.23281654,0.40869,0.29621158,-0.210845681,0.396602,0.266828524,-0.170544667,0.373558,0.260529438,-0.158673674,0.376345,0.254223965,-0.147241685,0.378879,0.306536342,-0.214659936,0.386219,0.256283352,-0.201047597,0.3511,0.267120264,-0.230991176,0.368595,0.288446419,-0.246559616,0.386789,0.316625018,-0.222597821,0.380323,0.269143889,-0.221933212,0.355747,0.275244926,-0.245519415,0.369866,0.294768045,-0.253446677,0.382703,0.331504802,-0.241034724,0.37811,0.285573822,-0.232082214,0.355162,0.287796784,-0.242497378,0.365561,0.303177013,-0.250287772,0.37767
0.337901925,-0.335455324,0.45213,0.325700682,-0.284531134,0.427732,0.329139981,-0.318811231,0.456529,0.306071322,-0.305849094,0.45236,0.280523941,-0.275992632,0.441208,0.270473195,-0.250785215,0.433182,0.310160271,-0.229295187,0.416896,0.280069998,-0.190120379,0.395719,0.271498945,-0.178258912,0.39725,0.263149905,-0.167024562,0.398642,0.316414025,-0.232952902,0.404495,0.265266393,-0.219727015,0.373833,0.27484536,-0.249200554,0.390179,0.296038996,-0.264402469,0.406401,0.323075435,-0.240789744,0.396913,0.271946382,-0.238480232,0.373815,0.278252396,-0.26125311,0.386896,0.299311056,-0.26960769,0.398787,0.333744713,-0.259168057,0.392699,0.28649076,-0.248431334,0.370995,0.289678943,-0.258095738,0.380607,0.305901456,-0.266113287,0.391973
