sluyters/QuantumLeap/backend/src/datasets/gesture/HandGestureDataset_SHREC2017_csv/Gesture4/finger_1/subject_6_essai_4_skeletons_world.csv
Wrist_x,Wrist_y,Wrist_z,Palm_x,Palm_y,Palm_z,thumb_base_x,thumb_base_y,thumb_base_z,thumb_first_joint_x,thumb_first_joint_y,thumb_first_joint_z,thumb_second_joint_x,thumb_second_joint_y,thumb_second_joint_z,thumb_tip_x,thumb_tip_y,thumb_tip_z,index_base_x,index_base_y,index_base_z,index_first_joint_x,index_first_joint_y,index_first_joint_z,index_second_joint_x,index_second_joint_y,index_second_joint_z,index_tip_x,index_tip_y,index_tip_z,middle_base_x,middle_base_y,middle_base_z,middle_first_joint_x,middle_first_joint_y,middle_first_joint_z,middle_second_joint_x,middle_second_joint_y,middle_second_joint_z,middle_tip_x,middle_tip_y,middle_tip_z,ring_base_x,ring_base_y,ring_base_z,ring_first_joint_x,ring_first_joint_y,ring_first_joint_z,ring_second_joint_x,ring_second_joint_y,ring_second_joint_z,ring_tip_x,ring_tip_y,ring_tip_z,pinky_base_x,pinky_base_y,pinky_base_z,pinky_first_joint_x,pinky_first_joint_y,pinky_first_joint_z,pinky_second_joint_x,pinky_second_joint_y,pinky_second_joint_z,pinky_tip_x,pinky_tip_y,pinky_tip_z,r
0.6319458,-0.41247347,0.636445,0.63449247,-0.37312553,0.641143,0.61000779,-0.3949432,0.63344,0.57991268,-0.36947137,0.632295,0.56293385,-0.34486758,0.635448,0.55341212,-0.32553452,0.631079,0.61016742,-0.32024022,0.640418,0.60427638,-0.28908636,0.645134,0.60866703,-0.27189829,0.647492,0.61407662,-0.25771569,0.649635,0.63746661,-0.3270765,0.645617,0.63770984,-0.28757944,0.643124,0.64351055,-0.26421832,0.64167,0.66449426,-0.25436499,0.658083,0.65894394,-0.33562939,0.649391,0.66152942,-0.30124473,0.646053,0.66396824,-0.2843184,0.644346,0.66656655,-0.26598159,0.642793,0.68316603,-0.35212489,0.652889,0.69484186,-0.32001792,0.650809,0.69956986,-0.30685774,0.649853,0.70537952,-0.29151156,0.64901
0.63124514,-0.41302605,0.636935,0.63450562,-0.37362359,0.641534,0.60973717,-0.39522295,0.634044,0.57991562,-0.36900184,0.632973,0.56400695,-0.34523172,0.6363,0.55441342,-0.32555016,0.631972,0.61067407,-0.32041801,0.640893,0.60444561,-0.28917863,0.645432,0.60921771,-0.27254045,0.647702,0.61419086,-0.25794154,0.649765,0.63773511,-0.3273108,0.645915,0.63812436,-0.28764757,0.643336,0.64383925,-0.26430978,0.641832,0.66498738,-0.25448948,0.658253,0.65904579,-0.33589254,0.649554,0.66181922,-0.30151587,0.646212,0.66431495,-0.28450264,0.644502,0.66689573,-0.26639149,0.642948,0.68310226,-0.3522957,0.652915,0.6949936,-0.32030722,0.650969,0.7000093,-0.30697112,0.650075,0.70573276,-0.29193754,0.649286
0.62991823,-0.41280227,0.636523,0.63369587,-0.37335943,0.641026,0.610952,-0.39641686,0.636171,0.58004513,-0.3682453,0.634439,0.56333385,-0.34446626,0.634924,0.55208696,-0.32516578,0.628385,0.6135549,-0.32159957,0.643624,0.60549633,-0.28878587,0.646139,0.60921376,-0.27210923,0.647397,0.61298076,-0.25763449,0.64854,0.63723996,-0.32613693,0.645314,0.63780003,-0.28634093,0.642376,0.64278438,-0.26341557,0.640662,0.66422554,-0.25384757,0.657308,0.65676034,-0.33107752,0.64622,0.65980825,-0.29600691,0.643382,0.66220005,-0.27763352,0.641929,0.66511011,-0.26206051,0.640609,0.6791733,-0.34287306,0.646426,0.69068232,-0.31243823,0.644447,0.69580941,-0.29797537,0.643538,0.70004737,-0.28500129,0.642736
0.62865463,-0.41293819,0.636621,0.63366374,-0.37384851,0.641685,0.60915427,-0.39593524,0.635633,0.58153219,-0.36965972,0.635388,0.56077923,-0.34379902,0.631409,0.54865332,-0.32493286,0.622267,0.61371377,-0.32162896,0.643836,0.60425697,-0.28877134,0.645042,0.60700661,-0.27672398,0.645644,0.61132233,-0.26787865,0.646192,0.63843636,-0.32731821,0.646508,0.6402781,-0.28765079,0.644403,0.64573308,-0.26445047,0.643175,0.66729194,-0.25482359,0.659959,0.65814373,-0.3344864,0.648163,0.66239128,-0.29953784,0.646019,0.66521794,-0.28185799,0.644922,0.66821276,-0.26578529,0.643924,0.68291339,-0.3466282,0.649131,0.6933948,-0.31646867,0.648563,0.69896876,-0.30222357,0.648301,0.7043718,-0.29065527,0.648071
0.62774483,-0.41344475,0.637073,0.63317317,-0.37420378,0.641863,0.60909963,-0.39673671,0.636924,0.58166559,-0.36952696,0.636211,0.55981462,-0.34281264,0.63092,0.54798424,-0.32334452,0.620872,0.6147141,-0.32225097,0.644922,0.60411092,-0.28870474,0.644797,0.60666144,-0.2767787,0.644734,0.61013316,-0.26703073,0.644677,0.63849915,-0.32755846,0.646426,0.64004011,-0.28736205,0.643783,0.64515786,-0.26405844,0.642241,0.66660841,-0.25438898,0.658962,0.65725203,-0.33501011,0.647148,0.66141582,-0.29926363,0.644604,0.66407601,-0.28168433,0.643303,0.66648758,-0.26608232,0.64212,0.6813271,-0.34625114,0.647085,0.69063104,-0.31570805,0.645744,0.69611658,-0.301241,0.645128,0.70100098,-0.28947847,0.644584
0.62621141,-0.41331525,0.63668,0.63222513,-0.37410322,0.641449,0.60834142,-0.39690438,0.637271,0.58197105,-0.36978938,0.636574,0.55735943,-0.34207706,0.626247,0.54532861,-0.31918237,0.616005,0.61523519,-0.32249627,0.645458,0.60393058,-0.28880365,0.644727,0.60659077,-0.27685469,0.644362,0.60963505,-0.26667479,0.64403,0.63824397,-0.3274706,0.645992,0.6401245,-0.28703944,0.643152,0.6447572,-0.26380395,0.641496,0.66621635,-0.25417241,0.658193,0.6563261,-0.33466938,0.645917,0.66054866,-0.29894823,0.643319,0.66320061,-0.28139288,0.641989,0.66543783,-0.26572175,0.640781,0.68003604,-0.34622013,0.644934,0.68808057,-0.31463299,0.643222,0.69424756,-0.29832952,0.642436,0.69909195,-0.28583121,0.641742
0.62507916,-0.41355458,0.636692,0.63126378,-0.37408561,0.641006,0.60589947,-0.39604045,0.635805,0.5827314,-0.37071688,0.636985,0.55386132,-0.34028864,0.621458,0.54324043,-0.31556931,0.605704,0.61276382,-0.32119406,0.64278,0.62869022,-0.2959346,0.656937,0.63657166,-0.28166351,0.664016,0.64408399,-0.26823529,0.670451,0.63764746,-0.3277493,0.645115,0.64021038,-0.28701784,0.642085,0.64499602,-0.26414975,0.640317,0.66606612,-0.25407771,0.656909,0.65730609,-0.33542068,0.646573,0.6610194,-0.30011397,0.643484,0.6639398,-0.28212627,0.641904,0.66582565,-0.26746542,0.640468,0.68350141,-0.34901912,0.647454,0.68965706,-0.31799653,0.645837,0.69477736,-0.30608445,0.645094,0.70072973,-0.29237097,0.644439
0.62160126,-0.41091958,0.633399,0.63076765,-0.37239686,0.640283,0.60303893,-0.39386326,0.633153,0.59316102,-0.36223464,0.632195,0.56633694,-0.33100557,0.618803,0.56087355,-0.30909065,0.604752,0.61446032,-0.32099668,0.644637,0.62496124,-0.28978078,0.658226,0.63059954,-0.27478453,0.66502,0.63929613,-0.26133343,0.671197,0.64013624,-0.32262361,0.646838,0.64556736,-0.28439473,0.647947,0.65250261,-0.26273958,0.648594,0.67561019,-0.25751042,0.666092,0.66080393,-0.32866749,0.64791,0.66620083,-0.29445431,0.647592,0.66901675,-0.27662922,0.64743,0.6732625,-0.26436111,0.647282,0.68430154,-0.34083868,0.647859,0.69802754,-0.31016621,0.648452,0.70449037,-0.29570233,0.648724,0.71030373,-0.28275047,0.648988
0.62128998,-0.40955791,0.63199,0.63300497,-0.36939934,0.63971,0.60282353,-0.39294099,0.632099,0.59157975,-0.36001198,0.628094,0.56673254,-0.32933685,0.615749,0.56290182,-0.30827075,0.602684,0.61538324,-0.320455,0.645093,0.62562302,-0.28961979,0.658255,0.63099836,-0.27447219,0.664835,0.63947346,-0.26094017,0.670818,0.64138108,-0.32234492,0.647063,0.64905535,-0.2850007,0.650418,0.65809961,-0.26211558,0.652376,0.68051839,-0.25904632,0.670318,0.66179351,-0.32824611,0.647852,0.66745167,-0.29426554,0.648433,0.67070755,-0.27669483,0.648731,0.675222,-0.26694611,0.649001,0.68481013,-0.34017051,0.647318,0.69920732,-0.30959313,0.648717,0.70721718,-0.29412794,0.649831,0.71300169,-0.28263091,0.650813
0.62417053,-0.40968934,0.633051,0.63314822,-0.36661867,0.636719,0.60351681,-0.39207418,0.631241,0.59411912,-0.35855027,0.620405,0.55978205,-0.32214879,0.596864,0.54800798,-0.29755341,0.578632,0.60904574,-0.31594491,0.636852,0.6142247,-0.2812016,0.640507,0.61586096,-0.26344998,0.642335,0.62165971,-0.25086752,0.643996,0.637668,-0.31864124,0.640213,0.63794434,-0.27944975,0.637896,0.64345452,-0.25580491,0.636544,0.66491747,-0.25188202,0.653223,0.65951638,-0.32520192,0.642585,0.658439,-0.28959374,0.638436,0.65890877,-0.27117622,0.636313,0.66065005,-0.2604375,0.634383,0.68515081,-0.33830782,0.64465,0.69476388,-0.30529176,0.642089,0.69925162,-0.28993881,0.640912,0.7032503,-0.27629423,0.639874
0.62320359,-0.40801654,0.630625,0.63129754,-0.36538887,0.633751,0.60196639,-0.39035539,0.628413,0.58751015,-0.35636216,0.616869,0.55612944,-0.32212915,0.594249,0.54627904,-0.29798995,0.576406,0.61096991,-0.31340578,0.632993,0.60389644,-0.27734893,0.630662,0.60424965,-0.26149692,0.629496,0.60825531,-0.2549029,0.628436,0.63832905,-0.31805672,0.636729,0.63829483,-0.2776479,0.633686,0.63857415,-0.25722215,0.631911,0.66109819,-0.24941434,0.648386,0.66066652,-0.32458771,0.639469,0.65620085,-0.28804203,0.634692,0.65534264,-0.26935561,0.632248,0.65660173,-0.25619134,0.630027,0.68513252,-0.33739242,0.642061,0.68950497,-0.30431192,0.638479,0.69257091,-0.28988306,0.636833,0.69503718,-0.27949533,0.63538
0.62420872,-0.40703771,0.629955,0.63317214,-0.36460849,0.633425,0.60377583,-0.39033763,0.628917,0.58970627,-0.35771178,0.618985,0.56278697,-0.32681075,0.602369,0.55590957,-0.30428459,0.587002,0.61211145,-0.31301337,0.634429,0.60275731,-0.27187096,0.630213,0.60543643,-0.26586022,0.628104,0.60809439,-0.26015623,0.626188,0.63829361,-0.31666294,0.63673,0.64129824,-0.27738135,0.636757,0.64626461,-0.25446731,0.636772,0.66623092,-0.24884843,0.654036,0.65958243,-0.32235209,0.638251,0.66289912,-0.28290091,0.634508,0.66487482,-0.26454572,0.6328,0.66668466,-0.24788425,0.631264,0.68448477,-0.33319283,0.639364,0.69375571,-0.3004097,0.637409,0.69904985,-0.28340833,0.637364,0.70356533,-0.27268787,0.637323
0.63481039,-0.40613798,0.632898,0.63623151,-0.36174583,0.631785,0.60919419,-0.38732115,0.627444,0.58169266,-0.35244547,0.610381,0.55207263,-0.32090289,0.591494,0.54457155,-0.29871826,0.575445,0.60126238,-0.30622242,0.623925,0.59586736,-0.26690859,0.613953,0.59506004,-0.25525248,0.608967,0.59067931,-0.24775523,0.604434,0.63356168,-0.30972958,0.630725,0.63117293,-0.2683575,0.625912,0.63280397,-0.24685344,0.623105,0.65398074,-0.24083287,0.638681,0.65946188,-0.31684346,0.636445,0.65706343,-0.2792178,0.629158,0.65673258,-0.26022509,0.62543,0.65736071,-0.24430602,0.622041,0.69134389,-0.3312044,0.643294,0.69749377,-0.29714737,0.639578,0.70057572,-0.28183721,0.638164,0.70326422,-0.268425,0.636916
0.6356624,-0.40506258,0.632672,0.63595413,-0.35801479,0.630216,0.60959673,-0.38617662,0.626944,0.58284918,-0.35112374,0.609071,0.55140118,-0.31653408,0.582657,0.5403696,-0.2975284,0.568915,0.60025967,-0.30216808,0.621089,0.59469753,-0.27204034,0.609332,0.5907884,-0.2552354,0.603453,0.58886031,-0.24290421,0.598109,0.63089869,-0.3071314,0.627878,0.6235309,-0.26393839,0.618224,0.6227964,-0.24162458,0.612592,0.64307915,-0.23719117,0.626872,0.65778024,-0.31290683,0.633734,0.65242091,-0.27587369,0.624774,0.65100316,-0.25663662,0.62019,0.64869706,-0.24225879,0.616023,0.69034762,-0.32713418,0.640992,0.69291694,-0.29112659,0.633576,0.69679482,-0.27480414,0.630168,0.69949615,-0.26270414,0.627162
0.62993167,-0.40038813,0.626135,0.63445217,-0.35820758,0.629011,0.60710424,-0.38369945,0.623665,0.59099856,-0.35009145,0.611705,0.57227184,-0.3188434,0.595982,0.56679515,-0.29730894,0.581333,0.60696895,-0.30511255,0.627745,0.60755539,-0.27912085,0.62157,0.60800721,-0.2662131,0.618649,0.60863406,-0.25406419,0.616082,0.63512226,-0.30875767,0.631749,0.63317332,-0.26762539,0.627424,0.63591922,-0.2471318,0.624901,0.65813452,-0.24370633,0.641044,0.65837649,-0.31446063,0.634736,0.6589385,-0.2781371,0.630691,0.66016969,-0.25975751,0.628621,0.6604255,-0.24608975,0.626739,0.68625684,-0.32668453,0.637663,0.69546975,-0.29088793,0.634332,0.70042497,-0.27677121,0.632801,0.70504961,-0.26526184,0.63145
0.63233259,-0.40381222,0.629785,0.62847963,-0.35609556,0.622955,0.6066448,-0.38302675,0.6226,0.58611662,-0.34313236,0.601495,0.56341431,-0.30720238,0.581697,0.5563939,-0.28343402,0.564722,0.59796,-0.29732206,0.608961,0.58675123,-0.26374605,0.590757,0.58228498,-0.24839859,0.581655,0.57831377,-0.23422824,0.573381,0.62829921,-0.30560161,0.616451,0.62367233,-0.26471492,0.611001,0.62961335,-0.25222155,0.607821,0.6526711,-0.24996454,0.623191,0.65426573,-0.31562119,0.623356,0.65334938,-0.30783265,0.606429,0.67626156,-0.33643576,0.626484,0.68537693,-0.35096816,0.64133,0.68685588,-0.3339057,0.632654,0.69065377,-0.29816897,0.625923,0.69367616,-0.2825202,0.622831,0.69166167,-0.26870593,0.620835
0.63026493,-0.3994664,0.624771,0.63322807,-0.35431125,0.624022,0.60678632,-0.38213618,0.621588,0.59566084,-0.34492643,0.607413,0.5788219,-0.31490374,0.598772,0.5773386,-0.29361296,0.587435,0.60801128,-0.30119677,0.619367,0.60508684,-0.27211999,0.609449,0.60467787,-0.25921177,0.60449,0.60165893,-0.24870971,0.600554,0.63568895,-0.30657323,0.623309,0.6350518,-0.26685311,0.620936,0.64168401,-0.2562836,0.619552,0.66514118,-0.25537265,0.636144,0.65521666,-0.31052315,0.626635,0.64721542,-0.27129678,0.61729,0.66732849,-0.26262301,0.63268,0.69029075,-0.25512937,0.651775,0.68909889,-0.32362878,0.630638,0.68880225,-0.28733786,0.624127,0.6919216,-0.2725214,0.621136,0.69360103,-0.2598387,0.618869
0.62954217,-0.39745119,0.621787,0.63332639,-0.3540333,0.623085,0.6060833,-0.38027828,0.618734,0.59750113,-0.34247751,0.605464,0.58593579,-0.31074387,0.595834,0.58611741,-0.28943253,0.584258,0.60884148,-0.30164877,0.61999,0.60725234,-0.27318346,0.611531,0.60754587,-0.26082657,0.607302,0.60610027,-0.25063487,0.604053,0.63713078,-0.30689066,0.624322,0.63529812,-0.26758973,0.621065,0.64104888,-0.25688102,0.619166,0.66395079,-0.25616522,0.635503,0.66056149,-0.31396828,0.627748,0.65871872,-0.27999925,0.624861,0.66253701,-0.26656715,0.623384,0.68512921,-0.2611507,0.639728,0.69037825,-0.32524768,0.631482,0.69438408,-0.28957415,0.625883,0.69706978,-0.27398581,0.623311,0.69682817,-0.26090425,0.621042
0.63050281,-0.39679405,0.620682,0.63322152,-0.3539503,0.622205,0.60656841,-0.37943196,0.6173,0.5967432,-0.34172232,0.603708,0.58572053,-0.31049296,0.595462,0.58677887,-0.28947078,0.584776,0.60793403,-0.30152786,0.618833,0.60604944,-0.27311391,0.610248,0.60613199,-0.26202563,0.605955,0.60672252,-0.25288126,0.602053,0.63680062,-0.30684202,0.623655,0.63596253,-0.26840426,0.621441,0.64210448,-0.25803196,0.62015,0.66500648,-0.25757246,0.636662,0.66073885,-0.31397588,0.627461,0.65869914,-0.28043836,0.624396,0.66234891,-0.26702698,0.622828,0.68476458,-0.26164168,0.639061,0.6908736,-0.32622185,0.631593,0.69554688,-0.29102769,0.626827,0.69781416,-0.27603779,0.624637,0.70143048,-0.26441475,0.622705
0.63307854,-0.39741649,0.621883,0.63563932,-0.35513871,0.622456,0.60822594,-0.37955153,0.617784,0.60397648,-0.34095014,0.602966,0.59984777,-0.3120979,0.60278,0.60598478,-0.29227405,0.596818,0.60664059,-0.30112155,0.617507,0.6035034,-0.27521645,0.607368,0.60381433,-0.27135922,0.602298,0.60504212,-0.27013256,0.598053,0.63624318,-0.3066027,0.623003,0.63613166,-0.27008336,0.622005,0.64309612,-0.25883928,0.621423,0.66605345,-0.25837203,0.638111,0.66095733,-0.31393671,0.627466,0.65657668,-0.27962759,0.623941,0.66148353,-0.26664807,0.622137,0.68360624,-0.26122611,0.638157,0.69205788,-0.3269432,0.63254,0.6962049,-0.29184103,0.627594,0.69821152,-0.27670593,0.625322,0.7013472,-0.26524916,0.623317
0.63337499,-0.3964279,0.620622,0.63507672,-0.35498606,0.62146,0.60874346,-0.37880242,0.616886,0.60369053,-0.34149997,0.602607,0.59881629,-0.31226644,0.601622,0.60135947,-0.29255066,0.595125,0.60648973,-0.30131289,0.617163,0.60388113,-0.27639111,0.60749,0.60504966,-0.27886682,0.602653,0.60664964,-0.28661462,0.599101,0.63575426,-0.30651528,0.622259,0.63640022,-0.27047286,0.621992,0.64356166,-0.2594205,0.621836,0.66662488,-0.25902247,0.638738,0.66070239,-0.31288811,0.626364,0.65740805,-0.27988699,0.622858,0.66069045,-0.26650127,0.621064,0.68283008,-0.26117652,0.637147,0.69069384,-0.32661055,0.630972,0.69418761,-0.2926942,0.626092,0.69743176,-0.27581995,0.623849,0.6998049,-0.26371177,0.621871
0.63265228,-0.39551862,0.618564,0.63474755,-0.35505479,0.619786,0.60784483,-0.37776124,0.614688,0.60148187,-0.34153499,0.60038,0.59555501,-0.31217364,0.598387,0.5966788,-0.29176032,0.591389,0.60529542,-0.30144272,0.615567,0.60289027,-0.27803188,0.606114,0.60344311,-0.27502521,0.601388,0.60443415,-0.27762409,0.597092,0.63485599,-0.30680074,0.62095,0.63586067,-0.27002404,0.620888,0.64292562,-0.25882345,0.620852,0.6659101,-0.25810944,0.637752,0.66012087,-0.31348442,0.625252,0.65703729,-0.28001216,0.622221,0.66051493,-0.26678553,0.620671,0.68268781,-0.26155191,0.636834,0.69029962,-0.32733436,0.630015,0.69310726,-0.29352919,0.625374,0.69589438,-0.27851268,0.623242,0.69973957,-0.2681693,0.621361
0.63156086,-0.3950414,0.616646,0.63336922,-0.35448226,0.618111,0.60668083,-0.3771398,0.612686,0.5997355,-0.34113193,0.598368,0.59298386,-0.31253726,0.595376,0.59344265,-0.29036844,0.587851,0.60416737,-0.30113476,0.613947,0.60182328,-0.27771122,0.60464,0.60243216,-0.27458766,0.599986,0.60350882,-0.27700039,0.595755,0.63412147,-0.30619181,0.619506,0.63301783,-0.26778206,0.616572,0.63786221,-0.2554372,0.61486,0.65936228,-0.25498119,0.6311,0.6591043,-0.31314622,0.623926,0.6563201,-0.27977938,0.621141,0.6599071,-0.26654593,0.619716,0.68210774,-0.26127188,0.635915,0.68937288,-0.32705155,0.628781,0.69190031,-0.29321835,0.624238,0.69497653,-0.27868412,0.62215,0.69866543,-0.26813041,0.620309
0.63293393,-0.39640755,0.61709,0.63284772,-0.35441906,0.617401,0.60656116,-0.37746837,0.611672,0.59650746,-0.33984413,0.595182,0.59134149,-0.31224451,0.593869,0.59312982,-0.29051995,0.587547,0.60093977,-0.29975009,0.610555,0.59798691,-0.2830789,0.599321,0.59855479,-0.2830846,0.593704,0.61681363,-0.29375932,0.607233,0.63242011,-0.30556891,0.617698,0.63493159,-0.26954678,0.619288,0.64275773,-0.25805205,0.620216,0.66638758,-0.25493641,0.637144,0.65888563,-0.31322515,0.623546,0.65632745,-0.27993011,0.621056,0.6600101,-0.26665402,0.619783,0.68193955,-0.2612343,0.63578,0.69123313,-0.32810876,0.630275,0.69216058,-0.29351471,0.624575,0.69445294,-0.27917951,0.621956,0.69677596,-0.26679787,0.619645
0.63258411,-0.39655234,0.615885,0.63228304,-0.35430282,0.616703,0.60632115,-0.37761193,0.610572,0.59567561,-0.33971546,0.594397,0.59051294,-0.31211237,0.593164,0.59277622,-0.29055576,0.586953,0.6006112,-0.29967653,0.610337,0.59810227,-0.28314326,0.599593,0.59901515,-0.28386499,0.59422,0.61941181,-0.29886455,0.607891,0.63227306,-0.30570133,0.617482,0.63509654,-0.2698424,0.619375,0.64303141,-0.25795387,0.62048,0.66653542,-0.25440875,0.637465,0.65869743,-0.31332616,0.623277,0.6560487,-0.28000688,0.620776,0.65966536,-0.26663799,0.619497,0.68153405,-0.26116342,0.635487,0.69089224,-0.32812557,0.62985,0.69261495,-0.29391856,0.625113,0.69554739,-0.27812365,0.622937,0.69903987,-0.26567535,0.621016
0.63268576,-0.39648673,0.614951,0.63214277,-0.35471107,0.615698,0.60603972,-0.37759899,0.609473,0.59436202,-0.34095543,0.593077,0.58755178,-0.31215433,0.590338,0.58860358,-0.29039316,0.583263,0.59969583,-0.29999936,0.60907,0.59777064,-0.28833665,0.598159,0.5980124,-0.28623892,0.592703,0.61815188,-0.29947421,0.606284,0.63140516,-0.30588644,0.61641,0.6347611,-0.27028078,0.618462,0.64222935,-0.25794363,0.61966,0.66491313,-0.25769631,0.636635,0.65802863,-0.31358245,0.622374,0.6557482,-0.28019589,0.620479,0.65964795,-0.26689514,0.61951,0.6815992,-0.26143019,0.635614,0.69022842,-0.32812043,0.629156,0.69180897,-0.29381531,0.624261,0.69413573,-0.27875246,0.622012,0.69784607,-0.26536477,0.620028
0.63154592,-0.3965138,0.613526,0.63152733,-0.35461145,0.614989,0.60503978,-0.37773241,0.608187,0.5934959,-0.34077845,0.592228,0.58626255,-0.31191287,0.58917,0.58761233,-0.29026401,0.581997,0.59963106,-0.30031714,0.609028,0.59794788,-0.28540237,0.598806,0.59899679,-0.28558779,0.593695,0.61845504,-0.29767279,0.607468,0.63134543,-0.30618879,0.616382,0.63453881,-0.27026025,0.618491,0.64233895,-0.25843969,0.619721,0.66505073,-0.25813485,0.636702,0.65789708,-0.31382991,0.62228,0.65486776,-0.2808864,0.618946,0.65842517,-0.26831649,0.61724,0.67941931,-0.26165445,0.632965,0.68990243,-0.32823432,0.628851,0.69285391,-0.29489018,0.625051,0.69647952,-0.27932135,0.623305,0.69980792,-0.26629643,0.621765
0.63058129,-0.39663785,0.612298,0.63061674,-0.3548547,0.613917,0.60410071,-0.37794498,0.607015,0.59233942,-0.34061127,0.591183,0.58443029,-0.31122945,0.586894,0.58650038,-0.29015857,0.579013,0.59893085,-0.30140062,0.608136,0.59697291,-0.28520122,0.598081,0.59766966,-0.28360804,0.593054,0.61708113,-0.29531563,0.60688,0.63064758,-0.30719092,0.615459,0.6334743,-0.2705972,0.61732,0.64094466,-0.25809159,0.618405,0.66351659,-0.2558456,0.635343,0.65712316,-0.31443386,0.621316,0.65550982,-0.282389,0.619458,0.66044061,-0.27319916,0.618508,0.68204343,-0.26495247,0.634623,0.68912128,-0.32875974,0.627809,0.69156865,-0.29573204,0.624183,0.69537088,-0.28080509,0.622517,0.6990014,-0.26710561,0.621047
0.63012195,-0.396904,0.611561,0.63037187,-0.35530001,0.613503,0.6038098,-0.37838924,0.606491,0.59212603,-0.34087826,0.591031,0.58426673,-0.31139384,0.586371,0.58631267,-0.29034421,0.578272,0.59891557,-0.3018043,0.608218,0.5973601,-0.28554951,0.598571,0.59816464,-0.28375816,0.593748,0.61777449,-0.29532817,0.607729,0.63039941,-0.30712949,0.615353,0.63299222,-0.27067401,0.61693,0.64033888,-0.25787103,0.617851,0.66286125,-0.25530317,0.634772,0.6567401,-0.31457352,0.62102,0.65503779,-0.28229449,0.61899,0.6593547,-0.27185718,0.617952,0.68163941,-0.26547717,0.634061,0.68864873,-0.32904175,0.627232,0.69167842,-0.29546813,0.623862,0.69514576,-0.27999254,0.622314,0.69902059,-0.2676629,0.620948
0.62997992,-0.39737939,0.611177,0.63032983,-0.35586896,0.613295,0.60365781,-0.37889743,0.60613,0.59183935,-0.34089654,0.590767,0.58482603,-0.31168575,0.586607,0.58699915,-0.29001178,0.578824,0.59877035,-0.30205746,0.60816,0.59741138,-0.28568109,0.598677,0.59826126,-0.28372544,0.593935,0.61794296,-0.29515184,0.607957,0.63028054,-0.3073672,0.615313,0.63238684,-0.27077565,0.616196,0.63928951,-0.25749035,0.616711,0.66164876,-0.25465068,0.633489,0.65661756,-0.31478238,0.620975,0.6550526,-0.28261198,0.618988,0.65946065,-0.27215036,0.617972,0.68179428,-0.26603358,0.634088,0.68849737,-0.3291965,0.627149,0.69183538,-0.2957372,0.623918,0.695406,-0.28027635,0.622434,0.6994729,-0.26837297,0.621124
0.62981058,-0.39769424,0.6108,0.63016151,-0.35624961,0.613036,0.60345135,-0.37924564,0.605752,0.59148885,-0.34084353,0.590432,0.58397803,-0.31134335,0.585756,0.58599401,-0.29024586,0.577697,0.59852156,-0.30217257,0.607978,0.5972945,-0.2856938,0.598592,0.59816874,-0.28361865,0.593899,0.61821303,-0.29552086,0.607939,0.63008606,-0.3077998,0.615165,0.63180174,-0.27083426,0.61566,0.63847879,-0.25713145,0.615949,0.66075576,-0.25402087,0.63264,0.65644556,-0.31519149,0.620842,0.65513351,-0.28287568,0.619049,0.65969774,-0.27239638,0.618131,0.68211712,-0.26652825,0.634288,0.68834381,-0.32956491,0.627012,0.69173564,-0.29629652,0.623925,0.69548428,-0.2809146,0.622507,0.69965619,-0.26909418,0.621255
0.62932513,-0.397792,0.610305,0.6297098,-0.356461,0.612708,0.60296208,-0.37940516,0.605286,0.59093208,-0.34098777,0.590066,0.58326891,-0.31134472,0.585113,0.58528905,-0.29025426,0.576915,0.59807532,-0.30252291,0.607802,0.5970481,-0.28571979,0.598576,0.59795334,-0.2835523,0.593963,0.61799208,-0.29525874,0.608045,0.6296381,-0.3081141,0.614997,0.63073269,-0.2708972,0.614983,0.63699099,-0.25795836,0.614975,0.65919933,-0.2555447,0.631556,0.65598341,-0.31546428,0.620662,0.65500153,-0.28339465,0.619064,0.65959202,-0.27261013,0.618246,0.68230053,-0.26748015,0.63445,0.68784646,-0.32976657,0.626787,0.69175385,-0.29666496,0.623944,0.69568525,-0.28128912,0.622638,0.7000361,-0.26930057,0.621486
0.63006332,-0.39870578,0.610993,0.63012701,-0.357237,0.613229,0.60352424,-0.38027518,0.605866,0.59111828,-0.34162862,0.590455,0.58343143,-0.31177462,0.585061,0.58520942,-0.29055072,0.57661,0.59806559,-0.3032025,0.60807,0.5977188,-0.29093162,0.598634,0.59899021,-0.29153329,0.593916,0.61928858,-0.30363681,0.60792,0.62972101,-0.30879843,0.615359,0.63077933,-0.27157362,0.615398,0.63697452,-0.2587774,0.615422,0.65916464,-0.25646652,0.631996,0.65617656,-0.31616124,0.621121,0.65591818,-0.28536642,0.620062,0.66110282,-0.27405962,0.619521,0.68371542,-0.26925911,0.635843,0.68822763,-0.33049222,0.627388,0.69261283,-0.29751459,0.624739,0.69719467,-0.28281955,0.623522,0.70120701,-0.26995638,0.622448
0.63018652,-0.39916653,0.611049,0.63019734,-0.35774949,0.613363,0.60359709,-0.38076229,0.605912,0.59107684,-0.34203968,0.590519,0.58341684,-0.31199208,0.584698,0.5850094,-0.29066913,0.576019,0.59803186,-0.30379151,0.608243,0.59777492,-0.29183305,0.598866,0.59897614,-0.29237195,0.594178,0.61921075,-0.30473122,0.60819,0.62971349,-0.30937231,0.615567,0.63035968,-0.27174457,0.615158,0.63644442,-0.25870827,0.61492,0.65853275,-0.25641637,0.631392,0.65618969,-0.31671546,0.621349,0.65594278,-0.28556156,0.620144,0.66103097,-0.27419846,0.619528,0.6836436,-0.26947033,0.635808,0.68826752,-0.33101016,0.627625,0.69318474,-0.29821173,0.625165,0.69777928,-0.28322008,0.624034,0.70214601,-0.27052266,0.623037
0.63032104,-0.39963464,0.611116,0.63021921,-0.3582179,0.613436,0.60365341,-0.38123423,0.605937,0.59096347,-0.34242179,0.590498,0.58337699,-0.3122157,0.584289,0.58458473,-0.29069272,0.575403,0.59787652,-0.30427728,0.608266,0.59768821,-0.29222784,0.598867,0.59882691,-0.29272202,0.594168,0.61879692,-0.30650415,0.608161,0.62960434,-0.30985348,0.615646,0.6299325,-0.27183863,0.614869,0.63591336,-0.25860941,0.614415,0.65791069,-0.25633068,0.630797,0.65612601,-0.3171906,0.621473,0.65598093,-0.28572568,0.620227,0.66103542,-0.27433149,0.61959,0.68366027,-0.26966852,0.635849,0.68827273,-0.33147393,0.6278,0.6936254,-0.29879367,0.625429,0.69813121,-0.2834937,0.62434,0.70295671,-0.27123564,0.623379
0.62679804,-0.39780951,0.607685,0.62598342,-0.35636464,0.609472,0.59942976,-0.3790907,0.601754,0.58552499,-0.33964171,0.585235,0.56714987,-0.30382106,0.568436,0.56232344,-0.2798989,0.554063,0.59216853,-0.30250652,0.602961,0.58569676,-0.29610323,0.592633,0.57899919,-0.31118737,0.587469,0.58904715,-0.33199477,0.601009,0.62466262,-0.30815562,0.611174,0.62024405,-0.26810478,0.605713,0.62316134,-0.25385725,0.602528,0.64362167,-0.25102625,0.617646,0.65183516,-0.3157668,0.617745,0.6487131,-0.28310816,0.61331,0.65181994,-0.27044427,0.61104,0.67345161,-0.2659003,0.626297,0.68493922,-0.33039309,0.625037,0.69042615,-0.29809237,0.622625,0.69490497,-0.28309651,0.621516,0.69972558,-0.27107097,0.620539
0.62695881,-0.39859156,0.607991,0.6262086,-0.3572264,0.609904,0.5996429,-0.37996111,0.602159,0.58594756,-0.34031669,0.585803,0.56734754,-0.30542238,0.5712,0.56480564,-0.2813708,0.557909,0.59263482,-0.30328476,0.603606,0.58689934,-0.2971598,0.593447,0.58026665,-0.31230914,0.588367,0.59027021,-0.33318184,0.601977,0.62493485,-0.30909311,0.611725,0.62063422,-0.26887695,0.606303,0.62343119,-0.25453364,0.60314,0.64379807,-0.25149069,0.618289,0.65204676,-0.31662083,0.618205,0.64925625,-0.28389582,0.613884,0.65233744,-0.2709296,0.611674,0.67393117,-0.26610874,0.626986,0.68506738,-0.33113274,0.625367,0.68961073,-0.30034572,0.622944,0.69427448,-0.28527949,0.621831,0.6994824,-0.27300764,0.620849
