sluyters/QuantumLeap/backend/src/datasets/gesture/HandGestureDataset_SHREC2017_csv/Gesture4/finger_1/subject_22_essai_3_skeletons_world.csv
Wrist_x,Wrist_y,Wrist_z,Palm_x,Palm_y,Palm_z,thumb_base_x,thumb_base_y,thumb_base_z,thumb_first_joint_x,thumb_first_joint_y,thumb_first_joint_z,thumb_second_joint_x,thumb_second_joint_y,thumb_second_joint_z,thumb_tip_x,thumb_tip_y,thumb_tip_z,index_base_x,index_base_y,index_base_z,index_first_joint_x,index_first_joint_y,index_first_joint_z,index_second_joint_x,index_second_joint_y,index_second_joint_z,index_tip_x,index_tip_y,index_tip_z,middle_base_x,middle_base_y,middle_base_z,middle_first_joint_x,middle_first_joint_y,middle_first_joint_z,middle_second_joint_x,middle_second_joint_y,middle_second_joint_z,middle_tip_x,middle_tip_y,middle_tip_z,ring_base_x,ring_base_y,ring_base_z,ring_first_joint_x,ring_first_joint_y,ring_first_joint_z,ring_second_joint_x,ring_second_joint_y,ring_second_joint_z,ring_tip_x,ring_tip_y,ring_tip_z,pinky_base_x,pinky_base_y,pinky_base_z,pinky_first_joint_x,pinky_first_joint_y,pinky_first_joint_z,pinky_second_joint_x,pinky_second_joint_y,pinky_second_joint_z,pinky_tip_x,pinky_tip_y,pinky_tip_z,r
0.377433318,-0.299445945,0.472833,0.373903311,-0.247488657,0.456136,0.356250046,-0.283042001,0.467264,0.31560586,-0.260818702,0.448241,0.271807554,-0.234134996,0.420094,0.248646775,-0.213168418,0.402803,0.345294883,-0.199807349,0.439363,0.342219882,-0.156857858,0.417908,0.355477861,-0.142246914,0.423933,0.370639079,-0.128655924,0.42941,0.370362781,-0.206688957,0.442214,0.360551055,-0.175721584,0.418474,0.376855773,-0.207423433,0.439881,0.386174149,-0.231495505,0.455188,0.39156947,-0.217065458,0.446198,0.37686772,-0.179628098,0.422359,0.36980313,-0.192031888,0.410162,0.377538574,-0.212998259,0.418684,0.417498525,-0.237673633,0.453702,0.392726688,-0.228044958,0.43152,0.36978684,-0.232618414,0.421329,0.366014605,-0.242685074,0.427108
0.376125604,-0.298891009,0.472319,0.371025164,-0.246623187,0.45538,0.355321908,-0.282816991,0.467259,0.309060386,-0.255686201,0.447933,0.269935192,-0.232949447,0.419739,0.247885921,-0.212267962,0.402214,0.342572625,-0.199278653,0.439128,0.34136171,-0.156429694,0.417596,0.354456413,-0.141767965,0.423446,0.366827115,-0.127583276,0.428764,0.367159311,-0.20565986,0.441256,0.354544039,-0.171199311,0.417382,0.37030992,-0.201803957,0.438803,0.382565935,-0.230047013,0.454163,0.387970052,-0.215628062,0.444668,0.374838343,-0.178834858,0.420879,0.366903348,-0.191653108,0.408708,0.373622515,-0.213089646,0.417261,0.413475839,-0.235759185,0.451549,0.387542402,-0.225964516,0.429405,0.360552642,-0.229266644,0.41923,0.361058159,-0.240870145,0.425031
0.375107939,-0.298566491,0.472169,0.370380583,-0.246325543,0.455268,0.354088774,-0.282349216,0.466853,0.308687112,-0.255377391,0.447392,0.269255706,-0.231852953,0.419143,0.247148958,-0.211389895,0.401571,0.341752012,-0.1988361,0.438706,0.340555099,-0.156087835,0.417149,0.353572385,-0.141453411,0.422923,0.365874613,-0.127289613,0.428172,0.366606884,-0.205393521,0.441175,0.354468438,-0.171162806,0.417293,0.370211182,-0.201750149,0.438686,0.381862545,-0.229486976,0.45404,0.387656879,-0.215513692,0.444864,0.374434142,-0.178773003,0.421023,0.366221488,-0.191506552,0.408825,0.373094751,-0.213036559,0.417344,0.413450021,-0.235841249,0.452061,0.388377222,-0.226105321,0.429841,0.365393446,-0.230860654,0.419632,0.362985722,-0.241049318,0.425397
0.373924918,-0.297935333,0.471811,0.369555167,-0.245691381,0.454782,0.353112033,-0.281912192,0.466785,0.30828831,-0.25446481,0.446814,0.2677594,-0.227941464,0.418664,0.246120708,-0.210093777,0.400454,0.338165458,-0.196451029,0.438521,0.340053013,-0.155703658,0.416955,0.352880165,-0.141085139,0.422523,0.365000611,-0.126977438,0.427585,0.362716399,-0.202973025,0.440582,0.353907803,-0.17033269,0.416633,0.369660079,-0.200844059,0.438033,0.379754255,-0.227659711,0.453413,0.383467112,-0.213057287,0.443948,0.369863895,-0.176951343,0.420084,0.362222151,-0.189698217,0.407875,0.371777076,-0.212291971,0.416393,0.408824386,-0.233328746,0.450791,0.386189412,-0.224509253,0.428599,0.361283614,-0.227650057,0.418403,0.360909365,-0.239552361,0.424181
0.372719436,-0.297373957,0.47174,0.365041353,-0.24289985,0.454191,0.35161232,-0.281138871,0.466354,0.306980981,-0.253104519,0.445527,0.266912856,-0.226747226,0.417281,0.245088604,-0.208658876,0.399115,0.336561901,-0.195163717,0.437166,0.335355528,-0.152945338,0.415032,0.345738545,-0.137899256,0.417773,0.355647818,-0.1239325,0.420265,0.361305881,-0.201855317,0.439558,0.352377531,-0.16984381,0.415093,0.367893241,-0.200539445,0.436285,0.37895162,-0.227527099,0.451786,0.382264785,-0.212098099,0.443246,0.368635632,-0.175781087,0.418898,0.360879533,-0.188376892,0.40644,0.369810323,-0.211075329,0.41469,0.407958456,-0.232600236,0.450554,0.383499789,-0.221974031,0.427876,0.360458491,-0.226434031,0.417456,0.358316605,-0.238028563,0.423005
0.371572969,-0.297050962,0.471258,0.367351858,-0.244569681,0.453644,0.350186028,-0.280563832,0.465491,0.305972762,-0.252719375,0.444282,0.266830714,-0.22789024,0.41579,0.24460908,-0.207565205,0.398064,0.335408501,-0.195128217,0.436089,0.334126498,-0.152860059,0.413847,0.344466844,-0.138207731,0.416645,0.35441056,-0.124352992,0.419189,0.360514875,-0.202031218,0.438957,0.351606755,-0.170221266,0.414376,0.367107704,-0.200925054,0.435482,0.377573836,-0.227007641,0.450998,0.381815186,-0.212463599,0.443044,0.370220117,-0.17686387,0.418544,0.360537243,-0.188299227,0.406009,0.368702827,-0.210767549,0.414159,0.407963653,-0.233225998,0.450827,0.385785959,-0.223906789,0.427958,0.362061251,-0.227868363,0.417451,0.358900198,-0.238123489,0.422906
0.367545101,-0.294829249,0.46761,0.36040554,-0.24139222,0.449575,0.346208898,-0.278305847,0.461747,0.300934699,-0.250509645,0.44021,0.262639153,-0.223961499,0.412085,0.24204572,-0.202595305,0.394826,0.329861161,-0.193445245,0.431654,0.329837241,-0.151198813,0.409175,0.341891168,-0.137404343,0.414208,0.35372847,-0.123867567,0.418783,0.356175892,-0.201315709,0.434537,0.343753845,-0.17548549,0.409571,0.35758845,-0.208380378,0.430532,0.367223527,-0.228320037,0.446142,0.375912001,-0.212514522,0.438677,0.3637897,-0.174118773,0.41377,0.355300708,-0.185789422,0.401026,0.360730436,-0.207446577,0.408969,0.402143921,-0.233537057,0.446594,0.379673082,-0.219735546,0.42341,0.355904962,-0.223739924,0.412758,0.351848199,-0.233972602,0.41806
0.364116547,-0.293206711,0.46473,0.354723229,-0.239983473,0.445168,0.342826853,-0.2766901,0.458847,0.297098567,-0.250410961,0.436961,0.258952136,-0.223629818,0.40901,0.238380739,-0.200511798,0.391214,0.323463625,-0.19253971,0.426347,0.321816534,-0.149249909,0.402563,0.334339208,-0.135791733,0.408204,0.347618162,-0.122196981,0.413332,0.348312095,-0.19941164,0.428856,0.337351409,-0.172719845,0.402554,0.350968047,-0.205307838,0.423022,0.358408154,-0.228012539,0.438961,0.369502993,-0.209913125,0.432839,0.355442941,-0.172325322,0.406587,0.346527464,-0.183689293,0.393156,0.351460333,-0.204521647,0.400408,0.395777444,-0.230956708,0.440835,0.371714461,-0.218137578,0.416643,0.347818486,-0.221628146,0.405528,0.344241356,-0.229775859,0.41033
0.361671303,-0.293602308,0.463656,0.347202551,-0.248922214,0.442387,0.337619084,-0.276120527,0.456505,0.294805022,-0.25776589,0.432691,0.255642486,-0.224699098,0.404709,0.236703749,-0.199443969,0.388374,0.316165102,-0.198115854,0.420948,0.309305102,-0.154480823,0.39522,0.319279893,-0.139681767,0.399475,0.328758821,-0.125209615,0.403343,0.341774035,-0.205873619,0.424653,0.33122732,-0.170656295,0.396694,0.344716199,-0.202143313,0.416299,0.352826276,-0.225318019,0.432566,0.363807326,-0.21724092,0.429787,0.348174179,-0.179782786,0.401619,0.337771621,-0.1911298,0.387207,0.340561757,-0.211495306,0.393353,0.391401874,-0.239620065,0.439417,0.365843504,-0.225198427,0.413649,0.342101038,-0.229535376,0.401809,0.337062005,-0.239470787,0.405767
0.352422935,-0.292875582,0.456812,0.341116404,-0.244004313,0.433082,0.330147574,-0.277649953,0.450657,0.283276004,-0.250332148,0.42764,0.252762757,-0.223274932,0.401165,0.232070728,-0.19835907,0.384548,0.309083467,-0.194270759,0.411522,0.296392937,-0.152248256,0.384552,0.302284197,-0.136902765,0.386876,0.307894886,-0.121934708,0.38899,0.333595437,-0.200096961,0.413295,0.307379459,-0.182989024,0.383392,0.315062342,-0.216796007,0.402208,0.325983483,-0.23725637,0.418932,0.35536367,-0.209514325,0.41708,0.330301074,-0.194893071,0.387545,0.313445083,-0.208053957,0.372434,0.316392846,-0.218457422,0.377705,0.383811023,-0.230012381,0.425563,0.350070302,-0.215791698,0.398624,0.333866216,-0.225135413,0.386247,0.337981418,-0.233267266,0.389521
0.35250045,-0.293616588,0.455369,0.34002952,-0.24512956,0.430777,0.325954361,-0.284881707,0.447013,0.293320511,-0.258728342,0.421109,0.256287515,-0.224567319,0.394761,0.234913623,-0.197708643,0.382378,0.304683005,-0.198229689,0.405872,0.290284703,-0.157022869,0.37718,0.294422864,-0.142500616,0.377581,0.298433066,-0.128347803,0.377946,0.331359798,-0.204530488,0.410271,0.315770566,-0.163489024,0.379337,0.323735085,-0.191819676,0.397286,0.332524287,-0.216852339,0.41411,0.355130742,-0.215040583,0.416303,0.330081931,-0.204378761,0.384964,0.310969542,-0.2159857,0.368931,0.31147773,-0.224992104,0.3731,0.386098887,-0.237112552,0.427547,0.353238392,-0.227126899,0.39926,0.334688708,-0.235235296,0.386263,0.335586362,-0.243300037,0.388736
0.34626934,-0.292051098,0.449955,0.3361157,-0.244150099,0.427128,0.320876747,-0.276474308,0.440764,0.278636672,-0.253307528,0.414192,0.243307466,-0.224887942,0.385845,0.223296585,-0.199288815,0.367762,0.300199317,-0.190758535,0.402153,0.285903983,-0.154787818,0.374209,0.288913604,-0.141063662,0.373631,0.291765169,-0.128014631,0.373106,0.328246509,-0.200200784,0.408095,0.303132023,-0.182570895,0.378584,0.309750094,-0.215996911,0.39692,0.320072272,-0.234367762,0.41335,0.352589103,-0.211620663,0.415223,0.328283508,-0.203652425,0.384771,0.31071737,-0.215729553,0.369191,0.311873184,-0.22538958,0.373835,0.380394285,-0.235736391,0.427441,0.351418625,-0.218627721,0.399998,0.335670161,-0.22811931,0.387389,0.337860364,-0.239836357,0.390259
0.337421415,-0.297047654,0.442337,0.332222426,-0.253732243,0.428947,0.31438271,-0.279174078,0.434583,0.276652458,-0.258701208,0.41188,0.245106394,-0.231918139,0.391351,0.229251063,-0.207336156,0.378713,0.301069049,-0.205233635,0.411239,0.290754892,-0.16953155,0.390105,0.294725477,-0.156306203,0.39157,0.298565037,-0.143180607,0.392903,0.329850386,-0.212725619,0.417783,0.318793694,-0.192156343,0.396773,0.328393915,-0.230347763,0.418262,0.335922848,-0.246812057,0.432608,0.354342235,-0.223761611,0.424484,0.341464887,-0.224102198,0.402,0.328961773,-0.239571762,0.390497,0.332489424,-0.252257161,0.39937,0.384128987,-0.245446147,0.434581,0.360452754,-0.244867038,0.413915,0.346168742,-0.255210231,0.40442,0.349744831,-0.264680653,0.410585
0.332027694,-0.294891667,0.438006,0.327189474,-0.250218814,0.426162,0.309519041,-0.277165395,0.43063,0.266662849,-0.24889219,0.408783,0.238336353,-0.221836361,0.391418,0.228138757,-0.199879544,0.383526,0.297912198,-0.19915334,0.409826,0.284689563,-0.171475964,0.389964,0.286023508,-0.16152929,0.390837,0.287299406,-0.151550819,0.39163,0.327372745,-0.21033484,0.416286,0.318423457,-0.191488054,0.396726,0.326312154,-0.224542373,0.418633,0.33426021,-0.248222004,0.432585,0.351279613,-0.222085845,0.422766,0.339038359,-0.218340047,0.401701,0.329376931,-0.234404163,0.390924,0.334021525,-0.252266811,0.400455,0.379911904,-0.244436983,0.432341,0.356741684,-0.239777021,0.412879,0.346076717,-0.253279453,0.403938,0.35205687,-0.261533271,0.410615
0.323488333,-0.295342045,0.431213,0.317741184,-0.254192099,0.420027,0.298982236,-0.282340313,0.426235,0.268109096,-0.260258291,0.407466,0.242824289,-0.234740456,0.391467,0.232208347,-0.211367162,0.384069,0.292635857,-0.207387512,0.407174,0.280205236,-0.181393827,0.389301,0.280349679,-0.171669258,0.389172,0.280502557,-0.16198866,0.389056,0.318675155,-0.214606192,0.4107,0.313098543,-0.188421075,0.39201,0.323566766,-0.219722143,0.414795,0.327953718,-0.243702889,0.428708,0.340420394,-0.225223262,0.414698,0.33013823,-0.22112648,0.396483,0.324536968,-0.237720338,0.387163,0.331744861,-0.25319407,0.398126,0.36628423,-0.246091739,0.421274,0.346310878,-0.24105125,0.40309,0.358468493,-0.266055134,0.418235,0.368748766,-0.279243747,0.430507
0.317155101,-0.284804181,0.421134,0.301128951,-0.223806879,0.3964,0.297851039,-0.269619783,0.418869,0.254444535,-0.235003422,0.400965,0.225559969,-0.21941157,0.382627,0.208242583,-0.201518166,0.367339,0.270464576,-0.175896658,0.379304,0.251587716,-0.139802788,0.352291,0.235660374,-0.1394931,0.339401,0.232417634,-0.158547597,0.344413,0.29104585,-0.179055254,0.375777,0.255733408,-0.180564309,0.345138,0.266213616,-0.21448269,0.363159,0.282018317,-0.228521636,0.380063,0.309436983,-0.186873642,0.375295,0.275537147,-0.191166215,0.346191,0.286013528,-0.220101538,0.361994,0.304631638,-0.232368018,0.381081,0.333558919,-0.205417502,0.378985,0.295417675,-0.20305181,0.353258,0.301466822,-0.225691605,0.365087,0.317066829,-0.236501603,0.378728
0.318970596,-0.286783929,0.424128,0.297384577,-0.223836265,0.393551,0.298701404,-0.272873638,0.420493,0.251510708,-0.241697727,0.400099,0.221578464,-0.225908762,0.378164,0.202732065,-0.207057381,0.361001,0.2586778,-0.176755239,0.371336,0.235646829,-0.13889219,0.340409,0.218978602,-0.13731123,0.324945,0.217435016,-0.152183509,0.326127,0.279295485,-0.178018825,0.368055,0.244268905,-0.175048953,0.332182,0.25325593,-0.206276778,0.346773,0.269491787,-0.220638117,0.364329,0.301102732,-0.183969052,0.36835,0.264273042,-0.184899092,0.33392,0.273235,-0.211493757,0.346725,0.291614361,-0.223778118,0.365742,0.327130295,-0.20236805,0.373947,0.288847349,-0.189574362,0.34429,0.292767335,-0.211766403,0.353705,0.307386383,-0.22796099,0.367794
0.319035965,-0.287108562,0.424692,0.297110185,-0.224583096,0.39395,0.298614373,-0.273185286,0.4211,0.251928541,-0.24200857,0.400759,0.221415405,-0.225677947,0.379072,0.203536095,-0.204158712,0.362559,0.258883973,-0.176949951,0.371695,0.235707951,-0.139107838,0.3408,0.218964054,-0.137519569,0.325352,0.216582307,-0.153023995,0.326462,0.279378242,-0.17815578,0.368316,0.243534243,-0.175505098,0.332302,0.252746539,-0.206698552,0.346751,0.269075521,-0.221102608,0.364314,0.30028658,-0.184248834,0.368546,0.263401093,-0.184932387,0.333744,0.272546579,-0.211471486,0.346412,0.291053743,-0.223852242,0.365525,0.326468733,-0.202326426,0.374097,0.288022294,-0.190763737,0.344378,0.29206561,-0.214769853,0.353698,0.306956411,-0.227734089,0.367771
0.318571553,-0.288446474,0.42502,0.296870999,-0.225919542,0.39443,0.298605247,-0.273871112,0.421666,0.252289328,-0.244111947,0.401676,0.221403807,-0.227731862,0.380095,0.201668676,-0.208058489,0.363355,0.258691753,-0.178664995,0.37257,0.235233316,-0.140868661,0.341914,0.218530676,-0.139355852,0.326585,0.214520982,-0.156333526,0.327785,0.278976536,-0.179484932,0.368923,0.241831447,-0.177731139,0.333009,0.251992946,-0.209112396,0.347495,0.269135587,-0.222557819,0.365033,0.297949544,-0.185621496,0.368917,0.261552896,-0.186144539,0.333891,0.27209819,-0.21227804,0.346574,0.290795221,-0.224732769,0.365783,0.324403181,-0.202718435,0.374167,0.286885863,-0.19475265,0.344656,0.29173312,-0.21525517,0.354011,0.306640901,-0.228301867,0.368024
0.318934625,-0.290768705,0.42716,0.296143729,-0.228481211,0.395859,0.298202397,-0.275917289,0.423171,0.252121513,-0.249084228,0.402237,0.221840743,-0.233488571,0.380572,0.202535822,-0.21184578,0.364228,0.255379228,-0.182007815,0.372771,0.226989802,-0.149479461,0.341912,0.210469281,-0.150844587,0.326482,0.207961413,-0.168179433,0.327425,0.27608245,-0.182281019,0.36976,0.239048694,-0.180642684,0.333333,0.249698586,-0.212041603,0.347469,0.267761716,-0.224987651,0.365082,0.295675822,-0.188014362,0.370348,0.260172608,-0.187453626,0.334351,0.270898758,-0.21342225,0.346704,0.290442664,-0.225446118,0.366173,0.325199549,-0.204052086,0.37641,0.284492408,-0.197014486,0.346196,0.29097303,-0.219003255,0.355283,0.307159684,-0.229741483,0.36944
0.317206807,-0.29116644,0.427341,0.295188386,-0.229154476,0.396041,0.295885255,-0.27606931,0.422801,0.250427939,-0.248993992,0.401085,0.220656938,-0.233554209,0.37909,0.201882221,-0.215958564,0.361766,0.252128195,-0.182739308,0.37224,0.223744691,-0.154591281,0.341299,0.207305894,-0.158119217,0.325828,0.206468579,-0.171536117,0.326837,0.273361928,-0.183177361,0.369943,0.238225107,-0.181312588,0.333585,0.248877741,-0.212863987,0.347872,0.265552682,-0.228473053,0.365507,0.294965053,-0.188818007,0.371118,0.25883676,-0.188190893,0.335482,0.269303304,-0.214999906,0.347981,0.289709133,-0.227028914,0.367364,0.323181406,-0.205904667,0.377864,0.284524227,-0.197584301,0.347361,0.28974062,-0.219406128,0.356529,0.307375182,-0.230910175,0.370819
0.235064039,-0.188214225,0.30384,0.246740121,-0.196149298,0.337497,0.237087866,-0.207149198,0.312248,0.229925818,-0.223062579,0.345132,0.215821895,-0.220197637,0.368791,0.210675645,-0.213426384,0.379785,0.25649187,-0.225237982,0.367659,0.236214113,-0.244377478,0.393434,0.245932318,-0.259433832,0.406322,0.275404006,-0.274465635,0.423151,0.256674129,-0.202944054,0.36556,0.235828375,-0.223752274,0.394913,0.258367601,-0.24346811,0.411635,0.279246607,-0.244240593,0.409695,0.255678843,-0.183516395,0.360535,0.234525575,-0.203080108,0.389301,0.253415168,-0.22187301,0.403872,0.276913751,-0.224440918,0.402623,0.252555869,-0.159132904,0.348904,0.235224644,-0.18330118,0.372736,0.241786245,-0.200366844,0.384676,0.254703136,-0.202768042,0.380918
0.233669173,-0.191054024,0.304113,0.246955584,-0.199058246,0.338757,0.236044829,-0.209964204,0.312856,0.22776916,-0.22330732,0.343649,0.211201021,-0.218468951,0.361588,0.202589168,-0.208357077,0.368661,0.257997395,-0.228215272,0.369918,0.238079232,-0.247944292,0.396859,0.247700458,-0.263433932,0.410329,0.276838997,-0.278561254,0.426974,0.258170809,-0.205873457,0.367644,0.23469176,-0.226094934,0.398257,0.245190716,-0.246269566,0.414196,0.261124805,-0.247528478,0.408126,0.257021439,-0.186403765,0.362378,0.236162064,-0.20659825,0.39242,0.254091726,-0.225181832,0.406309,0.277689484,-0.227982559,0.40519,0.253455312,-0.161990126,0.350298,0.235430085,-0.185219129,0.375285,0.240009032,-0.201418514,0.386717,0.251661595,-0.203718217,0.382355
0.234703216,-0.19268565,0.305686,0.249146812,-0.200926524,0.340945,0.237567155,-0.211914683,0.314977,0.229429044,-0.224770725,0.345744,0.211797701,-0.217611248,0.362105,0.202240066,-0.207084156,0.368129,0.261409727,-0.230622892,0.373167,0.241962351,-0.250721956,0.401115,0.25139522,-0.266475112,0.41509,0.280416937,-0.28164724,0.431623,0.261297512,-0.20791695,0.370344,0.243044524,-0.229702597,0.401848,0.256225004,-0.249612013,0.417176,0.271701756,-0.247950882,0.410592,0.259799308,-0.188171946,0.364565,0.238642564,-0.204137801,0.395643,0.240554145,-0.211154456,0.409007,0.253538222,-0.208209531,0.401797,0.255619951,-0.163461411,0.351782,0.237030088,-0.186089464,0.37768,0.237960717,-0.201745953,0.388719,0.246965013,-0.205341383,0.383885
0.236522642,-0.194562632,0.307769,0.251599454,-0.202800001,0.343594,0.239561255,-0.213791021,0.317256,0.231401896,-0.226994554,0.348209,0.213806718,-0.218598634,0.362987,0.203111012,-0.205462357,0.367967,0.26501262,-0.233156904,0.376395,0.246122607,-0.253660846,0.405037,0.255181556,-0.269741127,0.419359,0.283851456,-0.284417225,0.435744,0.264912508,-0.210554133,0.373466,0.246145556,-0.232092562,0.405718,0.259184719,-0.252118237,0.420518,0.278020348,-0.250880379,0.414324,0.263307866,-0.190912626,0.367545,0.24163839,-0.206327061,0.399381,0.244193678,-0.21364819,0.412284,0.25766463,-0.21065935,0.404584,0.258794963,-0.166378747,0.354499,0.240155186,-0.188103691,0.381088,0.23939956,-0.203830737,0.391781,0.247392352,-0.208265015,0.38657
0.30983375,-0.27997865,0.403421,0.302442915,-0.24712074,0.404876,0.306601016,-0.287465125,0.408664,0.282976017,-0.275652468,0.411501,0.253867168,-0.258080481,0.4046,0.238447749,-0.241888652,0.402824,0.278073757,-0.231765393,0.412501,0.256056831,-0.23941771,0.410859,0.25020056,-0.248236764,0.410038,0.255151323,-0.267367043,0.424433,0.28898643,-0.217536023,0.406089,0.262067862,-0.225614092,0.401438,0.293570138,-0.261689365,0.425306,0.321995772,-0.27805821,0.442354,0.299929697,-0.208995771,0.400667,0.267430814,-0.19390132,0.397958,0.270521384,-0.218164406,0.418895,0.283411174,-0.245444738,0.428353,0.316257066,-0.204960725,0.394107,0.283087214,-0.211859894,0.389718,0.279398994,-0.225423155,0.405879,0.278864941,-0.246292041,0.414568
0.307504395,-0.278419744,0.397529,0.302164726,-0.249849624,0.406276,0.303367733,-0.287260006,0.406047,0.277715354,-0.27966061,0.411751,0.249405989,-0.264305605,0.406215,0.234429522,-0.250267472,0.406731,0.283808762,-0.239521817,0.422317,0.266030329,-0.251804261,0.428556,0.263586413,-0.263962207,0.431675,0.271464891,-0.285450982,0.447533,0.293158008,-0.223755228,0.413569,0.270847205,-0.23633312,0.416938,0.302009234,-0.272525515,0.439882,0.330440226,-0.28874186,0.456271,0.302150683,-0.213670497,0.405509,0.27487445,-0.202634415,0.411263,0.276227871,-0.22583864,0.43142,0.28534465,-0.251561973,0.437149,0.314932406,-0.207230755,0.394628,0.287009259,-0.217986947,0.397538,0.282732244,-0.231443739,0.413348,0.279734253,-0.250350414,0.418453
0.336611649,-0.286260487,0.415116,0.314502518,-0.243736824,0.412285,0.340385419,-0.287186083,0.426646,0.349155056,-0.327645398,0.447597,0.336135754,-0.358205079,0.451291,0.326135642,-0.37475935,0.455329,0.294460806,-0.234421119,0.425599,0.267749172,-0.253825452,0.420605,0.25350996,-0.264370374,0.418109,0.247027018,-0.282555885,0.428035,0.291291827,-0.217432413,0.409924,0.254469031,-0.232183272,0.404125,0.244287278,-0.25598366,0.422283,0.234860236,-0.274316266,0.435253,0.290739253,-0.202639,0.397294,0.248075171,-0.203471218,0.393102,0.227545482,-0.21135936,0.390957,0.234274126,-0.238652231,0.402439,0.295796541,-0.193597084,0.383085,0.263403227,-0.212717978,0.380106,0.248007108,-0.221853361,0.378736,0.240025218,-0.235894954,0.38702
0.339084893,-0.283989575,0.414964,0.314551339,-0.243774659,0.412349,0.340093418,-0.286939719,0.42628,0.348668295,-0.327188624,0.446973,0.336304086,-0.358384463,0.451517,0.326676421,-0.375380754,0.456084,0.29439923,-0.234372097,0.42551,0.268367292,-0.254411428,0.421576,0.254418841,-0.265318192,0.419608,0.248192798,-0.283889335,0.430055,0.291324137,-0.21684023,0.410169,0.254664232,-0.232361378,0.404435,0.244662719,-0.256377077,0.422932,0.235341015,-0.274877814,0.436144,0.291104421,-0.202893514,0.397793,0.248895563,-0.204144103,0.394402,0.228540739,-0.212283821,0.392667,0.235545511,-0.239947375,0.404623,0.296380282,-0.193979139,0.383841,0.26389801,-0.213117553,0.38082,0.248462869,-0.222261059,0.379432,0.234603534,-0.230566564,0.378278
0.317481241,-0.319050962,0.439021,0.306198415,-0.261225887,0.418034,0.304465787,-0.307046841,0.441034,0.281545109,-0.285717327,0.435276,0.258479038,-0.264678454,0.426203,0.2466259,-0.246625236,0.417613,0.278466646,-0.219677115,0.408624,0.240183678,-0.202665819,0.390002,0.220788143,-0.209330416,0.380692,0.222305216,-0.230393926,0.387412,0.290527671,-0.219078713,0.400534,0.24339937,-0.204822952,0.375129,0.234124991,-0.230707308,0.393432,0.240282681,-0.255784398,0.408367,0.302406676,-0.223876505,0.395928,0.261292623,-0.190655024,0.373807,0.242008415,-0.200908171,0.36249,0.247718653,-0.225036346,0.369466,0.319645822,-0.239170421,0.394176,0.276191759,-0.219453948,0.373121,0.264222408,-0.230511133,0.363447,0.259042369,-0.239537622,0.35524
0.318481029,-0.320204623,0.441428,0.304410455,-0.264873204,0.421042,0.305409092,-0.30836658,0.443475,0.282992021,-0.286785844,0.437999,0.260392383,-0.265490154,0.42917,0.249410323,-0.244383228,0.422657,0.280350419,-0.221378098,0.412021,0.242639273,-0.204073472,0.393774,0.223396418,-0.21068559,0.38465,0.224970841,-0.232004037,0.391653,0.292648316,-0.220645063,0.404044,0.246211032,-0.206124476,0.379137,0.23846708,-0.228681068,0.39775,0.243277176,-0.256930637,0.412601,0.304661243,-0.225303115,0.399473,0.264227668,-0.191850253,0.377793,0.245173248,-0.202061786,0.366701,0.251037916,-0.226463728,0.374003,0.321945765,-0.240378382,0.397657,0.279096372,-0.220461866,0.376973,0.267241741,-0.231662057,0.367469,0.26213896,-0.240955425,0.359442
0.318842333,-0.320617325,0.442269,0.304951069,-0.265335067,0.422048,0.305726613,-0.308809555,0.444293,0.283444874,-0.287112217,0.438861,0.260954901,-0.26568418,0.430035,0.250075682,-0.244539884,0.423575,0.280936617,-0.221912145,0.413092,0.243388002,-0.204483742,0.394918,0.22418579,-0.211060786,0.385831,0.225771456,-0.232448338,0.392913,0.293335702,-0.221152454,0.405187,0.24710359,-0.206520205,0.380404,0.239469381,-0.229020361,0.399118,0.244243287,-0.257276492,0.413957,0.305416886,-0.225781764,0.40066,0.265174112,-0.192225341,0.379076,0.246180554,-0.202405872,0.368033,0.252086796,-0.226885315,0.375429,0.32275196,-0.240810676,0.398866,0.280069765,-0.22080163,0.378264,0.268239789,-0.232037115,0.368798,0.263144466,-0.241401379,0.360806
0.324808849,-0.324623519,0.44998,0.312879265,-0.268071715,0.430245,0.309578454,-0.311179781,0.449589,0.285652011,-0.286894717,0.442069,0.264234662,-0.261503615,0.433911,0.250577142,-0.241874799,0.423675,0.28434309,-0.223629474,0.418438,0.24619451,-0.206732508,0.3985,0.227179745,-0.213405781,0.388531,0.228944793,-0.234996391,0.395909,0.298311881,-0.223677608,0.413789,0.25397448,-0.209405009,0.388588,0.247759196,-0.23261249,0.408605,0.252113504,-0.262464285,0.424004,0.31528239,-0.227419447,0.411894,0.272823194,-0.197616119,0.38888,0.257772913,-0.211650801,0.377105,0.266441473,-0.235587029,0.384982,0.336237928,-0.243416842,0.41308,0.2948859,-0.223350633,0.391346,0.283195478,-0.234515393,0.38136,0.273685034,-0.246671767,0.372549
0.313501582,-0.312692396,0.434649,0.306693978,-0.261151059,0.422829,0.300546106,-0.301553296,0.436823,0.280232705,-0.276316644,0.432376,0.258747611,-0.253000577,0.423844,0.247927557,-0.230947473,0.416527,0.285933323,-0.22188877,0.418877,0.253270895,-0.213519621,0.405919,0.237772228,-0.223937426,0.399441,0.243414222,-0.246993971,0.409914,0.300803171,-0.221878566,0.412974,0.262594805,-0.213561355,0.395337,0.261499705,-0.242924483,0.417485,0.26443559,-0.266870703,0.430816,0.31424086,-0.226583886,0.409271,0.28047855,-0.207978393,0.393913,0.267849255,-0.223389044,0.386055,0.277396852,-0.246000992,0.397402,0.33180926,-0.240628934,0.406993,0.294400237,-0.233911282,0.391716,0.28768313,-0.246719789,0.38484,0.287606397,-0.256814427,0.380454
0.330404543,-0.329109747,0.458287,0.321704817,-0.273671616,0.442796,0.316553635,-0.317141718,0.460145,0.297285197,-0.290521869,0.456897,0.278068708,-0.26588587,0.451805,0.268889394,-0.24283906,0.446195,0.300600519,-0.231768471,0.436333,0.267780308,-0.221382896,0.420826,0.249409226,-0.231969103,0.413072,0.254130394,-0.254347021,0.422189,0.31553215,-0.231790982,0.42988,0.274589816,-0.222413439,0.408973,0.270755193,-0.247244767,0.429944,0.275345134,-0.27527882,0.444089,0.329079032,-0.236817887,0.426084,0.293155606,-0.213543128,0.407759,0.277573327,-0.229027229,0.398383,0.288076748,-0.25400186,0.408158,0.346972469,-0.251812129,0.424329,0.30590485,-0.243337928,0.406508,0.298450928,-0.255732213,0.398319,0.307119583,-0.273510333,0.404997
0.331897472,-0.330283043,0.460502,0.32329744,-0.274897246,0.444628,0.317982593,-0.318237807,0.462262,0.298801061,-0.291473946,0.458737,0.279760745,-0.266590159,0.453708,0.270707475,-0.243424453,0.448093,0.302132863,-0.232722922,0.43782,0.268526076,-0.221999447,0.421998,0.250595155,-0.232103185,0.414086,0.255122095,-0.254409666,0.423054,0.317053628,-0.232742244,0.431393,0.2758667,-0.222714749,0.410127,0.271889697,-0.246880521,0.430987,0.276141293,-0.274938659,0.445227,0.330602641,-0.237789844,0.427655,0.294031998,-0.214181517,0.408978,0.278682719,-0.229133666,0.399423,0.288957562,-0.254058141,0.409029,0.34852888,-0.252862347,0.426034,0.307091113,-0.244375466,0.407915,0.299630707,-0.256670246,0.39959,0.308299587,-0.274322588,0.406137
0.338491162,-0.333577813,0.470908,0.331313675,-0.2788012,0.45839,0.324645958,-0.321845682,0.473601,0.308925584,-0.29847621,0.474388,0.288786875,-0.272425073,0.468014,0.279665995,-0.249486781,0.461039,0.312843618,-0.237840326,0.45471,0.282420855,-0.217994011,0.441747,0.273933947,-0.233608876,0.435266,0.287765124,-0.251610228,0.445485,0.327889085,-0.238853974,0.447952,0.290226067,-0.231677608,0.429877,0.287172939,-0.256756817,0.451587,0.290148972,-0.284059004,0.46494,0.341057108,-0.244470723,0.443615,0.302503198,-0.250321708,0.428105,0.31307508,-0.279622086,0.447189,0.335219932,-0.292648073,0.464903,0.357627171,-0.259622037,0.440718,0.319139602,-0.257801147,0.425284,0.310560407,-0.270668168,0.418193,0.323136094,-0.288011867,0.42584
0.343062964,-0.33831168,0.479677,0.338335671,-0.285770018,0.468875,0.330039276,-0.326309919,0.482947,0.314359399,-0.303939548,0.483739,0.295811255,-0.277790708,0.478379,0.286293401,-0.254979816,0.471197,0.322099982,-0.245951703,0.466925,0.293098243,-0.22570923,0.455531,0.284319044,-0.241552159,0.449834,0.297843551,-0.260269222,0.460648,0.336670805,-0.247300925,0.459868,0.299919956,-0.239591076,0.443481,0.296522622,-0.26396109,0.465507,0.298470388,-0.291496382,0.478348,0.349151078,-0.2530979,0.455116,0.311157959,-0.258443861,0.441322,0.321257686,-0.288079839,0.460684,0.343772189,-0.301127061,0.477863,0.364385441,-0.268265153,0.451442,0.326675639,-0.265893683,0.437465,0.317949195,-0.279038255,0.431044,0.330316305,-0.29764518,0.439213
0.348886496,-0.343260438,0.489722,0.34246796,-0.289649284,0.476479,0.334152282,-0.328358428,0.49276,0.317954145,-0.307493331,0.490371,0.298403454,-0.281080225,0.484195,0.289427397,-0.258562256,0.477004,0.324853734,-0.248279913,0.472832,0.292675163,-0.23284994,0.459712,0.285919008,-0.248840681,0.453153,0.300020803,-0.263292412,0.463089,0.339546339,-0.249131993,0.465437,0.303213735,-0.232822498,0.446855,0.30282605,-0.264259709,0.468149,0.311450986,-0.289437502,0.481555,0.352313311,-0.254656,0.460645,0.313557037,-0.258955115,0.44485,0.322439178,-0.288777844,0.463583,0.342964867,-0.303782709,0.480818,0.368279706,-0.269770681,0.457345,0.329750528,-0.266556497,0.44165,0.320724832,-0.279254001,0.434439,0.33121032,-0.297271574,0.44181
0.352321603,-0.344804281,0.497939,0.347925545,-0.293682197,0.484231,0.338729758,-0.332555995,0.499919,0.321586242,-0.309913992,0.495905,0.301032283,-0.282860077,0.488091,0.292536396,-0.260734139,0.48058,0.327924044,-0.250715671,0.478947,0.296846535,-0.235218023,0.464643,0.28972358,-0.250950525,0.457491,0.30381798,-0.266939081,0.467285,0.343990847,-0.251811453,0.472801,0.312246488,-0.229941968,0.453463,0.31199305,-0.258341358,0.475051,0.318880153,-0.284669811,0.488822,0.358000174,-0.257575779,0.469084,0.319892711,-0.26113805,0.452168,0.327979654,-0.291748349,0.471137,0.347795804,-0.308081841,0.48796,0.375600921,-0.273066102,0.467114,0.337496873,-0.269360099,0.450499,0.328759307,-0.281947108,0.442866,0.339521416,-0.299594183,0.450157
0.353480409,-0.346347197,0.500744,0.349740181,-0.29501826,0.487866,0.3391915,-0.333418906,0.501759,0.319770942,-0.309436025,0.495313,0.295815588,-0.281037378,0.484664,0.288427468,-0.258486708,0.476219,0.330047036,-0.252355362,0.481807,0.304574773,-0.226364006,0.467233,0.294065784,-0.240228968,0.459945,0.30456519,-0.262800268,0.470016,0.347630855,-0.254598406,0.477127,0.316976471,-0.232476584,0.458212,0.317101982,-0.260954619,0.480406,0.323449895,-0.287419445,0.494215,0.362624429,-0.261202475,0.474536,0.325792059,-0.263914058,0.457564,0.332592126,-0.295222717,0.477037,0.351064489,-0.312195946,0.494339,0.381116582,-0.277599954,0.473733,0.344250902,-0.273163503,0.457122,0.335529542,-0.285773166,0.449489,0.345230502,-0.304100639,0.457088
0.354112712,-0.347238279,0.502415,0.350451911,-0.295829253,0.489094,0.339776939,-0.334266614,0.503395,0.319727593,-0.310030117,0.49635,0.295783456,-0.281521143,0.485628,0.287986778,-0.258939531,0.476923,0.330765434,-0.25291288,0.482736,0.304978932,-0.226664382,0.467853,0.29436436,-0.240472881,0.460412,0.304891368,-0.262039186,0.470326,0.348331134,-0.255250564,0.477987,0.317780789,-0.232752987,0.458674,0.317849354,-0.261035116,0.480737,0.32408287,-0.287541276,0.494648,0.36332094,-0.261952986,0.475381,0.326411009,-0.264254164,0.45805,0.333103188,-0.295364533,0.47741,0.351330037,-0.312433638,0.494754,0.381800978,-0.278502542,0.474638,0.344900279,-0.273682939,0.457717,0.335974031,-0.286176115,0.449943,0.345704039,-0.304254865,0.457399
0.424634792,-0.365192582,0.517583,0.382739192,-0.339037541,0.512418,0.415701999,-0.375067766,0.526121,0.387533126,-0.398325428,0.528168,0.373475005,-0.408774407,0.542413,0.354485621,-0.41501636,0.546079,0.348617082,-0.337366064,0.52052,0.331589651,-0.363102837,0.513693,0.344041764,-0.374727989,0.510279,0.369189918,-0.381608298,0.521211,0.348467272,-0.317624253,0.508111,0.330255396,-0.345487065,0.498747,0.368340888,-0.371858997,0.519199,0.390282548,-0.371341552,0.530893,0.352474361,-0.303724639,0.4984,0.333099501,-0.332516066,0.493055,0.363232975,-0.360049106,0.511122,0.39364246,-0.374786438,0.527547,0.364539015,-0.291801998,0.487987,0.328049815,-0.257861366,0.473742,0.310749842,-0.243681018,0.467197,0.297142609,-0.244742914,0.463165
0.424450198,-0.365033828,0.517358,0.382335851,-0.338680254,0.511878,0.415035133,-0.374466085,0.525277,0.386122162,-0.396875171,0.526245,0.372201888,-0.40738096,0.540564,0.353152273,-0.413455334,0.544025,0.347597726,-0.336379606,0.518998,0.332519819,-0.364121405,0.515134,0.346012517,-0.376874521,0.513202,0.372077784,-0.384593303,0.525288,0.347917253,-0.317122917,0.507309,0.329355507,-0.344545672,0.497388,0.367668338,-0.371180023,0.518251,0.389843667,-0.370923971,0.530296,0.352347063,-0.303614947,0.49822,0.332461751,-0.331879433,0.492111,0.362809423,-0.359629266,0.510526,0.388271491,-0.369672746,0.520349,0.36498723,-0.292160781,0.488587,0.328644643,-0.258328926,0.474601,0.311400346,-0.244191124,0.468175,0.296719187,-0.24439416,0.462505
0.433110863,-0.363584474,0.522727,0.39491797,-0.33378511,0.515384,0.431846693,-0.362059127,0.529813,0.432031131,-0.400321961,0.532634,0.420715255,-0.428985506,0.55132,0.415369048,-0.45269605,0.556034,0.357242576,-0.334316593,0.520358,0.334238321,-0.363335837,0.514537,0.344462366,-0.376592268,0.511627,0.370427132,-0.38591685,0.52323,0.356441797,-0.317629676,0.50926,0.341570069,-0.348452702,0.497351,0.375335113,-0.382384504,0.518249,0.401793843,-0.394205796,0.529116,0.360497533,-0.305576905,0.500842,0.310488147,-0.275852992,0.482328,0.285181362,-0.260785818,0.472856,0.267822161,-0.267285484,0.467475,0.369738411,-0.294489601,0.492309,0.331815138,-0.262381927,0.478739,0.313496178,-0.253412916,0.472504,0.298454287,-0.256103767,0.467003
0.437163707,-0.362603543,0.525063,0.395335582,-0.334138075,0.515929,0.434135473,-0.363978035,0.532621,0.433321626,-0.401517739,0.534225,0.420628261,-0.428896802,0.551206,0.414226105,-0.451450398,0.554504,0.357333199,-0.334401399,0.52049,0.334937871,-0.362781221,0.514007,0.343639444,-0.376394113,0.510766,0.369166604,-0.386121981,0.521586,0.355778972,-0.317039025,0.508313,0.340007648,-0.346858798,0.495076,0.372938612,-0.379942994,0.51494,0.399400315,-0.391857471,0.525964,0.359302693,-0.304564096,0.499182,0.312829387,-0.277933064,0.485965,0.289286691,-0.264539961,0.479663,0.271522602,-0.27097851,0.473934,0.369082438,-0.293235827,0.490127,0.330790462,-0.262349673,0.477041,0.312517547,-0.252621845,0.471029,0.297636259,-0.255401817,0.465723
0.439049835,-0.361560226,0.525808,0.3956145,-0.334373818,0.516293,0.435008438,-0.364709926,0.533692,0.432986633,-0.401207333,0.533812,0.419195149,-0.427435518,0.549328,0.411961138,-0.44898189,0.551472,0.357723149,-0.334766325,0.521058,0.335987632,-0.363133405,0.514659,0.343960357,-0.377167035,0.51146,0.369428356,-0.387310215,0.522038,0.355811168,-0.317067715,0.508359,0.339923174,-0.346772622,0.494953,0.372527246,-0.379523901,0.514372,0.398909004,-0.391375438,0.525317,0.359053648,-0.304352992,0.498836,0.312911818,-0.27800627,0.486093,0.2894827,-0.264719202,0.479988,0.271811922,-0.271267251,0.474439,0.369116072,-0.292825131,0.489389,0.330704983,-0.262748562,0.476786,0.312494989,-0.25260361,0.470995,0.297739791,-0.255490657,0.465885
