sluyters/QuantumLeap/backend/src/datasets/gesture/HandGestureDataset_SHREC2017_csv/Gesture6/finger_1/subject_2_essai_4_skeletons_world.csv
Wrist_x,Wrist_y,Wrist_z,Palm_x,Palm_y,Palm_z,thumb_base_x,thumb_base_y,thumb_base_z,thumb_first_joint_x,thumb_first_joint_y,thumb_first_joint_z,thumb_second_joint_x,thumb_second_joint_y,thumb_second_joint_z,thumb_tip_x,thumb_tip_y,thumb_tip_z,index_base_x,index_base_y,index_base_z,index_first_joint_x,index_first_joint_y,index_first_joint_z,index_second_joint_x,index_second_joint_y,index_second_joint_z,index_tip_x,index_tip_y,index_tip_z,middle_base_x,middle_base_y,middle_base_z,middle_first_joint_x,middle_first_joint_y,middle_first_joint_z,middle_second_joint_x,middle_second_joint_y,middle_second_joint_z,middle_tip_x,middle_tip_y,middle_tip_z,ring_base_x,ring_base_y,ring_base_z,ring_first_joint_x,ring_first_joint_y,ring_first_joint_z,ring_second_joint_x,ring_second_joint_y,ring_second_joint_z,ring_tip_x,ring_tip_y,ring_tip_z,pinky_base_x,pinky_base_y,pinky_base_z,pinky_first_joint_x,pinky_first_joint_y,pinky_first_joint_z,pinky_second_joint_x,pinky_second_joint_y,pinky_second_joint_z,pinky_tip_x,pinky_tip_y,pinky_tip_z,
0.39749269,-0.33688474,0.459254,0.3830392,-0.27927872,0.4423,0.37126442,-0.32026085,0.448912,0.3399705,-0.28454393,0.424285,0.30658103,-0.25515058,0.403192,0.2921663,-0.23418682,0.393366,0.33937393,-0.23389451,0.419892,0.33304224,-0.1975014,0.421777,0.33537683,-0.17980266,0.422719,0.34631863,-0.1691761,0.438091,0.36767124,-0.23717915,0.428455,0.35429601,-0.19260988,0.403454,0.3499941,-0.17279716,0.388869,0.35029946,-0.16504128,0.378452,0.39288609,-0.24427548,0.436985,0.37351178,-0.1994978,0.41091,0.37117432,-0.18836681,0.397569,0.38860116,-0.19391934,0.40398,0.42630734,-0.26001373,0.44963,0.41272545,-0.23106201,0.426086,0.40636976,-0.21785691,0.415269,0.40526423,-0.22054046,0.405725
0.4030027,-0.33712981,0.462499,0.38799454,-0.27946628,0.445148,0.37498369,-0.32031666,0.4508,0.34078189,-0.28395676,0.424699,0.3079706,-0.25553975,0.404563,0.29033597,-0.2344987,0.394879,0.34218702,-0.23347878,0.420796,0.33650934,-0.19650989,0.422601,0.33818541,-0.17848169,0.423503,0.35104417,-0.16783541,0.438451,0.37160648,-0.2371467,0.430979,0.35661383,-0.19257478,0.405614,0.35478778,-0.17606922,0.390819,0.35647044,-0.17471232,0.38025,0.39790355,-0.24457717,0.440876,0.38132753,-0.20109442,0.413989,0.38373704,-0.20469827,0.400233,0.39431846,-0.22665254,0.405685,0.4325656,-0.26143154,0.455188,0.42555132,-0.21995404,0.43108,0.42209626,-0.22048191,0.420004,0.41249062,-0.22977398,0.41023
0.40422338,-0.33683856,0.462879,0.38859618,-0.2790053,0.445316,0.37632296,-0.32027823,0.451333,0.34158279,-0.28386441,0.425338,0.30846953,-0.25540674,0.404893,0.29135489,-0.23436607,0.395272,0.34270931,-0.23313311,0.421042,0.3374804,-0.19645102,0.423354,0.33952463,-0.17833712,0.42451,0.35258246,-0.16766587,0.439651,0.37188658,-0.23660634,0.430973,0.35668394,-0.19183802,0.405407,0.35490482,-0.17599849,0.390494,0.35608796,-0.17452486,0.379842,0.3979957,-0.2438824,0.440682,0.38179154,-0.20076258,0.413512,0.38314068,-0.20438015,0.399611,0.3936925,-0.22629274,0.405041,0.43247782,-0.26055594,0.454806,0.42526676,-0.22162225,0.430584,0.42112154,-0.22630238,0.419455,0.41124737,-0.2325649,0.409635
0.4062159,-0.33590334,0.463275,0.3890953,-0.27876776,0.44554,0.37736954,-0.32022457,0.451728,0.3423912,-0.28402933,0.426105,0.30901492,-0.25544838,0.405365,0.29235427,-0.23438208,0.395785,0.34302918,-0.23288305,0.421171,0.33807261,-0.19642154,0.423818,0.3402971,-0.1783187,0.425142,0.35347582,-0.16755118,0.440335,0.37214919,-0.23629449,0.431057,0.35678582,-0.19137735,0.405332,0.35495698,-0.17596011,0.390325,0.35586672,-0.17441643,0.379606,0.3982298,-0.24352547,0.440744,0.38217702,-0.20067753,0.41344,0.38300645,-0.20430855,0.399471,0.39350005,-0.22618212,0.404843,0.43272018,-0.26015421,0.454868,0.42528216,-0.22223842,0.43053,0.42101311,-0.22624411,0.419347,0.41087667,-0.23351892,0.40948
0.40780724,-0.33563371,0.463441,0.38934998,-0.27886856,0.445413,0.37916412,-0.32019458,0.45207,0.34297894,-0.28432087,0.426686,0.30951897,-0.25549099,0.405839,0.29348661,-0.23438537,0.396183,0.34333133,-0.23291086,0.421107,0.33907026,-0.1968321,0.424355,0.34247329,-0.17828509,0.425978,0.35586084,-0.16759673,0.441338,0.37222474,-0.23622656,0.43069,0.3565997,-0.19107564,0.40469,0.35462461,-0.17599162,0.389523,0.35523206,-0.17442536,0.378689,0.3981206,-0.24339434,0.440153,0.38331779,-0.20083091,0.412692,0.38254451,-0.20454431,0.398642,0.39296044,-0.22646601,0.404029,0.432418,-0.25997185,0.45406,0.4252055,-0.22424807,0.429559,0.42054015,-0.22686234,0.418302,0.40977881,-0.23615334,0.40837
0.40929103,-0.33537164,0.463461,0.38952143,-0.27893007,0.445295,0.38074333,-0.32011766,0.452151,0.34332137,-0.28445753,0.426999,0.30990924,-0.25551393,0.406201,0.29443329,-0.23450148,0.396471,0.34350506,-0.23289578,0.420994,0.33951969,-0.19697253,0.424409,0.34300934,-0.17862229,0.426116,0.3565122,-0.16778749,0.441526,0.37232127,-0.23620096,0.430461,0.35656926,-0.19090812,0.404333,0.35449598,-0.1760585,0.389091,0.35491315,-0.1744608,0.378205,0.39815621,-0.24336789,0.43984,0.3832386,-0.20103964,0.412298,0.38232615,-0.20471712,0.398206,0.39268181,-0.22666243,0.403587,0.43239765,-0.2599591,0.453671,0.42511564,-0.22461564,0.429091,0.42032142,-0.22718127,0.417797,0.40946231,-0.23643791,0.407832
0.41232394,-0.33599001,0.465102,0.39138957,-0.27925816,0.44628,0.38405773,-0.32129487,0.454184,0.34831016,-0.28760813,0.429155,0.31471577,-0.25862006,0.407464,0.29615183,-0.23554739,0.39781,0.34470797,-0.23370394,0.422121,0.34161505,-0.19724068,0.425353,0.34383839,-0.17916878,0.426968,0.35709511,-0.16818051,0.442629,0.37296785,-0.23643549,0.43091,0.35646986,-0.19060717,0.404177,0.35407396,-0.17618265,0.388584,0.3540954,-0.17531282,0.377445,0.39876545,-0.2429302,0.439788,0.38328998,-0.20133847,0.411903,0.38221348,-0.20494076,0.397637,0.39285143,-0.22683627,0.40303,0.43321913,-0.25820745,0.453134,0.42529473,-0.23399269,0.428202,0.41857737,-0.24044945,0.416747,0.40650446,-0.24862284,0.40664
0.4149488,-0.33614681,0.466234,0.39233924,-0.27957439,0.44691,0.3864159,-0.32158487,0.455097,0.3498138,-0.28794709,0.430034,0.31502464,-0.25915109,0.408656,0.29743411,-0.23644527,0.398952,0.34499491,-0.2338588,0.422198,0.34207807,-0.19740542,0.425435,0.34410723,-0.17924148,0.427054,0.35720576,-0.16808857,0.442606,0.3737504,-0.23634583,0.43113,0.35614187,-0.19044351,0.403937,0.35401549,-0.17834949,0.388074,0.35232059,-0.18344922,0.376743,0.39968336,-0.24271189,0.44017,0.38320495,-0.20127652,0.411813,0.38186738,-0.20456395,0.397305,0.39250436,-0.22620197,0.402389,0.43412075,-0.25826575,0.453784,0.42566199,-0.22900318,0.428469,0.41960622,-0.2345848,0.416838,0.40804961,-0.24174616,0.406576
0.41702426,-0.33652756,0.467235,0.39312104,-0.27985069,0.447434,0.38831847,-0.32206915,0.456026,0.35067624,-0.28884361,0.430678,0.31526502,-0.26011762,0.40897,0.2987131,-0.23950603,0.398839,0.34566809,-0.2339471,0.422372,0.34237186,-0.19752022,0.425467,0.34418578,-0.17925374,0.427014,0.35718662,-0.1679867,0.442512,0.37401944,-0.23640988,0.431265,0.35601117,-0.19000564,0.403636,0.35214486,-0.18260191,0.38752,0.35096793,-0.18833134,0.376008,0.39963851,-0.24294671,0.440314,0.38295086,-0.20111003,0.411567,0.38139894,-0.20412947,0.39686,0.39205823,-0.22557224,0.401728,0.43455387,-0.25816843,0.454013,0.42558614,-0.22902642,0.428368,0.41934418,-0.23427063,0.416586,0.40766723,-0.24177178,0.406189
0.41824677,-0.33644581,0.46735,0.39395992,-0.27982643,0.447535,0.38966382,-0.32230655,0.456365,0.35282747,-0.28953833,0.430926,0.31620303,-0.26105986,0.409048,0.29927464,-0.24088561,0.399312,0.34646002,-0.23428553,0.422749,0.34269334,-0.19778299,0.425546,0.34427254,-0.17939387,0.426945,0.35729283,-0.16806917,0.442512,0.37456444,-0.23641674,0.431354,0.35619417,-0.18986693,0.403713,0.35271223,-0.18147006,0.38759,0.35163409,-0.18628835,0.376073,0.39998917,-0.24267637,0.440167,0.38295194,-0.2011832,0.411502,0.38143205,-0.20433783,0.396836,0.39217014,-0.22585678,0.401832,0.43412237,-0.25828153,0.453592,0.42531657,-0.23276849,0.427989,0.41824315,-0.24073396,0.416225,0.40663185,-0.24574762,0.405845
0.4194455,-0.33651443,0.467674,0.394689,-0.27985279,0.447729,0.39083522,-0.32255451,0.456742,0.35331914,-0.29001029,0.431054,0.31688892,-0.26192613,0.409263,0.29967112,-0.24221194,0.400011,0.34692798,-0.23449831,0.42294,0.34306833,-0.19806134,0.425755,0.3445615,-0.17962043,0.427162,0.35810759,-0.16799633,0.442744,0.37493207,-0.23641636,0.431441,0.35610899,-0.18964627,0.403683,0.35268427,-0.18168873,0.387491,0.35160626,-0.18652292,0.375925,0.40030481,-0.24250158,0.44018,0.38294251,-0.20123637,0.411439,0.38137891,-0.20446179,0.396734,0.3920633,-0.22597114,0.401714,0.43443833,-0.25789875,0.453538,0.42523696,-0.23326898,0.427862,0.41814586,-0.24083701,0.416065,0.40635282,-0.24635618,0.405656
0.41955453,-0.33697241,0.467778,0.39474683,-0.28000705,0.447453,0.39065373,-0.3226281,0.456503,0.34915543,-0.28711004,0.431516,0.31566408,-0.25777797,0.410536,0.2988772,-0.23665811,0.400601,0.34662507,-0.2341393,0.422021,0.34327444,-0.19794794,0.425336,0.34483284,-0.17957495,0.426993,0.35831236,-0.1679354,0.442702,0.37544297,-0.23687735,0.430856,0.35841141,-0.19044661,0.40275,0.35793206,-0.18877178,0.386355,0.35393485,-0.19746571,0.374644,0.40117174,-0.24316072,0.439903,0.38339215,-0.20228748,0.410734,0.381977,-0.20697569,0.39581,0.39151761,-0.22776056,0.400445,0.43597027,-0.26033442,0.453682,0.42528754,-0.23251557,0.427678,0.41833174,-0.23802726,0.41573,0.40622796,-0.24625177,0.405188
0.41974696,-0.33784664,0.468118,0.39525727,-0.28075881,0.447724,0.3912441,-0.32364546,0.457306,0.34890903,-0.28827256,0.432311,0.31616898,-0.25920818,0.411137,0.29913837,-0.23924131,0.400783,0.34803554,-0.23527311,0.422843,0.3444909,-0.19844186,0.425358,0.34556471,-0.17982431,0.426616,0.35871413,-0.1680225,0.442425,0.37596962,-0.23732167,0.43107,0.35920154,-0.19140858,0.402906,0.35763517,-0.19049973,0.386477,0.35331791,-0.19922945,0.374743,0.40391568,-0.24640954,0.439622,0.38524002,-0.20551336,0.410594,0.38302568,-0.21193352,0.395742,0.39305883,-0.23169184,0.400623,0.43771164,-0.26400106,0.452833,0.42482763,-0.23439643,0.426892,0.41760445,-0.24018649,0.414973,0.40545808,-0.24828361,0.404456
0.42085492,-0.33911388,0.469405,0.3961448,-0.28146362,0.448385,0.39187251,-0.32435714,0.458084,0.34916665,-0.28842739,0.432687,0.31626157,-0.25895617,0.411505,0.2992148,-0.23951813,0.400903,0.34799865,-0.2348716,0.422513,0.34455329,-0.19804621,0.425043,0.34574584,-0.17954444,0.426308,0.35910728,-0.16787955,0.441983,0.37637936,-0.23738222,0.431219,0.36162404,-0.19337238,0.402484,0.35936327,-0.19742179,0.385721,0.35272637,-0.20380374,0.373748,0.40212154,-0.24402117,0.440221,0.38540988,-0.20580293,0.410511,0.38264678,-0.21256867,0.39531,0.39154466,-0.23202036,0.399654,0.43750095,-0.26323371,0.454055,0.42565078,-0.23497102,0.427587,0.41808617,-0.24064535,0.415426,0.40586659,-0.24701005,0.404695
0.41175834,-0.33217965,0.459657,0.39665891,-0.2818627,0.448886,0.3851961,-0.31899512,0.450632,0.34558645,-0.2865386,0.430045,0.31449687,-0.25850205,0.411806,0.29828217,-0.2374296,0.402505,0.35578665,-0.23974516,0.431524,0.35298517,-0.202161,0.434395,0.35591918,-0.18302263,0.43583,0.36729139,-0.1713099,0.451228,0.38452929,-0.24234148,0.44009,0.37989107,-0.20441257,0.42096,0.38262195,-0.21115459,0.409801,0.38101843,-0.22451445,0.402135,0.41036566,-0.24969018,0.448083,0.40217237,-0.21585989,0.427332,0.4036725,-0.22672568,0.416716,0.41630131,-0.24994204,0.425681,0.44389897,-0.26775303,0.459133,0.4383982,-0.24347219,0.440204,0.43406827,-0.2516876,0.431507,0.42664913,-0.26234062,0.425673
0.41273295,-0.3329295,0.460414,0.39761256,-0.2824622,0.449483,0.38675027,-0.3201965,0.452112,0.35026544,-0.28911915,0.431366,0.31829866,-0.26263382,0.41304,0.30079403,-0.24174234,0.403625,0.35744564,-0.24072566,0.432955,0.35409962,-0.20204032,0.434175,0.35776133,-0.18342889,0.434785,0.37196167,-0.17191105,0.450028,0.38631021,-0.24341159,0.440558,0.38362232,-0.20838302,0.421305,0.38431828,-0.22133508,0.410075,0.38095161,-0.23677906,0.403666,0.41191242,-0.25086137,0.44777,0.40334272,-0.21731073,0.427649,0.40475723,-0.22794526,0.417354,0.41713194,-0.25266603,0.426788,0.44318602,-0.26705835,0.457932,0.43829212,-0.24493339,0.439083,0.43335901,-0.25312741,0.430422,0.43767642,-0.27060258,0.43694
0.40938736,-0.33107516,0.456999,0.39599092,-0.28145431,0.44726,0.38427177,-0.31857781,0.449525,0.34706503,-0.28739283,0.429641,0.31554701,-0.26045173,0.41175,0.29935853,-0.24114966,0.402794,0.35920865,-0.23965918,0.432434,0.35590849,-0.20131635,0.433792,0.35826735,-0.18352923,0.43447,0.37281313,-0.17229741,0.449938,0.38694574,-0.24306311,0.439307,0.37947307,-0.20173196,0.421246,0.38333941,-0.21113861,0.41071,0.39286074,-0.23430698,0.420571,0.41122574,-0.25032725,0.445815,0.40593631,-0.21887297,0.427312,0.40778253,-0.23109454,0.417846,0.4194005,-0.25429745,0.428096,0.44146724,-0.26613763,0.454964,0.43754289,-0.24548711,0.437195,0.43291448,-0.25567644,0.429031,0.43775509,-0.27300484,0.436098
0.41221608,-0.33453717,0.460366,0.39711874,-0.28280353,0.448237,0.38614004,-0.32098019,0.45205,0.34716207,-0.28894544,0.431522,0.31321997,-0.26313713,0.412998,0.29843979,-0.24162184,0.404263,0.35739032,-0.24011693,0.431037,0.35747781,-0.20224308,0.432221,0.36017049,-0.18494568,0.432813,0.37409791,-0.17312162,0.448124,0.38692085,-0.24382031,0.438331,0.38005302,-0.2073303,0.417937,0.3715873,-0.22190592,0.40604,0.37729907,-0.24481779,0.414911,0.41163289,-0.2512141,0.445395,0.40588533,-0.23428453,0.423857,0.39522622,-0.2457858,0.412838,0.39758566,-0.2703514,0.421784,0.44325887,-0.26772555,0.45557,0.43375396,-0.24359136,0.435876,0.42868249,-0.25433013,0.426828,0.43469839,-0.27178928,0.433063
0.41304771,-0.33696654,0.462107,0.3969589,-0.28362958,0.448099,0.38684709,-0.32291809,0.453768,0.34823408,-0.2927041,0.433196,0.31420193,-0.26541848,0.414497,0.29942959,-0.24344731,0.404503,0.35582007,-0.24097574,0.429847,0.35728911,-0.20234848,0.431136,0.36015605,-0.18527571,0.431781,0.37533396,-0.17471349,0.447212,0.38500311,-0.24454641,0.43666,0.37571352,-0.21710534,0.414495,0.36588203,-0.23233853,0.401565,0.37045674,-0.25464429,0.409833,0.40979222,-0.25166643,0.443491,0.40258876,-0.23214296,0.420467,0.39148331,-0.24235598,0.408688,0.39324639,-0.26674062,0.417053,0.44265498,-0.26862175,0.453686,0.42793437,-0.2495358,0.432689,0.4203865,-0.26090979,0.423041,0.42840617,-0.27605969,0.428808
0.41134508,-0.3371588,0.46091,0.39646679,-0.28406261,0.447466,0.38553087,-0.32301406,0.452993,0.3464673,-0.29486602,0.431758,0.31353885,-0.26779245,0.414389,0.2990773,-0.24574028,0.405978,0.35669379,-0.24161546,0.430059,0.35803997,-0.20309668,0.42892,0.36029473,-0.18582347,0.42835,0.37735424,-0.17683195,0.443309,0.38516926,-0.24506966,0.436488,0.37786911,-0.21745038,0.414882,0.36872047,-0.23306679,0.402279,0.37348411,-0.25572992,0.410865,0.41039512,-0.25226321,0.442953,0.40325623,-0.24762519,0.420572,0.3877207,-0.26277337,0.409121,0.3878761,-0.27836318,0.417858,0.44309267,-0.26962732,0.452631,0.42913896,-0.25017394,0.432147,0.42172525,-0.26161129,0.422736,0.4277516,-0.2805922,0.428782
0.40950773,-0.3374654,0.459355,0.39599199,-0.28822681,0.445664,0.38409711,-0.32323176,0.451883,0.34642253,-0.29680189,0.431094,0.31443487,-0.27021109,0.414145,0.2970752,-0.24843439,0.405601,0.35689733,-0.24327807,0.428688,0.35942947,-0.20517548,0.429512,0.36407235,-0.19008188,0.429924,0.37953561,-0.17952141,0.445454,0.38467719,-0.2466053,0.434484,0.3765886,-0.21746045,0.412686,0.36824594,-0.2346816,0.39997,0.37158739,-0.25539767,0.408605,0.40921521,-0.25462718,0.44045,0.40123962,-0.24795174,0.418094,0.38578798,-0.26298231,0.406656,0.38636398,-0.27871579,0.415509,0.44072924,-0.27123258,0.449581,0.42817625,-0.25231941,0.429068,0.42054951,-0.26719473,0.419643,0.42513893,-0.28048023,0.425763
0.40885372,-0.33807807,0.458447,0.39576816,-0.28858127,0.445108,0.38350604,-0.323784,0.451109,0.34627771,-0.2971199,0.43055,0.31429879,-0.27059929,0.413656,0.29704198,-0.24889115,0.404998,0.35705441,-0.24380137,0.428496,0.35993227,-0.20604666,0.429872,0.36453441,-0.19105866,0.43056,0.38036311,-0.18074416,0.446217,0.38479327,-0.24710886,0.434215,0.37701613,-0.2180812,0.412759,0.36831459,-0.2357168,0.400243,0.37205407,-0.25619879,0.409032,0.40933338,-0.25504912,0.440088,0.4013395,-0.2485357,0.418073,0.38606893,-0.26368097,0.40681,0.38688875,-0.27957436,0.415833,0.44070356,-0.27156309,0.449055,0.42805383,-0.25317307,0.428825,0.42043726,-0.26712342,0.419531,0.42535575,-0.28142049,0.425781
0.40906833,-0.33900453,0.458057,0.39535769,-0.28874978,0.444149,0.38331641,-0.32438309,0.45037,0.34663977,-0.29954283,0.429292,0.31550146,-0.27634427,0.410103,0.29760601,-0.25252085,0.401702,0.35709291,-0.24620957,0.426782,0.36116049,-0.20955964,0.430888,0.36599537,-0.19454178,0.432941,0.38319267,-0.1843654,0.449081,0.38516076,-0.24957638,0.432792,0.37615791,-0.2183508,0.410772,0.36589334,-0.23667583,0.397927,0.36987412,-0.2552737,0.406429,0.40933403,-0.25575914,0.438952,0.39987543,-0.24818104,0.416322,0.3844727,-0.26304749,0.404744,0.38515034,-0.27875392,0.413436,0.44117507,-0.27236096,0.448346,0.42731424,-0.25485008,0.427617,0.41939642,-0.26655082,0.418093,0.42470812,-0.28223474,0.424093
0.40864594,-0.33974577,0.457027,0.39529863,-0.28904022,0.443728,0.38299608,-0.32520573,0.449547,0.34651868,-0.2998306,0.428834,0.31521219,-0.27609091,0.409727,0.29749925,-0.25303798,0.400643,0.35733567,-0.24673378,0.426955,0.36121743,-0.21012501,0.43109,0.36597736,-0.19515465,0.433157,0.38306547,-0.18521574,0.449314,0.38533101,-0.24994162,0.432867,0.37676135,-0.21911689,0.411435,0.36685343,-0.23756901,0.398932,0.37115054,-0.25653875,0.407694,0.40949442,-0.25611424,0.438895,0.40050331,-0.24890231,0.41684,0.38546332,-0.26399978,0.405556,0.38646653,-0.27996856,0.414531,0.44115423,-0.27247499,0.448037,0.42759916,-0.25515114,0.427789,0.41999118,-0.26697326,0.418486,0.42555726,-0.28304641,0.424704
0.40788122,-0.33977456,0.455513,0.3953951,-0.28922894,0.443781,0.38255262,-0.32556472,0.448488,0.3461473,-0.29895374,0.428643,0.3143854,-0.27395803,0.410404,0.29728768,-0.25310384,0.399947,0.35760318,-0.24534521,0.428443,0.36059935,-0.2080525,0.430535,0.36508768,-0.19339095,0.431581,0.38176161,-0.18464342,0.447356,0.38542233,-0.24853824,0.434201,0.37942266,-0.22085575,0.414284,0.37030821,-0.24001658,0.402666,0.37510121,-0.25943026,0.412059,0.40976805,-0.25545574,0.439964,0.40285737,-0.25060771,0.419363,0.38834656,-0.26629286,0.408823,0.38989302,-0.28289804,0.418476,0.44108656,-0.27223455,0.448553,0.42912172,-0.25702861,0.42953,0.4222093,-0.2692928,0.42079,0.42853961,-0.28667503,0.427533
0.40654043,-0.33978119,0.454027,0.39470415,-0.28884628,0.442915,0.38117349,-0.32541013,0.446948,0.34570897,-0.29886495,0.427183,0.31389719,-0.2730223,0.408947,0.297681,-0.25329363,0.396674,0.35718955,-0.24517462,0.427846,0.36131923,-0.20892772,0.430687,0.36613698,-0.19487803,0.432108,0.3831485,-0.18659609,0.447979,0.38533454,-0.24907671,0.433841,0.37992771,-0.22115232,0.414505,0.37115457,-0.24051439,0.403226,0.37591254,-0.25999187,0.412798,0.40978124,-0.25610193,0.439747,0.40329128,-0.25095669,0.419607,0.38890828,-0.26678863,0.409304,0.39050598,-0.28356581,0.419118,0.4409318,-0.27221671,0.448404,0.42945541,-0.25782107,0.429795,0.4226864,-0.27022394,0.421244,0.42899225,-0.28722467,0.42812
0.40382994,-0.33848453,0.450984,0.39382746,-0.28798593,0.441496,0.37870799,-0.32410264,0.444062,0.34664506,-0.29762421,0.424858,0.31803236,-0.27233977,0.407377,0.29977653,-0.25381676,0.398372,0.36330641,-0.24378457,0.427511,0.3633302,-0.20780774,0.430043,0.36881675,-0.19390608,0.431308,0.38341343,-0.18656077,0.447116,0.38808673,-0.25062041,0.433748,0.38377554,-0.22292802,0.415972,0.37789939,-0.24247865,0.405602,0.38055339,-0.26310984,0.415705,0.41169559,-0.25746146,0.439711,0.40535086,-0.25269085,0.420939,0.3911377,-0.26887179,0.411335,0.39295812,-0.28509344,0.42168,0.44209325,-0.27340026,0.448183,0.43122649,-0.2566842,0.43076,0.43132889,-0.26786609,0.422755,0.4398061,-0.28412031,0.430055
0.40282505,-0.33843178,0.449936,0.3935156,-0.2882458,0.440773,0.37733077,-0.32350578,0.442373,0.34747734,-0.29550184,0.422532,0.32051253,-0.26921971,0.405094,0.30299762,-0.24900502,0.395848,0.35782286,-0.24543356,0.426148,0.36547968,-0.20806181,0.42984,0.37585695,-0.19714983,0.431686,0.39139719,-0.18987362,0.447419,0.38673592,-0.24977212,0.433291,0.38596594,-0.22276878,0.415777,0.3813834,-0.24217513,0.40556,0.38150388,-0.26291975,0.415556,0.41179282,-0.25752392,0.439971,0.4088177,-0.25425364,0.421151,0.39196239,-0.26955102,0.411522,0.39311665,-0.28495805,0.421661,0.4433462,-0.27434846,0.449231,0.43282544,-0.2572264,0.431845,0.43261832,-0.26872859,0.423856,0.44002659,-0.28393623,0.431021
0.40155963,-0.33746222,0.447911,0.39367783,-0.28833575,0.440133,0.37580567,-0.32212287,0.439801,0.34976523,-0.29234966,0.419717,0.32667846,-0.26477324,0.402363,0.30935017,-0.24426926,0.394483,0.36161398,-0.24380768,0.425565,0.36787621,-0.20807321,0.430203,0.37784771,-0.19730112,0.432522,0.39883694,-0.19143643,0.448156,0.38821793,-0.25023481,0.433781,0.395392,-0.22622845,0.417576,0.38973572,-0.24680411,0.408123,0.3906055,-0.26487601,0.4183,0.41327831,-0.2583719,0.441222,0.41542333,-0.25601183,0.423273,0.39866239,-0.27149187,0.41409,0.39597674,-0.2865784,0.424304,0.4453343,-0.27574479,0.45116,0.43891901,-0.25804004,0.434614,0.43685035,-0.27050558,0.427012,0.44365343,-0.28553795,0.434272
0.40127596,-0.33735544,0.447134,0.39401986,-0.28858501,0.439861,0.37562844,-0.32192316,0.438985,0.34986828,-0.29175381,0.418992,0.32613368,-0.2643317,0.401692,0.30985534,-0.24355575,0.393633,0.36178748,-0.24386624,0.425519,0.36824799,-0.20832435,0.430288,0.37840039,-0.19729321,0.432673,0.39963267,-0.19139276,0.448274,0.38872425,-0.25031173,0.433921,0.39598948,-0.2265703,0.418207,0.39061236,-0.24735925,0.409041,0.39220348,-0.26587746,0.419333,0.4137648,-0.25861137,0.441473,0.41676494,-0.25626467,0.423919,0.4001533,-0.27189838,0.414937,0.39742695,-0.2874593,0.425251,0.44569778,-0.27610234,0.45146,0.44006898,-0.25835514,0.43527,0.43819212,-0.2709136,0.427832,0.44473101,-0.28586464,0.435177
0.39816504,-0.33419621,0.443278,0.39277002,-0.28698177,0.437927,0.37273495,-0.31866832,0.435031,0.34710831,-0.28336167,0.415454,0.3237541,-0.25606412,0.397486,0.30939495,-0.23815369,0.388076,0.36161603,-0.24204114,0.424507,0.36890525,-0.20791187,0.430543,0.3809576,-0.19699562,0.43356,0.40191016,-0.19172235,0.449186,0.39097865,-0.24910961,0.433558,0.39867404,-0.22663396,0.419731,0.39462956,-0.24793716,0.411666,0.3964031,-0.26796686,0.422384,0.41416469,-0.25842239,0.441476,0.4230623,-0.24825893,0.425464,0.40869459,-0.26512564,0.417272,0.40435732,-0.28579158,0.427961,0.44593874,-0.27613449,0.451592,0.44373239,-0.25819332,0.436788,0.44255456,-0.27109239,0.429986,0.44756304,-0.28681277,0.437652
0.39716255,-0.33267692,0.441572,0.39248517,-0.2860574,0.437016,0.37142968,-0.31667009,0.432694,0.34661065,-0.28196574,0.412687,0.32377087,-0.25465873,0.394434,0.31310957,-0.23305754,0.383463,0.3604168,-0.24120133,0.423224,0.36861761,-0.20740656,0.430177,0.38058711,-0.19702581,0.433653,0.40273864,-0.19162555,0.449083,0.39074283,-0.24845397,0.433294,0.40273704,-0.22523543,0.420251,0.40031185,-0.24629651,0.412643,0.40098691,-0.2692044,0.42326,0.414923,-0.25849079,0.441982,0.42452143,-0.2498153,0.426372,0.41025269,-0.26679134,0.418385,0.40594802,-0.28573176,0.428859,0.44715637,-0.27681891,0.452877,0.44598064,-0.25854854,0.438519,0.44514931,-0.27158601,0.431922,0.44968697,-0.28733256,0.439458
0.3960824,-0.33107901,0.439982,0.39244963,-0.28525269,0.436513,0.37155863,-0.31584949,0.432137,0.34768188,-0.2881631,0.413519,0.32527949,-0.26501413,0.394,0.31452459,-0.24523942,0.381813,0.3618934,-0.24181146,0.424632,0.36297542,-0.19942449,0.421688,0.37024988,-0.18312783,0.420216,0.38986965,-0.18419602,0.434,0.39108806,-0.24836782,0.433681,0.40718982,-0.22853342,0.422012,0.40537649,-0.25030278,0.415205,0.40500821,-0.27212115,0.426585,0.41454374,-0.25777126,0.441433,0.42591383,-0.25134736,0.427165,0.41348625,-0.26984167,0.419865,0.40887883,-0.2871646,0.431164,0.44449908,-0.27494944,0.451062,0.44722179,-0.27337497,0.437759,0.4619018,-0.29948065,0.452346,0.46618661,-0.31034634,0.463243
0.39527002,-0.32963847,0.438691,0.39234056,-0.28432762,0.435929,0.37089247,-0.31428404,0.430655,0.34775383,-0.28608973,0.412043,0.32694021,-0.26337273,0.392412,0.31654329,-0.24352832,0.3805,0.36172438,-0.24133125,0.424189,0.36156224,-0.19787552,0.41917,0.36817559,-0.18159719,0.41666,0.39072148,-0.17787147,0.429752,0.39107898,-0.24804862,0.433674,0.40831199,-0.22944783,0.422595,0.40579674,-0.25177022,0.416133,0.40582853,-0.27276408,0.427548,0.41495188,-0.25747532,0.441723,0.42701643,-0.25217384,0.427969,0.41430501,-0.26987253,0.420932,0.4104121,-0.28770381,0.432253,0.44459062,-0.27470952,0.451589,0.44825669,-0.27365104,0.438772,0.46283715,-0.29972232,0.453262,0.46685181,-0.31042747,0.463904
0.3962184,-0.32939943,0.43853,0.39232547,-0.28361967,0.435039,0.37148956,-0.31378489,0.429855,0.3545725,-0.29059311,0.410367,0.33440841,-0.26844742,0.39206,0.32355327,-0.2469655,0.382251,0.36025133,-0.24035048,0.422087,0.35869303,-0.19957697,0.418726,0.36552389,-0.18810685,0.417046,0.38766701,-0.18059266,0.43039,0.38916597,-0.24733484,0.432189,0.4045748,-0.22600108,0.420212,0.40288111,-0.24777417,0.413225,0.40331083,-0.27008518,0.424159,0.41434055,-0.25668918,0.440809,0.42572498,-0.25130302,0.426178,0.41367438,-0.26939915,0.418692,0.41026485,-0.28460171,0.429492,0.44347935,-0.27287929,0.451459,0.44962229,-0.26608849,0.437947,0.46639206,-0.29227959,0.452135,0.47073227,-0.30400724,0.462391
0.39697704,-0.32894351,0.438352,0.3925866,-0.28300739,0.434597,0.37211759,-0.31323972,0.429294,0.35212532,-0.28682533,0.40934,0.33073553,-0.26113854,0.390873,0.32109142,-0.24285767,0.378717,0.35968683,-0.23954838,0.421014,0.35396846,-0.19894709,0.416002,0.35805473,-0.18091853,0.413497,0.37780428,-0.1782404,0.426339,0.38902765,-0.24662736,0.431531,0.40187321,-0.21572781,0.419293,0.40411947,-0.23553959,0.412155,0.40703462,-0.26221411,0.422853,0.41350881,-0.25433738,0.440516,0.42529155,-0.25076021,0.425511,0.41327496,-0.2686264,0.417833,0.40959425,-0.28366073,0.428343,0.44285451,-0.27149317,0.451635,0.44597029,-0.25853908,0.437844,0.46589478,-0.28581476,0.451836,0.47217479,-0.30158479,0.462115
0.39759854,-0.32837161,0.437933,0.39241094,-0.28234613,0.433959,0.37260873,-0.31280348,0.428561,0.3515921,-0.28573356,0.408226,0.3300962,-0.25981868,0.389213,0.32008588,-0.24096444,0.377203,0.35905263,-0.23844258,0.419856,0.35238983,-0.19782637,0.414371,0.35612006,-0.17963713,0.411629,0.37589112,-0.17257678,0.42424,0.38821627,-0.24588952,0.430714,0.40100317,-0.21502562,0.418264,0.40315326,-0.2347188,0.411001,0.4061313,-0.2599902,0.421499,0.41295261,-0.25380407,0.44,0.42477933,-0.24974706,0.424688,0.41415904,-0.26714522,0.416854,0.40905455,-0.28251446,0.427117,0.44274321,-0.27093901,0.451504,0.44723069,-0.25680135,0.437485,0.46664042,-0.28264357,0.451309,0.47178802,-0.30056299,0.461604
0.39008867,-0.32008642,0.427821,0.3895164,-0.27790786,0.429303,0.36699434,-0.30640905,0.420128,0.35464703,-0.27881292,0.403177,0.33859247,-0.25486062,0.387095,0.33039561,-0.23527806,0.378683,0.35912872,-0.23934839,0.42031,0.35007903,-0.19634206,0.412256,0.35277212,-0.17823637,0.408229,0.37186606,-0.17153595,0.420023,0.38797968,-0.24439032,0.430513,0.4057506,-0.21762889,0.42358,0.41159007,-0.23954456,0.419535,0.41713405,-0.26355558,0.431829,0.41130978,-0.25159431,0.438783,0.42904163,-0.25175119,0.428802,0.42238923,-0.27054263,0.423696,0.41823319,-0.28810391,0.435895,0.43996153,-0.26381241,0.448246,0.44898645,-0.25705865,0.438767,0.46883303,-0.28340635,0.453231,0.47266079,-0.30001248,0.462176
0.39550166,-0.32236444,0.431983,0.39124765,-0.27839734,0.430711,0.37275581,-0.30950647,0.424902,0.35849877,-0.28112839,0.407736,0.33852195,-0.25423979,0.387424,0.32842584,-0.23335161,0.37695,0.36004573,-0.23951274,0.420998,0.34779115,-0.19467068,0.40962,0.34864249,-0.17573592,0.40393,0.36136262,-0.16622483,0.408857,0.38719683,-0.24351684,0.429673,0.40321721,-0.21581048,0.421135,0.40825842,-0.23712504,0.416155,0.41416001,-0.26106212,0.428545,0.40973057,-0.24767039,0.436925,0.42577978,-0.24791902,0.425461,0.41905093,-0.26642876,0.419596,0.41553292,-0.28503657,0.431917,0.43816765,-0.25856232,0.445624,0.4446089,-0.25289439,0.434168,0.46482208,-0.27933855,0.449057,0.46969014,-0.29514424,0.458862
0.39787568,-0.32168417,0.432429,0.39245226,-0.27724945,0.430193,0.37564009,-0.30930991,0.424981,0.35883239,-0.28109194,0.407141,0.3386841,-0.25447375,0.386036,0.32832988,-0.23363838,0.374942,0.35888112,-0.23894759,0.419489,0.34538385,-0.19329691,0.407177,0.34480109,-0.17398659,0.401022,0.35933946,-0.16554756,0.407292,0.38599887,-0.24202865,0.428368,0.40105795,-0.21452813,0.4189,0.40607687,-0.23530692,0.413377,0.41234249,-0.25919867,0.425439,0.40921494,-0.24470844,0.435873,0.42555856,-0.24405217,0.423588,0.41917137,-0.26253963,0.417303,0.41788667,-0.28070008,0.429294,0.43815478,-0.2568289,0.445019,0.44495489,-0.25031622,0.432741,0.46393855,-0.27721248,0.44749,0.468954,-0.29189639,0.45753
0.40651072,-0.32233804,0.43568,0.39118087,-0.27136777,0.425539,0.38201842,-0.31097735,0.427439,0.36052611,-0.28120176,0.406614,0.33776061,-0.25238873,0.379868,0.3215608,-0.22838219,0.365604,0.35000374,-0.23308706,0.409518,0.33069213,-0.18571522,0.390452,0.3265604,-0.16553951,0.380919,0.33540671,-0.15552974,0.384236,0.37540241,-0.23339344,0.417258,0.37234305,-0.20490156,0.398765,0.37919966,-0.21930551,0.387977,0.38576928,-0.24190327,0.397463,0.39844124,-0.23651312,0.424515,0.40092857,-0.21669356,0.404596,0.39380626,-0.23272796,0.394405,0.39504801,-0.25016552,0.403947,0.42919974,-0.24639392,0.434605,0.4283106,-0.23875534,0.416331,0.44865286,-0.26234558,0.430519,0.45674844,-0.27538287,0.442452
0.40295681,-0.3193124,0.43199,0.38880173,-0.26896495,0.422785,0.37674505,-0.30715603,0.422822,0.36444227,-0.2771568,0.401244,0.3393369,-0.24855796,0.374066,0.32389841,-0.22619471,0.358686,0.34663951,-0.23091552,0.406093,0.32632199,-0.18416405,0.386669,0.32193453,-0.16504842,0.376957,0.33014476,-0.15521201,0.379429,0.37292098,-0.23112966,0.415268,0.37273318,-0.20378456,0.397647,0.37986117,-0.21987495,0.387368,0.38551819,-0.24128002,0.396748,0.39708079,-0.2354184,0.423625,0.40042968,-0.21640568,0.404055,0.39360214,-0.23246551,0.394042,0.39442786,-0.24989419,0.403321,0.42905142,-0.24616416,0.434858,0.42752914,-0.23579219,0.417014,0.44971649,-0.25910385,0.430868,0.45751845,-0.27403444,0.44252
0.40536731,-0.31993811,0.433593,0.38942378,-0.26888348,0.423429,0.37933306,-0.30748344,0.423895,0.36270233,-0.27689891,0.401518,0.33776236,-0.2479705,0.374452,0.32489941,-0.22540688,0.358579,0.34569165,-0.23045911,0.405539,0.32432874,-0.18347232,0.384825,0.31964997,-0.16649409,0.374469,0.32740881,-0.1550241,0.376531,0.37235966,-0.23067028,0.415129,0.37207912,-0.20305087,0.396573,0.37812473,-0.21871663,0.385749,0.38375454,-0.23983968,0.394641,0.39698677,-0.23516263,0.423911,0.39746329,-0.20639142,0.403342,0.39305418,-0.22060108,0.392818,0.39399341,-0.24497084,0.401544,0.42968877,-0.24643431,0.435793,0.42740084,-0.23525687,0.417135,0.449342,-0.25840866,0.430683,0.45772914,-0.27328209,0.442503
0.40735039,-0.3189815,0.433665,0.38901707,-0.26737072,0.422927,0.38076154,-0.30687702,0.423761,0.36233809,-0.27600638,0.401027,0.33726917,-0.24699343,0.373958,0.3231997,-0.22487686,0.358264,0.34184421,-0.2284648,0.404462,0.32161944,-0.18271647,0.383226,0.3172181,-0.16575188,0.372608,0.32355491,-0.15520771,0.373292,0.36960842,-0.22876494,0.414157,0.37027907,-0.20173612,0.395046,0.37457099,-0.21569041,0.383897,0.38176383,-0.23824403,0.392541,0.39470921,-0.23289011,0.423076,0.39506663,-0.20465987,0.401958,0.39052996,-0.2186702,0.391153,0.39265162,-0.23914137,0.399608,0.42834705,-0.24480809,0.435208,0.42543537,-0.23274411,0.416092,0.44744925,-0.25579407,0.429504,0.45722069,-0.27029633,0.441432
0.40979459,-0.31453912,0.431707,0.38727064,-0.26436576,0.421148,0.38062766,-0.30342401,0.421096,0.36164217,-0.2728819,0.397691,0.33626552,-0.24409695,0.370662,0.32509831,-0.22181416,0.354523,0.33869595,-0.22560124,0.40188,0.31127344,-0.18205767,0.380374,0.30705853,-0.16625034,0.369621,0.31658513,-0.15589211,0.367348,0.36705454,-0.22668053,0.412525,0.36866704,-0.2003414,0.393597,0.3730925,-0.21422064,0.382556,0.38023159,-0.2368109,0.390909,0.39272646,-0.23139113,0.42221,0.39326986,-0.20318398,0.400959,0.3890282,-0.21703552,0.390087,0.39095789,-0.23730506,0.398135,0.42718822,-0.24392843,0.435211,0.42060317,-0.22130058,0.416078,0.44430583,-0.24323373,0.429126,0.45547861,-0.26376697,0.440919
0.4103413,-0.31406765,0.431823,0.38696549,-0.26371596,0.420945,0.38068263,-0.30265368,0.420736,0.36154614,-0.2720325,0.396778,0.33604495,-0.24338817,0.369723,0.32533253,-0.22127382,0.353514,0.33758291,-0.22465029,0.400898,0.31035805,-0.18128905,0.378909,0.30598473,-0.16548274,0.367914,0.31407239,-0.15560378,0.365151,0.36631958,-0.2259974,0.412063,0.36790154,-0.19954671,0.392843,0.37217573,-0.21328652,0.381632,0.37943258,-0.23548545,0.389653,0.3923841,-0.23092326,0.422203,0.39365967,-0.20522498,0.400516,0.38875395,-0.22071536,0.389421,0.38905057,-0.24044555,0.397067,0.42745094,-0.24372584,0.435788,0.41550633,-0.21154688,0.416337,0.44062914,-0.23104056,0.429095,0.4548236,-0.25031108,0.440887
0.40973693,-0.31262695,0.430567,0.38563394,-0.26254521,0.419646,0.38089749,-0.30069928,0.41929,0.36089501,-0.27087114,0.395135,0.33463046,-0.24260736,0.367977,0.32704002,-0.22161217,0.351398,0.33571958,-0.22385749,0.399334,0.3086804,-0.18170276,0.377214,0.3040311,-0.16585101,0.366154,0.30696798,-0.15597916,0.361418,0.3633591,-0.22424139,0.410729,0.36529244,-0.19810192,0.391477,0.37056238,-0.21229016,0.380246,0.37828506,-0.23404313,0.388154,0.38950272,-0.22885465,0.421062,0.39155352,-0.20881198,0.399272,0.3871899,-0.22622593,0.388124,0.38775495,-0.24117268,0.395625,0.42490768,-0.2411776,0.43488,0.41356933,-0.21099544,0.415366,0.43892424,-0.23005516,0.428007,0.45433401,-0.24950594,0.439777
0.41049246,-0.31100028,0.430217,0.38400592,-0.26071481,0.418486,0.380996,-0.2991632,0.418515,0.36004662,-0.26938641,0.393739,0.33362454,-0.24143708,0.366433,0.3287591,-0.2202878,0.349536,0.33222522,-0.22195645,0.397189,0.30445863,-0.18274243,0.374272,0.29447434,-0.16518602,0.362814,0.29728815,-0.15393688,0.357644,0.36040744,-0.22242835,0.408906,0.35961389,-0.1953236,0.38889,0.36636087,-0.20986531,0.377214,0.37363856,-0.23028033,0.384671,0.38494952,-0.22566397,0.419575,0.38858099,-0.20753911,0.396975,0.38363517,-0.22186301,0.385412,0.38462873,-0.23838416,0.392407,0.4208909,-0.23655322,0.433914,0.40634168,-0.20353334,0.413745,0.43191016,-0.22108556,0.42608,0.45177124,-0.2446647,0.437961
0.40995583,-0.3081669,0.428387,0.38102139,-0.25786617,0.416525,0.37996711,-0.29674592,0.416384,0.37149258,-0.26385556,0.391288,0.33375566,-0.23794807,0.363973,0.3261359,-0.21636322,0.347157,0.32221294,-0.22334759,0.394775,0.29096799,-0.18518701,0.371612,0.28345613,-0.16945967,0.360031,0.28555515,-0.16118162,0.35189,0.34983959,-0.2207093,0.406839,0.34855744,-0.19415973,0.386718,0.35817223,-0.20780806,0.374981,0.36463005,-0.2251859,0.382228,0.37578485,-0.22200751,0.417806,0.37795638,-0.20464576,0.394998,0.37866843,-0.21933846,0.383329,0.38207105,-0.23685144,0.390066,0.41213589,-0.22992309,0.432513,0.39618227,-0.19977037,0.412206,0.42225201,-0.21647598,0.424339,0.44537253,-0.2376727,0.43619
0.40647658,-0.30342249,0.423843,0.38343107,-0.2591183,0.420198,0.37863949,-0.29432758,0.414291,0.37394791,-0.26600385,0.393876,0.34503592,-0.24792746,0.378317,0.34005269,-0.22865031,0.365697,0.33029494,-0.23000334,0.406045,0.31067246,-0.19843864,0.390129,0.30568392,-0.18359328,0.388039,0.31196629,-0.17646825,0.38614,0.35750335,-0.22625983,0.417222,0.36417474,-0.20367073,0.405109,0.37583236,-0.22056177,0.398043,0.38808901,-0.24135393,0.408514,0.38249346,-0.22634095,0.42674,0.39290799,-0.21319994,0.41164,0.39713057,-0.22907494,0.403915,0.40592732,-0.25141244,0.414114,0.41651786,-0.23222476,0.438467,0.40717775,-0.20560798,0.424664,0.43525327,-0.22362156,0.438377,0.45353099,-0.24181124,0.448552
0.40571551,-0.30126931,0.422659,0.38220249,-0.25832176,0.41946,0.37807578,-0.29283311,0.413384,0.37334885,-0.26586594,0.393377,0.34416804,-0.24761029,0.377541,0.33820391,-0.22761832,0.364788,0.32980161,-0.22999052,0.405902,0.30742174,-0.19668805,0.390467,0.30210542,-0.18228214,0.385508,0.30544764,-0.17349455,0.381,0.35679135,-0.2259971,0.416848,0.36460485,-0.20508116,0.405176,0.37499224,-0.22379627,0.398367,0.38635117,-0.24352149,0.409066,0.38157216,-0.22584393,0.426137,0.39242793,-0.21315307,0.41152,0.39674891,-0.22923389,0.404041,0.40619381,-0.25023138,0.414504,0.41529513,-0.2313939,0.437526,0.4063355,-0.20527836,0.424114,0.43452901,-0.22342895,0.437971,0.4526833,-0.24151082,0.448064
0.40525626,-0.29924058,0.421736,0.37967754,-0.25675356,0.418393,0.37780616,-0.29164429,0.412655,0.37241465,-0.2653915,0.3928,0.34270485,-0.24593161,0.37568,0.33635552,-0.22549546,0.362249,0.32862252,-0.23014578,0.405004,0.30423394,-0.19873201,0.389568,0.2981837,-0.1874248,0.381851,0.29540084,-0.17243353,0.375833,0.35512916,-0.22561745,0.415662,0.36305014,-0.2052433,0.403839,0.37356482,-0.22395524,0.396942,0.38479694,-0.24354345,0.407711,0.3795418,-0.22500756,0.424729,0.39057582,-0.21258274,0.410062,0.39492182,-0.2284594,0.402559,0.40458948,-0.24927191,0.413126,0.41205161,-0.22939228,0.435878,0.404153,-0.20449906,0.422394,0.43242757,-0.22276678,0.436363,0.45052252,-0.24070316,0.446525
0.40273763,-0.29535704,0.41857,0.37508327,-0.25413754,0.415966,0.37531827,-0.28851869,0.40943,0.35814318,-0.26555988,0.389739,0.33570816,-0.24054299,0.36732,0.32995337,-0.21919707,0.35197,0.3231821,-0.23133674,0.402904,0.29300503,-0.19950296,0.387986,0.28556365,-0.18445603,0.380526,0.27871253,-0.17023881,0.373745,0.34878313,-0.22550707,0.413839,0.35450088,-0.20517301,0.402764,0.37090912,-0.22268516,0.396304,0.3832836,-0.24315365,0.407185,0.36952444,-0.22334864,0.423068,0.38190138,-0.20972794,0.409008,0.39049035,-0.22643958,0.401815,0.40274026,-0.24747239,0.412468,0.40240538,-0.22580786,0.434293,0.39499593,-0.2021985,0.421361,0.42361149,-0.21989339,0.435273,0.44678053,-0.23916396,0.445218
0.40412199,-0.29429076,0.419332,0.3745401,-0.25409813,0.416086,0.37639366,-0.28815028,0.409897,0.35811549,-0.26517674,0.389716,0.33534545,-0.24082389,0.36777,0.33034901,-0.21955178,0.352545,0.3196938,-0.23282801,0.402298,0.29402351,-0.20509738,0.38674,0.28686191,-0.19136199,0.378961,0.28028576,-0.17837093,0.371889,0.34462951,-0.22612065,0.413434,0.3520943,-0.20579248,0.401719,0.36539739,-0.22226475,0.394886,0.3801246,-0.24288827,0.405493,0.36816914,-0.22336027,0.422886,0.38025938,-0.21006545,0.408168,0.38623828,-0.2242383,0.400637,0.40049223,-0.24639227,0.410984,0.40123998,-0.22516388,0.434472,0.38762919,-0.19928029,0.420993,0.41687108,-0.21512324,0.43476,0.43892879,-0.23404608,0.444842
0.40402564,-0.29257965,0.418796,0.37355599,-0.25366175,0.415481,0.37635737,-0.28732821,0.409359,0.35768414,-0.26437832,0.389157,0.33458698,-0.24067409,0.367447,0.32918174,-0.21901543,0.352289,0.31899711,-0.23296117,0.401653,0.29351281,-0.2047341,0.386043,0.28633254,-0.19098955,0.378238,0.27973933,-0.17799079,0.371142,0.34378806,-0.22601923,0.412773,0.35101175,-0.2058015,0.400988,0.36450524,-0.22204473,0.394114,0.37896421,-0.24226731,0.404707,0.36723606,-0.22304579,0.422216,0.37936909,-0.20994597,0.407439,0.38541321,-0.2239096,0.399878,0.39897533,-0.24600107,0.410212,0.40024717,-0.22457112,0.433804,0.3870729,-0.19891433,0.420272,0.41631624,-0.21475393,0.434041,0.43756397,-0.23281059,0.444142
0.40306,-0.29004784,0.417337,0.37047532,-0.2520431,0.413239,0.37599312,-0.28622971,0.408512,0.35669064,-0.2613876,0.388693,0.33065449,-0.23560821,0.36963,0.32392694,-0.21228266,0.355135,0.31603785,-0.23356178,0.399767,0.28468324,-0.20858405,0.383919,0.27510729,-0.19619557,0.375995,0.26620552,-0.18450362,0.368792,0.33967148,-0.22522022,0.409894,0.33344769,-0.20262482,0.39731,0.34937486,-0.21592709,0.389969,0.36648918,-0.23503404,0.400708,0.36229773,-0.22103793,0.418588,0.36874279,-0.20906578,0.403385,0.37949013,-0.22163861,0.395607,0.39282261,-0.24173921,0.406202,0.39458997,-0.22103137,0.429419,0.3744246,-0.19473619,0.415418,0.40319774,-0.20857232,0.429137,0.42697238,-0.22433351,0.440083
0.40291592,-0.28791235,0.417176,0.36546582,-0.24975741,0.411571,0.37570539,-0.28494047,0.408096,0.35355115,-0.25554668,0.387583,0.32719073,-0.23232982,0.367165,0.31895337,-0.20844022,0.351926,0.30948827,-0.23301415,0.396951,0.27931092,-0.206374,0.379856,0.27018449,-0.19389468,0.371308,0.26226601,-0.18228012,0.363538,0.32922471,-0.22239611,0.406993,0.32412389,-0.19759689,0.392907,0.34059005,-0.20878736,0.384691,0.35947884,-0.22936197,0.394985,0.35089503,-0.21635011,0.41575,0.35913047,-0.20215267,0.39918,0.36717953,-0.21324118,0.390703,0.38236872,-0.2335779,0.400844,0.38281342,-0.2137025,0.426889,0.36308938,-0.18864754,0.411703,0.39222209,-0.20108375,0.425436,0.41644802,-0.21582215,0.436535
0.40152141,-0.28518503,0.415748,0.3614702,-0.24772697,0.410718,0.37429651,-0.28306228,0.406525,0.3495667,-0.25343161,0.386031,0.32312985,-0.23158424,0.366215,0.31380986,-0.20796886,0.351364,0.30562913,-0.23280187,0.39623,0.27540465,-0.20685095,0.379474,0.2696402,-0.19456999,0.371096,0.26380359,-0.18360171,0.36348,0.32773072,-0.22262502,0.406611,0.32287144,-0.19814496,0.393099,0.33977175,-0.20936226,0.385218,0.35862896,-0.22907241,0.395571,0.34948824,-0.21660532,0.415595,0.35797729,-0.20252529,0.399451,0.36640061,-0.21362029,0.391191,0.37956755,-0.23108011,0.401356,0.38147839,-0.21389087,0.426912,0.36029757,-0.18817464,0.412126,0.38519803,-0.19890427,0.425204,0.41316522,-0.21482479,0.436735
0.40072485,-0.28070092,0.414669,0.35804235,-0.24436245,0.408969,0.37415914,-0.28166247,0.406167,0.34923836,-0.2530861,0.386225,0.32134414,-0.23352413,0.367248,0.3133774,-0.20902414,0.352405,0.30417166,-0.23206237,0.395034,0.27155128,-0.20788466,0.378205,0.26546408,-0.19694934,0.36979,0.26209723,-0.18451197,0.36218,0.32503487,-0.22083905,0.404314,0.31677721,-0.19684024,0.390137,0.33392365,-0.20695708,0.381867,0.35321408,-0.22489673,0.392397,0.34583401,-0.21393627,0.412451,0.35171763,-0.19950514,0.396041,0.36087007,-0.20973341,0.387645,0.37599681,-0.22754133,0.398114,0.37471066,-0.20649377,0.422879,0.34866384,-0.1819522,0.407755,0.37650207,-0.19241315,0.420659,0.40429604,-0.20913612,0.432879
0.39859969,-0.27977254,0.41315,0.35592042,-0.24433137,0.409659,0.37220775,-0.27976446,0.404635,0.35260314,-0.25895265,0.385311,0.32645626,-0.24857227,0.37019,0.32217562,-0.23101761,0.357482,0.29775421,-0.23438534,0.396911,0.27428373,-0.21088613,0.381686,0.26618125,-0.20167136,0.374074,0.26265837,-0.19273785,0.367153,0.31927862,-0.22294555,0.406809,0.3142575,-0.2049004,0.394831,0.33551776,-0.21075599,0.387844,0.35790721,-0.22871325,0.398852,0.34340843,-0.21438084,0.415262,0.33739278,-0.20005035,0.400695,0.34589462,-0.21445122,0.393242,0.3666433,-0.23690662,0.404141,0.37492726,-0.2091134,0.425715,0.34200471,-0.18242022,0.412238,0.3482765,-0.18226607,0.406046,0.36941236,-0.1936882,0.413913
0.39735615,-0.27609519,0.412051,0.35528337,-0.24378199,0.408473,0.3716064,-0.27840285,0.404087,0.35087619,-0.25600364,0.385312,0.32672871,-0.24615837,0.368069,0.32231548,-0.22725522,0.354196,0.29830844,-0.23525289,0.39638,0.27292902,-0.21860666,0.381413,0.26263107,-0.20984205,0.373929,0.25649627,-0.20224707,0.367125,0.31869018,-0.22282778,0.405551,0.311617,-0.20609965,0.393491,0.33093483,-0.21281654,0.386456,0.35492706,-0.22827191,0.397686,0.34102242,-0.21371913,0.413413,0.33429132,-0.20022642,0.399002,0.34365314,-0.21406078,0.391629,0.36556951,-0.23603614,0.402839,0.37186377,-0.20752129,0.423188,0.33805013,-0.18166381,0.409774,0.34398821,-0.18156725,0.40361,0.36543773,-0.19272422,0.411695
0.39607061,-0.27411516,0.410459,0.35376741,-0.24284148,0.406895,0.37016399,-0.27614467,0.402335,0.35061322,-0.25412981,0.383396,0.32519571,-0.23853056,0.368948,0.3169392,-0.21465377,0.356435,0.29861012,-0.23714564,0.394606,0.27132737,-0.21931777,0.379554,0.26050984,-0.21043933,0.372029,0.2538666,-0.20261881,0.365187,0.31767232,-0.2230891,0.403985,0.30785757,-0.20804596,0.391937,0.3266031,-0.21244564,0.384908,0.35178368,-0.22758183,0.396074,0.33791445,-0.21430261,0.412017,0.33016184,-0.20083936,0.39755,0.34173212,-0.21328461,0.390149,0.3643171,-0.23475151,0.401268,0.36873673,-0.20716947,0.421989,0.33332394,-0.18221487,0.408547,0.33879948,-0.18162972,0.402371,0.36244966,-0.19191554,0.410392
0.39329065,-0.26713374,0.408455,0.35011264,-0.24066648,0.404922,0.36846643,-0.27381819,0.400556,0.34766036,-0.24988977,0.381862,0.32175857,-0.23640152,0.36641,0.31419888,-0.21329529,0.353353,0.29603101,-0.23549258,0.392937,0.26816662,-0.22072056,0.378041,0.25684808,-0.21206494,0.370593,0.25121686,-0.20298771,0.363822,0.31517774,-0.22237382,0.402038,0.29556428,-0.20606729,0.390024,0.31205697,-0.20681155,0.383016,0.34061387,-0.22096395,0.394284,0.33430238,-0.21329394,0.409838,0.3247131,-0.19970023,0.395493,0.33766799,-0.21189625,0.388153,0.36177381,-0.23293169,0.399409,0.35985914,-0.2031948,0.419533,0.32335426,-0.1808827,0.406169,0.33273301,-0.18071817,0.400028,0.3566605,-0.19077886,0.408146
0.39063042,-0.26420906,0.405756,0.34663198,-0.23921078,0.402791,0.3654007,-0.26899275,0.397889,0.34470755,-0.24732691,0.379394,0.31864347,-0.23259851,0.36243,0.31107854,-0.2097453,0.348762,0.29427511,-0.23606044,0.391156,0.26421954,-0.2212192,0.376695,0.252787,-0.21307016,0.369465,0.2473713,-0.20466179,0.362892,0.30971547,-0.22273724,0.40037,0.29296371,-0.20577849,0.388925,0.31013738,-0.20641018,0.382248,0.33862101,-0.22024384,0.393649,0.32783003,-0.21207493,0.408215,0.31927878,-0.19848309,0.39436,0.3321767,-0.20967087,0.387272,0.35972236,-0.23116349,0.398654,0.3564334,-0.20178581,0.417872,0.31986464,-0.18027524,0.404942,0.32721077,-0.1798229,0.399001,0.3518344,-0.18973123,0.407225
0.389639,-0.26266583,0.404776,0.34567582,-0.23852812,0.40217,0.36460781,-0.26781517,0.396975,0.34368108,-0.24636956,0.378653,0.3178526,-0.2312636,0.361314,0.31055216,-0.20853034,0.347522,0.29351529,-0.2361442,0.390812,0.26379473,-0.22145701,0.376654,0.25239089,-0.2134253,0.369574,0.24667828,-0.20525743,0.363138,0.30904156,-0.22262213,0.400041,0.29239532,-0.20589193,0.388955,0.30990078,-0.20654477,0.382489,0.33843399,-0.22031381,0.393991,0.32700775,-0.21186147,0.407866,0.31859888,-0.19839607,0.394341,0.33179034,-0.20954351,0.387421,0.35924418,-0.23075483,0.398907,0.35540113,-0.2013778,0.417445,0.31891313,-0.18019165,0.4048,0.32637273,-0.17969899,0.398991,0.35078957,-0.18954605,0.407298
0.38790692,-0.26089382,0.403138,0.34426744,-0.23776559,0.401126,0.36302445,-0.26629166,0.395324,0.3411893,-0.24456691,0.377165,0.3173124,-0.22729505,0.358831,0.31222961,-0.20422477,0.344715,0.29097896,-0.23689828,0.390076,0.26356912,-0.22172645,0.376349,0.25367529,-0.21321853,0.369485,0.24689797,-0.20588661,0.363245,0.30797603,-0.22256963,0.399483,0.29162212,-0.20622708,0.388994,0.3095054,-0.20696816,0.382876,0.33816254,-0.2206984,0.394493,0.32589293,-0.21178643,0.407402,0.31858107,-0.19916352,0.394375,0.3320307,-0.21035539,0.387709,0.35961957,-0.23147516,0.399295,0.35299205,-0.20091185,0.417,0.31858363,-0.18070234,0.404802,0.32659938,-0.18042679,0.399198,0.35081648,-0.19011785,0.407592
0.38591649,-0.25851698,0.40101,0.3423811,-0.23724687,0.399116,0.36083149,-0.26423079,0.392737,0.33892481,-0.2435395,0.374139,0.31344939,-0.22554286,0.355183,0.30698917,-0.20334675,0.340973,0.28957966,-0.24456772,0.387546,0.26195913,-0.2281447,0.37364,0.25120307,-0.21654557,0.366688,0.24389667,-0.20618921,0.360367,0.3057771,-0.23030252,0.397569,0.28705677,-0.21225821,0.387197,0.30426431,-0.20808875,0.381147,0.3357943,-0.22004448,0.392582,0.32304697,-0.21932734,0.405985,0.31662944,-0.20322329,0.392869,0.330529,-0.21361095,0.386158,0.35777579,-0.23093082,0.397488,0.35062118,-0.20797761,0.416146,0.31396904,-0.18828504,0.403934,0.32409002,-0.18431011,0.398323,0.34787727,-0.19072991,0.40654
0.38383576,-0.25652604,0.399078,0.33814854,-0.24357099,0.398355,0.3584076,-0.26242652,0.390133,0.33077352,-0.24833,0.371222,0.30675297,-0.22670825,0.350365,0.30005966,-0.20228566,0.335881,0.28426831,-0.24896845,0.386567,0.25999263,-0.23002648,0.373166,0.24950743,-0.22117419,0.366465,0.24399108,-0.21064366,0.360374,0.30058629,-0.2353601,0.397765,0.28617895,-0.21503974,0.388599,0.30275863,-0.21218348,0.383253,0.33563139,-0.22203154,0.394566,0.31792225,-0.22477245,0.407047,0.31535676,-0.20855829,0.394675,0.33024923,-0.21856063,0.388346,0.35630827,-0.23521896,0.399418,0.34547218,-0.21364101,0.418039,0.31024325,-0.19409935,0.406595,0.31934874,-0.19204264,0.401337,0.34497071,-0.19846112,0.409403
0.3802646,-0.25508816,0.395671,0.33536295,-0.24765144,0.396258,0.35770024,-0.26326136,0.389548,0.33430101,-0.25945566,0.373969,0.30954745,-0.23758192,0.35217,0.30001681,-0.21643015,0.336646,0.28881392,-0.25543959,0.388778,0.26261071,-0.2459823,0.377997,0.25394309,-0.24105001,0.372607,0.24812827,-0.23645387,0.367706,0.30319693,-0.23983594,0.396738,0.27542136,-0.22543013,0.388923,0.29606782,-0.23035848,0.384364,0.32260323,-0.24445235,0.397157,0.31879406,-0.22770276,0.403239,0.28837431,-0.21472303,0.393157,0.30596496,-0.21201979,0.387999,0.33680347,-0.22216938,0.400961,0.344035,-0.2149583,0.410768,0.32183967,-0.17891534,0.40098,0.32103216,-0.17763066,0.396483,0.33194867,-0.19322742,0.405923
0.3772103,-0.25340024,0.391832,0.33591203,-0.25186471,0.393907,0.35593869,-0.26615787,0.38618,0.33263375,-0.25977441,0.371569,0.30770778,-0.24047457,0.351962,0.29587825,-0.21747385,0.337404,0.29090189,-0.26088027,0.387837,0.26343839,-0.25265961,0.378459,0.25389063,-0.24818581,0.37377,0.24824319,-0.24077686,0.369508,0.30440588,-0.24498972,0.395601,0.27510561,-0.2320669,0.389318,0.29643222,-0.23385117,0.385653,0.3238527,-0.24806465,0.398892,0.31840776,-0.22965144,0.401811,0.2873906,-0.22089252,0.393215,0.30571257,-0.21507388,0.388817,0.33733172,-0.2252047,0.402261,0.342771,-0.21632124,0.408767,0.31796374,-0.18007258,0.400249,0.31636209,-0.17876175,0.396335,0.33087335,-0.1958362,0.406157
0.37477597,-0.25300472,0.389353,0.33369311,-0.25214421,0.392062,0.35416162,-0.26903236,0.384065,0.33025256,-0.26212482,0.37005,0.30459322,-0.243705,0.351125,0.29422169,-0.21881403,0.336853,0.28875379,-0.26159087,0.386802,0.26149705,-0.25460747,0.378128,0.25198202,-0.2507606,0.37379,0.24523536,-0.24708248,0.369847,0.30172274,-0.24547173,0.394275,0.27249348,-0.23381426,0.388657,0.29345636,-0.23849726,0.38538,0.32166111,-0.25239732,0.39886,0.31597776,-0.2326412,0.40019,0.28696363,-0.2222574,0.392305,0.30544173,-0.21935755,0.388271,0.33728271,-0.22703397,0.401996,0.33933565,-0.21856122,0.4067,0.31170576,-0.18359812,0.398773,0.30850876,-0.18376641,0.395131,0.32605338,-0.1994554,0.405168
0.37334,-0.25347432,0.388237,0.33261638,-0.2517439,0.391113,0.35317344,-0.26941346,0.383031,0.32927298,-0.25990076,0.369157,0.30412951,-0.2380465,0.347967,0.29348709,-0.21413129,0.33281,0.28771519,-0.26078958,0.386048,0.26053934,-0.25394883,0.37755,0.25104961,-0.25016839,0.3733,0.24432015,-0.2465487,0.369438,0.30060789,-0.24462985,0.393461,0.27145104,-0.23310373,0.388018,0.29247758,-0.2378275,0.384843,0.32145645,-0.25009608,0.398381,0.31478566,-0.23175668,0.399313,0.28672206,-0.22147555,0.39161,0.30558232,-0.21696436,0.387668,0.33708509,-0.22703561,0.401459,0.33847298,-0.21627863,0.405724,0.3140312,-0.18014647,0.398629,0.30920483,-0.17733831,0.395369,0.32693936,-0.1964768,0.405642
0.37267804,-0.25463727,0.387632,0.33219545,-0.25177952,0.390837,0.35251224,-0.26959562,0.382294,0.32862924,-0.25975151,0.368378,0.30408165,-0.23832217,0.347282,0.29451674,-0.21425875,0.33227,0.28728578,-0.26067482,0.385783,0.26017786,-0.25402846,0.377449,0.2507119,-0.2503355,0.373283,0.24399768,-0.24678852,0.369495,0.30030163,-0.24465151,0.393454,0.27263696,-0.23378491,0.38834,0.29727389,-0.23845585,0.385356,0.32267998,-0.25110904,0.398905,0.31457141,-0.23184265,0.39949,0.28701367,-0.221751,0.392009,0.30609383,-0.21899737,0.388181,0.33754575,-0.22760999,0.401955,0.33789903,-0.21770432,0.406064,0.31292034,-0.18292211,0.398506,0.30997523,-0.18082385,0.395034,0.32452403,-0.19772488,0.40512
0.37299937,-0.25623923,0.387461,0.33242433,-0.25157462,0.390403,0.35303709,-0.2698947,0.382139,0.33044618,-0.25933385,0.368158,0.30631791,-0.24109848,0.347681,0.29586272,-0.2155949,0.332843,0.28760355,-0.26046002,0.385226,0.26039573,-0.25403367,0.376704,0.25058381,-0.25046722,0.372443,0.24333156,-0.24705256,0.36857,0.30038481,-0.24432979,0.392806,0.27685114,-0.23564518,0.387424,0.30036112,-0.24060084,0.384284,0.32579891,-0.25231429,0.397793,0.31448395,-0.23142112,0.398789,0.28702799,-0.22155179,0.391089,0.305811,-0.21858039,0.387149,0.33745208,-0.22711861,0.400892,0.33796749,-0.21629696,0.405343,0.31237387,-0.18255633,0.397586,0.30933107,-0.18060755,0.394022,0.32510092,-0.19667344,0.404079
0.37537285,-0.25823165,0.389158,0.33277267,-0.24992315,0.389575,0.35612001,-0.2696328,0.384823,0.34154395,-0.26085416,0.371187,0.31293069,-0.24714491,0.348446,0.30030274,-0.22123289,0.332023,0.29027042,-0.25930235,0.38428,0.26222422,-0.26278245,0.374525,0.24941501,-0.26491847,0.369647,0.24110405,-0.26675179,0.365212,0.29854786,-0.2413467,0.389916,0.27446721,-0.24158772,0.382063,0.29760463,-0.23958473,0.377483,0.32130955,-0.24828792,0.390807,0.31078704,-0.22858448,0.394518,0.26292837,-0.21822012,0.385149,0.26426718,-0.21865567,0.380355,0.29504858,-0.22991674,0.394114,0.33246261,-0.21265854,0.399848,0.30798141,-0.17666383,0.39308,0.30609235,-0.17840077,0.38997,0.32230685,-0.19489817,0.400681
0.37409073,-0.21952871,0.416913,0.31306159,-0.2194786,0.388878,0.36572505,-0.23722885,0.413034,0.35492651,-0.24296781,0.394637,0.33648679,-0.25012003,0.372937,0.319845,-0.2470604,0.356378,0.27163912,-0.23975903,0.368665,0.23806057,-0.24247468,0.34078,0.22118422,-0.24909388,0.326837,0.22286866,-0.24476595,0.314162,0.26503417,-0.2186944,0.365983,0.26105779,-0.21009183,0.332389,0.29610625,-0.2111888,0.349169,0.30832746,-0.21451443,0.366588,0.26458647,-0.20107379,0.366222,0.22734811,-0.19408654,0.335282,0.2355702,-0.18798774,0.319452,0.25518367,-0.18716247,0.32262,0.27324677,-0.1797663,0.370881,0.27604673,-0.18061256,0.343071,0.29849767,-0.18769876,0.353552,0.3182426,-0.19401783,0.367403
0.37669331,-0.21991863,0.418968,0.31438556,-0.22011363,0.39101,0.36787074,-0.23749607,0.414615,0.3562427,-0.24388039,0.395582,0.33849545,-0.25073572,0.373879,0.32041726,-0.25046941,0.357677,0.2721733,-0.23949897,0.370237,0.23863213,-0.24397767,0.341998,0.22804477,-0.2466168,0.327878,0.22257016,-0.24618119,0.315041,0.26564206,-0.21941748,0.368179,0.26142246,-0.21083299,0.334511,0.29754219,-0.21260175,0.351452,0.31093763,-0.2158479,0.368949,0.26533762,-0.20209939,0.368925,0.26152157,-0.19443104,0.338144,0.26688735,-0.17980843,0.322396,0.27465725,-0.17802693,0.325723,0.27429352,-0.18100927,0.374166,0.27696103,-0.18251611,0.346148,0.29962664,-0.18915499,0.356724,0.31842871,-0.19444217,0.370686
0.37635439,-0.21934005,0.418308,0.3139396,-0.21970356,0.390618,0.36739905,-0.23681584,0.413802,0.35549706,-0.24337377,0.394581,0.33782026,-0.24994302,0.372705,0.31931414,-0.25059571,0.356666,0.27158419,-0.23950375,0.369797,0.23819919,-0.24399672,0.341578,0.22775961,-0.24630842,0.327468,0.22197947,-0.24611267,0.314641,0.26519234,-0.21911968,0.368007,0.26098999,-0.21063339,0.33451,0.29754565,-0.21273407,0.351653,0.31131604,-0.21595002,0.369151,0.26495677,-0.20196092,0.36895,0.26159504,-0.19448567,0.338239,0.2669958,-0.1798815,0.322527,0.2752441,-0.1773627,0.326003,0.27399268,-0.1809961,0.374379,0.27666529,-0.18275748,0.346427,0.29945675,-0.18929718,0.357135,0.31792345,-0.19423772,0.371125
0.37595247,-0.21852155,0.41764,0.31346579,-0.21897402,0.390033,0.36689277,-0.23593209,0.413008,0.35485383,-0.24251579,0.393626,0.33719876,-0.24888472,0.371594,0.31848196,-0.24996856,0.355602,0.27100921,-0.2386913,0.369097,0.23765881,-0.243483,0.340821,0.22785768,-0.24525672,0.326682,0.22231538,-0.24496789,0.313829,0.26469973,-0.21844863,0.367489,0.25320502,-0.21110384,0.334025,0.29539381,-0.21331695,0.351242,0.31077958,-0.21620025,0.368751,0.2645285,-0.20138474,0.368575,0.26290287,-0.19338139,0.337835,0.26759102,-0.17867913,0.322108,0.27578174,-0.17461149,0.325622,0.27364415,-0.18049346,0.374159,0.27633353,-0.1823433,0.346189,0.29915783,-0.18881697,0.356942,0.3174446,-0.19358991,0.370957
0.37584811,-0.2181096,0.417391,0.31331576,-0.21871729,0.389785,0.36680216,-0.23550841,0.412696,0.35475097,-0.24212171,0.393229,0.33722402,-0.2484252,0.371164,0.31842598,-0.24980803,0.355213,0.27088673,-0.23845932,0.368768,0.23757047,-0.24342345,0.340438,0.22821121,-0.24501033,0.326274,0.22282651,-0.24454266,0.313397,0.26453985,-0.21829968,0.367241,0.2533224,-0.21138519,0.333759,0.29457058,-0.21370136,0.350986,0.31053867,-0.21643813,0.368505,0.26433406,-0.20128644,0.368394,0.26360658,-0.19300612,0.337611,0.26789571,-0.17817124,0.321862,0.275664,-0.17410858,0.325371,0.27340736,-0.18042027,0.374057,0.27614667,-0.18223945,0.346054,0.29897515,-0.18861711,0.356813,0.31714074,-0.19326574,0.37084
0.3759254,-0.2179199,0.417388,0.31321016,-0.2186058,0.389563,0.36689711,-0.23530192,0.412606,0.35481508,-0.24189359,0.393008,0.33742272,-0.24816202,0.370926,0.31859789,-0.24976364,0.355003,0.27075196,-0.23829851,0.368315,0.23739483,-0.24326441,0.339794,0.22830546,-0.24469559,0.325534,0.22298772,-0.24399876,0.31257,0.26433359,-0.2182208,0.36684,0.25179856,-0.21182576,0.333161,0.29097203,-0.21558802,0.350263,0.30975136,-0.21666719,0.367814,0.26407363,-0.20126816,0.368055,0.26306076,-0.19293305,0.337073,0.26733102,-0.17796396,0.321221,0.2750781,-0.17378982,0.324595,0.27309444,-0.1804525,0.373824,0.27578493,-0.1821146,0.345659,0.29833476,-0.1882116,0.356332,0.31501515,-0.19202174,0.370384
0.37606044,-0.2175732,0.417289,0.31335248,-0.21851921,0.389504,0.36712578,-0.23496887,0.412554,0.35487164,-0.24184951,0.393021,0.33759626,-0.24808342,0.371033,0.31885251,-0.24961618,0.355134,0.2710595,-0.23831857,0.368339,0.23775476,-0.24437557,0.339878,0.23016195,-0.24527256,0.325648,0.22372191,-0.24446874,0.312711,0.26451359,-0.2183207,0.366814,0.25142652,-0.21275956,0.333179,0.29068794,-0.21659768,0.3503,0.30971589,-0.21731405,0.367841,0.26413981,-0.20140939,0.367985,0.26305762,-0.19346643,0.33706,0.26741662,-0.17834184,0.321238,0.27527655,-0.17400264,0.324639,0.27301611,-0.18059371,0.373697,0.27577412,-0.18240775,0.345577,0.29820834,-0.18825937,0.356263,0.31460631,-0.19183589,0.370304
0.37602771,-0.21723555,0.417066,0.31343526,-0.21843761,0.38943,0.36718424,-0.23464678,0.412388,0.354833,-0.24176125,0.392941,0.33761519,-0.24794272,0.370991,0.31892304,-0.24941104,0.355098,0.27133551,-0.23837377,0.368419,0.23819254,-0.24469414,0.340088,0.23065885,-0.24583648,0.325923,0.22443523,-0.24499932,0.313045,0.26469713,-0.21843569,0.366862,0.25133366,-0.21342878,0.333362,0.29072128,-0.21735596,0.350568,0.30987915,-0.21793482,0.368087,0.26423283,-0.20154838,0.367993,0.26317423,-0.19393501,0.337203,0.26764419,-0.17872311,0.32145,0.27565054,-0.1743016,0.324944,0.27298096,-0.18071523,0.373634,0.2758526,-0.18268489,0.345624,0.29824644,-0.18837905,0.35637,0.31443947,-0.19177943,0.370394
0.37590893,-0.21741141,0.416395,0.31310685,-0.2184209,0.388849,0.36680182,-0.23467603,0.41152,0.35625545,-0.24845243,0.391817,0.33685297,-0.24883196,0.36979,0.31825471,-0.24891147,0.353684,0.27068135,-0.23799963,0.367634,0.23959372,-0.24474434,0.339191,0.23127034,-0.24559476,0.324969,0.22554717,-0.24426827,0.31204,0.264277,-0.21824769,0.366353,0.25060473,-0.21322454,0.332872,0.28940343,-0.21915578,0.350162,0.31007859,-0.21993872,0.3677,0.26400918,-0.20151304,0.367704,0.26283481,-0.19385772,0.336841,0.26729438,-0.17862735,0.321051,0.27540569,-0.17422853,0.324577,0.27300766,-0.18085627,0.373588,0.27515169,-0.18301275,0.345528,0.29808262,-0.18859354,0.356325,0.31565788,-0.19260366,0.370387
0.37520632,-0.21743483,0.414966,0.31262148,-0.21836434,0.388009,0.36586653,-0.23454453,0.409983,0.35520931,-0.24921867,0.390184,0.33872962,-0.25388871,0.367727,0.31708392,-0.24852221,0.351525,0.27009327,-0.23771309,0.366978,0.23800658,-0.24393792,0.338777,0.2294487,-0.24481166,0.324676,0.22398366,-0.24429497,0.311857,0.26399059,-0.21814623,0.365994,0.24905184,-0.21446846,0.332962,0.28930021,-0.22003321,0.350621,0.31085754,-0.22097584,0.368113,0.26394806,-0.20154841,0.367538,0.26194029,-0.19493253,0.336992,0.2672818,-0.17993742,0.321364,0.27690696,-0.17565332,0.325214,0.27318395,-0.18103558,0.373557,0.27498368,-0.18379071,0.345768,0.29785084,-0.18903566,0.35681,0.3158586,-0.19299558,0.370872
0.37526863,-0.2175807,0.414126,0.3124819,-0.21843972,0.38759,0.36576795,-0.23462267,0.40911,0.35455342,-0.24925628,0.389303,0.33792875,-0.2538544,0.366757,0.31660205,-0.24825751,0.350397,0.26979886,-0.2375934,0.366747,0.23833869,-0.2439386,0.338757,0.22959892,-0.2449136,0.324762,0.22430611,-0.24466499,0.312039,0.26380747,-0.21814743,0.365919,0.24884573,-0.21462884,0.333222,0.28939756,-0.2207472,0.35113,0.31157478,-0.2218504,0.368578,0.2638544,-0.20164656,0.367555,0.26206114,-0.1952295,0.337267,0.26775934,-0.18045536,0.321771,0.2781322,-0.17635336,0.325851,0.27320271,-0.18123611,0.373616,0.27494893,-0.18423473,0.346044,0.29798641,-0.18947723,0.357254,0.31549755,-0.19306168,0.371304
0.37540991,-0.21800284,0.413544,0.31248886,-0.21867608,0.387256,0.36575308,-0.23498064,0.4085,0.3540554,-0.24915473,0.388676,0.33733742,-0.25369276,0.366065,0.31660496,-0.24814378,0.349497,0.26963261,-0.23761664,0.366511,0.23863093,-0.24402157,0.338638,0.23000948,-0.24496582,0.324702,0.2246754,-0.24474179,0.312033,0.26377783,-0.21823134,0.365788,0.24860773,-0.21466499,0.333286,0.28933736,-0.2211596,0.351337,0.31198189,-0.22242454,0.36876,0.26393756,-0.20178892,0.367487,0.26219337,-0.19555847,0.337346,0.26818347,-0.18092066,0.321925,0.27926659,-0.17690903,0.326136,0.27342866,-0.18146225,0.373584,0.27475527,-0.18471594,0.346138,0.29787863,-0.18979085,0.357444,0.3154516,-0.1932582,0.371487
0.3754841,-0.21839543,0.413481,0.31237946,-0.21901207,0.387129,0.36595867,-0.23545969,0.408561,0.35188654,-0.24079146,0.388894,0.33590874,-0.25071843,0.366416,0.31709754,-0.24842381,0.349791,0.26960696,-0.23800381,0.366508,0.23933452,-0.24486844,0.338699,0.23087558,-0.24578469,0.324794,0.22539953,-0.24518246,0.312154,0.26357278,-0.21850382,0.365609,0.24054576,-0.2168471,0.333086,0.28115143,-0.22381859,0.351091,0.31177091,-0.22399387,0.368507,0.26359546,-0.20199369,0.36717,0.26289987,-0.19477883,0.337066,0.26828426,-0.18002412,0.321664,0.27872341,-0.1760786,0.325857,0.27293221,-0.18161912,0.373114,0.27184887,-0.185754,0.345692,0.29712736,-0.18965915,0.356969,0.31390185,-0.19254565,0.370993
0.37539577,-0.2188521,0.413272,0.31221339,-0.21944719,0.386963,0.36587302,-0.23589985,0.408331,0.35166681,-0.24144319,0.38864,0.33551701,-0.25139642,0.366152,0.31687856,-0.24833321,0.349398,0.26943944,-0.23837596,0.366339,0.23920546,-0.24507843,0.338537,0.23076336,-0.24598041,0.324636,0.22549704,-0.24565641,0.311998,0.26338528,-0.21890914,0.365478,0.24047282,-0.21678135,0.332985,0.28109137,-0.22377078,0.351016,0.31134839,-0.22427101,0.368429,0.26339126,-0.2024321,0.367067,0.26253225,-0.19513441,0.336978,0.26801095,-0.1803343,0.321583,0.27886955,-0.17638431,0.325798,0.27270731,-0.18210063,0.373037,0.27118994,-0.18550261,0.345629,0.2966844,-0.18989258,0.356923,0.31319362,-0.19252644,0.370949
0.37529111,-0.21929945,0.413045,0.31202576,-0.21982347,0.386802,0.36574755,-0.23632978,0.408094,0.35136763,-0.24209327,0.388396,0.33501094,-0.25207623,0.365907,0.3165714,-0.2482396,0.349029,0.26921783,-0.23867052,0.366201,0.23932079,-0.24548693,0.338428,0.23087397,-0.24639368,0.324542,0.22551456,-0.24608086,0.311918,0.26316978,-0.21922041,0.36537,0.24043238,-0.21674489,0.332929,0.28107695,-0.2237593,0.350998,0.31104206,-0.22451682,0.368405,0.26318201,-0.2027666,0.366978,0.26216637,-0.19543587,0.336927,0.26776334,-0.18062799,0.321552,0.27906182,-0.1766887,0.3258,0.27250808,-0.18247522,0.372961,0.27071947,-0.18532336,0.345585,0.29625805,-0.1900935,0.356904,0.31250294,-0.19247832,0.370928
0.37433242,-0.21950209,0.41167,0.31142984,-0.22010789,0.385991,0.36521859,-0.23676563,0.40729,0.35244541,-0.24713203,0.388392,0.33509474,-0.2521441,0.36598,0.31680427,-0.24885805,0.349141,0.26873671,-0.23995897,0.366425,0.23970431,-0.24967885,0.339434,0.23026548,-0.25530031,0.325938,0.22394443,-0.25670045,0.313669,0.26245915,-0.22000917,0.365021,0.2468956,-0.22092317,0.333186,0.28796608,-0.2238974,0.351511,0.31150652,-0.22557236,0.368778,0.26230092,-0.20325558,0.366107,0.26225149,-0.19616366,0.336804,0.26812935,-0.18137374,0.321811,0.27999245,-0.17759355,0.326432,0.27142716,-0.18278658,0.37139,0.27156016,-0.18620416,0.34461,0.29700283,-0.19296892,0.356116,0.31272307,-0.19299212,0.370002
0.37353274,-0.21999477,0.410777,0.3108927,-0.22062647,0.385513,0.364823,-0.23748573,0.406907,0.35320704,-0.24942453,0.388724,0.33673415,-0.25491497,0.366537,0.31907791,-0.25363331,0.349787,0.26896193,-0.24087423,0.366823,0.24047037,-0.25379508,0.340485,0.23138293,-0.25692386,0.327316,0.22536351,-0.25876823,0.315344,0.26182442,-0.22199647,0.364882,0.24693884,-0.22195759,0.333522,0.28814382,-0.22504122,0.352001,0.31180337,-0.22658949,0.369144,0.26090908,-0.20502483,0.365489,0.26389521,-0.2011472,0.336801,0.26900411,-0.18385522,0.322123,0.2806981,-0.17844375,0.327013,0.26895956,-0.18414732,0.370146,0.27079505,-0.18704087,0.343856,0.29696601,-0.19560667,0.355478,0.31223558,-0.19319621,0.369238
0.37299691,-0.22096761,0.409873,0.31040008,-0.22178325,0.384949,0.36444193,-0.23854893,0.406281,0.35284351,-0.25027816,0.388499,0.33516199,-0.2530875,0.36621,0.31737159,-0.25154636,0.349505,0.26940641,-0.2447946,0.366797,0.24066801,-0.25516905,0.340882,0.23156613,-0.25853179,0.327924,0.22553798,-0.26062386,0.316145,0.26232817,-0.22490429,0.364595,0.24693392,-0.22326333,0.333591,0.28778857,-0.22927573,0.352207,0.31156506,-0.22829049,0.369265,0.2614125,-0.20807799,0.364958,0.26387459,-0.20242713,0.336683,0.26922568,-0.18694485,0.322217,0.28276514,-0.18122999,0.32731,0.26947156,-0.18732649,0.369275,0.27035153,-0.19052805,0.343319,0.29715863,-0.19673951,0.355041,0.31368674,-0.1952614,0.368722
0.37188156,-0.2214087,0.408715,0.31019025,-0.22589368,0.384727,0.36373494,-0.239139,0.405544,0.35265871,-0.25126713,0.388418,0.33588637,-0.25585482,0.366182,0.31777148,-0.25424426,0.349533,0.27004808,-0.2470756,0.367622,0.24242158,-0.25806449,0.342595,0.23301571,-0.26216486,0.330082,0.22616834,-0.26528555,0.318706,0.26271102,-0.22714362,0.365138,0.24707131,-0.22803077,0.335025,0.28813968,-0.23431572,0.354066,0.31136311,-0.23311223,0.370935,0.26153118,-0.21026507,0.365187,0.26406211,-0.20721209,0.337827,0.2702556,-0.19179312,0.32383,0.2830762,-0.18519406,0.329447,0.26969134,-0.19085066,0.36899,0.2710355,-0.19492472,0.343783,0.29808427,-0.20130762,0.355804,0.31430492,-0.19930709,0.369336
0.3706665,-0.22193545,0.40749,0.30996741,-0.22957133,0.383845,0.36230024,-0.23940651,0.403957,0.35157733,-0.26186716,0.386381,0.33525596,-0.26678474,0.364304,0.3148112,-0.25886087,0.347674,0.26912407,-0.2505129,0.366466,0.24146921,-0.25928548,0.341338,0.23158246,-0.26204457,0.328774,0.2249978,-0.26382681,0.317352,0.2623333,-0.22952112,0.364536,0.24718168,-0.22836828,0.334609,0.28837643,-0.23330867,0.353899,0.31018049,-0.23488252,0.370779,0.26147664,-0.21285153,0.365012,0.26160463,-0.20952124,0.337642,0.26836445,-0.19428912,0.323639,0.28286548,-0.18923576,0.329411,0.26953515,-0.19230514,0.369262,0.26968288,-0.19750753,0.344067,0.29710274,-0.20194258,0.356246,0.31390093,-0.20036478,0.369835
0.37022934,-0.22292569,0.40712,0.3097389,-0.23025956,0.383567,0.36181893,-0.24030004,0.403433,0.35092309,-0.26137987,0.385662,0.33439735,-0.26610149,0.363371,0.31471087,-0.25928255,0.34655,0.26875598,-0.25084148,0.366043,0.24098008,-0.25941392,0.340843,0.23090133,-0.26217457,0.328243,0.22423146,-0.26387218,0.316788,0.26205611,-0.23009491,0.364334,0.24726803,-0.22856592,0.334443,0.28836214,-0.23363444,0.353804,0.30976577,-0.23534104,0.370694,0.26129627,-0.21349832,0.364983,0.26106211,-0.20983016,0.337575,0.26794045,-0.19468693,0.323552,0.28260762,-0.1899772,0.329358,0.26947505,-0.19304623,0.369423,0.26953548,-0.19792255,0.344203,0.29657948,-0.20223714,0.356427,0.31352532,-0.20100148,0.370042
0.36951656,-0.22366707,0.405829,0.31080659,-0.23345941,0.382854,0.36169707,-0.2436549,0.401472,0.3499397,-0.26008232,0.38289,0.33161143,-0.26470821,0.360004,0.3133993,-0.26210506,0.34296,0.27345467,-0.25502734,0.364791,0.24078465,-0.25972041,0.339392,0.22965865,-0.26237284,0.326693,0.22284783,-0.26286435,0.315149,0.26626772,-0.23540629,0.364091,0.24767018,-0.22890432,0.334519,0.28905544,-0.23525138,0.354234,0.31050266,-0.23730957,0.37112,0.26254727,-0.21685531,0.365522,0.26133119,-0.21037697,0.338077,0.26846306,-0.19532879,0.324036,0.28355287,-0.19107823,0.330054,0.27095087,-0.19673007,0.370786,0.27061217,-0.19900255,0.345579,0.29772512,-0.20338645,0.358025,0.31486876,-0.20248976,0.371723
0.36838779,-0.2237605,0.404458,0.30914661,-0.23064214,0.381992,0.36055165,-0.24116931,0.400857,0.34955189,-0.25782437,0.383325,0.33267726,-0.26521954,0.360938,0.3145882,-0.26407837,0.344253,0.27314775,-0.25505334,0.365169,0.24301709,-0.26450828,0.34068,0.22965392,-0.27103496,0.328435,0.22137257,-0.27106552,0.317303,0.26264926,-0.23368171,0.363646,0.24808884,-0.23017106,0.334692,0.28938749,-0.23467707,0.354575,0.31121165,-0.23423043,0.371289,0.25971498,-0.21668978,0.364353,0.25972384,-0.2113673,0.33775,0.26818292,-0.19706474,0.324139,0.28348896,-0.19325175,0.330498,0.26224198,-0.19898517,0.36869,0.26780922,-0.19898887,0.344149,0.29312543,-0.2027958,0.356728,0.31313532,-0.20188979,0.370242
0.36835835,-0.22443079,0.404706,0.30753199,-0.22974183,0.381777,0.36082536,-0.2418044,0.401069,0.34795858,-0.25403294,0.383433,0.33277815,-0.26487263,0.361348,0.31489254,-0.26471896,0.344915,0.27034942,-0.25291697,0.364655,0.24116298,-0.26129908,0.339862,0.22993997,-0.26506937,0.327465,0.22206524,-0.26714075,0.316195,0.26083406,-0.23359586,0.363053,0.2489153,-0.23337852,0.333698,0.28859265,-0.23516874,0.353363,0.31073709,-0.23512861,0.370153,0.25663328,-0.22014106,0.363735,0.2561984,-0.21514299,0.336788,0.26631917,-0.20503789,0.323001,0.28188558,-0.19456778,0.329127,0.25990668,-0.19978643,0.368116,0.26187648,-0.20139279,0.343285,0.28652984,-0.20215034,0.355715,0.31030505,-0.20319498,0.369274
0.36778307,-0.22477279,0.404356,0.30683421,-0.22957749,0.381483,0.36066889,-0.24217651,0.40081,0.34732746,-0.25196068,0.383301,0.33241411,-0.26433205,0.361347,0.31417644,-0.26314486,0.345072,0.27025083,-0.25275587,0.364506,0.24075047,-0.26061161,0.339819,0.2300372,-0.26353666,0.327476,0.22189415,-0.26717533,0.316255,0.26038902,-0.23374622,0.362803,0.24807645,-0.23119235,0.333519,0.28846259,-0.23527957,0.353198,0.3108112,-0.23512164,0.369967,0.25582759,-0.21982603,0.363398,0.25540983,-0.21525726,0.336549,0.26622634,-0.20251892,0.322812,0.28140529,-0.19510997,0.328974,0.25888174,-0.19950788,0.367667,0.25813664,-0.20297576,0.342914,0.28228418,-0.20247378,0.355356,0.30775992,-0.20278356,0.368892
0.36636748,-0.22455684,0.403505,0.3057174,-0.22928995,0.380812,0.35982793,-0.24205095,0.40016,0.34672818,-0.25379371,0.382939,0.33178449,-0.26403293,0.361231,0.31356761,-0.26657537,0.345588,0.2697689,-0.25259602,0.364191,0.24032517,-0.26174123,0.339776,0.22952953,-0.26505723,0.327568,0.22171529,-0.26748344,0.31647,0.25922246,-0.23517904,0.362281,0.24783385,-0.23346741,0.333202,0.28806696,-0.23542291,0.352939,0.3104594,-0.23570523,0.369652,0.25460347,-0.21957142,0.362689,0.25366065,-0.21647772,0.336098,0.26475871,-0.20421011,0.322493,0.27959605,-0.19809823,0.328763,0.25625936,-0.1996657,0.366711,0.25453969,-0.20287616,0.342165,0.28064119,-0.20257686,0.354651,0.30627526,-0.20266635,0.368131
0.36529333,-0.22453238,0.402854,0.30495715,-0.22914676,0.380424,0.35921843,-0.24208774,0.399612,0.34599118,-0.25364106,0.382559,0.33111134,-0.26364827,0.360924,0.31290561,-0.26663935,0.345462,0.2695,-0.25256222,0.364079,0.24009912,-0.26183592,0.339903,0.22945575,-0.26528695,0.327815,0.22170092,-0.26788551,0.316826,0.25869209,-0.23512526,0.362108,0.24759032,-0.23372999,0.333279,0.28807294,-0.23580132,0.353127,0.31057995,-0.23649658,0.369785,0.2539967,-0.21952761,0.362444,0.25331534,-0.21656023,0.336103,0.26453352,-0.20439039,0.322626,0.27948201,-0.19850895,0.329036,0.25568769,-0.19953168,0.36634,0.25414744,-0.20299964,0.342,0.28002986,-0.20278001,0.354564,0.30555799,-0.20281147,0.368002
0.3633507,-0.22378083,0.401712,0.30252657,-0.22869037,0.379688,0.357012,-0.2406362,0.398868,0.34448557,-0.25319377,0.382393,0.32703076,-0.26301849,0.360938,0.31163519,-0.26632462,0.345001,0.2670329,-0.25081211,0.364069,0.22958558,-0.25764088,0.339182,0.22059838,-0.25966874,0.326738,0.21241096,-0.26187321,0.315426,0.25642606,-0.23408334,0.361702,0.23917125,-0.23188224,0.333324,0.27949859,-0.23559796,0.353296,0.3060902,-0.23620911,0.36983,0.25163997,-0.21827328,0.361677,0.24564193,-0.21343726,0.335881,0.25745312,-0.20322465,0.322684,0.27833754,-0.19931867,0.329324,0.25451083,-0.1980136,0.365086,0.25334648,-0.20133886,0.341187,0.27817646,-0.20158128,0.353846,0.30291375,-0.20187314,0.367165
0.36289279,-0.22400914,0.402215,0.30188872,-0.22920639,0.380366,0.35696101,-0.24115807,0.399929,0.34468835,-0.25403806,0.384227,0.32523497,-0.25848568,0.363139,0.31111045,-0.26594482,0.347276,0.26313714,-0.25012822,0.365554,0.22848129,-0.25293387,0.340608,0.21832104,-0.25572214,0.328134,0.21175361,-0.26074932,0.316795,0.25378098,-0.23100374,0.362524,0.24076467,-0.23321741,0.334453,0.2843903,-0.2379473,0.354387,0.30827111,-0.23687136,0.370799,0.25063572,-0.21452573,0.361937,0.25577941,-0.21427957,0.336643,0.2661873,-0.20412224,0.323702,0.27988334,-0.19964687,0.330457,0.25640601,-0.19547869,0.364661,0.25336538,-0.20109638,0.341157,0.27903093,-0.20117664,0.353806,0.30130451,-0.20093371,0.366983
0.36314982,-0.22420846,0.403687,0.3015161,-0.22916401,0.381303,0.35738818,-0.24147412,0.401756,0.34614579,-0.25509869,0.386482,0.32936784,-0.26429756,0.36552,0.31210985,-0.26824869,0.350172,0.26179247,-0.24855516,0.366651,0.22875706,-0.25280763,0.341783,0.21852342,-0.25559547,0.329348,0.21160056,-0.26026836,0.318044,0.25385797,-0.23027624,0.363023,0.24587553,-0.23249955,0.334609,0.28479939,-0.23539859,0.354177,0.3058711,-0.23509088,0.370597,0.25088447,-0.21353903,0.36199,0.25572824,-0.21403425,0.336576,0.26619097,-0.20392828,0.323573,0.27989696,-0.19864481,0.330062,0.25764895,-0.19167762,0.364275,0.25993142,-0.19687959,0.340651,0.28264466,-0.19385911,0.353062,0.29899535,-0.19492159,0.366189
0.36142814,-0.22347266,0.402729,0.30189925,-0.22933666,0.381259,0.35736406,-0.24205987,0.40148,0.34395147,-0.25885556,0.387246,0.32730246,-0.26648495,0.36642,0.31091044,-0.26906058,0.350727,0.26239181,-0.24950248,0.367974,0.22032012,-0.25244158,0.343989,0.21213108,-0.25486453,0.331997,0.21145142,-0.25933002,0.321095,0.25412784,-0.23028596,0.363726,0.25118503,-0.22904021,0.33629,0.29174037,-0.22905761,0.356109,0.30993456,-0.23230828,0.372255,0.25108035,-0.21311782,0.362103,0.25530206,-0.21559279,0.337797,0.26743846,-0.20502314,0.325361,0.28123186,-0.20086461,0.332313,0.2573741,-0.19102738,0.363553,0.25959569,-0.19653608,0.340836,0.28292396,-0.19397703,0.353437,0.29931754,-0.19390733,0.366319
0.36068619,-0.22356717,0.403233,0.30190241,-0.22947891,0.381388,0.3561715,-0.24189374,0.401746,0.34219104,-0.26228016,0.387142,0.3250918,-0.27076702,0.366642,0.30793154,-0.27235315,0.350967,0.26190345,-0.24928357,0.367597,0.21980639,-0.25088259,0.343178,0.21140799,-0.25301534,0.330968,0.20831925,-0.25601372,0.319869,0.25396348,-0.22984958,0.36355,0.25152252,-0.22635339,0.335725,0.29127367,-0.22863437,0.355433,0.30991763,-0.23095913,0.371683,0.25138029,-0.21274361,0.362125,0.25465485,-0.21467756,0.337393,0.2667625,-0.20461531,0.32474,0.28038953,-0.20046635,0.331504,0.25820215,-0.1909562,0.363866,0.25994064,-0.19632625,0.3408,0.28498879,-0.19628315,0.353318,0.30038347,-0.1960071,0.36629
0.36076458,-0.22454434,0.403667,0.30137526,-0.22942636,0.381492,0.35569622,-0.24269852,0.402121,0.34237844,-0.26302767,0.387402,0.32495329,-0.27161305,0.366861,0.30720913,-0.27334048,0.351253,0.2616631,-0.24920255,0.367445,0.21960781,-0.25033059,0.342865,0.21113432,-0.25235887,0.330574,0.20724388,-0.25514014,0.319401,0.25381921,-0.22952721,0.363383,0.25116418,-0.22600584,0.335264,0.2908004,-0.22824393,0.35482,0.30921122,-0.22853296,0.371129,0.25146607,-0.21239724,0.361975,0.2537959,-0.21436448,0.336976,0.26592418,-0.20472702,0.324186,0.27934065,-0.20042356,0.33078,0.25851027,-0.19077324,0.363787,0.25967219,-0.1956295,0.340497,0.28474442,-0.19512327,0.352911,0.2999582,-0.19555639,0.365921
0.36131551,-0.2263329,0.403857,0.30083582,-0.22914303,0.380988,0.35567355,-0.24448698,0.402632,0.33869325,-0.27049338,0.388293,0.3184216,-0.2800786,0.368948,0.30309269,-0.27821203,0.353006,0.26052255,-0.24797896,0.366972,0.21447731,-0.2447609,0.342148,0.20507053,-0.24710399,0.329735,0.20279478,-0.25169032,0.318451,0.25295576,-0.22696796,0.362313,0.24922607,-0.22484775,0.333724,0.28772655,-0.23001896,0.35279,0.30916604,-0.23118518,0.369116,0.25483575,-0.20602079,0.360473,0.25294285,-0.21193518,0.335237,0.26439481,-0.20351658,0.322326,0.27736213,-0.1993351,0.328542,0.26572185,-0.18599501,0.361888,0.26083191,-0.19416384,0.338385,0.28692396,-0.19565266,0.350478,0.29861212,-0.19345066,0.363439
0.3672281,-0.23666671,0.406755,0.303338,-0.23156526,0.382886,0.35750116,-0.25365663,0.404964,0.33944339,-0.27792942,0.389742,0.31591571,-0.28636019,0.370074,0.29641674,-0.28388459,0.354474,0.26106866,-0.24830115,0.367605,0.21452387,-0.24337242,0.34233,0.20450829,-0.2451712,0.329693,0.19862791,-0.24703184,0.318205,0.25482091,-0.22637199,0.363395,0.2490558,-0.22485857,0.3338,0.28735974,-0.23494893,0.352514,0.31096786,-0.23528084,0.369093,0.2584084,-0.20719923,0.362013,0.25380977,-0.21162056,0.335699,0.26635252,-0.20439667,0.322236,0.27920173,-0.20209504,0.327932,0.27449966,-0.18880145,0.36412,0.26749709,-0.19543458,0.339732,0.29661782,-0.2008957,0.35157,0.30806405,-0.19699276,0.364744
0.37031959,-0.2465013,0.40554,0.30659661,-0.2371709,0.382023,0.35789425,-0.26229461,0.40395,0.33827507,-0.28053344,0.389042,0.31292809,-0.29234152,0.369307,0.29318296,-0.28775113,0.353676,0.26056231,-0.24823105,0.367191,0.21404654,-0.2442121,0.342373,0.20376883,-0.24619047,0.329964,0.19763338,-0.24830593,0.318683,0.25426221,-0.22791189,0.36282,0.24173361,-0.23133377,0.333579,0.2853653,-0.23948596,0.35242,0.31091378,-0.23884847,0.368911,0.26017213,-0.20926514,0.361274,0.25396565,-0.21434678,0.335341,0.26611,-0.21285721,0.322073,0.28064129,-0.20845605,0.327953,0.27367755,-0.19066572,0.363135,0.26791861,-0.2017569,0.339058,0.2950533,-0.20674837,0.350988,0.31024734,-0.20193429,0.364088
0.37271178,-0.25459474,0.406021,0.30799837,-0.24197998,0.382603,0.35882212,-0.26944632,0.404137,0.33582538,-0.28922472,0.388826,0.30788055,-0.29676217,0.368956,0.28930345,-0.29148385,0.352828,0.26084364,-0.24905019,0.367449,0.21399244,-0.24430552,0.34286,0.20339801,-0.24621256,0.330565,0.19695402,-0.24838167,0.319388,0.25704342,-0.22818657,0.36348,0.24256968,-0.23162759,0.334225,0.28522971,-0.24226351,0.353224,0.30883657,-0.2449995,0.36977,0.2626024,-0.21252864,0.362256,0.25630823,-0.2162708,0.336177,0.26735894,-0.21481082,0.322834,0.28162688,-0.21386945,0.328777,0.28026932,-0.19586673,0.36448,0.27067395,-0.20356646,0.340292,0.29799382,-0.20948571,0.352321,0.31343419,-0.20811907,0.365497
0.3738191,-0.25830903,0.407006,0.3092239,-0.2441048,0.383463,0.35941032,-0.27579915,0.405146,0.33630293,-0.29120945,0.389858,0.30800362,-0.2981708,0.369857,0.28630919,-0.29537316,0.35437,0.26135566,-0.25031392,0.368271,0.21403338,-0.24473983,0.343748,0.20256625,-0.24614305,0.331486,0.19547182,-0.24827792,0.320339,0.25953225,-0.229995,0.364237,0.24382867,-0.23212324,0.334887,0.28557157,-0.24390695,0.353809,0.30876032,-0.246928,0.370365,0.26613883,-0.21422931,0.362972,0.25780589,-0.21868737,0.336826,0.26852281,-0.2181078,0.323449,0.28283648,-0.21820097,0.329324,0.28260855,-0.19740628,0.365165,0.27339704,-0.20611964,0.34092,0.30081647,-0.21351151,0.352897,0.31711988,-0.21292378,0.366074
0.37557002,-0.2644645,0.407896,0.31144473,-0.24689906,0.384177,0.36015359,-0.27822185,0.405959,0.33673461,-0.29253924,0.390549,0.30766869,-0.29866626,0.37015,0.28557669,-0.29544873,0.354527,0.26118493,-0.24982733,0.368792,0.21386992,-0.24312367,0.344337,0.20256355,-0.24457026,0.33211,0.19511012,-0.24658024,0.320994,0.26192105,-0.23038933,0.364807,0.24493449,-0.23178941,0.335288,0.28617708,-0.24462004,0.354137,0.30926242,-0.24801295,0.370731,0.26961189,-0.21470509,0.363598,0.25908322,-0.21901105,0.33728,0.26947637,-0.21879551,0.323815,0.2837064,-0.21925621,0.329596,0.28745027,-0.19872446,0.365885,0.27521396,-0.20664621,0.341498,0.30356879,-0.21583383,0.353423,0.3192658,-0.21432261,0.36663
0.37538623,-0.26556046,0.407414,0.310978,-0.24566457,0.384087,0.35965152,-0.27906346,0.405516,0.33509876,-0.2940943,0.390195,0.30685975,-0.29839781,0.369277,0.28441265,-0.29497882,0.353451,0.26106454,-0.24987949,0.368965,0.2131217,-0.2389758,0.344454,0.20052045,-0.23958518,0.332199,0.19251629,-0.24124535,0.321059,0.26115119,-0.22906134,0.365038,0.24811498,-0.22895147,0.335853,0.28701749,-0.24497293,0.354907,0.30996428,-0.24864617,0.371445,0.27028986,-0.21388864,0.363842,0.26007022,-0.21882412,0.337814,0.26995645,-0.21797062,0.324497,0.28552695,-0.22019997,0.330489,0.28838342,-0.1980825,0.366083,0.27624798,-0.20639352,0.341939,0.30380144,-0.2147677,0.354004,0.32060872,-0.21470989,0.367179
0.37622972,-0.2677219,0.408564,0.31204027,-0.2463377,0.385141,0.35948276,-0.28046787,0.406089,0.33018758,-0.29470678,0.389962,0.2999729,-0.29541803,0.369075,0.27950377,-0.29182188,0.352916,0.26032845,-0.24672161,0.36923,0.21175847,-0.22921059,0.343499,0.19830518,-0.2281062,0.330634,0.19041202,-0.22879397,0.318939,0.26482684,-0.22613731,0.366013,0.24988183,-0.22666262,0.33657,0.28792555,-0.24498947,0.355745,0.3108447,-0.24917393,0.372414,0.27380252,-0.21116903,0.36541,0.26451608,-0.21558049,0.33891,0.27135587,-0.21763264,0.325351,0.28691898,-0.22087475,0.331291,0.29399782,-0.19685922,0.36836,0.2817206,-0.204805,0.343845,0.30861513,-0.21592276,0.355975,0.32479672,-0.21688273,0.369306
0.37565154,-0.26831206,0.407876,0.31303236,-0.24630864,0.385813,0.35836153,-0.28052095,0.405283,0.32601204,-0.29168181,0.38914,0.29583444,-0.28856827,0.367241,0.27340008,-0.28442913,0.35091,0.26207919,-0.23908032,0.370491,0.21440636,-0.22146605,0.345979,0.19867856,-0.21880402,0.333722,0.18732593,-0.21811041,0.32258,0.26944473,-0.21950381,0.367795,0.25082046,-0.2189906,0.339454,0.29240091,-0.24073547,0.359355,0.31442214,-0.24953985,0.375853,0.28049729,-0.20562738,0.367501,0.2690436,-0.20955693,0.341849,0.27539714,-0.21428463,0.328724,0.28989474,-0.22158934,0.335359,0.30278125,-0.19328916,0.370603,0.28703801,-0.20294658,0.346811,0.31466558,-0.21494379,0.359428,0.33029828,-0.21810771,0.372694
0.37449768,-0.27075779,0.406973,0.31273844,-0.24471248,0.385786,0.35593985,-0.28176601,0.404023,0.31787789,-0.286265,0.387509,0.28579319,-0.28283558,0.365687,0.26128267,-0.27405884,0.350052,0.2600038,-0.2331158,0.37049,0.2137548,-0.2116677,0.346266,0.19818802,-0.20752674,0.334154,0.18680219,-0.20572564,0.323143,0.26994989,-0.21727332,0.368485,0.25131723,-0.21269898,0.340789,0.29393894,-0.23808384,0.361171,0.31597249,-0.24865948,0.377587,0.28215456,-0.2041271,0.368684,0.27055522,-0.20770046,0.343401,0.27660935,-0.21237033,0.330466,0.29014466,-0.21723975,0.337507,0.30556188,-0.19288462,0.372225,0.29045639,-0.19966094,0.348769,0.31797697,-0.21330816,0.361704,0.33405009,-0.21815985,0.374975
0.3736558,-0.27115531,0.407034,0.31393222,-0.24115944,0.387646,0.35561792,-0.28224271,0.405191,0.31965772,-0.28589638,0.390393,0.28653022,-0.28241606,0.368255,0.26215576,-0.2735071,0.352337,0.2631146,-0.2264227,0.374738,0.21856181,-0.20445482,0.352104,0.2025747,-0.20091922,0.340786,0.19055049,-0.2000754,0.330498,0.27392518,-0.20907072,0.371813,0.24953303,-0.20822458,0.345963,0.28858156,-0.2349151,0.366926,0.31564107,-0.24698505,0.382857,0.28732926,-0.19748956,0.371097,0.27406249,-0.20596102,0.347823,0.28060449,-0.21521908,0.335915,0.29705689,-0.22614217,0.343877,0.30967148,-0.19048652,0.373287,0.29165064,-0.19685597,0.351479,0.31914928,-0.21407837,0.36484,0.33578549,-0.21997399,0.377695
0.37161809,-0.26874402,0.405514,0.31615541,-0.23909958,0.388814,0.35487726,-0.28047408,0.404929,0.31899858,-0.28273891,0.392218,0.2848577,-0.27582252,0.371582,0.25986025,-0.26626177,0.357248,0.26709408,-0.22721701,0.378973,0.2266896,-0.20133232,0.35823,0.21012366,-0.19702772,0.347859,0.19469124,-0.1931713,0.338431,0.2772363,-0.20955565,0.375177,0.25275886,-0.20998749,0.352025,0.29240878,-0.23746702,0.373777,0.31685145,-0.2476104,0.38898,0.28985669,-0.19767608,0.37351,0.27592601,-0.20622279,0.353018,0.28146151,-0.216844,0.342533,0.30174699,-0.22891828,0.351754,0.31262136,-0.18853957,0.374164,0.291451,-0.19547983,0.354668,0.31842043,-0.21287428,0.368604,0.33878068,-0.22131122,0.380869
0.37199935,-0.27130876,0.406283,0.31796933,-0.23905664,0.389952,0.35427137,-0.28191593,0.405527,0.31929885,-0.28224643,0.392637,0.28525323,-0.27492893,0.371482,0.25940825,-0.26489404,0.35727,0.27051839,-0.22536133,0.380092,0.22940288,-0.20038804,0.359504,0.21466877,-0.1936526,0.349209,0.19733507,-0.19152337,0.339851,0.2811333,-0.20836199,0.376615,0.25453814,-0.20786224,0.353733,0.2943553,-0.23749551,0.375673,0.32052401,-0.24938945,0.390836,0.29407722,-0.19708299,0.375177,0.27789772,-0.20629678,0.354831,0.28294593,-0.21744985,0.344421,0.30328412,-0.23025476,0.3538,0.31714455,-0.18878583,0.376043,0.29417508,-0.19595879,0.356683,0.32256046,-0.21450881,0.370742,0.34272409,-0.22124086,0.383007
0.37184317,-0.27277959,0.406647,0.31871483,-0.23877272,0.390214,0.35341412,-0.2824422,0.405857,0.31949732,-0.28204197,0.392906,0.28542044,-0.27466365,0.371494,0.25926748,-0.26444814,0.357291,0.27118524,-0.22519368,0.380256,0.23015342,-0.19993384,0.359683,0.21478434,-0.19375685,0.349397,0.19805724,-0.19081251,0.340045,0.28193913,-0.20825718,0.376794,0.25515644,-0.20747822,0.353813,0.29462562,-0.23694028,0.375723,0.32055094,-0.24881614,0.390913,0.29499409,-0.19705849,0.375378,0.27825645,-0.2058667,0.354936,0.2829577,-0.21719046,0.344476,0.30286206,-0.2296339,0.35381,0.31818841,-0.1889049,0.376285,0.29484097,-0.19573202,0.356844,0.32272651,-0.21433397,0.370882,0.34342686,-0.22155909,0.383167
0.37258585,-0.27482234,0.407968,0.32237776,-0.23794216,0.390169,0.35274147,-0.28296426,0.406325,0.31778147,-0.27910713,0.392018,0.28191219,-0.26350231,0.372666,0.2584589,-0.25028294,0.360756,0.27516346,-0.22409621,0.378382,0.23426366,-0.18588553,0.356885,0.21954224,-0.17720231,0.346136,0.20608643,-0.16948471,0.336365,0.28979315,-0.20848728,0.375634,0.27023031,-0.20430082,0.351217,0.30624448,-0.23596903,0.372793,0.32113163,-0.24880036,0.388398,0.30569356,-0.19888452,0.374927,0.29660017,-0.20362716,0.352919,0.29991926,-0.21172306,0.34166,0.3094007,-0.21660552,0.350356,0.33144058,-0.19341481,0.376876,0.31249746,-0.19429587,0.356143,0.33430676,-0.21703667,0.369927,0.35208754,-0.2291361,0.382569
0.3740237,-0.27720942,0.410261,0.32420358,-0.23916061,0.39143,0.3535314,-0.28450179,0.408593,0.31916334,-0.27979525,0.394106,0.28286395,-0.26429665,0.374145,0.25923031,-0.250903,0.362102,0.27564245,-0.22437416,0.379048,0.23460131,-0.18599331,0.357382,0.22017673,-0.1777391,0.34655,0.20726741,-0.17076813,0.336702,0.29009489,-0.20861652,0.376052,0.26967909,-0.20374688,0.350732,0.30530975,-0.23513972,0.371893,0.32022713,-0.24767007,0.387694,0.30590556,-0.19895532,0.375229,0.29603594,-0.20312808,0.352469,0.29902306,-0.211009,0.340824,0.30815385,-0.21567666,0.349052,0.3316837,-0.19351309,0.377206,0.31204646,-0.19391559,0.355828,0.33357251,-0.21646374,0.369328,0.35149376,-0.22867591,0.382087
0.37103899,-0.27673047,0.407857,0.32563472,-0.2395711,0.39246,0.35088151,-0.28352044,0.407122,0.31266559,-0.27403882,0.394406,0.27564076,-0.25754881,0.373567,0.25416326,-0.24063793,0.359485,0.28098848,-0.21896065,0.383138,0.24792676,-0.17794416,0.363913,0.23669274,-0.17173809,0.3543,0.22626026,-0.16602559,0.345561,0.29640335,-0.20478081,0.379887,0.26455828,-0.18417522,0.357833,0.29871969,-0.21555603,0.380111,0.32192415,-0.23351081,0.395081,0.31242815,-0.19660598,0.378555,0.30092598,-0.19656178,0.3589,0.30619927,-0.20797258,0.348845,0.31833631,-0.2212775,0.358625,0.33495057,-0.19415274,0.379397,0.31716233,-0.19601573,0.360632,0.3399746,-0.21870805,0.374924,0.35850022,-0.2309351,0.38707
0.37113974,-0.27835501,0.408889,0.32790276,-0.24160329,0.396157,0.34928134,-0.28315438,0.40673,0.31068103,-0.27241062,0.392596,0.27388253,-0.25547433,0.371594,0.25265339,-0.23859923,0.357739,0.2830658,-0.2209728,0.386473,0.2514393,-0.17909045,0.368361,0.24019058,-0.1720903,0.359305,0.22979814,-0.16711265,0.351072,0.30056072,-0.20827525,0.38576,0.26980564,-0.18810486,0.365724,0.30449691,-0.22029171,0.389026,0.32767355,-0.23856424,0.403587,0.31829207,-0.20112858,0.386284,0.30770781,-0.20168358,0.36767,0.31371635,-0.21365055,0.358146,0.32831229,-0.22786544,0.36884,0.34532674,-0.19874784,0.388887,0.31991305,-0.20427017,0.371125,0.33087651,-0.22931888,0.386088,0.34324296,-0.24232063,0.398141
0.37097053,-0.28047142,0.409593,0.33337514,-0.24526786,0.399262,0.34762058,-0.28337773,0.406133,0.31183189,-0.27303349,0.390836,0.27311091,-0.25408131,0.369976,0.252338,-0.23677682,0.356448,0.28891118,-0.22710633,0.389228,0.25961731,-0.18859975,0.372612,0.2445863,-0.17583741,0.364304,0.23398709,-0.16823385,0.356752,0.30853481,-0.21660537,0.390826,0.2773762,-0.18531157,0.372728,0.30497131,-0.21676282,0.396535,0.33097008,-0.2417762,0.410554,0.32783055,-0.21116759,0.393044,0.30390844,-0.18506335,0.375473,0.30306247,-0.19909792,0.366484,0.31906381,-0.21999814,0.377751,0.35633884,-0.21072198,0.397256,0.32940243,-0.21099769,0.380522,0.34040719,-0.23673464,0.395816,0.35277878,-0.2503157,0.407637
0.37012423,-0.28151078,0.409008,0.33422195,-0.24604204,0.399581,0.34667114,-0.2835946,0.405671,0.31154285,-0.27281985,0.390722,0.27348547,-0.25325783,0.369861,0.25264037,-0.2358321,0.356833,0.29077482,-0.22693134,0.390195,0.26242115,-0.18848068,0.374402,0.24996896,-0.17631166,0.366505,0.23728605,-0.16643564,0.359326,0.31065817,-0.21669576,0.391882,0.28036034,-0.18532818,0.37465,0.30791943,-0.21684167,0.398638,0.33185312,-0.24194993,0.4124,0.33007536,-0.21146041,0.394094,0.30691875,-0.18528939,0.377298,0.30611216,-0.1996014,0.368704,0.32225251,-0.22093042,0.380291,0.35854437,-0.21123385,0.398159,0.33330519,-0.21299512,0.382092,0.3429216,-0.2379918,0.397518,0.35515428,-0.25177214,0.409154
0.36869211,-0.28696948,0.409086,0.3358962,-0.24910939,0.401023,0.34474824,-0.28696773,0.405771,0.30924542,-0.27223632,0.391154,0.27330561,-0.25213332,0.369787,0.25404417,-0.23339253,0.359495,0.29270313,-0.22730509,0.392408,0.27181846,-0.18239577,0.378065,0.26338839,-0.17428528,0.370893,0.25554651,-0.16665894,0.364373,0.31349616,-0.21810664,0.394439,0.28601345,-0.1858477,0.378493,0.31437583,-0.21684229,0.402705,0.33524463,-0.24313507,0.416073,0.33343485,-0.21377489,0.396814,0.31696643,-0.19023589,0.381099,0.31672085,-0.20506386,0.373059,0.32820841,-0.22481761,0.385071,0.36421753,-0.21877012,0.400857,0.34134622,-0.2196334,0.385739,0.35303467,-0.24477817,0.40133,0.36266909,-0.26338156,0.412696
0.3671444,-0.28730377,0.407698,0.33803948,-0.25212064,0.401858,0.34406104,-0.28752865,0.405309,0.31297402,-0.27443004,0.392353,0.2756512,-0.2534456,0.371293,0.25496082,-0.23480297,0.359825,0.29609893,-0.22943558,0.395635,0.27679008,-0.1865146,0.383175,0.26876145,-0.17808713,0.376945,0.26126185,-0.17011832,0.371282,0.3178029,-0.22022128,0.397089,0.29910779,-0.19988631,0.38342,0.33251171,-0.23489009,0.40805,0.3514592,-0.25519188,0.420726,0.33850147,-0.21754394,0.398796,0.32150266,-0.19333437,0.385379,0.32256622,-0.20870886,0.378515,0.33893054,-0.23132002,0.391409,0.36609135,-0.21986989,0.401708,0.34507759,-0.22170851,0.388523,0.35713003,-0.24742355,0.404436,0.36613142,-0.26657892,0.415246
0.36695036,-0.28834112,0.407756,0.3391217,-0.25300661,0.402628,0.34475241,-0.28775192,0.405847,0.31312641,-0.27489459,0.393655,0.27809387,-0.25173783,0.373242,0.25838662,-0.23350079,0.362797,0.29895398,-0.23013021,0.397403,0.27937199,-0.18800017,0.385606,0.27238312,-0.17996847,0.379708,0.26411025,-0.17137524,0.374346,0.32048264,-0.22179772,0.398441,0.30119384,-0.20075077,0.385541,0.33462828,-0.23599023,0.410301,0.35336371,-0.25624244,0.42274,0.33999992,-0.21831517,0.399743,0.32363159,-0.1944805,0.387175,0.32507481,-0.21009817,0.380745,0.3417776,-0.23295941,0.393952,0.36705824,-0.22030085,0.40207,0.34663082,-0.22246917,0.389588,0.3587417,-0.24835714,0.405604,0.3674686,-0.26767433,0.416208
0.36801679,-0.29013133,0.40916,0.34022163,-0.25380077,0.403513,0.34521895,-0.28998895,0.407178,0.31336336,-0.2752643,0.394774,0.2791543,-0.25195723,0.374344,0.25901947,-0.2339998,0.363011,0.29990142,-0.23041143,0.397914,0.2799376,-0.1881237,0.385634,0.27186751,-0.17976867,0.379494,0.2643245,-0.17186689,0.373912,0.32139907,-0.22210362,0.398903,0.30133033,-0.20062415,0.385495,0.33453275,-0.23589669,0.410186,0.35342431,-0.256237,0.422786,0.34092528,-0.21865279,0.400209,0.32399773,-0.19462577,0.387187,0.32514851,-0.21010902,0.380524,0.34174924,-0.23284305,0.393568,0.36807299,-0.22072597,0.402623,0.34708441,-0.22269316,0.389747,0.35911719,-0.24857906,0.40571,0.36790716,-0.26808769,0.416431
0.36947108,-0.29325612,0.411173,0.34199142,-0.25487964,0.404968,0.34660254,-0.29250335,0.409288,0.31517656,-0.27643112,0.396875,0.28112197,-0.25303781,0.376434,0.26274381,-0.23439515,0.36553,0.30310198,-0.2314789,0.399188,0.2820629,-0.18909008,0.386429,0.27367964,-0.18070485,0.380049,0.26518892,-0.17247329,0.374249,0.323792,-0.22305463,0.399901,0.30220487,-0.20086866,0.385984,0.335278,-0.23618819,0.410606,0.35436802,-0.25661926,0.423369,0.3431438,-0.21947882,0.40103,0.33077471,-0.20626347,0.387624,0.33207349,-0.22335634,0.380765,0.3474858,-0.24248145,0.393667,0.37017649,-0.22144066,0.403323,0.34792567,-0.22301173,0.390099,0.35991141,-0.24889194,0.406012,0.36878794,-0.26853439,0.416836
0.36834501,-0.29471628,0.410563,0.34302315,-0.25570856,0.405282,0.34578275,-0.29345237,0.409027,0.3158147,-0.27657628,0.397267,0.28305224,-0.25289856,0.37776,0.26324877,-0.23413975,0.367547,0.3046296,-0.23203541,0.400448,0.28762831,-0.18925763,0.388588,0.28406662,-0.1819301,0.382657,0.27902639,-0.17556042,0.377266,0.32536995,-0.22371905,0.400969,0.31120684,-0.19948642,0.387999,0.34111893,-0.23654615,0.412763,0.35691148,-0.25755827,0.425228,0.34462241,-0.22023497,0.40186,0.33903247,-0.20578605,0.389394,0.33626532,-0.22418429,0.383016,0.35053441,-0.24361918,0.396259,0.37248997,-0.22271317,0.403728,0.35705966,-0.22456598,0.391301,0.36265312,-0.2500945,0.407326,0.37014574,-0.26929121,0.417913
0.36922957,-0.29725054,0.411983,0.34405656,-0.25647411,0.406141,0.3467464,-0.29555475,0.410538,0.31726006,-0.27751959,0.398765,0.28399912,-0.25349085,0.379238,0.26421841,-0.2348187,0.369281,0.30552208,-0.23230771,0.401119,0.28840837,-0.18915543,0.388774,0.28402504,-0.18190347,0.382601,0.27882226,-0.17543199,0.37699,0.3261717,-0.22398865,0.40137,0.311117,-0.19942884,0.387887,0.34192264,-0.23609526,0.412578,0.3575507,-0.25741908,0.425205,0.34532942,-0.22056068,0.402087,0.33889316,-0.2057015,0.389234,0.33669285,-0.22381082,0.382658,0.350325,-0.24335849,0.395755,0.37300374,-0.22328632,0.40384,0.35684248,-0.22442939,0.391063,0.36298844,-0.24997224,0.407035,0.37026815,-0.269215,0.417725
0.3775864,-0.30577284,0.421483,0.35278946,-0.26289081,0.414744,0.3500925,-0.29954324,0.414599,0.31905788,-0.27809421,0.399979,0.28892216,-0.25625926,0.385522,0.2707936,-0.23779656,0.376934,0.30904318,-0.23228021,0.402305,0.31322798,-0.19923356,0.412489,0.31650756,-0.19727422,0.417582,0.3146634,-0.19598485,0.422211,0.33561407,-0.22851641,0.409242,0.3179504,-0.20254043,0.394118,0.34933396,-0.23816509,0.417353,0.36323364,-0.26028314,0.430117,0.3608872,-0.22942861,0.41554,0.35344606,-0.21775648,0.399004,0.34954307,-0.23523865,0.390543,0.35639274,-0.24823728,0.401621,0.3941672,-0.23693448,0.423976,0.37451384,-0.23442903,0.408528,0.38216007,-0.26018044,0.423423,0.38652532,-0.280388,0.434635
0.37882964,-0.30795277,0.423234,0.35393265,-0.26365035,0.415666,0.35111537,-0.30102503,0.416091,0.3201915,-0.27870549,0.40106,0.2901035,-0.25677784,0.38683,0.27190617,-0.23823147,0.378353,0.30973196,-0.2322096,0.402445,0.31335632,-0.19931519,0.412658,0.31664551,-0.1973602,0.417764,0.31600327,-0.1958307,0.422406,0.33648444,-0.22873021,0.409485,0.31839599,-0.20219657,0.393538,0.34945299,-0.23774985,0.416594,0.3635648,-0.2599626,0.4296,0.36191452,-0.22987477,0.415942,0.35309527,-0.21754036,0.398608,0.34882437,-0.23475497,0.38974,0.35590955,-0.24829449,0.40049,0.39547149,-0.23779027,0.424692,0.3754167,-0.23444084,0.408569,0.38280729,-0.26004921,0.423331,0.38714788,-0.28031555,0.434729
0.3790387,-0.30941669,0.424258,0.35544361,-0.26468166,0.41728,0.35186904,-0.30239926,0.417625,0.32173814,-0.27930789,0.402876,0.29126191,-0.25752024,0.388125,0.2723138,-0.23919085,0.378703,0.31206731,-0.23333648,0.405031,0.31434059,-0.19955866,0.414048,0.31773741,-0.19760074,0.418556,0.32082254,-0.19537922,0.422654,0.33862414,-0.22975735,0.411582,0.33239858,-0.21609242,0.396245,0.36302364,-0.25533585,0.419586,0.37568099,-0.2729978,0.43246,0.36367951,-0.23076118,0.417584,0.35916935,-0.22833275,0.400974,0.35283549,-0.24537169,0.392475,0.36039258,-0.25507746,0.40361,0.3966005,-0.23858034,0.425708,0.38031415,-0.23586769,0.410164,0.38709955,-0.26129173,0.42513,0.38914258,-0.28108784,0.436404
0.38055095,-0.31068577,0.425816,0.35640843,-0.2652439,0.418296,0.35331042,-0.30335077,0.419025,0.32214562,-0.27979764,0.40371,0.29182178,-0.25799208,0.388744,0.27278167,-0.23950634,0.379207,0.31270163,-0.23325696,0.40555,0.31473823,-0.19948533,0.414645,0.31841996,-0.19761218,0.419192,0.32179118,-0.19547455,0.423325,0.33937254,-0.22985766,0.412155,0.3322287,-0.21536819,0.396281,0.36276075,-0.25445929,0.41951,0.37561101,-0.27233742,0.432544,0.36445118,-0.2309776,0.418249,0.35909413,-0.22766899,0.401123,0.35256695,-0.24457334,0.392361,0.35987015,-0.25548481,0.403287,0.39748537,-0.23906699,0.426566,0.38102147,-0.23602773,0.410584,0.38757833,-0.26125187,0.425467,0.39142793,-0.28031448,0.436862
0.38291234,-0.31294799,0.428795,0.35823838,-0.26634598,0.419916,0.35524024,-0.30499805,0.42148,0.32450813,-0.28169218,0.406454,0.29557985,-0.26000454,0.393188,0.2760644,-0.24148071,0.384927,0.31315526,-0.23328268,0.405762,0.31460753,-0.19926262,0.414299,0.31837914,-0.19756249,0.418568,0.32186338,-0.19561819,0.422448,0.34066419,-0.23018257,0.412666,0.33553286,-0.22188669,0.395442,0.36142044,-0.26200045,0.418309,0.37471303,-0.27436796,0.432733,0.3654786,-0.2315117,0.419124,0.35928017,-0.22668732,0.400651,0.35198989,-0.24317562,0.391199,0.35834056,-0.25445934,0.40153,0.39906542,-0.24004581,0.428081,0.38277848,-0.23795867,0.41097,0.38785224,-0.26203458,0.425588,0.39209983,-0.28039781,0.437278
0.38432078,-0.31442792,0.430719,0.35961325,-0.26717094,0.421081,0.356675,-0.30624157,0.42336,0.32657763,-0.28301817,0.408397,0.29619652,-0.26259844,0.395181,0.27678501,-0.24283963,0.386374,0.31390045,-0.2335925,0.406457,0.31492891,-0.19941346,0.414638,0.31875102,-0.19779622,0.418728,0.32230095,-0.19594804,0.422446,0.3412925,-0.23046528,0.41321,0.33511572,-0.22148357,0.395254,0.36091915,-0.26145459,0.418026,0.3737773,-0.27495886,0.432386,0.36605523,-0.23180825,0.419611,0.35930314,-0.22610252,0.400507,0.35166995,-0.24238711,0.390733,0.35767875,-0.25400233,0.40084,0.39963284,-0.24043238,0.428619,0.38190269,-0.23755988,0.410956,0.38779147,-0.26235841,0.425501,0.39235256,-0.28025519,0.437357
0.38619062,-0.31626212,0.43322,0.36180426,-0.26852602,0.423172,0.35825594,-0.3075409,0.42545,0.32791794,-0.28433262,0.410714,0.29705187,-0.26210722,0.395622,0.27707015,-0.24297148,0.386499,0.31653639,-0.23349135,0.4078,0.31604685,-0.19968631,0.415545,0.31985611,-0.19804835,0.419417,0.32341007,-0.19619462,0.422938,0.34401181,-0.2312101,0.414966,0.33693971,-0.22308503,0.396588,0.36215093,-0.26282386,0.419113,0.37457091,-0.27641906,0.433642,0.36912895,-0.23314297,0.421742,0.36108797,-0.22656297,0.402115,0.35326753,-0.24280463,0.392073,0.35881689,-0.2566846,0.401873,0.40301401,-0.24256405,0.431254,0.38497408,-0.2399641,0.413179,0.39012609,-0.264351,0.427549,0.39603154,-0.27968874,0.439482
