sluyters/QuantumLeap/backend/src/datasets/gesture/HandGestureDataset_SHREC2017_csv/Gesture6/finger_1/subject_12_essai_1_skeletons_world.csv
Wrist_x,Wrist_y,Wrist_z,Palm_x,Palm_y,Palm_z,thumb_base_x,thumb_base_y,thumb_base_z,thumb_first_joint_x,thumb_first_joint_y,thumb_first_joint_z,thumb_second_joint_x,thumb_second_joint_y,thumb_second_joint_z,thumb_tip_x,thumb_tip_y,thumb_tip_z,index_base_x,index_base_y,index_base_z,index_first_joint_x,index_first_joint_y,index_first_joint_z,index_second_joint_x,index_second_joint_y,index_second_joint_z,index_tip_x,index_tip_y,index_tip_z,middle_base_x,middle_base_y,middle_base_z,middle_first_joint_x,middle_first_joint_y,middle_first_joint_z,middle_second_joint_x,middle_second_joint_y,middle_second_joint_z,middle_tip_x,middle_tip_y,middle_tip_z,ring_base_x,ring_base_y,ring_base_z,ring_first_joint_x,ring_first_joint_y,ring_first_joint_z,ring_second_joint_x,ring_second_joint_y,ring_second_joint_z,ring_tip_x,ring_tip_y,ring_tip_z,pinky_base_x,pinky_base_y,pinky_base_z,pinky_first_joint_x,pinky_first_joint_y,pinky_first_joint_z,pinky_second_joint_x,pinky_second_joint_y,pinky_second_joint_z,pinky_tip_x,pinky_tip_y,pinky_tip_z,
0.42210221,-0.33777976,0.440618,0.42469269,-0.2944168,0.440308,0.40672852,-0.32488599,0.444943,0.40139231,-0.29769408,0.451928,0.38641295,-0.26504339,0.44525,0.3822604,-0.24605552,0.446152,0.40871478,-0.24806472,0.445355,0.39528686,-0.21318981,0.441727,0.38845968,-0.19568701,0.439913,0.38218064,-0.17972275,0.438264,0.42748326,-0.24743432,0.439956,0.41941603,-0.20526606,0.433669,0.41363008,-0.19131683,0.430002,0.40913228,-0.18336746,0.427383,0.4430222,-0.24995372,0.435537,0.43709093,-0.21080303,0.43045,0.43469827,-0.20071672,0.427847,0.43103207,-0.19510973,0.425481,0.46175455,-0.2589469,0.430306,0.45676759,-0.22736505,0.424749,0.45322637,-0.21312857,0.422195,0.45063005,-0.20028606,0.419942
0.42216564,-0.33764103,0.440188,0.42465305,-0.29423822,0.439862,0.40663236,-0.32472855,0.444435,0.40131215,-0.29741498,0.451471,0.38654214,-0.26461527,0.44458,0.38251873,-0.24571244,0.445701,0.40844927,-0.24794823,0.444802,0.39502771,-0.21303466,0.441107,0.38820668,-0.19551846,0.439259,0.3819362,-0.17954601,0.43758,0.42732386,-0.24732477,0.439492,0.41914781,-0.20516703,0.433172,0.41313276,-0.1910868,0.429485,0.408623,-0.18313921,0.426851,0.44295467,-0.24984212,0.435149,0.43711022,-0.21074698,0.430053,0.43429085,-0.2005286,0.427446,0.43062179,-0.19492402,0.425076,0.46181388,-0.25881671,0.43001,0.45635925,-0.22743173,0.424408,0.4528418,-0.21349265,0.421833,0.45018094,-0.20088017,0.419562
0.41778217,-0.33397513,0.435348,0.42327694,-0.29306903,0.438042,0.40328129,-0.32189554,0.440539,0.39869578,-0.29527095,0.448383,0.38428262,-0.26097952,0.439229,0.38086698,-0.24430285,0.443477,0.41048053,-0.24908436,0.446487,0.40057761,-0.21554815,0.445268,0.39571338,-0.19740331,0.444658,0.39052371,-0.18247095,0.444104,0.42939121,-0.24846585,0.441101,0.42462811,-0.20833929,0.437628,0.42076435,-0.19001174,0.435603,0.41750571,-0.17685287,0.434156,0.44479933,-0.25084927,0.43647,0.44244413,-0.2131318,0.433947,0.44285652,-0.20508484,0.432657,0.4384357,-0.19736631,0.431483,0.46288642,-0.25937686,0.430559,0.45998404,-0.22847239,0.427184,0.45861849,-0.21390466,0.425633,0.45679535,-0.20291423,0.424265
0.41718686,-0.33335358,0.434444,0.4233421,-0.2930187,0.43776,0.40154821,-0.32038135,0.438361,0.39591536,-0.29064848,0.436416,0.37203574,-0.25243594,0.416913,0.37047192,-0.23282401,0.417523,0.41005834,-0.24932828,0.44513,0.40313665,-0.2158565,0.443295,0.4001576,-0.20127437,0.442377,0.39462373,-0.18587701,0.441543,0.43056767,-0.24973607,0.441524,0.42619771,-0.20932573,0.438272,0.42443197,-0.19522774,0.436374,0.41811278,-0.18726176,0.435019,0.44738058,-0.25292758,0.438312,0.4470164,-0.21545555,0.435788,0.44501029,-0.20525535,0.434497,0.44314291,-0.19537524,0.433323,0.46700069,-0.2620165,0.434006,0.46396742,-0.23052654,0.430446,0.46249914,-0.21577844,0.42881,0.46039832,-0.20520286,0.427366
0.4193602,-0.33424287,0.435986,0.42648326,-0.29460113,0.440365,0.4023707,-0.32029972,0.438586,0.3910133,-0.2863198,0.433714,0.37021316,-0.25042305,0.415084,0.3637592,-0.22803692,0.410337,0.41448608,-0.25104609,0.446953,0.40740532,-0.21829126,0.444916,0.40359081,-0.2021495,0.443898,0.39813134,-0.18677441,0.442972,0.43690218,-0.25268814,0.445337,0.43283674,-0.21227247,0.442734,0.43012745,-0.1973509,0.441216,0.42813894,-0.18631877,0.440131,0.45532009,-0.25675831,0.443684,0.4527648,-0.2180482,0.441494,0.45133565,-0.20692407,0.440375,0.45049039,-0.19425641,0.439356,0.47798485,-0.266556,0.441087,0.47657196,-0.23371903,0.437647,0.47566559,-0.21876844,0.436067,0.47077455,-0.20645655,0.434673
0.42019825,-0.33415654,0.436178,0.42718554,-0.29460287,0.440458,0.40164569,-0.31910526,0.437151,0.39098274,-0.28489001,0.430267,0.36951691,-0.24916049,0.412388,0.36413065,-0.22663909,0.40459,0.41307851,-0.25041096,0.444979,0.40844143,-0.22410658,0.441796,0.40538903,-0.20930807,0.440205,0.40202463,-0.19869286,0.438758,0.437263,-0.25292877,0.445317,0.43292365,-0.21237511,0.442317,0.4299181,-0.19701845,0.440567,0.42770574,-0.18591644,0.439317,0.45732956,-0.25771328,0.445279,0.45444237,-0.21851847,0.442226,0.45389614,-0.20426279,0.440664,0.45257812,-0.19148546,0.439244,0.48210085,-0.26846717,0.444624,0.48091886,-0.23535717,0.440509,0.48020479,-0.22009359,0.438618,0.47947916,-0.20829573,0.43695
0.42313519,-0.33572261,0.438093,0.43292901,-0.29503826,0.441885,0.40429176,-0.32063381,0.438973,0.40446067,-0.28811786,0.43188,0.38251088,-0.25216694,0.417554,0.38049379,-0.230371,0.403714,0.41423433,-0.25088783,0.445914,0.4068651,-0.21943863,0.442365,0.40372496,-0.20220568,0.44059,0.4020036,-0.19602197,0.438977,0.4384433,-0.25321104,0.446191,0.43191159,-0.21179297,0.442736,0.4303036,-0.19689862,0.44072,0.42798391,-0.18576488,0.43928,0.45911624,-0.25775217,0.446138,0.45573471,-0.21851707,0.442705,0.45696177,-0.20302689,0.440948,0.45424795,-0.19023705,0.439351,0.48348474,-0.26853179,0.445536,0.48209231,-0.23581424,0.441077,0.48129662,-0.22066657,0.439028,0.48054292,-0.20833326,0.43722
0.42468882,-0.33596387,0.438499,0.43354399,-0.29523264,0.441907,0.40534635,-0.32069175,0.438988,0.40385458,-0.28823309,0.431348,0.38175771,-0.25208686,0.416606,0.37927948,-0.23010019,0.402583,0.41382203,-0.25059408,0.445158,0.40988305,-0.21887605,0.441115,0.40692882,-0.20775439,0.439093,0.4030327,-0.19899452,0.437255,0.43834466,-0.25294701,0.445776,0.43458043,-0.21189258,0.441908,0.43156066,-0.1960103,0.439652,0.42844526,-0.18437514,0.43804,0.45931812,-0.25753156,0.446032,0.45591203,-0.21822743,0.442165,0.45707563,-0.20136598,0.440186,0.45567866,-0.18690424,0.438387,0.48422633,-0.26846821,0.445853,0.48284027,-0.23544507,0.44101,0.48204086,-0.22016723,0.438784,0.48275136,-0.20651251,0.436821
0.42606153,-0.33576547,0.438362,0.43766018,-0.29577815,0.441839,0.40808399,-0.32118475,0.439557,0.40593363,-0.28998738,0.432783,0.38376478,-0.2542256,0.41794,0.37916459,-0.23126116,0.403723,0.42526921,-0.25227672,0.446006,0.41877483,-0.22580169,0.442467,0.4154086,-0.21163391,0.440697,0.40864629,-0.20240056,0.439088,0.4486836,-0.25385896,0.445786,0.44084809,-0.2126242,0.442103,0.4369102,-0.1952208,0.439955,0.4305762,-0.18503616,0.438421,0.46828091,-0.25795331,0.445347,0.45914743,-0.21822661,0.441801,0.45845235,-0.19997001,0.439987,0.45720664,-0.18217089,0.438338,0.49201282,-0.2685086,0.444329,0.48650368,-0.23455942,0.439785,0.48417909,-0.21931081,0.437698,0.48289946,-0.20600413,0.435856
0.42727511,-0.33544311,0.438063,0.43871631,-0.29590986,0.441852,0.40953229,-0.32097244,0.439314,0.40619401,-0.29030817,0.432669,0.38385916,-0.2545778,0.417122,0.37828645,-0.23126787,0.402601,0.42557815,-0.25245998,0.44633,0.4196859,-0.22526242,0.443022,0.41663923,-0.21072543,0.441369,0.41039325,-0.20210023,0.439865,0.44905299,-0.25406796,0.446153,0.4423048,-0.21321198,0.442761,0.43647422,-0.19632459,0.440782,0.43204642,-0.18596322,0.439369,0.46868047,-0.25817341,0.445727,0.46049638,-0.21873687,0.442431,0.45952182,-0.20018406,0.440744,0.45797003,-0.1822178,0.43921,0.49240149,-0.26872071,0.44468,0.49038424,-0.23518435,0.440354,0.48948328,-0.21949555,0.438367,0.48736847,-0.20537993,0.436613
0.42826844,-0.3349335,0.437949,0.43743783,-0.2953364,0.441978,0.4078291,-0.3188669,0.437197,0.40235338,-0.28336122,0.428217,0.38620655,-0.24399259,0.410123,0.38176376,-0.22069547,0.403545,0.42366401,-0.25101791,0.444194,0.41748494,-0.22473289,0.439753,0.41675459,-0.21659456,0.437532,0.41396805,-0.21242554,0.435513,0.44960643,-0.25469591,0.446553,0.44523927,-0.21452233,0.443053,0.4459365,-0.19679162,0.441012,0.44497092,-0.18254056,0.439553,0.47134798,-0.26047387,0.448195,0.46613923,-0.2212656,0.444079,0.4670738,-0.20416693,0.441973,0.46101086,-0.18351129,0.440059,0.49767062,-0.27299054,0.449582,0.4986766,-0.24173855,0.444778,0.4993318,-0.22596725,0.442571,0.49715085,-0.20948237,0.440624
0.42982701,-0.33460375,0.438141,0.4391157,-0.29500609,0.441301,0.4086,-0.31787693,0.436547,0.40305649,-0.27926272,0.426408,0.3866111,-0.24275649,0.407341,0.38213082,-0.21911839,0.399454,0.42202717,-0.24914402,0.441813,0.41541962,-0.22480115,0.436299,0.41373228,-0.21579049,0.433542,0.41095673,-0.2095453,0.431036,0.44864672,-0.25349732,0.44489,0.44581243,-0.21433586,0.440484,0.44373857,-0.19403373,0.437914,0.44227547,-0.17890079,0.436079,0.4710274,-0.2598534,0.447187,0.46835702,-0.22138872,0.442272,0.46675249,-0.2019922,0.439757,0.46532599,-0.18403133,0.437471,0.49826901,-0.27311507,0.44948,0.49902975,-0.24026548,0.443776,0.49917145,-0.22428162,0.441155,0.49693938,-0.20888464,0.438843
0.43201888,-0.33457565,0.438756,0.43919492,-0.29427194,0.440922,0.41011363,-0.31738241,0.436531,0.40249873,-0.27794659,0.425457,0.3865225,-0.24180267,0.405725,0.38298688,-0.21716611,0.394113,0.42056201,-0.24736736,0.439887,0.4130782,-0.22328993,0.433356,0.41080428,-0.21442065,0.430091,0.40795614,-0.20821149,0.427122,0.44755388,-0.25210542,0.44338,0.4443811,-0.2119883,0.437989,0.44092986,-0.19197558,0.434844,0.43900404,-0.17694948,0.432597,0.4703269,-0.25881166,0.446094,0.46435388,-0.21886727,0.440053,0.46589972,-0.19988944,0.436962,0.46404926,-0.18176133,0.434152,0.49820458,-0.27256384,0.449025,0.49693819,-0.23793581,0.44248,0.49778354,-0.22247539,0.439473,0.49557407,-0.20757483,0.436819
0.43320689,-0.33405225,0.438848,0.43933168,-0.29377246,0.440715,0.41111471,-0.31664681,0.43641,0.40226644,-0.27732137,0.425031,0.386648,-0.24143187,0.405095,0.38286264,-0.2168779,0.3934,0.42014368,-0.24651345,0.439188,0.41238603,-0.22276902,0.432339,0.40986421,-0.21400882,0.428915,0.40706215,-0.20785347,0.425802,0.44728957,-0.2514404,0.442834,0.44352242,-0.21126668,0.437145,0.44005045,-0.19117593,0.433827,0.43797697,-0.17621976,0.431456,0.47020795,-0.25830954,0.445696,0.46426724,-0.21856611,0.439284,0.46490408,-0.19956624,0.436004,0.46287465,-0.18151086,0.433021,0.49830052,-0.27227251,0.448847,0.49688833,-0.23745996,0.442043,0.4974134,-0.22171729,0.438918,0.49538377,-0.20705331,0.43616
0.43292512,-0.33302462,0.437789,0.43963043,-0.29278658,0.439972,0.41110465,-0.31565741,0.435479,0.40186499,-0.27707699,0.424312,0.38680313,-0.24140449,0.403174,0.38144264,-0.21701798,0.392138,0.42097165,-0.24512564,0.438847,0.41253332,-0.22277157,0.432276,0.40989264,-0.21419402,0.428991,0.4071467,-0.20816754,0.426004,0.44735386,-0.25095794,0.442451,0.44356729,-0.21104143,0.437065,0.44015149,-0.19098418,0.433923,0.43804798,-0.17613297,0.431679,0.47020656,-0.25782025,0.445254,0.4646596,-0.21825189,0.439093,0.46484269,-0.19900302,0.43594,0.45882009,-0.18077959,0.433074,0.498152,-0.27173703,0.44829,0.49895137,-0.23646327,0.44177,0.49863348,-0.22032093,0.438775,0.49744565,-0.20713924,0.436132
0.43353297,-0.33259162,0.437592,0.4397002,-0.29240621,0.439744,0.41182666,-0.31511343,0.435299,0.40189223,-0.27711741,0.424144,0.38657152,-0.24175477,0.402781,0.38086118,-0.21725635,0.391659,0.42105829,-0.24483844,0.438616,0.41245257,-0.22267292,0.432036,0.40962811,-0.21416946,0.428745,0.40683532,-0.20818912,0.425754,0.44742657,-0.25060991,0.442188,0.44334962,-0.21078996,0.436776,0.4398456,-0.19069408,0.433619,0.4376245,-0.17588565,0.431364,0.47025249,-0.25747904,0.444967,0.46480085,-0.21796197,0.438825,0.46457166,-0.19856541,0.435682,0.45899269,-0.18046607,0.432825,0.49815915,-0.27140018,0.447979,0.49906274,-0.23602831,0.441535,0.49878673,-0.21990998,0.438574,0.49766232,-0.20671134,0.435962
0.43329126,-0.3316452,0.436948,0.44020227,-0.29172704,0.439257,0.41181354,-0.31410543,0.434728,0.40159524,-0.27692805,0.42369,0.38611483,-0.24179946,0.402204,0.38021808,-0.21726972,0.391077,0.42101248,-0.24457083,0.438339,0.41243505,-0.22262214,0.431901,0.40954778,-0.21420872,0.428683,0.40678641,-0.20829334,0.425757,0.44737531,-0.25027892,0.441877,0.44323765,-0.21063813,0.436616,0.4397743,-0.1905506,0.433547,0.4375411,-0.17579695,0.431355,0.47015519,-0.25714095,0.444618,0.46492593,-0.21775344,0.438642,0.46447101,-0.19830817,0.435585,0.45931274,-0.1802948,0.432806,0.49796878,-0.27103156,0.447561,0.4990493,-0.23569728,0.441301,0.49887043,-0.21962823,0.438424,0.49786901,-0.20642713,0.435886
0.43308701,-0.33068073,0.436395,0.43993225,-0.2913077,0.438848,0.4118286,-0.31306404,0.434241,0.401334,-0.2767595,0.423309,0.38573978,-0.24180072,0.401741,0.37972153,-0.2172579,0.390623,0.42097107,-0.24436615,0.438124,0.4124434,-0.22259449,0.431819,0.4095167,-0.21425341,0.428667,0.40678959,-0.208392,0.425801,0.44733904,-0.25001691,0.441633,0.44316806,-0.21053466,0.436512,0.43975331,-0.19045697,0.433525,0.43752184,-0.17574776,0.431391,0.47007741,-0.25687065,0.444339,0.46503634,-0.21759737,0.438512,0.46441535,-0.19813151,0.435531,0.45960129,-0.18017013,0.432821,0.4978079,-0.27073209,0.447219,0.49901699,-0.23545039,0.441114,0.49892109,-0.21942316,0.438309,0.49802988,-0.20621626,0.435834
0.43332814,-0.33051886,0.436708,0.43994647,-0.29082394,0.438675,0.41176505,-0.31253424,0.434222,0.400945,-0.27652801,0.422809,0.38526936,-0.24175783,0.402232,0.37954715,-0.2174376,0.391738,0.41980742,-0.24408827,0.437166,0.4114295,-0.2221901,0.430351,0.40790676,-0.21414574,0.426943,0.40453774,-0.21644492,0.423845,0.44705568,-0.24931846,0.440907,0.44112719,-0.20988758,0.435303,0.43734416,-0.19018516,0.432033,0.43458167,-0.17633518,0.429698,0.47002088,-0.25641621,0.44384,0.46573116,-0.21708399,0.437612,0.4631156,-0.19753776,0.434425,0.46075461,-0.17939608,0.431529,0.49848737,-0.27022332,0.44706,0.49915909,-0.23477712,0.44094,0.49974278,-0.21822913,0.438128,0.49793314,-0.20587043,0.435647
0.43254888,-0.32957721,0.435993,0.43950781,-0.29003971,0.43805,0.41103661,-0.31149806,0.433502,0.40034445,-0.27614317,0.422104,0.38470929,-0.24141769,0.401641,0.37913177,-0.21719616,0.391262,0.41967442,-0.2433384,0.436607,0.41087734,-0.22198544,0.429847,0.40734489,-0.2142634,0.426467,0.40410824,-0.21621512,0.423395,0.44698017,-0.24873594,0.440386,0.44124147,-0.20936114,0.434864,0.43769865,-0.18972055,0.431643,0.43514249,-0.17556561,0.429342,0.4699667,-0.25596286,0.443343,0.46518141,-0.21679137,0.43713,0.46251652,-0.19725163,0.433951,0.46010796,-0.17912849,0.431062,0.4984644,-0.26990264,0.44658,0.49889219,-0.23449026,0.440645,0.49946338,-0.21797907,0.437918,0.49787202,-0.20560152,0.435512
0.4325603,-0.32957044,0.43579,0.43992524,-0.2901322,0.438174,0.41089086,-0.31131544,0.433108,0.39966055,-0.27559295,0.42156,0.38360116,-0.24214892,0.398592,0.38308711,-0.22166904,0.387949,0.420154,-0.24323793,0.436749,0.41113454,-0.22225891,0.430082,0.40752214,-0.21472193,0.426748,0.40447546,-0.21148544,0.423717,0.44786586,-0.24882494,0.44088,0.44230621,-0.20941747,0.435633,0.43879156,-0.1899459,0.432572,0.43624123,-0.17614109,0.430386,0.47119576,-0.25621936,0.444103,0.46621123,-0.21739804,0.438049,0.46365245,-0.19778317,0.434952,0.46134032,-0.17959085,0.432137,0.49963175,-0.27077578,0.44761,0.50486989,-0.2369751,0.444604,0.51011412,-0.22430439,0.443222,0.51290447,-0.21095805,0.442003
0.43256144,-0.32981587,0.435847,0.4398841,-0.29020721,0.438103,0.41093701,-0.31152991,0.433177,0.39933223,-0.27554997,0.421616,0.38401647,-0.24259216,0.3987,0.38303872,-0.22164104,0.3879,0.42011678,-0.24313909,0.436594,0.41081165,-0.22216249,0.429853,0.40713523,-0.21498891,0.426482,0.40417883,-0.21191922,0.423418,0.4477731,-0.24869531,0.440665,0.44203275,-0.20898865,0.435302,0.43834951,-0.18986835,0.432174,0.43566423,-0.17655202,0.42994,0.47106172,-0.25607781,0.443846,0.46592615,-0.21724802,0.437696,0.46328224,-0.19758291,0.434549,0.46089118,-0.17935019,0.431688,0.499459,-0.27065058,0.447323,0.50507885,-0.23747417,0.444337,0.50981833,-0.22417433,0.442965,0.51261669,-0.21083968,0.441755
0.43242363,-0.33012221,0.435764,0.43982667,-0.29044747,0.438016,0.41088787,-0.31183713,0.433145,0.39898133,-0.27563708,0.421642,0.3843567,-0.24293596,0.398823,0.38306736,-0.22165761,0.387929,0.42020517,-0.24329915,0.436567,0.41071482,-0.22235557,0.429853,0.40698483,-0.21541019,0.426497,0.40419589,-0.21238681,0.423445,0.44780422,-0.24882686,0.440573,0.44200618,-0.20886358,0.435213,0.4382251,-0.18999897,0.432086,0.43545596,-0.17704602,0.429853,0.47104345,-0.25619545,0.443702,0.46590583,-0.21724969,0.437603,0.46325589,-0.1974692,0.434483,0.46085735,-0.17914856,0.431646,0.49936976,-0.2707691,0.447117,0.50519254,-0.2377677,0.444167,0.50964224,-0.2240969,0.442812,0.51245539,-0.21077334,0.441616
0.43148635,-0.32985201,0.4346,0.43917498,-0.29044592,0.437256,0.41005796,-0.31170854,0.432098,0.39779333,-0.27555459,0.420814,0.38409738,-0.2429115,0.399401,0.3769451,-0.21760075,0.38852,0.41988533,-0.24356566,0.436263,0.41050543,-0.22278967,0.429877,0.40677823,-0.21576733,0.426684,0.40406933,-0.21108369,0.423781,0.44749864,-0.2490281,0.440271,0.44208887,-0.20899035,0.435293,0.43845885,-0.19039767,0.432389,0.43579264,-0.17756803,0.430314,0.47072975,-0.25633016,0.443371,0.46581568,-0.21742233,0.43763,0.46327419,-0.19758679,0.434692,0.46097266,-0.17922491,0.432021,0.49899933,-0.27079999,0.446694,0.50633762,-0.23962323,0.444319,0.50978507,-0.2246423,0.443228,0.51279365,-0.2115243,0.442265
0.43134895,-0.33026288,0.434335,0.43896033,-0.29082146,0.437062,0.40984764,-0.312124,0.43182,0.39704059,-0.27561656,0.420537,0.38372994,-0.24320197,0.399286,0.3766943,-0.21815279,0.388538,0.41953595,-0.24390001,0.43611,0.41014977,-0.22313278,0.429762,0.40637848,-0.21596126,0.426588,0.40352799,-0.21110814,0.423703,0.44721172,-0.24934488,0.440158,0.44199019,-0.20906691,0.435244,0.43841715,-0.19066883,0.432377,0.43579618,-0.1779161,0.43033,0.47050124,-0.25663591,0.443287,0.46559591,-0.21773015,0.437596,0.46306336,-0.19784131,0.434684,0.46076959,-0.17943972,0.432037,0.4988495,-0.27109831,0.446634,0.50633481,-0.23983651,0.44445,0.50983496,-0.22495295,0.443446,0.51288914,-0.21192932,0.442561
0.43121851,-0.33067923,0.434077,0.43873462,-0.29119003,0.436857,0.40965154,-0.31255048,0.431557,0.39630819,-0.27569094,0.42028,0.38336682,-0.24349418,0.399175,0.37643911,-0.21870105,0.388551,0.41917,-0.2442254,0.43594,0.40977177,-0.22346456,0.429624,0.40595356,-0.21614232,0.426466,0.40295646,-0.21111723,0.423594,0.44689306,-0.24964456,0.440014,0.44184392,-0.20912065,0.435148,0.43831866,-0.19091485,0.432309,0.43573496,-0.17823722,0.430282,0.47022592,-0.25691663,0.443159,0.46531948,-0.21801204,0.437509,0.46279056,-0.19806963,0.434618,0.46049929,-0.1796284,0.43199,0.49863708,-0.27136298,0.446518,0.50627342,-0.23995032,0.444485,0.50982214,-0.22513932,0.443551,0.51291689,-0.21218388,0.442727
0.43309135,-0.33285078,0.435726,0.43962333,-0.29243069,0.437651,0.41170978,-0.31485144,0.433526,0.40354617,-0.28366871,0.422429,0.38721102,-0.24612063,0.401989,0.38579507,-0.22664271,0.403212,0.41956946,-0.24487696,0.436458,0.40966494,-0.22384894,0.429789,0.40557129,-0.21631845,0.426455,0.40104101,-0.20807575,0.423424,0.44666736,-0.2499086,0.439836,0.4409385,-0.20870702,0.434228,0.4370061,-0.19084971,0.430957,0.43411456,-0.17884799,0.428621,0.46949745,-0.25691099,0.442472,0.46386138,-0.21778951,0.436295,0.46096241,-0.19770414,0.433134,0.45833334,-0.17916653,0.430261,0.49737836,-0.27111956,0.445345,0.50194289,-0.23830164,0.44095,0.50101749,-0.22571144,0.438931,0.5017374,-0.21365024,0.437149
0.43364668,-0.33401108,0.436049,0.43976788,-0.2931778,0.437704,0.41209543,-0.31587598,0.433733,0.40356527,-0.28368214,0.422449,0.3868355,-0.24624797,0.402543,0.38676336,-0.22721155,0.404224,0.41918507,-0.24507286,0.436161,0.4088882,-0.22386855,0.429252,0.40457294,-0.21616676,0.425797,0.39933633,-0.20771849,0.422656,0.44636538,-0.25013093,0.439583,0.44044723,-0.20848928,0.433716,0.43639187,-0.19108634,0.430294,0.43343666,-0.17888971,0.42785,0.46928897,-0.25719022,0.442275,0.46320714,-0.21794413,0.435837,0.46008523,-0.19774557,0.432543,0.45725191,-0.17912723,0.429549,0.49732803,-0.27153435,0.445254,0.50141836,-0.23835478,0.440689,0.50063053,-0.22553711,0.438592,0.50127026,-0.21345132,0.436742
0.43435808,-0.3351075,0.436456,0.44013051,-0.2939724,0.437925,0.41260512,-0.31684181,0.434001,0.40363217,-0.28372914,0.422519,0.38650122,-0.24627864,0.402823,0.38720636,-0.2274718,0.404687,0.4190307,-0.24541414,0.436067,0.4084439,-0.22393227,0.428956,0.40390829,-0.21578332,0.425401,0.39876232,-0.20744011,0.422168,0.44635184,-0.25053067,0.439593,0.44032148,-0.20869211,0.433541,0.43623596,-0.19138645,0.430011,0.43326451,-0.17919459,0.427489,0.46941549,-0.25766541,0.442385,0.46300257,-0.2182576,0.435738,0.45971681,-0.19794279,0.432337,0.45673435,-0.17922781,0.429245,0.49766125,-0.27215043,0.445509,0.50136121,-0.23856236,0.440794,0.50067048,-0.22555511,0.438627,0.50124045,-0.21343861,0.436716
0.43485301,-0.33603597,0.436646,0.44037559,-0.29468853,0.438029,0.41297769,-0.31770181,0.434125,0.40366176,-0.28374996,0.42255,0.3862788,-0.24631058,0.403039,0.3875642,-0.22768202,0.405061,0.41892525,-0.24578494,0.436024,0.4081509,-0.22407919,0.428819,0.40344403,-0.21550694,0.425216,0.39846715,-0.207301,0.421941,0.44633525,-0.25092944,0.4396,0.4402921,-0.20893988,0.433461,0.43623489,-0.19175347,0.429881,0.43328944,-0.17957985,0.427323,0.46948258,-0.25810863,0.442439,0.46285535,-0.21859823,0.435693,0.45946553,-0.19819011,0.432241,0.45639068,-0.17939598,0.429104,0.49784595,-0.27268569,0.445631,0.50128489,-0.2387137,0.440851,0.5007013,-0.225569,0.438654,0.50124042,-0.21343861,0.436716
0.43555397,-0.33682406,0.436968,0.4407204,-0.29520077,0.43818,0.41351674,-0.31842294,0.434358,0.40375251,-0.28381375,0.422645,0.38695043,-0.2470864,0.404636,0.3867758,-0.22721885,0.404237,0.41879852,-0.24593706,0.435932,0.40775286,-0.22407006,0.428563,0.40284034,-0.21512212,0.424879,0.39801844,-0.2070784,0.42153,0.44629352,-0.25107756,0.439555,0.44009312,-0.2089357,0.43325,0.43597043,-0.19196602,0.429572,0.4329905,-0.17971336,0.426945,0.46953404,-0.2582776,0.442447,0.46247526,-0.21867457,0.435506,0.45886721,-0.19821875,0.431955,0.45559165,-0.17939246,0.428727,0.49804745,-0.27292296,0.445726,0.50100579,-0.23893202,0.440835,0.50062594,-0.22553506,0.438588,0.50111302,-0.21338436,0.436605
0.43530975,-0.33688044,0.436343,0.44052594,-0.2953516,0.437795,0.4135126,-0.31872531,0.434021,0.40379168,-0.28384129,0.422686,0.38738091,-0.2477087,0.405982,0.387613,-0.22771068,0.405112,0.4189071,-0.24622796,0.436085,0.40805374,-0.22444556,0.429042,0.40316419,-0.21523247,0.425521,0.39871715,-0.20745038,0.42232,0.44618376,-0.25118774,0.439443,0.44025162,-0.20910114,0.433391,0.43631182,-0.1924452,0.42986,0.43347444,-0.18017165,0.427339,0.46920666,-0.2582383,0.442098,0.46222668,-0.21881334,0.435443,0.45866055,-0.19841687,0.432038,0.45542233,-0.17963724,0.428943,0.49739962,-0.27269478,0.445061,0.50026506,-0.23892893,0.440412,0.50026866,-0.2253741,0.438275,0.50086737,-0.21327978,0.436391
0.43666893,-0.33772006,0.4373,0.4412116,-0.29563567,0.438247,0.41423002,-0.3191332,0.434414,0.4034721,-0.28297798,0.422333,0.3878198,-0.24770627,0.407336,0.38284467,-0.22468819,0.398959,0.4183113,-0.2456625,0.435456,0.40685146,-0.22398623,0.427754,0.4015976,-0.21457294,0.423903,0.39719267,-0.2071496,0.420403,0.44611576,-0.25086826,0.439322,0.4396596,-0.20845826,0.432744,0.43542695,-0.19192184,0.428907,0.43238969,-0.17950835,0.426166,0.46965936,-0.25816505,0.442432,0.46173703,-0.21836981,0.435113,0.45769022,-0.19781288,0.431368,0.45401378,-0.17891787,0.427964,0.49861671,-0.27301245,0.44601,0.50067511,-0.23900157,0.440939,0.50073838,-0.22493326,0.438609,0.50112403,-0.21277947,0.436553
0.43651043,-0.33735121,0.437012,0.44113239,-0.29525491,0.438021,0.4142704,-0.31886082,0.43429,0.40355699,-0.2825583,0.422408,0.38855779,-0.24770377,0.40811,0.38430995,-0.22503221,0.400881,0.41848534,-0.24520028,0.435479,0.40716532,-0.22405533,0.427916,0.40200388,-0.21500218,0.424134,0.39768073,-0.20791248,0.420696,0.44613777,-0.25033869,0.439167,0.43970674,-0.20792248,0.432666,0.43551281,-0.19171533,0.428873,0.43250323,-0.17953655,0.426164,0.46953164,-0.25759255,0.442127,0.46159405,-0.21788456,0.434923,0.45754099,-0.19735039,0.431238,0.45385666,-0.17847164,0.427887,0.49825991,-0.27240234,0.445516,0.5001062,-0.23846734,0.440517,0.50035948,-0.22427378,0.438219,0.50076385,-0.2121692,0.436193
0.43720054,-0.33763889,0.437574,0.44151831,-0.29518575,0.438257,0.41483513,-0.3189926,0.434716,0.40376123,-0.28232827,0.422611,0.38863862,-0.24738656,0.408194,0.38570436,-0.2253336,0.40273,0.41846075,-0.24462067,0.435295,0.40687641,-0.22379244,0.427444,0.40160795,-0.21500306,0.423518,0.39718652,-0.20816362,0.419949,0.44618136,-0.24982053,0.439033,0.43937963,-0.20721092,0.43222,0.43499631,-0.19124398,0.428246,0.43185045,-0.17924666,0.425407,0.46965468,-0.25715723,0.442058,0.46125267,-0.21730534,0.434546,0.45696096,-0.19670188,0.430702,0.45306097,-0.17777419,0.427208,0.49851828,-0.27212858,0.445572,0.4998066,-0.23806199,0.440332,0.50007423,-0.22376541,0.437924,0.50035284,-0.21163938,0.435799
0.43800351,-0.33801387,0.438249,0.44194357,-0.29514278,0.438532,0.41547517,-0.31918239,0.435221,0.40398921,-0.28218904,0.422841,0.38870973,-0.24713669,0.408268,0.38720801,-0.22569765,0.404694,0.41837673,-0.24400569,0.435049,0.40646483,-0.223462,0.426843,0.40105854,-0.21492197,0.42274,0.39651082,-0.20832002,0.41901,0.44617845,-0.24927565,0.438853,0.43893315,-0.20644486,0.431657,0.43431691,-0.19070177,0.427459,0.43100553,-0.17887706,0.424461,0.46974825,-0.2567051,0.441961,0.46080615,-0.2166766,0.43407,0.45623982,-0.19599293,0.430033,0.4520893,-0.17700824,0.426363,0.49878014,-0.27185624,0.445631,0.49945033,-0.23763007,0.440097,0.49969301,-0.22329051,0.437554,0.49982436,-0.21113146,0.43531
0.43806831,-0.33760782,0.438288,0.44192921,-0.29467654,0.43848,0.41548068,-0.31873708,0.435199,0.40389745,-0.28167698,0.422732,0.38863651,-0.24664741,0.40819,0.3873149,-0.22531567,0.404807,0.41823527,-0.24347962,0.434853,0.40636724,-0.22339999,0.426553,0.40099235,-0.21512722,0.422404,0.39647794,-0.20879167,0.418631,0.4460719,-0.24876175,0.438698,0.43873592,-0.20590217,0.431414,0.4340506,-0.19012522,0.427164,0.43068942,-0.17827814,0.424129,0.46968347,-0.25620535,0.441848,0.46063435,-0.21612694,0.433868,0.4560135,-0.19542382,0.429786,0.45181326,-0.17642508,0.426075,0.49878428,-0.27138117,0.44558,0.49937819,-0.23712364,0.439971,0.49957223,-0.22278,0.437394,0.49965689,-0.21063399,0.435121
0.43810111,-0.33717686,0.438295,0.44190677,-0.2942048,0.43842,0.4154604,-0.3182719,0.43515,0.40378847,-0.281153,0.422605,0.38863179,-0.24620159,0.408184,0.3872658,-0.22484276,0.404757,0.41810821,-0.24296217,0.434672,0.40630219,-0.22335583,0.426297,0.4009653,-0.21535368,0.422109,0.39649276,-0.20928904,0.418302,0.44598466,-0.24825874,0.438562,0.43857829,-0.20537837,0.43121,0.43383707,-0.18957219,0.426921,0.43043523,-0.17770535,0.423858,0.46963782,-0.255716,0.441753,0.46050281,-0.21559639,0.433704,0.45583702,-0.19487634,0.429586,0.4515966,-0.17586546,0.425843,0.49880529,-0.27091506,0.445544,0.49934239,-0.23663441,0.439877,0.49949596,-0.2222893,0.437273,0.49953993,-0.21015772,0.434976
0.43813296,-0.33674492,0.438301,0.44188432,-0.293733,0.43836,0.41543916,-0.31780594,0.4351,0.40368046,-0.28062981,0.422479,0.3886376,-0.24576227,0.408189,0.38720138,-0.22436096,0.404691,0.41798209,-0.24244551,0.434492,0.40623817,-0.22331225,0.426042,0.40094135,-0.21558204,0.421817,0.3965109,-0.20978877,0.417976,0.44589844,-0.24775637,0.438427,0.43842373,-0.20485623,0.431009,0.43362761,-0.18902126,0.426682,0.43018504,-0.17713464,0.423591,0.46959437,-0.25522782,0.44166,0.46037442,-0.21506744,0.433543,0.45566474,-0.19433088,0.42939,0.45138413,-0.1753078,0.425615,0.4988285,-0.27044998,0.44551,0.49930888,-0.23614618,0.439785,0.49942315,-0.22180004,0.437155,0.49942645,-0.20968278,0.434834
0.4381658,-0.33631359,0.438308,0.4418629,-0.29326184,0.438301,0.4154189,-0.31734066,0.435051,0.40357149,-0.28010605,0.422352,0.3886443,-0.24532338,0.408195,0.38713602,-0.22387863,0.404624,0.41785693,-0.24192961,0.434313,0.40617426,-0.22326871,0.425787,0.40091675,-0.21581026,0.421524,0.39652851,-0.21028887,0.417649,0.44581321,-0.24725466,0.438293,0.43826906,-0.20433431,0.430808,0.43341709,-0.18847023,0.426442,0.42993387,-0.17656391,0.423323,0.46955087,-0.25473959,0.441567,0.4602461,-0.21453862,0.433382,0.45549249,-0.19378564,0.429194,0.45117062,-0.17475,0.425386,0.49885288,-0.2699853,0.445477,0.49927656,-0.23565841,0.439694,0.49935036,-0.22131067,0.437037,0.49931299,-0.2092077,0.434692
0.43819967,-0.33588279,0.438316,0.44184149,-0.29279057,0.438242,0.41539864,-0.31687531,0.435002,0.40346344,-0.27958308,0.422226,0.38864817,-0.24488257,0.408198,0.38707066,-0.22339627,0.404557,0.41773077,-0.24141334,0.434133,0.40610949,-0.2232247,0.425531,0.40089234,-0.21603887,0.421231,0.39654558,-0.21078934,0.417321,0.44572696,-0.24675245,0.438158,0.43811443,-0.20381262,0.430607,0.43320654,-0.18791952,0.426202,0.42968265,-0.17599359,0.423055,0.46950843,-0.25425188,0.441475,0.46011662,-0.21400943,0.43322,0.45531912,-0.19324016,0.428997,0.45095809,-0.17419291,0.425158,0.49887841,-0.26952103,0.445445,0.4992442,-0.23517054,0.439603,0.49927759,-0.22082121,0.436919,0.49920065,-0.20873297,0.434551
0.43893378,-0.33573015,0.438488,0.44259168,-0.29274636,0.43863,0.4152183,-0.31618514,0.434324,0.40223707,-0.27823672,0.42064,0.38764434,-0.24376989,0.406842,0.38535441,-0.22200031,0.402633,0.41739242,-0.24098955,0.43365,0.40544131,-0.22301918,0.424682,0.40007715,-0.21597791,0.420198,0.39560798,-0.21087905,0.416121,0.44651021,-0.24682897,0.438792,0.43874692,-0.203975,0.431344,0.43377197,-0.18802073,0.427,0.43020227,-0.176184,0.423897,0.47131015,-0.25474542,0.443011,0.46139722,-0.21413588,0.434549,0.45634737,-0.19330031,0.430219,0.45176898,-0.17427178,0.426283,0.5020164,-0.2705516,0.448028,0.50702701,-0.23847715,0.44637,0.50905743,-0.22457072,0.445609,0.51062973,-0.21135362,0.444937
0.4381279,-0.33485679,0.437148,0.4422272,-0.29242192,0.437951,0.41481727,-0.31577711,0.433444,0.40229485,-0.27822694,0.420411,0.38808712,-0.24401044,0.407006,0.38626918,-0.2225646,0.403457,0.41785399,-0.24147073,0.434047,0.40644073,-0.22373938,0.425768,0.40135209,-0.2168034,0.421628,0.3971398,-0.21179317,0.417865,0.44666955,-0.24701521,0.438863,0.43931124,-0.20455539,0.432063,0.43460766,-0.18869852,0.428097,0.43123223,-0.17705131,0.425263,0.4711609,-0.25464918,0.442765,0.46169522,-0.21427533,0.434993,0.45688951,-0.19362666,0.431017,0.45254277,-0.17481211,0.427402,0.5013939,-0.27003294,0.447309,0.50680271,-0.23849189,0.44615,0.50906657,-0.22457475,0.445617,0.51087073,-0.21145338,0.445147
0.43901542,-0.33527785,0.437498,0.44285829,-0.29275589,0.438258,0.41530117,-0.31604278,0.433489,0.40228164,-0.2781681,0.420108,0.38762188,-0.24368006,0.406218,0.38523739,-0.22200729,0.402248,0.41783713,-0.24167549,0.433947,0.40611035,-0.22372769,0.425461,0.40087541,-0.21668287,0.421218,0.39653494,-0.21156796,0.417361,0.44701826,-0.24730621,0.43912,0.43933381,-0.20488315,0.432249,0.43447707,-0.18895649,0.428242,0.43099479,-0.17739809,0.425379,0.47186297,-0.25501309,0.443319,0.46191166,-0.21437692,0.43536,0.45687416,-0.19371672,0.431289,0.45232722,-0.17497051,0.427587,0.50260311,-0.27050063,0.448224,0.50744163,-0.23891271,0.44669,0.50948697,-0.22476021,0.445985,0.51111862,-0.21155598,0.445363
0.43820278,-0.3344006,0.436154,0.44247983,-0.29242247,0.437566,0.41490525,-0.315639,0.432616,0.40235921,-0.27817205,0.4199,0.38810776,-0.2439477,0.406427,0.38625787,-0.22263265,0.403182,0.41829499,-0.2421549,0.43434,0.40710863,-0.22444813,0.426546,0.40215074,-0.21750953,0.422649,0.39806753,-0.21248338,0.419107,0.44715529,-0.24748012,0.439169,0.43987192,-0.20545094,0.432942,0.43528219,-0.18962109,0.429309,0.43199357,-0.17825355,0.426715,0.47167642,-0.2548967,0.443038,0.46217496,-0.21450025,0.435771,0.45738012,-0.19402779,0.432053,0.45306542,-0.17549809,0.428674,0.50192414,-0.26995198,0.447455,0.50710245,-0.23887278,0.446369,0.50935674,-0.22470276,0.445871,0.51119552,-0.21158781,0.44543
0.43908062,-0.33481364,0.436493,0.44310547,-0.29275266,0.437867,0.41538079,-0.31589827,0.432652,0.40233981,-0.27810899,0.419591,0.38763851,-0.24361496,0.405636,0.38521853,-0.2220707,0.401966,0.41827908,-0.24236006,0.434241,0.40678498,-0.22443994,0.426246,0.40168371,-0.21739401,0.422249,0.39747426,-0.2122642,0.418615,0.44750614,-0.24777244,0.439428,0.43990324,-0.20578161,0.433136,0.43516497,-0.18988356,0.429466,0.4317706,-0.17860467,0.426844,0.47237995,-0.25526128,0.443593,0.46239813,-0.21460497,0.436144,0.45737383,-0.1941215,0.432333,0.45285939,-0.17566017,0.428868,0.50313428,-0.27041924,0.44837,0.50772655,-0.23928644,0.446896,0.50975429,-0.22487814,0.446219,0.51141586,-0.21167901,0.445622
0.43827621,-0.33394403,0.43516,0.44273124,-0.29242223,0.43718,0.41499386,-0.31550171,0.43179,0.40242665,-0.27811939,0.419393,0.38813136,-0.24388691,0.405852,0.38625962,-0.22270806,0.402921,0.41873513,-0.24283877,0.434632,0.40777735,-0.22515802,0.427325,0.40295081,-0.21821718,0.423672,0.39899623,-0.2131748,0.420351,0.44763912,-0.24794417,0.439473,0.44043141,-0.20634432,0.433819,0.43595792,-0.19054287,0.430521,0.4327535,-0.17945442,0.428165,0.47218796,-0.25514199,0.443307,0.46265325,-0.21472451,0.436547,0.45787016,-0.19442851,0.433088,0.45358428,-0.1761836,0.429944,0.50244806,-0.26986718,0.447595,0.50739745,-0.23925063,0.446584,0.50964119,-0.22482824,0.44612,0.51151686,-0.21172081,0.44571
0.43914537,-0.33434977,0.435489,0.44335344,-0.29274998,0.437477,0.41546106,-0.31575454,0.431817,0.40240103,-0.27805214,0.419078,0.38765423,-0.24354939,0.405054,0.38520307,-0.22213598,0.401688,0.41872109,-0.24304491,0.434535,0.40746041,-0.22515332,0.427032,0.40249152,-0.21810563,0.42328,0.39841362,-0.21296115,0.41987,0.44799214,-0.24823783,0.439734,0.44047145,-0.20667794,0.434021,0.43585191,-0.19080897,0.430688,0.43254592,-0.17981033,0.428308,0.47289506,-0.25550844,0.443865,0.46288734,-0.21483428,0.43693,0.45788026,-0.19452901,0.433383,0.45339831,-0.17635345,0.430157,0.50366135,-0.27033524,0.448512,0.50801134,-0.23965927,0.447102,0.51002272,-0.22499657,0.446454,0.51171425,-0.21180252,0.445882
0.43834928,-0.33348784,0.434167,0.44298241,-0.29242191,0.436794,0.4150822,-0.31536446,0.430965,0.4024972,-0.27806905,0.41889,0.38815306,-0.24382508,0.405276,0.3862648,-0.22278537,0.402664,0.41917438,-0.24352238,0.434923,0.4084459,-0.22586846,0.428104,0.40374942,-0.21892481,0.424694,0.39992404,-0.21386644,0.421595,0.44812105,-0.24840734,0.439775,0.4409897,-0.20723555,0.434694,0.43663171,-0.19146253,0.43173,0.43351198,-0.18065397,0.429613,0.47269654,-0.25538566,0.443573,0.46313007,-0.21494806,0.437321,0.45836063,-0.19482927,0.434123,0.45410261,-0.17686984,0.431215,0.5029691,-0.26978038,0.447732,0.50769118,-0.23962705,0.446798,0.50992562,-0.22495373,0.446369,0.51183935,-0.21185429,0.445991
0.4373571,-0.3326841,0.432808,0.44318463,-0.29266801,0.436769,0.41432168,-0.31485645,0.429855,0.4021345,-0.27782716,0.418361,0.38805324,-0.24367924,0.404902,0.38590356,-0.22250997,0.402048,0.42051527,-0.24470294,0.436242,0.41069063,-0.22723901,0.430431,0.40641965,-0.22033821,0.427526,0.40297223,-0.21532571,0.424885,0.44970007,-0.24961231,0.441266,0.44360649,-0.208939,0.43744,0.43965324,-0.19383191,0.435208,0.43727875,-0.18307468,0.433614,0.4743938,-0.25655291,0.445105,0.46620156,-0.21882061,0.440534,0.46297163,-0.202327,0.438196,0.46013437,-0.1878427,0.43607,0.50463684,-0.27079239,0.449125,0.50973226,-0.24088181,0.448599,0.51216841,-0.22622863,0.448357,0.51428415,-0.21325158,0.448144
0.43745141,-0.33270693,0.432525,0.44336856,-0.29290206,0.436726,0.41445501,-0.31502758,0.429673,0.4022647,-0.27792575,0.418345,0.38830566,-0.24375478,0.404896,0.38618285,-0.22260409,0.4021,0.42084223,-0.24529426,0.436509,0.41117506,-0.22763608,0.430913,0.40695748,-0.22059537,0.428115,0.40355032,-0.21546405,0.425571,0.44999408,-0.25010479,0.441496,0.44390717,-0.20955411,0.437903,0.44030125,-0.19445329,0.435806,0.43770897,-0.18410658,0.434309,0.47465339,-0.25694329,0.445288,0.46664603,-0.21902923,0.440954,0.46354217,-0.20257633,0.438736,0.46082024,-0.1881227,0.43672,0.50484293,-0.27102036,0.449217,0.51006549,-0.24133016,0.448897,0.51259473,-0.22664521,0.44875,0.51480957,-0.21377724,0.44862
0.43746598,-0.33292434,0.432694,0.44344016,-0.29314505,0.436889,0.41448427,-0.31522167,0.42984,0.40229255,-0.27800309,0.41851,0.38849531,-0.24382848,0.405123,0.38649222,-0.22267852,0.402314,0.42098259,-0.24556232,0.436665,0.41138118,-0.22770794,0.431064,0.40716309,-0.22053438,0.428263,0.40374429,-0.21529892,0.425718,0.45012533,-0.25040859,0.441652,0.44405442,-0.20978243,0.438052,0.4404983,-0.19491882,0.435952,0.43793623,-0.18461065,0.434452,0.47477031,-0.25727201,0.445443,0.4667889,-0.21909629,0.441089,0.46367423,-0.20263404,0.438861,0.46094264,-0.18817267,0.436836,0.50493575,-0.27137111,0.449372,0.51024382,-0.24158684,0.449081,0.51279552,-0.22699052,0.448948,0.51502717,-0.21421318,0.44883
0.43988902,-0.33479355,0.435266,0.44437835,-0.29378819,0.437962,0.41596466,-0.31636427,0.431546,0.40248215,-0.27808015,0.418912,0.38849327,-0.24364464,0.404904,0.38586837,-0.2220589,0.401261,0.4197594,-0.24488217,0.43551,0.40880867,-0.22613492,0.428435,0.40389021,-0.21850753,0.424897,0.39982268,-0.21288149,0.421681,0.44935967,-0.25003201,0.441022,0.44154493,-0.20936439,0.435954,0.4375099,-0.19677915,0.432998,0.43457638,-0.18723461,0.430887,0.47453911,-0.25720752,0.445356,0.46463945,-0.21758444,0.439346,0.46025372,-0.1977917,0.43627,0.45620487,-0.18125532,0.433475,0.5056463,-0.27182274,0.450147,0.51032827,-0.24165927,0.449235,0.51256722,-0.2270462,0.448816,0.51451706,-0.21428619,0.448446
0.44008847,-0.33497062,0.435639,0.44441511,-0.29383546,0.438147,0.41606782,-0.31645951,0.431824,0.40241225,-0.27797788,0.419044,0.38858517,-0.24351977,0.404783,0.38595719,-0.22184999,0.40095,0.41957561,-0.2448083,0.435433,0.40850287,-0.22581693,0.428181,0.40349349,-0.21803931,0.424556,0.39932985,-0.21229362,0.421259,0.44920661,-0.24999619,0.440993,0.44111732,-0.20895375,0.435744,0.43697718,-0.1968605,0.432681,0.43396847,-0.18768764,0.430494,0.47442844,-0.25720835,0.445382,0.46434421,-0.21714396,0.43924,0.46002353,-0.19803231,0.436098,0.45597736,-0.18178959,0.433241,0.50561652,-0.27187642,0.450263,0.51047858,-0.2417629,0.449447,0.5127834,-0.2272984,0.449073,0.51478745,-0.2146831,0.448742
0.44009271,-0.3349991,0.435819,0.44438695,-0.29383978,0.438268,0.41603885,-0.31645427,0.431965,0.40229728,-0.27784445,0.419129,0.38864926,-0.24337749,0.404633,0.38606026,-0.2216494,0.400654,0.41949503,-0.24479461,0.435463,0.40841187,-0.22561792,0.428152,0.40336498,-0.2177166,0.424497,0.39915671,-0.21187662,0.421174,0.44914131,-0.25000917,0.44105,0.44097343,-0.20874632,0.435744,0.4368025,-0.19699704,0.432649,0.43377012,-0.18808174,0.430438,0.47437865,-0.2572421,0.445465,0.4642929,-0.2169182,0.439307,0.46003618,-0.19837589,0.436156,0.45604974,-0.1824416,0.433292,0.50559465,-0.27193435,0.450386,0.51086392,-0.24197789,0.449866,0.5133376,-0.22770036,0.449626,0.51549043,-0.21525995,0.449415
0.44003019,-0.33497682,0.435933,0.44434356,-0.29383407,0.438374,0.41595971,-0.31641088,0.432054,0.40215835,-0.27769457,0.419189,0.38869409,-0.24322319,0.404463,0.3861429,-0.22143722,0.400337,0.41945018,-0.24480175,0.43553,0.40839341,-0.22545919,0.428199,0.40332679,-0.21744303,0.424533,0.39908987,-0.2115166,0.421201,0.44911375,-0.2500431,0.441144,0.44095531,-0.20863792,0.435828,0.43677812,-0.19714046,0.432726,0.43374182,-0.18841393,0.430511,0.47436508,-0.25729548,0.445582,0.46435036,-0.21680077,0.439444,0.46014292,-0.19875875,0.436303,0.45623261,-0.18313655,0.433448,0.50559862,-0.27200616,0.450532,0.51126276,-0.2421993,0.450297,0.51390206,-0.2281069,0.450188,0.5161992,-0.21583899,0.450093
0.43997663,-0.33496139,0.436056,0.4443083,-0.29383372,0.438488,0.41589013,-0.31637476,0.432153,0.40203009,-0.27755202,0.41926,0.38875997,-0.24308212,0.404315,0.38626112,-0.22124551,0.400057,0.41941787,-0.24481617,0.43561,0.40838836,-0.225308,0.42826,0.40330391,-0.217178,0.424585,0.39903833,-0.21116514,0.421244,0.44909846,-0.25008385,0.44125,0.44097493,-0.20857213,0.435924,0.43679316,-0.19726342,0.432817,0.43375285,-0.18867802,0.430598,0.4743633,-0.25735524,0.44571,0.46443801,-0.21673341,0.439589,0.46025719,-0.19914367,0.436457,0.4564228,-0.18383334,0.433611,0.5056139,-0.27208399,0.450688,0.51166602,-0.24242285,0.450732,0.5144688,-0.22851446,0.450752,0.51690577,-0.21641685,0.450769
0.43829363,-0.33416197,0.434734,0.44344677,-0.29369039,0.438004,0.41447074,-0.31575611,0.43103,0.40114486,-0.27733847,0.418547,0.38772044,-0.24278513,0.403344,0.38580356,-0.22117107,0.39895,0.41902213,-0.24447218,0.436019,0.40851129,-0.22523905,0.429326,0.40373024,-0.21733759,0.425979,0.40027753,-0.21175652,0.422936,0.44883062,-0.24974175,0.441716,0.44191353,-0.2091032,0.437181,0.4374628,-0.19295391,0.434535,0.43591851,-0.18486462,0.432645,0.47445494,-0.25771066,0.44616,0.46527588,-0.21739099,0.44079,0.46146339,-0.2004722,0.438042,0.45808384,-0.18496008,0.435544,0.50556134,-0.27242942,0.451001,0.5118297,-0.24262057,0.451007,0.51474196,-0.22873288,0.45101,0.5172828,-0.21663813,0.451012
0.43849332,-0.33479601,0.435278,0.44326508,-0.29399677,0.438191,0.4144534,-0.31620421,0.431364,0.40096363,-0.27761067,0.418568,0.38750598,-0.24300361,0.403231,0.38563851,-0.22126386,0.398147,0.41810366,-0.24430908,0.435672,0.40727361,-0.22461515,0.428627,0.40235249,-0.21656106,0.425104,0.39893547,-0.21098214,0.421902,0.44804871,-0.24969921,0.441498,0.44107549,-0.20877628,0.436615,0.43520975,-0.19247391,0.433767,0.43455052,-0.18416356,0.431732,0.47397803,-0.25775781,0.446076,0.46463351,-0.21730426,0.440508,0.46068165,-0.20012809,0.437659,0.45721415,-0.1850639,0.43507,0.50529658,-0.2726608,0.451125,0.51176824,-0.24271189,0.451084,0.51478446,-0.22884899,0.451066,0.51742374,-0.21676064,0.451049
0.43615971,-0.33361863,0.43324,0.44142977,-0.29332839,0.436754,0.41241401,-0.31526569,0.429561,0.3992017,-0.27892766,0.417163,0.38661727,-0.24523461,0.404231,0.38496236,-0.22139847,0.397124,0.41486954,-0.24509841,0.434991,0.40674403,-0.22465438,0.428471,0.40216009,-0.21671351,0.425211,0.39889445,-0.21113029,0.422247,0.44493392,-0.25066115,0.440744,0.4405994,-0.21126326,0.436438,0.43741267,-0.19750941,0.433925,0.4343087,-0.18454599,0.432131,0.4703582,-0.25826371,0.445217,0.46411324,-0.21740457,0.440382,0.46063385,-0.20014961,0.437909,0.45758351,-0.18489886,0.43566,0.50293251,-0.27352613,0.450056,0.51080279,-0.24260381,0.450552,0.51412889,-0.22893508,0.45078,0.51712507,-0.21687653,0.450981
0.43651548,-0.33449541,0.433872,0.44187045,-0.29413153,0.437511,0.41296187,-0.31626728,0.430432,0.39975019,-0.28058599,0.418325,0.38698431,-0.2467801,0.405118,0.38490381,-0.22189343,0.396714,0.41792746,-0.24514068,0.436137,0.40782599,-0.22545157,0.429835,0.40337907,-0.21754528,0.426684,0.4000318,-0.21191247,0.42382,0.44762904,-0.25044455,0.441642,0.4404483,-0.2127796,0.437472,0.43768285,-0.19860278,0.435039,0.43513067,-0.18521744,0.433302,0.47298215,-0.25790055,0.445901,0.46467516,-0.21791384,0.44112,0.4613039,-0.2003877,0.438674,0.45834377,-0.18479847,0.43645,0.50376846,-0.2726418,0.450468,0.51075396,-0.24286066,0.450669,0.51398485,-0.22916275,0.450761,0.51696657,-0.21696078,0.450843
0.4370991,-0.33554798,0.434731,0.44165484,-0.29449923,0.437619,0.41309157,-0.31695025,0.430868,0.39899258,-0.28133146,0.418122,0.3864781,-0.24777436,0.405093,0.38442346,-0.22214563,0.395869,0.41681483,-0.24476483,0.435143,0.40601928,-0.22461232,0.42811,0.40126425,-0.21654438,0.424594,0.39739653,-0.2106966,0.421397,0.44673645,-0.25024739,0.440897,0.44227326,-0.21525231,0.44047,0.44204248,-0.20155664,0.440222,0.4415429,-0.18827229,0.440044,0.47212539,-0.25774489,0.445417,0.46325237,-0.21749248,0.439974,0.45960711,-0.19959779,0.437188,0.45639079,-0.1836062,0.434656,0.5033601,-0.27280714,0.450402,0.50992302,-0.24274583,0.450096,0.51294346,-0.22899022,0.449955,0.51580593,-0.21662455,0.449831
0.43694735,-0.33621751,0.434839,0.44124981,-0.29491332,0.437483,0.41276928,-0.31744167,0.430799,0.39855579,-0.28121639,0.417804,0.38647412,-0.24794258,0.405196,0.38384131,-0.22249416,0.395216,0.4159872,-0.24471629,0.434602,0.40493443,-0.22428009,0.427311,0.40011139,-0.21617134,0.423666,0.39620945,-0.21030959,0.420351,0.44604806,-0.25032828,0.440486,0.44260405,-0.21531039,0.440654,0.44270675,-0.20177725,0.440753,0.44246112,-0.18906186,0.440823,0.4715682,-0.25795717,0.44513,0.462684,-0.21767341,0.439522,0.45905006,-0.19949329,0.436653,0.45583326,-0.18315892,0.434044,0.50298834,-0.27322345,0.450298,0.50944528,-0.24293972,0.449782,0.51240422,-0.22914147,0.449544,0.51528298,-0.21661637,0.449335
0.4375673,-0.3375186,0.435578,0.44052627,-0.2952115,0.436964,0.41287909,-0.31834289,0.43107,0.3984411,-0.28113464,0.417278,0.38716387,-0.24827932,0.40552,0.38379177,-0.22297292,0.394837,0.412712,-0.24468851,0.43253,0.4016995,-0.22280449,0.424159,0.39647211,-0.21440257,0.419974,0.39224168,-0.20830667,0.416169,0.44291976,-0.2505339,0.438537,0.44083125,-0.21144354,0.438091,0.43966304,-0.19809984,0.43783,0.43935576,-0.18703734,0.437644,0.46862698,-0.25845266,0.443377,0.46386252,-0.22016197,0.441387,0.46281715,-0.20132541,0.440369,0.46139096,-0.18516711,0.439444,0.50040879,-0.27423579,0.448956,0.50687097,-0.24343955,0.448013,0.50933912,-0.23073904,0.44758,0.51280842,-0.21605002,0.447198
0.43787363,-0.33857922,0.436005,0.4404833,-0.29596555,0.43712,0.41295515,-0.3192193,0.431306,0.39870208,-0.28131818,0.417247,0.38784597,-0.24863741,0.405935,0.38383034,-0.2235024,0.394549,0.41245259,-0.24479524,0.432243,0.40091227,-0.2226846,0.42359,0.3956491,-0.21415528,0.419264,0.39142593,-0.20797674,0.415331,0.44277895,-0.25071766,0.438386,0.44059523,-0.21191065,0.438101,0.43980702,-0.19791071,0.437935,0.43959256,-0.18661514,0.437816,0.4686137,-0.25870785,0.443357,0.464477,-0.22063602,0.441946,0.46357741,-0.20185105,0.441225,0.46245815,-0.18537128,0.440568,0.50061302,-0.27459864,0.449133,0.50687639,-0.24376879,0.448048,0.50931407,-0.23097861,0.447549,0.51268356,-0.21647215,0.44711
0.43876185,-0.34023248,0.436879,0.44022689,-0.297431,0.437246,0.41309305,-0.3203289,0.431503,0.40088205,-0.28402707,0.416543,0.38684664,-0.2491469,0.402266,0.38153358,-0.22435296,0.391369,0.41110814,-0.24515496,0.430957,0.39833402,-0.22212859,0.421441,0.39311615,-0.2132674,0.416683,0.38869954,-0.20695006,0.412358,0.44195969,-0.25142228,0.437662,0.43753681,-0.21265796,0.435773,0.43674297,-0.19522081,0.434671,0.43578454,-0.18563085,0.433883,0.46838217,-0.25894321,0.443151,0.46563532,-0.2220959,0.442673,0.46470397,-0.20274806,0.442428,0.4639982,-0.18579742,0.442206,0.50119936,-0.27524821,0.449651,0.5066873,-0.24383358,0.447922,0.50920151,-0.22967148,0.447128,0.51182913,-0.21635964,0.446428
0.43817274,-0.34074013,0.436282,0.43983238,-0.29744108,0.436767,0.41256846,-0.32092506,0.431008,0.40094823,-0.28466375,0.416186,0.38598151,-0.24944464,0.401093,0.38236732,-0.22528591,0.391684,0.41082238,-0.24531487,0.430696,0.3982895,-0.22237586,0.421314,0.39296171,-0.21366931,0.416623,0.38877642,-0.20741519,0.412359,0.44159186,-0.2515049,0.437318,0.43766408,-0.2129347,0.43603,0.43709189,-0.19528356,0.435278,0.43661789,-0.18537141,0.434741,0.46792617,-0.2589815,0.44273,0.465701,-0.22244231,0.442799,0.46499328,-0.20328003,0.442834,0.46471487,-0.18624513,0.442866,0.50061576,-0.27518977,0.449121,0.50596118,-0.2436088,0.447313,0.50841354,-0.22937219,0.446483,0.51097906,-0.21624965,0.44575
0.4323995,-0.33682927,0.430172,0.4396175,-0.2983737,0.436301,0.41360492,-0.3223827,0.431765,0.41200863,-0.29497273,0.426011,0.40380788,-0.26462751,0.418844,0.40355469,-0.24223411,0.410736,0.42279463,-0.25433992,0.44302,0.41955625,-0.23705756,0.441408,0.41892716,-0.22917037,0.440834,0.41689304,-0.22189263,0.441263,0.44772806,-0.2553657,0.443259,0.44396843,-0.21631053,0.442041,0.44343067,-0.20111083,0.441331,0.44347436,-0.18821237,0.441498,0.46832122,-0.26029617,0.443003,0.46910433,-0.22435012,0.446065,0.47011133,-0.20591663,0.447631,0.47120125,-0.18909085,0.449055,0.49263365,-0.27184491,0.441824,0.50419658,-0.24396603,0.446171,0.50950483,-0.23132417,0.448168,0.51464623,-0.21945173,0.44993
0.4342135,-0.33882259,0.431614,0.44047358,-0.29921822,0.436946,0.41444794,-0.32369883,0.432323,0.41164838,-0.29472334,0.425342,0.40719658,-0.26713071,0.42,0.40483721,-0.24271562,0.411283,0.4218955,-0.25416591,0.441965,0.41833147,-0.23645685,0.439276,0.41711134,-0.2277597,0.437931,0.42786367,-0.22716989,0.451883,0.4475543,-0.25557145,0.443,0.44298003,-0.21605112,0.440909,0.44188798,-0.20071658,0.43969,0.44135881,-0.18881549,0.439059,0.46891035,-0.26087825,0.443458,0.4695168,-0.22485065,0.446535,0.47064699,-0.20664016,0.44811,0.47168099,-0.18962239,0.449542,0.49436446,-0.27299208,0.443245,0.50458196,-0.24446314,0.446725,0.50901217,-0.23130638,0.448324,0.51379002,-0.21959945,0.449734
0.4397904,-0.34282421,0.436506,0.44068674,-0.2993692,0.436861,0.41375822,-0.3230453,0.43101,0.40276661,-0.28825194,0.41592,0.38901591,-0.2554767,0.400867,0.38100726,-0.22907094,0.38761,0.4106776,-0.24642285,0.430419,0.40038092,-0.22716324,0.42083,0.39574913,-0.21711684,0.416035,0.40489345,-0.21535115,0.427419,0.44167541,-0.25246408,0.437265,0.43093578,-0.21105956,0.429902,0.42021112,-0.1896956,0.425607,0.41533606,-0.17448692,0.422539,0.468219,-0.2605874,0.442872,0.4655668,-0.2230045,0.442941,0.46496588,-0.20419146,0.442977,0.46448222,-0.18702319,0.443009,0.50134604,-0.27672274,0.449513,0.50153984,-0.24162632,0.444876,0.49887383,-0.22263311,0.442746,0.49886534,-0.20863286,0.440866
0.44470651,-0.34572284,0.440389,0.44344914,-0.30094952,0.439299,0.41708528,-0.32518236,0.433637,0.40450525,-0.28883087,0.41689,0.38658006,-0.2529861,0.399078,0.38080052,-0.22658011,0.389103,0.41003881,-0.24654451,0.430195,0.39536439,-0.23027056,0.418989,0.38709488,-0.22441534,0.413385,0.3958517,-0.22580306,0.424077,0.44167824,-0.25208316,0.438063,0.42451978,-0.20931653,0.429296,0.41427089,-0.18759479,0.424182,0.41079774,-0.17289685,0.420529,0.46858233,-0.25892538,0.444616,0.45388825,-0.21593936,0.439883,0.44857719,-0.19735063,0.437461,0.44371352,-0.18014704,0.435259,0.50161956,-0.26984779,0.452593,0.49976217,-0.23511623,0.448615,0.50115897,-0.22207352,0.446787,0.50091711,-0.20831002,0.445174
0.44559801,-0.3455469,0.440565,0.44454254,-0.30143566,0.440393,0.41762538,-0.3252239,0.433672,0.40288505,-0.28637404,0.41699,0.38490133,-0.24986502,0.39858,0.37981748,-0.22620485,0.388732,0.40636239,-0.24647355,0.431831,0.3941045,-0.23157349,0.421144,0.38787802,-0.22373959,0.4158,0.3988046,-0.22254938,0.426525,0.43861009,-0.25040937,0.440198,0.42389057,-0.20919399,0.432272,0.41596601,-0.18801002,0.427649,0.41022068,-0.17240838,0.424346,0.46674468,-0.25670156,0.447094,0.45245236,-0.21486448,0.439265,0.44568322,-0.19479501,0.435259,0.43952643,-0.17647253,0.431618,0.50282105,-0.27056903,0.45535,0.50268785,-0.23681626,0.453057,0.50271406,-0.22147689,0.452004,0.50275297,-0.20806495,0.451074
0.45070056,-0.34756676,0.444104,0.44707311,-0.29971246,0.442908,0.42084831,-0.32662976,0.435813,0.40243891,-0.28461264,0.417463,0.3841909,-0.24931625,0.396362,0.37947843,-0.2261203,0.38751,0.40526302,-0.24605778,0.431838,0.39182687,-0.23036498,0.419759,0.38504865,-0.22300507,0.41372,0.39317879,-0.22483857,0.423673,0.43723603,-0.24905604,0.44155,0.42016463,-0.20786231,0.432634,0.40873783,-0.18761051,0.427434,0.40508151,-0.17199233,0.423719,0.46656195,-0.25492783,0.449628,0.448942,-0.21334093,0.444724,0.44231416,-0.19545817,0.442215,0.43659993,-0.17954988,0.439935,0.50392766,-0.26441642,0.459441,0.49888407,-0.23109466,0.456588,0.49672457,-0.21599712,0.455277,0.49558457,-0.20251026,0.45412
0.45250943,-0.34713334,0.444652,0.44732235,-0.29820503,0.442937,0.42221906,-0.32664985,0.436278,0.40281002,-0.28459471,0.417724,0.38412804,-0.24827298,0.397307,0.37840083,-0.22531162,0.387224,0.40276515,-0.24519581,0.431364,0.39022274,-0.23021937,0.418905,0.38166518,-0.22488702,0.412676,0.38984066,-0.23012767,0.422539,0.43592939,-0.24828036,0.440991,0.41613185,-0.2066881,0.431593,0.40681596,-0.18697335,0.426111,0.40004635,-0.17240322,0.422195,0.46520084,-0.25379935,0.449038,0.44769405,-0.2130098,0.44409,0.44103411,-0.19511371,0.441558,0.4352873,-0.17919345,0.439256,0.50274164,-0.26414038,0.458888,0.49774967,-0.23082216,0.456067,0.49561256,-0.21572588,0.454771,0.49448393,-0.20223875,0.453627
0.45901233,-0.34259426,0.445596,0.44951297,-0.29628753,0.444786,0.42388362,-0.32625584,0.436374,0.40219658,-0.28401741,0.417204,0.38253823,-0.24832761,0.395681,0.37646717,-0.22510416,0.38744,0.40066107,-0.24712444,0.432879,0.38761169,-0.23378619,0.420597,0.38122305,-0.22905369,0.414457,0.39020075,-0.23261518,0.423945,0.43591033,-0.24883864,0.443866,0.40935535,-0.21008531,0.435312,0.39819187,-0.19007534,0.430322,0.39006109,-0.1753551,0.426758,0.46481336,-0.25291513,0.452965,0.44585684,-0.21441196,0.450553,0.43764053,-0.19546053,0.449318,0.43016965,-0.17822643,0.448196,0.50183892,-0.2603149,0.463942,0.49886833,-0.23166333,0.466843,0.4976059,-0.21900152,0.468177,0.49654083,-0.20807631,0.469353
0.46578496,-0.34278391,0.449531,0.45064685,-0.29431107,0.445388,0.43110652,-0.32598055,0.440001,0.40369314,-0.28349241,0.419733,0.38287817,-0.24832631,0.396383,0.375035,-0.22471951,0.388779,0.39475651,-0.24619767,0.43051,0.37982967,-0.2324277,0.415897,0.37271252,-0.22654338,0.40859,0.38324408,-0.22934972,0.417609,0.42713943,-0.24540025,0.440685,0.39963253,-0.20821251,0.429031,0.38638884,-0.18983191,0.422232,0.37673741,-0.17628251,0.417377,0.45461988,-0.24537924,0.449362,0.43018927,-0.20641211,0.441175,0.42011381,-0.18926436,0.436986,0.41129099,-0.17402304,0.433178,0.49457145,-0.25280476,0.46031,0.48046307,-0.21934044,0.45487,0.47468842,-0.2035017,0.452371,0.47039693,-0.19062234,0.450166
0.46951222,-0.33736737,0.448919,0.4490276,-0.28887684,0.445819,0.43140832,-0.32309112,0.438519,0.40123183,-0.2809432,0.417652,0.37923295,-0.24466528,0.391517,0.37557748,-0.22512391,0.3867,0.38742316,-0.24525322,0.430688,0.37583614,-0.23293531,0.416336,0.36885683,-0.22697169,0.40916,0.3790466,-0.23166409,0.417797,0.4199527,-0.24270038,0.442298,0.3959865,-0.20791873,0.431621,0.38170331,-0.1869942,0.425392,0.37134809,-0.17172777,0.420943,0.44966087,-0.24296406,0.45208,0.42094733,-0.20523916,0.440989,0.40632565,-0.18606267,0.435314,0.39639201,-0.17012914,0.433784,0.49050973,-0.24849877,0.464197,0.47830609,-0.2176493,0.462493,0.47291957,-0.20411015,0.46171,0.46866334,-0.19112773,0.461019
0.46809285,-0.33374125,0.446726,0.4474668,-0.28745111,0.445403,0.43123357,-0.32002907,0.436356,0.39861563,-0.27926085,0.415966,0.37635316,-0.24298014,0.389755,0.37046577,-0.22236434,0.384578,0.38621014,-0.24679347,0.431693,0.37359226,-0.23535252,0.418536,0.36742887,-0.22969059,0.411957,0.37825679,-0.23320314,0.420738,0.41887112,-0.2438718,0.443901,0.39117439,-0.20878985,0.434897,0.37626387,-0.18766179,0.429644,0.36548002,-0.17232623,0.425892,0.44864188,-0.24366979,0.454043,0.41627987,-0.207063,0.444019,0.40128586,-0.18859121,0.438891,0.38993704,-0.17284506,0.436751,0.48947463,-0.24834521,0.466338,0.47319396,-0.21817256,0.466344,0.46747372,-0.20547144,0.466347,0.46305194,-0.19301596,0.466349
0.46930172,-0.3263904,0.445373,0.44223977,-0.28152575,0.444595,0.43084073,-0.31295883,0.433014,0.39675606,-0.26733103,0.411023,0.368175,-0.23321422,0.388836,0.35864543,-0.2083105,0.374987,0.37665605,-0.24165596,0.428878,0.36990307,-0.23240185,0.415265,0.36432733,-0.22658464,0.408458,0.37370872,-0.22946604,0.4159,0.41069463,-0.2397346,0.443713,0.39002148,-0.20747675,0.435393,0.37707331,-0.18741687,0.43054,0.37091168,-0.17339185,0.427073,0.44160372,-0.24013709,0.455975,0.41584888,-0.20649049,0.445923,0.40112768,-0.18816448,0.440781,0.38772993,-0.17148111,0.436106,0.48390678,-0.24503981,0.470722,0.47149536,-0.21828209,0.473049,0.46603883,-0.20645306,0.474118,0.46645796,-0.19635874,0.475061
0.47033957,-0.32291361,0.446811,0.43759042,-0.27759556,0.444318,0.43030299,-0.31004707,0.433059,0.39455804,-0.2662348,0.409435,0.36542765,-0.2319939,0.386419,0.35640392,-0.2069928,0.371961,0.36764057,-0.24065714,0.425561,0.36202805,-0.22795393,0.410248,0.3584787,-0.22308005,0.402592,0.36704747,-0.2252835,0.408918,0.40157056,-0.23833066,0.441487,0.37818431,-0.20468735,0.431688,0.36646712,-0.1856092,0.425972,0.36195193,-0.17154409,0.421889,0.43261453,-0.23835706,0.454775,0.40245475,-0.20316874,0.442482,0.38694779,-0.18504703,0.436192,0.37280401,-0.16849918,0.430475,0.47554441,-0.24273011,0.47099,0.46377103,-0.21842679,0.475849,0.4585998,-0.20764369,0.478081,0.45417525,-0.19816361,0.48005
0.47002486,-0.31882575,0.447065,0.43616928,-0.27679578,0.444006,0.42979634,-0.30877452,0.432962,0.39462059,-0.26531519,0.408897,0.3643554,-0.2312158,0.385704,0.35488522,-0.20605257,0.371177,0.36562478,-0.24010599,0.424379,0.3580397,-0.22769101,0.408553,0.35561916,-0.22158928,0.400639,0.36470866,-0.22386052,0.406669,0.39945354,-0.23762193,0.440533,0.37551887,-0.20401686,0.430239,0.36353271,-0.18495723,0.424234,0.35565591,-0.17140402,0.419944,0.43048158,-0.23749851,0.45405,0.39996159,-0.20252951,0.441549,0.38426817,-0.18451795,0.435154,0.3699504,-0.16806738,0.429339,0.47353679,-0.24165668,0.470619,0.45978956,-0.21645447,0.474074,0.45114997,-0.2039334,0.475662,0.44852334,-0.19544609,0.477062
0.47025421,-0.31726544,0.44739,0.43318044,-0.27444979,0.442965,0.42781243,-0.30466072,0.431029,0.39655817,-0.25652422,0.404961,0.35997641,-0.22832335,0.382768,0.35158357,-0.2037941,0.369135,0.3589252,-0.23603247,0.419515,0.35637064,-0.21749471,0.402082,0.35749035,-0.20990026,0.393366,0.37610344,-0.22093905,0.397273,0.39447168,-0.23505202,0.437942,0.36964842,-0.20031659,0.426805,0.35331032,-0.17667833,0.420308,0.34256088,-0.16100012,0.415668,0.42646317,-0.23554043,0.453429,0.38909455,-0.19990403,0.441384,0.37268336,-0.18215881,0.435221,0.35776091,-0.16602193,0.429619,0.46821244,-0.239057,0.472544,0.45104002,-0.21518107,0.475389,0.44346442,-0.2046101,0.476695,0.44225343,-0.19387974,0.477849
0.47357661,-0.31516438,0.449469,0.43448828,-0.27436716,0.442029,0.42979942,-0.30413714,0.431277,0.40066161,-0.25933537,0.403182,0.36204915,-0.22868386,0.381035,0.34983557,-0.2027948,0.367301,0.35977959,-0.23943363,0.413992,0.35726148,-0.2163381,0.394047,0.35855083,-0.20657384,0.384074,0.370691,-0.21562826,0.386008,0.39041318,-0.23394062,0.433581,0.35226928,-0.20805363,0.426166,0.34527367,-0.19031785,0.42184,0.34014323,-0.17703905,0.41875,0.42148294,-0.23408362,0.450249,0.38547984,-0.19981752,0.438168,0.36911096,-0.18201659,0.431987,0.35423472,-0.16584085,0.426367,0.46531774,-0.23855445,0.471202,0.44810936,-0.21382561,0.473782,0.44047921,-0.20282828,0.474967,0.43445964,-0.19230657,0.476013
0.47388582,-0.31096695,0.448528,0.434275,-0.27351863,0.441065,0.43355498,-0.29908272,0.429678,0.40058464,-0.25757264,0.401298,0.36534267,-0.22701229,0.378947,0.34858818,-0.20172684,0.365492,0.35867583,-0.23961612,0.412207,0.35442382,-0.21399594,0.392192,0.35015517,-0.2019882,0.382184,0.37065204,-0.20663168,0.383226,0.39032698,-0.23657899,0.432593,0.35000652,-0.20801342,0.423899,0.34357725,-0.19010884,0.418828,0.33889913,-0.17672919,0.415206,0.42033117,-0.23477786,0.449917,0.38216485,-0.20207892,0.4373,0.36536285,-0.18425181,0.430845,0.3501039,-0.16806664,0.424976,0.46199394,-0.23909824,0.471657,0.43956422,-0.214648,0.473178,0.43054022,-0.20367336,0.473876,0.42271722,-0.19415181,0.474493
0.47721017,-0.3114582,0.45067,0.43639324,-0.27440934,0.442798,0.43528953,-0.30034874,0.431615,0.4047805,-0.25542176,0.403012,0.37058277,-0.21709055,0.378754,0.35475158,-0.19114892,0.364912,0.35953306,-0.24071944,0.41337,0.35438913,-0.21417785,0.393042,0.35128179,-0.201925,0.382878,0.36790355,-0.20934548,0.383662,0.39105309,-0.23755857,0.43386,0.34997543,-0.20858341,0.424338,0.34346754,-0.19054594,0.418784,0.33874598,-0.17708682,0.414816,0.4210457,-0.23589157,0.4513,0.38190254,-0.20276501,0.437938,0.36467175,-0.18484824,0.431102,0.3490369,-0.16859921,0.424887,0.46266971,-0.23983581,0.473238,0.44010065,-0.21473544,0.473913,0.4307362,-0.20353829,0.474224,0.42262238,-0.19383428,0.474497
0.47660022,-0.30933881,0.449076,0.44133374,-0.27682268,0.446554,0.44653311,-0.30052864,0.434255,0.41421599,-0.25692693,0.409828,0.38707071,-0.21907585,0.386496,0.37337098,-0.19258698,0.372466,0.3715861,-0.24897478,0.426469,0.37114651,-0.22415236,0.410799,0.37389825,-0.21314977,0.402964,0.39647158,-0.223226,0.408346,0.400111,-0.24332017,0.443692,0.36188974,-0.21629228,0.438667,0.3582414,-0.19987127,0.435736,0.35486706,-0.18597858,0.433643,0.42709518,-0.23971551,0.458048,0.39088423,-0.21044148,0.450801,0.37527337,-0.19393958,0.447093,0.36095725,-0.17878906,0.443723,0.46427642,-0.24082113,0.475542,0.44633411,-0.21799703,0.481419,0.4387938,-0.20767962,0.484119,0.4322071,-0.1986527,0.486501
0.48181431,-0.30490179,0.449607,0.44345046,-0.27569172,0.446257,0.44808839,-0.30005815,0.434573,0.41523703,-0.25671635,0.409732,0.3880792,-0.22121998,0.388407,0.3706625,-0.19531395,0.374774,0.3712809,-0.24863542,0.425266,0.36945107,-0.22302971,0.408944,0.37084991,-0.21056501,0.400783,0.39361485,-0.21929765,0.405986,0.39938508,-0.24268487,0.442454,0.3598373,-0.2161311,0.436157,0.35585642,-0.19893307,0.432484,0.35296864,-0.18593802,0.42986,0.42599593,-0.23899549,0.456842,0.38900753,-0.20985596,0.449076,0.3719765,-0.19413395,0.445102,0.3568785,-0.17940877,0.44149,0.46208797,-0.23941476,0.474493,0.44427828,-0.21640659,0.479559,0.43624047,-0.20599868,0.481886,0.42922232,-0.19689798,0.48394
0.4887966,-0.30492934,0.454455,0.44545833,-0.27433828,0.448085,0.45206855,-0.30069522,0.437932,0.41660772,-0.256433,0.41114,0.3847565,-0.22072828,0.387812,0.37200417,-0.19329674,0.373299,0.36951681,-0.24791829,0.422924,0.36543591,-0.22016136,0.404065,0.37042838,-0.21014254,0.394635,0.3935878,-0.2155842,0.398427,0.39560771,-0.24143076,0.440854,0.34903139,-0.21423119,0.431658,0.35011906,-0.19616505,0.426293,0.34749071,-0.183079,0.422543,0.41619919,-0.23562757,0.456077,0.3771366,-0.20469423,0.443938,0.35790608,-0.1892748,0.438626,0.34102877,-0.17549869,0.434556,0.45049899,-0.23338811,0.475154,0.42805025,-0.21088001,0.478099,0.41789087,-0.20068511,0.479453,0.4091565,-0.19154551,0.480647
0.48799949,-0.3028484,0.45368,0.44340563,-0.27231416,0.446251,0.45154439,-0.29893824,0.436978,0.41525989,-0.25505174,0.409748,0.3830218,-0.22026836,0.386939,0.36914183,-0.19312572,0.372319,0.36765826,-0.24676432,0.420045,0.36344677,-0.2181875,0.4004,0.36715172,-0.20775799,0.390577,0.38536743,-0.21218871,0.394188,0.3915925,-0.23927503,0.437817,0.34639219,-0.21063779,0.426483,0.34487518,-0.19335413,0.419872,0.34342391,-0.18056808,0.415149,0.41370805,-0.23400923,0.452988,0.37444108,-0.20313529,0.440561,0.3554474,-0.18793045,0.435506,0.33865311,-0.17427599,0.431524,0.44816904,-0.23169614,0.472154,0.42574498,-0.20911753,0.475,0.41559496,-0.19888935,0.476308,0.40686744,-0.18972314,0.477462
0.4878773,-0.30158651,0.453541,0.44275863,-0.27137322,0.445765,0.45161487,-0.2979301,0.436712,0.41484474,-0.25442815,0.409297,0.3827624,-0.21983615,0.386463,0.3688753,-0.19269751,0.371785,0.36664138,-0.24623177,0.419134,0.3624986,-0.21756913,0.399214,0.36622985,-0.20691999,0.389255,0.38470606,-0.21104328,0.392734,0.39057852,-0.23869722,0.436936,0.34589182,-0.20967266,0.425227,0.34314106,-0.19203727,0.418396,0.34124447,-0.17910838,0.413518,0.41305961,-0.23357295,0.452158,0.3746102,-0.20396672,0.441534,0.35502717,-0.18886148,0.436228,0.33726639,-0.175091,0.431421,0.44765677,-0.23126925,0.471433,0.42516078,-0.20862105,0.474173,0.41497878,-0.19836272,0.475431,0.40622475,-0.18917246,0.476542
0.49029647,-0.29446015,0.45562,0.43958917,-0.26520827,0.444623,0.45504756,-0.29234935,0.437671,0.4137778,-0.25092647,0.408622,0.37986621,-0.21599136,0.383033,0.36576754,-0.18924969,0.367242,0.36086228,-0.24279227,0.414114,0.3556827,-0.21298162,0.39171,0.35885205,-0.20098016,0.380508,0.37819532,-0.20358854,0.382748,0.38434821,-0.23520964,0.432138,0.34922063,-0.20087477,0.415005,0.33034159,-0.18113211,0.405059,0.31665234,-0.16672782,0.397972,0.40234445,-0.22850531,0.44778,0.36588202,-0.19885914,0.438996,0.34720642,-0.18366491,0.434532,0.33261169,-0.17340013,0.43117,0.43516613,-0.22534601,0.468016,0.41001138,-0.205282,0.47063,0.39875702,-0.19588499,0.471831,0.38887346,-0.18763139,0.47289
0.48951102,-0.29233712,0.455237,0.43832815,-0.2634827,0.443649,0.45462022,-0.29051822,0.437174,0.41334947,-0.24974674,0.407895,0.37970724,-0.21495888,0.382157,0.36501979,-0.18800406,0.36621,0.35950226,-0.24159697,0.412542,0.35465536,-0.2110054,0.389711,0.3581623,-0.19918006,0.378295,0.37836814,-0.20150481,0.380391,0.38241925,-0.23382693,0.430492,0.34825732,-0.19952489,0.412827,0.32942259,-0.17983662,0.402639,0.31576875,-0.16546978,0.395382,0.40120734,-0.22694997,0.446118,0.36429641,-0.1988361,0.438384,0.34546485,-0.18446865,0.434549,0.3283298,-0.17138568,0.431084,0.43382821,-0.22360465,0.466418,0.40804012,-0.203206,0.468381,0.39650343,-0.19366066,0.469283,0.38637346,-0.18527814,0.470079
0.4866936,-0.28775937,0.453951,0.43448787,-0.25801674,0.442199,0.45248293,-0.28645376,0.435543,0.41195201,-0.24506403,0.406009,0.38144296,-0.20895653,0.378845,0.36844269,-0.18165591,0.363102,0.35725091,-0.24017315,0.410541,0.35305431,-0.20974612,0.387524,0.35633406,-0.19766438,0.376015,0.37606055,-0.19938843,0.377727,0.3777454,-0.23120983,0.428856,0.34685705,-0.198443,0.411136,0.32856528,-0.17878105,0.400965,0.3153008,-0.16441541,0.393724,0.39894379,-0.2258528,0.444794,0.35371626,-0.19948187,0.431643,0.33193885,-0.18623688,0.424958,0.31221102,-0.17407982,0.418882,0.43158626,-0.22249546,0.46549,0.39885963,-0.20162138,0.464932,0.3854658,-0.1924225,0.464675,0.37370672,-0.18434659,0.464448
0.48018336,-0.28185379,0.447607,0.42953077,-0.25413535,0.437267,0.44646982,-0.2783632,0.429333,0.41766618,-0.23720501,0.400277,0.39224145,-0.20559861,0.374883,0.37532026,-0.18058623,0.359812,0.35257721,-0.2375576,0.406871,0.35092891,-0.2085807,0.384851,0.35438001,-0.19644766,0.37384,0.37292056,-0.1986393,0.375739,0.37297136,-0.22957821,0.425526,0.34476865,-0.19754366,0.409127,0.32943266,-0.17787415,0.399561,0.31820758,-0.16355273,0.392801,0.39264064,-0.22354683,0.441639,0.35091819,-0.1982611,0.429718,0.32980389,-0.18508486,0.423672,0.31059736,-0.17299588,0.418176,0.42477025,-0.21924723,0.462344,0.39654267,-0.20063538,0.463588,0.38415162,-0.19145753,0.46416,0.37323985,-0.18337532,0.464664
0.47829821,-0.27969569,0.446064,0.42278266,-0.25002492,0.431188,0.44404288,-0.27855537,0.426936,0.41425705,-0.23536971,0.396169,0.38792651,-0.20259991,0.36891,0.36995344,-0.17688685,0.352399,0.34066587,-0.23689877,0.396219,0.34104015,-0.20464344,0.370965,0.34203909,-0.18867375,0.358338,0.35847912,-0.18878773,0.35906,0.35883804,-0.22766246,0.414299,0.33111702,-0.19493746,0.393846,0.31662201,-0.17490277,0.381916,0.30748755,-0.15752487,0.373394,0.37785088,-0.22123348,0.430275,0.3350287,-0.19635069,0.417465,0.31320759,-0.18367197,0.411112,0.29333595,-0.17212615,0.405366,0.40848088,-0.21602963,0.451461,0.38313038,-0.1976266,0.455147,0.37156431,-0.18922836,0.456841,0.36599744,-0.18107205,0.458336
0.48051399,-0.28048657,0.448055,0.42185729,-0.25160268,0.429894,0.44546166,-0.28034106,0.427681,0.42071939,-0.24024618,0.395482,0.39533834,-0.20636701,0.367158,0.37712419,-0.18021145,0.350197,0.34285024,-0.24215943,0.390844,0.34393591,-0.20896511,0.36325,0.34522004,-0.19276934,0.349453,0.36184229,-0.18760089,0.348366,0.35909099,-0.23330636,0.409275,0.33124536,-0.19960797,0.386222,0.31678015,-0.179053,0.372775,0.30764534,-0.16387377,0.363169,0.37662173,-0.22720128,0.425783,0.33269866,-0.20248525,0.410674,0.31026957,-0.18987086,0.403089,0.28984174,-0.17838382,0.396216,0.40570319,-0.22238511,0.448072,0.37695072,-0.20402838,0.449017,0.36388598,-0.19568429,0.449485,0.3526437,-0.18797707,0.449899
0.4796541,-0.27952798,0.447383,0.42065906,-0.25169365,0.428643,0.44530607,-0.27856042,0.427262,0.4199377,-0.24062025,0.395062,0.39329348,-0.21271998,0.367377,0.37399321,-0.18849604,0.350207,0.34134392,-0.24216062,0.38945,0.34239625,-0.20951685,0.36152,0.34364313,-0.19356587,0.347555,0.36052461,-0.1886515,0.346713,0.35696423,-0.23263935,0.407366,0.32903481,-0.19976385,0.383686,0.31452898,-0.17971455,0.369873,0.30537064,-0.16490863,0.360006,0.37399836,-0.2259523,0.423493,0.32953448,-0.20140169,0.407401,0.30684564,-0.18888331,0.399326,0.28618825,-0.17748834,0.392012,0.40251464,-0.22038742,0.445408,0.37294441,-0.20155767,0.445351,0.35950773,-0.19299881,0.445358,0.3479428,-0.18511516,0.445365
0.48051083,-0.27869616,0.448319,0.41865694,-0.25446793,0.425321,0.44698037,-0.27847168,0.428114,0.41543963,-0.23885679,0.395106,0.38018166,-0.22571365,0.372722,0.35870999,-0.22522674,0.364755,0.3407013,-0.24649397,0.382711,0.33979994,-0.21137737,0.352165,0.33976165,-0.19420008,0.336892,0.351999,-0.18600215,0.335192,0.35237208,-0.23564119,0.39921,0.32323427,-0.20308391,0.371797,0.30809956,-0.18326115,0.355806,0.29849942,-0.16863473,0.344384,0.36629069,-0.22779824,0.414486,0.31923789,-0.20414875,0.394084,0.29531072,-0.19210798,0.383802,0.27356763,-0.18117038,0.374486,0.39134818,-0.22068272,0.435993,0.35717134,-0.20182578,0.431708,0.34198327,-0.19344936,0.430169,0.32890775,-0.18570675,0.428812
0.47991903,-0.27697629,0.447989,0.418213,-0.25481045,0.424558,0.44732341,-0.27743035,0.427641,0.41374695,-0.23773694,0.394489,0.37944763,-0.22403737,0.371269,0.35762169,-0.22280424,0.362628,0.34031997,-0.24690468,0.381438,0.33889686,-0.21099807,0.350611,0.33905314,-0.19356186,0.335198,0.35387179,-0.18716528,0.333238,0.35143451,-0.23615892,0.397956,0.32197276,-0.20346045,0.370219,0.30663824,-0.18353365,0.354039,0.29688629,-0.16881879,0.342482,0.36490896,-0.22837479,0.41328,0.31756173,-0.20509133,0.392568,0.29349023,-0.1932414,0.38213,0.27161857,-0.18247883,0.372672,0.38946226,-0.22126409,0.434905,0.35498974,-0.20300408,0.43064,0.33933466,-0.19471075,0.428704,0.32585974,-0.18704493,0.426997
0.47793642,-0.27433884,0.445474,0.4198771,-0.25681179,0.422873,0.44648059,-0.27552707,0.425274,0.41424092,-0.23893752,0.392328,0.37874247,-0.22261213,0.368818,0.35676368,-0.22100746,0.360204,0.3425679,-0.24787128,0.380579,0.33997603,-0.21103018,0.350269,0.3404279,-0.19364627,0.335114,0.35569326,-0.18759766,0.333507,0.35377049,-0.23742794,0.397214,0.32322829,-0.20364589,0.370142,0.30786907,-0.18364284,0.35435,0.29809537,-0.1688598,0.34307,0.37065542,-0.23055067,0.412573,0.3198129,-0.20602774,0.393239,0.29605659,-0.19438335,0.38347,0.27444314,-0.18379529,0.374617,0.3959908,-0.2240801,0.434121,0.36274963,-0.20677031,0.43169,0.34765149,-0.19890677,0.430574,0.33208419,-0.18882976,0.429589
0.47844501,-0.27458038,0.445444,0.41998685,-0.25825612,0.420934,0.44874173,-0.27770664,0.425114,0.41639131,-0.24137836,0.391828,0.38370785,-0.22711493,0.36723,0.35857679,-0.22110193,0.356684,0.34251244,-0.24846948,0.376995,0.3421863,-0.2140877,0.345549,0.34261936,-0.19628507,0.329826,0.3546441,-0.18752638,0.32762,0.35326016,-0.23782794,0.393107,0.32505826,-0.20645086,0.36445,0.31030375,-0.18589311,0.347734,0.30098552,-0.17074573,0.335793,0.36651688,-0.2302888,0.408177,0.31855614,-0.2060409,0.386698,0.29650956,-0.19521647,0.375709,0.27361992,-0.18146321,0.365818,0.39094294,-0.22369421,0.429652,0.35758923,-0.20608209,0.426667,0.34239449,-0.19805716,0.425295,0.32770047,-0.19018935,0.425169
0.46233528,-0.26302462,0.428534,0.41090259,-0.2474757,0.408372,0.44350236,-0.26452656,0.407393,0.39051301,-0.22221343,0.374441,0.34307815,-0.19164728,0.346285,0.31605767,-0.18354821,0.33598,0.33129636,-0.24450212,0.366827,0.32315384,-0.20090094,0.337897,0.32701239,-0.18687428,0.323431,0.34025524,-0.17986423,0.321054,0.34112173,-0.23790946,0.385482,0.31704165,-0.19785758,0.360945,0.30242761,-0.17749841,0.346897,0.30376793,-0.1557978,0.336863,0.35363145,-0.23297492,0.402322,0.3008907,-0.21610608,0.380095,0.28812655,-0.19721211,0.368723,0.27373728,-0.17947696,0.358435,0.37717362,-0.22799226,0.425292,0.34614399,-0.21045078,0.424778,0.33217329,-0.20255276,0.424541,0.32774108,-0.18999878,0.424333
0.45825948,-0.24423092,0.410454,0.39951356,-0.24119047,0.393773,0.43301209,-0.24754769,0.389463,0.38504911,-0.21827304,0.364916,0.33521042,-0.18883588,0.338254,0.31222042,-0.18426571,0.332452,0.32909122,-0.24727838,0.355119,0.31520464,-0.19802175,0.328472,0.31914388,-0.18484195,0.315149,0.33241044,-0.17756589,0.3133,0.33747479,-0.24372544,0.374833,0.31334747,-0.20247298,0.353463,0.29920028,-0.17797529,0.341003,0.30085229,-0.15654904,0.332104,0.34853667,-0.24073796,0.392288,0.30647749,-0.21185908,0.369602,0.28481512,-0.19698029,0.357995,0.26503895,-0.18339746,0.347464,0.3698047,-0.23700348,0.415496,0.34231399,-0.21680085,0.416162,0.3299679,-0.20772723,0.416469,0.32909513,-0.19591358,0.416739
0.45859796,-0.24818478,0.411245,0.40427095,-0.24500694,0.39168,0.43729665,-0.24821336,0.389674,0.3902976,-0.22062296,0.362914,0.34023211,-0.19383204,0.33603,0.316872,-0.19104872,0.329745,0.3355492,-0.25071759,0.350073,0.31914831,-0.2015451,0.321536,0.32003756,-0.18638118,0.307267,0.32796824,-0.17597773,0.304284,0.34150019,-0.24816599,0.369467,0.31477993,-0.20515761,0.345716,0.29918522,-0.17989325,0.33189,0.30012323,-0.16031412,0.322015,0.35062018,-0.24598438,0.386871,0.30767472,-0.21675693,0.362323,0.28561766,-0.20174211,0.349764,0.2655209,-0.18806344,0.338366,0.36964983,-0.2431549,0.410428,0.33959074,-0.22433406,0.409993,0.32609592,-0.21588448,0.409794,0.32446366,-0.2039459,0.409617
0.45694238,-0.25541022,0.417929,0.40653583,-0.24794188,0.394418,0.44483032,-0.25317025,0.396168,0.39486739,-0.22496047,0.367971,0.34594782,-0.19767331,0.340506,0.32215372,-0.19411621,0.332992,0.33518815,-0.25121592,0.349506,0.31838415,-0.2011329,0.318516,0.31704295,-0.18525873,0.303021,0.32539913,-0.17629468,0.299129,0.33917784,-0.24743219,0.367725,0.31233257,-0.20306478,0.340544,0.30073307,-0.17838815,0.324698,0.29654471,-0.15732449,0.313379,0.3468437,-0.24444455,0.384454,0.3042127,-0.21387698,0.356942,0.28283113,-0.19853281,0.343424,0.26349573,-0.18465355,0.33133,0.36156873,-0.24046352,0.407768,0.32806255,-0.21551855,0.400733,0.31295395,-0.20427555,0.397501,0.31219077,-0.19400753,0.394649
0.44280071,-0.22955435,0.395145,0.39089135,-0.22876895,0.37603,0.42758154,-0.22102565,0.373296,0.37079639,-0.20075696,0.347903,0.31792027,-0.17799066,0.321534,0.29513249,-0.1766082,0.316305,0.32598585,-0.23992682,0.334434,0.30105917,-0.18958071,0.306232,0.30065955,-0.17655043,0.292131,0.30749888,-0.16909524,0.288687,0.32945873,-0.24037164,0.354329,0.28940645,-0.20311668,0.331188,0.29055673,-0.17395774,0.31769,0.29670565,-0.15970281,0.308483,0.33622473,-0.23996623,0.372111,0.29751638,-0.20088905,0.345346,0.27777643,-0.18099287,0.331652,0.25989435,-0.16298341,0.319227,0.35182444,-0.23793262,0.396056,0.31220436,-0.21641978,0.38619,0.29600832,-0.20497954,0.381657,0.29394934,-0.19230516,0.377657
0.44772026,-0.232964,0.398059,0.39346619,-0.23119357,0.377049,0.42905471,-0.2324299,0.375838,0.37197724,-0.20189973,0.346951,0.3192597,-0.17824385,0.32024,0.29389087,-0.17429874,0.313612,0.32672308,-0.24029324,0.333521,0.30169251,-0.18905913,0.304154,0.30022251,-0.17600039,0.289471,0.30726352,-0.16879771,0.285135,0.32985519,-0.24048229,0.353194,0.28970954,-0.20170666,0.32857,0.29098471,-0.17328273,0.314206,0.30326703,-0.16561521,0.311844,0.33647641,-0.24002293,0.370935,0.29782824,-0.19966945,0.342893,0.27815006,-0.17918362,0.328546,0.26034003,-0.16067777,0.315521,0.3521498,-0.23820768,0.3951,0.31190196,-0.21532102,0.383984,0.29553978,-0.20330716,0.378877,0.293525,-0.19037651,0.374371
0.4471837,-0.2305269,0.395237,0.40423552,-0.22999306,0.376853,0.42827673,-0.22997631,0.372589,0.38402426,-0.19782118,0.340229,0.33674444,-0.1719927,0.312527,0.3036813,-0.1576934,0.296679,0.33102667,-0.23507936,0.334848,0.31087249,-0.18497653,0.307543,0.30200681,-0.1604358,0.293891,0.30558947,-0.14410789,0.288457,0.33850851,-0.2342652,0.35598,0.32770491,-0.18681075,0.334398,0.33615129,-0.17861326,0.321809,0.34689868,-0.17602981,0.31858,0.34879315,-0.23321427,0.374727,0.30735077,-0.20208465,0.349069,0.28802243,-0.18352599,0.335942,0.26819094,-0.1662121,0.324008,0.3691116,-0.23120419,0.399719,0.32724497,-0.22036061,0.390918,0.30824443,-0.21541846,0.386874,0.29160629,-0.21107992,0.383307
0.44544266,-0.22801605,0.391945,0.40237767,-0.22893602,0.375121,0.42688546,-0.22788083,0.369675,0.38107829,-0.19630363,0.337619,0.3342479,-0.17071758,0.31021,0.30165456,-0.15664097,0.294699,0.3309723,-0.23504075,0.334793,0.31171349,-0.18547695,0.308375,0.30331599,-0.16113128,0.295165,0.30798582,-0.14523795,0.290719,0.33854655,-0.23429153,0.35602,0.328827,-0.1874504,0.335543,0.33802003,-0.1796062,0.323598,0.34995737,-0.17758191,0.321389,0.34879594,-0.23321614,0.37473,0.30875933,-0.20217944,0.350036,0.28945582,-0.18446649,0.337402,0.2701998,-0.1678042,0.325917,0.36886874,-0.23105207,0.399456,0.3274149,-0.22047504,0.391121,0.30888927,-0.2149252,0.387292,0.29284687,-0.20963054,0.383914
0.44770482,-0.22930394,0.391275,0.40223459,-0.22842135,0.372519,0.43201961,-0.2278834,0.368408,0.37956487,-0.19569015,0.336221,0.33093497,-0.17022314,0.30859,0.29769316,-0.15702576,0.292759,0.33416014,-0.2301543,0.329956,0.31667918,-0.17955931,0.302648,0.30760274,-0.15530344,0.288994,0.31258931,-0.13941309,0.282712,0.3364719,-0.23124224,0.351223,0.33103848,-0.18155258,0.32967,0.33897439,-0.17413431,0.317097,0.34342772,-0.17250401,0.313039,0.35183035,-0.23246077,0.370109,0.31197184,-0.19655145,0.344454,0.29156869,-0.17816543,0.331329,0.28086166,-0.15535097,0.319397,0.37225265,-0.23345851,0.39532,0.3290034,-0.21767321,0.382232,0.30934302,-0.21047525,0.376218,0.29211249,-0.20415505,0.370913
0.45050079,-0.22963593,0.392065,0.4034912,-0.2292391,0.372574,0.43478083,-0.22858027,0.369226,0.38005828,-0.19656046,0.336671,0.33049181,-0.17145774,0.308828,0.29568675,-0.16280065,0.294328,0.33439472,-0.23196421,0.329474,0.31607922,-0.18144064,0.301538,0.30659462,-0.15718355,0.28757,0.31174071,-0.14132786,0.281559,0.34111771,-0.2327231,0.350444,0.32954997,-0.18282884,0.328034,0.33665846,-0.17438197,0.314961,0.34251122,-0.17169023,0.311122,0.35087347,-0.23321351,0.36914,0.31058766,-0.19816752,0.342782,0.29018185,-0.1834167,0.329345,0.27894218,-0.15754037,0.31713,0.37065932,-0.23348991,0.394229,0.32745911,-0.21855064,0.381028,0.30779024,-0.21172838,0.374963,0.29053349,-0.20573124,0.369611
0.45528529,-0.22714401,0.389162,0.40638466,-0.22969416,0.370035,0.4388939,-0.22622604,0.366417,0.37880917,-0.19579401,0.333879,0.32820671,-0.17041556,0.306035,0.29556815,-0.16228876,0.292366,0.33652547,-0.23280975,0.327332,0.31785337,-0.18242414,0.299563,0.30820905,-0.15818556,0.285678,0.31211926,-0.14081065,0.279985,0.34246906,-0.23351232,0.348318,0.32957025,-0.1823657,0.326119,0.33644804,-0.17366953,0.313169,0.34618646,-0.17073566,0.309654,0.35059804,-0.23270129,0.366999,0.31168562,-0.199898,0.340824,0.29126914,-0.18247518,0.327432,0.27909232,-0.15761866,0.315257,0.36982358,-0.23289832,0.392019,0.32636289,-0.21673435,0.376557,0.31016789,-0.20745774,0.369452,0.28943312,-0.19995662,0.363183
0.46165188,-0.22739978,0.390721,0.40643474,-0.22927603,0.368324,0.44295692,-0.22776092,0.368297,0.38906277,-0.19985658,0.334693,0.33825307,-0.1773073,0.306114,0.30629778,-0.16854285,0.291665,0.34398559,-0.23580776,0.323468,0.32322804,-0.18453173,0.293279,0.31245208,-0.15991648,0.278184,0.3181357,-0.14421046,0.273243,0.34664116,-0.23494757,0.342895,0.33199812,-0.18394962,0.317181,0.33350307,-0.17340963,0.302181,0.33943089,-0.16809051,0.299164,0.35045108,-0.23210616,0.360536,0.31336543,-0.20075356,0.331579,0.29304393,-0.18370705,0.316764,0.28109944,-0.16083382,0.303296,0.36506689,-0.23023135,0.38478,0.3239643,-0.21263484,0.367619,0.3042778,-0.20418765,0.359735,0.28696312,-0.1967511,0.352778
0.46606773,-0.22695794,0.390549,0.41461408,-0.2328294,0.368358,0.44834825,-0.22961307,0.367968,0.39317494,-0.20231261,0.334448,0.34455393,-0.18170411,0.306318,0.31419163,-0.17436248,0.292552,0.34616598,-0.23639689,0.323472,0.32566248,-0.18506427,0.293477,0.31717962,-0.16081662,0.27848,0.32026156,-0.14468843,0.2732,0.34921931,-0.23590781,0.343163,0.33747611,-0.18556262,0.317788,0.33868719,-0.17577038,0.302986,0.34397456,-0.17255191,0.29967,0.35587275,-0.23524644,0.361006,0.31665994,-0.20155854,0.332291,0.29655296,-0.18426201,0.317599,0.28480129,-0.16132873,0.304243,0.37438227,-0.23528631,0.385462,0.33087535,-0.21571848,0.366841,0.31099758,-0.20676384,0.358285,0.29066131,-0.19852533,0.350762
0.46883332,-0.22879836,0.388752,0.41675804,-0.23475475,0.366662,0.44794201,-0.22963275,0.366018,0.392838,-0.20224502,0.33259,0.34280911,-0.17927801,0.304127,0.31233529,-0.171867,0.289976,0.34572223,-0.23571049,0.321666,0.32411692,-0.18418634,0.291822,0.31374542,-0.15934824,0.276901,0.31792023,-0.14319594,0.271226,0.35107772,-0.23624865,0.341581,0.33761141,-0.1849503,0.316473,0.3393814,-0.17462523,0.301827,0.34671209,-0.17163754,0.298148,0.35815087,-0.23604267,0.359601,0.31869992,-0.20204767,0.331073,0.29658314,-0.18425009,0.316477,0.28855652,-0.16079118,0.303208,0.37466142,-0.23548911,0.384253,0.3306767,-0.21768476,0.367015,0.31060899,-0.20954179,0.359094,0.29161736,-0.20123152,0.352105
0.46801364,-0.22924867,0.386559,0.41869349,-0.23864898,0.365805,0.45534444,-0.23607606,0.364492,0.39688236,-0.20896132,0.331221,0.3433963,-0.18127924,0.302663,0.31197748,-0.17209165,0.288058,0.34939338,-0.24514368,0.322666,0.32765152,-0.19484514,0.293427,0.31906327,-0.16984451,0.278808,0.32512891,-0.15416326,0.27481,0.35367443,-0.24320844,0.342242,0.34287717,-0.19376821,0.317731,0.34596421,-0.18226791,0.303434,0.35235882,-0.1753761,0.3014,0.36055646,-0.23921342,0.359884,0.32203156,-0.21018295,0.331967,0.30180623,-0.19409005,0.317684,0.29451166,-0.16992553,0.3047,0.37725059,-0.23760718,0.383894,0.3339689,-0.22250055,0.369466,0.3141791,-0.21558016,0.362837,0.29677045,-0.2094848,0.356987
0.46837419,-0.2297981,0.385705,0.41656775,-0.23670825,0.364257,0.45333017,-0.23433635,0.363355,0.39713057,-0.20659637,0.329943,0.34728231,-0.18037275,0.301342,0.31300252,-0.16983754,0.285734,0.3494558,-0.24334148,0.32023,0.326725,-0.1923827,0.29062,0.31750663,-0.16712581,0.275815,0.32151423,-0.14864977,0.271156,0.35323378,-0.24196669,0.339906,0.33904337,-0.19220491,0.31499,0.34113144,-0.17742628,0.300456,0.34682596,-0.17281928,0.297766,0.36051286,-0.24064935,0.357681,0.32202014,-0.20762362,0.329378,0.30541064,-0.18886474,0.314898,0.2948556,-0.16616887,0.301734,0.37614749,-0.23747367,0.38195,0.33250119,-0.22230419,0.366917,0.31289991,-0.21482085,0.36001,0.29595558,-0.20611363,0.353915
0.46897632,-0.23055339,0.383993,0.41669621,-0.23757973,0.362237,0.45385789,-0.23593334,0.361422,0.3980745,-0.20378723,0.327996,0.3494301,-0.17662128,0.299415,0.31668103,-0.16491691,0.283101,0.34803649,-0.24129,0.317702,0.32527174,-0.19020628,0.287983,0.31587951,-0.16497947,0.273124,0.31890064,-0.14699079,0.267916,0.35190679,-0.24019659,0.337537,0.33414592,-0.19113449,0.312552,0.33734205,-0.17616648,0.297978,0.34590093,-0.169937,0.294758,0.35924408,-0.23913017,0.355466,0.32347086,-0.20442686,0.327065,0.30452623,-0.18641194,0.312534,0.2973565,-0.16172459,0.299324,0.37503327,-0.23659555,0.379963,0.33178126,-0.22144734,0.365112,0.31234902,-0.21395701,0.358289,0.29533292,-0.20557788,0.352268
0.46860955,-0.23048952,0.382746,0.41619443,-0.23689292,0.361124,0.45317929,-0.23555676,0.360155,0.39780771,-0.20247806,0.326768,0.35228169,-0.17599803,0.298213,0.31818455,-0.16509056,0.282139,0.34761381,-0.24017859,0.316668,0.32671425,-0.18877227,0.287046,0.31557275,-0.16414818,0.272235,0.31747254,-0.14531921,0.266991,0.35158033,-0.23909585,0.336574,0.33312655,-0.19039486,0.311735,0.33661664,-0.17516072,0.297245,0.34562946,-0.16944295,0.294,0.35805223,-0.23711304,0.354553,0.32113298,-0.20473333,0.326264,0.30171169,-0.18760286,0.31179,0.29442034,-0.16319643,0.298633,0.37488131,-0.23580078,0.379088,0.33183889,-0.21897199,0.362418,0.31360256,-0.21006173,0.354759,0.29462195,-0.20165002,0.348001
0.46824384,-0.23017267,0.381885,0.41456709,-0.23497597,0.360378,0.4508969,-0.23336252,0.359062,0.39779495,-0.20013988,0.325843,0.34946714,-0.1721299,0.2975,0.31625062,-0.15892119,0.280845,0.34458915,-0.23404773,0.315728,0.31610262,-0.18698633,0.286336,0.30685985,-0.15878148,0.271641,0.31690787,-0.14734504,0.265744,0.3495502,-0.2348876,0.33596,0.33728367,-0.1824826,0.311518,0.33937159,-0.17236455,0.29726,0.34473573,-0.17078072,0.293409,0.35683687,-0.23504387,0.354198,0.32334743,-0.19608527,0.326191,0.30483388,-0.17706566,0.31187,0.29892122,-0.1566511,0.298851,0.37514544,-0.23523351,0.379026,0.33221662,-0.21881485,0.365468,0.31107873,-0.21103825,0.359239,0.29338001,-0.20389834,0.353749
0.4704895,-0.23135755,0.382144,0.41538466,-0.2351313,0.361041,0.45155816,-0.23359782,0.359444,0.39638727,-0.20057039,0.326242,0.34733778,-0.17355818,0.297865,0.31425972,-0.16071307,0.28164,0.34596666,-0.23456861,0.316856,0.31647369,-0.18739263,0.287645,0.30830728,-0.16033127,0.273039,0.31806041,-0.1486219,0.267535,0.35077889,-0.23525028,0.337083,0.33921279,-0.18319673,0.31286,0.34136818,-0.17337152,0.29873,0.34736802,-0.17170952,0.295276,0.35806938,-0.23535908,0.355285,0.32384242,-0.19654484,0.327474,0.30546216,-0.17763191,0.313257,0.30001872,-0.15611675,0.300333,0.37613005,-0.2353695,0.380015,0.33211964,-0.21593568,0.36684,0.31453334,-0.20580651,0.360787,0.30204194,-0.19258142,0.355446
0.47231732,-0.23252265,0.382458,0.41601231,-0.23515873,0.361566,0.45212177,-0.23370758,0.359786,0.39494992,-0.20030605,0.326624,0.34641703,-0.17504024,0.298281,0.31381456,-0.16088839,0.28193,0.34678935,-0.23479737,0.317579,0.31684504,-0.18768856,0.28849,0.30910191,-0.16116193,0.273946,0.31845951,-0.14932887,0.268533,0.35108663,-0.23459252,0.337845,0.34033159,-0.18358962,0.313788,0.34260426,-0.17390075,0.299755,0.3489605,-0.17215603,0.296399,0.35913085,-0.23499828,0.356066,0.324335,-0.19686636,0.328393,0.30597068,-0.17803642,0.314235,0.30068833,-0.15594974,0.301363,0.37692029,-0.23489182,0.380787,0.33326563,-0.21596478,0.367837,0.31717774,-0.2034004,0.361886,0.30415967,-0.19204205,0.356636
0.47247146,-0.23291505,0.38155,0.41555021,-0.23463595,0.361148,0.45228937,-0.23402681,0.358981,0.39381142,-0.19963105,0.325898,0.34539107,-0.17463522,0.297631,0.31290155,-0.16068775,0.281567,0.34691025,-0.23464468,0.317668,0.31596552,-0.18854279,0.288849,0.30363834,-0.16508106,0.27444,0.31437713,-0.15116432,0.269329,0.35130185,-0.23447028,0.337984,0.34092503,-0.18378323,0.314273,0.34313722,-0.17560441,0.300442,0.35009529,-0.17308166,0.2974,0.35931695,-0.23481386,0.356209,0.32456227,-0.19701557,0.328833,0.3063244,-0.17829652,0.314826,0.30120218,-0.15590817,0.302093,0.37698513,-0.23460545,0.380866,0.33366402,-0.21579479,0.368116,0.31761814,-0.20338671,0.362258,0.30491559,-0.19189048,0.357089
0.4728663,-0.23298473,0.381191,0.41646095,-0.23420446,0.361152,0.45258567,-0.2340298,0.358616,0.3928221,-0.19733997,0.325639,0.34577977,-0.17341805,0.297529,0.31336992,-0.16080977,0.282217,0.34737988,-0.23354014,0.317948,0.31579461,-0.18853005,0.289383,0.30445285,-0.1636772,0.275101,0.31423193,-0.15096593,0.269983,0.35202171,-0.23351773,0.338401,0.34267738,-0.18349411,0.315048,0.34430657,-0.17497539,0.301426,0.35210711,-0.17374716,0.2984,0.36052414,-0.23302896,0.356711,0.32524561,-0.19668834,0.329624,0.30715407,-0.17799722,0.315765,0.30206385,-0.1541511,0.303166,0.37817729,-0.23308957,0.381418,0.33468818,-0.2171284,0.369686,0.31852586,-0.20475146,0.364296,0.30586921,-0.19357509,0.359539
0.47339664,-0.2329144,0.381314,0.41697522,-0.23395925,0.361269,0.45304591,-0.23395778,0.358728,0.39278564,-0.19705991,0.325756,0.34574535,-0.1732524,0.297656,0.31334735,-0.16070937,0.282368,0.34789882,-0.23294922,0.318046,0.31540148,-0.18835498,0.289484,0.30459235,-0.16313663,0.275202,0.3137073,-0.15062772,0.270054,0.35263928,-0.2328471,0.33851,0.34272371,-0.1830744,0.315165,0.344942,-0.17502777,0.301546,0.3524028,-0.17418439,0.298492,0.36056401,-0.23261572,0.35683,0.32530115,-0.1962278,0.329746,0.30721884,-0.17751392,0.315889,0.30214365,-0.15369667,0.303292,0.37820252,-0.23268379,0.381549,0.33526114,-0.21649558,0.370199,0.31860154,-0.20527008,0.364984,0.30590575,-0.19424901,0.360382
0.47724532,-0.23504133,0.384869,0.41576919,-0.23330499,0.360522,0.45628867,-0.23540386,0.361593,0.41112685,-0.18990512,0.329374,0.38255601,-0.17809251,0.301734,0.35700073,-0.16050993,0.285031,0.34223068,-0.225769,0.313108,0.30594469,-0.18494409,0.283805,0.29710855,-0.15977264,0.269154,0.29779345,-0.14406326,0.259836,0.3467914,-0.228301,0.33288,0.33329427,-0.17707571,0.307469,0.34775738,-0.17552034,0.304898,0.3563989,-0.1883656,0.313283,0.35432189,-0.22781439,0.350949,0.31676955,-0.19164006,0.322256,0.291281,-0.17637233,0.307576,0.29076432,-0.15419584,0.29423,0.37196807,-0.22809385,0.375981,0.33161419,-0.20562556,0.36388,0.31414949,-0.19907379,0.35832,0.29965148,-0.18994315,0.353415
0.47618334,-0.23501665,0.384306,0.41520945,-0.23270716,0.360359,0.45504692,-0.23506389,0.361026,0.41045436,-0.19055127,0.328821,0.38041941,-0.17859185,0.300831,0.35536318,-0.16187655,0.284766,0.34172923,-0.22694761,0.31325,0.30444699,-0.18463098,0.283529,0.29563262,-0.15943714,0.268668,0.29633185,-0.14375596,0.259313,0.3464543,-0.22740546,0.33317,0.32542875,-0.1750783,0.30807,0.34404347,-0.17193301,0.305656,0.35598697,-0.18777948,0.313978,0.35450051,-0.22752566,0.351332,0.31681901,-0.19166387,0.322878,0.29754459,-0.17332487,0.30832,0.29203807,-0.14993948,0.295085,0.37236465,-0.22798581,0.376417,0.33400362,-0.20633887,0.366568,0.31688237,-0.19697036,0.362043,0.30156891,-0.19127157,0.35805
0.47121342,-0.23274694,0.380366,0.41378335,-0.23138569,0.359561,0.4496738,-0.23244564,0.357182,0.40637548,-0.18851855,0.325202,0.37383981,-0.17684518,0.297179,0.34910531,-0.16086425,0.282109,0.33476278,-0.22029836,0.315015,0.29635547,-0.18056677,0.286945,0.28838953,-0.15659232,0.272911,0.29124643,-0.14001333,0.264798,0.34370345,-0.22006099,0.335939,0.3327338,-0.17248818,0.313274,0.35146466,-0.17493358,0.312215,0.36270912,-0.19102896,0.32008,0.35534074,-0.22037068,0.354694,0.31571,-0.18557426,0.328156,0.29544952,-0.16779384,0.314578,0.29304754,-0.14913222,0.302235,0.37754889,-0.22170729,0.380041,0.34143528,-0.20085343,0.372596,0.32529484,-0.19114391,0.369176,0.31118019,-0.18262955,0.366158
0.46957416,-0.23241789,0.379396,0.41240298,-0.23036629,0.359059,0.44764516,-0.23180114,0.356241,0.40520644,-0.18808932,0.324453,0.37116299,-0.17576839,0.296572,0.34751084,-0.16021575,0.281739,0.33358855,-0.21993999,0.314913,0.29566426,-0.18038911,0.287202,0.28740507,-0.15656277,0.273346,0.28984359,-0.13953268,0.265216,0.34270666,-0.2197691,0.335969,0.32626739,-0.1724339,0.313781,0.34631355,-0.17079482,0.312551,0.36106068,-0.18908157,0.320191,0.3544493,-0.22011395,0.354798,0.31527815,-0.18546629,0.328658,0.29523915,-0.1677425,0.315284,0.29165745,-0.14574925,0.303126,0.37671614,-0.22146751,0.380166,0.34053344,-0.20042954,0.372573,0.32485135,-0.19012162,0.369084,0.31143055,-0.18078832,0.366006
0.46928947,-0.23418771,0.379979,0.41063486,-0.23098732,0.362511,0.44386644,-0.23648681,0.357144,0.40033679,-0.19500005,0.325646,0.36367197,-0.18013274,0.298387,0.34578073,-0.16102283,0.283937,0.32440261,-0.21452754,0.320992,0.29177648,-0.17345497,0.294798,0.2868066,-0.15144549,0.281701,0.29588319,-0.14051499,0.275043,0.33867845,-0.21367471,0.342679,0.33151755,-0.16922635,0.322601,0.35624292,-0.17501538,0.323136,0.36780518,-0.19148411,0.330567,0.35458398,-0.21394509,0.361815,0.31965393,-0.17673614,0.337396,0.30177756,-0.15768911,0.324902,0.30200837,-0.13813909,0.313545,0.38169447,-0.21619123,0.387142,0.3516257,-0.19085861,0.381792,0.33939831,-0.17830394,0.379335,0.32938024,-0.16680261,0.377166
0.45794252,-0.2499262,0.375282,0.40264592,-0.23218918,0.362029,0.42654689,-0.24559735,0.353198,0.39489207,-0.20341856,0.322738,0.35503521,-0.18534291,0.296684,0.33585797,-0.1630502,0.283144,0.31859379,-0.209284,0.324708,0.29201133,-0.16826479,0.301127,0.29027785,-0.14881932,0.289336,0.30201053,-0.14005463,0.284494,0.33999684,-0.20854631,0.346982,0.34016133,-0.17102377,0.33027,0.3666313,-0.17982349,0.332676,0.37668343,-0.19671005,0.339477,0.3615495,-0.20932643,0.366289,0.33540721,-0.16843588,0.344744,0.32202723,-0.14748634,0.333721,0.30986024,-0.12842206,0.3237,0.39502071,-0.21307346,0.391219,0.37213852,-0.18496357,0.388692,0.36353552,-0.17125585,0.38753,0.35674855,-0.15884678,0.386506
0.45755985,-0.25139871,0.374717,0.40541033,-0.23170574,0.362264,0.42525981,-0.24636433,0.352702,0.39584911,-0.20218026,0.3227,0.35843728,-0.18228669,0.296994,0.33658157,-0.16272729,0.283778,0.32065639,-0.20769543,0.325651,0.29693221,-0.16405091,0.302772,0.29601728,-0.14475138,0.291333,0.3046372,-0.13672913,0.28631,0.34230066,-0.20730244,0.348126,0.34475052,-0.1678217,0.332315,0.36952313,-0.17818733,0.334155,0.37788838,-0.19651405,0.340451,0.36398125,-0.20838868,0.367539,0.3391389,-0.16738869,0.346764,0.32847172,-0.14414944,0.336135,0.31484928,-0.1271719,0.326472,0.39746216,-0.21255013,0.392482,0.37505082,-0.18422918,0.390108,0.36669209,-0.17042954,0.389017,0.36013179,-0.15794298,0.388055
0.45504979,-0.25214983,0.373268,0.40315613,-0.23209624,0.363014,0.42228546,-0.24656735,0.351774,0.39441868,-0.20197817,0.322471,0.35607114,-0.18061817,0.297441,0.33776325,-0.16024102,0.284885,0.31979746,-0.2011289,0.32875,0.29745056,-0.15982772,0.307319,0.29777568,-0.14158562,0.296603,0.3115121,-0.13497115,0.292554,0.3455435,-0.20460473,0.351372,0.35107487,-0.16624906,0.33734,0.37668803,-0.17855,0.34016,0.38372106,-0.1989364,0.346121,0.36835542,-0.20639957,0.370743,0.34670122,-0.16279381,0.351534,0.33561877,-0.14149406,0.341706,0.32442795,-0.12463481,0.332771,0.40282304,-0.21161982,0.395324,0.3876498,-0.18192008,0.39588,0.3820023,-0.16811417,0.396136,0.37782283,-0.1556336,0.396361
0.45024692,-0.25554671,0.371719,0.39753558,-0.22954504,0.362887,0.41559398,-0.24839881,0.350729,0.3847143,-0.20284428,0.321799,0.3469924,-0.17855585,0.297201,0.33203194,-0.1561286,0.284752,0.31550424,-0.19424163,0.330345,0.29705254,-0.15339796,0.309755,0.29908512,-0.13658579,0.29946,0.31345611,-0.13221259,0.296484,0.34240962,-0.19542884,0.35286,0.34672164,-0.15731289,0.339786,0.3741611,-0.17110531,0.343981,0.381668,-0.18979934,0.350026,0.36798782,-0.19828987,0.372037,0.35044939,-0.15688023,0.353714,0.34148022,-0.13550747,0.34434,0.33332854,-0.1159543,0.335818,0.40512766,-0.20819639,0.396184,0.39211956,-0.1750054,0.396062,0.38804905,-0.16045138,0.396006,0.38527722,-0.14739579,0.395956
0.44838124,-0.25602295,0.371533,0.39644212,-0.22891351,0.362768,0.41340123,-0.24840483,0.350672,0.38469629,-0.20282005,0.321683,0.34695091,-0.17847791,0.29705,0.33107469,-0.15582902,0.284463,0.31578965,-0.19383979,0.330437,0.29746862,-0.15302643,0.309807,0.29954891,-0.13629411,0.299492,0.31403461,-0.13149158,0.296887,0.34270259,-0.19493975,0.352817,0.34711167,-0.15691778,0.339647,0.3751337,-0.1711493,0.344446,0.38278603,-0.18998716,0.350717,0.36827208,-0.19774567,0.371879,0.35086386,-0.15635811,0.3535,0.34196128,-0.13499294,0.344096,0.33387227,-0.11544508,0.335548,0.40549536,-0.20496911,0.395878,0.3921664,-0.17255058,0.393282,0.39196489,-0.15576358,0.392089,0.38526388,-0.14376335,0.391037
0.42210316,-0.27162742,0.368906,0.39753355,-0.23186511,0.367045,0.38818954,-0.25818056,0.35175,0.36521423,-0.2118804,0.32623,0.34289748,-0.17616391,0.306254,0.33736356,-0.15265798,0.294658,0.33261101,-0.18959431,0.344617,0.35399254,-0.17350432,0.328995,0.36675913,-0.17197032,0.321184,0.37809175,-0.18590804,0.323848,0.36366312,-0.19210777,0.364931,0.36575148,-0.15075087,0.356747,0.36730879,-0.1253995,0.351973,0.39109013,-0.1230085,0.356977,0.39138933,-0.1968049,0.381782,0.3840273,-0.15462586,0.37251,0.38028339,-0.13264614,0.367766,0.37768736,-0.11264778,0.364218,0.42861982,-0.20765316,0.402161,0.44409963,-0.19968822,0.391176,0.44199185,-0.2127987,0.38613,0.44831337,-0.22849067,0.388783
0.4178393,-0.27415037,0.373495,0.38889484,-0.23236785,0.371851,0.38477384,-0.25993892,0.357655,0.35802607,-0.21332148,0.33287,0.33841401,-0.17730812,0.312051,0.33958844,-0.15518354,0.299545,0.33362222,-0.18247344,0.351203,0.3537062,-0.17297838,0.335923,0.36542131,-0.17516451,0.328283,0.37697943,-0.19160938,0.332566,0.36686649,-0.18645005,0.369984,0.37366284,-0.14715756,0.361518,0.37821463,-0.12288432,0.35658,0.40027219,-0.12436932,0.36301,0.39592345,-0.1926257,0.385557,0.39506066,-0.15153388,0.376779,0.39502849,-0.13003059,0.372554,0.39524045,-0.11013335,0.368857,0.43237432,-0.20728535,0.40438,0.44609637,-0.20130782,0.393287,0.44195928,-0.21450022,0.38819,0.44779341,-0.23095426,0.392003
0.41729694,-0.27674848,0.377416,0.39321713,-0.23477951,0.376757,0.3776044,-0.25967401,0.362563,0.3625702,-0.21579847,0.338741,0.34571707,-0.18023064,0.319803,0.34750697,-0.15897886,0.307808,0.3416914,-0.18148118,0.358082,0.36174761,-0.17533111,0.343754,0.3738158,-0.17839072,0.33659,0.38618263,-0.19614511,0.341844,0.37418735,-0.18840546,0.376009,0.38499293,-0.14859537,0.368268,0.391165,-0.12469921,0.363753,0.4139952,-0.12626819,0.371062,0.40303062,-0.19520692,0.390806,0.40810359,-0.15491583,0.383776,0.41010818,-0.13376093,0.380271,0.41288751,-0.11437809,0.377858,0.44211629,-0.21043786,0.408563,0.45206492,-0.20472678,0.398111,0.44707257,-0.2180786,0.393309,0.45264396,-0.23498223,0.397842
0.42525345,-0.29015884,0.395119,0.39824481,-0.24080739,0.383694,0.3886955,-0.26951781,0.374903,0.38302155,-0.23592703,0.344679,0.35151896,-0.20426971,0.318289,0.34710424,-0.18118044,0.303901,0.34287226,-0.18224175,0.35008,0.3532584,-0.1593716,0.327126,0.35061684,-0.16751966,0.315649,0.35904714,-0.18150729,0.31495,0.37411873,-0.18939072,0.370722,0.37016354,-0.14455977,0.354104,0.37031833,-0.1199118,0.34441,0.38866736,-0.11738345,0.345943,0.40191426,-0.19637969,0.388551,0.39366893,-0.15563448,0.376948,0.39540247,-0.13522717,0.371011,0.40202461,-0.11945057,0.365614,0.43717306,-0.21649953,0.411457,0.45776536,-0.19524663,0.417363,0.47698311,-0.19244299,0.420077,0.49913867,-0.19157026,0.426382
0.42918448,-0.28805785,0.39457,0.41011168,-0.24189112,0.394848,0.39155923,-0.26836171,0.377239,0.38173419,-0.21282481,0.35267,0.36873303,-0.17441212,0.33089,0.36618038,-0.15449468,0.327621,0.36455898,-0.18120141,0.373872,0.38992064,-0.17414223,0.360011,0.38905354,-0.18899411,0.35308,0.39782483,-0.20591748,0.354951,0.39492845,-0.19113281,0.395163,0.42240039,-0.16027359,0.389452,0.43954633,-0.14132263,0.38612,0.46031311,-0.12955307,0.390493,0.42089583,-0.20238475,0.412659,0.42369998,-0.16052678,0.401412,0.4358424,-0.14660214,0.395658,0.45052602,-0.14540607,0.390426,0.45375542,-0.22179993,0.433504,0.46889915,-0.19738685,0.424409,0.47949404,-0.194224,0.420231,0.49699861,-0.19951835,0.422385
0.42615271,-0.28593019,0.39313,0.40943544,-0.24055225,0.394236,0.39074163,-0.26578461,0.375996,0.38035483,-0.21227243,0.351895,0.36817353,-0.1745824,0.331732,0.36295286,-0.1534763,0.326458,0.36729593,-0.18077229,0.374147,0.39655912,-0.17456143,0.36098,0.39067774,-0.19002939,0.354397,0.39155372,-0.20867823,0.356339,0.3968786,-0.19134316,0.395493,0.42501967,-0.16055801,0.390612,0.44290193,-0.14189348,0.387765,0.45627056,-0.1280658,0.385732,0.42204258,-0.20310664,0.412972,0.43890106,-0.16707262,0.405099,0.45567698,-0.15783806,0.401071,0.4723109,-0.15823637,0.397409,0.45365112,-0.2230874,0.433679,0.46352384,-0.19158373,0.425235,0.47393738,-0.1970263,0.421355,0.47813189,-0.21186082,0.423587
0.4257922,-0.28456253,0.392296,0.41930699,-0.23813448,0.393394,0.39820898,-0.26399724,0.375129,0.39016464,-0.21181138,0.351019,0.37723968,-0.17446921,0.331693,0.37224803,-0.15538379,0.330202,0.37911032,-0.1798346,0.373257,0.40574533,-0.17420963,0.360087,0.3998426,-0.18997237,0.353502,0.39552323,-0.20816998,0.355387,0.40844852,-0.19097385,0.39464,0.4364352,-0.16000826,0.389771,0.45456815,-0.14149403,0.386931,0.46814946,-0.12775683,0.384902,0.43333073,-0.20321139,0.41215,0.44791832,-0.16612489,0.403,0.46394552,-0.15663797,0.398318,0.47987064,-0.15677171,0.394062,0.46445423,-0.22376962,0.432896,0.47347455,-0.19369094,0.42446,0.48158211,-0.19510472,0.420584,0.48921035,-0.21137976,0.422775
