sluyters/QuantumLeap/backend/src/datasets/gesture/HandGestureDataset_SHREC2017_csv/Gesture6/finger_1/subject_26_essai_3_skeletons_world.csv
Wrist_x,Wrist_y,Wrist_z,Palm_x,Palm_y,Palm_z,thumb_base_x,thumb_base_y,thumb_base_z,thumb_first_joint_x,thumb_first_joint_y,thumb_first_joint_z,thumb_second_joint_x,thumb_second_joint_y,thumb_second_joint_z,thumb_tip_x,thumb_tip_y,thumb_tip_z,index_base_x,index_base_y,index_base_z,index_first_joint_x,index_first_joint_y,index_first_joint_z,index_second_joint_x,index_second_joint_y,index_second_joint_z,index_tip_x,index_tip_y,index_tip_z,middle_base_x,middle_base_y,middle_base_z,middle_first_joint_x,middle_first_joint_y,middle_first_joint_z,middle_second_joint_x,middle_second_joint_y,middle_second_joint_z,middle_tip_x,middle_tip_y,middle_tip_z,ring_base_x,ring_base_y,ring_base_z,ring_first_joint_x,ring_first_joint_y,ring_first_joint_z,ring_second_joint_x,ring_second_joint_y,ring_second_joint_z,ring_tip_x,ring_tip_y,ring_tip_z,pinky_base_x,pinky_base_y,pinky_base_z,pinky_first_joint_x,pinky_first_joint_y,pinky_first_joint_z,pinky_second_joint_x,pinky_second_joint_y,pinky_second_joint_z,pinky_tip_x,pinky_tip_y,pinky_tip_z,
0.347792839,-0.282545589,0.46806,0.329159149,-0.224546588,0.445464,0.323313303,-0.266893724,0.462962,0.278895784,-0.244141956,0.443974,0.237082046,-0.22271729,0.422381,0.213495177,-0.202390244,0.409297,0.281708365,-0.166157227,0.421036,0.250145167,-0.125518467,0.394605,0.234926537,-0.111083325,0.381389,0.22914288,-0.106953486,0.387448,0.303721739,-0.163259068,0.419238,0.27505493,-0.152339426,0.389401,0.291662603,-0.187642199,0.40976,0.305427736,-0.207024013,0.426944,0.323871624,-0.164704326,0.419529,0.29776118,-0.155224476,0.39257,0.308414735,-0.184786768,0.409654,0.323103269,-0.210263839,0.427365,0.352171988,-0.172254469,0.423239,0.317279493,-0.16996274,0.398204,0.321449589,-0.192113576,0.411024,0.328004864,-0.214988858,0.424806
0.347353012,-0.280426325,0.46626,0.328476591,-0.223171581,0.443804,0.322376059,-0.264919115,0.460964,0.278252052,-0.242918512,0.441718,0.235826542,-0.221837852,0.419835,0.211461194,-0.20205244,0.406399,0.280298764,-0.164124579,0.419244,0.249436735,-0.125024581,0.392681,0.23433669,-0.110559185,0.3794,0.232227932,-0.105585274,0.385479,0.303041314,-0.162223516,0.417739,0.275117911,-0.151695715,0.387973,0.291868775,-0.187016736,0.408432,0.3074067,-0.20611148,0.425621,0.323420026,-0.16370556,0.41826,0.29786442,-0.154669923,0.391273,0.308539321,-0.184225037,0.408436,0.322535062,-0.209187997,0.42619,0.352165743,-0.171647395,0.422223,0.317568048,-0.169319728,0.397176,0.322017327,-0.191472429,0.410058,0.328804998,-0.213244258,0.423869
0.343452434,-0.276151182,0.460411,0.325000255,-0.220281809,0.43916,0.318011611,-0.260332409,0.454555,0.273291168,-0.238149126,0.434638,0.226822245,-0.218116806,0.410049,0.203864405,-0.199628734,0.396122,0.278585012,-0.160735189,0.414881,0.249696133,-0.118114243,0.389031,0.233551435,-0.108406101,0.376105,0.23198712,-0.103067327,0.382754,0.301158203,-0.159316084,0.414494,0.275637956,-0.150711827,0.385638,0.292919117,-0.186342822,0.406725,0.306916969,-0.205323972,0.423782,0.322087617,-0.162358305,0.41584,0.298408351,-0.153978115,0.389333,0.308347961,-0.183887337,0.407,0.322184806,-0.207004473,0.42476,0.351019753,-0.172247884,0.420607,0.317359485,-0.168694744,0.39601,0.323765265,-0.190524932,0.409302,0.332274276,-0.210187597,0.423113
0.342633303,-0.27444177,0.458833,0.324036882,-0.219231785,0.437898,0.316844053,-0.259040381,0.453014,0.271520975,-0.237201032,0.433164,0.226003016,-0.21732902,0.408568,0.20220391,-0.198653238,0.394121,0.278117022,-0.159760753,0.413918,0.249226947,-0.117892303,0.3883,0.233799199,-0.107629685,0.375492,0.232407491,-0.102049914,0.382285,0.300875934,-0.158618497,0.413598,0.275598083,-0.150637206,0.385025,0.292945687,-0.186362002,0.40625,0.307035373,-0.205127331,0.423248,0.321778685,-0.161753479,0.414976,0.298266475,-0.153936922,0.388705,0.308496301,-0.183841507,0.406485,0.322195655,-0.206671421,0.424195,0.350641794,-0.171861463,0.419732,0.317256342,-0.168330975,0.395337,0.323749817,-0.190317173,0.408724,0.332435454,-0.209830279,0.4225
0.342560898,-0.2729106,0.457582,0.322899099,-0.217258585,0.436093,0.316429639,-0.257508698,0.451716,0.27026531,-0.235833793,0.431772,0.225147617,-0.215540475,0.406908,0.200767469,-0.196965813,0.391929,0.276947203,-0.15819407,0.411611,0.248090419,-0.116403581,0.385587,0.234679381,-0.105056569,0.372575,0.232614656,-0.100864292,0.379114,0.300242672,-0.15673261,0.411152,0.275513771,-0.14072387,0.382087,0.291986869,-0.176129304,0.403067,0.306934644,-0.194334468,0.420166,0.321260485,-0.15932428,0.412457,0.299169789,-0.143368779,0.385783,0.309840714,-0.171514299,0.403361,0.321237754,-0.202820296,0.421155,0.349351231,-0.170040135,0.417209,0.316324807,-0.166488876,0.392468,0.321785319,-0.188703458,0.405689,0.330613727,-0.208098429,0.419522
0.342277964,-0.271416627,0.456237,0.322178688,-0.216413845,0.435081,0.316026929,-0.256085928,0.450491,0.269378447,-0.234897257,0.430723,0.224691019,-0.214620855,0.406026,0.200059236,-0.196085818,0.390954,0.276800666,-0.157514037,0.411016,0.248181019,-0.115971873,0.385258,0.234959449,-0.105033728,0.372378,0.233288947,-0.101185442,0.379073,0.300076994,-0.156208363,0.410528,0.2752924,-0.140610801,0.38178,0.291868066,-0.17605764,0.402903,0.306763705,-0.194226238,0.419932,0.321030301,-0.158918808,0.411783,0.298877431,-0.143228674,0.385406,0.309643301,-0.17140502,0.403104,0.321253806,-0.201627599,0.420825,0.349016176,-0.1697235,0.416427,0.316146033,-0.166120459,0.391935,0.321734424,-0.188367755,0.405255,0.330580894,-0.207690213,0.419039
0.341556155,-0.270032578,0.455167,0.32164281,-0.215765524,0.434326,0.31522598,-0.25465794,0.449436,0.268590141,-0.234101322,0.429708,0.224204027,-0.213866671,0.405112,0.199463025,-0.195368719,0.390081,0.276655464,-0.157005568,0.410531,0.248178675,-0.115686768,0.384973,0.235086474,-0.105001747,0.372195,0.233726451,-0.101394347,0.379025,0.299997738,-0.15585452,0.410136,0.275209476,-0.140568446,0.381665,0.291885452,-0.176068128,0.402927,0.306739598,-0.194210975,0.419899,0.320976746,-0.158684226,0.411444,0.298787474,-0.143185565,0.38529,0.309640996,-0.171403744,0.403101,0.321409644,-0.200861547,0.420777,0.348984701,-0.169593016,0.416103,0.316219057,-0.165962677,0.391803,0.321914103,-0.188254375,0.405217,0.3307751,-0.20753543,0.41897
0.34277308,-0.270154974,0.456389,0.322962142,-0.215940679,0.435894,0.316721658,-0.255129701,0.451302,0.271014243,-0.236542983,0.432436,0.229757547,-0.219793567,0.410451,0.203172462,-0.200291419,0.395815,0.276785286,-0.160164038,0.413168,0.250196368,-0.11621244,0.387363,0.236844766,-0.105442331,0.37446,0.236202724,-0.101118721,0.381263,0.30058874,-0.157126735,0.412106,0.267904479,-0.135239658,0.384082,0.282719439,-0.169611498,0.405446,0.298791341,-0.190897966,0.422289,0.321183229,-0.159520774,0.412837,0.289654467,-0.160169403,0.387297,0.30237539,-0.189921109,0.405204,0.317871366,-0.212360308,0.42267,0.349008063,-0.170233041,0.416759,0.313907623,-0.168176324,0.392948,0.32202139,-0.189473509,0.406444,0.331897556,-0.20841276,0.420057
0.342621492,-0.269301327,0.455768,0.322646414,-0.215182106,0.43531,0.316668094,-0.254512793,0.450956,0.270993917,-0.236703751,0.432452,0.229456567,-0.220606945,0.410492,0.203158746,-0.201181633,0.39614,0.276489356,-0.160108087,0.412951,0.250412846,-0.116019074,0.387174,0.236966574,-0.105252268,0.374285,0.236206199,-0.100802275,0.381085,0.299966129,-0.156984485,0.411564,0.267594083,-0.135082968,0.383637,0.282399376,-0.169419483,0.404987,0.298438273,-0.19067239,0.42179,0.320327828,-0.159197871,0.412026,0.290313586,-0.159842611,0.386674,0.301918374,-0.189371305,0.404575,0.31473425,-0.214812138,0.421963,0.34817515,-0.169190739,0.415621,0.313834768,-0.167499525,0.391956,0.321205503,-0.189288366,0.405449,0.331275353,-0.208156264,0.41901
0.340628465,-0.26756552,0.453075,0.32147337,-0.214225765,0.433755,0.314983773,-0.253002923,0.448556,0.269732766,-0.235614713,0.430514,0.227092988,-0.217227419,0.408454,0.201384495,-0.198842378,0.394167,0.276142943,-0.159642481,0.412672,0.250850774,-0.116108467,0.387956,0.237664404,-0.105529431,0.375598,0.235848177,-0.101916905,0.382961,0.298688323,-0.157288966,0.411331,0.266962784,-0.147459941,0.384469,0.284193293,-0.183668541,0.406283,0.304712543,-0.203046871,0.422847,0.31903152,-0.159082824,0.411742,0.290297695,-0.159873269,0.387345,0.302180344,-0.189686936,0.405629,0.314804427,-0.215140249,0.422785,0.34687275,-0.168500638,0.415106,0.312383524,-0.168209466,0.392249,0.322106498,-0.189589617,0.406062,0.331713427,-0.208408447,0.419463
0.338804093,-0.266356928,0.451009,0.319802227,-0.213321215,0.431992,0.31379256,-0.252306039,0.447282,0.269370066,-0.235750277,0.43031,0.226487489,-0.217285265,0.407777,0.200685784,-0.198902699,0.393307,0.274184552,-0.160215795,0.412126,0.250426055,-0.115979046,0.387787,0.23679269,-0.105188484,0.375617,0.23514502,-0.100564575,0.383086,0.29592705,-0.156938595,0.409921,0.263602744,-0.1391067,0.383518,0.28186184,-0.171228005,0.405351,0.298284462,-0.193775017,0.421755,0.314990061,-0.157724243,0.409596,0.288485564,-0.15879788,0.385886,0.30053835,-0.188603439,0.4042,0.313103984,-0.213962002,0.42109,0.342229711,-0.166181763,0.412039,0.309097739,-0.167231619,0.389728,0.320116173,-0.188527485,0.403573,0.330153277,-0.206913796,0.416793
0.33802445,-0.266027311,0.450618,0.318980524,-0.213039033,0.431656,0.313166367,-0.252112734,0.447087,0.268968785,-0.23594032,0.430381,0.226388318,-0.219223829,0.407661,0.200517842,-0.20126342,0.393111,0.272870486,-0.160018786,0.412074,0.249311532,-0.116035706,0.387723,0.234951962,-0.105301266,0.375547,0.234982347,-0.0998770023,0.383002,0.294392283,-0.15653497,0.409647,0.262747495,-0.139053234,0.383341,0.2793665,-0.174458948,0.405164,0.297514054,-0.193713076,0.42153,0.313966833,-0.157375301,0.409136,0.285441098,-0.155318742,0.385583,0.298046002,-0.185109253,0.403893,0.31250248,-0.212350059,0.420717,0.341017718,-0.165604314,0.411349,0.307970682,-0.166652105,0.389162,0.319329293,-0.188258998,0.403005,0.329842783,-0.20633048,0.416181
0.339141422,-0.266323219,0.451588,0.319119327,-0.213141033,0.432188,0.314458196,-0.252989941,0.448591,0.271036899,-0.239561699,0.432581,0.227077396,-0.224093032,0.408982,0.200298035,-0.207129159,0.394367,0.271215331,-0.16029515,0.412911,0.238818967,-0.117509866,0.389802,0.224592471,-0.105016671,0.378247,0.221831589,-0.0979392024,0.385886,0.292253741,-0.155985575,0.409672,0.262744565,-0.138844429,0.383127,0.280672416,-0.172194496,0.404639,0.297106956,-0.193450373,0.420994,0.311423205,-0.1561485,0.408526,0.285889698,-0.15542641,0.38501,0.299060224,-0.186371994,0.403074,0.311744107,-0.211473681,0.419786,0.337431065,-0.162905801,0.41005,0.305712005,-0.164479894,0.387863,0.317721151,-0.186663056,0.401511,0.328539736,-0.205156342,0.414611
0.338524841,-0.264523407,0.449989,0.315230227,-0.211189786,0.430247,0.313428308,-0.251694067,0.446687,0.269884516,-0.239233683,0.430244,0.225014855,-0.22749673,0.405272,0.196815594,-0.211850151,0.389116,0.257011713,-0.159854882,0.41032,0.226733675,-0.117531272,0.386151,0.212570722,-0.105476844,0.374066,0.209478933,-0.0989609832,0.381348,0.277763067,-0.151798088,0.407334,0.251557917,-0.141358669,0.379237,0.276082086,-0.173326077,0.400586,0.294030098,-0.191802342,0.417451,0.297155953,-0.148732851,0.406423,0.275993023,-0.149455066,0.382484,0.294396334,-0.180945263,0.400469,0.309456822,-0.209537208,0.41732,0.324986289,-0.151902545,0.408276,0.297443151,-0.155268169,0.385742,0.310650614,-0.177537733,0.39932,0.325672577,-0.199237067,0.412516
0.336825173,-0.261130044,0.44649,0.308286219,-0.204603065,0.428636,0.312168188,-0.250021099,0.444119,0.269347223,-0.239340759,0.429055,0.225264353,-0.228065744,0.404674,0.197054545,-0.213467394,0.389391,0.247520492,-0.165537301,0.41137,0.212693485,-0.125372769,0.389341,0.197478537,-0.113042036,0.378326,0.192394643,-0.106540162,0.386572,0.266144865,-0.153164408,0.407913,0.240175104,-0.140122071,0.381578,0.266928333,-0.173187489,0.40356,0.288924661,-0.191044805,0.419986,0.284123899,-0.146200264,0.406467,0.265174662,-0.144025754,0.384397,0.284937429,-0.173224833,0.402922,0.30575764,-0.20264776,0.419234,0.3109763,-0.143960431,0.407402,0.286458073,-0.146393323,0.386433,0.303083388,-0.16819217,0.400468,0.319405895,-0.185308085,0.41329
0.33684287,-0.258713761,0.445304,0.303078072,-0.202777189,0.428072,0.311345194,-0.248699439,0.442209,0.269583814,-0.24071069,0.426211,0.226289508,-0.234420292,0.400095,0.196433504,-0.222747038,0.383833,0.237599038,-0.171804035,0.410416,0.199522497,-0.134100562,0.388507,0.184136075,-0.122343337,0.377553,0.178314644,-0.116951223,0.386077,0.255277116,-0.157137318,0.408071,0.231653197,-0.144130537,0.382457,0.261818495,-0.175585201,0.404872,0.283477495,-0.190404122,0.421173,0.272800435,-0.148008321,0.407491,0.256881904,-0.145017839,0.385398,0.279643062,-0.173209751,0.404245,0.302428446,-0.198946638,0.420696,0.299693623,-0.142618039,0.409366,0.278631741,-0.145254989,0.388421,0.297139732,-0.166455578,0.402714,0.317952223,-0.185081411,0.415628
0.339558228,-0.245129984,0.442078,0.300365366,-0.201723465,0.42616,0.309514294,-0.246032203,0.438157,0.276233525,-0.241155868,0.421189,0.233275952,-0.233443263,0.393593,0.203003633,-0.223583015,0.377157,0.231694251,-0.179677496,0.408547,0.189947924,-0.145762724,0.387353,0.174101679,-0.134646215,0.376756,0.167393499,-0.130591461,0.385821,0.247513829,-0.162610088,0.407685,0.225660087,-0.148928807,0.383544,0.261381808,-0.177014701,0.406575,0.282740591,-0.191508794,0.422537,0.263860664,-0.151037221,0.408223,0.250499585,-0.146040244,0.38656,0.278860193,-0.173161987,0.40587,0.302596793,-0.198464245,0.422331,0.289974795,-0.14182334,0.411232,0.272389691,-0.143734339,0.39072,0.293677702,-0.163473245,0.405392,0.314881991,-0.182269668,0.418301
0.339317851,-0.242356201,0.439833,0.299108648,-0.201428559,0.424761,0.308984495,-0.244295237,0.435957,0.276505822,-0.240982665,0.419135,0.233696511,-0.233619847,0.391838,0.203551947,-0.224262165,0.375823,0.231820057,-0.18162515,0.407881,0.189669324,-0.148372563,0.387139,0.173647568,-0.137300088,0.376768,0.166760991,-0.133443601,0.386111,0.24730818,-0.164291447,0.407266,0.225472423,-0.15039754,0.383989,0.261326428,-0.178097202,0.407304,0.282427551,-0.19241229,0.423042,0.263390758,-0.152394695,0.407941,0.250147512,-0.146927824,0.386908,0.278543539,-0.173437,0.406444,0.302592753,-0.198155856,0.422741,0.289198466,-0.142598453,0.410988,0.270595488,-0.141889229,0.391024,0.292168755,-0.161503693,0.405888,0.311891627,-0.177879701,0.418677
0.336913251,-0.230155758,0.431362,0.295333135,-0.198442645,0.419814,0.309746646,-0.236048483,0.428619,0.281575177,-0.234647687,0.413685,0.239457681,-0.230005485,0.386108,0.20647779,-0.224655082,0.372541,0.230322229,-0.189694358,0.407161,0.182113846,-0.172084897,0.390307,0.159953376,-0.163441447,0.381879,0.146269002,-0.1631929,0.392842,0.241683089,-0.169539391,0.406411,0.219680435,-0.154264674,0.386612,0.261151006,-0.179693056,0.410887,0.281767875,-0.193698618,0.425669,0.254435313,-0.154677894,0.406698,0.242427865,-0.146107929,0.388883,0.273406156,-0.16896235,0.409216,0.301848228,-0.194644072,0.424532,0.276365023,-0.139994639,0.40876,0.258418047,-0.13550856,0.391542,0.282704,-0.15238711,0.407093,0.304366706,-0.16673333,0.419182
0.338928446,-0.224686018,0.430688,0.293540347,-0.197728622,0.41967,0.31053859,-0.234401464,0.427797,0.286915157,-0.23648961,0.412741,0.24868969,-0.23480674,0.383746,0.221669207,-0.227680632,0.365208,0.229187921,-0.191635209,0.40726,0.178739398,-0.183990795,0.390632,0.157322031,-0.179121647,0.382318,0.144097102,-0.183359268,0.393418,0.23980707,-0.171198277,0.406881,0.210093467,-0.157914217,0.387668,0.248318255,-0.180001542,0.412091,0.276431512,-0.192947301,0.426707,0.249154285,-0.156902375,0.407433,0.238756888,-0.15141206,0.389922,0.272511734,-0.17134749,0.410364,0.301640995,-0.194384273,0.425601,0.269833428,-0.140659848,0.40973,0.25495258,-0.144292783,0.392794,0.275823876,-0.164259701,0.408438,0.294221163,-0.176868315,0.420465
0.339637235,-0.221995576,0.429806,0.294738851,-0.198408568,0.419952,0.316745346,-0.230035157,0.425775,0.295004885,-0.236653795,0.409446,0.258055131,-0.235873526,0.379556,0.229909266,-0.232601956,0.361752,0.231582044,-0.20760422,0.407079,0.18155638,-0.201215469,0.390386,0.159040573,-0.19612124,0.382039,0.144996479,-0.20106982,0.393227,0.239120298,-0.186697878,0.408516,0.214481292,-0.16591773,0.390774,0.253008236,-0.182437877,0.415461,0.281994475,-0.195632964,0.429627,0.248882481,-0.170551042,0.41047,0.240878505,-0.154281635,0.39318,0.274935734,-0.173209059,0.413778,0.304248822,-0.194966339,0.428989,0.267420588,-0.152961599,0.414264,0.257219466,-0.147490365,0.397633,0.279545942,-0.165832426,0.413416,0.298803634,-0.178860032,0.425389
0.343123961,-0.208364997,0.426403,0.29601637,-0.198309574,0.418483,0.327456118,-0.22176226,0.423134,0.307626804,-0.229953441,0.408067,0.272966576,-0.232050713,0.378337,0.246091451,-0.231940519,0.361078,0.242212959,-0.214545326,0.4081,0.193997204,-0.216308004,0.39321,0.171759774,-0.214826916,0.385765,0.158463457,-0.224069501,0.39766,0.245091181,-0.192732679,0.409291,0.218176817,-0.175265936,0.393468,0.259002415,-0.186382341,0.418548,0.286535926,-0.196899451,0.432143,0.250067209,-0.172952885,0.410891,0.242122976,-0.158649812,0.395569,0.277023989,-0.174437881,0.416503,0.306951811,-0.190646023,0.431053,0.266023014,-0.153742963,0.413976,0.255900658,-0.150127501,0.398951,0.280441299,-0.165915974,0.415028,0.300251474,-0.178090038,0.426551
0.344581142,-0.209527881,0.428427,0.296323581,-0.198445632,0.419506,0.330215222,-0.221247487,0.424875,0.309482539,-0.229485196,0.409292,0.277843934,-0.228008253,0.378984,0.249493165,-0.229894278,0.361888,0.241050179,-0.215668393,0.407972,0.192020772,-0.223410128,0.392225,0.171114865,-0.220973359,0.384352,0.158395793,-0.226373667,0.395912,0.243326592,-0.194015224,0.409153,0.217247617,-0.173341918,0.392311,0.261053422,-0.183476039,0.4172,0.285763282,-0.196179607,0.431104,0.248834189,-0.176735091,0.410824,0.241820238,-0.156818891,0.394938,0.277523876,-0.172563485,0.415734,0.3095001,-0.184472622,0.430457,0.259672652,-0.158797177,0.414141,0.255392517,-0.149865449,0.398327,0.279779208,-0.164644295,0.414264,0.300027787,-0.177079292,0.426009
0.349293713,-0.203656887,0.42916,0.296919065,-0.19848689,0.419979,0.335470766,-0.218415077,0.426149,0.313617287,-0.228314255,0.411206,0.281164067,-0.228032527,0.381038,0.254804984,-0.226676294,0.362811,0.242274948,-0.216228538,0.408898,0.194651678,-0.224162316,0.393366,0.17338861,-0.222157602,0.3856,0.161063199,-0.231286714,0.397213,0.243828778,-0.194254447,0.409322,0.218003244,-0.172280243,0.392089,0.26358394,-0.181938526,0.416935,0.286594579,-0.195454105,0.430967,0.248768041,-0.17681407,0.410391,0.242005485,-0.156307452,0.394294,0.278749403,-0.169174378,0.415065,0.31123149,-0.180331889,0.429862,0.261539856,-0.156769555,0.413029,0.255298636,-0.149101932,0.397258,0.279604403,-0.161652748,0.413185,0.301331088,-0.174676981,0.424912
0.360616286,-0.203572055,0.441092,0.306098283,-0.198126336,0.426953,0.341113393,-0.219081759,0.432624,0.31344557,-0.220610505,0.410281,0.281164557,-0.219837839,0.380552,0.25619375,-0.222262911,0.363205,0.241664088,-0.212237527,0.405182,0.203683958,-0.228692792,0.404151,0.183233486,-0.231621746,0.403635,0.164076981,-0.232307209,0.403166,0.24575454,-0.193025871,0.410542,0.221075726,-0.163647598,0.389316,0.263035096,-0.171868737,0.412408,0.286831429,-0.187519256,0.427335,0.252862871,-0.176406303,0.416059,0.244572175,-0.150911992,0.397757,0.279680044,-0.159581736,0.417149,0.312406052,-0.169255538,0.432286,0.269348273,-0.159582864,0.424736,0.25888942,-0.144740653,0.403648,0.283256299,-0.155273746,0.418209,0.304175989,-0.167874196,0.431277
0.359849303,-0.200561854,0.440755,0.305401628,-0.192196626,0.427593,0.340731394,-0.211695661,0.431126,0.310658244,-0.210596974,0.40762,0.278311211,-0.212405482,0.37789,0.254808095,-0.217496527,0.363029,0.241843933,-0.210388486,0.405182,0.205286981,-0.229616572,0.406102,0.186898417,-0.232775042,0.406563,0.167291632,-0.234231061,0.406981,0.245456058,-0.192323231,0.412316,0.219566256,-0.165090152,0.3925,0.263331964,-0.171281658,0.415366,0.287948902,-0.183230837,0.429712,0.25419664,-0.17683784,0.419217,0.245731809,-0.152100862,0.402775,0.278627677,-0.15772648,0.422006,0.313094136,-0.167966034,0.436328,0.268988682,-0.160066552,0.429396,0.256717222,-0.144972523,0.408621,0.281690225,-0.153275126,0.423001,0.305418143,-0.166952258,0.435888
0.360821317,-0.191438628,0.444378,0.305732038,-0.191722754,0.429581,0.341443782,-0.20613117,0.433152,0.3108673,-0.204565852,0.407605,0.279600684,-0.205064681,0.377881,0.255059573,-0.212851048,0.362876,0.241448925,-0.208027965,0.403894,0.205391505,-0.22954137,0.405259,0.185810038,-0.233210969,0.405942,0.168013926,-0.2365183,0.406562,0.24495064,-0.191428624,0.412408,0.220937703,-0.161122084,0.391353,0.260467456,-0.167207279,0.413246,0.286063872,-0.180975402,0.427734,0.252702421,-0.177883875,0.420571,0.237144966,-0.148998401,0.403401,0.27035167,-0.152885792,0.421843,0.302357776,-0.157929672,0.436145,0.267163467,-0.161729813,0.432497,0.251470042,-0.142074788,0.410176,0.276728635,-0.15026086,0.423857,0.30093502,-0.163344581,0.437018
0.365251275,-0.192506801,0.452289,0.30718153,-0.191162429,0.435007,0.346015384,-0.207002135,0.440116,0.314143834,-0.202357525,0.413143,0.28395194,-0.202230363,0.383414,0.25957094,-0.208081227,0.367083,0.242920097,-0.208457536,0.406158,0.207373898,-0.229655947,0.407468,0.187953372,-0.234669085,0.408122,0.169519022,-0.239809038,0.408717,0.245521347,-0.191657992,0.414949,0.217350382,-0.160746664,0.391548,0.258836488,-0.163660304,0.412511,0.284459414,-0.176853734,0.427556,0.249961387,-0.178514243,0.423535,0.237917163,-0.148099997,0.404265,0.270824745,-0.150801081,0.421938,0.303251676,-0.155666236,0.43678,0.261217645,-0.161849455,0.436335,0.248075907,-0.138309199,0.412096,0.274222632,-0.142451179,0.425124,0.291970692,-0.152663272,0.438706
0.362484124,-0.187583658,0.452989,0.303055413,-0.186630607,0.434948,0.344320843,-0.202253663,0.440635,0.312534429,-0.201326372,0.413352,0.282226212,-0.202249381,0.383624,0.2586632,-0.207382439,0.367292,0.241471524,-0.206936852,0.405267,0.204045099,-0.226148146,0.405103,0.184058091,-0.231029682,0.405021,0.166020164,-0.234168283,0.404946,0.242571077,-0.190281702,0.414009,0.205019954,-0.160715303,0.38986,0.241319973,-0.159281228,0.410569,0.270055098,-0.166927679,0.425805,0.246167029,-0.177008704,0.422614,0.23451213,-0.146184568,0.402632,0.262901738,-0.146249636,0.420094,0.29880407,-0.15088373,0.435138,0.259206082,-0.161039195,0.43555,0.247352117,-0.138147395,0.410761,0.272925813,-0.141137281,0.423612,0.293008551,-0.150080227,0.43732
0.361266359,-0.18599856,0.452788,0.302348388,-0.186011173,0.434758,0.343394046,-0.200722716,0.440385,0.311711754,-0.200798301,0.413051,0.281440071,-0.202108359,0.383415,0.258063006,-0.206915702,0.367188,0.240928605,-0.206447326,0.405025,0.20372244,-0.22591637,0.404978,0.183881962,-0.230758472,0.404954,0.165758924,-0.234017525,0.404933,0.241973971,-0.190076227,0.413831,0.204941598,-0.160653879,0.389711,0.241218877,-0.1592145,0.410397,0.269933961,-0.166852801,0.425614,0.24558477,-0.176857265,0.422489,0.233564995,-0.146120089,0.402554,0.262841034,-0.146215867,0.419997,0.297457802,-0.150253457,0.435014,0.258653503,-0.160842132,0.435485,0.247336571,-0.138219245,0.410691,0.272761945,-0.140837691,0.423525,0.293607459,-0.149340799,0.437228
0.360380882,-0.184905162,0.45256,0.30196794,-0.185684743,0.434625,0.342826573,-0.19973253,0.440282,0.311446977,-0.200628686,0.413096,0.28118514,-0.202137679,0.3835,0.257821424,-0.20673073,0.367294,0.240720368,-0.206252671,0.405122,0.203571975,-0.22583962,0.405048,0.183794556,-0.230609778,0.405011,0.165578495,-0.233932203,0.404978,0.241515673,-0.190155891,0.413808,0.204959478,-0.160667895,0.389745,0.241289409,-0.159261068,0.410517,0.270015142,-0.166902981,0.425742,0.245255211,-0.176753751,0.42236,0.233048762,-0.146060984,0.402441,0.262814124,-0.146200897,0.419954,0.296811636,-0.149951988,0.434994,0.258236928,-0.160656297,0.435216,0.247243859,-0.138207701,0.410515,0.272634545,-0.1406642,0.423411,0.293856407,-0.148943469,0.437105
0.359837346,-0.184170402,0.452508,0.301771353,-0.185508302,0.434591,0.342459323,-0.199047815,0.440257,0.311272644,-0.200516951,0.413103,0.281044935,-0.202164743,0.383569,0.257679541,-0.206622757,0.367392,0.240538078,-0.206084897,0.405135,0.204149858,-0.226399943,0.405469,0.184356623,-0.231358839,0.405635,0.166192464,-0.234929203,0.405787,0.241254317,-0.19005257,0.413795,0.204957374,-0.160666246,0.389741,0.241298225,-0.159266873,0.410532,0.270025923,-0.166909645,0.425759,0.245081036,-0.176708566,0.422323,0.232756964,-0.146036714,0.402404,0.262800356,-0.146193238,0.419932,0.296420607,-0.149769469,0.434978,0.25804251,-0.160579319,0.435148,0.24722234,-0.138219787,0.410466,0.27257892,-0.140570801,0.423375,0.294030217,-0.148716893,0.437067
0.359433937,-0.183621733,0.452474,0.301637886,-0.185389175,0.434565,0.342181498,-0.198533035,0.440235,0.311146715,-0.200436217,0.413095,0.280927859,-0.202165914,0.383583,0.257557135,-0.206528752,0.367432,0.240393188,-0.205952062,0.405131,0.204142512,-0.226469502,0.405822,0.184877676,-0.231256653,0.406168,0.166615789,-0.23512158,0.406483,0.241063793,-0.189975721,0.413779,0.204951064,-0.160661299,0.389729,0.241295874,-0.159265322,0.410528,0.270024021,-0.166908469,0.425756,0.244964166,-0.176677895,0.422297,0.232561708,-0.146020047,0.402378,0.262788466,-0.146186624,0.419913,0.296155352,-0.149645499,0.434961,0.257916076,-0.160529968,0.435108,0.247208986,-0.13822842,0.410435,0.272540533,-0.140507832,0.423349,0.294145113,-0.148565071,0.43704
0.356990963,-0.182142231,0.44972,0.300729459,-0.18481918,0.43349,0.340160188,-0.197247163,0.438086,0.309202006,-0.199995996,0.41186,0.279093631,-0.202288481,0.382711,0.256089147,-0.206921971,0.366898,0.239624837,-0.205368353,0.40615,0.205224836,-0.227907787,0.407175,0.186144419,-0.232401689,0.407688,0.167659617,-0.236734574,0.408154,0.240846364,-0.189862412,0.414653,0.211478222,-0.158220759,0.392192,0.250524478,-0.159751531,0.413636,0.274290942,-0.168937119,0.428492,0.245358895,-0.176745196,0.422921,0.234379539,-0.146971199,0.404437,0.265943041,-0.147514468,0.422506,0.298612193,-0.151948939,0.437189,0.25821375,-0.160357803,0.435184,0.24798693,-0.13858166,0.411787,0.273683517,-0.141043899,0.425153,0.295407269,-0.148874207,0.43857
0.35697039,-0.18194592,0.449952,0.30071925,-0.184804133,0.433651,0.339995329,-0.197060762,0.438236,0.308942579,-0.200409099,0.41191,0.278756613,-0.202772691,0.382797,0.2556001,-0.207150595,0.366853,0.239361145,-0.205239157,0.406153,0.205268983,-0.228151971,0.407481,0.186228016,-0.23283338,0.408146,0.167771724,-0.237343793,0.40875,0.240773378,-0.189757337,0.414731,0.211493859,-0.158232458,0.392221,0.250509336,-0.159741875,0.413611,0.274602841,-0.169063371,0.428467,0.245466972,-0.176660258,0.423065,0.234495162,-0.146884837,0.404559,0.266237009,-0.147633087,0.422584,0.298790417,-0.152291952,0.437258,0.2585425,-0.160294349,0.435419,0.24805964,-0.138560996,0.411953,0.27375148,-0.141039047,0.42528,0.295673907,-0.148762446,0.438707
0.355872572,-0.180539159,0.44984,0.300654172,-0.184757306,0.433694,0.339231962,-0.195735355,0.438226,0.308813276,-0.200761979,0.412035,0.278656516,-0.203248027,0.383072,0.255409602,-0.207482757,0.367091,0.239334268,-0.20528874,0.406445,0.205237902,-0.228225402,0.407695,0.186173134,-0.233033402,0.40832,0.167702165,-0.237666324,0.408888,0.240810328,-0.189749524,0.414953,0.211684204,-0.158374868,0.392574,0.250771589,-0.159909119,0.414044,0.275120621,-0.169331106,0.428878,0.245574805,-0.176611375,0.423218,0.23467829,-0.146872594,0.404813,0.266628099,-0.147815467,0.422903,0.299102624,-0.152652061,0.437562,0.258718154,-0.160195408,0.435467,0.248145033,-0.138561032,0.41213,0.273891403,-0.141080119,0.425514,0.295951138,-0.148710498,0.438917
0.354909978,-0.179496218,0.449562,0.300552561,-0.184689386,0.433657,0.338462143,-0.194803222,0.438082,0.308670322,-0.201009376,0.412076,0.278501952,-0.203562544,0.383181,0.254900458,-0.207317917,0.367373,0.239369762,-0.205375711,0.406768,0.20522381,-0.228221187,0.408119,0.186197878,-0.233042904,0.408794,0.167758312,-0.237688928,0.409408,0.240879005,-0.18977409,0.415198,0.211931707,-0.158560041,0.393033,0.251116818,-0.160129247,0.414614,0.275661838,-0.169623498,0.429405,0.245683466,-0.176588419,0.423379,0.234577602,-0.146637362,0.405149,0.26704988,-0.148021766,0.423331,0.299047345,-0.152445855,0.437956,0.258850628,-0.16011138,0.435492,0.24826236,-0.13858839,0.412353,0.274077236,-0.141151047,0.425816,0.296236373,-0.148700672,0.439179
0.353738301,-0.178300661,0.448192,0.299905895,-0.184006291,0.43306,0.337368582,-0.193825593,0.437047,0.308069876,-0.200897271,0.411532,0.276166714,-0.205638198,0.38318,0.254177491,-0.207359749,0.36709,0.239682706,-0.205464188,0.407204,0.207546395,-0.230835283,0.410006,0.189401356,-0.235784521,0.411407,0.169417292,-0.239030901,0.41268,0.240873868,-0.18966382,0.415498,0.207132258,-0.162227055,0.394052,0.244302223,-0.161236778,0.415931,0.275007359,-0.169614166,0.430557,0.245723499,-0.176384292,0.423507,0.234809629,-0.146761759,0.405904,0.267507697,-0.14837693,0.424332,0.301131956,-0.155792981,0.438802,0.258858093,-0.159734878,0.435299,0.248653247,-0.138658607,0.41277,0.274606353,-0.141217014,0.426443,0.297040083,-0.148500157,0.439674
0.35330846,-0.177935681,0.447401,0.29987133,-0.183810871,0.432846,0.336925053,-0.193541261,0.436449,0.307548201,-0.201053712,0.411241,0.275770354,-0.205580104,0.383052,0.253571309,-0.207787795,0.367222,0.239925469,-0.205528677,0.407689,0.208169506,-0.231096672,0.410665,0.190044691,-0.236113497,0.412153,0.170403764,-0.239764189,0.413506,0.241269465,-0.189678407,0.415952,0.207572265,-0.162427825,0.395064,0.244836776,-0.161576742,0.417129,0.275534396,-0.17002628,0.431611,0.246216444,-0.176345809,0.42389,0.235665427,-0.14695793,0.406798,0.268714441,-0.148929421,0.42538,0.301923739,-0.156419753,0.439706,0.259414698,-0.159611725,0.435513,0.249172257,-0.138751583,0.413426,0.27530451,-0.141500275,0.427231,0.2975676,-0.148794939,0.440357
0.35289894,-0.177581115,0.446636,0.299836684,-0.183615539,0.432632,0.336492313,-0.19326316,0.435865,0.307026152,-0.201209294,0.410949,0.275444196,-0.20550608,0.3829,0.252967506,-0.208217382,0.367357,0.240148826,-0.205576534,0.408141,0.20868194,-0.231357709,0.411268,0.190571985,-0.236432088,0.412832,0.171357212,-0.240451931,0.414254,0.241649363,-0.189680717,0.416379,0.207987032,-0.162608854,0.396028,0.245334159,-0.161892161,0.418264,0.276022826,-0.170414758,0.432605,0.246697631,-0.176299078,0.424253,0.236499919,-0.147140123,0.407654,0.269889864,-0.149464442,0.426378,0.302633172,-0.156942144,0.440561,0.259965659,-0.159485382,0.435718,0.24967581,-0.138835601,0.414056,0.275978977,-0.141771303,0.427982,0.298071453,-0.149077855,0.441005
