sluyters/QuantumLeap/backend/src/datasets/gesture/HandGestureDataset_SHREC2017_csv/Gesture6/finger_1/subject_10_essai_2_skeletons_world.csv
Wrist_x,Wrist_y,Wrist_z,Palm_x,Palm_y,Palm_z,thumb_base_x,thumb_base_y,thumb_base_z,thumb_first_joint_x,thumb_first_joint_y,thumb_first_joint_z,thumb_second_joint_x,thumb_second_joint_y,thumb_second_joint_z,thumb_tip_x,thumb_tip_y,thumb_tip_z,index_base_x,index_base_y,index_base_z,index_first_joint_x,index_first_joint_y,index_first_joint_z,index_second_joint_x,index_second_joint_y,index_second_joint_z,index_tip_x,index_tip_y,index_tip_z,middle_base_x,middle_base_y,middle_base_z,middle_first_joint_x,middle_first_joint_y,middle_first_joint_z,middle_second_joint_x,middle_second_joint_y,middle_second_joint_z,middle_tip_x,middle_tip_y,middle_tip_z,ring_base_x,ring_base_y,ring_base_z,ring_first_joint_x,ring_first_joint_y,ring_first_joint_z,ring_second_joint_x,ring_second_joint_y,ring_second_joint_z,ring_tip_x,ring_tip_y,ring_tip_z,pinky_base_x,pinky_base_y,pinky_base_z,pinky_first_joint_x,pinky_first_joint_y,pinky_first_joint_z,pinky_second_joint_x,pinky_second_joint_y,pinky_second_joint_z,pinky_tip_x,pinky_tip_y,pinky_tip_z,
0.40016096,-0.40290684,0.489938,0.38913058,-0.3512347,0.479743,0.37882844,-0.39062003,0.48862,0.33857537,-0.36371259,0.475277,0.30053249,-0.33412001,0.455508,0.27998492,-0.31677907,0.447712,0.3568929,-0.30379155,0.471369,0.34950956,-0.25842062,0.468438,0.34520023,-0.24380233,0.466973,0.34046207,-0.22764743,0.465641,0.37869164,-0.30211143,0.469843,0.35818977,-0.25154021,0.452068,0.34550837,-0.22935085,0.441698,0.33634438,-0.21385216,0.434292,0.39821162,-0.30511829,0.469429,0.37164318,-0.26356852,0.453058,0.3582454,-0.24449773,0.444682,0.3469541,-0.23059255,0.437067,0.42340149,-0.31610837,0.470486,0.40992817,-0.27326479,0.455101,0.40502834,-0.25990762,0.448032,0.39946359,-0.25336348,0.441795
0.4009776,-0.40369773,0.491373,0.38931773,-0.35092594,0.480045,0.37841776,-0.38997526,0.488472,0.33664239,-0.358788,0.472778,0.29854632,-0.33073024,0.454275,0.27924677,-0.30896469,0.444894,0.35507342,-0.30218129,0.468948,0.34819428,-0.26021589,0.466504,0.34407016,-0.24250461,0.465281,0.34027087,-0.22693785,0.46417,0.3785567,-0.30266967,0.469047,0.36646538,-0.2493487,0.455658,0.3595652,-0.235141,0.447848,0.35489141,-0.2381621,0.442269,0.39913604,-0.30712621,0.470064,0.37793067,-0.25856581,0.451834,0.36517741,-0.24393672,0.442506,0.35815646,-0.23964605,0.434027,0.42549038,-0.32079356,0.472983,0.41078465,-0.27702495,0.456017,0.40559415,-0.26067514,0.448222,0.40084008,-0.26165689,0.441344
0.40123133,-0.40400645,0.492538,0.38905281,-0.35072318,0.479991,0.37780178,-0.38911263,0.488449,0.3358099,-0.35727864,0.470959,0.2985375,-0.32725009,0.45254,0.28044586,-0.3046434,0.442495,0.35329239,-0.30036902,0.466603,0.34718375,-0.25883192,0.464913,0.34335421,-0.2415498,0.464068,0.34001914,-0.2255626,0.463299,0.3775981,-0.3016817,0.467808,0.36027204,-0.24634167,0.447247,0.35015144,-0.23751409,0.435253,0.34324815,-0.24417969,0.426686,0.39898466,-0.30688407,0.469835,0.37591301,-0.2575768,0.450007,0.36339354,-0.24247918,0.439862,0.35576998,-0.23777594,0.43064,0.42665263,-0.32122102,0.474133,0.41124814,-0.27683282,0.45588,0.40532966,-0.26072094,0.447493,0.40042735,-0.26192919,0.440093
0.40088362,-0.40425339,0.492972,0.38897274,-0.35175219,0.480126,0.37696385,-0.38861269,0.488102,0.33583037,-0.3581766,0.469541,0.29860485,-0.32909588,0.450108,0.2800537,-0.30690255,0.439856,0.35345197,-0.30371359,0.465566,0.34740333,-0.26257904,0.465165,0.34442675,-0.2420492,0.464965,0.341425,-0.22515231,0.464782,0.37779497,-0.30321031,0.467654,0.35657004,-0.25044186,0.446672,0.35380485,-0.24659185,0.434433,0.34970766,-0.25363972,0.42569,0.39973288,-0.30884372,0.470431,0.37798022,-0.25920666,0.449939,0.36918784,-0.24209147,0.439454,0.36539517,-0.24222293,0.429923,0.42838165,-0.32431045,0.475663,0.40555063,-0.28749891,0.456392,0.3991229,-0.27839228,0.447538,0.3963823,-0.27999908,0.439726
0.40619985,-0.41036256,0.500771,0.39063971,-0.35289434,0.482704,0.38010287,-0.39239756,0.493268,0.335037,-0.35633706,0.470463,0.29779542,-0.32567572,0.451499,0.27958618,-0.30278481,0.441523,0.34884952,-0.29427393,0.46141,0.33207388,-0.24612481,0.436968,0.3321215,-0.22849993,0.435981,0.33222258,-0.2118693,0.435083,0.37547169,-0.29966275,0.465163,0.36048696,-0.2550505,0.439066,0.35306899,-0.26740424,0.423842,0.35932878,-0.29012168,0.43127,0.39879879,-0.30664985,0.469741,0.37815495,-0.26457695,0.443971,0.36821236,-0.24348792,0.430786,0.36491515,-0.24377326,0.4188,0.42830982,-0.32240222,0.477895,0.40504478,-0.28821222,0.454148,0.39632789,-0.27561696,0.443237,0.39244546,-0.2766961,0.43361
0.40521548,-0.41051297,0.501604,0.38948317,-0.35140459,0.481936,0.37984914,-0.39269699,0.494658,0.33496496,-0.34865388,0.472321,0.30375226,-0.31665683,0.456827,0.28971321,-0.29341783,0.450599,0.35056507,-0.291618,0.460281,0.34021698,-0.24298754,0.434773,0.34394917,-0.22632264,0.434743,0.34750792,-0.21043445,0.434715,0.37419742,-0.29721543,0.46284,0.36259994,-0.25849931,0.435257,0.3496758,-0.2722911,0.419166,0.35405313,-0.29010394,0.425992,0.39663197,-0.30567878,0.466567,0.37971111,-0.2676278,0.43973,0.36987663,-0.24811817,0.425999,0.36354853,-0.2506193,0.413516,0.42616417,-0.32238912,0.473958,0.40347086,-0.29488057,0.449391,0.39308861,-0.28123013,0.438103,0.3877645,-0.28419067,0.428144
0.39537162,-0.40494466,0.497658,0.38868204,-0.35134348,0.48158,0.37258112,-0.38639919,0.493,0.33513261,-0.34354505,0.475643,0.30744564,-0.31114409,0.458524,0.29581059,-0.28546909,0.449221,0.36686344,-0.29378206,0.465152,0.3610772,-0.25445104,0.44291,0.36509058,-0.23891509,0.439944,0.36905157,-0.22412041,0.437248,0.38943249,-0.30391634,0.465969,0.37689899,-0.27667592,0.442046,0.35757687,-0.2929086,0.428091,0.35903838,-0.31350026,0.436644,0.40783896,-0.31617581,0.467967,0.39197785,-0.28779669,0.445139,0.38399193,-0.27286416,0.43346,0.37369229,-0.28026363,0.422843,0.42926317,-0.33794954,0.472768,0.40829489,-0.31546886,0.451447,0.39862369,-0.30504776,0.44165,0.38996214,-0.31125127,0.433007
0.38557038,-0.39892222,0.500588,0.38808648,-0.34905135,0.48229,0.36557617,-0.37383311,0.49564,0.33306463,-0.33168285,0.476105,0.30554854,-0.29870957,0.45881,0.29439293,-0.27240241,0.448702,0.37507955,-0.28445396,0.464036,0.36654193,-0.24702549,0.440063,0.37028717,-0.23292505,0.437357,0.37068488,-0.2212675,0.435092,0.39559468,-0.29776259,0.464525,0.37696115,-0.27412496,0.438541,0.35434781,-0.28869784,0.423384,0.35404784,-0.30790341,0.430993,0.40925945,-0.3139147,0.466436,0.39235824,-0.28554052,0.4418,0.38753904,-0.27117341,0.429195,0.37144221,-0.27742805,0.417737,0.42934811,-0.3373787,0.471472,0.40684676,-0.31371795,0.448603,0.39647417,-0.30274456,0.438095,0.38636662,-0.30835852,0.428824
0.38089953,-0.39505436,0.502473,0.39060456,-0.35048022,0.485413,0.36589169,-0.37207393,0.497313,0.33491256,-0.33118184,0.477673,0.30843082,-0.29799145,0.46012,0.29798894,-0.27164478,0.449984,0.38375963,-0.28656466,0.46771,0.37800208,-0.2536657,0.44458,0.37392478,-0.24248929,0.433983,0.36690814,-0.23917334,0.424349,0.40125089,-0.30118658,0.468849,0.39073807,-0.28587831,0.443937,0.36699654,-0.29740082,0.429404,0.36067771,-0.31367384,0.437518,0.41726101,-0.31697233,0.471193,0.41193299,-0.2927692,0.447059,0.40915739,-0.27955621,0.434712,0.39498955,-0.28544619,0.423486,0.43411713,-0.34207299,0.476553,0.41535183,-0.32622484,0.454383,0.40624181,-0.31969497,0.444197,0.39670132,-0.32061722,0.435209
0.37787152,-0.3903854,0.507131,0.38645513,-0.33869219,0.487264,0.36028564,-0.3601323,0.497234,0.33119761,-0.31049927,0.474489,0.30841227,-0.27492021,0.452384,0.30016534,-0.24861857,0.438902,0.38021975,-0.28035711,0.46179,0.3707465,-0.26258403,0.434863,0.36655252,-0.25380272,0.421637,0.36305947,-0.24584509,0.409701,0.40084776,-0.30017134,0.467976,0.38237894,-0.30287382,0.439845,0.34958806,-0.30915029,0.423436,0.34472785,-0.31435247,0.429558,0.41808629,-0.31938996,0.474704,0.41237669,-0.29894893,0.44695,0.41006105,-0.28909521,0.432751,0.39608473,-0.29715005,0.419842,0.43505844,-0.34684674,0.485672,0.42042132,-0.3307719,0.459944,0.41180938,-0.32349843,0.448123,0.40299543,-0.3218681,0.437693
0.37552476,-0.38763876,0.506709,0.38583062,-0.33848151,0.486369,0.35852789,-0.35783947,0.496517,0.32985318,-0.30967476,0.4727,0.30663127,-0.27461886,0.449877,0.29812468,-0.24854395,0.435975,0.37908406,-0.27989855,0.460215,0.36886205,-0.26219379,0.43275,0.36438827,-0.25353658,0.419383,0.36064077,-0.24570523,0.407327,0.39996818,-0.29935104,0.466621,0.38064832,-0.30261428,0.438035,0.34761965,-0.30848604,0.42136,0.34266889,-0.31329744,0.427209,0.41715217,-0.31861919,0.473571,0.41086641,-0.29882564,0.445261,0.4081391,-0.28901175,0.430777,0.39372789,-0.2969698,0.41761,0.43646263,-0.34677802,0.484871,0.41993967,-0.3296707,0.458746,0.41372686,-0.32225167,0.446742,0.40708618,-0.31844389,0.436151
0.38090893,-0.35693953,0.508689,0.39834105,-0.32149005,0.481429,0.37730492,-0.32871809,0.500462,0.34470437,-0.30138597,0.475693,0.33099574,-0.26356497,0.459294,0.32086622,-0.24261776,0.444137,0.40281123,-0.26507251,0.453166,0.36229048,-0.24675438,0.422165,0.35777922,-0.26828321,0.436417,0.35827947,-0.29120311,0.454344,0.41354683,-0.28781428,0.454963,0.3599728,-0.27267103,0.420571,0.32324872,-0.27032475,0.400509,0.3306888,-0.27585042,0.403531,0.42134894,-0.30992459,0.45869,0.38989372,-0.28379914,0.425831,0.36640304,-0.2751632,0.409019,0.33479796,-0.27549954,0.393736,0.42832283,-0.34227355,0.46723,0.3786016,-0.32274203,0.437565,0.35221619,-0.32297602,0.423934,0.349737,-0.33202981,0.425753
0.37697124,-0.34957524,0.501403,0.38908543,-0.31480769,0.469466,0.37322955,-0.32166955,0.492237,0.34890247,-0.27914397,0.466224,0.33769637,-0.23907646,0.447811,0.3225376,-0.22146462,0.429545,0.39164987,-0.26257511,0.436944,0.36612207,-0.24328992,0.401384,0.35343764,-0.23367311,0.383603,0.33849372,-0.23473697,0.383773,0.39955062,-0.28613789,0.438459,0.33456088,-0.27051069,0.400124,0.33028359,-0.28354606,0.414802,0.34958596,-0.29308995,0.432151,0.40534175,-0.30841871,0.442339,0.37351805,-0.27990139,0.405927,0.35725554,-0.26527026,0.387297,0.32569852,-0.26158298,0.370361,0.41068241,-0.34002491,0.45177,0.35770349,-0.31790092,0.419199,0.3299491,-0.31205085,0.404233,0.32822853,-0.31499827,0.403749
0.37445168,-0.34632435,0.49873,0.38645262,-0.31298426,0.466502,0.37164156,-0.31878773,0.489774,0.34851744,-0.27578921,0.463933,0.34255055,-0.23395494,0.446203,0.32947507,-0.21561865,0.428217,0.38998425,-0.26070511,0.43405,0.36164849,-0.24073454,0.398514,0.34421607,-0.22958947,0.380746,0.3263941,-0.2310433,0.380798,0.39681159,-0.28415937,0.435212,0.33188727,-0.26661435,0.396692,0.32867213,-0.27882585,0.411159,0.34634927,-0.29014247,0.428767,0.40168947,-0.30632747,0.438825,0.37060383,-0.27662633,0.402358,0.35472737,-0.26137783,0.3837,0.32310722,-0.25688539,0.366738,0.40589187,-0.33777074,0.447987,0.35578477,-0.31377996,0.415357,0.32761089,-0.30618146,0.400365,0.32062055,-0.31089664,0.399762
0.374094,-0.34508705,0.498322,0.38604275,-0.31241728,0.465928,0.37110718,-0.31727877,0.488809,0.34805164,-0.27415038,0.462242,0.3411681,-0.2330387,0.443921,0.32911665,-0.2136712,0.425696,0.3890415,-0.25946536,0.43267,0.3581093,-0.23843366,0.396983,0.34234128,-0.22806213,0.37914,0.32447038,-0.23030388,0.379044,0.39638098,-0.28335643,0.434476,0.33128699,-0.26562485,0.395725,0.32597322,-0.27806975,0.410014,0.3451477,-0.2887825,0.427709,0.40168534,-0.30592158,0.438633,0.37027172,-0.27618817,0.401742,0.35422798,-0.26092887,0.382868,0.32263673,-0.25619447,0.36571,0.40637577,-0.33787957,0.448462,0.3491523,-0.31328279,0.415518,0.32132167,-0.3051145,0.400382,0.32047761,-0.30930569,0.399608
0.37332852,-0.34394303,0.496608,0.38537275,-0.31127648,0.464247,0.37003996,-0.31608594,0.487039,0.3467804,-0.27323046,0.460398,0.33784345,-0.23379974,0.442754,0.32757157,-0.21319922,0.424818,0.38781628,-0.25669461,0.430941,0.35430022,-0.23528919,0.395371,0.33470025,-0.2236366,0.377586,0.32099296,-0.22905871,0.377537,0.39606092,-0.27941564,0.432827,0.33109998,-0.26300898,0.394092,0.32614855,-0.27645375,0.408401,0.34412585,-0.28732198,0.426135,0.40226254,-0.30197142,0.437048,0.36916793,-0.27415949,0.400146,0.35284361,-0.25910067,0.381288,0.32148063,-0.25475606,0.364144,0.41100334,-0.33207455,0.446947,0.35439324,-0.31195436,0.413997,0.32601812,-0.30558943,0.398858,0.32245134,-0.30737961,0.398092
0.37656577,-0.34624005,0.500159,0.38370799,-0.30905987,0.461772,0.37186644,-0.31733082,0.489207,0.34762209,-0.27357492,0.461429,0.3285644,-0.23402815,0.43903,0.31576154,-0.21620143,0.420888,0.37912938,-0.24824099,0.422761,0.33984971,-0.22632735,0.383007,0.32021197,-0.21536969,0.36313,0.29897031,-0.21835667,0.358013,0.3889218,-0.2709868,0.424501,0.32133218,-0.25451959,0.381338,0.31037975,-0.26313604,0.389287,0.32882418,-0.27443524,0.407395,0.39687077,-0.29315423,0.429098,0.35814564,-0.26578028,0.388181,0.3395406,-0.24988849,0.367247,0.30743409,-0.24434365,0.348216,0.40585371,-0.32582904,0.440357,0.34654216,-0.30476326,0.404318,0.34095233,-0.3131264,0.408816,0.36034149,-0.3255533,0.423243
0.37404722,-0.34521147,0.497541,0.38181373,-0.30772644,0.460167,0.36813321,-0.31572905,0.485695,0.33501645,-0.27753379,0.456585,0.31625491,-0.23499858,0.432881,0.30864171,-0.21361042,0.41516,0.36997546,-0.24353923,0.420709,0.33806444,-0.22422514,0.381205,0.3196734,-0.21340421,0.361453,0.3023421,-0.21752428,0.357086,0.38602904,-0.26762562,0.423881,0.32471699,-0.25361906,0.381213,0.3125947,-0.26573795,0.390268,0.32761229,-0.27523774,0.408544,0.39642859,-0.28991286,0.429573,0.35863834,-0.26575055,0.388642,0.34003283,-0.25050866,0.3677,0.30867708,-0.24722404,0.348663,0.40827319,-0.32305662,0.441972,0.35522169,-0.30448325,0.405943,0.34679872,-0.31653485,0.41116,0.36407241,-0.32722204,0.425863
0.37391641,-0.34555755,0.497377,0.3871053,-0.31010577,0.46696,0.3664574,-0.31556523,0.484601,0.33164499,-0.28303038,0.454091,0.30907945,-0.24252703,0.430136,0.29883898,-0.22332912,0.411815,0.37348042,-0.24247928,0.430929,0.34706097,-0.22956796,0.39511,0.33253617,-0.22260975,0.377201,0.32261087,-0.23096999,0.377176,0.393614,-0.26400925,0.437427,0.3455648,-0.26450908,0.399891,0.33446079,-0.28567276,0.41443,0.34239167,-0.29697089,0.432571,0.4097354,-0.2854417,0.445284,0.36636777,-0.28416651,0.408136,0.34419163,-0.28348462,0.38913,0.3128561,-0.28274964,0.371852,0.42780137,-0.31776844,0.459187,0.38356653,-0.31190454,0.426194,0.37906995,-0.33177263,0.435077,0.38566071,-0.3463448,0.450132
0.37324407,-0.34552929,0.495523,0.38422829,-0.307505,0.464067,0.36454693,-0.31579659,0.482764,0.32543258,-0.29237637,0.452238,0.29633793,-0.25352123,0.428924,0.28308709,-0.23370343,0.41084,0.35875994,-0.23808908,0.427371,0.32842189,-0.22416046,0.390937,0.31318755,-0.2174506,0.372719,0.31019438,-0.22829787,0.372136,0.38265821,-0.25578112,0.433526,0.34070429,-0.26022032,0.395146,0.33214148,-0.28516383,0.409036,0.33854767,-0.29801803,0.427279,0.40263186,-0.27463213,0.441185,0.36195489,-0.27540368,0.403324,0.34038056,-0.27773702,0.383953,0.31048407,-0.27832128,0.366343,0.42665942,-0.30500995,0.455012,0.38388963,-0.30232942,0.421457,0.38265603,-0.32416079,0.429901,0.39336931,-0.34040587,0.444985
0.36813697,-0.34264401,0.486322,0.37287043,-0.29893551,0.453985,0.35355914,-0.32750891,0.473573,0.31782501,-0.30355963,0.443045,0.27999829,-0.26622257,0.414565,0.26461568,-0.2455574,0.394454,0.33465709,-0.23367251,0.416721,0.32743454,-0.19165223,0.379843,0.31782709,-0.18511976,0.361403,0.31473151,-0.19765936,0.36034,0.36067589,-0.24495327,0.422589,0.3307616,-0.25063416,0.385217,0.33091603,-0.28236115,0.398615,0.33379956,-0.29531501,0.416339,0.38309715,-0.25881889,0.430084,0.3550904,-0.26146254,0.392753,0.34055063,-0.26305044,0.373653,0.31821747,-0.26880616,0.35629,0.41159601,-0.28389924,0.443851,0.37897793,-0.28454706,0.410157,0.38337136,-0.30750846,0.418376,0.39499074,-0.3235731,0.433421
0.36897295,-0.35018946,0.474637,0.36545299,-0.29593927,0.44701,0.34878346,-0.33350304,0.464865,0.31526872,-0.30862277,0.438104,0.27418901,-0.2719202,0.410351,0.26092481,-0.24675095,0.392298,0.32252452,-0.23632868,0.416573,0.31365559,-0.18863068,0.383939,0.30628206,-0.18081574,0.367622,0.3087383,-0.19408626,0.370202,0.34761227,-0.24241342,0.420186,0.32800277,-0.24235259,0.386236,0.33758335,-0.27988775,0.403639,0.3429693,-0.30125962,0.421382,0.36952041,-0.25202392,0.425437,0.35287576,-0.2471064,0.392351,0.34443682,-0.24519506,0.375422,0.32932583,-0.2545566,0.360033,0.39812185,-0.27208351,0.435837,0.37515836,-0.2703575,0.406001,0.38695595,-0.29564231,0.417144,0.40003512,-0.31398296,0.431966
0.36936007,-0.35256528,0.468296,0.36181,-0.29578852,0.444274,0.34620059,-0.33253441,0.459514,0.31335219,-0.30742212,0.434308,0.27232894,-0.27181314,0.407291,0.25736064,-0.24984167,0.389161,0.32189111,-0.23789977,0.417452,0.31433343,-0.19097697,0.38783,0.30802721,-0.18425776,0.37302,0.31199576,-0.1993961,0.377622,0.34696043,-0.24322973,0.420951,0.33069722,-0.24439526,0.390216,0.34315542,-0.28359772,0.409613,0.34872948,-0.30547505,0.426818,0.36871347,-0.25205967,0.425812,0.35554024,-0.23454263,0.39517,0.34967295,-0.2261103,0.379493,0.33932369,-0.23500418,0.365241,0.39683661,-0.27085674,0.435202,0.37654196,-0.2701508,0.407711,0.39017557,-0.29622763,0.420106,0.40332514,-0.31447903,0.434587
0.37252919,-0.35501759,0.470218,0.36308432,-0.29597846,0.445382,0.34827806,-0.33490691,0.460889,0.31302924,-0.31962223,0.434916,0.266541,-0.28827338,0.406004,0.24965465,-0.27188606,0.385669,0.32097855,-0.23822687,0.417339,0.30022504,-0.19898199,0.386893,0.29067247,-0.17893297,0.37167,0.29765586,-0.18755658,0.375744,0.34647829,-0.24339025,0.421268,0.32936889,-0.24366159,0.389888,0.34193335,-0.28245914,0.408793,0.34847843,-0.30489368,0.426078,0.36878064,-0.25213995,0.42655,0.35428868,-0.23385648,0.395049,0.34757439,-0.22491971,0.378933,0.33646347,-0.23345516,0.364282,0.3978853,-0.27096704,0.436561,0.3759111,-0.26730148,0.407895,0.38976139,-0.29273782,0.419739,0.40335005,-0.31309486,0.434421
0.37250476,-0.35473615,0.469336,0.36141492,-0.29651647,0.44488,0.34719677,-0.33429059,0.459106,0.3220245,-0.32115894,0.432073,0.27862455,-0.28605516,0.403058,0.26463265,-0.26867972,0.382922,0.31771304,-0.23803795,0.415964,0.28982577,-0.19624263,0.385221,0.27960587,-0.18327263,0.36985,0.28648566,-0.19038531,0.373749,0.34426425,-0.24314409,0.421136,0.32761305,-0.24282367,0.390401,0.34137076,-0.28209228,0.409208,0.34667101,-0.30375276,0.426228,0.3685529,-0.25218419,0.427409,0.35368618,-0.23362184,0.395839,0.34525824,-0.22374415,0.379686,0.33539634,-0.23309174,0.365002,0.39895906,-0.2714381,0.438536,0.37567284,-0.26616044,0.409794,0.38945674,-0.29148688,0.421543,0.40440622,-0.31335762,0.436213
0.37517694,-0.35594279,0.471572,0.36380713,-0.29614132,0.446657,0.3497715,-0.3360401,0.461759,0.30659388,-0.31407095,0.435182,0.28066087,-0.30397459,0.406297,0.26789978,-0.29179327,0.385472,0.3186702,-0.23863315,0.417957,0.29111982,-0.19677907,0.387214,0.28027943,-0.18342154,0.371842,0.28625804,-0.19012574,0.375721,0.34485453,-0.24312857,0.422466,0.32461095,-0.24058083,0.391151,0.33964152,-0.28008305,0.40989,0.34750881,-0.30395358,0.427099,0.36800913,-0.25134712,0.428232,0.35105896,-0.23095919,0.396301,0.34332189,-0.22143342,0.379965,0.33010473,-0.2297075,0.365113,0.39829137,-0.26870462,0.438828,0.37387332,-0.26407987,0.409945,0.38867671,-0.29032598,0.421661,0.40355912,-0.30984836,0.436369
0.40401645,-0.30644353,0.451958,0.35927407,-0.27369554,0.441909,0.38070059,-0.31205108,0.450524,0.3432114,-0.31883009,0.437049,0.3124543,-0.32150497,0.420527,0.28494143,-0.31311531,0.408936,0.3036457,-0.26018428,0.433487,0.29135242,-0.26779176,0.416521,0.30386352,-0.27415188,0.408038,0.32354289,-0.28106561,0.419014,0.31733651,-0.24299036,0.432151,0.30593871,-0.25297717,0.414484,0.3470967,-0.28538892,0.438855,0.36748175,-0.29378435,0.45419,0.33242175,-0.23110825,0.431881,0.31132653,-0.23065176,0.41557,0.316705,-0.2452934,0.407224,0.33982734,-0.26463099,0.419349,0.35743166,-0.22144016,0.433086,0.33641545,-0.2364279,0.417195,0.35252476,-0.26239113,0.433024,0.36718381,-0.27049454,0.444755
0.39662003,-0.32909352,0.473123,0.35446992,-0.28597688,0.452296,0.36264628,-0.33272808,0.466794,0.34253396,-0.32567458,0.445107,0.31381228,-0.32146288,0.421026,0.2943457,-0.31126527,0.404891,0.29371393,-0.25593668,0.430648,0.2844468,-0.26188189,0.404658,0.31480012,-0.28029128,0.421445,0.32952949,-0.28383173,0.438704,0.31577626,-0.2439618,0.432075,0.29702839,-0.24737594,0.403568,0.33027096,-0.28306624,0.424608,0.35359703,-0.29920206,0.441524,0.33501003,-0.23917888,0.434967,0.28666313,-0.20798278,0.407683,0.26847153,-0.20074573,0.393725,0.27514063,-0.21382526,0.400735,0.36650194,-0.23853677,0.441545,0.34786732,-0.23586765,0.4165,0.35717742,-0.26154037,0.429904,0.36676553,-0.27235926,0.443917
0.39802695,-0.33044908,0.474072,0.35556135,-0.28714823,0.452889,0.36589376,-0.3319544,0.467817,0.34547031,-0.32705116,0.446184,0.32167975,-0.32214866,0.421165,0.29944737,-0.31259538,0.406051,0.29461281,-0.25707101,0.431098,0.2865842,-0.26461921,0.404685,0.31546973,-0.28119804,0.421355,0.32855208,-0.28329088,0.43651,0.31587054,-0.24501469,0.432322,0.29787295,-0.25033745,0.403516,0.33204775,-0.2846854,0.424419,0.35505962,-0.30028636,0.4414,0.3357346,-0.24009675,0.435077,0.28722534,-0.20889034,0.407505,0.26946212,-0.2021876,0.393399,0.27699641,-0.21597257,0.400242,0.36716786,-0.23937977,0.441547,0.34787959,-0.23861096,0.416312,0.35710444,-0.26431781,0.429624,0.3670248,-0.27833322,0.443667
0.39759452,-0.33121808,0.473217,0.35526339,-0.28705561,0.452168,0.36534626,-0.33027698,0.465656,0.34555941,-0.32647373,0.442348,0.32099427,-0.32130159,0.417264,0.30246038,-0.31056361,0.399626,0.29338246,-0.2551823,0.428834,0.28297018,-0.26116965,0.40202,0.3072321,-0.28158236,0.418585,0.33106078,-0.30072257,0.433645,0.31553578,-0.24461138,0.431732,0.29844296,-0.25010964,0.402817,0.33213612,-0.28469936,0.423608,0.35597199,-0.30300315,0.440594,0.33677656,-0.24027868,0.435853,0.28790863,-0.20979668,0.407714,0.27000251,-0.20307599,0.393318,0.2777883,-0.21678197,0.399919,0.36964931,-0.24072209,0.443917,0.34797535,-0.24239946,0.41824,0.35809064,-0.26637543,0.431452,0.36900166,-0.28098055,0.445613
0.40686913,-0.34156238,0.481797,0.36263653,-0.30000087,0.448864,0.37866814,-0.33993998,0.474951,0.35461191,-0.33784671,0.452038,0.33535371,-0.33277644,0.429639,0.32505928,-0.31810934,0.411612,0.29203686,-0.2657955,0.418584,0.24929873,-0.2113512,0.381992,0.25179993,-0.22763118,0.392854,0.25346943,-0.24378299,0.402728,0.31028301,-0.2561361,0.416888,0.2852648,-0.26613841,0.378344,0.29810027,-0.29885879,0.392031,0.32386422,-0.33030509,0.410269,0.33005178,-0.25194311,0.418209,0.30345805,-0.26484994,0.382652,0.29132986,-0.27259728,0.36446,0.29353483,-0.29220087,0.364445,0.36234326,-0.25417366,0.424766,0.32504009,-0.26639387,0.392794,0.30811312,-0.2713444,0.378104,0.30300336,-0.28489523,0.377285
0.40184998,-0.34678918,0.46548,0.36550241,-0.30386781,0.451904,0.37656425,-0.34450666,0.463027,0.35745862,-0.3422358,0.447562,0.33143532,-0.32648266,0.420247,0.33160899,-0.31122296,0.39941,0.31482018,-0.27661928,0.439883,0.2782475,-0.25094773,0.420739,0.26277378,-0.2405904,0.412106,0.25149628,-0.24256738,0.404258,0.33376827,-0.26558351,0.438723,0.28923528,-0.23277072,0.417563,0.27409745,-0.23295831,0.40522,0.28948547,-0.25487519,0.414858,0.35265853,-0.25978831,0.438888,0.30425218,-0.2295312,0.419271,0.30274319,-0.23730941,0.409234,0.31650574,-0.25696356,0.419925,0.38109483,-0.25922721,0.441142,0.35542441,-0.27302733,0.42244,0.34404521,-0.28174188,0.413847,0.34978085,-0.3031081,0.421241
0.41034383,-0.34901653,0.469427,0.37021576,-0.30453957,0.450009,0.38712314,-0.34793849,0.464876,0.36608966,-0.33691266,0.445731,0.33016017,-0.32274085,0.417256,0.32773494,-0.30564393,0.397176,0.3133116,-0.27489547,0.43151,0.27016899,-0.25012963,0.406897,0.2500748,-0.24137128,0.394591,0.23495995,-0.23862958,0.383403,0.32918964,-0.26176464,0.431155,0.27840602,-0.2315474,0.40426,0.2608945,-0.23095059,0.388571,0.27589004,-0.24644844,0.395701,0.34800982,-0.2557128,0.432463,0.29434192,-0.22522869,0.407255,0.29092988,-0.23075431,0.394358,0.30276284,-0.24817137,0.402327,0.37762325,-0.25491883,0.436956,0.34898485,-0.26649521,0.413562,0.33651457,-0.27381753,0.402813,0.34164859,-0.29312848,0.408103
0.41776224,-0.31113417,0.459779,0.36356171,-0.28061678,0.437796,0.392008,-0.31669054,0.454554,0.35995983,-0.3243272,0.434211,0.33580513,-0.31599353,0.406434,0.32956067,-0.29434713,0.386221,0.29807535,-0.27124418,0.416764,0.24782345,-0.24776466,0.390804,0.23023859,-0.24394723,0.377824,0.21608902,-0.24208015,0.366024,0.30876337,-0.25430104,0.416452,0.29396852,-0.2564006,0.387161,0.33597259,-0.27722757,0.40773,0.35199037,-0.28104597,0.424782,0.32035799,-0.23939427,0.418008,0.30356599,-0.24176222,0.390562,0.31338985,-0.23932382,0.37652,0.33051111,-0.24183028,0.383198,0.3448869,-0.22711426,0.423182,0.32844311,-0.23767241,0.397912,0.33311242,-0.23972415,0.386301,0.34325648,-0.23862332,0.390597
0.4165546,-0.30873079,0.456629,0.36133885,-0.27915284,0.435928,0.3904724,-0.31436323,0.450399,0.36590584,-0.31770243,0.428858,0.34170788,-0.3090652,0.399918,0.33658376,-0.28827089,0.379954,0.29586592,-0.26943047,0.414487,0.24681713,-0.24695584,0.388485,0.23022073,-0.24348109,0.375483,0.22372952,-0.24551518,0.363664,0.3075784,-0.25312624,0.415829,0.29404943,-0.25561193,0.387453,0.33545406,-0.27635122,0.40855,0.35217241,-0.28095057,0.425437,0.32039933,-0.23930814,0.418641,0.30420176,-0.24127907,0.391506,0.31411186,-0.239072,0.377623,0.33147642,-0.24207804,0.384712,0.34600818,-0.22770351,0.425106,0.32648904,-0.23439558,0.40018,0.33329965,-0.23955306,0.388727,0.34428297,-0.23961199,0.393362
0.41947612,-0.31064722,0.458747,0.36239076,-0.28090329,0.437215,0.39289767,-0.31624525,0.451769,0.37434761,-0.31820699,0.42915,0.34332385,-0.310424,0.400212,0.33686539,-0.29059187,0.379883,0.29579835,-0.27034205,0.414291,0.25046963,-0.26108002,0.387597,0.23569625,-0.2598263,0.374251,0.22542577,-0.26002657,0.362118,0.30701823,-0.25329718,0.416309,0.29349047,-0.25609494,0.387062,0.33395382,-0.27637001,0.407757,0.35160848,-0.28134811,0.424832,0.32122223,-0.24096923,0.419746,0.3039552,-0.24209505,0.391584,0.31352579,-0.23944942,0.377176,0.3304084,-0.2420311,0.383719,0.34751516,-0.2297712,0.427076,0.32846923,-0.23750028,0.401326,0.33312635,-0.24033103,0.389496,0.34399748,-0.24049678,0.393721
0.42282171,-0.31025275,0.458505,0.36279093,-0.28181277,0.437509,0.39695166,-0.31730895,0.451312,0.37420253,-0.31646066,0.428482,0.34776848,-0.30477417,0.399234,0.33814789,-0.28507657,0.378985,0.29682116,-0.27485204,0.414668,0.25196014,-0.26734318,0.388149,0.23741243,-0.26631545,0.374889,0.22664691,-0.26352303,0.362835,0.30744572,-0.25773921,0.417122,0.28738535,-0.25953902,0.388312,0.33225991,-0.27951276,0.409185,0.34949773,-0.28597341,0.426159,0.3211468,-0.24517483,0.420873,0.30434513,-0.24487149,0.392976,0.31451444,-0.24093851,0.378703,0.33164274,-0.24339392,0.385428,0.3476167,-0.23224116,0.428493,0.33050197,-0.24094958,0.402991,0.33557179,-0.24295716,0.391274,0.34579404,-0.24188367,0.395647
0.42372072,-0.31086272,0.458976,0.36333797,-0.28284189,0.437816,0.3977216,-0.31793656,0.451454,0.37463145,-0.31653017,0.428182,0.34851443,-0.30563941,0.398821,0.33942795,-0.28476552,0.378608,0.29770962,-0.2779981,0.414458,0.25224575,-0.26826397,0.387602,0.23776513,-0.26720733,0.374174,0.22784911,-0.26734673,0.361967,0.30778825,-0.26079741,0.417271,0.28820594,-0.26076502,0.388263,0.3318769,-0.28045428,0.40902,0.34972444,-0.28625918,0.426029,0.32151893,-0.24665842,0.421332,0.3043037,-0.24698717,0.393134,0.31465244,-0.24241645,0.378708,0.33164483,-0.2438649,0.385272,0.34730641,-0.23479959,0.429342,0.33247015,-0.24366407,0.40361,0.33765693,-0.24464357,0.391787,0.34647687,-0.24264837,0.396043
0.42637487,-0.31268179,0.461551,0.36452214,-0.28433432,0.439104,0.39954688,-0.31935455,0.452962,0.375216,-0.31654051,0.42818,0.34926829,-0.30558955,0.39873,0.34208802,-0.28319448,0.378474,0.29719785,-0.27849964,0.413562,0.25568247,-0.27221098,0.385159,0.2438119,-0.27104489,0.370958,0.2364428,-0.27074866,0.358047,0.30772556,-0.26179257,0.41731,0.28757678,-0.26059788,0.387002,0.3302789,-0.27986361,0.407034,0.3509419,-0.28502881,0.424286,0.32149763,-0.2493901,0.422245,0.30038145,-0.24731219,0.39254,0.31138947,-0.24197037,0.377342,0.32918122,-0.2429208,0.383017,0.34758504,-0.23747898,0.431485,0.33310927,-0.24479445,0.404549,0.33796639,-0.24517989,0.392173,0.34628147,-0.2427289,0.395761
0.42542736,-0.3120862,0.460593,0.36402046,-0.28459936,0.438755,0.39901272,-0.31912036,0.452198,0.37475377,-0.31603653,0.427736,0.34853012,-0.30465471,0.398174,0.34126644,-0.28202255,0.378013,0.29705903,-0.2793958,0.413859,0.25403329,-0.27114431,0.385968,0.24100785,-0.2697563,0.372023,0.23237948,-0.2693579,0.359345,0.30734151,-0.26250769,0.417553,0.28764113,-0.26114544,0.387812,0.32971724,-0.28129412,0.408128,0.35135381,-0.28519475,0.425263,0.32086009,-0.24992158,0.422394,0.29687443,-0.247709,0.393233,0.30764942,-0.24322996,0.378313,0.32953258,-0.243919,0.384319,0.34654194,-0.2377164,0.43143,0.33269455,-0.2450675,0.404945,0.33692402,-0.24436697,0.392776,0.34666596,-0.24328735,0.396618
0.42538698,-0.31213101,0.4606,0.36398361,-0.2850626,0.438902,0.3990089,-0.31926176,0.452075,0.37447112,-0.31572212,0.427469,0.34806874,-0.30407803,0.397819,0.34069966,-0.28125912,0.377654,0.29690315,-0.27986508,0.413936,0.2540921,-0.27146917,0.386043,0.24113721,-0.26996868,0.372096,0.23250785,-0.269439,0.359417,0.30721236,-0.26302273,0.417836,0.2876081,-0.26140935,0.388202,0.32973704,-0.28146199,0.408538,0.35137782,-0.28575806,0.42564,0.32074533,-0.2504481,0.422835,0.29671118,-0.24774888,0.393706,0.30754727,-0.24327145,0.378804,0.32939193,-0.2443717,0.384828,0.34643078,-0.23821055,0.432036,0.33273308,-0.24548129,0.405592,0.33730187,-0.24485586,0.393442,0.34699021,-0.24373154,0.397302
0.42661467,-0.3119938,0.461827,0.36491698,-0.28573789,0.440196,0.39978832,-0.31894457,0.45247,0.37885867,-0.30955781,0.426848,0.35302036,-0.29863027,0.396849,0.34059062,-0.27897782,0.376816,0.29729008,-0.28126818,0.414234,0.25414597,-0.27129444,0.385817,0.2408681,-0.26937048,0.371608,0.2288809,-0.26675664,0.358691,0.30762537,-0.26482735,0.419195,0.28878956,-0.26225484,0.38952,0.33244419,-0.28020358,0.409629,0.35225123,-0.28617185,0.426675,0.32040675,-0.25269218,0.425062,0.30497773,-0.24809086,0.395553,0.31558887,-0.24163846,0.380456,0.33048306,-0.24465906,0.386215,0.34056386,-0.2383745,0.435279,0.33168871,-0.24524865,0.408588,0.33747268,-0.24481602,0.396325,0.34822303,-0.24414457,0.400003
0.426443,-0.31118487,0.461798,0.36493039,-0.2858599,0.440583,0.39962724,-0.31822812,0.452128,0.37755391,-0.30880544,0.426185,0.3518112,-0.2974628,0.39599,0.34085337,-0.27692578,0.376015,0.29730017,-0.28175034,0.414503,0.25427281,-0.27149541,0.38614,0.24095431,-0.26940123,0.371959,0.22889736,-0.26680796,0.359067,0.30707733,-0.26586744,0.419985,0.29149547,-0.26215,0.390651,0.33456676,-0.28049427,0.410789,0.35665262,-0.28693445,0.427721,0.31939596,-0.25332088,0.426246,0.30396129,-0.24893196,0.396886,0.31629562,-0.24214414,0.381865,0.33150422,-0.24506205,0.387675,0.3408334,-0.23921339,0.436865,0.33093667,-0.24425686,0.410337,0.33623508,-0.24282616,0.398148,0.34809575,-0.24425897,0.401876
0.42623494,-0.31034359,0.461705,0.36464679,-0.28615354,0.440687,0.39979786,-0.31782659,0.451968,0.37712753,-0.3085614,0.425973,0.35142043,-0.29708422,0.395717,0.34094976,-0.2760981,0.375756,0.29727723,-0.28206597,0.414653,0.25436293,-0.27163846,0.38637,0.24102831,-0.26943707,0.372229,0.22893272,-0.26687214,0.359373,0.30687954,-0.26612799,0.42028,0.29149149,-0.26288752,0.391117,0.33495636,-0.28103392,0.411295,0.35906601,-0.28853164,0.428177,0.31908377,-0.25352017,0.426644,0.30381147,-0.24954624,0.397397,0.31612853,-0.24208631,0.382433,0.33154536,-0.24502645,0.388296,0.3408927,-0.23947236,0.437356,0.33085659,-0.24467722,0.410932,0.33654295,-0.24311126,0.398791,0.34815345,-0.24412397,0.402564
0.42709237,-0.31008362,0.462269,0.36623545,-0.28753208,0.442449,0.4006412,-0.31770212,0.452112,0.37653658,-0.30763696,0.425801,0.3483587,-0.28900454,0.395216,0.34027062,-0.27051733,0.37539,0.2990614,-0.28332568,0.416679,0.25637519,-0.27278126,0.388891,0.24310747,-0.26909192,0.374997,0.22914669,-0.26595273,0.362366,0.30892746,-0.2677978,0.423205,0.30218632,-0.26264391,0.395096,0.34232069,-0.28242977,0.415463,0.3679846,-0.2903413,0.432024,0.32219839,-0.25534906,0.43021,0.30528858,-0.25122527,0.401652,0.31825383,-0.2431462,0.387042,0.33471374,-0.24670514,0.393198,0.3474058,-0.24135583,0.441497,0.33440888,-0.24816281,0.415721,0.33993083,-0.24963786,0.403877,0.35356881,-0.2521226,0.407897
0.42748029,-0.30928169,0.462393,0.36671823,-0.28778827,0.442951,0.40134021,-0.31727567,0.452187,0.3763457,-0.30721778,0.425881,0.34837545,-0.28901844,0.395235,0.33924309,-0.26943119,0.375352,0.29981551,-0.28370428,0.417371,0.25724626,-0.27292791,0.389797,0.24409205,-0.26891589,0.376011,0.23074252,-0.26691332,0.363477,0.30990532,-0.26814481,0.424075,0.30311408,-0.26345026,0.396309,0.34428083,-0.2828984,0.416761,0.3698973,-0.29081353,0.433224,0.32325488,-0.25572711,0.431195,0.30627578,-0.25157268,0.4029,0.31912714,-0.24367711,0.388423,0.33536306,-0.24677238,0.394702,0.3488964,-0.24179813,0.442562,0.33599784,-0.24906788,0.417019,0.34111505,-0.25050753,0.405284,0.35451408,-0.25390063,0.409403
0.42790882,-0.30885389,0.462778,0.36713687,-0.28794276,0.443455,0.40197927,-0.31709687,0.452537,0.37646343,-0.30713884,0.426211,0.34865046,-0.28924659,0.395547,0.33889843,-0.26899589,0.375628,0.30040757,-0.28399653,0.417909,0.25785624,-0.27295268,0.39039,0.24471221,-0.26875808,0.376631,0.23182412,-0.26668395,0.364122,0.31061354,-0.26838327,0.424693,0.30366859,-0.26393221,0.397034,0.34542647,-0.28315355,0.417502,0.37103531,-0.29108859,0.433932,0.32399945,-0.25597283,0.43187,0.30687331,-0.25171547,0.403648,0.31959713,-0.243945,0.389208,0.33549033,-0.24640914,0.395515,0.3497917,-0.24212338,0.443285,0.336998,-0.24962745,0.417811,0.34180691,-0.25101561,0.406106,0.35503199,-0.25493016,0.410249
0.42834166,-0.30832399,0.46327,0.36745885,-0.28789969,0.443962,0.40265433,-0.3168431,0.453035,0.37678813,-0.30727883,0.426719,0.3491044,-0.28962319,0.396062,0.338934,-0.26891636,0.376106,0.30094887,-0.28454227,0.418435,0.25872287,-0.27312394,0.390931,0.24522294,-0.26871943,0.377178,0.23256672,-0.26596441,0.364676,0.31119531,-0.2685955,0.425216,0.30408008,-0.26428985,0.397572,0.34623277,-0.28335806,0.418047,0.37185413,-0.29131879,0.434474,0.32457328,-0.25615981,0.432388,0.30730095,-0.25179604,0.404181,0.31991636,-0.24412362,0.389749,0.33590807,-0.24644357,0.396065,0.35038988,-0.24236069,0.443796,0.33767785,-0.25000159,0.418334,0.34225299,-0.25134321,0.406636,0.35535336,-0.25559842,0.410785
0.43213333,-0.30994499,0.467643,0.37014553,-0.28818666,0.447379,0.40512931,-0.31773848,0.455866,0.3768326,-0.30540875,0.427629,0.35124707,-0.28356796,0.396775,0.33742898,-0.26574932,0.37632,0.30209802,-0.28385844,0.419294,0.26559713,-0.26732158,0.390225,0.24966908,-0.26207628,0.37569,0.23857976,-0.25832523,0.362477,0.31442619,-0.26819898,0.427704,0.30019051,-0.25789505,0.399104,0.34289416,-0.2752798,0.41848,0.36234278,-0.28645209,0.434907,0.3288778,-0.25643986,0.436296,0.31810054,-0.24487194,0.406681,0.32833917,-0.23810984,0.391528,0.34226987,-0.23922509,0.396719,0.35565001,-0.2442168,0.449528,0.34384241,-0.24562699,0.423019,0.34589935,-0.24768013,0.410839,0.35790181,-0.25609649,0.414164
0.432778,-0.30917148,0.468415,0.37054526,-0.28800164,0.447878,0.40587048,-0.31711745,0.456578,0.37734769,-0.30505222,0.428228,0.35178973,-0.28400606,0.397388,0.33815925,-0.26536768,0.376933,0.30255387,-0.28322397,0.419539,0.26561891,-0.2673435,0.390257,0.2496199,-0.26202466,0.375616,0.23846721,-0.25820337,0.362306,0.31448088,-0.26766134,0.427939,0.30017773,-0.25788407,0.399087,0.34278928,-0.2751956,0.418352,0.36332985,-0.28541838,0.434836,0.32899562,-0.25586882,0.436547,0.3181154,-0.24488338,0.4067,0.32825614,-0.23804963,0.391429,0.34206885,-0.23908459,0.396486,0.35585995,-0.24364815,0.449837,0.34393508,-0.24569318,0.423133,0.34591955,-0.2476946,0.410863,0.35749206,-0.25603514,0.414085
0.43108198,-0.30685777,0.466702,0.36982246,-0.28716533,0.447016,0.40530293,-0.31559119,0.45585,0.37836997,-0.30673531,0.428756,0.35158902,-0.28855529,0.397996,0.34028759,-0.2676256,0.377703,0.30340203,-0.28371934,0.420468,0.26290048,-0.26989274,0.392333,0.24351047,-0.26254913,0.378265,0.23300914,-0.26251492,0.365477,0.31412951,-0.26782778,0.427903,0.30107657,-0.25893445,0.399873,0.34438879,-0.27676661,0.419935,0.36680643,-0.28882224,0.436372,0.32829617,-0.25503746,0.435645,0.31710932,-0.24540467,0.40687,0.32789364,-0.23902866,0.392147,0.33941043,-0.24437519,0.39803,0.35423441,-0.24222223,0.447783,0.34329059,-0.24551077,0.421897,0.34532299,-0.251109,0.410003,0.35737779,-0.25760447,0.413835
0.43247264,-0.30802447,0.468326,0.37089553,-0.28751783,0.448071,0.40611517,-0.31634608,0.457007,0.37858375,-0.30651998,0.429284,0.35222127,-0.28883665,0.398505,0.34081734,-0.26774463,0.378174,0.30310181,-0.28062491,0.420564,0.26197795,-0.26603342,0.391774,0.24407376,-0.25987249,0.377379,0.23563342,-0.25760141,0.364292,0.31490199,-0.26482544,0.428406,0.30160902,-0.25865963,0.39983,0.34450114,-0.27662967,0.41948,0.37069328,-0.28941425,0.435985,0.32958623,-0.25269954,0.43653,0.31977084,-0.24525192,0.407118,0.32994471,-0.23898612,0.39207,0.34337446,-0.24079415,0.397506,0.35646649,-0.2403361,0.449207,0.34507535,-0.24623238,0.42282,0.34637773,-0.25142902,0.410696,0.35816666,-0.25811338,0.414194
0.43365936,-0.30890319,0.469492,0.37189249,-0.28766292,0.448783,0.40711187,-0.31708711,0.458139,0.37943165,-0.30673251,0.430304,0.35342801,-0.28958672,0.399579,0.34157335,-0.26763795,0.379204,0.30353327,-0.28078504,0.420933,0.26405816,-0.26672767,0.391829,0.24452887,-0.25929062,0.377277,0.23516205,-0.25672994,0.364047,0.31548513,-0.2649397,0.428676,0.31027722,-0.25941282,0.399681,0.35217126,-0.27735762,0.419184,0.37076056,-0.2884865,0.435794,0.33032035,-0.25284014,0.436755,0.32052882,-0.24532718,0.406987,0.3304364,-0.23914244,0.391756,0.34355676,-0.24079882,0.397002,0.35742617,-0.2406189,0.449449,0.34529504,-0.24566335,0.422754,0.34697086,-0.24898859,0.410489,0.3581545,-0.2580068,0.413838
0.43246852,-0.30788214,0.467933,0.37214181,-0.28703161,0.448479,0.40641117,-0.31629047,0.457232,0.37945257,-0.30612777,0.430351,0.35368145,-0.28943363,0.399608,0.34118893,-0.26690783,0.379276,0.30474574,-0.28134777,0.422273,0.26080812,-0.25833896,0.394382,0.24472348,-0.25185762,0.380437,0.23132918,-0.24677959,0.367759,0.31654679,-0.26523942,0.429591,0.31157689,-0.26047572,0.401783,0.35444578,-0.27874521,0.421988,0.37322227,-0.28923783,0.438388,0.33117925,-0.25291308,0.437218,0.32512054,-0.24668274,0.408686,0.335264,-0.2412125,0.394089,0.34689232,-0.24256776,0.400131,0.35922356,-0.24078676,0.449185,0.34595749,-0.24564394,0.423494,0.34831897,-0.24928962,0.41169,0.35998089,-0.25908921,0.415642
0.4328301,-0.30768864,0.468253,0.37274012,-0.28652526,0.448921,0.40714072,-0.31636419,0.458145,0.38067624,-0.30689473,0.431973,0.35450461,-0.29171827,0.401324,0.339436,-0.27072701,0.380646,0.30719978,-0.27795878,0.423535,0.26192689,-0.25671145,0.396095,0.24628014,-0.25074754,0.382374,0.23369061,-0.24637526,0.369901,0.31944518,-0.26182165,0.430151,0.30855281,-0.25876545,0.402493,0.35289468,-0.27843838,0.423021,0.37194156,-0.2866968,0.439469,0.33444271,-0.24962579,0.437189,0.32586912,-0.24595678,0.409022,0.33627207,-0.24079203,0.394611,0.35100173,-0.24306596,0.400975,0.36157274,-0.23754701,0.448443,0.34620507,-0.24205242,0.423001,0.34778502,-0.2474755,0.411312,0.360219,-0.25853399,0.415495
0.43378417,-0.30769941,0.4693,0.37401367,-0.28342325,0.449756,0.4084587,-0.31665334,0.459876,0.38212613,-0.30623259,0.434481,0.35159969,-0.29173261,0.404112,0.33400814,-0.27357777,0.383332,0.30816717,-0.27084279,0.425085,0.26074827,-0.24900358,0.397949,0.24690296,-0.24698495,0.384381,0.23492874,-0.24565721,0.372046,0.32062158,-0.25717871,0.43078,0.30762158,-0.25412322,0.402986,0.35123492,-0.27452961,0.423744,0.37302102,-0.28665543,0.440314,0.33559713,-0.2448682,0.437078,0.32629991,-0.24127438,0.40908,0.33711983,-0.23718033,0.394755,0.35189492,-0.2423639,0.40133,0.36269483,-0.23287924,0.447488,0.34537721,-0.2364528,0.422118,0.3475427,-0.24200633,0.410462,0.35906886,-0.25361365,0.414785
0.43382764,-0.30815355,0.469973,0.37428842,-0.28482992,0.450644,0.40871985,-0.31712333,0.461207,0.37385262,-0.30737951,0.436643,0.34473692,-0.29285619,0.406919,0.33017728,-0.27443818,0.386084,0.30781397,-0.27015599,0.426939,0.26092425,-0.2434448,0.401052,0.24638506,-0.23807245,0.388109,0.23521509,-0.23479551,0.376343,0.32111482,-0.25389333,0.431877,0.30627723,-0.25112614,0.404348,0.34895483,-0.27691893,0.425408,0.37426386,-0.2874394,0.441976,0.33689107,-0.24203635,0.437535,0.32657597,-0.24069066,0.410026,0.33585094,-0.24024773,0.395952,0.35192516,-0.24311769,0.402867,0.36366822,-0.23235204,0.447156,0.34571417,-0.23563063,0.422143,0.34727044,-0.24181298,0.41065,0.35981135,-0.25622103,0.415219
0.43622255,-0.30986244,0.472915,0.37762081,-0.28157812,0.453186,0.41126924,-0.31886054,0.46488,0.38041207,-0.30872639,0.441156,0.34603689,-0.29640003,0.412407,0.31808162,-0.2834691,0.395111,0.31009976,-0.26801937,0.430129,0.2647364,-0.2432415,0.404035,0.24904392,-0.23762372,0.390989,0.23569073,-0.23334255,0.379128,0.32408205,-0.25198199,0.43403,0.30858742,-0.25169445,0.406228,0.35180486,-0.27843923,0.427377,0.37613617,-0.28849102,0.444072,0.34036995,-0.2406086,0.438868,0.32673924,-0.23943353,0.411439,0.33696441,-0.24093752,0.397406,0.35513894,-0.24439095,0.404416,0.36871201,-0.23080953,0.44758,0.34694457,-0.23375158,0.422563,0.34751897,-0.24184579,0.411068,0.36013499,-0.25566896,0.415689
0.43667229,-0.3102278,0.473248,0.37952962,-0.28170099,0.454666,0.4122918,-0.31939329,0.466331,0.38112709,-0.30986816,0.444187,0.34644996,-0.29661703,0.415852,0.31994092,-0.28365494,0.397986,0.31579949,-0.26695528,0.433764,0.27117127,-0.2424627,0.408979,0.25365043,-0.23252317,0.396586,0.23628126,-0.22503771,0.38532,0.32941246,-0.25069616,0.436625,0.31212043,-0.25176957,0.410026,0.35604918,-0.27827358,0.431791,0.38014039,-0.29056096,0.448244,0.3452955,-0.23916819,0.440511,0.32702227,-0.2379058,0.414535,0.33457777,-0.23781616,0.401245,0.35775502,-0.24717268,0.40906,0.3729549,-0.2292341,0.447924,0.35164616,-0.2333913,0.424064,0.34970407,-0.24275555,0.413101,0.36168664,-0.2542331,0.418323
0.44002781,-0.31365338,0.477644,0.38266447,-0.28340612,0.45858,0.41568799,-0.32253935,0.47156,0.37840086,-0.31180172,0.450423,0.34280324,-0.3006414,0.424107,0.31591521,-0.28799177,0.408091,0.31827763,-0.26061251,0.438402,0.27615464,-0.23318331,0.413419,0.25795622,-0.22449818,0.400928,0.24116925,-0.21656195,0.389572,0.33415172,-0.24595326,0.440071,0.31562243,-0.24966304,0.41318,0.35727607,-0.27845231,0.434899,0.38287847,-0.29208674,0.451444,0.35029091,-0.23798096,0.443017,0.32824858,-0.23632584,0.417155,0.33837303,-0.24120975,0.403923,0.3605446,-0.24908563,0.411754,0.37833511,-0.22945086,0.449391,0.35617245,-0.23466922,0.425555,0.35136157,-0.24340651,0.414603,0.36170768,-0.25365655,0.419816
0.44026197,-0.31473512,0.47858,0.38306576,-0.28326438,0.459151,0.41544001,-0.32275174,0.47261,0.37943726,-0.31270385,0.451572,0.34349999,-0.30132434,0.424905,0.31644978,-0.28856627,0.408742,0.31862128,-0.26093601,0.438874,0.275808,-0.23239434,0.413598,0.2571638,-0.22310001,0.400961,0.23998235,-0.21460039,0.389472,0.33433585,-0.24609721,0.440287,0.31543359,-0.24907286,0.41309,0.3562616,-0.27842598,0.434689,0.38273969,-0.2913163,0.451307,0.35080585,-0.23744455,0.443053,0.32845875,-0.2359765,0.41699,0.33778591,-0.24099435,0.403655,0.36078341,-0.2489402,0.411357,0.37909026,-0.22943857,0.44927,0.35641146,-0.23474284,0.425249,0.35131881,-0.24337326,0.414213,0.36113591,-0.25320896,0.419322
0.44656134,-0.32070899,0.486572,0.39037524,-0.28651675,0.466867,0.41846912,-0.32645073,0.4806,0.38800219,-0.32324922,0.459522,0.35435925,-0.31118384,0.431529,0.32921906,-0.29785948,0.414677,0.32543131,-0.26604426,0.446405,0.28710234,-0.23245917,0.420916,0.26881592,-0.2199027,0.408172,0.2520112,-0.20838369,0.396586,0.3457932,-0.25369641,0.447736,0.33002208,-0.25732157,0.420292,0.36856421,-0.2882619,0.44179,0.39020069,-0.29746352,0.458464,0.36457965,-0.24523634,0.450456,0.34574357,-0.24587423,0.424191,0.35186437,-0.25164959,0.410753,0.37265332,-0.26302485,0.418336,0.39463399,-0.24052303,0.456661,0.37349476,-0.24702655,0.432466,0.37103777,-0.25758746,0.427205,0.37766838,-0.26402041,0.43731
0.43795834,-0.32795519,0.485625,0.39019225,-0.29103934,0.467613,0.40794244,-0.3343775,0.480432,0.36356117,-0.323016,0.460611,0.32301035,-0.30543597,0.438773,0.29500086,-0.28898362,0.426339,0.32852123,-0.26687971,0.449241,0.29382969,-0.22585984,0.425276,0.27614739,-0.20649273,0.413294,0.26401573,-0.19790417,0.402401,0.34803965,-0.25369223,0.450125,0.33127213,-0.24862007,0.424347,0.3642677,-0.28479582,0.446496,0.38463442,-0.30308998,0.462773,0.36697005,-0.24591625,0.452337,0.35133315,-0.24122936,0.427765,0.35383933,-0.25326934,0.415192,0.36827716,-0.27033133,0.423656,0.39659172,-0.24241286,0.457686,0.37525734,-0.2458311,0.434892,0.39763113,-0.26507455,0.449084,0.4144655,-0.27343593,0.462608
0.4294716,-0.34545609,0.487108,0.39929622,-0.30125639,0.479499,0.39978727,-0.34031927,0.479943,0.35391798,-0.32058667,0.459645,0.31388461,-0.30064626,0.439323,0.28810496,-0.28429241,0.429832,0.34579285,-0.26799684,0.465526,0.34447356,-0.26023592,0.450553,0.34435879,-0.25646012,0.443178,0.35428403,-0.26518485,0.436472,0.37245077,-0.26289759,0.472112,0.36788659,-0.25675196,0.455851,0.39893227,-0.2951662,0.479632,0.4163579,-0.31812327,0.492979,0.39685333,-0.26198188,0.478159,0.38931272,-0.25115655,0.460599,0.38769222,-0.25852339,0.451615,0.40487722,-0.28335949,0.462907,0.43037268,-0.26713226,0.486463,0.41581923,-0.24776895,0.470042,0.4319232,-0.27261844,0.485395,0.4446204,-0.29352702,0.497127
0.42673424,-0.34694582,0.486607,0.39697586,-0.30357351,0.478952,0.39666043,-0.34050981,0.478879,0.35212428,-0.3185285,0.457908,0.31331229,-0.29747112,0.438117,0.28928992,-0.2803076,0.428925,0.34429359,-0.26778432,0.464244,0.34114502,-0.26012723,0.448108,0.33996587,-0.25637263,0.44004,0.36352368,-0.27583584,0.450677,0.3715336,-0.26322265,0.471519,0.36587123,-0.25786366,0.455169,0.39613047,-0.29646016,0.478692,0.41187062,-0.31850059,0.491989,0.39647429,-0.26274293,0.478138,0.387457,-0.25114771,0.460274,0.38508178,-0.25816407,0.451135,0.40113631,-0.28421661,0.462165,0.43068852,-0.26845097,0.487123,0.4139865,-0.253441,0.470501,0.42917575,-0.27928804,0.485671,0.441097,-0.297018,0.497403
0.41168721,-0.34417139,0.477415,0.39462487,-0.3027189,0.476807,0.38868808,-0.33997367,0.477159,0.34978969,-0.31942598,0.46726,0.31845598,-0.29946917,0.455342,0.2990195,-0.28040009,0.44855,0.35979625,-0.26973253,0.476085,0.33684727,-0.2420069,0.46828,0.32477125,-0.22732212,0.464377,0.3358949,-0.23881283,0.478589,0.38264808,-0.26507902,0.476216,0.36858713,-0.24922142,0.467839,0.38763946,-0.27544209,0.493608,0.40011163,-0.30365611,0.504728,0.40262816,-0.26445369,0.476374,0.39375824,-0.25664682,0.468239,0.39230292,-0.26568315,0.464077,0.41211609,-0.29695223,0.479237,0.42847811,-0.26979306,0.476653,0.41026827,-0.25953779,0.467886,0.4281045,-0.28636145,0.484778,0.43971448,-0.30092884,0.494413
0.41370411,-0.34571265,0.482339,0.39967271,-0.29925577,0.480824,0.3892007,-0.3391944,0.480168,0.34453369,-0.31386776,0.467546,0.30701019,-0.29648712,0.452572,0.28378091,-0.27959205,0.445145,0.36258618,-0.26008876,0.477112,0.35233324,-0.25248192,0.467248,0.34705682,-0.24855723,0.462316,0.3666335,-0.27077411,0.475832,0.3871983,-0.25712344,0.479353,0.37182591,-0.23866795,0.469725,0.38855906,-0.25547452,0.495281,0.39915735,-0.28130374,0.506786,0.40874388,-0.25787778,0.481322,0.39787199,-0.25413349,0.471339,0.39317149,-0.25488872,0.466232,0.41050676,-0.28482236,0.480739,0.43661086,-0.26492471,0.48388,0.41737054,-0.25229882,0.473656,0.43402331,-0.27849947,0.490355,0.44646731,-0.29727737,0.500428
0.41231567,-0.344233,0.48246,0.3997085,-0.29932433,0.482284,0.38817529,-0.33749079,0.480545,0.34498213,-0.31331698,0.468581,0.30812983,-0.29593369,0.454502,0.28531445,-0.27933727,0.447764,0.36371819,-0.26213453,0.479774,0.35448165,-0.25362698,0.471051,0.34971703,-0.2491648,0.466689,0.36969571,-0.27098565,0.480544,0.3883584,-0.25899289,0.482113,0.37414326,-0.23974486,0.473854,0.39102996,-0.25538658,0.499497,0.40142354,-0.28042846,0.510534,0.40984746,-0.25948958,0.484052,0.39966023,-0.25193943,0.475314,0.39614899,-0.25495161,0.470843,0.41401785,-0.28477211,0.48573,0.43751129,-0.26601325,0.486372,0.41964399,-0.25341551,0.477233,0.43623737,-0.27793583,0.494011,0.44906337,-0.29850791,0.503734
0.40408511,-0.33864175,0.475103,0.39736542,-0.30265925,0.482171,0.38059751,-0.3321124,0.478455,0.34289687,-0.31557391,0.47541,0.3106018,-0.30319036,0.474198,0.29326026,-0.29158773,0.475858,0.37231496,-0.27063817,0.491024,0.36115285,-0.2437846,0.490686,0.36868811,-0.25536913,0.490517,0.38984294,-0.28208448,0.506657,0.39497934,-0.2688567,0.489034,0.38780004,-0.24706994,0.489076,0.40821312,-0.25619393,0.51491,0.41428327,-0.27488564,0.523004,0.41289258,-0.26864469,0.486814,0.41046164,-0.23695996,0.48674,0.40874322,-0.22815561,0.486702,0.4220978,-0.25050411,0.504003,0.43434002,-0.27341331,0.483118,0.42380897,-0.26067077,0.48166,0.43991525,-0.28130327,0.498767,0.44939653,-0.30264201,0.505914
