sluyters/QuantumLeap/src/datasets/gesture/HandGestureDataset_SHREC2017_csv/Gesture14/finger_1/subject_28_essai_7_skeletons_world.csv
Wrist_x,Wrist_y,Wrist_z,Palm_x,Palm_y,Palm_z,thumb_base_x,thumb_base_y,thumb_base_z,thumb_first_joint_x,thumb_first_joint_y,thumb_first_joint_z,thumb_second_joint_x,thumb_second_joint_y,thumb_second_joint_z,thumb_tip_x,thumb_tip_y,thumb_tip_z,index_base_x,index_base_y,index_base_z,index_first_joint_x,index_first_joint_y,index_first_joint_z,index_second_joint_x,index_second_joint_y,index_second_joint_z,index_tip_x,index_tip_y,index_tip_z,middle_base_x,middle_base_y,middle_base_z,middle_first_joint_x,middle_first_joint_y,middle_first_joint_z,middle_second_joint_x,middle_second_joint_y,middle_second_joint_z,middle_tip_x,middle_tip_y,middle_tip_z,ring_base_x,ring_base_y,ring_base_z,ring_first_joint_x,ring_first_joint_y,ring_first_joint_z,ring_second_joint_x,ring_second_joint_y,ring_second_joint_z,ring_tip_x,ring_tip_y,ring_tip_z,pinky_base_x,pinky_base_y,pinky_base_z,pinky_first_joint_x,pinky_first_joint_y,pinky_first_joint_z,pinky_second_joint_x,pinky_second_joint_y,pinky_second_joint_z,pinky_tip_x,pinky_tip_y,pinky_tip_z,
0.333060357,-0.346876945,0.460145,0.329179968,-0.293949556,0.445979,0.311431836,-0.330629199,0.455095,0.298295806,-0.290707538,0.436387,0.282171557,-0.254137563,0.418067,0.279921373,-0.231156677,0.409508,0.310974845,-0.243642193,0.430822,0.324351509,-0.211425305,0.441579,0.330493374,-0.195448793,0.446957,0.336103744,-0.180476098,0.451847,0.335697774,-0.251706676,0.43346,0.31476861,-0.235916549,0.412692,0.296855633,-0.251391825,0.400578,0.30174394,-0.267068086,0.409099,0.355233035,-0.262996445,0.437009,0.350660895,-0.218674889,0.426548,0.344532906,-0.215008578,0.421195,0.338410406,-0.22671847,0.416329,0.380636351,-0.285067396,0.443581,0.360462843,-0.248680407,0.425111,0.353577808,-0.25346126,0.416625,0.347508255,-0.257861106,0.409137
0.333712499,-0.34826039,0.462135,0.33024347,-0.294500712,0.446677,0.312329545,-0.331290811,0.456904,0.296235059,-0.291200942,0.437692,0.280614451,-0.253631933,0.420061,0.279221526,-0.231157536,0.410945,0.310626906,-0.243027478,0.430497,0.323153684,-0.211055205,0.440841,0.329034043,-0.19499627,0.446013,0.334343702,-0.179921657,0.450714,0.334024268,-0.251474273,0.433016,0.313015753,-0.235207656,0.411099,0.294522962,-0.250139288,0.398315,0.298877403,-0.265638319,0.406356,0.354809148,-0.262944055,0.436593,0.350786963,-0.21913979,0.427468,0.345254864,-0.215841069,0.4228,0.339655175,-0.227955973,0.418556,0.380096946,-0.285489734,0.443419,0.359032469,-0.248665252,0.424088,0.350738112,-0.255207147,0.415206,0.3451275,-0.257879378,0.407369
0.323700641,-0.344117037,0.457964,0.316001654,-0.291269367,0.446669,0.303707169,-0.32625619,0.454865,0.285426981,-0.291600099,0.439196,0.268672521,-0.255810154,0.420403,0.265429585,-0.234070073,0.41515,0.296824755,-0.243543752,0.435779,0.311775095,-0.222864954,0.458741,0.319242427,-0.212111257,0.470223,0.326025482,-0.202109823,0.48066,0.321101536,-0.250357711,0.436687,0.307341096,-0.213323108,0.418752,0.294200195,-0.220474659,0.40829,0.298134017,-0.243188699,0.417992,0.341851677,-0.258694904,0.438532,0.317329729,-0.25224646,0.421043,0.321938514,-0.283258963,0.440312,0.325128724,-0.309377769,0.455072,0.361247338,-0.280776078,0.442624,0.34515363,-0.249353172,0.42666,0.337306424,-0.255578907,0.419325,0.332224877,-0.265083544,0.412853
0.312171916,-0.343323942,0.457227,0.303468816,-0.294198269,0.444324,0.285940993,-0.324680108,0.451007,0.282592218,-0.30032066,0.447476,0.267358407,-0.259917814,0.4322,0.270332786,-0.23829017,0.422249,0.2773623,-0.244278711,0.42843,0.279744518,-0.215834227,0.441805,0.280785048,-0.200748245,0.448492,0.281644385,-0.186532989,0.454572,0.303272131,-0.251384613,0.432919,0.29265631,-0.210794722,0.413104,0.278938355,-0.216864885,0.401545,0.281241127,-0.238621916,0.410297,0.325295709,-0.2619791,0.437871,0.304393712,-0.251465228,0.41755,0.308424175,-0.282440954,0.436057,0.313109529,-0.308071379,0.451655,0.352194623,-0.283173427,0.445861,0.335489253,-0.25029417,0.427793,0.32745971,-0.255795097,0.419492,0.321826616,-0.264810432,0.412167
0.306781532,-0.348289532,0.45979,0.302824648,-0.297372615,0.445029,0.285314456,-0.329408031,0.452939,0.283950854,-0.305541744,0.449428,0.265240786,-0.270373985,0.432657,0.264007587,-0.245844588,0.425964,0.272679157,-0.248778047,0.427187,0.273815144,-0.220292816,0.440151,0.274229876,-0.205276622,0.446633,0.277440291,-0.188419439,0.452525,0.299116522,-0.255587757,0.431983,0.289153473,-0.215592594,0.410461,0.275172711,-0.224122313,0.397907,0.276612092,-0.245367654,0.405919,0.323335238,-0.263878197,0.437367,0.301334754,-0.25920308,0.415344,0.305920927,-0.290503359,0.433375,0.311161548,-0.316464023,0.44947,0.351087129,-0.285381864,0.446181,0.333198543,-0.257653068,0.426746,0.324832564,-0.263878283,0.417817,0.3183036,-0.272231235,0.409938
0.322117003,-0.3477332,0.458963,0.320813097,-0.306515385,0.448976,0.305803197,-0.333749419,0.453543,0.289264964,-0.305978912,0.447187,0.273421001,-0.274698377,0.438835,0.279594928,-0.255028634,0.435164,0.291631974,-0.25815932,0.435894,0.290498583,-0.226861494,0.445002,0.289825585,-0.210675833,0.449555,0.289100334,-0.195607818,0.453695,0.318678597,-0.263541914,0.44015,0.309204188,-0.229919753,0.423026,0.297119869,-0.244270442,0.413037,0.30076691,-0.267738007,0.422849,0.341715648,-0.272692165,0.444625,0.324182159,-0.270184619,0.426919,0.330305838,-0.303494915,0.446023,0.334151751,-0.331728091,0.460804,0.369243109,-0.289243649,0.451559,0.351841657,-0.279380971,0.435614,0.34285435,-0.289532516,0.428287,0.33901841,-0.299755236,0.424394
0.308960365,-0.347805698,0.451714,0.319964398,-0.308348067,0.446299,0.292607,-0.339911631,0.452737,0.296589378,-0.314657336,0.455026,0.292261919,-0.286040454,0.451467,0.297854493,-0.268241801,0.448371,0.311204874,-0.268447301,0.44431,0.300119585,-0.241962776,0.434952,0.292864447,-0.229803164,0.430273,0.285139289,-0.219510797,0.426019,0.330476633,-0.273684746,0.441513,0.316919953,-0.242721311,0.429647,0.301206809,-0.249861256,0.422725,0.30450522,-0.274608604,0.434406,0.345837732,-0.282341775,0.439738,0.32455018,-0.272799243,0.429084,0.332034974,-0.307339373,0.449181,0.335965623,-0.334349642,0.461511,0.362720488,-0.30045076,0.438596,0.330862735,-0.289429933,0.428064,0.311770304,-0.292662963,0.423225,0.305350074,-0.305393058,0.432156
0.324442068,-0.351599385,0.453736,0.344547432,-0.315500745,0.450093,0.311989053,-0.336196473,0.454668,0.314268985,-0.313962669,0.45494,0.307748881,-0.283778101,0.45004,0.311207058,-0.265123144,0.444743,0.33548707,-0.27184973,0.449069,0.327025612,-0.250787241,0.440345,0.321016825,-0.241893566,0.435983,0.313692476,-0.236034471,0.432017,0.355952893,-0.278674522,0.446873,0.346436279,-0.254974329,0.436571,0.33125908,-0.261011169,0.430562,0.332281689,-0.285941948,0.442782,0.371961878,-0.288450293,0.44542,0.352816673,-0.285277654,0.43607,0.355348343,-0.317544191,0.456394,0.354106196,-0.343513493,0.468289,0.389063666,-0.307460818,0.44435,0.376382199,-0.27309397,0.434921,0.370622073,-0.271410291,0.430589,0.37371475,-0.278438729,0.439923
0.329061346,-0.351200199,0.452238,0.346306568,-0.303369801,0.441763,0.318247453,-0.335695557,0.453076,0.324187085,-0.308526494,0.452938,0.309360557,-0.271608223,0.439681,0.311753016,-0.253618416,0.429284,0.333774807,-0.256888801,0.436443,0.325331184,-0.214995364,0.423744,0.320762433,-0.195144693,0.417395,0.31660974,-0.177053478,0.411623,0.352816048,-0.263389222,0.432505,0.345171175,-0.238972105,0.416155,0.327969235,-0.249805895,0.406617,0.32777388,-0.272074821,0.416608,0.367830083,-0.273061639,0.430282,0.348589837,-0.273050777,0.415723,0.350835153,-0.303661627,0.434954,0.349730221,-0.32864675,0.448515,0.384387043,-0.292177691,0.429486,0.371144879,-0.25823822,0.415699,0.36546713,-0.257066854,0.409364,0.372262438,-0.264525391,0.416999
0.329306849,-0.351112606,0.455307,0.347647555,-0.305785188,0.442968,0.323492449,-0.340111044,0.456476,0.322696438,-0.308603369,0.453404,0.307485376,-0.271248666,0.439822,0.305289984,-0.253396581,0.428158,0.339383584,-0.259592275,0.436937,0.333748029,-0.217340668,0.423344,0.330487553,-0.197330637,0.416548,0.327525601,-0.179123959,0.41037,0.356710444,-0.267614686,0.432062,0.349453844,-0.242819915,0.414206,0.329492385,-0.252726247,0.403789,0.326219678,-0.27157021,0.413053,0.370045834,-0.278481944,0.429249,0.347939459,-0.274257828,0.413543,0.348979565,-0.303867491,0.432272,0.347337584,-0.328413158,0.446096,0.384218741,-0.298935218,0.428086,0.372787897,-0.264193314,0.413327,0.366501499,-0.26264064,0.406547,0.371006016,-0.266148238,0.413654
0.331278626,-0.352954381,0.454919,0.34754744,-0.306135568,0.442685,0.323679032,-0.339305832,0.45617,0.321586714,-0.308222587,0.452893,0.306306775,-0.270886536,0.439367,0.304797782,-0.252884439,0.427764,0.337537216,-0.25871234,0.436824,0.333631343,-0.21732787,0.423359,0.330336859,-0.197343954,0.416626,0.327345758,-0.17915134,0.410506,0.356547625,-0.267500518,0.431872,0.349006575,-0.242886745,0.414128,0.327846968,-0.251289007,0.403777,0.326298394,-0.272313189,0.413072,0.369828769,-0.27833597,0.428985,0.347954041,-0.275160395,0.413409,0.348683787,-0.304593378,0.432145,0.344370464,-0.32845216,0.44592,0.383918739,-0.298743784,0.427718,0.372382117,-0.264118807,0.413062,0.365980977,-0.262652308,0.406329,0.371091243,-0.267415951,0.413465
0.33078365,-0.357661737,0.457275,0.338726311,-0.309389165,0.443471,0.317594796,-0.342558962,0.458865,0.310086266,-0.309375126,0.454495,0.294519745,-0.271600321,0.440666,0.297913815,-0.254967526,0.430144,0.331785298,-0.258488136,0.437087,0.32392516,-0.215832388,0.422938,0.31953413,-0.195673133,0.415864,0.315541448,-0.177346187,0.409432,0.344721374,-0.268084225,0.431271,0.334055327,-0.245587841,0.412301,0.312476584,-0.256533981,0.401235,0.310385564,-0.276216022,0.409864,0.358011642,-0.277377818,0.427826,0.335852935,-0.275885989,0.411347,0.334771969,-0.301708928,0.429573,0.334016589,-0.326931985,0.443508,0.372804009,-0.296371267,0.426176,0.358603962,-0.266000261,0.410758,0.351167403,-0.266529818,0.403675,0.355752815,-0.275840502,0.41033
0.333701665,-0.361937958,0.462073,0.32877061,-0.31503837,0.4513,0.307377886,-0.342480659,0.454556,0.297656703,-0.309181534,0.444211,0.283588145,-0.275824316,0.435456,0.28957411,-0.255343149,0.428648,0.306768021,-0.261705173,0.435037,0.31213371,-0.233552081,0.449371,0.314768304,-0.219101078,0.456538,0.317136083,-0.205754523,0.463053,0.332865713,-0.272822418,0.441779,0.334291425,-0.249431718,0.423742,0.321124427,-0.264333578,0.413221,0.320188624,-0.285512961,0.422325,0.358543268,-0.284827205,0.448377,0.34794988,-0.280729128,0.429081,0.351521817,-0.312021881,0.447462,0.355206345,-0.341246816,0.462596,0.386232995,-0.308698367,0.457924,0.37988358,-0.295549374,0.440844,0.360379435,-0.300627565,0.432997,0.357505651,-0.309956001,0.439373
0.317704405,-0.358854308,0.458461,0.310026984,-0.308389241,0.448241,0.291113299,-0.340145432,0.45205,0.275121658,-0.307698173,0.443305,0.265974679,-0.275607414,0.437487,0.266426888,-0.25370077,0.432993,0.281417715,-0.258456836,0.433741,0.280174718,-0.227525806,0.44348,0.279466449,-0.211640182,0.448349,0.276778096,-0.194154158,0.452897,0.309236825,-0.265392894,0.439209,0.300140074,-0.244499582,0.421766,0.292642372,-0.259928405,0.411592,0.298021843,-0.28294867,0.421132,0.332622885,-0.275825508,0.444705,0.319961853,-0.274172886,0.426343,0.325885285,-0.30692016,0.445154,0.330292391,-0.33057514,0.460083,0.360776255,-0.296610787,0.45287,0.353839407,-0.278828237,0.436467,0.341930524,-0.288142847,0.42893,0.340050734,-0.298791543,0.435714
0.312801118,-0.35839348,0.458196,0.307415856,-0.306232033,0.448869,0.288384997,-0.340253234,0.45153,0.276570234,-0.306535786,0.445479,0.27487962,-0.27562781,0.442168,0.265864851,-0.254033483,0.436133,0.275814059,-0.254241125,0.434585,0.270458081,-0.220648424,0.438935,0.267742762,-0.20368009,0.44111,0.265183665,-0.187847931,0.443088,0.303903565,-0.261267952,0.440625,0.2944258,-0.246113868,0.423965,0.287354151,-0.261022899,0.414246,0.296514025,-0.284668631,0.423984,0.327548478,-0.271713152,0.446505,0.315079801,-0.26683268,0.428716,0.320623853,-0.299255379,0.447537,0.323120943,-0.325750575,0.46224,0.356047677,-0.292439893,0.454966,0.355370771,-0.278652864,0.439071,0.33614232,-0.279883856,0.431768,0.332298603,-0.291138144,0.438684
0.319434165,-0.361562228,0.462885,0.320428513,-0.305255652,0.453841,0.291356661,-0.340997207,0.455032,0.275582036,-0.299901163,0.440746,0.264501495,-0.268516524,0.431738,0.258160057,-0.246790171,0.425641,0.295016601,-0.253084179,0.438202,0.289745851,-0.249570677,0.422376,0.287327865,-0.248041096,0.414463,0.29643584,-0.271017623,0.423594,0.323772146,-0.263660789,0.445848,0.319779431,-0.249021276,0.429357,0.310706958,-0.258084437,0.419738,0.311011782,-0.281752627,0.429231,0.34755467,-0.276985772,0.453022,0.336940987,-0.273662473,0.434926,0.343588315,-0.303206358,0.453327,0.343246923,-0.33015755,0.467985,0.37547328,-0.30101755,0.462944,0.37280879,-0.284790066,0.446914,0.357221938,-0.287198529,0.439548,0.349376577,-0.30290482,0.446195
0.329058871,-0.359878679,0.462147,0.331034138,-0.305153416,0.453689,0.307182248,-0.339191425,0.454581,0.288009429,-0.298634892,0.439966,0.27200669,-0.266096318,0.42776,0.262004925,-0.243122755,0.423424,0.305679753,-0.253415693,0.438776,0.301660665,-0.25051962,0.423982,0.299916968,-0.249310438,0.416584,0.309771915,-0.272629292,0.426113,0.334423731,-0.263876639,0.446213,0.331449753,-0.249553703,0.430275,0.32341733,-0.25700588,0.420978,0.323438446,-0.280416629,0.430713,0.358170298,-0.277068925,0.453158,0.348588614,-0.274114879,0.435645,0.356199888,-0.303793605,0.454205,0.355933066,-0.330656329,0.468692,0.386003846,-0.300866698,0.462712,0.385550406,-0.282846636,0.447145,0.368823474,-0.287488637,0.439992,0.362367725,-0.300227308,0.446843
0.325449104,-0.356083429,0.45866,0.341954839,-0.31098069,0.452208,0.303774314,-0.335292902,0.452522,0.300549785,-0.295528867,0.440043,0.292455357,-0.262105236,0.427662,0.292450244,-0.239262787,0.422937,0.326725927,-0.255865637,0.44036,0.316860326,-0.2543349,0.425575,0.299462494,-0.265236412,0.418183,0.29506185,-0.284231697,0.428092,0.352539672,-0.270837208,0.446505,0.352100047,-0.258363933,0.432514,0.345351625,-0.26709946,0.424353,0.343687027,-0.2884093,0.434999,0.372671183,-0.287356308,0.452192,0.367214548,-0.289657569,0.436899,0.369653252,-0.317266644,0.456109,0.36498719,-0.345476596,0.469959,0.39411587,-0.314283509,0.459933,0.398641058,-0.301953522,0.446097,0.382077106,-0.303067602,0.439739,0.374506795,-0.313401091,0.447382
0.315579359,-0.346950664,0.447508,0.334278163,-0.302848308,0.445632,0.299133237,-0.328729347,0.445133,0.296488783,-0.291305141,0.433978,0.290353686,-0.260784033,0.417857,0.291517786,-0.238720287,0.410316,0.327302602,-0.255860391,0.441427,0.326758618,-0.216164958,0.432063,0.32665407,-0.196508655,0.427381,0.336829547,-0.187337721,0.436242,0.350468784,-0.268637432,0.443973,0.353294981,-0.259515511,0.43484,0.34762481,-0.271149196,0.429512,0.348956472,-0.295167356,0.442073,0.367875827,-0.282921573,0.446252,0.364495844,-0.285183473,0.43654,0.371991016,-0.315960318,0.456876,0.366708636,-0.342367278,0.468922,0.38529407,-0.306383754,0.449232,0.393948265,-0.296480719,0.439678,0.377889361,-0.298749454,0.435288,0.371680211,-0.310051866,0.444609
0.317800804,-0.351798354,0.455996,0.336190645,-0.30214163,0.447601,0.303598718,-0.32663553,0.44836,0.296926617,-0.289254107,0.433094,0.292207518,-0.259205466,0.416723,0.29246302,-0.236296828,0.407791,0.324969374,-0.244642617,0.432638,0.338219611,-0.210658731,0.433516,0.345017968,-0.193192255,0.433955,0.351355086,-0.177057181,0.43442,0.351252622,-0.26127494,0.440182,0.345464992,-0.253482285,0.424299,0.334874973,-0.26393149,0.415033,0.331676198,-0.285798583,0.424765,0.370253474,-0.281051722,0.44721,0.360084743,-0.279944337,0.429717,0.366715872,-0.309094866,0.448253,0.364476427,-0.335029363,0.462721,0.392363723,-0.310350173,0.456848,0.394124738,-0.297882419,0.441306,0.370266602,-0.299170685,0.434165,0.364510857,-0.308496361,0.441008
0.336797341,-0.36381584,0.470948,0.340397854,-0.306418102,0.450956,0.314233237,-0.340454115,0.460699,0.320614971,-0.314601647,0.452232,0.3066456,-0.283082168,0.438543,0.294786676,-0.256625867,0.430465,0.304868592,-0.250817625,0.425543,0.308588802,-0.216789772,0.419495,0.310629762,-0.19909178,0.416471,0.31259916,-0.182571729,0.413722,0.334633806,-0.259338873,0.433287,0.314740625,-0.254176608,0.406969,0.299252462,-0.264284853,0.391617,0.298852544,-0.283617922,0.396873,0.360691985,-0.271560502,0.441608,0.344037827,-0.259078682,0.414193,0.349214653,-0.289644715,0.429919,0.355177679,-0.318052488,0.447271,0.393570572,-0.295349888,0.454745,0.37011507,-0.289875409,0.431151,0.349059215,-0.293236818,0.42031,0.34319207,-0.302295915,0.423574
0.333693896,-0.363220367,0.472377,0.335336384,-0.306468456,0.45238,0.313100961,-0.342150442,0.463243,0.311053902,-0.316146717,0.454453,0.297833098,-0.285358222,0.442069,0.292317611,-0.260960078,0.435235,0.297562873,-0.249934245,0.428401,0.298649071,-0.217188732,0.420267,0.299789227,-0.19896223,0.4162,0.300915638,-0.182033795,0.412503,0.325311591,-0.260188199,0.434706,0.305096488,-0.255100332,0.408448,0.28958668,-0.26530591,0.39313,0.289404893,-0.284938561,0.398721,0.350311008,-0.271705012,0.441843,0.333693381,-0.259522789,0.414903,0.338345133,-0.289378836,0.431098,0.342417543,-0.315340178,0.448445,0.381780917,-0.294606228,0.4536,0.354392098,-0.291712833,0.430286,0.334756091,-0.295244945,0.419575,0.328904087,-0.306100847,0.423171
0.330879277,-0.358731726,0.467733,0.325954094,-0.30492938,0.450944,0.314604571,-0.340555051,0.46173,0.300638942,-0.319051217,0.45545,0.285057531,-0.289511782,0.444326,0.277689755,-0.266265714,0.438647,0.286853093,-0.258885546,0.432957,0.278977231,-0.227285902,0.441045,0.276420564,-0.211332877,0.445089,0.272253927,-0.194537012,0.448765,0.313303371,-0.261154823,0.436105,0.293177397,-0.241842997,0.41293,0.280740669,-0.260665914,0.399411,0.287435567,-0.273328194,0.40686,0.336881799,-0.268070501,0.44033,0.316935978,-0.259457813,0.417227,0.327102096,-0.291736683,0.435043,0.332313826,-0.317571258,0.451489,0.367533374,-0.285369485,0.44814,0.336873803,-0.28624354,0.427729,0.321721987,-0.292193558,0.418351,0.319275026,-0.306224589,0.423577
0.333552315,-0.358295004,0.468253,0.325533886,-0.305025652,0.451127,0.31257763,-0.341369539,0.462041,0.299187594,-0.318433893,0.454892,0.282736028,-0.289388116,0.443399,0.274357306,-0.266064142,0.43727,0.285311339,-0.257841028,0.432663,0.276470548,-0.227327801,0.440144,0.271836583,-0.211682165,0.443885,0.267520951,-0.194727318,0.447285,0.311816182,-0.259851453,0.43599,0.289032216,-0.242400837,0.412495,0.278701491,-0.260074955,0.39879,0.283454676,-0.273664538,0.406082,0.335550696,-0.266561148,0.440395,0.314802315,-0.258828831,0.416937,0.322656283,-0.291649923,0.434636,0.331638332,-0.317518123,0.451179,0.366583249,-0.283648263,0.448473,0.335873582,-0.28459567,0.427785,0.321141306,-0.290919548,0.41828,0.318987266,-0.305248514,0.423372
0.337143247,-0.358984989,0.469123,0.331116181,-0.305858233,0.451351,0.315856514,-0.34249957,0.462606,0.299344693,-0.317251945,0.453269,0.281412253,-0.288167414,0.441282,0.271974752,-0.26469249,0.434571,0.28813478,-0.257812187,0.4321,0.279057265,-0.227476413,0.439653,0.272227305,-0.211755197,0.44343,0.267250532,-0.197598859,0.446863,0.314824826,-0.259762698,0.435643,0.293099613,-0.242485412,0.411554,0.281267108,-0.258370701,0.397502,0.285510209,-0.273328003,0.404504,0.338825483,-0.266452923,0.440289,0.317789476,-0.258592958,0.416206,0.32684864,-0.290912549,0.433694,0.336587522,-0.317034639,0.450404,0.372701162,-0.281397237,0.448759,0.34210271,-0.282856522,0.427578,0.327706179,-0.28952703,0.417846,0.322875178,-0.304846006,0.422697
0.336374887,-0.357639942,0.466993,0.335168621,-0.304300646,0.450159,0.315928418,-0.342157128,0.461821,0.304850162,-0.309784162,0.453878,0.288844303,-0.279251047,0.448438,0.281900618,-0.257297915,0.445224,0.301827543,-0.253219988,0.433215,0.284463869,-0.255786388,0.412344,0.295564386,-0.285844585,0.428563,0.307181689,-0.312064115,0.443278,0.327547448,-0.259637463,0.435281,0.309257144,-0.24190759,0.41219,0.296578959,-0.258151215,0.398721,0.302142261,-0.273907908,0.406264,0.349705583,-0.268661654,0.438619,0.333344177,-0.259372443,0.415914,0.340890437,-0.291331941,0.43385,0.350943882,-0.319540024,0.450184,0.377330404,-0.288262801,0.445402,0.351753964,-0.28271875,0.425254,0.35371271,-0.303468391,0.438224,0.354087752,-0.324374399,0.450344
0.334554927,-0.35465748,0.46297,0.339636926,-0.305067274,0.448711,0.314160623,-0.337643563,0.457852,0.315473794,-0.304377638,0.448369,0.308432515,-0.27314009,0.441481,0.303291268,-0.247623227,0.435763,0.32277335,-0.25160995,0.433408,0.30580741,-0.2535357,0.414184,0.312591051,-0.283258284,0.430903,0.318721346,-0.309194471,0.445167,0.349130045,-0.26124001,0.436109,0.33767203,-0.248866586,0.41525,0.316028919,-0.264563003,0.403083,0.322053761,-0.278176942,0.411562,0.36793399,-0.276115403,0.43972,0.353458403,-0.270794143,0.418937,0.358056158,-0.301782039,0.437435,0.358709477,-0.325794629,0.453216,0.393502609,-0.302880339,0.446379,0.371387057,-0.293757346,0.427827,0.367754975,-0.31125711,0.441255,0.366718867,-0.328831065,0.452991
0.331104383,-0.34111544,0.464665,0.354104205,-0.290652587,0.448062,0.324789286,-0.311321089,0.460494,0.321687394,-0.270788386,0.452651,0.319007083,-0.24022612,0.442632,0.322128517,-0.21796626,0.435557,0.349447424,-0.23720765,0.432548,0.328881882,-0.236200521,0.412302,0.331813791,-0.263132182,0.428657,0.333349765,-0.288740905,0.44318,0.368328303,-0.253692468,0.433388,0.346974037,-0.249640637,0.410664,0.32085518,-0.261246123,0.397408,0.316248851,-0.275148511,0.405133,0.382533435,-0.271399601,0.435695,0.361605345,-0.269039904,0.413424,0.365043909,-0.299240372,0.4315,0.362830758,-0.322759752,0.447713,0.396748237,-0.299655989,0.441236,0.374402834,-0.289193672,0.421597,0.373426596,-0.308886803,0.434689,0.372482402,-0.326960602,0.446676
0.33071514,-0.312288067,0.466422,0.359112999,-0.282269888,0.448778,0.3301592,-0.289301697,0.464806,0.332579015,-0.248173257,0.453005,0.335477187,-0.215026742,0.444766,0.342113897,-0.19548707,0.437897,0.373891155,-0.23669252,0.435919,0.34942392,-0.231248348,0.414006,0.347003261,-0.253470962,0.429913,0.344202279,-0.274740721,0.444914,0.381847258,-0.256791506,0.433184,0.354132839,-0.250009262,0.409257,0.319649657,-0.253519496,0.3953,0.313576879,-0.268589228,0.402411,0.385995419,-0.276045321,0.432649,0.359030175,-0.268548192,0.408854,0.361280832,-0.296071342,0.426448,0.356148231,-0.317889452,0.443084,0.386652485,-0.303679945,0.435053,0.368974902,-0.287412156,0.415863,0.367391653,-0.306671638,0.428681,0.363131699,-0.323382707,0.440405
0.316547802,-0.311109077,0.480638,0.33900875,-0.284006677,0.453146,0.31966377,-0.287644234,0.476957,0.320502225,-0.252893065,0.460431,0.326754982,-0.219718617,0.448237,0.333899031,-0.200747941,0.438015,0.354185412,-0.239136965,0.431612,0.32701452,-0.214994396,0.402627,0.318729505,-0.229644679,0.415233,0.317119138,-0.247785009,0.431707,0.356715676,-0.260545808,0.428849,0.308685556,-0.240355395,0.397411,0.274035889,-0.230011255,0.379072,0.260493962,-0.234177981,0.381807,0.356988646,-0.280992672,0.429247,0.337434673,-0.25568117,0.398514,0.328587138,-0.269458474,0.412495,0.322315534,-0.287635277,0.430489,0.35390909,-0.310049069,0.434432,0.314005633,-0.283423013,0.408926,0.305194997,-0.286555999,0.418859,0.299656556,-0.29239121,0.431687
0.314317123,-0.310712884,0.479829,0.336484387,-0.283374129,0.451991,0.317426095,-0.287235072,0.476148,0.318078433,-0.252486745,0.459628,0.324287702,-0.219265828,0.447416,0.331336322,-0.200214327,0.437088,0.350171668,-0.237547858,0.430245,0.323779971,-0.214098323,0.400948,0.31532285,-0.228476859,0.413384,0.313227841,-0.246647574,0.429913,0.353917721,-0.259708144,0.427386,0.305457724,-0.239422325,0.395686,0.270670161,-0.229016196,0.377194,0.257109646,-0.233060241,0.379735,0.354150524,-0.280125056,0.427741,0.335407042,-0.253311662,0.396717,0.324986207,-0.26835122,0.410513,0.318732718,-0.286559448,0.42855,0.351078728,-0.309179106,0.432933,0.310878425,-0.282474926,0.407253,0.301930635,-0.285528862,0.417046,0.296384065,-0.291382748,0.429881
0.313341121,-0.310672904,0.484148,0.327011428,-0.281044763,0.454004,0.318962111,-0.288699038,0.482745,0.314717734,-0.247432817,0.481297,0.325154266,-0.225858799,0.483993,0.33911176,-0.214759008,0.487698,0.350166198,-0.239548456,0.433785,0.313176477,-0.21324908,0.401847,0.302337872,-0.225044053,0.412222,0.299514894,-0.243149957,0.428969,0.343624281,-0.260122996,0.427363,0.291587909,-0.235516387,0.392685,0.255753296,-0.223389409,0.372456,0.241172425,-0.227231387,0.372655,0.338883969,-0.278623414,0.425007,0.319175149,-0.246528804,0.391961,0.306689242,-0.259335117,0.403521,0.300940044,-0.277690495,0.421482,0.330195158,-0.30465169,0.427433,0.290398034,-0.274965743,0.401848,0.280570935,-0.275413894,0.410044,0.280535151,-0.28358144,0.422227
0.358966833,-0.34855638,0.495741,0.34827088,-0.311556016,0.459942,0.366267659,-0.328362947,0.495835,0.35149048,-0.289841919,0.488196,0.351180461,-0.260189759,0.48814,0.350373825,-0.236723303,0.478149,0.350318993,-0.259352914,0.438196,0.324112058,-0.226653193,0.4076,0.301418297,-0.220379586,0.400414,0.292793806,-0.225826235,0.409617,0.338114382,-0.274306263,0.428303,0.29519951,-0.235498674,0.394874,0.258849788,-0.2162167,0.375374,0.239013762,-0.211361469,0.361845,0.329086401,-0.29069906,0.423639,0.278824882,-0.246163077,0.391662,0.255662581,-0.246970952,0.383772,0.263431177,-0.265382822,0.393532,0.320331121,-0.316950729,0.424344,0.273220867,-0.2845187,0.40241,0.255099823,-0.273863994,0.396199,0.250932162,-0.277331845,0.40151
0.357653364,-0.362321935,0.488223,0.344503744,-0.308420416,0.454297,0.365274318,-0.329956864,0.490883,0.352321707,-0.298992307,0.486278,0.344085266,-0.268502045,0.483765,0.333776762,-0.246027838,0.476011,0.342766062,-0.259204541,0.437,0.314919641,-0.224141214,0.405478,0.285747865,-0.214546868,0.391052,0.273268981,-0.22095382,0.391813,0.333176993,-0.271830109,0.424312,0.273526278,-0.235865538,0.391113,0.237679313,-0.225139105,0.371747,0.219141704,-0.221689188,0.359526,0.323831708,-0.286513215,0.417166,0.264562297,-0.247695127,0.383552,0.239259203,-0.243082461,0.37698,0.228393987,-0.253144204,0.387818,0.31516073,-0.310769193,0.414653,0.270391956,-0.284866443,0.394387,0.254492645,-0.27694869,0.38959,0.25503855,-0.280409917,0.394862
0.365057781,-0.361280295,0.488211,0.353279684,-0.310447623,0.454623,0.373788855,-0.335286104,0.491495,0.363683978,-0.299597328,0.487262,0.355305052,-0.269004898,0.484671,0.339026359,-0.24775149,0.478169,0.352480746,-0.259715496,0.438335,0.324883836,-0.225396455,0.406541,0.297965895,-0.217038908,0.393701,0.286866487,-0.223968302,0.396512,0.342621946,-0.272311011,0.424937,0.282570717,-0.236991629,0.391547,0.246667899,-0.226831384,0.372069,0.228966046,-0.224160313,0.360664,0.334390384,-0.286775748,0.417172,0.2758433,-0.248591488,0.38494,0.252055425,-0.243782117,0.379751,0.238965977,-0.250660344,0.39063,0.327563873,-0.311260975,0.413881,0.279967338,-0.284344941,0.393665,0.265014674,-0.277405691,0.389776,0.267404284,-0.281821069,0.395383
0.380136249,-0.355388034,0.489701,0.368518429,-0.311363484,0.455936,0.38594323,-0.336343449,0.49279,0.3760818,-0.300591421,0.488347,0.367873408,-0.270035636,0.485966,0.35523352,-0.248836353,0.478836,0.365485855,-0.260128271,0.43929,0.316337277,-0.22559208,0.407458,0.285111218,-0.215768923,0.391542,0.263580661,-0.212632569,0.379657,0.353216889,-0.272362223,0.426094,0.302025636,-0.230646967,0.392631,0.263343235,-0.218983679,0.373111,0.244993451,-0.219375573,0.361542,0.344788097,-0.286862265,0.418513,0.281500369,-0.248755645,0.384662,0.254845594,-0.243857695,0.379401,0.258257576,-0.262700538,0.390968,0.337894195,-0.311566976,0.415466,0.289530511,-0.284340719,0.395124,0.274562011,-0.277428834,0.391076,0.278011861,-0.282356367,0.396666
0.365691106,-0.351461727,0.47927,0.354442826,-0.311024417,0.449107,0.369703021,-0.336080219,0.485325,0.344727134,-0.331247,0.484974,0.32575301,-0.314830342,0.488085,0.314249202,-0.295793877,0.482053,0.362543376,-0.265623093,0.43848,0.315693312,-0.227784652,0.408514,0.287531251,-0.215238773,0.393531,0.265314803,-0.212101613,0.383334,0.350241338,-0.271702874,0.422447,0.301833427,-0.229173265,0.391499,0.264150355,-0.219735627,0.373445,0.245690165,-0.221723639,0.363708,0.34021418,-0.283521484,0.412181,0.276469851,-0.246812357,0.377974,0.251853887,-0.242233022,0.374284,0.254254291,-0.260755035,0.386623,0.330992938,-0.306015922,0.405382,0.284980023,-0.279265882,0.38808,0.272254148,-0.274145242,0.385442,0.273003052,-0.277828704,0.390509
0.363572782,-0.346822549,0.468782,0.359269833,-0.301692532,0.442734,0.372771473,-0.33262767,0.477456,0.352432426,-0.325565577,0.480529,0.327270579,-0.335413703,0.482213,0.309247876,-0.331154489,0.478185,0.361947367,-0.252790376,0.437997,0.339078393,-0.212172342,0.426173,0.327721931,-0.1920662,0.42026,0.319240689,-0.174893822,0.417231,0.350692925,-0.256153754,0.419713,0.305977248,-0.213473584,0.391552,0.273740228,-0.21601743,0.375125,0.257274224,-0.22115826,0.36795,0.342569108,-0.263962775,0.407192,0.276880755,-0.23771046,0.37496,0.261585065,-0.245773203,0.373881,0.275484521,-0.264191003,0.386464,0.335081303,-0.282102258,0.397059,0.291102204,-0.265833754,0.382685,0.281509831,-0.270117205,0.382135,0.279089425,-0.276795338,0.386981
0.361694409,-0.344747022,0.463573,0.358019368,-0.299330365,0.439288,0.372629122,-0.333896884,0.473199,0.352969221,-0.324253018,0.477836,0.331633939,-0.3309167,0.479459,0.315770657,-0.324204748,0.476172,0.362875887,-0.254519196,0.436853,0.340829788,-0.212700882,0.42677,0.330031193,-0.193025398,0.421729,0.321455657,-0.175912688,0.418701,0.35078752,-0.254262215,0.417825,0.305230285,-0.212744634,0.391145,0.274700986,-0.216930987,0.375582,0.259253374,-0.223087296,0.369046,0.342072451,-0.260746396,0.404521,0.289321601,-0.244707475,0.389333,0.274250926,-0.254493878,0.389506,0.28362883,-0.269738831,0.395708,0.33364669,-0.277273471,0.39317,0.289555077,-0.263500795,0.380245,0.281409446,-0.267598935,0.380045,0.278603811,-0.274545346,0.384516
0.364032199,-0.342032836,0.461039,0.35847126,-0.296503871,0.438775,0.370619823,-0.331061264,0.47159,0.35157694,-0.323988471,0.477419,0.324501205,-0.332622884,0.477649,0.30981959,-0.32684992,0.474729,0.354034887,-0.244524992,0.438765,0.335377063,-0.20741469,0.430275,0.326151049,-0.187785162,0.42603,0.319755354,-0.171142632,0.424742,0.345051168,-0.246476521,0.419097,0.297519258,-0.20884479,0.393825,0.270249704,-0.21710006,0.379083,0.262208506,-0.226498602,0.373879,0.339054918,-0.25092717,0.405069,0.290944789,-0.243802818,0.392541,0.277466836,-0.257612512,0.394175,0.286917553,-0.272749098,0.399886,0.334521132,-0.265255845,0.392527,0.290568504,-0.260441168,0.380866,0.283053697,-0.268006496,0.381744,0.280270863,-0.275627956,0.386189
0.358762781,-0.341838962,0.460514,0.347234126,-0.291604348,0.438831,0.367702749,-0.329992939,0.471355,0.339908765,-0.325315679,0.477732,0.315353793,-0.333784938,0.478136,0.30270388,-0.3294967,0.475516,0.342945855,-0.247184275,0.439549,0.323767742,-0.207952083,0.431663,0.314275935,-0.188595735,0.42772,0.307580743,-0.17220242,0.426739,0.333885142,-0.246092734,0.419666,0.286824076,-0.208762435,0.394938,0.260393811,-0.217429013,0.380514,0.252902384,-0.22763234,0.375427,0.327939581,-0.250241082,0.405405,0.278957254,-0.245358306,0.393516,0.267324249,-0.257171005,0.395142,0.281708756,-0.27378258,0.400592,0.323692995,-0.264144834,0.392492,0.277996723,-0.26021404,0.381352,0.2741332,-0.266985989,0.382235,0.273164137,-0.275700566,0.386499
0.358467418,-0.341039872,0.459659,0.335423637,-0.295746034,0.441677,0.367428286,-0.33023534,0.471683,0.337999931,-0.328423324,0.479244,0.311139257,-0.344578695,0.479044,0.292302373,-0.344879876,0.476247,0.323785723,-0.254740194,0.446179,0.286227984,-0.272329943,0.439205,0.284854768,-0.288517292,0.435718,0.289118038,-0.305864471,0.437328,0.314888344,-0.254546041,0.425783,0.281687498,-0.214829649,0.40847,0.254081451,-0.223272573,0.39837,0.254893517,-0.237284174,0.39738,0.30998708,-0.258830783,0.410739,0.266977389,-0.27303813,0.401489,0.268155084,-0.289967815,0.406144,0.275219083,-0.3047525,0.411738,0.30853272,-0.271642325,0.396278,0.270084926,-0.272337321,0.387084,0.275372314,-0.277207771,0.390276,0.2807335,-0.28131095,0.394749
0.364026265,-0.347732015,0.473759,0.3306053,-0.289249437,0.44714,0.365681348,-0.330290115,0.481803,0.319002439,-0.298450218,0.462142,0.299666006,-0.285220643,0.466995,0.280101696,-0.271799887,0.455123,0.316165438,-0.24104481,0.441241,0.288353262,-0.200722661,0.427243,0.274659351,-0.180951457,0.420244,0.253891353,-0.172424104,0.41388,0.306928475,-0.244463484,0.423613,0.258967247,-0.208870997,0.401756,0.236253146,-0.219482707,0.389007,0.232913978,-0.231682148,0.380609,0.301965024,-0.252347106,0.411687,0.252853443,-0.258981019,0.396206,0.247929093,-0.271319536,0.391962,0.251343831,-0.287595101,0.396518,0.30086688,-0.270620238,0.402346,0.259176903,-0.266371889,0.388774,0.259291456,-0.269948203,0.385219,0.265803274,-0.276905144,0.388618
0.261558174,-0.286442287,0.440126,0.302676867,-0.283768959,0.435946,0.275285332,-0.283251149,0.451877,0.27679401,-0.254150693,0.459784,0.274700223,-0.226828389,0.460723,0.277202635,-0.207009971,0.459615,0.342042444,-0.278911534,0.44853,0.343391427,-0.250840211,0.452906,0.325926675,-0.254068801,0.455094,0.322673871,-0.273945607,0.466737,0.336208275,-0.281403405,0.432252,0.328766359,-0.243454279,0.425516,0.301419092,-0.246462781,0.421587,0.297771332,-0.264836234,0.430617,0.327910104,-0.283903341,0.419256,0.324367739,-0.249462925,0.417499,0.313383063,-0.261336199,0.432466,0.298522426,-0.273085031,0.439155,0.311829898,-0.287764108,0.404815,0.311351726,-0.253434543,0.401331,0.295469868,-0.250648258,0.39973,0.288383158,-0.253912986,0.407404
0.306259959,-0.34159561,0.447263,0.306137114,-0.292573523,0.434418,0.311686979,-0.335140498,0.460997,0.299543998,-0.320903879,0.471804,0.293259195,-0.297961959,0.482097,0.295965181,-0.27844074,0.485689,0.31298676,-0.255651106,0.444262,0.286201948,-0.225754395,0.441306,0.272682618,-0.210661177,0.439828,0.257782426,-0.215121737,0.443544,0.305817658,-0.25020275,0.423066,0.255768721,-0.238029956,0.408741,0.253166565,-0.265216239,0.415341,0.270018434,-0.281105021,0.422655,0.299972838,-0.2503467,0.406863,0.254985245,-0.238959346,0.398593,0.254962093,-0.263703268,0.404583,0.269196239,-0.277480915,0.410028,0.292531945,-0.260605316,0.390169,0.262574925,-0.23723536,0.384663,0.256382594,-0.25291183,0.389082,0.265013115,-0.26669349,0.392732
0.367560273,-0.349389968,0.469198,0.333732218,-0.293814045,0.441069,0.360830526,-0.335650252,0.472724,0.313043836,-0.33958397,0.464401,0.28149686,-0.323261158,0.460992,0.258313652,-0.310238969,0.453578,0.285539646,-0.256829192,0.428428,0.25207998,-0.268773436,0.397298,0.235606902,-0.274125227,0.381732,0.239036546,-0.287535385,0.380314,0.298040257,-0.248864629,0.416208,0.24947337,-0.218794785,0.385162,0.228319459,-0.226411592,0.367052,0.233157043,-0.242387599,0.366512,0.312018834,-0.24715974,0.408882,0.271607752,-0.256249709,0.37393,0.286639917,-0.274508715,0.382992,0.30168253,-0.272188871,0.39123,0.335026664,-0.25382412,0.405165,0.29544716,-0.265083765,0.383728,0.304671422,-0.275661675,0.390415,0.320175087,-0.275318862,0.400559
0.370783984,-0.349998162,0.471573,0.345983111,-0.290633735,0.441284,0.358949296,-0.333319382,0.474828,0.324906242,-0.332338477,0.46631,0.296106068,-0.304450741,0.458415,0.285043631,-0.281341489,0.453226,0.312117697,-0.238740108,0.426974,0.269119201,-0.242201977,0.398465,0.247854383,-0.243728245,0.384211,0.248224817,-0.258976762,0.382265,0.321099142,-0.237437146,0.414513,0.27768603,-0.197248749,0.38406,0.248736031,-0.19793971,0.366296,0.245110794,-0.213511649,0.364597,0.331119516,-0.241914385,0.4072,0.282229626,-0.245061182,0.375294,0.293601215,-0.268538447,0.382692,0.311892406,-0.274001793,0.389416,0.347651556,-0.257271825,0.403869,0.301222143,-0.25868963,0.381513,0.308347337,-0.272770255,0.386758,0.327174178,-0.278018017,0.39666
0.373394004,-0.350482904,0.471349,0.354090183,-0.291819433,0.441428,0.364465627,-0.334803104,0.474715,0.336400393,-0.332355581,0.466334,0.307181933,-0.304218957,0.458066,0.296225199,-0.281393633,0.45331,0.322833461,-0.239025831,0.427485,0.278584653,-0.241566786,0.39742,0.256755817,-0.242571171,0.382387,0.256919361,-0.257553377,0.380164,0.33186813,-0.237705794,0.414982,0.288511495,-0.197630345,0.384803,0.25955807,-0.198427134,0.367198,0.256053973,-0.214192128,0.365759,0.341945056,-0.242150834,0.407598,0.29043812,-0.243309878,0.372612,0.301920994,-0.266718915,0.380099,0.320037255,-0.272234997,0.386905,0.358561756,-0.257432354,0.404121,0.312017829,-0.25899747,0.381967,0.319220786,-0.273237146,0.38742,0.338128975,-0.278488319,0.397331
0.353900105,-0.331520858,0.449984,0.350124366,-0.283412745,0.438282,0.362005544,-0.326795445,0.464632,0.344159782,-0.318036296,0.477785,0.315496647,-0.313033502,0.476933,0.300550789,-0.299300471,0.47775,0.35558426,-0.245210717,0.450002,0.336009005,-0.207254364,0.439231,0.326146689,-0.18806049,0.433845,0.319962267,-0.174077938,0.433773,0.342681266,-0.239093399,0.42794,0.323818835,-0.19544156,0.41847,0.312897999,-0.170255177,0.412947,0.308512541,-0.15408018,0.413529,0.33345285,-0.24135716,0.410913,0.290467781,-0.24775392,0.408389,0.300430339,-0.270034697,0.412631,0.322628169,-0.275971102,0.416487,0.32376284,-0.246261326,0.393062,0.286315569,-0.244802103,0.389414,0.273698632,-0.247049014,0.392415,0.262520914,-0.248903435,0.394863
0.351283897,-0.329243874,0.447535,0.348482884,-0.285219394,0.437824,0.359610827,-0.325468066,0.462928,0.34288984,-0.320915182,0.477757,0.316924378,-0.315738584,0.477746,0.302884407,-0.306744944,0.479603,0.355762032,-0.248349756,0.451718,0.336508447,-0.210754021,0.442054,0.324962613,-0.192078963,0.437222,0.316473539,-0.174712421,0.433566,0.343010168,-0.241194051,0.42924,0.326024791,-0.198368694,0.421888,0.316172855,-0.173583698,0.417599,0.31039509,-0.156593154,0.416189,0.333650252,-0.241368419,0.411678,0.291976112,-0.247609766,0.411287,0.300545549,-0.270282853,0.415248,0.322368113,-0.277302699,0.41885,0.323357674,-0.24614023,0.39286,0.287508768,-0.246245425,0.390987,0.274774874,-0.248985339,0.393818,0.263398991,-0.251232654,0.395574
0.351594183,-0.328857386,0.447578,0.347444945,-0.284270181,0.438405,0.360312187,-0.325544903,0.463119,0.344159647,-0.320342073,0.478229,0.31724043,-0.319336947,0.478091,0.303152441,-0.312232807,0.480096,0.354787182,-0.251156716,0.452818,0.33527327,-0.213874371,0.443812,0.325434729,-0.195021795,0.439309,0.319021515,-0.176632761,0.436343,0.343187279,-0.242229218,0.430297,0.326432895,-0.199591986,0.42342,0.316714969,-0.174909726,0.419409,0.311208286,-0.158082681,0.418439,0.333396305,-0.240562452,0.412646,0.292455954,-0.247996308,0.412717,0.300853971,-0.270960654,0.416847,0.322786291,-0.278417192,0.420601,0.323634278,-0.246577977,0.393632,0.288085358,-0.247214006,0.39213,0.275443601,-0.2503122,0.395095,0.26410073,-0.252848065,0.396773
0.352321133,-0.330822869,0.450186,0.33849253,-0.286101991,0.439429,0.355077853,-0.326936732,0.465133,0.330370547,-0.321690348,0.478876,0.30327901,-0.321417647,0.477971,0.288290628,-0.313722784,0.479117,0.340039201,-0.251059668,0.45211,0.319041003,-0.214143173,0.443144,0.308462336,-0.195507826,0.43866,0.301046513,-0.179802196,0.437855,0.328824417,-0.243801357,0.429921,0.314235159,-0.201782322,0.42458,0.304945178,-0.177502648,0.421464,0.298268387,-0.160171365,0.419239,0.320357666,-0.242385602,0.412699,0.278037611,-0.247189819,0.411048,0.285587912,-0.270568609,0.415472,0.307295286,-0.278917498,0.419493,0.311852357,-0.248853232,0.394456,0.275938064,-0.249465484,0.391516,0.263331736,-0.253092583,0.394669,0.252740558,-0.256815979,0.396926
0.361544275,-0.34487431,0.465543,0.341568806,-0.293758717,0.447277,0.355247401,-0.339882571,0.477268,0.328047074,-0.326785203,0.484247,0.302570599,-0.323750118,0.480276,0.285778171,-0.313297157,0.477414,0.341097111,-0.256556964,0.45122,0.315049473,-0.223300293,0.443917,0.301936158,-0.206544793,0.440266,0.293467231,-0.193548192,0.442231,0.335125575,-0.251632421,0.431132,0.283515347,-0.244554378,0.414546,0.253591194,-0.240413414,0.404871,0.232304528,-0.23744948,0.39796,0.330966436,-0.252535107,0.416369,0.287241745,-0.244800202,0.406503,0.282586268,-0.268850044,0.411786,0.298003315,-0.28483638,0.416588,0.327514953,-0.262559296,0.402285,0.285311605,-0.256586688,0.392549,0.273998181,-0.263288691,0.396198,0.277004526,-0.274449846,0.40104
0.354023368,-0.349023614,0.467073,0.339640648,-0.299083774,0.448484,0.354139214,-0.341874539,0.478331,0.326141857,-0.329368658,0.484197,0.299563209,-0.326670819,0.478663,0.284808718,-0.314302292,0.475062,0.331364856,-0.259960566,0.45163,0.306156478,-0.226077224,0.444699,0.293525994,-0.20909626,0.441234,0.285799036,-0.196224614,0.443942,0.328166933,-0.25441307,0.432054,0.277864351,-0.245734989,0.414726,0.250879522,-0.241619058,0.404619,0.229623674,-0.239595939,0.397399,0.329296771,-0.254110501,0.417745,0.283278406,-0.248778287,0.407013,0.281260527,-0.272544532,0.413282,0.297421426,-0.288168791,0.418981,0.327840627,-0.264116564,0.404244,0.285207303,-0.259067052,0.393742,0.274159703,-0.266392949,0.398114,0.276634022,-0.27765641,0.403506
0.352746224,-0.350316201,0.467351,0.338897591,-0.299654045,0.448697,0.352979661,-0.342787538,0.478464,0.325373879,-0.330103691,0.483988,0.299173804,-0.327275343,0.477954,0.284470426,-0.31497014,0.474129,0.331354585,-0.259952508,0.451616,0.305977479,-0.225945045,0.444439,0.293270543,-0.208914286,0.44085,0.285673499,-0.196138423,0.443747,0.328286183,-0.254505519,0.432211,0.277834871,-0.245708918,0.414682,0.249923776,-0.241976219,0.404457,0.228692338,-0.240279642,0.397153,0.328618499,-0.254540651,0.418048,0.282695538,-0.249496099,0.407072,0.280889909,-0.27347186,0.41366,0.297131468,-0.289192103,0.419648,0.327813061,-0.264525843,0.404729,0.285077661,-0.259808292,0.394009,0.274116662,-0.267338858,0.398615,0.276401013,-0.278623365,0.404175
0.352380447,-0.351659239,0.468179,0.338858517,-0.300233485,0.449244,0.352101441,-0.343709075,0.479117,0.325262422,-0.330749521,0.48429,0.299242409,-0.327867181,0.47802,0.284519799,-0.315652254,0.473989,0.331464641,-0.260038849,0.451766,0.305841164,-0.225844385,0.444241,0.293023074,-0.208737999,0.440478,0.285444959,-0.195981512,0.443392,0.32851177,-0.254680406,0.432508,0.277808741,-0.24568581,0.414643,0.249350351,-0.242062897,0.404222,0.228081778,-0.240470025,0.396779,0.328510911,-0.254935068,0.418494,0.282441106,-0.249887954,0.407155,0.280702871,-0.273934652,0.413847,0.296950305,-0.289669319,0.419931,0.328143808,-0.265008622,0.405397,0.285180255,-0.260331689,0.394374,0.274223651,-0.267938204,0.399053,0.276446005,-0.279271236,0.404747
0.347341915,-0.351159966,0.465156,0.335705235,-0.299995176,0.447864,0.346046468,-0.345013968,0.476435,0.322399974,-0.331329189,0.482088,0.296569902,-0.325195542,0.474627,0.282222055,-0.3129245,0.470755,0.324033137,-0.261424419,0.451829,0.305837941,-0.225882965,0.444659,0.293888459,-0.208540072,0.441074,0.288964465,-0.195531307,0.444695,0.322611128,-0.25442435,0.43258,0.280711214,-0.223670645,0.415956,0.258742898,-0.235723397,0.406258,0.255262785,-0.248057468,0.399331,0.325974982,-0.254844845,0.418414,0.281663655,-0.239959747,0.408236,0.274898407,-0.262721845,0.415995,0.284748665,-0.283747335,0.423204,0.327177871,-0.264049361,0.404858,0.285035025,-0.260545588,0.394724,0.27467635,-0.268890797,0.400221,0.276574595,-0.280116857,0.405918
0.3466227,-0.351080368,0.464524,0.335084642,-0.299875791,0.447646,0.345206361,-0.344981778,0.47582,0.321711311,-0.331354587,0.481455,0.295499329,-0.324192972,0.473499,0.281264297,-0.311734815,0.469582,0.324074015,-0.261457398,0.451886,0.305332113,-0.225534025,0.444178,0.293671036,-0.207896235,0.440324,0.288780105,-0.194814796,0.443899,0.32272225,-0.254511986,0.432729,0.280983857,-0.223887887,0.41636,0.259095737,-0.236044845,0.406812,0.255684674,-0.248467448,0.399991,0.325456408,-0.25471103,0.418597,0.281936187,-0.240191927,0.408631,0.275417152,-0.263217612,0.41678,0.285324616,-0.284321261,0.42406,0.326948044,-0.263744349,0.40501,0.284989469,-0.260735483,0.395029,0.274855091,-0.269407023,0.400822,0.276577987,-0.280599546,0.406581
0.341415986,-0.346250537,0.457796,0.333373566,-0.298590076,0.445728,0.340822889,-0.341205663,0.470266,0.319610033,-0.330057046,0.478341,0.294146274,-0.324424144,0.469328,0.281320712,-0.31453748,0.4667,0.325771114,-0.26289344,0.45442,0.307325958,-0.227017342,0.447234,0.296116934,-0.209271721,0.443641,0.29043817,-0.195468242,0.445984,0.327512182,-0.256038409,0.435063,0.282656177,-0.232037388,0.421352,0.261544195,-0.246489278,0.413354,0.263374533,-0.257287722,0.410402,0.326483648,-0.255597444,0.420299,0.28388555,-0.241456111,0.410567,0.278405357,-0.265598701,0.42032,0.288628863,-0.287175011,0.428145,0.3270159,-0.263561214,0.405149,0.287415565,-0.262935306,0.398315,0.278145239,-0.272695993,0.405528,0.27925527,-0.283516742,0.410731
0.345553788,-0.350796577,0.463541,0.334112069,-0.299427461,0.446979,0.343636478,-0.344480519,0.474518,0.320326956,-0.331420337,0.479436,0.294775129,-0.325485637,0.470076,0.281102124,-0.314252269,0.465691,0.323260428,-0.260900505,0.451001,0.303542431,-0.224229986,0.441838,0.292020046,-0.206125253,0.437256,0.287665127,-0.193256056,0.441381,0.325078173,-0.254417828,0.432341,0.278980021,-0.229019567,0.415872,0.257924788,-0.242603105,0.406266,0.262828526,-0.257422003,0.408749,0.324944172,-0.254450891,0.418588,0.282671605,-0.240226786,0.40837,0.276840629,-0.263870691,0.417471,0.286941056,-0.285278194,0.425232,0.327176359,-0.263512327,0.405389,0.285176638,-0.260872348,0.395155,0.275536361,-0.270185785,0.401656,0.277138978,-0.281517908,0.407778
0.344467393,-0.349894993,0.462138,0.334355261,-0.298694123,0.446319,0.3426481,-0.34376098,0.473324,0.319777482,-0.331180865,0.478627,0.293262314,-0.323578812,0.469063,0.279367906,-0.310292448,0.464876,0.323416689,-0.260928571,0.451065,0.303305874,-0.223993248,0.441443,0.291818654,-0.205730111,0.436632,0.287558065,-0.192859247,0.440821,0.324878897,-0.254402041,0.432338,0.280236297,-0.227211152,0.416522,0.258854814,-0.243118581,0.407296,0.263477753,-0.258878186,0.410115,0.324778301,-0.254293034,0.418459,0.290638212,-0.224219886,0.405494,0.280203613,-0.242133462,0.414664,0.283702921,-0.266343402,0.423563,0.326906263,-0.263090021,0.404984,0.285412544,-0.260825142,0.395257,0.275834356,-0.270290888,0.401958,0.277086018,-0.281539214,0.40798
0.342566214,-0.349710249,0.460702,0.333585115,-0.298010586,0.445356,0.34162948,-0.34294241,0.472021,0.319063363,-0.330569443,0.477573,0.292606455,-0.32281416,0.467893,0.278835894,-0.310316018,0.463836,0.323344622,-0.260599025,0.450561,0.303266265,-0.223826456,0.441118,0.292719174,-0.205501816,0.436397,0.287858917,-0.19275674,0.440732,0.324447339,-0.253981222,0.431793,0.280327931,-0.227512348,0.416394,0.259211151,-0.243005704,0.407411,0.263578773,-0.259367823,0.410437,0.324356836,-0.253704911,0.417832,0.291100011,-0.226389786,0.406966,0.281506707,-0.245669279,0.41638,0.286476183,-0.268836124,0.424528,0.326386861,-0.262254715,0.404183,0.288058513,-0.256247165,0.394781,0.278404391,-0.262847082,0.401603,0.277869017,-0.27791336,0.407557
0.344217512,-0.351213214,0.463015,0.335159755,-0.299641468,0.448357,0.340827436,-0.343041482,0.472032,0.316073782,-0.327579898,0.473278,0.286266172,-0.315708415,0.457628,0.271586514,-0.302275876,0.451123,0.323394773,-0.260244605,0.451017,0.302186843,-0.218533968,0.434951,0.294962456,-0.196329355,0.426918,0.295333523,-0.183373733,0.432025,0.326725697,-0.252719961,0.435402,0.283270639,-0.238279568,0.418881,0.257329771,-0.231279009,0.409244,0.252428371,-0.249169784,0.414733,0.33144372,-0.249661542,0.42397,0.296099999,-0.230467123,0.412759,0.289042729,-0.251916164,0.425993,0.294740181,-0.276427838,0.435806,0.339326583,-0.257662885,0.413152,0.321225849,-0.22847918,0.401952,0.317569036,-0.244560656,0.411535,0.322652842,-0.261655926,0.419193
0.344516888,-0.351774799,0.463142,0.33537048,-0.301040175,0.448888,0.340449471,-0.343676458,0.471906,0.314637908,-0.337562055,0.472746,0.285978878,-0.31950892,0.45636,0.271261633,-0.303062423,0.449648,0.322083064,-0.266465994,0.451469,0.303699176,-0.22584204,0.434677,0.294522345,-0.205602512,0.426281,0.294988304,-0.193004981,0.43152,0.327392052,-0.258098008,0.43629,0.282229908,-0.248795414,0.419927,0.261327504,-0.242627009,0.410382,0.253360827,-0.260443222,0.416265,0.331496602,-0.258301291,0.425178,0.29867324,-0.242949623,0.413983,0.292271241,-0.264724286,0.427704,0.295751431,-0.292771223,0.437706,0.340568406,-0.268419904,0.414664,0.322434985,-0.239376198,0.403465,0.319019003,-0.256081523,0.413414,0.324208406,-0.273374896,0.421214
