sluyters/QuantumLeap/src/datasets/gesture/HandGestureDataset_SHREC2017_csv/Gesture14/finger_1/subject_1_essai_3_skeletons_world.csv
Wrist_x,Wrist_y,Wrist_z,Palm_x,Palm_y,Palm_z,thumb_base_x,thumb_base_y,thumb_base_z,thumb_first_joint_x,thumb_first_joint_y,thumb_first_joint_z,thumb_second_joint_x,thumb_second_joint_y,thumb_second_joint_z,thumb_tip_x,thumb_tip_y,thumb_tip_z,index_base_x,index_base_y,index_base_z,index_first_joint_x,index_first_joint_y,index_first_joint_z,index_second_joint_x,index_second_joint_y,index_second_joint_z,index_tip_x,index_tip_y,index_tip_z,middle_base_x,middle_base_y,middle_base_z,middle_first_joint_x,middle_first_joint_y,middle_first_joint_z,middle_second_joint_x,middle_second_joint_y,middle_second_joint_z,middle_tip_x,middle_tip_y,middle_tip_z,ring_base_x,ring_base_y,ring_base_z,ring_first_joint_x,ring_first_joint_y,ring_first_joint_z,ring_second_joint_x,ring_second_joint_y,ring_second_joint_z,ring_tip_x,ring_tip_y,ring_tip_z,pinky_base_x,pinky_base_y,pinky_base_z,pinky_first_joint_x,pinky_first_joint_y,pinky_first_joint_z,pinky_second_joint_x,pinky_second_joint_y,pinky_second_joint_z,pinky_tip_x,pinky_tip_y,pinky_tip_z,
0.42909303,-0.34421048,0.558276,0.42107582,-0.30142748,0.55294,0.40174027,-0.32551879,0.552635,0.37752955,-0.29033593,0.543391,0.35881909,-0.26111857,0.537433,0.35255238,-0.23974675,0.53339,0.39887449,-0.2499107,0.542206,0.39562637,-0.21434421,0.543828,0.39389593,-0.1956911,0.544639,0.39225752,-0.17820162,0.545376,0.4244544,-0.25621704,0.547137,0.41432468,-0.22255493,0.533741,0.4267003,-0.23911381,0.557543,0.4311196,-0.26393441,0.56986,0.44588448,-0.26420262,0.551546,0.42805819,-0.25070023,0.537241,0.41281157,-0.26260016,0.529922,0.41649618,-0.28692433,0.542067,0.47209892,-0.27948704,0.557523,0.45416352,-0.26741826,0.543832,0.45553897,-0.28044439,0.537541,0.46889663,-0.29955466,0.546229
0.42046002,-0.34864763,0.558944,0.41421766,-0.30854796,0.553394,0.39395454,-0.33058391,0.552634,0.37303175,-0.30064631,0.543082,0.35330099,-0.27104226,0.535819,0.34629077,-0.24916979,0.530924,0.38793544,-0.25702195,0.541693,0.3804121,-0.22245889,0.542742,0.37635851,-0.20531418,0.543267,0.37248833,-0.18984094,0.543744,0.4140895,-0.26205197,0.547359,0.40035022,-0.22980928,0.53369,0.41169116,-0.24834228,0.557257,0.41752806,-0.27386787,0.569599,0.43626211,-0.26903464,0.552386,0.41635648,-0.25767812,0.537592,0.40208233,-0.27070373,0.530023,0.40730871,-0.29497797,0.541873,0.46385913,-0.28324118,0.559132,0.44418501,-0.27316637,0.545079,0.44690416,-0.28556016,0.538622,0.4611414,-0.30416423,0.547097
0.40856259,-0.34719852,0.553513,0.39672809,-0.29998478,0.545475,0.38609021,-0.3281356,0.547105,0.35471135,-0.29697921,0.533282,0.33308815,-0.2679682,0.521597,0.32250951,-0.24551437,0.514336,0.36571945,-0.2477865,0.531839,0.35024913,-0.21389384,0.532196,0.34225574,-0.19817076,0.532375,0.33467168,-0.18325881,0.532538,0.39120225,-0.25083037,0.536734,0.37196954,-0.22154006,0.520714,0.38282077,-0.24959682,0.544118,0.39116743,-0.27598761,0.557259,0.41313147,-0.25629603,0.541292,0.39018702,-0.24847712,0.524574,0.37784729,-0.26521648,0.51602,0.38377945,-0.28962658,0.527274,0.44106707,-0.26893208,0.547799,0.40809475,-0.25903293,0.532028,0.38873743,-0.26549626,0.524782,0.38439267,-0.28131944,0.532763
0.41170259,-0.34675355,0.553631,0.39483758,-0.30119036,0.545544,0.38123967,-0.33152297,0.54584,0.35025964,-0.30370637,0.531775,0.32403357,-0.27592638,0.51743,0.3110221,-0.25408029,0.508702,0.35109656,-0.25324889,0.530197,0.33504591,-0.22417864,0.538579,0.32661234,-0.20901901,0.542769,0.31870584,-0.19487009,0.546579,0.37786096,-0.25339375,0.53675,0.35842357,-0.22215924,0.52055,0.3738251,-0.2508747,0.543443,0.38834135,-0.27599981,0.556489,0.40138075,-0.25636929,0.542675,0.38285979,-0.24527813,0.525255,0.37377784,-0.26059866,0.516343,0.38277484,-0.28678694,0.52705,0.432321,-0.26583209,0.550826,0.40957344,-0.26161972,0.534588,0.40791256,-0.27583062,0.527127,0.41923925,-0.28392609,0.534723
0.40832425,-0.34538365,0.550218,0.3907734,-0.30024723,0.541999,0.37891255,-0.33140848,0.543409,0.35098422,-0.30552625,0.532921,0.32588434,-0.27903013,0.521337,0.31340933,-0.2577844,0.514122,0.3471947,-0.25343917,0.527744,0.32518449,-0.22565862,0.533141,0.31484662,-0.21130689,0.535839,0.30509713,-0.19800011,0.538291,0.37291192,-0.25257688,0.533061,0.34952504,-0.220489,0.516828,0.36867138,-0.24987589,0.540088,0.38138866,-0.27524742,0.553261,0.39556112,-0.25471051,0.537978,0.37728667,-0.24294916,0.520926,0.36964726,-0.2587965,0.512202,0.37962703,-0.28390853,0.523267,0.4254842,-0.26310854,0.544937,0.3944854,-0.26098956,0.528914,0.39829312,-0.28468837,0.543906,0.40613519,-0.3014254,0.555359
0.40757317,-0.34602393,0.550007,0.38726306,-0.30187491,0.541181,0.37812636,-0.33250558,0.542976,0.34992132,-0.30866384,0.533422,0.32477287,-0.28296706,0.522981,0.31334158,-0.26069689,0.516382,0.33942188,-0.2578535,0.526215,0.31650399,-0.22977929,0.5295,0.30453177,-0.21513375,0.531142,0.293339,-0.20145328,0.532635,0.36714075,-0.25412281,0.531585,0.34178201,-0.22118652,0.514762,0.36136735,-0.24964788,0.537899,0.37508633,-0.27486276,0.551247,0.38975442,-0.25542702,0.536584,0.37080038,-0.24189675,0.518971,0.36477176,-0.25802054,0.50996,0.37679559,-0.28218748,0.520797,0.41997146,-0.26279067,0.543723,0.39112699,-0.26005333,0.527222,0.39513376,-0.2837867,0.542122,0.40324306,-0.30060527,0.553708
0.40311459,-0.3429244,0.544399,0.38416598,-0.30019755,0.537755,0.37442901,-0.33030123,0.538054,0.34417753,-0.30253185,0.52267,0.31891279,-0.27470166,0.508962,0.30906128,-0.25731065,0.509074,0.33802879,-0.25746452,0.525212,0.32082617,-0.23194497,0.53595,0.31383366,-0.21841886,0.542673,0.30687519,-0.20643263,0.548785,0.36338707,-0.25477668,0.530529,0.34128003,-0.22222598,0.515822,0.36198532,-0.24934173,0.539337,0.38003132,-0.27400075,0.552037,0.38585402,-0.25524529,0.535342,0.37075085,-0.24253317,0.519701,0.36687341,-0.25925449,0.511698,0.37733596,-0.28175058,0.523299,0.41754398,-0.26147682,0.541974,0.39048495,-0.25856717,0.527162,0.39500176,-0.28260437,0.542348,0.40137126,-0.29831985,0.553449
0.40614181,-0.34294709,0.544415,0.38915018,-0.29875984,0.53797,0.37640604,-0.32864143,0.537147,0.35249816,-0.30034217,0.518887,0.32739911,-0.27265878,0.505177,0.31521689,-0.25251815,0.499935,0.34700975,-0.25719663,0.524455,0.33315727,-0.2323652,0.538364,0.32589142,-0.21948344,0.545318,0.31909284,-0.20750695,0.551641,0.37209187,-0.25265612,0.530961,0.35198474,-0.22122999,0.516357,0.37462544,-0.24800577,0.539526,0.38695677,-0.27317847,0.552081,0.395362,-0.25458177,0.536739,0.38052308,-0.24342329,0.520809,0.37603757,-0.26247728,0.512659,0.38505479,-0.28272721,0.523937,0.42610568,-0.26251734,0.544501,0.40452451,-0.25836737,0.52954,0.40735707,-0.28108357,0.544482,0.4096001,-0.30132487,0.555542
0.40644104,-0.34337787,0.544004,0.3919527,-0.29707539,0.531073,0.38260927,-0.32388581,0.534162,0.35671085,-0.2921324,0.512131,0.32912665,-0.25866809,0.492374,0.31570332,-0.23924763,0.487591,0.34548224,-0.25027589,0.509703,0.33701043,-0.2202127,0.519937,0.33241308,-0.20435702,0.525055,0.33042914,-0.18590881,0.529707,0.37213568,-0.24894587,0.517013,0.3488252,-0.21414459,0.496144,0.37055379,-0.23700586,0.517737,0.38905045,-0.2588494,0.532064,0.39793518,-0.24929499,0.52388,0.36925859,-0.21457767,0.501906,0.37106654,-0.22288,0.490664,0.38604797,-0.24307399,0.499311,0.42914107,-0.26004854,0.533791,0.39982458,-0.24619674,0.513718,0.40621126,-0.26977377,0.527505,0.41373889,-0.29083185,0.539916
0.42342934,-0.34834596,0.541577,0.40734225,-0.30214568,0.526523,0.39722339,-0.33671331,0.537206,0.38759027,-0.3154357,0.537908,0.35910768,-0.28450895,0.522823,0.34998376,-0.26376575,0.518207,0.36239388,-0.25308417,0.51023,0.3640095,-0.22545832,0.527555,0.36450836,-0.21097754,0.536217,0.36420269,-0.19704,0.544092,0.38408591,-0.24969385,0.510154,0.3607132,-0.19944289,0.488152,0.37323081,-0.20894549,0.510522,0.38561011,-0.23155035,0.525503,0.4036043,-0.24998861,0.511085,0.37459056,-0.220646,0.490461,0.36261427,-0.2137806,0.479909,0.37466122,-0.23358093,0.489533,0.43031911,-0.25655343,0.514157,0.40227318,-0.25522235,0.49472,0.41043473,-0.27956196,0.509105,0.42278841,-0.29505287,0.521524
0.44171521,-0.35944296,0.551494,0.41985742,-0.30442914,0.530819,0.41041369,-0.34205782,0.540126,0.39518068,-0.3165742,0.528837,0.36005925,-0.28952673,0.513739,0.34332183,-0.27248629,0.508887,0.36570443,-0.24863256,0.501942,0.33745899,-0.22942267,0.477156,0.35554729,-0.25067716,0.492648,0.37766455,-0.273428,0.508617,0.39206591,-0.24850145,0.508338,0.36217318,-0.2134877,0.480389,0.37852328,-0.24417965,0.499831,0.39483786,-0.2681558,0.516043,0.41612691,-0.25160432,0.514965,0.37926554,-0.21725453,0.486758,0.37531263,-0.22568329,0.472327,0.38888625,-0.24349609,0.477936,0.44950281,-0.26198942,0.525593,0.41347049,-0.25450878,0.500168,0.41375347,-0.27529451,0.512431,0.42503845,-0.2943574,0.526134
0.42343491,-0.34791489,0.539831,0.41944086,-0.30075618,0.526826,0.40635303,-0.33608921,0.53502,0.39090001,-0.29909788,0.528528,0.37023522,-0.26564701,0.511334,0.36086789,-0.24216362,0.503146,0.39311712,-0.24278569,0.511496,0.37120929,-0.19886345,0.493448,0.36759576,-0.18093807,0.494146,0.37806342,-0.17715579,0.50978,0.41606558,-0.24736982,0.512684,0.40556225,-0.21599272,0.492389,0.42161862,-0.24822236,0.515303,0.43000586,-0.27213844,0.529837,0.43546521,-0.25424767,0.514521,0.42001544,-0.22111235,0.495058,0.41581978,-0.23156015,0.4851,0.42655979,-0.25525197,0.49537,0.45983874,-0.2687245,0.518411,0.43778388,-0.2643549,0.500034,0.44767335,-0.28846294,0.514789,0.45558035,-0.30978712,0.526977
0.42109627,-0.34437109,0.531767,0.42841409,-0.3010493,0.524558,0.40457488,-0.33224402,0.531422,0.40567606,-0.29774356,0.530844,0.39347365,-0.26368923,0.515648,0.39025545,-0.24073024,0.50929,0.41490019,-0.24767834,0.518873,0.40283167,-0.20570079,0.50748,0.39779638,-0.18601234,0.501783,0.40689008,-0.17422183,0.513684,0.43433401,-0.25395079,0.516719,0.43260056,-0.22574449,0.502559,0.44722736,-0.25655948,0.526582,0.45114096,-0.28008918,0.539244,0.44992107,-0.26188629,0.515422,0.44811131,-0.24528158,0.502718,0.43126179,-0.26025022,0.496218,0.43432122,-0.27802153,0.509028,0.46801078,-0.27694613,0.514805,0.45150807,-0.27333259,0.502025,0.4615583,-0.29847374,0.517661,0.46752941,-0.31925833,0.528221
0.43013345,-0.35013813,0.541818,0.43992883,-0.2981699,0.528542,0.41037164,-0.32696996,0.53422,0.40010366,-0.28608814,0.522426,0.38323118,-0.25502154,0.503519,0.37836482,-0.23188469,0.494184,0.41946176,-0.238069,0.509637,0.42675177,-0.20852746,0.519978,0.4333539,-0.19394543,0.525149,0.45006634,-0.18509191,0.542293,0.44334967,-0.24924019,0.514106,0.43775671,-0.221821,0.493131,0.45092016,-0.25196192,0.515525,0.45537063,-0.2756191,0.530141,0.46313738,-0.26145973,0.51866,0.45446964,-0.24311014,0.497503,0.43375526,-0.25545888,0.486679,0.43329344,-0.27104913,0.496116,0.48707108,-0.28224237,0.525841,0.46747047,-0.27237876,0.50624,0.47641119,-0.29690784,0.520594,0.4840154,-0.31898969,0.533059
0.43093007,-0.3497023,0.54211,0.43889377,-0.29753355,0.528043,0.41172155,-0.32558456,0.534514,0.4137787,-0.28434527,0.529399,0.40577998,-0.24871095,0.516617,0.40712443,-0.22684764,0.51036,0.41813011,-0.23710143,0.508563,0.4420978,-0.20604599,0.515386,0.45455722,-0.19030354,0.518798,0.47809484,-0.18027953,0.535411,0.44162028,-0.24829808,0.512747,0.43648137,-0.22107692,0.491059,0.44939967,-0.25125776,0.513309,0.4536068,-0.27473246,0.528137,0.46108003,-0.26052997,0.517118,0.45148569,-0.24440995,0.495396,0.43025107,-0.2566147,0.484283,0.42967616,-0.27101439,0.49348,0.48467323,-0.28132286,0.524183,0.46571815,-0.27106636,0.50408,0.47452729,-0.29547124,0.518331,0.48218599,-0.31756104,0.530932
0.43499695,-0.35260903,0.544536,0.44598938,-0.31162338,0.535397,0.41142249,-0.33048695,0.535422,0.41943176,-0.30191527,0.532277,0.40542774,-0.26687536,0.51906,0.41169094,-0.25065786,0.51088,0.43162353,-0.25127771,0.517679,0.46018414,-0.22270821,0.526587,0.47462776,-0.20816932,0.531041,0.48788429,-0.19482004,0.535126,0.45769599,-0.26500465,0.525461,0.46282346,-0.23295674,0.508181,0.48100073,-0.26544525,0.530408,0.48449888,-0.28976724,0.543635,0.47862402,-0.2792165,0.532465,0.47148271,-0.28846074,0.514846,0.45316329,-0.30051798,0.505831,0.45333169,-0.32192132,0.516076,0.50254747,-0.30201874,0.542048,0.49278146,-0.2975518,0.524721,0.49592734,-0.31812504,0.53898,0.49546185,-0.33187356,0.550607
0.43533008,-0.35336372,0.544841,0.44626212,-0.31244398,0.535311,0.41294575,-0.33132891,0.536424,0.42224408,-0.30451496,0.535353,0.40997915,-0.26983324,0.522135,0.41794207,-0.25521833,0.514814,0.43230973,-0.25235182,0.518149,0.46085131,-0.22380593,0.527087,0.47533599,-0.20930843,0.531617,0.4886505,-0.19600524,0.535794,0.45753416,-0.26559041,0.524948,0.46266828,-0.23462187,0.507763,0.48080924,-0.26775967,0.530331,0.48425786,-0.2919078,0.543631,0.47774106,-0.27938129,0.531169,0.47526647,-0.29128247,0.518565,0.45917771,-0.30500334,0.512116,0.46078773,-0.32772593,0.524109,0.5008111,-0.30164993,0.539864,0.49102074,-0.29701952,0.522464,0.49446143,-0.31768077,0.53694,0.4906215,-0.33431112,0.548676
0.44039818,-0.35578908,0.547943,0.46057798,-0.31141666,0.537068,0.42606711,-0.33483487,0.540946,0.42898949,-0.3026058,0.53627,0.4093997,-0.26859414,0.521461,0.41335405,-0.25018587,0.514874,0.44221377,-0.25089308,0.520645,0.46696865,-0.21942153,0.526041,0.47992528,-0.20355443,0.529124,0.48935486,-0.19343115,0.533918,0.46659089,-0.26190356,0.525243,0.46554466,-0.23610006,0.507317,0.4832125,-0.27055661,0.530295,0.48644751,-0.29320058,0.543991,0.48639346,-0.27396934,0.529743,0.48145308,-0.2798536,0.514659,0.46350505,-0.29396761,0.506941,0.46427635,-0.31705481,0.518486,0.50964808,-0.29442888,0.53655,0.48864758,-0.29417115,0.518705,0.49256008,-0.31527385,0.533448,0.49347046,-0.3308532,0.545445
0.44233278,-0.35635677,0.548229,0.45947781,-0.31093758,0.536226,0.42868495,-0.33536503,0.541232,0.42666463,-0.30410004,0.535656,0.41057009,-0.26955761,0.522971,0.41349901,-0.2506743,0.515587,0.43601762,-0.25142503,0.518978,0.46066587,-0.22183227,0.526353,0.47400935,-0.20502909,0.53004,0.48863525,-0.19187525,0.533739,0.46339173,-0.26040753,0.523173,0.45970932,-0.23383855,0.50428,0.47731025,-0.27002218,0.527099,0.48351525,-0.29268935,0.541095,0.48331153,-0.27195758,0.527417,0.47650477,-0.27725118,0.511083,0.45863278,-0.29113088,0.502726,0.45958185,-0.31401394,0.513824,0.50697436,-0.29191641,0.534062,0.48652058,-0.29034849,0.515486,0.49017421,-0.31242868,0.53011,0.49121299,-0.32917294,0.542318
0.43619004,-0.35116209,0.540658,0.44063743,-0.3034592,0.531573,0.41663031,-0.32913323,0.534129,0.40554237,-0.29041463,0.521649,0.39520398,-0.25808035,0.508825,0.38729164,-0.23559629,0.50235,0.42488986,-0.24395542,0.517024,0.44909538,-0.21146719,0.524442,0.46239106,-0.19565111,0.528152,0.47511734,-0.18116053,0.531523,0.44917971,-0.2533001,0.521694,0.45610389,-0.23827933,0.506135,0.46943454,-0.27451317,0.529497,0.47038077,-0.29711799,0.542458,0.46882945,-0.26550717,0.526135,0.47256153,-0.26455863,0.512737,0.45656472,-0.28105073,0.505883,0.45598126,-0.29583428,0.518098,0.49193787,-0.28599125,0.532637,0.48006042,-0.28589838,0.516128,0.49071839,-0.31262285,0.531126,0.49158624,-0.32889434,0.542751
0.44187636,-0.35517118,0.546137,0.43714557,-0.30064106,0.522816,0.42693362,-0.33473777,0.539459,0.41675723,-0.30258146,0.52042,0.38518648,-0.27136701,0.506,0.37428995,-0.25771797,0.506743,0.39918197,-0.24048776,0.497688,0.4173383,-0.20841521,0.508554,0.42651199,-0.19200122,0.513987,0.43277571,-0.17699113,0.518926,0.42133096,-0.24352936,0.497457,0.4016725,-0.23921191,0.467618,0.41512114,-0.27395403,0.486884,0.42621434,-0.28735487,0.503725,0.4406233,-0.24949587,0.498808,0.42199594,-0.24646702,0.470286,0.43343572,-0.27596187,0.486645,0.44467689,-0.28922549,0.504697,0.46616803,-0.2635842,0.503455,0.43709844,-0.25784476,0.478261,0.4391539,-0.27841179,0.490492,0.44938444,-0.28964354,0.504102
0.44129917,-0.35548116,0.544836,0.42081078,-0.30736003,0.52224,0.41428913,-0.3345159,0.53619,0.39345744,-0.30782691,0.523764,0.37052516,-0.2704494,0.502421,0.36622407,-0.24798046,0.495978,0.38016191,-0.24476295,0.495258,0.39177758,-0.21230738,0.506169,0.39870141,-0.19512421,0.511625,0.40714356,-0.17709255,0.516585,0.4038943,-0.24869361,0.49767,0.38386324,-0.19774779,0.468412,0.40627236,-0.21678011,0.487965,0.42092029,-0.24347436,0.504686,0.424426,-0.25536738,0.501147,0.41204275,-0.2540799,0.474522,0.42439264,-0.28491877,0.491196,0.43288118,-0.30523863,0.508608,0.45131879,-0.27023926,0.508249,0.43071891,-0.26741711,0.482627,0.44103132,-0.28751576,0.494998,0.45268754,-0.29577104,0.508812
0.43706778,-0.35309052,0.539266,0.41463894,-0.30621093,0.518354,0.40507096,-0.34299115,0.530526,0.3829311,-0.31164598,0.5213,0.36023462,-0.27705672,0.50281,0.35209112,-0.25320381,0.493177,0.36622384,-0.24800918,0.492486,0.3813996,-0.21862299,0.508483,0.38902982,-0.20345085,0.516482,0.39598941,-0.18938806,0.523753,0.39066394,-0.24982636,0.495614,0.37642639,-0.21180847,0.467764,0.39544641,-0.24159323,0.487931,0.40647682,-0.2673154,0.504336,0.41210068,-0.25470398,0.499569,0.39998591,-0.25225922,0.474756,0.41277357,-0.28324659,0.491976,0.42145258,-0.30472672,0.508874,0.44064978,-0.26730328,0.507024,0.41939974,-0.26386901,0.482335,0.42924418,-0.2872084,0.495125,0.4404056,-0.29901363,0.508773
0.42912648,-0.35637326,0.538109,0.40072406,-0.30705805,0.517866,0.40040171,-0.34321144,0.529702,0.37175989,-0.31145769,0.521018,0.34987007,-0.27749531,0.503638,0.34171227,-0.25356351,0.493905,0.35662,-0.24815267,0.492893,0.36623357,-0.2177682,0.507592,0.37102738,-0.2021096,0.514941,0.37537832,-0.1876114,0.521622,0.38093108,-0.24993576,0.495855,0.36465043,-0.21659967,0.468628,0.38588794,-0.24961349,0.489083,0.39833791,-0.2730605,0.505352,0.40217101,-0.25476362,0.499629,0.39030717,-0.25259952,0.475309,0.40260596,-0.28372669,0.492767,0.41090763,-0.30511922,0.509561,0.43031323,-0.26725173,0.506781,0.40946607,-0.26400845,0.482609,0.41905497,-0.28748185,0.495602,0.42996234,-0.29931253,0.509146
0.41175077,-0.36381567,0.536713,0.39191093,-0.31161915,0.518614,0.38517846,-0.34478398,0.527487,0.36207152,-0.31465293,0.519487,0.33990877,-0.28087676,0.501617,0.33166197,-0.25732853,0.492316,0.35195469,-0.25217432,0.494215,0.3519228,-0.22159828,0.507254,0.35177082,-0.20576579,0.513774,0.35155394,-0.19106076,0.5197,0.37708527,-0.25593551,0.498934,0.36664928,-0.21950028,0.473457,0.3883899,-0.25234419,0.494354,0.40023322,-0.27662383,0.51013,0.39869091,-0.2623252,0.504011,0.39422153,-0.25790449,0.482503,0.40709023,-0.28835979,0.500397,0.41323626,-0.31165767,0.51623,0.42661361,-0.27654781,0.512448,0.41059039,-0.27545619,0.489272,0.42192166,-0.29823043,0.502561,0.43325399,-0.31967575,0.51587
0.42043385,-0.36056387,0.536265,0.3961196,-0.31027719,0.519182,0.38851057,-0.3443534,0.526545,0.36387913,-0.31594747,0.520227,0.34225751,-0.28366236,0.504232,0.33332878,-0.26003198,0.494662,0.35062327,-0.25334697,0.494927,0.33910645,-0.22530675,0.505366,0.33480349,-0.21012874,0.510586,0.33094764,-0.19592129,0.515331,0.37663597,-0.25648716,0.500607,0.3616041,-0.22718708,0.475977,0.38162259,-0.26050404,0.496951,0.39298588,-0.28461671,0.512443,0.39920422,-0.26233332,0.506408,0.38852849,-0.2606889,0.486331,0.3983125,-0.29090795,0.504323,0.40540364,-0.30887416,0.519617,0.42865106,-0.2758689,0.515579,0.41032918,-0.27141723,0.492873,0.42611901,-0.29405366,0.506212,0.43698299,-0.31897631,0.519376
0.41646978,-0.36174513,0.534178,0.39152006,-0.31095471,0.517187,0.38690634,-0.34466708,0.52512,0.36336382,-0.31881491,0.519483,0.33669211,-0.28963069,0.502899,0.32536516,-0.26617981,0.493313,0.34138831,-0.25851897,0.493799,0.32850574,-0.23104981,0.503909,0.32264765,-0.21667851,0.508963,0.31695524,-0.20294433,0.513558,0.366798,-0.25806936,0.498711,0.35101039,-0.22792694,0.474232,0.37265487,-0.26073019,0.495449,0.38881453,-0.28448791,0.510964,0.38934624,-0.26087647,0.503874,0.37970166,-0.25830131,0.483448,0.39409712,-0.28932786,0.50162,0.40213456,-0.30799964,0.517127,0.41973482,-0.27060818,0.512268,0.40224421,-0.26752721,0.489832,0.41989086,-0.29173688,0.503345,0.43413092,-0.31331078,0.516482
0.41345971,-0.3601792,0.530875,0.3930084,-0.31344596,0.520141,0.38233176,-0.34538483,0.523197,0.3569227,-0.32009734,0.514293,0.3311111,-0.29471815,0.502054,0.32003282,-0.27327052,0.495021,0.3455747,-0.26476413,0.502997,0.32475284,-0.23564926,0.507205,0.31635649,-0.22092621,0.509309,0.30833727,-0.20691927,0.511222,0.37176152,-0.26403734,0.508469,0.35568269,-0.23775317,0.489809,0.37893724,-0.27220649,0.512539,0.39471526,-0.29497066,0.526424,0.3947608,-0.26643439,0.513679,0.3855097,-0.26483055,0.494336,0.39911695,-0.29694625,0.513544,0.41247624,-0.31778858,0.53242,0.425203,-0.27532433,0.521318,0.41092981,-0.27516453,0.503342,0.42805781,-0.29925476,0.517942,0.44396855,-0.32116441,0.52993
0.41513215,-0.36242863,0.533444,0.3896405,-0.31154353,0.516275,0.38227066,-0.3461732,0.523114,0.35634344,-0.32070422,0.514196,0.32781881,-0.29178773,0.497062,0.31487243,-0.26886415,0.487039,0.33677332,-0.25902945,0.491217,0.31889172,-0.23139628,0.498051,0.31148668,-0.21752541,0.501469,0.30432821,-0.20422887,0.504575,0.36309478,-0.25869617,0.497605,0.34336255,-0.22951788,0.472843,0.36490469,-0.26212632,0.493559,0.38078767,-0.28559127,0.509018,0.38660881,-0.26156891,0.503994,0.37244773,-0.25669836,0.478726,0.38494593,-0.28717753,0.496224,0.39700341,-0.3067756,0.513417,0.41849578,-0.27137587,0.513882,0.40001377,-0.2684658,0.490934,0.41596475,-0.29130366,0.504091,0.43264163,-0.31334184,0.517269
0.41609415,-0.36393751,0.534907,0.38939753,-0.31196889,0.516275,0.38274615,-0.347305,0.523673,0.3568956,-0.32153978,0.515034,0.33009463,-0.29072844,0.498096,0.31778061,-0.26767811,0.488373,0.33382637,-0.25907963,0.489051,0.31934677,-0.2318885,0.498359,0.31263575,-0.21828204,0.503013,0.30786168,-0.20400445,0.507244,0.36156224,-0.25817785,0.496014,0.34094991,-0.22845076,0.469877,0.36213809,-0.26058899,0.489881,0.37792338,-0.28417208,0.505614,0.38549034,-0.2612473,0.502972,0.36868681,-0.24998473,0.476252,0.38251343,-0.28425619,0.49314,0.3939678,-0.3052643,0.510675,0.41812464,-0.2713858,0.513731,0.39189252,-0.26383669,0.489603,0.3940252,-0.28549823,0.50226,0.4021831,-0.29947122,0.515659
0.41648142,-0.36476399,0.535291,0.38942394,-0.3121474,0.515843,0.38362392,-0.34842202,0.524385,0.35756813,-0.32194512,0.515352,0.33053051,-0.29086629,0.498189,0.3182506,-0.26778868,0.488501,0.33519778,-0.25818308,0.488422,0.32616791,-0.23047481,0.499263,0.32050784,-0.21677477,0.504683,0.31057205,-0.20523901,0.50961,0.36139165,-0.25775043,0.494696,0.34004804,-0.22789916,0.467862,0.36091833,-0.26008519,0.48782,0.37668519,-0.28374965,0.503792,0.38494736,-0.2606101,0.501142,0.36806707,-0.24773777,0.474001,0.38155377,-0.27858218,0.490864,0.39271542,-0.30368448,0.508559,0.41672348,-0.27065655,0.511393,0.39368333,-0.26430058,0.486855,0.39408222,-0.28375149,0.499479,0.40227008,-0.29811773,0.51301
0.40823745,-0.3587367,0.523208,0.39954692,-0.32145558,0.512854,0.38456436,-0.35141325,0.51858,0.37723888,-0.3347064,0.51775,0.34826502,-0.30246748,0.497626,0.33874196,-0.28218538,0.492188,0.35816303,-0.27340812,0.499682,0.34763373,-0.24270236,0.505321,0.34146663,-0.22807432,0.50814,0.3354161,-0.21472772,0.510703,0.38079529,-0.2712341,0.501595,0.35861201,-0.22283412,0.483705,0.36981343,-0.2329249,0.506712,0.38183776,-0.25536102,0.521106,0.40102677,-0.27237851,0.503853,0.38064927,-0.24254104,0.486373,0.39347345,-0.27269149,0.506277,0.40708121,-0.29789361,0.521286,0.42833495,-0.27975898,0.507903,0.4045338,-0.26785907,0.491267,0.40899371,-0.29061463,0.506424,0.41848645,-0.30396889,0.518156
0.40795057,-0.36119978,0.525146,0.39881237,-0.31993365,0.513116,0.38348326,-0.34949882,0.52011,0.37794643,-0.3329885,0.518217,0.34851228,-0.29977832,0.497204,0.3398004,-0.27952648,0.491976,0.3569842,-0.27022017,0.498226,0.35874481,-0.23723708,0.511101,0.35951984,-0.22105972,0.517539,0.36012222,-0.2058322,0.523391,0.37971367,-0.26853114,0.500035,0.35346519,-0.21903066,0.480566,0.36815222,-0.238131,0.503679,0.38269886,-0.26338574,0.517976,0.40001526,-0.27015651,0.502317,0.37928891,-0.24074824,0.483415,0.39242375,-0.27094592,0.503013,0.40623207,-0.29606409,0.518476,0.42741414,-0.27826004,0.506615,0.4055993,-0.26486165,0.488755,0.40835239,-0.28766453,0.503646,0.41708752,-0.30151908,0.515706
0.40847381,-0.36197963,0.524693,0.40161154,-0.31644684,0.513252,0.38470273,-0.34949982,0.520239,0.38322806,-0.32125899,0.521835,0.36086855,-0.28632702,0.505431,0.35849337,-0.26621744,0.503521,0.36913717,-0.262463,0.499497,0.3762959,-0.23174905,0.513688,0.37980276,-0.21555627,0.520784,0.38258148,-0.20028097,0.527234,0.39216911,-0.26297697,0.500811,0.37698907,-0.21339957,0.481975,0.39283223,-0.22828145,0.50526,0.40319623,-0.25282601,0.519382,0.41223175,-0.26645831,0.502649,0.3962076,-0.2417114,0.484491,0.40975443,-0.27181063,0.504242,0.42137736,-0.29695662,0.519465,0.43847587,-0.27681409,0.506336,0.41729788,-0.26253697,0.489081,0.42084819,-0.28534897,0.504103,0.42842285,-0.30163356,0.516001
0.41207724,-0.36388395,0.526953,0.4045948,-0.31236922,0.512879,0.38478416,-0.34842076,0.519444,0.38068673,-0.31737296,0.519561,0.36035164,-0.28317988,0.503791,0.36653446,-0.26560563,0.496173,0.36572707,-0.2538395,0.493499,0.35856677,-0.22245319,0.48002,0.35506051,-0.20612483,0.473281,0.35192048,-0.1908659,0.467154,0.39033534,-0.25914328,0.497575,0.37094883,-0.20848446,0.475891,0.38834756,-0.21904641,0.498161,0.40021041,-0.24647514,0.512995,0.41229795,-0.26440944,0.501857,0.40063934,-0.23962067,0.480175,0.40841498,-0.26959331,0.499024,0.41892427,-0.29478458,0.515309,0.44110119,-0.27716492,0.508817,0.42455493,-0.26151016,0.48874,0.42594928,-0.28215049,0.503006,0.42904206,-0.29988716,0.515604
0.41388061,-0.36409881,0.526243,0.42120117,-0.31314497,0.513056,0.39678769,-0.34581019,0.520198,0.39542962,-0.3143189,0.519193,0.37694226,-0.27929168,0.502876,0.37408406,-0.25720154,0.496445,0.3891454,-0.25564469,0.496098,0.40610163,-0.22485702,0.509966,0.41469756,-0.20872807,0.5169,0.42257946,-0.19364096,0.523203,0.41318524,-0.26042588,0.498717,0.39714214,-0.2100825,0.478044,0.41906641,-0.22499206,0.500788,0.43185961,-0.24981856,0.515405,0.43366237,-0.26751602,0.501743,0.42431279,-0.24945257,0.481465,0.43457066,-0.27961575,0.50074,0.44073043,-0.30378155,0.516627,0.45963993,-0.28236154,0.507082,0.44061395,-0.27080566,0.488101,0.44304594,-0.29079787,0.502717,0.44599477,-0.30802367,0.515064
0.41573231,-0.36051404,0.51826,0.42209837,-0.31120784,0.511134,0.40316759,-0.33961703,0.513729,0.39289867,-0.31017577,0.513124,0.37352369,-0.27533829,0.49638,0.37088862,-0.25379825,0.49091,0.39456202,-0.25740324,0.500438,0.41180447,-0.22354443,0.504594,0.41969847,-0.20603789,0.506672,0.42704033,-0.18963066,0.508561,0.41886276,-0.26249366,0.503385,0.41115468,-0.214471,0.488462,0.43730703,-0.23080561,0.512412,0.44908115,-0.25526697,0.525328,0.43921602,-0.26960384,0.506281,0.44377303,-0.24050623,0.521775,0.44966337,-0.22405454,0.529703,0.46911956,-0.21919482,0.548818,0.46437188,-0.28398205,0.510676,0.44967904,-0.27594775,0.496174,0.46070772,-0.29824178,0.511677,0.46537035,-0.31972344,0.522792
0.41787125,-0.36155152,0.521422,0.42811842,-0.31057068,0.513663,0.40463314,-0.33797185,0.514727,0.40689369,-0.30250299,0.516663,0.39376003,-0.26683306,0.503834,0.39832905,-0.24693372,0.499847,0.40666165,-0.25182529,0.499883,0.42651595,-0.22018678,0.502535,0.43687588,-0.2037033,0.50386,0.44655953,-0.18824444,0.505066,0.4318944,-0.26121833,0.505226,0.43004656,-0.21677193,0.489435,0.45455111,-0.23935942,0.512766,0.46256337,-0.2646528,0.525801,0.45275091,-0.27186735,0.510133,0.45665739,-0.23373838,0.515167,0.45926589,-0.21380918,0.517742,0.47514921,-0.20109659,0.5353,0.47792953,-0.29051096,0.517023,0.46571469,-0.28047735,0.501345,0.47423968,-0.30027838,0.516392,0.47363825,-0.32177486,0.527743
0.41909497,-0.36110377,0.521771,0.42864443,-0.309713,0.513056,0.40444387,-0.33594766,0.513848,0.40523412,-0.29997102,0.512964,0.39782945,-0.26415167,0.496501,0.39800269,-0.24426042,0.494533,0.40654165,-0.25000818,0.49709,0.43643645,-0.22119616,0.508169,0.45090355,-0.2063842,0.513708,0.46526922,-0.1935518,0.518744,0.43238708,-0.26051953,0.503579,0.43564619,-0.22178659,0.486778,0.45821221,-0.25025279,0.509583,0.46410793,-0.27505739,0.522818,0.45378332,-0.27212757,0.509493,0.46469512,-0.23855052,0.522888,0.4717564,-0.22234496,0.529741,0.47771591,-0.20346854,0.535971,0.47964337,-0.29200538,0.517713,0.46739075,-0.28676178,0.50101,0.47641083,-0.30841615,0.515676,0.48157621,-0.32947336,0.527241
0.42115984,-0.36036516,0.521433,0.42895994,-0.30914686,0.512426,0.40443884,-0.33470423,0.513174,0.4046783,-0.29891193,0.511288,0.39673562,-0.26309207,0.494537,0.39679353,-0.24277671,0.492101,0.40664588,-0.24923971,0.495838,0.43619565,-0.22064518,0.507099,0.45075061,-0.20586003,0.512729,0.46518202,-0.19303431,0.517847,0.43266776,-0.2600918,0.502631,0.43516372,-0.22112155,0.485528,0.45756314,-0.24948036,0.508171,0.46354297,-0.27432144,0.521465,0.45421639,-0.27199335,0.508813,0.46597812,-0.23956701,0.523649,0.47317182,-0.22352004,0.53124,0.48019325,-0.20535984,0.53814,0.48026597,-0.29225368,0.517393,0.46753854,-0.28646594,0.500393,0.47625588,-0.30836074,0.514943,0.48128946,-0.32967659,0.526568
0.42141314,-0.35957507,0.52095,0.42905872,-0.30874202,0.51194,0.40431912,-0.3337789,0.512577,0.40443511,-0.29840814,0.510494,0.39623641,-0.26264984,0.493715,0.39630177,-0.24210473,0.491026,0.40669875,-0.24885599,0.495213,0.43598006,-0.22039306,0.506585,0.45058397,-0.20563242,0.512271,0.46505612,-0.1928215,0.51744,0.43279637,-0.2598707,0.502143,0.43492998,-0.22086283,0.48503,0.45727619,-0.24918442,0.507622,0.46325594,-0.27401773,0.520903,0.45440309,-0.27190818,0.508439,0.46641662,-0.23997061,0.523802,0.47357541,-0.22387982,0.531663,0.48105976,-0.20614551,0.538808,0.48050568,-0.29233415,0.517155,0.4675263,-0.28632939,0.500121,0.47614547,-0.30830426,0.514635,0.48111543,-0.3296904,0.526258
0.42295572,-0.35876564,0.521404,0.42930343,-0.30890449,0.511844,0.40471137,-0.33377324,0.512753,0.40440981,-0.29855517,0.510134,0.3960206,-0.26299889,0.493852,0.39567799,-0.24205049,0.490674,0.4063338,-0.24872964,0.494379,0.43524094,-0.22038656,0.505621,0.44988917,-0.20566803,0.511242,0.46431361,-0.19320419,0.516352,0.43249795,-0.25986676,0.501449,0.43499239,-0.22811616,0.483799,0.4551874,-0.26052832,0.506234,0.46030963,-0.28406446,0.51966,0.45419054,-0.27202441,0.507896,0.46734344,-0.24134184,0.524089,0.47401543,-0.22479827,0.532374,0.48253362,-0.20843929,0.539906,0.48045941,-0.29263819,0.516865,0.46697916,-0.28638144,0.499379,0.47545996,-0.30840388,0.513779,0.48049428,-0.32992084,0.525516
0.4269277,-0.3595855,0.523932,0.43861591,-0.31548707,0.522563,0.41148223,-0.33893313,0.520819,0.4092912,-0.30313385,0.51671,0.399221,-0.27694379,0.510052,0.4028655,-0.25391687,0.508548,0.42378706,-0.26553997,0.517793,0.43686469,-0.23220861,0.518224,0.44365355,-0.2148088,0.51844,0.45421271,-0.19596395,0.518636,0.44820774,-0.27312106,0.521076,0.44554281,-0.2482308,0.511769,0.4665244,-0.27539355,0.536339,0.47327465,-0.30135548,0.547417,0.46713928,-0.28055347,0.523866,0.46009152,-0.2730791,0.513876,0.45596703,-0.26831693,0.508765,0.45967759,-0.29153535,0.522564,0.49053127,-0.29851508,0.527389,0.47992566,-0.28958409,0.517299,0.49346051,-0.31821068,0.5333,0.49791346,-0.338966,0.543055
0.42388837,-0.35527102,0.518285,0.43584314,-0.3151102,0.521026,0.40949961,-0.33756988,0.51824,0.40535599,-0.3084631,0.516239,0.39004625,-0.27828484,0.504142,0.39282361,-0.25574903,0.502398,0.41646603,-0.26975901,0.522974,0.42357721,-0.2313912,0.518402,0.44036346,-0.2182765,0.531281,0.45603821,-0.20510796,0.54299,0.43956028,-0.27437178,0.524006,0.44330311,-0.2521388,0.519123,0.47052976,-0.27990616,0.544167,0.47653881,-0.30543489,0.553794,0.45828134,-0.28066598,0.524674,0.46146885,-0.26879803,0.519509,0.46354485,-0.2621989,0.516866,0.47291879,-0.2849011,0.532264,0.48155277,-0.29329705,0.525118,0.47604186,-0.28958221,0.519053,0.49287534,-0.31339118,0.535472,0.49792647,-0.33695676,0.543973
0.42505506,-0.35546424,0.518606,0.42862838,-0.31711682,0.52149,0.40809912,-0.33741416,0.517615,0.39184276,-0.3092264,0.512425,0.37771248,-0.27775016,0.501539,0.37523983,-0.25605411,0.496393,0.40689117,-0.26946139,0.522397,0.41345048,-0.23064685,0.517984,0.4310086,-0.22051424,0.53137,0.44651552,-0.20793164,0.543538,0.43092784,-0.27469642,0.524626,0.43404705,-0.25242877,0.51972,0.45746416,-0.28064707,0.544646,0.463855,-0.30625393,0.554245,0.45048091,-0.28151973,0.52627,0.45268167,-0.26941116,0.520694,0.45420676,-0.2626935,0.517841,0.46279486,-0.28531432,0.533036,0.47348743,-0.29473184,0.527865,0.47090359,-0.2903774,0.521529,0.4836993,-0.31398803,0.537854,0.49295228,-0.33555075,0.546413
0.42603705,-0.35633433,0.520135,0.42846577,-0.31750534,0.522596,0.41019352,-0.33918524,0.520635,0.40536739,-0.31343223,0.512937,0.3862778,-0.28429717,0.51077,0.38646501,-0.27493424,0.521448,0.40883592,-0.27150165,0.525001,0.41401804,-0.23391714,0.520361,0.42525631,-0.2203962,0.533015,0.43778392,-0.20689392,0.544519,0.43140866,-0.27558884,0.525273,0.43398067,-0.25450658,0.52026,0.45747062,-0.28366275,0.545336,0.46411781,-0.30928456,0.555021,0.44967927,-0.28145645,0.525334,0.45208675,-0.26920508,0.520303,0.45363795,-0.26258084,0.517729,0.46262096,-0.28533386,0.533195,0.47109484,-0.29348475,0.525088,0.4673661,-0.28887434,0.519054,0.48130179,-0.31277816,0.535501,0.49054441,-0.33385119,0.544002
0.42586495,-0.35689021,0.521017,0.42620526,-0.31808625,0.523166,0.41001523,-0.33971934,0.521519,0.40602728,-0.31394246,0.513772,0.38768956,-0.28587328,0.512206,0.38737809,-0.27558381,0.52268,0.40907596,-0.27191191,0.525345,0.41332421,-0.23393898,0.520449,0.42515499,-0.22034369,0.532888,0.43752503,-0.20677157,0.544197,0.43158148,-0.27589464,0.525504,0.43374463,-0.25507526,0.520184,0.45720997,-0.28450625,0.545253,0.46401082,-0.31016513,0.555047,0.44981437,-0.28168696,0.525492,0.45192533,-0.26915831,0.520215,0.45329364,-0.2624537,0.517515,0.46227407,-0.28516217,0.532915,0.47122722,-0.29364802,0.525199,0.46480801,-0.2885756,0.518951,0.48073512,-0.31303468,0.53539,0.49157901,-0.33388364,0.543964
0.4242841,-0.35676457,0.519899,0.42395992,-0.31752808,0.521272,0.40663555,-0.33864306,0.518503,0.39722368,-0.31758486,0.508312,0.37905632,-0.28920028,0.503921,0.37635418,-0.27563717,0.512519,0.40374033,-0.27050815,0.520582,0.39714781,-0.23140802,0.513966,0.40707827,-0.21755117,0.525491,0.41625236,-0.20405745,0.535967,0.42824983,-0.27483224,0.522764,0.42522022,-0.25947065,0.516337,0.44314718,-0.29576805,0.541229,0.44776088,-0.31899206,0.551367,0.44797113,-0.28137104,0.524468,0.44342188,-0.27332975,0.5175,0.4426676,-0.2690996,0.513935,0.4504656,-0.29391993,0.528748,0.47146259,-0.29436633,0.526332,0.46380243,-0.28802406,0.518782,0.47966557,-0.31247157,0.535059,0.48903063,-0.33280564,0.544027
0.42271213,-0.35679944,0.518952,0.42119801,-0.3163955,0.518829,0.40265477,-0.34126454,0.518268,0.39657482,-0.3173172,0.508696,0.37854921,-0.28904296,0.504616,0.37550452,-0.27542883,0.512877,0.39757977,-0.27039294,0.517909,0.39351711,-0.23001218,0.510725,0.40237007,-0.21578695,0.521068,0.41054398,-0.20203508,0.530471,0.42074756,-0.27382413,0.518694,0.41949156,-0.25674458,0.510969,0.43734804,-0.29283361,0.535908,0.44251014,-0.31617862,0.546531,0.43980152,-0.27927125,0.519348,0.43712843,-0.2701542,0.511633,0.43580053,-0.26573865,0.507685,0.44341035,-0.29028959,0.522357,0.46272729,-0.29105181,0.520148,0.45386572,-0.28268441,0.511851,0.46999294,-0.30766951,0.528157,0.48223795,-0.32891311,0.5374
0.42134589,-0.35706526,0.518407,0.42044194,-0.31645459,0.518536,0.40159277,-0.34139662,0.517827,0.3960456,-0.31697748,0.508422,0.37803524,-0.28872699,0.504387,0.37504797,-0.2752318,0.512758,0.39728961,-0.27042284,0.517928,0.39333734,-0.2301477,0.510979,0.40212041,-0.21590449,0.521298,0.41022422,-0.2021373,0.530678,0.42043282,-0.27381378,0.518677,0.41925406,-0.25685667,0.511211,0.43707839,-0.29296624,0.536167,0.44220729,-0.31627236,0.546702,0.43945292,-0.27921845,0.519284,0.43686581,-0.27022735,0.51182,0.43557675,-0.26587454,0.508001,0.44320659,-0.29048203,0.52275,0.46230995,-0.29092972,0.519996,0.4535301,-0.28268029,0.511914,0.4696766,-0.30782905,0.528237,0.48168958,-0.32902698,0.53741
0.42569752,-0.3610124,0.523095,0.41528012,-0.311037,0.509794,0.40619324,-0.34396573,0.521456,0.3869017,-0.32302373,0.517079,0.36105149,-0.29297845,0.500342,0.35589701,-0.27424295,0.485365,0.38013847,-0.26204888,0.49809,0.36986096,-0.21663885,0.481049,0.37858795,-0.2033122,0.491531,0.38658117,-0.19035944,0.50106,0.40021044,-0.25935233,0.495329,0.37908234,-0.23326954,0.475499,0.39614942,-0.26572355,0.4981,0.40915845,-0.29194932,0.512368,0.41789639,-0.26026065,0.493937,0.40035218,-0.24398701,0.476196,0.38958691,-0.25987875,0.467119,0.39786152,-0.27934345,0.477683,0.4415753,-0.26759062,0.493996,0.4164815,-0.2655101,0.476879,0.43027846,-0.2906145,0.491491,0.4479789,-0.30668411,0.503181
0.42696025,-0.36215648,0.52398,0.41572024,-0.31130259,0.509989,0.40663478,-0.34564233,0.522188,0.38723841,-0.32330485,0.517529,0.36145992,-0.29330987,0.500908,0.3562959,-0.27455032,0.485909,0.37976145,-0.26178898,0.497596,0.36887148,-0.21619591,0.480103,0.37762676,-0.20282156,0.490726,0.38561395,-0.18980687,0.500384,0.39976282,-0.25906226,0.494775,0.37813762,-0.2326882,0.474314,0.3950479,-0.26498468,0.496715,0.4081842,-0.29125416,0.511148,0.41742429,-0.25996663,0.493379,0.39941057,-0.24341316,0.475076,0.38841261,-0.25909542,0.465711,0.39645725,-0.2783575,0.475997,0.44115249,-0.2673344,0.493523,0.41564745,-0.26497839,0.475924,0.42931808,-0.28996585,0.490394,0.44645174,-0.30521451,0.502199
0.42407305,-0.36031295,0.520317,0.41379857,-0.31081316,0.508577,0.40422465,-0.34513703,0.519614,0.38786356,-0.32301358,0.518016,0.36274798,-0.29259551,0.50161,0.36170924,-0.27089977,0.494078,0.38104069,-0.26252593,0.499149,0.37173018,-0.21790682,0.483975,0.37936261,-0.20376314,0.493205,0.38624755,-0.19023999,0.501597,0.40071715,-0.25964627,0.495811,0.38069482,-0.23591917,0.47758,0.40594719,-0.2744582,0.500479,0.4165928,-0.29721879,0.514261,0.41792936,-0.26035379,0.493841,0.40184246,-0.25162229,0.477765,0.3916009,-0.26845241,0.46954,0.40041048,-0.282696,0.480743,0.44076069,-0.2673223,0.493005,0.41706897,-0.2657929,0.477281,0.43084289,-0.29110791,0.492124,0.44852567,-0.30631671,0.503413
0.42464874,-0.36119375,0.520865,0.41418641,-0.31100999,0.508732,0.40439861,-0.34628264,0.520058,0.3885571,-0.32318453,0.518768,0.36397058,-0.29270329,0.50276,0.36250893,-0.27165761,0.4952,0.38089072,-0.2623502,0.498891,0.37128294,-0.21766998,0.483501,0.37875353,-0.20344261,0.492573,0.38543416,-0.18992633,0.500821,0.40055594,-0.25952461,0.495539,0.38016136,-0.23641759,0.47694,0.40477148,-0.27456004,0.499738,0.41645143,-0.29667741,0.513622,0.41776806,-0.26028961,0.493583,0.40134454,-0.2513105,0.477173,0.39096456,-0.26801618,0.468777,0.39964686,-0.2829328,0.479826,0.44062644,-0.2673534,0.492815,0.41677105,-0.2655573,0.476805,0.43036824,-0.2908433,0.491576,0.44764317,-0.30582666,0.502938
0.42691122,-0.36313498,0.522293,0.41478501,-0.31205431,0.509185,0.40559076,-0.34792631,0.520581,0.38818529,-0.32352819,0.518168,0.36404574,-0.29313465,0.502541,0.35921625,-0.27371239,0.491001,0.3798831,-0.26244761,0.497537,0.36905466,-0.21688794,0.480681,0.37617415,-0.20315468,0.489633,0.38321545,-0.19002523,0.497771,0.40009959,-0.26005452,0.494933,0.3781582,-0.23246782,0.475251,0.3968345,-0.26542608,0.49793,0.41360708,-0.29396998,0.512168,0.41786363,-0.2612097,0.493657,0.4003608,-0.25216018,0.476001,0.38941908,-0.26835551,0.466967,0.39758942,-0.28610413,0.477603,0.4415544,-0.2688302,0.49383,0.41683125,-0.26644287,0.476792,0.43032574,-0.29167021,0.491455,0.4475002,-0.30606794,0.503137
