sluyters/QuantumLeap/src/datasets/gesture/HandGestureDataset_SHREC2017_csv/Gesture2/finger_2/subject_23_essai_3_skeletons_world.csv
Wrist_x,Wrist_y,Wrist_z,Palm_x,Palm_y,Palm_z,thumb_base_x,thumb_base_y,thumb_base_z,thumb_first_joint_x,thumb_first_joint_y,thumb_first_joint_z,thumb_second_joint_x,thumb_second_joint_y,thumb_second_joint_z,thumb_tip_x,thumb_tip_y,thumb_tip_z,index_base_x,index_base_y,index_base_z,index_first_joint_x,index_first_joint_y,index_first_joint_z,index_second_joint_x,index_second_joint_y,index_second_joint_z,index_tip_x,index_tip_y,index_tip_z,middle_base_x,middle_base_y,middle_base_z,middle_first_joint_x,middle_first_joint_y,middle_first_joint_z,middle_second_joint_x,middle_second_joint_y,middle_second_joint_z,middle_tip_x,middle_tip_y,middle_tip_z,ring_base_x,ring_base_y,ring_base_z,ring_first_joint_x,ring_first_joint_y,ring_first_joint_z,ring_second_joint_x,ring_second_joint_y,ring_second_joint_z,ring_tip_x,ring_tip_y,ring_tip_z,pinky_base_x,pinky_base_y,pinky_base_z,pinky_first_joint_x,pinky_first_joint_y,pinky_first_joint_z,pinky_second_joint_x,pinky_second_joint_y,pinky_second_joint_z,pinky_tip_x,pinky_tip_y,pinky_tip_z,r
0.344664269,-0.230371959,0.420135,0.341972672,-0.17816207,0.411436,0.330873357,-0.217076266,0.420478,0.32285342,-0.192791038,0.423962,0.306539937,-0.169109794,0.416738,0.30009325,-0.14905873,0.413615,0.31701748,-0.145815684,0.4077,0.289022678,-0.146479468,0.396563,0.297957585,-0.17068168,0.413711,0.313755036,-0.191270167,0.424956,0.332216511,-0.143429814,0.404799,0.301040173,-0.119860697,0.390881,0.30640994,-0.137047178,0.412232,0.315358035,-0.162239437,0.423968,0.34584682,-0.14451077,0.403011,0.315845269,-0.140830932,0.391022,0.327287347,-0.167576459,0.408826,0.342927841,-0.188112891,0.42078,0.366325475,-0.15356488,0.402011,0.33167734,-0.149007628,0.390577,0.336650074,-0.167991968,0.403546,0.350560407,-0.183370391,0.412599
0.348310431,-0.233170275,0.425358,0.338879931,-0.192183408,0.415875,0.331249963,-0.219255567,0.422883,0.309065651,-0.192366304,0.422043,0.291022456,-0.16230391,0.413706,0.286031866,-0.141066132,0.408841,0.319435013,-0.163135873,0.408272,0.297327441,-0.14526557,0.394474,0.3099321,-0.168073115,0.411631,0.324164987,-0.186866077,0.42393,0.338083553,-0.163245062,0.40864,0.316309353,-0.127195109,0.393412,0.326813671,-0.135515352,0.414871,0.331350157,-0.14261476,0.427114,0.35415479,-0.165881529,0.409597,0.335215592,-0.125967346,0.395375,0.346017636,-0.128519688,0.413215,0.354141547,-0.138212891,0.426084,0.37453266,-0.174090727,0.411954,0.358984477,-0.139944408,0.398861,0.365407181,-0.142614664,0.411832,0.371322849,-0.156783404,0.42147
0.344939987,-0.23226868,0.423668,0.345464186,-0.195472576,0.424963,0.328209365,-0.219432899,0.422799,0.305832644,-0.186645935,0.421287,0.296685141,-0.160646239,0.423302,0.296088349,-0.142727094,0.425004,0.332140743,-0.169331551,0.424505,0.318080615,-0.143719863,0.418363,0.326401864,-0.136682829,0.436342,0.328612949,-0.128581738,0.445949,0.352392651,-0.170248862,0.425951,0.339338825,-0.134624076,0.420146,0.35222168,-0.135332608,0.442709,0.353982216,-0.133937547,0.451891,0.369140475,-0.173269288,0.427052,0.356505551,-0.135086999,0.421059,0.350071258,-0.128823571,0.417993,0.357822066,-0.12409532,0.431204,0.388944919,-0.181380075,0.428191,0.379408781,-0.148188235,0.421928,0.375289337,-0.133688237,0.42029,0.371466135,-0.121199202,0.418846
0.343629822,-0.230186108,0.421334,0.343489223,-0.189675675,0.421322,0.329358084,-0.218218983,0.421578,0.305809074,-0.188766139,0.419659,0.293901973,-0.162381891,0.419736,0.291992429,-0.143316491,0.420202,0.325620822,-0.16013702,0.421618,0.31136613,-0.13471684,0.4155,0.31681536,-0.126139297,0.430101,0.322379273,-0.117102656,0.445196,0.345158594,-0.159913793,0.421313,0.331245715,-0.122643778,0.414596,0.321658734,-0.108367273,0.410677,0.326205972,-0.101102588,0.423109,0.361499658,-0.162348203,0.421062,0.347678454,-0.125680905,0.414795,0.340120524,-0.10834696,0.411588,0.333036312,-0.0918708634,0.408673,0.381246593,-0.170366144,0.420766,0.36884052,-0.137577751,0.414166,0.363150816,-0.122410044,0.411173,0.358559283,-0.109096799,0.409037
0.344112316,-0.230117832,0.421908,0.329575342,-0.180275856,0.407334,0.326536259,-0.216702457,0.418482,0.303567766,-0.188541586,0.415741,0.284825462,-0.159260067,0.408299,0.280475491,-0.13937037,0.406091,0.299770289,-0.146385574,0.396116,0.280334596,-0.11198383,0.377888,0.270530784,-0.0943614579,0.368774,0.273330526,-0.0819787472,0.376958,0.31966808,-0.145108849,0.396215,0.298480979,-0.104128366,0.37667,0.284743516,-0.0839616224,0.365268,0.287148963,-0.0729563185,0.373325,0.337448902,-0.147126322,0.397301,0.31886444,-0.105465634,0.378773,0.30849804,-0.0859819369,0.369293,0.299045526,-0.0680672969,0.360675,0.363684839,-0.153837507,0.400467,0.347556303,-0.119561301,0.384936,0.341268772,-0.103232228,0.3778,0.337372074,-0.0893759763,0.373332
0.342176867,-0.228312858,0.419323,0.326763362,-0.177909303,0.403375,0.323829642,-0.215113745,0.415359,0.298913682,-0.18501794,0.410162,0.277189402,-0.155638656,0.400243,0.27516937,-0.13691835,0.399626,0.295561385,-0.142926849,0.39083,0.2752399,-0.107411909,0.371518,0.264758681,-0.0900851295,0.361861,0.266680125,-0.0789042399,0.369534,0.315706223,-0.141907791,0.391205,0.293577406,-0.100477044,0.370497,0.279957647,-0.0796448364,0.358418,0.282005504,-0.0703333759,0.365951,0.333801045,-0.144223064,0.392615,0.315757515,-0.101926847,0.37295,0.305874014,-0.0819433419,0.362889,0.296333211,-0.0654800405,0.355276,0.359651571,-0.152279562,0.396342,0.344029897,-0.116838428,0.379901,0.337277781,-0.100839802,0.372346,0.333332954,-0.0873185633,0.367902
0.332663906,-0.221157083,0.407526,0.313904045,-0.167308552,0.385939,0.313523457,-0.208801853,0.403155,0.286420497,-0.175763398,0.392971,0.258386563,-0.147987416,0.379428,0.247238699,-0.127841902,0.372073,0.278806752,-0.127624937,0.37028,0.254160149,-0.0918434328,0.347013,0.241784604,-0.0737504243,0.335379,0.230571183,-0.057184321,0.324904,0.298833625,-0.126671884,0.369592,0.274935151,-0.0867695267,0.344406,0.260749743,-0.0644270434,0.329715,0.250417195,-0.0493612458,0.319221,0.317096855,-0.129335076,0.370521,0.298421831,-0.0882069622,0.350186,0.288789629,-0.0674589895,0.339782,0.2800297,-0.0485138413,0.330324,0.34208465,-0.139106065,0.374409,0.33565944,-0.10414868,0.362883,0.332427053,-0.0893899202,0.357587,0.326864438,-0.0801092793,0.354919
0.325294287,-0.214873417,0.398454,0.305198525,-0.156732903,0.370326,0.303325801,-0.203780044,0.393945,0.278522077,-0.169380411,0.381447,0.249624611,-0.141285412,0.366793,0.239087579,-0.123548931,0.361014,0.267081816,-0.118591157,0.351394,0.237498632,-0.0857328211,0.323561,0.222664081,-0.069183188,0.309645,0.209147317,-0.0540542261,0.296993,0.285682352,-0.118516678,0.349026,0.256645081,-0.0827961507,0.318693,0.239669473,-0.0617379488,0.300998,0.227523905,-0.0465735816,0.288359,0.303045926,-0.121936885,0.349026,0.279663592,-0.0832511303,0.32219,0.267700421,-0.0634055211,0.30846,0.256824549,-0.0453272293,0.295978,0.327451307,-0.132625199,0.352657,0.314132674,-0.0954635216,0.331134,0.306205978,-0.0852764033,0.321245,0.299237872,-0.0761542802,0.312519
0.313558802,-0.203793014,0.38262,0.288906003,-0.142696652,0.350227,0.292996151,-0.185576325,0.375561,0.256166061,-0.148877035,0.357943,0.225875735,-0.126549341,0.341428,0.210146894,-0.106429688,0.330098,0.24936673,-0.106234967,0.32611,0.219196845,-0.0717049024,0.297167,0.204089346,-0.0545185032,0.282696,0.190341056,-0.0388518269,0.26954,0.270169572,-0.107576321,0.325698,0.240459199,-0.0721276758,0.292079,0.223122857,-0.051377584,0.272468,0.210722863,-0.0374262111,0.25846,0.289060112,-0.111887744,0.327603,0.266528228,-0.0735406406,0.298937,0.255035393,-0.0539210947,0.284309,0.244681428,-0.0360909222,0.271114,0.31477368,-0.123009755,0.334044,0.302522823,-0.0880984444,0.309246,0.29663148,-0.0799971145,0.297853,0.291503978,-0.0727818956,0.287799
0.306262675,-0.185808295,0.371569,0.27845637,-0.136403909,0.336275,0.28330277,-0.173688514,0.36353,0.24585052,-0.139827475,0.343548,0.214133412,-0.121100807,0.324499,0.196875561,-0.101868127,0.311075,0.238813316,-0.101960414,0.309567,0.206722961,-0.0693283823,0.277727,0.190681481,-0.0530251828,0.261806,0.17606692,-0.0399721813,0.247333,0.259974324,-0.103478733,0.30955,0.230147661,-0.068824445,0.274166,0.212749101,-0.048867014,0.253525,0.200321977,-0.0346000031,0.238782,0.279177985,-0.107678212,0.311979,0.256184551,-0.0703928428,0.281295,0.244596404,-0.0514654774,0.265786,0.234182144,-0.0342683313,0.251815,0.305309393,-0.118162793,0.319417,0.292630557,-0.0854183022,0.292512,0.286394286,-0.079641846,0.280151,0.280943235,-0.0745266144,0.269244
0.296411125,-0.178100568,0.35988,0.268946182,-0.13202343,0.321639,0.272331256,-0.163329783,0.350992,0.23510027,-0.133187141,0.330852,0.202268487,-0.117957672,0.311835,0.188114454,-0.0999376738,0.300831,0.227313542,-0.100536627,0.29248,0.196572633,-0.0642779137,0.259882,0.181247061,-0.0463566162,0.243583,0.168517911,-0.0462884765,0.228765,0.248654496,-0.101714177,0.292682,0.219543861,-0.068332052,0.256242,0.20256225,-0.0488601919,0.234985,0.190572477,-0.0349781037,0.219963,0.26797597,-0.10544179,0.295497,0.245571942,-0.0688931419,0.263991,0.234331729,-0.0502739887,0.248115,0.22424763,-0.0333623095,0.233821,0.294271491,-0.11499175,0.303771,0.285926746,-0.0854812145,0.277715,0.282455563,-0.0775274702,0.265743,0.279459347,-0.0704769997,0.255179
0.293435194,-0.17596264,0.3564,0.265760119,-0.132524541,0.317404,0.269815458,-0.162301042,0.34773,0.232642722,-0.132930498,0.32708,0.199972498,-0.117154339,0.308228,0.181611515,-0.0992697527,0.293849,0.224374438,-0.101124859,0.288158,0.193717094,-0.0678435201,0.255129,0.17821122,-0.0503076772,0.238615,0.164716999,-0.0480785904,0.223602,0.245766969,-0.10505142,0.287875,0.216118038,-0.0732387394,0.25049,0.19897187,-0.0547331924,0.228855,0.186771449,-0.0415183088,0.213454,0.264750669,-0.109244018,0.290344,0.241191882,-0.0754685443,0.256751,0.22930658,-0.0582475928,0.239745,0.218594562,-0.0426032819,0.224378,0.290622966,-0.119234827,0.298305,0.282176494,-0.0907171507,0.271807,0.278323795,-0.0831815608,0.259632,0.274964547,-0.076681763,0.248889
0.290584728,-0.171832326,0.351982,0.265386432,-0.134138863,0.312959,0.267587323,-0.160587811,0.342589,0.233574486,-0.138926547,0.319028,0.200913468,-0.117522394,0.299663,0.181031383,-0.0972924218,0.287041,0.222821733,-0.102506474,0.282803,0.191097358,-0.0678362767,0.249819,0.175278431,-0.0506725041,0.233327,0.161816458,-0.0515377864,0.218334,0.244392758,-0.104298758,0.28341,0.214333073,-0.0726338947,0.246337,0.196862749,-0.0541915259,0.224786,0.184414296,-0.0410259309,0.209427,0.264058123,-0.10849649,0.286612,0.239620689,-0.0744585032,0.253177,0.227287572,-0.0571169721,0.236256,0.216159791,-0.0413705679,0.22096,0.29098757,-0.118557354,0.295447,0.280446215,-0.0890407327,0.268378,0.275740294,-0.0812188621,0.255942,0.271629502,-0.0743797695,0.244968
0.288434024,-0.17127877,0.347916,0.265023549,-0.1357954,0.307986,0.265035296,-0.160230863,0.337773,0.230324374,-0.141608265,0.313136,0.197753847,-0.120238791,0.293626,0.18207044,-0.0983181316,0.282613,0.221692213,-0.106282422,0.27647,0.18937245,-0.0719488757,0.243387,0.173253514,-0.0549336062,0.226846,0.158914661,-0.0538562046,0.211808,0.242944626,-0.10550586,0.27775,0.213216466,-0.0760110398,0.240264,0.195563383,-0.057487449,0.218715,0.182644376,-0.0424126152,0.204536,0.263239083,-0.109665341,0.281568,0.238470663,-0.0772790254,0.247326,0.225818328,-0.0597040712,0.230443,0.214748715,-0.041997015,0.2182,0.291227177,-0.119788735,0.291251,0.279218073,-0.0893587292,0.26411,0.274009815,-0.0813163177,0.251639,0.26823745,-0.074172893,0.240636
0.282612661,-0.167463072,0.339953,0.25752025,-0.132152125,0.299846,0.259093325,-0.157834334,0.329413,0.220384594,-0.135020186,0.305016,0.19106443,-0.114678059,0.286627,0.177612314,-0.0949724781,0.277187,0.213726714,-0.102482394,0.267753,0.183927575,-0.068287659,0.233992,0.169042819,-0.0512980231,0.217112,0.154417881,-0.0530656642,0.201767,0.236493231,-0.104386101,0.269475,0.207441173,-0.0753710311,0.231303,0.190689292,-0.0586559092,0.209109,0.178757572,-0.0467017995,0.193285,0.256813331,-0.108415503,0.27367,0.231965568,-0.0756372088,0.238885,0.22191423,-0.0607150035,0.221088,0.211235492,-0.0461891881,0.204909,0.284633845,-0.11815469,0.283823,0.273577614,-0.088881522,0.256388,0.268703635,-0.0824616732,0.243782,0.264445906,-0.0767874178,0.23266
0.28220515,-0.167605406,0.338418,0.257071079,-0.132211827,0.298583,0.259206401,-0.158298334,0.328567,0.2228839,-0.1367376,0.304678,0.191588597,-0.114476521,0.286573,0.176969329,-0.0947008208,0.275855,0.214408011,-0.102651269,0.267475,0.183080309,-0.0698320504,0.232525,0.167480269,-0.0564183427,0.215051,0.154237284,-0.055761753,0.199164,0.236136498,-0.10417163,0.268419,0.206103211,-0.0760234815,0.230072,0.188563519,-0.0596715729,0.207802,0.1760634,-0.0479859843,0.191922,0.255956173,-0.108076385,0.271956,0.231701139,-0.0766246193,0.236286,0.219137465,-0.0617499161,0.218037,0.207759873,-0.0525303664,0.201446,0.283122324,-0.11766008,0.281292,0.271185209,-0.0878927567,0.252789,0.265108596,-0.0841340505,0.239693,0.259751753,-0.0808181124,0.228138
0.281736901,-0.168012419,0.337218,0.256280652,-0.133433785,0.296921,0.259137508,-0.159850896,0.326886,0.222392191,-0.138230023,0.302388,0.191642681,-0.115768379,0.285082,0.174817411,-0.0948817159,0.27261,0.21270939,-0.10276277,0.264996,0.18188452,-0.0720934138,0.230575,0.166193613,-0.056517958,0.213365,0.153095377,-0.0565601146,0.197719,0.234920193,-0.104447521,0.266407,0.204353607,-0.0781239194,0.227808,0.186988638,-0.0678254753,0.205292,0.174235307,-0.0609027573,0.189209,0.254836725,-0.108271111,0.27036,0.230666533,-0.0787118514,0.234585,0.217769519,-0.0650034773,0.216282,0.206076502,-0.0539566079,0.199642,0.283139268,-0.1188743,0.280249,0.269707125,-0.0888085779,0.251135,0.262788774,-0.0866785001,0.237759,0.256420764,-0.0839680574,0.225956
0.281864801,-0.168625293,0.336871,0.256208844,-0.133850251,0.296623,0.259125871,-0.160403312,0.326536,0.222057435,-0.138663091,0.302062,0.191241273,-0.115903265,0.284649,0.174456272,-0.0952275184,0.271995,0.212648132,-0.103230727,0.264717,0.181770089,-0.0723385737,0.230415,0.166122956,-0.0566715545,0.213263,0.153047521,-0.0571494903,0.197672,0.234870155,-0.104915233,0.266145,0.204307884,-0.0786426726,0.227567,0.186779144,-0.0677494866,0.205062,0.174031797,-0.0608316216,0.188988,0.254830898,-0.10867053,0.270109,0.230455463,-0.0792518311,0.23435,0.217578372,-0.0655593349,0.216056,0.205910575,-0.0545303175,0.199424,0.283084492,-0.119209921,0.280005,0.269659312,-0.0894921578,0.250952,0.262846098,-0.0871707684,0.237604,0.256614439,-0.0843454135,0.225826
0.282342781,-0.169355623,0.337059,0.256561926,-0.13438256,0.296952,0.259577116,-0.161133264,0.326873,0.222663278,-0.138937724,0.30294,0.191088931,-0.115325791,0.285385,0.1755616,-0.0953402868,0.273544,0.213071683,-0.103541942,0.265296,0.182050383,-0.0727533056,0.230896,0.166351149,-0.0570152768,0.213696,0.15326581,-0.0577286283,0.19806,0.235079667,-0.105147234,0.266581,0.20470127,-0.0791785048,0.228056,0.187057118,-0.0674306858,0.205583,0.174323481,-0.0598081815,0.189532,0.255186105,-0.109136769,0.270415,0.230381493,-0.0788172929,0.234653,0.217715015,-0.0660100831,0.216356,0.206050338,-0.0549867598,0.199722,0.282778224,-0.118858668,0.280141,0.26974405,-0.0899795818,0.251093,0.262916172,-0.0874730236,0.237746,0.25674159,-0.0845813972,0.22597
0.28396717,-0.171411109,0.338453,0.257384028,-0.135116433,0.298188,0.259819693,-0.161001047,0.328247,0.222394026,-0.138278666,0.303907,0.190727776,-0.115120844,0.285184,0.174281595,-0.0952246269,0.271879,0.213987741,-0.10397381,0.266435,0.182893642,-0.0721312924,0.231786,0.167407207,-0.0573034085,0.214461,0.154122295,-0.0596488871,0.198711,0.236038123,-0.105721504,0.267699,0.205081795,-0.0726859978,0.229097,0.18811068,-0.0683765113,0.206579,0.173774596,-0.0787355331,0.190495,0.256156259,-0.109842193,0.271528,0.231452546,-0.0793911699,0.235822,0.218835312,-0.0664825601,0.217554,0.207260199,-0.0555214213,0.200946,0.284062957,-0.120354901,0.281267,0.270723698,-0.090303698,0.252608,0.264805952,-0.0866931114,0.239441,0.259239288,-0.0831065551,0.227823
0.282383267,-0.171731855,0.336408,0.255802948,-0.133914636,0.297165,0.2584528,-0.161338438,0.326397,0.218838857,-0.134958764,0.30368,0.189160495,-0.113447282,0.284928,0.174361762,-0.0948364723,0.272563,0.213378537,-0.10358803,0.266138,0.182234201,-0.0713876928,0.231448,0.167165648,-0.0559799166,0.214102,0.153989273,-0.0582139431,0.198334,0.235401999,-0.105479649,0.267449,0.204934362,-0.07401442,0.229319,0.186909182,-0.0577737171,0.207077,0.175226493,-0.060779261,0.19119,0.25541625,-0.109697196,0.271245,0.231112171,-0.0786288702,0.23631,0.219139396,-0.0633905071,0.218436,0.208215684,-0.048957378,0.202217,0.282698379,-0.119668644,0.280814,0.270989734,-0.0905548255,0.2533,0.264750238,-0.0836313024,0.240658,0.259997276,-0.0785683754,0.229504
0.287031665,-0.175308848,0.34117,0.260530591,-0.136514123,0.302861,0.263140041,-0.165039942,0.331594,0.225790777,-0.138079201,0.310531,0.195454622,-0.117660461,0.292273,0.177925925,-0.0962499722,0.278627,0.217104399,-0.103391418,0.272817,0.186416758,-0.0719653649,0.238613,0.169893583,-0.0551674143,0.221512,0.159150175,-0.0595565637,0.205965,0.238788016,-0.105242621,0.273852,0.209332072,-0.0741089852,0.236234,0.191316478,-0.0578404712,0.21429,0.1781985,-0.0626164349,0.198616,0.259047425,-0.110335796,0.277358,0.235034148,-0.0779902349,0.243513,0.221564521,-0.0599823088,0.226197,0.213190516,-0.0468439427,0.210456,0.28611177,-0.120209088,0.28646,0.274453464,-0.0895547025,0.260153,0.269303186,-0.0806053927,0.248066,0.265485396,-0.075225322,0.237401
0.288667703,-0.177156697,0.343315,0.262148789,-0.137866779,0.306756,0.264908412,-0.166938221,0.334026,0.229810671,-0.141644701,0.315324,0.197458204,-0.120317556,0.2981,0.182382828,-0.10087004,0.28591,0.220975855,-0.105577893,0.277896,0.190140286,-0.0723860785,0.244557,0.174368119,-0.054721309,0.227887,0.161974267,-0.0574809937,0.212733,0.242940581,-0.107118246,0.279072,0.211210963,-0.072828962,0.242491,0.19367971,-0.0541814797,0.221152,0.18212026,-0.060058016,0.205911,0.262890281,-0.111178645,0.282571,0.238993753,-0.076405047,0.249366,0.226713205,-0.0593627101,0.232377,0.215964398,-0.045286856,0.216933,0.290009937,-0.121212202,0.291441,0.27752255,-0.0893135903,0.265983,0.271404334,-0.0790635578,0.254286,0.268869188,-0.074129816,0.243966
0.290649664,-0.178763348,0.346538,0.265180101,-0.138330891,0.312063,0.266833344,-0.168393598,0.337277,0.231471018,-0.142430922,0.319845,0.201228016,-0.119779492,0.304,0.186983882,-0.0999001036,0.294213,0.223767984,-0.103696516,0.284226,0.19339589,-0.0683579786,0.251492,0.178681365,-0.0519128956,0.235125,0.167378403,-0.0553397224,0.220245,0.246013924,-0.105455962,0.285957,0.217693197,-0.0742073884,0.250647,0.201183446,-0.0558866488,0.230049,0.189573009,-0.0489955869,0.215337,0.266085792,-0.109802552,0.289768,0.24315333,-0.0756263112,0.256352,0.231485178,-0.0590235755,0.239255,0.220876765,-0.0439319629,0.223712,0.293117268,-0.120380327,0.29874,0.281558218,-0.0879934688,0.272811,0.276676021,-0.0804617043,0.260897,0.272443933,-0.0737948337,0.250386
0.297985289,-0.184428572,0.356349,0.27186903,-0.139953565,0.32545,0.272660496,-0.172820592,0.34659,0.235481526,-0.144922007,0.327405,0.207355207,-0.120069421,0.315692,0.193374237,-0.0996632705,0.304391,0.232287354,-0.101447828,0.298692,0.20438326,-0.06817732,0.267867,0.190434114,-0.0515567512,0.252455,0.179047648,-0.0526693122,0.238444,0.255433603,-0.105137891,0.302052,0.231232415,-0.0737808378,0.269063,0.217175958,-0.0560840518,0.249819,0.207174288,-0.0437281922,0.236073,0.275985331,-0.111287881,0.306957,0.255181594,-0.0712512574,0.275823,0.244825034,-0.0600895598,0.259894,0.235487498,-0.0498176971,0.245413,0.303020769,-0.124430743,0.316764,0.292272318,-0.0904597808,0.292346,0.287435378,-0.0833735608,0.281127,0.283260328,-0.0770685019,0.271228
