sluyters/QuantumLeap/src/datasets/gesture/HandGestureDataset_SHREC2017_csv/Gesture2/finger_2/subject_22_essai_1_skeletons_world.csv
Wrist_x,Wrist_y,Wrist_z,Palm_x,Palm_y,Palm_z,thumb_base_x,thumb_base_y,thumb_base_z,thumb_first_joint_x,thumb_first_joint_y,thumb_first_joint_z,thumb_second_joint_x,thumb_second_joint_y,thumb_second_joint_z,thumb_tip_x,thumb_tip_y,thumb_tip_z,index_base_x,index_base_y,index_base_z,index_first_joint_x,index_first_joint_y,index_first_joint_z,index_second_joint_x,index_second_joint_y,index_second_joint_z,index_tip_x,index_tip_y,index_tip_z,middle_base_x,middle_base_y,middle_base_z,middle_first_joint_x,middle_first_joint_y,middle_first_joint_z,middle_second_joint_x,middle_second_joint_y,middle_second_joint_z,middle_tip_x,middle_tip_y,middle_tip_z,ring_base_x,ring_base_y,ring_base_z,ring_first_joint_x,ring_first_joint_y,ring_first_joint_z,ring_second_joint_x,ring_second_joint_y,ring_second_joint_z,ring_tip_x,ring_tip_y,ring_tip_z,pinky_base_x,pinky_base_y,pinky_base_z,pinky_first_joint_x,pinky_first_joint_y,pinky_first_joint_z,pinky_second_joint_x,pinky_second_joint_y,pinky_second_joint_z,pinky_tip_x,pinky_tip_y,pinky_tip_z,r
0.339037493,-0.293180455,0.45924,0.324296881,-0.249361416,0.446031,0.317607509,-0.285782339,0.457617,0.294629041,-0.260793779,0.453953,0.268870546,-0.226808078,0.434379,0.264687061,-0.206320775,0.426878,0.290769096,-0.208677268,0.435626,0.275037917,-0.168374029,0.418165,0.272838317,-0.153996687,0.421595,0.271148319,-0.139890885,0.424713,0.312388085,-0.206009379,0.433968,0.288029516,-0.165535071,0.414954,0.300326992,-0.186373156,0.436578,0.313281235,-0.21300579,0.450244,0.331762193,-0.208189935,0.433854,0.315998943,-0.172038391,0.415359,0.324354839,-0.19568681,0.434314,0.332823784,-0.222877501,0.449355,0.357409158,-0.218794493,0.435946,0.328376804,-0.181423732,0.418588,0.338725541,-0.189392826,0.433063,0.356128222,-0.206856921,0.444786
0.336309897,-0.29215269,0.456277,0.323832339,-0.249320602,0.445908,0.315777128,-0.285253487,0.455788,0.293364999,-0.260014329,0.452368,0.266271162,-0.225433078,0.431315,0.261684691,-0.204926145,0.423902,0.292616292,-0.210090185,0.438744,0.277841221,-0.169570123,0.423819,0.274389548,-0.155207311,0.424586,0.271123472,-0.140360739,0.425282,0.313969587,-0.207184152,0.436439,0.301417137,-0.161351097,0.420097,0.311563259,-0.168880281,0.442307,0.318573127,-0.189466147,0.45519,0.332848129,-0.209062839,0.435523,0.319552073,-0.1717322,0.419954,0.328754851,-0.189189956,0.439436,0.336305796,-0.221426713,0.453506,0.357397667,-0.219078299,0.436198,0.330000429,-0.182143471,0.421175,0.340671617,-0.19021629,0.436107,0.357261998,-0.207871148,0.447184
0.335196873,-0.292543085,0.456091,0.324224652,-0.249869166,0.447296,0.314662095,-0.285309578,0.45559,0.288802092,-0.253125322,0.450945,0.260506625,-0.219455078,0.433496,0.250707939,-0.193798264,0.423206,0.294126332,-0.210876121,0.44111,0.280921757,-0.170791156,0.427454,0.276079923,-0.156245084,0.426268,0.270559728,-0.141951127,0.425189,0.315922271,-0.208375827,0.439264,0.304917598,-0.162614642,0.424274,0.315361717,-0.163999582,0.446531,0.320351459,-0.178973951,0.459465,0.335040963,-0.210531266,0.438577,0.313822751,-0.166213144,0.42444,0.317252985,-0.161116106,0.436373,0.32979088,-0.176083475,0.455054,0.359609076,-0.220780718,0.439255,0.333492369,-0.183508413,0.425254,0.344154196,-0.190887127,0.440439,0.360801142,-0.207083152,0.451254
0.332661181,-0.293762084,0.455043,0.324397273,-0.250235477,0.448352,0.312531954,-0.286054254,0.455555,0.279801382,-0.251853486,0.450542,0.25589703,-0.220314973,0.434089,0.244526122,-0.196715338,0.423839,0.296882687,-0.211107842,0.444787,0.284593626,-0.17257852,0.433189,0.276476306,-0.156570329,0.427389,0.268300721,-0.141191571,0.422117,0.318330125,-0.20966483,0.442241,0.311766575,-0.164201901,0.429243,0.32002205,-0.165771693,0.449297,0.32559879,-0.17727715,0.46417,0.336878216,-0.211765052,0.440778,0.318295334,-0.168489525,0.428829,0.30843595,-0.155423968,0.422716,0.316405817,-0.166780263,0.435421,0.360043044,-0.22250097,0.440194,0.336592637,-0.184986387,0.428044,0.347176587,-0.191604953,0.44347,0.361280516,-0.20852899,0.453728
0.332168353,-0.294419752,0.455828,0.325300443,-0.251128178,0.450234,0.31239694,-0.286602625,0.456714,0.27988079,-0.253302687,0.451334,0.255089332,-0.222020953,0.435216,0.243250876,-0.199227588,0.424645,0.298916941,-0.211850323,0.447842,0.285992433,-0.173204249,0.437338,0.277621969,-0.157812735,0.432086,0.270360328,-0.142684649,0.427312,0.32054918,-0.210930636,0.445126,0.311027574,-0.165949932,0.43324,0.300445521,-0.159171655,0.426307,0.30633476,-0.161731185,0.437781,0.33896123,-0.213183539,0.44342,0.324608789,-0.170152551,0.432326,0.318767622,-0.156100332,0.426649,0.321625998,-0.168754855,0.439665,0.361697993,-0.223994158,0.442367,0.339451363,-0.186623946,0.431122,0.34988044,-0.192616205,0.446593,0.362494899,-0.209732103,0.456748
0.329772846,-0.29733085,0.456492,0.324718082,-0.251665654,0.451121,0.310359146,-0.288535476,0.45799,0.278476586,-0.255409604,0.453222,0.251098347,-0.226095992,0.441455,0.239951438,-0.203992977,0.435795,0.300401524,-0.213675181,0.44965,0.287246366,-0.174562762,0.439292,0.279049266,-0.158842173,0.434113,0.271340293,-0.14361624,0.429404,0.321345129,-0.211498486,0.446216,0.311669789,-0.166797128,0.434671,0.300966779,-0.157075793,0.427937,0.302727858,-0.151608165,0.439453,0.339227012,-0.213662568,0.443896,0.323946023,-0.170604323,0.433219,0.314935679,-0.156976004,0.427755,0.320720111,-0.154067516,0.440842,0.361060326,-0.224719827,0.442088,0.342944311,-0.18762932,0.431279,0.351077091,-0.190444514,0.445962,0.362184037,-0.207734794,0.457293
0.330828247,-0.298727957,0.457979,0.326131686,-0.253354448,0.453234,0.311389732,-0.289073697,0.457811,0.285282941,-0.262633537,0.454785,0.261053876,-0.231288161,0.44491,0.254211431,-0.209597634,0.441807,0.297784175,-0.222051098,0.450027,0.284703176,-0.183512918,0.439733,0.277180053,-0.165831691,0.434586,0.271519299,-0.144994407,0.429907,0.320488686,-0.21926496,0.448901,0.308989813,-0.174670518,0.437528,0.302064255,-0.157812256,0.430894,0.304058208,-0.150838187,0.442631,0.342462451,-0.217263015,0.448423,0.325750347,-0.173374285,0.43737,0.317733102,-0.158589741,0.431716,0.323152915,-0.15228758,0.444859,0.366287419,-0.227852057,0.448663,0.348228253,-0.190293051,0.437517,0.340987069,-0.184790235,0.432396,0.349106403,-0.186907523,0.441881
0.328238007,-0.298458539,0.456868,0.325223267,-0.253066631,0.452254,0.308906036,-0.288444453,0.456545,0.278590559,-0.256379375,0.452973,0.255421972,-0.228141983,0.442697,0.246623875,-0.206303447,0.43845,0.299157911,-0.215980062,0.448934,0.285661147,-0.178061689,0.438736,0.277189641,-0.161378117,0.433637,0.269923485,-0.145405584,0.429001,0.322455884,-0.213584468,0.44804,0.308883575,-0.17348976,0.436754,0.299417296,-0.155737492,0.430171,0.302969518,-0.149293993,0.44194,0.341901969,-0.217100869,0.44774,0.326034107,-0.174446007,0.436827,0.316199936,-0.158682901,0.431243,0.322112975,-0.151895387,0.44443,0.365716615,-0.229144105,0.448165,0.347924409,-0.190506631,0.437045,0.340681776,-0.184402044,0.431936,0.347090939,-0.18399091,0.441435
0.326199856,-0.297893629,0.455355,0.323742313,-0.252678428,0.450934,0.307065544,-0.287905999,0.455207,0.278984973,-0.259086493,0.450526,0.252262446,-0.227828556,0.441622,0.242883141,-0.206287094,0.437594,0.298230171,-0.21596997,0.447958,0.284744183,-0.177743863,0.437938,0.276522045,-0.160305504,0.432928,0.268719185,-0.145586318,0.428374,0.321063621,-0.21405988,0.446895,0.307183012,-0.172476763,0.43583,0.296922552,-0.154597599,0.429376,0.301411934,-0.148115656,0.44119,0.340688898,-0.216681926,0.446437,0.323498648,-0.173705597,0.435788,0.314308778,-0.158144348,0.43034,0.319315327,-0.149065771,0.4436,0.364342718,-0.227815522,0.446643,0.345091889,-0.189248802,0.435736,0.339704148,-0.183451004,0.430725,0.345659839,-0.181909449,0.440281
0.317254016,-0.291298533,0.444146,0.315142047,-0.251413073,0.440272,0.300608949,-0.283274046,0.446962,0.276836275,-0.259026001,0.446745,0.254209867,-0.230463287,0.440706,0.245295852,-0.207723913,0.438113,0.296129442,-0.217709298,0.441431,0.28408004,-0.176409061,0.433006,0.273698538,-0.161074494,0.428794,0.267622047,-0.144284237,0.424965,0.316208033,-0.215001415,0.436732,0.303820424,-0.1707681,0.426852,0.293108943,-0.152499805,0.421088,0.295766961,-0.145159802,0.432955,0.33298306,-0.216676871,0.433229,0.320656868,-0.17284751,0.424872,0.306289508,-0.154726596,0.420597,0.301175866,-0.141475189,0.417539,0.353295752,-0.225811933,0.429781,0.338923129,-0.186772875,0.420624,0.331912765,-0.178131783,0.416417,0.334901471,-0.174354104,0.426232
0.314523987,-0.290015754,0.441658,0.306472804,-0.245097639,0.435292,0.296162823,-0.282022608,0.442293,0.269438131,-0.255440169,0.439944,0.247243388,-0.225818417,0.434841,0.24123447,-0.206047377,0.435006,0.279887667,-0.208331024,0.432091,0.269111682,-0.168281375,0.420339,0.261427535,-0.150832402,0.414464,0.255801868,-0.138390702,0.409122,0.301464574,-0.205043207,0.429475,0.289027838,-0.159755554,0.416874,0.277515954,-0.142000553,0.409524,0.283733283,-0.137285057,0.420749,0.320062112,-0.206332046,0.427922,0.305159261,-0.161179876,0.41582,0.295323568,-0.144803562,0.409628,0.28841706,-0.133293927,0.404,0.343563896,-0.21521461,0.427175,0.328272758,-0.175413929,0.41531,0.321082803,-0.170046345,0.409858,0.328004558,-0.171844039,0.418996
0.296750203,-0.280629976,0.420357,0.291662766,-0.23817398,0.417067,0.279601535,-0.274258812,0.423443,0.25497116,-0.246157832,0.424614,0.23856479,-0.220341491,0.424974,0.235706396,-0.20226106,0.427364,0.273011154,-0.204239868,0.41894,0.26354275,-0.164573571,0.410249,0.256559638,-0.147534045,0.405904,0.249513898,-0.13237689,0.401954,0.292077902,-0.200422679,0.414061,0.283227376,-0.156403004,0.404764,0.271047859,-0.138310211,0.399342,0.273520673,-0.130398455,0.411362,0.308075973,-0.201049167,0.410355,0.295728622,-0.157544401,0.401958,0.285515015,-0.142482606,0.397663,0.275627572,-0.129382819,0.393757,0.327546909,-0.208768339,0.40657,0.321568336,-0.17336293,0.400132,0.314508197,-0.165596004,0.397174,0.318923005,-0.166085232,0.407752
0.287012391,-0.273724525,0.414197,0.268922962,-0.216772245,0.39617,0.254360878,-0.25375856,0.410497,0.229233276,-0.219087469,0.403212,0.210556008,-0.192819039,0.401882,0.205581187,-0.173677397,0.402382,0.23988679,-0.166755772,0.380073,0.223777047,-0.130629445,0.358461,0.215686259,-0.112178815,0.347655,0.208306541,-0.0951438508,0.337831,0.263262762,-0.170808276,0.379697,0.245314982,-0.126462917,0.356252,0.233505523,-0.10439799,0.342576,0.225020274,-0.0882801051,0.332807,0.283395169,-0.178872867,0.381089,0.265010123,-0.130935118,0.357948,0.25391661,-0.114381106,0.346109,0.243752633,-0.0989219725,0.335345,0.308608229,-0.19697208,0.385746,0.293278103,-0.152819108,0.364574,0.284546745,-0.14341895,0.354847,0.28812609,-0.140487238,0.360411
0.262459127,-0.260102781,0.400843,0.249153461,-0.205402176,0.374091,0.242155959,-0.243475564,0.396033,0.208732074,-0.207603493,0.385551,0.185405494,-0.181998833,0.381443,0.176213495,-0.161468468,0.378559,0.218013697,-0.151820964,0.351074,0.195629675,-0.119888008,0.322735,0.184380046,-0.103685657,0.308565,0.174113033,-0.0887897539,0.295684,0.23988656,-0.157833924,0.349647,0.216556058,-0.115601449,0.319033,0.200587488,-0.0964865878,0.301175,0.189117326,-0.082623147,0.288419,0.259153902,-0.167708867,0.350996,0.236826213,-0.127755668,0.320341,0.225404579,-0.107160569,0.304657,0.215022733,-0.0883268858,0.290399,0.284019182,-0.188290186,0.357069,0.272342106,-0.143304743,0.330139,0.262091874,-0.133669292,0.317766,0.26413635,-0.130574569,0.320296
0.259963879,-0.256995202,0.39192,0.239940981,-0.201424853,0.359654,0.234213592,-0.237044927,0.38436,0.199793619,-0.205669359,0.372783,0.176765178,-0.180067817,0.369172,0.170907793,-0.158743753,0.368994,0.202594491,-0.153810139,0.329642,0.17986928,-0.124669697,0.297188,0.168483346,-0.109982062,0.280961,0.158115348,-0.0965437481,0.266209,0.226689482,-0.160753839,0.33017,0.210656208,-0.118641465,0.294962,0.197887692,-0.102916409,0.274425,0.188789629,-0.0915941933,0.259755,0.248100115,-0.171104395,0.333649,0.227661776,-0.122895036,0.300661,0.214012131,-0.110364991,0.283783,0.201584143,-0.0988511145,0.268439,0.276000913,-0.191582209,0.343141,0.258070147,-0.152573267,0.314466,0.249553456,-0.135848449,0.301291,0.242375669,-0.121275587,0.290073
0.249761046,-0.250999176,0.385147,0.233274624,-0.202435937,0.352566,0.224801037,-0.232447163,0.375699,0.18551904,-0.200844477,0.361637,0.16207168,-0.174712529,0.356949,0.159560214,-0.155258228,0.357355,0.193388315,-0.149706818,0.319943,0.17113621,-0.122599913,0.287106,0.15998529,-0.10892623,0.270687,0.15089562,-0.0945355068,0.255761,0.218918053,-0.158717625,0.322795,0.200831294,-0.109758088,0.287415,0.184172689,-0.0995487655,0.266777,0.1700321,-0.102221681,0.252035,0.242810405,-0.169561988,0.328217,0.224015297,-0.121108785,0.29613,0.211340457,-0.107228018,0.279714,0.199017985,-0.097657592,0.26479,0.272112808,-0.191674312,0.340036,0.25690523,-0.149649695,0.311104,0.248937255,-0.134145327,0.297812,0.24305699,-0.126950485,0.286083
0.244646124,-0.250339133,0.382026,0.229684285,-0.201155247,0.348388,0.219767012,-0.232253875,0.37094,0.177753349,-0.199400717,0.351164,0.163910894,-0.172315175,0.347885,0.152313614,-0.151660013,0.346453,0.194577361,-0.145867133,0.313003,0.167473431,-0.116735615,0.279253,0.155434109,-0.0990199786,0.262378,0.144393966,-0.0965154488,0.247037,0.22163121,-0.154663995,0.31765,0.203863581,-0.120185651,0.280982,0.19251468,-0.10543714,0.259593,0.179966304,-0.110992299,0.244314,0.245048342,-0.166683188,0.324651,0.22302316,-0.118749947,0.293139,0.214073732,-0.11612574,0.277017,0.201415421,-0.12749409,0.262361,0.27344109,-0.189206452,0.338493,0.245361134,-0.173488801,0.305763,0.234262854,-0.18073324,0.290726,0.233968978,-0.183851945,0.288766
0.242893349,-0.247397991,0.377568,0.226481051,-0.198581931,0.343178,0.215747618,-0.229406863,0.365242,0.175435095,-0.198379871,0.347659,0.162952504,-0.172699171,0.347542,0.152342994,-0.152341088,0.346372,0.188705663,-0.144564678,0.305735,0.160670409,-0.11811535,0.270965,0.147321924,-0.103777312,0.25358,0.136549366,-0.107772768,0.237775,0.214800948,-0.153291891,0.311755,0.196590158,-0.110684415,0.274721,0.185625376,-0.10301833,0.253119,0.173248955,-0.109189446,0.237688,0.239007805,-0.165645058,0.319956,0.213158871,-0.124212319,0.282234,0.199481689,-0.115694206,0.262934,0.186998782,-0.112747081,0.245389,0.270138652,-0.188737913,0.335329,0.248656331,-0.146917082,0.303951,0.23736057,-0.131663972,0.289535,0.228366282,-0.129929149,0.276814
0.238122442,-0.246039148,0.374165,0.224100989,-0.197440684,0.340584,0.212546542,-0.227817003,0.361707,0.172861858,-0.197580466,0.345323,0.160274818,-0.172069529,0.347019,0.15142315,-0.152397954,0.345615,0.184622438,-0.145589148,0.30348,0.158519201,-0.116965673,0.269078,0.145444437,-0.102599757,0.251877,0.134871151,-0.106521015,0.236239,0.214030875,-0.1529051,0.309898,0.194542896,-0.109890282,0.273288,0.181835617,-0.102345509,0.251932,0.17140359,-0.108824193,0.236678,0.237408518,-0.164981425,0.31835,0.211148868,-0.122299903,0.281041,0.197791669,-0.112884871,0.261953,0.185608309,-0.109112352,0.2446,0.268562738,-0.187771567,0.333883,0.245433208,-0.145640132,0.302499,0.23505452,-0.130882209,0.288079,0.226161049,-0.129017214,0.275356
0.23791,-0.24720185,0.374962,0.223777328,-0.198115087,0.340694,0.212081334,-0.228836985,0.362205,0.172628618,-0.197513283,0.345073,0.161018813,-0.172117446,0.345871,0.151565168,-0.151975589,0.344721,0.183848974,-0.14570842,0.302775,0.157447127,-0.117868657,0.26789,0.143444767,-0.107714029,0.250448,0.133510813,-0.107995599,0.234591,0.212182234,-0.154301141,0.309381,0.193789754,-0.110080902,0.272612,0.180931645,-0.102354519,0.251164,0.170098985,-0.108781969,0.235843,0.236191534,-0.165897845,0.318053,0.210207,-0.123241426,0.280209,0.195732308,-0.120520106,0.260847,0.182801694,-0.124028202,0.243245,0.268396698,-0.188272719,0.333957,0.245178651,-0.146372528,0.30257,0.234856418,-0.132242373,0.288149,0.225934328,-0.129575558,0.275424
0.237079719,-0.247384945,0.374509,0.223266188,-0.1983053,0.340319,0.211242371,-0.229026605,0.361702,0.17232863,-0.197289771,0.344603,0.161088535,-0.171883532,0.345563,0.151704267,-0.15173854,0.344226,0.183440125,-0.145749137,0.302385,0.157041841,-0.118414052,0.267517,0.143236285,-0.107557478,0.250084,0.133098792,-0.10893885,0.234235,0.211786249,-0.154461532,0.309077,0.193491193,-0.110219306,0.272383,0.180623061,-0.102439011,0.250978,0.169568726,-0.1089156,0.235689,0.235998024,-0.166106204,0.317813,0.209886977,-0.123800042,0.279994,0.195580733,-0.120426775,0.260645,0.182658906,-0.123931323,0.243055,0.268102236,-0.188478646,0.333778,0.244872755,-0.146631919,0.302385,0.234575513,-0.132820765,0.287961,0.225636907,-0.129749905,0.275234
0.239142511,-0.248470008,0.376373,0.223572213,-0.199159634,0.341436,0.213227765,-0.229932043,0.364304,0.173234764,-0.198538695,0.346643,0.16067178,-0.171831053,0.346266,0.15148737,-0.151736099,0.344005,0.183031082,-0.146589167,0.303976,0.157543101,-0.118927584,0.269035,0.144460134,-0.105132086,0.251565,0.133348758,-0.109077282,0.235683,0.210480439,-0.154417139,0.309513,0.185055405,-0.120340271,0.271905,0.170695455,-0.104737024,0.249968,0.157598084,-0.109672818,0.234298,0.234525247,-0.166311161,0.317368,0.209103442,-0.123622072,0.279412,0.194299968,-0.119963137,0.259993,0.180777787,-0.123426033,0.242339,0.265438964,-0.188780659,0.332429,0.243850627,-0.145669562,0.301459,0.233655955,-0.132563572,0.28723,0.22468383,-0.129271512,0.274675
0.237418684,-0.249033461,0.376161,0.223118084,-0.199192566,0.341231,0.212947706,-0.230281072,0.364446,0.173206981,-0.198657705,0.34675,0.16063686,-0.171868288,0.346244,0.151208801,-0.151618136,0.343576,0.182729113,-0.146620999,0.304227,0.157515645,-0.118997052,0.26943,0.144584764,-0.105196833,0.252031,0.133268338,-0.108967313,0.236214,0.209957502,-0.154407651,0.309313,0.184931538,-0.120259721,0.271723,0.170577319,-0.104664536,0.249795,0.157486426,-0.109595115,0.234132,0.233756224,-0.166121055,0.316796,0.208561956,-0.123491224,0.278997,0.19365591,-0.1197278,0.259658,0.179915398,-0.123223398,0.242078,0.264375643,-0.188356777,0.33142,0.243318316,-0.14511915,0.301024,0.233300888,-0.132537289,0.287058,0.224404881,-0.129157417,0.274736
0.23697059,-0.249751838,0.375898,0.22514596,-0.200180705,0.343268,0.212299092,-0.23130426,0.36418,0.175022625,-0.199199727,0.347155,0.163589754,-0.173762892,0.34885,0.152324385,-0.152600994,0.343976,0.183929146,-0.148731121,0.30771,0.159549731,-0.121631177,0.27417,0.147329595,-0.108003658,0.257401,0.136495008,-0.111901709,0.242155,0.213305773,-0.156648316,0.313452,0.195557604,-0.109806269,0.278426,0.177696125,-0.105222103,0.257994,0.16517097,-0.112366796,0.243399,0.237624463,-0.168471575,0.321259,0.211138457,-0.124895755,0.284782,0.192685794,-0.112006788,0.26612,0.178319757,-0.108200411,0.249154,0.269146609,-0.190083207,0.335875,0.246514333,-0.146900437,0.304607,0.235489504,-0.134024988,0.290241,0.226130458,-0.130298929,0.277565
0.238301134,-0.25230265,0.37871,0.227283777,-0.202913306,0.347046,0.213724779,-0.234187545,0.367508,0.177575792,-0.202039595,0.350098,0.165816841,-0.176053848,0.351666,0.153187981,-0.15366094,0.345206,0.188883924,-0.149956082,0.312758,0.16507096,-0.122979022,0.279959,0.153132743,-0.109400733,0.26356,0.139025957,-0.113288513,0.248651,0.216033448,-0.158692033,0.318113,0.196404002,-0.110791696,0.282854,0.180030501,-0.107342021,0.262286,0.167531527,-0.114566823,0.247595,0.240150751,-0.170569535,0.325511,0.211497783,-0.126592536,0.289841,0.196081626,-0.115341068,0.271592,0.182090402,-0.113125749,0.255002,0.27246011,-0.191985246,0.339486,0.248291781,-0.147296186,0.309714,0.237200487,-0.135082571,0.296035,0.22941982,-0.13170034,0.283965
0.241233869,-0.254595456,0.381831,0.232270347,-0.205298084,0.350873,0.216892037,-0.237102068,0.371488,0.196013486,-0.205598506,0.36328,0.167591158,-0.177176144,0.353981,0.154269149,-0.154275914,0.346442,0.192383107,-0.152235763,0.318129,0.16706017,-0.125832797,0.286021,0.154341693,-0.112525429,0.269966,0.14222625,-0.11603584,0.255372,0.219055047,-0.15953603,0.322585,0.198613022,-0.113440851,0.287911,0.181160863,-0.110440567,0.267684,0.169590688,-0.117807535,0.253236,0.244429754,-0.170971074,0.329175,0.21279194,-0.122448239,0.294327,0.195858853,-0.114473955,0.276498,0.184163049,-0.115750938,0.26029,0.274839816,-0.192842619,0.342087,0.251415343,-0.145562871,0.314396,0.240216117,-0.134658736,0.301673,0.231166013,-0.13302367,0.290447
0.246158961,-0.258385948,0.387684,0.239282083,-0.208233527,0.358581,0.22037841,-0.239786856,0.375529,0.198404046,-0.208443931,0.36629,0.172448944,-0.181007063,0.358048,0.155521141,-0.155729429,0.348373,0.198231148,-0.154639044,0.324689,0.173572819,-0.129275128,0.292947,0.165227189,-0.116769781,0.277076,0.150966676,-0.117939819,0.262648,0.227008327,-0.162622831,0.331988,0.209221896,-0.113527476,0.298617,0.194643195,-0.109587534,0.279151,0.183113127,-0.117134558,0.265247,0.252928824,-0.173985652,0.340743,0.22349597,-0.128075659,0.306308,0.21089954,-0.122178451,0.288691,0.198236361,-0.125274151,0.272675,0.28775489,-0.194585031,0.355877,0.26364884,-0.147456124,0.327733,0.252884278,-0.137519342,0.314802,0.241317381,-0.137792272,0.303392
0.252739923,-0.264078653,0.395841,0.248902082,-0.212198607,0.368341,0.231700876,-0.247277072,0.387852,0.212107735,-0.213640315,0.379724,0.184798925,-0.18677126,0.37039,0.167152606,-0.162873623,0.359977,0.216365071,-0.156332619,0.340785,0.196343679,-0.129958462,0.311645,0.186292982,-0.116611639,0.297075,0.170870189,-0.120022312,0.283829,0.240714302,-0.163644263,0.343212,0.219775159,-0.116378277,0.311433,0.200242461,-0.114865068,0.292896,0.189642842,-0.122859551,0.279655,0.261088669,-0.17576133,0.347805,0.232559293,-0.131797639,0.31632,0.21486601,-0.126150998,0.300212,0.203569071,-0.130340326,0.285568,0.290272694,-0.196229454,0.357799,0.269467644,-0.149795664,0.332971,0.258666549,-0.140708719,0.321564,0.249179594,-0.140676233,0.311499
0.25717671,-0.266944114,0.399973,0.253262509,-0.213303297,0.371652,0.238663848,-0.24947437,0.391993,0.213864202,-0.213582143,0.38095,0.186543161,-0.186201809,0.370822,0.17128794,-0.162676077,0.362003,0.218409839,-0.157697258,0.343591,0.197297698,-0.132973855,0.313891,0.185851389,-0.123579269,0.299041,0.170995659,-0.124586279,0.285542,0.242790477,-0.164953323,0.345773,0.221597482,-0.11727367,0.313366,0.201753087,-0.118115429,0.294462,0.188242946,-0.126550269,0.28096,0.263603968,-0.176680407,0.350242,0.234173523,-0.131692937,0.318229,0.216771167,-0.128384326,0.301851,0.2018681,-0.133279549,0.286961,0.292702248,-0.197790787,0.360229,0.271699129,-0.150766975,0.334906,0.26037148,-0.14171486,0.323272,0.250338557,-0.141656623,0.313006
0.26392941,-0.270758999,0.406614,0.264543788,-0.217056424,0.385277,0.245058508,-0.252876318,0.399492,0.222154654,-0.214324752,0.392287,0.19833877,-0.185316361,0.383363,0.181790831,-0.164318177,0.370594,0.236397625,-0.162973763,0.362717,0.228892649,-0.126361575,0.33828,0.213923166,-0.12953601,0.326062,0.199608532,-0.139804575,0.314954,0.261242135,-0.171991103,0.365779,0.247201235,-0.12959397,0.339034,0.229875109,-0.13184819,0.323432,0.216995233,-0.14317522,0.312288,0.282585473,-0.184231287,0.370314,0.263231785,-0.135001663,0.343461,0.249434155,-0.130389887,0.329722,0.236995084,-0.141136793,0.317232,0.308918034,-0.207369232,0.379204,0.295083293,-0.161679873,0.357831,0.286271223,-0.151923279,0.348011,0.277509486,-0.151542644,0.339346
0.274948066,-0.272040601,0.413238,0.278621645,-0.216858202,0.396658,0.256342449,-0.254056922,0.409046,0.240219184,-0.215219285,0.407883,0.212727433,-0.187957475,0.396369,0.193246911,-0.166299683,0.382828,0.253325194,-0.167083447,0.380843,0.244269945,-0.135250847,0.360396,0.229841857,-0.139751059,0.350173,0.217452629,-0.152712302,0.342928,0.276835012,-0.175362803,0.381507,0.264177526,-0.138651621,0.35917,0.247084623,-0.14373504,0.34614,0.235496688,-0.157323773,0.338537,0.296728512,-0.186641178,0.383619,0.279770097,-0.141992611,0.361701,0.26677311,-0.140303399,0.350488,0.25493162,-0.153606588,0.340294,0.320640575,-0.207803013,0.388875,0.312376616,-0.1645609,0.372227,0.301657838,-0.160548607,0.364578,0.294483949,-0.171855607,0.357829
0.290511272,-0.274621276,0.429908,0.289352648,-0.222382535,0.409763,0.27017275,-0.256338054,0.424297,0.253261245,-0.219400394,0.420869,0.219253438,-0.192821575,0.404186,0.203976748,-0.169922079,0.392684,0.261617033,-0.169411318,0.389886,0.255515837,-0.132373882,0.366452,0.239899926,-0.138661472,0.354735,0.23710413,-0.156510351,0.360878,0.286034271,-0.177235248,0.391354,0.273072066,-0.141336772,0.365815,0.253198379,-0.147439433,0.350917,0.250640084,-0.167050787,0.357044,0.307022849,-0.188315503,0.394465,0.291748362,-0.143156518,0.369238,0.275258041,-0.143667249,0.356331,0.261750417,-0.157133687,0.345225,0.332908542,-0.209640535,0.401488,0.317275378,-0.165828025,0.378862,0.306075238,-0.163982947,0.368467,0.295909055,-0.173323829,0.359294
0.307182503,-0.28179831,0.447184,0.300082486,-0.229026919,0.422602,0.287719069,-0.2642068,0.443034,0.261487542,-0.226214163,0.430375,0.239862527,-0.198421236,0.419165,0.23093009,-0.174790834,0.41152,0.270797183,-0.177333831,0.401797,0.25998133,-0.13683771,0.37495,0.242190675,-0.135289326,0.361527,0.236333117,-0.15145081,0.36562,0.291237076,-0.183918608,0.40014,0.271160872,-0.143801532,0.371342,0.248020991,-0.144229805,0.354544,0.24379797,-0.161900739,0.358747,0.309487204,-0.194279155,0.401096,0.284326109,-0.14441975,0.373674,0.265583385,-0.135743069,0.359644,0.251030387,-0.14537213,0.346889,0.335059953,-0.213823305,0.406344,0.319977781,-0.168939708,0.381937,0.306802111,-0.163863433,0.370723,0.295275465,-0.172045665,0.360828
0.345857438,-0.283998995,0.462399,0.334778043,-0.23457304,0.452418,0.323125287,-0.273669154,0.459813,0.291571019,-0.240555573,0.444655,0.26827989,-0.22540988,0.445312,0.261110573,-0.213826447,0.45122,0.300282199,-0.193312286,0.442817,0.27956011,-0.160030811,0.427981,0.272423183,-0.163621852,0.420563,0.276670205,-0.173966356,0.430681,0.324838784,-0.191628244,0.443297,0.305117619,-0.170675845,0.426881,0.29944452,-0.18956634,0.417304,0.310004381,-0.209041691,0.427334,0.346485802,-0.194579997,0.444635,0.326116001,-0.16801775,0.428457,0.3234206,-0.184247855,0.42018,0.336783927,-0.2048816,0.431396,0.374442671,-0.206029012,0.447876,0.349050702,-0.180072971,0.432216,0.34796677,-0.190719758,0.425021,0.351882113,-0.201297129,0.422174
0.341903402,-0.280442921,0.459971,0.337968897,-0.234702743,0.455336,0.322846693,-0.271674219,0.461102,0.291345561,-0.239375809,0.455884,0.264445412,-0.211959537,0.447699,0.249097952,-0.187446977,0.435704,0.316684041,-0.196446139,0.45386,0.297656442,-0.174200508,0.445135,0.293517089,-0.178104032,0.440773,0.30038089,-0.188689747,0.452936,0.338126122,-0.194830761,0.4511,0.318458796,-0.17829646,0.440129,0.306245227,-0.167887778,0.433729,0.309325699,-0.185608601,0.44547,0.356230957,-0.197384986,0.449265,0.338765402,-0.173195181,0.439283,0.334664467,-0.18946963,0.434175,0.349660004,-0.212813777,0.447528,0.376423415,-0.206802298,0.447897,0.35425473,-0.183793401,0.437419,0.354336662,-0.194902126,0.432604,0.369022894,-0.212260867,0.442195
0.34492936,-0.280413125,0.463989,0.345994851,-0.235786341,0.463762,0.326373718,-0.271833162,0.465478,0.300036966,-0.240987048,0.465083,0.273610827,-0.214457816,0.458021,0.261303041,-0.193261359,0.446464,0.326208213,-0.199962736,0.465524,0.309037242,-0.177955856,0.459884,0.306043909,-0.181696806,0.457064,0.312853909,-0.193844952,0.470288,0.348172193,-0.198050192,0.463555,0.331214085,-0.181761415,0.456583,0.320496679,-0.171322209,0.452517,0.323958297,-0.191428399,0.465491,0.366505768,-0.200108848,0.461955,0.351418224,-0.176077873,0.455586,0.349542358,-0.191724924,0.452327,0.365449645,-0.219697562,0.466939,0.38845779,-0.209243283,0.460122,0.367514344,-0.187474359,0.452821,0.36822119,-0.197953006,0.449467,0.384104963,-0.219349786,0.46008
0.347548811,-0.281589855,0.466073,0.350599275,-0.237319821,0.466211,0.329083024,-0.272738668,0.467365,0.307434847,-0.248038097,0.469286,0.281211844,-0.223229568,0.463661,0.268406301,-0.198847631,0.452796,0.33003615,-0.202288531,0.46795,0.312231854,-0.178082418,0.462444,0.308584894,-0.181768331,0.459691,0.315764587,-0.191974111,0.472972,0.352327067,-0.200864377,0.466337,0.339494331,-0.179361433,0.459651,0.329371372,-0.168958472,0.455751,0.33028494,-0.18829568,0.468821,0.37092493,-0.203404034,0.464996,0.355121114,-0.17629801,0.458796,0.353467068,-0.190866995,0.455624,0.370215909,-0.216620519,0.470307,0.394974416,-0.215723266,0.463403,0.373044334,-0.183356853,0.45627,0.371988383,-0.188751787,0.452992,0.387540374,-0.207315974,0.463667
0.347583063,-0.282913703,0.466017,0.354865988,-0.249666055,0.470419,0.331651898,-0.27579637,0.470265,0.312212168,-0.252878392,0.474538,0.292597788,-0.228559011,0.471747,0.279861452,-0.20680386,0.463725,0.341635642,-0.21833608,0.478627,0.324773016,-0.194959643,0.478098,0.31970698,-0.197754061,0.477834,0.326631175,-0.202815721,0.492313,0.361143315,-0.215711203,0.474442,0.345990049,-0.192767552,0.472317,0.335235349,-0.182131008,0.471078,0.341690378,-0.196119896,0.48511,0.376919168,-0.217024054,0.470582,0.360939743,-0.187161955,0.469536,0.359871144,-0.199373957,0.469001,0.380696629,-0.224394698,0.484939,0.394816507,-0.224956864,0.465324,0.37787207,-0.189129267,0.462561,0.376945947,-0.194696739,0.461291,0.392464385,-0.214031065,0.472959
0.349840653,-0.286272309,0.468764,0.356277457,-0.252991068,0.47247,0.334296401,-0.280634017,0.472913,0.315057453,-0.26194173,0.476817,0.292906037,-0.235840354,0.473351,0.282090927,-0.210024182,0.46644,0.342086224,-0.221367207,0.480111,0.323489247,-0.201208821,0.479043,0.318296115,-0.204503295,0.478509,0.323879655,-0.210546298,0.492844,0.361559163,-0.218485037,0.475855,0.345538947,-0.195833667,0.473072,0.333166079,-0.188657583,0.471448,0.337470176,-0.203025629,0.485316,0.377406996,-0.219636525,0.472002,0.360447431,-0.189167669,0.470343,0.359012439,-0.200877,0.469495,0.378546901,-0.22712674,0.485264,0.39558163,-0.227474843,0.466871,0.375471235,-0.198830457,0.463567,0.37377767,-0.205641104,0.46205,0.38974397,-0.221010601,0.473578
0.35624092,-0.292991936,0.477153,0.359565564,-0.256939775,0.477017,0.341610012,-0.288407796,0.480428,0.318293616,-0.264584797,0.480445,0.296719057,-0.237982631,0.477252,0.28815704,-0.214134704,0.471445,0.3418995,-0.224980282,0.481119,0.321741727,-0.20089986,0.476872,0.315590842,-0.203770372,0.474748,0.319776942,-0.213336276,0.488196,0.361461131,-0.222017396,0.476893,0.342671399,-0.19823658,0.470431,0.329994117,-0.187656298,0.466661,0.333399189,-0.202504034,0.479586,0.377725273,-0.223317871,0.473426,0.358382181,-0.189510178,0.468217,0.355511164,-0.200251988,0.465552,0.37412435,-0.225803329,0.480307,0.397057846,-0.231740253,0.469393,0.376923283,-0.196105463,0.462992,0.373498573,-0.197782896,0.460051,0.386777865,-0.218919168,0.470754
0.356972089,-0.294697967,0.477993,0.359823912,-0.257931275,0.477453,0.342031087,-0.28999757,0.48105,0.3187549,-0.26495241,0.480718,0.297359552,-0.238187652,0.47753,0.288857748,-0.214845847,0.471594,0.341732257,-0.225200973,0.481023,0.32129641,-0.200881351,0.476351,0.315035755,-0.203747104,0.474015,0.319181722,-0.213359674,0.487354,0.361436003,-0.222357518,0.47696,0.342436398,-0.198343082,0.470082,0.329646566,-0.187723557,0.46607,0.332878364,-0.203150875,0.478899,0.377859816,-0.223785109,0.473666,0.35800532,-0.190023811,0.468009,0.354934022,-0.200593672,0.465114,0.373360131,-0.226137686,0.479752,0.397451876,-0.232413336,0.469903,0.37725505,-0.196445946,0.463119,0.373254073,-0.198151899,0.460002,0.386340457,-0.218467216,0.470611
0.360394791,-0.302637406,0.480792,0.359454239,-0.262142895,0.477222,0.344128451,-0.295838348,0.483156,0.321045198,-0.27647071,0.482093,0.297732705,-0.251765747,0.479616,0.286898383,-0.230732329,0.475135,0.335720758,-0.231315064,0.477994,0.317870676,-0.199114074,0.470855,0.3095988,-0.200143031,0.467286,0.309784869,-0.218915723,0.479838,0.355094315,-0.226758678,0.47396,0.332133585,-0.198391428,0.464227,0.316869023,-0.187528959,0.45855,0.32488791,-0.202464555,0.470547,0.374384583,-0.22446841,0.470975,0.35172919,-0.190276662,0.462563,0.342356301,-0.20247108,0.458258,0.363499581,-0.226036037,0.471998,0.394966717,-0.233120264,0.468083,0.373186423,-0.196303783,0.458906,0.367486639,-0.198996717,0.454689,0.37982007,-0.217280374,0.464577
0.360787487,-0.30377702,0.480548,0.359228927,-0.263011622,0.476913,0.3446415,-0.297246358,0.483128,0.321235657,-0.276634725,0.482379,0.298056748,-0.252039761,0.480138,0.287257055,-0.231020784,0.475729,0.335669486,-0.231279737,0.477921,0.318072291,-0.199465421,0.470903,0.309089644,-0.199760967,0.467393,0.309853948,-0.21896454,0.479945,0.354818607,-0.226582614,0.473592,0.331870297,-0.19823416,0.463859,0.316614035,-0.187378052,0.458181,0.323520293,-0.202765221,0.470142,0.373293096,-0.224808191,0.47037,0.350600191,-0.190411708,0.462045,0.342003678,-0.202262537,0.457786,0.36185929,-0.226416999,0.471512,0.393793285,-0.233071585,0.467211,0.37229632,-0.19617585,0.458097,0.366366062,-0.198939988,0.45391,0.378504174,-0.217290687,0.463784
0.361321471,-0.306145689,0.479972,0.358957895,-0.266975859,0.476438,0.345689496,-0.300508898,0.483111,0.321911249,-0.27880999,0.483132,0.298133075,-0.258875554,0.48128,0.288381979,-0.234561798,0.478369,0.335520891,-0.232890902,0.478224,0.309297932,-0.22050727,0.47169,0.295689743,-0.212356285,0.468423,0.302497091,-0.227928211,0.481033,0.354052503,-0.227524813,0.473208,0.331527749,-0.191122877,0.463712,0.319040259,-0.198259515,0.458173,0.329315409,-0.22143406,0.470113,0.370179453,-0.227084791,0.469413,0.347245836,-0.192424925,0.46152,0.340540587,-0.202965695,0.457482,0.356346948,-0.229098168,0.471244,0.390652378,-0.233903535,0.465566,0.369860847,-0.19683031,0.456797,0.363558209,-0.200517861,0.452769,0.373856233,-0.21897685,0.462667
