sluyters/QuantumLeap/src/datasets/gesture/HandGestureDataset_SHREC2017_csv/Gesture2/finger_2/subject_3_essai_1_skeletons_world.csv
Wrist_x,Wrist_y,Wrist_z,Palm_x,Palm_y,Palm_z,thumb_base_x,thumb_base_y,thumb_base_z,thumb_first_joint_x,thumb_first_joint_y,thumb_first_joint_z,thumb_second_joint_x,thumb_second_joint_y,thumb_second_joint_z,thumb_tip_x,thumb_tip_y,thumb_tip_z,index_base_x,index_base_y,index_base_z,index_first_joint_x,index_first_joint_y,index_first_joint_z,index_second_joint_x,index_second_joint_y,index_second_joint_z,index_tip_x,index_tip_y,index_tip_z,middle_base_x,middle_base_y,middle_base_z,middle_first_joint_x,middle_first_joint_y,middle_first_joint_z,middle_second_joint_x,middle_second_joint_y,middle_second_joint_z,middle_tip_x,middle_tip_y,middle_tip_z,ring_base_x,ring_base_y,ring_base_z,ring_first_joint_x,ring_first_joint_y,ring_first_joint_z,ring_second_joint_x,ring_second_joint_y,ring_second_joint_z,ring_tip_x,ring_tip_y,ring_tip_z,pinky_base_x,pinky_base_y,pinky_base_z,pinky_first_joint_x,pinky_first_joint_y,pinky_first_joint_z,pinky_second_joint_x,pinky_second_joint_y,pinky_second_joint_z,pinky_tip_x,pinky_tip_y,pinky_tip_z,r
0.32861216,-0.30778712,0.498256,0.32956987,-0.2680192,0.458361,0.32136704,-0.28092135,0.48912,0.2895646,-0.24885212,0.464902,0.26564494,-0.22430149,0.445834,0.25438849,-0.20525626,0.430527,0.3168246,-0.21169841,0.421221,0.2639216,-0.20017446,0.38734,0.25163331,-0.20518028,0.391225,0.24009689,-0.21182531,0.394756,0.32759448,-0.23337266,0.422134,0.29127649,-0.21119799,0.383645,0.2749111,-0.21977513,0.388436,0.27268648,-0.23329897,0.403862,0.3367359,-0.25576916,0.426912,0.35426891,-0.23746292,0.407401,0.36343137,-0.22932678,0.397418,0.35803448,-0.22289121,0.388343,0.34758958,-0.29003564,0.439551,0.32955612,-0.26547781,0.408732,0.31833132,-0.25586396,0.394572,0.30790323,-0.24718561,0.382079
0.32718727,-0.30906648,0.498153,0.32925251,-0.26913641,0.458379,0.32002426,-0.2818306,0.488579,0.28911367,-0.25017852,0.46384,0.26343098,-0.22566856,0.444154,0.25116435,-0.20474225,0.428712,0.31745282,-0.21267199,0.42075,0.26516713,-0.20168321,0.386628,0.2531014,-0.2070279,0.390607,0.24047401,-0.21217629,0.394224,0.32861279,-0.23481839,0.422263,0.29213717,-0.21309552,0.383761,0.27627427,-0.22173858,0.388687,0.27259108,-0.23551487,0.40416,0.33803759,-0.25755232,0.427522,0.35645938,-0.24020751,0.407937,0.36594155,-0.23218868,0.397917,0.35975079,-0.22587554,0.388807,0.34914509,-0.29210232,0.440699,0.32992529,-0.26948804,0.409841,0.32076004,-0.25889333,0.395663,0.30920526,-0.24913188,0.383153
0.34953917,-0.30054639,0.476998,0.33160541,-0.25468348,0.437502,0.32436322,-0.28361197,0.465884,0.28363334,-0.25879089,0.445087,0.25987681,-0.22860142,0.432777,0.24419443,-0.20591968,0.42121,0.28788706,-0.20450305,0.398056,0.25526465,-0.21455837,0.36308,0.25077834,-0.22597824,0.36692,0.25236355,-0.22169777,0.370411,0.31505767,-0.21353745,0.401637,0.27984387,-0.22200865,0.363135,0.27553731,-0.2352844,0.367943,0.28659897,-0.23738431,0.383379,0.33942769,-0.22557152,0.408571,0.30909517,-0.22552339,0.372859,0.29358317,-0.22529901,0.354588,0.27569483,-0.23028858,0.337978,0.37132891,-0.24774101,0.423649,0.3363595,-0.24706383,0.392615,0.32038671,-0.24658127,0.378372,0.30635073,-0.2460574,0.365817
0.35051183,-0.30181117,0.477458,0.33305599,-0.25579371,0.438205,0.32535325,-0.28457019,0.466185,0.28478891,-0.25998214,0.445824,0.26141314,-0.23020089,0.434227,0.24553999,-0.20896817,0.42282,0.28964876,-0.20516619,0.398711,0.25689803,-0.21495102,0.363783,0.25241823,-0.2265918,0.367848,0.25409353,-0.22256731,0.371544,0.31693133,-0.21452018,0.402562,0.28167506,-0.22273187,0.364164,0.27739708,-0.236333,0.369258,0.28848382,-0.23859914,0.384747,0.34137041,-0.22684119,0.409695,0.31148629,-0.22555864,0.374091,0.29619853,-0.22475211,0.355875,0.27823405,-0.22996366,0.339314,0.37329058,-0.24938786,0.424961,0.33833816,-0.24838829,0.39394,0.32237249,-0.24777073,0.379707,0.30834221,-0.24713541,0.367163
0.34492004,-0.30110325,0.476111,0.33316748,-0.25795792,0.440035,0.31990431,-0.28378802,0.463215,0.28088562,-0.25830436,0.442603,0.25978181,-0.22797195,0.433778,0.24529501,-0.20893237,0.422444,0.29828384,-0.21409709,0.400458,0.27177226,-0.22684077,0.365855,0.26512294,-0.23422319,0.371959,0.26007377,-0.22691639,0.377507,0.32551614,-0.22305398,0.407277,0.30555824,-0.22764749,0.370605,0.3182531,-0.24904062,0.378358,0.32730445,-0.27654785,0.394057,0.3482944,-0.23444998,0.416532,0.34569108,-0.21876845,0.382542,0.34403981,-0.21070276,0.365152,0.33164941,-0.21568479,0.349343,0.37578612,-0.25483104,0.433707,0.35483521,-0.24773668,0.403337,0.34524056,-0.24449208,0.389425,0.33680603,-0.24164801,0.377188
0.34407789,-0.30338713,0.478488,0.33332876,-0.25977039,0.44128,0.31748655,-0.28460795,0.462488,0.27842576,-0.25714905,0.439756,0.25991909,-0.22843657,0.431996,0.24438629,-0.20774727,0.419932,0.29565247,-0.21321033,0.39697,0.26877662,-0.22491313,0.361138,0.25889723,-0.22953213,0.36274,0.25308626,-0.22047447,0.364196,0.3255988,-0.22395711,0.407494,0.30640243,-0.22854013,0.370927,0.31362763,-0.24530809,0.37165,0.32107697,-0.27104799,0.385102,0.35094314,-0.23700284,0.419915,0.35345509,-0.2239139,0.390892,0.35470892,-0.21721384,0.376044,0.34485906,-0.22404192,0.362545,0.38175045,-0.25963475,0.440975,0.36127352,-0.25258684,0.410448,0.35186025,-0.24934259,0.396419,0.34355439,-0.24647842,0.384042
0.34212487,-0.30333382,0.477355,0.33263972,-0.26013454,0.440467,0.31575027,-0.2846856,0.461061,0.27651531,-0.25762592,0.438204,0.25892179,-0.22821767,0.430474,0.2435166,-0.20763518,0.418438,0.29554369,-0.21332429,0.395979,0.27130402,-0.22483999,0.360221,0.26104711,-0.23071644,0.361661,0.25505361,-0.22223864,0.362971,0.32579149,-0.22425156,0.406971,0.3070299,-0.22894084,0.37069,0.31426052,-0.24557861,0.371214,0.32165502,-0.27122156,0.384492,0.35138246,-0.2374437,0.419744,0.35423924,-0.2244021,0.390969,0.35567746,-0.21772689,0.376247,0.34602196,-0.22462447,0.362864,0.3824433,-0.26024305,0.441158,0.36227926,-0.25327974,0.410788,0.35300794,-0.25007518,0.396827,0.34482752,-0.2472474,0.384509
0.34137658,-0.30390781,0.476695,0.33187863,-0.26307816,0.440095,0.31499707,-0.28526932,0.46001,0.27563067,-0.26114854,0.436196,0.25768034,-0.23075545,0.427006,0.24190143,-0.20841182,0.414207,0.29744743,-0.21609373,0.395284,0.27488184,-0.22576727,0.359646,0.26414617,-0.232508,0.360549,0.25775672,-0.22587835,0.36137,0.32808648,-0.22703813,0.406859,0.31018536,-0.23189673,0.370961,0.31478841,-0.24621651,0.367825,0.31999633,-0.26976182,0.379513,0.35400717,-0.24025535,0.420084,0.35708031,-0.22696947,0.391239,0.35861229,-0.22016728,0.376481,0.34725286,-0.22569205,0.363065,0.38543254,-0.26310083,0.441974,0.36660513,-0.25383877,0.411849,0.36027024,-0.24739568,0.397982,0.35030129,-0.24582441,0.385747
0.34298149,-0.30659689,0.479225,0.33477366,-0.26701972,0.443192,0.3163749,-0.28796586,0.46221,0.27756887,-0.26399766,0.43632,0.25725161,-0.23237672,0.424493,0.24064046,-0.20972414,0.410429,0.29907075,-0.2206885,0.398315,0.27756487,-0.22847906,0.362829,0.2679783,-0.23768364,0.363753,0.26065339,-0.22921349,0.364592,0.32971232,-0.22911106,0.410472,0.3140328,-0.23498734,0.375004,0.30434316,-0.23750292,0.354315,0.29345798,-0.24704998,0.346867,0.35625631,-0.24243991,0.424118,0.33806003,-0.24170134,0.389184,0.32885107,-0.24012296,0.37131,0.31609314,-0.24603668,0.355061,0.38805472,-0.26480477,0.446397,0.3907893,-0.24398228,0.418895,0.38579332,-0.24685357,0.406259,0.37035849,-0.25163119,0.395109
0.34266099,-0.30763343,0.479264,0.33487228,-0.26811037,0.443533,0.31385145,-0.29142877,0.462079,0.27728294,-0.26463,0.436174,0.2570254,-0.23335052,0.424799,0.24105232,-0.21078713,0.410986,0.29841617,-0.22145776,0.39863,0.27791333,-0.22916244,0.363235,0.26820191,-0.23855189,0.364153,0.26109429,-0.23029011,0.364987,0.33020311,-0.23102054,0.411089,0.3148425,-0.23583965,0.375859,0.30569152,-0.2382883,0.355308,0.29491927,-0.24805781,0.347916,0.35662813,-0.24349517,0.424953,0.33829612,-0.24345083,0.390155,0.32917931,-0.24231959,0.372351,0.31637028,-0.24822531,0.356165,0.3888089,-0.26590817,0.447433,0.39065125,-0.24601434,0.419766,0.38516733,-0.24916871,0.407054,0.3693705,-0.25369265,0.395838
0.34217561,-0.30829689,0.478734,0.33531518,-0.270924,0.443048,0.31371328,-0.29223785,0.461518,0.27718329,-0.26529262,0.435684,0.2568854,-0.23411911,0.424443,0.24131063,-0.21119561,0.410697,0.29700501,-0.22306497,0.398132,0.27828998,-0.23070048,0.362754,0.26821897,-0.24025981,0.363647,0.27132226,-0.24080306,0.377963,0.3297394,-0.23276016,0.410644,0.31540496,-0.23726777,0.375457,0.3068336,-0.23952929,0.354931,0.29690361,-0.24989878,0.34753,0.35670858,-0.24572609,0.424547,0.33828745,-0.2446202,0.389774,0.3290294,-0.24525543,0.371983,0.31629739,-0.24955216,0.355809,0.38943529,-0.26835474,0.447065,0.3907489,-0.24728196,0.419555,0.38455247,-0.25231884,0.406915,0.36930159,-0.2550939,0.395763
0.34187353,-0.30906086,0.478298,0.33548308,-0.27191529,0.442886,0.31392193,-0.29425077,0.460881,0.27782132,-0.26862115,0.434296,0.2561281,-0.2365751,0.421302,0.24385384,-0.21421127,0.412972,0.29853442,-0.22648711,0.397885,0.28603261,-0.230864,0.362625,0.27656312,-0.24312147,0.363324,0.27489604,-0.24558159,0.377518,0.33050918,-0.23692548,0.410731,0.3175845,-0.24136291,0.375821,0.30981364,-0.24357625,0.355457,0.29796959,-0.2511915,0.347975,0.35761685,-0.2497565,0.424882,0.34025416,-0.249157,0.390273,0.33128044,-0.24869851,0.372566,0.31750901,-0.25289589,0.356469,0.39047455,-0.27219805,0.44764,0.3921798,-0.2559232,0.419956,0.38587312,-0.25967178,0.407236,0.36969243,-0.26095532,0.396013
0.34136511,-0.31130126,0.478817,0.33598452,-0.27535176,0.443564,0.31491511,-0.29676367,0.461283,0.27834336,-0.27002779,0.434862,0.25695215,-0.23811979,0.42225,0.24486293,-0.2155429,0.413995,0.29982742,-0.22950908,0.398511,0.28613337,-0.23261603,0.363327,0.27651799,-0.24471366,0.363887,0.27800092,-0.24913531,0.377994,0.33186034,-0.24013867,0.411552,0.31901101,-0.24480414,0.376812,0.31128435,-0.24714545,0.356547,0.3004675,-0.25593702,0.348999,0.35898594,-0.25309492,0.425848,0.34169813,-0.25269233,0.391343,0.33276176,-0.2523308,0.373689,0.31927356,-0.25665752,0.35764,0.3917998,-0.27562305,0.448746,0.39296712,-0.25807593,0.420972,0.38654994,-0.26185957,0.408211,0.37042085,-0.265856,0.396952
0.34147307,-0.31412937,0.480167,0.33690313,-0.27771209,0.44346,0.3168929,-0.3005295,0.463219,0.28069468,-0.27405751,0.437133,0.25875042,-0.24103815,0.42319,0.24941278,-0.22069316,0.418032,0.30000978,-0.23070435,0.398242,0.28793026,-0.23317055,0.363846,0.27561229,-0.24322691,0.360496,0.27553639,-0.24709841,0.372731,0.33111814,-0.24050516,0.410129,0.31863782,-0.24535727,0.375694,0.31112686,-0.24781108,0.355606,0.29825496,-0.25561201,0.345048,0.3575262,-0.25283678,0.42362,0.34007295,-0.24691531,0.389729,0.33280641,-0.24090413,0.37239,0.32126988,-0.24688855,0.356627,0.3896931,-0.27474087,0.445839,0.39153879,-0.25773766,0.418928,0.38552699,-0.26174042,0.406563,0.36977061,-0.2659161,0.395653
0.34176741,-0.31614893,0.479964,0.33723932,-0.27980055,0.443537,0.31682702,-0.3015302,0.462996,0.28059953,-0.27818568,0.436627,0.25802982,-0.24437134,0.421644,0.25021867,-0.22367295,0.41872,0.30018369,-0.23308243,0.39847,0.28930577,-0.23389706,0.364468,0.27955527,-0.24535119,0.360478,0.27673704,-0.24909771,0.372302,0.33124849,-0.2414099,0.410459,0.31991993,-0.24760561,0.376509,0.31306471,-0.25022856,0.356705,0.29974875,-0.25666141,0.345761,0.35761646,-0.25351351,0.424007,0.34184075,-0.24956725,0.390532,0.33543598,-0.24626903,0.373406,0.32281255,-0.25268262,0.357836,0.38968398,-0.27513398,0.446243,0.3919086,-0.25811303,0.419584,0.38621389,-0.26216642,0.407335,0.37069335,-0.26646213,0.396528
0.34363813,-0.31903448,0.481664,0.33703886,-0.27607321,0.444422,0.31791361,-0.3019424,0.464924,0.28165864,-0.27636646,0.438052,0.25802261,-0.24223612,0.422077,0.2502319,-0.22391979,0.418591,0.29816965,-0.22243807,0.399133,0.28017789,-0.21652787,0.363819,0.27335425,-0.23073811,0.36247,0.27215534,-0.2405384,0.375866,0.32935365,-0.23178101,0.410605,0.3130855,-0.23510344,0.374981,0.29999379,-0.23537036,0.3542,0.29225044,-0.24614155,0.344922,0.35602809,-0.24633194,0.42381,0.33958378,-0.24486876,0.388936,0.33155791,-0.24198831,0.371094,0.32142388,-0.24634019,0.354874,0.38871948,-0.2712276,0.445789,0.39166532,-0.2573696,0.418885,0.38579595,-0.2611518,0.406523,0.36941011,-0.26270057,0.395616
0.35287423,-0.32814549,0.49426,0.34485731,-0.28419582,0.454628,0.32909283,-0.31124122,0.480745,0.2932998,-0.28544177,0.454309,0.26691719,-0.25001208,0.435629,0.25372572,-0.22669133,0.423086,0.31071956,-0.22333631,0.411991,0.26963997,-0.22906701,0.376119,0.26227718,-0.23310899,0.377925,0.27367679,-0.23440859,0.392802,0.33514341,-0.23839592,0.41864,0.30283562,-0.23850702,0.380329,0.28326142,-0.23739222,0.357981,0.27442208,-0.24351843,0.350466,0.36051071,-0.25724233,0.428114,0.34287681,-0.2513141,0.3938,0.33227047,-0.24672034,0.376245,0.3246114,-0.24759736,0.360285,0.38679681,-0.28754877,0.446174,0.39095314,-0.25958862,0.419586,0.38609466,-0.2512025,0.40737,0.37501389,-0.25286746,0.396591
0.35342204,-0.32912836,0.495096,0.34534658,-0.28393819,0.455396,0.32996818,-0.31158541,0.481836,0.29404353,-0.28616557,0.455461,0.26804926,-0.25066395,0.436767,0.25484177,-0.22743575,0.423986,0.31151599,-0.22390876,0.413047,0.27043717,-0.22974424,0.377231,0.26318145,-0.23391269,0.379228,0.27462225,-0.23521839,0.394159,0.3361525,-0.23931238,0.419347,0.30333169,-0.23889771,0.380952,0.2837164,-0.23777352,0.358556,0.27496942,-0.24400413,0.351165,0.36052569,-0.25768308,0.42854,0.34286423,-0.25157614,0.394271,0.33230688,-0.24718157,0.376738,0.32445572,-0.2472474,0.360799,0.38689304,-0.28762031,0.446285,0.39041957,-0.26002463,0.419644,0.3864194,-0.2513969,0.407403,0.37612677,-0.25297372,0.396603
0.34465066,-0.32103855,0.483537,0.33889106,-0.27885251,0.447587,0.31980737,-0.30177564,0.467583,0.28272735,-0.2647322,0.445562,0.25810009,-0.2375588,0.42815,0.24731031,-0.21825974,0.417623,0.30299309,-0.23610541,0.404135,0.27389033,-0.23393019,0.3686,0.26038906,-0.2327325,0.350833,0.25521711,-0.23837634,0.344326,0.332509,-0.24810855,0.414942,0.30966046,-0.24950269,0.378881,0.29740434,-0.24909396,0.357846,0.29803997,-0.25351454,0.352041,0.35565259,-0.26483465,0.427469,0.34367122,-0.25521103,0.393743,0.33556617,-0.2544258,0.376488,0.32896662,-0.25118773,0.360889,0.38776732,-0.28865188,0.44843,0.39002566,-0.26452226,0.423084,0.39001577,-0.25756262,0.411438,0.38329261,-0.25728463,0.401163
0.34609025,-0.32215321,0.486069,0.33881329,-0.27951578,0.447794,0.32125257,-0.30261527,0.470062,0.28318803,-0.26516356,0.446288,0.25797552,-0.23788757,0.428772,0.24759474,-0.21835853,0.417822,0.3014641,-0.23529737,0.402798,0.27287903,-0.23306644,0.367239,0.25937001,-0.23182169,0.34946,0.25159187,-0.23499031,0.339435,0.33034513,-0.24759839,0.413039,0.30779211,-0.2479973,0.376595,0.29531745,-0.24734607,0.355335,0.29154141,-0.25033055,0.345944,0.35387628,-0.26351193,0.425334,0.34185972,-0.25439031,0.391737,0.33399152,-0.25321628,0.374548,0.32730767,-0.2501317,0.358921,0.38555575,-0.28719516,0.446437,0.38698078,-0.26325244,0.420448,0.38722535,-0.25644978,0.408507,0.38053536,-0.25583111,0.39797
0.34744704,-0.32318831,0.488059,0.34055552,-0.28144036,0.449918,0.32276498,-0.30445875,0.471943,0.28955131,-0.26864678,0.44786,0.2624283,-0.24200521,0.429495,0.25107762,-0.2221001,0.418989,0.3074263,-0.23729696,0.404865,0.27990702,-0.23643276,0.369356,0.26608971,-0.2359716,0.351601,0.25478549,-0.23756736,0.341513,0.33646727,-0.25171738,0.415284,0.31973254,-0.24874074,0.378972,0.3041783,-0.24697373,0.35779,0.29515342,-0.25247346,0.348358,0.36110925,-0.26721054,0.427711,0.34952201,-0.25683144,0.394095,0.34253268,-0.2534405,0.376896,0.33054631,-0.25155199,0.361261,0.3898227,-0.29011403,0.448946,0.38833504,-0.26429568,0.421681,0.38782929,-0.25796591,0.409154,0.38089004,-0.25646767,0.3981
0.34762327,-0.32297641,0.488524,0.3408441,-0.282019,0.450308,0.32311703,-0.30403293,0.472464,0.28980151,-0.26887892,0.448247,0.26355219,-0.24155561,0.430607,0.25142686,-0.22201678,0.419082,0.30774066,-0.23753961,0.405279,0.28021469,-0.23669265,0.369762,0.26639469,-0.23624207,0.352004,0.25589637,-0.23840266,0.3419,0.33672735,-0.25191195,0.415605,0.31908675,-0.24886125,0.379244,0.30438574,-0.24714216,0.358034,0.29495953,-0.25184617,0.348575,0.36132285,-0.2673686,0.427964,0.34978808,-0.25702695,0.394395,0.34282805,-0.25365904,0.377221,0.33165252,-0.25164248,0.361607,0.39029444,-0.29062172,0.449133,0.38867623,-0.26460902,0.421893,0.38802098,-0.25771578,0.409377,0.38126632,-0.25698596,0.398333
0.34703502,-0.32151219,0.487824,0.34027113,-0.28148861,0.449512,0.32272247,-0.30242477,0.471819,0.28681383,-0.26732081,0.447616,0.26096564,-0.23930794,0.430692,0.24923257,-0.22110205,0.418133,0.30478146,-0.23704805,0.404495,0.27728582,-0.23568674,0.369062,0.26540044,-0.23638819,0.351345,0.25535564,-0.2385764,0.341016,0.33373942,-0.25077394,0.414723,0.31299371,-0.2488406,0.378407,0.30047954,-0.24817051,0.357223,0.29493673,-0.25319738,0.347528,0.35841956,-0.26584777,0.427011,0.34668885,-0.25697677,0.393627,0.33946171,-0.25454494,0.376547,0.33164847,-0.25244897,0.36102,0.38846172,-0.28939297,0.448113,0.38823639,-0.26439765,0.421273,0.38734313,-0.25975099,0.408941,0.37977851,-0.25836773,0.39806
0.34703293,-0.32050629,0.488163,0.34035826,-0.28139384,0.449781,0.32288522,-0.30121291,0.472209,0.28705605,-0.26754768,0.447893,0.26090454,-0.2395491,0.430835,0.2483579,-0.22057313,0.417864,0.30517803,-0.23723056,0.404786,0.2777509,-0.23620294,0.369402,0.26542746,-0.23692906,0.35171,0.25561297,-0.23926828,0.341252,0.3342489,-0.25100106,0.414929,0.31348344,-0.24910387,0.378628,0.3007954,-0.2486979,0.357453,0.29492259,-0.25386159,0.34762,0.35888403,-0.26605804,0.427153,0.34720867,-0.25725755,0.393865,0.3398734,-0.25507814,0.376834,0.33238952,-0.25364566,0.361352,0.38879016,-0.28957172,0.448194,0.38831374,-0.26451645,0.42125,0.38705947,-0.25900525,0.40887,0.37972046,-0.25868951,0.397946
0.34714723,-0.31933692,0.488458,0.34055259,-0.28118805,0.45001,0.32313559,-0.2997699,0.472556,0.28727729,-0.26775465,0.448166,0.26082986,-0.23969297,0.430886,0.24798961,-0.21972262,0.417884,0.30567416,-0.23718716,0.405041,0.27812637,-0.23660863,0.369702,0.26552168,-0.23732423,0.352033,0.25583008,-0.23979393,0.341465,0.33463169,-0.25117723,0.415099,0.31385286,-0.24930733,0.378809,0.30104026,-0.24909083,0.35764,0.29491355,-0.25433695,0.347687,0.35922082,-0.26621183,0.42726,0.34755484,-0.25743936,0.394006,0.34012623,-0.25542837,0.376993,0.33300595,-0.25403866,0.361526,0.38902914,-0.2896985,0.448238,0.3883038,-0.26456107,0.421156,0.38685032,-0.25846926,0.408713,0.37955879,-0.25886849,0.397734
0.34706031,-0.31819219,0.488625,0.34078432,-0.2815719,0.450127,0.32330607,-0.29870898,0.472768,0.28745112,-0.26791728,0.448383,0.2607991,-0.23982411,0.430966,0.24741702,-0.21919022,0.417838,0.30596351,-0.23730679,0.405182,0.27837351,-0.2368837,0.369881,0.26557118,-0.23757627,0.352231,0.25595568,-0.24015342,0.341575,0.33487185,-0.25127403,0.415168,0.31408315,-0.24942268,0.378888,0.30117749,-0.24934727,0.357725,0.29485483,-0.25464862,0.347676,0.35941957,-0.26628718,0.427276,0.34775932,-0.25753479,0.394049,0.34025886,-0.25564844,0.377049,0.33302464,-0.25443613,0.361595,0.38915858,-0.28975391,0.448202,0.38824068,-0.26455918,0.421021,0.38638242,-0.25820049,0.408533,0.38017632,-0.25850598,0.397514
0.34700471,-0.31776804,0.488543,0.3408481,-0.28210431,0.450063,0.32319729,-0.29886995,0.472673,0.28743452,-0.26790229,0.448315,0.26070667,-0.23986313,0.430915,0.24716361,-0.21929798,0.417715,0.30605299,-0.23729462,0.405112,0.27841737,-0.23697139,0.369823,0.26545987,-0.23762526,0.352178,0.25593756,-0.24032432,0.341506,0.3349775,-0.25128843,0.415121,0.31419069,-0.2494555,0.378863,0.30121847,-0.24949234,0.357713,0.29479523,-0.25487888,0.347651,0.35953766,-0.26631878,0.427245,0.3478607,-0.25756627,0.394017,0.34029391,-0.25576841,0.377017,0.33295935,-0.25468436,0.361562,0.38934986,-0.28990401,0.448187,0.38815416,-0.2648209,0.420988,0.38638136,-0.25828935,0.408491,0.38017897,-0.25925528,0.397465
0.34719642,-0.31755035,0.488898,0.34111561,-0.28267661,0.450433,0.32330013,-0.29923561,0.473015,0.2878016,-0.26777843,0.448484,0.26110409,-0.23970982,0.430947,0.24756428,-0.21918167,0.417648,0.30624676,-0.23721576,0.405478,0.27858077,-0.23715639,0.370204,0.26470909,-0.23705209,0.352567,0.25604863,-0.24072128,0.341871,0.33521689,-0.25118624,0.415506,0.31564036,-0.24915326,0.379274,0.30146307,-0.24946565,0.358138,0.29489939,-0.2549795,0.348055,0.35982145,-0.26621113,0.427645,0.34914426,-0.25723215,0.394345,0.34025313,-0.25579284,0.377307,0.33142515,-0.25619747,0.361819,0.38978157,-0.28992908,0.448601,0.38807291,-0.26469932,0.421167,0.38614392,-0.25819526,0.408562,0.37849022,-0.26150462,0.39744
0.34789123,-0.31807286,0.489531,0.34184194,-0.2830025,0.451097,0.32396159,-0.29968337,0.473627,0.28835819,-0.26784573,0.448742,0.26134555,-0.2399352,0.430785,0.24751011,-0.2201095,0.416958,0.30694438,-0.23732812,0.406133,0.27919123,-0.2376949,0.370888,0.26527161,-0.23780665,0.353265,0.25652686,-0.24162805,0.342526,0.33596913,-0.25133716,0.416197,0.31565874,-0.24727104,0.380012,0.30225149,-0.24964053,0.358903,0.29546699,-0.2553359,0.348783,0.36062028,-0.26641511,0.428363,0.34642615,-0.25453249,0.394865,0.3398641,-0.25635391,0.377727,0.33097561,-0.25683323,0.362147,0.39063203,-0.29023117,0.449344,0.38656444,-0.26190353,0.421686,0.38615845,-0.2584728,0.408978,0.37754294,-0.26176167,0.397765
0.3484245,-0.3188565,0.489739,0.34234767,-0.28335658,0.451234,0.32453508,-0.30035118,0.473891,0.28909634,-0.26821874,0.449011,0.26208369,-0.24023406,0.430958,0.2477012,-0.22048524,0.416809,0.30748241,-0.23728679,0.406298,0.27960481,-0.23788427,0.37104,0.26561897,-0.23811842,0.353411,0.25682414,-0.24205269,0.342675,0.33642901,-0.25131835,0.416271,0.31581693,-0.24895359,0.380031,0.30242317,-0.24952611,0.358891,0.29431271,-0.25629862,0.348761,0.36102069,-0.26645494,0.428368,0.34930087,-0.25672487,0.394937,0.34079284,-0.25581433,0.377833,0.33064665,-0.25734621,0.362283,0.39097847,-0.29041488,0.449282,0.38865198,-0.2642442,0.421649,0.38606473,-0.25851626,0.408953,0.37809035,-0.26105151,0.397751
0.34842499,-0.31908543,0.489823,0.34228534,-0.2833626,0.451297,0.3245153,-0.3005348,0.473994,0.28911416,-0.26816631,0.448995,0.26203566,-0.2401716,0.4308,0.24726964,-0.22084776,0.416265,0.30735137,-0.23710342,0.40637,0.27941298,-0.23782116,0.371112,0.26539854,-0.23810989,0.353483,0.25657006,-0.24208529,0.342741,0.33630185,-0.25112709,0.416312,0.31557862,-0.24878685,0.380059,0.30193894,-0.24964263,0.358911,0.29405791,-0.25620896,0.348772,0.36090736,-0.26628037,0.428387,0.34916427,-0.25636083,0.394934,0.3403277,-0.25583296,0.377819,0.33025382,-0.25730196,0.36226,0.39089716,-0.29030008,0.449279,0.38846642,-0.26393993,0.421578,0.38571479,-0.25847267,0.408851,0.37734388,-0.26125996,0.397621
0.34824066,-0.31966394,0.489813,0.34203734,-0.28359,0.45125,0.32432225,-0.30100729,0.474007,0.28869705,-0.26834433,0.448424,0.26155501,-0.23988486,0.430004,0.24763273,-0.22379097,0.41389,0.3070483,-0.23699469,0.40633,0.27913474,-0.23749187,0.371009,0.26513366,-0.23766736,0.353348,0.25641624,-0.24163252,0.342713,0.33598432,-0.25104921,0.416233,0.31517324,-0.24856394,0.379893,0.3013595,-0.24951184,0.358694,0.29395861,-0.25585123,0.348657,0.3605906,-0.26626308,0.428279,0.34877648,-0.25845461,0.394727,0.33949462,-0.25573741,0.377561,0.32959711,-0.25700659,0.361956,0.39093055,-0.29131303,0.449143,0.38815235,-0.26373191,0.421429,0.38530903,-0.25841588,0.408696,0.3766808,-0.26136841,0.397461
0.34817018,-0.32066147,0.490007,0.34198031,-0.28410632,0.451453,0.32423262,-0.30183165,0.47419,0.28892927,-0.26876824,0.448533,0.26210701,-0.24014292,0.430244,0.24775233,-0.22416827,0.413955,0.30696682,-0.23701617,0.406526,0.27915015,-0.23719083,0.371143,0.26519855,-0.23720826,0.353452,0.2566369,-0.24113167,0.342939,0.33592337,-0.25114642,0.416445,0.31512817,-0.24840909,0.380046,0.30131126,-0.24923386,0.358812,0.29402209,-0.25560706,0.348898,0.36055629,-0.26647235,0.428503,0.34810447,-0.25851683,0.394817,0.33909795,-0.25549233,0.377582,0.32887528,-0.2568922,0.361914,0.39089028,-0.29181269,0.44938,0.38820247,-0.26375061,0.421696,0.38533653,-0.25844552,0.408976,0.37660138,-0.26144374,0.397753
0.34809306,-0.32165414,0.490192,0.34192092,-0.2846209,0.451653,0.32413803,-0.30265204,0.474366,0.28916789,-0.26919812,0.448652,0.2626464,-0.2403893,0.430463,0.24787613,-0.22445962,0.414072,0.30688556,-0.23703772,0.406722,0.27916937,-0.23689315,0.371282,0.26526717,-0.23675258,0.353561,0.25686211,-0.24063433,0.343171,0.33586333,-0.25124424,0.416658,0.31508729,-0.24825759,0.380204,0.30127063,-0.24896222,0.358939,0.29409304,-0.25536913,0.349148,0.36052281,-0.26668221,0.428728,0.34743561,-0.25858102,0.39491,0.33870576,-0.25525065,0.377608,0.32816041,-0.25678285,0.361879,0.39084987,-0.2923126,0.449617,0.38825821,-0.2637731,0.421969,0.38537349,-0.25848149,0.409266,0.37653339,-0.26152702,0.398057
0.34835748,-0.32279579,0.490726,0.34211627,-0.28525494,0.452187,0.32435657,-0.30364388,0.474903,0.28981679,-0.26993213,0.449345,0.26360506,-0.24097041,0.431334,0.24765742,-0.22392172,0.415268,0.30697031,-0.23718959,0.407259,0.27937616,-0.23694009,0.371789,0.26552909,-0.23676025,0.354054,0.25722723,-0.24065637,0.343727,0.33598255,-0.25143452,0.417191,0.31498777,-0.24843837,0.380703,0.30118083,-0.24893642,0.359418,0.29415424,-0.25518689,0.34969,0.36068892,-0.266957,0.429258,0.34694045,-0.25876015,0.395329,0.33850847,-0.25526047,0.37797,0.3276744,-0.25692184,0.362188,0.39103486,-0.2922415,0.450143,0.38855189,-0.26366065,0.422534,0.38561905,-0.25845914,0.409849,0.37658386,-0.26161761,0.398656
0.34863877,-0.32395417,0.491284,0.34232207,-0.28589798,0.452735,0.32459889,-0.30465862,0.475475,0.2903045,-0.27051599,0.449788,0.26432626,-0.24133426,0.431816,0.24831004,-0.22478036,0.415505,0.30707264,-0.23735495,0.407819,0.27959133,-0.2369942,0.372307,0.26579485,-0.23677143,0.354552,0.25761409,-0.24069874,0.344312,0.3361067,-0.25162844,0.41773,0.31487684,-0.24861004,0.381188,0.30107,-0.24889324,0.359872,0.29421142,-0.25500083,0.350228,0.36084907,-0.26722741,0.429781,0.34643757,-0.25893285,0.395738,0.3383012,-0.25526284,0.378321,0.32717972,-0.25705378,0.362487,0.39124001,-0.29271039,0.450649,0.38884114,-0.26354536,0.423094,0.38586569,-0.25843756,0.410433,0.37664136,-0.26171303,0.399262
0.34951233,-0.32534727,0.492102,0.342926,-0.28675096,0.453473,0.32541626,-0.30596379,0.476366,0.29129485,-0.27198858,0.450558,0.26595503,-0.24217525,0.432941,0.2494848,-0.2263578,0.416312,0.30743513,-0.23778411,0.408602,0.27996427,-0.23733062,0.373039,0.26616733,-0.23707079,0.355257,0.25807332,-0.24104717,0.345114,0.33645695,-0.2520095,0.418396,0.31463747,-0.24957977,0.381746,0.30093771,-0.24901704,0.360367,0.29420073,-0.25498608,0.350804,0.36122344,-0.26762272,0.430358,0.34604793,-0.25931077,0.396174,0.3381018,-0.25539715,0.378685,0.32664069,-0.25731556,0.362786,0.39169038,-0.29385765,0.451137,0.38917516,-0.26369151,0.423567,0.38612663,-0.25851996,0.4109,0.37686918,-0.26173784,0.399723
0.35014059,-0.32653504,0.492485,0.34333292,-0.28757025,0.453785,0.32601974,-0.30706166,0.476816,0.29196554,-0.27253777,0.451182,0.26663227,-0.24309942,0.433643,0.25008575,-0.22713791,0.417045,0.30766997,-0.23827771,0.408956,0.28021827,-0.23755992,0.373357,0.26642586,-0.23718765,0.355558,0.25839448,-0.2411228,0.34548,0.33665614,-0.25250696,0.418644,0.31454429,-0.24990743,0.381909,0.30063814,-0.24932002,0.36048,0.29404927,-0.25506469,0.35097,0.36142302,-0.26816184,0.430527,0.34613176,-0.25945352,0.396252,0.33795416,-0.25559065,0.378716,0.32651358,-0.25730845,0.362774,0.39197219,-0.29396384,0.451225,0.38934899,-0.26411475,0.42366,0.38637065,-0.25859795,0.410994,0.37743535,-0.26154206,0.399819
0.35089773,-0.32768682,0.492813,0.34386318,-0.28838444,0.454046,0.32675093,-0.30812968,0.47721,0.29256801,-0.2730387,0.451783,0.26723318,-0.24362511,0.434338,0.25093751,-0.22806236,0.417778,0.30802221,-0.23879131,0.409259,0.28057865,-0.2378259,0.373629,0.26678483,-0.23734826,0.355815,0.25880497,-0.24124169,0.345793,0.33697453,-0.25302576,0.418844,0.31446303,-0.2501639,0.382031,0.30044351,-0.24968167,0.360557,0.29398831,-0.25519979,0.35109,0.36174193,-0.2687193,0.430648,0.34617589,-0.25954645,0.396289,0.33791619,-0.25584057,0.37871,0.3264903,-0.25736415,0.362728,0.39217463,-0.29403157,0.451269,0.38966419,-0.26458437,0.423732,0.38681018,-0.25865113,0.411079,0.37830703,-0.26129822,0.399916
0.35157122,-0.32851986,0.493313,0.34435808,-0.28895769,0.454504,0.32738706,-0.30894171,0.477755,0.29316875,-0.27385433,0.452427,0.26786788,-0.24433568,0.435081,0.25153748,-0.22906516,0.418558,0.30835746,-0.2391875,0.409748,0.28102823,-0.23805935,0.374093,0.26728392,-0.23751461,0.356265,0.25940075,-0.24139568,0.346298,0.33730315,-0.25337157,0.419263,0.31456897,-0.25051787,0.382391,0.30054368,-0.24986292,0.360883,0.29422104,-0.25526393,0.351462,0.3620862,-0.26904917,0.431013,0.34696186,-0.25911317,0.396602,0.33807446,-0.2559824,0.378997,0.32672856,-0.25733776,0.362991,0.39257453,-0.29438998,0.451579,0.38992834,-0.26490322,0.424004,0.38706181,-0.25881387,0.411335,0.37872956,-0.26128371,0.400156
0.35225333,-0.32936102,0.493825,0.34486279,-0.28953918,0.454975,0.32803075,-0.3097609,0.478311,0.29377012,-0.27467055,0.453072,0.26849877,-0.24504267,0.435818,0.25213386,-0.23006466,0.419332,0.30870325,-0.23959181,0.410251,0.28148905,-0.23830236,0.374572,0.26779576,-0.23769229,0.356732,0.26000936,-0.24156141,0.34682,0.33764381,-0.25372638,0.419697,0.31468982,-0.25088353,0.382769,0.30065977,-0.25005732,0.361228,0.29446959,-0.25534169,0.351853,0.36244468,-0.26938962,0.431395,0.34696408,-0.25966285,0.39692,0.33823006,-0.25612217,0.379281,0.32695962,-0.25730545,0.363246,0.39298926,-0.29475949,0.451906,0.39021914,-0.26524021,0.424305,0.38734357,-0.25899675,0.411623,0.37918728,-0.26129319,0.400433
0.35313,-0.32985975,0.494444,0.34553654,-0.28988554,0.455534,0.32886443,-0.31030646,0.478981,0.29451804,-0.27524413,0.453786,0.26916035,-0.24560541,0.436531,0.25274003,-0.23078589,0.420047,0.30919764,-0.23990455,0.410836,0.28198607,-0.23876848,0.375159,0.26828775,-0.23824654,0.35732,0.26048039,-0.24218146,0.347387,0.33813404,-0.25393812,0.420201,0.31489263,-0.2512389,0.383239,0.30076169,-0.25040775,0.361679,0.29453437,-0.25563882,0.352273,0.36295177,-0.26953251,0.431839,0.34744091,-0.25980458,0.397355,0.33866711,-0.25631055,0.379712,0.32743181,-0.25745272,0.363673,0.39355209,-0.294847,0.45229,0.3905509,-0.2654216,0.424589,0.3875848,-0.25912818,0.411862,0.37945994,-0.26133195,0.400632
0.35323082,-0.33042165,0.495112,0.34580941,-0.29033639,0.456232,0.32901029,-0.31077788,0.479623,0.29475702,-0.27557702,0.454392,0.26949065,-0.24582862,0.437119,0.25314646,-0.23109852,0.420626,0.30963384,-0.24018583,0.411522,0.28254179,-0.23911608,0.375842,0.26889343,-0.23864196,0.358002,0.26114327,-0.24263054,0.348085,0.3385524,-0.25429855,0.420928,0.31521541,-0.25169767,0.383982,0.30108355,-0.25083774,0.36243,0.29490161,-0.25602366,0.353045,0.36334084,-0.26996879,0.432597,0.34800648,-0.26020911,0.398139,0.33923588,-0.25682871,0.38051,0.32799802,-0.25800343,0.364483,0.39388085,-0.29539126,0.453078,0.39095064,-0.26676035,0.425294,0.38789654,-0.26036916,0.412528,0.37957666,-0.26208299,0.401264
0.3534046,-0.33137373,0.49577,0.34614156,-0.29104473,0.456952,0.32919436,-0.31159633,0.48024,0.29501179,-0.27622112,0.454998,0.26983729,-0.24636275,0.437759,0.25356885,-0.23168069,0.421274,0.31006986,-0.2405931,0.412227,0.28303216,-0.23966627,0.376528,0.26940239,-0.23927321,0.358679,0.26172418,-0.24338841,0.34883,0.33901463,-0.25479952,0.421704,0.31560603,-0.25217722,0.384769,0.30149244,-0.25122767,0.363224,0.29542141,-0.25637364,0.353915,0.36381525,-0.27057144,0.433424,0.34872141,-0.26069275,0.399049,0.34013382,-0.25714571,0.381462,0.32968416,-0.25716265,0.365473,0.39367848,-0.29650764,0.453955,0.39156473,-0.26664438,0.426352,0.3886705,-0.26036584,0.413669,0.38060458,-0.26254085,0.402479
0.35323808,-0.33218054,0.496082,0.34622178,-0.29163628,0.457342,0.32906889,-0.312248,0.480502,0.29500349,-0.27669056,0.455252,0.26992065,-0.24670458,0.438002,0.2537523,-0.23219381,0.421509,0.31034902,-0.24087693,0.412603,0.28336187,-0.23989504,0.376882,0.26975472,-0.23947401,0.359021,0.26217302,-0.24363265,0.349261,0.33930169,-0.25521083,0.422165,0.31607824,-0.2523439,0.385244,0.30198465,-0.25140015,0.363707,0.29595676,-0.25667227,0.354498,0.36409093,-0.2711097,0.433947,0.34920317,-0.26101089,0.399616,0.34081412,-0.25719348,0.382052,0.33079352,-0.25665552,0.366084,0.39378927,-0.29738371,0.454537,0.39196814,-0.26730509,0.427041,0.38922182,-0.26085503,0.414408,0.38138428,-0.26290123,0.403261
0.35298101,-0.33258702,0.496038,0.34605648,-0.29214047,0.457402,0.32880198,-0.31258634,0.480416,0.29482944,-0.27698174,0.455219,0.26987538,-0.24686113,0.437994,0.25371392,-0.23247959,0.421509,0.31022218,-0.24134915,0.412674,0.28344165,-0.24019969,0.376902,0.26973845,-0.24014049,0.359016,0.26247644,-0.24412881,0.34945,0.33870627,-0.25624598,0.422319,0.31606772,-0.25265895,0.385383,0.30197372,-0.25162979,0.363837,0.29613916,-0.2569672,0.35483,0.36189929,-0.27310365,0.434159,0.34968026,-0.26126758,0.399928,0.34253386,-0.25582808,0.382414,0.33105833,-0.25773671,0.366493,0.39143308,-0.29967628,0.454797,0.39000538,-0.27225021,0.427443,0.3896675,-0.26164358,0.414875,0.38319824,-0.26230454,0.403785
0.35423395,-0.33492827,0.498564,0.3467943,-0.29336346,0.459187,0.33092137,-0.31537482,0.484277,0.29670355,-0.27937405,0.458631,0.27100097,-0.24832764,0.440136,0.25470789,-0.23338334,0.423196,0.30645707,-0.23674297,0.415714,0.27932854,-0.23439111,0.379738,0.26576975,-0.23302831,0.361749,0.2592166,-0.23723279,0.353473,0.33643086,-0.25402034,0.423431,0.30605799,-0.24163109,0.385453,0.28974654,-0.23529353,0.3633,0.27743242,-0.2448789,0.355349,0.36077783,-0.27148451,0.433759,0.34563592,-0.26033839,0.399596,0.33550097,-0.25496247,0.382117,0.33159797,-0.25197358,0.366227,0.3894296,-0.29846906,0.452767,0.38971039,-0.27267137,0.426559,0.38943747,-0.26168146,0.414517,0.38379334,-0.26219187,0.403891
0.35222441,-0.33467109,0.49693,0.34201446,-0.29279483,0.457046,0.32954162,-0.31541233,0.483545,0.29347175,-0.28075942,0.457653,0.26793235,-0.24952059,0.438776,0.25391823,-0.23330398,0.422672,0.30381006,-0.23566362,0.41442,0.27838562,-0.23344297,0.379129,0.26567003,-0.23218426,0.361484,0.26003379,-0.23662586,0.353712,0.33055562,-0.25006756,0.420831,0.30336011,-0.23851188,0.382432,0.28749012,-0.23174995,0.360032,0.27589188,-0.24154362,0.352267,0.35389249,-0.26664247,0.430134,0.34006105,-0.25606769,0.396255,0.33298572,-0.25065824,0.378922,0.32655353,-0.24574049,0.363164,0.38335876,-0.29436627,0.448039,0.38875904,-0.26801329,0.423986,0.38805459,-0.25923517,0.412934,0.38702892,-0.25804866,0.403183
0.3485099,-0.33278505,0.493179,0.33929154,-0.29051104,0.45413,0.32547735,-0.31279797,0.479109,0.28612207,-0.28092127,0.454041,0.25377668,-0.25300951,0.434192,0.24030433,-0.22959581,0.420629,0.3011814,-0.23288228,0.411147,0.27566058,-0.23105834,0.3759,0.26289712,-0.22998203,0.358276,0.25756617,-0.23480724,0.350941,0.32867283,-0.24784767,0.418672,0.3029196,-0.23781025,0.380678,0.2885171,-0.23322256,0.358515,0.27967001,-0.2331946,0.342684,0.3525764,-0.26488584,0.428808,0.34749939,-0.23837283,0.395359,0.33662169,-0.23763758,0.378246,0.32444344,-0.24385039,0.362688,0.38255299,-0.2931399,0.447535,0.38381925,-0.26549206,0.421837,0.38431898,-0.25440934,0.410029,0.38159724,-0.25131903,0.399611
0.34717037,-0.33287144,0.492692,0.33809837,-0.28919599,0.453513,0.32419274,-0.31258591,0.478698,0.28528696,-0.2796978,0.45354,0.25726789,-0.25100411,0.434343,0.24158769,-0.22786777,0.420662,0.29974192,-0.23087055,0.410545,0.27488349,-0.22998233,0.375373,0.26208577,-0.22900425,0.357787,0.25666702,-0.23381345,0.35039,0.32724576,-0.24556911,0.417936,0.30254743,-0.23695169,0.379882,0.28729463,-0.23196418,0.357684,0.27193141,-0.23403881,0.341828,0.35110186,-0.262442,0.427975,0.34584652,-0.2362792,0.394443,0.33503301,-0.23503085,0.377287,0.31959886,-0.23799692,0.36169,0.38096187,-0.2906169,0.446613,0.38127996,-0.26220714,0.420292,0.38074849,-0.25190783,0.408199,0.3785448,-0.24953125,0.397528
0.34526534,-0.3322334,0.491312,0.33722853,-0.28859865,0.452368,0.32218882,-0.31150753,0.477122,0.28332017,-0.27713028,0.452514,0.25433376,-0.2496451,0.433402,0.24168953,-0.22660964,0.42063,0.29887236,-0.23020757,0.409295,0.27373368,-0.22915411,0.374009,0.26085251,-0.22818699,0.356367,0.25544212,-0.23305596,0.34902,0.32704336,-0.24592408,0.417004,0.30207136,-0.23649741,0.37908,0.28695783,-0.23167822,0.356957,0.27604642,-0.23227576,0.341155,0.35101026,-0.26309013,0.427282,0.34573982,-0.23531552,0.393798,0.33454647,-0.23437051,0.376666,0.32056592,-0.23849539,0.361092,0.38101317,-0.29147263,0.446155,0.38188495,-0.26289782,0.420122,0.3817761,-0.25248391,0.408161,0.37829483,-0.24975678,0.397607
