sluyters/QuantumLeap/src/datasets/gesture/HandGestureDataset_SHREC2017_csv/Gesture2/finger_2/subject_12_essai_3_skeletons_world.csv
Wrist_x,Wrist_y,Wrist_z,Palm_x,Palm_y,Palm_z,thumb_base_x,thumb_base_y,thumb_base_z,thumb_first_joint_x,thumb_first_joint_y,thumb_first_joint_z,thumb_second_joint_x,thumb_second_joint_y,thumb_second_joint_z,thumb_tip_x,thumb_tip_y,thumb_tip_z,index_base_x,index_base_y,index_base_z,index_first_joint_x,index_first_joint_y,index_first_joint_z,index_second_joint_x,index_second_joint_y,index_second_joint_z,index_tip_x,index_tip_y,index_tip_z,middle_base_x,middle_base_y,middle_base_z,middle_first_joint_x,middle_first_joint_y,middle_first_joint_z,middle_second_joint_x,middle_second_joint_y,middle_second_joint_z,middle_tip_x,middle_tip_y,middle_tip_z,ring_base_x,ring_base_y,ring_base_z,ring_first_joint_x,ring_first_joint_y,ring_first_joint_z,ring_second_joint_x,ring_second_joint_y,ring_second_joint_z,ring_tip_x,ring_tip_y,ring_tip_z,pinky_base_x,pinky_base_y,pinky_base_z,pinky_first_joint_x,pinky_first_joint_y,pinky_first_joint_z,pinky_second_joint_x,pinky_second_joint_y,pinky_second_joint_z,pinky_tip_x,pinky_tip_y,pinky_tip_z,r
0.43730077,-0.33321972,0.46602,0.4462302,-0.28897626,0.471739,0.42221939,-0.32478606,0.470451,0.4140561,-0.29316997,0.478111,0.39954934,-0.26796294,0.476857,0.39974219,-0.25235101,0.480934,0.43042693,-0.25480183,0.480932,0.42145123,-0.21991308,0.481102,0.41691508,-0.2022805,0.481188,0.41276137,-0.18613979,0.481265,0.45122319,-0.25273487,0.476935,0.45298697,-0.21770353,0.482509,0.45292506,-0.19644647,0.48576,0.45187557,-0.1846356,0.488082,0.46816593,-0.25660261,0.473125,0.46643332,-0.21762797,0.474786,0.46525156,-0.19843857,0.475635,0.46371548,-0.18198492,0.476407,0.48747958,-0.26417037,0.467725,0.4861433,-0.22996967,0.466434,0.48820977,-0.21927132,0.469668,0.49061925,-0.2075264,0.472521
0.4291429,-0.32536647,0.456489,0.43592045,-0.27692371,0.458904,0.41806143,-0.31193521,0.460908,0.4092286,-0.28740002,0.469639,0.39325341,-0.2610834,0.4658,0.38998846,-0.24380002,0.466837,0.41969411,-0.24045499,0.466035,0.40904552,-0.20434781,0.463369,0.40367261,-0.18609289,0.462035,0.39876046,-0.16937855,0.460823,0.43961344,-0.23743905,0.461149,0.43136119,-0.19753134,0.458572,0.42586762,-0.17473482,0.457069,0.42189969,-0.15821036,0.455996,0.45617706,-0.23854586,0.456912,0.45194511,-0.19987495,0.45544,0.44922852,-0.18007033,0.454686,0.44627703,-0.16362312,0.454002,0.47591194,-0.24646519,0.451546,0.47277891,-0.21357349,0.449689,0.47109683,-0.19850968,0.448836,0.46960762,-0.18513192,0.448083
0.42604042,-0.31777826,0.451171,0.4303837,-0.2714718,0.451902,0.41544206,-0.30800764,0.457336,0.40864533,-0.28289794,0.466094,0.39161455,-0.25776054,0.463466,0.38850711,-0.24048091,0.464525,0.41580259,-0.2351082,0.460166,0.40443813,-0.19957817,0.457935,0.39869199,-0.18157649,0.45682,0.39342957,-0.16507034,0.455806,0.43451056,-0.2298858,0.452584,0.42434949,-0.19094875,0.448058,0.42127172,-0.16638987,0.445418,0.41691154,-0.14997251,0.443532,0.44868971,-0.23124478,0.446278,0.44408965,-0.19232136,0.445295,0.44146687,-0.1724235,0.444792,0.43746437,-0.15776559,0.444334,0.46524157,-0.23960724,0.438746,0.46285942,-0.20700261,0.438087,0.46160663,-0.19204481,0.437784,0.46358793,-0.18141079,0.441403
0.42803152,-0.3156697,0.451199,0.42450377,-0.26457961,0.443383,0.41340513,-0.30508833,0.454699,0.40222147,-0.27802569,0.459138,0.38407571,-0.25127513,0.455201,0.37883471,-0.2330395,0.45406,0.40207266,-0.22217657,0.442817,0.38417955,-0.18390999,0.432988,0.37521115,-0.16469696,0.428073,0.3670452,-0.14718225,0.423605,0.42019946,-0.2208722,0.436078,0.4059075,-0.17646247,0.4236,0.39633757,-0.15330998,0.416321,0.38946665,-0.13649714,0.411122,0.4357215,-0.22385914,0.431219,0.42317846,-0.18180145,0.422126,0.41676398,-0.16032387,0.417473,0.41083778,-0.1409316,0.413244,0.45504638,-0.23478192,0.426746,0.4484498,-0.19935944,0.420677,0.44513989,-0.18381427,0.417889,0.44198233,-0.17166516,0.415428
0.42736679,-0.30993382,0.448273,0.41587681,-0.25517062,0.432523,0.41148703,-0.29688721,0.449833,0.39323554,-0.26828322,0.448466,0.37171386,-0.24080761,0.44133,0.36624727,-0.22501052,0.441348,0.38521905,-0.20897798,0.424409,0.36235786,-0.17095972,0.406938,0.35089621,-0.15182184,0.398202,0.34045691,-0.13434197,0.39026,0.40331369,-0.20785705,0.417757,0.38033506,-0.16420348,0.398409,0.3662423,-0.14085674,0.387122,0.3561491,-0.12402819,0.37906,0.41963032,-0.21114828,0.413663,0.39976789,-0.16829762,0.396718,0.38960789,-0.14639519,0.388049,0.38015797,-0.12706868,0.380168,0.44135118,-0.22271176,0.411344,0.42882026,-0.18607045,0.399316,0.42306236,-0.16930482,0.39379,0.41876154,-0.1548382,0.38964
0.42722509,-0.30779479,0.447031,0.40972192,-0.24879926,0.424108,0.40986268,-0.29382526,0.447031,0.3880869,-0.26282413,0.441296,0.36473671,-0.23855576,0.433857,0.35432734,-0.21953645,0.429228,0.37127439,-0.20462005,0.409431,0.34342963,-0.16957815,0.38555,0.32947403,-0.15193462,0.373609,0.31676582,-0.1358143,0.362754,0.38914209,-0.20333367,0.402616,0.35960099,-0.16385652,0.377029,0.34234909,-0.14072141,0.362103,0.3300157,-0.12414056,0.351441,0.40603702,-0.20661703,0.399017,0.37967712,-0.16533786,0.37538,0.36617304,-0.14427267,0.363287,0.3538951,-0.12510844,0.352293,0.42987172,-0.21843206,0.39842,0.41192964,-0.18099109,0.380388,0.40367938,-0.16390796,0.372103,0.39576908,-0.15233207,0.364793
0.42504017,-0.29979394,0.441798,0.39944222,-0.24268124,0.411476,0.40598423,-0.28466261,0.440596,0.37763779,-0.25488664,0.429402,0.35247306,-0.23277344,0.421184,0.3394369,-0.21362097,0.414224,0.3560315,-0.19861797,0.390542,0.32204685,-0.16869129,0.361331,0.30502732,-0.15367151,0.346726,0.28953546,-0.13997808,0.333448,0.37302677,-0.19925456,0.383046,0.33709806,-0.16383965,0.351856,0.31613072,-0.14314955,0.333662,0.30114979,-0.12835418,0.320667,0.38969959,-0.20388943,0.379534,0.35802437,-0.16470442,0.352237,0.34181921,-0.14466218,0.338271,0.32708824,-0.12644618,0.325575,0.41416164,-0.21682935,0.380215,0.39338079,-0.17885873,0.360636,0.38382863,-0.16160583,0.35164,0.37311799,-0.15740308,0.343702
0.42295063,-0.29675145,0.438891,0.3940548,-0.24270605,0.404579,0.40139694,-0.28240589,0.43577,0.36995937,-0.25580155,0.421294,0.34066601,-0.23366374,0.409342,0.32499642,-0.21387147,0.39965,0.34493893,-0.20456124,0.378667,0.30903775,-0.17631733,0.347174,0.29095689,-0.16274812,0.331428,0.27449696,-0.1504561,0.317113,0.36342261,-0.20568817,0.372408,0.32537448,-0.17211327,0.338666,0.30306077,-0.15310914,0.318983,0.28711319,-0.13957656,0.304924,0.38162992,-0.21044988,0.370265,0.34649186,-0.17506672,0.338189,0.32851533,-0.15697289,0.321778,0.31217391,-0.14053052,0.306859,0.40844447,-0.2230183,0.373189,0.38342308,-0.18643416,0.349022,0.37191832,-0.16976987,0.337919,0.35980323,-0.1673883,0.328121
0.42088317,-0.29844465,0.438108,0.39204898,-0.24867494,0.401433,0.39860994,-0.28376271,0.433861,0.36696453,-0.25639214,0.417389,0.3375869,-0.23671331,0.403619,0.32128755,-0.21389378,0.393649,0.34297687,-0.21065903,0.372588,0.30714294,-0.18405509,0.339391,0.2890821,-0.17132847,0.322792,0.27264483,-0.15981275,0.307702,0.36204673,-0.21339776,0.367047,0.32417344,-0.18150132,0.331466,0.30194127,-0.16349737,0.31071,0.28605098,-0.1506836,0.295884,0.38069157,-0.2193511,0.365703,0.34574239,-0.18553442,0.331714,0.32786194,-0.1682407,0.314325,0.31160598,-0.15252404,0.298516,0.40795585,-0.23306742,0.369941,0.38305051,-0.19718045,0.34388,0.37158441,-0.18080897,0.331906,0.35888013,-0.17894175,0.321341
0.43505424,-0.30701323,0.451995,0.40443137,-0.26655865,0.41297,0.40966261,-0.29186868,0.445532,0.37579465,-0.27317647,0.426078,0.34428312,-0.25171536,0.409583,0.32687771,-0.232721,0.396876,0.35351664,-0.22011527,0.37982,0.31396541,-0.20155142,0.347302,0.29418757,-0.19226957,0.331043,0.27620606,-0.18383152,0.316262,0.37399195,-0.22526326,0.37638,0.34041834,-0.19980377,0.338349,0.32083587,-0.18495195,0.316165,0.30684891,-0.17434285,0.300319,0.39390202,-0.23341743,0.376971,0.35436038,-0.20495263,0.342348,0.33258903,-0.19816847,0.324634,0.31184355,-0.20332442,0.30853,0.42281198,-0.25014849,0.383861,0.38986133,-0.221033,0.355346,0.37472627,-0.20768947,0.342244,0.35946139,-0.20824058,0.330684
0.45123325,-0.34633702,0.463138,0.42242087,-0.29386949,0.428072,0.42530029,-0.3313434,0.455746,0.38969659,-0.305072,0.436474,0.35895978,-0.2812077,0.420334,0.34232188,-0.2606079,0.40891,0.3717717,-0.2427667,0.396284,0.33755551,-0.2208545,0.364339,0.32042951,-0.20988846,0.348366,0.30484913,-0.19991323,0.333846,0.3952212,-0.24558322,0.395194,0.36205248,-0.20549314,0.359693,0.34132019,-0.20476133,0.338984,0.32565014,-0.21106249,0.324192,0.41735065,-0.25242927,0.397372,0.37925836,-0.21895086,0.363983,0.36070363,-0.21354534,0.3469,0.34464459,-0.21563992,0.33137,0.44849434,-0.26879969,0.405501,0.4187228,-0.23447004,0.37907,0.4050498,-0.21881129,0.366927,0.39379499,-0.21745633,0.356212
0.4520692,-0.35215409,0.463996,0.42292808,-0.3043955,0.428586,0.42614297,-0.33713271,0.456649,0.39021086,-0.31571996,0.43705,0.35918523,-0.29157603,0.420598,0.342676,-0.27100179,0.409333,0.37210005,-0.25290486,0.396634,0.33772228,-0.23093114,0.364519,0.32051689,-0.21993832,0.348461,0.30486465,-0.20994104,0.333863,0.39541321,-0.2556871,0.395386,0.36204745,-0.21536874,0.359688,0.34120037,-0.21452564,0.338865,0.32544824,-0.22045115,0.323991,0.41744727,-0.26254172,0.397464,0.37921043,-0.22894566,0.363937,0.36058302,-0.22352814,0.346784,0.34445738,-0.22552845,0.33119,0.4485253,-0.27898632,0.405529,0.41657929,-0.24688472,0.377646,0.40190859,-0.23222208,0.364835,0.38991121,-0.23184238,0.353532
0.42355788,-0.34047105,0.456083,0.40174141,-0.29539459,0.418716,0.39666337,-0.3237044,0.444346,0.35968941,-0.29626227,0.423928,0.32921335,-0.27217843,0.407691,0.31229397,-0.25286041,0.39485,0.35379923,-0.24591994,0.379966,0.31912085,-0.2296052,0.34568,0.30179296,-0.22248614,0.328537,0.28605697,-0.2169379,0.312952,0.38109982,-0.25337808,0.38368,0.35499825,-0.2050876,0.34738,0.33137395,-0.20806656,0.326205,0.31428461,-0.21306891,0.31108,0.40577446,-0.26350282,0.390014,0.36993855,-0.21460354,0.353334,0.35039048,-0.2179147,0.334568,0.33578451,-0.22291248,0.317507,0.43863321,-0.28266686,0.403398,0.41186598,-0.24558239,0.373939,0.39780602,-0.22985877,0.360403,0.38576759,-0.22884612,0.348461
0.42307403,-0.34061189,0.455562,0.40134573,-0.29574365,0.417921,0.39621943,-0.3237135,0.443693,0.35928236,-0.29612451,0.423028,0.32893555,-0.27198252,0.406684,0.31212368,-0.25268651,0.393778,0.35350576,-0.24624071,0.378831,0.31876676,-0.23002674,0.344376,0.30139838,-0.2229501,0.327148,0.2856173,-0.21743285,0.311487,0.38077517,-0.25392791,0.38263,0.35520536,-0.20602642,0.3465,0.33451725,-0.21070541,0.325424,0.31464838,-0.21399987,0.31037,0.40541624,-0.26422369,0.389058,0.37002531,-0.21892194,0.352204,0.35251957,-0.22100594,0.333348,0.33515987,-0.22365044,0.316207,0.4382224,-0.28355545,0.402595,0.41143542,-0.24660905,0.373271,0.39801112,-0.23076709,0.359797,0.38623979,-0.22978812,0.347909
0.42162073,-0.33879409,0.454237,0.39922879,-0.29430291,0.416138,0.3950154,-0.32219758,0.442651,0.35796836,-0.29517071,0.421433,0.32766627,-0.27136353,0.404862,0.31080133,-0.25255103,0.391702,0.35130261,-0.24539896,0.377111,0.31620269,-0.22812191,0.342663,0.29863156,-0.22123376,0.325439,0.28266249,-0.21618981,0.309781,0.37802793,-0.25284465,0.380417,0.34987873,-0.21341165,0.342466,0.32981161,-0.21211211,0.320327,0.31377992,-0.21477941,0.304514,0.40225118,-0.26290052,0.386479,0.36830314,-0.21598123,0.349597,0.34895276,-0.21943858,0.330726,0.33134486,-0.22206582,0.313572,0.43465205,-0.28187571,0.399659,0.40821513,-0.24509406,0.370569,0.39518214,-0.22911895,0.357204,0.38354919,-0.22800459,0.345411
0.42173815,-0.33834875,0.454363,0.39848777,-0.29372185,0.415831,0.39551073,-0.3220957,0.44336,0.35845977,-0.29504452,0.421763,0.32823817,-0.27070749,0.405009,0.3114377,-0.25169643,0.3917,0.35053314,-0.24515435,0.377264,0.31252638,-0.22610589,0.343023,0.29421872,-0.22009449,0.325903,0.27761627,-0.21700319,0.310339,0.37647191,-0.25215618,0.379704,0.34386313,-0.21784318,0.341584,0.32383602,-0.21160051,0.319347,0.30910241,-0.21530991,0.303464,0.40007989,-0.26184486,0.385092,0.36582869,-0.21453933,0.349043,0.34581637,-0.21703188,0.330599,0.32831312,-0.21941829,0.313832,0.43186144,-0.28038508,0.397547,0.40552158,-0.24369208,0.369353,0.39334107,-0.22704841,0.356399,0.38194236,-0.22577883,0.344969
0.42160437,-0.33827176,0.454171,0.39794214,-0.29364819,0.415498,0.39533416,-0.32205531,0.443224,0.35834824,-0.29509738,0.421468,0.32822382,-0.27053809,0.404675,0.31150069,-0.25146757,0.391338,0.34967622,-0.24513561,0.37691,0.31161637,-0.22639014,0.342662,0.29322231,-0.22053469,0.325538,0.27656557,-0.21775734,0.30997,0.37554115,-0.252087,0.379238,0.34347841,-0.21844965,0.341053,0.32351524,-0.2122172,0.318778,0.30753494,-0.21597771,0.302868,0.39912936,-0.26173459,0.384545,0.36449521,-0.21430023,0.34827,0.34494228,-0.2180653,0.32971,0.32820351,-0.22135287,0.312838,0.43096199,-0.28022946,0.396928,0.40465752,-0.24419235,0.368452,0.39195542,-0.22705768,0.355368,0.38088157,-0.22623252,0.343824
0.42092349,-0.33764931,0.453374,0.39712206,-0.29330247,0.414948,0.3950581,-0.32179726,0.442976,0.35832621,-0.29515471,0.4214,0.32832623,-0.2705019,0.404695,0.31165715,-0.2513908,0.391376,0.34859839,-0.24519215,0.377213,0.31000399,-0.22569594,0.343377,0.29067517,-0.21867719,0.326459,0.27449328,-0.21766226,0.311079,0.3733727,-0.25223559,0.378921,0.34144292,-0.21156722,0.340932,0.32186337,-0.20898557,0.318771,0.30454669,-0.21510972,0.302942,0.39667253,-0.26168492,0.383696,0.36216638,-0.21408045,0.347426,0.34107654,-0.21772716,0.328869,0.32400118,-0.22088486,0.312,0.42898457,-0.2793862,0.395413,0.39916055,-0.24480818,0.366101,0.38595229,-0.22856645,0.352633,0.37347235,-0.22743732,0.34075
0.42042584,-0.33698659,0.452892,0.39731645,-0.29318962,0.415423,0.39540946,-0.3216151,0.44346,0.35881657,-0.29484007,0.421935,0.3287888,-0.27025978,0.40508,0.31207793,-0.25121354,0.391619,0.34878865,-0.24464664,0.379522,0.31085369,-0.21783335,0.346619,0.29172884,-0.21072682,0.330167,0.27428803,-0.20726024,0.315211,0.37490225,-0.25209786,0.380294,0.34345852,-0.21081723,0.342969,0.32245967,-0.20600698,0.321197,0.3050388,-0.20970786,0.305645,0.39730269,-0.26112607,0.384214,0.36234704,-0.21275537,0.348593,0.34196183,-0.21585634,0.330368,0.32427807,-0.21915753,0.3138,0.42757605,-0.27872526,0.394775,0.39928704,-0.2431906,0.366277,0.38588346,-0.22810751,0.353184,0.37436007,-0.22544756,0.341631
0.42643791,-0.33811109,0.453308,0.39998632,-0.29328869,0.416878,0.40007144,-0.32225388,0.444865,0.37113336,-0.29491674,0.425468,0.33838789,-0.27311638,0.407826,0.31450331,-0.25268583,0.393202,0.35384458,-0.24812343,0.38289,0.31714238,-0.20928185,0.351024,0.29866126,-0.20126909,0.335091,0.28224425,-0.20255215,0.320607,0.37718379,-0.25339686,0.382722,0.34889769,-0.21555492,0.346178,0.33291652,-0.19490686,0.32486,0.31772166,-0.19590703,0.309633,0.39902665,-0.26170896,0.385778,0.36442211,-0.21477182,0.351151,0.34473853,-0.21930394,0.333436,0.32688321,-0.22294573,0.31733,0.43086596,-0.27551452,0.395156,0.39996439,-0.23431148,0.366002,0.38450847,-0.23776194,0.352607,0.37139258,-0.24115223,0.340788
0.42595744,-0.33199286,0.452932,0.40474986,-0.28020732,0.41684,0.40456692,-0.31556904,0.445109,0.37195942,-0.28547701,0.426415,0.33947485,-0.26395041,0.409136,0.31663884,-0.24883122,0.393852,0.35290071,-0.23775429,0.383851,0.31851567,-0.20022213,0.352544,0.30026468,-0.19235289,0.33689,0.28405072,-0.19390121,0.322659,0.37679025,-0.24158478,0.383002,0.34824636,-0.20847273,0.346605,0.33344327,-0.18510608,0.325374,0.31831271,-0.18622585,0.310209,0.399346,-0.24840804,0.385467,0.36319521,-0.20352354,0.351347,0.34345072,-0.20902744,0.33389,0.32724539,-0.21643261,0.31802,0.43092535,-0.26309568,0.394096,0.3985984,-0.22344981,0.364752,0.38463716,-0.22657753,0.35127,0.37428327,-0.22873131,0.339374
0.43088818,-0.33065011,0.454641,0.40856744,-0.28063083,0.419487,0.41104781,-0.31377812,0.447063,0.37379201,-0.28579521,0.427599,0.34193656,-0.264131,0.411201,0.32381586,-0.24548209,0.398235,0.359085,-0.23435961,0.387408,0.32375314,-0.19219762,0.359119,0.3059823,-0.18457923,0.344974,0.29154931,-0.18662537,0.332116,0.38314939,-0.23710342,0.386528,0.3497387,-0.20172297,0.350931,0.33024603,-0.18110607,0.330166,0.31532846,-0.1827341,0.315333,0.40566721,-0.24333584,0.388886,0.37774576,-0.19579955,0.353854,0.35943872,-0.20002093,0.335931,0.3398017,-0.20691821,0.319637,0.43695509,-0.25790238,0.39724,0.40456806,-0.21638031,0.368378,0.39064323,-0.2216269,0.355117,0.37806294,-0.22382314,0.343416
0.42584865,-0.33047948,0.452135,0.40464056,-0.27369963,0.421098,0.40255482,-0.31659964,0.445248,0.36962295,-0.28288669,0.429105,0.33897338,-0.26060544,0.414905,0.32223362,-0.24092028,0.404417,0.35564047,-0.22811236,0.392529,0.32182882,-0.1858582,0.367515,0.30562547,-0.17685958,0.355009,0.29323131,-0.17796164,0.343639,0.38006245,-0.22953043,0.391999,0.3484532,-0.19110463,0.359227,0.33001574,-0.1687271,0.340111,0.31724009,-0.16920748,0.326456,0.40270386,-0.23484829,0.394284,0.38356164,-0.18677729,0.361846,0.36917448,-0.18902311,0.34525,0.34890012,-0.19716,0.330163,0.43381759,-0.24868274,0.401899,0.40160598,-0.20655378,0.375064,0.38972096,-0.20855994,0.362734,0.37967861,-0.21465661,0.351855
0.42490553,-0.32711605,0.450515,0.40478937,-0.27068026,0.422292,0.40600202,-0.30731321,0.444931,0.36738737,-0.27398612,0.431597,0.34036509,-0.2503983,0.421229,0.32543274,-0.23094666,0.412171,0.36171204,-0.21880832,0.397168,0.3307385,-0.17419054,0.37208,0.31661593,-0.16659654,0.359536,0.30539523,-0.16733261,0.348133,0.38510229,-0.22112979,0.39583,0.35913263,-0.18074081,0.365304,0.34398465,-0.15717323,0.347497,0.33287715,-0.15654001,0.334777,0.40615184,-0.22731317,0.397204,0.3909726,-0.17910982,0.366781,0.3779549,-0.18059979,0.351215,0.35811138,-0.1894862,0.337065,0.4341983,-0.24235539,0.403299,0.40561649,-0.2080823,0.378728,0.39262116,-0.1917153,0.367438,0.38317782,-0.19015016,0.357477
0.42415584,-0.31607504,0.444859,0.40441042,-0.26540224,0.424682,0.40462582,-0.30519162,0.444475,0.37314026,-0.27567601,0.437059,0.34715208,-0.25222433,0.427803,0.33394991,-0.2329304,0.420733,0.36710807,-0.21788995,0.411278,0.34293402,-0.17406381,0.391459,0.32861088,-0.16651114,0.38155,0.31542463,-0.15955296,0.372541,0.38642074,-0.21822255,0.405764,0.36150003,-0.17440388,0.382474,0.34697237,-0.14896287,0.368887,0.33490294,-0.14503078,0.359183,0.40397759,-0.22266271,0.402995,0.38225085,-0.17735631,0.38101,0.37113208,-0.15448664,0.369762,0.35910001,-0.14790823,0.359537,0.42754716,-0.2354577,0.402939,0.40963831,-0.19710756,0.3831,0.40138843,-0.1796721,0.373985,0.39271626,-0.17525386,0.365943
0.42370553,-0.31510816,0.444445,0.40944652,-0.26699121,0.429849,0.40549259,-0.30502418,0.445548,0.3803392,-0.27670825,0.442265,0.3563502,-0.25320465,0.434988,0.34573929,-0.23432729,0.430779,0.37770374,-0.22059718,0.421895,0.35876474,-0.17850388,0.407301,0.3471742,-0.16660775,0.400004,0.33646505,-0.15550215,0.393371,0.39682854,-0.21953147,0.416163,0.37542388,-0.17549629,0.397569,0.3629514,-0.14993096,0.386723,0.35278422,-0.14447853,0.378976,0.41392372,-0.22281352,0.412725,0.394942,-0.17957525,0.395329,0.38533929,-0.15753966,0.386536,0.37664487,-0.13753804,0.378577,0.43640605,-0.23425683,0.410996,0.42318928,-0.19601753,0.396228,0.41709848,-0.1786729,0.389443,0.41076572,-0.17258617,0.383456
0.42821546,-0.31770421,0.448761,0.42060066,-0.27005851,0.440049,0.41142475,-0.31010394,0.451134,0.39790882,-0.28407491,0.45509,0.37773333,-0.26114668,0.451392,0.37055009,-0.24360045,0.450778,0.39400392,-0.22921375,0.437391,0.37769056,-0.18852557,0.425774,0.36753731,-0.17569837,0.419965,0.35813459,-0.16368361,0.414684,0.41306495,-0.22753837,0.431774,0.39679242,-0.18432917,0.418238,0.38625663,-0.16251858,0.410342,0.3786732,-0.14659109,0.404702,0.42971992,-0.23006061,0.427903,0.4137032,-0.1876173,0.414549,0.4054654,-0.16601473,0.407717,0.39772923,-0.14716108,0.401506,0.45095206,-0.24017052,0.424709,0.44066048,-0.20376032,0.413768,0.43592868,-0.18710378,0.408741,0.4315091,-0.17410093,0.404305
0.42602666,-0.31827387,0.448108,0.42371379,-0.27161575,0.444191,0.41150734,-0.30819459,0.452052,0.39896102,-0.2847149,0.459046,0.37931209,-0.26135374,0.455519,0.37269801,-0.24384023,0.455192,0.40151025,-0.23005215,0.446573,0.38862055,-0.19390989,0.438909,0.38103289,-0.17486704,0.435076,0.37474499,-0.15774307,0.431592,0.41966894,-0.22914489,0.440422,0.40932584,-0.18655935,0.431252,0.4013622,-0.1649704,0.425903,0.39536342,-0.14991063,0.422082,0.43625476,-0.23317835,0.435694,0.42565955,-0.1903144,0.426445,0.42088495,-0.16891091,0.421714,0.41591042,-0.15031788,0.417412,0.45544862,-0.24303666,0.430727,0.45344659,-0.20839605,0.426029,0.45336127,-0.19285167,0.42387,0.45152798,-0.18440622,0.421965
0.4296666,-0.31948817,0.451194,0.42804793,-0.2769024,0.449211,0.41392439,-0.31178394,0.454673,0.4017398,-0.28901204,0.461456,0.38336402,-0.26415464,0.46064,0.37608827,-0.24584235,0.457877,0.4094902,-0.23909604,0.452232,0.39692856,-0.2026314,0.446096,0.39020745,-0.18474213,0.443029,0.38315171,-0.16459379,0.44024,0.42854461,-0.2393013,0.447261,0.41905381,-0.19738524,0.43956,0.4123502,-0.17437675,0.435068,0.40604714,-0.15554176,0.431859,0.44443283,-0.24309157,0.443336,0.43491454,-0.20173921,0.436047,0.43004586,-0.18059709,0.432318,0.42648781,-0.15798365,0.428928,0.46338492,-0.25433404,0.439001,0.45880589,-0.21875593,0.432545,0.45668688,-0.20261301,0.429578,0.45560076,-0.18778409,0.42696
0.42501173,-0.31581514,0.447229,0.42710592,-0.27710017,0.448827,0.41161327,-0.30913226,0.45304,0.40070481,-0.28814277,0.463379,0.38524624,-0.26476911,0.46285,0.37838809,-0.24644012,0.460356,0.41261847,-0.23858554,0.457158,0.40571762,-0.20196211,0.454889,0.39972994,-0.1868529,0.453755,0.39451357,-0.17279615,0.452723,0.43040638,-0.23773786,0.450418,0.42752599,-0.19782382,0.446747,0.42322161,-0.17614138,0.444605,0.4191198,-0.16095471,0.443076,0.44484181,-0.24050874,0.444741,0.44430368,-0.20351174,0.446963,0.44387855,-0.18437339,0.4481,0.44348478,-0.16689044,0.449133,0.46131444,-0.25015477,0.437781,0.46370976,-0.22057318,0.438669,0.46241178,-0.20486677,0.439077,0.46501684,-0.19326278,0.439437
0.42923235,-0.31980864,0.452181,0.43622735,-0.28697306,0.459252,0.41564845,-0.312514,0.458021,0.40868285,-0.29660591,0.470606,0.39819457,-0.27570567,0.474377,0.3884998,-0.25250288,0.469608,0.42518433,-0.25258022,0.471361,0.42116844,-0.21782068,0.472527,0.4183544,-0.20118091,0.473111,0.41570214,-0.18558072,0.473641,0.44444431,-0.25097392,0.466356,0.44179026,-0.2129892,0.466977,0.43882898,-0.19173614,0.467339,0.43646255,-0.17667793,0.467598,0.4599112,-0.25271208,0.461663,0.45916513,-0.21476506,0.462299,0.45878209,-0.19529641,0.462625,0.45767163,-0.17478057,0.462921,0.47736531,-0.26052563,0.455042,0.47812213,-0.22831108,0.454896,0.47869245,-0.21285371,0.454828,0.47862093,-0.19955981,0.454769
0.4358526,-0.32578365,0.458526,0.44469693,-0.29353914,0.465917,0.42351544,-0.3198177,0.465709,0.42622237,-0.30775045,0.482428,0.41305799,-0.28559682,0.485073,0.40411006,-0.26464791,0.483254,0.43388702,-0.25859508,0.479954,0.42981263,-0.22563461,0.481879,0.42573683,-0.20974078,0.482841,0.42320152,-0.19221704,0.483716,0.45176737,-0.25570055,0.473417,0.44883677,-0.21779037,0.474676,0.44515359,-0.19721554,0.47541,0.44314438,-0.1808671,0.475934,0.46610025,-0.25638046,0.467443,0.46610143,-0.22155385,0.472097,0.46588506,-0.20349423,0.474477,0.46829894,-0.1847715,0.476642,0.48223124,-0.26292169,0.459258,0.48254578,-0.23078371,0.459539,0.48264971,-0.21596123,0.459668,0.48274036,-0.2028205,0.459781
0.43862648,-0.32784703,0.462487,0.45109082,-0.2981087,0.473436,0.42674205,-0.32180076,0.46979,0.42878438,-0.3089523,0.487583,0.41581942,-0.28642397,0.489998,0.41524854,-0.27147415,0.494981,0.44111094,-0.26432332,0.490168,0.43934035,-0.23120151,0.494716,0.43763846,-0.21578652,0.49699,0.43507321,-0.20102496,0.499057,0.45961099,-0.26157976,0.484708,0.45936925,-0.22582939,0.48909,0.45777604,-0.20470331,0.491646,0.4565651,-0.18930973,0.493472,0.47427752,-0.26208302,0.479347,0.4753002,-0.22737332,0.483872,0.47463205,-0.20917651,0.486188,0.47495974,-0.19193898,0.488293,0.49045179,-0.26793837,0.471364,0.49419811,-0.23717393,0.474296,0.4959202,-0.22294266,0.475642,0.4990437,-0.21135243,0.476831
0.4399273,-0.3302467,0.463071,0.45297541,-0.30093477,0.4757,0.42816842,-0.32456306,0.470902,0.43119366,-0.31261028,0.489027,0.41829667,-0.28994488,0.491422,0.41772362,-0.27402209,0.497315,0.44635116,-0.27203551,0.49431,0.44623163,-0.23956273,0.500453,0.44419811,-0.22474933,0.503524,0.44169373,-0.20734995,0.506317,0.46410605,-0.26639556,0.488788,0.46631303,-0.23458163,0.494795,0.4649323,-0.21417062,0.4983,0.4633895,-0.19592571,0.500803,0.47868517,-0.26669764,0.483251,0.48148627,-0.23243909,0.489307,0.4834185,-0.21707863,0.492405,0.48190696,-0.19797872,0.495222,0.49454543,-0.27219252,0.474816,0.4999363,-0.24518513,0.479091,0.50183533,-0.23143862,0.481056,0.50187707,-0.22010038,0.482789
0.4400677,-0.33113272,0.463603,0.45348662,-0.302176,0.477063,0.42849268,-0.32467063,0.471835,0.42973023,-0.31192137,0.490753,0.42279528,-0.29469249,0.499073,0.4250085,-0.28230137,0.506677,0.447966,-0.27121281,0.496786,0.4496925,-0.24079056,0.503778,0.44775115,-0.22658471,0.507274,0.4454633,-0.21059945,0.510452,0.46618758,-0.2682457,0.491069,0.46955205,-0.23597221,0.49792,0.46916449,-0.21553563,0.501917,0.46861485,-0.20086933,0.504771,0.48044956,-0.26845054,0.485312,0.48670089,-0.23837951,0.494215,0.4887632,-0.22121315,0.498769,0.4893288,-0.20554654,0.50291,0.49577021,-0.27374629,0.4765,0.50131407,-0.24769968,0.481473,0.50264285,-0.23422887,0.483758,0.50226306,-0.22692021,0.485775
