sluyters/QuantumLeap/backend/src/datasets/dynamic/HandGestureDataset_SHREC2017_csv/Gesture13/finger_1/subject_22_essai_3_skeletons_world.csv
Wrist_x,Wrist_y,Wrist_z,Palm_x,Palm_y,Palm_z,thumb_base_x,thumb_base_y,thumb_base_z,thumb_first_joint_x,thumb_first_joint_y,thumb_first_joint_z,thumb_second_joint_x,thumb_second_joint_y,thumb_second_joint_z,thumb_tip_x,thumb_tip_y,thumb_tip_z,index_base_x,index_base_y,index_base_z,index_first_joint_x,index_first_joint_y,index_first_joint_z,index_second_joint_x,index_second_joint_y,index_second_joint_z,index_tip_x,index_tip_y,index_tip_z,middle_base_x,middle_base_y,middle_base_z,middle_first_joint_x,middle_first_joint_y,middle_first_joint_z,middle_second_joint_x,middle_second_joint_y,middle_second_joint_z,middle_tip_x,middle_tip_y,middle_tip_z,ring_base_x,ring_base_y,ring_base_z,ring_first_joint_x,ring_first_joint_y,ring_first_joint_z,ring_second_joint_x,ring_second_joint_y,ring_second_joint_z,ring_tip_x,ring_tip_y,ring_tip_z,pinky_base_x,pinky_base_y,pinky_base_z,pinky_first_joint_x,pinky_first_joint_y,pinky_first_joint_z,pinky_second_joint_x,pinky_second_joint_y,pinky_second_joint_z,pinky_tip_x,pinky_tip_y,pinky_tip_z,
0.389431787,-0.241775244,0.364347,0.39313392,-0.185583899,0.346506,0.370306113,-0.214284699,0.357375,0.36784805,-0.177515269,0.334332,0.343057471,-0.137307429,0.317081,0.341045853,-0.117407175,0.320023,0.363605911,-0.12802565,0.32538,0.356472338,-0.0904018532,0.303942,0.370815771,-0.0768345207,0.30918,0.388150547,-0.061903337,0.313943,0.38937517,-0.138504024,0.328582,0.381283427,-0.10682611,0.305224,0.406374742,-0.130911759,0.325028,0.416285697,-0.154575959,0.339693,0.411507991,-0.151347211,0.332779,0.404394774,-0.130341344,0.309691,0.384187966,-0.140965144,0.297879,0.381725111,-0.158898179,0.305223,0.43921611,-0.174570842,0.340577,0.42201606,-0.140416789,0.319618,0.415598714,-0.143911787,0.309989,0.420134576,-0.161838172,0.314866
0.39052142,-0.241178712,0.36446,0.393221658,-0.185776117,0.346658,0.371013718,-0.214426205,0.357433,0.367730662,-0.177817171,0.334327,0.342806908,-0.13755469,0.316846,0.340694291,-0.117517894,0.319652,0.363284004,-0.128243276,0.32549,0.356276116,-0.0905119743,0.304062,0.370831992,-0.0766566791,0.309071,0.387479446,-0.0618134804,0.313625,0.389202263,-0.138606245,0.328772,0.381000146,-0.106867998,0.305439,0.406399479,-0.130736641,0.325244,0.4165454,-0.15456452,0.3399,0.411489345,-0.151362092,0.333032,0.404326829,-0.130280618,0.309945,0.383850145,-0.141214605,0.298132,0.381375643,-0.158737006,0.305476,0.439434232,-0.174498549,0.340899,0.422034469,-0.140113142,0.319945,0.415381463,-0.14396037,0.310317,0.420440898,-0.161433572,0.315196
0.391997677,-0.241676879,0.365564,0.391985813,-0.186050293,0.346137,0.372315773,-0.218626654,0.359947,0.369956642,-0.183493269,0.33843,0.346124071,-0.141831476,0.319881,0.344694661,-0.119230304,0.320648,0.361548832,-0.129305318,0.325616,0.354116749,-0.0914620905,0.303474,0.370279723,-0.0771949715,0.308515,0.386802746,-0.0624213102,0.313098,0.385014689,-0.138467011,0.32662,0.369298055,-0.107767989,0.30218,0.391067765,-0.130599645,0.321654,0.40196363,-0.155003243,0.336606,0.405327574,-0.15021036,0.329148,0.389239765,-0.128906049,0.30567,0.370081937,-0.142920704,0.293659,0.374831366,-0.156975854,0.300707,0.431188148,-0.172116661,0.33523,0.408874236,-0.148504319,0.313833,0.398695203,-0.136893633,0.304002,0.408441436,-0.146936687,0.30862
0.392664251,-0.242122739,0.366464,0.388855721,-0.187212676,0.346221,0.373113688,-0.219409758,0.361203,0.368998794,-0.187972352,0.340048,0.338437606,-0.14860832,0.320329,0.33469649,-0.126065515,0.319634,0.356557091,-0.131099868,0.325581,0.352493101,-0.0921043557,0.302854,0.368394982,-0.0779636375,0.307606,0.383674709,-0.0639178389,0.311926,0.379526284,-0.139942496,0.325884,0.366046939,-0.101195025,0.300854,0.390160721,-0.120181043,0.320052,0.403406411,-0.143832375,0.335132,0.399472846,-0.151495322,0.327906,0.383778465,-0.131051673,0.304076,0.365760779,-0.14299419,0.291884,0.37018143,-0.159060254,0.298664,0.425778178,-0.173117495,0.333522,0.404864759,-0.148562175,0.3118,0.394696806,-0.137089311,0.30182,0.404076838,-0.147187027,0.306225
0.390611295,-0.240661904,0.364858,0.387027698,-0.186413627,0.344981,0.371200846,-0.216060732,0.359092,0.358145911,-0.181155838,0.337308,0.337471439,-0.1420727,0.313486,0.336102103,-0.118197318,0.309404,0.356777243,-0.129280559,0.323959,0.35076461,-0.0914536216,0.301464,0.367301168,-0.0774727317,0.306756,0.38374438,-0.0631579284,0.311567,0.378758926,-0.139066914,0.32501,0.366281565,-0.103517647,0.300183,0.388305351,-0.128173591,0.319496,0.400752647,-0.149514939,0.334539,0.399348323,-0.150946051,0.327616,0.384629924,-0.129987589,0.303762,0.365411539,-0.142871479,0.291558,0.369057206,-0.159203483,0.2984,0.42617142,-0.173078063,0.333862,0.405175961,-0.14892656,0.312154,0.395212612,-0.137690894,0.302181,0.404633209,-0.148089725,0.306643
0.390975212,-0.23891787,0.364519,0.386396047,-0.186170234,0.344709,0.370318093,-0.215717905,0.358706,0.357678729,-0.18091953,0.336868,0.336248522,-0.141557862,0.31235,0.334074693,-0.117281847,0.307589,0.356323092,-0.128988654,0.323674,0.35041195,-0.0912191165,0.301229,0.366946388,-0.07721215,0.306505,0.383324896,-0.0629403909,0.311302,0.378670583,-0.138678584,0.324805,0.366208235,-0.103223402,0.300023,0.388090167,-0.127601742,0.319357,0.400408263,-0.149782865,0.33439,0.399309076,-0.15062964,0.327471,0.384591692,-0.12982474,0.303637,0.36530295,-0.142837292,0.291443,0.36846164,-0.159322059,0.298304,0.426035628,-0.172889703,0.333777,0.405018415,-0.148994174,0.31209,0.395162576,-0.137885469,0.302126,0.404582848,-0.148422427,0.306603
0.391948386,-0.238005791,0.36557,0.384661275,-0.186228912,0.344828,0.371374428,-0.216433335,0.360269,0.35690755,-0.188024104,0.338993,0.325332937,-0.146635227,0.31249,0.319604917,-0.121697356,0.30339,0.354133008,-0.128643478,0.323792,0.347943741,-0.0902119318,0.300829,0.363891994,-0.0758994139,0.305558,0.380261488,-0.062170103,0.309857,0.376872672,-0.137631572,0.323989,0.363303605,-0.101243953,0.298556,0.383968505,-0.125246832,0.317571,0.396546748,-0.150337203,0.332739,0.396614575,-0.14930299,0.325968,0.379453917,-0.130556563,0.301791,0.360057799,-0.144148016,0.289421,0.362726008,-0.159720299,0.295989,0.421812376,-0.171242024,0.331613,0.397404281,-0.151205884,0.309598,0.386263399,-0.143122786,0.299483,0.3940309,-0.156068979,0.303725
0.396764486,-0.241620195,0.37039,0.383087887,-0.191798098,0.34647,0.377542224,-0.220672438,0.366549,0.354963002,-0.205511461,0.346977,0.320033821,-0.162375779,0.322924,0.313819282,-0.138167943,0.314956,0.351750329,-0.136282506,0.325067,0.340966687,-0.0991488976,0.300169,0.352184832,-0.0848017406,0.302066,0.363109547,-0.0705597647,0.303791,0.37151777,-0.144249222,0.322438,0.347740037,-0.11019074,0.294855,0.361018017,-0.136348948,0.312359,0.372347955,-0.160633286,0.327831,0.38916578,-0.155301591,0.32237,0.375497121,-0.126651539,0.29699,0.348705007,-0.132730584,0.284005,0.344430475,-0.147931847,0.289277,0.412435486,-0.176951682,0.326108,0.380297148,-0.160587002,0.302998,0.365494304,-0.153019896,0.29238,0.369359801,-0.166146779,0.29561
0.399793283,-0.245292813,0.374434,0.381175832,-0.196678877,0.348617,0.378135441,-0.223910704,0.369395,0.353315578,-0.212510089,0.347968,0.316051127,-0.169624176,0.322764,0.307649696,-0.145662649,0.313102,0.349058467,-0.137078604,0.324395,0.334070422,-0.101577692,0.29794,0.343747082,-0.0875999972,0.298871,0.353244592,-0.073729934,0.299716,0.369964539,-0.145167933,0.322679,0.342571708,-0.114962533,0.29339,0.355251108,-0.142631782,0.310119,0.368740985,-0.163641447,0.325964,0.388834894,-0.156437353,0.323528,0.367465381,-0.134493898,0.296293,0.33811401,-0.143355555,0.282358,0.333641352,-0.154648036,0.286615,0.414068033,-0.178592438,0.328651,0.380670836,-0.162604563,0.304048,0.36530332,-0.155232979,0.292745,0.368451939,-0.16826699,0.295214
0.39310854,-0.266786713,0.379987,0.377595331,-0.219340982,0.352296,0.371826864,-0.255299706,0.376575,0.350337433,-0.239378021,0.357447,0.314039944,-0.197739878,0.335658,0.302878955,-0.173997307,0.325923,0.344891474,-0.158788803,0.328819,0.326498267,-0.121634229,0.301287,0.331956526,-0.107987713,0.30086,0.337371159,-0.0945524316,0.300472,0.36299801,-0.16542196,0.324476,0.329306172,-0.134845555,0.294241,0.337864796,-0.163424984,0.309479,0.349391639,-0.188973258,0.3252,0.379849347,-0.175714293,0.323326,0.352452461,-0.154288093,0.295964,0.3230383,-0.162284743,0.281965,0.320444579,-0.172090755,0.285216,0.403233213,-0.197113163,0.326391,0.36464279,-0.177097084,0.301628,0.346889001,-0.16788598,0.29025,0.347055445,-0.179832605,0.291945
0.395949237,-0.283603856,0.386949,0.379069872,-0.223138651,0.35561,0.375561145,-0.261136767,0.38226,0.351717744,-0.244105287,0.361256,0.314061471,-0.206408218,0.34053,0.300415104,-0.182425287,0.327819,0.341782646,-0.160158891,0.327999,0.316079007,-0.126542933,0.297731,0.320831749,-0.114940839,0.297965,0.325552422,-0.10335204,0.298177,0.360303133,-0.166850531,0.324123,0.318840639,-0.14103124,0.291007,0.325318549,-0.168848382,0.304057,0.337535522,-0.194725048,0.320132,0.377943511,-0.177391944,0.323678,0.331694815,-0.171733887,0.293496,0.309204805,-0.168090961,0.278054,0.298810746,-0.182804921,0.279091,0.403121314,-0.199540643,0.328157,0.358594852,-0.182841278,0.301139,0.339211057,-0.174550844,0.288725,0.337825583,-0.186324942,0.288764
0.395639375,-0.286597595,0.387465,0.37467152,-0.226815173,0.354904,0.374513042,-0.264049214,0.382435,0.345735525,-0.253621297,0.360991,0.308915565,-0.214589052,0.340959,0.293571626,-0.190604228,0.328125,0.331673174,-0.165550573,0.326018,0.304618899,-0.131356231,0.295045,0.306517518,-0.120464783,0.294405,0.308467916,-0.109632789,0.293823,0.350556569,-0.171117955,0.32219,0.30807518,-0.147398155,0.288172,0.314645354,-0.176090338,0.300328,0.32804647,-0.202074968,0.316448,0.368886153,-0.180871911,0.32189,0.323653127,-0.174529085,0.290857,0.300538228,-0.171253003,0.27498,0.292376052,-0.183099588,0.275192,0.397375109,-0.201197693,0.326736,0.351568086,-0.185098082,0.299048,0.331379927,-0.177156077,0.286326,0.331985053,-0.186619784,0.28575
0.390817366,-0.293564424,0.388954,0.360913559,-0.238336798,0.35405,0.366083976,-0.273704409,0.383085,0.332813065,-0.264441501,0.360616,0.297484094,-0.22599701,0.340183,0.281900042,-0.202608321,0.325913,0.32040933,-0.172506877,0.322486,0.293261423,-0.140027527,0.289738,0.29391804,-0.130211984,0.287311,0.294779195,-0.120553071,0.285104,0.339178599,-0.179894973,0.318982,0.295999685,-0.158154062,0.283258,0.299024225,-0.185945776,0.293518,0.311107824,-0.211528519,0.309662,0.357247077,-0.191210576,0.319156,0.310259429,-0.186018241,0.286444,0.286323789,-0.183217299,0.269708,0.273454023,-0.195840079,0.268203,0.383353479,-0.214619911,0.324933,0.338739203,-0.198386987,0.295944,0.318316701,-0.190907634,0.282625,0.314332105,-0.202319994,0.280774
0.380374632,-0.310167327,0.399274,0.352951979,-0.255778036,0.360747,0.356696658,-0.284185311,0.389559,0.323645005,-0.277935511,0.362172,0.295327895,-0.253819079,0.338881,0.279416303,-0.227495552,0.321523,0.312535327,-0.189248241,0.32184,0.284635801,-0.152605432,0.288788,0.283649691,-0.140961257,0.285355,0.282928115,-0.129658206,0.282234,0.334057572,-0.20179453,0.32204,0.295070971,-0.179207021,0.283297,0.291551178,-0.204292172,0.290308,0.300936962,-0.22804712,0.306523,0.353985219,-0.217064201,0.325579,0.310610637,-0.211370118,0.289009,0.288461529,-0.208244526,0.2703,0.270979919,-0.217369096,0.265554,0.38136686,-0.244347482,0.335903,0.326130602,-0.237087681,0.30402,0.301394382,-0.233214219,0.289371,0.285383709,-0.233935345,0.285152
0.339437924,-0.31261599,0.395463,0.329499089,-0.260163316,0.357276,0.325258396,-0.283835348,0.386842,0.299647928,-0.266530043,0.360919,0.280010423,-0.262557448,0.340304,0.269670134,-0.248320376,0.321957,0.303043969,-0.191778632,0.31998,0.274229108,-0.159156577,0.287781,0.270664326,-0.148871111,0.283027,0.267492975,-0.138968955,0.278705,0.317779873,-0.209156744,0.318911,0.268239793,-0.184188358,0.28059,0.2593427,-0.205324375,0.287898,0.269614323,-0.224859288,0.304054,0.331585815,-0.228582736,0.321375,0.273885475,-0.217121442,0.285561,0.244988366,-0.210835326,0.267237,0.230981792,-0.221038684,0.262904,0.350497235,-0.26100034,0.330378,0.289687797,-0.238983003,0.299052,0.26068004,-0.225610604,0.28466,0.245069141,-0.220461894,0.280735
0.315090463,-0.299411152,0.39166,0.316601888,-0.258086303,0.354539,0.305912429,-0.269130949,0.380956,0.294451618,-0.239781849,0.355246,0.285429984,-0.21099217,0.333026,0.284237832,-0.192532167,0.315635,0.303578971,-0.193920415,0.315363,0.262891319,-0.170500301,0.282123,0.255911477,-0.167528556,0.280094,0.249073585,-0.16465791,0.278249,0.316312603,-0.217314852,0.317245,0.260732279,-0.20001646,0.279096,0.248910713,-0.216839405,0.287756,0.256606096,-0.232957185,0.304274,0.327214209,-0.240855378,0.322045,0.262967281,-0.225040727,0.285538,0.231284394,-0.216448208,0.266861,0.21193516,-0.215127569,0.263223,0.340378482,-0.27635333,0.333632,0.281440061,-0.2521509,0.301791,0.253510009,-0.238025717,0.287161,0.238691996,-0.233643894,0.283774
0.308890627,-0.306704691,0.391364,0.303712087,-0.270160312,0.353794,0.292537774,-0.283361788,0.380387,0.279975536,-0.25313282,0.354159,0.269015839,-0.22869967,0.33139,0.267023713,-0.212708303,0.313826,0.288697328,-0.203664219,0.313964,0.248142709,-0.180370571,0.280402,0.241467477,-0.178767486,0.279302,0.23480763,-0.177216743,0.278301,0.302577812,-0.22676423,0.316048,0.247981303,-0.209907778,0.277602,0.236395227,-0.227379613,0.285727,0.24412339,-0.244004885,0.302184,0.314561729,-0.250312628,0.321054,0.251561697,-0.235231464,0.284217,0.220489261,-0.226927228,0.26537,0.201321343,-0.225686449,0.261282,0.329243169,-0.286312988,0.332956,0.270869278,-0.262892957,0.300876,0.243505435,-0.248633192,0.286137,0.22867306,-0.244260464,0.282421
0.309589065,-0.311014134,0.391866,0.304587822,-0.272954095,0.352767,0.297218247,-0.286102244,0.38127,0.283241968,-0.25803403,0.354171,0.267580103,-0.230778235,0.3304,0.263150023,-0.214637841,0.311864,0.290249467,-0.210892605,0.312356,0.244149215,-0.185899693,0.278577,0.234439894,-0.183730596,0.277225,0.22483549,-0.181643175,0.275996,0.301157964,-0.234603789,0.313485,0.239746757,-0.214172279,0.274299,0.227416053,-0.228006642,0.280515,0.238246223,-0.241702079,0.296641,0.310969154,-0.258635411,0.317839,0.242841902,-0.238788592,0.280597,0.209894448,-0.228004691,0.261543,0.194347825,-0.222380794,0.256074,0.32358706,-0.295012391,0.329215,0.261798249,-0.266808033,0.296859,0.23608376,-0.250366977,0.281992,0.22316069,-0.241727503,0.277251
0.306164755,-0.318448998,0.392371,0.302550419,-0.278886549,0.352,0.29619331,-0.287215217,0.380665,0.274694187,-0.262047317,0.351004,0.256403571,-0.239541693,0.325341,0.249138617,-0.225570926,0.305748,0.282731031,-0.217659447,0.309312,0.235288162,-0.193993163,0.274608,0.222377682,-0.191228603,0.270081,0.209991839,-0.18874685,0.265966,0.293419365,-0.242737391,0.31144,0.229022534,-0.223365293,0.27158,0.2160693,-0.232662283,0.275515,0.226339268,-0.246150683,0.291169,0.303039624,-0.267577555,0.316727,0.233883831,-0.246344485,0.278591,0.200688607,-0.234746242,0.25908,0.18163234,-0.22682579,0.251828,0.315479416,-0.30427874,0.329408,0.253544819,-0.275025182,0.296488,0.228517886,-0.256457898,0.281363,0.213822739,-0.247282526,0.275328
0.305897322,-0.322097794,0.392523,0.296714295,-0.290922903,0.351322,0.296972747,-0.29339039,0.381014,0.270772308,-0.27176753,0.350584,0.249567313,-0.248069456,0.324356,0.240989847,-0.231149802,0.304378,0.276632102,-0.224674375,0.308307,0.227454858,-0.200678813,0.273707,0.213435056,-0.198133529,0.269287,0.199993941,-0.195867363,0.26527,0.287576099,-0.249321095,0.309928,0.222079528,-0.229465916,0.269916,0.209167734,-0.237581754,0.271971,0.220086837,-0.251109533,0.28709,0.297731909,-0.27409132,0.314871,0.2281321,-0.252584832,0.276756,0.194942685,-0.240740731,0.257256,0.176062297,-0.231675448,0.248747,0.311376068,-0.311209349,0.327278,0.248663342,-0.28163995,0.294471,0.22448139,-0.262865834,0.279398,0.209686303,-0.25281989,0.272444
0.305146912,-0.325299558,0.393395,0.294277171,-0.292497114,0.352133,0.293375353,-0.299325748,0.381905,0.262739586,-0.275388233,0.35146,0.239607696,-0.252603163,0.325376,0.229703943,-0.235993149,0.305341,0.270481986,-0.227317659,0.3091,0.221524434,-0.204341546,0.27452,0.207005544,-0.202183146,0.26974,0.196594815,-0.198137731,0.265394,0.281801705,-0.251715314,0.310677,0.217028537,-0.232920003,0.270666,0.204439607,-0.240847534,0.272549,0.217920675,-0.252827043,0.287613,0.29228427,-0.276227612,0.31559,0.226952524,-0.254907115,0.27749,0.191066801,-0.241912439,0.257997,0.174665268,-0.232536989,0.249375,0.309195774,-0.312420832,0.327971,0.246747598,-0.283370186,0.295185,0.222748282,-0.264592204,0.280121,0.207994543,-0.25447166,0.273086
0.301643158,-0.333036023,0.394101,0.288835174,-0.296160519,0.352714,0.289958332,-0.305735091,0.382749,0.257476089,-0.280745341,0.352371,0.233526566,-0.258505297,0.326427,0.22299574,-0.242128181,0.306313,0.265036164,-0.232566248,0.309767,0.215513459,-0.209797148,0.275294,0.199048927,-0.206548807,0.268723,0.183497831,-0.203686094,0.262749,0.276008294,-0.257030492,0.311132,0.210952745,-0.238036285,0.271141,0.19870178,-0.24518401,0.272663,0.212614043,-0.256117502,0.287607,0.28624063,-0.281551561,0.315881,0.218042042,-0.260891658,0.277865,0.185010907,-0.24526003,0.258414,0.17059231,-0.234068617,0.249574,0.300127631,-0.318206466,0.328089,0.238179777,-0.289208205,0.295387,0.217053035,-0.269349039,0.280361,0.205700587,-0.256861982,0.273165
0.298168925,-0.338675549,0.394833,0.283182969,-0.300148385,0.35332,0.284711462,-0.309424144,0.383609,0.25076424,-0.284683322,0.353286,0.225893083,-0.262922481,0.327419,0.214729446,-0.246604859,0.307269,0.257645668,-0.235405042,0.310448,0.207840694,-0.213416042,0.27609,0.190492845,-0.210200465,0.26897,0.174165634,-0.207384118,0.262498,0.268873845,-0.259556671,0.311612,0.204175357,-0.241318906,0.271655,0.192524221,-0.248114507,0.272765,0.206892136,-0.259488475,0.287567,0.279405415,-0.283822275,0.316207,0.211879299,-0.263920517,0.278284,0.179656277,-0.248440054,0.258881,0.165875307,-0.236674231,0.249789,0.293826934,-0.320186155,0.328253,0.232269624,-0.291899564,0.295646,0.211923448,-0.271969877,0.280665,0.203186712,-0.259348622,0.273285
0.296586478,-0.33963676,0.394907,0.28238128,-0.300869295,0.353625,0.283358546,-0.310280576,0.383676,0.251251596,-0.283496601,0.353562,0.225579885,-0.263342073,0.327748,0.213833577,-0.248224922,0.307615,0.258320033,-0.235891047,0.310904,0.211815586,-0.21205202,0.276485,0.195148108,-0.208489404,0.269623,0.179420161,-0.20533665,0.263385,0.269524061,-0.26019392,0.31215,0.204054734,-0.24207575,0.272173,0.193649389,-0.249126176,0.274042,0.207525446,-0.261035771,0.289089,0.280005427,-0.284569265,0.316791,0.212315576,-0.264460035,0.278819,0.18001218,-0.248875898,0.259391,0.165706277,-0.23801208,0.250797,0.294309819,-0.32102332,0.328856,0.232623683,-0.292476672,0.296161,0.212234618,-0.272454967,0.28114,0.202967551,-0.260515959,0.274121
0.291240664,-0.341105688,0.394381,0.277845442,-0.301900638,0.353378,0.27779392,-0.311642381,0.382775,0.243684811,-0.284128376,0.352491,0.221631038,-0.264833628,0.326724,0.209967258,-0.251253068,0.306645,0.255015201,-0.236333563,0.310378,0.208046774,-0.212962798,0.275704,0.192657787,-0.21038993,0.269982,0.179729706,-0.207434108,0.26478,0.267971012,-0.260692755,0.312182,0.202064517,-0.244046807,0.27218,0.189065035,-0.253965695,0.274742,0.198553933,-0.267452361,0.290017,0.278971059,-0.285295199,0.317259,0.212282299,-0.266075469,0.279095,0.179673121,-0.250875464,0.25957,0.163329952,-0.241486379,0.251388,0.293767945,-0.32197739,0.329792,0.232248304,-0.293946555,0.29692,0.212022364,-0.273680406,0.281817,0.201766348,-0.262608082,0.275102
0.28879813,-0.340896089,0.393849,0.2718845,-0.301672337,0.352826,0.275268252,-0.311260309,0.382165,0.241849733,-0.282971267,0.351749,0.21686598,-0.26571941,0.32575,0.20763658,-0.251607539,0.305806,0.250665938,-0.236246276,0.309715,0.2053718,-0.213282107,0.274998,0.189624191,-0.210477281,0.268488,0.175769933,-0.206810073,0.26257,0.263138872,-0.260597133,0.311611,0.197709277,-0.244374425,0.271597,0.183855743,-0.247879371,0.274091,0.196583922,-0.262348996,0.289347,0.274497752,-0.284895443,0.316765,0.211205249,-0.266048303,0.278565,0.178544052,-0.251101769,0.259022,0.161893425,-0.2417899,0.250783,0.292161347,-0.321316378,0.329391,0.231391124,-0.294372976,0.296499,0.211370871,-0.273939741,0.281386,0.202700099,-0.262003471,0.27463
0.283375991,-0.341383154,0.391985,0.269887367,-0.301406707,0.351518,0.270719567,-0.312148973,0.381335,0.243119148,-0.302311584,0.352709,0.226188434,-0.264756499,0.328373,0.223695192,-0.240929811,0.310193,0.250443923,-0.236367251,0.31009,0.215981237,-0.212793388,0.275194,0.199876334,-0.216947059,0.268475,0.179127618,-0.218645584,0.262366,0.261943905,-0.259896332,0.310861,0.196466841,-0.24365306,0.271127,0.182770743,-0.250780277,0.275005,0.187962341,-0.267371892,0.290595,0.272399669,-0.283481857,0.31504,0.209478895,-0.26519822,0.277409,0.175730424,-0.253369987,0.258156,0.158778495,-0.24642943,0.251013,0.286242543,-0.318829428,0.326429,0.227699728,-0.295055653,0.29387,0.208051098,-0.273240584,0.278911,0.207469682,-0.256988375,0.272943
0.268823058,-0.336697586,0.386403,0.260241208,-0.297627947,0.346365,0.260022104,-0.307283686,0.376136,0.229659875,-0.290227867,0.348106,0.21081116,-0.278539418,0.324009,0.206963463,-0.257801102,0.307137,0.249776797,-0.233068682,0.305717,0.22126135,-0.216086973,0.270515,0.201442453,-0.217257184,0.267779,0.182491275,-0.220016419,0.265292,0.257387274,-0.257089781,0.306139,0.190686213,-0.238744142,0.266621,0.18107494,-0.244669293,0.271315,0.18512057,-0.261348781,0.287084,0.260583249,-0.28496087,0.309994,0.195792668,-0.263624134,0.272656,0.164575092,-0.250627857,0.253553,0.15128215,-0.246274849,0.247042,0.266600205,-0.320323537,0.320932,0.208841388,-0.289367197,0.288552,0.183739926,-0.275080906,0.273675,0.169322429,-0.267510987,0.268165
0.249203995,-0.328032963,0.380919,0.250942179,-0.292699305,0.34201,0.24429521,-0.29692635,0.368982,0.219918765,-0.279097443,0.339816,0.201444269,-0.261627802,0.313888,0.199200036,-0.24646563,0.297612,0.242887816,-0.229385181,0.300044,0.208085296,-0.209335451,0.265503,0.193034822,-0.215329088,0.270413,0.180838667,-0.219560214,0.274877,0.252926398,-0.255089405,0.302918,0.185464242,-0.234851565,0.263646,0.178853255,-0.241879683,0.269888,0.18766763,-0.255959016,0.286053,0.257898263,-0.283362128,0.308691,0.192888411,-0.26046424,0.270872,0.159357782,-0.242917545,0.251522,0.144315018,-0.237075836,0.2459,0.265430575,-0.321017477,0.321711,0.207507713,-0.289623415,0.288956,0.182312547,-0.275137931,0.273906,0.168127258,-0.268311689,0.26907
0.2465001,-0.326270331,0.378478,0.248769486,-0.291331949,0.340043,0.241671946,-0.295221978,0.36655,0.218533365,-0.278030918,0.337724,0.200554005,-0.261386309,0.312484,0.197633386,-0.248816535,0.294301,0.242048558,-0.229378337,0.298419,0.206258538,-0.2100574,0.264019,0.186234845,-0.206907155,0.255527,0.175212853,-0.213356107,0.263899,0.250600926,-0.255179917,0.301429,0.184225804,-0.234107697,0.262399,0.178350955,-0.241524115,0.269271,0.186932896,-0.255626871,0.285546,0.256315154,-0.282430068,0.307273,0.191900024,-0.259437953,0.269636,0.158845978,-0.242793495,0.25038,0.143070785,-0.23752931,0.245228,0.263779189,-0.3200753,0.3203,0.206113422,-0.288840512,0.287668,0.181012451,-0.274424662,0.272675,0.16699814,-0.267924294,0.268186
0.242465017,-0.3218634,0.37497,0.242473397,-0.286303226,0.335655,0.23869133,-0.29201438,0.36429,0.212656636,-0.271473728,0.336339,0.194609985,-0.256068099,0.312198,0.196127543,-0.247385632,0.296514,0.23658148,-0.224734321,0.294989,0.201048181,-0.205152148,0.260179,0.178165967,-0.200477549,0.249807,0.168141957,-0.207022188,0.25642,0.24011196,-0.249297939,0.296157,0.174266929,-0.225679595,0.256857,0.168804749,-0.231487414,0.262749,0.178875093,-0.246963663,0.278814,0.244425614,-0.274139207,0.300561,0.179978826,-0.249119316,0.263205,0.148459543,-0.2325391,0.244093,0.132333011,-0.226256217,0.238375,0.249341848,-0.309910243,0.312032,0.192643659,-0.277698823,0.279601,0.168038416,-0.262895781,0.2647,0.154238459,-0.255562776,0.259776
0.233870873,-0.313879896,0.368403,0.230575379,-0.269597441,0.328724,0.226005546,-0.279417409,0.357231,0.200769412,-0.256768538,0.328505,0.182457188,-0.240498005,0.30456,0.176904657,-0.22746439,0.285898,0.225207829,-0.206814728,0.287188,0.168955192,-0.188436423,0.252916,0.155181487,-0.195105538,0.257097,0.147251811,-0.210304531,0.272291,0.232581947,-0.231977521,0.28886,0.168681742,-0.209740063,0.249326,0.150640426,-0.2173166,0.254596,0.149319031,-0.231124768,0.27055,0.238718994,-0.256724222,0.293712,0.175918021,-0.23384079,0.255998,0.143868835,-0.218837138,0.236702,0.125149603,-0.21350619,0.230466,0.245712049,-0.293165222,0.305768,0.191590661,-0.259166024,0.273098,0.167879323,-0.243656154,0.258088,0.155128775,-0.230111379,0.25279
0.217998673,-0.297383955,0.362546,0.215423545,-0.253089415,0.322844,0.214662,-0.267771782,0.352857,0.186586373,-0.240787797,0.325784,0.166595938,-0.222646787,0.303104,0.159756492,-0.208245149,0.284852,0.210593486,-0.190666462,0.283154,0.154847851,-0.172502155,0.249846,0.14009435,-0.177779885,0.254031,0.1304602,-0.190599132,0.268846,0.216166433,-0.21426095,0.282955,0.152426662,-0.191626849,0.243688,0.134995054,-0.199335341,0.248913,0.134109869,-0.213325078,0.264757,0.220910729,-0.23779888,0.286269,0.158535928,-0.214725428,0.249339,0.127946907,-0.200778504,0.230445,0.110467848,-0.196303202,0.224406,0.226462606,-0.273009764,0.296516,0.172756309,-0.238507376,0.264417,0.149449045,-0.222887075,0.249669,0.1379709,-0.210298391,0.244499
0.226592348,-0.304220931,0.350012,0.216967098,-0.253298717,0.325394,0.21850628,-0.287555963,0.345988,0.169661679,-0.268882661,0.326097,0.142310355,-0.239715574,0.321643,0.128097777,-0.21728752,0.318216,0.178901066,-0.19118257,0.303278,0.145592026,-0.168853341,0.280135,0.129232759,-0.162539831,0.268563,0.12103322,-0.167514211,0.273311,0.200365274,-0.192425217,0.300661,0.166838731,-0.192853239,0.272508,0.176133766,-0.228001726,0.289695,0.191365361,-0.241341869,0.305273,0.219998916,-0.198515838,0.300664,0.187999671,-0.199993269,0.274749,0.176981226,-0.205880547,0.26149,0.183629044,-0.211556533,0.266408,0.246964905,-0.215370904,0.304598,0.207984638,-0.212231515,0.281049,0.189912427,-0.210899143,0.270229,0.180756438,-0.222151962,0.273192
0.222782899,-0.297501602,0.345447,0.205836265,-0.228170955,0.317956,0.206902513,-0.277070127,0.340176,0.159623041,-0.245816483,0.318323,0.12903612,-0.215366869,0.307776,0.113630734,-0.19281996,0.301932,0.164302649,-0.169131096,0.29228,0.130309,-0.143630566,0.26684,0.114009865,-0.135176355,0.25412,0.10537912,-0.136528527,0.257447,0.185356359,-0.168407169,0.290336,0.152016877,-0.16360433,0.259757,0.160523239,-0.19761728,0.275589,0.175320288,-0.215630171,0.291619,0.205053272,-0.172802197,0.291143,0.172922085,-0.168916317,0.26277,0.162716664,-0.17612536,0.248253,0.168604883,-0.18269284,0.251612,0.233040072,-0.187612202,0.296485,0.194069756,-0.181570764,0.270949,0.176098439,-0.178831101,0.259217,0.167142024,-0.189835027,0.261008
0.209920445,-0.281506219,0.340762,0.190315624,-0.218728884,0.31758,0.187781646,-0.251745864,0.330001,0.163973052,-0.220290991,0.301375,0.132083512,-0.188953742,0.288779,0.126188902,-0.164329634,0.279515,0.144986828,-0.159731584,0.28799,0.121950331,-0.122120702,0.275565,0.110775894,-0.113487735,0.269353,0.09993895,-0.105166058,0.263705,0.17347358,-0.163121315,0.294288,0.15475444,-0.168273421,0.266197,0.16572831,-0.202671414,0.283327,0.178867601,-0.217473301,0.298866,0.199192791,-0.170680078,0.301502,0.178492244,-0.17576336,0.273109,0.167101374,-0.182776236,0.258582,0.167290707,-0.183152514,0.262708,0.233538779,-0.18870469,0.31371,0.206487858,-0.192235282,0.288541,0.195589561,-0.195429964,0.276977,0.199482697,-0.195079885,0.279461
0.205048168,-0.275876221,0.342422,0.185629201,-0.212910567,0.31377,0.184767132,-0.252825868,0.331004,0.155311301,-0.214189103,0.300953,0.123645941,-0.179995611,0.284528,0.119138863,-0.156826826,0.27092,0.135680182,-0.149446706,0.279566,0.113406246,-0.11709006,0.269922,0.100792551,-0.108984868,0.265099,0.0884445743,-0.101116447,0.260716,0.161118405,-0.151627295,0.284984,0.131738176,-0.147241656,0.252576,0.143786879,-0.1795447,0.267198,0.159554262,-0.196877652,0.283511,0.185189126,-0.15830875,0.291953,0.156249207,-0.142253822,0.259777,0.143105716,-0.151847905,0.243314,0.146426205,-0.158092108,0.244779,0.219284312,-0.175814508,0.304745,0.186085597,-0.176894819,0.276438,0.181336804,-0.180631786,0.263431,0.187900333,-0.182105559,0.263892
0.201354217,-0.259902887,0.33634,0.175687794,-0.192415939,0.311314,0.171873987,-0.241094806,0.323589,0.156067705,-0.204198293,0.310293,0.119336012,-0.167543035,0.287936,0.110596424,-0.14085754,0.27441,0.125781557,-0.137709433,0.277948,0.103345369,-0.107807272,0.272473,0.0914801953,-0.0995251,0.269735,0.0796603283,-0.0913087692,0.267246,0.152172828,-0.138241423,0.286172,0.127492193,-0.132769801,0.256516,0.142197281,-0.164226019,0.272067,0.157731631,-0.181561302,0.287675,0.177279536,-0.143075415,0.295132,0.151447067,-0.125207954,0.264737,0.141317179,-0.136990223,0.249186,0.145489928,-0.14584038,0.251703,0.212981591,-0.157576466,0.309694,0.184379739,-0.158657187,0.283016,0.181700405,-0.164499767,0.270759,0.188064471,-0.165425153,0.272067
0.18051531,-0.251772884,0.345698,0.167629241,-0.197305675,0.324068,0.153980083,-0.232850451,0.334659,0.147122703,-0.206156882,0.320907,0.115611254,-0.168709818,0.300063,0.100300382,-0.145460424,0.293891,0.126898806,-0.139903606,0.295205,0.105003091,-0.104410695,0.28151,0.0933269201,-0.086917041,0.274662,0.0823850866,-0.0704773281,0.268437,0.154773455,-0.144784641,0.302337,0.13124684,-0.106227092,0.275485,0.136701202,-0.133513219,0.292989,0.147468561,-0.158257996,0.308197,0.179779498,-0.153412447,0.3101,0.156044581,-0.155347386,0.282633,0.143174859,-0.166054164,0.268579,0.14622771,-0.172014113,0.273187,0.212687222,-0.172407576,0.322709,0.181257997,-0.176535328,0.298358,0.169974395,-0.180823017,0.28717,0.167892644,-0.191814689,0.290037
0.178178916,-0.244957681,0.342897,0.16417149,-0.186592094,0.322887,0.152257194,-0.227165739,0.33307,0.142258919,-0.196257139,0.319312,0.108096026,-0.160292118,0.29937,0.0929611375,-0.139412386,0.295224,0.123906687,-0.131295837,0.29667,0.102361947,-0.0949716823,0.286283,0.089724835,-0.0793889628,0.28109,0.077506527,-0.0651174649,0.276369,0.151129211,-0.134881234,0.302783,0.126044463,-0.101994961,0.277339,0.135482388,-0.133349377,0.295789,0.146788462,-0.157337883,0.310784,0.175555456,-0.142349491,0.309568,0.151894025,-0.14405154,0.283703,0.140271962,-0.156411901,0.27047,0.14459665,-0.164078495,0.276144,0.20773792,-0.15979699,0.320763,0.176772279,-0.164058569,0.29767,0.166586137,-0.17002497,0.287061,0.165489087,-0.182114453,0.290717
0.175375822,-0.240701483,0.34209,0.161624078,-0.183285104,0.322719,0.148213663,-0.218967103,0.332752,0.136463531,-0.188718886,0.319288,0.103791293,-0.152687697,0.300456,0.0893855436,-0.131175129,0.296039,0.120915714,-0.124841476,0.297558,0.100370223,-0.0880458373,0.287479,0.0880117655,-0.0719919199,0.28244,0.0760222609,-0.057235102,0.277859,0.14777756,-0.128712317,0.303256,0.123131139,-0.0951843504,0.278378,0.128930689,-0.124327419,0.29717,0.140345586,-0.14762639,0.312068,0.17173271,-0.136402977,0.309643,0.147440686,-0.137496547,0.284425,0.135694208,-0.150417933,0.271522,0.142882515,-0.16187084,0.2776,0.203052312,-0.154077641,0.320267,0.171599022,-0.157687036,0.297685,0.161569778,-0.164197071,0.287309,0.163121571,-0.179515478,0.291265
0.173284032,-0.23762629,0.340667,0.158036775,-0.178558377,0.32178,0.146177561,-0.216634981,0.331251,0.13542038,-0.186607193,0.317937,0.102648667,-0.150640601,0.299151,0.0882352395,-0.12905052,0.294792,0.119607466,-0.123646966,0.296857,0.0991695715,-0.0870107505,0.28736,0.0869320395,-0.0708549939,0.282612,0.0750571717,-0.0559590349,0.278295,0.146627218,-0.127280511,0.302804,0.122353735,-0.0932224473,0.278319,0.128458902,-0.121877933,0.297212,0.139848607,-0.145295971,0.311998,0.170721818,-0.134753098,0.309353,0.146734598,-0.137224543,0.284433,0.135520782,-0.150124148,0.271684,0.140475803,-0.158052412,0.277904,0.202233628,-0.15214146,0.320091,0.171409045,-0.155420528,0.297772,0.161494179,-0.162415844,0.287518,0.160445027,-0.175140294,0.291588
0.162420069,-0.221119706,0.324448,0.151960279,-0.171016114,0.311692,0.138677493,-0.205714419,0.317137,0.127721419,-0.170890528,0.304511,0.0961545269,-0.137979766,0.288733,0.0840265063,-0.122766382,0.288683,0.115520687,-0.119203391,0.293664,0.0923127761,-0.0799693873,0.28248,0.0803660416,-0.0621447648,0.276889,0.0689459859,-0.0458717794,0.271805,0.140466348,-0.119417943,0.298876,0.120747375,-0.0891315753,0.279747,0.128254227,-0.117856328,0.300575,0.139169282,-0.140985704,0.314032,0.163920877,-0.125604495,0.304282,0.145205309,-0.134332243,0.284588,0.136041174,-0.148880903,0.274513,0.142691571,-0.15941394,0.283403,0.19392385,-0.140787649,0.312694,0.16774475,-0.14543473,0.2947,0.16000457,-0.157240507,0.286433,0.160228439,-0.171592674,0.292537
0.166449696,-0.226358754,0.333836,0.153169288,-0.171743773,0.317387,0.141953029,-0.210765913,0.32644,0.134370601,-0.179603115,0.320552,0.100921976,-0.145056661,0.303675,0.0862607129,-0.126627242,0.299053,0.114332587,-0.118444268,0.296692,0.0923706412,-0.0822875132,0.287273,0.0801443212,-0.0647245937,0.282563,0.0683901562,-0.048515142,0.278282,0.140747673,-0.120196554,0.30086,0.118138453,-0.0859040224,0.278603,0.125878971,-0.113578964,0.298675,0.13812747,-0.139115359,0.313026,0.163999242,-0.125937281,0.305732,0.143391864,-0.130269184,0.2834,0.134048287,-0.144348642,0.271975,0.140468379,-0.156195214,0.279684,0.1940928,-0.140822137,0.314102,0.166915021,-0.144071154,0.293831,0.170324128,-0.164606002,0.3066,0.174274843,-0.185518337,0.318685
0.165237355,-0.224279238,0.332546,0.151612635,-0.169366074,0.317738,0.139596411,-0.207574231,0.325723,0.133840003,-0.179037693,0.321442,0.100235599,-0.144758682,0.304678,0.0848820721,-0.126003997,0.301753,0.114249132,-0.11889796,0.2989,0.0915990282,-0.0835516359,0.294008,0.0796751114,-0.0663137258,0.291562,0.0681130984,-0.0502085838,0.289339,0.139638895,-0.119890598,0.302859,0.114319796,-0.0843238704,0.282043,0.121774525,-0.111176047,0.302611,0.137120031,-0.137145827,0.316596,0.16267263,-0.12499315,0.307415,0.142410555,-0.129099734,0.286494,0.133993717,-0.143956621,0.275789,0.140864644,-0.154661674,0.284201,0.192515841,-0.138984072,0.315152,0.165789365,-0.142322732,0.296048,0.169766113,-0.163274735,0.30917,0.174032341,-0.183323206,0.320981
0.16495492,-0.223586657,0.332797,0.151394566,-0.169077867,0.31801,0.139443021,-0.207218957,0.326073,0.133619022,-0.17881426,0.321993,0.0999512087,-0.144693875,0.305355,0.0846129202,-0.126078479,0.302452,0.113942403,-0.118849319,0.299312,0.0916289373,-0.0835789173,0.294104,0.0796581686,-0.0662996243,0.2915,0.0680646041,-0.0501728369,0.289133,0.139311667,-0.119645097,0.303153,0.114451123,-0.0844207384,0.282367,0.121915369,-0.111304634,0.302961,0.136416223,-0.13661864,0.316944,0.162267461,-0.12461618,0.30761,0.141794279,-0.128626577,0.28675,0.133525501,-0.143555298,0.276078,0.140548987,-0.154262295,0.284525,0.192053511,-0.13844664,0.315227,0.165173995,-0.141747297,0.296168,0.169250529,-0.162729764,0.309308,0.173579577,-0.182668051,0.321111
0.164682685,-0.223146906,0.333106,0.151134501,-0.168949565,0.318259,0.139222177,-0.207013844,0.326395,0.131185054,-0.177157362,0.322265,0.0992996756,-0.143811515,0.306175,0.0844571091,-0.124926204,0.302555,0.112989575,-0.118677574,0.299537,0.0903400687,-0.0833105187,0.290984,0.077742389,-0.0660167921,0.286707,0.065650511,-0.0499994285,0.282819,0.138982326,-0.119536429,0.303343,0.114583939,-0.0829366116,0.282508,0.120668115,-0.102877162,0.303092,0.133197012,-0.13215178,0.317089,0.161922791,-0.124458618,0.307775,0.1402787,-0.127501336,0.28688,0.13319258,-0.143328419,0.27619,0.140204553,-0.153964502,0.284621,0.191705778,-0.138232939,0.315373,0.164800656,-0.141480506,0.296282,0.168893218,-0.162469708,0.309416,0.173213099,-0.182289611,0.321228
0.164417803,-0.222732772,0.33324,0.150921799,-0.168820023,0.318342,0.138970354,-0.206731928,0.326435,0.1304388,-0.176848272,0.321908,0.0990530443,-0.143235651,0.306059,0.0842966723,-0.124071643,0.302423,0.112728102,-0.11856596,0.299465,0.0897459136,-0.083236057,0.290549,0.0770051334,-0.0660083005,0.286091,0.0647829087,-0.0500617594,0.282039,0.138746776,-0.119438569,0.303374,0.114612171,-0.0821723669,0.282485,0.120646218,-0.102858493,0.303037,0.132808102,-0.130873707,0.317045,0.161727052,-0.12437258,0.307895,0.140250249,-0.127514555,0.28692,0.132959556,-0.143156455,0.276188,0.13992205,-0.153707826,0.284577,0.191585413,-0.138168388,0.315606,0.164634257,-0.141369879,0.296454,0.16872475,-0.162357869,0.309565,0.173014156,-0.182085069,0.32139
0.164206519,-0.222402246,0.333349,0.150771709,-0.168729525,0.318405,0.138778263,-0.206518269,0.326475,0.129987755,-0.176657574,0.321684,0.0988923617,-0.142856898,0.305994,0.0841805633,-0.123457977,0.302324,0.112550963,-0.118488444,0.299409,0.0893491099,-0.0831858552,0.290257,0.0765135263,-0.0660028648,0.285681,0.0642043322,-0.050103837,0.281521,0.138587688,-0.119371527,0.30339,0.114621626,-0.0817103862,0.282453,0.120623924,-0.102839486,0.302981,0.132565387,-0.130096894,0.316997,0.161596557,-0.124315217,0.307975,0.140228773,-0.127518477,0.286935,0.132796276,-0.143033237,0.27617,0.139709888,-0.153513049,0.284524,0.191509114,-0.138128195,0.315768,0.164521762,-0.141294795,0.296566,0.16861003,-0.162280999,0.30966,0.172865739,-0.181932332,0.321494
0.163227951,-0.221035043,0.333525,0.15066807,-0.168671617,0.318471,0.138641562,-0.206372606,0.326547,0.129688278,-0.176531767,0.321537,0.0987362811,-0.142526591,0.30582,0.0840592028,-0.122947054,0.302127,0.112386974,-0.11839355,0.299269,0.0890575423,-0.0831424259,0.290022,0.0761651155,-0.0660015186,0.285399,0.0638009281,-0.0501420212,0.281196,0.138449249,-0.11930224,0.303347,0.114576887,-0.0813669747,0.282306,0.120546688,-0.102773637,0.302787,0.132345831,-0.129522196,0.316827,0.161497505,-0.124269754,0.308021,0.140170495,-0.127481101,0.286855,0.13261716,-0.142877895,0.276027,0.139468378,-0.153276387,0.284316,0.191486205,-0.138122288,0.315936,0.164435281,-0.141235904,0.296635,0.168510177,-0.162208855,0.309695,0.172743685,-0.181806477,0.321552
0.162801303,-0.220193733,0.333562,0.150556108,-0.168591464,0.318456,0.13807034,-0.205645924,0.326498,0.129460416,-0.176422716,0.321397,0.0985828961,-0.142226462,0.305577,0.0839398244,-0.122513047,0.301884,0.112244565,-0.11830185,0.299112,0.0888334206,-0.083104768,0.289828,0.0759035564,-0.0660004312,0.285187,0.0635014761,-0.0501733566,0.280967,0.138329635,-0.119236643,0.30328,0.11453881,-0.0811179176,0.282186,0.120486969,-0.102722723,0.302637,0.132181267,-0.129104206,0.316687,0.161411948,-0.124226981,0.308034,0.140126488,-0.127452247,0.286793,0.132485457,-0.142764176,0.275925,0.139289936,-0.15310261,0.284173,0.191462938,-0.138113462,0.316052,0.164373875,-0.141194704,0.296693,0.168440606,-0.162159858,0.309731,0.172650312,-0.181710211,0.3216
0.157678415,-0.213137379,0.323945,0.148330838,-0.165913501,0.313384,0.134390841,-0.19992481,0.318578,0.108950484,-0.167106501,0.315672,0.0837587134,-0.137619395,0.29934,0.0735135165,-0.114447886,0.294106,0.112796349,-0.118138404,0.29932,0.0929465514,-0.0822208257,0.286273,0.0802293417,-0.0645947537,0.279749,0.0631905193,-0.049052127,0.273818,0.138672342,-0.119146019,0.302773,0.118440225,-0.0863636125,0.285749,0.125946559,-0.11390454,0.307385,0.135415428,-0.133154426,0.320335,0.16149271,-0.124137665,0.30654,0.141677343,-0.128351653,0.289318,0.134872819,-0.144907291,0.280507,0.142661703,-0.156557773,0.290605,0.190133133,-0.137423425,0.312668,0.164914802,-0.141837193,0.296646,0.169480009,-0.163225111,0.310541,0.173282249,-0.182212374,0.322306
