sluyters/QuantumLeap/backend/src/datasets/dynamic/HandGestureDataset_SHREC2017_csv/Gesture13/finger_1/subject_6_essai_4_skeletons_world.csv
Wrist_x,Wrist_y,Wrist_z,Palm_x,Palm_y,Palm_z,thumb_base_x,thumb_base_y,thumb_base_z,thumb_first_joint_x,thumb_first_joint_y,thumb_first_joint_z,thumb_second_joint_x,thumb_second_joint_y,thumb_second_joint_z,thumb_tip_x,thumb_tip_y,thumb_tip_z,index_base_x,index_base_y,index_base_z,index_first_joint_x,index_first_joint_y,index_first_joint_z,index_second_joint_x,index_second_joint_y,index_second_joint_z,index_tip_x,index_tip_y,index_tip_z,middle_base_x,middle_base_y,middle_base_z,middle_first_joint_x,middle_first_joint_y,middle_first_joint_z,middle_second_joint_x,middle_second_joint_y,middle_second_joint_z,middle_tip_x,middle_tip_y,middle_tip_z,ring_base_x,ring_base_y,ring_base_z,ring_first_joint_x,ring_first_joint_y,ring_first_joint_z,ring_second_joint_x,ring_second_joint_y,ring_second_joint_z,ring_tip_x,ring_tip_y,ring_tip_z,pinky_base_x,pinky_base_y,pinky_base_z,pinky_first_joint_x,pinky_first_joint_y,pinky_first_joint_z,pinky_second_joint_x,pinky_second_joint_y,pinky_second_joint_z,pinky_tip_x,pinky_tip_y,pinky_tip_z,
0.61692801,-0.43045257,0.613222,0.62540238,-0.3907079,0.616374,0.59881928,-0.41173459,0.613453,0.5785137,-0.37737749,0.605048,0.55334997,-0.33827339,0.583397,0.54801979,-0.31989194,0.580844,0.61060687,-0.33702326,0.618815,0.60801629,-0.29893754,0.614378,0.61073378,-0.2885024,0.612159,0.61326006,-0.27859849,0.610143,0.63466673,-0.3434131,0.619376,0.6425488,-0.30408994,0.614695,0.6470739,-0.28079898,0.611965,0.65161474,-0.27468806,0.610015,0.65392387,-0.35114548,0.619498,0.6610187,-0.31017008,0.61516,0.66582812,-0.28984723,0.61294,0.67074661,-0.28339857,0.610922,0.6762378,-0.36598479,0.619047,0.68573351,-0.3331456,0.615848,0.69083306,-0.31849356,0.614379,0.69494309,-0.30708221,0.613082
0.61582347,-0.42990061,0.611864,0.62453925,-0.39063437,0.61558,0.59811023,-0.41159591,0.612583,0.57894848,-0.37722788,0.605026,0.55403644,-0.33729093,0.583182,0.55051504,-0.31761803,0.580082,0.61054803,-0.33852929,0.61904,0.60831037,-0.29992956,0.615214,0.60944591,-0.2858251,0.613301,0.61097146,-0.27171383,0.611562,0.63405248,-0.34469958,0.61912,0.64202277,-0.30522591,0.615,0.64419613,-0.28140695,0.612598,0.65131895,-0.2751135,0.610881,0.65277135,-0.35217958,0.618785,0.66070687,-0.31077517,0.615067,0.66593324,-0.29034122,0.613164,0.67132095,-0.2843032,0.611435,0.67429338,-0.36567692,0.617698,0.68269755,-0.33321658,0.614144,0.68700151,-0.31829093,0.61251,0.68765629,-0.30996142,0.611069
0.62128944,-0.43378376,0.617031,0.6259112,-0.39180535,0.616987,0.60175291,-0.41430201,0.616168,0.57845954,-0.37684368,0.605197,0.55627937,-0.33862281,0.585451,0.551597,-0.31664118,0.580618,0.60682475,-0.33646126,0.615832,0.60063907,-0.29644272,0.607774,0.59931789,-0.28086192,0.603745,0.59658413,-0.263428,0.600082,0.63128833,-0.34304564,0.616944,0.630916,-0.30365782,0.608385,0.632409,-0.29746349,0.603392,0.62913312,-0.30463283,0.599825,0.65129891,-0.35110704,0.617865,0.65549103,-0.30907482,0.609972,0.65892113,-0.30094421,0.605934,0.65866794,-0.3030922,0.602263,0.67508946,-0.36614665,0.618942,0.67911029,-0.33150588,0.611422,0.67865563,-0.31589719,0.607967,0.6804994,-0.30661662,0.604918
0.62910548,-0.43824053,0.623491,0.63167588,-0.39460773,0.621708,0.60613569,-0.41680252,0.619563,0.58980956,-0.3811502,0.608538,0.55921498,-0.34227453,0.58659,0.55136814,-0.31800103,0.580186,0.60258435,-0.33666845,0.61538,0.59376543,-0.29643285,0.604225,0.59079427,-0.27733254,0.598647,0.58834146,-0.2600091,0.593577,0.63016126,-0.34300695,0.620009,0.63069023,-0.30422871,0.609067,0.63225997,-0.29910386,0.602684,0.63120141,-0.31213669,0.598125,0.64880909,-0.34807719,0.624014,0.65552256,-0.31336177,0.61293,0.65972639,-0.30219709,0.60726,0.6621887,-0.30280114,0.602105,0.6774071,-0.36162492,0.628997,0.67652415,-0.34338218,0.618031,0.67026606,-0.35548439,0.612993,0.67771376,-0.37405643,0.622984
0.62783488,-0.43692273,0.622049,0.6285472,-0.39396262,0.620695,0.604292,-0.41550346,0.617623,0.60527415,-0.38251635,0.609724,0.56008715,-0.34360896,0.584768,0.56016958,-0.32400504,0.583217,0.5898333,-0.33372833,0.61401,0.58260549,-0.29231859,0.603302,0.57979904,-0.27210696,0.597948,0.58073944,-0.25621063,0.59308,0.61698974,-0.33916086,0.619405,0.61839873,-0.30211215,0.608866,0.62459449,-0.30125225,0.602719,0.62824825,-0.31272263,0.598328,0.63981585,-0.34638028,0.623993,0.64398085,-0.31420504,0.613036,0.64825455,-0.29947836,0.607431,0.65756583,-0.29911264,0.602334,0.66806954,-0.36048408,0.629573,0.66865385,-0.3492962,0.618771,0.66445581,-0.36223369,0.613807,0.67603303,-0.38232017,0.623767
0.62623555,-0.43530357,0.620659,0.62369031,-0.3915156,0.619714,0.60289877,-0.41447116,0.61654,0.60183951,-0.37993067,0.606885,0.55630376,-0.34085833,0.581924,0.5557405,-0.3199844,0.579812,0.58775509,-0.33327805,0.613709,0.58076421,-0.29183593,0.603247,0.57813948,-0.27160324,0.598016,0.57574372,-0.25328404,0.593261,0.61435636,-0.33868928,0.618815,0.6166339,-0.30146999,0.60876,0.62378555,-0.30033254,0.602895,0.62738008,-0.31025225,0.598706,0.63666164,-0.34584912,0.623121,0.64608711,-0.31292545,0.613074,0.65920142,-0.30205214,0.607934,0.66211701,-0.30010687,0.603261,0.66422365,-0.35980074,0.628298,0.66612955,-0.34822292,0.617908,0.66228212,-0.36122864,0.613134,0.67405485,-0.38139877,0.623246
0.62510428,-0.43401215,0.619732,0.62224086,-0.39063184,0.619189,0.601851,-0.41366702,0.615803,0.60104234,-0.37937932,0.606387,0.55542305,-0.34040549,0.580925,0.55547742,-0.319816,0.579107,0.58696242,-0.33322936,0.613703,0.58042458,-0.29199066,0.603787,0.57805068,-0.27183658,0.598829,0.57588314,-0.25357998,0.594321,0.61334869,-0.33856849,0.618672,0.61331844,-0.29954641,0.609079,0.61923967,-0.29275671,0.603483,0.62547054,-0.30356704,0.599486,0.63542988,-0.34563863,0.622822,0.64699476,-0.31265772,0.613511,0.65925762,-0.30216051,0.608747,0.66362947,-0.3002294,0.604416,0.66091736,-0.35942001,0.627742,0.66522585,-0.34784138,0.617721,0.6616419,-0.3609337,0.613116,0.67358243,-0.38117701,0.623349
0.62396576,-0.43185387,0.618416,0.6178997,-0.37987515,0.618521,0.60077335,-0.41210777,0.614704,0.60032719,-0.3693455,0.606804,0.55397462,-0.33482716,0.582084,0.55352018,-0.31486738,0.58096,0.58543493,-0.32522108,0.613757,0.57959815,-0.28435487,0.604722,0.57762186,-0.26432742,0.600204,0.57631598,-0.25003898,0.596097,0.61156284,-0.330521,0.618621,0.61204631,-0.29038273,0.609764,0.62038275,-0.2850507,0.604597,0.6236631,-0.29504847,0.600907,0.63336282,-0.3374989,0.622614,0.64892151,-0.30396836,0.614491,0.6584995,-0.29362965,0.610335,0.66587499,-0.2870616,0.606557,0.66015506,-0.35106288,0.62723,0.66388096,-0.33906361,0.617777,0.66074127,-0.35231511,0.613434,0.67580772,-0.37354425,0.623839
0.61903385,-0.4125246,0.615658,0.61491954,-0.36449642,0.618378,0.59589453,-0.39508875,0.612553,0.60012761,-0.35453474,0.60528,0.55454257,-0.31762021,0.579406,0.55598155,-0.29739669,0.57745,0.58513251,-0.31150913,0.61618,0.56915062,-0.27231032,0.608502,0.56197042,-0.25287663,0.604663,0.55650549,-0.23519468,0.601173,0.61126295,-0.3169691,0.620969,0.61658065,-0.27785569,0.615067,0.62634221,-0.27321158,0.611625,0.63030536,-0.28285427,0.609166,0.63276857,-0.32391137,0.624619,0.63268546,-0.28168546,0.617874,0.64265242,-0.27249419,0.614423,0.65409384,-0.27130155,0.611286,0.65866638,-0.33712943,0.628344,0.66467201,-0.32302155,0.621115,0.65526629,-0.33508542,0.617794,0.65968535,-0.35339873,0.628804
0.60208715,-0.3667777,0.59982,0.60940347,-0.33967338,0.616679,0.57954072,-0.35204532,0.599092,0.58963727,-0.3221188,0.607736,0.57913954,-0.28592917,0.595392,0.58978057,-0.27063718,0.604293,0.58662168,-0.29946192,0.627178,0.58353714,-0.26649256,0.633736,0.58509766,-0.24933363,0.637015,0.58919646,-0.23400382,0.639996,0.6142067,-0.30542957,0.632735,0.64154637,-0.28232956,0.643838,0.66393824,-0.28877631,0.650314,0.67721331,-0.30265678,0.655932,0.63577192,-0.31171934,0.635494,0.66139127,-0.28286875,0.64353,0.67948272,-0.28679007,0.647641,0.6990464,-0.28936908,0.651379,0.65968645,-0.32218938,0.635527,0.67259125,-0.30707538,0.640623,0.67881025,-0.29945646,0.642964,0.69635176,-0.29742631,0.656233
0.60474526,-0.3608831,0.601939,0.60780398,-0.33056269,0.620887,0.57928297,-0.34568341,0.598755,0.58545308,-0.30880803,0.606494,0.57409527,-0.27390023,0.595926,0.58299371,-0.25958615,0.605802,0.57677961,-0.29402027,0.629604,0.5749549,-0.26113238,0.636873,0.57779858,-0.24402353,0.640507,0.58359791,-0.22882232,0.643812,0.60652574,-0.30085677,0.638932,0.63613655,-0.27535216,0.652228,0.66049221,-0.27739175,0.659985,0.68938001,-0.29424607,0.677841,0.63014233,-0.30757787,0.644571,0.65669091,-0.27567407,0.653689,0.67978428,-0.27625954,0.658354,0.70206595,-0.27669514,0.662595,0.65695828,-0.31796963,0.647556,0.67284781,-0.30019373,0.653837,0.68049798,-0.29126056,0.656723,0.69789424,-0.28724377,0.669289
0.60953886,-0.35196169,0.607032,0.60878275,-0.32077477,0.623703,0.58327009,-0.337467,0.60324,0.58641746,-0.29892,0.602619,0.55030983,-0.27339845,0.58955,0.54071366,-0.26949105,0.598872,0.57576278,-0.28103185,0.630084,0.56846253,-0.24787811,0.6351,0.56616328,-0.23058213,0.637608,0.56400856,-0.21459938,0.639888,0.60499818,-0.2871471,0.63958,0.63513423,-0.26253803,0.651246,0.6590336,-0.2652828,0.65805,0.68809725,-0.28211356,0.675905,0.62840059,-0.29356547,0.645604,0.64330644,-0.25482431,0.6542,0.66575217,-0.25370586,0.658598,0.6874529,-0.26316899,0.663266,0.65532619,-0.30412051,0.649462,0.66797994,-0.29086531,0.653582,0.6741191,-0.28419392,0.655475,0.69351304,-0.28453325,0.667765
0.604321,-0.36413297,0.609356,0.58774089,-0.32784315,0.618037,0.56796062,-0.34537597,0.607225,0.57746493,-0.31370116,0.611067,0.54283529,-0.27938326,0.591846,0.53537419,-0.26754732,0.595814,0.56070836,-0.28006657,0.621153,0.54595654,-0.24518138,0.619197,0.54065749,-0.22708269,0.618219,0.54029593,-0.20874006,0.617329,0.58442076,-0.28671639,0.626303,0.59763789,-0.25058274,0.627213,0.61495512,-0.24245508,0.627743,0.64410154,-0.25358546,0.644809,0.60343218,-0.29409805,0.629609,0.6358363,-0.28423852,0.628655,0.6603558,-0.31740549,0.649914,0.67216637,-0.34351874,0.658792,0.62556169,-0.30680377,0.631814,0.6384445,-0.29267173,0.629642,0.64483398,-0.28576944,0.628644,0.6637476,-0.2858721,0.640774
0.58756883,-0.36470267,0.616458,0.58168871,-0.32802572,0.625461,0.56087328,-0.34358581,0.607095,0.55152062,-0.30913679,0.608504,0.53588168,-0.27588206,0.598765,0.53334989,-0.26065278,0.60486,0.55129228,-0.27275837,0.619378,0.54642137,-0.24664825,0.633351,0.55027497,-0.23058195,0.640337,0.55371924,-0.21545809,0.646689,0.58237735,-0.28455257,0.634035,0.59849187,-0.2485913,0.635518,0.62069697,-0.2454795,0.636384,0.64708996,-0.2563262,0.650545,0.60757625,-0.2964162,0.645134,0.64400955,-0.29222068,0.646058,0.66572061,-0.32333322,0.66354,0.67430323,-0.34871284,0.67015,0.63677858,-0.31487983,0.656325,0.65297685,-0.30889937,0.652822,0.66102693,-0.30601791,0.651212,0.67409047,-0.32215273,0.660657
0.56725015,-0.34369077,0.614433,0.576122,-0.31385744,0.627928,0.54475584,-0.32301404,0.609154,0.54116589,-0.29322347,0.616437,0.53599083,-0.25993806,0.608715,0.54043702,-0.24490119,0.616991,0.55473465,-0.26473328,0.630215,0.56056002,-0.23700065,0.64714,0.56612876,-0.22143365,0.655602,0.57115423,-0.20687864,0.663296,0.58376898,-0.27707669,0.640781,0.607861,-0.2445842,0.647107,0.62764893,-0.240921,0.650797,0.65493965,-0.24972819,0.667416,0.606663,-0.28891762,0.648027,0.64886912,-0.28160955,0.65794,0.67192555,-0.31355081,0.677356,0.67666486,-0.33775278,0.681109,0.63214711,-0.30652551,0.653901,0.65174729,-0.29710391,0.654925,0.66355791,-0.30560802,0.655396,0.68083142,-0.32189111,0.666978
0.5800017,-0.34609398,0.621894,0.58208282,-0.31454593,0.632898,0.55301492,-0.32448008,0.612433,0.54194374,-0.29393924,0.615217,0.53106224,-0.26002449,0.605002,0.53351534,-0.24400452,0.611598,0.5470502,-0.26268865,0.628045,0.54700137,-0.23098795,0.638719,0.54684225,-0.21461618,0.644056,0.54663876,-0.19943676,0.648931,0.57838367,-0.27410179,0.643377,0.60602205,-0.24400527,0.647168,0.6252945,-0.24060009,0.649379,0.65082125,-0.24871984,0.66353,0.60401609,-0.28534508,0.654816,0.64544185,-0.27513574,0.661987,0.66814249,-0.30350848,0.679001,0.67511195,-0.32647808,0.682902,0.63424888,-0.30248163,0.666026,0.64713578,-0.2880151,0.664277,0.65351248,-0.28093967,0.663473,0.65989405,-0.29088687,0.672931
0.58081062,-0.35157833,0.621392,0.58172781,-0.3148524,0.63259,0.55279891,-0.32539712,0.612123,0.53976945,-0.29386109,0.612759,0.52166207,-0.26525592,0.605247,0.52109064,-0.25068232,0.612871,0.54949583,-0.26357939,0.62812,0.54720358,-0.23185993,0.638647,0.54698862,-0.2155129,0.643911,0.54673083,-0.20037107,0.64871,0.58172631,-0.27599048,0.643255,0.60512694,-0.24343399,0.647063,0.62424319,-0.23938962,0.649285,0.6499776,-0.24625396,0.663523,0.60548618,-0.28624572,0.654511,0.64038583,-0.27574172,0.653447,0.66199307,-0.30834799,0.670118,0.6694364,-0.33054534,0.677207,0.63581929,-0.30356969,0.665472,0.65377878,-0.29513845,0.66391,0.65444248,-0.30930254,0.663192,0.66469222,-0.32731621,0.672765
0.59003438,-0.3499183,0.63043,0.58672649,-0.31457039,0.637425,0.55965816,-0.32746243,0.617877,0.54116893,-0.29436305,0.614075,0.52113291,-0.26356308,0.603925,0.52179523,-0.24588019,0.608066,0.54300569,-0.2603126,0.625824,0.54454448,-0.23012609,0.639043,0.54517314,-0.21452581,0.645653,0.54693677,-0.20079416,0.651661,0.57432995,-0.26950859,0.644087,0.59817031,-0.23964992,0.643387,0.61626873,-0.23602031,0.642978,0.64066629,-0.24194344,0.654486,0.60237176,-0.2803559,0.658372,0.63120249,-0.26450826,0.65224,0.65013625,-0.29258518,0.666729,0.66280879,-0.32042304,0.674993,0.63661294,-0.29742951,0.673639,0.6361612,-0.26430888,0.668265,0.64681921,-0.25786875,0.665797,0.66597361,-0.25567755,0.673158
0.57995204,-0.34862061,0.620555,0.58074542,-0.3131861,0.632207,0.55282376,-0.32486274,0.611594,0.54201611,-0.29547408,0.61389,0.52686405,-0.26172242,0.601888,0.52650374,-0.24366559,0.607028,0.54711043,-0.26178735,0.628447,0.54505242,-0.22994739,0.63782,0.54584475,-0.21375011,0.642506,0.54437051,-0.19870006,0.647843,0.57994953,-0.27359981,0.643305,0.59219816,-0.23315955,0.647627,0.61223442,-0.23601404,0.650148,0.63755524,-0.24909731,0.664611,0.60547093,-0.28475597,0.654283,0.64159219,-0.27779252,0.653722,0.65807992,-0.30775893,0.670527,0.66504889,-0.33363289,0.678262,0.63390245,-0.30064595,0.664836,0.65314077,-0.29504795,0.663703,0.65450576,-0.3092443,0.663182,0.66530709,-0.32735878,0.67294
0.58084851,-0.34947713,0.62218,0.58087368,-0.31339374,0.632406,0.55357631,-0.32600726,0.612839,0.54263148,-0.29568638,0.6138,0.5271809,-0.26182966,0.601172,0.52801845,-0.24328399,0.605573,0.5489656,-0.26163858,0.627184,0.5454469,-0.22886105,0.635757,0.54454079,-0.21210172,0.640044,0.54367767,-0.19662357,0.643969,0.57976033,-0.27233647,0.642146,0.5926586,-0.23232173,0.644782,0.61584959,-0.23773192,0.64632,0.63742972,-0.25590944,0.660476,0.60542125,-0.28356682,0.653365,0.63968873,-0.27670487,0.651368,0.65799111,-0.30766786,0.668288,0.66506829,-0.33341521,0.675853,0.6353003,-0.30106832,0.664464,0.65234969,-0.29429305,0.662035,0.65326605,-0.30819074,0.660919,0.66392732,-0.32616815,0.670426
0.57940656,-0.35227096,0.622273,0.57954112,-0.31957146,0.631452,0.55293801,-0.33094773,0.612564,0.54467483,-0.30647377,0.612957,0.52375699,-0.27004489,0.595122,0.52840144,-0.25592421,0.600964,0.54889105,-0.26808175,0.625038,0.54380202,-0.23497361,0.631284,0.54393484,-0.21738799,0.634406,0.54515506,-0.20096437,0.637245,0.58064892,-0.27680084,0.640193,0.59671162,-0.24042564,0.64161,0.61205637,-0.25101007,0.642436,0.63431103,-0.26887568,0.65629,0.60699495,-0.28900642,0.651684,0.63787246,-0.28564061,0.648276,0.65421619,-0.31720952,0.665156,0.66171966,-0.34364927,0.674031,0.637699,-0.30772611,0.663297,0.65433417,-0.30158562,0.659917,0.65272616,-0.31755343,0.658364,0.66336205,-0.33565033,0.667625
0.584165,-0.3663462,0.621104,0.58358341,-0.33353693,0.630569,0.55691726,-0.34369336,0.609454,0.54604422,-0.31554616,0.608272,0.53155114,-0.28006446,0.593812,0.5352931,-0.26515566,0.598189,0.5533648,-0.27578582,0.621821,0.54452327,-0.24624722,0.629866,0.54541277,-0.22922842,0.633889,0.54941868,-0.21464701,0.637545,0.58329862,-0.29206347,0.639583,0.62718487,-0.29516864,0.64754,0.63350367,-0.32129416,0.652182,0.63465675,-0.3404091,0.666107,0.60746777,-0.30604504,0.653189,0.64397416,-0.29755816,0.649647,0.66255565,-0.32473921,0.664357,0.66044789,-0.34625473,0.671663,0.63503526,-0.32704855,0.667203,0.65587737,-0.31815322,0.664025,0.66611515,-0.31386288,0.662565,0.67169949,-0.3258999,0.670593
0.58301238,-0.37587574,0.625152,0.58138758,-0.34656149,0.630863,0.5562525,-0.35139031,0.611726,0.54459321,-0.32464497,0.606299,0.53263798,-0.28937297,0.592477,0.53424142,-0.26970934,0.592624,0.54949573,-0.28541529,0.617253,0.54479496,-0.25645858,0.628593,0.54666963,-0.2401472,0.634263,0.55016697,-0.22470157,0.639417,0.58064548,-0.30035926,0.636302,0.62085324,-0.30226312,0.640524,0.62504542,-0.32721969,0.642987,0.62483402,-0.34546433,0.655335,0.60615236,-0.31505737,0.651373,0.6390062,-0.3052437,0.644128,0.65566957,-0.33234546,0.657927,0.66423592,-0.35693888,0.666365,0.63601199,-0.33729279,0.667793,0.65371021,-0.32714576,0.661327,0.66242351,-0.32231574,0.658356,0.66444852,-0.33328226,0.665033
0.6332032,-0.29622798,0.598034,0.60123025,-0.31612305,0.604857,0.61174133,-0.31343552,0.586752,0.58897485,-0.33056558,0.599742,0.53958867,-0.31013892,0.578945,0.52971752,-0.29624805,0.58193,0.55066265,-0.34920789,0.594796,0.54134217,-0.33947876,0.600119,0.56209399,-0.33406472,0.60278,0.59161666,-0.34226846,0.617257,0.56362709,-0.33808531,0.611356,0.5476645,-0.3247455,0.610174,0.57050971,-0.31962831,0.609485,0.59569254,-0.32960188,0.622061,0.57589193,-0.32716687,0.624257,0.55373783,-0.31037184,0.618191,0.59066992,-0.3154731,0.634204,0.61793689,-0.32447826,0.643051,0.59365345,-0.31046188,0.637949,0.57726886,-0.30009323,0.632418,0.57384384,-0.29277667,0.629876,0.59282849,-0.28813844,0.6381
0.63132132,-0.29408575,0.593112,0.60868588,-0.32264951,0.605155,0.61568883,-0.31324835,0.584859,0.60075342,-0.33555554,0.594854,0.55539395,-0.32215076,0.57785,0.54577908,-0.31224955,0.584252,0.5703426,-0.36691915,0.602582,0.57157275,-0.36336208,0.613108,0.59422061,-0.35599784,0.618371,0.62397988,-0.36277234,0.635149,0.57508102,-0.35468298,0.616624,0.57080724,-0.34764946,0.621342,0.59757221,-0.34023327,0.624094,0.62300235,-0.3493098,0.639033,0.58006654,-0.34226296,0.626889,0.57041839,-0.33172084,0.626668,0.61072383,-0.33417999,0.643959,0.63636193,-0.34042344,0.653498,0.58828045,-0.32276159,0.63654,0.58282756,-0.3169362,0.635821,0.5841155,-0.31096492,0.635491,0.60467471,-0.30556671,0.645644
0.67592279,-0.32613444,0.614567,0.63507451,-0.3445022,0.616139,0.65399306,-0.34020676,0.600228,0.62759216,-0.3506112,0.603612,0.57572132,-0.32699514,0.577532,0.560115,-0.31124918,0.575875,0.57488883,-0.37443995,0.598529,0.56916642,-0.35210285,0.591807,0.6008929,-0.35352081,0.605904,0.62300174,-0.36242047,0.617641,0.58614484,-0.36612311,0.617635,0.58108857,-0.34344207,0.610859,0.62351104,-0.34859386,0.628835,0.64191604,-0.36046755,0.639885,0.59787054,-0.35772917,0.633199,0.58860368,-0.33075076,0.621554,0.62727578,-0.33477041,0.635376,0.6482441,-0.34759545,0.647381,0.61650761,-0.34438691,0.650969,0.61051957,-0.32602003,0.640928,0.61196119,-0.31517098,0.636314,0.63046267,-0.30960012,0.642139
0.67356922,-0.33503927,0.612127,0.63340304,-0.36346939,0.614048,0.65210833,-0.35913267,0.597926,0.62576964,-0.36985387,0.601241,0.57403138,-0.34556187,0.575166,0.55850501,-0.32967905,0.573522,0.57353383,-0.39303045,0.596854,0.56434598,-0.36893431,0.586239,0.59583442,-0.37076239,0.600202,0.61875531,-0.38031906,0.6129,0.58471014,-0.38487024,0.615877,0.58031711,-0.3632002,0.609478,0.62289404,-0.36910981,0.627569,0.64136883,-0.38109991,0.638793,0.59634169,-0.37659964,0.631334,0.58774632,-0.35058472,0.620041,0.62656425,-0.35533939,0.633953,0.65047997,-0.36908576,0.646078,0.61482148,-0.36339592,0.648915,0.60936961,-0.34580439,0.639166,0.61106364,-0.33530567,0.634686,0.62973243,-0.33007663,0.640637
0.59369078,-0.37128491,0.565545,0.60303608,-0.36218654,0.593354,0.56703035,-0.3600785,0.563464,0.5843214,-0.33898781,0.584336,0.58075268,-0.31303903,0.587953,0.59581455,-0.3058615,0.605856,0.57594243,-0.34006024,0.609526,0.60916189,-0.32410072,0.625553,0.63767939,-0.34232663,0.640286,0.65236064,-0.36779291,0.653679,0.60766708,-0.3476371,0.619839,0.6497986,-0.33446461,0.644111,0.68329881,-0.35657515,0.663282,0.69784179,-0.38283284,0.676976,0.63225905,-0.35379194,0.625335,0.66764363,-0.33396232,0.643202,0.69304211,-0.33556275,0.658054,0.69464339,-0.35121322,0.656774,0.6590066,-0.36132977,0.626488,0.68229774,-0.34803568,0.641388,0.69333423,-0.34096477,0.648234,0.71176103,-0.34140853,0.660745
0.60976905,-0.38996173,0.580692,0.61100691,-0.37681426,0.60039,0.58024843,-0.38498018,0.57557,0.59658329,-0.36064024,0.591982,0.58666495,-0.32704085,0.58552,0.59732424,-0.31517295,0.598701,0.57400241,-0.34051731,0.607092,0.59764818,-0.3268265,0.613371,0.62952438,-0.34549048,0.630167,0.6484106,-0.37107832,0.645437,0.60735227,-0.34782991,0.619149,0.62778547,-0.31900508,0.633082,0.66149623,-0.33692046,0.654898,0.66572847,-0.35558445,0.656706,0.63424495,-0.35450364,0.626955,0.6634728,-0.33913905,0.635317,0.69412716,-0.34349415,0.652234,0.70594552,-0.36321275,0.655616,0.66540546,-0.36401985,0.632313,0.68231889,-0.35349763,0.638932,0.69305991,-0.35626973,0.641974,0.71278098,-0.36380088,0.653693
0.60987841,-0.40279477,0.580783,0.61253179,-0.38566072,0.600238,0.58047842,-0.38870064,0.575823,0.59399613,-0.36544851,0.588019,0.5838027,-0.33202964,0.584038,0.59451313,-0.31727355,0.595846,0.57814507,-0.35042825,0.606987,0.59481791,-0.32574126,0.613112,0.62553811,-0.33699367,0.63014,0.6346166,-0.35652212,0.634525,0.61151,-0.3579591,0.618766,0.63614286,-0.32910709,0.632384,0.67100354,-0.34988717,0.654485,0.67402153,-0.36897415,0.656496,0.63831121,-0.36501838,0.62637,0.66538778,-0.34871251,0.634537,0.69391027,-0.35521123,0.651683,0.70646089,-0.3608005,0.655235,0.66912908,-0.37541622,0.631538,0.68400818,-0.36432687,0.637956,0.6924157,-0.36601169,0.640904,0.71020877,-0.37378528,0.652709
0.58891745,-0.40869947,0.583416,0.60946108,-0.3852211,0.601135,0.57291683,-0.38474558,0.57619,0.58466452,-0.35811369,0.588283,0.5896026,-0.32846377,0.587196,0.59668151,-0.31743535,0.596788,0.58772815,-0.3351566,0.603755,0.61783213,-0.32731124,0.60709,0.6488584,-0.33049681,0.62296,0.66799082,-0.33718957,0.627985,0.62096671,-0.35302797,0.618011,0.65472101,-0.32649429,0.629656,0.68599051,-0.34895175,0.65035,0.68276725,-0.36707621,0.652634,0.64691293,-0.36906262,0.627841,0.68189235,-0.35935896,0.633581,0.68988545,-0.38799959,0.649586,0.68149087,-0.40952537,0.655806,0.67498934,-0.39095646,0.63592,0.69146774,-0.37825689,0.640468,0.69947581,-0.37184163,0.642558,0.71364066,-0.37247059,0.653236
0.59659578,-0.41068589,0.580603,0.60818981,-0.39510331,0.597812,0.56941572,-0.38519322,0.5704,0.58700597,-0.36087806,0.56773,0.5937786,-0.33036892,0.556811,0.6058456,-0.31588722,0.561426,0.58614925,-0.3435018,0.596207,0.61638746,-0.33404634,0.597943,0.64502208,-0.33533777,0.610528,0.65516578,-0.34806524,0.614871,0.62079901,-0.36566152,0.614202,0.6643937,-0.36135766,0.625859,0.70270118,-0.36365209,0.642481,0.70919294,-0.37439454,0.643482,0.64811978,-0.38521951,0.627165,0.68919678,-0.37072183,0.631852,0.71197323,-0.38572035,0.6446,0.71853609,-0.39953323,0.6478,0.6781349,-0.41121254,0.638978,0.70788567,-0.40357689,0.643082,0.71321597,-0.42107098,0.644968,0.72351471,-0.44180242,0.653611
0.59033647,-0.42094975,0.576832,0.60599198,-0.40315072,0.59516,0.56721329,-0.39082912,0.566971,0.58618808,-0.37026432,0.566497,0.5927973,-0.33956644,0.555219,0.60571924,-0.32544168,0.560427,0.58577714,-0.35161918,0.59476,0.61728039,-0.34383928,0.597762,0.64571265,-0.34569714,0.610114,0.65505762,-0.35861952,0.613864,0.62026816,-0.37386464,0.612615,0.66531502,-0.37158098,0.625661,0.70336421,-0.37461957,0.641987,0.70902044,-0.38550082,0.642392,0.64729462,-0.39342837,0.625343,0.68975876,-0.38082387,0.631278,0.71211455,-0.3965786,0.643793,0.71778263,-0.41064255,0.646396,0.67665434,-0.41931066,0.636672,0.70754939,-0.41336708,0.641866,0.7132501,-0.43135427,0.644253,0.72353805,-0.45235677,0.653023
0.59273931,-0.43665953,0.579003,0.60552111,-0.41664743,0.592877,0.56659991,-0.41460806,0.566087,0.58875453,-0.38796321,0.561992,0.59343747,-0.35621203,0.547067,0.60928644,-0.34374168,0.55324,0.58165956,-0.35694932,0.585473,0.61249485,-0.35259537,0.583195,0.64123157,-0.35712798,0.593367,0.66222402,-0.36722063,0.59833,0.61719279,-0.38094039,0.606089,0.66100969,-0.37715552,0.614403,0.69840284,-0.37971658,0.628019,0.70714358,-0.39160794,0.629285,0.64544092,-0.40243662,0.621572,0.68693901,-0.38773034,0.622612,0.70679679,-0.40614264,0.632962,0.71460898,-0.42295747,0.636677,0.67678217,-0.43151122,0.636935,0.70547982,-0.42221987,0.638221,0.70927277,-0.4388962,0.638813,0.7161514,-0.45839076,0.645349
0.59794509,-0.45046964,0.579899,0.60778009,-0.42069788,0.593311,0.56981126,-0.42090093,0.567497,0.59114181,-0.39699184,0.567743,0.59440042,-0.36580699,0.54715,0.60911397,-0.35344385,0.549724,0.57732685,-0.36713044,0.586266,0.60372432,-0.3583945,0.583558,0.63156793,-0.36157218,0.595032,0.65142552,-0.37476966,0.600685,0.61548945,-0.38751939,0.606085,0.65126884,-0.36611193,0.613518,0.68674856,-0.36523585,0.628875,0.70059737,-0.35470603,0.63121,0.6455952,-0.40404038,0.620961,0.67975677,-0.38434596,0.621458,0.7080074,-0.40593067,0.633103,0.72636538,-0.42650729,0.637555,0.67863598,-0.43116698,0.635707,0.70483741,-0.42303729,0.636377,0.70916001,-0.43962147,0.636685,0.71665354,-0.45909078,0.643838
0.64028067,-0.47681439,0.589927,0.63252033,-0.43860782,0.595868,0.60793954,-0.45432416,0.576532,0.60685779,-0.42310871,0.577102,0.60041189,-0.38385001,0.552744,0.61098387,-0.36712722,0.552839,0.58585255,-0.38019142,0.582455,0.60218432,-0.35408274,0.579766,0.6220001,-0.3416732,0.585586,0.64187336,-0.33719492,0.598259,0.62179881,-0.39213869,0.601526,0.63775301,-0.36113523,0.599768,0.65573605,-0.34759495,0.602657,0.68005607,-0.34289498,0.61461,0.65190322,-0.40426962,0.616591,0.68180832,-0.39960819,0.609311,0.71883741,-0.408687,0.623056,0.7498477,-0.41428046,0.631487,0.68843165,-0.42324846,0.63296,0.7042863,-0.42009934,0.626698,0.69826415,-0.43372346,0.623821,0.70285823,-0.45096373,0.630525
0.64382782,-0.48387752,0.591333,0.64099249,-0.45120804,0.597441,0.61319738,-0.46240707,0.580061,0.60545106,-0.43759218,0.57807,0.59526546,-0.39954249,0.553507,0.60147968,-0.38144304,0.553469,0.59835463,-0.39318715,0.586906,0.61566204,-0.36542638,0.584287,0.63463698,-0.35499466,0.589733,0.65792512,-0.35063501,0.604429,0.63370437,-0.4043536,0.603258,0.66044324,-0.39160409,0.601216,0.69006844,-0.42950824,0.622202,0.69095529,-0.4496276,0.629528,0.66313935,-0.41585753,0.616065,0.68993253,-0.40776065,0.609312,0.72691416,-0.42434832,0.625534,0.75430929,-0.4409098,0.634741,0.69858982,-0.43416699,0.629782,0.7106605,-0.43118768,0.623628,0.70557903,-0.44536147,0.620801,0.71292847,-0.46584865,0.628995
0.65051394,-0.49141454,0.596246,0.64268852,-0.45291362,0.596986,0.62040261,-0.47261034,0.583811,0.61544543,-0.44300944,0.581809,0.60897331,-0.40588935,0.559314,0.61928755,-0.38926969,0.561161,0.60036085,-0.39190266,0.581292,0.61788216,-0.36346246,0.577034,0.63973349,-0.3558337,0.58654,0.6674443,-0.35191645,0.601659,0.63497396,-0.40390284,0.597691,0.65843587,-0.39409874,0.589518,0.70312137,-0.40529692,0.610502,0.72616006,-0.42671359,0.620045,0.66422111,-0.41651674,0.611115,0.6872482,-0.40131426,0.599028,0.72521391,-0.41865063,0.615257,0.75748257,-0.43371175,0.626621,0.70017844,-0.43689702,0.626558,0.70862557,-0.42972821,0.615793,0.71537396,-0.45209136,0.628218,0.7213871,-0.47250192,0.636824
0.64254505,-0.47905974,0.589011,0.64220912,-0.43426821,0.594497,0.6116892,-0.4511608,0.577483,0.63076499,-0.41761045,0.582226,0.6284856,-0.38603602,0.578674,0.64451499,-0.37015818,0.58546,0.60245388,-0.37331534,0.583207,0.6260454,-0.35362893,0.580245,0.65703161,-0.35315973,0.595448,0.67874557,-0.3529172,0.607141,0.63767576,-0.38855069,0.599722,0.66722312,-0.38424448,0.596981,0.7120111,-0.39599865,0.617843,0.73003918,-0.41651567,0.625383,0.66692846,-0.40342588,0.61273,0.69717924,-0.39611359,0.605324,0.73630987,-0.41905224,0.621447,0.76761524,-0.43754075,0.630878,0.70200673,-0.42581093,0.626798,0.71066077,-0.41520838,0.620096,0.7168804,-0.43467453,0.632531,0.71767976,-0.449789,0.639712
0.64207655,-0.47677143,0.588006,0.6415496,-0.43390414,0.593965,0.61131747,-0.44901426,0.576366,0.62975794,-0.41719827,0.581636,0.62891226,-0.38628448,0.579461,0.6425082,-0.36884501,0.586627,0.60176241,-0.37322833,0.582851,0.62516026,-0.35351809,0.580015,0.65568521,-0.35284513,0.594973,0.67909733,-0.35172819,0.60648,0.63740837,-0.38856313,0.59964,0.6673191,-0.38449497,0.597485,0.71157427,-0.39595698,0.618042,0.72924068,-0.41623715,0.625274,0.66698458,-0.40348967,0.612824,0.69744755,-0.39629437,0.605847,0.73511134,-0.42033864,0.621725,0.76567048,-0.43703735,0.630885,0.70238114,-0.42587774,0.627007,0.71118503,-0.41547424,0.620711,0.71672795,-0.43508274,0.632966,0.71443832,-0.45178467,0.639934
0.64675948,-0.47369021,0.590794,0.64974788,-0.42918583,0.596197,0.61605137,-0.44947916,0.579396,0.64228208,-0.41952025,0.589747,0.6339182,-0.38749724,0.583335,0.64724445,-0.37117381,0.590535,0.60967266,-0.36924753,0.585019,0.62573114,-0.35210959,0.579363,0.65755275,-0.35265832,0.595745,0.68086278,-0.34878206,0.604521,0.64611556,-0.38254722,0.601343,0.67318585,-0.38089974,0.598482,0.71450138,-0.39608135,0.619536,0.73246596,-0.41691328,0.62718,0.67640006,-0.39588447,0.614204,0.7041952,-0.39148882,0.606747,0.73892145,-0.41940808,0.623024,0.76911761,-0.43974277,0.632537,0.71267922,-0.41655302,0.628115,0.71861447,-0.40910036,0.621347,0.72348957,-0.42967913,0.633899,0.71738304,-0.44688857,0.641149
0.6489848,-0.46858104,0.590162,0.65261511,-0.42016647,0.595783,0.62156929,-0.43822697,0.579333,0.63111624,-0.40065816,0.582406,0.63439583,-0.37076438,0.581934,0.6449785,-0.35468255,0.587502,0.61675357,-0.35934574,0.585494,0.63513165,-0.33893089,0.579538,0.66441183,-0.33808235,0.593868,0.69291064,-0.33684608,0.607507,0.65187829,-0.37479408,0.601135,0.67918558,-0.37085267,0.598448,0.72391102,-0.38278097,0.620131,0.73900695,-0.40268674,0.62791,0.68085961,-0.38986114,0.613411,0.71010667,-0.38372477,0.6063,0.74536803,-0.41208519,0.623081,0.76995367,-0.4387917,0.632657,0.71308806,-0.41403849,0.626602,0.72354136,-0.40262451,0.620054,0.72833658,-0.42335058,0.633001,0.72459045,-0.4423109,0.640325
0.64690613,-0.45522657,0.582803,0.65193952,-0.41620947,0.591046,0.61906563,-0.42632461,0.572564,0.64089721,-0.39603632,0.572002,0.63959432,-0.36073662,0.554815,0.65233715,-0.34561843,0.561242,0.62029737,-0.35851152,0.583306,0.63310279,-0.33638429,0.57689,0.66244569,-0.33548547,0.592312,0.6879586,-0.33267098,0.604326,0.6576,-0.37395013,0.598897,0.68217615,-0.36933811,0.599258,0.72633113,-0.37593814,0.620781,0.73927739,-0.39819169,0.627406,0.68831489,-0.38876412,0.610847,0.71619264,-0.37906107,0.606398,0.75012776,-0.40681019,0.62305,0.77240728,-0.43209228,0.631499,0.72459545,-0.41070109,0.623168,0.7303433,-0.39795482,0.61893,0.73433933,-0.41819852,0.631828,0.72848231,-0.43561613,0.638321
0.64580238,-0.45172219,0.580743,0.65138538,-0.40912221,0.585287,0.62358511,-0.42777805,0.576314,0.66862334,-0.4132638,0.599106,0.68137307,-0.38472126,0.593827,0.69728085,-0.36959522,0.602233,0.62521996,-0.35124522,0.582603,0.63941244,-0.32489973,0.579328,0.66305983,-0.32108113,0.591853,0.69408334,-0.32072581,0.610901,0.6554475,-0.36010002,0.589614,0.67172565,-0.35713483,0.585604,0.71655922,-0.3731327,0.612411,0.73334003,-0.39520051,0.622276,0.68023456,-0.36980239,0.594898,0.6976207,-0.35482612,0.589132,0.73197859,-0.3900917,0.610077,0.757516,-0.4202865,0.620772,0.70955846,-0.38631704,0.600177,0.7063034,-0.37791936,0.593974,0.72756545,-0.38593377,0.610104,0.73722264,-0.39157393,0.618684
0.64708108,-0.44492028,0.579991,0.65213082,-0.39640899,0.585118,0.6243834,-0.42497452,0.576914,0.67007368,-0.40360095,0.60311,0.69267483,-0.38065985,0.606874,0.71186292,-0.36646451,0.617593,0.62704228,-0.34265631,0.58459,0.64272635,-0.31662908,0.582648,0.66344567,-0.31089976,0.592538,0.6949747,-0.31018686,0.612055,0.655531,-0.35047198,0.590001,0.67267701,-0.34737127,0.586784,0.71802408,-0.36270871,0.614058,0.73484872,-0.38485393,0.623783,0.67871915,-0.35924413,0.593903,0.69881564,-0.34508386,0.590514,0.73370339,-0.38007613,0.611916,0.75473533,-0.40773067,0.621835,0.70594038,-0.37452017,0.597469,0.70368434,-0.3662554,0.592143,0.72531591,-0.37392561,0.608611,0.73457706,-0.37896116,0.616871
0.64151149,-0.43495478,0.572894,0.65111263,-0.39431522,0.583296,0.62221235,-0.41814202,0.573596,0.65744376,-0.39588721,0.592717,0.63878246,-0.36478178,0.589586,0.63901318,-0.35489093,0.601081,0.63457136,-0.34678159,0.591274,0.65376473,-0.3224727,0.594822,0.66009697,-0.3081179,0.596596,0.68662479,-0.30372293,0.614632,0.66001731,-0.35224045,0.593204,0.67895765,-0.34377075,0.596658,0.71513919,-0.38096335,0.624259,0.72012061,-0.40193809,0.631673,0.67995937,-0.35866863,0.593672,0.69901736,-0.3530024,0.595726,0.72449551,-0.38552069,0.617356,0.72681566,-0.4121594,0.625167,0.70213557,-0.37044001,0.592259,0.70577985,-0.36583788,0.592476,0.72753126,-0.37379547,0.609283,0.73445823,-0.38329739,0.615724
0.64750728,-0.44419182,0.583241,0.63476652,-0.40052577,0.585634,0.62550309,-0.42428069,0.580112,0.64210107,-0.4014436,0.593953,0.62263495,-0.35853301,0.575444,0.61504444,-0.34124233,0.576532,0.61967816,-0.34342493,0.583183,0.62853865,-0.30777155,0.577368,0.63310028,-0.28966475,0.574461,0.66022797,-0.28818879,0.589978,0.64121613,-0.3522168,0.587913,0.6342477,-0.31109179,0.581647,0.66199309,-0.30075422,0.59447,0.69432701,-0.29756049,0.61408,0.65823646,-0.36187503,0.591551,0.69311119,-0.3402033,0.588607,0.74021942,-0.35211199,0.610295,0.75765631,-0.3752168,0.620148,0.6774091,-0.37825975,0.595323,0.6927419,-0.3794565,0.587831,0.72301194,-0.39544153,0.604347,0.73877899,-0.41555367,0.613388
0.64986912,-0.44534669,0.587395,0.64376566,-0.39517957,0.591878,0.62837132,-0.42341939,0.583955,0.65432268,-0.39618321,0.600101,0.63747255,-0.35692116,0.583037,0.63691148,-0.33846948,0.58563,0.62848849,-0.33907472,0.590442,0.63890758,-0.30406779,0.586641,0.64426572,-0.2862254,0.58474,0.67282636,-0.28095091,0.600634,0.65079561,-0.34822452,0.596149,0.64517134,-0.30853479,0.59217,0.66968047,-0.29618167,0.602294,0.70132128,-0.29223445,0.621531,0.66831336,-0.35805471,0.600365,0.70600859,-0.33657288,0.600003,0.75327962,-0.34716926,0.621551,0.77022128,-0.36901477,0.630305,0.68780299,-0.37440794,0.604415,0.70486364,-0.37705678,0.598464,0.73633258,-0.39062289,0.614873,0.75188977,-0.40997775,0.62333
0.65868247,-0.43953009,0.597107,0.65387407,-0.38578312,0.601152,0.6342719,-0.40585394,0.595792,0.65663745,-0.38064312,0.60433,0.6347465,-0.33799487,0.581277,0.63095428,-0.31730732,0.579886,0.63535067,-0.33165623,0.602186,0.65255634,-0.29858617,0.599358,0.66126232,-0.28188792,0.597943,0.69001589,-0.27497043,0.614497,0.65595361,-0.33957418,0.605005,0.65929171,-0.29980692,0.600832,0.67574952,-0.28231011,0.606192,0.70609515,-0.27685333,0.624977,0.67230003,-0.34831704,0.60689,0.70613828,-0.33566964,0.604685,0.75278244,-0.34123333,0.626603,0.77318357,-0.36026319,0.636249,0.69103609,-0.36330864,0.608317,0.7152315,-0.34677815,0.604763,0.74780005,-0.35266167,0.621633,0.76681672,-0.35645327,0.629425
0.68641462,-0.41924649,0.610286,0.67431642,-0.37822617,0.60931,0.66389107,-0.39881807,0.605285,0.64901056,-0.36334531,0.599966,0.62869077,-0.32231293,0.57686,0.6254155,-0.30274667,0.576971,0.63853829,-0.32262736,0.602133,0.64530089,-0.28556242,0.59561,0.65079279,-0.2679352,0.592348,0.67817782,-0.26098906,0.607445,0.66078685,-0.33179727,0.60838,0.685907,-0.32107955,0.600236,0.72522206,-0.32506126,0.61531,0.76519672,-0.33209416,0.634637,0.67971488,-0.3417427,0.613629,0.71095751,-0.33144376,0.608167,0.75744954,-0.3388387,0.629452,0.78484134,-0.35466501,0.64016,0.7037024,-0.35844042,0.619905,0.71402106,-0.3422403,0.609212,0.74413021,-0.34649002,0.625292,0.76603158,-0.34907011,0.635291
0.67875962,-0.41077196,0.604748,0.66974554,-0.36804589,0.607434,0.65715276,-0.3903406,0.599869,0.64413236,-0.35111028,0.59602,0.62362039,-0.31039932,0.572811,0.62065635,-0.29124595,0.573409,0.63854646,-0.31362003,0.602902,0.65153194,-0.27911776,0.600445,0.65805456,-0.26180167,0.599216,0.68525768,-0.25388096,0.61532,0.66045369,-0.32403488,0.609992,0.6899554,-0.30272554,0.60619,0.74264478,-0.3185586,0.633101,0.76964282,-0.33589884,0.642923,0.67865333,-0.33476252,0.615541,0.71631485,-0.32682252,0.614107,0.76369294,-0.33438276,0.635358,0.79181457,-0.34661447,0.644427,0.70090931,-0.35194742,0.621477,0.71452627,-0.33963908,0.61367,0.7446134,-0.34455263,0.629762,0.75635343,-0.35763221,0.638749
0.68064969,-0.40212668,0.608568,0.67577249,-0.35955534,0.61338,0.66026373,-0.38138812,0.60402,0.65089484,-0.3415463,0.602545,0.63184365,-0.30154126,0.58002,0.63024969,-0.28273764,0.581353,0.64818638,-0.30604585,0.610722,0.66456999,-0.27298773,0.610523,0.67283607,-0.25631245,0.610424,0.7011748,-0.2484382,0.627081,0.67016266,-0.31727177,0.617962,0.70290012,-0.29732855,0.616625,0.75545874,-0.31251466,0.643499,0.77554246,-0.32847787,0.652418,0.68810522,-0.32851949,0.623405,0.72833292,-0.32155584,0.624162,0.77572682,-0.32862088,0.645384,0.80242122,-0.33990227,0.653556,0.70946324,-0.34606566,0.628819,0.7251888,-0.33437421,0.622796,0.75532601,-0.33878546,0.6389,0.76600277,-0.35093901,0.647264
0.68407646,-0.37591687,0.621673,0.69375012,-0.34478892,0.635354,0.66792737,-0.35512144,0.618912,0.65586987,-0.32193051,0.616609,0.64057483,-0.2836853,0.593701,0.64233626,-0.26464629,0.595314,0.68004101,-0.29310441,0.641046,0.70304125,-0.2619413,0.64895,0.71467211,-0.24604569,0.652901,0.740518,-0.23626216,0.670247,0.70169123,-0.3058337,0.648383,0.74913513,-0.29227267,0.65745,0.79975932,-0.30996964,0.683489,0.81301929,-0.32524016,0.688383,0.71808081,-0.3179111,0.652951,0.77180847,-0.30910956,0.6628,0.82004857,-0.3118663,0.683353,0.84609785,-0.31501767,0.687587,0.73522716,-0.33569993,0.655681,0.76122576,-0.32876665,0.657469,0.79156689,-0.33268862,0.673226,0.79797501,-0.34292024,0.678706
0.68422098,-0.36475656,0.61921,0.69606903,-0.32616698,0.634585,0.66867451,-0.33679534,0.618253,0.65382671,-0.30434317,0.615712,0.63958537,-0.26746538,0.591537,0.64216621,-0.24784207,0.591872,0.67916714,-0.27980378,0.643778,0.70715128,-0.2501456,0.653897,0.7213765,-0.23485645,0.658956,0.74976068,-0.22529217,0.677393,0.70274705,-0.28994348,0.649228,0.74776438,-0.27899992,0.659838,0.7972078,-0.29721017,0.686139,0.8104915,-0.31323253,0.690556,0.72070117,-0.29976583,0.652058,0.76894411,-0.28744741,0.662695,0.81396484,-0.28654722,0.683422,0.82728108,-0.29935167,0.687407,0.73979443,-0.31463726,0.652454,0.76863101,-0.30747208,0.656583,0.79470479,-0.32859258,0.672579,0.80115825,-0.34636107,0.679586
0.68644391,-0.36538681,0.621427,0.69606363,-0.3298183,0.635358,0.66853908,-0.34597744,0.6194,0.66523928,-0.31919501,0.630973,0.65474675,-0.28236042,0.612139,0.66072925,-0.26453158,0.616614,0.67779388,-0.28152333,0.642176,0.70344321,-0.25148428,0.651355,0.71680496,-0.23609539,0.655945,0.74431404,-0.22647403,0.673804,0.70231084,-0.29195219,0.648626,0.74242088,-0.2727678,0.657756,0.79291343,-0.28690646,0.684045,0.80892144,-0.30088518,0.688994,0.72118392,-0.30215374,0.652436,0.76886657,-0.2878461,0.662077,0.81414225,-0.28706364,0.682812,0.82831751,-0.30011178,0.687202,0.74156652,-0.31772742,0.654239,0.76652997,-0.31421416,0.656448,0.78441538,-0.33794719,0.672384,0.79363635,-0.35667281,0.680845
0.68860382,-0.35885434,0.622721,0.69711506,-0.32527729,0.636201,0.66988878,-0.34010789,0.62107,0.66534731,-0.30911875,0.631321,0.65674467,-0.27325794,0.614432,0.66427586,-0.25592944,0.620356,0.67902818,-0.27710838,0.643202,0.70394564,-0.24668748,0.651658,0.7158308,-0.22850305,0.655886,0.74446424,-0.22137737,0.67377,0.7030381,-0.28729873,0.649038,0.74014247,-0.25895567,0.657474,0.79114301,-0.2690487,0.684017,0.8087799,-0.28079191,0.689297,0.72152096,-0.29731681,0.652392,0.76889219,-0.27768677,0.661247,0.81439052,-0.27634218,0.682173,0.82911609,-0.28915188,0.686957,0.74151496,-0.31270167,0.65375,0.76689714,-0.30533611,0.655691,0.78706539,-0.32954215,0.671789,0.79339737,-0.3433151,0.677511
0.69119825,-0.35294482,0.62587,0.69928648,-0.31349855,0.640474,0.67136019,-0.3335543,0.623205,0.68232115,-0.29776042,0.639501,0.67643476,-0.26291643,0.627572,0.69631511,-0.24869533,0.636562,0.68271884,-0.26460415,0.646918,0.70825327,-0.23390293,0.657228,0.7212159,-0.21808666,0.662383,0.74779902,-0.20746839,0.680303,0.70856333,-0.2756497,0.654382,0.7491196,-0.25336158,0.664589,0.79924705,-0.26159777,0.690414,0.81564498,-0.27251991,0.694828,0.72838454,-0.28639972,0.658955,0.77734721,-0.26831131,0.669835,0.8212822,-0.26941118,0.69022,0.83422116,-0.28811188,0.693971,0.74954005,-0.3026882,0.661517,0.77449878,-0.29587016,0.664118,0.79404916,-0.31816557,0.679759,0.80091139,-0.3357158,0.686326
0.66042145,-0.34689327,0.625672,0.68621654,-0.32056832,0.641868,0.65195856,-0.32239731,0.623101,0.67768548,-0.29561346,0.635716,0.66826336,-0.25964548,0.62083,0.68509852,-0.24534498,0.628501,0.6946242,-0.2682099,0.649516,0.70675064,-0.2356763,0.655691,0.714638,-0.22280885,0.658778,0.74088555,-0.20948547,0.674231,0.71268414,-0.28766396,0.657293,0.75881311,-0.26423021,0.669507,0.81286265,-0.27202797,0.694881,0.82981181,-0.28111856,0.698427,0.72849543,-0.30398938,0.661952,0.77372807,-0.27788223,0.672401,0.80309444,-0.26858527,0.677748,0.84406857,-0.28425878,0.696185,0.73572308,-0.32632571,0.664315,0.78266705,-0.33623242,0.677512,0.79828705,-0.35748444,0.692646,0.80494155,-0.37509972,0.698483
0.67096131,-0.3488693,0.63274,0.68988126,-0.31924348,0.642981,0.66816299,-0.32635253,0.631787,0.68025533,-0.29516373,0.637739,0.66302622,-0.25640712,0.616327,0.6729433,-0.24010967,0.618438,0.69457332,-0.26640527,0.648692,0.69958566,-0.2342127,0.648905,0.70360037,-0.21824635,0.649012,0.73052967,-0.20918512,0.665889,0.71142495,-0.28143445,0.652734,0.74596433,-0.25395131,0.65692,0.80109497,-0.2605543,0.684294,0.82197289,-0.26977731,0.691372,0.72279695,-0.29643096,0.654959,0.75916335,-0.26559425,0.657547,0.78208201,-0.25347991,0.658872,0.82155187,-0.26689598,0.676472,0.73321132,-0.31752415,0.655616,0.76901951,-0.319221,0.661867,0.78914396,-0.34304385,0.678334,0.79523933,-0.35846307,0.682519
0.67332384,-0.3451249,0.634002,0.69346242,-0.30697999,0.64443,0.66561688,-0.32168728,0.633501,0.68461832,-0.28254701,0.641477,0.66869248,-0.24525691,0.622963,0.67916773,-0.2297221,0.627156,0.69674279,-0.25501349,0.650859,0.7012406,-0.22340861,0.651675,0.7049831,-0.20763781,0.652083,0.73148491,-0.19812552,0.669179,0.71223972,-0.27140452,0.654363,0.74665756,-0.24356483,0.658652,0.80186333,-0.24920638,0.686097,0.82284259,-0.2578985,0.693159,0.72420563,-0.28573201,0.656124,0.75961986,-0.25503406,0.659003,0.78075498,-0.23995839,0.660476,0.82309369,-0.24677866,0.678204,0.73306396,-0.3071976,0.656208,0.77044981,-0.30859903,0.663737,0.7886089,-0.33226628,0.680099,0.79099059,-0.34829728,0.683793
0.67462866,-0.3424017,0.634099,0.69452139,-0.30562708,0.644553,0.66779526,-0.31597515,0.633309,0.68643426,-0.2815221,0.641671,0.66974646,-0.24390222,0.622456,0.67953254,-0.22805928,0.626109,0.69724714,-0.25324167,0.650623,0.70145329,-0.22137486,0.651382,0.70507425,-0.20548027,0.651761,0.73151403,-0.1958412,0.668796,0.71279735,-0.26967343,0.654509,0.74741182,-0.24187917,0.658911,0.8028412,-0.24763665,0.686291,0.82399282,-0.25648411,0.693292,0.72444694,-0.28486353,0.656583,0.7620613,-0.25471547,0.659787,0.78414625,-0.24043331,0.661426,0.82662497,-0.24844141,0.679208,0.73381696,-0.30561496,0.657025,0.77319885,-0.30790722,0.665867,0.79108214,-0.33146964,0.682016,0.79278544,-0.34722627,0.685166
0.68018972,-0.33268258,0.637101,0.69709765,-0.29449853,0.646992,0.67165155,-0.30924931,0.636331,0.68948896,-0.27026301,0.643946,0.6701837,-0.232939,0.624953,0.67821868,-0.21673492,0.628741,0.69928378,-0.24183186,0.652705,0.70304814,-0.20983863,0.653255,0.70646965,-0.19387191,0.65353,0.73289972,-0.18387639,0.670582,0.71427984,-0.25818944,0.656412,0.74810665,-0.23000523,0.660115,0.80378485,-0.23521972,0.68758,0.82543647,-0.24397859,0.694862,0.72490524,-0.27308686,0.658399,0.76439576,-0.2441157,0.661508,0.78710241,-0.23038936,0.663099,0.82957749,-0.2390234,0.680932,0.73464804,-0.29408499,0.658846,0.77451577,-0.29612331,0.667822,0.79354555,-0.319151,0.683797,0.79713924,-0.33479433,0.686832
0.67562457,-0.32837819,0.632761,0.69969213,-0.2955946,0.6494,0.66619127,-0.3046725,0.631062,0.68801243,-0.26968424,0.642567,0.67557239,-0.23481197,0.629978,0.68951691,-0.22034544,0.639215,0.70547625,-0.24397339,0.658485,0.71783437,-0.21425187,0.666994,0.72562291,-0.19912801,0.671248,0.75186098,-0.18863356,0.687931,0.72389262,-0.26166416,0.665246,0.76805608,-0.23613868,0.677718,0.82222825,-0.240617,0.703357,0.83972826,-0.24820289,0.706893,0.73659909,-0.27749218,0.66902,0.7870766,-0.251359,0.681136,0.81512802,-0.23793702,0.687335,0.86047886,-0.245035,0.706433,0.74739086,-0.29918603,0.670274,0.79616276,-0.30439968,0.686487,0.81198399,-0.32706327,0.700626,0.81694092,-0.34420133,0.706224
0.68643369,-0.32164752,0.637181,0.70735217,-0.28850877,0.64898,0.67511136,-0.29783467,0.634723,0.69900438,-0.2630024,0.646127,0.68597423,-0.22739159,0.629148,0.69611677,-0.21260302,0.634678,0.69925732,-0.24112599,0.653789,0.70657952,-0.20569586,0.65615,0.71138946,-0.18917263,0.65733,0.73871281,-0.18337017,0.674287,0.71735615,-0.25829228,0.660217,0.75638305,-0.23270055,0.666805,0.81149498,-0.23702141,0.693429,0.83270476,-0.24431641,0.699403,0.72907647,-0.27052606,0.664238,0.77746158,-0.2483495,0.671658,0.80401104,-0.23727416,0.675454,0.84510438,-0.2403575,0.693964,0.74342716,-0.29133971,0.666688,0.78864958,-0.28838824,0.680032,0.80840407,-0.30913071,0.695175,0.80968563,-0.32316901,0.69635
0.69030974,-0.31961579,0.639602,0.70775013,-0.28559974,0.650694,0.68475157,-0.29023918,0.637482,0.69960351,-0.256481,0.648385,0.68563915,-0.22033445,0.629856,0.69521669,-0.20862586,0.634084,0.70010684,-0.2314526,0.655464,0.71618663,-0.19952028,0.658279,0.7242137,-0.18358478,0.659686,0.74923031,-0.17321371,0.676982,0.7179167,-0.24828404,0.661259,0.75630309,-0.22242432,0.666855,0.81133576,-0.22651028,0.693746,0.83373865,-0.23255249,0.700163,0.73113574,-0.2635034,0.664835,0.77552018,-0.23676529,0.671203,0.79932889,-0.2222239,0.674461,0.8427581,-0.23490083,0.692855,0.74445702,-0.28470823,0.666901,0.78779343,-0.28538555,0.679115,0.80725387,-0.30647297,0.694484,0.80946578,-0.32071028,0.696144
0.69942426,-0.3229749,0.647998,0.71161481,-0.28493803,0.656052,0.68627293,-0.29866383,0.644135,0.70524076,-0.26648067,0.653155,0.68716321,-0.22848657,0.630753,0.69355772,-0.20891963,0.631641,0.70251139,-0.23075714,0.65649,0.71615217,-0.19820313,0.656878,0.72301415,-0.18205266,0.657073,0.74745377,-0.17162597,0.673681,0.72278132,-0.24394515,0.663723,0.75765862,-0.22058216,0.666131,0.81226736,-0.22649083,0.692877,0.83631395,-0.23648931,0.700402,0.73710875,-0.25755816,0.668812,0.78025824,-0.23732622,0.672828,0.80813886,-0.22618627,0.674882,0.84449895,-0.24113618,0.692594,0.75192686,-0.27774247,0.673205,0.79553209,-0.27692029,0.685633,0.81593999,-0.29652939,0.701158,0.81777003,-0.31014067,0.702804
0.69953651,-0.32407884,0.647836,0.71452977,-0.29376695,0.656562,0.68649385,-0.30223403,0.644087,0.70602694,-0.2773443,0.653591,0.68734596,-0.23858025,0.630416,0.68976781,-0.21937464,0.630684,0.70932338,-0.23919605,0.657604,0.71486279,-0.20712629,0.657972,0.71965688,-0.19121107,0.658156,0.74379101,-0.17811464,0.67469,0.72616709,-0.25358403,0.664872,0.76286466,-0.22747703,0.668071,0.8165912,-0.23766069,0.694756,0.84091178,-0.24545878,0.701975,0.73769128,-0.26639716,0.669917,0.78220537,-0.23890002,0.674632,0.80374159,-0.22475906,0.677045,0.84706812,-0.23912897,0.694901,0.75107117,-0.28746306,0.674132,0.79428078,-0.28830984,0.684932,0.81491173,-0.30711388,0.70077,0.81703374,-0.3229756,0.70311
0.70046745,-0.32776941,0.649497,0.71509633,-0.29501136,0.657955,0.68903398,-0.30406519,0.646154,0.70543134,-0.27747033,0.653888,0.68561095,-0.2382877,0.629643,0.6819155,-0.21781575,0.628992,0.70781528,-0.24021128,0.659343,0.71350372,-0.20722463,0.659194,0.71984517,-0.19149085,0.659119,0.74394975,-0.17916649,0.675649,0.72538479,-0.25270261,0.66601,0.76129989,-0.2261514,0.668739,0.81759132,-0.23815618,0.695637,0.84206272,-0.24676456,0.703093,0.73817562,-0.2669564,0.670589,0.78178374,-0.23939665,0.674717,0.80332591,-0.22524523,0.676829,0.84650895,-0.23877554,0.694657,0.75042182,-0.28754067,0.674314,0.78986534,-0.28836422,0.68188,0.81118997,-0.30759879,0.698058,0.81445508,-0.32233297,0.701668
0.70179305,-0.32878775,0.650604,0.71555809,-0.2959474,0.658686,0.69069311,-0.30543537,0.647443,0.70554286,-0.27794923,0.654297,0.68507827,-0.23851148,0.629548,0.6813233,-0.21797552,0.628395,0.70899121,-0.24067902,0.660058,0.71366357,-0.2076096,0.659144,0.71903263,-0.19181557,0.658687,0.74038973,-0.18272031,0.675089,0.72557688,-0.25542791,0.666384,0.76231614,-0.2279819,0.668588,0.81757478,-0.23842363,0.695613,0.84224948,-0.24742183,0.703298,0.73837457,-0.26749756,0.670722,0.78107501,-0.23972259,0.674293,0.8038988,-0.22570273,0.67612,0.84538613,-0.23833086,0.693877,0.75097628,-0.28795503,0.674239,0.78472957,-0.28590001,0.677362,0.80602008,-0.30600241,0.693729,0.81100035,-0.32131123,0.698977
0.70402654,-0.33015204,0.652577,0.71688806,-0.29694501,0.660094,0.69262722,-0.30676861,0.649056,0.70373701,-0.27745513,0.652775,0.68395195,-0.23832378,0.62871,0.68146948,-0.21825476,0.628496,0.70983175,-0.24100563,0.660612,0.71357109,-0.20778564,0.65894,0.71822594,-0.19187076,0.658104,0.73949637,-0.18251147,0.674268,0.72670237,-0.25576759,0.667253,0.76252763,-0.22824641,0.668881,0.8178591,-0.23867005,0.695849,0.84272433,-0.24792312,0.703724,0.73971627,-0.26826552,0.671912,0.78183465,-0.24031791,0.675074,0.80434366,-0.22609302,0.676691,0.84585179,-0.23843459,0.694311,0.75275984,-0.28886975,0.675907,0.78092945,-0.28492969,0.674215,0.80217366,-0.30478357,0.690498,0.80895858,-0.32073209,0.697407
0.70513702,-0.32849081,0.652642,0.71674004,-0.29386678,0.660035,0.69264748,-0.30462423,0.648493,0.70735297,-0.26900232,0.650378,0.68460364,-0.22889891,0.629141,0.69040555,-0.21511554,0.631687,0.71011945,-0.23975914,0.65965,0.71335412,-0.20560318,0.657396,0.71719721,-0.18930191,0.65627,0.74031272,-0.17815121,0.672107,0.72686387,-0.25389283,0.667076,0.76743322,-0.23274009,0.668766,0.82362484,-0.23158266,0.695489,0.84290932,-0.246914,0.703266,0.74025463,-0.26830064,0.672395,0.78289071,-0.24086162,0.675843,0.80613831,-0.22734232,0.677607,0.84744764,-0.23982354,0.695159,0.75416274,-0.28936267,0.677178,0.77989397,-0.28461765,0.673352,0.80115058,-0.30424776,0.689406,0.80883271,-0.32048166,0.696978
0.70708791,-0.32865174,0.653535,0.7156899,-0.29689493,0.659924,0.69537395,-0.30556164,0.650599,0.70222961,-0.27556801,0.653682,0.68527424,-0.23566328,0.632091,0.68905204,-0.21844885,0.633861,0.69723019,-0.24531374,0.66044,0.71003439,-0.2093181,0.657822,0.71511237,-0.19339398,0.656513,0.73802341,-0.18233247,0.672671,0.71945571,-0.25871948,0.66601,0.75289427,-0.23898381,0.666067,0.80858877,-0.23633017,0.693381,0.83159253,-0.24570948,0.701933,0.73425505,-0.27300645,0.669908,0.77580508,-0.24998375,0.671386,0.79894055,-0.24074188,0.672141,0.83223444,-0.25172609,0.689525,0.75042064,-0.29033425,0.673232,0.77450776,-0.28303381,0.668958,0.79609114,-0.30323352,0.685401,0.80472485,-0.31934016,0.693281
0.70943176,-0.3288079,0.654833,0.71450778,-0.29667576,0.659457,0.69657514,-0.30610705,0.651772,0.70494594,-0.27746806,0.655902,0.68798287,-0.23929522,0.634643,0.69134179,-0.22021489,0.63617,0.68596922,-0.2479369,0.65861,0.70367566,-0.21339432,0.656129,0.71013315,-0.19709801,0.654888,0.73635703,-0.18468833,0.671239,0.71273179,-0.25892481,0.66386,0.73640614,-0.23499091,0.661812,0.78531965,-0.22956119,0.689239,0.80416701,-0.23766397,0.69859,0.73127951,-0.2714115,0.667686,0.76179066,-0.24691177,0.667235,0.77930968,-0.23411303,0.667005,0.80558395,-0.24650022,0.683955,0.75049714,-0.28859697,0.671257,0.76919101,-0.27241039,0.665661,0.79303012,-0.29649823,0.682156,0.80301021,-0.31362696,0.690521
0.71270714,-0.33366899,0.658903,0.712651,-0.30825352,0.662691,0.69948204,-0.314037,0.656942,0.6995376,-0.28687594,0.658865,0.67956763,-0.24856414,0.639018,0.68374305,-0.23091871,0.641591,0.68899376,-0.26013267,0.662708,0.70313245,-0.22686356,0.659459,0.71014746,-0.21032946,0.657835,0.73597436,-0.2006683,0.674205,0.711791,-0.27063239,0.666298,0.73549765,-0.24228315,0.662922,0.78544016,-0.23258251,0.690665,0.80568791,-0.2396117,0.700594,0.73029314,-0.28112411,0.668847,0.76014244,-0.25534076,0.666751,0.77660363,-0.24134796,0.665679,0.80365625,-0.24924017,0.682376,0.7522162,-0.29753969,0.671093,0.76580737,-0.27211643,0.665088,0.79304552,-0.29054614,0.681798,0.80365922,-0.30959956,0.69039
0.70963572,-0.34898535,0.65604,0.71054335,-0.32597611,0.661116,0.68972444,-0.33907998,0.65437,0.69846796,-0.30598185,0.658465,0.67862523,-0.26733954,0.639054,0.68292035,-0.24974603,0.641953,0.68767201,-0.2780596,0.662388,0.70282626,-0.24503263,0.660457,0.71037588,-0.22857191,0.659492,0.73636874,-0.21934098,0.676196,0.71053321,-0.28825736,0.665951,0.73553389,-0.2608946,0.664044,0.78375963,-0.25476111,0.691787,0.80413061,-0.2610571,0.701185,0.72895894,-0.29847021,0.668338,0.75993463,-0.27383713,0.667513,0.77701054,-0.26042421,0.66709,0.80442979,-0.27280262,0.684117,0.75056655,-0.3144931,0.670154,0.76244427,-0.28993813,0.665261,0.79152845,-0.30603626,0.681996,0.80075602,-0.32089437,0.690206
0.70587253,-0.36141629,0.657917,0.70179349,-0.32758765,0.66093,0.68661908,-0.34119388,0.655833,0.69608719,-0.30748779,0.656726,0.66905596,-0.26991027,0.63437,0.66833599,-0.25092276,0.634793,0.68160047,-0.27521851,0.660262,0.68628512,-0.23791737,0.654734,0.68960707,-0.21946248,0.65197,0.71226424,-0.20842158,0.667695,0.70308951,-0.28616157,0.663799,0.72457236,-0.25504128,0.65953,0.77169349,-0.24702648,0.68727,0.79820125,-0.25603781,0.697521,0.72038004,-0.29719626,0.666388,0.75196196,-0.27730561,0.663499,0.76947083,-0.26640513,0.662021,0.79573871,-0.28149483,0.67851,0.74058064,-0.31460619,0.668826,0.75396997,-0.29394334,0.662174,0.78226005,-0.31336307,0.67887,0.79147114,-0.33134983,0.687684
0.69503283,-0.36109995,0.650038,0.70336448,-0.3390539,0.663767,0.67661029,-0.34104542,0.648196,0.6925116,-0.31941692,0.655653,0.67275173,-0.28227352,0.639993,0.67688316,-0.26634388,0.647078,0.69094235,-0.28948218,0.670688,0.70883863,-0.25628184,0.677624,0.7201839,-0.23963026,0.681092,0.74753349,-0.22932728,0.69919,0.71548557,-0.30167981,0.676841,0.74918101,-0.27252899,0.685653,0.79021129,-0.25701358,0.706467,0.82697728,-0.26614296,0.724851,0.73414254,-0.31333353,0.680428,0.7811702,-0.29097556,0.689705,0.80668987,-0.28097772,0.694451,0.83748726,-0.29601513,0.713307,0.75376997,-0.33065859,0.682012,0.7774655,-0.3139694,0.684104,0.80521834,-0.33382737,0.700119,0.81055252,-0.35066032,0.705593
0.69696263,-0.37213156,0.661435,0.69259104,-0.33792144,0.664142,0.67564256,-0.35470937,0.659345,0.68947654,-0.32747505,0.662563,0.65897722,-0.28820467,0.640465,0.65623855,-0.26913173,0.640672,0.67759427,-0.28320713,0.663258,0.67835379,-0.24538236,0.657172,0.67951337,-0.22661499,0.654129,0.70053309,-0.21550547,0.669705,0.70289594,-0.29531871,0.66672,0.72135469,-0.26449309,0.662088,0.76728681,-0.25793157,0.689274,0.79118864,-0.26587582,0.70244,0.72086242,-0.30619825,0.66928,0.72769869,-0.26157486,0.663021,0.73816915,-0.24660414,0.659819,0.76834114,-0.2605097,0.6753,0.74157732,-0.32367992,0.671742,0.75040136,-0.3086873,0.664851,0.7749869,-0.33132878,0.681546,0.78480938,-0.34915004,0.690444
0.68424895,-0.37809596,0.665971,0.68492595,-0.33929065,0.666833,0.667065,-0.35743928,0.664375,0.68146375,-0.32884414,0.665333,0.65031323,-0.28903445,0.642309,0.64647122,-0.26943082,0.641384,0.66945758,-0.2840957,0.665339,0.6687486,-0.24557279,0.657682,0.66914051,-0.22651972,0.653854,0.68953374,-0.21530789,0.669091,0.69176164,-0.2938784,0.667653,0.70932156,-0.26393941,0.660702,0.7552043,-0.25764456,0.688507,0.77646405,-0.26485726,0.699749,0.70960315,-0.30427499,0.669467,0.71606627,-0.26111722,0.661861,0.72551757,-0.24591308,0.65797,0.75480323,-0.25968801,0.67317,0.73015875,-0.32151023,0.671409,0.73805496,-0.30795836,0.663281,0.76233332,-0.33058255,0.680011,0.77259791,-0.34860137,0.689359
0.6831455,-0.38197836,0.664457,0.68618343,-0.35283877,0.66687,0.66425486,-0.37275558,0.662834,0.68536198,-0.34591296,0.665302,0.64461598,-0.30822856,0.641257,0.63583748,-0.28915671,0.639603,0.66434202,-0.29994519,0.666395,0.66724329,-0.26281687,0.660973,0.66944183,-0.24437719,0.658263,0.69014941,-0.23408041,0.674104,0.68813932,-0.30739517,0.669169,0.70223839,-0.27651555,0.664062,0.74420497,-0.26960626,0.691886,0.76587764,-0.27694644,0.702468,0.70740205,-0.31585637,0.671193,0.70855973,-0.27178565,0.66492,0.71740527,-0.25708676,0.661711,0.74746673,-0.2714499,0.677256,0.73006094,-0.33072018,0.673089,0.73812273,-0.31764174,0.66614,0.76437763,-0.33986595,0.682897,0.77580095,-0.35376,0.69184
0.68632328,-0.39797135,0.66684,0.68362301,-0.36188036,0.666359,0.66500356,-0.37937128,0.664402,0.68512328,-0.35903988,0.667957,0.64626759,-0.32042324,0.643995,0.63600686,-0.30082709,0.641394,0.6558623,-0.30823882,0.662856,0.65688206,-0.27019951,0.654588,0.65783496,-0.25143221,0.650454,0.67781194,-0.2413464,0.665459,0.68078869,-0.31393005,0.6659,0.68932243,-0.27874974,0.657585,0.73095267,-0.28353794,0.685223,0.74786201,-0.29915909,0.696906,0.70147154,-0.32117682,0.668459,0.70926589,-0.28931335,0.659253,0.71534625,-0.27490991,0.654542,0.74469724,-0.2908586,0.669205,0.72669026,-0.33500474,0.67152,0.72983672,-0.327359,0.662061,0.75260155,-0.35103503,0.678645,0.76002178,-0.362888,0.688405
0.68289694,-0.39975615,0.666962,0.67314386,-0.36177661,0.666137,0.6610827,-0.38119288,0.664233,0.67312426,-0.3583789,0.666702,0.63573728,-0.32034566,0.643868,0.62678917,-0.30132415,0.642526,0.64501168,-0.30781596,0.662023,0.6459229,-0.26967435,0.653483,0.64679702,-0.25086647,0.649212,0.66643237,-0.24075329,0.664109,0.67022774,-0.31364049,0.665352,0.67820657,-0.27831549,0.656712,0.71896936,-0.28307323,0.684285,0.73557489,-0.2987304,0.696065,0.69118702,-0.3210185,0.668182,0.70106962,-0.29438902,0.658558,0.70810226,-0.28308057,0.653634,0.73614048,-0.30230355,0.668142,0.71678941,-0.33504261,0.671622,0.71919118,-0.32721239,0.661798,0.74164646,-0.35087128,0.67833,0.74922155,-0.36278506,0.688198
0.68791788,-0.40619407,0.674689,0.67515824,-0.36500371,0.668898,0.66249102,-0.38979133,0.67082,0.66715132,-0.36077795,0.668617,0.63208694,-0.32267944,0.646907,0.62638676,-0.30371973,0.646032,0.64385975,-0.30781032,0.659928,0.63177965,-0.26638988,0.645311,0.6300034,-0.24819343,0.638002,0.64999215,-0.24321615,0.65092,0.66907728,-0.31414141,0.663383,0.6716652,-0.2760566,0.649274,0.71185147,-0.28027975,0.676226,0.73356065,-0.29623923,0.689789,0.69051477,-0.32220901,0.666853,0.69697769,-0.29734465,0.65256,0.70208272,-0.28816461,0.645247,0.72663907,-0.30910709,0.658162,0.71752446,-0.33756633,0.671968,0.71291544,-0.33157768,0.658033,0.72930251,-0.35565865,0.674097,0.73722673,-0.36791381,0.68523
0.68647284,-0.41371632,0.677033,0.67575117,-0.37752021,0.670255,0.66082227,-0.39593151,0.673806,0.66889549,-0.37218497,0.670365,0.63066144,-0.33503623,0.64864,0.61906359,-0.31765942,0.647452,0.646237,-0.31925333,0.661449,0.63250805,-0.27625474,0.646055,0.63035493,-0.25793325,0.638358,0.65014493,-0.25328214,0.651073,0.67033233,-0.32551564,0.663799,0.67110051,-0.28605512,0.64763,0.71137671,-0.29066453,0.674498,0.73043901,-0.30714616,0.68878,0.69081568,-0.33360491,0.666464,0.6959438,-0.30701033,0.651592,0.70070738,-0.29792957,0.643983,0.72507906,-0.31919814,0.656749,0.7166784,-0.34914774,0.670833,0.71115708,-0.34084147,0.65641,0.72753578,-0.36511392,0.672464,0.73565056,-0.37742715,0.683765
0.68282891,-0.42408929,0.678216,0.67641859,-0.38794892,0.670917,0.66110607,-0.40972103,0.675209,0.67008588,-0.38332974,0.671558,0.62919623,-0.34794987,0.650414,0.61609747,-0.33201024,0.64952,0.6468193,-0.32931048,0.662045,0.6328605,-0.28597174,0.646415,0.63156474,-0.26933804,0.6386,0.65208048,-0.26906642,0.651233,0.67050198,-0.33534429,0.663967,0.67074922,-0.2957076,0.647291,0.71096644,-0.30105359,0.674109,0.73020464,-0.31804743,0.688559,0.69068197,-0.34329013,0.666335,0.69427809,-0.30904196,0.651186,0.6983796,-0.2983181,0.643435,0.72312172,-0.31828527,0.656106,0.71627564,-0.35874591,0.670456,0.71043228,-0.35056542,0.655741,0.72677628,-0.37503886,0.671762,0.73499212,-0.38738001,0.683153
0.66410392,-0.41146386,0.662948,0.66066022,-0.37756019,0.662763,0.64580383,-0.39932257,0.665502,0.62895244,-0.36281055,0.661678,0.61296604,-0.35751437,0.668549,0.62449042,-0.34935906,0.68471,0.64429174,-0.33110532,0.665965,0.63489053,-0.29180541,0.659247,0.63129756,-0.27245937,0.655888,0.64742069,-0.26385138,0.671324,0.66473655,-0.33449492,0.662587,0.66160211,-0.29241797,0.654674,0.69444256,-0.29453243,0.682289,0.7098239,-0.29485517,0.693819,0.68142933,-0.33956571,0.659825,0.68002507,-0.29415642,0.652964,0.68159762,-0.27915217,0.649454,0.7020864,-0.28954292,0.664799,0.7015396,-0.35039003,0.656654,0.69194581,-0.31530939,0.649496,0.70985052,-0.3146895,0.662505,0.72833864,-0.32624121,0.676424
0.65563411,-0.41532619,0.656194,0.66064609,-0.38050415,0.663988,0.63798069,-0.4025024,0.659745,0.61855347,-0.38191653,0.657519,0.59765039,-0.36613091,0.661823,0.59629873,-0.35118977,0.667628,0.64605199,-0.33709368,0.673905,0.63571455,-0.30275506,0.675203,0.63282936,-0.28764896,0.675852,0.64728011,-0.28307228,0.693435,0.66822187,-0.33823971,0.671411,0.66890609,-0.30483412,0.672401,0.66929498,-0.28424887,0.672978,0.68724105,-0.28233617,0.690445,0.68572603,-0.34137582,0.668517,0.68209136,-0.30384318,0.669874,0.68009426,-0.28359696,0.670568,0.70134685,-0.2892665,0.688177,0.70552574,-0.34974165,0.663693,0.69863692,-0.32171264,0.665693,0.70089006,-0.3155478,0.666612,0.7161402,-0.31568362,0.679969
0.66202665,-0.42075973,0.663928,0.65859802,-0.38025906,0.662853,0.64156072,-0.40616636,0.66502,0.60746745,-0.37779014,0.656303,0.57227926,-0.34669214,0.63854,0.56134303,-0.32481881,0.623452,0.63533694,-0.33152337,0.663545,0.61769945,-0.29303955,0.655527,0.61079457,-0.27582388,0.651518,0.62282516,-0.26908176,0.66668,0.65791003,-0.33312238,0.661829,0.64887351,-0.29542141,0.652593,0.6436277,-0.27296526,0.647206,0.6593573,-0.27013107,0.662234,0.67675583,-0.33707405,0.660532,0.66443554,-0.29566129,0.652789,0.65812308,-0.27396435,0.648827,0.67704421,-0.27812753,0.664017,0.69998813,-0.34721347,0.659228,0.69205509,-0.30960729,0.651015,0.6898425,-0.30073806,0.647241,0.6981622,-0.30243998,0.658209
0.65701696,-0.41891736,0.660179,0.65764939,-0.38073903,0.662707,0.63428448,-0.4040701,0.661682,0.60295169,-0.37725198,0.654749,0.57105721,-0.34705741,0.638648,0.56135391,-0.32756981,0.628183,0.63770677,-0.33348866,0.666381,0.62432086,-0.29601715,0.661811,0.61827839,-0.27891374,0.659526,0.63068588,-0.27129224,0.675704,0.6608161,-0.33553644,0.665115,0.65543879,-0.29540004,0.659845,0.65344654,-0.27751694,0.65677,0.67042775,-0.27413516,0.672871,0.67970542,-0.33967465,0.663799,0.67650169,-0.30264664,0.659024,0.67638135,-0.28950315,0.656581,0.69528555,-0.28484205,0.672666,0.70222583,-0.34969455,0.661797,0.69831719,-0.31572729,0.656616,0.69709742,-0.3038391,0.654236,0.71150286,-0.30242276,0.666037
0.64281499,-0.41604937,0.651681,0.64356297,-0.38728618,0.660258,0.62562518,-0.40474973,0.655764,0.59473208,-0.38415043,0.654568,0.56965795,-0.35397437,0.63992,0.5591303,-0.32973496,0.633188,0.62925146,-0.34254505,0.671399,0.62830736,-0.30937379,0.673399,0.62810788,-0.29339763,0.674399,0.64553373,-0.28137053,0.692088,0.65123701,-0.34268799,0.668426,0.65656918,-0.30313115,0.670098,0.66339919,-0.28276017,0.671073,0.67816467,-0.27319886,0.688623,0.66856274,-0.34507658,0.665054,0.67707964,-0.31185773,0.666179,0.68418173,-0.29409135,0.666755,0.70499239,-0.28752963,0.684192,0.68810678,-0.35265105,0.659527,0.69685415,-0.32094187,0.660433,0.70007749,-0.31111609,0.66085,0.71652717,-0.30826934,0.67395
0.63217798,-0.42746972,0.65481,0.63782357,-0.38759473,0.658354,0.6145804,-0.41264089,0.657325,0.58655471,-0.38466153,0.656112,0.55749506,-0.35159071,0.635329,0.5529691,-0.33163007,0.632413,0.621463,-0.33807448,0.664038,0.62227902,-0.30659214,0.6681,0.62302283,-0.29152673,0.67013,0.63997897,-0.28303786,0.688239,0.64375084,-0.33975673,0.66173,0.64416851,-0.29786635,0.657401,0.64656532,-0.27546807,0.654875,0.66216253,-0.26534263,0.67115,0.6617494,-0.34368148,0.659448,0.67052426,-0.30956266,0.660588,0.67717525,-0.29129364,0.661171,0.69688275,-0.28150988,0.678665,0.68103736,-0.35639058,0.656133,0.68689789,-0.32482102,0.652865,0.68822132,-0.30854116,0.651364,0.7012796,-0.31141282,0.663587
0.64000438,-0.4197831,0.652825,0.63642178,-0.38651507,0.656463,0.61791741,-0.40711426,0.653938,0.58913799,-0.38233127,0.64912,0.5552712,-0.35081764,0.632144,0.54896201,-0.33408568,0.633759,0.61533231,-0.33588773,0.660384,0.6131283,-0.30251049,0.661194,0.613705,-0.28675433,0.661599,0.63158374,-0.27910849,0.679098,0.63922941,-0.33856602,0.659928,0.64021021,-0.2967087,0.655634,0.6410896,-0.2732316,0.653129,0.65965302,-0.26441417,0.66948,0.6585941,-0.3432961,0.659161,0.66411971,-0.30536108,0.661035,0.66917989,-0.28617734,0.661994,0.69446004,-0.27791063,0.679727,0.68310653,-0.35137276,0.657586,0.68252441,-0.31832855,0.654844,0.68862336,-0.30746415,0.653584,0.70465497,-0.31002349,0.665979
