sluyters/QuantumLeap/backend/src/datasets/dynamic/HandGestureDataset_SHREC2017_csv/Gesture13/finger_1/subject_4_essai_3_skeletons_world.csv
Wrist_x,Wrist_y,Wrist_z,Palm_x,Palm_y,Palm_z,thumb_base_x,thumb_base_y,thumb_base_z,thumb_first_joint_x,thumb_first_joint_y,thumb_first_joint_z,thumb_second_joint_x,thumb_second_joint_y,thumb_second_joint_z,thumb_tip_x,thumb_tip_y,thumb_tip_z,index_base_x,index_base_y,index_base_z,index_first_joint_x,index_first_joint_y,index_first_joint_z,index_second_joint_x,index_second_joint_y,index_second_joint_z,index_tip_x,index_tip_y,index_tip_z,middle_base_x,middle_base_y,middle_base_z,middle_first_joint_x,middle_first_joint_y,middle_first_joint_z,middle_second_joint_x,middle_second_joint_y,middle_second_joint_z,middle_tip_x,middle_tip_y,middle_tip_z,ring_base_x,ring_base_y,ring_base_z,ring_first_joint_x,ring_first_joint_y,ring_first_joint_z,ring_second_joint_x,ring_second_joint_y,ring_second_joint_z,ring_tip_x,ring_tip_y,ring_tip_z,pinky_base_x,pinky_base_y,pinky_base_z,pinky_first_joint_x,pinky_first_joint_y,pinky_first_joint_z,pinky_second_joint_x,pinky_second_joint_y,pinky_second_joint_z,pinky_tip_x,pinky_tip_y,pinky_tip_z,
0.40598396,-0.24907313,0.562873,0.38751506,-0.19255622,0.541608,0.37688743,-0.23383622,0.553603,0.33623662,-0.20052611,0.531783,0.29738746,-0.17482838,0.511624,0.27522543,-0.1525956,0.49836,0.33215216,-0.13612748,0.51258,0.30466169,-0.096959382,0.50283,0.2908471,-0.077308244,0.497954,0.28049427,-0.06412933,0.493522,0.36027291,-0.1340276,0.516401,0.34405892,-0.14033057,0.488543,0.36431633,-0.17180449,0.508966,0.37709897,-0.18038252,0.527007,0.38554534,-0.13625548,0.521282,0.3680719,-0.14190693,0.493961,0.35604453,-0.15842256,0.479982,0.35866962,-0.17226824,0.48607,0.41962018,-0.14651609,0.530363,0.39403528,-0.1522839,0.505664,0.40124499,-0.17265383,0.518092,0.41170067,-0.18526375,0.531604
0.40716191,-0.24799395,0.56319,0.38785047,-0.19262387,0.542035,0.37786159,-0.23312355,0.55396,0.33800066,-0.20005585,0.533629,0.30139687,-0.17231776,0.515882,0.28060977,-0.14973195,0.503775,0.33262682,-0.13625158,0.513148,0.305223,-0.097106512,0.503504,0.29144995,-0.077459889,0.498682,0.28115797,-0.064280339,0.494298,0.36073223,-0.13416107,0.516959,0.34473104,-0.13985636,0.489201,0.36480819,-0.17123585,0.509672,0.377639,-0.18022777,0.527708,0.3859785,-0.13639316,0.521822,0.36863882,-0.1420517,0.494596,0.35662704,-0.15857969,0.480666,0.35926239,-0.17244787,0.486808,0.41999936,-0.14665037,0.530866,0.39453415,-0.15241876,0.506246,0.40175692,-0.17279051,0.518706,0.4121757,-0.18539527,0.532202
0.40698652,-0.24733469,0.563015,0.38619867,-0.19454263,0.54267,0.37819489,-0.23302201,0.554674,0.33816777,-0.20066777,0.535288,0.29877553,-0.17450121,0.519141,0.27911656,-0.15184987,0.50432,0.33396409,-0.13782099,0.515548,0.30582479,-0.097847602,0.505303,0.29202831,-0.078152791,0.500358,0.28155107,-0.064966683,0.495862,0.36148779,-0.13635965,0.518552,0.34516607,-0.14037046,0.491117,0.36348589,-0.17222156,0.512004,0.37644391,-0.18181016,0.530195,0.38583994,-0.13710934,0.522686,0.36578941,-0.1344977,0.496442,0.35435777,-0.15222912,0.483015,0.36051635,-0.17195674,0.489712,0.41906571,-0.14717763,0.530738,0.39382129,-0.15314919,0.506892,0.40126023,-0.17360924,0.51966,0.41184875,-0.1862433,0.533251
0.40600562,-0.24475528,0.564591,0.37587829,-0.18978129,0.5451,0.37057357,-0.23010032,0.554617,0.31943423,-0.19496939,0.533675,0.28162624,-0.16910625,0.512822,0.25991949,-0.14687849,0.499738,0.32528332,-0.13136365,0.516672,0.30082248,-0.092120127,0.50872,0.28921494,-0.072564781,0.504744,0.27925394,-0.055486523,0.501129,0.35442084,-0.13152066,0.521995,0.34143961,-0.13477643,0.494654,0.35536204,-0.16675112,0.515419,0.36557109,-0.17684414,0.533516,0.38003554,-0.13561558,0.527967,0.36858912,-0.13662916,0.501546,0.3582453,-0.15433436,0.488029,0.36346931,-0.17302073,0.49459,0.41360838,-0.14806614,0.538072,0.39219188,-0.15318119,0.514216,0.39987174,-0.17349205,0.526904,0.41140978,-0.18926076,0.54022
0.39476327,-0.24443196,0.566868,0.37403761,-0.18990737,0.547197,0.36482177,-0.22815847,0.55568,0.31340984,-0.19342921,0.533444,0.27823048,-0.16768058,0.511237,0.25699977,-0.14533103,0.497637,0.31977333,-0.130253,0.517124,0.2962301,-0.091326379,0.510723,0.28495315,-0.071218757,0.507523,0.27487357,-0.05274723,0.504613,0.34962735,-0.13096339,0.523879,0.34058687,-0.13426117,0.496266,0.3538913,-0.1661617,0.51656,0.3634486,-0.17635365,0.534438,0.37582191,-0.13551566,0.531044,0.36515338,-0.13308686,0.503967,0.3583397,-0.15162053,0.490113,0.36142667,-0.16969953,0.496181,0.41006911,-0.14852311,0.542598,0.39200789,-0.14735057,0.518286,0.3991228,-0.1682044,0.530653,0.40963127,-0.18732671,0.544004
0.39375217,-0.24301545,0.567797,0.37084398,-0.18838466,0.547866,0.361066,-0.22409184,0.556188,0.31366658,-0.1920656,0.533676,0.27619444,-0.16511292,0.51134,0.25657973,-0.14368474,0.497145,0.31934056,-0.12933546,0.51706,0.2959712,-0.090578058,0.51116,0.28481353,-0.070533379,0.50821,0.27484993,-0.052101847,0.505529,0.349392,-0.13006643,0.524241,0.33858227,-0.13249178,0.496363,0.3514381,-0.16420076,0.516415,0.3622067,-0.17530837,0.534192,0.37578987,-0.13463366,0.531777,0.36519408,-0.13225905,0.504341,0.35734768,-0.14738881,0.490303,0.36114188,-0.16895132,0.496114,0.41034328,-0.14766325,0.543812,0.39381101,-0.14022818,0.51923,0.40104571,-0.16105107,0.531433,0.40847272,-0.18205441,0.544816
0.39258712,-0.24180941,0.567556,0.37022806,-0.18774241,0.547231,0.3602579,-0.22348931,0.555963,0.31427897,-0.19108303,0.534179,0.27875107,-0.16229766,0.513746,0.25896111,-0.13947049,0.500836,0.31848359,-0.12876717,0.516117,0.29543577,-0.090216852,0.510826,0.28440813,-0.070249248,0.508181,0.27454755,-0.051868744,0.505776,0.34837643,-0.12940398,0.523137,0.33705968,-0.1281818,0.494905,0.35024848,-0.1601817,0.514853,0.36060818,-0.17360689,0.53248,0.37466466,-0.13389219,0.530574,0.36324248,-0.12150639,0.502865,0.35607674,-0.13460417,0.488689,0.35936839,-0.15593822,0.494364,0.40913553,-0.14682277,0.54255,0.39189644,-0.14290961,0.51773,0.39898228,-0.16368497,0.529863,0.40714112,-0.18099635,0.543303
0.38106704,-0.23387948,0.55172,0.36281558,-0.18320786,0.536762,0.35075224,-0.21707631,0.541893,0.30772624,-0.18479124,0.522877,0.27270394,-0.15631583,0.503698,0.25383252,-0.13446861,0.493043,0.31531671,-0.12708427,0.512267,0.29021075,-0.088048356,0.504821,0.27510959,-0.067897337,0.501535,0.26377006,-0.050397667,0.498548,0.34433971,-0.12668782,0.51903,0.33403385,-0.11604215,0.495842,0.35192972,-0.14948548,0.517739,0.36153967,-0.17076739,0.535307,0.37003421,-0.13071259,0.525817,0.36170574,-0.12107005,0.502708,0.35695602,-0.13455471,0.490884,0.36291242,-0.15678787,0.499019,0.4032034,-0.14278194,0.536193,0.38898962,-0.13986571,0.515215,0.39780103,-0.16101422,0.528672,0.40574282,-0.17974021,0.541273
0.39046202,-0.23776851,0.568043,0.36954136,-0.18612869,0.547011,0.35972798,-0.22227747,0.556171,0.31440249,-0.18833586,0.534322,0.27838056,-0.15951668,0.515059,0.25912025,-0.1373944,0.504558,0.3165004,-0.12731775,0.514966,0.29392385,-0.08909974,0.512456,0.28041118,-0.069205775,0.5112,0.26986026,-0.051561301,0.510059,0.34589485,-0.12691755,0.522079,0.3322493,-0.11542221,0.493193,0.34858402,-0.14806436,0.512817,0.35771599,-0.1675434,0.529426,0.37229468,-0.13104079,0.529649,0.3602387,-0.12060498,0.501328,0.35377523,-0.13322889,0.486838,0.35796535,-0.15442389,0.492144,0.40713657,-0.14354462,0.541893,0.38943102,-0.14012131,0.516569,0.39740444,-0.16087198,0.528485,0.40637526,-0.17963861,0.542018
0.3906986,-0.23736639,0.568584,0.36964672,-0.18567202,0.54729,0.3598842,-0.22192554,0.556651,0.31459998,-0.18793945,0.534559,0.27843293,-0.15927837,0.515315,0.25915531,-0.13724061,0.504942,0.31583277,-0.1263245,0.514955,0.29356356,-0.08870128,0.512325,0.28050849,-0.068785767,0.511009,0.26992954,-0.05109309,0.509814,0.34569857,-0.12643696,0.522049,0.33220024,-0.11450465,0.492925,0.34852261,-0.14705521,0.512445,0.35788242,-0.16428432,0.529107,0.3721123,-0.13049381,0.529624,0.35999439,-0.12054188,0.501096,0.35355749,-0.13317079,0.4865,0.35777477,-0.15428198,0.491684,0.40701954,-0.1429263,0.541915,0.38907988,-0.13994535,0.516417,0.39717403,-0.16065998,0.528263,0.40633676,-0.17905593,0.54183
0.39178954,-0.23755236,0.570308,0.36691118,-0.18387808,0.543491,0.36085637,-0.22214207,0.558422,0.31590062,-0.18823058,0.536502,0.27892181,-0.15919853,0.515956,0.25880695,-0.13676761,0.504164,0.30933292,-0.12301598,0.506641,0.28723462,-0.086447627,0.504359,0.27784772,-0.06836048,0.503218,0.27098604,-0.051705627,0.50218,0.33748135,-0.12227132,0.511701,0.31588278,-0.11140639,0.477788,0.33614944,-0.14194459,0.495171,0.34724566,-0.15916595,0.512894,0.36276279,-0.12565459,0.518055,0.34156441,-0.12702342,0.485825,0.34872789,-0.15164671,0.500104,0.35955442,-0.16290745,0.518822,0.39769257,-0.13908268,0.529744,0.37535931,-0.13442389,0.501059,0.3845656,-0.15474525,0.511494,0.39506897,-0.17184598,0.525636
0.39563856,-0.23954533,0.572424,0.36835102,-0.18472917,0.54364,0.36192811,-0.22270086,0.559492,0.32058162,-0.19302685,0.5347,0.28316721,-0.16204587,0.511563,0.25911644,-0.14075401,0.498264,0.31248956,-0.12618409,0.503875,0.28943365,-0.088332334,0.500094,0.28171002,-0.070932547,0.498204,0.27247015,-0.053915054,0.496485,0.34100453,-0.12634834,0.50952,0.32173773,-0.11871155,0.473874,0.33842261,-0.14784856,0.4899,0.35208091,-0.16437392,0.507825,0.36662205,-0.13053683,0.516517,0.34852884,-0.12843212,0.48257,0.35334118,-0.15401935,0.495727,0.3633766,-0.16615606,0.514691,0.39996986,-0.1427345,0.529273,0.37809377,-0.13789783,0.499221,0.38941221,-0.15758504,0.508759,0.40000225,-0.18070957,0.523033
0.39670882,-0.24031161,0.575562,0.37283846,-0.18825975,0.544378,0.36388712,-0.22393641,0.561248,0.32104059,-0.1948068,0.53314,0.28169955,-0.16704659,0.508887,0.258607,-0.14286304,0.495519,0.31204994,-0.12677347,0.500923,0.29152497,-0.090058068,0.499467,0.28180133,-0.0714816,0.498739,0.27076689,-0.05287127,0.498078,0.34036874,-0.12640745,0.507413,0.32374149,-0.12589214,0.471427,0.34216148,-0.15192028,0.485585,0.35404626,-0.17175169,0.503046,0.36603432,-0.13034997,0.515301,0.34877621,-0.1304397,0.47929,0.35857503,-0.15597659,0.490816,0.36942949,-0.17326908,0.509961,0.40184173,-0.14326021,0.529487,0.38980122,-0.12753977,0.497824,0.38688861,-0.14355514,0.506063,0.39044441,-0.15525029,0.520401
0.39637571,-0.23975079,0.574073,0.37384131,-0.18778592,0.542682,0.36364726,-0.22425773,0.558913,0.32249978,-0.19452634,0.530052,0.28280114,-0.16575957,0.504856,0.26075466,-0.14348811,0.491604,0.31112159,-0.12856285,0.498011,0.29063289,-0.09306395,0.498314,0.28035642,-0.072324158,0.498465,0.27007892,-0.053251447,0.498603,0.33913012,-0.12645579,0.505471,0.32597916,-0.1224975,0.469585,0.34174874,-0.1504992,0.483191,0.35365118,-0.17044064,0.500442,0.3658694,-0.13033251,0.514173,0.34865641,-0.12748257,0.477709,0.35708989,-0.14775265,0.48875,0.3680523,-0.16727459,0.507885,0.40189961,-0.14278091,0.52936,0.3901539,-0.12661074,0.497397,0.38721841,-0.14258455,0.505257,0.39080685,-0.15455308,0.519555
0.39981122,-0.24351442,0.573321,0.37760302,-0.19752939,0.541399,0.36978973,-0.23004022,0.555099,0.32179143,-0.19871163,0.522473,0.28312535,-0.16844985,0.497323,0.26308476,-0.14487769,0.483187,0.31387102,-0.13390822,0.492516,0.29166168,-0.097496289,0.491006,0.28031611,-0.078882119,0.490251,0.27602774,-0.063484341,0.489565,0.34462147,-0.13506743,0.50356,0.33729641,-0.13656965,0.468488,0.35253511,-0.16153469,0.479396,0.36178205,-0.18408072,0.495506,0.37238802,-0.14016949,0.515254,0.3602216,-0.14016083,0.477517,0.37020164,-0.16042853,0.486229,0.37845555,-0.18451203,0.504947,0.4102663,-0.15424248,0.534082,0.39633218,-0.15497214,0.501402,0.40593575,-0.17057322,0.507455,0.41461958,-0.17641318,0.521304
0.40378093,-0.2511582,0.566252,0.38343147,-0.20586819,0.537754,0.3722131,-0.23915475,0.551753,0.32648107,-0.20828542,0.522459,0.28718226,-0.18005482,0.501096,0.26657943,-0.15934331,0.49142,0.32484671,-0.14265967,0.496292,0.30472129,-0.10636164,0.494652,0.29749647,-0.088135481,0.493832,0.29061325,-0.070718954,0.493087,0.35447405,-0.14414238,0.503972,0.33981147,-0.14326605,0.46847,0.35013522,-0.17386603,0.483938,0.35850047,-0.18635435,0.501635,0.38104111,-0.14946973,0.512619,0.36618236,-0.14836831,0.478216,0.38014808,-0.16718741,0.490882,0.3926022,-0.1937499,0.509834,0.41699058,-0.16373799,0.527295,0.39508941,-0.16309961,0.497002,0.40121986,-0.18179118,0.506162,0.41126668,-0.19795927,0.520375
0.40285481,-0.26361785,0.559248,0.38265155,-0.21466196,0.53335,0.37011924,-0.24475468,0.54266,0.32678692,-0.21368696,0.51217,0.28918468,-0.18332634,0.48695,0.26842701,-0.16022679,0.474061,0.32874238,-0.14974182,0.491466,0.3075732,-0.11075537,0.485699,0.30285408,-0.092133926,0.482815,0.29843404,-0.074395604,0.480194,0.35916519,-0.15353558,0.50265,0.35441693,-0.15549317,0.469394,0.36221994,-0.18591777,0.484558,0.36587456,-0.19730067,0.501347,0.38588964,-0.16075395,0.513968,0.38110105,-0.16259024,0.482712,0.39789968,-0.18266228,0.495185,0.40744926,-0.20862597,0.512789,0.42106596,-0.17718913,0.531419,0.409159,-0.17273452,0.502223,0.41367303,-0.19193377,0.511182,0.42087961,-0.20910705,0.524931
0.4209081,-0.27161102,0.551351,0.39756919,-0.21858938,0.528347,0.38991497,-0.25597799,0.540412,0.3493273,-0.2250359,0.516285,0.30767703,-0.19765988,0.494889,0.28662496,-0.17823567,0.486737,0.3420947,-0.1592353,0.495821,0.32014052,-0.12003625,0.483792,0.31066622,-0.10185969,0.477777,0.30186081,-0.084751026,0.472309,0.37036811,-0.15909251,0.501078,0.35572947,-0.15327607,0.470529,0.37283866,-0.1832158,0.489829,0.38305137,-0.19645884,0.506938,0.39567352,-0.1629506,0.507282,0.3823815,-0.15396752,0.478121,0.39708052,-0.18157541,0.493972,0.40853331,-0.19692098,0.51208,0.4298041,-0.17518505,0.518206,0.40994132,-0.16803555,0.491967,0.41898375,-0.18894918,0.503673,0.42934181,-0.20214068,0.517447
0.43426705,-0.28513656,0.543771,0.409345,-0.23245275,0.521944,0.40307021,-0.27046463,0.533538,0.36223773,-0.24060345,0.512584,0.32206378,-0.21280259,0.490426,0.29956582,-0.19154958,0.479719,0.35248306,-0.1745241,0.491264,0.33145871,-0.13792479,0.485566,0.32065996,-0.11895264,0.482718,0.31061808,-0.10124506,0.480128,0.38040667,-0.17332919,0.49607,0.36591712,-0.16273954,0.466628,0.384142,-0.19614228,0.486561,0.39492816,-0.2103993,0.503468,0.40556477,-0.17628848,0.501808,0.39200221,-0.164804,0.473741,0.4079227,-0.19232786,0.490116,0.41962637,-0.20852516,0.507991,0.43977335,-0.18739251,0.511995,0.42034129,-0.17835427,0.48666,0.42956178,-0.19968795,0.498792,0.43980127,-0.2130054,0.512413
0.43556794,-0.29109738,0.545157,0.41172547,-0.24191756,0.521073,0.40340195,-0.27495804,0.533242,0.36293268,-0.24786937,0.509242,0.32322031,-0.21862276,0.48546,0.30105069,-0.19616069,0.473757,0.35467527,-0.18030053,0.486452,0.33507596,-0.14287797,0.479013,0.32504947,-0.12349815,0.475294,0.31574287,-0.10540877,0.471913,0.3836333,-0.18085955,0.492525,0.36882538,-0.17170696,0.460945,0.38439533,-0.2047282,0.479507,0.39446753,-0.21832149,0.496756,0.40962938,-0.18539999,0.499489,0.39546448,-0.17514969,0.469054,0.40915041,-0.20250515,0.484282,0.42017312,-0.21810719,0.502654,0.44478321,-0.19867195,0.511482,0.42490294,-0.19035872,0.484335,0.43237876,-0.21150324,0.495545,0.44196438,-0.22445493,0.509446
0.43937609,-0.31092813,0.536318,0.41625122,-0.25507602,0.510035,0.4098629,-0.29343857,0.527083,0.36868155,-0.26296744,0.506316,0.32922331,-0.23402777,0.485079,0.30788044,-0.21044889,0.473299,0.36248682,-0.19143981,0.476896,0.34206586,-0.15427669,0.468453,0.33159838,-0.13511112,0.464232,0.32190033,-0.11725046,0.460394,0.3889719,-0.19226167,0.478879,0.36421258,-0.18657951,0.44577,0.37835829,-0.21939127,0.463943,0.39172569,-0.23160257,0.481625,0.41291418,-0.19715935,0.482658,0.39048605,-0.1907334,0.45204,0.40273176,-0.21825474,0.467016,0.41660592,-0.23225689,0.485362,0.44557534,-0.21114059,0.491202,0.41809507,-0.20540567,0.46368,0.42408881,-0.22648674,0.47467,0.43567846,-0.23840226,0.488617
0.44056236,-0.32224054,0.537823,0.41661705,-0.27570963,0.510568,0.40981701,-0.31403398,0.527088,0.37312137,-0.28423966,0.50555,0.33498637,-0.25390095,0.481294,0.31323048,-0.22866005,0.467233,0.36084434,-0.2100852,0.474778,0.34131887,-0.17414256,0.46747,0.33126803,-0.15554614,0.463816,0.32192953,-0.13817045,0.460494,0.3884252,-0.2116826,0.478261,0.36283021,-0.20618716,0.44412,0.37637855,-0.23886206,0.461572,0.38986282,-0.2509652,0.4794,0.41345127,-0.2173076,0.483354,0.3898602,-0.21094823,0.451377,0.40155914,-0.23845915,0.465738,0.41569006,-0.25242587,0.484387,0.4476731,-0.23236442,0.49361,0.41924593,-0.22666617,0.465046,0.42477296,-0.24781308,0.475542,0.43650808,-0.25971978,0.489664
0.43629606,-0.33540917,0.526456,0.41848007,-0.28725378,0.499014,0.41082992,-0.32551633,0.515532,0.37452332,-0.29436456,0.493698,0.33683802,-0.26273615,0.469441,0.31567034,-0.23680878,0.455531,0.36340248,-0.21945651,0.462836,0.34597113,-0.18354868,0.456475,0.33699108,-0.16493981,0.453294,0.32864247,-0.14753349,0.450403,0.39116987,-0.22206472,0.466486,0.36498892,-0.21573659,0.432164,0.37788181,-0.24881654,0.44948,0.39136388,-0.26133975,0.46733,0.41632761,-0.22860625,0.47173,0.39222205,-0.22148009,0.439544,0.40340941,-0.24936998,0.453791,0.41751198,-0.2637894,0.472479,0.45066407,-0.24493805,0.482196,0.42176208,-0.23832304,0.45347,0.42689254,-0.25967565,0.463873,0.43856977,-0.27196813,0.478017
0.44781787,-0.34951711,0.527813,0.43261876,-0.29956679,0.501444,0.42152296,-0.331758,0.52158,0.39010502,-0.31115363,0.502266,0.35250457,-0.28634096,0.480039,0.33198993,-0.26261255,0.46711,0.38495668,-0.23509113,0.471936,0.35694425,-0.19677276,0.449956,0.34244302,-0.17990879,0.438966,0.32914275,-0.16433336,0.428975,0.40852887,-0.23814064,0.470186,0.3725074,-0.24406747,0.437535,0.38499374,-0.27398738,0.455544,0.40213631,-0.28123715,0.473195,0.42990048,-0.2448957,0.4709,0.39841417,-0.24328998,0.441479,0.40938287,-0.2727176,0.456361,0.42619672,-0.28805811,0.474186,0.45898072,-0.26107862,0.475813,0.42534449,-0.2585456,0.44945,0.42946424,-0.28067147,0.460393,0.44125118,-0.29459856,0.473915
0.45810281,-0.36598286,0.517412,0.43650653,-0.31160555,0.490627,0.4320324,-0.34944366,0.511376,0.39737082,-0.32653349,0.490101,0.3605785,-0.30095049,0.465196,0.33916592,-0.2766368,0.450738,0.38735195,-0.24830072,0.461018,0.35710235,-0.20746256,0.433514,0.34223442,-0.18954484,0.419762,0.32868302,-0.17314402,0.40726,0.41079439,-0.2490332,0.458877,0.38287013,-0.25405606,0.426029,0.3948307,-0.28454121,0.44375,0.40868407,-0.29211592,0.461194,0.43186633,-0.25387536,0.459303,0.4085502,-0.25162006,0.430127,0.42119927,-0.28130561,0.444795,0.43538479,-0.29694722,0.462436,0.46049089,-0.26770593,0.463937,0.43360176,-0.26481072,0.437451,0.43960072,-0.2873723,0.448208,0.44998566,-0.30163181,0.461701
0.47710048,-0.40407182,0.519827,0.45576283,-0.35208212,0.48874,0.4503777,-0.38491711,0.511397,0.42007687,-0.36833635,0.486966,0.38506706,-0.34470543,0.460981,0.3650651,-0.32067159,0.445356,0.40548293,-0.28676033,0.452617,0.37192134,-0.24501943,0.421216,0.35507631,-0.22676378,0.405516,0.33974051,-0.21079649,0.391243,0.43022689,-0.2913884,0.451889,0.39482577,-0.29401109,0.415126,0.40671087,-0.32339472,0.430222,0.42324626,-0.33163987,0.448258,0.45250283,-0.29937922,0.45383,0.4192411,-0.31228505,0.420743,0.42985152,-0.3299527,0.433238,0.44648931,-0.34914028,0.45159,0.48261685,-0.31684506,0.460928,0.44023554,-0.323356,0.431305,0.44246064,-0.33672944,0.440312,0.45154827,-0.35060217,0.45423
0.47566403,-0.40877739,0.516254,0.45676642,-0.36043443,0.485719,0.45005215,-0.39023449,0.509148,0.413426,-0.37379729,0.486505,0.37465899,-0.34781339,0.46146,0.35169488,-0.3213826,0.444835,0.40832543,-0.29259139,0.451687,0.37270543,-0.24664838,0.421527,0.35604885,-0.22934459,0.406447,0.34087783,-0.21388715,0.392738,0.43173033,-0.295773,0.449524,0.39838442,-0.29909844,0.412537,0.40992513,-0.32911257,0.427769,0.42549182,-0.33805844,0.445929,0.45271257,-0.30277507,0.450238,0.42084331,-0.3118501,0.415543,0.4315923,-0.33204336,0.428076,0.4454277,-0.34973764,0.447091,0.48113634,-0.31946274,0.455793,0.44265589,-0.32503338,0.427012,0.44612561,-0.34029165,0.436174,0.45572758,-0.35574874,0.449856
0.47462303,-0.41603275,0.505115,0.45895845,-0.36814389,0.47841,0.45598641,-0.40879498,0.499748,0.41842488,-0.3863453,0.479404,0.37825786,-0.35970271,0.454347,0.35443223,-0.33404337,0.439359,0.40848734,-0.30359968,0.44969,0.37241375,-0.25968138,0.42273,0.35619753,-0.24452382,0.40925,0.34169996,-0.23168638,0.396995,0.431348,-0.30301316,0.446753,0.40511718,-0.305109,0.412974,0.42233889,-0.33903246,0.430524,0.43717886,-0.34945288,0.448251,0.45197707,-0.30693028,0.446518,0.42775076,-0.31519146,0.414534,0.44261807,-0.33861383,0.428957,0.46129948,-0.36205633,0.447633,0.48023648,-0.31993742,0.450353,0.44861412,-0.32666736,0.424212,0.45545937,-0.3449916,0.43492,0.46597412,-0.36191814,0.448272
0.48003037,-0.42997582,0.500624,0.46317696,-0.38165596,0.481326,0.45398511,-0.41334619,0.495959,0.41921755,-0.39291277,0.476884,0.38800521,-0.36884607,0.463242,0.36899506,-0.34612859,0.454029,0.41582338,-0.31562992,0.459603,0.39386546,-0.32260747,0.437204,0.40669189,-0.35199213,0.454123,0.41878793,-0.37960388,0.470068,0.44058091,-0.3164282,0.45845,0.41788726,-0.3217461,0.431605,0.44125398,-0.3627603,0.452937,0.45807239,-0.37720625,0.470372,0.46281527,-0.32151096,0.459078,0.44383804,-0.32766897,0.433957,0.46662413,-0.35724523,0.451512,0.48649016,-0.3818159,0.469359,0.49285591,-0.33609825,0.462798,0.4655171,-0.34016029,0.440961,0.47707819,-0.3623079,0.45413,0.48903509,-0.37983091,0.466922
0.46706967,-0.43164097,0.48114,0.4606605,-0.38718463,0.468958,0.44537057,-0.41662371,0.481037,0.41743326,-0.40215202,0.468939,0.38868343,-0.38128582,0.45743,0.37207717,-0.35941147,0.451586,0.42681978,-0.32561297,0.458748,0.41477563,-0.30144438,0.441858,0.40888081,-0.28893784,0.433413,0.41582398,-0.30870567,0.443546,0.44855678,-0.32584382,0.454517,0.43049465,-0.33028699,0.434294,0.45367104,-0.37544396,0.457411,0.46980395,-0.39314876,0.474372,0.46739522,-0.33017325,0.452031,0.45192522,-0.33404089,0.431949,0.47483778,-0.36985038,0.450907,0.49419687,-0.39768103,0.467885,0.49179629,-0.34328103,0.450951,0.46852786,-0.34680104,0.435303,0.4818966,-0.37441745,0.449792,0.49429516,-0.39315395,0.461634
0.46561653,-0.43409703,0.478851,0.45977399,-0.38825312,0.466977,0.44752416,-0.42472211,0.47931,0.41662789,-0.40287696,0.468039,0.3875148,-0.38196654,0.456126,0.37041047,-0.35933852,0.449099,0.43210663,-0.32927506,0.457715,0.41963057,-0.30828528,0.441259,0.41350681,-0.29744501,0.43303,0.41878644,-0.31842595,0.443248,0.45304885,-0.33116961,0.452901,0.43138416,-0.33818798,0.432766,0.45247839,-0.38286548,0.455817,0.46935671,-0.39616765,0.473452,0.47098243,-0.33681437,0.44991,0.45201549,-0.34326742,0.429889,0.47338584,-0.37886166,0.448792,0.49303597,-0.40664805,0.466626,0.49371949,-0.35137151,0.448182,0.46788477,-0.35631441,0.432983,0.48002837,-0.38338227,0.447457,0.49284278,-0.40194693,0.459973
0.468999,-0.44706998,0.482229,0.46310452,-0.40024247,0.467682,0.44855633,-0.42828178,0.481341,0.4172437,-0.40621878,0.467888,0.38735498,-0.38306002,0.453066,0.37086127,-0.35912772,0.444201,0.43980664,-0.33440662,0.454548,0.42866647,-0.31483067,0.435306,0.42336429,-0.3048485,0.425685,0.42701715,-0.32569508,0.434816,0.46053952,-0.3403806,0.450439,0.43543442,-0.34742422,0.427779,0.45159635,-0.39051515,0.450255,0.46565745,-0.40492782,0.466309,0.47792069,-0.34940732,0.448246,0.45569717,-0.35631449,0.426112,0.4728231,-0.39096616,0.444555,0.48993903,-0.41819756,0.462952,0.49926686,-0.3680305,0.447879,0.47044046,-0.37127187,0.430467,0.47928771,-0.39693219,0.444516,0.49063151,-0.41511414,0.457688
0.47175819,-0.45156189,0.484255,0.47272747,-0.40740558,0.468412,0.45283853,-0.43263727,0.484117,0.42804152,-0.41449517,0.471613,0.39688952,-0.38906533,0.45518,0.37841294,-0.3628777,0.445141,0.45159578,-0.34095092,0.455131,0.4392842,-0.31909636,0.436002,0.43335518,-0.3079141,0.426438,0.4314159,-0.32651951,0.435178,0.47048206,-0.34753974,0.449634,0.43875523,-0.35328013,0.425623,0.4534998,-0.39511617,0.447332,0.46870102,-0.40891062,0.462839,0.48637642,-0.35711686,0.446404,0.45734548,-0.36258973,0.422633,0.47350158,-0.39649651,0.440426,0.49163265,-0.4238297,0.459097,0.50595904,-0.37648087,0.445005,0.47250917,-0.37842773,0.427206,0.4806251,-0.40321849,0.440787,0.49266135,-0.42122715,0.453951
0.47455147,-0.45570043,0.486757,0.46842513,-0.40410119,0.463917,0.45119027,-0.43160719,0.481364,0.42585214,-0.41667265,0.461065,0.38985605,-0.38667447,0.43378,0.37118167,-0.35923508,0.417697,0.4357493,-0.32908909,0.438365,0.41768447,-0.30349446,0.412705,0.40880583,-0.29056791,0.399876,0.40925388,-0.30739945,0.405729,0.45789869,-0.33828327,0.436843,0.42177554,-0.33881662,0.406676,0.43447383,-0.37781276,0.426476,0.44744073,-0.38999478,0.44062,0.47732046,-0.35048799,0.437457,0.4452226,-0.35202814,0.409187,0.45936,-0.38380817,0.425479,0.47597328,-0.40993738,0.443402,0.50260875,-0.37400505,0.441706,0.46892564,-0.3684703,0.417576,0.47158924,-0.3928076,0.42973,0.48261742,-0.41130549,0.442935
0.47536483,-0.46043715,0.487919,0.46933046,-0.40558348,0.464533,0.45279922,-0.43475188,0.481981,0.42614773,-0.41544362,0.46092,0.39198738,-0.38640316,0.43385,0.37388275,-0.3589299,0.417189,0.43656839,-0.32938692,0.437856,0.41968793,-0.30416131,0.411423,0.41088076,-0.29108757,0.398207,0.41153431,-0.30782836,0.403722,0.4600055,-0.34013065,0.436811,0.42440688,-0.33992581,0.406205,0.43447282,-0.37773119,0.425803,0.44701264,-0.38989596,0.439801,0.47953866,-0.35306396,0.437861,0.44813149,-0.3539606,0.409326,0.45988583,-0.38471139,0.42546,0.47609567,-0.41105961,0.443427,0.50483856,-0.3775061,0.442713,0.4695362,-0.37036028,0.418054,0.47277752,-0.39396311,0.430058,0.4834653,-0.41289135,0.443391
0.47487941,-0.46085217,0.487352,0.46907372,-0.40575273,0.464212,0.45251958,-0.43486938,0.4813,0.42558033,-0.41456346,0.4601,0.39214157,-0.38631392,0.4327,0.37686334,-0.36082501,0.415075,0.43679716,-0.32954356,0.437598,0.41994811,-0.30423048,0.411322,0.41125423,-0.29116612,0.398183,0.41202585,-0.30793445,0.403821,0.45941766,-0.33974112,0.436781,0.4248513,-0.34025802,0.406427,0.43523859,-0.37836889,0.426163,0.4476861,-0.39063946,0.440259,0.47986642,-0.35361109,0.437998,0.44875722,-0.35459543,0.409761,0.46080576,-0.38564179,0.426011,0.47669431,-0.41199479,0.443904,0.50525591,-0.37830969,0.443012,0.47002615,-0.37109877,0.41844,0.47389496,-0.39451239,0.430528,0.48474199,-0.41291143,0.443864
0.47664117,-0.46321552,0.489188,0.47007808,-0.40688171,0.465254,0.45361197,-0.43622391,0.482258,0.42544618,-0.41427178,0.45985,0.39287626,-0.38687183,0.432732,0.37755437,-0.36236172,0.414601,0.43633562,-0.3292172,0.436903,0.41604903,-0.30943677,0.409754,0.40556452,-0.29915118,0.396179,0.40451354,-0.31756179,0.40138,0.45970998,-0.34007641,0.436884,0.42446937,-0.33991903,0.40592,0.43464859,-0.37781628,0.425332,0.44670612,-0.3898742,0.439199,0.4807504,-0.35444407,0.438823,0.44938976,-0.35514002,0.410257,0.46125581,-0.38609021,0.426255,0.47699808,-0.41249087,0.44418,0.50721069,-0.38004086,0.444818,0.47117046,-0.37215408,0.419453,0.47628399,-0.39542294,0.431303,0.48618729,-0.41348612,0.444825
0.47624937,-0.4613063,0.488581,0.46967237,-0.40641752,0.464918,0.45281621,-0.43474412,0.481683,0.42505849,-0.41340406,0.459331,0.39260548,-0.38602756,0.431871,0.37728991,-0.36188249,0.413537,0.43633808,-0.32898948,0.436828,0.41762109,-0.30535517,0.409969,0.40595317,-0.29829224,0.396539,0.40517203,-0.31678088,0.401899,0.45973771,-0.33989864,0.436867,0.4250703,-0.33916722,0.406156,0.43543744,-0.37760083,0.425701,0.4473734,-0.39000378,0.439662,0.48023749,-0.35360942,0.438832,0.44973469,-0.35495164,0.410513,0.46179765,-0.38617981,0.426621,0.4773526,-0.41255903,0.44449,0.5068434,-0.37912098,0.444814,0.47135481,-0.37188958,0.41961,0.47659446,-0.39514423,0.431547,0.48669725,-0.41308681,0.445046
0.47466083,-0.4598122,0.486691,0.46972229,-0.40578237,0.464401,0.45170745,-0.43331094,0.479978,0.42452341,-0.41195287,0.457955,0.39327211,-0.38501184,0.429557,0.37688904,-0.36160113,0.410298,0.44375546,-0.32786882,0.437677,0.42283128,-0.3055802,0.412124,0.41422958,-0.29341303,0.399348,0.41320495,-0.31206476,0.405446,0.46689558,-0.33980139,0.437979,0.43488223,-0.33546923,0.408684,0.44331863,-0.3765927,0.428882,0.45189429,-0.39282432,0.443309,0.48497629,-0.35539873,0.440047,0.45530117,-0.35486348,0.412988,0.46689871,-0.3882038,0.429629,0.48085707,-0.41485869,0.447202,0.50927396,-0.3811467,0.445942,0.47600257,-0.37177468,0.421574,0.48048403,-0.39648877,0.433933,0.49112771,-0.41387643,0.447302
0.47481368,-0.46032192,0.485993,0.47541665,-0.40259352,0.464715,0.45369799,-0.43410467,0.479712,0.42991273,-0.41035377,0.458331,0.39441033,-0.38534869,0.43025,0.3768539,-0.36057204,0.411677,0.44512414,-0.32687963,0.439361,0.42306004,-0.30571671,0.414684,0.41325667,-0.29297218,0.402345,0.41422473,-0.31053295,0.408938,0.46845253,-0.33813952,0.439492,0.4332528,-0.33066584,0.411147,0.44770501,-0.37474985,0.43178,0.4601725,-0.3902453,0.446518,0.48916666,-0.34880208,0.441338,0.45736631,-0.34855907,0.41506,0.47244813,-0.38084114,0.432053,0.48918687,-0.40588247,0.449452,0.51615653,-0.3740139,0.446812,0.47894684,-0.36527453,0.423186,0.48613459,-0.38942684,0.435839,0.49757911,-0.41052697,0.44906
0.484898,-0.46253275,0.493953,0.48564688,-0.39091981,0.471121,0.46930363,-0.41856706,0.487601,0.44006502,-0.39860921,0.466018,0.40681331,-0.37526067,0.438361,0.38869995,-0.35049262,0.419908,0.45786419,-0.31554483,0.444393,0.43585277,-0.29528068,0.418787,0.42494559,-0.28510165,0.405984,0.42288716,-0.30226356,0.411918,0.48014165,-0.32796473,0.444056,0.44280191,-0.32368948,0.414376,0.45265134,-0.36189066,0.434312,0.4648202,-0.3760364,0.448551,0.49944535,-0.34276514,0.445644,0.46440382,-0.34224467,0.417531,0.47643419,-0.37240108,0.433918,0.49198824,-0.39630893,0.451816,0.52401116,-0.36923845,0.451051,0.48563721,-0.36015788,0.426525,0.49051317,-0.38234873,0.438719,0.50200849,-0.39906392,0.452079
0.48475544,-0.42738692,0.493381,0.49268147,-0.37833953,0.476144,0.47150963,-0.40098483,0.490587,0.48393691,-0.37526382,0.486269,0.49457825,-0.35084632,0.481233,0.5028287,-0.32803223,0.476767,0.48177835,-0.30893349,0.458432,0.45978504,-0.29760739,0.438587,0.44874944,-0.29201321,0.428664,0.45168764,-0.31185174,0.437338,0.50052819,-0.32232129,0.45571,0.46755058,-0.32061126,0.431629,0.47623064,-0.36036355,0.453569,0.48733213,-0.37886991,0.46924,0.51582064,-0.33740298,0.454879,0.48828946,-0.33824498,0.433726,0.49919972,-0.3705817,0.451855,0.50996726,-0.39591161,0.468108,0.53358144,-0.36317545,0.456546,0.49817888,-0.35629958,0.436702,0.50369963,-0.38001054,0.45029,0.51394618,-0.39651227,0.462544
0.48590431,-0.4222266,0.492308,0.49547075,-0.36973372,0.474576,0.47392351,-0.39673635,0.490604,0.4879652,-0.36800816,0.487566,0.49676635,-0.34372175,0.482526,0.5039759,-0.32471499,0.477621,0.4859857,-0.3015288,0.457798,0.46059462,-0.29038032,0.438487,0.44774118,-0.28485728,0.428832,0.45032123,-0.30800619,0.437388,0.50289742,-0.31424867,0.453555,0.46536255,-0.31209708,0.429333,0.47321059,-0.35066164,0.45082,0.48484828,-0.37255817,0.466167,0.51669348,-0.32876122,0.451513,0.48527182,-0.32946977,0.430682,0.49623326,-0.36105571,0.448462,0.50683028,-0.38928953,0.464383,0.53268186,-0.35378874,0.451816,0.49398109,-0.34650575,0.432189,0.49950091,-0.36952754,0.445506,0.50953657,-0.38901135,0.457578
0.48433639,-0.41488987,0.491862,0.48151772,-0.35458252,0.468512,0.47947368,-0.38687134,0.494165,0.46453557,-0.36546427,0.488224,0.44091333,-0.35730977,0.471082,0.43221862,-0.34431446,0.460011,0.47662213,-0.28946052,0.452025,0.4666585,-0.24839462,0.42445,0.43678113,-0.24196178,0.410662,0.42388765,-0.2535674,0.413338,0.48022431,-0.29975884,0.440833,0.41772404,-0.2901359,0.413565,0.41086453,-0.31284072,0.429347,0.41335666,-0.33419275,0.44062,0.48353297,-0.31229034,0.433532,0.43056085,-0.30780364,0.412042,0.4415823,-0.33456708,0.425248,0.46687619,-0.34815735,0.439202,0.48791843,-0.33487796,0.428446,0.43247508,-0.31430907,0.408201,0.42511726,-0.31969322,0.417929,0.42047962,-0.32621015,0.428827
0.48950639,-0.3972841,0.499367,0.48652168,-0.33805847,0.472979,0.48600811,-0.36350183,0.500843,0.46861141,-0.34692489,0.49204,0.4449589,-0.3381276,0.475026,0.43504515,-0.32364465,0.462587,0.47876173,-0.27085285,0.452958,0.46728148,-0.22901486,0.4237,0.43642967,-0.22214222,0.409071,0.42171982,-0.23268104,0.410078,0.48207415,-0.28113184,0.441699,0.41669431,-0.26979155,0.41189,0.40780694,-0.28978373,0.425632,0.40882951,-0.3097854,0.435448,0.48537712,-0.2937734,0.434591,0.42973384,-0.28739875,0.410852,0.43880235,-0.31266264,0.422388,0.46426709,-0.32647288,0.436581,0.49021641,-0.31679199,0.430202,0.43269726,-0.29507904,0.408136,0.42399514,-0.29900139,0.416528,0.41954529,-0.30509721,0.427548
0.52948274,-0.3831779,0.546524,0.51560842,-0.33269686,0.507785,0.50880381,-0.35244975,0.534136,0.48009945,-0.33681623,0.506487,0.45363575,-0.31968353,0.481575,0.44035066,-0.3026157,0.462488,0.47729985,-0.25602632,0.460451,0.48611899,-0.21889401,0.44827,0.47271169,-0.22064816,0.442179,0.47330912,-0.24224749,0.454518,0.49778729,-0.27421188,0.461864,0.4279496,-0.27103053,0.419107,0.42023779,-0.2900645,0.426493,0.42067895,-0.31464489,0.444278,0.51638685,-0.29362631,0.466191,0.44971567,-0.2896172,0.427163,0.4431359,-0.30522139,0.433299,0.44416559,-0.32795482,0.451508,0.54143971,-0.32514726,0.477306,0.47910795,-0.31781548,0.443154,0.47961298,-0.32951455,0.447137,0.49086869,-0.34717215,0.460701
0.53969878,-0.38434803,0.559295,0.52521341,-0.32587083,0.521282,0.51631197,-0.35254848,0.544576,0.48494634,-0.3287404,0.514569,0.45848698,-0.31110298,0.487837,0.44368443,-0.28948413,0.46754,0.48433005,-0.24910074,0.471674,0.4915675,-0.21037175,0.456068,0.48553415,-0.20429409,0.448265,0.49912113,-0.20795842,0.459362,0.50893728,-0.26714159,0.476221,0.45918305,-0.25580459,0.433597,0.45339048,-0.27773182,0.441414,0.4576744,-0.30249494,0.459287,0.53087968,-0.28642514,0.483067,0.47334682,-0.28785915,0.443242,0.46962472,-0.30837599,0.449682,0.48681828,-0.32284442,0.468336,0.5597908,-0.31780312,0.497067,0.50181495,-0.31301343,0.462381,0.50108577,-0.3246117,0.466601,0.51135248,-0.34181761,0.480445
0.53417055,-0.37000915,0.560696,0.52394268,-0.31330674,0.52496,0.50474992,-0.33105901,0.543032,0.47736437,-0.30819009,0.509476,0.45230058,-0.28697289,0.479194,0.43945449,-0.26426849,0.458335,0.48724192,-0.23776667,0.473606,0.49203969,-0.19690883,0.459563,0.4921144,-0.18791294,0.452541,0.51254152,-0.18671308,0.464254,0.51550801,-0.25709391,0.482599,0.48005799,-0.24953126,0.441519,0.47961009,-0.27341387,0.44976,0.48457962,-0.29878707,0.467207,0.53982002,-0.27715713,0.492917,0.49062288,-0.28106403,0.453184,0.4846905,-0.30180838,0.459899,0.49364796,-0.31702557,0.478626,0.5704081,-0.30896185,0.510696,0.52273673,-0.30868313,0.476324,0.5215557,-0.32120398,0.480783,0.53127933,-0.33880427,0.494609
0.54984242,-0.3681731,0.525769,0.54033664,-0.31355259,0.506683,0.52187305,-0.34282292,0.515019,0.48740523,-0.30667048,0.489569,0.4562467,-0.27497539,0.461767,0.43763112,-0.24798278,0.445736,0.49846261,-0.24277495,0.477635,0.49363839,-0.20408648,0.462087,0.49325807,-0.18763302,0.454313,0.5123715,-0.17967977,0.465412,0.52803266,-0.25290048,0.48406,0.51578545,-0.24871192,0.457011,0.5298697,-0.28437787,0.477631,0.53820742,-0.29769954,0.493888,0.55360999,-0.26540316,0.490905,0.53883247,-0.26223085,0.464428,0.54620191,-0.2899815,0.481334,0.55313868,-0.31042887,0.498778,0.58639132,-0.28840871,0.501986,0.56491618,-0.28343583,0.478155,0.572566,-0.30567306,0.490743,0.58251904,-0.31759744,0.504011
0.54907949,-0.36562938,0.536846,0.53826639,-0.30863114,0.518688,0.52047197,-0.33933069,0.521925,0.49100657,-0.30128502,0.49679,0.46188747,-0.26768265,0.469897,0.44976476,-0.24307079,0.454919,0.50769023,-0.24100354,0.485265,0.50677175,-0.20195085,0.474421,0.5076283,-0.18262277,0.468999,0.51197542,-0.1690974,0.464069,0.53859264,-0.25363301,0.497164,0.54161811,-0.24991311,0.470866,0.5503163,-0.28381305,0.489326,0.55128392,-0.29555002,0.504634,0.56413037,-0.26782525,0.508438,0.5637842,-0.26560608,0.481068,0.56777042,-0.29169635,0.496109,0.56896753,-0.31063481,0.51317,0.59465979,-0.29194872,0.524644,0.57920532,-0.29949173,0.500497,0.58411678,-0.31910073,0.511655,0.59105602,-0.33706319,0.52448
0.57034368,-0.36663108,0.564534,0.56414592,-0.30809435,0.535175,0.54465131,-0.33431751,0.54686,0.55539411,-0.31780596,0.529532,0.51638094,-0.27833946,0.499465,0.51676566,-0.25847832,0.485611,0.51660466,-0.237535,0.489087,0.51698374,-0.19737786,0.481379,0.51873042,-0.17812888,0.477526,0.52075794,-0.16040829,0.474022,0.55006837,-0.24898157,0.500372,0.53682729,-0.23736852,0.46423,0.54119001,-0.26825335,0.476948,0.54701869,-0.28210091,0.494014,0.57894175,-0.26253834,0.512056,0.56486265,-0.25481844,0.476056,0.5645257,-0.27856544,0.486405,0.56951664,-0.29802326,0.505077,0.61558688,-0.28659273,0.530476,0.57991587,-0.29133408,0.499187,0.5743022,-0.30544504,0.506543,0.57749713,-0.32248875,0.520407
0.57545004,-0.35352369,0.569521,0.56483853,-0.29590611,0.539997,0.54198008,-0.31844742,0.550641,0.5521258,-0.3041381,0.52988,0.51736843,-0.26445694,0.49869,0.52024214,-0.2469074,0.484647,0.52403973,-0.22540365,0.492285,0.52811355,-0.18522244,0.486632,0.53068194,-0.16471059,0.483806,0.5332074,-0.14566086,0.481236,0.5569833,-0.23944908,0.504998,0.54473385,-0.23231819,0.468871,0.545202,-0.26138878,0.480212,0.54915593,-0.27384627,0.496839,0.58492679,-0.25497493,0.51787,0.57063041,-0.25058398,0.481483,0.56741659,-0.27260935,0.490678,0.57073772,-0.29059547,0.509044,0.61955462,-0.2810293,0.537729,0.58427065,-0.28603822,0.506276,0.57688401,-0.29890184,0.512738,0.57901331,-0.31497422,0.526314
0.56330192,-0.33719415,0.564558,0.56109472,-0.28519115,0.537795,0.53610858,-0.31041189,0.545619,0.55074516,-0.28853053,0.526146,0.52033985,-0.24765111,0.495852,0.50779409,-0.22094915,0.483519,0.52818702,-0.2146902,0.492298,0.53315737,-0.17387533,0.486517,0.53792098,-0.1541128,0.483627,0.54293591,-0.13595818,0.480999,0.55981382,-0.23063378,0.506072,0.55366951,-0.22473936,0.472317,0.55530923,-0.25409291,0.484778,0.55691704,-0.26669662,0.500899,0.58614224,-0.24756866,0.519591,0.57666443,-0.24394,0.485021,0.57473422,-0.26621016,0.495115,0.576531,-0.28418498,0.513106,0.61791712,-0.27501837,0.539793,0.58822039,-0.27946222,0.509904,0.58103868,-0.29207894,0.517104,0.58199211,-0.30652018,0.530415
0.57459793,-0.33544905,0.564959,0.57417369,-0.27683172,0.537996,0.55375907,-0.30333211,0.547907,0.55679087,-0.27613533,0.527022,0.52244261,-0.23521012,0.498355,0.5059767,-0.20920443,0.487659,0.52955963,-0.2055076,0.494659,0.53659686,-0.16502157,0.489673,0.54280567,-0.14570784,0.487181,0.54937479,-0.12816942,0.484915,0.56219549,-0.21732625,0.506035,0.55020125,-0.21253716,0.471881,0.55664144,-0.24367129,0.48624,0.56128453,-0.25803918,0.503101,0.59017685,-0.23118628,0.517598,0.57325726,-0.23133504,0.483345,0.57368875,-0.25484671,0.495039,0.57802719,-0.27445489,0.513541,0.62546328,-0.25562398,0.535504,0.59546693,-0.25793495,0.50563,0.59088897,-0.2725818,0.51406,0.59387766,-0.28905879,0.527843
0.58324936,-0.32630944,0.566191,0.57579056,-0.27482451,0.53977,0.55460083,-0.30045935,0.549228,0.55956946,-0.27546017,0.527653,0.52328603,-0.23399839,0.498041,0.50759829,-0.20850688,0.48831,0.53529298,-0.20053248,0.496991,0.54217207,-0.16041938,0.49101,0.54744481,-0.14071228,0.48802,0.55174525,-0.1257855,0.485301,0.56664305,-0.21359305,0.508451,0.55416742,-0.21291878,0.474762,0.56092367,-0.24412263,0.48941,0.5651571,-0.25861188,0.506195,0.59312284,-0.2303139,0.520039,0.57641904,-0.23154131,0.486178,0.57731931,-0.2552153,0.498107,0.58152708,-0.27499505,0.516545,0.62737406,-0.25523036,0.537892,0.59869389,-0.25750866,0.508342,0.59459183,-0.2725331,0.516962,0.5977507,-0.28923504,0.530705
0.58793474,-0.32492982,0.570765,0.57957177,-0.27095936,0.543419,0.56024784,-0.29954575,0.555338,0.55989757,-0.2769865,0.535951,0.53143294,-0.23917778,0.506103,0.51423869,-0.2122771,0.493013,0.53870307,-0.20049969,0.501768,0.54614432,-0.16090717,0.494013,0.55119037,-0.14151126,0.490135,0.55678138,-0.12434736,0.48661,0.56938355,-0.21310215,0.511003,0.55333362,-0.19075058,0.47646,0.56035837,-0.22093752,0.491912,0.56782057,-0.23816173,0.509258,0.59563019,-0.22752355,0.520836,0.5672167,-0.22945919,0.486844,0.57539378,-0.25580504,0.499471,0.58320092,-0.27511415,0.51824,0.62860441,-0.25245439,0.536744,0.59470471,-0.25692438,0.5069,0.59305522,-0.27222094,0.516046,0.59752661,-0.28966336,0.530095
0.60306837,-0.31671052,0.57704,0.59803292,-0.25998499,0.54667,0.57540264,-0.29147707,0.563636,0.5767244,-0.27047333,0.540628,0.54206384,-0.23287299,0.511942,0.52628395,-0.20576778,0.497664,0.55072671,-0.18865319,0.505009,0.5594326,-0.14926731,0.497987,0.56447798,-0.12994818,0.494476,0.56935963,-0.11178565,0.491284,0.58044133,-0.19973071,0.51067,0.55508058,-0.18026994,0.473694,0.56079242,-0.21009168,0.488636,0.57104289,-0.22780628,0.506702,0.60661685,-0.21312954,0.517808,0.57044312,-0.2158594,0.48267,0.57469193,-0.24075945,0.494939,0.58635139,-0.26121332,0.514029,0.64076064,-0.23733495,0.530977,0.59677036,-0.23802897,0.499964,0.59617554,-0.25501618,0.508791,0.60316153,-0.27347365,0.523128
0.61257972,-0.30796873,0.572616,0.60320569,-0.25191236,0.54339,0.58399239,-0.28301818,0.559651,0.5848849,-0.26230423,0.537097,0.54556955,-0.22263183,0.508786,0.52759708,-0.19588626,0.496357,0.55472953,-0.18113996,0.50322,0.56297685,-0.14137218,0.496278,0.56790922,-0.12151895,0.492807,0.57032596,-0.1079657,0.489652,0.58445994,-0.19102075,0.508747,0.56149613,-0.17334145,0.472736,0.56958887,-0.20382377,0.488508,0.57956702,-0.22201627,0.506485,0.61066818,-0.20341589,0.515682,0.57702338,-0.20815869,0.481443,0.58251072,-0.23341649,0.494395,0.59338711,-0.25445909,0.513394,0.64498075,-0.22641457,0.528434,0.60515191,-0.22656142,0.498138,0.60553181,-0.24421216,0.50751,0.61285593,-0.26293156,0.521806
0.61715086,-0.3062181,0.572812,0.6120955,-0.24950839,0.543769,0.59363222,-0.27946168,0.560317,0.58513315,-0.25990366,0.535229,0.54466154,-0.22011282,0.507012,0.52719383,-0.19392677,0.495589,0.56541353,-0.17906088,0.504327,0.56850232,-0.13753048,0.497733,0.57077529,-0.12012962,0.494436,0.57513487,-0.10254706,0.491439,0.59451776,-0.18923345,0.509342,0.57079967,-0.17339545,0.473523,0.57895786,-0.20401269,0.489556,0.58907808,-0.22221771,0.507546,0.62008975,-0.20182448,0.51584,0.58617631,-0.20712,0.481921,0.59212652,-0.23248968,0.495095,0.60314564,-0.25402062,0.514054,0.6534336,-0.22495795,0.528044,0.61347419,-0.22551186,0.497979,0.61439839,-0.24341477,0.507526,0.62209787,-0.26227891,0.521809
0.61790747,-0.30444117,0.572378,0.6119203,-0.24870632,0.544101,0.59380041,-0.27751637,0.559907,0.58840432,-0.25698875,0.535884,0.54823072,-0.2164441,0.507844,0.53143615,-0.1903732,0.496996,0.56799287,-0.1781806,0.505321,0.57276856,-0.13705999,0.500097,0.57811346,-0.11585088,0.497484,0.58052829,-0.098963837,0.495109,0.59687857,-0.18921098,0.51058,0.57440767,-0.17388115,0.475392,0.58266087,-0.20448817,0.49185,0.59226952,-0.22244057,0.509744,0.62207638,-0.20246023,0.517217,0.58931992,-0.20726946,0.483791,0.59508473,-0.23256068,0.497308,0.60559685,-0.25413327,0.516206,0.6546136,-0.22628159,0.529468,0.61581958,-0.22616896,0.499817,0.61676537,-0.24366934,0.50964,0.62422673,-0.26174044,0.523885
0.62186111,-0.30058141,0.57025,0.62137429,-0.24738116,0.544004,0.59673745,-0.27396579,0.557638,0.59435538,-0.25539496,0.532598,0.55489362,-0.21462449,0.503814,0.53985921,-0.18862219,0.49351,0.58091464,-0.17724074,0.506732,0.58614348,-0.13619111,0.502236,0.59026402,-0.11604441,0.499988,0.5942293,-0.097092404,0.497944,0.61039216,-0.18938009,0.512891,0.5906856,-0.17525497,0.479395,0.59989983,-0.20615715,0.496792,0.60869705,-0.2237795,0.514369,0.63580293,-0.20347023,0.520103,0.60526824,-0.20829287,0.487929,0.61072015,-0.2331972,0.502201,0.62065505,-0.25239699,0.520894,0.66803255,-0.22813643,0.532725,0.63134481,-0.22784027,0.504151,0.63277784,-0.24522317,0.514588,0.63999111,-0.26255196,0.528691
0.62420612,-0.30080302,0.571567,0.61627105,-0.24819978,0.544491,0.59621015,-0.27528822,0.558503,0.59408617,-0.25502496,0.533555,0.55476789,-0.21422838,0.50511,0.53709984,-0.18799243,0.495141,0.57804436,-0.17689033,0.505978,0.58084046,-0.13606424,0.501655,0.58498242,-0.11596716,0.499493,0.58896744,-0.097050252,0.497527,0.60786918,-0.18901326,0.512397,0.58704372,-0.17454959,0.478164,0.59609452,-0.20517287,0.495001,0.60035786,-0.22368868,0.512668,0.6336846,-0.20313011,0.519889,0.602185,-0.20761722,0.486983,0.60749956,-0.23256389,0.500792,0.61494408,-0.25352728,0.519595,0.66661282,-0.22791783,0.532973,0.62911326,-0.22738932,0.503816,0.63016775,-0.24463221,0.513881,0.6346306,-0.26209302,0.528046
0.61296413,-0.29307501,0.560002,0.61581297,-0.23595314,0.543167,0.58761722,-0.26639757,0.546943,0.56327813,-0.21615636,0.518677,0.53665932,-0.18045527,0.492694,0.52133943,-0.15396303,0.479633,0.58042507,-0.16788251,0.513136,0.58715288,-0.12743059,0.504496,0.59356906,-0.1083508,0.500176,0.59982089,-0.090482522,0.496249,0.60939856,-0.18188219,0.523212,0.61051502,-0.17948401,0.498126,0.6228349,-0.2113386,0.518097,0.62443505,-0.22612451,0.53344,0.63382847,-0.19707485,0.532878,0.63221671,-0.19557903,0.507442,0.63956691,-0.22104286,0.523769,0.64251471,-0.23246462,0.540563,0.66408978,-0.22230123,0.546968,0.65346725,-0.21648202,0.524009,0.65689047,-0.23525182,0.53617,0.66158565,-0.24487327,0.548965
0.61088629,-0.29049519,0.557228,0.61465337,-0.23579176,0.542245,0.58601396,-0.2638974,0.544382,0.56098901,-0.21551255,0.516073,0.53516931,-0.18022963,0.490468,0.52066623,-0.15404528,0.47799,0.58159788,-0.1684435,0.514007,0.58883414,-0.12810086,0.505503,0.59554886,-0.10910081,0.501251,0.60208334,-0.091300848,0.497385,0.61080777,-0.18259313,0.524483,0.61446061,-0.18116958,0.501142,0.62714673,-0.21328885,0.521507,0.62791293,-0.2277799,0.536342,0.63524905,-0.19786261,0.534327,0.63637278,-0.19741991,0.510803,0.64399536,-0.22307642,0.52747,0.64592744,-0.23410761,0.543626,0.66515518,-0.22306773,0.548343,0.65648034,-0.21802692,0.526639,0.66015652,-0.23692297,0.539074,0.6642578,-0.24630312,0.551534
0.61328696,-0.28802701,0.556737,0.61579638,-0.23504217,0.541619,0.58790479,-0.26296675,0.544765,0.56343995,-0.21635697,0.517367,0.53600946,-0.18119523,0.491067,0.52071229,-0.15501057,0.4782,0.58475214,-0.16808127,0.514348,0.59066272,-0.12769451,0.506237,0.59645062,-0.10808779,0.502182,0.60242399,-0.089927452,0.498496,0.61601797,-0.1807389,0.523699,0.61438197,-0.18088871,0.500245,0.6284732,-0.2130285,0.521114,0.63070089,-0.22937072,0.536149,0.63998526,-0.19540109,0.532628,0.64304244,-0.19848319,0.513651,0.65663722,-0.22472797,0.530985,0.65769495,-0.23534284,0.545573,0.66925562,-0.21987437,0.545578,0.65990195,-0.21646356,0.523966,0.66584906,-0.23646877,0.536734,0.67119586,-0.24549588,0.54929
0.61175088,-0.28591055,0.554512,0.6149797,-0.23381665,0.540124,0.58848685,-0.26007836,0.543243,0.56325769,-0.21616895,0.516756,0.53448276,-0.18108324,0.489721,0.51925825,-0.15507529,0.47665,0.5877688,-0.16659901,0.514324,0.59073057,-0.12678905,0.5057,0.59618696,-0.1071265,0.501389,0.60243286,-0.089586889,0.497469,0.61559448,-0.17973564,0.523069,0.61572467,-0.18019701,0.500326,0.63068217,-0.2124917,0.521674,0.63146066,-0.22765221,0.536601,0.63870869,-0.19412913,0.531439,0.6463022,-0.19884055,0.515296,0.65931782,-0.22543666,0.533141,0.65901939,-0.23563149,0.546788,0.66672221,-0.21817911,0.543612,0.65825665,-0.21565661,0.522638,0.6646606,-0.23578673,0.535728,0.66974558,-0.24469702,0.548186
0.60869484,-0.28539379,0.553258,0.61371833,-0.23315712,0.539577,0.58708651,-0.25850633,0.541949,0.56206932,-0.21548052,0.515555,0.53265456,-0.18021393,0.488105,0.51860551,-0.15455323,0.475462,0.58840658,-0.16639113,0.514312,0.59418994,-0.12524928,0.506507,0.59864869,-0.10471567,0.502604,0.60530967,-0.087249559,0.499057,0.61319823,-0.18083034,0.523359,0.62265425,-0.18224992,0.503776,0.63507308,-0.21451761,0.52535,0.63413815,-0.22874332,0.539205,0.63581517,-0.19552593,0.53192,0.64962942,-0.19981517,0.516568,0.6601177,-0.22671883,0.534481,0.6557582,-0.23609828,0.547836,0.66299682,-0.2198181,0.544211,0.65534026,-0.21705791,0.523693,0.65623239,-0.2360609,0.536836,0.65609245,-0.25177993,0.549154
0.60921489,-0.28327867,0.552817,0.61317776,-0.23283199,0.539475,0.58676369,-0.25762233,0.54165,0.56206685,-0.21532493,0.515479,0.53229956,-0.1799276,0.487819,0.5186828,-0.15435855,0.475141,0.58914067,-0.166404,0.514668,0.5951465,-0.1251723,0.506961,0.59951909,-0.10448734,0.503107,0.60632497,-0.086900623,0.499604,0.6138755,-0.18080817,0.523661,0.62382401,-0.18328071,0.504562,0.6361377,-0.21524124,0.52626,0.63479204,-0.22906304,0.53998,0.63607979,-0.19553497,0.532151,0.65003231,-0.20046763,0.517072,0.66042778,-0.22732872,0.535078,0.65648209,-0.23638817,0.54836,0.66257827,-0.21979751,0.544303,0.65521233,-0.21760734,0.524044,0.65616978,-0.23631037,0.537266,0.6565333,-0.25194912,0.549523
0.61026097,-0.28196643,0.553557,0.61358921,-0.23279922,0.540074,0.58746706,-0.25724468,0.542327,0.56311563,-0.21515153,0.516059,0.53338215,-0.17861508,0.489172,0.52076251,-0.15326526,0.476255,0.58991189,-0.16640095,0.515071,0.5962076,-0.12517223,0.507535,0.60060764,-0.10441713,0.503767,0.60755429,-0.086774492,0.500341,0.6164889,-0.18017708,0.524092,0.62539371,-0.18332996,0.504863,0.63844783,-0.21507419,0.526512,0.6354838,-0.22889796,0.540263,0.63820172,-0.19498358,0.532615,0.65035464,-0.2008715,0.517426,0.6605458,-0.22764006,0.535392,0.65900391,-0.23663399,0.548702,0.66301796,-0.21995286,0.54483,0.65675863,-0.21796914,0.524462,0.6600302,-0.23625704,0.53765,0.66022761,-0.24917517,0.549933
0.61129746,-0.28066792,0.553992,0.61392069,-0.23274628,0.540611,0.5888427,-0.25587208,0.542597,0.56347752,-0.2146966,0.516166,0.53410897,-0.17863359,0.489402,0.52165333,-0.15320874,0.476784,0.59052793,-0.1664214,0.515488,0.59715846,-0.1252456,0.508161,0.60222526,-0.10412098,0.504498,0.60877471,-0.086804299,0.501168,0.61720653,-0.18030853,0.524749,0.62661435,-0.18348087,0.505687,0.64203628,-0.21384836,0.527264,0.63689971,-0.22938416,0.540932,0.63896678,-0.19520141,0.533463,0.65147974,-0.20143583,0.518496,0.6614737,-0.22813269,0.536406,0.65971182,-0.23690462,0.549605,0.663512,-0.22019326,0.545888,0.6591452,-0.21746015,0.52555,0.66130141,-0.23644995,0.538688,0.66165432,-0.24974628,0.55094
0.6109666,-0.27897678,0.554107,0.61454493,-0.23164533,0.541126,0.5895659,-0.25286946,0.542605,0.56306694,-0.21198111,0.51614,0.53584551,-0.17663792,0.491047,0.52362224,-0.15248821,0.477464,0.59144587,-0.1661998,0.516203,0.59900681,-0.12471387,0.509254,0.60387061,-0.10355768,0.505779,0.61039898,-0.086018564,0.502621,0.6183303,-0.18021076,0.525738,0.62902036,-0.18196497,0.507142,0.6435991,-0.213928,0.528709,0.63862714,-0.22952674,0.542204,0.64020318,-0.1951976,0.534645,0.65317709,-0.20222624,0.520186,0.66186949,-0.22931392,0.538091,0.66082261,-0.23716226,0.551082,0.66375996,-0.21968526,0.547238,0.6606749,-0.2174359,0.527143,0.66223906,-0.23451144,0.540273,0.66360817,-0.25011621,0.552437
0.61085824,-0.27714214,0.553921,0.61439224,-0.23115021,0.541045,0.58956665,-0.25243342,0.542684,0.56351787,-0.21164093,0.51653,0.53604969,-0.17633007,0.49087,0.52403115,-0.15213713,0.477425,0.59186223,-0.1658882,0.516536,0.59908928,-0.12429913,0.50946,0.6036852,-0.10304833,0.505923,0.61025027,-0.08550095,0.502707,0.61840769,-0.17978753,0.525782,0.63015623,-0.1785855,0.507206,0.64513123,-0.21043859,0.528923,0.64236729,-0.22758808,0.54246,0.63997098,-0.19466777,0.534442,0.65266335,-0.20197879,0.519916,0.66241014,-0.22851796,0.537942,0.66048572,-0.23671354,0.551008,0.6650628,-0.21811619,0.546725,0.66079394,-0.21660733,0.526759,0.66231261,-0.23352436,0.539994,0.66498311,-0.24842122,0.552153
0.61160959,-0.27665385,0.555245,0.6141253,-0.2303247,0.542209,0.59049202,-0.25194061,0.543854,0.56453561,-0.20920327,0.517498,0.54220249,-0.17089538,0.495135,0.53048841,-0.14815605,0.482299,0.59328233,-0.16433219,0.517377,0.5999641,-0.12298389,0.510033,0.60418124,-0.1025652,0.506361,0.6114604,-0.084695537,0.503023,0.61930831,-0.17774835,0.526756,0.6310167,-0.17836965,0.508061,0.64496737,-0.21007525,0.529681,0.64222565,-0.22507592,0.543229,0.64110506,-0.19308541,0.535538,0.65314114,-0.2022158,0.520943,0.66330218,-0.22881893,0.538889,0.66074133,-0.23739717,0.551952,0.66497735,-0.21695487,0.547992,0.66146512,-0.21680369,0.527884,0.66281091,-0.23368917,0.541051,0.6643779,-0.25028397,0.553233
0.61239701,-0.27613102,0.556576,0.61499459,-0.23019847,0.543074,0.59139601,-0.25139494,0.545019,0.56547149,-0.20881507,0.518389,0.54254524,-0.17100341,0.495448,0.53193444,-0.14744644,0.483239,0.59351382,-0.16394688,0.517652,0.60008352,-0.12254307,0.510207,0.60430813,-0.10216076,0.506484,0.61158195,-0.084318119,0.5031,0.61959815,-0.17739711,0.527069,0.63075686,-0.17806636,0.507933,0.64409615,-0.20963671,0.529411,0.64164626,-0.22419391,0.543074,0.64137884,-0.19276805,0.53592,0.65330512,-0.2021459,0.520931,0.66292682,-0.22868407,0.538762,0.66104337,-0.23748973,0.551938,0.66551695,-0.21669674,0.548527,0.66114776,-0.21668197,0.528073,0.66239086,-0.23353381,0.541142,0.66411596,-0.25048569,0.553408
0.61047521,-0.27465302,0.556143,0.61401971,-0.22704409,0.543062,0.58977198,-0.25001547,0.544525,0.56405482,-0.20536276,0.517912,0.54043279,-0.1693346,0.494171,0.53307437,-0.14443808,0.483641,0.58879299,-0.15863881,0.517913,0.5940551,-0.11676937,0.509957,0.59792649,-0.095597083,0.505979,0.60878515,-0.080757774,0.502362,0.61511016,-0.17216799,0.527557,0.63094754,-0.16849682,0.508895,0.64409627,-0.2000245,0.530387,0.6413134,-0.21158501,0.543884,0.63641849,-0.18674085,0.53656,0.65096837,-0.20029656,0.522072,0.66165413,-0.22726196,0.539918,0.6611879,-0.23760375,0.552898,0.66125001,-0.21066697,0.549284,0.65478686,-0.21139538,0.529097,0.65983332,-0.23163778,0.542176,0.66459644,-0.2479106,0.554352
0.61121732,-0.27332817,0.557696,0.61263469,-0.21357348,0.542334,0.59096085,-0.24633447,0.547025,0.56720221,-0.20273106,0.52103,0.53968627,-0.1682599,0.493147,0.53266549,-0.14371639,0.482568,0.5852452,-0.14869935,0.516465,0.59809416,-0.10878086,0.509729,0.6048621,-0.088184728,0.506361,0.61173497,-0.069256338,0.5033,0.61272508,-0.16036064,0.524125,0.6157888,-0.16254957,0.502717,0.63488318,-0.19683888,0.524332,0.63525203,-0.20942793,0.53886,0.63534826,-0.17356176,0.531682,0.63737298,-0.17942156,0.514098,0.64927297,-0.20442195,0.532017,0.64725146,-0.21887973,0.546275,0.66237251,-0.19615937,0.543037,0.64911988,-0.19794326,0.521576,0.65490069,-0.2173507,0.534749,0.66101974,-0.2352376,0.547409
0.61252698,-0.27201087,0.558883,0.6133215,-0.21381291,0.542942,0.59177435,-0.24536804,0.547978,0.56828921,-0.20235803,0.521618,0.54022611,-0.16792262,0.493435,0.53257968,-0.14332574,0.482068,0.58506502,-0.14865357,0.516306,0.59796392,-0.10875718,0.509618,0.60475817,-0.088169576,0.506274,0.61165475,-0.069247256,0.503234,0.6126339,-0.16033678,0.524047,0.61504159,-0.16235233,0.502107,0.63327272,-0.19623105,0.523514,0.63439287,-0.20909238,0.53817,0.63539128,-0.17357351,0.531718,0.63684111,-0.17927184,0.513669,0.64854439,-0.20419255,0.53142,0.64668747,-0.218689,0.545799,0.66269087,-0.19625365,0.543298,0.64890831,-0.19787874,0.521406,0.65451736,-0.21722348,0.534436,0.66075891,-0.23514478,0.547193
0.61360474,-0.26838294,0.560158,0.61243423,-0.21266903,0.543115,0.59223005,-0.24243149,0.549925,0.57129287,-0.20305471,0.524155,0.54230072,-0.16671534,0.495965,0.53375428,-0.14322287,0.483681,0.57825861,-0.14495474,0.516395,0.59611268,-0.10810632,0.509286,0.60313322,-0.087764693,0.505732,0.61038713,-0.069289016,0.5025,0.60681646,-0.15629486,0.522913,0.6000055,-0.15751103,0.499614,0.6185993,-0.19055142,0.521045,0.62413019,-0.20663217,0.5362,0.63221667,-0.17172558,0.529668,0.62623743,-0.1686835,0.510018,0.63730518,-0.1927633,0.52777,0.63799011,-0.21028881,0.542796,0.65939706,-0.19415596,0.540328,0.64280613,-0.19110333,0.517913,0.65114903,-0.21448647,0.530972,0.65901664,-0.23281805,0.543925
0.61363402,-0.26826874,0.560029,0.61148397,-0.21184324,0.542775,0.59258432,-0.24175573,0.550662,0.57260605,-0.20359542,0.525877,0.54148535,-0.16737277,0.497906,0.53188962,-0.14229108,0.485532,0.57682782,-0.14528521,0.516947,0.59117727,-0.10693716,0.50982,0.59882727,-0.086987479,0.506256,0.60905791,-0.069098728,0.503017,0.60454827,-0.15543884,0.522322,0.59663775,-0.15683353,0.498557,0.61585183,-0.18993964,0.520204,0.62198317,-0.20628598,0.535596,0.62788143,-0.16753159,0.528154,0.62154108,-0.16747835,0.507745,0.63351216,-0.19188961,0.525657,0.63522582,-0.20990177,0.541054,0.65665632,-0.189109,0.537749,0.63891553,-0.18842907,0.51545,0.64937878,-0.20922968,0.528674,0.65701754,-0.23058949,0.541649
0.60652222,-0.26301023,0.553647,0.61093096,-0.2110354,0.542769,0.58693685,-0.23618514,0.546864,0.57296411,-0.20246111,0.526241,0.54880266,-0.16845286,0.505883,0.54270774,-0.14424151,0.497514,0.5858372,-0.14688059,0.525404,0.59185322,-0.10624543,0.510266,0.59786273,-0.086492639,0.503237,0.60165056,-0.06792868,0.496847,0.61294793,-0.15679866,0.529875,0.61264466,-0.15996925,0.512084,0.63401965,-0.1944217,0.535685,0.64084878,-0.21180015,0.552084,0.63507842,-0.16856348,0.534443,0.63497656,-0.17110572,0.51925,0.64864857,-0.19663381,0.538749,0.65166838,-0.21554408,0.555621,0.66107958,-0.18941214,0.541551,0.64926376,-0.19088205,0.524112,0.66103726,-0.21240577,0.538698,0.66968211,-0.23396668,0.552069
0.6024285,-0.25936343,0.550018,0.60534313,-0.20869676,0.538126,0.58517951,-0.23500954,0.5456,0.57433926,-0.20266591,0.527755,0.54029414,-0.16532726,0.498288,0.52988644,-0.14027422,0.486097,0.58276041,-0.14577234,0.522836,0.58557339,-0.10471492,0.504784,0.58876179,-0.084838213,0.495759,0.59043766,-0.066446767,0.487553,0.60601432,-0.15462765,0.524028,0.60363111,-0.15708507,0.504625,0.62522465,-0.19116862,0.528321,0.62990601,-0.2078161,0.542777,0.62488379,-0.16541863,0.52598,0.62134248,-0.16743524,0.508361,0.63525673,-0.19265251,0.527888,0.63631138,-0.21056715,0.542803,0.64703612,-0.18491164,0.530135,0.63513308,-0.18643356,0.512859,0.64706963,-0.20763258,0.527577,0.65428688,-0.22789082,0.539364
0.60648436,-0.25879665,0.553595,0.60517379,-0.20630203,0.538679,0.58715694,-0.23336829,0.54738,0.56788898,-0.19426038,0.526797,0.53510669,-0.15932388,0.497627,0.52526575,-0.13656483,0.48444,0.57753135,-0.14308735,0.518671,0.57783609,-0.10068856,0.497707,0.59009075,-0.082028427,0.497343,0.60233303,-0.067560957,0.497012,0.6019796,-0.15186716,0.520996,0.59995356,-0.14692938,0.498853,0.62235131,-0.17875422,0.521684,0.62376135,-0.20406238,0.53686,0.62225668,-0.16270308,0.524128,0.61692079,-0.1630326,0.504323,0.63308123,-0.18777491,0.523159,0.63297584,-0.20867899,0.538681,0.64686843,-0.18249193,0.530152,0.6359265,-0.17511685,0.510335,0.64690446,-0.19618961,0.524426,0.65284051,-0.22061837,0.536865
0.60665017,-0.25666977,0.553342,0.60511751,-0.20551031,0.538341,0.58712704,-0.23267706,0.547104,0.56754617,-0.19414312,0.526479,0.53475076,-0.15921791,0.497296,0.52348837,-0.13569069,0.483596,0.57723327,-0.14224913,0.518234,0.57736686,-0.099884365,0.4972,0.58971946,-0.081325052,0.496804,0.60197451,-0.067352133,0.496443,0.60157436,-0.15101941,0.520557,0.59932697,-0.14677593,0.498332,0.62169995,-0.17856714,0.521138,0.6236366,-0.20286565,0.536336,0.6217839,-0.16184188,0.523695,0.61678502,-0.16190948,0.503813,0.6328905,-0.18647671,0.522629,0.63338504,-0.2082884,0.538174,0.64636608,-0.18160728,0.529738,0.63533336,-0.17495351,0.509859,0.64629756,-0.19600555,0.523934,0.65301453,-0.21903852,0.536387
0.60765415,-0.2554843,0.553462,0.60626687,-0.20736581,0.538271,0.58759365,-0.23427665,0.546822,0.57287424,-0.20390139,0.525666,0.53560338,-0.16992173,0.494525,0.51674938,-0.14370959,0.477575,0.57799656,-0.14443477,0.517512,0.57607603,-0.10305559,0.496163,0.58912267,-0.084798905,0.495991,0.60104686,-0.06841771,0.495835,0.6021408,-0.15370277,0.520263,0.60097875,-0.15590103,0.497934,0.62786735,-0.18765981,0.520647,0.62386163,-0.20546194,0.535854,0.6226144,-0.16474684,0.523768,0.62064699,-0.16707752,0.503914,0.63434711,-0.19211277,0.522661,0.64085425,-0.21527172,0.538167,0.64748311,-0.18479309,0.530276,0.63940455,-0.18180287,0.51014,0.64668321,-0.20436726,0.524142,0.65438108,-0.22157694,0.536658
0.60882926,-0.25464378,0.553316,0.6055185,-0.20869244,0.537115,0.58691211,-0.23311791,0.545562,0.57051513,-0.20515841,0.52288,0.53346395,-0.17028554,0.491637,0.51434486,-0.14425422,0.475584,0.57665619,-0.14616278,0.514146,0.57092725,-0.10233558,0.491587,0.58270037,-0.084260514,0.491593,0.59773333,-0.067655771,0.491598,0.59985696,-0.15336772,0.517909,0.5986575,-0.15503231,0.494806,0.624596,-0.18723364,0.51709,0.62905096,-0.2062881,0.532441,0.62128442,-0.16450893,0.522329,0.61950051,-0.16699726,0.502059,0.63587212,-0.19328025,0.520469,0.63934495,-0.21528131,0.536008,0.64761037,-0.18477459,0.530082,0.63868238,-0.18188451,0.508943,0.64558743,-0.20487627,0.52263,0.65354752,-0.22346217,0.535376
0.60956043,-0.25731858,0.553164,0.6085907,-0.2199592,0.535213,0.59061041,-0.23949152,0.544401,0.56903451,-0.21567954,0.520244,0.53198869,-0.18081073,0.48896,0.51219752,-0.15467439,0.473433,0.57228099,-0.15526315,0.509552,0.56490957,-0.11149297,0.485267,0.57633358,-0.092898747,0.485139,0.58978436,-0.078845824,0.485023,0.59797106,-0.16351341,0.513934,0.5954795,-0.16334475,0.489292,0.61873227,-0.19623586,0.510897,0.62377908,-0.21539972,0.526592,0.61977792,-0.17405864,0.519005,0.61676436,-0.17638632,0.497504,0.63121119,-0.20242237,0.515366,0.63523531,-0.22466761,0.531184,0.6472249,-0.19380469,0.527802,0.63546099,-0.19086446,0.505259,0.64555922,-0.21180664,0.518471,0.65194637,-0.2283307,0.531528
0.60873206,-0.25973049,0.549638,0.6057059,-0.22059398,0.533001,0.58948011,-0.24240827,0.542253,0.56812976,-0.21626671,0.519964,0.52948209,-0.1802933,0.489446,0.51075357,-0.15476065,0.476291,0.57199566,-0.15684766,0.510126,0.56619478,-0.11347384,0.487406,0.57631252,-0.094561493,0.486476,0.58843304,-0.080561297,0.485631,0.59673027,-0.16494578,0.51328,0.59378261,-0.16527698,0.489641,0.61813381,-0.19836963,0.511864,0.62364791,-0.21786427,0.52739,0.61761538,-0.17530379,0.517234,0.61431162,-0.1768056,0.496296,0.6292118,-0.20321893,0.514647,0.63404698,-0.2260458,0.530432,0.64372767,-0.19470589,0.524499,0.63214761,-0.19196651,0.503214,0.64319174,-0.21313414,0.516872,0.65342796,-0.23237171,0.529658
0.60909864,-0.26212285,0.548246,0.60440194,-0.22065144,0.532117,0.58802556,-0.24337773,0.541049,0.56678491,-0.2162277,0.519065,0.52880081,-0.18039902,0.488853,0.51044374,-0.15488951,0.475956,0.57106238,-0.15719491,0.509895,0.56682422,-0.1146321,0.487625,0.57612221,-0.097339358,0.485888,0.58779695,-0.081826336,0.484308,0.59590332,-0.16526829,0.512997,0.59300465,-0.16582437,0.489834,0.61792439,-0.19891053,0.512224,0.62364957,-0.21873571,0.527631,0.61685592,-0.17559532,0.516867,0.61378955,-0.17691479,0.496351,0.62884674,-0.20348585,0.514838,0.63387522,-0.22650777,0.530508,0.64299902,-0.19494112,0.523955,0.63146545,-0.19228216,0.503047,0.64282135,-0.21352972,0.51682,0.6531591,-0.23278964,0.529519
0.60932086,-0.27038437,0.546,0.60177691,-0.22270307,0.529685,0.58533149,-0.24930088,0.537958,0.56425049,-0.22322654,0.514907,0.52376482,-0.1870657,0.48542,0.5050805,-0.16239767,0.474461,0.56501901,-0.16331458,0.506268,0.56275663,-0.12237925,0.483763,0.57297409,-0.1046658,0.481495,0.58347897,-0.086200874,0.479434,0.59130697,-0.17078153,0.510346,0.58886797,-0.17131359,0.487198,0.614523,-0.20187703,0.509399,0.62049345,-0.22112465,0.524741,0.61433215,-0.17853172,0.515034,0.61137385,-0.17834456,0.494814,0.62656598,-0.20517469,0.513161,0.63224578,-0.2286929,0.528655,0.64217314,-0.19716151,0.523123,0.62984237,-0.19428537,0.501944,0.64155662,-0.21560377,0.515597,0.65252391,-0.23505057,0.528345
0.60423074,-0.27028587,0.541979,0.59684565,-0.22714317,0.525916,0.58136605,-0.2494322,0.534908,0.5631724,-0.22678138,0.513089,0.5209583,-0.18708756,0.48367,0.50279626,-0.16226671,0.473216,0.56210304,-0.16380617,0.503904,0.56245161,-0.12717354,0.48178,0.5724368,-0.10984646,0.478663,0.58039042,-0.090605689,0.475829,0.58691874,-0.17199869,0.506875,0.58429855,-0.17071114,0.48375,0.61051135,-0.20408611,0.506176,0.61763268,-0.22542576,0.52158,0.60749695,-0.18567889,0.510632,0.60574851,-0.18136344,0.490113,0.62214971,-0.20861134,0.508627,0.62934257,-0.23302711,0.524308,0.63380879,-0.20614553,0.517575,0.62241652,-0.20145948,0.49675,0.63570943,-0.22338866,0.51055,0.64794609,-0.24344574,0.52323
