sluyters/QuantumLeap/backend/src/datasets/dynamic/HandGestureDataset_SHREC2017_csv/Gesture13/finger_1/subject_10_essai_2_skeletons_world.csv
Wrist_x,Wrist_y,Wrist_z,Palm_x,Palm_y,Palm_z,thumb_base_x,thumb_base_y,thumb_base_z,thumb_first_joint_x,thumb_first_joint_y,thumb_first_joint_z,thumb_second_joint_x,thumb_second_joint_y,thumb_second_joint_z,thumb_tip_x,thumb_tip_y,thumb_tip_z,index_base_x,index_base_y,index_base_z,index_first_joint_x,index_first_joint_y,index_first_joint_z,index_second_joint_x,index_second_joint_y,index_second_joint_z,index_tip_x,index_tip_y,index_tip_z,middle_base_x,middle_base_y,middle_base_z,middle_first_joint_x,middle_first_joint_y,middle_first_joint_z,middle_second_joint_x,middle_second_joint_y,middle_second_joint_z,middle_tip_x,middle_tip_y,middle_tip_z,ring_base_x,ring_base_y,ring_base_z,ring_first_joint_x,ring_first_joint_y,ring_first_joint_z,ring_second_joint_x,ring_second_joint_y,ring_second_joint_z,ring_tip_x,ring_tip_y,ring_tip_z,pinky_base_x,pinky_base_y,pinky_base_z,pinky_first_joint_x,pinky_first_joint_y,pinky_first_joint_z,pinky_second_joint_x,pinky_second_joint_y,pinky_second_joint_z,pinky_tip_x,pinky_tip_y,pinky_tip_z,
0.4273238,-0.38618572,0.493921,0.41647858,-0.31545399,0.471655,0.40213189,-0.35621148,0.484582,0.35873597,-0.31718714,0.4596,0.32088131,-0.28974049,0.439072,0.30219888,-0.26556853,0.428411,0.3756766,-0.25062451,0.444206,0.36639967,-0.21309306,0.440205,0.3616547,-0.19369228,0.438204,0.35727576,-0.17566376,0.436385,0.4020572,-0.25706631,0.448086,0.38552141,-0.21949677,0.418415,0.36698465,-0.2309742,0.401108,0.35197663,-0.24106816,0.388745,0.42521619,-0.26643595,0.452927,0.40072444,-0.26509432,0.42468,0.37802282,-0.27258935,0.410228,0.37731251,-0.28079665,0.415755,0.455561,-0.28559853,0.461835,0.43570136,-0.25329946,0.436616,0.42560222,-0.24062162,0.425029,0.41797031,-0.24047725,0.414805
0.42670807,-0.37316321,0.492306,0.41506613,-0.30562593,0.470661,0.40177837,-0.34581635,0.483335,0.35681949,-0.3083432,0.458868,0.31826865,-0.27966147,0.438007,0.29754601,-0.25560065,0.426615,0.37530828,-0.24144594,0.444108,0.36421114,-0.20409027,0.439404,0.35867207,-0.18518575,0.437052,0.35485538,-0.17144636,0.434914,0.40138802,-0.24783921,0.447748,0.38506286,-0.21034669,0.418667,0.36362816,-0.22013584,0.401702,0.35071832,-0.23294031,0.389585,0.42425413,-0.25712183,0.452346,0.40309983,-0.24820011,0.424703,0.38106605,-0.25848139,0.41056,0.38017473,-0.27015608,0.416451,0.45418277,-0.27610551,0.460877,0.43511639,-0.24320233,0.436141,0.42638866,-0.22841885,0.424776,0.41746087,-0.22930008,0.414748
0.42662689,-0.36549592,0.493492,0.40945507,-0.30013757,0.472893,0.39938396,-0.33924702,0.484935,0.35057805,-0.30089097,0.461089,0.31412778,-0.27272106,0.442143,0.29431224,-0.24928253,0.431838,0.36957173,-0.23745143,0.447601,0.35909061,-0.20078575,0.445093,0.35368647,-0.18176265,0.44384,0.34867176,-0.16404378,0.4427,0.39550773,-0.2430238,0.451088,0.37922045,-0.20519752,0.42298,0.3616215,-0.21787758,0.406584,0.34750566,-0.22868141,0.394872,0.41825923,-0.25156111,0.455483,0.39804488,-0.24203281,0.428762,0.37827347,-0.25360925,0.415091,0.378761,-0.26637448,0.421522,0.44809264,-0.26952698,0.463624,0.42978779,-0.23667288,0.439641,0.42140443,-0.22181465,0.428621,0.41274235,-0.22248682,0.418898
0.42274687,-0.35786629,0.493906,0.40576042,-0.29450628,0.476825,0.39320031,-0.33251422,0.485124,0.34387462,-0.29266283,0.461448,0.30862026,-0.26547304,0.44635,0.29048101,-0.24443244,0.439594,0.36660702,-0.23410503,0.453781,0.35636108,-0.19748027,0.451114,0.35107175,-0.17844477,0.44978,0.34616154,-0.16069414,0.448568,0.39366414,-0.23985037,0.458744,0.38011011,-0.20197978,0.433743,0.36612921,-0.21587817,0.41916,0.35428426,-0.22793399,0.408743,0.41724176,-0.24835211,0.464092,0.40119923,-0.23743228,0.439706,0.38427197,-0.25098483,0.427229,0.38598462,-0.26593157,0.434876,0.4478648,-0.26594786,0.472873,0.42272157,-0.22577608,0.450923,0.41526898,-0.21616815,0.440838,0.41195148,-0.22120232,0.43194
0.42265433,-0.35215142,0.498331,0.40494623,-0.28549487,0.47921,0.39502628,-0.32812302,0.491408,0.34872996,-0.29104916,0.469805,0.31117437,-0.2662901,0.451657,0.29120431,-0.24427271,0.442503,0.36304387,-0.22760848,0.456984,0.33689036,-0.18539912,0.433174,0.33267576,-0.16887114,0.43277,0.32889759,-0.15408072,0.432404,0.3879007,-0.22990869,0.45897,0.36799895,-0.2049499,0.432419,0.35284768,-0.22139965,0.41693,0.35697443,-0.2419497,0.423967,0.40989349,-0.23559871,0.46202,0.38808499,-0.23200489,0.437167,0.37101185,-0.24535789,0.424452,0.37412195,-0.25719988,0.431886,0.43914057,-0.24984136,0.46835,0.41295801,-0.21777737,0.445827,0.40565229,-0.21760488,0.435479,0.40148923,-0.22603894,0.426348
0.42072059,-0.34316509,0.499328,0.4008297,-0.27732305,0.480818,0.39368301,-0.3198921,0.492361,0.34408418,-0.28404215,0.470761,0.30486971,-0.25727674,0.451531,0.28638089,-0.23853499,0.440636,0.35701147,-0.22118472,0.458976,0.32963325,-0.17732502,0.435708,0.32638722,-0.16086658,0.437892,0.32320323,-0.14508221,0.439876,0.38202827,-0.22255231,0.461224,0.36532796,-0.19904421,0.435203,0.35229759,-0.21613775,0.420024,0.35842733,-0.24062612,0.427307,0.40415413,-0.22738319,0.464445,0.38810863,-0.21503099,0.439986,0.372703,-0.22928439,0.427473,0.37491038,-0.24398191,0.435134,0.43367378,-0.24038819,0.470892,0.40851583,-0.21192638,0.448711,0.40401645,-0.21254014,0.43852,0.40555793,-0.22268255,0.429528
0.41627388,-0.33504345,0.497916,0.39740978,-0.27695779,0.480825,0.38979943,-0.31752239,0.491254,0.34182856,-0.28164138,0.470205,0.30378816,-0.25004902,0.451059,0.28559943,-0.22640052,0.438706,0.35181126,-0.22150579,0.460378,0.32508888,-0.17747803,0.438154,0.32213655,-0.16145527,0.440628,0.3224084,-0.14625897,0.442878,0.37681004,-0.22298682,0.462734,0.35989644,-0.20300643,0.438023,0.3472618,-0.22084764,0.423609,0.35649714,-0.24087387,0.431495,0.39884957,-0.22782909,0.465938,0.38269437,-0.21372578,0.442625,0.36796017,-0.22818898,0.430697,0.37465808,-0.24513361,0.438964,0.42811641,-0.24070993,0.472165,0.40428915,-0.21537797,0.450943,0.40049727,-0.21747557,0.441193,0.40409539,-0.22569949,0.432589
0.40672056,-0.32318836,0.491061,0.39274198,-0.26866981,0.484597,0.38287491,-0.30906911,0.487802,0.34010314,-0.27862358,0.472736,0.30327804,-0.25398362,0.460547,0.28344635,-0.23431726,0.453206,0.35630398,-0.221295,0.475956,0.3367248,-0.18065789,0.462639,0.33168155,-0.16235047,0.462743,0.32758776,-0.14530103,0.463814,0.38147549,-0.220629,0.477755,0.37159017,-0.20788883,0.46338,0.36600546,-0.23065247,0.454994,0.37866216,-0.25835793,0.466904,0.40318476,-0.22339951,0.479714,0.39391502,-0.22171568,0.465884,0.38478624,-0.24033019,0.458809,0.39533981,-0.25984919,0.47123,0.4309311,-0.23312895,0.482959,0.41469996,-0.21928483,0.469672,0.4130587,-0.225698,0.463567,0.41959812,-0.23852832,0.459001
0.40176366,-0.31587276,0.490106,0.38740472,-0.26229163,0.486444,0.37737185,-0.30256967,0.486479,0.33189198,-0.26942841,0.472331,0.29457031,-0.24613202,0.457642,0.27430664,-0.22728274,0.450589,0.34988401,-0.21746813,0.479363,0.32961768,-0.17724683,0.46764,0.32238497,-0.15824727,0.466154,0.31668731,-0.14090111,0.466365,0.37587126,-0.21647136,0.482568,0.37117931,-0.19867014,0.470803,0.36857607,-0.22226533,0.463939,0.37891259,-0.24589369,0.47658,0.39820887,-0.218803,0.485476,0.39411277,-0.21603802,0.473562,0.3878563,-0.23525393,0.467467,0.39536373,-0.25447031,0.480491,0.42667742,-0.22767095,0.489458,0.41514936,-0.21339291,0.477889,0.41560051,-0.21859938,0.472574,0.42001312,-0.23092126,0.469624
0.41421671,-0.31763632,0.506744,0.38249365,-0.2559068,0.47963,0.38357085,-0.30156918,0.496452,0.33161845,-0.26756063,0.471219,0.29274398,-0.24475026,0.455888,0.27204357,-0.22615575,0.448528,0.32538861,-0.19845219,0.447531,0.31409515,-0.16410599,0.452555,0.30826488,-0.14644099,0.455067,0.30284648,-0.1300851,0.457351,0.35088786,-0.19628154,0.450929,0.32973429,-0.18581274,0.417018,0.34818487,-0.21996435,0.434473,0.35974109,-0.23435158,0.452218,0.37435434,-0.19832403,0.455733,0.35506234,-0.19147818,0.423831,0.3689604,-0.21977598,0.43824,0.3791463,-0.23981474,0.456878,0.40722925,-0.2082101,0.465279,0.38213381,-0.20427965,0.437044,0.37035748,-0.21392547,0.424071,0.37155729,-0.22329566,0.42565
0.40675576,-0.30868914,0.503667,0.37294369,-0.24571594,0.478903,0.37845452,-0.29471372,0.496307,0.32362233,-0.25936451,0.476557,0.28471363,-0.23640365,0.460639,0.26273244,-0.21597499,0.450299,0.32245497,-0.19143175,0.452091,0.30604564,-0.15553103,0.45171,0.29763294,-0.13712057,0.451519,0.289787,-0.12205058,0.451346,0.34590511,-0.18964325,0.45269,0.32057203,-0.18841435,0.421238,0.33697958,-0.22100674,0.440196,0.35130614,-0.23144755,0.457523,0.36733863,-0.19195507,0.455017,0.34634198,-0.18925028,0.426197,0.36537216,-0.21736735,0.441889,0.38401086,-0.23718059,0.459794,0.39714822,-0.20209594,0.461282,0.36978162,-0.19941546,0.43542,0.36355354,-0.20941462,0.423537,0.37140564,-0.22123645,0.426442
0.39791073,-0.30106224,0.506581,0.36749395,-0.24092663,0.480583,0.36949859,-0.28596815,0.498689,0.31766756,-0.25428795,0.477539,0.27849366,-0.23117896,0.461122,0.25677679,-0.21104813,0.451105,0.31609511,-0.18637231,0.45223,0.29925446,-0.1504218,0.451473,0.2904029,-0.13229971,0.451095,0.28617015,-0.12073634,0.450751,0.33960243,-0.18456522,0.453063,0.31280066,-0.17579625,0.420484,0.3285038,-0.20915042,0.438796,0.3431702,-0.22268307,0.456329,0.36116145,-0.18687067,0.455674,0.33663296,-0.17639102,0.425148,0.35477341,-0.20341024,0.440271,0.37373122,-0.22436053,0.458638,0.39128124,-0.1970335,0.46245,0.36312653,-0.19373421,0.435714,0.35679395,-0.20362647,0.423429,0.36348737,-0.21280992,0.425806
0.3923322,-0.296069,0.503062,0.35902127,-0.2337405,0.477556,0.36429181,-0.28150725,0.495586,0.31194236,-0.24831134,0.476026,0.27241358,-0.22443592,0.458207,0.25299696,-0.20701425,0.448293,0.30750527,-0.18077195,0.450069,0.28944815,-0.1452299,0.449133,0.27983378,-0.1275903,0.448665,0.27209432,-0.11642713,0.44824,0.33056318,-0.17814476,0.450558,0.30339847,-0.1687995,0.41847,0.31990524,-0.20211736,0.437045,0.33498192,-0.21586459,0.454483,0.35178953,-0.17971096,0.45285,0.32680082,-0.16863067,0.422724,0.34530232,-0.19518558,0.438061,0.36479847,-0.21617614,0.456352,0.38159552,-0.18886642,0.459176,0.3529642,-0.18223346,0.432872,0.34713596,-0.19223039,0.420786,0.35453502,-0.20267994,0.423398
0.39103077,-0.29451938,0.503458,0.35874178,-0.2331797,0.477689,0.36013234,-0.27753327,0.495775,0.31136629,-0.24752388,0.475735,0.27174893,-0.22372513,0.458367,0.24985582,-0.20338618,0.447948,0.3069345,-0.18005609,0.449758,0.28895552,-0.14456595,0.448932,0.2793729,-0.12693948,0.448518,0.27165338,-0.1157718,0.448143,0.33009609,-0.17749246,0.450413,0.30273629,-0.16802821,0.418065,0.31912802,-0.20124063,0.436501,0.33423901,-0.21500516,0.453989,0.35143324,-0.17911443,0.45286,0.32623846,-0.16791867,0.422478,0.34462893,-0.1943834,0.4377,0.36416391,-0.21538632,0.456048,0.3814177,-0.18835054,0.459408,0.35242802,-0.18024587,0.432879,0.34638982,-0.19013766,0.42069,0.35365961,-0.20094717,0.423178
0.39017701,-0.29353381,0.503605,0.35846387,-0.23292474,0.477525,0.35962924,-0.27696608,0.495894,0.31110509,-0.24740303,0.475576,0.2712701,-0.22360781,0.458101,0.25102147,-0.20510146,0.448211,0.30642029,-0.17969144,0.449336,0.28843594,-0.14422189,0.448606,0.27890497,-0.12645129,0.448241,0.27088586,-0.1144149,0.44791,0.32954443,-0.17709575,0.449918,0.30206833,-0.1679076,0.41731,0.31834831,-0.20099351,0.435579,0.33346259,-0.21461459,0.453108,0.35086453,-0.17870211,0.452329,0.32552574,-0.16775961,0.421675,0.34381552,-0.19420192,0.436756,0.36336831,-0.21508331,0.455159,0.38085772,-0.18793706,0.458879,0.35172412,-0.1796081,0.432175,0.3455834,-0.1894678,0.419905,0.35272418,-0.20027028,0.422271
0.38429986,-0.28997839,0.502367,0.35504361,-0.23143291,0.476671,0.3545077,-0.27397313,0.494751,0.29762772,-0.24134336,0.471822,0.25970861,-0.21852385,0.457963,0.2397566,-0.1992558,0.449823,0.30414177,-0.17686576,0.448875,0.28474227,-0.14135281,0.446897,0.27624927,-0.12465636,0.445908,0.26548141,-0.10759351,0.445008,0.32834389,-0.17617191,0.449471,0.30168339,-0.16783494,0.417197,0.31815429,-0.20100804,0.435672,0.33306084,-0.21461789,0.453146,0.34960229,-0.1781747,0.451865,0.32503942,-0.16759496,0.421383,0.34347319,-0.19407248,0.436627,0.36283157,-0.21504667,0.455025,0.37931285,-0.18787775,0.458341,0.35075082,-0.17931482,0.431878,0.34499027,-0.18909999,0.419719,0.35235305,-0.20002413,0.422243
0.38231228,-0.28925393,0.502134,0.34855711,-0.2298313,0.475532,0.35228302,-0.27312413,0.494028,0.29676664,-0.24261522,0.470423,0.2565919,-0.22271155,0.451411,0.23372233,-0.20251307,0.440128,0.29919133,-0.17442466,0.446484,0.27842787,-0.13890408,0.443582,0.26773273,-0.1205719,0.44213,0.25781921,-0.10355703,0.440811,0.32288368,-0.17353947,0.447374,0.29817763,-0.17338432,0.41426,0.31539031,-0.20157836,0.43224,0.33004697,-0.21367887,0.449862,0.34436271,-0.17661203,0.450076,0.32267836,-0.16699396,0.418975,0.3408314,-0.19324798,0.43382,0.36012337,-0.21417009,0.452309,0.37397887,-0.18767825,0.457046,0.34787602,-0.17717237,0.429907,0.34190951,-0.18641626,0.417438,0.34944329,-0.19823261,0.419556
0.37875748,-0.28635163,0.494895,0.3496275,-0.22928171,0.470879,0.3510642,-0.27227467,0.490053,0.30292658,-0.25243944,0.471005,0.26262949,-0.23409581,0.456565,0.2402403,-0.21634235,0.448283,0.29396525,-0.18380669,0.447693,0.27283273,-0.14536422,0.442411,0.26229162,-0.12613649,0.439832,0.25116414,-0.11131764,0.437487,0.31556672,-0.17845921,0.445457,0.2898726,-0.17876985,0.414228,0.30979798,-0.21155926,0.433253,0.32749241,-0.21956088,0.451444,0.33562752,-0.1776955,0.445397,0.31161738,-0.17747677,0.415778,0.32976618,-0.20480802,0.43147,0.34773202,-0.21745164,0.450389,0.36400716,-0.18377378,0.44871,0.33606221,-0.18658471,0.424364,0.31871098,-0.19523927,0.413178,0.31867134,-0.2011371,0.416534
0.37678752,-0.28676366,0.496683,0.34465386,-0.23473662,0.471364,0.34929026,-0.27314943,0.491543,0.29392194,-0.25206145,0.47206,0.25582204,-0.22981724,0.458232,0.23727276,-0.208163,0.449456,0.29385158,-0.1837103,0.446878,0.27129229,-0.14381028,0.437534,0.26191512,-0.12351647,0.432862,0.24935143,-0.10755492,0.429648,0.31554469,-0.17987688,0.444563,0.28801175,-0.178708,0.412161,0.30517182,-0.21139598,0.4305,0.32088792,-0.2228079,0.448353,0.33604407,-0.18358708,0.444534,0.31145033,-0.18581321,0.413824,0.32889219,-0.21371472,0.42895,0.34752502,-0.22884284,0.447655,0.36354053,-0.19328459,0.448069,0.33484688,-0.18797917,0.422911,0.31940896,-0.19985496,0.411352,0.32050539,-0.20864467,0.414179
0.37527335,-0.28721429,0.495614,0.34211736,-0.23859875,0.470372,0.3491774,-0.27430963,0.490399,0.29414786,-0.25385077,0.470808,0.2591382,-0.23437863,0.455576,0.23702964,-0.21378322,0.448335,0.29322467,-0.18450548,0.445848,0.26885747,-0.14441271,0.432711,0.25513088,-0.12619119,0.426142,0.24602164,-0.10634832,0.422119,0.31545933,-0.18244873,0.443653,0.28797058,-0.17896718,0.411332,0.30471984,-0.21190548,0.429735,0.32007389,-0.22373643,0.447469,0.33547967,-0.18398405,0.443716,0.31207558,-0.18558622,0.413118,0.33005577,-0.21345951,0.428299,0.34838713,-0.22874262,0.446833,0.36322588,-0.19318689,0.44735,0.33499065,-0.18822221,0.422195,0.32029958,-0.19949566,0.410637,0.3213708,-0.20853694,0.413494
0.3754343,-0.28885863,0.496071,0.34237771,-0.24048809,0.465559,0.34898012,-0.27601569,0.488274,0.29434264,-0.25942624,0.465467,0.2535977,-0.23871862,0.449277,0.2336154,-0.21525983,0.441409,0.29252745,-0.18664044,0.434084,0.27113141,-0.1476993,0.427767,0.26040734,-0.12817409,0.424608,0.24742865,-0.10764466,0.421737,0.31566797,-0.18510945,0.433263,0.28652145,-0.18431575,0.396553,0.29946089,-0.2149371,0.411952,0.31411877,-0.22613091,0.430063,0.33690417,-0.18782701,0.434846,0.31163853,-0.19025562,0.400643,0.32768798,-0.21672921,0.413372,0.34579851,-0.23100272,0.432268,0.36661877,-0.19876168,0.441036,0.33725828,-0.195369,0.412106,0.3202151,-0.20399242,0.398814,0.31842826,-0.2106655,0.399273
0.36726,-0.29650821,0.490327,0.34313429,-0.24565461,0.46191,0.34093555,-0.28430468,0.48246,0.29332821,-0.26529997,0.459384,0.25186369,-0.24352775,0.441146,0.2283869,-0.22418417,0.429191,0.29036176,-0.19482747,0.431854,0.27268268,-0.15423041,0.425002,0.26301026,-0.13516008,0.421576,0.25401669,-0.11734586,0.418461,0.31402682,-0.192743,0.431831,0.28789285,-0.19492545,0.397009,0.3022728,-0.22610192,0.413885,0.31656096,-0.23732862,0.432014,0.33571915,-0.19492094,0.433917,0.31353657,-0.20053034,0.401694,0.32985943,-0.22812598,0.415653,0.34692168,-0.2425792,0.434241,0.36595189,-0.20503983,0.440409,0.3370646,-0.20537584,0.41245,0.32090309,-0.21408277,0.399604,0.31983924,-0.22135431,0.401001
0.36958221,-0.30414303,0.485916,0.3438229,-0.25814816,0.459107,0.34323937,-0.29530388,0.478623,0.29473843,-0.27615381,0.456258,0.25272391,-0.25515761,0.438134,0.23032989,-0.23649682,0.42929,0.28913806,-0.20516555,0.430908,0.2746454,-0.1634269,0.423581,0.26683122,-0.14655183,0.419917,0.25947973,-0.13050541,0.416587,0.31250269,-0.20150001,0.430729,0.28906524,-0.20539979,0.397281,0.30570591,-0.23682977,0.415101,0.32014346,-0.24808402,0.433307,0.33404024,-0.20234161,0.432567,0.31323491,-0.20278164,0.401558,0.32991951,-0.23131464,0.416292,0.34667755,-0.24699598,0.4347,0.36429541,-0.21078553,0.438537,0.33503938,-0.21458033,0.411634,0.32026134,-0.22350518,0.399273,0.32064224,-0.23141759,0.401387
0.36965035,-0.31216189,0.47542,0.34321555,-0.26140939,0.450306,0.34033577,-0.29923048,0.466848,0.2927346,-0.27909662,0.442702,0.25023951,-0.25787102,0.423177,0.22679082,-0.23927733,0.413584,0.28731179,-0.20893488,0.421753,0.27282337,-0.16857247,0.416808,0.2666651,-0.15154459,0.414335,0.26084771,-0.13528932,0.412088,0.3119415,-0.20513813,0.423722,0.29570823,-0.20671703,0.392134,0.31314373,-0.2397425,0.410882,0.32533761,-0.25227693,0.428741,0.33446396,-0.2058403,0.427202,0.31928283,-0.20002064,0.398568,0.33861759,-0.22919886,0.414103,0.35548933,-0.25357402,0.431871,0.36582279,-0.21402765,0.434889,0.34169941,-0.2159715,0.408355,0.32798012,-0.22515306,0.396164,0.32774615,-0.23431307,0.398782
0.37823754,-0.31681496,0.471158,0.34790855,-0.26608681,0.442327,0.35618437,-0.31067963,0.462885,0.30386547,-0.28791921,0.440269,0.26245939,-0.27028556,0.425579,0.23961729,-0.25358532,0.418087,0.28531692,-0.21912604,0.411475,0.27191318,-0.17825289,0.405612,0.26516772,-0.15762679,0.402681,0.25900844,-0.13869465,0.400048,0.30805784,-0.21170618,0.411809,0.2889128,-0.21145019,0.376684,0.30848511,-0.24201502,0.39332,0.32244323,-0.25432503,0.411248,0.32961087,-0.20930826,0.414219,0.30861245,-0.19848642,0.3812,0.32727709,-0.22603569,0.394934,0.34700528,-0.25247566,0.413754,0.36090163,-0.21353905,0.421156,0.33620111,-0.21899562,0.392818,0.32193283,-0.2271743,0.379798,0.31950147,-0.235734,0.380982
0.38282273,-0.32210828,0.473979,0.3477917,-0.26968303,0.442116,0.35861129,-0.31675956,0.466598,0.30749435,-0.29650638,0.444183,0.2651007,-0.27463036,0.428206,0.24129568,-0.2566304,0.41881,0.28584368,-0.225108,0.41018,0.27172919,-0.18324503,0.401569,0.26511977,-0.16373978,0.397264,0.25901565,-0.14555539,0.39335,0.30693376,-0.21711597,0.408388,0.27075666,-0.16826096,0.386236,0.2570634,-0.15366379,0.373315,0.26139896,-0.15552376,0.382006,0.3269994,-0.21441164,0.409273,0.30426889,-0.20297382,0.373645,0.32114324,-0.22818418,0.385379,0.34146688,-0.25557849,0.404452,0.356449,-0.21848724,0.414821,0.33661214,-0.21559017,0.385487,0.31651403,-0.22185558,0.372009,0.30998455,-0.22348429,0.37181
0.38807043,-0.33105067,0.474641,0.34836493,-0.28459255,0.441673,0.35701557,-0.3254169,0.465535,0.30597791,-0.30627923,0.441388,0.26271057,-0.28425676,0.421128,0.23815227,-0.26494003,0.407967,0.2858969,-0.23258943,0.406826,0.27308965,-0.19027082,0.397426,0.26772879,-0.17296948,0.392725,0.26277078,-0.15664135,0.388452,0.30841087,-0.22647624,0.406775,0.27546692,-0.17789282,0.385664,0.2616974,-0.16274207,0.37335,0.26688879,-0.16517287,0.382679,0.32971028,-0.22540796,0.409175,0.30593674,-0.21237721,0.372923,0.32230562,-0.2379317,0.384152,0.3425258,-0.26555257,0.403276,0.36069736,-0.23168118,0.416683,0.34036126,-0.22705559,0.386072,0.32008082,-0.2314196,0.372008,0.31279965,-0.23046217,0.371172
0.39340148,-0.34522792,0.47254,0.35913129,-0.2928716,0.440978,0.36887645,-0.33956941,0.461321,0.31417502,-0.31297053,0.433685,0.27234631,-0.29451947,0.416486,0.24793235,-0.27693314,0.406569,0.29170798,-0.24202123,0.404547,0.27346533,-0.20006323,0.39172,0.26726738,-0.18622437,0.385306,0.26154979,-0.17312972,0.379476,0.31555281,-0.23539177,0.407568,0.27955225,-0.1891356,0.387628,0.26596419,-0.17382292,0.375996,0.27208939,-0.1760684,0.385911,0.33837034,-0.23378735,0.412391,0.32067344,-0.22752633,0.377095,0.33722273,-0.25521492,0.389145,0.35382167,-0.28275392,0.408211,0.37188472,-0.23928472,0.422589,0.34979864,-0.23663588,0.391777,0.34784126,-0.23756534,0.37762,0.34957536,-0.23556807,0.377186
0.40321495,-0.37584135,0.477387,0.3634865,-0.31315455,0.445372,0.36737877,-0.35919835,0.461947,0.31620781,-0.33168585,0.436824,0.27448033,-0.31091005,0.421529,0.25219194,-0.2929368,0.414541,0.29499045,-0.25252911,0.403434,0.28584351,-0.25037102,0.372366,0.30313051,-0.26788011,0.382109,0.31737785,-0.28198378,0.390966,0.32286597,-0.25103114,0.411484,0.29936523,-0.21071876,0.395547,0.2870169,-0.18971071,0.386251,0.2772793,-0.17270622,0.37961,0.34908922,-0.25388102,0.420478,0.33014681,-0.24072154,0.383259,0.34477708,-0.26561489,0.39338,0.36078854,-0.29676941,0.412451,0.38673024,-0.26531162,0.435708,0.3598005,-0.25131428,0.403525,0.35808356,-0.25385578,0.388737,0.36091723,-0.2559062,0.386842
0.39367306,-0.3727138,0.466907,0.36224187,-0.32223582,0.443198,0.35947256,-0.35702202,0.451927,0.31060892,-0.33478581,0.424198,0.26872124,-0.31321997,0.406098,0.2463346,-0.29627469,0.399761,0.30109337,-0.26627978,0.407789,0.30410157,-0.26962119,0.384092,0.32225687,-0.28943415,0.397065,0.33684255,-0.30557621,0.408859,0.33034599,-0.26555378,0.418102,0.30653416,-0.22254311,0.393768,0.29256887,-0.1970074,0.379572,0.28258207,-0.17854984,0.369468,0.35695854,-0.26875346,0.428344,0.3501324,-0.25955121,0.396698,0.37087792,-0.28793508,0.410148,0.38507864,-0.31930841,0.428299,0.39350596,-0.27997989,0.44389,0.37732325,-0.26948278,0.41637,0.3774978,-0.27309201,0.403726,0.38091349,-0.27675388,0.404938
0.3884023,-0.37075635,0.459084,0.35935531,-0.32095689,0.437322,0.35982783,-0.3642933,0.449452,0.31216281,-0.33545178,0.424147,0.27055875,-0.31152191,0.404982,0.24938572,-0.29451394,0.399269,0.3061676,-0.27199558,0.409875,0.29130761,-0.22852269,0.383598,0.28896149,-0.21057976,0.377113,0.28716007,-0.19426506,0.371217,0.33048831,-0.26780354,0.414287,0.30523174,-0.22266083,0.385017,0.29049434,-0.19625514,0.367944,0.28785738,-0.1823551,0.365778,0.35245934,-0.26823473,0.419529,0.34871984,-0.26163766,0.391476,0.37317588,-0.29027547,0.407888,0.38560866,-0.32016025,0.425772,0.38272733,-0.27602854,0.428843,0.37406847,-0.27218578,0.403817,0.37440627,-0.27505919,0.392319,0.38603969,-0.28619267,0.395865
0.38739021,-0.37841958,0.456694,0.36076601,-0.33258293,0.435245,0.36060457,-0.37152562,0.447496,0.31382973,-0.34463653,0.422762,0.27300086,-0.31732438,0.40227,0.25246987,-0.29566641,0.397202,0.30781611,-0.28001657,0.408556,0.29484957,-0.23665491,0.382612,0.2924022,-0.21806456,0.374836,0.29051933,-0.20127464,0.367767,0.33175968,-0.27599919,0.412541,0.30859309,-0.2308517,0.383601,0.29507937,-0.20442062,0.366719,0.29259724,-0.19015092,0.36357,0.35322319,-0.27662408,0.417409,0.35126806,-0.27120629,0.39041,0.37615792,-0.30097469,0.407049,0.39043352,-0.33373461,0.424597,0.38255538,-0.28470297,0.426233,0.37484298,-0.28130901,0.401534,0.37522668,-0.28438324,0.390186,0.38650357,-0.29581654,0.393924
0.39096593,-0.39455,0.457302,0.36338079,-0.34378194,0.435413,0.36275424,-0.38304568,0.447987,0.32060449,-0.35963738,0.423067,0.27437441,-0.33144885,0.400957,0.25486328,-0.31716737,0.3988,0.30948954,-0.29113773,0.408264,0.29797751,-0.25070021,0.382103,0.29448509,-0.2321966,0.371855,0.29138714,-0.21517197,0.362538,0.33313239,-0.28662638,0.412242,0.31210539,-0.24420557,0.382902,0.29986425,-0.21925813,0.365787,0.29560336,-0.20442114,0.35899,0.35441463,-0.28689397,0.417137,0.35375027,-0.28125946,0.390876,0.37911911,-0.31167275,0.407421,0.39338061,-0.34440043,0.424634,0.38367758,-0.29461599,0.426056,0.37850175,-0.29479105,0.401062,0.3771032,-0.29593701,0.389578,0.39005935,-0.30878117,0.393154
0.39040198,-0.4021842,0.453104,0.36350922,-0.35210305,0.432278,0.36253654,-0.39100577,0.443675,0.32172305,-0.36784238,0.418713,0.27482994,-0.33879255,0.39538,0.25445171,-0.32416093,0.392471,0.31082832,-0.30001121,0.405753,0.30145311,-0.25966457,0.380616,0.29837496,-0.24069652,0.370005,0.29564907,-0.22329186,0.360358,0.33424468,-0.29544823,0.410234,0.31563348,-0.25317528,0.381811,0.30482555,-0.22828341,0.365231,0.30067882,-0.21289048,0.357607,0.35522769,-0.29566854,0.415463,0.35893261,-0.29128642,0.391687,0.38600545,-0.32248674,0.408599,0.39960816,-0.35505258,0.424955,0.38392721,-0.30328143,0.42463,0.38100758,-0.30332446,0.400219,0.38059171,-0.3043804,0.389003,0.39374534,-0.31732563,0.392881
0.38928526,-0.41138924,0.45079,0.36533758,-0.3601884,0.430089,0.36225096,-0.3994728,0.441403,0.32208781,-0.37283627,0.416506,0.27539786,-0.3392998,0.393748,0.25607152,-0.32426047,0.391427,0.31712221,-0.30499391,0.403705,0.31120035,-0.26577889,0.378667,0.30977088,-0.24729454,0.367915,0.30856701,-0.23035037,0.358141,0.340863,-0.30240658,0.408176,0.32596396,-0.26063804,0.379868,0.3173688,-0.23604484,0.363355,0.31472773,-0.22077395,0.355453,0.36177007,-0.30430571,0.413388,0.36545458,-0.30221851,0.389713,0.39162446,-0.33524846,0.406668,0.40304126,-0.36800399,0.423001,0.38974758,-0.31405028,0.422517,0.38588508,-0.3156176,0.398193,0.38486381,-0.31744517,0.387017,0.39682412,-0.33140731,0.390942
0.3894059,-0.40572064,0.454478,0.38864846,-0.35880951,0.438155,0.35773726,-0.38148377,0.438731,0.35428599,-0.33960549,0.415201,0.34544347,-0.30066492,0.397741,0.34051153,-0.27318877,0.390086,0.36088373,-0.28466566,0.407106,0.35652242,-0.28338932,0.380189,0.37013383,-0.31390097,0.393052,0.38651171,-0.34724472,0.408812,0.39100928,-0.30284782,0.420876,0.3923721,-0.30490036,0.396556,0.37689792,-0.32047283,0.382369,0.38057026,-0.34456339,0.387198,0.41604903,-0.32179568,0.433415,0.4135043,-0.32491977,0.406936,0.42249495,-0.3583655,0.42073,0.42451208,-0.37608997,0.436933,0.44623548,-0.35221231,0.450657,0.43768621,-0.35168884,0.427752,0.4335904,-0.35300379,0.417228,0.43607318,-0.37135784,0.419785
0.38713051,-0.41168458,0.452264,0.38744568,-0.36816804,0.436799,0.35778631,-0.38856692,0.436549,0.35218519,-0.34824841,0.412739,0.3438897,-0.30994324,0.395952,0.33900924,-0.28246063,0.388365,0.36026232,-0.29403552,0.406405,0.35640895,-0.29339035,0.380068,0.37006132,-0.32453608,0.392975,0.38623848,-0.35837953,0.408523,0.390594,-0.31251792,0.420429,0.39274809,-0.31561038,0.396936,0.37774759,-0.33152085,0.383231,0.38164848,-0.3562041,0.388295,0.41575817,-0.33169948,0.433112,0.41387417,-0.33562413,0.4073,0.42291069,-0.36951204,0.421144,0.42467142,-0.38702663,0.437097,0.44598694,-0.36236382,0.450406,0.43802694,-0.36262682,0.428085,0.43421496,-0.3643331,0.417829,0.43687721,-0.38311231,0.420559
0.38226756,-0.41496219,0.448662,0.38490689,-0.36786009,0.433176,0.35462186,-0.38613817,0.432609,0.34823515,-0.34549463,0.408617,0.34022918,-0.30667421,0.39032,0.33787631,-0.27980587,0.381663,0.36493327,-0.29608918,0.402353,0.36038755,-0.29916947,0.375867,0.37064281,-0.33038886,0.388452,0.38275522,-0.35941094,0.403931,0.39338382,-0.31672782,0.416784,0.39451107,-0.32541482,0.393322,0.37610992,-0.34047774,0.379635,0.37735465,-0.36474367,0.384456,0.41659142,-0.33756034,0.429805,0.41527636,-0.343417,0.403897,0.42217019,-0.37698684,0.417402,0.42187156,-0.39391099,0.433258,0.44374031,-0.36994891,0.447503,0.43626113,-0.37224062,0.42515,0.43253517,-0.37469266,0.41488,0.43375906,-0.39318289,0.417404
0.37879431,-0.42217792,0.446706,0.38836245,-0.37981684,0.430972,0.35307515,-0.38769135,0.430139,0.34889539,-0.35301181,0.403993,0.34274078,-0.3146156,0.384335,0.34407745,-0.28887568,0.374648,0.36973322,-0.30488909,0.39934,0.3633918,-0.30919371,0.372492,0.37214426,-0.3404151,0.384559,0.3840822,-0.37499014,0.399975,0.39820503,-0.32678712,0.414318,0.39767428,-0.33731396,0.390701,0.37741665,-0.35163813,0.376925,0.37710626,-0.37546871,0.381305,0.42130202,-0.3486336,0.427806,0.41816733,-0.35603245,0.401595,0.4232425,-0.38900472,0.414553,0.42260076,-0.40475393,0.430313,0.44802598,-0.38217054,0.446097,0.43927671,-0.38564889,0.423559,0.43487511,-0.38862436,0.413204,0.43478603,-0.40691008,0.415363
0.37642883,-0.42229865,0.443361,0.38594085,-0.37811966,0.425347,0.35045701,-0.38823764,0.424745,0.34837947,-0.35542345,0.396845,0.34168193,-0.31732744,0.375651,0.34454725,-0.29313698,0.364654,0.36716135,-0.30498469,0.389563,0.35798358,-0.31045691,0.360544,0.36401267,-0.33994105,0.370172,0.37559666,-0.37475655,0.38547,0.39717533,-0.32721422,0.406279,0.39418144,-0.3398171,0.380935,0.37190963,-0.35261901,0.366152,0.36882118,-0.3738555,0.368201,0.41827292,-0.34637339,0.421367,0.41559276,-0.35817171,0.393086,0.41741049,-0.38798909,0.403454,0.4140777,-0.39786681,0.419015,0.44696468,-0.38103293,0.441885,0.43939998,-0.38891968,0.417876,0.43395951,-0.39264201,0.406845,0.43139794,-0.40917889,0.407125
0.37319648,-0.42014839,0.437929,0.38854002,-0.38045306,0.421128,0.35119274,-0.39308504,0.420262,0.35290012,-0.35739682,0.393837,0.34734833,-0.32020214,0.373572,0.34731487,-0.29451423,0.363391,0.37347051,-0.30845134,0.387379,0.36427162,-0.31504788,0.35944,0.37114272,-0.34580854,0.370281,0.37911696,-0.37794489,0.385637,0.40283912,-0.33081091,0.403344,0.39971106,-0.34455715,0.378921,0.37348191,-0.35553644,0.364674,0.36781153,-0.37420625,0.3679,0.42662698,-0.3530153,0.417725,0.42053747,-0.36298004,0.390493,0.42328166,-0.39403314,0.40215,0.419062,-0.40397908,0.417803,0.45402452,-0.38688976,0.437228,0.4431046,-0.39294443,0.413975,0.43758786,-0.39700945,0.403291,0.43210967,-0.41048617,0.404512
0.37188391,-0.41905351,0.43075,0.39342175,-0.3800607,0.417763,0.35508529,-0.39423453,0.414303,0.35915397,-0.35447621,0.391128,0.35474306,-0.31839803,0.372314,0.354248,-0.29542516,0.3621,0.38205785,-0.30863617,0.38825,0.37640973,-0.31756445,0.363313,0.38512026,-0.34966284,0.375393,0.39644099,-0.38441256,0.390059,0.41134006,-0.33083384,0.404016,0.41263308,-0.3473999,0.383099,0.38841572,-0.36077286,0.370897,0.3839803,-0.38232033,0.37594,0.43479707,-0.35267595,0.41795,0.43584121,-0.36788822,0.39677,0.44046081,-0.40079562,0.409906,0.43760281,-0.4126695,0.423706,0.46130657,-0.38564715,0.436385,0.45374155,-0.39383562,0.415773,0.44984505,-0.39901688,0.406302,0.44974553,-0.41805107,0.408949
0.37628937,-0.42037977,0.430106,0.39925442,-0.37876411,0.417819,0.3614116,-0.39519192,0.414018,0.36298625,-0.35436527,0.393526,0.36208857,-0.31587527,0.377858,0.36487885,-0.29558025,0.368163,0.38305797,-0.30778577,0.389249,0.37874578,-0.31657104,0.364924,0.38845769,-0.3490502,0.377343,0.40033392,-0.38378913,0.391904,0.41246046,-0.32955376,0.404813,0.41524632,-0.34587526,0.384526,0.39153101,-0.35974193,0.372692,0.38740513,-0.38145103,0.378152,0.43604937,-0.35104321,0.418529,0.43950806,-0.36271236,0.39755,0.44595559,-0.39647077,0.411024,0.44110853,-0.41167904,0.424878,0.46278677,-0.38359872,0.436604,0.45815945,-0.38887664,0.41649,0.45515085,-0.39381059,0.407249,0.45380213,-0.41634802,0.410229
0.43569007,-0.44459552,0.450181,0.43113574,-0.39129927,0.430324,0.41285918,-0.42358289,0.44107,0.36098159,-0.3881318,0.418758,0.31995193,-0.36593695,0.389907,0.30719742,-0.35450005,0.368773,0.39994069,-0.32841872,0.404886,0.38121103,-0.28311941,0.37953,0.37579838,-0.29051692,0.366852,0.38942668,-0.31223457,0.373017,0.42583036,-0.33600039,0.409306,0.41359401,-0.34983518,0.383035,0.38795002,-0.35242485,0.36771,0.3859887,-0.35297358,0.374453,0.44746528,-0.34605205,0.414413,0.43610146,-0.36008712,0.391433,0.44973174,-0.3917702,0.408672,0.4585826,-0.39805979,0.426734,0.47403206,-0.36533248,0.423298,0.45864092,-0.37383142,0.401655,0.44175182,-0.37801575,0.391711,0.44130087,-0.38945217,0.396787
0.44220712,-0.4425791,0.453472,0.43480078,-0.37836819,0.426621,0.41856645,-0.42041989,0.443527,0.3674753,-0.37562412,0.417508,0.32661083,-0.35302178,0.389397,0.3134635,-0.34189733,0.368577,0.39826966,-0.31102629,0.395136,0.3718595,-0.26097016,0.365178,0.36348594,-0.2649017,0.350199,0.37364126,-0.2818919,0.353378,0.42237233,-0.31822122,0.398199,0.39871142,-0.3265392,0.365289,0.41042521,-0.35795113,0.382994,0.41963495,-0.36790387,0.400456,0.44303227,-0.32824203,0.402708,0.42580516,-0.33809421,0.3732,0.43345883,-0.36333045,0.387895,0.44320106,-0.36952583,0.40568,0.46950618,-0.34809503,0.411867,0.44690785,-0.35072104,0.385135,0.42678943,-0.35206204,0.372853,0.42345798,-0.36043609,0.375307
0.44436608,-0.42816474,0.448551,0.4404632,-0.36599418,0.425284,0.42182233,-0.4058901,0.439568,0.37306969,-0.37426195,0.417111,0.32632483,-0.35212074,0.38828,0.31298697,-0.34180301,0.367871,0.40732857,-0.29906804,0.397553,0.38407989,-0.25023094,0.370196,0.37695857,-0.25450212,0.356517,0.38927924,-0.27158263,0.361468,0.43132834,-0.30739397,0.400656,0.41499834,-0.31544999,0.370957,0.42570677,-0.34993836,0.390498,0.43422608,-0.36023187,0.407375,0.45172936,-0.31824445,0.404932,0.43814545,-0.32803345,0.378389,0.44748797,-0.35556882,0.394595,0.45656875,-0.36213073,0.411787,0.47751409,-0.3389237,0.413308,0.45411137,-0.34293827,0.388556,0.43305591,-0.34295159,0.377183,0.43043388,-0.35210028,0.380853
0.44957353,-0.41485297,0.447623,0.44622958,-0.35105877,0.425426,0.42713265,-0.39160611,0.438525,0.37865314,-0.35784036,0.416828,0.33285817,-0.3358247,0.388007,0.3188507,-0.32569143,0.36723,0.41478619,-0.28519338,0.398322,0.3928673,-0.23710595,0.37149,0.38595776,-0.24159864,0.358074,0.39898395,-0.25827277,0.36339,0.43904123,-0.29425848,0.40193,0.4239238,-0.30306726,0.373315,0.43458516,-0.33747905,0.393266,0.44257562,-0.34743894,0.409879,0.45953461,-0.30560647,0.406543,0.44726316,-0.31621782,0.381154,0.45656081,-0.34375716,0.397706,0.46508852,-0.34995232,0.41457,0.48516192,-0.32666153,0.415169,0.46183541,-0.33049411,0.390445,0.44018381,-0.33107236,0.379085,0.43725449,-0.34034546,0.382798
0.45204892,-0.39792767,0.445931,0.45016442,-0.33566854,0.425501,0.4304083,-0.37466942,0.437023,0.38264458,-0.34054852,0.415249,0.33796019,-0.31746449,0.386022,0.32510453,-0.30627858,0.365069,0.42128921,-0.27043546,0.399898,0.40172607,-0.22245664,0.374206,0.39633656,-0.22656232,0.361359,0.41136732,-0.24212929,0.367364,0.44515302,-0.28014212,0.403875,0.43433419,-0.28830802,0.376969,0.44525212,-0.32378625,0.397597,0.45167642,-0.33427982,0.413805,0.46514305,-0.29190766,0.40866,0.457027,-0.30199615,0.384958,0.46829446,-0.33325584,0.402074,0.47437627,-0.34563876,0.418482,0.48985582,-0.31326172,0.417242,0.46951681,-0.31613896,0.393236,0.447764,-0.31827268,0.382207,0.44477412,-0.32864326,0.386317
0.45512271,-0.39071801,0.454468,0.44973189,-0.33163135,0.4325,0.43339012,-0.36483481,0.443353,0.38127499,-0.32278323,0.418372,0.34183157,-0.2970738,0.390032,0.33057835,-0.28652543,0.368888,0.42598672,-0.26521465,0.403085,0.41797844,-0.21948593,0.387381,0.41875279,-0.22218993,0.379529,0.44004421,-0.23578842,0.390242,0.45055509,-0.28132704,0.409247,0.43712271,-0.29035601,0.381455,0.43988544,-0.31971646,0.400897,0.44688351,-0.32520388,0.417053,0.47165417,-0.29537435,0.415944,0.45644593,-0.3029121,0.388483,0.45118399,-0.3238906,0.40446,0.45327135,-0.34731663,0.421932,0.49753368,-0.31950906,0.42702,0.47089899,-0.32102954,0.401418,0.4529468,-0.32483789,0.389655,0.44869235,-0.33142299,0.392765
0.45616258,-0.38919211,0.456613,0.45371013,-0.33106107,0.434829,0.43185042,-0.35701054,0.445441,0.38178294,-0.31676578,0.421249,0.34337026,-0.29537094,0.392229,0.33294729,-0.28429807,0.371122,0.43024084,-0.26027311,0.405476,0.42387925,-0.21533252,0.392282,0.42615037,-0.21687032,0.385684,0.44869864,-0.22873121,0.39735,0.45477319,-0.27472586,0.41177,0.44051096,-0.28181843,0.384182,0.44618284,-0.31415266,0.403662,0.45136636,-0.32425534,0.419756,0.4751737,-0.29036861,0.418562,0.45663167,-0.29407494,0.38985,0.45697367,-0.31832567,0.405781,0.45784173,-0.34619523,0.423738,0.50044153,-0.31979695,0.429726,0.47769495,-0.31645204,0.404217,0.45510893,-0.31950825,0.392496,0.44977584,-0.32803292,0.395645
0.45577527,-0.38414709,0.45461,0.46196712,-0.32203028,0.436892,0.4333624,-0.35304246,0.443883,0.3919128,-0.30966432,0.420112,0.35672473,-0.28243304,0.394704,0.34783916,-0.26850528,0.374435,0.43637454,-0.25590069,0.411005,0.43080052,-0.21240886,0.399047,0.4355337,-0.20805,0.393068,0.46032071,-0.21319412,0.405069,0.46197517,-0.26963741,0.418138,0.45628088,-0.27491478,0.394561,0.46320698,-0.30961846,0.415342,0.46707388,-0.31789442,0.430393,0.48322736,-0.28459103,0.425319,0.4712965,-0.28765082,0.399582,0.47388206,-0.3145101,0.416543,0.4765451,-0.33975568,0.433711,0.50894859,-0.30954682,0.436373,0.51049954,-0.29714212,0.413458,0.48684966,-0.29928617,0.40293,0.47766252,-0.30481803,0.407325
0.46833982,-0.36972528,0.458639,0.47233654,-0.31007062,0.441454,0.44608505,-0.34275293,0.447194,0.40546909,-0.29866771,0.421935,0.37005504,-0.26932792,0.398535,0.360572,-0.2539968,0.37921,0.44446327,-0.24426822,0.415069,0.43959984,-0.20142003,0.403757,0.44506785,-0.19789551,0.398101,0.47052331,-0.20319149,0.410205,0.47133546,-0.25803267,0.423265,0.46797594,-0.26234005,0.400499,0.4753222,-0.29690012,0.421037,0.47842736,-0.30550802,0.43572,0.49375232,-0.27301158,0.431281,0.48324206,-0.27518985,0.405624,0.48625282,-0.30190157,0.422348,0.48936706,-0.32712017,0.439389,0.52104084,-0.29800213,0.443256,0.52320437,-0.28485485,0.420492,0.49994959,-0.28751654,0.410033,0.49056157,-0.29348161,0.414329
0.48031446,-0.35952734,0.464501,0.48230642,-0.30061119,0.445984,0.45783993,-0.33284677,0.453205,0.41554101,-0.28921758,0.428253,0.37968706,-0.26003931,0.405328,0.36931036,-0.24489896,0.385971,0.4539563,-0.23487407,0.418825,0.44896613,-0.19200226,0.407057,0.45350273,-0.18820884,0.401173,0.47842555,-0.19281581,0.413218,0.48057405,-0.24854125,0.426384,0.47350652,-0.25184575,0.402176,0.48049363,-0.2854479,0.422508,0.48490174,-0.29419309,0.437646,0.50284985,-0.26345415,0.433974,0.4915616,-0.26297046,0.407419,0.49491387,-0.28949172,0.423997,0.49880475,-0.31498993,0.441343,0.53009088,-0.28839741,0.445629,0.53017889,-0.27503003,0.422068,0.50566847,-0.27731028,0.411242,0.49606755,-0.2828984,0.415255
0.48780344,-0.34921151,0.469143,0.48934586,-0.29161468,0.450677,0.46517974,-0.3220877,0.457396,0.4241333,-0.277838,0.431055,0.39032425,-0.2480577,0.406672,0.38161616,-0.23414674,0.38696,0.46210643,-0.22606609,0.422999,0.45988197,-0.18455423,0.41493,0.46671925,-0.17886768,0.410896,0.49330624,-0.18063072,0.424105,0.48901776,-0.24063596,0.43113,0.47884612,-0.24224468,0.404638,0.48479538,-0.27472572,0.424595,0.49001131,-0.28384414,0.440443,0.51146631,-0.25624833,0.439187,0.49965996,-0.2554396,0.412478,0.50225234,-0.28100669,0.428856,0.50565447,-0.30569855,0.446183,0.53873979,-0.28193905,0.451391,0.53891538,-0.26871586,0.427748,0.51400447,-0.27069285,0.416885,0.50403329,-0.27601414,0.420762
0.50558676,-0.3488528,0.486578,0.50072924,-0.29093484,0.464098,0.48113622,-0.32160774,0.473442,0.44059052,-0.28163456,0.44393,0.40794744,-0.25295089,0.417507,0.3924483,-0.23682869,0.397077,0.46667205,-0.22539091,0.431834,0.46735656,-0.18578651,0.421915,0.47257129,-0.17293002,0.416956,0.4980702,-0.16921386,0.42963,0.49520284,-0.23814702,0.440302,0.48252504,-0.23476056,0.410139,0.48837742,-0.26711325,0.428268,0.49464845,-0.28250585,0.444869,0.51938933,-0.25240781,0.448934,0.50606053,-0.24853137,0.418823,0.50876521,-0.27418748,0.433694,0.51489808,-0.30043355,0.451793,0.54943438,-0.27671833,0.462389,0.54621039,-0.26433443,0.435964,0.52199824,-0.26711534,0.423823,0.5102314,-0.27589881,0.426134
0.50317774,-0.3431869,0.483256,0.50322832,-0.2886035,0.465141,0.48240356,-0.31831229,0.474168,0.44259029,-0.27301323,0.455581,0.41321311,-0.24660739,0.431434,0.4009702,-0.22877993,0.411307,0.47684368,-0.22208807,0.440979,0.47605845,-0.18624164,0.427252,0.48064196,-0.16770593,0.420389,0.50283977,-0.15692068,0.43185,0.50244145,-0.23468747,0.445965,0.48780379,-0.22983903,0.419996,0.49831631,-0.26461934,0.441193,0.50724411,-0.2816611,0.45724,0.5240331,-0.24870541,0.451409,0.50977502,-0.24278405,0.426144,0.51639468,-0.27057039,0.443596,0.52245978,-0.29645743,0.46077,0.54890938,-0.2740663,0.46045,0.54870195,-0.25500924,0.437771,0.52333755,-0.25689997,0.42735,0.51531024,-0.2642968,0.432085
0.501112,-0.33858834,0.480308,0.5050791,-0.28473083,0.465313,0.48387297,-0.31662929,0.475001,0.45388271,-0.27882702,0.458237,0.42053633,-0.25012208,0.432733,0.4047367,-0.23065347,0.413503,0.48409253,-0.22553588,0.448033,0.47992179,-0.1857147,0.427778,0.47794404,-0.16562519,0.417651,0.4863195,-0.1503708,0.417111,0.50625406,-0.23564478,0.449439,0.49646228,-0.23233219,0.426842,0.50950235,-0.26875359,0.449598,0.51661946,-0.28124443,0.464915,0.52450361,-0.24736458,0.451708,0.51621984,-0.24389661,0.430593,0.52470702,-0.27284385,0.449385,0.52959712,-0.29828525,0.465418,0.54636093,-0.26793624,0.456525,0.54719963,-0.25428015,0.437083,0.5242124,-0.25789902,0.42815,0.5182146,-0.26616964,0.434453
0.50315928,-0.33194536,0.479946,0.5084975,-0.27483569,0.46582,0.48597234,-0.30766214,0.474355,0.46257843,-0.27297168,0.455062,0.42488903,-0.23777541,0.431036,0.40858408,-0.21323191,0.416569,0.48347013,-0.21591584,0.448817,0.48092905,-0.17635401,0.428969,0.47976773,-0.15639914,0.419045,0.49030202,-0.14156315,0.419849,0.50679902,-0.22510509,0.450868,0.49869688,-0.22141948,0.429005,0.51341026,-0.258291,0.451959,0.51990457,-0.27206562,0.467072,0.52625098,-0.23611142,0.453602,0.51842189,-0.23272485,0.432946,0.5285567,-0.26221699,0.451889,0.53399752,-0.28784345,0.467797,0.55001126,-0.25594085,0.458851,0.54785037,-0.24109665,0.439831,0.52526887,-0.24596527,0.431092,0.52023838,-0.25587841,0.437589
0.51036782,-0.32514512,0.481884,0.51195721,-0.27244023,0.468382,0.48974162,-0.30306472,0.475378,0.46821477,-0.26766231,0.454993,0.43185592,-0.23341592,0.430345,0.41634849,-0.20935318,0.4154,0.48549682,-0.21000164,0.450703,0.48268996,-0.17051196,0.430923,0.48139888,-0.15058108,0.421032,0.49143998,-0.13869023,0.421188,0.51023105,-0.2190878,0.454091,0.5041332,-0.2159564,0.432651,0.51962884,-0.25271634,0.455601,0.52471608,-0.27016186,0.47056,0.53092071,-0.23001087,0.457878,0.52286768,-0.2326465,0.437187,0.53277667,-0.2619855,0.456103,0.53814564,-0.28721958,0.472014,0.55626591,-0.24973443,0.464294,0.55499298,-0.23502317,0.445327,0.53298337,-0.24051537,0.436613,0.52794339,-0.25061536,0.443111
0.51519886,-0.31918053,0.483598,0.5164046,-0.26787369,0.471378,0.49513963,-0.29802848,0.478092,0.47354041,-0.26493766,0.459175,0.43945932,-0.23230129,0.43396,0.42043481,-0.20882799,0.418356,0.49199646,-0.21051286,0.455846,0.49088517,-0.16788996,0.437414,0.48991034,-0.14741315,0.428199,0.50156476,-0.13209524,0.430498,0.51603185,-0.21916965,0.458443,0.51261963,-0.21403234,0.438333,0.52864372,-0.25089388,0.461724,0.53318993,-0.2668569,0.47634,0.53676877,-0.22754897,0.461484,0.53015134,-0.22841888,0.442237,0.5402125,-0.25741887,0.461528,0.54398994,-0.28429476,0.477006,0.56063075,-0.2464176,0.466831,0.55952356,-0.23610737,0.449026,0.53792966,-0.24180908,0.440845,0.53337567,-0.25166415,0.447845
0.5313635,-0.32019366,0.496177,0.52773477,-0.26755871,0.479821,0.50982967,-0.29941222,0.489675,0.48569228,-0.26722779,0.468916,0.45091481,-0.23710489,0.442047,0.43180965,-0.21241284,0.425834,0.49825787,-0.20942441,0.460097,0.49316472,-0.16686911,0.438269,0.49209068,-0.1444006,0.427355,0.50462645,-0.13150079,0.431131,0.52237473,-0.21684953,0.462508,0.51696849,-0.20943471,0.438481,0.53333783,-0.24587439,0.460736,0.53708558,-0.26222987,0.476413,0.54363904,-0.22332247,0.465704,0.54005172,-0.21676801,0.442988,0.55318762,-0.24609796,0.461353,0.56103952,-0.27289746,0.477862,0.568882,-0.24039714,0.471817,0.56529792,-0.23303483,0.451097,0.54432539,-0.23818256,0.441576,0.53480009,-0.24822904,0.447319
0.531732,-0.31801034,0.494929,0.52997922,-0.26432769,0.479482,0.51047294,-0.29767457,0.488762,0.48566687,-0.26532902,0.46855,0.4509,-0.23452535,0.441744,0.43062806,-0.20873528,0.426141,0.50024312,-0.20736575,0.460823,0.49613653,-0.16479332,0.439784,0.49404675,-0.14375902,0.429264,0.50871848,-0.129454,0.433447,0.52418411,-0.21395511,0.463131,0.51875191,-0.21031913,0.439977,0.53529971,-0.24691224,0.462524,0.539541,-0.26246396,0.477977,0.54430114,-0.22285113,0.466175,0.54100281,-0.21742286,0.444277,0.55459262,-0.24690612,0.462882,0.56220423,-0.27363082,0.479157,0.56917923,-0.24013359,0.471979,0.5649479,-0.23144495,0.451935,0.54391569,-0.23739717,0.442725,0.53671657,-0.24793418,0.448774
0.53385291,-0.31798873,0.495951,0.53075639,-0.26464028,0.47985,0.51234551,-0.29764474,0.489628,0.48680945,-0.26461493,0.469134,0.45353539,-0.23107687,0.442908,0.43626436,-0.20622917,0.429058,0.49959919,-0.2079938,0.46053,0.49527044,-0.16429316,0.438965,0.49305891,-0.14352091,0.428183,0.50638993,-0.13017997,0.431962,0.52391889,-0.21373108,0.462807,0.51639123,-0.21186243,0.439038,0.53337554,-0.24734998,0.461388,0.53837253,-0.26209335,0.477001,0.54398274,-0.22271461,0.465873,0.5403555,-0.21633806,0.443432,0.55423203,-0.2456515,0.461877,0.56233491,-0.27258315,0.478307,0.56895959,-0.24016332,0.471796,0.56090287,-0.23581155,0.451297,0.53698162,-0.24032882,0.441878,0.53407966,-0.24861396,0.447721
0.53490685,-0.3177587,0.496297,0.53126846,-0.26485801,0.480145,0.51323546,-0.29741564,0.489862,0.48716292,-0.26413668,0.469215,0.45418064,-0.23067518,0.443165,0.43719392,-0.20578564,0.4295,0.49991446,-0.2077939,0.460649,0.49533656,-0.16420894,0.438998,0.49317576,-0.14357964,0.428173,0.50658994,-0.13013194,0.431804,0.52424131,-0.21380476,0.463047,0.51668296,-0.21224416,0.439214,0.53324168,-0.24794928,0.461535,0.5385143,-0.26228071,0.477162,0.54440037,-0.22288251,0.466216,0.54084721,-0.2161231,0.443679,0.55491954,-0.24540921,0.462098,0.56319346,-0.27244303,0.478556,0.56953046,-0.24046554,0.472269,0.56068062,-0.23528163,0.451697,0.53677162,-0.24019287,0.442245,0.5338958,-0.24867499,0.448055
0.53448603,-0.31687986,0.4957,0.53114374,-0.26479445,0.480174,0.51280409,-0.29665478,0.489239,0.48682087,-0.26365964,0.468635,0.45422427,-0.23053027,0.442832,0.43766542,-0.20579725,0.429655,0.50038266,-0.20781241,0.461095,0.49642304,-0.16443873,0.439877,0.4946323,-0.14384247,0.429268,0.50928302,-0.12973127,0.43319,0.52490802,-0.21404825,0.463738,0.51689908,-0.21533666,0.440463,0.53191566,-0.25143776,0.462947,0.53927612,-0.26327573,0.478424,0.54526267,-0.22320448,0.467063,0.54238476,-0.21654204,0.444952,0.55669739,-0.24591426,0.4635,0.56481584,-0.27295388,0.479838,0.57052148,-0.24085338,0.473214,0.56339493,-0.23262098,0.453012,0.54150473,-0.238894,0.44373,0.53611072,-0.24841476,0.449707
0.53552191,-0.317023,0.496506,0.53153469,-0.26498845,0.480622,0.51376875,-0.29683003,0.490001,0.48768326,-0.26393215,0.469298,0.45503882,-0.23084353,0.443401,0.43838924,-0.20601163,0.430181,0.50052226,-0.20774457,0.461234,0.49633476,-0.16432278,0.439743,0.49445093,-0.14368268,0.428998,0.5094186,-0.12958102,0.433196,0.52491025,-0.21403016,0.463808,0.51631381,-0.21578465,0.440205,0.53105541,-0.2516862,0.462588,0.53849867,-0.26334024,0.478152,0.54522484,-0.2231683,0.467103,0.54208875,-0.21629366,0.444717,0.55638182,-0.24558747,0.463185,0.56461263,-0.27267293,0.479601,0.57048756,-0.24081865,0.473268,0.56328106,-0.23235388,0.452833,0.54136374,-0.23857556,0.443443,0.53581172,-0.24802185,0.449316
0.53546931,-0.31685026,0.496156,0.53174619,-0.26541124,0.480685,0.51386751,-0.29681661,0.489789,0.48807232,-0.26428021,0.469315,0.45616441,-0.23106934,0.443568,0.43904327,-0.20655249,0.430428,0.50125316,-0.20826037,0.461762,0.49753629,-0.16503423,0.440627,0.49617465,-0.14477522,0.430059,0.51092142,-0.1303698,0.434152,0.52534557,-0.21531002,0.464308,0.51806252,-0.21670129,0.441099,0.53303861,-0.25266477,0.463612,0.53969955,-0.26422583,0.479073,0.5458594,-0.22376583,0.467549,0.54325224,-0.21697774,0.445527,0.55745301,-0.24635052,0.4641,0.56526907,-0.27317554,0.480412,0.57098008,-0.24135926,0.473591,0.56439764,-0.23351,0.453458,0.54457367,-0.23870191,0.444208,0.53718831,-0.24872152,0.450217
0.53674047,-0.31748921,0.497093,0.53245213,-0.26600162,0.481227,0.51502982,-0.29743156,0.490652,0.48909776,-0.2649386,0.470033,0.45702818,-0.23180661,0.444136,0.43984557,-0.20709644,0.430933,0.50155833,-0.20855222,0.46193,0.49752162,-0.16526399,0.440479,0.49604237,-0.14501213,0.429753,0.51101881,-0.13069863,0.433994,0.52559747,-0.21555454,0.464432,0.51799398,-0.21676175,0.440855,0.53293007,-0.25269679,0.463253,0.53953256,-0.26437561,0.478812,0.54608135,-0.22410993,0.467666,0.54314026,-0.2170976,0.445327,0.55708032,-0.24640284,0.463807,0.56480872,-0.27309171,0.48021,0.57125641,-0.24172536,0.473756,0.56443304,-0.23356831,0.453355,0.54431851,-0.23892861,0.443982,0.53700893,-0.24868696,0.44987
0.54012453,-0.31816267,0.499412,0.53345125,-0.26754225,0.482557,0.51812461,-0.29822946,0.492816,0.49145357,-0.2690469,0.471877,0.45437842,-0.23915864,0.444388,0.43502606,-0.21263396,0.42896,0.50190696,-0.20904566,0.462358,0.49662281,-0.16579565,0.440134,0.49439413,-0.14508802,0.429022,0.50949989,-0.1310507,0.433317,0.52582366,-0.2159025,0.464715,0.51685569,-0.21650464,0.440225,0.53189177,-0.25253578,0.462325,0.53874965,-0.26435414,0.478121,0.54605658,-0.22508879,0.467902,0.54239295,-0.21704694,0.444787,0.55597472,-0.24623233,0.463026,0.56386539,-0.27290756,0.479646,0.571597,-0.24207367,0.474076,0.56537297,-0.23263889,0.453019,0.54383042,-0.23865509,0.443345,0.53625634,-0.24823097,0.448931
0.5522432,-0.32535161,0.509929,0.54111317,-0.27750162,0.490535,0.52319155,-0.30161672,0.49705,0.4869648,-0.27983223,0.468219,0.4565766,-0.25227323,0.444763,0.43941121,-0.22900427,0.433067,0.49448264,-0.21819279,0.4608,0.50693446,-0.1804493,0.454808,0.51408827,-0.16153236,0.451812,0.52659229,-0.13793294,0.449089,0.52569678,-0.22631968,0.470005,0.51729826,-0.22707032,0.442634,0.53055389,-0.26221474,0.461705,0.53856469,-0.27163273,0.478682,0.5527176,-0.2368264,0.479015,0.54636232,-0.22772291,0.451186,0.55745429,-0.25679778,0.466815,0.56764011,-0.27744595,0.484296,0.58733677,-0.25679982,0.492485,0.58260625,-0.24134884,0.468004,0.56094358,-0.24777741,0.456756,0.54974679,-0.25464383,0.459991
0.55281494,-0.32734727,0.510568,0.53590562,-0.28158001,0.48954,0.52461213,-0.30835481,0.499076,0.48204411,-0.27858438,0.471605,0.44711372,-0.24738274,0.456095,0.43166512,-0.22688979,0.452346,0.48738454,-0.22044088,0.460335,0.49890981,-0.18244341,0.460555,0.51008417,-0.16680037,0.460665,0.52080956,-0.15177512,0.460765,0.5164916,-0.22706078,0.46728,0.50539221,-0.23015395,0.438744,0.51992904,-0.26555629,0.458209,0.53151336,-0.27609765,0.475763,0.54188529,-0.23637996,0.474552,0.53332436,-0.22886879,0.44627,0.5454101,-0.25858595,0.46226,0.55824347,-0.28334636,0.480068,0.57490673,-0.2550276,0.486182,0.56585062,-0.24194656,0.461034,0.54454255,-0.24923991,0.44948,0.5393278,-0.25703922,0.452752
0.54590251,-0.32561372,0.50563,0.5199595,-0.28152616,0.487029,0.51298381,-0.31263994,0.494328,0.47457821,-0.27819651,0.469507,0.44335833,-0.24683916,0.454972,0.42770727,-0.22632456,0.45107,0.47649232,-0.22018516,0.459801,0.48778214,-0.18217483,0.459877,0.49856303,-0.16652881,0.459915,0.50891097,-0.15150633,0.459949,0.50614911,-0.22708945,0.467339,0.49698278,-0.23120362,0.440745,0.51197632,-0.26712224,0.460911,0.52032787,-0.28001257,0.4783,0.53180987,-0.23656227,0.474918,0.52493585,-0.22991039,0.448301,0.53728904,-0.26004094,0.464861,0.54635033,-0.28685864,0.482225,0.56473638,-0.25523217,0.486572,0.55730637,-0.24295574,0.462957,0.53698065,-0.2506966,0.452107,0.53022067,-0.26030541,0.456096
0.52381858,-0.32922307,0.494898,0.49952869,-0.27838122,0.476443,0.49350587,-0.31180319,0.487076,0.45343153,-0.28396138,0.467799,0.41752463,-0.2553086,0.447862,0.39736374,-0.23240193,0.438008,0.45317514,-0.22188614,0.453592,0.4561293,-0.18203692,0.450144,0.46087176,-0.16666022,0.448419,0.46552155,-0.15191923,0.446852,0.47994525,-0.22419084,0.456907,0.46633424,-0.22835498,0.430799,0.48875691,-0.26480554,0.452225,0.50034026,-0.27664888,0.468394,0.50364043,-0.22982894,0.461002,0.46711352,-0.18022891,0.436132,0.45934974,-0.15970611,0.432469,0.47744191,-0.15450705,0.447158,0.53504054,-0.24383341,0.468483,0.52436788,-0.22622286,0.446023,0.5072606,-0.23586425,0.435704,0.50524909,-0.24833746,0.440615
0.53504172,-0.33946122,0.508676,0.50515289,-0.28507348,0.484892,0.50198827,-0.3209952,0.498717,0.45480738,-0.29425049,0.47284,0.41828523,-0.26767261,0.452729,0.39789051,-0.2451859,0.440438,0.45014777,-0.22780021,0.455592,0.45308047,-0.18803786,0.451983,0.46009039,-0.16939097,0.450178,0.46243242,-0.16599892,0.448538,0.47737967,-0.23029543,0.459716,0.45928999,-0.23415293,0.428654,0.47803122,-0.26591608,0.447716,0.49351884,-0.27504597,0.464935,0.50182948,-0.23623748,0.464872,0.48537752,-0.19475974,0.458685,0.47731097,-0.17354098,0.45552,0.47991898,-0.15937271,0.452642,0.53827896,-0.24891469,0.474367,0.51956764,-0.23578486,0.448074,0.50337658,-0.24252231,0.435993,0.49882575,-0.25530482,0.438819
0.50554382,-0.3537501,0.505891,0.48836562,-0.2980294,0.486432,0.47733313,-0.33365795,0.496237,0.43834082,-0.29670336,0.471145,0.40353053,-0.26626013,0.454327,0.38667706,-0.24520979,0.448924,0.442712,-0.23763416,0.46061,0.45489246,-0.20105054,0.462229,0.46267602,-0.18317778,0.463039,0.46997807,-0.16633602,0.463774,0.47000051,-0.24241626,0.465834,0.4601467,-0.23734908,0.438597,0.47994809,-0.27375221,0.45924,0.4893286,-0.28667709,0.475571,0.49398108,-0.25016467,0.471573,0.47639484,-0.20987588,0.449689,0.46746017,-0.18892769,0.438493,0.4661387,-0.18730347,0.428315,0.52556535,-0.26684216,0.481154,0.51466976,-0.24691468,0.457484,0.50589619,-0.24826306,0.446609,0.50946797,-0.26347612,0.450832
0.49308758,-0.35078036,0.500119,0.47411733,-0.2986037,0.484744,0.46487661,-0.33015669,0.489836,0.41563983,-0.29655595,0.464979,0.38065075,-0.26849873,0.44584,0.36319376,-0.24593861,0.433707,0.43225568,-0.23870669,0.461084,0.4426593,-0.20335088,0.46422,0.45354317,-0.19118273,0.465789,0.4640277,-0.17931209,0.467215,0.46097448,-0.24522819,0.468469,0.45764723,-0.24061676,0.444904,0.47704355,-0.27807501,0.466212,0.48382577,-0.29109919,0.481425,0.48579972,-0.25427964,0.475684,0.46933356,-0.21276641,0.451838,0.46102519,-0.19134992,0.439638,0.46303397,-0.18714787,0.428547,0.5176866,-0.27226335,0.486449,0.51859121,-0.23565429,0.467623,0.51633334,-0.23466476,0.458973,0.52006397,-0.25067702,0.464924
0.48869161,-0.35110932,0.499117,0.46893985,-0.29795273,0.481923,0.45560716,-0.33195462,0.489245,0.41373843,-0.2984925,0.464444,0.3770305,-0.27528852,0.452529,0.36107867,-0.25718569,0.450231,0.42161342,-0.23975838,0.457462,0.42647435,-0.20106076,0.454956,0.43060367,-0.18344199,0.453702,0.43456186,-0.16677128,0.452563,0.45018487,-0.24458275,0.463724,0.43985793,-0.24134271,0.438513,0.45862352,-0.2785861,0.459651,0.46788417,-0.29135288,0.475405,0.47520773,-0.25231537,0.470148,0.45316505,-0.21190169,0.44517,0.44191662,-0.1909827,0.432391,0.43772465,-0.18690279,0.420773,0.50787987,-0.26890075,0.480228,0.49954931,-0.22790933,0.459861,0.49436872,-0.22974991,0.450503,0.49786836,-0.24670325,0.455997
0.47585442,-0.35066939,0.494828,0.45522237,-0.30056283,0.4809,0.44862069,-0.33118207,0.486107,0.39924727,-0.30250792,0.46379,0.35983625,-0.2739317,0.444485,0.34011662,-0.25278808,0.436557,0.41280824,-0.24278425,0.460195,0.4178097,-0.20373132,0.45714,0.42192024,-0.19289454,0.455613,0.42600282,-0.18240562,0.454225,0.44117478,-0.24769988,0.466156,0.42130416,-0.19515673,0.444055,0.44008431,-0.1955146,0.45648,0.46128817,-0.2167072,0.474312,0.46592991,-0.25538918,0.472092,0.44848934,-0.21628531,0.450006,0.43980631,-0.19619953,0.438706,0.43635975,-0.19049187,0.428433,0.49810994,-0.27173195,0.48113,0.5006417,-0.23077514,0.46452,0.49258331,-0.23090769,0.456888,0.49588545,-0.24734826,0.463901
0.46921513,-0.34702672,0.489383,0.45225342,-0.2989517,0.479107,0.44336076,-0.32955047,0.482492,0.39681062,-0.30381027,0.462766,0.3569159,-0.28159074,0.443325,0.3360574,-0.26215385,0.435587,0.40831141,-0.24639974,0.463271,0.40260088,-0.20273445,0.452433,0.40159073,-0.18849557,0.447014,0.40084313,-0.17502326,0.442088,0.43630612,-0.2479496,0.46823,0.41897003,-0.19646738,0.450303,0.41481507,-0.19217275,0.439846,0.42905559,-0.19690561,0.450185,0.46074062,-0.25271276,0.47307,0.43305638,-0.20699383,0.454545,0.42377025,-0.19014311,0.445067,0.42107255,-0.18757886,0.436451,0.49241215,-0.26520985,0.480287,0.46545153,-0.2228632,0.463606,0.46059548,-0.21337392,0.455943,0.47364868,-0.22540355,0.463234
0.4621181,-0.34447471,0.484148,0.44796218,-0.29847312,0.476368,0.43290343,-0.33110885,0.47956,0.39353605,-0.30712181,0.46355,0.34987325,-0.27965624,0.441555,0.33201798,-0.25948444,0.431786,0.40938163,-0.24843674,0.465151,0.40317781,-0.20515699,0.455792,0.4027238,-0.19013071,0.451113,0.40247048,-0.17590686,0.446858,0.43555001,-0.24965767,0.468133,0.41843466,-0.19950045,0.452301,0.41596357,-0.19367927,0.443065,0.4315161,-0.19723047,0.454413,0.4580184,-0.25406809,0.471162,0.43930572,-0.20881424,0.456606,0.43802973,-0.1993355,0.449159,0.43724075,-0.20688303,0.442388,0.4852641,-0.26903768,0.475869,0.47710902,-0.22828948,0.461235,0.47606409,-0.22638475,0.454511,0.485886,-0.24404601,0.462705
0.44891073,-0.34477337,0.47704,0.43673886,-0.30906097,0.472019,0.4218487,-0.33505858,0.473346,0.37936266,-0.31561678,0.460122,0.34099568,-0.2907385,0.442476,0.32150483,-0.27105271,0.434095,0.40329022,-0.2594454,0.463883,0.3969726,-0.21781119,0.459226,0.3950946,-0.19829504,0.456898,0.39339068,-0.18014035,0.454782,0.4295225,-0.26117105,0.466707,0.4113657,-0.21158787,0.453631,0.40545927,-0.1892694,0.446003,0.41799617,-0.18133963,0.458267,0.45180461,-0.26592244,0.469401,0.43722046,-0.22062393,0.459512,0.43562055,-0.20558503,0.454453,0.43431953,-0.19130755,0.449853,0.47963397,-0.27802219,0.47332,0.46471138,-0.23730854,0.462176,0.4637937,-0.2294663,0.457056,0.47710345,-0.22804479,0.466397
0.44367668,-0.34411174,0.473278,0.43075649,-0.30690676,0.468646,0.4181929,-0.33593149,0.471482,0.37647841,-0.31622714,0.460108,0.33505203,-0.29262842,0.442485,0.31844062,-0.27242245,0.4349,0.39412584,-0.26040543,0.463121,0.38713058,-0.21767454,0.456382,0.38419203,-0.19706194,0.453012,0.38571489,-0.17900371,0.449949,0.41850541,-0.25960479,0.463748,0.4065948,-0.21244742,0.456222,0.40145264,-0.18666575,0.451831,0.39775898,-0.16784448,0.448695,0.43928033,-0.26223939,0.464608,0.42717418,-0.21713302,0.456024,0.42481976,-0.19909454,0.451632,0.42274937,-0.18206794,0.44764,0.46542262,-0.27168553,0.466285,0.45264703,-0.23117181,0.455885,0.45148706,-0.22237427,0.451107,0.46457036,-0.22101423,0.460746
0.43007706,-0.35128541,0.469487,0.41712634,-0.31049205,0.465889,0.40878485,-0.33870961,0.468211,0.36283523,-0.31926159,0.458548,0.32471135,-0.29445475,0.439567,0.3106797,-0.27456859,0.434514,0.39123107,-0.26112101,0.461744,0.37997878,-0.21952047,0.45276,0.37521654,-0.19792887,0.448269,0.37407448,-0.17788227,0.444185,0.41373527,-0.26393528,0.462088,0.40549363,-0.21494586,0.456347,0.40104509,-0.18902245,0.452998,0.39817139,-0.1706193,0.450606,0.43397137,-0.26829328,0.462638,0.42231915,-0.22350669,0.455325,0.41776112,-0.20188576,0.451583,0.41884124,-0.1828544,0.448182,0.45861428,-0.27973464,0.463801,0.44893463,-0.23949829,0.454459,0.44856353,-0.22282076,0.450167,0.46153167,-0.21982094,0.460126
0.42801682,-0.3512602,0.468934,0.41454574,-0.30800323,0.463963,0.40635238,-0.3388458,0.467495,0.36113162,-0.31970462,0.457809,0.32042917,-0.29859504,0.4406,0.30035373,-0.28150436,0.435648,0.37971343,-0.2606927,0.458634,0.37637231,-0.21860869,0.451772,0.37290212,-0.19741193,0.448341,0.36974445,-0.1780723,0.445221,0.40361898,-0.25933496,0.458712,0.39087246,-0.21253886,0.451577,0.38478529,-0.18663224,0.447416,0.38039863,-0.16776179,0.444443,0.42401922,-0.26152767,0.459145,0.41306797,-0.2175122,0.452722,0.41070741,-0.19922247,0.449435,0.41073786,-0.18231601,0.446448,0.44976916,-0.27046248,0.460363,0.43916843,-0.23020848,0.450237,0.43693152,-0.21631459,0.445585,0.44864207,-0.21014183,0.455308
