sluyters/QuantumLeap/src/datasets/gesture/HandGestureDataset_SHREC2017_csv/Gesture5/finger_1/subject_21_essai_2_skeletons_world.csv
Wrist_x,Wrist_y,Wrist_z,Palm_x,Palm_y,Palm_z,thumb_base_x,thumb_base_y,thumb_base_z,thumb_first_joint_x,thumb_first_joint_y,thumb_first_joint_z,thumb_second_joint_x,thumb_second_joint_y,thumb_second_joint_z,thumb_tip_x,thumb_tip_y,thumb_tip_z,index_base_x,index_base_y,index_base_z,index_first_joint_x,index_first_joint_y,index_first_joint_z,index_second_joint_x,index_second_joint_y,index_second_joint_z,index_tip_x,index_tip_y,index_tip_z,middle_base_x,middle_base_y,middle_base_z,middle_first_joint_x,middle_first_joint_y,middle_first_joint_z,middle_second_joint_x,middle_second_joint_y,middle_second_joint_z,middle_tip_x,middle_tip_y,middle_tip_z,ring_base_x,ring_base_y,ring_base_z,ring_first_joint_x,ring_first_joint_y,ring_first_joint_z,ring_second_joint_x,ring_second_joint_y,ring_second_joint_z,ring_tip_x,ring_tip_y,ring_tip_z,pinky_base_x,pinky_base_y,pinky_base_z,pinky_first_joint_x,pinky_first_joint_y,pinky_first_joint_z,pinky_second_joint_x,pinky_second_joint_y,pinky_second_joint_z,pinky_tip_x,pinky_tip_y,pinky_tip_z,
0.376273056,-0.255375357,0.41926,0.354512091,-0.202511659,0.404828,0.352962502,-0.247083579,0.416588,0.356256398,-0.220403369,0.423132,0.349179053,-0.192485675,0.412359,0.346963101,-0.171452349,0.409187,0.312815957,-0.167790728,0.393046,0.280541666,-0.13460087,0.37656,0.271821444,-0.126009978,0.368317,0.273561655,-0.12304821,0.376881,0.332821171,-0.162266138,0.391994,0.309315881,-0.135117329,0.3727,0.326070696,-0.140568479,0.393116,0.343959722,-0.160837186,0.406504,0.351302079,-0.160986691,0.392218,0.337309928,-0.155606958,0.374875,0.356586728,-0.181455517,0.391735,0.372995135,-0.205745374,0.405473,0.377218739,-0.165670141,0.394508,0.35570956,-0.163618925,0.37927,0.364385621,-0.182375939,0.391097,0.373896302,-0.200055252,0.401045
0.383273225,-0.249294377,0.419148,0.355532574,-0.201250698,0.404227,0.359287362,-0.242566452,0.416458,0.355633227,-0.220660818,0.42255,0.351855972,-0.199090323,0.4116,0.347538436,-0.175299775,0.408168,0.312249108,-0.16776623,0.392136,0.280237354,-0.134204475,0.375371,0.270615489,-0.125152166,0.366988,0.27269293,-0.120863836,0.375399,0.331877087,-0.161343244,0.390958,0.308049292,-0.133743209,0.371272,0.324689943,-0.138987307,0.391553,0.341994099,-0.158224834,0.40504,0.350186042,-0.159300946,0.391115,0.336463469,-0.154622048,0.373456,0.356013232,-0.180338973,0.390207,0.372855671,-0.204587467,0.404029,0.376591345,-0.16116112,0.393394,0.355118954,-0.162279866,0.377903,0.363685627,-0.180919978,0.389645,0.372605935,-0.198476473,0.399649
0.386345822,-0.249067902,0.42033,0.356882481,-0.200936205,0.404542,0.362135469,-0.242762561,0.417527,0.356011484,-0.221038912,0.422622,0.352277946,-0.199024246,0.410968,0.348996073,-0.179292778,0.406966,0.312333923,-0.167799537,0.391802,0.280151551,-0.133891962,0.374484,0.269893788,-0.124529978,0.365826,0.271611058,-0.120185131,0.373949,0.331747231,-0.160898123,0.390502,0.30783327,-0.133860118,0.370106,0.325960555,-0.142923357,0.390144,0.343607422,-0.163256636,0.403811,0.349983871,-0.158475034,0.390624,0.335964275,-0.153539202,0.372363,0.356717613,-0.178673283,0.388917,0.374553347,-0.202917711,0.402903,0.376462464,-0.160143233,0.392984,0.356239471,-0.16027518,0.377015,0.364746424,-0.17877049,0.388603,0.372203673,-0.197167849,0.398716
0.389258496,-0.24483902,0.417937,0.358465417,-0.196978921,0.40199,0.365268733,-0.240051821,0.415574,0.370435117,-0.218071693,0.42135,0.356876269,-0.192322492,0.411654,0.348837073,-0.175680209,0.408073,0.311018459,-0.166763919,0.389703,0.279202355,-0.132855387,0.372621,0.268915986,-0.123612666,0.36408,0.270527263,-0.119195704,0.372211,0.329652898,-0.159091282,0.387808,0.305039766,-0.129868762,0.367389,0.324431315,-0.141332016,0.387326,0.342012237,-0.16162535,0.40097,0.347449748,-0.153965051,0.387454,0.333972031,-0.140503624,0.369346,0.354446757,-0.165072378,0.385826,0.372346693,-0.189034359,0.399721,0.373629665,-0.150997307,0.38927,0.354677754,-0.154924639,0.373398,0.363644706,-0.173232292,0.384933,0.370012348,-0.192108015,0.394991
0.394788064,-0.241965012,0.418088,0.362266268,-0.193126273,0.400921,0.37074536,-0.238532206,0.415906,0.372992419,-0.217388839,0.421003,0.359992541,-0.192320691,0.412235,0.350072874,-0.175018619,0.408321,0.310995483,-0.165967296,0.388145,0.278699294,-0.131859456,0.370501,0.267745489,-0.122425412,0.361679,0.268797119,-0.118983754,0.369409,0.32877495,-0.157014905,0.385655,0.303309829,-0.128263622,0.364333,0.324502193,-0.140275169,0.383836,0.34217707,-0.160951098,0.397671,0.347026328,-0.149357883,0.384902,0.33210916,-0.136513826,0.366157,0.354250321,-0.157492394,0.382291,0.371120759,-0.184288181,0.396306,0.372439595,-0.148577813,0.386418,0.353531987,-0.150705844,0.370025,0.363152394,-0.168934013,0.381296,0.370395167,-0.187222157,0.391435
0.393470736,-0.237938049,0.4139,0.361179979,-0.190498715,0.397828,0.374904335,-0.233149316,0.412093,0.37518434,-0.214880403,0.419167,0.366655014,-0.192809524,0.415675,0.355828764,-0.173458711,0.413234,0.311458129,-0.164736202,0.386159,0.27955722,-0.130349949,0.368776,0.26867126,-0.120820989,0.360084,0.268675928,-0.117614427,0.368044,0.329177702,-0.153346475,0.383535,0.302893807,-0.127408328,0.363155,0.324602649,-0.139685283,0.382961,0.344107274,-0.160781221,0.39655,0.345730482,-0.147357475,0.38259,0.330380437,-0.127183082,0.363908,0.352036556,-0.149522668,0.380247,0.371421801,-0.176393941,0.394318,0.3718162,-0.14441365,0.383724,0.354181681,-0.147537457,0.368021,0.364595912,-0.165822748,0.379487,0.371668766,-0.183431258,0.38946
0.395826956,-0.234668548,0.412371,0.362620215,-0.188297219,0.396704,0.374615854,-0.231348108,0.410347,0.374247137,-0.213732622,0.417908,0.366975476,-0.191898425,0.414287,0.361065338,-0.172472419,0.412091,0.311932846,-0.163518176,0.385003,0.279743258,-0.129010192,0.367495,0.268109835,-0.119956727,0.358741,0.268115897,-0.116890465,0.366759,0.328961694,-0.152487073,0.382772,0.302757448,-0.126909567,0.362654,0.324443408,-0.139133794,0.382629,0.344141017,-0.160095538,0.396176,0.34570555,-0.146414414,0.382118,0.330056163,-0.127073337,0.363846,0.35176853,-0.149573718,0.380333,0.371209698,-0.175147059,0.394298,0.371830058,-0.143443709,0.383541,0.35418376,-0.146827511,0.367947,0.364770778,-0.165156764,0.379513,0.372380827,-0.182698871,0.389486
0.400459896,-0.231861926,0.412488,0.363139082,-0.187593284,0.39643,0.375792328,-0.230337303,0.409787,0.37396213,-0.212801998,0.417314,0.365665142,-0.190493277,0.412894,0.36062217,-0.171018776,0.410603,0.311339249,-0.163051019,0.383659,0.280803796,-0.127797356,0.365122,0.269084578,-0.117439487,0.355853,0.269306479,-0.114782359,0.363564,0.328713581,-0.151996671,0.38215,0.301911466,-0.126459499,0.361565,0.323411357,-0.138530197,0.38151,0.343535735,-0.159333737,0.395216,0.346595488,-0.145021387,0.38212,0.329636894,-0.127087556,0.36375,0.351660043,-0.14963657,0.380231,0.371356801,-0.174503582,0.394232,0.372751494,-0.141572511,0.384337,0.354670635,-0.145052023,0.368275,0.36555963,-0.163347146,0.379807,0.374711195,-0.181181261,0.389931
0.40150647,-0.231050055,0.412334,0.363383757,-0.187105626,0.396148,0.376406199,-0.229546958,0.409191,0.373687187,-0.212161315,0.416797,0.364763906,-0.189559099,0.411883,0.360287105,-0.170075667,0.409592,0.310947903,-0.162718492,0.382752,0.280446293,-0.127530899,0.363825,0.268533424,-0.116875845,0.354361,0.268855375,-0.114140529,0.361965,0.328586585,-0.151656145,0.381753,0.301732778,-0.125718546,0.360968,0.322868565,-0.138147066,0.380915,0.343272329,-0.158835586,0.394695,0.34666106,-0.144715763,0.382153,0.32925125,-0.126961559,0.363453,0.351430881,-0.149532542,0.379928,0.371372611,-0.174041127,0.39406,0.373281779,-0.141336047,0.384899,0.354976373,-0.144794898,0.368597,0.365937904,-0.163099611,0.380122,0.375312227,-0.180847148,0.390328
0.403149768,-0.230697972,0.413141,0.363437147,-0.186405108,0.395814,0.379102994,-0.228252583,0.409286,0.372914199,-0.211491765,0.416147,0.363172208,-0.188577717,0.410215,0.358802452,-0.16901926,0.407439,0.309660041,-0.161695144,0.380864,0.280147595,-0.126498879,0.360809,0.266808126,-0.115166053,0.350781,0.267311337,-0.112342878,0.357901,0.328181917,-0.150288563,0.380405,0.300264808,-0.124273758,0.358571,0.320806374,-0.136888573,0.378212,0.34160345,-0.157513977,0.392274,0.346118465,-0.143219351,0.381335,0.327447072,-0.125389151,0.361533,0.34948892,-0.14777549,0.377749,0.369882755,-0.170774367,0.392223,0.373295022,-0.140667363,0.384868,0.35462021,-0.141696094,0.367726,0.365653735,-0.159809924,0.379047,0.375391184,-0.178257338,0.389469
0.402763225,-0.229587009,0.412076,0.363361077,-0.185849233,0.39537,0.37872041,-0.227387805,0.408364,0.373125377,-0.210365903,0.415735,0.364322341,-0.187619438,0.4101,0.362110641,-0.167751286,0.407622,0.310676867,-0.161402647,0.380962,0.279386543,-0.126051656,0.361348,0.267731073,-0.114626098,0.351541,0.269094752,-0.111298308,0.358886,0.328468794,-0.150047318,0.380513,0.301000366,-0.12436909,0.359197,0.321721411,-0.136934881,0.379022,0.342556347,-0.157493749,0.392955,0.346229648,-0.143546277,0.381405,0.328201634,-0.125429301,0.362065,0.350468593,-0.148068018,0.378432,0.370676707,-0.170962852,0.392779,0.373449681,-0.140292251,0.384806,0.355051447,-0.142855119,0.368027,0.365953591,-0.161065473,0.379464,0.37590656,-0.177922048,0.389805
0.401006196,-0.228154392,0.410006,0.362789013,-0.18397358,0.393559,0.374868807,-0.226120628,0.405671,0.370923612,-0.208875976,0.413509,0.362131904,-0.186248125,0.407279,0.35915913,-0.167079066,0.405014,0.313761769,-0.153898931,0.378529,0.285116678,-0.117570411,0.358935,0.272251452,-0.105597476,0.349137,0.271841101,-0.105183764,0.356539,0.33323878,-0.144343371,0.378933,0.301264629,-0.123199691,0.357696,0.321213175,-0.136286864,0.377607,0.341577053,-0.156934545,0.391539,0.34947406,-0.140233456,0.380507,0.328146577,-0.125589621,0.360989,0.349993583,-0.14954129,0.377413,0.369828893,-0.171893661,0.391855,0.377754931,-0.138795859,0.38468,0.355041042,-0.144536906,0.367799,0.365607041,-0.162823866,0.379279,0.375577404,-0.178889306,0.389671
0.407425281,-0.229270276,0.413942,0.376032727,-0.182568144,0.395452,0.382200134,-0.226813043,0.409823,0.371164772,-0.207300334,0.411579,0.353153984,-0.181596432,0.396978,0.344467177,-0.162183218,0.391127,0.322941994,-0.154324354,0.379491,0.292974917,-0.117445288,0.35845,0.279380422,-0.104418142,0.34793,0.280792125,-0.100147643,0.354567,0.341786689,-0.144406649,0.379008,0.312716966,-0.121088499,0.356211,0.332075296,-0.134729908,0.375487,0.3472962,-0.15673229,0.389784,0.360559591,-0.139223942,0.380006,0.339700166,-0.124245302,0.359345,0.359940279,-0.148491352,0.375263,0.374016704,-0.17065765,0.389965,0.38904055,-0.138833578,0.383784,0.365983873,-0.143658515,0.365969,0.375573576,-0.161689547,0.377059,0.385367148,-0.177298436,0.387629
0.402637985,-0.227957515,0.411319,0.364418488,-0.180405528,0.392493,0.375024197,-0.224637688,0.406459,0.346761312,-0.193275391,0.396189,0.320268978,-0.168279147,0.378698,0.304370625,-0.146843759,0.367015,0.32530712,-0.136388534,0.375415,0.297026048,-0.101251184,0.354206,0.285864997,-0.100038145,0.343601,0.289020854,-0.103780176,0.350147,0.346902258,-0.133269651,0.37575,0.31971545,-0.114595872,0.352541,0.331669728,-0.131416968,0.371724,0.342468163,-0.153865292,0.386141,0.367140713,-0.134117841,0.377446,0.342782725,-0.128237075,0.356175,0.357726756,-0.153720609,0.372004,0.374289889,-0.173293849,0.386917,0.395802663,-0.141848376,0.382098,0.365191987,-0.140945158,0.363842,0.374722041,-0.158864827,0.374862,0.384680176,-0.174723835,0.385559
0.399246467,-0.225118325,0.408146,0.365906431,-0.172733877,0.389906,0.367729728,-0.215436854,0.402663,0.342700539,-0.189146402,0.391863,0.314294694,-0.163359605,0.372523,0.298100488,-0.142000352,0.36021,0.322323338,-0.133526136,0.372398,0.299786906,-0.0961711526,0.351356,0.288447287,-0.0906860649,0.340836,0.29173964,-0.0905552974,0.347517,0.344738066,-0.130740381,0.373685,0.319476917,-0.115859691,0.35082,0.338195085,-0.136205105,0.370164,0.350365958,-0.157099013,0.384506,0.365649812,-0.13181866,0.376121,0.3423678,-0.126323288,0.35488,0.356641705,-0.150048903,0.370826,0.370884743,-0.170857306,0.385773,0.395080558,-0.139747432,0.381567,0.366966646,-0.136650284,0.363378,0.376290634,-0.154704712,0.374487,0.385012003,-0.172770696,0.385195
0.39404183,-0.221990397,0.403731,0.364920231,-0.171160801,0.388188,0.364395221,-0.212463821,0.399793,0.340718375,-0.187108338,0.390157,0.311963915,-0.160052339,0.372042,0.29660314,-0.14049891,0.359698,0.32551814,-0.131679944,0.374182,0.307152741,-0.0939643063,0.355326,0.295146737,-0.0864640926,0.345898,0.297830064,-0.0840384111,0.353645,0.346566678,-0.130134119,0.374366,0.322785869,-0.117287135,0.353925,0.340473931,-0.137312056,0.374089,0.35237224,-0.157736794,0.387812,0.366401268,-0.131009596,0.375692,0.344603118,-0.126547616,0.356954,0.359277578,-0.151184324,0.373587,0.37041765,-0.171314807,0.387798,0.393966943,-0.13855922,0.379443,0.36714665,-0.135988326,0.363164,0.376759624,-0.154287943,0.374808,0.385144672,-0.171915958,0.385052
0.395392435,-0.222653088,0.406037,0.366373176,-0.171302907,0.389387,0.366218715,-0.212913781,0.402272,0.337004748,-0.183326588,0.386448,0.309302397,-0.158227719,0.369096,0.29452,-0.138798866,0.357588,0.326892901,-0.13178798,0.374946,0.305833092,-0.0958252316,0.355496,0.294131407,-0.0897251994,0.345772,0.29705368,-0.0888515929,0.353176,0.347913308,-0.128846444,0.37458,0.322584817,-0.117183394,0.353297,0.339432773,-0.136574859,0.373141,0.351861139,-0.157828289,0.387069,0.366851406,-0.130692521,0.375537,0.34410958,-0.125934215,0.356202,0.358443617,-0.150698238,0.372583,0.372138498,-0.171431519,0.386934,0.394057549,-0.138255665,0.379006,0.366488008,-0.135286978,0.362234,0.375779354,-0.153479462,0.373683,0.384334631,-0.170929978,0.384025
0.387804411,-0.218021853,0.397891,0.370652063,-0.170866818,0.390727,0.364492221,-0.212044339,0.397409,0.339881827,-0.181542179,0.387105,0.321129987,-0.156132685,0.376585,0.310109553,-0.135900572,0.369368,0.346581084,-0.13509063,0.385928,0.332450406,-0.102546769,0.374312,0.323142517,-0.0993203341,0.368504,0.328234429,-0.101323357,0.379162,0.366934116,-0.133041078,0.384357,0.348414211,-0.122177626,0.371437,0.364848834,-0.140172152,0.393291,0.369887872,-0.165713532,0.404824,0.384876918,-0.134517136,0.383605,0.367729815,-0.130098246,0.372158,0.382445387,-0.156840836,0.390196,0.389810489,-0.17723611,0.402138,0.40829885,-0.142423031,0.383718,0.385349713,-0.139034379,0.37312,0.394850156,-0.15800889,0.385902,0.396003837,-0.175370337,0.394588
0.379652745,-0.216179816,0.397677,0.372304894,-0.169960196,0.390996,0.358519498,-0.205141516,0.395676,0.329207229,-0.167565773,0.383522,0.304734431,-0.142258791,0.371274,0.29230613,-0.121594421,0.363851,0.356758039,-0.125080982,0.384592,0.349889952,-0.0987580221,0.372837,0.341779431,-0.0953268206,0.366959,0.348349314,-0.0981205213,0.377649,0.379045533,-0.12967966,0.385054,0.365082684,-0.120454202,0.372223,0.381027111,-0.139801101,0.3942,0.380892969,-0.162803839,0.40574,0.397699509,-0.136680139,0.385938,0.384157552,-0.127898341,0.373976,0.392898994,-0.15325934,0.392084,0.393592283,-0.177547445,0.40481,0.42025779,-0.151199227,0.387924,0.400375991,-0.142472012,0.377014,0.40210348,-0.159476087,0.389847,0.402008393,-0.175912563,0.398662
0.381791858,-0.217082269,0.401918,0.378481255,-0.168506221,0.393029,0.355647346,-0.192906869,0.397789,0.329816012,-0.165574893,0.38264,0.308481147,-0.139802833,0.367142,0.297410401,-0.118594561,0.358101,0.364951467,-0.119284724,0.382686,0.354004743,-0.104504819,0.3684,0.34865504,-0.0966338193,0.361256,0.359465957,-0.0953097299,0.370976,0.387747516,-0.128658849,0.385124,0.372207294,-0.122730032,0.370084,0.385954242,-0.142784007,0.391573,0.386377247,-0.162188238,0.403758,0.406362267,-0.139696727,0.3878,0.394280674,-0.129568505,0.37327,0.39980144,-0.15227884,0.390948,0.398063282,-0.174518492,0.403878,0.427890229,-0.159131484,0.39222,0.408390169,-0.150299698,0.379378,0.40975737,-0.161866624,0.391864,0.405709699,-0.177181596,0.401225
0.381487431,-0.21655812,0.402888,0.379351372,-0.167767958,0.39312,0.35642524,-0.192133673,0.398646,0.331266167,-0.165240064,0.383208,0.309634498,-0.139874883,0.36762,0.298524618,-0.118591692,0.358545,0.36518354,-0.118956966,0.38212,0.353659157,-0.103979382,0.367187,0.348020697,-0.0960232686,0.35972,0.358650952,-0.0946265307,0.369189,0.387874886,-0.128291,0.384433,0.372416451,-0.120717616,0.368642,0.385942713,-0.141024073,0.38999,0.38677372,-0.161469868,0.402402,0.406466424,-0.139315571,0.387073,0.393758236,-0.128957045,0.371902,0.399404968,-0.151345396,0.389468,0.398048657,-0.173399844,0.402611,0.428100665,-0.158781825,0.391572,0.408076089,-0.149741561,0.378215,0.411681032,-0.162978837,0.390607,0.4071477,-0.177037965,0.400113
0.377934776,-0.212183668,0.40942,0.380518437,-0.165219218,0.393146,0.357919221,-0.190817082,0.401419,0.326519731,-0.14949647,0.382765,0.300257828,-0.119909265,0.364951,0.287919025,-0.0977830765,0.353371,0.366333998,-0.110616873,0.373662,0.352628739,-0.101325397,0.353272,0.345996212,-0.0965648476,0.343076,0.356526617,-0.0966007219,0.349906,0.386155029,-0.125451247,0.378673,0.370444938,-0.121676897,0.357038,0.378520571,-0.145327619,0.376386,0.377655824,-0.161802662,0.390284,0.404933735,-0.138671599,0.384026,0.39035676,-0.134698637,0.362807,0.390875481,-0.154488552,0.378694,0.38602972,-0.171316957,0.393609,0.429492046,-0.160732662,0.392652,0.406591083,-0.156395829,0.374685,0.407332225,-0.168370012,0.385771,0.404923983,-0.176585913,0.396393
0.374399766,-0.209217864,0.406928,0.37852772,-0.162420756,0.38841,0.356380856,-0.185390559,0.400014,0.328045395,-0.147271395,0.382011,0.303269066,-0.118251436,0.365805,0.292300665,-0.0962972828,0.355447,0.377752808,-0.112004191,0.368961,0.357595637,-0.103896532,0.347331,0.347579064,-0.0997957302,0.336517,0.352308083,-0.0977039424,0.342879,0.396436012,-0.128470536,0.371942,0.381656838,-0.115639376,0.34863,0.382422537,-0.139070556,0.367714,0.387061362,-0.15174538,0.382137,0.411092882,-0.145116452,0.375793,0.386759923,-0.140410408,0.353655,0.385081596,-0.157848717,0.369361,0.383295859,-0.170418426,0.384574,0.426966043,-0.170742433,0.382955,0.400060411,-0.16162687,0.364152,0.399007994,-0.172193435,0.375079,0.397169797,-0.180031,0.385934
0.373220253,-0.207709567,0.406601,0.378321017,-0.162252132,0.385641,0.356806745,-0.183544566,0.399758,0.330791709,-0.144075019,0.381487,0.305936962,-0.114716104,0.364729,0.295137439,-0.0925326949,0.353594,0.380439759,-0.112763493,0.364847,0.353355236,-0.103673293,0.341947,0.34155236,-0.0996063086,0.330496,0.347373634,-0.100686616,0.336099,0.39690806,-0.130294828,0.367,0.375742699,-0.1181994,0.34178,0.374227075,-0.13806251,0.360131,0.380003855,-0.15030031,0.375014,0.409659847,-0.147719794,0.370355,0.378890006,-0.142828787,0.346742,0.37642346,-0.156568219,0.361862,0.376117797,-0.168907017,0.377436,0.423102437,-0.174049466,0.377271,0.391607974,-0.164072865,0.357277,0.390085594,-0.171128023,0.367751,0.389416662,-0.18206086,0.378849
0.373341674,-0.206853747,0.407249,0.383324167,-0.1623701,0.384202,0.357765935,-0.182108844,0.399766,0.33335154,-0.141686405,0.380792,0.313265236,-0.109768604,0.365133,0.304765801,-0.0875458193,0.354539,0.384377776,-0.11440111,0.361391,0.351851319,-0.105137304,0.336971,0.337426289,-0.101181282,0.324762,0.340607613,-0.102497536,0.329466,0.399353343,-0.13327672,0.363707,0.373531669,-0.121691548,0.336778,0.368697179,-0.13954859,0.354304,0.375242344,-0.149485155,0.369546,0.410820517,-0.151683936,0.367352,0.374488814,-0.143535677,0.342157,0.370269669,-0.158042302,0.356599,0.371763429,-0.169932097,0.372541,0.422615124,-0.178911391,0.374905,0.387773906,-0.165097454,0.353694,0.384175118,-0.173800839,0.36365,0.384892875,-0.181959919,0.374976
0.375489386,-0.205048685,0.410828,0.38677821,-0.16273103,0.383896,0.362945372,-0.174487349,0.400609,0.342444614,-0.134196427,0.380841,0.321495583,-0.101713185,0.363521,0.314036285,-0.079616286,0.351536,0.388515882,-0.113689486,0.355407,0.347723056,-0.108200033,0.327256,0.327314334,-0.105459966,0.313181,0.324330782,-0.108167727,0.315542,0.402968315,-0.135171084,0.359945,0.366327641,-0.12702628,0.329726,0.359336097,-0.140157121,0.345063,0.366995974,-0.147126885,0.360808,0.411500666,-0.153230662,0.365713,0.367215407,-0.1506824,0.33692,0.36178552,-0.158531962,0.34953,0.365050653,-0.167662,0.366194,0.424821726,-0.181985616,0.376327,0.38332607,-0.172866712,0.352465,0.379066002,-0.176652007,0.361048,0.380563921,-0.183648431,0.372774
0.376983588,-0.200519797,0.413056,0.389546295,-0.162460483,0.38237,0.375767142,-0.166467762,0.403753,0.355197786,-0.126767598,0.383058,0.330609753,-0.0968347321,0.363143,0.312228588,-0.0793365933,0.346719,0.395523157,-0.11729813,0.352817,0.346444342,-0.107731523,0.323435,0.324432435,-0.104057845,0.308745,0.319923711,-0.103127952,0.309781,0.403707194,-0.139411662,0.35508,0.359089477,-0.124993971,0.322258,0.349645807,-0.136544541,0.335892,0.358130007,-0.144003481,0.352045,0.409729653,-0.159870068,0.35926,0.357332896,-0.148209218,0.328797,0.351278116,-0.155144231,0.340047,0.355561824,-0.163957674,0.356842,0.415358228,-0.188277485,0.368519,0.369596078,-0.171590064,0.343287,0.364839221,-0.174504302,0.350846,0.369096316,-0.179606007,0.362658
0.378528039,-0.199957142,0.414131,0.39300064,-0.164362036,0.382729,0.374354939,-0.169567895,0.404026,0.357524621,-0.127697929,0.383201,0.342007648,-0.09616031,0.365414,0.335292796,-0.0746721707,0.351931,0.396015217,-0.12426465,0.35176,0.349517833,-0.114653732,0.321093,0.326355959,-0.109839643,0.30576,0.317059374,-0.106425226,0.306077,0.403983296,-0.146987153,0.354802,0.358500927,-0.134632532,0.321369,0.347255879,-0.145320155,0.334422,0.356241002,-0.15394036,0.350613,0.409810429,-0.167784219,0.359677,0.359924182,-0.157276224,0.32844,0.351829897,-0.164905505,0.339201,0.355245086,-0.174477776,0.356113,0.415188691,-0.196331716,0.36986,0.370143954,-0.180001883,0.344081,0.363423995,-0.184223816,0.351278,0.366058639,-0.191319841,0.363141
0.380610906,-0.202704962,0.414549,0.395429068,-0.171368343,0.381614,0.379203177,-0.168072673,0.403842,0.370389358,-0.131309297,0.383742,0.353116532,-0.0983080547,0.364655,0.346199024,-0.0771017679,0.349964,0.400115407,-0.132695431,0.348998,0.348049638,-0.120135767,0.31723,0.32226873,-0.113863688,0.301346,0.313985288,-0.111007099,0.300673,0.405505676,-0.156130661,0.352324,0.349667801,-0.141333872,0.317767,0.338112002,-0.148812427,0.329685,0.351114156,-0.154385389,0.345926,0.40931903,-0.177268044,0.357548,0.353950547,-0.163059249,0.325226,0.346595977,-0.165520726,0.33505,0.35086813,-0.174489128,0.352026,0.412518108,-0.205684236,0.36836,0.364521242,-0.185813982,0.341789,0.357721764,-0.188093938,0.348292,0.362174987,-0.192035944,0.360165
0.384655763,-0.191511119,0.412078,0.393413271,-0.170692183,0.37443,0.3803218,-0.16525858,0.398533,0.373072553,-0.124788377,0.377172,0.355317996,-0.0914528284,0.35764,0.343171888,-0.0728703905,0.342024,0.388177574,-0.128872099,0.335525,0.324290974,-0.118317249,0.30055,0.292569127,-0.112810045,0.283062,0.273867237,-0.111918668,0.278301,0.39524447,-0.153657753,0.340949,0.327033773,-0.141405647,0.303267,0.317115673,-0.141387126,0.309954,0.331064188,-0.146232875,0.325683,0.401186801,-0.175667263,0.348254,0.331448331,-0.161087392,0.312552,0.322834123,-0.15878876,0.318042,0.342994047,-0.162463329,0.333502,0.406974644,-0.203416812,0.362194,0.351591943,-0.184600971,0.333321,0.340702736,-0.183161217,0.33665,0.347468307,-0.187260937,0.348103
0.397288536,-0.183068429,0.40469,0.388716716,-0.165657396,0.364459,0.388518312,-0.158520507,0.389384,0.369461171,-0.117892214,0.363514,0.347536895,-0.0856038196,0.341326,0.335459565,-0.0657586762,0.323895,0.371592035,-0.126930816,0.321851,0.29990593,-0.118292061,0.28613,0.26535405,-0.113194152,0.26827,0.241042726,-0.110466602,0.259036,0.380394144,-0.152300672,0.328681,0.299651494,-0.140015431,0.290443,0.294217494,-0.134517893,0.290266,0.309710601,-0.137367057,0.302448,0.388563833,-0.174457524,0.337339,0.311570156,-0.159273013,0.300795,0.304882427,-0.15096956,0.300615,0.311906959,-0.146890864,0.300452,0.39992709,-0.202966179,0.353244,0.340599055,-0.181079539,0.324173,0.326110807,-0.176748846,0.323407,0.332218655,-0.178797426,0.333342
0.396469812,-0.182384794,0.399771,0.385380652,-0.166699912,0.358848,0.38781926,-0.15832348,0.385087,0.372153553,-0.122383464,0.358838,0.351496653,-0.0898641214,0.336541,0.339482202,-0.0703601709,0.318942,0.362404404,-0.131328271,0.316606,0.288637556,-0.118806609,0.281551,0.25395901,-0.112005006,0.264023,0.232347688,-0.10769566,0.253482,0.368489065,-0.156750391,0.322454,0.286391673,-0.139686093,0.28445,0.282103442,-0.132757169,0.281871,0.298575965,-0.133228935,0.290889,0.374911853,-0.178945676,0.330356,0.297209376,-0.159083797,0.294336,0.289665304,-0.150958079,0.292194,0.293643319,-0.143843256,0.290247,0.385139272,-0.207468465,0.345462,0.324376759,-0.18322149,0.316901,0.309105852,-0.176759627,0.314726,0.313541552,-0.176272819,0.323934
0.396882222,-0.181740512,0.397868,0.383430586,-0.170761898,0.357685,0.387426637,-0.157726766,0.382355,0.370480427,-0.121263568,0.355255,0.35482383,-0.0892253974,0.332046,0.344472174,-0.0707579469,0.314155,0.359003375,-0.13674387,0.314847,0.285965441,-0.119784088,0.280008,0.251622179,-0.11253076,0.262588,0.226006095,-0.107104871,0.251322,0.364087522,-0.162435005,0.32195,0.285513549,-0.141673589,0.284795,0.275758606,-0.135579256,0.281002,0.29834147,-0.137463834,0.29079,0.36982919,-0.184429468,0.330828,0.295625741,-0.160390974,0.295222,0.287934806,-0.151044936,0.292059,0.291773789,-0.14468657,0.289184,0.379542673,-0.211978884,0.346988,0.323453419,-0.184966031,0.318901,0.307847336,-0.177463735,0.316003,0.312365966,-0.176270532,0.324765
0.395715059,-0.181463971,0.394535,0.378583553,-0.17368875,0.354833,0.389824035,-0.158338782,0.37902,0.374110939,-0.126188441,0.351452,0.357173092,-0.0944962264,0.328172,0.346378689,-0.0766363591,0.310165,0.351267014,-0.14315054,0.312274,0.280245773,-0.125309598,0.27879,0.248437167,-0.11462513,0.262047,0.223457028,-0.107180641,0.249997,0.353731811,-0.168594371,0.319524,0.275346621,-0.14400892,0.283344,0.270610637,-0.134641618,0.277704,0.290247833,-0.137773237,0.286354,0.357756275,-0.19028065,0.328488,0.283738716,-0.164274377,0.293739,0.276700776,-0.153007688,0.289052,0.299350617,-0.153511162,0.300755,0.366263407,-0.217272992,0.344682,0.310066477,-0.187017609,0.317402,0.295620596,-0.176874756,0.313422,0.306936482,-0.174768982,0.321481
0.393692673,-0.181630343,0.391721,0.372314973,-0.178407287,0.353056,0.388937214,-0.160925835,0.375878,0.371160739,-0.127759565,0.348724,0.356468412,-0.0994488072,0.325151,0.345193158,-0.0792629098,0.307386,0.342172206,-0.14821456,0.310697,0.273331126,-0.125568634,0.278367,0.241335106,-0.114810995,0.262202,0.217603386,-0.107515718,0.249514,0.343641706,-0.173562616,0.31867,0.268095969,-0.146143367,0.283781,0.261787715,-0.136446034,0.276649,0.284129162,-0.139649059,0.284225,0.346973013,-0.195081348,0.32815,0.275658971,-0.165026702,0.294373,0.273872696,-0.153130683,0.288443,0.293537977,-0.155415476,0.296741,0.354910159,-0.221684796,0.34481,0.301774435,-0.189568075,0.318441,0.287707416,-0.177871013,0.313588,0.298574473,-0.175302403,0.320987
0.390075699,-0.18052687,0.384504,0.365530613,-0.181355394,0.350524,0.382782165,-0.160098515,0.369315,0.368239022,-0.130873951,0.344828,0.353428049,-0.100209287,0.321152,0.343117882,-0.0834025884,0.302863,0.339620353,-0.152733743,0.311726,0.277917363,-0.1290533,0.284534,0.248057635,-0.118732358,0.270938,0.219581227,-0.108927249,0.256186,0.34000976,-0.178179678,0.320304,0.300284492,-0.167164779,0.29127,0.264554928,-0.151305557,0.278736,0.268081782,-0.150748258,0.285304,0.342387812,-0.199584667,0.329928,0.279694943,-0.16887477,0.301322,0.27236882,-0.155154142,0.290924,0.293706791,-0.157281659,0.298322,0.349133221,-0.225610182,0.346102,0.300356698,-0.196539806,0.324252,0.283008146,-0.182879013,0.316277,0.287179448,-0.178566961,0.320875
0.386368104,-0.181251251,0.379233,0.360746212,-0.183800599,0.34764,0.37932311,-0.163203443,0.363929,0.364106257,-0.132676934,0.339598,0.348458032,-0.104609311,0.315147,0.337669805,-0.0862799116,0.2971,0.333994521,-0.158666643,0.3101,0.272656837,-0.135721396,0.284935,0.243836809,-0.124781781,0.272353,0.217543465,-0.111073486,0.257384,0.334731196,-0.183984885,0.319544,0.288887724,-0.173279525,0.29293,0.255670913,-0.155012804,0.279232,0.264507537,-0.152029002,0.284559,0.337460347,-0.204939287,0.329701,0.274311157,-0.175521715,0.30304,0.26659337,-0.15973463,0.291666,0.287941245,-0.160582413,0.297888,0.34696324,-0.227749922,0.34617,0.29769928,-0.202162008,0.326004,0.279846026,-0.187795735,0.317366,0.285395166,-0.180468861,0.321114
0.381053897,-0.210052285,0.36427,0.344920457,-0.187749527,0.337555,0.376978517,-0.187244018,0.354564,0.367112996,-0.154485493,0.341417,0.353751999,-0.123412524,0.3226,0.341435751,-0.105200081,0.306413,0.318774936,-0.145026426,0.309832,0.269554335,-0.12524615,0.293331,0.244917979,-0.115306316,0.28508,0.216620265,-0.103309934,0.269324,0.31231958,-0.167521708,0.313798,0.260708998,-0.137978528,0.294286,0.231567392,-0.121318137,0.282904,0.207520675,-0.110839733,0.266781,0.3096888,-0.187994864,0.319079,0.266022291,-0.155543522,0.300282,0.243838221,-0.139209738,0.290665,0.218830707,-0.122930696,0.277438,0.311762572,-0.215489989,0.329085,0.274188427,-0.189531714,0.315244,0.261510516,-0.17495587,0.303827,0.268877806,-0.170981496,0.304272
0.379391772,-0.210564058,0.362197,0.342320293,-0.187834675,0.336218,0.374963335,-0.187541235,0.352,0.364323075,-0.154879809,0.338122,0.351151538,-0.124291169,0.319021,0.338162885,-0.106273518,0.303076,0.315160536,-0.144633964,0.308314,0.267299353,-0.124616878,0.292698,0.24330164,-0.114520568,0.284891,0.215723179,-0.102329277,0.269319,0.308800442,-0.167194492,0.313114,0.258628832,-0.137005082,0.294224,0.23020312,-0.119930701,0.283204,0.206541315,-0.10904213,0.267172,0.302955401,-0.187636634,0.319026,0.260457812,-0.153544282,0.300624,0.237651352,-0.136513197,0.29121,0.219246598,-0.123976595,0.281945,0.304988865,-0.215284943,0.329676,0.272146185,-0.189459841,0.316109,0.260667526,-0.174746046,0.304639,0.268337724,-0.171002446,0.304966
0.383579523,-0.213605389,0.366342,0.340101315,-0.187702371,0.33553,0.378959399,-0.190225193,0.355678,0.364152047,-0.155622054,0.337869,0.350495787,-0.126435551,0.31742,0.33527875,-0.108160943,0.301593,0.306845331,-0.143167423,0.304213,0.255194011,-0.119945196,0.28369,0.229894826,-0.108352156,0.273429,0.205424811,-0.0969878499,0.257811,0.2983752,-0.164449742,0.308128,0.245402879,-0.130745619,0.284289,0.215887221,-0.11205688,0.270384,0.193841628,-0.100745671,0.254409,0.291686215,-0.183706897,0.313676,0.249180156,-0.147750752,0.290889,0.225350169,-0.129844228,0.279231,0.204070155,-0.115946424,0.268633,0.293536224,-0.210427973,0.324574,0.254342864,-0.183409384,0.307454,0.243523577,-0.168977752,0.297081,0.248726263,-0.16451875,0.299084
0.372259657,-0.208631009,0.356441,0.334270044,-0.187272751,0.333135,0.367061152,-0.185487394,0.345215,0.35514291,-0.155021333,0.330588,0.340802661,-0.125052332,0.309644,0.327386501,-0.10681273,0.295378,0.303796429,-0.144322764,0.305521,0.258505533,-0.123041374,0.292185,0.23592193,-0.112090131,0.285517,0.213008376,-0.100177757,0.270376,0.297163228,-0.166810948,0.312409,0.250216122,-0.134877895,0.295455,0.223572566,-0.116801158,0.285566,0.202299148,-0.104936338,0.269815,0.294557343,-0.187365594,0.319836,0.254136211,-0.152688971,0.302915,0.232848022,-0.135191648,0.294257,0.213783581,-0.121397036,0.286387,0.297084373,-0.21511143,0.331909,0.261889205,-0.190318657,0.319599,0.250375038,-0.174851897,0.307985,0.254211344,-0.169083067,0.307814
0.371511143,-0.2097438,0.357134,0.327681302,-0.188852585,0.333687,0.364482141,-0.185686902,0.34385,0.350498258,-0.155915639,0.328429,0.336661178,-0.126137944,0.307088,0.323143187,-0.107453683,0.292657,0.293631322,-0.146027048,0.303431,0.252373255,-0.12283397,0.290087,0.23032531,-0.111373226,0.283416,0.209041397,-0.0984675355,0.269089,0.287353114,-0.168269098,0.312834,0.245128651,-0.134486241,0.294976,0.218916791,-0.115590785,0.284559,0.200381617,-0.103679741,0.269376,0.28514989,-0.188683377,0.322342,0.249571273,-0.152623994,0.303766,0.228684698,-0.134140552,0.294262,0.211569369,-0.119886208,0.285622,0.288424316,-0.216411065,0.336901,0.257402089,-0.187397895,0.323392,0.247562211,-0.171872874,0.31248,0.251645236,-0.165728405,0.313002
0.369175364,-0.210168579,0.356002,0.32232519,-0.190025808,0.332737,0.361813447,-0.186007659,0.342198,0.346327138,-0.157221042,0.326007,0.332619751,-0.127384962,0.304528,0.319711034,-0.109103686,0.289813,0.290389606,-0.146061639,0.301942,0.24776929,-0.124309887,0.288798,0.226166437,-0.1126213,0.282225,0.205173371,-0.0982541911,0.268188,0.28457282,-0.168416005,0.312046,0.239991479,-0.134205346,0.294136,0.214516465,-0.114710189,0.283689,0.196955719,-0.101975577,0.268721,0.282751224,-0.189007198,0.322117,0.244344526,-0.152292531,0.303335,0.224184613,-0.133176609,0.293726,0.208025507,-0.118129743,0.28499,0.286520196,-0.217088213,0.337316,0.256180991,-0.187690826,0.323619,0.246964405,-0.172334229,0.312914,0.251491363,-0.166394512,0.313585
0.369800438,-0.21164551,0.357175,0.324264078,-0.18974337,0.332704,0.361451954,-0.186909102,0.342253,0.344522775,-0.156764632,0.323967,0.333119986,-0.126878925,0.304381,0.319042134,-0.109493314,0.288827,0.28832912,-0.145280649,0.299813,0.245575026,-0.125557896,0.285392,0.223827907,-0.114314431,0.278182,0.205014836,-0.101829898,0.270659,0.283475194,-0.168008704,0.31094,0.238033573,-0.133389408,0.2914,0.213417436,-0.113781555,0.280001,0.194235571,-0.100570855,0.265385,0.282468989,-0.189057985,0.321945,0.242774978,-0.151376144,0.30147,0.22223087,-0.132020051,0.290994,0.205117925,-0.116262479,0.28147,0.287310812,-0.217936594,0.338421,0.255993395,-0.187542018,0.32327,0.246981255,-0.172528509,0.31323,0.251627311,-0.166787763,0.314669
0.369637727,-0.212398038,0.357448,0.323799291,-0.189946614,0.332552,0.361296277,-0.187648852,0.342405,0.344485276,-0.156928936,0.323761,0.333539261,-0.127390483,0.304713,0.319491107,-0.110019211,0.289005,0.287791794,-0.145137429,0.299261,0.245326644,-0.125557741,0.28435,0.223488352,-0.114406304,0.276894,0.205032445,-0.10217595,0.270116,0.282948484,-0.167817522,0.310411,0.237367318,-0.133155678,0.290416,0.212358695,-0.113450149,0.278752,0.19316567,-0.100019092,0.26415,0.281982316,-0.188851843,0.321465,0.241993366,-0.150919606,0.300541,0.221412119,-0.13153569,0.289836,0.203919112,-0.11545279,0.280104,0.28693043,-0.217772659,0.33806,0.255476924,-0.18715801,0.322562,0.246391391,-0.172207575,0.312629,0.250911992,-0.166465373,0.314232
0.369121013,-0.212544235,0.357198,0.323548037,-0.189939011,0.332351,0.360568603,-0.187730224,0.341901,0.343994227,-0.155775516,0.322898,0.333271793,-0.127395458,0.30448,0.319342651,-0.110129743,0.288775,0.287432534,-0.145009363,0.298776,0.245330721,-0.124664103,0.284331,0.223675631,-0.114556485,0.277109,0.205702416,-0.101558946,0.270543,0.282986088,-0.167867978,0.310255,0.238324693,-0.134028082,0.290182,0.212367431,-0.115262527,0.278472,0.192363666,-0.100012982,0.264003,0.282327373,-0.189063301,0.321577,0.242213623,-0.151220841,0.300606,0.222588554,-0.13203771,0.289877,0.204850422,-0.116179415,0.280123,0.287623508,-0.218180958,0.338481,0.256233457,-0.188283891,0.323743,0.246050087,-0.173716955,0.314209,0.241673223,-0.168396643,0.315699
0.372776928,-0.215008142,0.360938,0.323829602,-0.190204174,0.332681,0.365551719,-0.190698129,0.346777,0.347479258,-0.157407395,0.32615,0.335592074,-0.128359453,0.306608,0.321351733,-0.11093876,0.290523,0.287255626,-0.144955428,0.298518,0.242834685,-0.123542817,0.281385,0.220220938,-0.112819077,0.272819,0.201493563,-0.0997080049,0.265031,0.280639355,-0.166494435,0.307552,0.234682119,-0.132311428,0.285482,0.208219027,-0.113432595,0.272608,0.187788431,-0.0979644041,0.257581,0.278576393,-0.186538533,0.31712,0.237417754,-0.148333456,0.294518,0.217232738,-0.129068227,0.282955,0.199060879,-0.113014963,0.272443,0.282696068,-0.214366309,0.332424,0.250020406,-0.184090631,0.31604,0.239343457,-0.169785524,0.30651,0.236224267,-0.164599839,0.308581
0.370276754,-0.214482313,0.359293,0.323804462,-0.18979932,0.332719,0.36126677,-0.189384265,0.343196,0.343125541,-0.155243453,0.322341,0.333314405,-0.127508302,0.304692,0.319429885,-0.110497102,0.288792,0.286149517,-0.143979539,0.297136,0.244045305,-0.122883666,0.281866,0.2215968,-0.112224861,0.274231,0.203515026,-0.10023363,0.26729,0.28220516,-0.166930576,0.309086,0.238248113,-0.134943016,0.286971,0.216457197,-0.117741629,0.274071,0.195092222,-0.102746953,0.264856,0.282035721,-0.188285481,0.320926,0.240849717,-0.149931753,0.298482,0.220500226,-0.130593812,0.286998,0.201372322,-0.113827126,0.276559,0.288068521,-0.217758181,0.338687,0.255247026,-0.187449395,0.322784,0.246122858,-0.172215319,0.31406,0.242789886,-0.166748054,0.316275
0.368844612,-0.214279326,0.358725,0.323545295,-0.189322964,0.332454,0.359943896,-0.189360527,0.342475,0.342095878,-0.154635582,0.321451,0.332556499,-0.127261863,0.303962,0.318617681,-0.110432449,0.287896,0.286908285,-0.143299169,0.296858,0.244357044,-0.122826802,0.281892,0.222984259,-0.113137716,0.27441,0.204032518,-0.100650416,0.267607,0.282377145,-0.166609534,0.30909,0.237535327,-0.133414471,0.287295,0.213367892,-0.116129482,0.274581,0.19528353,-0.101521502,0.2655,0.282312548,-0.18797464,0.32114,0.241432652,-0.149731653,0.298905,0.221094587,-0.130432763,0.287529,0.202085105,-0.113612315,0.277187,0.288413598,-0.217428274,0.339106,0.255935364,-0.186400789,0.323529,0.244166408,-0.169333227,0.314911,0.245160845,-0.162468555,0.317052
0.369015197,-0.21498717,0.359537,0.322308599,-0.188354183,0.331083,0.362136456,-0.191140012,0.344963,0.344693143,-0.15568965,0.323851,0.333429786,-0.127592269,0.304611,0.319326778,-0.111264174,0.288095,0.286590071,-0.142927332,0.296289,0.242350069,-0.122028925,0.279005,0.220190032,-0.111211481,0.270363,0.200556683,-0.0984745766,0.262507,0.279600939,-0.1646167,0.305777,0.234483429,-0.131221656,0.283223,0.207917794,-0.111938625,0.270067,0.191929012,-0.0990122848,0.26067,0.277734322,-0.184543555,0.315734,0.23765078,-0.146602806,0.293066,0.217061433,-0.127359375,0.281468,0.197778936,-0.11066375,0.270925,0.28204466,-0.212217203,0.331526,0.249366592,-0.181265989,0.315234,0.239852722,-0.166852037,0.306047,0.24346932,-0.16106244,0.308218
0.367321151,-0.214198587,0.358182,0.322664793,-0.188835437,0.331963,0.359288639,-0.189885675,0.342345,0.342613167,-0.155009452,0.322037,0.332070521,-0.127444233,0.303325,0.318397134,-0.110993561,0.287038,0.286814882,-0.143399792,0.296912,0.245272583,-0.1232058,0.281988,0.223959346,-0.112727241,0.274527,0.204886247,-0.10023317,0.267743,0.282427818,-0.165994363,0.308647,0.237897364,-0.132754331,0.287046,0.211696234,-0.113410074,0.274445,0.19571504,-0.100474656,0.265445,0.281877307,-0.186985669,0.320283,0.241266507,-0.148773497,0.298069,0.220849704,-0.129240129,0.286704,0.201697754,-0.112183373,0.276371,0.287405821,-0.215917051,0.337753,0.254096623,-0.184435771,0.32122,0.244494492,-0.169806423,0.312017,0.248208821,-0.163886241,0.314267
0.368353114,-0.214617638,0.359039,0.321389605,-0.187900187,0.330537,0.361953998,-0.191145662,0.344649,0.344578099,-0.155897616,0.323844,0.33256602,-0.127793552,0.303648,0.318745039,-0.111463023,0.287039,0.28607635,-0.142879074,0.295945,0.24285516,-0.12196291,0.27859,0.22048527,-0.110681438,0.269913,0.200769584,-0.0979308504,0.262025,0.279338222,-0.163983742,0.30519,0.234501612,-0.130616943,0.282443,0.207931486,-0.110978622,0.269174,0.191877677,-0.0980463471,0.259696,0.277166688,-0.18363192,0.31495,0.236579625,-0.145515868,0.292127,0.216256613,-0.12605379,0.28045,0.197187048,-0.109108134,0.269834,0.281132341,-0.210936344,0.330515,0.247733278,-0.179519359,0.313424,0.23774697,-0.16489349,0.303866,0.241242727,-0.159072875,0.306176
0.367978006,-0.213696238,0.358355,0.323020988,-0.188117599,0.331763,0.35981802,-0.189354205,0.342226,0.342126554,-0.154215673,0.32131,0.331678098,-0.126982778,0.302486,0.318126774,-0.110935008,0.285925,0.286856735,-0.142573323,0.296129,0.245020511,-0.12042884,0.279429,0.223026946,-0.109140837,0.271079,0.203824846,-0.0963206091,0.263488,0.28254862,-0.165099504,0.308114,0.238813391,-0.13217727,0.285964,0.214318205,-0.112554907,0.273043,0.196129004,-0.0993395011,0.263813,0.282107936,-0.185389808,0.319984,0.241854262,-0.145538682,0.296874,0.220965953,-0.1257086,0.285051,0.202217886,-0.108348542,0.274302,0.287880363,-0.212949642,0.337783,0.253498794,-0.182903755,0.320462,0.243074659,-0.167209128,0.311388,0.247055956,-0.162322494,0.313966
0.367784744,-0.212981987,0.358016,0.323000909,-0.187472091,0.33147,0.359532951,-0.188631505,0.341728,0.341396225,-0.153391722,0.320554,0.331303666,-0.126436254,0.30195,0.317822985,-0.110577708,0.28525,0.286836551,-0.141955402,0.295665,0.245034236,-0.119968638,0.279405,0.223207958,-0.108687811,0.271275,0.204202486,-0.0959539253,0.263884,0.282675149,-0.164508983,0.307862,0.238901489,-0.13187621,0.285666,0.214435095,-0.112354267,0.272718,0.196198878,-0.0989943492,0.26347,0.282401835,-0.184701177,0.319903,0.241982271,-0.145213776,0.297064,0.221169988,-0.125390392,0.285379,0.20257906,-0.108176097,0.274756,0.288064756,-0.212866959,0.337897,0.254414374,-0.182916532,0.321624,0.24448949,-0.167926405,0.312961,0.248000975,-0.162338471,0.31533
0.368927198,-0.213040185,0.358977,0.322040358,-0.186283345,0.330213,0.362355149,-0.189535558,0.344182,0.344087135,-0.154102228,0.32301,0.332381298,-0.126443105,0.302737,0.318822273,-0.110673454,0.285744,0.286585346,-0.141224691,0.294964,0.243258792,-0.118752091,0.277351,0.22097631,-0.10719976,0.268545,0.201666668,-0.0943598028,0.260539,0.280064589,-0.162332321,0.304633,0.235590218,-0.129772187,0.281388,0.2108661,-0.110290778,0.267829,0.192488761,-0.0968229531,0.258144,0.278222447,-0.181100305,0.314761,0.237479983,-0.142216614,0.291561,0.216725736,-0.122552713,0.279692,0.198281459,-0.105614126,0.268901,0.282077707,-0.208281768,0.330799,0.248381615,-0.177945296,0.314002,0.238346789,-0.163520263,0.304923,0.241571234,-0.15753835,0.307314
0.36802006,-0.212111594,0.358023,0.323154058,-0.186398348,0.331178,0.360033693,-0.187913125,0.341794,0.341622927,-0.152611915,0.320629,0.331536192,-0.125794439,0.301745,0.318307733,-0.110295484,0.284846,0.287259783,-0.140959366,0.295271,0.245365637,-0.119508385,0.27973,0.223797908,-0.108252838,0.27196,0.205080736,-0.095639559,0.264896,0.282775619,-0.163259445,0.307303,0.239089971,-0.131001499,0.284857,0.214181265,-0.111871736,0.271763,0.196299643,-0.0979168245,0.26241,0.282237301,-0.183557055,0.319231,0.241488142,-0.144383657,0.296501,0.220709748,-0.124554298,0.284871,0.202277082,-0.107531426,0.274299,0.287531395,-0.212180939,0.337135,0.25375427,-0.181675173,0.320734,0.244053148,-0.167286269,0.312084,0.247421176,-0.161181954,0.314501
0.367617366,-0.211474929,0.35756,0.322974474,-0.185765614,0.330817,0.35949516,-0.187224359,0.3411,0.340564462,-0.151753284,0.319568,0.331035196,-0.125277517,0.301067,0.317945945,-0.109971023,0.284086,0.287064001,-0.140266244,0.294683,0.244959045,-0.119093097,0.279248,0.223453258,-0.107834209,0.27153,0.204818149,-0.0952637606,0.264514,0.282784737,-0.162620332,0.307034,0.239433827,-0.130489858,0.284554,0.214101257,-0.111707491,0.27144,0.196683558,-0.0972809083,0.262074,0.282275971,-0.183456856,0.319217,0.241654906,-0.144296813,0.296721,0.220950725,-0.124489484,0.285212,0.202621129,-0.107545848,0.274749,0.28780417,-0.212279853,0.337407,0.254943637,-0.182430835,0.322189,0.245593787,-0.168222467,0.313942,0.248841135,-0.161969251,0.316101
0.367205199,-0.211223637,0.356968,0.322723385,-0.185461831,0.330356,0.359039408,-0.18693283,0.340441,0.340101591,-0.151347103,0.318834,0.331040366,-0.124983544,0.300724,0.318071721,-0.109707512,0.283719,0.286863575,-0.139879227,0.294215,0.244868343,-0.118585421,0.27891,0.223454188,-0.10732464,0.271258,0.204845707,-0.0947705983,0.264301,0.28266784,-0.162260387,0.306689,0.239363367,-0.129973563,0.284293,0.214064425,-0.1111052,0.271229,0.196725515,-0.0967268855,0.261898,0.282203858,-0.183135978,0.318963,0.241711048,-0.143875181,0.296703,0.221076477,-0.1240372,0.285314,0.202915813,-0.10722528,0.27496,0.28775658,-0.212028378,0.337243,0.255502108,-0.182556201,0.322747,0.246473348,-0.168411922,0.314647,0.249873146,-0.162120498,0.316608
