sluyters/QuantumLeap/src/datasets/gesture/HandGestureDataset_SHREC2017_csv/Gesture5/finger_1/subject_22_essai_1_skeletons_world.csv
Wrist_x,Wrist_y,Wrist_z,Palm_x,Palm_y,Palm_z,thumb_base_x,thumb_base_y,thumb_base_z,thumb_first_joint_x,thumb_first_joint_y,thumb_first_joint_z,thumb_second_joint_x,thumb_second_joint_y,thumb_second_joint_z,thumb_tip_x,thumb_tip_y,thumb_tip_z,index_base_x,index_base_y,index_base_z,index_first_joint_x,index_first_joint_y,index_first_joint_z,index_second_joint_x,index_second_joint_y,index_second_joint_z,index_tip_x,index_tip_y,index_tip_z,middle_base_x,middle_base_y,middle_base_z,middle_first_joint_x,middle_first_joint_y,middle_first_joint_z,middle_second_joint_x,middle_second_joint_y,middle_second_joint_z,middle_tip_x,middle_tip_y,middle_tip_z,ring_base_x,ring_base_y,ring_base_z,ring_first_joint_x,ring_first_joint_y,ring_first_joint_z,ring_second_joint_x,ring_second_joint_y,ring_second_joint_z,ring_tip_x,ring_tip_y,ring_tip_z,pinky_base_x,pinky_base_y,pinky_base_z,pinky_first_joint_x,pinky_first_joint_y,pinky_first_joint_z,pinky_second_joint_x,pinky_second_joint_y,pinky_second_joint_z,pinky_tip_x,pinky_tip_y,pinky_tip_z,
0.292395333,-0.3295067,0.430279,0.297432522,-0.282864649,0.41057,0.285153895,-0.313998305,0.432519,0.257564004,-0.284413601,0.421047,0.230859259,-0.253535173,0.407956,0.219242299,-0.230341124,0.399525,0.289263212,-0.239570824,0.40387,0.2684495,-0.203074763,0.382123,0.258084029,-0.184743516,0.37125,0.248146273,-0.167080633,0.361364,0.302334424,-0.245506579,0.396562,0.278895604,-0.204451738,0.37282,0.265070929,-0.180275,0.358971,0.255160004,-0.16283536,0.349078,0.313143468,-0.256046522,0.392697,0.307106962,-0.204322994,0.367137,0.285937124,-0.200124091,0.354059,0.263096458,-0.206824876,0.342171,0.327385397,-0.275106432,0.391937,0.309191347,-0.228648233,0.372108,0.296685834,-0.215339044,0.362998,0.283509546,-0.206960895,0.35496
0.292703846,-0.328727827,0.42841,0.297704304,-0.281418304,0.410671,0.283876799,-0.312808081,0.429373,0.254816372,-0.281388106,0.41642,0.22594753,-0.251548746,0.400825,0.215873761,-0.228265201,0.394206,0.283742136,-0.23461262,0.403231,0.262301454,-0.195151812,0.384954,0.249733878,-0.179137037,0.375816,0.238155624,-0.164303699,0.367508,0.301897224,-0.242700617,0.398062,0.288006897,-0.192769277,0.375513,0.273354353,-0.175901119,0.362359,0.262411356,-0.170898048,0.352963,0.315722699,-0.253020877,0.395745,0.299595729,-0.198416494,0.374564,0.285652254,-0.184467225,0.363727,0.271434567,-0.179393825,0.353876,0.332523427,-0.271311728,0.396393,0.313331431,-0.229559383,0.377032,0.301484991,-0.21666666,0.368137,0.290887089,-0.205382944,0.360288
0.293084684,-0.328448006,0.426937,0.297667682,-0.280218188,0.409875,0.283318789,-0.312909222,0.427696,0.25274986,-0.281926835,0.414605,0.22403495,-0.251088732,0.398661,0.211412445,-0.228271012,0.389416,0.281647457,-0.234947278,0.402494,0.260740754,-0.195775624,0.384683,0.248549159,-0.179890734,0.375777,0.237306131,-0.165155689,0.36768,0.299575096,-0.240429731,0.397748,0.287691105,-0.192624595,0.375701,0.27356478,-0.176321787,0.362841,0.263166456,-0.173924196,0.353655,0.314922815,-0.252249376,0.395705,0.29882842,-0.19903191,0.375096,0.2854899,-0.185260892,0.364552,0.271933164,-0.180367011,0.354966,0.33163723,-0.273768843,0.39654,0.313197397,-0.229257273,0.377492,0.301823911,-0.216600466,0.368741,0.291664513,-0.205440359,0.361019
0.293645442,-0.328317147,0.425147,0.298340753,-0.280237001,0.409003,0.283603394,-0.314450428,0.425449,0.251387132,-0.282559432,0.411926,0.222057087,-0.255314,0.391222,0.207653071,-0.232234312,0.378912,0.282194274,-0.236362474,0.401465,0.260454194,-0.196756234,0.383944,0.248551602,-0.180956115,0.375184,0.237570766,-0.166288485,0.36722,0.301097796,-0.24326919,0.39753,0.288532913,-0.193565242,0.376125,0.275024206,-0.177541765,0.363639,0.263282989,-0.176480361,0.35472,0.315543154,-0.252655689,0.396055,0.299722222,-0.200235105,0.375828,0.286865683,-0.18654746,0.36548,0.273888309,-0.181742115,0.356072,0.333081193,-0.274221795,0.39737,0.314699612,-0.230090439,0.378664,0.303720493,-0.217578273,0.370069,0.293921446,-0.20650064,0.362486
0.295020284,-0.329323464,0.424831,0.298534034,-0.279054097,0.408918,0.283007716,-0.314355616,0.424851,0.250641698,-0.28282687,0.410983,0.220526925,-0.255211462,0.390741,0.206047032,-0.232153301,0.378398,0.279544413,-0.237180704,0.401115,0.258935012,-0.198154438,0.383478,0.247206331,-0.182350749,0.374659,0.236690835,-0.166734212,0.366642,0.299988615,-0.24255849,0.397609,0.288232003,-0.193975322,0.376322,0.273398655,-0.179300285,0.363904,0.262308963,-0.179869234,0.355035,0.315574695,-0.252961821,0.396461,0.299496306,-0.200775634,0.376218,0.286762629,-0.1870841,0.365861,0.273984976,-0.182284694,0.356446,0.333677877,-0.274567546,0.398109,0.315111759,-0.230530729,0.379405,0.304273578,-0.218057257,0.370812,0.294605424,-0.20698842,0.363229
0.295244415,-0.329581077,0.424477,0.298294284,-0.278525475,0.40877,0.282508943,-0.314987038,0.424403,0.250216317,-0.283011828,0.410453,0.219971555,-0.255123837,0.390499,0.205512131,-0.232125764,0.378226,0.27915529,-0.237363791,0.400942,0.258547927,-0.198383676,0.383365,0.246844802,-0.182602622,0.374577,0.23635211,-0.167134524,0.366588,0.299665823,-0.242705341,0.397607,0.288073753,-0.194236035,0.376469,0.273548288,-0.179753765,0.364139,0.262151087,-0.180999572,0.355332,0.315474211,-0.253068507,0.396579,0.299343088,-0.201088322,0.37643,0.286725219,-0.187422297,0.366121,0.274104003,-0.182651189,0.35675,0.333843794,-0.274607254,0.398325,0.315225271,-0.230706351,0.379705,0.30451315,-0.218284101,0.37115,0.294962272,-0.207243962,0.363602
0.29698149,-0.331035688,0.425768,0.29859531,-0.278101174,0.409026,0.282987462,-0.316357601,0.424975,0.250693907,-0.283329016,0.409744,0.220729622,-0.254763166,0.390109,0.206423636,-0.231802705,0.377823,0.27872689,-0.235955236,0.399725,0.256523183,-0.19760313,0.381004,0.244311499,-0.182710598,0.371643,0.233197068,-0.167352608,0.363133,0.299189179,-0.242267683,0.397127,0.286628932,-0.193240826,0.374926,0.271375162,-0.179121677,0.361975,0.260654112,-0.178340246,0.352725,0.315716216,-0.252895891,0.396818,0.298056369,-0.200630086,0.375387,0.282423933,-0.193379706,0.364423,0.270401957,-0.196215132,0.354455,0.335442594,-0.274039149,0.399582,0.315678039,-0.22964915,0.37994,0.305671784,-0.214434903,0.370915,0.295435229,-0.205425031,0.362952
0.29707172,-0.33033845,0.425484,0.298513808,-0.277856036,0.408762,0.282484516,-0.315814774,0.424443,0.250546739,-0.282799729,0.408871,0.220861898,-0.254174535,0.389305,0.206695573,-0.231299515,0.377077,0.278192944,-0.235701805,0.39914,0.255841688,-0.1975956,0.380421,0.243517667,-0.18285009,0.371061,0.232405136,-0.167744937,0.362553,0.298914679,-0.242006619,0.396877,0.286215588,-0.192947139,0.374632,0.271132597,-0.178909432,0.361656,0.260222096,-0.178522083,0.352387,0.315775041,-0.252667947,0.396843,0.297630595,-0.200635328,0.375264,0.282269711,-0.193274108,0.364224,0.270198271,-0.196067329,0.354188,0.335956895,-0.273943633,0.399918,0.316091365,-0.229300779,0.380169,0.306252712,-0.213832969,0.371095,0.29589585,-0.204704337,0.363088
0.296916484,-0.329775912,0.424971,0.298100636,-0.27778886,0.407952,0.280735411,-0.314272143,0.422148,0.252138863,-0.286320893,0.404063,0.223509644,-0.255865766,0.383895,0.208977794,-0.230765924,0.37392,0.274464606,-0.2367905,0.395797,0.249070364,-0.20254359,0.375552,0.236080119,-0.187968816,0.365429,0.22554524,-0.17021021,0.356226,0.298359005,-0.242635811,0.395856,0.284640808,-0.192348837,0.372962,0.270591164,-0.177071898,0.359607,0.25794058,-0.177470199,0.350068,0.316590486,-0.254265861,0.397767,0.295611904,-0.201632692,0.374825,0.280718162,-0.199366971,0.363088,0.269904757,-0.205720237,0.352418,0.33900204,-0.276247645,0.403128,0.318246045,-0.230426811,0.382368,0.309090632,-0.213350817,0.37283,0.299722823,-0.20018027,0.364414
0.297467271,-0.329763035,0.42403,0.297894539,-0.277510334,0.407208,0.280781691,-0.314819768,0.421392,0.252574769,-0.285080855,0.403608,0.224459491,-0.254695298,0.383656,0.209938237,-0.230629952,0.373217,0.275139237,-0.235954949,0.395398,0.251092323,-0.202069555,0.375415,0.238372447,-0.187577326,0.365424,0.226483918,-0.171130017,0.356341,0.297762041,-0.242538111,0.395252,0.28461495,-0.192403124,0.372564,0.270836879,-0.176958509,0.359329,0.258405035,-0.177194329,0.349875,0.316428955,-0.253455467,0.396973,0.295222003,-0.202644642,0.374298,0.284697914,-0.203624115,0.362697,0.273504208,-0.212861681,0.352151,0.33896647,-0.275884464,0.402079,0.320258009,-0.230234022,0.382851,0.310661341,-0.21607648,0.374017,0.301794377,-0.203567596,0.366222
0.296341759,-0.327839688,0.421447,0.294500622,-0.274498652,0.402865,0.27717339,-0.311257028,0.415781,0.245179045,-0.278636143,0.3936,0.219321494,-0.248756916,0.375503,0.207055255,-0.226898806,0.367636,0.261564214,-0.232538784,0.386135,0.239018026,-0.193765433,0.362896,0.228053177,-0.177334862,0.351276,0.218253449,-0.163977632,0.340713,0.288117517,-0.238138548,0.389658,0.280558434,-0.190403611,0.370496,0.271619976,-0.16829939,0.359318,0.265373192,-0.172517422,0.351334,0.313216756,-0.250127576,0.394593,0.311105315,-0.19872251,0.375383,0.306462291,-0.196021507,0.365555,0.29408848,-0.207905372,0.35662,0.339635496,-0.273888071,0.403713,0.31672174,-0.228785111,0.38081,0.309501251,-0.224074397,0.370287,0.303605228,-0.222388788,0.361002
0.295785407,-0.327271126,0.419838,0.293446884,-0.274046619,0.401491,0.276488413,-0.311395844,0.414481,0.246519266,-0.278368085,0.392749,0.221720521,-0.246175509,0.369649,0.210333827,-0.224969739,0.361973,0.261983795,-0.23198321,0.38529,0.239822608,-0.193435104,0.362409,0.228938407,-0.176182732,0.350969,0.219075675,-0.16302711,0.340568,0.289281557,-0.238546688,0.388451,0.276239009,-0.188087832,0.367,0.27054456,-0.171217893,0.354487,0.260651161,-0.173864471,0.34555,0.312172825,-0.24966627,0.393062,0.312884018,-0.199361276,0.376217,0.309288803,-0.197326919,0.367599,0.29771783,-0.209922584,0.359764,0.338469946,-0.271142784,0.401768,0.315836551,-0.230354997,0.379129,0.310238334,-0.23404493,0.368727,0.304755,-0.236214418,0.35955
0.297189246,-0.329148076,0.420916,0.292490307,-0.273739201,0.399544,0.278052177,-0.313900573,0.416197,0.24759707,-0.279328287,0.394517,0.220154709,-0.248076346,0.374214,0.208542969,-0.225067197,0.36309,0.2673643,-0.235024771,0.382709,0.24507963,-0.195750932,0.358334,0.233784681,-0.177345286,0.346146,0.223436436,-0.161012173,0.335067,0.291968149,-0.242571443,0.384355,0.27878992,-0.192230381,0.357442,0.268283353,-0.176054127,0.341742,0.257319837,-0.18045856,0.330528,0.311293938,-0.25122418,0.388049,0.315996633,-0.205433925,0.366716,0.308356332,-0.203039235,0.355802,0.292094254,-0.21348888,0.34588,0.336711939,-0.275224954,0.396265,0.31580511,-0.237468823,0.371941,0.306513944,-0.238480673,0.360766,0.297867981,-0.234988121,0.350904
0.295838878,-0.327689898,0.418188,0.292050504,-0.27518988,0.392742,0.278917485,-0.314735463,0.416564,0.253894858,-0.281134549,0.398246,0.230922619,-0.245610395,0.381089,0.221615124,-0.221931345,0.371559,0.274664277,-0.234291475,0.378045,0.252700139,-0.191947256,0.353504,0.241153936,-0.172019154,0.341233,0.230431643,-0.154336493,0.330078,0.293792045,-0.242494488,0.374657,0.277578578,-0.196641152,0.345121,0.260951851,-0.184563546,0.327892,0.244404206,-0.190199081,0.315585,0.310128227,-0.254910405,0.374649,0.315660597,-0.208243675,0.351014,0.303305706,-0.20512079,0.338921,0.282544336,-0.212910285,0.327928,0.32995248,-0.279036226,0.37938,0.306223599,-0.238541445,0.354017,0.292355928,-0.239502088,0.342363,0.28007677,-0.240452275,0.332081
0.295113594,-0.326828727,0.417686,0.288348133,-0.270983107,0.38958,0.274932733,-0.309900127,0.41291,0.239957268,-0.25939766,0.390756,0.215394873,-0.227092658,0.375404,0.204286378,-0.203158802,0.36389,0.269208669,-0.221294005,0.369354,0.246881273,-0.189188209,0.340374,0.235703937,-0.172968605,0.325884,0.22553367,-0.158106742,0.312712,0.290082794,-0.233990058,0.369604,0.280563974,-0.187322499,0.337247,0.262574678,-0.183123094,0.318373,0.244311936,-0.188868135,0.304891,0.30801399,-0.251807444,0.372884,0.314835684,-0.206104033,0.349707,0.303294096,-0.204370132,0.337849,0.282514626,-0.212526007,0.327068,0.329752978,-0.27926847,0.381882,0.306887809,-0.238004612,0.353511,0.292094078,-0.239562594,0.340476,0.278945542,-0.241324796,0.328975
0.285948542,-0.319758155,0.424302,0.289094063,-0.271844128,0.394053,0.268755204,-0.298488091,0.41513,0.236846323,-0.248978063,0.391934,0.215475702,-0.213768283,0.375301,0.207293307,-0.190003167,0.364307,0.271584575,-0.22597065,0.366888,0.268718458,-0.181417947,0.34166,0.262359801,-0.172033184,0.329046,0.25071082,-0.175079976,0.317578,0.292949501,-0.242603208,0.372554,0.28984685,-0.209500839,0.338,0.274998082,-0.207397926,0.317843,0.254100812,-0.21204497,0.303446,0.311341995,-0.263509,0.380532,0.313201509,-0.223598833,0.347801,0.30126435,-0.222794387,0.331055,0.276721405,-0.228134982,0.315831,0.330324866,-0.293546773,0.395314,0.290445994,-0.29596567,0.364199,0.275038459,-0.292290529,0.349903,0.273135891,-0.294998658,0.349358
0.288780773,-0.320116793,0.423825,0.292785025,-0.276255809,0.394346,0.267696581,-0.295879364,0.41281,0.244844987,-0.250414463,0.386653,0.233964981,-0.215801979,0.375278,0.231095547,-0.192996987,0.365794,0.278023134,-0.23842858,0.365092,0.278098779,-0.198867483,0.338116,0.276376101,-0.186878075,0.324629,0.265962049,-0.190978575,0.312367,0.301253954,-0.256250983,0.373395,0.300054653,-0.230502617,0.339424,0.288755091,-0.231264349,0.319608,0.267998166,-0.23592132,0.305454,0.319320049,-0.274471511,0.38346,0.315405395,-0.243201416,0.347478,0.303447118,-0.243689077,0.329069,0.278899339,-0.248068943,0.312334,0.338341027,-0.301486787,0.400493,0.298601374,-0.306937332,0.369397,0.300486163,-0.316481066,0.377358,0.313541279,-0.320714038,0.391388
0.286469064,-0.31574101,0.426209,0.295269021,-0.278617495,0.398744,0.269525626,-0.296056142,0.415923,0.24772977,-0.251583611,0.390718,0.236960027,-0.216617468,0.377727,0.234408593,-0.193556566,0.367196,0.276190966,-0.245173254,0.371456,0.269883844,-0.206373835,0.341157,0.267080956,-0.187467821,0.326599,0.258334606,-0.186141992,0.313365,0.299825982,-0.261642746,0.379223,0.297025023,-0.245634702,0.347974,0.288703147,-0.246825385,0.329746,0.270567779,-0.253274055,0.316726,0.320890202,-0.278077091,0.388626,0.279913284,-0.295871947,0.361163,0.278122612,-0.305123108,0.374412,0.280268484,-0.315613234,0.390626,0.339619266,-0.302985572,0.404525,0.31298874,-0.319301764,0.387399,0.316129669,-0.333805993,0.398438,0.326390588,-0.336554973,0.409978
0.286180061,-0.308040372,0.425343,0.295864492,-0.277167218,0.396591,0.270932843,-0.290606563,0.416329,0.256779604,-0.240235405,0.389295,0.249741744,-0.207030507,0.377511,0.248634253,-0.184692786,0.366249,0.282356463,-0.241114356,0.370374,0.277151039,-0.201008579,0.338779,0.273493298,-0.185048375,0.322982,0.259191862,-0.184881595,0.308621,0.303907706,-0.257741136,0.376157,0.296296627,-0.243584186,0.344558,0.286362435,-0.245053824,0.326126,0.267024823,-0.250904517,0.312959,0.320523979,-0.274314143,0.384066,0.275365368,-0.289144837,0.354419,0.27546501,-0.295584448,0.367699,0.274171418,-0.30412717,0.379771,0.337916638,-0.29831085,0.398491,0.31374398,-0.315975151,0.387222,0.316636887,-0.33246755,0.399077,0.326894139,-0.334924812,0.409538
0.291653834,-0.31017454,0.431285,0.300288568,-0.280674264,0.398195,0.283320214,-0.283681883,0.421352,0.270308407,-0.241433341,0.393367,0.26575674,-0.205457662,0.37464,0.267909558,-0.184968258,0.362339,0.288557811,-0.247489567,0.368611,0.286197266,-0.214429804,0.336749,0.284847429,-0.197986442,0.320817,0.271756908,-0.195825404,0.306334,0.305831995,-0.26838936,0.374677,0.295058309,-0.255787954,0.338541,0.278434499,-0.255610105,0.317462,0.253141971,-0.255892474,0.302406,0.319415249,-0.287547016,0.383293,0.263852816,-0.291985801,0.350591,0.261108258,-0.294659994,0.36091,0.262826472,-0.297748932,0.370291,0.334079319,-0.312974913,0.399338,0.293406474,-0.315489675,0.374279,0.291811076,-0.326463683,0.382916,0.303175606,-0.328182151,0.390536
0.299219357,-0.298311618,0.431778,0.303631396,-0.28310304,0.398538,0.296879126,-0.270508568,0.420681,0.283839588,-0.230439854,0.403321,0.278184117,-0.19129277,0.382131,0.283009354,-0.171241758,0.36988,0.303161399,-0.252797625,0.367322,0.298547674,-0.231476167,0.332054,0.27179515,-0.227364392,0.314421,0.242638463,-0.222127773,0.29839,0.311082437,-0.278327304,0.374912,0.292908647,-0.272496347,0.33815,0.272501325,-0.270454003,0.316706,0.243560645,-0.26351209,0.301388,0.31706671,-0.300079152,0.384802,0.254444576,-0.291879359,0.352965,0.250745942,-0.293459161,0.362416,0.24987547,-0.294147751,0.371008,0.323038112,-0.326393011,0.402334,0.275624749,-0.315180335,0.373576,0.270506698,-0.320767199,0.380848,0.279938721,-0.321630399,0.387264
0.281077647,-0.265209825,0.388665,0.306912693,-0.260109727,0.36651,0.297997352,-0.254001036,0.393454,0.307817175,-0.217115873,0.385649,0.303952799,-0.183914917,0.374044,0.299633059,-0.162821398,0.360709,0.340957906,-0.242872013,0.36202,0.307179507,-0.206442626,0.334988,0.276063935,-0.198706598,0.321472,0.274552852,-0.207601169,0.324057,0.324405037,-0.256276964,0.350764,0.289433155,-0.217028777,0.322784,0.251711106,-0.203430415,0.306463,0.250333236,-0.211194596,0.309431,0.308090807,-0.268015388,0.343914,0.279144027,-0.231499509,0.322821,0.271277755,-0.232316658,0.336971,0.277739565,-0.246091741,0.349835,0.284643918,-0.282759275,0.340187,0.259344493,-0.242941063,0.320661,0.25324447,-0.245496722,0.330892,0.257379128,-0.258702002,0.33992
0.297046946,-0.270862138,0.399638,0.306371566,-0.257181851,0.36183,0.298541046,-0.249342114,0.389135,0.300181255,-0.206255831,0.358676,0.282233663,-0.179642139,0.331849,0.27769229,-0.162901934,0.312481,0.30799482,-0.223350328,0.329162,0.246559789,-0.207950026,0.295512,0.217063385,-0.199946835,0.278687,0.197218587,-0.197957195,0.274025,0.312286187,-0.249019573,0.334958,0.244584448,-0.230803685,0.297034,0.207064725,-0.21956841,0.274911,0.186852674,-0.214565123,0.269905,0.315522237,-0.271421326,0.343869,0.249275834,-0.252899952,0.308042,0.23471176,-0.263218153,0.313772,0.225364451,-0.27271278,0.330527,0.318649576,-0.299520439,0.36113,0.2661086,-0.28485573,0.334649,0.262367385,-0.288575734,0.340185,0.259386575,-0.291896589,0.345069
0.24209182,-0.236073592,0.332567,0.282361786,-0.248162351,0.34877,0.254725557,-0.220719184,0.333477,0.277944369,-0.195459799,0.337567,0.305371195,-0.182935518,0.33525,0.325103709,-0.17703873,0.338578,0.316965095,-0.234912043,0.357962,0.349452036,-0.260560244,0.366704,0.337077202,-0.264801479,0.371074,0.331512021,-0.26998504,0.387528,0.309595424,-0.256725645,0.360286,0.348561977,-0.28590888,0.369637,0.336390842,-0.291709921,0.375091,0.330665301,-0.29673793,0.391458,0.299889036,-0.271864344,0.360427,0.334528906,-0.302420371,0.369462,0.339219011,-0.315894336,0.389943,0.323573649,-0.31135544,0.394477,0.280453774,-0.290547864,0.357571,0.316147249,-0.310520128,0.364468,0.306665067,-0.321109092,0.367636,0.306021505,-0.340511289,0.381087
0.232499914,-0.227085245,0.321664,0.274903064,-0.245617311,0.341827,0.246952899,-0.214456565,0.322468,0.287511493,-0.216095406,0.326912,0.317463096,-0.205157766,0.336192,0.337267397,-0.202438135,0.349856,0.31497704,-0.245488208,0.352828,0.343090706,-0.281374411,0.365637,0.343160187,-0.291250057,0.372042,0.341292396,-0.293274288,0.388926,0.302267263,-0.263551332,0.356159,0.337802924,-0.306635534,0.369831,0.328570093,-0.309184643,0.377806,0.326517512,-0.309038656,0.394574,0.287455745,-0.275950457,0.356697,0.317460961,-0.32200212,0.371061,0.313275163,-0.336609782,0.390712,0.299118281,-0.32180271,0.393656,0.262844376,-0.286160428,0.353558,0.28854485,-0.309261819,0.361886,0.292359068,-0.311561514,0.376855,0.283283134,-0.301622746,0.38016
0.233725896,-0.231807474,0.323638,0.274116189,-0.258796036,0.343098,0.249372566,-0.220118652,0.324859,0.286659732,-0.218078395,0.325575,0.317168093,-0.209157968,0.33241,0.33830816,-0.204487675,0.34771,0.315746042,-0.255738776,0.35431,0.343949589,-0.292837859,0.366222,0.351778561,-0.30961274,0.372178,0.353630936,-0.318808243,0.388997,0.302167448,-0.273024187,0.35693,0.336545814,-0.316797523,0.369724,0.32785713,-0.32036733,0.377187,0.326064993,-0.320440789,0.393917,0.286873125,-0.284942737,0.356959,0.314053877,-0.331826178,0.37023,0.310142285,-0.348827928,0.390113,0.295286113,-0.333657062,0.392697,0.262043902,-0.29493174,0.353367,0.288901132,-0.320579221,0.36126,0.292570806,-0.323358014,0.376419,0.283200258,-0.313418983,0.379518
0.255336771,-0.307864056,0.375382,0.283601026,-0.281427424,0.357115,0.258249597,-0.289195148,0.376571,0.242864794,-0.275595188,0.363828,0.228008858,-0.240589909,0.338703,0.226779645,-0.222143832,0.325475,0.299344852,-0.245455843,0.349717,0.307795134,-0.223583251,0.328278,0.311912298,-0.212571458,0.317558,0.323414281,-0.214124621,0.324324,0.301804986,-0.263167483,0.344131,0.26807428,-0.244918768,0.319549,0.261404624,-0.265839671,0.33914,0.271768448,-0.279003328,0.354182,0.30119369,-0.280773785,0.341528,0.272629076,-0.260179143,0.315263,0.264658389,-0.278934262,0.33277,0.266035536,-0.294964001,0.348685,0.295801342,-0.306463008,0.341946,0.275493568,-0.285785511,0.322383,0.270445726,-0.290003441,0.335389,0.269382105,-0.295961481,0.346864
0.25045396,-0.302513322,0.37434,0.271913376,-0.274964924,0.35417,0.258906858,-0.288477914,0.380011,0.251865588,-0.265960161,0.374001,0.226974426,-0.251768593,0.354986,0.221060673,-0.242193412,0.344616,0.299302818,-0.247157281,0.351838,0.307696548,-0.223673269,0.327772,0.311314218,-0.211649354,0.315739,0.320448009,-0.208699901,0.31937,0.289061288,-0.258720273,0.339835,0.306860941,-0.230261724,0.317174,0.316942382,-0.215123062,0.312062,0.320958,-0.214309617,0.32221,0.279570237,-0.270857351,0.332153,0.259407614,-0.235585853,0.313217,0.248559368,-0.247153823,0.327724,0.24363881,-0.267740971,0.340913,0.264020127,-0.289656319,0.327102,0.23071178,-0.252141833,0.309325,0.228163721,-0.249780283,0.319863,0.222910466,-0.247352869,0.329161
0.247202981,-0.300308679,0.374028,0.270184292,-0.275819175,0.354917,0.257557388,-0.287722691,0.380925,0.252247685,-0.267802338,0.377209,0.228186855,-0.254387122,0.359569,0.223061202,-0.245676405,0.350346,0.298201595,-0.250370531,0.354746,0.311536131,-0.228385992,0.332826,0.317101745,-0.218062521,0.321867,0.319663419,-0.209095899,0.318806,0.288169135,-0.260802207,0.341334,0.307868206,-0.234186659,0.32012,0.311007173,-0.21425538,0.307744,0.309640912,-0.209737344,0.312264,0.277180665,-0.271860391,0.332376,0.250857339,-0.240130684,0.315317,0.238578327,-0.251412312,0.32927,0.233228836,-0.276478277,0.341954,0.256690963,-0.289373427,0.325663,0.228402405,-0.252356055,0.309429,0.225775019,-0.249496236,0.319576,0.220500916,-0.246576939,0.328528
0.246560464,-0.300230957,0.375711,0.270075569,-0.276873616,0.356103,0.257213838,-0.287415114,0.382067,0.251632747,-0.267372994,0.377327,0.227254711,-0.253452764,0.359074,0.221859364,-0.244518476,0.349334,0.297839187,-0.251169673,0.354965,0.308268109,-0.231020158,0.33274,0.313785744,-0.220225051,0.321628,0.319742307,-0.210051641,0.318344,0.286428711,-0.263099091,0.342167,0.300263668,-0.234288635,0.320286,0.308631931,-0.216536371,0.307522,0.310040215,-0.21030362,0.312064,0.275219997,-0.274594647,0.33377,0.253798485,-0.241293961,0.315856,0.24481826,-0.2588417,0.330057,0.247612873,-0.279693211,0.342967,0.257520579,-0.291869077,0.327792,0.228637297,-0.254008887,0.310854,0.226330821,-0.251126901,0.321176,0.22150166,-0.247989301,0.330283
0.247029671,-0.301054658,0.37798,0.269973251,-0.277336616,0.356749,0.257567505,-0.287668343,0.383544,0.251079213,-0.266993875,0.377192,0.226821498,-0.252581443,0.358676,0.221135027,-0.242974952,0.348125,0.296453579,-0.250473114,0.35375,0.303707176,-0.229171228,0.330204,0.307942393,-0.218087538,0.318431,0.318377775,-0.209919659,0.316932,0.28572566,-0.262852179,0.341659,0.296585253,-0.232279573,0.318137,0.30062079,-0.213557969,0.304416,0.304588683,-0.20902342,0.308455,0.275020561,-0.27503328,0.334021,0.253349612,-0.240548625,0.314261,0.243427595,-0.257614504,0.32828,0.246087624,-0.278015945,0.341025,0.258116032,-0.293351581,0.329217,0.226845706,-0.25459693,0.310777,0.225810283,-0.251188349,0.32093,0.221199522,-0.247697087,0.329888
0.246876421,-0.301178316,0.379206,0.269768161,-0.277222596,0.357306,0.257508116,-0.28770561,0.384615,0.250227109,-0.266338005,0.377905,0.226672412,-0.251457926,0.359586,0.221275488,-0.242764728,0.348855,0.295826873,-0.249962356,0.353771,0.29796897,-0.222670583,0.330257,0.300531248,-0.209995779,0.3185,0.312826307,-0.205983827,0.315751,0.28532139,-0.262089531,0.34174,0.293564082,-0.228896089,0.317637,0.297688861,-0.207000315,0.303576,0.299336707,-0.204518377,0.307309,0.2748161,-0.274374851,0.334225,0.252648247,-0.239399399,0.313871,0.242017338,-0.256115791,0.327643,0.244916051,-0.276478724,0.340163,0.258232738,-0.292974124,0.329686,0.228318125,-0.254239075,0.310767,0.225872482,-0.25095292,0.320723,0.221101607,-0.247262565,0.329507
0.248627476,-0.303405278,0.382915,0.269178808,-0.276906604,0.358356,0.258683354,-0.289076598,0.387412,0.250025285,-0.2656592,0.37881,0.227368351,-0.250657515,0.36094,0.221181852,-0.242388963,0.349292,0.291291356,-0.244398224,0.352292,0.321899236,-0.236679833,0.34496,0.32695546,-0.226919911,0.341294,0.318287455,-0.216583758,0.337962,0.283202844,-0.256508153,0.340901,0.285076427,-0.216518269,0.31437,0.286010911,-0.194760313,0.298894,0.28343505,-0.188633132,0.301491,0.274304108,-0.269502832,0.334203,0.249677765,-0.232614341,0.311249,0.23705541,-0.249019535,0.324191,0.24158474,-0.270346274,0.335956,0.260302569,-0.291268492,0.331098,0.229304825,-0.252439159,0.310086,0.225568412,-0.249144412,0.319368,0.219968174,-0.245380101,0.327557
