sluyters/QuantumLeap/src/datasets/gesture/HandGestureDataset_SHREC2017_csv/Gesture5/finger_1/subject_7_essai_1_skeletons_world.csv
Wrist_x,Wrist_y,Wrist_z,Palm_x,Palm_y,Palm_z,thumb_base_x,thumb_base_y,thumb_base_z,thumb_first_joint_x,thumb_first_joint_y,thumb_first_joint_z,thumb_second_joint_x,thumb_second_joint_y,thumb_second_joint_z,thumb_tip_x,thumb_tip_y,thumb_tip_z,index_base_x,index_base_y,index_base_z,index_first_joint_x,index_first_joint_y,index_first_joint_z,index_second_joint_x,index_second_joint_y,index_second_joint_z,index_tip_x,index_tip_y,index_tip_z,middle_base_x,middle_base_y,middle_base_z,middle_first_joint_x,middle_first_joint_y,middle_first_joint_z,middle_second_joint_x,middle_second_joint_y,middle_second_joint_z,middle_tip_x,middle_tip_y,middle_tip_z,ring_base_x,ring_base_y,ring_base_z,ring_first_joint_x,ring_first_joint_y,ring_first_joint_z,ring_second_joint_x,ring_second_joint_y,ring_second_joint_z,ring_tip_x,ring_tip_y,ring_tip_z,pinky_base_x,pinky_base_y,pinky_base_z,pinky_first_joint_x,pinky_first_joint_y,pinky_first_joint_z,pinky_second_joint_x,pinky_second_joint_y,pinky_second_joint_z,pinky_tip_x,pinky_tip_y,pinky_tip_z,
0.55516719,-0.3924728,0.532955,0.55032861,-0.34489009,0.52669,0.53486929,-0.37871332,0.533361,0.49986833,-0.34468004,0.523006,0.46897955,-0.31421762,0.509344,0.45691797,-0.29346411,0.507446,0.52213314,-0.29332528,0.522405,0.51536508,-0.2477165,0.517619,0.51317463,-0.22654978,0.515226,0.5128401,-0.20935518,0.51305,0.5449407,-0.29425361,0.5198,0.53679362,-0.24215586,0.505263,0.53908052,-0.23533939,0.496783,0.53987375,-0.22992692,0.490726,0.56412692,-0.29884584,0.518191,0.56208957,-0.24894387,0.503467,0.56143871,-0.24673561,0.495934,0.56138183,-0.2443041,0.489086,0.58717875,-0.31192199,0.517274,0.58683122,-0.26918319,0.504955,0.5891411,-0.26518491,0.499295,0.58938053,-0.26155849,0.494301
0.55690126,-0.39361833,0.53471,0.55055039,-0.34483318,0.526723,0.53614276,-0.37942801,0.534585,0.50021351,-0.34483859,0.523205,0.4678223,-0.31261533,0.507616,0.45542,-0.2926774,0.505106,0.52071814,-0.29208437,0.520461,0.51497279,-0.24752794,0.517225,0.51336338,-0.2265362,0.515607,0.51344289,-0.2091134,0.514136,0.54347727,-0.29315065,0.517941,0.53640126,-0.24192648,0.504556,0.53904254,-0.23532281,0.496748,0.54036442,-0.23013589,0.491172,0.56274292,-0.29793153,0.516548,0.5584643,-0.24744406,0.500466,0.55700398,-0.24494282,0.492238,0.55623284,-0.24276025,0.484759,0.58616807,-0.3113884,0.516158,0.58484465,-0.27453779,0.501925,0.58395953,-0.27512788,0.495386,0.58325462,-0.27655149,0.489616
0.55648105,-0.393715,0.535099,0.54947301,-0.3447389,0.52657,0.53411895,-0.37798506,0.533086,0.49484627,-0.33838988,0.51912,0.46789229,-0.30330626,0.505847,0.45642193,-0.27966873,0.499958,0.51948565,-0.29003841,0.517542,0.52605236,-0.2477922,0.520658,0.53146204,-0.2279239,0.522216,0.536479,-0.20932724,0.523632,0.54325571,-0.29269562,0.517191,0.53360658,-0.23879414,0.500218,0.53515662,-0.23864914,0.490318,0.52793693,-0.25274825,0.483246,0.56386779,-0.29913471,0.517628,0.56014768,-0.24854799,0.501098,0.56157046,-0.24901358,0.492641,0.55128367,-0.26277326,0.484953,0.59031825,-0.31584935,0.519493,0.58632823,-0.28569606,0.503771,0.5855033,-0.28328787,0.496548,0.5844956,-0.27903754,0.490175
0.55928916,-0.39776932,0.540151,0.55050029,-0.34651424,0.528874,0.53492977,-0.37968825,0.535725,0.4923355,-0.336465,0.518174,0.46452288,-0.30297608,0.504907,0.45369818,-0.28474738,0.502136,0.51701737,-0.28842445,0.51474,0.52676731,-0.24911144,0.52098,0.53380067,-0.22976875,0.5241,0.54029142,-0.21166232,0.526936,0.54366812,-0.29272518,0.516474,0.53364702,-0.23990101,0.496343,0.53710731,-0.23265472,0.484601,0.53154748,-0.24350403,0.476213,0.5654741,-0.30440558,0.518861,0.55809771,-0.25714538,0.499311,0.55524855,-0.2437511,0.489309,0.55734413,-0.2537086,0.480216,0.58851356,-0.32640594,0.523468,0.58589522,-0.29413083,0.504672,0.58532158,-0.28512031,0.496036,0.58357947,-0.27904995,0.488416
0.55894682,-0.39691272,0.538857,0.55163702,-0.34607662,0.527967,0.53473491,-0.37888908,0.534416,0.49442003,-0.33951942,0.51692,0.46716686,-0.30311671,0.503281,0.45347243,-0.28189315,0.497917,0.51682335,-0.28808532,0.514112,0.52205027,-0.24757886,0.516833,0.52779242,-0.22802754,0.518193,0.53676252,-0.21537205,0.51943,0.54336722,-0.29267047,0.515993,0.5341267,-0.24026473,0.496238,0.5376157,-0.23263341,0.484714,0.53290061,-0.24373066,0.476483,0.56578467,-0.3017202,0.518468,0.55789258,-0.25292234,0.499263,0.55593043,-0.24351141,0.489437,0.55715505,-0.25318329,0.480504,0.59050075,-0.32320849,0.523119,0.58578879,-0.29436516,0.504593,0.58540252,-0.28582456,0.496081,0.58421682,-0.27959099,0.48857
0.55717361,-0.39629085,0.537992,0.55100312,-0.34589123,0.52753,0.53322392,-0.37795403,0.533272,0.49461256,-0.33934126,0.515509,0.46644737,-0.30527861,0.502117,0.45331425,-0.28550734,0.500017,0.51866624,-0.28746943,0.513654,0.51638743,-0.24625355,0.514001,0.523393,-0.22843736,0.514175,0.53009368,-0.21254767,0.514333,0.54450366,-0.29303878,0.516025,0.53674407,-0.24143319,0.496835,0.541381,-0.24013407,0.48564,0.5336395,-0.25406364,0.477644,0.56641433,-0.30256389,0.518869,0.55783784,-0.2530624,0.499977,0.55750692,-0.24285235,0.490311,0.55867304,-0.25220364,0.481524,0.59262661,-0.32220437,0.523887,0.58788207,-0.29638795,0.505556,0.5875615,-0.28804652,0.497133,0.58614443,-0.27994437,0.489701
0.55138364,-0.39342053,0.533676,0.55091571,-0.34654619,0.528029,0.52795036,-0.37489225,0.528863,0.49351037,-0.33863296,0.514598,0.4664501,-0.30585598,0.50082,0.45454948,-0.28277056,0.496996,0.5228562,-0.28982805,0.517719,0.52096846,-0.24961259,0.520188,0.52970951,-0.23190864,0.521422,0.53690892,-0.21576217,0.522545,0.55021075,-0.2965216,0.52182,0.55009696,-0.24728684,0.5079,0.55881551,-0.25657555,0.49978,0.57118366,-0.28351288,0.512548,0.5739394,-0.30666003,0.525675,0.56980414,-0.2604347,0.511372,0.57488088,-0.25164063,0.504054,0.5775567,-0.26347544,0.497402,0.60077891,-0.32656072,0.531133,0.60051009,-0.30318748,0.516312,0.6017651,-0.2941459,0.509503,0.60260344,-0.28736868,0.503495
0.55808976,-0.39890526,0.540176,0.55259815,-0.34764245,0.528451,0.53150619,-0.37778081,0.531974,0.49576933,-0.34241958,0.50993,0.4625708,-0.30948294,0.497102,0.44984987,-0.28887245,0.49587,0.51735773,-0.28675753,0.509275,0.50634624,-0.25146453,0.515061,0.51364087,-0.23503624,0.517954,0.51918839,-0.21366721,0.520583,0.54501476,-0.29532731,0.515558,0.54031693,-0.24530443,0.495488,0.54279898,-0.24970371,0.483781,0.55399005,-0.27455993,0.494037,0.56889086,-0.30675251,0.521728,0.55233509,-0.25436632,0.500707,0.55373023,-0.2433886,0.489952,0.55601031,-0.25020175,0.480174,0.59883854,-0.32726773,0.530885,0.59225424,-0.29903111,0.510393,0.59128565,-0.28983153,0.500978,0.59078285,-0.28104823,0.492671
0.55954037,-0.40025004,0.541704,0.55292142,-0.34873737,0.529944,0.53121899,-0.37756831,0.531382,0.4911958,-0.33618104,0.506844,0.45921069,-0.30606326,0.489035,0.44691636,-0.28312316,0.486434,0.51334558,-0.28509835,0.508102,0.50728967,-0.2510698,0.515722,0.51080822,-0.23277816,0.519532,0.52040075,-0.21495121,0.522996,0.54529658,-0.29478221,0.517013,0.53887288,-0.24482747,0.495746,0.54267939,-0.24994154,0.483341,0.5532957,-0.27427427,0.492656,0.5718401,-0.30847956,0.525348,0.57458702,-0.26395569,0.50526,0.57800215,-0.26362834,0.494983,0.5697827,-0.27608106,0.485639,0.60427167,-0.32969284,0.537075,0.59717758,-0.32018962,0.515947,0.58428035,-0.33193669,0.506239,0.58696225,-0.34906195,0.512852
0.55903335,-0.39979461,0.540799,0.55233661,-0.34838158,0.529211,0.5307759,-0.37696072,0.530219,0.49035912,-0.33562777,0.505417,0.45968779,-0.30306677,0.484638,0.44380491,-0.2825433,0.48075,0.51280735,-0.28464696,0.507178,0.50854183,-0.24883635,0.514163,0.51349468,-0.23064564,0.517655,0.51867761,-0.21415168,0.52083,0.54463066,-0.29462546,0.516469,0.53989226,-0.24586428,0.495366,0.54275913,-0.25012415,0.483056,0.55353375,-0.27444994,0.492328,0.57095276,-0.3080396,0.525102,0.5749073,-0.26398325,0.505147,0.57763726,-0.26513999,0.494938,0.56755287,-0.27841445,0.485657,0.6040174,-0.32940395,0.537154,0.59760925,-0.32045859,0.516088,0.58466803,-0.33221518,0.50641,0.58723192,-0.34926144,0.512967
0.55468803,-0.39687792,0.536534,0.54919292,-0.34624572,0.526589,0.52774182,-0.37457072,0.526764,0.49529534,-0.32602336,0.50322,0.46450442,-0.29023606,0.488333,0.45292827,-0.2775403,0.49296,0.51247915,-0.28379784,0.506821,0.51796976,-0.24743236,0.516059,0.52978234,-0.22938,0.520679,0.53952228,-0.21315043,0.524878,0.54287909,-0.29373467,0.515653,0.53619285,-0.24079419,0.496246,0.54225848,-0.23776833,0.484926,0.56069853,-0.2578555,0.494966,0.56726946,-0.30631037,0.523768,0.57590226,-0.27175664,0.50441,0.5806784,-0.27620441,0.494506,0.56846348,-0.29193793,0.485502,0.59712895,-0.3287994,0.534948,0.59664062,-0.31995321,0.515328,0.58457284,-0.33221906,0.506314,0.58734465,-0.34937789,0.513535
0.55472233,-0.39745093,0.536588,0.54911074,-0.3469178,0.526308,0.52803345,-0.37480886,0.52666,0.49529832,-0.32681223,0.502865,0.46413247,-0.29130468,0.488369,0.45324155,-0.27832552,0.493397,0.51239248,-0.28397922,0.506087,0.5195592,-0.24808339,0.516276,0.53100928,-0.23109133,0.521371,0.54221173,-0.21524581,0.526002,0.54259443,-0.29429976,0.515003,0.53732792,-0.24322403,0.49525,0.54410946,-0.23710953,0.483727,0.56048168,-0.25918779,0.493616,0.56650377,-0.30726812,0.523217,0.57974695,-0.28266981,0.504192,0.5822816,-0.29103943,0.494458,0.56651266,-0.30638377,0.485609,0.59677667,-0.33149223,0.534566,0.59607117,-0.32067633,0.514652,0.58375628,-0.33284615,0.505502,0.58601203,-0.34970424,0.512593
0.54883239,-0.39371368,0.530286,0.55041565,-0.348386,0.527312,0.52169362,-0.37068737,0.519333,0.49319493,-0.33229543,0.499718,0.46971139,-0.29701157,0.485874,0.4618907,-0.27587242,0.48463,0.51831774,-0.28859255,0.511401,0.53281964,-0.25725374,0.519329,0.55419145,-0.2478542,0.523294,0.57509522,-0.24026827,0.526897,0.55136956,-0.30086186,0.524041,0.56406893,-0.25830987,0.511934,0.57515254,-0.26638719,0.504871,0.59237723,-0.29044663,0.515994,0.57903707,-0.3166295,0.534696,0.60279079,-0.30191967,0.521178,0.60776834,-0.31445532,0.514262,0.59688966,-0.33379331,0.5114,0.60778482,-0.33949391,0.547784,0.61677568,-0.34404165,0.533409,0.60979931,-0.35877876,0.526804,0.61169261,-0.37718928,0.534759
0.5380239,-0.38556862,0.528656,0.54011074,-0.33748926,0.524859,0.50706719,-0.35383688,0.517775,0.48111904,-0.30457314,0.494718,0.46860518,-0.27281727,0.491658,0.46660503,-0.25519911,0.496269,0.52310531,-0.27440513,0.508411,0.5501709,-0.24029332,0.513319,0.56754094,-0.22425754,0.515773,0.58366869,-0.20928542,0.518003,0.55178713,-0.29595347,0.520685,0.57814272,-0.26721808,0.507692,0.57867197,-0.284491,0.500112,0.58586704,-0.31074646,0.511126,0.5762248,-0.31129963,0.531109,0.59794643,-0.29960553,0.516276,0.60029026,-0.31229921,0.508687,0.60430187,-0.34016346,0.519924,0.60340678,-0.33752729,0.544052,0.61063812,-0.34130121,0.529017,0.60213264,-0.35569822,0.522109,0.60383353,-0.37360113,0.529987
0.53541221,-0.3785713,0.538116,0.54824823,-0.32754273,0.530576,0.51433473,-0.34230053,0.527223,0.48655095,-0.29530177,0.50769,0.47083053,-0.25920701,0.494019,0.46895116,-0.23739426,0.493219,0.53502728,-0.2635243,0.511248,0.55641651,-0.22641429,0.504105,0.5711122,-0.21445134,0.500534,0.58525466,-0.20314018,0.497287,0.56341079,-0.28268548,0.522284,0.58379483,-0.26316381,0.505576,0.57342277,-0.2816489,0.49583,0.5768419,-0.30633834,0.506114,0.58580105,-0.30201767,0.532008,0.59852036,-0.2979959,0.51534,0.59821513,-0.31077073,0.506812,0.60105821,-0.33803354,0.517794,0.61163521,-0.33325199,0.544714,0.61032897,-0.33299847,0.526684,0.59825383,-0.34614844,0.518399,0.60009543,-0.3627293,0.525663
0.55210629,-0.37538546,0.554507,0.56347243,-0.32353815,0.537391,0.53031082,-0.3464738,0.541207,0.50723488,-0.29472402,0.521183,0.49157575,-0.25863856,0.509453,0.48772353,-0.23430151,0.500095,0.54221343,-0.25605526,0.507743,0.56920771,-0.2228494,0.506272,0.58706578,-0.21697185,0.505537,0.60448737,-0.21127513,0.504868,0.57230209,-0.27428787,0.518568,0.57542004,-0.26295438,0.492127,0.54686419,-0.27796116,0.476703,0.53893137,-0.29569163,0.48316,0.59666265,-0.29325166,0.528935,0.59285746,-0.29784678,0.505098,0.5800707,-0.31263661,0.492903,0.57783054,-0.33078498,0.500431,0.62459395,-0.32315155,0.543913,0.60061221,-0.32449388,0.518152,0.58273122,-0.33780596,0.506316,0.57973644,-0.35200836,0.510416
0.55964328,-0.3763133,0.559482,0.56846613,-0.32453989,0.540106,0.53741009,-0.34773769,0.546209,0.51659932,-0.29652273,0.524896,0.49742491,-0.26009801,0.513316,0.50322751,-0.24031013,0.517145,0.54446769,-0.25613754,0.508765,0.56929069,-0.22150219,0.504767,0.58473293,-0.21602525,0.502768,0.59987592,-0.21075929,0.500951,0.57430232,-0.27369344,0.5188,0.57339228,-0.26208746,0.490288,0.54215831,-0.27642626,0.473656,0.53331199,-0.29279815,0.479362,0.59868858,-0.29220613,0.528709,0.59131522,-0.29720429,0.503437,0.57699981,-0.31142446,0.490507,0.57369369,-0.32977805,0.497397,0.62710692,-0.32178637,0.543501,0.59927347,-0.32379407,0.51613,0.58008758,-0.33242525,0.503553,0.57645389,-0.34772651,0.507042
0.57297844,-0.37418603,0.570417,0.57712031,-0.3178316,0.544952,0.54961725,-0.3456608,0.555866,0.52991471,-0.29066173,0.534999,0.51234621,-0.2517258,0.518816,0.50901582,-0.22690326,0.510835,0.55164763,-0.25030307,0.507365,0.5719357,-0.21398913,0.495087,0.57464459,-0.21781146,0.488948,0.57761792,-0.22162343,0.483368,0.58079715,-0.26837084,0.51695,0.56556981,-0.25920992,0.482597,0.52913364,-0.27091451,0.462558,0.51671425,-0.28413143,0.465143,0.6018853,-0.28878183,0.527009,0.58320228,-0.29411821,0.49665,0.56293382,-0.30687299,0.481117,0.55532884,-0.32300605,0.484805,0.63115894,-0.3186309,0.542939,0.59356476,-0.32010071,0.51116,0.56978983,-0.3263396,0.496559,0.55692637,-0.33617,0.497529
0.58224277,-0.36311407,0.583833,0.58136487,-0.3122055,0.549977,0.55923247,-0.32313887,0.567672,0.53723817,-0.27264052,0.541246,0.52431159,-0.23433423,0.524692,0.52242397,-0.21019312,0.513775,0.55807239,-0.24414647,0.503969,0.57001174,-0.21542834,0.478231,0.56447688,-0.21259049,0.465362,0.55977093,-0.21010884,0.453662,0.57953806,-0.2667285,0.512747,0.53031419,-0.26735012,0.470934,0.51703804,-0.28352958,0.481818,0.53115432,-0.28908605,0.500359,0.60186386,-0.28750717,0.522857,0.55187848,-0.29214604,0.481678,0.51691954,-0.29756576,0.460609,0.49950302,-0.30538597,0.457147,0.62730477,-0.32143081,0.540172,0.5738404,-0.31981784,0.50313,0.54171302,-0.32228135,0.48611,0.52757406,-0.32971517,0.48262
0.57989803,-0.34964119,0.586385,0.58208491,-0.31075977,0.550404,0.56362973,-0.31901479,0.570866,0.55140379,-0.26508923,0.545763,0.54227638,-0.22702424,0.52742,0.5418129,-0.2040901,0.51457,0.56522087,-0.24589294,0.50357,0.57257578,-0.22233789,0.473627,0.56018705,-0.21889361,0.458656,0.54905976,-0.21584727,0.445046,0.58268453,-0.2688373,0.510838,0.51849725,-0.26595977,0.467381,0.50367648,-0.27635818,0.476825,0.52391549,-0.28416315,0.495508,0.60044866,-0.29570208,0.519886,0.53515381,-0.29210745,0.47712,0.49428848,-0.29314887,0.45524,0.47533004,-0.29743608,0.450398,0.61913366,-0.33048307,0.536279,0.554886,-0.31961108,0.498323,0.5200184,-0.31841083,0.480884,0.50387901,-0.322907,0.476443
0.58779848,-0.33892552,0.59245,0.59260101,-0.30522727,0.554244,0.58002869,-0.30070052,0.575504,0.56726726,-0.25313387,0.54965,0.56462739,-0.21654435,0.534662,0.55745494,-0.1941086,0.517709,0.57916526,-0.24944529,0.503933,0.57118651,-0.22138309,0.470069,0.55453104,-0.21593153,0.453137,0.53243418,-0.21212822,0.437744,0.59359699,-0.27744084,0.512231,0.51792392,-0.26636792,0.467493,0.49860021,-0.27214417,0.472499,0.51800979,-0.27939448,0.490253,0.60549548,-0.30299416,0.522316,0.53294843,-0.29292702,0.477889,0.48464366,-0.28910106,0.455159,0.46159112,-0.28770965,0.446888,0.62157628,-0.33538419,0.540289,0.55414981,-0.3213964,0.501396,0.5138838,-0.31719888,0.483526,0.49941389,-0.32064534,0.476573
0.59073307,-0.32779971,0.591736,0.59388762,-0.30802594,0.554314,0.58294145,-0.29871503,0.574162,0.57603621,-0.25155654,0.547283,0.57708927,-0.2164095,0.530555,0.58258687,-0.19720777,0.519192,0.59000498,-0.26518944,0.503819,0.56706352,-0.23871262,0.46392,0.53843249,-0.22921938,0.44397,0.50524499,-0.22218423,0.425834,0.59762628,-0.29457947,0.513162,0.5178139,-0.2737723,0.469026,0.49989614,-0.27330693,0.474304,0.51937693,-0.28045381,0.491926,0.60367192,-0.32041261,0.524041,0.52459364,-0.30052914,0.479829,0.47765587,-0.2899468,0.457208,0.45367497,-0.28540702,0.449161,0.61023287,-0.35386399,0.542829,0.54115079,-0.32839631,0.504183,0.50396296,-0.32081176,0.486427,0.48396156,-0.32001706,0.479667
0.56988935,-0.31263162,0.56929,0.57532531,-0.2975557,0.535878,0.56384532,-0.28554154,0.552795,0.56561203,-0.2409491,0.527695,0.56523892,-0.20786427,0.508731,0.55950671,-0.19168716,0.492966,0.57449184,-0.25761788,0.489793,0.53163307,-0.23760621,0.449723,0.50974196,-0.22769633,0.429688,0.47081408,-0.22176492,0.411474,0.58187061,-0.28625554,0.499136,0.50406249,-0.26768324,0.457702,0.49334565,-0.27019475,0.46863,0.51319618,-0.27727621,0.486409,0.58747832,-0.31110812,0.509673,0.51091073,-0.29316509,0.467919,0.46567473,-0.28314568,0.446557,0.44681369,-0.28075013,0.442934,0.5931398,-0.34271446,0.527423,0.53580316,-0.31928216,0.490567,0.49810598,-0.30824301,0.473633,0.48577039,-0.30540075,0.470206
0.58896667,-0.32295713,0.586854,0.5893011,-0.31185407,0.549083,0.58481445,-0.29614366,0.570711,0.59061429,-0.25994319,0.542067,0.59070413,-0.22734962,0.519818,0.5801388,-0.20849478,0.500034,0.58428555,-0.277952,0.500102,0.53325276,-0.24855956,0.458168,0.50774909,-0.23389826,0.437202,0.4665206,-0.22237797,0.418141,0.58405288,-0.30573459,0.507547,0.49860671,-0.27370555,0.464783,0.48476459,-0.27230455,0.471581,0.50494636,-0.28197914,0.489184,0.5841582,-0.3296244,0.516894,0.50354977,-0.299962,0.476545,0.45839223,-0.28454073,0.455901,0.4396492,-0.27973822,0.449989,0.58478975,-0.35963601,0.533924,0.52216013,-0.32516858,0.495182,0.48452313,-0.30947507,0.477382,0.47144394,-0.30562919,0.471334
0.58076558,-0.31782727,0.57983,0.57227817,-0.31182032,0.541613,0.57853447,-0.29262293,0.564156,0.58480358,-0.25997703,0.533186,0.59413546,-0.23760025,0.511475,0.58779634,-0.22330402,0.491791,0.57063801,-0.28603749,0.492875,0.50781737,-0.25745584,0.453751,0.47669681,-0.24326891,0.434224,0.43869633,-0.22921958,0.416472,0.56390781,-0.31100698,0.499587,0.48202036,-0.27334259,0.456526,0.47500267,-0.26767716,0.463161,0.48938808,-0.27471666,0.48082,0.5589096,-0.33169574,0.508367,0.48293532,-0.29687953,0.469642,0.442988,-0.27518643,0.449828,0.42460722,-0.26480363,0.444312,0.55389806,-0.35650456,0.524797,0.49235798,-0.31133925,0.485967,0.49054704,-0.3020268,0.489459,0.51071493,-0.31364294,0.504151
0.56749904,-0.31026108,0.567677,0.55602058,-0.30513617,0.531175,0.5670346,-0.28677554,0.553142,0.57358726,-0.25622631,0.52471,0.58327137,-0.23569681,0.503408,0.57688071,-0.22128439,0.484138,0.549825,-0.27855268,0.485168,0.48063085,-0.2453944,0.447392,0.44654609,-0.22872118,0.428854,0.41431425,-0.20871614,0.412268,0.54166522,-0.30238055,0.491036,0.45885159,-0.26084155,0.448813,0.45801316,-0.25965409,0.458511,0.47774368,-0.26879799,0.473201,0.53579347,-0.32212429,0.498977,0.45964724,-0.28380312,0.460757,0.42516242,-0.26426589,0.441203,0.41052831,-0.25640279,0.43786,0.53038042,-0.34577448,0.514141,0.46828297,-0.29781964,0.476161,0.4708813,-0.29206515,0.481742,0.48797606,-0.30258529,0.492259
0.56868506,-0.30934867,0.570724,0.54712492,-0.30459802,0.531606,0.57188162,-0.28900706,0.557043,0.58802504,-0.26198459,0.531074,0.59073404,-0.23696876,0.508743,0.58737458,-0.21923073,0.489937,0.54569985,-0.2947661,0.484662,0.48566497,-0.24174252,0.444499,0.47777701,-0.23874774,0.449783,0.49562554,-0.25645551,0.465899,0.52599611,-0.30868441,0.488591,0.46515164,-0.25218438,0.444074,0.46050121,-0.24196232,0.450701,0.48063667,-0.25835357,0.468884,0.51137608,-0.3198696,0.495159,0.45054608,-0.26126408,0.45417,0.44670937,-0.25505337,0.459921,0.46556573,-0.27266763,0.476179,0.4969457,-0.33260241,0.50911,0.45272711,-0.2748977,0.470438,0.45081032,-0.26766685,0.473993,0.46381131,-0.28250069,0.488049
0.56865038,-0.30814308,0.570829,0.5491883,-0.30428558,0.531206,0.57269686,-0.28914925,0.557013,0.58916924,-0.2626899,0.531191,0.59215851,-0.23699666,0.508873,0.58978973,-0.21969284,0.49018,0.54537855,-0.29415832,0.483707,0.48512326,-0.24112011,0.443297,0.47643885,-0.23769857,0.447827,0.49468633,-0.2555643,0.46432,0.52575985,-0.30802603,0.487635,0.47128036,-0.2575086,0.442846,0.46146217,-0.23778341,0.448518,0.46779453,-0.23434044,0.4665,0.51125969,-0.3192046,0.494245,0.45023144,-0.26058562,0.453003,0.44526811,-0.25333999,0.457943,0.46420029,-0.27042244,0.475071,0.49705174,-0.33199543,0.508325,0.45269286,-0.27433066,0.469506,0.45014702,-0.26675287,0.472418,0.46328938,-0.28163152,0.486636
0.56917902,-0.30602913,0.571961,0.54744299,-0.30419388,0.53207,0.57408288,-0.28977562,0.558034,0.58948225,-0.26355103,0.531954,0.59285905,-0.23719866,0.509434,0.58976266,-0.21948663,0.490626,0.54481952,-0.29378028,0.484228,0.48424262,-0.23978303,0.443722,0.47538326,-0.23673288,0.447795,0.49339472,-0.25493139,0.463897,0.52512027,-0.30737601,0.488205,0.46456243,-0.25014932,0.443301,0.45619973,-0.22801362,0.448395,0.46245744,-0.22203364,0.466237,0.5094882,-0.31779309,0.494877,0.44924824,-0.25823264,0.453546,0.44446782,-0.2504848,0.457995,0.46296266,-0.26865615,0.474964,0.49521273,-0.3303457,0.509074,0.45168257,-0.27208015,0.470183,0.4497011,-0.26538934,0.472705,0.46262659,-0.2804483,0.486851
0.56985849,-0.30592615,0.573115,0.54791582,-0.30436009,0.533115,0.57550498,-0.29044941,0.559204,0.59021376,-0.26465827,0.532875,0.59457507,-0.24035749,0.510266,0.5921062,-0.22338915,0.49142,0.54523407,-0.29380245,0.485209,0.48348771,-0.23838983,0.444634,0.47555299,-0.23647722,0.448538,0.4933687,-0.25484327,0.464369,0.52539711,-0.30722611,0.489129,0.464397,-0.24747549,0.444158,0.45526945,-0.22690651,0.449039,0.4615406,-0.22142706,0.466838,0.50977435,-0.31744216,0.495764,0.44923306,-0.25556989,0.454353,0.4436068,-0.24822997,0.45862,0.46253057,-0.26779776,0.475177,0.49540959,-0.32990607,0.509934,0.45158195,-0.2695069,0.471033,0.4492924,-0.26406575,0.473413,0.46242488,-0.27985074,0.487163
0.5692124,-0.30515035,0.573037,0.54720018,-0.30374942,0.533075,0.57636237,-0.28997013,0.558842,0.57832557,-0.2594171,0.528476,0.58553163,-0.24221325,0.503549,0.58600684,-0.23356839,0.484611,0.54331673,-0.29236203,0.484845,0.48156267,-0.23591899,0.444447,0.47384693,-0.23509498,0.448278,0.49145447,-0.25365316,0.463133,0.52295061,-0.30476372,0.489132,0.46363482,-0.24655917,0.444294,0.45424209,-0.22600844,0.449079,0.46041439,-0.22068145,0.4668,0.50852654,-0.31556641,0.496065,0.44925667,-0.25530136,0.454897,0.44353359,-0.24797424,0.459089,0.46193545,-0.2661138,0.475934,0.49444694,-0.32813685,0.510583,0.45163885,-0.26931271,0.47162,0.44878438,-0.26223362,0.473926,0.46195158,-0.27920018,0.487264
0.56862275,-0.3039358,0.573767,0.54522881,-0.30299214,0.533216,0.57662355,-0.29022386,0.55907,0.57789954,-0.26170786,0.529238,0.58501312,-0.24399909,0.504427,0.58552791,-0.23567163,0.485457,0.53466873,-0.28800132,0.483909,0.47415984,-0.23101891,0.443537,0.4672086,-0.23073991,0.445964,0.47372098,-0.24462297,0.448171,0.51533045,-0.3009306,0.488623,0.45545007,-0.24002177,0.443739,0.44450243,-0.21846453,0.446743,0.45443431,-0.21692617,0.463921,0.50113905,-0.31167982,0.495959,0.44261876,-0.25000309,0.454894,0.43866553,-0.24464636,0.45758,0.45679326,-0.26273265,0.47302,0.48755078,-0.32452908,0.511046,0.445448,-0.26463109,0.471978,0.44456547,-0.25937432,0.473079,0.45785398,-0.27576541,0.485795
0.56676773,-0.30294887,0.573663,0.54325805,-0.30196264,0.533058,0.57620862,-0.29082892,0.55902,0.57739449,-0.26205473,0.529096,0.58401375,-0.24406903,0.504079,0.58384449,-0.23486936,0.484843,0.53437241,-0.28744422,0.483779,0.47368454,-0.23035854,0.443352,0.46444677,-0.22918121,0.445707,0.47252746,-0.24397773,0.447847,0.51493564,-0.30032896,0.488408,0.45487276,-0.23925945,0.443478,0.44381109,-0.21769116,0.44639,0.45170909,-0.21459569,0.463557,0.50068106,-0.31105985,0.495678,0.44254027,-0.24969612,0.454543,0.43593664,-0.24234923,0.457149,0.45444976,-0.26087789,0.473477,0.48705049,-0.32392551,0.510695,0.44489325,-0.2639799,0.471638,0.44162702,-0.25740336,0.47268,0.45618344,-0.27475307,0.484983
0.56638999,-0.30296236,0.57357,0.54358838,-0.3024056,0.532931,0.57534233,-0.29057645,0.558888,0.57781895,-0.2636381,0.529085,0.58414308,-0.24461857,0.504051,0.58368321,-0.23499949,0.484734,0.53441767,-0.28706514,0.483577,0.47309111,-0.23000732,0.443163,0.46535034,-0.2295382,0.445411,0.47171853,-0.24344571,0.447456,0.51508757,-0.30021663,0.488242,0.45309882,-0.2383566,0.44332,0.44284195,-0.21711588,0.446098,0.45044376,-0.2140692,0.463219,0.50094954,-0.31119724,0.495545,0.44206481,-0.24968793,0.45443,0.43706928,-0.24350129,0.456923,0.45535516,-0.26172856,0.472655,0.48904174,-0.32506739,0.510607,0.44485776,-0.26446662,0.471549,0.44168007,-0.25667732,0.472501,0.45424905,-0.27127714,0.486532
0.56564528,-0.30240294,0.573594,0.5423161,-0.301977,0.532987,0.5751148,-0.29091844,0.558973,0.57750941,-0.26397311,0.529012,0.58356642,-0.2449296,0.503718,0.58273685,-0.23500926,0.484199,0.53423426,-0.28711284,0.483732,0.47265466,-0.22997814,0.44329,0.46407762,-0.22898146,0.445655,0.4715995,-0.24341421,0.447805,0.51482913,-0.30030103,0.488333,0.45197539,-0.23797012,0.443391,0.44237202,-0.21695603,0.446317,0.44861753,-0.21298436,0.463492,0.50064827,-0.31131891,0.49558,0.44146334,-0.24965361,0.454425,0.43550516,-0.24234215,0.457043,0.45231745,-0.25867898,0.473939,0.48719145,-0.32460447,0.510571,0.44441735,-0.26463523,0.471517,0.44140775,-0.25586816,0.472569,0.45333722,-0.26374736,0.486722
0.56529443,-0.30187057,0.573865,0.54202745,-0.30195832,0.533188,0.57540054,-0.29132942,0.559303,0.57743736,-0.26454466,0.529111,0.58304214,-0.2471066,0.503649,0.58130054,-0.23613026,0.483862,0.53403432,-0.2870702,0.483953,0.4724003,-0.22982106,0.443449,0.46385924,-0.22879171,0.445704,0.47046512,-0.24270546,0.447755,0.51449406,-0.30016299,0.488457,0.45027514,-0.23690525,0.443463,0.4418911,-0.21647273,0.446251,0.44817649,-0.21259925,0.463401,0.50023208,-0.31110817,0.49563,0.44097689,-0.24929367,0.454396,0.43459679,-0.24114562,0.456895,0.45153598,-0.25654884,0.474379,0.48672891,-0.32432424,0.510544,0.44400512,-0.26476582,0.471505,0.44059992,-0.25353669,0.472468,0.4513266,-0.25924446,0.48658
0.56487396,-0.30214332,0.574397,0.54043234,-0.30180626,0.533691,0.57491525,-0.29160737,0.559807,0.57686777,-0.26565871,0.529492,0.5824448,-0.24997549,0.504021,0.57933461,-0.23852249,0.484089,0.53377025,-0.28751606,0.4844,0.47224142,-0.23024563,0.443904,0.46373317,-0.22906869,0.446073,0.46891552,-0.24207278,0.448045,0.51421391,-0.3005857,0.488928,0.44856663,-0.23688053,0.443939,0.44037161,-0.21619539,0.446617,0.44789486,-0.21285361,0.463731,0.49995711,-0.31150193,0.496124,0.44079431,-0.24965731,0.454902,0.43435552,-0.2412514,0.457308,0.4512731,-0.25645232,0.474914,0.48648829,-0.32466639,0.511069,0.44313377,-0.26605941,0.472031,0.4394331,-0.25306532,0.472919,0.45089223,-0.25922205,0.487003
0.56403697,-0.30223051,0.574552,0.54018268,-0.30191137,0.533832,0.57394972,-0.29162937,0.559916,0.57684841,-0.26733971,0.529568,0.5817964,-0.25174791,0.504011,0.57687374,-0.23946099,0.483931,0.53331316,-0.28760107,0.484474,0.47060163,-0.23025518,0.444004,0.46344915,-0.22903707,0.446107,0.46869452,-0.24193216,0.448018,0.5138238,-0.30076688,0.489055,0.44826032,-0.23757539,0.444085,0.43910185,-0.2179953,0.446679,0.44626454,-0.21330712,0.46376,0.49964553,-0.31175342,0.496295,0.44042708,-0.24998853,0.45511,0.43457599,-0.2416655,0.457445,0.45177074,-0.25702549,0.474905,0.48631121,-0.32499109,0.511296,0.44202951,-0.26688021,0.472254,0.43931413,-0.25332644,0.473085,0.45111872,-0.25907922,0.487148
0.56522968,-0.30306321,0.57558,0.54168326,-0.30260464,0.534602,0.57433421,-0.29212069,0.560312,0.57724233,-0.26780289,0.529709,0.58133424,-0.25216428,0.503381,0.57333537,-0.23924447,0.483014,0.53197512,-0.28773981,0.484259,0.4715228,-0.23073096,0.44422,0.46201236,-0.22844655,0.444958,0.46590128,-0.2405236,0.44563,0.5136261,-0.30108187,0.489541,0.44825135,-0.23971992,0.444922,0.43903132,-0.22170799,0.445782,0.44606228,-0.2129617,0.462192,0.49924742,-0.31217488,0.49738,0.43898666,-0.25840151,0.45676,0.43096089,-0.24291861,0.457634,0.44249674,-0.2321153,0.474385,0.48493889,-0.32579732,0.51313,0.44150437,-0.26455526,0.47417,0.43999067,-0.25943035,0.473826,0.45158216,-0.26266128,0.487404
0.56622892,-0.30383101,0.576484,0.54198765,-0.30316517,0.535667,0.57460488,-0.29261191,0.560673,0.57645261,-0.26777132,0.529031,0.5792805,-0.25185436,0.501759,0.57017907,-0.23858513,0.481119,0.52979926,-0.28842203,0.484771,0.46951094,-0.23183252,0.445232,0.46220848,-0.22895568,0.445645,0.4659307,-0.24088861,0.446019,0.51234181,-0.3019443,0.490782,0.44949899,-0.24355648,0.446588,0.44172035,-0.22564998,0.447029,0.44649972,-0.21695979,0.463153,0.49864916,-0.3132575,0.499208,0.43811121,-0.25871608,0.456979,0.42955918,-0.24303331,0.457387,0.44156467,-0.23247848,0.474601,0.48654869,-0.32679341,0.515627,0.44296435,-0.26608273,0.476694,0.44128927,-0.26073348,0.476052,0.45284112,-0.26384996,0.489505
0.56694162,-0.30450249,0.57691,0.54195779,-0.30367226,0.536305,0.57461443,-0.29306648,0.560613,0.57511097,-0.26884075,0.528213,0.57721155,-0.25421342,0.500348,0.56501799,-0.23957456,0.479586,0.52843873,-0.28916808,0.484966,0.46845475,-0.2325947,0.445929,0.46218954,-0.229364,0.446115,0.46529015,-0.24106295,0.446285,0.5107885,-0.302887,0.491654,0.45025146,-0.24802252,0.447294,0.44183075,-0.22993584,0.446654,0.4476095,-0.22114274,0.462462,0.49847868,-0.31432557,0.500619,0.43828648,-0.25957164,0.45805,0.42920615,-0.2436735,0.458019,0.44121164,-0.23306887,0.475186,0.48706637,-0.32717128,0.517643,0.44425147,-0.26739483,0.47876,0.44256724,-0.26218644,0.477907,0.45420819,-0.26567663,0.491261
0.5677901,-0.30490119,0.577129,0.54202439,-0.30398694,0.536565,0.5751404,-0.29343286,0.560713,0.57499372,-0.26915596,0.528161,0.57670801,-0.25472567,0.500157,0.56397287,-0.24002625,0.479366,0.52810449,-0.28941472,0.48511,0.46813444,-0.23281903,0.446209,0.461605,-0.22954728,0.446267,0.46484124,-0.24121272,0.44632,0.51057642,-0.30313716,0.49196,0.45055838,-0.24877582,0.447519,0.4412141,-0.23043519,0.445796,0.44661697,-0.2213477,0.461224,0.49840783,-0.31457574,0.501054,0.43827995,-0.25994444,0.458488,0.42871579,-0.24381536,0.458,0.44055676,-0.23311112,0.474963,0.48729639,-0.32759031,0.518225,0.44450673,-0.26781833,0.479376,0.44281327,-0.26268134,0.478411,0.45449375,-0.26635869,0.491709
0.57074488,-0.30665791,0.579319,0.5448137,-0.30609602,0.539346,0.5774849,-0.29498253,0.562414,0.57612633,-0.27108465,0.528824,0.5762405,-0.25608358,0.500197,0.56210515,-0.24101908,0.479241,0.53036613,-0.29187405,0.487734,0.47148592,-0.23506672,0.449366,0.46523721,-0.23188182,0.450318,0.46932265,-0.24384885,0.451184,0.51396912,-0.30575218,0.49539,0.4539583,-0.2525536,0.450229,0.42471081,-0.22410208,0.428145,0.41613367,-0.20699936,0.429157,0.50227358,-0.31753495,0.505098,0.45153507,-0.27167983,0.460966,0.42041937,-0.24077257,0.438387,0.39940118,-0.21754818,0.427527,0.49177509,-0.33115068,0.522902,0.44886977,-0.27094732,0.483944,0.44787652,-0.26624864,0.483709,0.4598887,-0.27019958,0.49733
0.57137366,-0.30724086,0.579376,0.54531802,-0.3070663,0.539746,0.57775004,-0.29558489,0.562275,0.57161405,-0.26856298,0.528764,0.56778987,-0.24981611,0.500097,0.5634693,-0.24115474,0.479384,0.52989341,-0.2935662,0.488153,0.47245679,-0.23987371,0.450063,0.46458748,-0.23408463,0.451528,0.47057255,-0.24522628,0.45286,0.5132288,-0.30756983,0.496168,0.45496131,-0.25395052,0.450934,0.42138074,-0.22322284,0.424547,0.40307455,-0.20241816,0.414981,0.50313757,-0.31900139,0.506141,0.45245935,-0.27324237,0.461774,0.42110704,-0.24226287,0.439075,0.40031021,-0.2192078,0.428566,0.49315878,-0.33276205,0.524206,0.44984374,-0.27276208,0.485225,0.44938748,-0.26904075,0.485414,0.46175029,-0.27360927,0.499207
0.57222113,-0.30780911,0.579409,0.54579499,-0.30845829,0.539798,0.57837588,-0.29622919,0.562255,0.57111934,-0.26842058,0.528827,0.56733214,-0.24777338,0.500171,0.56434375,-0.2403607,0.4796,0.53018402,-0.29411735,0.488153,0.47328854,-0.24050568,0.450125,0.46518109,-0.23416658,0.45153,0.47023752,-0.24553236,0.452808,0.51360373,-0.30818355,0.49624,0.45538747,-0.25461006,0.451038,0.42178814,-0.22388953,0.424669,0.40344173,-0.20302799,0.415062,0.5033396,-0.31954772,0.506272,0.45285561,-0.27366786,0.461881,0.42144673,-0.24268618,0.43917,0.40055409,-0.21960219,0.4286,0.49363519,-0.33379005,0.524402,0.45032957,-0.2739308,0.485437,0.4498374,-0.26971294,0.485574,0.46216421,-0.27426367,0.499341
0.57415813,-0.3102852,0.581362,0.54750896,-0.31279742,0.540774,0.58145714,-0.29899069,0.565381,0.56444093,-0.26583543,0.533904,0.56555532,-0.23968349,0.507325,0.56773455,-0.2312074,0.48941,0.53926422,-0.29441881,0.489842,0.47406356,-0.24049758,0.449935,0.46412708,-0.234901,0.45079,0.46873421,-0.2453372,0.451567,0.52334878,-0.31146949,0.496142,0.45631036,-0.25593593,0.45035,0.42097215,-0.22355704,0.423638,0.40195574,-0.20271289,0.413516,0.5118965,-0.32600792,0.504786,0.46227116,-0.2766906,0.460022,0.42855057,-0.24685266,0.43712,0.40117337,-0.22224075,0.426054,0.50147757,-0.34402927,0.521428,0.45248965,-0.28378547,0.48241,0.44889686,-0.27899913,0.482156,0.45910539,-0.28403485,0.495789
0.57457416,-0.31176633,0.581379,0.54789142,-0.31354626,0.540833,0.58175345,-0.30012612,0.565419,0.5624293,-0.26494387,0.533906,0.55783439,-0.23502884,0.506768,0.55766815,-0.22404542,0.48768,0.5401633,-0.29450695,0.48996,0.47456645,-0.23964125,0.450186,0.46597169,-0.23769308,0.451212,0.46944326,-0.24750563,0.452144,0.52423523,-0.31155288,0.496248,0.45852512,-0.25619138,0.450442,0.42205407,-0.2249266,0.423723,0.40237484,-0.20313633,0.413726,0.51276967,-0.3260839,0.504879,0.46313326,-0.27676962,0.460112,0.42938779,-0.24692955,0.437209,0.40472074,-0.22561148,0.426281,0.50232791,-0.3440891,0.521498,0.4532717,-0.28382906,0.482457,0.44977805,-0.27911728,0.48234,0.46004006,-0.28418473,0.496036
0.58621018,-0.31960955,0.593302,0.5525404,-0.33213733,0.55703,0.5903169,-0.30633479,0.574079,0.56292889,-0.26578868,0.540882,0.55938521,-0.23420593,0.512475,0.54791677,-0.21107837,0.491522,0.53675082,-0.32110627,0.505362,0.4792683,-0.26739949,0.469426,0.47443862,-0.26273578,0.472478,0.48175328,-0.2738057,0.475253,0.52388511,-0.33803466,0.517143,0.46153228,-0.27973612,0.474353,0.42839403,-0.24814238,0.449392,0.42362501,-0.24689833,0.441646,0.51524448,-0.35159279,0.52993,0.45159388,-0.28907875,0.486212,0.42609922,-0.26490915,0.463845,0.42313481,-0.26657337,0.454783,0.5088067,-0.366815,0.550797,0.46908906,-0.30795019,0.512856,0.47920554,-0.29833813,0.51438,0.49707628,-0.31362831,0.528325
0.57671618,-0.32885863,0.592178,0.54820289,-0.33111563,0.552332,0.58265253,-0.31406044,0.575178,0.56415003,-0.26947539,0.544761,0.55418157,-0.23375099,0.522456,0.54002185,-0.20914577,0.503417,0.54309414,-0.3057908,0.500697,0.48269809,-0.26740002,0.459472,0.45305393,-0.24605446,0.438859,0.42824021,-0.22745292,0.429102,0.5273606,-0.32949932,0.508514,0.45489813,-0.27547684,0.465438,0.4200211,-0.24559252,0.44031,0.41410914,-0.24314915,0.431054,0.51877938,-0.34734942,0.518344,0.45152149,-0.29409764,0.479987,0.42479538,-0.27259044,0.460363,0.42296124,-0.2726527,0.451379,0.511349,-0.36910708,0.536273,0.4610415,-0.31013199,0.49731,0.46479067,-0.2989468,0.4972,0.4842238,-0.31280971,0.51087
0.56603832,-0.3410361,0.595885,0.55303031,-0.33417734,0.556057,0.57597931,-0.32383824,0.583811,0.56034458,-0.27632603,0.561559,0.55225448,-0.23675429,0.541986,0.55120135,-0.2142068,0.525525,0.56222956,-0.30522826,0.510571,0.51026317,-0.26230045,0.468412,0.4832212,-0.24083363,0.447333,0.45657922,-0.22901599,0.440213,0.54865064,-0.32647133,0.51226,0.46989345,-0.2743605,0.466825,0.42721193,-0.25546454,0.44032,0.42318806,-0.25695878,0.43332,0.53785706,-0.34488075,0.517046,0.46570649,-0.29157217,0.474481,0.43554602,-0.27098146,0.452703,0.43573499,-0.27324135,0.445577,0.52572838,-0.36828245,0.528998,0.47248262,-0.31180698,0.490722,0.47181413,-0.30332791,0.493799,0.48565372,-0.31453273,0.508464
0.57370048,-0.334232,0.594625,0.56063211,-0.32271533,0.553952,0.57355806,-0.32135974,0.582717,0.55137382,-0.26972876,0.556984,0.5336932,-0.22983902,0.535111,0.52210573,-0.20480929,0.51652,0.55651782,-0.2847952,0.508025,0.50150034,-0.24885187,0.465532,0.4719654,-0.23082728,0.444286,0.44305175,-0.22205519,0.435926,0.5481349,-0.30866214,0.509226,0.46584434,-0.2695916,0.463331,0.42421227,-0.24736084,0.436559,0.42305539,-0.24605028,0.428301,0.54194956,-0.32973675,0.513682,0.46304011,-0.28900474,0.470538,0.45599362,-0.28342673,0.473984,0.48043778,-0.29830522,0.490799,0.53590322,-0.35730726,0.525377,0.4707788,-0.31108734,0.487107,0.46877248,-0.30081273,0.488952,0.48761654,-0.31281259,0.503136
0.56716565,-0.34382923,0.595886,0.5710617,-0.33037112,0.558165,0.57278459,-0.32248415,0.583704,0.54591563,-0.27610956,0.562103,0.52638584,-0.23510508,0.541725,0.51489712,-0.20902487,0.525509,0.56938265,-0.28089338,0.514155,0.5202597,-0.2543538,0.473143,0.49151502,-0.24266491,0.452637,0.47029106,-0.24382182,0.447881,0.5723005,-0.30723965,0.516685,0.48854671,-0.28390012,0.472718,0.44253313,-0.26518797,0.44707,0.44231938,-0.26034114,0.442481,0.57463392,-0.33083452,0.521983,0.49568988,-0.31241531,0.481055,0.48961971,-0.32053602,0.488933,0.5045752,-0.33425413,0.508468,0.57719382,-0.36232246,0.534209,0.50880342,-0.3271733,0.496463,0.50500995,-0.32112848,0.501765,0.52030766,-0.32656618,0.516969
0.56891055,-0.34609537,0.597339,0.56764288,-0.32771116,0.556335,0.57129633,-0.32248505,0.583302,0.54109675,-0.27505119,0.560039,0.51786737,-0.23597969,0.543077,0.49924256,-0.21092615,0.525711,0.5616959,-0.27646149,0.507506,0.51658412,-0.24540283,0.465122,0.49269286,-0.23077168,0.44393,0.4654735,-0.22934749,0.434526,0.56597013,-0.30324278,0.511246,0.4813802,-0.27963446,0.465917,0.46477239,-0.2796178,0.468194,0.48776705,-0.2880842,0.485306,0.56976316,-0.32750531,0.517819,0.49078127,-0.30792649,0.476028,0.47861724,-0.31254436,0.47808,0.50362009,-0.32207695,0.495774,0.57462412,-0.36033195,0.532073,0.50496629,-0.32412255,0.493169,0.49658611,-0.31537934,0.49381,0.51073717,-0.32033627,0.507751
0.56443742,-0.3444699,0.59095,0.5653946,-0.3256171,0.550147,0.56596299,-0.32042072,0.577673,0.53372139,-0.27847836,0.55502,0.50880814,-0.23999511,0.537786,0.48814853,-0.21528437,0.520494,0.55759362,-0.27224664,0.502417,0.51325595,-0.24107096,0.460147,0.48933407,-0.22663178,0.439012,0.46336222,-0.2266171,0.430305,0.56773651,-0.29544062,0.505278,0.48593838,-0.2765691,0.45971,0.47025975,-0.28169739,0.463035,0.4896013,-0.28909829,0.480562,0.57386999,-0.31960064,0.511111,0.49582079,-0.30354304,0.468808,0.48445728,-0.31083724,0.471735,0.51002004,-0.32072703,0.489986,0.58159386,-0.35314552,0.524458,0.51001073,-0.3204362,0.485702,0.50087485,-0.31347556,0.487068,0.50961402,-0.31771932,0.501237
0.56757938,-0.35245558,0.588956,0.5725409,-0.32562012,0.549319,0.56550534,-0.32297527,0.577053,0.52861938,-0.28759809,0.556019,0.49846997,-0.25067535,0.538736,0.47631916,-0.22627285,0.521546,0.56187868,-0.26145791,0.504192,0.52200869,-0.23043024,0.462985,0.50088605,-0.21581883,0.442382,0.48118147,-0.22035212,0.43578,0.57292236,-0.28528962,0.505733,0.49887827,-0.27159454,0.46037,0.48490426,-0.2832432,0.466577,0.50647906,-0.29224413,0.484934,0.58234725,-0.30824067,0.51038,0.51164127,-0.29729942,0.467835,0.50233832,-0.30993507,0.473188,0.52623445,-0.32000701,0.492506,0.59395967,-0.34169628,0.522139,0.52532723,-0.31482545,0.483963,0.51489589,-0.31210179,0.487302,0.52684131,-0.31869719,0.502032
0.57452409,-0.36251039,0.591144,0.57923087,-0.329831,0.555638,0.56963931,-0.33035121,0.582705,0.53176538,-0.29831137,0.558408,0.5033353,-0.25685465,0.536057,0.48513639,-0.23052674,0.517293,0.5743316,-0.26817588,0.517982,0.5522628,-0.22925499,0.482122,0.54125537,-0.20976351,0.464192,0.5326355,-0.21217854,0.462506,0.583007,-0.28974322,0.516594,0.52019526,-0.27213268,0.473658,0.505901,-0.29310878,0.485354,0.52196924,-0.30525461,0.504556,0.59006003,-0.31084225,0.518479,0.52541325,-0.29653716,0.477269,0.51863801,-0.31248445,0.487234,0.54069015,-0.32819201,0.507854,0.59812317,-0.34222716,0.526314,0.53799893,-0.31404906,0.491103,0.52978013,-0.31579647,0.498246,0.54441304,-0.32570497,0.513408
0.57139233,-0.36984839,0.588931,0.58058506,-0.33546142,0.56035,0.565044,-0.34697597,0.583772,0.53175425,-0.31523645,0.563521,0.50009912,-0.27406579,0.539007,0.48626875,-0.2448095,0.522641,0.57324789,-0.27466974,0.532073,0.56560029,-0.23169422,0.502257,0.56171115,-0.2102801,0.487349,0.569131,-0.21247295,0.490681,0.58420801,-0.29249621,0.528922,0.54897004,-0.27919676,0.491685,0.54433319,-0.30391145,0.508904,0.54680663,-0.31947841,0.527778,0.59271299,-0.3104707,0.528765,0.55789665,-0.29802996,0.492363,0.55650966,-0.32321651,0.506983,0.56360914,-0.34071411,0.527523,0.60201593,-0.33823185,0.533091,0.55931042,-0.32730789,0.502122,0.56063615,-0.34726683,0.514087,0.57315982,-0.36197118,0.529625
0.58328292,-0.38938642,0.571423,0.58023268,-0.33675077,0.550023,0.57136422,-0.37068047,0.573823,0.54878075,-0.33669143,0.564763,0.51789536,-0.29954341,0.547553,0.50435627,-0.27312671,0.537788,0.56316593,-0.27644656,0.536647,0.56012059,-0.23174591,0.511724,0.55637086,-0.21311162,0.499263,0.56980067,-0.2057133,0.50443,0.57545026,-0.28176315,0.526491,0.54730455,-0.26421887,0.495706,0.55495339,-0.29921453,0.513941,0.56532013,-0.32175347,0.5308,0.5857206,-0.29013881,0.519958,0.55517085,-0.27315498,0.487442,0.56071185,-0.30215058,0.502797,0.5737871,-0.32285794,0.522061,0.59867433,-0.30768351,0.515599,0.56727863,-0.29456455,0.49401,0.57778751,-0.30160079,0.506015,0.57704506,-0.31324857,0.518268
0.57554592,-0.38554142,0.563074,0.57731747,-0.33641787,0.547133,0.56595447,-0.36865423,0.567976,0.5458413,-0.33553608,0.562978,0.51662039,-0.29928642,0.547373,0.50408233,-0.27381132,0.539307,0.5669434,-0.28073436,0.541046,0.56439677,-0.23702528,0.524168,0.56175084,-0.21935999,0.515729,0.57717396,-0.20931305,0.524082,0.5779726,-0.28513529,0.529604,0.55514388,-0.2710562,0.504149,0.56550409,-0.31038543,0.523993,0.57517691,-0.32966491,0.539429,0.58672108,-0.29244854,0.521546,0.56236034,-0.27469063,0.493664,0.57089515,-0.30489313,0.510358,0.58272666,-0.32663235,0.528286,0.59700269,-0.30813942,0.51452,0.57279406,-0.29461206,0.49777,0.58584246,-0.29794319,0.510981,0.58352522,-0.31301313,0.521999
0.57563029,-0.38640029,0.562362,0.57889285,-0.33837389,0.548608,0.56646789,-0.37019119,0.56802,0.54605462,-0.33741101,0.564329,0.514689,-0.30189196,0.548821,0.50317063,-0.27585583,0.540443,0.56936824,-0.28587658,0.545135,0.56961878,-0.24058963,0.530863,0.56847388,-0.22250094,0.523728,0.58511736,-0.21195736,0.533182,0.5804058,-0.2895378,0.533484,0.55992456,-0.277296,0.51021,0.57299606,-0.31515208,0.530716,0.58284384,-0.33673786,0.54557,0.58910678,-0.29614833,0.525068,0.56845144,-0.27768898,0.499183,0.58495781,-0.31247095,0.516433,0.59956356,-0.33247998,0.533776,0.59970733,-0.31013074,0.517273,0.57757935,-0.29720118,0.502348,0.58957673,-0.30421945,0.516045,0.58828169,-0.31651483,0.526608
0.57304115,-0.38429375,0.559132,0.57757621,-0.33739758,0.547113,0.56526903,-0.36928344,0.566302,0.54654902,-0.33785248,0.565138,0.5164657,-0.3018979,0.549364,0.50360114,-0.27648126,0.540704,0.57103521,-0.28635865,0.546848,0.57393714,-0.24211678,0.535956,0.57282382,-0.22310416,0.53051,0.5750718,-0.20630589,0.527125,0.58079711,-0.28917422,0.533896,0.56389564,-0.27193196,0.512436,0.57646756,-0.3098049,0.532554,0.58429124,-0.33456739,0.546631,0.58880235,-0.29437453,0.524261,0.56910224,-0.27829797,0.499685,0.58616759,-0.31099442,0.516582,0.60032629,-0.33445166,0.533255,0.59679538,-0.30815151,0.51475,0.57732801,-0.29526616,0.501961,0.58867492,-0.30191694,0.515472,0.58669745,-0.31540282,0.525212
0.57138033,-0.38362554,0.557716,0.57663561,-0.3373681,0.546855,0.56428172,-0.36934592,0.565751,0.54690474,-0.3383633,0.566068,0.51766313,-0.3025177,0.550813,0.505364,-0.27713499,0.542231,0.57054566,-0.28754283,0.548552,0.57253648,-0.24293323,0.540891,0.56888335,-0.22440577,0.53706,0.5751178,-0.2067086,0.533578,0.58059053,-0.2895754,0.534911,0.5638651,-0.27242003,0.514674,0.5777278,-0.31044601,0.534592,0.58572313,-0.33473026,0.548165,0.58742678,-0.29485724,0.524611,0.5691199,-0.27721335,0.500976,0.58420838,-0.30898474,0.51769,0.59759218,-0.33297687,0.53391,0.59522851,-0.30744839,0.514128,0.57720725,-0.29509258,0.502683,0.58826605,-0.30181953,0.516104,0.58613862,-0.31513108,0.525336
0.57372461,-0.38560644,0.559345,0.57776091,-0.33868702,0.548038,0.56680162,-0.37194393,0.567918,0.55346563,-0.34717802,0.569112,0.52493682,-0.31145917,0.555715,0.51038613,-0.28564723,0.549832,0.56802414,-0.28963733,0.550065,0.56939819,-0.24562821,0.542706,0.57052669,-0.22796386,0.539026,0.57173293,-0.21132893,0.535681,0.5770367,-0.2900716,0.535605,0.56532788,-0.27237081,0.514996,0.57731689,-0.30931581,0.534057,0.58505293,-0.33268682,0.547495,0.58744764,-0.29439097,0.524668,0.56844373,-0.27852522,0.500427,0.58391745,-0.3106286,0.516399,0.5975081,-0.33350141,0.532568,0.59405033,-0.30667473,0.513502,0.57616738,-0.29609286,0.502217,0.58678897,-0.30438522,0.515087,0.58442481,-0.31472367,0.524049
0.57515532,-0.38747407,0.560796,0.58363998,-0.34389037,0.554285,0.56433991,-0.37149976,0.565689,0.54350694,-0.34071571,0.561586,0.5219377,-0.30858183,0.555516,0.51500334,-0.28812134,0.554475,0.57165031,-0.2948485,0.555396,0.58611244,-0.26163439,0.563913,0.5964718,-0.24943147,0.568171,0.60831936,-0.23351048,0.572043,0.5883514,-0.29741036,0.547124,0.58196174,-0.28016361,0.531289,0.60076287,-0.32148975,0.555547,0.60809525,-0.34649404,0.56889,0.60070747,-0.3040898,0.540872,0.59337361,-0.29108919,0.523084,0.61442683,-0.32728742,0.543573,0.6289364,-0.35170002,0.560926,0.61632535,-0.3191251,0.534495,0.60057284,-0.30908857,0.523705,0.61519425,-0.31784085,0.539922,0.61331369,-0.3305182,0.550007
0.57547665,-0.3884448,0.561243,0.58379052,-0.3448354,0.554955,0.56450309,-0.37255964,0.566117,0.54407491,-0.34292293,0.56202,0.52256501,-0.31082664,0.556697,0.51496657,-0.28945261,0.555408,0.57189639,-0.29570832,0.556215,0.58399953,-0.26089403,0.563571,0.59330128,-0.24846608,0.567249,0.60433154,-0.23384816,0.570592,0.58861741,-0.29851417,0.548041,0.58304723,-0.28075002,0.532444,0.60214906,-0.32206124,0.556786,0.609366,-0.34705093,0.570068,0.60102206,-0.30521427,0.54185,0.59433544,-0.29204709,0.524319,0.61564879,-0.3283103,0.54488,0.62982291,-0.35270154,0.562058,0.61577149,-0.32017193,0.535511,0.60196951,-0.30983455,0.524862,0.61766276,-0.31802257,0.541135,0.61564039,-0.33075013,0.551192
0.57551874,-0.38905937,0.561388,0.58369898,-0.34542325,0.555263,0.56441576,-0.37324262,0.566235,0.54368321,-0.3432497,0.562123,0.52252804,-0.31146218,0.557024,0.51504219,-0.2903075,0.556074,0.57200772,-0.29613199,0.556613,0.58336943,-0.26068044,0.563529,0.59229222,-0.24816423,0.566987,0.60262614,-0.23412221,0.570131,0.5887081,-0.29914147,0.548527,0.58365137,-0.28108346,0.533105,0.60296839,-0.32237791,0.557513,0.61010617,-0.34734226,0.570752,0.60116462,-0.30586529,0.542395,0.59484304,-0.29266092,0.525057,0.61636473,-0.3289577,0.545675,0.63036545,-0.35336669,0.562786,0.61586562,-0.32071774,0.5361,0.6028027,-0.31028276,0.525545,0.61885875,-0.31855592,0.541862,0.61707378,-0.33105321,0.551903
0.57615599,-0.39016304,0.562425,0.58277794,-0.34702393,0.555923,0.56431143,-0.37390284,0.566606,0.54001388,-0.34340792,0.561467,0.51303284,-0.31256901,0.556279,0.5111247,-0.29330939,0.557285,0.5709617,-0.29596844,0.556157,0.5812873,-0.26090833,0.564228,0.59062677,-0.24920302,0.568264,0.59947027,-0.23763674,0.571933,0.58763948,-0.30015745,0.548774,0.58441611,-0.27092219,0.53299,0.6081935,-0.30765203,0.557611,0.61579792,-0.3355699,0.571048,0.59980117,-0.30784072,0.543252,0.59535984,-0.29315225,0.525793,0.61723015,-0.32954942,0.546605,0.63069527,-0.35379655,0.563401,0.61522122,-0.32234892,0.53774,0.60388264,-0.31084965,0.526535,0.62030842,-0.3191886,0.542964,0.61906502,-0.33169577,0.553279
0.57515568,-0.39064738,0.56162,0.58193569,-0.34701158,0.55561,0.56324577,-0.37463726,0.565951,0.53888497,-0.34306943,0.561105,0.51320438,-0.31267352,0.556465,0.51000278,-0.2936552,0.557621,0.57083139,-0.29615312,0.556405,0.5807946,-0.26119871,0.564539,0.59022102,-0.24978015,0.568606,0.59915105,-0.23848405,0.572303,0.5874314,-0.30042771,0.549,0.5852297,-0.27129935,0.533732,0.60908789,-0.30810445,0.558431,0.61650856,-0.33595715,0.571707,0.59955145,-0.30805204,0.543419,0.59583886,-0.29357779,0.52644,0.61789133,-0.33000346,0.547318,0.63115158,-0.35424317,0.564058,0.61465817,-0.32259077,0.537758,0.60434519,-0.3110963,0.526976,0.62102746,-0.31947352,0.543468,0.61985017,-0.33177608,0.553657
0.57507797,-0.39154876,0.561966,0.58111949,-0.34762327,0.555921,0.56259509,-0.37541967,0.565899,0.53556422,-0.34245296,0.560475,0.51367793,-0.31336713,0.557428,0.50638688,-0.29492852,0.55885,0.57013949,-0.29604762,0.556196,0.57826078,-0.26167263,0.564986,0.58820134,-0.25128108,0.569381,0.59953736,-0.23930454,0.573377,0.58651999,-0.30105876,0.549274,0.58513699,-0.27146445,0.533997,0.60922438,-0.30846913,0.558868,0.616708,-0.33637555,0.572201,0.59978191,-0.30844157,0.544093,0.59604705,-0.29402535,0.527259,0.61884801,-0.33023594,0.548291,0.63162348,-0.35440565,0.564685,0.61455078,-0.32378287,0.538912,0.60469033,-0.31140499,0.527877,0.62151185,-0.32072276,0.544467,0.62120098,-0.33260779,0.554783
0.57428051,-0.39185752,0.561768,0.58060566,-0.34763767,0.555815,0.5616733,-0.37581629,0.565674,0.53513865,-0.34235928,0.560223,0.51318489,-0.31326912,0.557118,0.50584656,-0.29481089,0.558512,0.56970756,-0.29601362,0.556124,0.57781095,-0.26151046,0.564821,0.58771157,-0.25112811,0.56917,0.59877959,-0.23944725,0.573123,0.58616844,-0.30104302,0.549268,0.58504812,-0.27152746,0.534091,0.60920018,-0.30860494,0.559002,0.6166587,-0.33650372,0.57231,0.59946057,-0.30847014,0.544134,0.59556564,-0.29371333,0.527415,0.61871578,-0.32988056,0.548482,0.6309887,-0.35437715,0.564542,0.6142452,-0.32385184,0.538993,0.60464387,-0.3114265,0.528005,0.62190817,-0.3207333,0.544621,0.62182548,-0.3323614,0.554931
0.57334345,-0.39237814,0.561555,0.58020904,-0.34765779,0.555744,0.56065905,-0.37644065,0.565468,0.53486345,-0.34229036,0.560051,0.51277948,-0.31314339,0.556813,0.50544078,-0.29469268,0.558219,0.56947921,-0.29604306,0.556173,0.57752262,-0.26140481,0.564704,0.58734089,-0.25100351,0.568969,0.59813973,-0.23950957,0.572847,0.58600234,-0.30108137,0.549355,0.58519686,-0.27165912,0.534332,0.60940085,-0.30879555,0.55928,0.61681178,-0.33668041,0.572545,0.5993024,-0.30853423,0.54424,0.59515306,-0.29372986,0.527679,0.61848548,-0.32992219,0.548778,0.63071737,-0.35421704,0.564971,0.61406868,-0.32393134,0.5391,0.60460645,-0.31176458,0.528215,0.62232202,-0.32109164,0.544857,0.62244742,-0.33242018,0.555141
