sluyters/QuantumLeap/src/datasets/gesture/HandGestureDataset_SHREC2017_csv/Gesture5/finger_1/subject_10_essai_5_skeletons_world.csv
Wrist_x,Wrist_y,Wrist_z,Palm_x,Palm_y,Palm_z,thumb_base_x,thumb_base_y,thumb_base_z,thumb_first_joint_x,thumb_first_joint_y,thumb_first_joint_z,thumb_second_joint_x,thumb_second_joint_y,thumb_second_joint_z,thumb_tip_x,thumb_tip_y,thumb_tip_z,index_base_x,index_base_y,index_base_z,index_first_joint_x,index_first_joint_y,index_first_joint_z,index_second_joint_x,index_second_joint_y,index_second_joint_z,index_tip_x,index_tip_y,index_tip_z,middle_base_x,middle_base_y,middle_base_z,middle_first_joint_x,middle_first_joint_y,middle_first_joint_z,middle_second_joint_x,middle_second_joint_y,middle_second_joint_z,middle_tip_x,middle_tip_y,middle_tip_z,ring_base_x,ring_base_y,ring_base_z,ring_first_joint_x,ring_first_joint_y,ring_first_joint_z,ring_second_joint_x,ring_second_joint_y,ring_second_joint_z,ring_tip_x,ring_tip_y,ring_tip_z,pinky_base_x,pinky_base_y,pinky_base_z,pinky_first_joint_x,pinky_first_joint_y,pinky_first_joint_z,pinky_second_joint_x,pinky_second_joint_y,pinky_second_joint_z,pinky_tip_x,pinky_tip_y,pinky_tip_z,
0.52554714,-0.42263317,0.583694,0.51643003,-0.37609443,0.578333,0.50528584,-0.4126486,0.584463,0.4677663,-0.40270197,0.579969,0.42291026,-0.38272583,0.560682,0.40577633,-0.36516243,0.558543,0.48463086,-0.33655566,0.575686,0.46996292,-0.29065234,0.5638,0.47080722,-0.27215737,0.567192,0.47153333,-0.25492549,0.570275,0.50585669,-0.33188221,0.573032,0.49155665,-0.28239822,0.560119,0.48585882,-0.27105406,0.552587,0.48088558,-0.2611682,0.547207,0.5261021,-0.33245681,0.571284,0.51090534,-0.28515681,0.558923,0.50352016,-0.27520111,0.552598,0.49829948,-0.26435622,0.546849,0.54968134,-0.3409732,0.570023,0.53831027,-0.30421699,0.558502,0.53382633,-0.29167894,0.553209,0.52988755,-0.28034469,0.548539
0.52663663,-0.42458239,0.585326,0.51334498,-0.37712359,0.576682,0.50633247,-0.41450979,0.586104,0.46591208,-0.40160829,0.578852,0.42221958,-0.37609712,0.559091,0.40439526,-0.36130717,0.555895,0.48078901,-0.33452503,0.571839,0.46188823,-0.28858132,0.557713,0.46136538,-0.27037483,0.560865,0.46098007,-0.25468129,0.56373,0.50148652,-0.33129155,0.568135,0.48205457,-0.2802638,0.5524,0.47278429,-0.2698561,0.543222,0.46671204,-0.26050944,0.536666,0.51894247,-0.33233216,0.56579,0.5085615,-0.28440421,0.556289,0.50180052,-0.28322617,0.551429,0.49873874,-0.2792069,0.54701,0.54219849,-0.34237357,0.564316,0.52513277,-0.31314186,0.55036,0.51829451,-0.3024444,0.543948,0.51245437,-0.2945888,0.53829
0.53225031,-0.4307757,0.592043,0.50908965,-0.38266582,0.576405,0.50600252,-0.41593162,0.586196,0.45537945,-0.39591404,0.567369,0.41546238,-0.37266675,0.545509,0.39289158,-0.35217587,0.535685,0.46537428,-0.33362986,0.558603,0.45792291,-0.29365473,0.556854,0.45490409,-0.270803,0.555979,0.45215977,-0.25468505,0.555184,0.49088257,-0.33409925,0.560943,0.46906377,-0.2833772,0.53729,0.46209518,-0.27400415,0.523492,0.45726362,-0.26724861,0.513636,0.51341913,-0.338627,0.564143,0.49946044,-0.29128944,0.554811,0.50026699,-0.28825484,0.550037,0.49940642,-0.28198883,0.545696,0.54490387,-0.34975193,0.570284,0.52549255,-0.3180947,0.548621,0.51842356,-0.30641997,0.538669,0.51260784,-0.2977951,0.529887
0.53111865,-0.43226576,0.592018,0.50782364,-0.38800106,0.577266,0.50005899,-0.420041,0.584041,0.45307976,-0.3955401,0.562643,0.41448813,-0.37113887,0.542605,0.39424168,-0.35120129,0.533356,0.46389808,-0.33526163,0.557405,0.45180113,-0.29670907,0.553833,0.44689063,-0.27669372,0.552046,0.44532053,-0.25641899,0.550422,0.49165412,-0.33733358,0.562681,0.47017197,-0.28627497,0.539553,0.4638314,-0.27356545,0.526061,0.45916008,-0.26000882,0.516425,0.51603615,-0.34313912,0.568224,0.48415726,-0.29440538,0.544581,0.4805367,-0.28885254,0.532485,0.47955541,-0.29112581,0.521489,0.54781729,-0.35773484,0.577005,0.52325329,-0.3169003,0.555157,0.51981422,-0.31175263,0.545118,0.51783359,-0.30433794,0.536261
0.5317732,-0.43482985,0.594414,0.49887993,-0.38159241,0.574514,0.49803302,-0.41978528,0.583359,0.44823121,-0.39333261,0.55687,0.40803574,-0.37002231,0.5331,0.38926994,-0.34900461,0.524893,0.4481174,-0.32632984,0.547355,0.43067189,-0.28604463,0.538418,0.42263765,-0.26646437,0.533949,0.41551473,-0.24866564,0.529887,0.47740133,-0.32854882,0.554838,0.45164168,-0.27707316,0.526686,0.44380159,-0.26512969,0.510264,0.44110714,-0.25797301,0.498534,0.50356587,-0.33465135,0.562616,0.47728316,-0.2954798,0.533575,0.47316512,-0.29509505,0.518716,0.46961776,-0.30581845,0.505209,0.53839187,-0.34996471,0.574818,0.51276348,-0.30531628,0.548557,0.50992189,-0.30596388,0.53649,0.50560678,-0.30310948,0.525844
0.52902945,-0.43360468,0.591689,0.50229685,-0.37971425,0.572496,0.49703583,-0.41466527,0.579143,0.4527594,-0.39273765,0.551033,0.41112545,-0.36772711,0.523974,0.38811069,-0.34668119,0.507712,0.44374494,-0.32460449,0.543955,0.42727117,-0.28696804,0.536711,0.41656293,-0.27015758,0.53309,0.41199734,-0.25073264,0.529797,0.47439231,-0.32693261,0.55352,0.44328584,-0.27529357,0.525983,0.43975777,-0.27551592,0.50992,0.43740452,-0.2758187,0.498446,0.50205658,-0.33302506,0.562954,0.47754476,-0.29591005,0.533822,0.47445614,-0.2947259,0.518917,0.47194157,-0.30489936,0.505367,0.5382686,-0.34513798,0.577009,0.51489122,-0.30477396,0.550855,0.5114839,-0.30738133,0.538839,0.50625358,-0.30953191,0.528235
0.52826776,-0.42685018,0.585671,0.50383898,-0.36855509,0.566756,0.49532787,-0.41171358,0.573733,0.46594308,-0.39314225,0.546318,0.41667952,-0.37184963,0.518777,0.38624446,-0.35300924,0.504218,0.4399572,-0.32147255,0.539157,0.41757015,-0.28664144,0.528744,0.40386837,-0.27219854,0.523538,0.39245533,-0.25676134,0.518805,0.46872217,-0.32071869,0.548053,0.43870501,-0.27073019,0.520779,0.43376004,-0.27205179,0.504869,0.43037042,-0.27315726,0.493505,0.49709497,-0.32037545,0.556914,0.47717177,-0.29679753,0.52824,0.46860161,-0.30811094,0.51357,0.45710035,-0.31635249,0.500233,0.53598219,-0.32994129,0.570249,0.51196933,-0.28611307,0.544421,0.50397201,-0.29158711,0.532554,0.49869674,-0.30105483,0.522083
0.52692168,-0.41180973,0.573278,0.49414303,-0.35448839,0.557475,0.49329968,-0.40085663,0.563733,0.46020748,-0.38188717,0.539527,0.41971378,-0.36395065,0.510437,0.39136557,-0.34637284,0.492876,0.43221912,-0.31435178,0.534954,0.39561314,-0.2807554,0.510301,0.37720044,-0.26383171,0.497974,0.36303995,-0.25023036,0.486768,0.45893577,-0.30860051,0.54185,0.43027981,-0.26784901,0.517595,0.42832659,-0.27457376,0.503446,0.42730687,-0.27638424,0.49334,0.48417331,-0.30736928,0.548813,0.47080215,-0.29374736,0.523597,0.4648251,-0.30636512,0.510695,0.45538336,-0.31478626,0.498967,0.52026208,-0.31260432,0.559432,0.49916676,-0.27348184,0.536369,0.49209289,-0.28096009,0.525772,0.48543114,-0.29075772,0.516422
0.52147533,-0.41259661,0.571441,0.49235323,-0.35775453,0.556702,0.48827615,-0.40012246,0.561256,0.47099089,-0.3775625,0.536531,0.43065753,-0.3524409,0.506816,0.40262601,-0.33088071,0.489643,0.42664956,-0.31811852,0.534098,0.39005853,-0.28425487,0.509762,0.37184413,-0.26731125,0.497594,0.36089049,-0.25213538,0.486533,0.45366947,-0.31246401,0.542129,0.42979088,-0.27023339,0.518839,0.42895485,-0.27630612,0.505254,0.42895747,-0.2790944,0.49555,0.47909299,-0.31124992,0.549938,0.46883554,-0.29492495,0.525261,0.46589708,-0.30761147,0.512635,0.47460349,-0.32862512,0.520606,0.5152323,-0.31636779,0.561399,0.50160348,-0.31235741,0.538892,0.50179389,-0.31990483,0.52855,0.51022063,-0.32796314,0.534046
0.52283361,-0.40714825,0.569365,0.4876931,-0.35424605,0.554248,0.48756498,-0.39865666,0.559745,0.46838856,-0.37733216,0.535581,0.43035566,-0.35355548,0.505802,0.40296911,-0.33228684,0.487979,0.4239032,-0.31705779,0.532094,0.38665999,-0.28460134,0.507852,0.36554758,-0.27029925,0.49573,0.34945635,-0.25685912,0.484711,0.45010474,-0.31059112,0.539301,0.41981525,-0.27089004,0.515686,0.41965163,-0.27932461,0.501911,0.42023168,-0.28723346,0.492071,0.47491566,-0.30868668,0.546464,0.45524019,-0.28229427,0.521746,0.45205666,-0.29163544,0.5091,0.46415484,-0.3149582,0.517224,0.51045073,-0.3129412,0.557217,0.49602935,-0.30947824,0.534604,0.49725594,-0.31658544,0.524215,0.50724064,-0.32506542,0.529806
0.52281572,-0.40192798,0.567037,0.48566751,-0.35269999,0.55258,0.48816266,-0.39482226,0.557566,0.46642878,-0.37509975,0.533697,0.42904076,-0.35152739,0.503915,0.40192211,-0.33045462,0.486226,0.42275672,-0.31574115,0.531056,0.38593076,-0.28424735,0.507349,0.36742761,-0.26838944,0.495496,0.3527301,-0.25531477,0.484721,0.44892219,-0.30917961,0.538286,0.41952243,-0.26963986,0.515305,0.41955719,-0.27817895,0.501899,0.42208677,-0.28425356,0.492323,0.47368712,-0.30714078,0.545413,0.45474538,-0.2809138,0.52128,0.45181347,-0.29034365,0.508933,0.46426886,-0.31382834,0.517335,0.50912384,-0.31114764,0.556025,0.49483542,-0.30814833,0.533914,0.49666391,-0.3152826,0.523754,0.50738035,-0.32402056,0.529564
0.52107932,-0.39846568,0.564844,0.48349851,-0.34944193,0.550685,0.48868918,-0.39090641,0.554968,0.46436913,-0.37092682,0.530702,0.42685087,-0.34895368,0.500884,0.39994939,-0.32862373,0.483448,0.41929459,-0.31360046,0.528856,0.3834452,-0.28265548,0.505101,0.3690582,-0.27137965,0.500315,0.35774238,-0.26132964,0.495965,0.44477419,-0.30538975,0.536685,0.40597107,-0.26277463,0.513962,0.40144791,-0.26261951,0.500708,0.4029695,-0.27005229,0.49124,0.467066,-0.30032471,0.54428,0.44778756,-0.28164498,0.520198,0.4485381,-0.29157413,0.507876,0.46218266,-0.31337416,0.516177,0.50280403,-0.30162579,0.555402,0.48531439,-0.29932864,0.533385,0.48828037,-0.30590214,0.523268,0.50182529,-0.31161166,0.529016
0.52270365,-0.37834323,0.557809,0.47568695,-0.33508741,0.54049,0.4876938,-0.37424666,0.544177,0.46238898,-0.34947566,0.515308,0.41923099,-0.33023212,0.485277,0.39293689,-0.32118438,0.474542,0.40194782,-0.31057166,0.511856,0.35820641,-0.27596333,0.483836,0.34643593,-0.26642968,0.483836,0.33849299,-0.25832093,0.483836,0.42553342,-0.30040735,0.523367,0.4086561,-0.27553106,0.497627,0.41971631,-0.27883179,0.482611,0.43359973,-0.29126089,0.488166,0.44930087,-0.29446682,0.53425,0.4202843,-0.25941748,0.506176,0.42460383,-0.26266427,0.491813,0.44127914,-0.28004954,0.496942,0.4857616,-0.2920842,0.549738,0.46251446,-0.27224153,0.524674,0.46851049,-0.27447441,0.513158,0.47997834,-0.28274798,0.51655
0.52158228,-0.37376615,0.553912,0.47412726,-0.33367138,0.538265,0.48737377,-0.37109815,0.540851,0.45886635,-0.34527605,0.512895,0.41401398,-0.32128159,0.485062,0.38358095,-0.30698255,0.471104,0.40199173,-0.31027614,0.511466,0.36010565,-0.27155804,0.486587,0.35205658,-0.2616872,0.490567,0.35556586,-0.2596906,0.494186,0.42546509,-0.29998651,0.522794,0.4097053,-0.2763627,0.498627,0.42158445,-0.28027275,0.484529,0.43632574,-0.29314212,0.490897,0.44902477,-0.29386811,0.53339,0.42107408,-0.25998411,0.506843,0.42609372,-0.26368099,0.493261,0.44364532,-0.28149677,0.499272,0.48500431,-0.2911503,0.548288,0.46262063,-0.27223382,0.5245,0.46918023,-0.27484331,0.513571,0.48126755,-0.28336308,0.517644
0.5229383,-0.36551588,0.547209,0.47517694,-0.33148455,0.534396,0.49049761,-0.36593451,0.535605,0.45683087,-0.34212823,0.509755,0.41344584,-0.3202134,0.484201,0.38438567,-0.3074562,0.472499,0.40990742,-0.31077748,0.511319,0.36887707,-0.27188754,0.490228,0.37057166,-0.27044305,0.500022,0.38956949,-0.28270401,0.508925,0.4328736,-0.29982461,0.521728,0.39849164,-0.26602466,0.500265,0.40664907,-0.2713067,0.487745,0.42586793,-0.28547685,0.495639,0.45586524,-0.29299102,0.531337,0.42796869,-0.26366404,0.507608,0.43482435,-0.26757882,0.495468,0.44986534,-0.28412111,0.503194,0.49086639,-0.289153,0.544639,0.46255376,-0.27145666,0.523164,0.47008851,-0.27396999,0.513297,0.48498357,-0.28319427,0.518679
0.4997752,-0.36840491,0.534536,0.47287127,-0.33172382,0.534095,0.46964979,-0.36748906,0.528056,0.4384602,-0.34787957,0.51088,0.41371562,-0.33718246,0.501357,0.39171149,-0.32529178,0.495703,0.41774062,-0.31152346,0.525722,0.39410944,-0.27592444,0.514711,0.39947247,-0.27082212,0.530395,0.40365414,-0.26477346,0.544653,0.44284282,-0.30394371,0.533658,0.42744599,-0.27311523,0.524655,0.44064499,-0.2834491,0.519403,0.45860813,-0.30551542,0.532211,0.46586129,-0.29910459,0.540225,0.45719169,-0.27172562,0.528946,0.46648792,-0.27979587,0.523174,0.48748841,-0.30429207,0.536339,0.49835927,-0.297898,0.548065,0.48407091,-0.27860656,0.537115,0.49141965,-0.28188352,0.532084,0.51410769,-0.29511565,0.541703
0.50652702,-0.37312933,0.541613,0.47974515,-0.33702048,0.542148,0.47726419,-0.37291935,0.53637,0.44636577,-0.3533051,0.520868,0.42108202,-0.34156299,0.511762,0.3984751,-0.32883718,0.505966,0.42598319,-0.31721059,0.535972,0.40299681,-0.28214668,0.526318,0.40091402,-0.27179942,0.532309,0.39854188,-0.26142012,0.537755,0.45057755,-0.30864639,0.542676,0.43582879,-0.27764218,0.534748,0.44957494,-0.2889945,0.530124,0.46876644,-0.31200599,0.543512,0.47308182,-0.30328246,0.548149,0.46651683,-0.27786569,0.538272,0.47650222,-0.285865,0.533218,0.49931295,-0.31112975,0.547122,0.50499652,-0.30150765,0.554546,0.49091405,-0.28254512,0.544708,0.49947905,-0.2859758,0.540188,0.52291529,-0.30014112,0.55036
0.49489492,-0.35682722,0.525557,0.47090295,-0.33088443,0.532212,0.46762924,-0.35685544,0.52018,0.42156209,-0.33971999,0.506377,0.38690936,-0.32569898,0.494811,0.36460424,-0.31180146,0.488711,0.42472403,-0.30639116,0.529986,0.41986994,-0.27319992,0.527241,0.42298303,-0.25897612,0.532963,0.42583161,-0.24509872,0.538165,0.44985886,-0.30412951,0.538793,0.45270814,-0.27315541,0.537217,0.46688811,-0.29173749,0.536297,0.48607912,-0.31838247,0.55061,0.47387445,-0.30239541,0.545499,0.48272408,-0.28049191,0.540904,0.49404922,-0.29034443,0.538553,0.51299184,-0.31761201,0.553187,0.50691391,-0.30725616,0.552434,0.5047977,-0.28481588,0.547421,0.51598495,-0.28867951,0.545118,0.5384832,-0.30666149,0.555984
0.47507954,-0.35119676,0.510928,0.46121769,-0.32459968,0.522559,0.44740147,-0.34744455,0.510265,0.40881704,-0.33091701,0.503704,0.37762912,-0.31745988,0.496832,0.35694266,-0.30607964,0.495499,0.43178078,-0.29614376,0.529554,0.43486028,-0.26303088,0.532575,0.44121107,-0.24786613,0.539945,0.44700552,-0.23289384,0.546645,0.45858163,-0.29502362,0.534059,0.46637695,-0.27093873,0.538093,0.47837098,-0.29339081,0.540446,0.49382871,-0.32207289,0.556792,0.48107147,-0.296301,0.53682,0.49240366,-0.28123306,0.538868,0.50306963,-0.29470063,0.539916,0.5226392,-0.32407576,0.55712,0.50859351,-0.30197491,0.538336,0.50634849,-0.28054066,0.53878,0.51366042,-0.28559352,0.538984,0.53726211,-0.30544347,0.551808
0.48205386,-0.35880437,0.521629,0.46637988,-0.32730823,0.528211,0.45204873,-0.35168421,0.519092,0.41271336,-0.33301737,0.509033,0.37952306,-0.31738448,0.498906,0.35833895,-0.30403576,0.495706,0.43759968,-0.28577949,0.529474,0.43814378,-0.25510816,0.526435,0.44352069,-0.24130959,0.530878,0.44865809,-0.22807452,0.534918,0.46549435,-0.28744215,0.534718,0.47374981,-0.28044148,0.533252,0.47716631,-0.30265041,0.532397,0.48754517,-0.32805735,0.547592,0.48886685,-0.29164708,0.538497,0.49962617,-0.28111839,0.535147,0.50976431,-0.29619187,0.533433,0.53091241,-0.32676494,0.549373,0.51467051,-0.30301283,0.541979,0.50838336,-0.27967256,0.53773,0.52063362,-0.2858857,0.535777,0.53928102,-0.30517328,0.547565
0.46796964,-0.35780443,0.520197,0.46404881,-0.32153622,0.526126,0.44294252,-0.3459506,0.516268,0.40114386,-0.32305497,0.504583,0.36552626,-0.30621418,0.493829,0.34549951,-0.29282211,0.49149,0.43335587,-0.2776916,0.525217,0.43889123,-0.2506284,0.520232,0.44254815,-0.23626299,0.518281,0.44781092,-0.22592036,0.516507,0.46253196,-0.28443187,0.531989,0.47608423,-0.26783109,0.529722,0.47849826,-0.28941035,0.528399,0.48433964,-0.32016615,0.543113,0.48660422,-0.29046426,0.537079,0.49899948,-0.27900628,0.532487,0.50783583,-0.29432871,0.530137,0.52638522,-0.32477739,0.545413,0.51459439,-0.30343871,0.542211,0.51225708,-0.27892765,0.537006,0.52096815,-0.28469298,0.534614,0.53904801,-0.30457978,0.545915
0.46993624,-0.36037045,0.524534,0.46605783,-0.32195412,0.528294,0.44489066,-0.34704339,0.519879,0.4042709,-0.32344814,0.50691,0.36708163,-0.3038337,0.492687,0.34735459,-0.2896581,0.489914,0.44017433,-0.2744207,0.52502,0.44879733,-0.24533499,0.519749,0.45700958,-0.2314359,0.520959,0.46491843,-0.21790792,0.52206,0.46847626,-0.28125956,0.532011,0.48324485,-0.27517147,0.527436,0.48508701,-0.29576174,0.524767,0.49426003,-0.32417045,0.538919,0.48982958,-0.29054008,0.537458,0.51368587,-0.28788644,0.536278,0.52262903,-0.30810983,0.535674,0.53574912,-0.33705763,0.552057,0.51764691,-0.3045412,0.543339,0.51958072,-0.28141864,0.536194,0.52696166,-0.2838977,0.532911,0.54159903,-0.30409642,0.543719
0.46628569,-0.3623279,0.527155,0.46577813,-0.32378845,0.528292,0.44306617,-0.3467337,0.522603,0.4020589,-0.31802813,0.508891,0.36836541,-0.29303517,0.495365,0.35136217,-0.27529922,0.492248,0.44115335,-0.27342391,0.523384,0.45255355,-0.24520237,0.515789,0.45861562,-0.23152066,0.512531,0.46528947,-0.22032026,0.509569,0.4680817,-0.28155699,0.529416,0.48502601,-0.27657081,0.522404,0.47919823,-0.2950604,0.518314,0.48211016,-0.32176922,0.532082,0.49126969,-0.29462836,0.534288,0.51259437,-0.29273245,0.531074,0.51620955,-0.3136097,0.529429,0.52519478,-0.34236512,0.545498,0.51565737,-0.31411373,0.539882,0.51832543,-0.28776998,0.530724,0.52446433,-0.29023589,0.526516,0.54110524,-0.31153469,0.536987
0.46091484,-0.36188706,0.52753,0.4639008,-0.32067029,0.526467,0.43886817,-0.34352842,0.522041,0.39668287,-0.3121393,0.507886,0.35990562,-0.28737099,0.49418,0.34522573,-0.27047434,0.488074,0.44894927,-0.26708816,0.518911,0.45903693,-0.24150525,0.509228,0.46496614,-0.2284218,0.504444,0.47122156,-0.21794839,0.500096,0.47493861,-0.28026585,0.525415,0.48607334,-0.27571323,0.515849,0.47377568,-0.29460876,0.510269,0.47482155,-0.31745438,0.523258,0.49557274,-0.29432056,0.530855,0.5139546,-0.29476563,0.525727,0.51180269,-0.31264982,0.523103,0.51913626,-0.34041756,0.538499,0.51598348,-0.31486311,0.537453,0.521722,-0.29067801,0.526315,0.52564111,-0.29414317,0.521198,0.537125,-0.31196027,0.531041
0.44284018,-0.36280928,0.52976,0.45234221,-0.32410285,0.523836,0.42595387,-0.33898206,0.522291,0.39404719,-0.30778967,0.503554,0.36929468,-0.27219481,0.490981,0.36782822,-0.25532491,0.496804,0.44860485,-0.2688439,0.510544,0.45794867,-0.2430668,0.494929,0.46333084,-0.23131734,0.487122,0.46866218,-0.22194513,0.480024,0.47179148,-0.28636028,0.517979,0.48722533,-0.27867319,0.50386,0.4681874,-0.29538475,0.495623,0.46197573,-0.31164618,0.507028,0.48933149,-0.3038702,0.524579,0.50463083,-0.29557768,0.512775,0.49849281,-0.31292339,0.506736,0.50023441,-0.33395283,0.519729,0.50728145,-0.33042574,0.533283,0.498165,-0.33154729,0.517895,0.49895277,-0.354076,0.533369,0.49727249,-0.37035253,0.544784
0.44170698,-0.36370894,0.532782,0.45918507,-0.32087477,0.522822,0.42641164,-0.33909859,0.524977,0.39737727,-0.30141941,0.506357,0.37395047,-0.2668484,0.494893,0.37296682,-0.25408765,0.500636,0.45704005,-0.26793609,0.506397,0.4634875,-0.24222871,0.487526,0.46889715,-0.22971174,0.479679,0.4744745,-0.21806859,0.472702,0.47817279,-0.2871196,0.512974,0.48599217,-0.28169989,0.494774,0.45947334,-0.2949843,0.484158,0.45155289,-0.30720584,0.494351,0.49389344,-0.3059039,0.519197,0.50211219,-0.29958131,0.502826,0.4909321,-0.31366704,0.494451,0.48695476,-0.3327747,0.505946,0.50943341,-0.33380122,0.528063,0.49285142,-0.33345393,0.509628,0.49125018,-0.35096489,0.524772,0.49009545,-0.36691378,0.537132
0.43572656,-0.36264409,0.536308,0.4577273,-0.32040663,0.52377,0.42248586,-0.33642951,0.526654,0.39590059,-0.29894944,0.504934,0.37276324,-0.2634791,0.492356,0.37548345,-0.24733146,0.499206,0.45552553,-0.26541272,0.503309,0.46051852,-0.24162303,0.482016,0.46651333,-0.23318411,0.47137,0.47158989,-0.22397139,0.462942,0.47722112,-0.28540122,0.511375,0.4824667,-0.28210805,0.490717,0.452609,-0.29367227,0.478667,0.44454137,-0.30374975,0.487559,0.49348608,-0.30487803,0.519033,0.50025173,-0.30116944,0.501245,0.48610032,-0.31836345,0.492144,0.48297023,-0.33735999,0.502521,0.50789685,-0.33187851,0.529984,0.4927625,-0.33332662,0.509173,0.49007037,-0.35070434,0.523461,0.48879137,-0.36624973,0.536325
0.44631923,-0.36452259,0.535666,0.45884726,-0.3177928,0.52004,0.43347586,-0.34143772,0.525751,0.40180208,-0.29549725,0.503132,0.37437784,-0.25891069,0.481801,0.36449683,-0.23479237,0.469381,0.45273256,-0.26149927,0.497176,0.46672521,-0.24515926,0.476874,0.4737511,-0.23782798,0.467018,0.48063032,-0.23135962,0.458076,0.47424538,-0.27927682,0.504591,0.47744231,-0.28120289,0.482813,0.44922383,-0.29497241,0.470109,0.43760909,-0.3022238,0.47843,0.49482437,-0.29428925,0.511965,0.49497932,-0.30123067,0.493471,0.47899488,-0.31536965,0.484009,0.4737774,-0.33286969,0.493883,0.51392587,-0.32025614,0.523045,0.49516557,-0.32229987,0.499996,0.49154689,-0.33930746,0.513833,0.48505792,-0.35665261,0.52731
0.44542724,-0.36241522,0.534431,0.46180173,-0.31625078,0.51512,0.42777876,-0.33387717,0.522768,0.40580297,-0.28351302,0.500031,0.38407907,-0.2462035,0.482045,0.37699649,-0.22202696,0.470648,0.45827414,-0.25820903,0.4876,0.46536366,-0.24986815,0.464499,0.46904805,-0.24667318,0.452949,0.47271664,-0.24410764,0.442449,0.4799608,-0.27716985,0.496027,0.46897377,-0.28792672,0.471035,0.43173115,-0.2932871,0.456456,0.42336223,-0.29353896,0.462949,0.49648712,-0.29583217,0.504534,0.48963586,-0.30836446,0.483317,0.4668617,-0.31963975,0.472461,0.45738699,-0.33013018,0.480471,0.51370553,-0.3237134,0.517511,0.48622812,-0.32529179,0.491483,0.48112926,-0.33528108,0.504072,0.47521646,-0.35200391,0.518114
0.42921464,-0.34788389,0.514514,0.4513361,-0.30796421,0.500581,0.41941788,-0.32182578,0.504964,0.40355279,-0.27308777,0.487261,0.38977969,-0.23708564,0.475945,0.3872329,-0.21396018,0.468805,0.46056359,-0.25646833,0.47931,0.46146658,-0.25493496,0.460272,0.46264903,-0.25449776,0.450753,0.46431065,-0.25437281,0.442178,0.48047335,-0.27850029,0.486804,0.46385903,-0.28667404,0.466637,0.42979403,-0.29457193,0.454872,0.42605632,-0.29846081,0.463862,0.49498215,-0.29928884,0.494106,0.47726029,-0.31415965,0.47722,0.45296585,-0.32557383,0.468581,0.44738735,-0.33818884,0.479194,0.50858045,-0.32879319,0.504846,0.47825407,-0.32689516,0.483078,0.47406886,-0.33926659,0.497258,0.47264545,-0.34720808,0.511847
0.45009683,-0.36419006,0.538678,0.47112434,-0.32455679,0.511787,0.43950461,-0.33874977,0.525845,0.42351672,-0.28809035,0.500898,0.40740678,-0.24781629,0.48209,0.40551744,-0.2234465,0.473369,0.46475248,-0.26552734,0.477711,0.43689607,-0.27689119,0.449094,0.42296728,-0.28273635,0.434785,0.41468599,-0.30053905,0.437982,0.48403282,-0.28678935,0.485199,0.45068149,-0.29470314,0.453007,0.44117545,-0.31301799,0.469577,0.44592368,-0.31579131,0.486422,0.49892888,-0.30736473,0.49355,0.46783589,-0.3169236,0.465194,0.43665413,-0.32071076,0.450687,0.42300333,-0.32230672,0.454595,0.51480436,-0.3376162,0.507483,0.47623976,-0.33217133,0.476304,0.47028062,-0.34478316,0.486589,0.46852098,-0.35961549,0.50155
0.45293371,-0.36506149,0.538933,0.47420652,-0.33418782,0.51004,0.44002672,-0.33716035,0.525907,0.43169351,-0.29288619,0.499847,0.41965777,-0.25223561,0.479803,0.42063543,-0.22860956,0.469413,0.47320077,-0.27981048,0.474379,0.42856586,-0.2840659,0.443815,0.40619441,-0.28620513,0.428533,0.39308359,-0.29989315,0.430528,0.4886507,-0.30487419,0.481473,0.44131908,-0.30500334,0.44692,0.43287633,-0.32069455,0.46235,0.44449871,-0.32704143,0.479693,0.5002965,-0.32810059,0.489663,0.44598019,-0.32382666,0.45328,0.40496401,-0.31372954,0.434666,0.39361573,-0.30766578,0.435467,0.51196999,-0.36043128,0.503707,0.46134687,-0.34607096,0.471294,0.45126093,-0.3511908,0.48082,0.44942625,-0.3586279,0.495922
0.45972648,-0.36434217,0.542014,0.48160067,-0.33845318,0.508346,0.47316885,-0.33487872,0.533262,0.46860958,-0.29015457,0.518275,0.46998668,-0.25569431,0.508803,0.46316649,-0.23217917,0.494959,0.49036904,-0.29330626,0.4748,0.4248643,-0.27878491,0.438238,0.39514912,-0.26883237,0.419957,0.37647639,-0.27457029,0.41897,0.49110879,-0.31717073,0.475057,0.45907066,-0.29322175,0.435514,0.44053791,-0.27930807,0.412482,0.42557613,-0.27056015,0.397304,0.49097736,-0.3386523,0.47801,0.42453149,-0.31787277,0.439412,0.38496511,-0.30535258,0.419664,0.37677277,-0.30375795,0.418506,0.48937791,-0.36755072,0.486573,0.4310935,-0.33662058,0.453155,0.42110615,-0.33757202,0.461313,0.41907493,-0.34398688,0.476237
0.46118371,-0.3604274,0.541411,0.48170543,-0.33634774,0.507845,0.47325949,-0.33164495,0.532313,0.46325653,-0.28285389,0.508063,0.45050604,-0.24432097,0.485883,0.44365189,-0.2212166,0.468259,0.49058931,-0.29221261,0.473938,0.42672929,-0.27634983,0.43759,0.38967567,-0.27060531,0.419416,0.373717,-0.27494866,0.418554,0.49129358,-0.31631336,0.474657,0.45192827,-0.29455712,0.435124,0.42884849,-0.28241301,0.412277,0.40914511,-0.27390323,0.395958,0.49112575,-0.3378764,0.477984,0.42572418,-0.3185422,0.440571,0.38670833,-0.30662318,0.421429,0.37887384,-0.30528774,0.420697,0.48946986,-0.36666026,0.486973,0.43150614,-0.33648778,0.453447,0.42154516,-0.3377063,0.461663,0.41955303,-0.34436742,0.476649
0.46124637,-0.36066551,0.540975,0.48203277,-0.33748279,0.507901,0.4740345,-0.33215972,0.532605,0.47042784,-0.28740588,0.50928,0.46172017,-0.24998845,0.48806,0.46249517,-0.22791502,0.472886,0.49524228,-0.29950647,0.475231,0.43203264,-0.28280304,0.439022,0.39238591,-0.27369578,0.420918,0.37701724,-0.27737655,0.420332,0.49335129,-0.32301068,0.475199,0.45314997,-0.3027507,0.436041,0.42990941,-0.29114357,0.413396,0.41072104,-0.27882688,0.397222,0.49090034,-0.34111303,0.477867,0.42579734,-0.31901106,0.440473,0.38835176,-0.29871209,0.421341,0.37784859,-0.29447007,0.420866,0.48769409,-0.36893495,0.486002,0.43355793,-0.34474342,0.452799,0.4242175,-0.35298278,0.461934,0.43483404,-0.36566,0.477162
0.46512233,-0.35919564,0.540587,0.48246981,-0.33835381,0.507335,0.47441212,-0.33221778,0.531602,0.47478218,-0.28981083,0.507668,0.4667454,-0.25299433,0.485648,0.46772311,-0.2315301,0.469923,0.49537621,-0.30054357,0.47378,0.43170302,-0.28394437,0.437651,0.39337808,-0.2766604,0.419587,0.37848398,-0.27914773,0.418952,0.49402986,-0.32444097,0.474459,0.45310593,-0.3046241,0.435268,0.42947532,-0.29330625,0.41264,0.41027535,-0.28521629,0.396477,0.49212792,-0.34542301,0.477726,0.42648952,-0.32091866,0.440531,0.39047198,-0.30162179,0.421501,0.37783422,-0.29441796,0.421009,0.48836328,-0.37283473,0.486597,0.433016,-0.34656655,0.453299,0.42407049,-0.35449949,0.462364,0.43573936,-0.36707942,0.477598
0.470483,-0.35820494,0.540602,0.48331128,-0.34139476,0.505786,0.47561776,-0.33236003,0.53078,0.47937732,-0.29209637,0.506107,0.4725728,-0.25569014,0.483701,0.46770921,-0.2320946,0.466203,0.49521013,-0.30780085,0.470135,0.42726393,-0.28428844,0.433042,0.38834954,-0.27414044,0.414496,0.37160033,-0.2744364,0.41272,0.4915173,-0.3318309,0.471362,0.4431653,-0.30842446,0.431033,0.41511964,-0.29491844,0.407687,0.39314762,-0.28499414,0.391011,0.48801081,-0.35268409,0.475207,0.41814925,-0.3234984,0.437114,0.38249913,-0.30274807,0.417624,0.3701992,-0.29024026,0.415943,0.48295111,-0.37943882,0.484998,0.4228156,-0.34797984,0.450707,0.41433125,-0.35472879,0.458837,0.43100274,-0.36569835,0.474007
0.47193231,-0.3591918,0.540725,0.48450848,-0.34772106,0.50505,0.47806931,-0.33513045,0.530833,0.48075666,-0.29845688,0.505951,0.47375229,-0.26165219,0.483458,0.47162868,-0.23734004,0.465784,0.49261973,-0.31361482,0.468736,0.4228756,-0.28610884,0.430987,0.38433761,-0.2757392,0.412113,0.36923622,-0.27449022,0.409624,0.48802169,-0.33756587,0.469778,0.43625791,-0.31061842,0.428768,0.40630113,-0.29506288,0.405074,0.38699548,-0.28351111,0.38849,0.48393983,-0.358436,0.473542,0.41384913,-0.32353798,0.434746,0.37891196,-0.30100671,0.414897,0.36267026,-0.29110234,0.412448,0.47851074,-0.38530414,0.483365,0.41869795,-0.34830731,0.448499,0.40996135,-0.35450492,0.456044,0.42402811,-0.36865305,0.471204
0.4741523,-0.36096849,0.542166,0.48545554,-0.34993032,0.506195,0.48044903,-0.33734036,0.532278,0.4823712,-0.30020794,0.507024,0.47585608,-0.2636622,0.484276,0.47428427,-0.24282359,0.466835,0.49351733,-0.31464582,0.469687,0.4232312,-0.28748052,0.431705,0.38445711,-0.2768784,0.412715,0.36866705,-0.27638457,0.409968,0.48884792,-0.3385055,0.47063,0.43717343,-0.31138192,0.429384,0.40934957,-0.29507548,0.405738,0.38656392,-0.28409832,0.388847,0.48472504,-0.35932444,0.474337,0.41386417,-0.3247669,0.435286,0.37871707,-0.3015952,0.415307,0.36256965,-0.29199488,0.412578,0.47927428,-0.38618564,0.484137,0.41789713,-0.35151956,0.449584,0.40939379,-0.35773213,0.457231,0.42459955,-0.37056518,0.472316
0.47555483,-0.36210375,0.542914,0.48558549,-0.35085317,0.50651,0.48179949,-0.33868417,0.532939,0.48309503,-0.30099403,0.507381,0.47689903,-0.26466815,0.484512,0.47457646,-0.24397216,0.466773,0.49316228,-0.3147007,0.4696,0.42238928,-0.28762341,0.431319,0.38347695,-0.27683958,0.412179,0.36711263,-0.27613987,0.409054,0.48847926,-0.33852881,0.470516,0.43635284,-0.31111148,0.428949,0.4061743,-0.29526163,0.404907,0.3845512,-0.28337027,0.38775,0.48438783,-0.35934967,0.474235,0.41191324,-0.32582413,0.434873,0.37490103,-0.30208721,0.414734,0.35925867,-0.29255565,0.411601,0.47905238,-0.38627224,0.484115,0.41758882,-0.35153531,0.449525,0.40847174,-0.35741103,0.456969,0.42131119,-0.37180491,0.472029
0.4765631,-0.36315567,0.543631,0.48502666,-0.35310876,0.506814,0.48262385,-0.33984949,0.533557,0.48335416,-0.30196264,0.507753,0.47849974,-0.26720677,0.484884,0.47563677,-0.24709134,0.466943,0.4922739,-0.31482858,0.469506,0.42044369,-0.28870507,0.430951,0.38162244,-0.27766562,0.411674,0.3650836,-0.27651632,0.40818,0.48763583,-0.33863963,0.470413,0.43507346,-0.31109735,0.428551,0.40463124,-0.29515899,0.404319,0.38105228,-0.28344385,0.387011,0.48362415,-0.3594713,0.474159,0.41083391,-0.32582935,0.434516,0.37349761,-0.30202795,0.414233,0.35365237,-0.29253459,0.410706,0.47845763,-0.38645933,0.484133,0.4167893,-0.35168209,0.449387,0.40707788,-0.35719091,0.456565,0.41425786,-0.37103197,0.471577
0.47883102,-0.36362944,0.54417,0.48435719,-0.35316343,0.506652,0.48299984,-0.34058562,0.533748,0.48297297,-0.30226563,0.507513,0.47797874,-0.26750524,0.484496,0.47537364,-0.24748158,0.466515,0.49044474,-0.31424217,0.468435,0.4175109,-0.28788429,0.4295,0.37781192,-0.27696463,0.410032,0.36025428,-0.27597401,0.405899,0.4860693,-0.3381808,0.469556,0.4311261,-0.31059405,0.427243,0.39829584,-0.29475379,0.402654,0.37701188,-0.28234493,0.38529,0.48234342,-0.35917396,0.473533,0.40846749,-0.32527705,0.433536,0.36971371,-0.30172463,0.413072,0.3512536,-0.29133934,0.408874,0.47764278,-0.38645726,0.483888,0.4152941,-0.35124298,0.448626,0.40307357,-0.35617352,0.455181,0.41168925,-0.36992979,0.470133
0.47945644,-0.36423566,0.543846,0.48176704,-0.35211788,0.50456,0.4830317,-0.34095433,0.532337,0.48064118,-0.30206029,0.505087,0.47493261,-0.26730126,0.481652,0.47191317,-0.24657584,0.463379,0.48114131,-0.31309981,0.463803,0.40341793,-0.28669056,0.424118,0.36800871,-0.27391448,0.404276,0.35269413,-0.27107616,0.398299,0.4775102,-0.33751801,0.465718,0.41574886,-0.30992762,0.422456,0.38121772,-0.29306555,0.397399,0.35497916,-0.28062198,0.379501,0.47469532,-0.35899611,0.470493,0.39579361,-0.32466261,0.429865,0.36185174,-0.29948483,0.409078,0.34491174,-0.28728228,0.402952,0.4716247,-0.38699292,0.482059,0.40653245,-0.35014708,0.445587,0.39588272,-0.35285444,0.450217,0.40648291,-0.36614829,0.464848
0.47928137,-0.36499204,0.542855,0.47990727,-0.35152601,0.503256,0.48186062,-0.34059545,0.531027,0.47831258,-0.30048734,0.503317,0.46890322,-0.26652868,0.479392,0.4650543,-0.24616399,0.460657,0.47671538,-0.31343426,0.461888,0.4006409,-0.2853206,0.422155,0.36501756,-0.27274786,0.402288,0.34982078,-0.2695982,0.395925,0.47307881,-0.33800088,0.464102,0.41289948,-0.30865031,0.420736,0.37811533,-0.29156174,0.395528,0.35172953,-0.27895311,0.377523,0.47039841,-0.35956132,0.469149,0.39351596,-0.32356062,0.428521,0.35745649,-0.29880879,0.407735,0.34136848,-0.28626421,0.401211,0.46775424,-0.38756741,0.481083,0.40176328,-0.34992477,0.444578,0.39246208,-0.35215662,0.448843,0.40511314,-0.36528578,0.463345
0.47970528,-0.36583971,0.542477,0.47898403,-0.35152975,0.502856,0.48253458,-0.34179266,0.530837,0.47804335,-0.30070881,0.503408,0.46859294,-0.26638199,0.479762,0.46600665,-0.24532906,0.461237,0.47599391,-0.313629,0.461708,0.39968891,-0.28509946,0.421879,0.36430636,-0.27260852,0.401964,0.3502967,-0.26928954,0.395575,0.47194952,-0.33799453,0.463681,0.41365444,-0.30881593,0.420251,0.3818672,-0.29233061,0.395154,0.35921363,-0.27891592,0.377227,0.46896398,-0.35936084,0.468532,0.39190292,-0.32287605,0.427766,0.35667179,-0.29798685,0.406909,0.34168773,-0.28542369,0.400346,0.46601799,-0.38709633,0.480237,0.40037904,-0.34943041,0.44411,0.39005865,-0.35218073,0.448576,0.40453728,-0.36518634,0.463022
0.4802135,-0.36695314,0.542742,0.47856331,-0.35173261,0.502913,0.48318873,-0.34311854,0.531204,0.47775299,-0.30143256,0.50466,0.46964226,-0.26395534,0.481816,0.46950004,-0.24269443,0.463909,0.4755986,-0.31351782,0.461754,0.39907425,-0.28488511,0.421762,0.36374606,-0.27240264,0.401766,0.34978225,-0.26896658,0.395106,0.47141472,-0.33776901,0.463533,0.4137508,-0.30868349,0.419958,0.38035918,-0.29175243,0.39463,0.35672173,-0.2786906,0.376544,0.46833994,-0.35904519,0.468241,0.39098615,-0.32249269,0.427277,0.35591214,-0.29765607,0.406319,0.33951603,-0.28506722,0.399458,0.46533649,-0.38669578,0.479808,0.39958319,-0.34903749,0.443686,0.38903486,-0.35157689,0.447981,0.40361986,-0.36470435,0.462359
0.46461103,-0.35616032,0.525524,0.46257418,-0.34239656,0.488565,0.46824743,-0.33374707,0.515332,0.46181706,-0.29266248,0.490769,0.45628965,-0.25459379,0.469372,0.4582697,-0.23600062,0.453105,0.46286246,-0.30590728,0.451012,0.38842349,-0.27818933,0.412397,0.35456979,-0.26653672,0.393089,0.34598999,-0.26500838,0.389473,0.45810701,-0.3290614,0.452022,0.4034316,-0.301215,0.410076,0.3714839,-0.28512209,0.385844,0.3471934,-0.27327108,0.368536,0.45515252,-0.34923435,0.455863,0.37911983,-0.31379368,0.416175,0.34610556,-0.28990879,0.395869,0.33193023,-0.27992253,0.392217,0.45124256,-0.37524699,0.465973,0.38690899,-0.33895711,0.431354,0.38002145,-0.34386193,0.438496,0.39363703,-0.35688984,0.452402
0.48343401,-0.37077238,0.547583,0.47591695,-0.35262378,0.50673,0.48651211,-0.34707233,0.536485,0.47294044,-0.29626937,0.511223,0.46795204,-0.25850351,0.48964,0.47112022,-0.24141695,0.473525,0.47118391,-0.30502888,0.46543,0.39376894,-0.27867766,0.424783,0.35908998,-0.26773139,0.40446,0.3483315,-0.26882858,0.396232,0.46801943,-0.32902167,0.466338,0.41599832,-0.30139783,0.422195,0.38625864,-0.2856742,0.397018,0.36343078,-0.27936289,0.379254,0.46592145,-0.35029351,0.470412,0.38688555,-0.31603205,0.428641,0.35404265,-0.29636646,0.407269,0.33514748,-0.28389917,0.398692,0.46433806,-0.37836476,0.481383,0.39722805,-0.34285281,0.445231,0.386381,-0.34907195,0.448345,0.4027148,-0.36389956,0.462276
0.48405778,-0.37105255,0.549151,0.47440708,-0.34603508,0.50816,0.48663456,-0.34713657,0.537915,0.47101026,-0.29610964,0.511785,0.46118418,-0.25873405,0.489429,0.460032,-0.23741989,0.47152,0.46879372,-0.29958123,0.466595,0.39315111,-0.27757968,0.425956,0.35883542,-0.26715342,0.405637,0.34563922,-0.26624315,0.397176,0.46827283,-0.32683296,0.46763,0.41582849,-0.29967295,0.423474,0.38578531,-0.28416944,0.398227,0.36294221,-0.2729508,0.380204,0.46690679,-0.34831505,0.471821,0.38763162,-0.31533681,0.43008,0.35405855,-0.29268949,0.408725,0.33695559,-0.28404599,0.399904,0.46622464,-0.37676449,0.48295,0.39813777,-0.34183739,0.446187,0.38659033,-0.34428211,0.448801,0.40274989,-0.36307911,0.462651
0.48118,-0.36815424,0.54662,0.47230488,-0.33889785,0.505963,0.47813215,-0.33925023,0.535033,0.45806194,-0.28839091,0.50823,0.44594952,-0.25054193,0.485342,0.44257724,-0.22747281,0.467124,0.46433618,-0.28899543,0.464184,0.3886925,-0.27374104,0.423807,0.35639923,-0.26551239,0.403619,0.34427394,-0.26423458,0.395758,0.46741031,-0.31351511,0.465764,0.41372625,-0.29409748,0.421802,0.38365745,-0.28054015,0.39677,0.36176208,-0.27198957,0.378967,0.4704272,-0.33549032,0.470375,0.38802791,-0.31377055,0.428989,0.35425064,-0.29190181,0.407815,0.33787277,-0.28386235,0.399662,0.47489232,-0.36490797,0.481952,0.40490295,-0.33810702,0.445084,0.39443165,-0.34258188,0.448071,0.41039703,-0.35450422,0.462205
0.48438779,-0.37086314,0.551927,0.47541196,-0.33817111,0.512148,0.48004901,-0.34063032,0.542195,0.45592186,-0.29522587,0.51741,0.44141649,-0.25948125,0.496336,0.43387529,-0.23723007,0.478726,0.4678086,-0.28506958,0.473274,0.39504441,-0.26880025,0.432646,0.35989283,-0.26431898,0.412332,0.34975319,-0.26745979,0.405477,0.47038723,-0.30844658,0.472818,0.42413963,-0.28092104,0.428929,0.39720075,-0.26488547,0.403362,0.36191129,-0.25618288,0.3851,0.47269011,-0.3301103,0.475683,0.39598626,-0.30731957,0.4337,0.35833984,-0.29436039,0.41222,0.34156856,-0.28750124,0.405042,0.47568584,-0.36029253,0.485061,0.40834161,-0.33513842,0.4487,0.40495656,-0.34581464,0.453169,0.42539524,-0.35790175,0.466347
0.48606638,-0.37265561,0.554704,0.47951276,-0.34487216,0.514784,0.48948202,-0.34973785,0.546717,0.4554383,-0.30264726,0.526766,0.43803325,-0.26263198,0.509535,0.43243463,-0.2361863,0.494447,0.47739471,-0.29012446,0.477987,0.4010439,-0.27137998,0.436881,0.36446392,-0.26654499,0.416329,0.35320613,-0.2698433,0.408544,0.47546751,-0.31114464,0.475313,0.4242294,-0.2821505,0.431274,0.38946839,-0.26415058,0.405585,0.35353797,-0.25525018,0.387236,0.47611451,-0.33182433,0.476363,0.39781619,-0.30673157,0.433531,0.35894222,-0.29257173,0.411618,0.33887846,-0.28583739,0.403339,0.47700825,-0.36270934,0.483615,0.40847767,-0.33329244,0.446324,0.4025412,-0.3425761,0.449703,0.42201046,-0.35569911,0.46316
0.48557584,-0.37389029,0.56028,0.48023983,-0.343184,0.523791,0.47959233,-0.34939482,0.55355,0.45029725,-0.30164335,0.532073,0.42437242,-0.26907017,0.512907,0.41250268,-0.2435623,0.496239,0.48191327,-0.28842678,0.490868,0.4173024,-0.27039864,0.451509,0.38142254,-0.26610183,0.43183,0.36711023,-0.27289456,0.427794,0.48366412,-0.30964921,0.487713,0.43714046,-0.27913879,0.445657,0.41006657,-0.26138316,0.421186,0.37580838,-0.2543311,0.403707,0.48471532,-0.32992835,0.488088,0.41594282,-0.30544837,0.446956,0.37573435,-0.29384842,0.425912,0.35390809,-0.29697899,0.421608,0.48513362,-0.35926474,0.494024,0.42522079,-0.33187111,0.460549,0.41322152,-0.3404439,0.466321,0.42267947,-0.35556901,0.480341
0.47000929,-0.38703774,0.56908,0.47970257,-0.35850137,0.538307,0.46079689,-0.36465806,0.560889,0.43708554,-0.31807281,0.543248,0.41621545,-0.27960855,0.527575,0.41033636,-0.25341979,0.516605,0.48585841,-0.30257001,0.507407,0.43669206,-0.28555485,0.473543,0.40362638,-0.27976065,0.456611,0.38720233,-0.28151091,0.457797,0.49388673,-0.3253082,0.50788,0.44119604,-0.30953785,0.47073,0.41063327,-0.3004766,0.449259,0.37913855,-0.29750922,0.433923,0.49951319,-0.34702375,0.510776,0.44794949,-0.32858205,0.475674,0.4113961,-0.31870225,0.457716,0.38711064,-0.32149711,0.459089,0.50416803,-0.3784354,0.518834,0.45749686,-0.34764757,0.487092,0.44976371,-0.34578742,0.494808,0.44980666,-0.34947249,0.509794
0.47803412,-0.38781328,0.573246,0.48946868,-0.35386647,0.544411,0.4674603,-0.36013795,0.560946,0.42827738,-0.32162949,0.542117,0.39893141,-0.28691955,0.526411,0.38977103,-0.26254252,0.518849,0.48502616,-0.29334164,0.509694,0.43875681,-0.28719553,0.475194,0.40634111,-0.28591622,0.457945,0.39148715,-0.29277599,0.459038,0.50232687,-0.3171825,0.515902,0.45546013,-0.31462484,0.479814,0.4281013,-0.31316689,0.458763,0.41312722,-0.32485204,0.460106,0.51573271,-0.34009499,0.523359,0.48364572,-0.33121888,0.487336,0.44262779,-0.32354196,0.468906,0.43431134,-0.3202472,0.470102,0.52986248,-0.37339037,0.536525,0.48322723,-0.35523719,0.504341,0.47597142,-0.36079911,0.512562,0.47237738,-0.36877353,0.527748
0.46836758,-0.37716131,0.557886,0.47916393,-0.33137899,0.539368,0.46275934,-0.35671031,0.557416,0.42036151,-0.32355923,0.544576,0.38705123,-0.2984665,0.531594,0.36890531,-0.27386765,0.520075,0.47952284,-0.27621814,0.526331,0.44671679,-0.26680052,0.500728,0.42673524,-0.27436996,0.487927,0.42413201,-0.29373123,0.494565,0.49219017,-0.28912521,0.521059,0.46812333,-0.26555206,0.495586,0.45408343,-0.25146365,0.480726,0.44704926,-0.26454534,0.487817,0.50173321,-0.30328881,0.518229,0.46768946,-0.29140124,0.490885,0.44480968,-0.30252507,0.476895,0.45089127,-0.31232827,0.483837,0.51139748,-0.32681182,0.517667,0.47657546,-0.31152217,0.496781,0.47816537,-0.33491547,0.51051,0.47963877,-0.35650208,0.523183
0.45804527,-0.37706458,0.55323,0.47636002,-0.33983167,0.540113,0.45904004,-0.36027835,0.558317,0.42611511,-0.34314825,0.554307,0.39351055,-0.31978255,0.543399,0.37697471,-0.29644807,0.534053,0.48599025,-0.29193398,0.537634,0.44875302,-0.27694879,0.515884,0.42816955,-0.28181961,0.505008,0.42377613,-0.2986031,0.512175,0.49309244,-0.29983938,0.527144,0.46894334,-0.26710474,0.508765,0.45461825,-0.2472467,0.498044,0.44878943,-0.25834306,0.506459,0.49774096,-0.30971577,0.51958,0.45702381,-0.29356475,0.49536,0.4382825,-0.30686525,0.482969,0.44838808,-0.32125189,0.490202,0.50098977,-0.32779428,0.512602,0.46624415,-0.3140042,0.498423,0.47610399,-0.34099845,0.511967,0.48090977,-0.36014185,0.522209
0.4744908,-0.38149284,0.562578,0.48380108,-0.34058634,0.551543,0.4647507,-0.36775024,0.564413,0.43117711,-0.35470811,0.555703,0.39533472,-0.33540839,0.541206,0.37414729,-0.31505526,0.529955,0.47115239,-0.28965823,0.546411,0.44452574,-0.27946566,0.527372,0.4294557,-0.28828278,0.517852,0.43362188,-0.30844284,0.527525,0.48817423,-0.29466876,0.540633,0.45874025,-0.29272914,0.521235,0.44108509,-0.29194866,0.509919,0.44243031,-0.31607458,0.519735,0.50199328,-0.30258802,0.536776,0.47455874,-0.29487743,0.516515,0.48651666,-0.32929907,0.536207,0.50181337,-0.34920874,0.552254,0.51801722,-0.31910942,0.533872,0.48169654,-0.31041357,0.518928,0.48102895,-0.32260583,0.534247,0.4769095,-0.33758533,0.545446
0.47178076,-0.38239591,0.561997,0.48130971,-0.33962826,0.551223,0.46364089,-0.36620532,0.564346,0.4253536,-0.35398237,0.556414,0.39065876,-0.33475301,0.545237,0.37127793,-0.31342582,0.536357,0.47100743,-0.28907431,0.546905,0.44457659,-0.27709433,0.527983,0.43017157,-0.28262787,0.518522,0.43360442,-0.30671037,0.528141,0.487225,-0.29431845,0.540569,0.45770502,-0.29124173,0.521279,0.43998587,-0.28975192,0.510026,0.44115054,-0.31364097,0.519783,0.50023848,-0.30237464,0.536233,0.47255696,-0.2942688,0.515781,0.485622,-0.32870302,0.535341,0.50184653,-0.34885338,0.551757,0.51505418,-0.31895464,0.532722,0.4818046,-0.30818337,0.518239,0.48007135,-0.32041384,0.533494,0.47632462,-0.3348048,0.544507
0.47299022,-0.38372187,0.563007,0.48236347,-0.34173055,0.55143,0.46412902,-0.36913859,0.565094,0.42851593,-0.35518762,0.556679,0.39343241,-0.33604893,0.544236,0.37312588,-0.31519932,0.534423,0.46923129,-0.28903711,0.546247,0.44306662,-0.2714859,0.526721,0.42884373,-0.27931486,0.516959,0.43086732,-0.29827632,0.52632,0.48569509,-0.29403219,0.539983,0.45587795,-0.29036599,0.519974,0.43801162,-0.28851766,0.508303,0.43851625,-0.31201607,0.517786,0.49901113,-0.30192885,0.535772,0.47143275,-0.29282937,0.51463,0.48449219,-0.32718447,0.534045,0.5003356,-0.34759035,0.550338,0.51439245,-0.3184126,0.53253,0.48104808,-0.30748262,0.517384,0.47928045,-0.31991929,0.532507,0.47575917,-0.33450653,0.543701
0.47172385,-0.38465461,0.562169,0.48051185,-0.33967317,0.551381,0.4630562,-0.36748064,0.564054,0.42775014,-0.35434898,0.555448,0.3928052,-0.33498046,0.54278,0.37275338,-0.31422413,0.533242,0.46708172,-0.28891822,0.546477,0.44369804,-0.26872638,0.528921,0.43058911,-0.27634139,0.520142,0.4333737,-0.29444067,0.530288,0.48412764,-0.29373048,0.540715,0.45679964,-0.28979395,0.522891,0.44020513,-0.28645365,0.512494,0.44120554,-0.31147554,0.522769,0.49794028,-0.3014519,0.536851,0.4724877,-0.28976342,0.516932,0.48649465,-0.32440596,0.536685,0.50209575,-0.34765736,0.552619,0.51393942,-0.31769346,0.533903,0.48248796,-0.30586285,0.519145,0.48074075,-0.31862665,0.534511,0.47736344,-0.3344967,0.545663
0.47084131,-0.3856727,0.562638,0.48061122,-0.33976262,0.551853,0.46280272,-0.36782663,0.563911,0.42687179,-0.35428315,0.554524,0.39020647,-0.33700018,0.540192,0.37106184,-0.31639208,0.530379,0.46611215,-0.28877981,0.54619,0.44378478,-0.26849259,0.529511,0.43115484,-0.27615741,0.521171,0.43436645,-0.29430157,0.531721,0.48391685,-0.29371029,0.54119,0.45708915,-0.28953428,0.523652,0.44076484,-0.28616417,0.513421,0.44197866,-0.31111588,0.523915,0.49843942,-0.30155382,0.537954,0.47443534,-0.29021356,0.519395,0.48881048,-0.32507933,0.539418,0.50398957,-0.34827283,0.554911,0.51540922,-0.31799616,0.535748,0.48359048,-0.30592559,0.52065,0.48208725,-0.31876685,0.536148,0.47887754,-0.33487416,0.547471
0.46995645,-0.3856725,0.561093,0.47965202,-0.3391375,0.551098,0.46129349,-0.36709872,0.562231,0.42569164,-0.35389152,0.553218,0.38885936,-0.33901894,0.538248,0.36994158,-0.31727821,0.529628,0.46401691,-0.28880301,0.545796,0.44344307,-0.26636037,0.530281,0.43157423,-0.27366151,0.522523,0.43544603,-0.29161779,0.533573,0.48333862,-0.29349573,0.541215,0.4566979,-0.28631139,0.524349,0.44249611,-0.27764353,0.514511,0.4430612,-0.30601494,0.525341,0.49821107,-0.30131049,0.538259,0.47739069,-0.2774475,0.522398,0.49211715,-0.31134395,0.542777,0.50559989,-0.33509086,0.557323,0.51530985,-0.31669883,0.536265,0.48412875,-0.30590001,0.521607,0.4828787,-0.31889723,0.537303,0.47965186,-0.33502401,0.548547
0.47129055,-0.38649526,0.558058,0.47480588,-0.34870849,0.5455,0.46108842,-0.37274004,0.56164,0.42775767,-0.37013757,0.555342,0.3844141,-0.34441259,0.533862,0.36036406,-0.31854353,0.5196,0.45766089,-0.30288828,0.541521,0.43381061,-0.2707492,0.527929,0.42163169,-0.25417599,0.521133,0.42361738,-0.24647867,0.531543,0.47230959,-0.30199529,0.533083,0.45765013,-0.25489004,0.514777,0.43915425,-0.25470654,0.504098,0.44187421,-0.27686719,0.513344,0.48471463,-0.30501079,0.527162,0.46065017,-0.28115717,0.506872,0.47430189,-0.31373598,0.525369,0.49077886,-0.33934687,0.540951,0.50217374,-0.31337827,0.522044,0.47041191,-0.29934108,0.507197,0.46866307,-0.31079475,0.521578,0.46607334,-0.32870741,0.532379
0.46566489,-0.38485852,0.540352,0.46705591,-0.35136275,0.537859,0.45207901,-0.38085283,0.543058,0.41565272,-0.37006001,0.536973,0.3755417,-0.34449363,0.518239,0.35409958,-0.32677381,0.511496,0.43872295,-0.31630913,0.539555,0.42589172,-0.27457623,0.529293,0.42160668,-0.25496621,0.524163,0.42766588,-0.24636532,0.537314,0.45858342,-0.31093822,0.535394,0.44475947,-0.26253591,0.525003,0.4357283,-0.2441287,0.518942,0.44380132,-0.24088931,0.532068,0.47568474,-0.30972858,0.532172,0.4675115,-0.26202561,0.521221,0.47375528,-0.25318529,0.530225,0.48866163,-0.27057472,0.549927,0.49763444,-0.31432256,0.528735,0.48990343,-0.27243509,0.520036,0.50429381,-0.281641,0.536799,0.51250528,-0.30099402,0.54636
0.46471061,-0.41034237,0.54485,0.46256535,-0.36505964,0.541332,0.44956744,-0.39203166,0.542444,0.40875993,-0.37534251,0.531927,0.37104572,-0.35038596,0.514443,0.35415427,-0.32979007,0.510963,0.43539805,-0.31629149,0.535967,0.42182096,-0.27375429,0.524978,0.41491813,-0.25402614,0.519484,0.42348784,-0.24503875,0.532622,0.46042574,-0.32117973,0.537853,0.44745478,-0.27131625,0.526253,0.43826276,-0.24578033,0.519487,0.44727281,-0.23966331,0.532483,0.48186159,-0.32709182,0.539691,0.46873405,-0.28051884,0.528145,0.4620063,-0.25654051,0.522237,0.457116,-0.24307885,0.516867,0.50803562,-0.34093787,0.542396,0.49145959,-0.29659687,0.530538,0.4868564,-0.28728231,0.525089,0.49664356,-0.28684832,0.535189
