sluyters/QuantumLeap/src/datasets/gesture/HandGestureDataset_SHREC2017_csv/Gesture5/finger_1/subject_17_essai_1_skeletons_world.csv
Wrist_x,Wrist_y,Wrist_z,Palm_x,Palm_y,Palm_z,thumb_base_x,thumb_base_y,thumb_base_z,thumb_first_joint_x,thumb_first_joint_y,thumb_first_joint_z,thumb_second_joint_x,thumb_second_joint_y,thumb_second_joint_z,thumb_tip_x,thumb_tip_y,thumb_tip_z,index_base_x,index_base_y,index_base_z,index_first_joint_x,index_first_joint_y,index_first_joint_z,index_second_joint_x,index_second_joint_y,index_second_joint_z,index_tip_x,index_tip_y,index_tip_z,middle_base_x,middle_base_y,middle_base_z,middle_first_joint_x,middle_first_joint_y,middle_first_joint_z,middle_second_joint_x,middle_second_joint_y,middle_second_joint_z,middle_tip_x,middle_tip_y,middle_tip_z,ring_base_x,ring_base_y,ring_base_z,ring_first_joint_x,ring_first_joint_y,ring_first_joint_z,ring_second_joint_x,ring_second_joint_y,ring_second_joint_z,ring_tip_x,ring_tip_y,ring_tip_z,pinky_base_x,pinky_base_y,pinky_base_z,pinky_first_joint_x,pinky_first_joint_y,pinky_first_joint_z,pinky_second_joint_x,pinky_second_joint_y,pinky_second_joint_z,pinky_tip_x,pinky_tip_y,pinky_tip_z,
0.69118266,-0.50715788,0.676005,0.67226797,-0.4508181,0.654258,0.66282758,-0.48890618,0.665833,0.61497899,-0.4604334,0.647114,0.58003824,-0.43957053,0.639068,0.56864338,-0.42624031,0.642407,0.62453778,-0.39066591,0.62638,0.61424862,-0.35346062,0.624873,0.60945999,-0.33485854,0.624119,0.60566583,-0.31813336,0.623434,0.65259913,-0.39435045,0.631806,0.64303248,-0.37567859,0.603174,0.63294342,-0.38454977,0.586473,0.63499417,-0.40533039,0.591672,0.67721136,-0.40187523,0.637978,0.66471575,-0.38392262,0.610698,0.65968924,-0.38635398,0.596741,0.67221051,-0.40977012,0.602219,0.71005724,-0.42261666,0.648503,0.69077423,-0.40495941,0.624288,0.68269866,-0.39830298,0.613162,0.67902914,-0.39837786,0.603346
0.69003282,-0.50738604,0.675699,0.671523,-0.45117087,0.654166,0.66187833,-0.48912782,0.665721,0.6145639,-0.46035872,0.646966,0.5805728,-0.43918965,0.639891,0.57107612,-0.42860923,0.645434,0.62431415,-0.39108577,0.626679,0.61394695,-0.35346125,0.624314,0.60903365,-0.33474589,0.623131,0.60508513,-0.31772513,0.622114,0.65226693,-0.39481663,0.631935,0.6424065,-0.37601759,0.603506,0.63124909,-0.38594959,0.586923,0.63434308,-0.40582709,0.592255,0.67684429,-0.40211983,0.637951,0.6640562,-0.38472709,0.610792,0.65827768,-0.38785306,0.596897,0.67067825,-0.41030163,0.602495,0.70845023,-0.42371605,0.64826,0.68931576,-0.4064745,0.624223,0.68089768,-0.3991846,0.613178,0.67827857,-0.39883136,0.603434
0.68899318,-0.5077655,0.675744,0.67084113,-0.45147691,0.654176,0.66081993,-0.48921801,0.665685,0.61306452,-0.46030313,0.646493,0.57974692,-0.43864476,0.639278,0.56873045,-0.42522606,0.642425,0.62384889,-0.39103205,0.626564,0.61384016,-0.35325478,0.623848,0.60922504,-0.3344387,0.622491,0.60576708,-0.31752361,0.621838,0.65193816,-0.39506178,0.631909,0.64099428,-0.37689438,0.603443,0.62886734,-0.38538233,0.586838,0.63204761,-0.40656471,0.592137,0.67661362,-0.40261742,0.638001,0.66315154,-0.38535996,0.610576,0.65567582,-0.38711623,0.596545,0.66773791,-0.41051584,0.602037,0.70802729,-0.4236061,0.648405,0.68868383,-0.40638619,0.624325,0.68014914,-0.39906785,0.613261,0.67678706,-0.40082993,0.603499
0.6877941,-0.50768032,0.67542,0.66998633,-0.45143705,0.653994,0.65959338,-0.48892517,0.665328,0.61219527,-0.45962359,0.645846,0.57910176,-0.43821878,0.638798,0.56833693,-0.42489385,0.642155,0.62319786,-0.39081015,0.626443,0.61314455,-0.35297377,0.62322,0.60857224,-0.334135,0.621608,0.60454738,-0.31690215,0.620247,0.65143269,-0.39507473,0.631875,0.64056996,-0.37683601,0.603528,0.62863229,-0.38543871,0.586992,0.63167923,-0.40658984,0.59234,0.67621538,-0.40282172,0.638027,0.66271922,-0.38532326,0.610671,0.65544728,-0.38715907,0.596675,0.6673643,-0.4105242,0.602206,0.70776261,-0.42353355,0.648482,0.68840037,-0.40638973,0.624473,0.67984561,-0.39908319,0.613442,0.67640985,-0.40097805,0.603708
0.68732423,-0.50808093,0.67587,0.66974261,-0.45167055,0.654465,0.65878198,-0.48880646,0.665457,0.6116821,-0.45878148,0.645799,0.57688925,-0.43617671,0.637435,0.56498793,-0.42168571,0.63878,0.62237108,-0.39019652,0.62653,0.61261762,-0.35259492,0.622707,0.60827688,-0.33396649,0.620795,0.60451932,-0.31679248,0.619442,0.6510707,-0.39487428,0.632367,0.63947077,-0.37744146,0.604008,0.62428556,-0.39100934,0.587466,0.62978015,-0.40735338,0.592743,0.67625731,-0.40296919,0.63885,0.66189736,-0.38330878,0.611276,0.65484929,-0.38622784,0.597168,0.66618706,-0.40953359,0.602561,0.7091458,-0.4206469,0.649696,0.68974322,-0.40402319,0.625607,0.68037568,-0.39777916,0.614539,0.67686589,-0.39946808,0.604773
0.6864596,-0.50797799,0.675736,0.66948946,-0.45173087,0.654817,0.6582112,-0.48869406,0.665663,0.61200175,-0.45873061,0.645964,0.57808805,-0.43669455,0.638656,0.56664759,-0.42291906,0.640962,0.62284363,-0.39030929,0.627644,0.61196071,-0.35176328,0.621601,0.61379503,-0.33055341,0.618579,0.60712777,-0.31621602,0.617952,0.65124593,-0.39475954,0.633221,0.63931554,-0.37955593,0.605314,0.62513234,-0.39343508,0.589035,0.6260119,-0.41277423,0.594589,0.67625159,-0.40284085,0.639452,0.66189873,-0.38095216,0.612393,0.65501835,-0.38288651,0.598549,0.66778389,-0.40976852,0.604262,0.70884321,-0.42047406,0.649926,0.68999961,-0.40370476,0.626212,0.67937847,-0.39739011,0.615317,0.67747393,-0.3996237,0.605703
0.68594569,-0.50806394,0.675812,0.66907385,-0.45164333,0.654867,0.65767474,-0.48856697,0.665759,0.61177383,-0.45801803,0.645746,0.57834606,-0.43347076,0.638716,0.56643841,-0.42168117,0.64053,0.62243735,-0.3898783,0.627701,0.61197661,-0.35133422,0.621003,0.61323469,-0.33035295,0.617653,0.60731373,-0.31541061,0.616871,0.65102744,-0.39483076,0.633244,0.63826208,-0.38225331,0.605317,0.62496694,-0.39428489,0.589026,0.62574322,-0.41346259,0.594575,0.67589103,-0.40276264,0.63945,0.6610007,-0.38337131,0.612426,0.65601467,-0.38566737,0.5986,0.66770777,-0.40933649,0.604324,0.70854673,-0.42065612,0.649898,0.68957634,-0.40414605,0.626175,0.67954381,-0.39741524,0.615275,0.67714076,-0.39937315,0.605658
0.68647677,-0.50887009,0.676828,0.66950973,-0.45211888,0.655726,0.65820575,-0.48921045,0.666864,0.61221675,-0.45802174,0.646264,0.57923307,-0.43345603,0.639356,0.56613311,-0.42060592,0.639982,0.6227783,-0.38997202,0.628558,0.6124466,-0.35121831,0.620915,0.61279937,-0.33015223,0.617094,0.60701506,-0.31461223,0.615662,0.65131067,-0.3950108,0.633939,0.6376388,-0.39042995,0.605883,0.62218265,-0.40411288,0.589517,0.6237991,-0.41809373,0.595025,0.67609606,-0.40302294,0.640024,0.66157874,-0.38339988,0.613016,0.65659148,-0.38571619,0.599198,0.66825773,-0.40938418,0.60492,0.70875461,-0.42109712,0.650352,0.68952613,-0.40465002,0.626564,0.67990494,-0.3973317,0.615635,0.67669223,-0.39973914,0.605991
0.68563283,-0.50863155,0.676556,0.66926232,-0.45210527,0.655864,0.65788928,-0.48917009,0.667132,0.61279925,-0.45547245,0.647205,0.58080259,-0.43147338,0.64052,0.56678814,-0.41588231,0.63983,0.62326833,-0.38987874,0.629653,0.62328981,-0.34777405,0.620126,0.62307429,-0.32764586,0.615362,0.62299393,-0.30925339,0.61111,0.65137512,-0.39479231,0.6345,0.63884852,-0.39142996,0.606855,0.62346394,-0.40534251,0.590729,0.62467868,-0.42034708,0.596521,0.6762455,-0.40348972,0.640114,0.66269755,-0.38399624,0.61365,0.65761329,-0.38613313,0.60011,0.6696033,-0.41004185,0.606181,0.70826477,-0.42143146,0.649822,0.68901853,-0.40490858,0.626429,0.68038366,-0.39760183,0.615681,0.67618867,-0.40007703,0.606198
0.6815785,-0.50571809,0.673961,0.66593254,-0.44965522,0.653164,0.65532907,-0.48689488,0.665751,0.61280869,-0.45199157,0.648948,0.58477531,-0.42332008,0.642428,0.56907961,-0.40217169,0.634131,0.62984861,-0.38619429,0.628383,0.62215129,-0.34623051,0.615347,0.62395891,-0.32768727,0.608829,0.62303622,-0.30962599,0.607414,0.65375792,-0.39566312,0.631693,0.63552613,-0.39910177,0.604112,0.61747883,-0.4129917,0.588023,0.61854635,-0.42920769,0.593997,0.67371451,-0.40396014,0.63605,0.65786611,-0.41438114,0.609651,0.66899675,-0.44136486,0.62631,0.68204717,-0.45887007,0.644771,0.70604455,-0.42394129,0.64428,0.68347741,-0.40187945,0.621217,0.67478529,-0.39438647,0.61062,0.66549655,-0.38591696,0.60127
0.68147893,-0.50563888,0.67494,0.66538207,-0.44898299,0.652843,0.65611625,-0.48698493,0.667425,0.61348015,-0.45098374,0.649597,0.58748312,-0.42280783,0.644634,0.57258874,-0.40146288,0.637032,0.62988068,-0.38598652,0.628007,0.62151191,-0.34539645,0.613231,0.6213879,-0.32642193,0.605842,0.61986122,-0.30902229,0.599968,0.65529228,-0.39381303,0.630029,0.6328807,-0.39744021,0.601464,0.61459378,-0.4103619,0.584801,0.61545544,-0.42761327,0.590314,0.67220162,-0.40272404,0.633429,0.65459181,-0.41239822,0.606437,0.66567613,-0.44012173,0.622803,0.67825073,-0.4594776,0.640768,0.70471386,-0.42482707,0.640714,0.68105811,-0.40507853,0.617171,0.6708165,-0.40209721,0.606354,0.66623004,-0.39818317,0.598473
0.67713772,-0.50235139,0.67176,0.66412807,-0.44771478,0.651733,0.65568465,-0.48603811,0.667847,0.61836285,-0.44445412,0.658784,0.59650535,-0.4172664,0.655709,0.58972053,-0.39783054,0.655431,0.63508232,-0.38841017,0.63281,0.62800891,-0.34582865,0.608923,0.62777086,-0.32843457,0.600431,0.62876852,-0.31395108,0.593733,0.6566444,-0.39415079,0.631057,0.63605244,-0.39935406,0.604218,0.61880355,-0.41297226,0.588562,0.62036267,-0.43132478,0.594936,0.67151851,-0.40177353,0.631187,0.6539124,-0.41186174,0.605598,0.66564338,-0.44030939,0.622566,0.67854533,-0.46073712,0.640946,0.69752653,-0.4205936,0.634286,0.67594011,-0.40117437,0.613307,0.66763761,-0.39541753,0.603668,0.66301302,-0.39284234,0.595453
0.68123037,-0.50468911,0.676477,0.66646159,-0.44867378,0.653679,0.66010561,-0.48812161,0.672717,0.62812801,-0.44474044,0.658785,0.60629032,-0.41457241,0.652334,0.59960186,-0.39299705,0.649709,0.63670384,-0.38991167,0.632998,0.63075189,-0.35082339,0.606722,0.63168735,-0.3334464,0.599025,0.63079954,-0.31615359,0.59298,0.65725839,-0.39509771,0.630143,0.6327102,-0.39792791,0.600701,0.61297655,-0.40988426,0.583526,0.61231543,-0.42724,0.588453,0.6748402,-0.40337052,0.629584,0.64620962,-0.41677893,0.601251,0.65166064,-0.44293241,0.617078,0.66090535,-0.46452263,0.635426,0.69714593,-0.42074564,0.632272,0.67447701,-0.41452509,0.609906,0.66245836,-0.41032531,0.599629,0.65191802,-0.40678952,0.590619
0.66174732,-0.4885989,0.656595,0.66311377,-0.43808658,0.637654,0.64266507,-0.4730024,0.65338,0.63130758,-0.43192278,0.64989,0.61582678,-0.40257314,0.646823,0.60610756,-0.38680828,0.640523,0.63560118,-0.384965,0.62036,0.62900443,-0.34858736,0.597277,0.62650684,-0.33061297,0.586378,0.62334358,-0.31362236,0.579452,0.65686765,-0.39171173,0.6181,0.62587876,-0.39711189,0.592188,0.60443525,-0.40890857,0.577072,0.60650391,-0.42580807,0.583871,0.67492574,-0.40083851,0.617728,0.63868577,-0.41242054,0.592845,0.64530674,-0.43797253,0.610083,0.65468602,-0.45864054,0.628434,0.69730574,-0.41835078,0.620071,0.66610035,-0.41031649,0.599988,0.65408486,-0.40733751,0.59076,0.6435845,-0.40487917,0.582728
0.68274032,-0.50347107,0.676778,0.67456012,-0.44895205,0.647762,0.6627239,-0.48639552,0.672713,0.64910818,-0.44589841,0.666769,0.63899191,-0.41840266,0.665183,0.62346538,-0.39718502,0.655939,0.64047007,-0.39264928,0.622332,0.62586459,-0.3519009,0.591691,0.62744707,-0.33636868,0.584691,0.6283289,-0.31887613,0.5789,0.65929271,-0.39929563,0.617805,0.61638616,-0.39998971,0.58291,0.5863796,-0.40716204,0.562554,0.58152528,-0.41773973,0.563786,0.6760832,-0.40884248,0.616359,0.63142381,-0.41668836,0.585417,0.63269715,-0.43714531,0.598132,0.63526026,-0.4471984,0.609691,0.69849428,-0.42787474,0.618909,0.66153453,-0.41762533,0.593437,0.64452431,-0.41294242,0.581734,0.62954081,-0.40885268,0.571446
0.68292649,-0.5028822,0.676597,0.6740801,-0.44889091,0.64671,0.66298834,-0.4850066,0.672123,0.6471324,-0.44457575,0.66475,0.63938764,-0.41738313,0.6655,0.62594757,-0.39715853,0.657658,0.63970607,-0.39080195,0.620162,0.6243756,-0.35063387,0.588646,0.62483682,-0.33498311,0.580479,0.62536172,-0.32074913,0.573055,0.65858608,-0.39786998,0.615854,0.61588175,-0.39748623,0.58026,0.58564442,-0.40407875,0.559496,0.57881064,-0.41387575,0.560245,0.67541741,-0.40773846,0.614657,0.6299095,-0.41559628,0.583109,0.6304136,-0.43520048,0.595399,0.63209381,-0.44605648,0.606571,0.69787167,-0.42710356,0.61763,0.66053657,-0.41706689,0.591572,0.643359,-0.41247858,0.579599,0.62823147,-0.40847107,0.569073
0.68588753,-0.50438511,0.679121,0.67579068,-0.45017545,0.647525,0.66889319,-0.48562689,0.674529,0.64886308,-0.44462966,0.665472,0.64859959,-0.4155382,0.667729,0.63868091,-0.39448223,0.660888,0.64303595,-0.39021079,0.619628,0.62701503,-0.3507418,0.587035,0.62668597,-0.3351878,0.577863,0.62480236,-0.32024234,0.570199,0.65936766,-0.39794245,0.614904,0.61332753,-0.39713577,0.577929,0.57944222,-0.40379455,0.556361,0.57241488,-0.41468272,0.555889,0.67564358,-0.40819859,0.613498,0.62700889,-0.41435047,0.58028,0.62580666,-0.43307171,0.591344,0.6259615,-0.44710614,0.601402,0.69758561,-0.42812096,0.616475,0.65830434,-0.42419938,0.589662,0.63934472,-0.42073116,0.577367,0.62267966,-0.4177107,0.566575
0.66947749,-0.4937786,0.670266,0.67281102,-0.43461503,0.64,0.65512642,-0.45266802,0.660012,0.65336849,-0.42689921,0.640916,0.65171174,-0.40098885,0.625629,0.65549401,-0.38813319,0.612529,0.65366088,-0.36845595,0.606031,0.62917027,-0.33788904,0.574808,0.62807126,-0.33020897,0.569918,0.62678258,-0.32396164,0.565473,0.67373727,-0.38742389,0.608752,0.62279115,-0.38702176,0.573132,0.58210365,-0.39002531,0.552353,0.57296444,-0.40666432,0.553446,0.69043077,-0.40682012,0.613368,0.6414006,-0.40594896,0.579865,0.63770022,-0.42656881,0.592519,0.63449798,-0.44437918,0.604023,0.70889644,-0.43677652,0.6233,0.66639952,-0.42764119,0.594571,0.64489038,-0.42919712,0.581372,0.64186599,-0.43320805,0.581597
0.67920693,-0.48150896,0.678214,0.67979153,-0.43516336,0.645562,0.66593262,-0.45350346,0.6693,0.66056535,-0.40484857,0.65598,0.6658236,-0.37630209,0.654286,0.67900503,-0.36391368,0.656853,0.66560715,-0.3675443,0.611575,0.63387806,-0.34234502,0.580086,0.62148066,-0.33446031,0.568972,0.61119817,-0.32600363,0.558868,0.67915175,-0.3881813,0.611852,0.62296021,-0.38536813,0.57461,0.58055531,-0.38394353,0.552886,0.56654867,-0.39491087,0.552597,0.6929738,-0.40711097,0.614645,0.63964633,-0.40357735,0.579387,0.63507671,-0.42298821,0.590682,0.63139882,-0.43969769,0.600951,0.70873315,-0.43646725,0.622762,0.66392082,-0.42271966,0.593455,0.64171697,-0.42663667,0.57999,0.63808384,-0.43084077,0.579322
0.68149708,-0.4818498,0.680337,0.68137705,-0.43558267,0.646762,0.6680867,-0.45343825,0.670957,0.66027109,-0.40570546,0.65579,0.66451622,-0.37649191,0.65305,0.67828961,-0.36436088,0.656149,0.66539698,-0.36862494,0.611549,0.63076971,-0.34553264,0.57923,0.61640608,-0.33944006,0.567235,0.60685996,-0.32838389,0.556762,0.67998438,-0.38866625,0.612098,0.62166583,-0.38495565,0.574055,0.57950397,-0.38639241,0.551864,0.56673543,-0.3973906,0.550921,0.69387105,-0.40801486,0.615187,0.63883432,-0.40361825,0.579201,0.63404213,-0.42214058,0.589872,0.63056668,-0.43774992,0.599573,0.71008581,-0.4377584,0.623791,0.66154581,-0.42825881,0.593909,0.63636064,-0.43040125,0.58018,0.63614,-0.43207025,0.579014
0.68200017,-0.48191679,0.681313,0.68128336,-0.43561786,0.647086,0.66839549,-0.4532446,0.671579,0.66022785,-0.40629608,0.656606,0.6653176,-0.37785482,0.654428,0.67967923,-0.3662992,0.657881,0.66266666,-0.36940749,0.610977,0.62711121,-0.34752544,0.578211,0.61442868,-0.33953799,0.566848,0.60289121,-0.33225125,0.556518,0.67925471,-0.3886673,0.61175,0.61976565,-0.38451416,0.573269,0.57711929,-0.38520581,0.550822,0.56200084,-0.39437014,0.549431,0.69326253,-0.40826588,0.615074,0.63737445,-0.40351849,0.578793,0.63235081,-0.42145748,0.589006,0.62888004,-0.4363854,0.59829,0.70999329,-0.4383162,0.624052,0.65996275,-0.42859366,0.593766,0.63468655,-0.43026847,0.57985,0.63252868,-0.43282215,0.578316
0.69276218,-0.49807589,0.686465,0.681764,-0.44921509,0.651553,0.67358511,-0.46770784,0.676273,0.65332124,-0.45446872,0.653069,0.63195009,-0.42059732,0.633417,0.62346608,-0.39527569,0.62002,0.65726084,-0.37911361,0.614395,0.60513068,-0.37354184,0.581105,0.60557174,-0.3874721,0.590137,0.61264328,-0.41391675,0.606882,0.67540629,-0.39781031,0.61551,0.61188156,-0.3894622,0.576513,0.57955657,-0.38606379,0.553765,0.56418318,-0.39610577,0.551863,0.691279,-0.41728056,0.619169,0.62980846,-0.41365928,0.583112,0.62216641,-0.43206648,0.59284,0.63662728,-0.45166869,0.611286,0.71161644,-0.44804069,0.628646,0.65198496,-0.43010256,0.597911,0.62008554,-0.4180177,0.58379,0.60405785,-0.41478979,0.581843
0.68041905,-0.48515268,0.680341,0.67688012,-0.44515442,0.647839,0.66559297,-0.4601478,0.671265,0.6431647,-0.45059652,0.647239,0.62963943,-0.41437088,0.633912,0.62935751,-0.39112139,0.627799,0.65538406,-0.37779648,0.613756,0.61973928,-0.35339024,0.582281,0.60250935,-0.34162664,0.566543,0.60623553,-0.33867786,0.565842,0.67287761,-0.39605615,0.614284,0.61534366,-0.38891345,0.577202,0.58147209,-0.38631952,0.555571,0.56800041,-0.39814498,0.5554,0.6861887,-0.4144472,0.61727,0.63628941,-0.40757125,0.583117,0.62912851,-0.42794894,0.594573,0.64051177,-0.44848538,0.61294,0.70772583,-0.44373346,0.625595,0.65127896,-0.42780691,0.596287,0.62136748,-0.41689444,0.582821,0.61223482,-0.41541244,0.582211
0.67318483,-0.48069536,0.676162,0.67017318,-0.4353287,0.641526,0.66156495,-0.4527911,0.667911,0.65401839,-0.42783129,0.64516,0.65017587,-0.40251651,0.626066,0.65547076,-0.3891604,0.614488,0.65513306,-0.3683767,0.606964,0.62265536,-0.33520731,0.57519,0.6016361,-0.3234797,0.559304,0.5902375,-0.33090844,0.558428,0.66443983,-0.38957389,0.605767,0.62225113,-0.35694752,0.567399,0.59660795,-0.33907253,0.545018,0.58078653,-0.34549967,0.543317,0.67538561,-0.40773665,0.607502,0.61840304,-0.38762306,0.572722,0.61138828,-0.40107954,0.582559,0.61717407,-0.41886291,0.600533,0.68679336,-0.43798578,0.614654,0.63398087,-0.41367628,0.584843,0.60622281,-0.40939995,0.571146,0.60101893,-0.40952058,0.56948
0.67148986,-0.48042195,0.676119,0.66967901,-0.43534447,0.642127,0.66335675,-0.45429131,0.670712,0.65764166,-0.42955876,0.651876,0.65948696,-0.4033637,0.636345,0.66856508,-0.38556179,0.629705,0.66016925,-0.37124829,0.611538,0.64919848,-0.33901976,0.582294,0.62346026,-0.32885744,0.567672,0.60525083,-0.33371079,0.567235,0.66607914,-0.38988314,0.607034,0.62215251,-0.35681545,0.569986,0.59149406,-0.33567075,0.548374,0.58647174,-0.33015466,0.546713,0.6734404,-0.40661085,0.605997,0.61668041,-0.38671122,0.573433,0.61034001,-0.4013274,0.582962,0.61642373,-0.41966186,0.599918,0.680139,-0.4344565,0.609763,0.62507949,-0.40688238,0.581632,0.59938678,-0.40240509,0.568706,0.59953441,-0.4071513,0.567265
0.66997936,-0.48004523,0.675845,0.66879489,-0.43499823,0.641974,0.6625855,-0.45395643,0.670651,0.65808998,-0.42936477,0.652109,0.65890619,-0.4064848,0.635842,0.66848949,-0.39109929,0.628918,0.66054798,-0.37148275,0.611733,0.64885953,-0.33874689,0.581832,0.62308764,-0.32810144,0.566882,0.6047139,-0.33258575,0.56625,0.66624558,-0.3896062,0.607005,0.62135701,-0.35618918,0.570112,0.59176159,-0.33545734,0.548592,0.58676164,-0.32983524,0.546973,0.67302971,-0.40641839,0.605775,0.61582023,-0.38610437,0.573421,0.60982279,-0.40119887,0.582961,0.61627285,-0.41993503,0.599837,0.67919219,-0.4341671,0.609294,0.62467815,-0.40651096,0.581324,0.59907291,-0.40211458,0.568473,0.59973331,-0.40661124,0.567077
0.66210285,-0.47494449,0.668861,0.66866715,-0.43506525,0.64236,0.6576892,-0.45075446,0.666253,0.6650649,-0.4336346,0.658958,0.67202887,-0.4144038,0.648455,0.68141373,-0.39828384,0.641041,0.67004953,-0.37681356,0.620501,0.66332188,-0.34617207,0.594863,0.63976895,-0.33657708,0.582044,0.62538678,-0.3435553,0.585581,0.67512313,-0.39451463,0.615,0.6332634,-0.36428652,0.58415,0.60399418,-0.34909731,0.566154,0.60617231,-0.3453839,0.569144,0.68088521,-0.4110271,0.612555,0.62740172,-0.39322549,0.585894,0.62703609,-0.41255559,0.599726,0.6328211,-0.43134855,0.616016,0.68369247,-0.43712944,0.613548,0.63385808,-0.41232385,0.589965,0.61021848,-0.40947177,0.57913,0.61495651,-0.41647041,0.581263
0.65665491,-0.47151611,0.665049,0.66465968,-0.43302704,0.639859,0.65495834,-0.4486138,0.664408,0.66616639,-0.43411317,0.659981,0.67531129,-0.41619824,0.651497,0.68678163,-0.40106791,0.645953,0.67099377,-0.37735803,0.621356,0.66654853,-0.34643977,0.595707,0.6478237,-0.33505103,0.582882,0.62886579,-0.34259397,0.586252,0.67393129,-0.39362472,0.613853,0.63329183,-0.3648621,0.584703,0.60922967,-0.34849731,0.5677,0.60844191,-0.34611744,0.570986,0.67746485,-0.40898908,0.609657,0.62770068,-0.39321993,0.585159,0.62602343,-0.41179839,0.598885,0.63165819,-0.43055892,0.614905,0.67775961,-0.43337822,0.608379,0.63014894,-0.40969813,0.586493,0.62823251,-0.42138161,0.596224,0.64356477,-0.43547972,0.608159
0.65462045,-0.4717743,0.664793,0.66452949,-0.43298059,0.639962,0.65363383,-0.44887618,0.66434,0.66664838,-0.43426772,0.660413,0.6762654,-0.41663323,0.652334,0.68784358,-0.40145264,0.64686,0.67164275,-0.37773197,0.621944,0.6680558,-0.34674529,0.59645,0.64873617,-0.33552296,0.583703,0.63111729,-0.34270361,0.587193,0.67450089,-0.39381245,0.614326,0.63382998,-0.36550775,0.585516,0.60977761,-0.34934711,0.56871,0.60900352,-0.34713666,0.572164,0.67770447,-0.40915378,0.610007,0.62830095,-0.39346094,0.585853,0.6267843,-0.41223829,0.599698,0.63245118,-0.43110149,0.615691,0.67781366,-0.43344086,0.608531,0.63061615,-0.40987415,0.586916,0.62877973,-0.42164184,0.596742,0.64420231,-0.43565017,0.608658
0.65563068,-0.47424069,0.667896,0.6608009,-0.43186822,0.637618,0.65340276,-0.44978649,0.665486,0.66250196,-0.43136622,0.656326,0.66932465,-0.41088331,0.645398,0.67421914,-0.39129858,0.633888,0.66260417,-0.37298039,0.61335,0.66252842,-0.34271595,0.582362,0.64799794,-0.32723457,0.566867,0.63656484,-0.32604991,0.566926,0.66585702,-0.38901742,0.606359,0.62017683,-0.35812733,0.572908,0.59329834,-0.34037129,0.553395,0.58930219,-0.3363641,0.553747,0.66974401,-0.40481339,0.602984,0.61593736,-0.38594481,0.574439,0.6118431,-0.40267015,0.585576,0.61770816,-0.42137456,0.601551,0.67138448,-0.43037999,0.603429,0.62127805,-0.40422565,0.578388,0.6170657,-0.4142539,0.586114,0.63074942,-0.42784171,0.597922
0.65446509,-0.47510835,0.668719,0.66088344,-0.43219105,0.637966,0.65310539,-0.45059743,0.66646,0.6625403,-0.43132196,0.656541,0.66840316,-0.4111148,0.644759,0.67426115,-0.39269087,0.633959,0.66288017,-0.373496,0.61355,0.66227575,-0.34296961,0.582565,0.64945256,-0.32706204,0.567072,0.63995697,-0.32451544,0.566779,0.66566647,-0.38920383,0.606216,0.61957173,-0.35817675,0.572518,0.59185121,-0.34065684,0.552862,0.5880126,-0.33590981,0.552786,0.66864082,-0.40473507,0.602596,0.61447347,-0.38526732,0.573937,0.61048705,-0.40204245,0.584584,0.61618583,-0.42067047,0.600409,0.67025905,-0.43040679,0.60282,0.62019302,-0.40391258,0.5777,0.61357304,-0.41356693,0.585056,0.62159263,-0.42671962,0.59675
0.65439946,-0.47522417,0.669104,0.66100855,-0.43251663,0.638295,0.65338113,-0.45079051,0.666935,0.66295457,-0.43150165,0.65705,0.67037879,-0.41224021,0.646686,0.67538533,-0.39220095,0.634919,0.66363063,-0.37454778,0.613951,0.66324598,-0.34380522,0.583307,0.65121682,-0.32779645,0.567985,0.64253277,-0.32476428,0.567713,0.6663296,-0.38938489,0.606487,0.61979405,-0.35858331,0.572794,0.59269476,-0.34051707,0.553139,0.58810207,-0.33604852,0.552983,0.66864041,-0.40523062,0.602765,0.61515113,-0.38584488,0.574151,0.61034055,-0.40213912,0.584689,0.61593891,-0.42075979,0.600454,0.6688082,-0.43245997,0.602876,0.62000654,-0.40410397,0.577793,0.61482273,-0.41351795,0.585069,0.62403987,-0.427033,0.596718
0.65367899,-0.47416119,0.669664,0.66104905,-0.43214012,0.638775,0.65367791,-0.4497893,0.66764,0.66342471,-0.43147312,0.657557,0.66995685,-0.41096344,0.64614,0.67582622,-0.39222979,0.635183,0.66431219,-0.37483701,0.614554,0.66440841,-0.34404001,0.584207,0.65406398,-0.32772469,0.569034,0.64756833,-0.32346616,0.568723,0.66675648,-0.38977836,0.606885,0.61995819,-0.35889462,0.573206,0.59145108,-0.34143365,0.553559,0.58784607,-0.33620521,0.553277,0.66857587,-0.40560566,0.603,0.61484321,-0.38547633,0.574463,0.61033838,-0.40199625,0.584833,0.61578661,-0.42059625,0.600498,0.66972061,-0.43100512,0.602929,0.61997213,-0.4039863,0.577912,0.61452205,-0.41325309,0.585062,0.62607884,-0.42670059,0.596639
0.65956808,-0.47915416,0.67647,0.66423339,-0.43477721,0.64247,0.6581449,-0.4535463,0.672859,0.6644843,-0.43178381,0.658955,0.6712428,-0.41169739,0.647587,0.67452246,-0.39163464,0.634009,0.66230316,-0.37624815,0.614097,0.69766736,-0.36433937,0.615666,0.71809347,-0.35807848,0.616451,0.7438391,-0.35702843,0.630078,0.66611401,-0.39035452,0.607367,0.61577563,-0.35749774,0.57107,0.58576523,-0.33819503,0.549897,0.57964605,-0.33313103,0.547587,0.66959418,-0.40664753,0.6045,0.61404303,-0.38354719,0.573313,0.60681657,-0.3994893,0.581771,0.61262525,-0.41872593,0.597743,0.67294479,-0.43306622,0.606095,0.62128836,-0.40455048,0.579063,0.61515555,-0.41355916,0.584742,0.62671363,-0.42719586,0.596457
0.66030026,-0.4804633,0.678001,0.66523935,-0.43599129,0.644002,0.65941351,-0.45520187,0.674906,0.66583544,-0.43247984,0.66069,0.67384316,-0.41329802,0.650187,0.67745887,-0.39368923,0.636587,0.66237689,-0.37712646,0.616267,0.69975159,-0.36570994,0.617413,0.71996628,-0.3593752,0.617986,0.74516901,-0.35798342,0.631044,0.66549987,-0.39158444,0.6089,0.61560986,-0.35800773,0.572856,0.58610104,-0.33872013,0.551831,0.58081131,-0.33403812,0.54927,0.66984639,-0.4077877,0.605507,0.61599683,-0.38301678,0.574752,0.60792691,-0.39979514,0.582804,0.61307443,-0.41902257,0.59844,0.67293743,-0.43331024,0.606479,0.62211606,-0.40479284,0.5798,0.61566827,-0.41405112,0.585181,0.62622022,-0.42799318,0.596657
0.66007212,-0.4810767,0.678549,0.66519118,-0.43651298,0.644527,0.65926185,-0.45588952,0.675522,0.66592446,-0.43238738,0.661189,0.67438102,-0.4133207,0.650842,0.67818782,-0.3940119,0.637214,0.66245867,-0.37755828,0.616861,0.70037688,-0.3661307,0.617934,0.72055959,-0.3597921,0.618471,0.74545417,-0.3582257,0.631232,0.66566248,-0.39186355,0.609402,0.61607087,-0.35820486,0.573382,0.58649653,-0.33898527,0.55237,0.58082852,-0.33423749,0.549751,0.67001995,-0.4079447,0.605936,0.61672719,-0.3829557,0.57523,0.60837943,-0.39969817,0.583199,0.613167,-0.4190934,0.598781,0.67289417,-0.43350802,0.606823,0.62258224,-0.40482181,0.580187,0.61607881,-0.41449498,0.585506,0.62583202,-0.42886149,0.596943
0.65887791,-0.48102295,0.678108,0.66434483,-0.43652973,0.644275,0.65823685,-0.45601478,0.675244,0.66539958,-0.4319031,0.661093,0.67434518,-0.41301767,0.650977,0.67846655,-0.3941056,0.637452,0.66218455,-0.37766122,0.616945,0.70029042,-0.36614099,0.617876,0.72035188,-0.35960126,0.618342,0.74452008,-0.35794802,0.631014,0.66681997,-0.39163035,0.609346,0.61668005,-0.35841785,0.573512,0.58645577,-0.33875108,0.552609,0.58057999,-0.33404806,0.550091,0.66956815,-0.40768098,0.60575,0.61682988,-0.38252753,0.575256,0.60850643,-0.3993531,0.583304,0.61294471,-0.41893123,0.598832,0.67207564,-0.43318952,0.606455,0.62239329,-0.40437893,0.579981,0.6150365,-0.41405509,0.585362,0.62438502,-0.42931679,0.596766
0.65784681,-0.48108988,0.677804,0.66378405,-0.43675643,0.644261,0.65739366,-0.45625432,0.675105,0.66521222,-0.43166172,0.661299,0.67456197,-0.41343283,0.651403,0.67905174,-0.39551138,0.638047,0.66248001,-0.37804465,0.617339,0.70053613,-0.36642025,0.617956,0.72041232,-0.35972819,0.618264,0.74430521,-0.35809837,0.630993,0.6665659,-0.39211399,0.609631,0.61714112,-0.35857836,0.574041,0.58710033,-0.33896819,0.55328,0.58086033,-0.33425729,0.550959,0.6693361,-0.40793571,0.605923,0.61749999,-0.38211373,0.575682,0.60916741,-0.39942589,0.58392,0.61327944,-0.41920169,0.599422,0.67168529,-0.43322338,0.606453,0.62262206,-0.40429418,0.580169,0.61581334,-0.41456266,0.585697,0.62492195,-0.42981904,0.597091
0.65567227,-0.48032154,0.676285,0.66205102,-0.43617485,0.643109,0.65504162,-0.45545869,0.673408,0.66329155,-0.43042657,0.660388,0.66628373,-0.41538514,0.650039,0.67418543,-0.3996736,0.636946,0.662308,-0.37754932,0.616224,0.69937805,-0.36570845,0.616931,0.71926217,-0.35895951,0.617285,0.74354207,-0.35763892,0.6306,0.6658547,-0.39208196,0.608857,0.61696656,-0.35848155,0.573384,0.58685184,-0.33869866,0.552691,0.57987263,-0.33379705,0.55081,0.66832809,-0.40761982,0.605401,0.61703039,-0.38096763,0.575156,0.60947004,-0.39771754,0.58394,0.6129124,-0.41916227,0.599661,0.67101143,-0.43296489,0.606175,0.62227859,-0.40380177,0.579867,0.6155068,-0.41469896,0.585804,0.62536926,-0.43018871,0.597364
0.65484967,-0.48052024,0.675953,0.66184373,-0.43654459,0.643352,0.65455145,-0.45601326,0.673514,0.66376549,-0.43097433,0.661143,0.66974787,-0.41681834,0.651295,0.67600339,-0.39943363,0.638533,0.66233842,-0.37837098,0.617413,0.70015641,-0.36646976,0.617534,0.71971273,-0.35952042,0.617595,0.7439204,-0.35821136,0.631,0.66594003,-0.39251349,0.609694,0.61713735,-0.35846324,0.57477,0.58791485,-0.33934908,0.554397,0.58108037,-0.33456829,0.552831,0.66849624,-0.40785399,0.605903,0.6182348,-0.38168412,0.576262,0.61042855,-0.39948073,0.585304,0.61369861,-0.41978613,0.600884,0.6708165,-0.43275574,0.606195,0.62289745,-0.40375567,0.580353,0.61652069,-0.41533305,0.58649,0.62610049,-0.43112208,0.597966
0.65417576,-0.48071765,0.675619,0.6614125,-0.43665494,0.643265,0.65385283,-0.45633115,0.673279,0.66342585,-0.43086299,0.661225,0.67091348,-0.41651154,0.651492,0.6759987,-0.40022917,0.638875,0.66249109,-0.3786998,0.617624,0.70023469,-0.36672082,0.617573,0.71968482,-0.35968702,0.617548,0.74385052,-0.35839915,0.631062,0.6660227,-0.39272603,0.609863,0.61782822,-0.35895669,0.575133,0.5882123,-0.33952917,0.554874,0.58083279,-0.33456654,0.553483,0.66834268,-0.40775649,0.606018,0.61848317,-0.38181788,0.576565,0.61096539,-0.39933991,0.585781,0.61381015,-0.41988374,0.601355,0.67074766,-0.43247698,0.60621,0.62324999,-0.4034686,0.580509,0.6172959,-0.41573045,0.58678,0.62692612,-0.43186926,0.598257
0.65343239,-0.48086563,0.675189,0.6609329,-0.436705,0.643138,0.65307507,-0.45661095,0.672981,0.6630634,-0.43076893,0.66132,0.66999141,-0.41719628,0.651695,0.67619738,-0.40079482,0.639256,0.6626982,-0.37901142,0.617872,0.70033265,-0.36693549,0.617636,0.71967067,-0.35982039,0.617518,0.74381715,-0.35855536,0.631128,0.6657673,-0.39272414,0.610048,0.61774938,-0.35890056,0.575562,0.58865191,-0.33978969,0.555446,0.58065499,-0.33470244,0.554261,0.668178,-0.40757511,0.606126,0.61879614,-0.38199541,0.576914,0.61158315,-0.3992622,0.586329,0.61400026,-0.42003733,0.601886,0.67067185,-0.43209907,0.606183,0.62362288,-0.40318001,0.580664,0.61802751,-0.41609665,0.587089,0.6274506,-0.43255921,0.598561
0.65248482,-0.48106228,0.674548,0.66033424,-0.43689086,0.642902,0.65216372,-0.45698519,0.672543,0.6626413,-0.43089378,0.661379,0.67015142,-0.41781633,0.651956,0.6758972,-0.40287473,0.639752,0.66237678,-0.37946113,0.618172,0.70049655,-0.36716963,0.61774,0.71972306,-0.35998118,0.617525,0.7438252,-0.35871947,0.631183,0.66550361,-0.39293567,0.61023,0.61799136,-0.35903351,0.576088,0.58904246,-0.33994383,0.556172,0.58113377,-0.33500137,0.555245,0.66794205,-0.40758826,0.60618,0.61935034,-0.38190398,0.577313,0.61225318,-0.39951635,0.586968,0.6142226,-0.42048327,0.602481,0.67042891,-0.4318735,0.606024,0.62389516,-0.40314025,0.580769,0.61869599,-0.41671952,0.587378,0.62790572,-0.43347395,0.598829
0.65200602,-0.48107009,0.674266,0.66000374,-0.43699749,0.642745,0.65174954,-0.4570474,0.672283,0.66219731,-0.43067459,0.661344,0.66836352,-0.41645038,0.651696,0.67404933,-0.40239487,0.63956,0.66221845,-0.37970163,0.61813,0.70035057,-0.36746225,0.617702,0.71956399,-0.36022851,0.617488,0.74349148,-0.35897061,0.631227,0.66533122,-0.39313915,0.610202,0.61784204,-0.35903817,0.576147,0.58876645,-0.33990557,0.556281,0.58075789,-0.33500596,0.555452,0.6677477,-0.40775909,0.606153,0.61916494,-0.38187998,0.577361,0.61213998,-0.39958664,0.587119,0.61404878,-0.42061377,0.602643,0.67018783,-0.4320008,0.605982,0.62366298,-0.40311502,0.580782,0.61852743,-0.41676892,0.587469,0.62772006,-0.43360753,0.598931
0.65155097,-0.48136843,0.674037,0.65968724,-0.43736467,0.642664,0.65147951,-0.4574959,0.672206,0.66188444,-0.43091199,0.661404,0.66934492,-0.41744344,0.651972,0.6751128,-0.40302069,0.63992,0.6622374,-0.3802867,0.618341,0.70032861,-0.36828911,0.617876,0.71950654,-0.36100363,0.617644,0.743142,-0.35940413,0.631398,0.66517239,-0.39357002,0.610273,0.61767136,-0.35927451,0.576382,0.58872681,-0.33996354,0.556613,0.58084913,-0.33488562,0.555838,0.66743192,-0.40805938,0.606099,0.61887994,-0.38202824,0.577498,0.6118748,-0.39980059,0.58728,0.61367966,-0.42085815,0.602737,0.6696589,-0.43213417,0.605756,0.62316778,-0.40314245,0.580706,0.6180621,-0.41684647,0.587414,0.62721678,-0.43374471,0.598832
0.651019,-0.48161162,0.673699,0.65928048,-0.43768945,0.642436,0.65116907,-0.45789667,0.672043,0.66148747,-0.43109323,0.661288,0.66997286,-0.41839524,0.65219,0.67528804,-0.405238,0.6402,0.66217855,-0.38110428,0.618408,0.70018712,-0.3692157,0.617829,0.71929503,-0.3618536,0.61754,0.74258732,-0.35979307,0.631246,0.66490519,-0.39397156,0.610159,0.61743405,-0.35951689,0.576422,0.58864171,-0.34004574,0.556742,0.58087455,-0.33478291,0.555978,0.66695865,-0.40832255,0.605827,0.61848935,-0.38217599,0.577422,0.61142979,-0.3999506,0.587173,0.61308801,-0.42099403,0.602537,0.66891829,-0.4322162,0.60528,0.62251003,-0.40314219,0.580385,0.61737851,-0.41684701,0.587073,0.62645673,-0.43377192,0.598428
0.65084114,-0.48207866,0.673723,0.65909912,-0.43812893,0.642451,0.65108343,-0.45842421,0.672136,0.66122633,-0.43138535,0.661334,0.66965372,-0.41793028,0.652329,0.67546423,-0.4040975,0.640331,0.66213315,-0.38133747,0.618501,0.70006425,-0.36902583,0.617846,0.71912021,-0.36160416,0.617519,0.74221882,-0.36013389,0.631119,0.66472068,-0.39438283,0.610165,0.61717342,-0.35981363,0.576456,0.58847282,-0.34020856,0.556792,0.58077303,-0.3347829,0.555986,0.66668013,-0.40866832,0.605762,0.61816887,-0.38243253,0.57741,0.61102481,-0.4001776,0.587097,0.61258738,-0.42122017,0.602415,0.66852785,-0.43248668,0.605132,0.62209738,-0.40334597,0.580281,0.61704464,-0.41709897,0.586922,0.6263979,-0.43400737,0.598243
0.65052134,-0.48244449,0.673548,0.65877667,-0.4384499,0.64229,0.65085922,-0.45886804,0.672045,0.6608267,-0.43157032,0.661231,0.66920854,-0.417715,0.652314,0.67492553,-0.40402704,0.640323,0.66192836,-0.38172381,0.618454,0.69981613,-0.36980853,0.617807,0.7188693,-0.3623897,0.617484,0.7419485,-0.36042931,0.631081,0.66439861,-0.39465983,0.610019,0.61675155,-0.35994721,0.57636,0.58792482,-0.34030341,0.556726,0.58004086,-0.33484772,0.555891,0.66625989,-0.40885735,0.605532,0.61769269,-0.38251362,0.577258,0.61049007,-0.40025722,0.586891,0.61196603,-0.42131573,0.602156,0.66799273,-0.43257815,0.604802,0.62152335,-0.40336199,0.580014,0.61645399,-0.41711898,0.586615,0.62581069,-0.43405353,0.597899
0.65050079,-0.48276048,0.673516,0.65879858,-0.43877482,0.642297,0.65094367,-0.45926532,0.672097,0.66098129,-0.43152211,0.661301,0.66936489,-0.41775504,0.652487,0.67495098,-0.40475769,0.640517,0.66210928,-0.38215355,0.618593,0.69998441,-0.36980171,0.617874,0.71899335,-0.36233824,0.617515,0.74189513,-0.36071761,0.631042,0.66446429,-0.39499367,0.610066,0.61680117,-0.36014143,0.576474,0.58789302,-0.34045825,0.556878,0.57987742,-0.33497759,0.556034,0.66622901,-0.4091122,0.605502,0.61767391,-0.38265555,0.577316,0.61052184,-0.40043002,0.586918,0.61210697,-0.42150818,0.602135,0.66783839,-0.43273568,0.604673,0.62138524,-0.4034384,0.579956,0.61630208,-0.41720261,0.586535,0.62564462,-0.43416312,0.597786
0.65028813,-0.4828216,0.673332,0.65856342,-0.43877534,0.642137,0.6508096,-0.45940799,0.672007,0.66087686,-0.43144461,0.661177,0.66947642,-0.41771455,0.65254,0.67500673,-0.40529862,0.640579,0.66196508,-0.3822114,0.618566,0.6997648,-0.36976425,0.617787,0.71872181,-0.36224383,0.617397,0.74147913,-0.36052888,0.630867,0.6642117,-0.39493457,0.60993,0.61645912,-0.36000774,0.5764,0.58743148,-0.34032719,0.556841,0.5792345,-0.33483943,0.555969,0.66588739,-0.40895911,0.605274,0.61729298,-0.38246705,0.577179,0.61019703,-0.40028113,0.586726,0.61191178,-0.42138849,0.601884,0.66739408,-0.4324768,0.604333,0.62090978,-0.40316924,0.57969,0.61581946,-0.41694153,0.586229,0.625168,-0.43391192,0.597438
0.65004098,-0.48294796,0.673239,0.65830569,-0.4388497,0.642054,0.65062317,-0.45959495,0.671983,0.66064084,-0.43127434,0.66114,0.66906339,-0.41655394,0.65258,0.67467491,-0.40528591,0.640623,0.66177697,-0.38232776,0.618575,0.69953232,-0.3698241,0.617763,0.71845738,-0.36226745,0.617356,0.74110404,-0.36047486,0.630779,0.66394415,-0.39496049,0.609858,0.61613959,-0.35994981,0.576369,0.5870125,-0.34026492,0.556834,0.57865898,-0.33477156,0.555935,0.66555552,-0.4089135,0.605135,0.61694312,-0.38236732,0.577102,0.609896,-0.40021546,0.586601,0.61173834,-0.42135366,0.601715,0.66698665,-0.43235092,0.604112,0.62048771,-0.40301337,0.579519,0.61538331,-0.41679123,0.586024,0.62472887,-0.43377497,0.597201
0.64930061,-0.48282613,0.672781,0.6575893,-0.4386988,0.641678,0.65000681,-0.45959901,0.671681,0.65997849,-0.43124735,0.660756,0.66931345,-0.41913467,0.652611,0.67471777,-0.40828441,0.640675,0.66125346,-0.38230449,0.61845,0.69895423,-0.3697143,0.617614,0.71779444,-0.36184804,0.617196,0.74035611,-0.3602329,0.630572,0.66326369,-0.39478245,0.609567,0.61548674,-0.35977047,0.576208,0.58573686,-0.33998699,0.556748,0.57737517,-0.33458712,0.555838,0.66474065,-0.40860462,0.604701,0.61649435,-0.38168312,0.576838,0.6094284,-0.39956695,0.586283,0.6112597,-0.42092138,0.601308,0.66600629,-0.43188165,0.603496,0.61958106,-0.40260748,0.579039,0.61447481,-0.41639386,0.585506,0.6237983,-0.43336483,0.596621
0.64871382,-0.48281837,0.672482,0.65705526,-0.43868863,0.641447,0.649566,-0.45972359,0.67154,0.65954221,-0.4313306,0.660522,0.66930788,-0.41943955,0.65272,0.67467978,-0.40925179,0.640794,0.6609482,-0.38245274,0.618462,0.69869017,-0.36986849,0.617675,0.71759322,-0.36225447,0.617281,0.73993069,-0.36025506,0.630543,0.66278432,-0.39477385,0.609406,0.61509379,-0.35969851,0.576171,0.58589206,-0.34006241,0.556784,0.57725091,-0.33456423,0.555848,0.6641111,-0.40846111,0.604392,0.61627785,-0.38159015,0.576696,0.6091429,-0.39943735,0.58607,0.61094781,-0.42055655,0.600998,0.66519004,-0.43156934,0.603001,0.61888376,-0.40230599,0.578679,0.61374201,-0.41608496,0.585095,0.62301339,-0.4330488,0.596143
0.64789014,-0.48256781,0.671845,0.65636363,-0.43851571,0.640978,0.64896529,-0.45967283,0.671143,0.65894809,-0.43149544,0.659957,0.66881662,-0.42181616,0.652741,0.67435157,-0.41385482,0.640829,0.66065683,-0.38256148,0.61841,0.69844568,-0.36998919,0.61768,0.71736874,-0.36237113,0.617315,0.7395564,-0.36025947,0.630483,0.66224216,-0.39467839,0.609111,0.61475241,-0.35960841,0.576105,0.58559327,-0.34001505,0.556851,0.57685716,-0.33451981,0.555929,0.6633478,-0.40818379,0.603885,0.61606148,-0.38119955,0.576472,0.60881416,-0.39875273,0.585798,0.61040634,-0.42007923,0.600592,0.66414042,-0.43105012,0.602217,0.61805891,-0.40186685,0.578121,0.6129058,-0.41564883,0.584505,0.62210001,-0.43258456,0.595461
0.64759017,-0.48243706,0.671696,0.65607709,-0.43838061,0.640793,0.64880665,-0.45963297,0.671116,0.6586861,-0.43127159,0.659793,0.6690257,-0.41896091,0.652712,0.67402504,-0.40983263,0.640764,0.66055258,-0.38253799,0.618351,0.6983283,-0.36998248,0.617588,0.71724354,-0.36236742,0.617206,0.73926539,-0.36013967,0.630218,0.66195431,-0.39454438,0.608889,0.61454574,-0.35940393,0.575928,0.58522624,-0.3398782,0.556701,0.57614828,-0.3344164,0.555675,0.66290554,-0.40795198,0.603531,0.6160243,-0.38075794,0.576211,0.60852114,-0.39844308,0.585385,0.60989806,-0.41942501,0.600082,0.66351545,-0.43069395,0.601712,0.61754987,-0.40149404,0.577696,0.61226627,-0.41519594,0.583967,0.62137103,-0.43209839,0.594852
0.64709051,-0.48215517,0.671369,0.65562049,-0.43811425,0.640501,0.64839464,-0.45943223,0.670871,0.65821112,-0.43090907,0.659507,0.66860823,-0.41865909,0.652552,0.67348134,-0.40972312,0.640605,0.66022898,-0.38238393,0.618182,0.69804815,-0.36986216,0.617462,0.71698397,-0.3622546,0.617102,0.7389513,-0.35995413,0.630082,0.66153441,-0.39429662,0.608631,0.61418047,-0.35906175,0.575735,0.58468495,-0.33958956,0.556545,0.57533356,-0.33419578,0.555501,0.66240188,-0.40762309,0.603196,0.61587865,-0.38018445,0.575963,0.60825367,-0.39782951,0.585094,0.60948166,-0.4187898,0.599738,0.6629088,-0.43026449,0.601282,0.61701077,-0.40102409,0.577336,0.61169985,-0.41472253,0.583577,0.62076875,-0.43163294,0.594424
0.63910441,-0.47631337,0.663305,0.65537578,-0.43795814,0.640484,0.64521405,-0.4573199,0.667734,0.66055076,-0.43258475,0.66213,0.67488986,-0.422175,0.659554,0.68314218,-0.41189953,0.650185,0.67257806,-0.38956201,0.629921,0.70996792,-0.37613842,0.628155,0.72865393,-0.36813563,0.627272,0.75005357,-0.36513207,0.639681,0.67001401,-0.39946132,0.616924,0.62799462,-0.36564932,0.591912,0.59966913,-0.34485204,0.577321,0.59208863,-0.34064715,0.579821,0.66661304,-0.41037392,0.608021,0.6286259,-0.37746778,0.58776,0.6316465,-0.37447338,0.598088,0.63772744,-0.37334693,0.61123,0.66036927,-0.42759883,0.600807,0.6177395,-0.3996481,0.583342,0.61518668,-0.41603801,0.591455,0.6271269,-0.43577782,0.600747
0.63831617,-0.47583041,0.66276,0.65473929,-0.43755069,0.640136,0.64450728,-0.45696015,0.667217,0.65970943,-0.43219322,0.661597,0.67380624,-0.42492605,0.659304,0.68234593,-0.41413734,0.649927,0.67213822,-0.38935553,0.629746,0.70929041,-0.37577569,0.627775,0.7278629,-0.36776687,0.62679,0.74922576,-0.36455925,0.639164,0.66984605,-0.39909537,0.616778,0.62770957,-0.36489243,0.591913,0.60010813,-0.34491267,0.577409,0.59433698,-0.3432998,0.580039,0.66628484,-0.41007514,0.607884,0.62890678,-0.37754339,0.58779,0.63225472,-0.3746478,0.598344,0.63839133,-0.37345767,0.611457,0.66004257,-0.42777725,0.600651,0.61786851,-0.39964328,0.583282,0.61538402,-0.41608439,0.591492,0.62690595,-0.4353631,0.600788
0.63762711,-0.47596541,0.662653,0.654141,-0.43770678,0.640091,0.6433096,-0.45676308,0.666501,0.65963023,-0.43300077,0.661988,0.67450867,-0.42476077,0.659818,0.68301243,-0.41285453,0.651231,0.6708691,-0.38917668,0.62899,0.70890428,-0.37612188,0.627825,0.72797181,-0.36843257,0.627243,0.74992365,-0.36532552,0.640079,0.66934187,-0.39927359,0.616797,0.62909876,-0.36701938,0.591628,0.6017837,-0.34757171,0.576945,0.59765029,-0.34584137,0.580006,0.66677394,-0.41063334,0.608536,0.63007248,-0.37912219,0.58882,0.63436402,-0.37672999,0.600132,0.64082259,-0.37566971,0.613428,0.66182854,-0.42988014,0.602045,0.61988647,-0.40207905,0.584235,0.61878876,-0.41972181,0.592933,0.62824666,-0.43659887,0.602574
0.63614142,-0.47530332,0.661527,0.6529657,-0.43727105,0.63934,0.64259728,-0.45672274,0.666118,0.65828668,-0.43260049,0.661076,0.67332912,-0.42320933,0.659202,0.68114169,-0.41133036,0.650131,0.6709674,-0.38958479,0.629424,0.70837165,-0.37614138,0.627668,0.72711262,-0.36833796,0.62679,0.74856392,-0.36482355,0.639186,0.66853348,-0.39905069,0.616435,0.62777469,-0.36556463,0.591944,0.60117502,-0.34534196,0.577658,0.59498528,-0.34054981,0.580527,0.66547981,-0.40983084,0.607489,0.62878986,-0.37839044,0.587724,0.63271994,-0.37582564,0.598724,0.63884003,-0.37461113,0.611723,0.65900983,-0.42760323,0.60013,0.61810873,-0.39998363,0.583032,0.61553308,-0.41638547,0.591401,0.6259001,-0.43487246,0.600663
0.63687787,-0.47614976,0.662626,0.65257306,-0.43719238,0.639352,0.64232076,-0.45682194,0.666228,0.65775557,-0.43280496,0.660985,0.67135109,-0.4228581,0.658188,0.67967691,-0.41083595,0.64925,0.66734866,-0.38662324,0.627448,0.69892131,-0.36800956,0.622861,0.71749905,-0.36078929,0.620568,0.73990916,-0.35954063,0.632484,0.66618695,-0.39752753,0.615324,0.62517805,-0.36410191,0.589532,0.59983884,-0.34612884,0.574486,0.59471757,-0.34284573,0.577176,0.66416122,-0.4087991,0.607176,0.62075565,-0.38262577,0.585549,0.62295917,-0.38469759,0.597405,0.62691286,-0.38784541,0.610874,0.66033748,-0.4287531,0.600924,0.61997731,-0.40218243,0.582652,0.61532871,-0.41596213,0.591115,0.62571767,-0.43447556,0.600826
0.63653597,-0.47598755,0.66257,0.65264134,-0.43740244,0.639748,0.64078969,-0.45576231,0.664903,0.65828653,-0.4335049,0.661993,0.67190268,-0.42297248,0.65942,0.68237356,-0.41226641,0.652184,0.66644036,-0.38676937,0.62659,0.69724156,-0.36654966,0.621569,0.71382829,-0.35727732,0.619058,0.73555988,-0.35429158,0.631396,0.66745374,-0.39862526,0.616186,0.62679467,-0.36533659,0.590058,0.60222029,-0.34782421,0.574817,0.5983111,-0.34402852,0.578492,0.6667725,-0.4109398,0.609417,0.62846972,-0.38674236,0.588566,0.62988027,-0.38878173,0.601908,0.63472184,-0.39224801,0.615657,0.66406416,-0.43156984,0.604736,0.62237684,-0.40391193,0.585753,0.61639775,-0.41221196,0.595251,0.61637093,-0.42082278,0.605615
0.63691267,-0.4749269,0.663144,0.6521469,-0.43420237,0.638345,0.63783583,-0.44424975,0.661065,0.66165556,-0.42205326,0.65708,0.67815968,-0.4070015,0.650554,0.69448377,-0.40068286,0.646137,0.67126976,-0.37991334,0.618338,0.63647938,-0.35852736,0.592605,0.6190208,-0.34778269,0.579739,0.61978198,-0.34732526,0.583747,0.66806279,-0.39782203,0.612742,0.6334306,-0.37077878,0.583357,0.60653876,-0.35595942,0.566215,0.60282355,-0.35594652,0.570113,0.67019846,-0.41333446,0.610086,0.63360926,-0.39097005,0.58478,0.64212196,-0.39677871,0.59937,0.64522955,-0.40474316,0.615416,0.67210275,-0.43817908,0.610578,0.63530165,-0.40987375,0.588065,0.63036921,-0.41569533,0.598436,0.62513424,-0.4235871,0.61038
0.63560933,-0.47252478,0.661848,0.65442188,-0.42834204,0.636947,0.63679864,-0.44072598,0.659275,0.65547234,-0.41827258,0.651455,0.67248019,-0.40382369,0.645895,0.68804311,-0.39713825,0.641035,0.66859148,-0.37796703,0.616257,0.63420737,-0.35725893,0.591228,0.61639284,-0.34734252,0.578714,0.61641309,-0.34797,0.583033,0.67172781,-0.39612025,0.611239,0.63083116,-0.36924385,0.581611,0.60356911,-0.3545263,0.564327,0.5997244,-0.35468235,0.568264,0.67055571,-0.41311048,0.609066,0.628057,-0.38695224,0.583361,0.63993685,-0.39565792,0.598069,0.64308742,-0.40393999,0.614324,0.67105286,-0.43815341,0.610147,0.63047676,-0.40855233,0.587325,0.62937485,-0.41493532,0.59778,0.62575821,-0.42289238,0.609866
0.68511089,-0.491929,0.67354,0.6896997,-0.45030558,0.646088,0.69691695,-0.47484329,0.678938,0.69414953,-0.44853007,0.675239,0.69316803,-0.42356798,0.672293,0.6911115,-0.407597,0.664352,0.70682056,-0.40066329,0.633467,0.6562488,-0.37707434,0.617926,0.63130678,-0.36542219,0.610155,0.613893,-0.35968908,0.609244,0.69389196,-0.40769309,0.617745,0.64065776,-0.36782259,0.591183,0.60992241,-0.34486853,0.575688,0.59583345,-0.33316148,0.572242,0.68297111,-0.41679146,0.606964,0.62941434,-0.38741955,0.587459,0.61722251,-0.38202045,0.591193,0.60998867,-0.38226786,0.600633,0.66942333,-0.43383823,0.598201,0.61961755,-0.4036534,0.580723,0.60521851,-0.40390271,0.583259,0.60437575,-0.4088962,0.590394
0.68337337,-0.48827467,0.670245,0.69025067,-0.44635693,0.645999,0.6939768,-0.47166063,0.676747,0.69382926,-0.44667932,0.675655,0.69323634,-0.41971865,0.674409,0.69451978,-0.40674148,0.668267,0.70445729,-0.39132639,0.637,0.65764334,-0.37313684,0.623424,0.63430445,-0.36406317,0.616636,0.62143295,-0.36340967,0.618309,0.69624547,-0.39712357,0.620967,0.64695969,-0.36157497,0.596672,0.61831182,-0.34093093,0.5825,0.60656252,-0.33518937,0.581715,0.68916049,-0.40542091,0.609679,0.64023938,-0.38194005,0.5923,0.63143879,-0.37969036,0.598773,0.62178806,-0.38468682,0.608599,0.68007359,-0.42194681,0.599841,0.63083838,-0.39752423,0.583907,0.61940015,-0.40157146,0.588615,0.6117134,-0.41110469,0.596049
0.68989813,-0.4904421,0.676604,0.69490254,-0.44334409,0.649815,0.69828544,-0.47224096,0.681544,0.6848054,-0.43170641,0.678935,0.67618698,-0.40106283,0.6772,0.67159628,-0.37713851,0.670184,0.70535615,-0.39001336,0.637095,0.65539697,-0.37166415,0.620892,0.62996162,-0.36318208,0.61279,0.61518486,-0.36214395,0.613458,0.69831477,-0.39738306,0.622158,0.6459197,-0.36164922,0.59527,0.61503361,-0.34303672,0.579586,0.60302313,-0.33331144,0.577865,0.69235159,-0.40703851,0.61197,0.64019928,-0.38258626,0.591898,0.63121773,-0.38072835,0.598284,0.62353002,-0.38473748,0.608954,0.68488789,-0.42531049,0.603814,0.63354195,-0.39976528,0.58573,0.62153856,-0.40321895,0.590053,0.61426153,-0.41200342,0.598094
0.67776579,-0.48563386,0.685682,0.67898458,-0.44165281,0.65378,0.67614055,-0.46115277,0.684083,0.66066825,-0.42443763,0.680836,0.65329376,-0.39325061,0.678166,0.65073415,-0.37074062,0.673803,0.67687777,-0.38172132,0.629373,0.65111541,-0.34546462,0.60268,0.63986152,-0.32805875,0.590822,0.62991687,-0.31225344,0.58029,0.68067913,-0.39924143,0.620844,0.61433015,-0.3778033,0.586754,0.57415741,-0.37653127,0.566868,0.56241563,-0.38325316,0.565507,0.68125672,-0.41540715,0.616332,0.61764656,-0.39537834,0.583664,0.61082065,-0.4112982,0.592511,0.62441069,-0.42904749,0.609201,0.68401644,-0.43840999,0.615665,0.62826754,-0.41758564,0.590615,0.62305098,-0.42806909,0.596786,0.63847009,-0.44041175,0.607947
0.69653982,-0.49557434,0.688226,0.6849695,-0.44424609,0.656138,0.69718337,-0.4721006,0.689855,0.66637253,-0.43689419,0.682734,0.64603408,-0.4050009,0.676104,0.63578646,-0.3797904,0.667155,0.68114152,-0.38509997,0.635595,0.65236266,-0.3457585,0.605486,0.63857629,-0.32639168,0.590989,0.62662769,-0.30905032,0.578346,0.68037031,-0.39688947,0.623011,0.6124413,-0.37692182,0.586833,0.57310312,-0.37580842,0.565729,0.55796311,-0.38023518,0.560106,0.68010334,-0.41015528,0.615175,0.60957244,-0.39054129,0.577736,0.59803359,-0.40221157,0.581363,0.61195439,-0.41922787,0.597929,0.68052294,-0.43269402,0.610591,0.62575826,-0.41549969,0.588428,0.61622225,-0.4226782,0.591074,0.62803721,-0.43280478,0.599643
0.69397935,-0.49354402,0.686802,0.68409823,-0.44325445,0.655662,0.68579806,-0.46673441,0.68775,0.65767609,-0.4402782,0.687701,0.63576602,-0.41185131,0.683514,0.62817535,-0.38914427,0.678816,0.67674491,-0.38325417,0.634944,0.65134167,-0.33993687,0.609968,0.64020731,-0.31926176,0.598343,0.63084592,-0.3007855,0.588481,0.67861472,-0.39504218,0.623513,0.61235781,-0.37755908,0.587463,0.57372709,-0.37650524,0.566433,0.56088896,-0.38235416,0.562971,0.68105822,-0.40995085,0.616554,0.61100544,-0.39179148,0.57956,0.60239918,-0.40520387,0.586066,0.61714129,-0.42232103,0.603485,0.68435341,-0.43138345,0.612869,0.6275538,-0.41638891,0.590049,0.61989427,-0.42493192,0.594795,0.63245402,-0.43561941,0.604485
0.69263685,-0.49252045,0.686648,0.68304215,-0.44230221,0.655341,0.68398163,-0.46560606,0.686795,0.64605887,-0.43847301,0.679375,0.61780993,-0.40898478,0.670514,0.5966953,-0.38776567,0.659321,0.67299097,-0.38049893,0.633513,0.64258577,-0.34062229,0.608147,0.62883302,-0.32155639,0.596396,0.61679361,-0.30439134,0.58616,0.67722268,-0.39385685,0.623019,0.6109887,-0.37677975,0.586638,0.57281849,-0.375592,0.565416,0.56098472,-0.38171367,0.562522,0.68031526,-0.40777123,0.616844,0.6116837,-0.39114654,0.579819,0.6027242,-0.40449507,0.587208,0.61632412,-0.42196158,0.60511,0.68503388,-0.43133326,0.614114,0.62842312,-0.41508876,0.590562,0.62093486,-0.42522705,0.59592,0.63391936,-0.43621276,0.606201
0.69214236,-0.49234533,0.686423,0.68276983,-0.44233038,0.655448,0.68397526,-0.46659656,0.686962,0.64745026,-0.44630736,0.681682,0.61343271,-0.42223783,0.672612,0.5941489,-0.39917137,0.662938,0.66593521,-0.38063842,0.634339,0.63569104,-0.3412061,0.608492,0.62175492,-0.32207969,0.59671,0.61409449,-0.30508875,0.58719,0.673707,-0.39172916,0.623469,0.60987046,-0.37702095,0.587397,0.5736123,-0.37654476,0.566355,0.56250313,-0.38267257,0.563469,0.67868224,-0.4058758,0.616958,0.61190464,-0.39092108,0.580107,0.60275227,-0.40456894,0.587403,0.6144425,-0.4221529,0.605198,0.68410564,-0.42875768,0.61378,0.62853809,-0.41495496,0.590633,0.62092736,-0.42479195,0.595943,0.63350905,-0.43549297,0.606128
0.69291363,-0.49394228,0.688271,0.67837564,-0.44080188,0.654405,0.68118118,-0.46722903,0.687289,0.63511066,-0.44373049,0.675724,0.5986036,-0.41954239,0.66411,0.57656957,-0.39441031,0.651251,0.66041728,-0.37651847,0.629381,0.62766687,-0.33717173,0.602655,0.61368356,-0.3187583,0.591594,0.60095502,-0.30194423,0.581537,0.66685833,-0.38709796,0.619441,0.6023306,-0.37212945,0.581269,0.56590093,-0.37161895,0.559003,0.55357325,-0.37644799,0.554173,0.67316403,-0.39999092,0.613922,0.6065468,-0.38460233,0.575415,0.5953523,-0.39864423,0.580778,0.60716666,-0.41750941,0.598468,0.68252305,-0.42328318,0.612348,0.62908091,-0.4074964,0.587381,0.61735321,-0.41237032,0.591176,0.62782635,-0.43064672,0.601435
0.68753179,-0.49148029,0.685106,0.67616296,-0.43988672,0.652759,0.67843315,-0.46735752,0.685653,0.63182546,-0.44957518,0.676368,0.59580526,-0.425665,0.666048,0.57660535,-0.39841885,0.654036,0.65978447,-0.37667975,0.630695,0.62867707,-0.33238538,0.60789,0.61868344,-0.31274189,0.599931,0.60958692,-0.29478122,0.592696,0.66414094,-0.38461659,0.619364,0.59901683,-0.36998297,0.582514,0.56747055,-0.37285965,0.561019,0.55604913,-0.37814149,0.556504,0.66949609,-0.39610504,0.61258,0.60263949,-0.38036529,0.574883,0.59413887,-0.39770304,0.580228,0.60481853,-0.4170523,0.597585,0.67742515,-0.41785974,0.609282,0.62561766,-0.40226563,0.585918,0.61838267,-0.41285226,0.589781,0.62373131,-0.42619144,0.599502
0.68076994,-0.48881289,0.68197,0.6698384,-0.43870006,0.650535,0.67327561,-0.46681981,0.682435,0.62737746,-0.44972802,0.672625,0.58825404,-0.42987746,0.660553,0.56474763,-0.40570029,0.647536,0.65303873,-0.3747937,0.62901,0.62530678,-0.3325152,0.606284,0.61303118,-0.31463449,0.598497,0.60585047,-0.29572821,0.591417,0.65946107,-0.38317102,0.618081,0.59521696,-0.36916944,0.581706,0.56551448,-0.37272916,0.560487,0.55669284,-0.37877411,0.557164,0.66561553,-0.39435296,0.611556,0.60108474,-0.38000436,0.57441,0.59505538,-0.3981125,0.581213,0.6115279,-0.41785181,0.59893,0.67561584,-0.41692012,0.608431,0.6243093,-0.40137862,0.585124,0.61813375,-0.41291248,0.590064,0.62341616,-0.42677771,0.600183
0.68462375,-0.49101268,0.683546,0.67509492,-0.4401195,0.652211,0.67844041,-0.47014896,0.684753,0.63997158,-0.46228562,0.676326,0.60439463,-0.43821208,0.665868,0.58295668,-0.41398594,0.654301,0.64736942,-0.38057132,0.631673,0.61880943,-0.3365694,0.60984,0.60846426,-0.31676868,0.602788,0.60371527,-0.29924809,0.596376,0.65777269,-0.38534715,0.619859,0.59100034,-0.38089832,0.583792,0.5644098,-0.38237879,0.562753,0.56093769,-0.38316863,0.558776,0.66548588,-0.3950046,0.612599,0.59949897,-0.38277616,0.575479,0.59626049,-0.40010111,0.581293,0.61281835,-0.41744075,0.598604,0.67563379,-0.41622911,0.608586,0.62555222,-0.40255362,0.585982,0.61798076,-0.41327694,0.590227,0.62080952,-0.42606303,0.599828
0.68216673,-0.4907291,0.68178,0.67304789,-0.43986914,0.651212,0.6741868,-0.47348631,0.683262,0.63832676,-0.45985907,0.67507,0.60208416,-0.43734218,0.664009,0.58002739,-0.41388518,0.652362,0.64511456,-0.3805633,0.631555,0.61885238,-0.33620963,0.610206,0.60961178,-0.31666032,0.603664,0.60391861,-0.29947,0.597717,0.65330555,-0.38549374,0.619653,0.59115135,-0.38168961,0.584115,0.5650078,-0.38339766,0.563384,0.56250821,-0.38493457,0.56003,0.66286665,-0.39430344,0.612259,0.60168135,-0.38180588,0.5756,0.59650389,-0.39978181,0.582081,0.61292089,-0.41775429,0.599474,0.67408593,-0.41380345,0.607976,0.62498638,-0.40274881,0.585751,0.61760859,-0.41358014,0.590506,0.62044218,-0.42596734,0.600172
0.68261029,-0.49180525,0.680757,0.67011684,-0.44064335,0.650715,0.67324909,-0.47399091,0.68216,0.6356328,-0.46191906,0.673639,0.59505854,-0.44364339,0.66156,0.56968987,-0.42351784,0.649033,0.64089279,-0.38116689,0.631331,0.60897352,-0.33843779,0.610015,0.59806287,-0.31907603,0.603466,0.58811915,-0.30138606,0.597512,0.65026782,-0.38528572,0.6197,0.59093921,-0.38270836,0.584454,0.56526781,-0.38455996,0.563894,0.5642112,-0.38783033,0.561208,0.66062674,-0.39363939,0.612489,0.60216783,-0.38233571,0.576176,0.59800134,-0.40087287,0.583468,0.61264409,-0.41862985,0.601043,0.67415889,-0.41322145,0.608344,0.62499599,-0.40328818,0.586151,0.61817908,-0.41437353,0.591503,0.62284718,-0.42669245,0.601389
0.68075,-0.49263538,0.680027,0.65807763,-0.44392133,0.649987,0.67118475,-0.47631388,0.682055,0.62696033,-0.46838687,0.674731,0.59104064,-0.44461131,0.664307,0.57054706,-0.4245001,0.652947,0.62853551,-0.38310686,0.631377,0.60295768,-0.33739766,0.610796,0.59877993,-0.31942194,0.606708,0.59186529,-0.3022371,0.602991,0.63738313,-0.38594234,0.618972,0.57867201,-0.38382958,0.583938,0.55460739,-0.38643063,0.563501,0.55419995,-0.38839609,0.560168,0.64629974,-0.39265248,0.611124,0.59305707,-0.3769021,0.574782,0.58800889,-0.39670857,0.581126,0.60512374,-0.41718221,0.598336,0.66007205,-0.40895111,0.606224,0.61075475,-0.40371749,0.584608,0.60307891,-0.41331928,0.589291,0.61604516,-0.42437133,0.598714
0.67567712,-0.49061106,0.674552,0.65921729,-0.4418592,0.647421,0.66562747,-0.47622268,0.676291,0.62432868,-0.46948844,0.667703,0.58379769,-0.45010613,0.653995,0.55992907,-0.42849822,0.643,0.62112026,-0.38500863,0.630499,0.60619885,-0.34487951,0.62176,0.59871938,-0.3247143,0.61739,0.59614781,-0.3059337,0.613418,0.6351959,-0.38586911,0.61941,0.58021255,-0.38595224,0.586259,0.55847114,-0.38985815,0.566921,0.56157197,-0.39388299,0.566724,0.64581109,-0.39187947,0.612417,0.62001702,-0.3367991,0.584639,0.60714418,-0.31917893,0.574729,0.60597673,-0.32984901,0.581118,0.6612573,-0.40415563,0.608103,0.61310732,-0.40448754,0.587021,0.60820484,-0.4168664,0.594389,0.6207702,-0.42835155,0.604666
0.66024163,-0.48327509,0.658811,0.64818483,-0.43873032,0.639441,0.64376059,-0.47321344,0.658107,0.60697696,-0.4669023,0.651973,0.56608283,-0.43882549,0.636205,0.55100249,-0.42300815,0.634563,0.61387236,-0.38756723,0.624951,0.59742963,-0.34699333,0.615656,0.58919948,-0.32666215,0.611009,0.5851638,-0.30637906,0.608391,0.63437997,-0.38630904,0.619443,0.61268515,-0.33293885,0.594423,0.60317784,-0.31754111,0.579828,0.61253913,-0.33122556,0.586292,0.64920033,-0.39089305,0.616431,0.63566127,-0.34392935,0.592329,0.62932919,-0.32545968,0.579998,0.64345979,-0.32152306,0.586885,0.67101427,-0.40305838,0.615704,0.6470666,-0.40668774,0.596596,0.6557308,-0.42717904,0.608601,0.66714768,-0.43501277,0.619981
