sluyters/QuantumLeap/src/datasets/gesture/HandGestureDataset_SHREC2017_csv/Gesture5/finger_1/subject_27_essai_3_skeletons_world.csv
Wrist_x,Wrist_y,Wrist_z,Palm_x,Palm_y,Palm_z,thumb_base_x,thumb_base_y,thumb_base_z,thumb_first_joint_x,thumb_first_joint_y,thumb_first_joint_z,thumb_second_joint_x,thumb_second_joint_y,thumb_second_joint_z,thumb_tip_x,thumb_tip_y,thumb_tip_z,index_base_x,index_base_y,index_base_z,index_first_joint_x,index_first_joint_y,index_first_joint_z,index_second_joint_x,index_second_joint_y,index_second_joint_z,index_tip_x,index_tip_y,index_tip_z,middle_base_x,middle_base_y,middle_base_z,middle_first_joint_x,middle_first_joint_y,middle_first_joint_z,middle_second_joint_x,middle_second_joint_y,middle_second_joint_z,middle_tip_x,middle_tip_y,middle_tip_z,ring_base_x,ring_base_y,ring_base_z,ring_first_joint_x,ring_first_joint_y,ring_first_joint_z,ring_second_joint_x,ring_second_joint_y,ring_second_joint_z,ring_tip_x,ring_tip_y,ring_tip_z,pinky_base_x,pinky_base_y,pinky_base_z,pinky_first_joint_x,pinky_first_joint_y,pinky_first_joint_z,pinky_second_joint_x,pinky_second_joint_y,pinky_second_joint_z,pinky_tip_x,pinky_tip_y,pinky_tip_z,
0.349189144,-0.340102083,0.470071,0.353931072,-0.288077748,0.450752,0.337654013,-0.32175616,0.470979,0.296216838,-0.29388012,0.457226,0.260435098,-0.27217011,0.442937,0.240667443,-0.250262032,0.42942,0.341644576,-0.232790008,0.438818,0.298552712,-0.22251012,0.410739,0.284340599,-0.236258848,0.396699,0.293769272,-0.254127312,0.403292,0.357393927,-0.240631877,0.432354,0.318164703,-0.212469101,0.404698,0.294043238,-0.197697324,0.388566,0.286983979,-0.201753724,0.395969,0.370494849,-0.252668388,0.429112,0.3279983,-0.24611081,0.406829,0.304434019,-0.257054436,0.395427,0.306152493,-0.276461607,0.403586,0.38586957,-0.276406856,0.428982,0.340707163,-0.266920357,0.407966,0.323807326,-0.275532678,0.39831,0.330134671,-0.288684374,0.403676
0.349129903,-0.340326094,0.471612,0.353876171,-0.288379252,0.452065,0.337462497,-0.321619499,0.472201,0.295338394,-0.293248274,0.457933,0.259377925,-0.270920465,0.443052,0.238729251,-0.249203416,0.428897,0.342095458,-0.232697201,0.439559,0.298923323,-0.222723808,0.411344,0.284378536,-0.236394657,0.397236,0.293348092,-0.254611655,0.403811,0.358138192,-0.240994709,0.433449,0.318777645,-0.212973039,0.405469,0.295420749,-0.197931874,0.389148,0.287896229,-0.204061164,0.396484,0.371530333,-0.253148759,0.430524,0.328939606,-0.246947385,0.407855,0.304958121,-0.25756491,0.396256,0.305569316,-0.277478317,0.40432,0.386406705,-0.278110293,0.430804,0.34182327,-0.267867398,0.409474,0.324796063,-0.276462077,0.399674,0.330571262,-0.290198205,0.404968
0.348527536,-0.340271477,0.473004,0.353470872,-0.287972385,0.45329,0.334767786,-0.319913248,0.472809,0.29028472,-0.283207552,0.457366,0.256431616,-0.257281301,0.441136,0.237875649,-0.233527915,0.426995,0.341958951,-0.231810344,0.43965,0.299028222,-0.222513741,0.411494,0.284396288,-0.236192622,0.397416,0.293106402,-0.254674683,0.404152,0.358760299,-0.241243605,0.434515,0.31895457,-0.214585069,0.40612,0.294763071,-0.200231804,0.389557,0.287045309,-0.206888044,0.396924,0.37267927,-0.254218889,0.43241,0.330058676,-0.247820341,0.409093,0.305574498,-0.258073274,0.397163,0.305897894,-0.278057859,0.405174,0.387435292,-0.280213976,0.433674,0.34391334,-0.269056293,0.411828,0.326451109,-0.277585699,0.401791,0.331562324,-0.291756574,0.40705
0.347055475,-0.339368614,0.473219,0.353174602,-0.287854174,0.453682,0.334022891,-0.319377614,0.47298,0.290599155,-0.283079464,0.457508,0.256927269,-0.256962114,0.441304,0.238539273,-0.233120313,0.427222,0.342130799,-0.231749492,0.440107,0.299580622,-0.222581888,0.412138,0.284906095,-0.236331954,0.398153,0.293380886,-0.255051507,0.405003,0.35900798,-0.241224774,0.435076,0.319513626,-0.215135403,0.406836,0.296363695,-0.199579374,0.390362,0.289873402,-0.206069699,0.39783,0.37287519,-0.254565725,0.433039,0.330847367,-0.248331799,0.409824,0.306170398,-0.258432521,0.397946,0.306984018,-0.278274731,0.406046,0.387436015,-0.280643164,0.434347,0.344741045,-0.269152901,0.41259,0.327097066,-0.277745928,0.402594,0.33160609,-0.292405388,0.407921
0.345642346,-0.338905029,0.474494,0.350159055,-0.28543443,0.449672,0.331763632,-0.31619975,0.471811,0.298278237,-0.26707753,0.451938,0.268103368,-0.236091074,0.431655,0.255185702,-0.208951885,0.416049,0.351287807,-0.229131652,0.429325,0.313493346,-0.20683839,0.39988,0.291483421,-0.20034613,0.385157,0.282103312,-0.219493656,0.390404,0.363844623,-0.247111082,0.426033,0.323189641,-0.22320405,0.392139,0.299114872,-0.209128038,0.372368,0.283668986,-0.221001615,0.377133,0.373116466,-0.26673846,0.425998,0.325420285,-0.255371822,0.397385,0.293476761,-0.256564693,0.382746,0.291185993,-0.266742665,0.388043,0.381761026,-0.298234536,0.430622,0.33428466,-0.273242441,0.404433,0.312525429,-0.261775272,0.392401,0.29939408,-0.261224898,0.395597
0.346843495,-0.341355052,0.478294,0.352503714,-0.298036263,0.451511,0.33383178,-0.31836602,0.474329,0.298630142,-0.277880742,0.452382,0.266571761,-0.251269208,0.430625,0.250644627,-0.227543167,0.413277,0.35025481,-0.238428158,0.428161,0.311198118,-0.215509442,0.397019,0.288648458,-0.208667113,0.381449,0.278676826,-0.227257703,0.38566,0.363706158,-0.257110543,0.426003,0.321318966,-0.232227162,0.389977,0.296307557,-0.217634809,0.368962,0.280244802,-0.229025599,0.372615,0.373958297,-0.277569965,0.427112,0.324467777,-0.264916206,0.396325,0.291774559,-0.265002342,0.380574,0.2853221,-0.275711983,0.384678,0.384107043,-0.310511627,0.433434,0.33506802,-0.284230353,0.405492,0.312661464,-0.272187017,0.392653,0.298876954,-0.270985786,0.394952
0.342583239,-0.330857397,0.490068,0.356125287,-0.290550288,0.45819,0.332762835,-0.292805563,0.479254,0.309905997,-0.244374444,0.448548,0.290527557,-0.2028031,0.421784,0.278680946,-0.182965415,0.401524,0.35805347,-0.234467032,0.42246,0.309651579,-0.22177215,0.38378,0.283226748,-0.215863908,0.36444,0.26275925,-0.217579593,0.363826,0.370759786,-0.261760733,0.427829,0.320462733,-0.247876193,0.38609,0.291033615,-0.239850112,0.361742,0.270860957,-0.245497843,0.361253,0.38064008,-0.285561185,0.435686,0.324775545,-0.276008521,0.397769,0.288030767,-0.268432636,0.378369,0.276391444,-0.269204735,0.37772,0.387570647,-0.325001537,0.450798,0.336927186,-0.305168562,0.417404,0.313805786,-0.29602778,0.402061,0.296968597,-0.296887913,0.400869
0.327373202,-0.324252227,0.460199,0.340250602,-0.273735405,0.436275,0.324294547,-0.304205446,0.46591,0.327043852,-0.257875874,0.461638,0.335960194,-0.226379781,0.460486,0.343369343,-0.204126463,0.454715,0.353832731,-0.224446041,0.42747,0.296744568,-0.196311893,0.394485,0.269508939,-0.203668717,0.377993,0.273601141,-0.217078484,0.378763,0.354690899,-0.233172203,0.41349,0.303335871,-0.195420006,0.381844,0.263910875,-0.199827345,0.363384,0.261222347,-0.216477099,0.365333,0.354081072,-0.245145157,0.404556,0.304376437,-0.220492015,0.382928,0.277437722,-0.224999737,0.371863,0.275615598,-0.238872803,0.375854,0.350901448,-0.267877908,0.398683,0.303324028,-0.237494234,0.378227,0.27965183,-0.235038312,0.368829,0.27960352,-0.244913082,0.371037
0.311327532,-0.310101357,0.442228,0.317137157,-0.275315812,0.411049,0.311728779,-0.290998804,0.446336,0.321738361,-0.260929849,0.436845,0.338071774,-0.231980227,0.429239,0.347504881,-0.213543433,0.419026,0.338201955,-0.228727913,0.395229,0.284419217,-0.196983897,0.370463,0.261832201,-0.198974695,0.35808,0.258027445,-0.206312694,0.357229,0.329799884,-0.241078007,0.381355,0.264363738,-0.203659369,0.34562,0.227243028,-0.182282974,0.324775,0.20637828,-0.186323964,0.321554,0.321596457,-0.255380243,0.37329,0.266295845,-0.223300491,0.346292,0.238378958,-0.207047488,0.332479,0.216492712,-0.203816111,0.330781,0.309549531,-0.279546827,0.369789,0.264646728,-0.237512974,0.345115,0.244660872,-0.218822245,0.333778,0.232690296,-0.211231599,0.331722
0.300103673,-0.277373365,0.441562,0.302333836,-0.270082604,0.404558,0.323759529,-0.274616899,0.442035,0.336597761,-0.236202941,0.42816,0.352445211,-0.206747155,0.416317,0.348954299,-0.183168334,0.402871,0.333062473,-0.261071051,0.380049,0.297038488,-0.200319872,0.349213,0.267052366,-0.192705001,0.333795,0.259502067,-0.203821211,0.3279,0.303884865,-0.262805157,0.369316,0.261881406,-0.190856202,0.328078,0.225259869,-0.174324295,0.304023,0.216212142,-0.181978748,0.296062,0.27933999,-0.265216826,0.364466,0.245747395,-0.202176839,0.331818,0.218952325,-0.187254567,0.315114,0.209884788,-0.194932066,0.308456,0.249822394,-0.26958526,0.365791,0.235902112,-0.211994143,0.336751,0.226185153,-0.198362113,0.323409,0.220333448,-0.201262114,0.317668
0.302154702,-0.284441039,0.442594,0.301858073,-0.273081098,0.406434,0.316034094,-0.28593714,0.444414,0.34409285,-0.257683918,0.433308,0.364986997,-0.235385403,0.423891,0.37013783,-0.21837582,0.411711,0.331116148,-0.270730125,0.384252,0.309132119,-0.208810025,0.35567,0.298000441,-0.180055705,0.341379,0.29351225,-0.158299177,0.334907,0.303061512,-0.265193613,0.371996,0.266583232,-0.192641628,0.332544,0.234645513,-0.180693913,0.309531,0.220166562,-0.180250664,0.300809,0.274273271,-0.262567692,0.365801,0.256537125,-0.200987031,0.335166,0.228099554,-0.186740282,0.319492,0.213160092,-0.195658572,0.312199,0.243856991,-0.260760872,0.365407,0.223158455,-0.236364653,0.335722,0.215571751,-0.208988085,0.322083,0.212114657,-0.197692421,0.315459
0.300890219,-0.284708126,0.443078,0.298051048,-0.275505071,0.40668,0.316868889,-0.286241078,0.444669,0.342269559,-0.258367984,0.433212,0.363136145,-0.236353479,0.423492,0.368261555,-0.2195454,0.411132,0.328676168,-0.271802268,0.384038,0.307150532,-0.20972302,0.355115,0.296216995,-0.180889826,0.340654,0.291866739,-0.159083809,0.33402,0.297827145,-0.266738094,0.372015,0.264978429,-0.19345062,0.332287,0.233065982,-0.181005,0.309112,0.21850717,-0.180260144,0.300254,0.27218221,-0.263598731,0.366037,0.252690142,-0.202663664,0.335094,0.224983958,-0.188051032,0.319263,0.212151254,-0.195148781,0.311817,0.241968483,-0.261670548,0.36594,0.221183326,-0.237389542,0.335988,0.213823088,-0.209887332,0.322226,0.210553101,-0.197474717,0.315489
0.300419657,-0.285167484,0.444102,0.296922721,-0.276240556,0.407166,0.315627513,-0.289044766,0.445145,0.341390174,-0.259130101,0.432827,0.359460391,-0.237044747,0.422436,0.364942113,-0.218893626,0.409701,0.324353623,-0.274357476,0.383446,0.305551954,-0.21247786,0.353707,0.298225258,-0.186051427,0.338838,0.296139056,-0.164200589,0.331875,0.293803387,-0.268852565,0.371989,0.263894254,-0.194002447,0.331606,0.231868565,-0.180228262,0.30805,0.217052961,-0.17839661,0.298927,0.268485448,-0.265242897,0.366535,0.249631378,-0.203033257,0.33486,0.222057744,-0.188554406,0.318654,0.209317349,-0.195629829,0.310898,0.238791702,-0.262566269,0.367147,0.217767771,-0.238298008,0.336748,0.212835161,-0.210269779,0.322781,0.209792777,-0.197405287,0.315847
0.301253071,-0.286264973,0.446032,0.297562041,-0.27762115,0.408939,0.31847389,-0.289472421,0.447052,0.342648509,-0.262627648,0.43506,0.364145022,-0.244268249,0.424958,0.367318352,-0.221977976,0.412678,0.323647479,-0.277900908,0.385083,0.307148498,-0.216101784,0.35552,0.295796486,-0.187164881,0.340738,0.290366556,-0.162595599,0.333093,0.29415748,-0.2703363,0.373613,0.265502542,-0.195728861,0.333405,0.233114385,-0.181359411,0.30995,0.21742769,-0.178626514,0.300141,0.268803366,-0.26612898,0.368165,0.251571403,-0.203473599,0.336655,0.223745846,-0.189379454,0.320534,0.210714503,-0.195962887,0.312094,0.23923976,-0.26270764,0.368814,0.217137824,-0.221170162,0.34092,0.212425679,-0.196444346,0.328104,0.213615275,-0.182795897,0.321075
0.30136617,-0.28672842,0.446699,0.297606208,-0.278229742,0.409511,0.320077328,-0.290045716,0.447666,0.346030076,-0.266234434,0.435798,0.369821086,-0.246687026,0.425925,0.370882388,-0.227740103,0.413674,0.32390913,-0.278483477,0.385519,0.307185239,-0.216475604,0.356015,0.296145198,-0.187493424,0.341263,0.290431164,-0.163595629,0.333227,0.294120701,-0.270889441,0.374093,0.266383348,-0.196571153,0.333964,0.233756204,-0.181588292,0.310556,0.217545655,-0.178180021,0.300359,0.268795545,-0.266426678,0.368692,0.251657369,-0.203705626,0.337243,0.223966493,-0.18994664,0.321153,0.210558515,-0.196394442,0.312324,0.239345837,-0.262706192,0.369413,0.217597124,-0.22167577,0.341614,0.212880245,-0.196915482,0.328842,0.213868735,-0.183114192,0.32153
0.301364919,-0.287220623,0.447794,0.296172003,-0.278931536,0.410308,0.321345964,-0.289426038,0.448436,0.345575279,-0.266512833,0.436065,0.367101686,-0.246202868,0.425792,0.369987983,-0.226377386,0.413337,0.322930416,-0.278675462,0.385692,0.306514331,-0.216571738,0.355722,0.295877967,-0.187567879,0.340737,0.29028689,-0.163928892,0.33251,0.292455534,-0.271563693,0.374608,0.266447143,-0.196912356,0.334115,0.233518602,-0.181339895,0.310494,0.216519337,-0.177046708,0.300146,0.267412932,-0.266559591,0.36952,0.250381484,-0.203428287,0.337656,0.222871854,-0.190015023,0.321354,0.209340469,-0.196655398,0.312345,0.238425555,-0.262149427,0.370661,0.217447491,-0.221404175,0.342529,0.212665999,-0.196689869,0.329604,0.213675723,-0.182386937,0.322159
0.302014421,-0.28748166,0.450636,0.297094286,-0.279934011,0.412409,0.3228909,-0.290503053,0.450417,0.345805115,-0.266045801,0.436722,0.366692659,-0.245488044,0.425459,0.368509982,-0.22407135,0.412534,0.318788079,-0.279532626,0.386169,0.305398883,-0.21655651,0.354997,0.295491556,-0.187154425,0.339411,0.290403022,-0.164644378,0.330702,0.288648619,-0.271950452,0.376002,0.266205775,-0.198103091,0.334588,0.233318591,-0.181097936,0.31043,0.21602105,-0.175428014,0.299707,0.264147857,-0.266467103,0.37175,0.249754712,-0.20387858,0.338819,0.222780618,-0.190043265,0.321971,0.208318609,-0.196261005,0.312514,0.236263271,-0.261336394,0.374,0.216684796,-0.219403442,0.345015,0.213557379,-0.196748108,0.331698,0.214664063,-0.182393411,0.323918
0.304424182,-0.289555292,0.454508,0.298601632,-0.281960015,0.415621,0.325822679,-0.292359943,0.453442,0.347266705,-0.268076109,0.438396,0.365528769,-0.246398264,0.426012,0.36699114,-0.22762425,0.412309,0.316912472,-0.282503842,0.387829,0.302383601,-0.22000635,0.355473,0.2939175,-0.190616062,0.339295,0.290140749,-0.165380844,0.330238,0.28691108,-0.274781129,0.378585,0.266661289,-0.200207574,0.336278,0.233879747,-0.181764269,0.311599,0.216315584,-0.17573946,0.300637,0.262821396,-0.269053047,0.375164,0.246402171,-0.205101074,0.341188,0.220148224,-0.190658698,0.323805,0.207158717,-0.197250665,0.314034,0.235952143,-0.263412662,0.378503,0.218262247,-0.219044903,0.348672,0.213397574,-0.197044623,0.334965,0.213307053,-0.18092853,0.322871
0.306084786,-0.291098162,0.457417,0.297381406,-0.282957143,0.418047,0.328038661,-0.293196974,0.455669,0.347554716,-0.269104606,0.43952,0.36344248,-0.248020214,0.426195,0.363122167,-0.229092094,0.412008,0.314353602,-0.2849733,0.389039,0.299966385,-0.221690681,0.355744,0.292811641,-0.191146084,0.339096,0.288851165,-0.166310415,0.329823,0.284784645,-0.276976445,0.380551,0.263390548,-0.203280435,0.33755,0.230355585,-0.182548183,0.312466,0.215755816,-0.176257509,0.301376,0.261165959,-0.270997136,0.377805,0.244173211,-0.20607009,0.343004,0.218214851,-0.192046814,0.325199,0.205900998,-0.197641002,0.315239,0.235062183,-0.2650142,0.382018,0.218910429,-0.22008205,0.351513,0.211041608,-0.198257631,0.337498,0.212612956,-0.179516971,0.325131
0.306094012,-0.292325541,0.458885,0.295918337,-0.283623044,0.419232,0.327646828,-0.295164873,0.456745,0.344767022,-0.271777746,0.4402,0.361621458,-0.250487713,0.426504,0.360139568,-0.230951691,0.412258,0.311567527,-0.286004121,0.389519,0.298779897,-0.222105325,0.355868,0.290831221,-0.192659837,0.339042,0.288278768,-0.168998426,0.329264,0.282120179,-0.277698107,0.381467,0.260397153,-0.203247528,0.338266,0.227897366,-0.183644657,0.313066,0.21226419,-0.176713777,0.301523,0.258684204,-0.271519481,0.379109,0.243625928,-0.206533888,0.344013,0.217947678,-0.191613531,0.326057,0.201493532,-0.19571483,0.315608,0.232960596,-0.265412545,0.383826,0.215464805,-0.2196328,0.353132,0.207711795,-0.198549454,0.339029,0.209317471,-0.178640345,0.326585
0.305741155,-0.292758109,0.459663,0.293531596,-0.285179846,0.420049,0.327218203,-0.296239074,0.457577,0.343452522,-0.272917898,0.441055,0.359839123,-0.250620131,0.427468,0.357772095,-0.230192993,0.413397,0.311404448,-0.287723799,0.390433,0.29712669,-0.22355459,0.356806,0.28762618,-0.194405874,0.339993,0.28583969,-0.171426455,0.330333,0.281762934,-0.27921304,0.382321,0.260258824,-0.20453507,0.339121,0.227966526,-0.18490669,0.313921,0.211123296,-0.178841872,0.30249,0.258210391,-0.272875954,0.37991,0.24203594,-0.207496784,0.34483,0.217845763,-0.192109634,0.326883,0.201343257,-0.195989206,0.31655,0.232431929,-0.266609643,0.384557,0.212402938,-0.220817731,0.353214,0.204080807,-0.19964266,0.338813,0.205721118,-0.178698292,0.326107
0.305510389,-0.292910172,0.46,0.293260156,-0.285915092,0.420402,0.326864243,-0.296953122,0.457933,0.343230466,-0.273161831,0.441396,0.359397681,-0.25035383,0.427847,0.35756384,-0.229899654,0.413772,0.311268245,-0.288537386,0.390824,0.296856071,-0.224119385,0.35719,0.287380387,-0.194797812,0.340373,0.285228114,-0.171915836,0.330794,0.28153972,-0.279929804,0.38269,0.260130465,-0.205134524,0.339473,0.227938191,-0.185488503,0.314263,0.21120404,-0.17947002,0.302911,0.257937003,-0.273518334,0.380259,0.241852726,-0.208053873,0.34517,0.217676808,-0.192312926,0.327218,0.201232656,-0.196092159,0.316966,0.232141685,-0.267180012,0.384881,0.212274976,-0.221369492,0.353504,0.203913232,-0.200165371,0.339087,0.205170754,-0.179199651,0.326367
0.305345736,-0.293113116,0.460279,0.29311892,-0.286444908,0.420695,0.326581919,-0.297575154,0.45823,0.343170422,-0.273366634,0.441695,0.359224706,-0.250258073,0.428184,0.357540024,-0.229788656,0.414114,0.311258679,-0.289093788,0.39115,0.296776511,-0.224520738,0.35752,0.287377863,-0.195074893,0.340705,0.284954306,-0.172262945,0.331175,0.281468171,-0.280423022,0.382997,0.260124149,-0.205550668,0.339777,0.22799113,-0.18589509,0.314565,0.211318062,-0.179903309,0.303258,0.257827139,-0.273962103,0.380549,0.241804123,-0.208441448,0.345462,0.217610255,-0.192489399,0.327511,0.201223533,-0.19620977,0.317306,0.232011045,-0.267572833,0.385148,0.212266064,-0.221703215,0.353741,0.203880953,-0.200477723,0.33931,0.204874506,-0.179530966,0.326578
0.304478477,-0.293179277,0.46003,0.29255983,-0.286717935,0.420474,0.325654706,-0.297916079,0.458018,0.342645575,-0.273510879,0.441507,0.358880329,-0.25053271,0.428021,0.358670529,-0.230530142,0.413848,0.310891216,-0.289235403,0.390995,0.295347086,-0.224823083,0.357389,0.286756713,-0.194956371,0.340586,0.283232328,-0.17250605,0.331125,0.280266911,-0.280999115,0.382802,0.259029621,-0.205991055,0.339591,0.227148025,-0.186516566,0.314384,0.211036069,-0.180151885,0.303141,0.256547752,-0.274485956,0.380319,0.242733534,-0.208751837,0.34525,0.217700937,-0.192616904,0.327308,0.202936659,-0.196957261,0.317171,0.230690188,-0.268099504,0.384871,0.211494006,-0.221859472,0.353345,0.202926569,-0.200644684,0.33886,0.2026313,-0.179989232,0.326079
0.303619404,-0.293152389,0.459788,0.29212358,-0.286906219,0.420284,0.324760998,-0.298197911,0.457852,0.342332843,-0.273663712,0.441453,0.358773802,-0.250826403,0.428071,0.358681432,-0.230882533,0.41395,0.310674412,-0.289379515,0.390942,0.295072882,-0.224835247,0.35743,0.286483437,-0.194973121,0.340674,0.282999689,-0.172523125,0.331257,0.280033802,-0.28107672,0.382662,0.25877796,-0.206053908,0.339516,0.226971333,-0.186693017,0.314347,0.210890628,-0.180377488,0.303138,0.256230158,-0.274565496,0.380102,0.24276165,-0.2090717,0.345115,0.217808986,-0.192748078,0.327215,0.202916173,-0.197009615,0.317118,0.230276319,-0.268198026,0.384555,0.210941628,-0.221924049,0.353018,0.202271178,-0.200737035,0.338528,0.201967658,-0.180066271,0.325742
0.302937093,-0.293387681,0.459592,0.290822727,-0.287357471,0.420099,0.324046806,-0.2985959,0.457683,0.341176509,-0.273986834,0.44139,0.357701024,-0.25100959,0.42812,0.357464769,-0.230925928,0.414071,0.30962044,-0.289646739,0.390799,0.29392482,-0.224713183,0.357369,0.283740243,-0.194284351,0.340655,0.281314771,-0.172261814,0.33114,0.279532338,-0.280935771,0.382488,0.258216274,-0.20592458,0.339417,0.226554795,-0.186726217,0.314292,0.210483072,-0.180399948,0.302981,0.255670982,-0.274502366,0.3799,0.241934416,-0.209441585,0.344989,0.217732443,-0.192534644,0.327128,0.20111719,-0.195401425,0.316933,0.229296642,-0.268726226,0.384319,0.210789523,-0.221877373,0.353113,0.202305797,-0.200674782,0.338774,0.202086588,-0.180151525,0.326123
0.301924366,-0.294029076,0.459436,0.290368187,-0.287405677,0.419951,0.32301132,-0.299322537,0.457543,0.340754887,-0.274005319,0.441317,0.35741746,-0.251137187,0.428118,0.357292508,-0.231120287,0.414096,0.309279244,-0.289473978,0.390674,0.293427015,-0.22445484,0.357297,0.283206648,-0.194002866,0.340608,0.280730549,-0.171975036,0.331029,0.27914704,-0.280820868,0.382345,0.255958526,-0.205812543,0.339322,0.22472991,-0.187676246,0.314225,0.209448332,-0.181357646,0.302848,0.255247197,-0.274450363,0.379742,0.24176138,-0.209565722,0.344879,0.217660935,-0.192354533,0.327043,0.201003588,-0.194882016,0.316783,0.228821068,-0.268731889,0.384142,0.210646704,-0.221812091,0.353136,0.202290912,-0.200587613,0.33889,0.202120889,-0.18016655,0.32632
0.300956942,-0.294572928,0.459163,0.289917771,-0.287358206,0.419707,0.322086937,-0.299871234,0.45732,0.340415948,-0.27401086,0.441246,0.357259063,-0.251280233,0.428191,0.357262483,-0.23134561,0.414241,0.30896652,-0.289295325,0.390517,0.293067697,-0.224271805,0.35726,0.282929191,-0.193863184,0.340631,0.280300158,-0.171764709,0.330955,0.278771607,-0.280655268,0.38213,0.255349449,-0.205552543,0.339213,0.224236946,-0.187790751,0.314179,0.208990143,-0.181537675,0.302697,0.254821483,-0.274306446,0.379476,0.241576538,-0.209625187,0.344725,0.217294375,-0.192071884,0.326945,0.20086363,-0.194427806,0.316585,0.228347098,-0.268598083,0.383812,0.210429067,-0.221649024,0.352975,0.202175989,-0.200417425,0.338807,0.202043476,-0.180085479,0.326305
0.299899498,-0.295058462,0.458543,0.288843232,-0.287686851,0.419183,0.321119258,-0.300403804,0.456841,0.340034764,-0.27415664,0.441031,0.356998401,-0.251487442,0.428203,0.356701972,-0.231670736,0.414396,0.308557178,-0.289307149,0.390241,0.292775963,-0.224397562,0.357203,0.284060882,-0.19458005,0.340684,0.280104168,-0.171922323,0.330994,0.278244001,-0.280581544,0.381696,0.256065281,-0.205762226,0.338949,0.223838862,-0.18808471,0.314013,0.208593014,-0.181794869,0.302499,0.253905242,-0.27448361,0.378902,0.241747293,-0.21161435,0.344345,0.218096136,-0.192182346,0.326664,0.200832414,-0.194024238,0.316285,0.227658696,-0.268375185,0.383057,0.210020813,-0.221490722,0.352442,0.201885144,-0.200298174,0.338375,0.201809061,-0.180063195,0.325963
0.29872832,-0.295044854,0.457505,0.287720646,-0.287620134,0.418301,0.320082163,-0.300450832,0.456027,0.339076599,-0.274130602,0.440581,0.356129144,-0.251401692,0.428039,0.356125691,-0.231722912,0.414373,0.307694759,-0.289325702,0.389757,0.292326442,-0.224397245,0.357027,0.282556673,-0.194407277,0.340663,0.279853562,-0.172055479,0.331039,0.277177543,-0.280476157,0.380963,0.254081272,-0.205513572,0.338444,0.222293125,-0.188465145,0.313641,0.207245738,-0.182620068,0.302164,0.252998402,-0.273966839,0.377948,0.246473698,-0.219576121,0.343661,0.225096074,-0.193573052,0.32612,0.204483507,-0.190316086,0.315797,0.226651722,-0.267714433,0.381816,0.20901631,-0.221258685,0.351495,0.201002862,-0.200125348,0.337564,0.201002701,-0.18003253,0.325271
0.298157829,-0.295355755,0.457385,0.287210432,-0.287838441,0.418208,0.319559804,-0.300709324,0.455946,0.338636075,-0.274483192,0.440595,0.355799257,-0.251865361,0.428137,0.355873501,-0.232251268,0.414513,0.307298614,-0.289422176,0.389732,0.291833417,-0.224472279,0.357082,0.282442943,-0.194619211,0.340756,0.279377623,-0.172110047,0.331094,0.276727642,-0.280610102,0.380896,0.253806903,-0.20563728,0.338444,0.22217482,-0.188693683,0.31368,0.207036973,-0.182848172,0.302158,0.252501313,-0.274141459,0.377842,0.246449313,-0.219554398,0.343627,0.225097455,-0.193574239,0.326122,0.205306036,-0.189816596,0.315759,0.226097061,-0.267957371,0.381661,0.208756739,-0.221400611,0.351495,0.200845446,-0.200258893,0.337635,0.20089237,-0.180250205,0.325405
0.297596087,-0.295674827,0.457278,0.286706588,-0.288062878,0.418124,0.31904251,-0.300972325,0.455872,0.33819319,-0.274833903,0.440606,0.35545756,-0.252320968,0.428221,0.35560302,-0.232768167,0.414632,0.306903251,-0.289519378,0.389708,0.291332391,-0.224540991,0.357127,0.282361726,-0.194788951,0.340837,0.27889017,-0.172157876,0.331136,0.276282181,-0.280748405,0.380835,0.253593131,-0.205732713,0.338443,0.222094804,-0.188860452,0.313714,0.20687257,-0.183023294,0.30215,0.252012415,-0.274324628,0.377748,0.246427797,-0.21953523,0.343597,0.225099526,-0.19357602,0.326125,0.205707246,-0.189555125,0.315722,0.225554035,-0.268213429,0.381525,0.208507617,-0.22155309,0.351512,0.200698423,-0.20040243,0.337723,0.200792953,-0.180477003,0.325556
0.297383758,-0.29630309,0.457975,0.286464991,-0.288554468,0.418707,0.318763928,-0.301454302,0.456406,0.337828186,-0.275244176,0.440939,0.355048792,-0.252731457,0.428409,0.353977641,-0.232937842,0.414826,0.306529444,-0.289707369,0.39,0.290951588,-0.224689128,0.357245,0.282465392,-0.194968483,0.340867,0.278587385,-0.172184742,0.331016,0.276008926,-0.281105532,0.381309,0.252647511,-0.205828455,0.338805,0.222088984,-0.188985831,0.314012,0.206756393,-0.183137811,0.302319,0.251806709,-0.274834111,0.378384,0.243257322,-0.21433616,0.344084,0.220512051,-0.192541408,0.326536,0.203498923,-0.190175004,0.315989,0.225404883,-0.268918307,0.382369,0.208596913,-0.221989977,0.352334,0.200862704,-0.200760424,0.338534,0.200997202,-0.180872768,0.326357
0.296992746,-0.296397258,0.458152,0.286045227,-0.288620684,0.418865,0.318349198,-0.301534605,0.456557,0.337380205,-0.27534585,0.441017,0.354437708,-0.252697308,0.42842,0.353381957,-0.232664961,0.414803,0.306055811,-0.289734242,0.390113,0.290692726,-0.22484309,0.357297,0.282310279,-0.195133062,0.340889,0.278581184,-0.172371983,0.331081,0.275560414,-0.28114322,0.381449,0.252513664,-0.205831598,0.338892,0.221958766,-0.188976357,0.314066,0.206349094,-0.183396554,0.30242,0.251381098,-0.274884322,0.378549,0.243352522,-0.21482401,0.344194,0.220844612,-0.19236123,0.326617,0.203583572,-0.1900441,0.316115,0.225008976,-0.268988199,0.382567,0.208520741,-0.221868559,0.352502,0.200929396,-0.200567981,0.338689,0.201088667,-0.180760007,0.3265
0.29671338,-0.296602676,0.458501,0.285685834,-0.288747579,0.419111,0.317969627,-0.301647915,0.456758,0.336807474,-0.275345102,0.440931,0.353518549,-0.252442623,0.428057,0.350920685,-0.231921049,0.414457,0.305480836,-0.289664575,0.390096,0.290272908,-0.224898155,0.35704,0.283358568,-0.196647734,0.340513,0.280155564,-0.173695116,0.330731,0.275118139,-0.28118688,0.381597,0.252324353,-0.205766995,0.338851,0.221717522,-0.188851961,0.313915,0.205802582,-0.18352979,0.302315,0.251042032,-0.275028948,0.378844,0.243427276,-0.215294949,0.344275,0.221104421,-0.192116086,0.326589,0.203589596,-0.189881692,0.31612,0.224781802,-0.269259886,0.383052,0.208524115,-0.22183188,0.352804,0.201032936,-0.200412995,0.338906,0.201180156,-0.180647943,0.326643
0.296607703,-0.296694496,0.458741,0.285531643,-0.28888983,0.419335,0.31783069,-0.301773897,0.456974,0.336661689,-0.275521969,0.44109,0.353244504,-0.252511957,0.428175,0.350516108,-0.231693872,0.41459,0.305244476,-0.289879546,0.390278,0.290435546,-0.225352742,0.357176,0.28368459,-0.196910049,0.340624,0.280661413,-0.173987722,0.330866,0.274916178,-0.281374701,0.381806,0.252056464,-0.205892823,0.339019,0.221472447,-0.189102779,0.314061,0.205597208,-0.183874888,0.302488,0.250870993,-0.275187888,0.379076,0.243829827,-0.215902617,0.344464,0.22163667,-0.192269175,0.326756,0.20403261,-0.189686603,0.316311,0.224652612,-0.269374635,0.383314,0.208446727,-0.221952936,0.353026,0.200978756,-0.200537739,0.33911,0.201154619,-0.180778495,0.326832
0.29646205,-0.296746222,0.458919,0.285340801,-0.288994924,0.419505,0.317657082,-0.301866877,0.45714,0.336497011,-0.275683154,0.441224,0.352969021,-0.25258014,0.428291,0.35022305,-0.231531471,0.414719,0.304982553,-0.290069969,0.390427,0.290587011,-0.225800017,0.357298,0.283916864,-0.197092974,0.340734,0.281030085,-0.174202186,0.330991,0.274680589,-0.281527867,0.381968,0.251953017,-0.206062643,0.33916,0.221391158,-0.189214292,0.314188,0.205536214,-0.183966783,0.302631,0.250662382,-0.275305439,0.379251,0.244206342,-0.216488045,0.344615,0.222151587,-0.192405992,0.326895,0.204453434,-0.189468938,0.316466,0.224481902,-0.269439533,0.383505,0.208338107,-0.222040697,0.353195,0.200897977,-0.200635898,0.339269,0.201105134,-0.180887469,0.326982
