sluyters/QuantumLeap/src/datasets/gesture/HandGestureDataset_SHREC2017_csv/Gesture5/finger_1/subject_23_essai_5_skeletons_world.csv
Wrist_x,Wrist_y,Wrist_z,Palm_x,Palm_y,Palm_z,thumb_base_x,thumb_base_y,thumb_base_z,thumb_first_joint_x,thumb_first_joint_y,thumb_first_joint_z,thumb_second_joint_x,thumb_second_joint_y,thumb_second_joint_z,thumb_tip_x,thumb_tip_y,thumb_tip_z,index_base_x,index_base_y,index_base_z,index_first_joint_x,index_first_joint_y,index_first_joint_z,index_second_joint_x,index_second_joint_y,index_second_joint_z,index_tip_x,index_tip_y,index_tip_z,middle_base_x,middle_base_y,middle_base_z,middle_first_joint_x,middle_first_joint_y,middle_first_joint_z,middle_second_joint_x,middle_second_joint_y,middle_second_joint_z,middle_tip_x,middle_tip_y,middle_tip_z,ring_base_x,ring_base_y,ring_base_z,ring_first_joint_x,ring_first_joint_y,ring_first_joint_z,ring_second_joint_x,ring_second_joint_y,ring_second_joint_z,ring_tip_x,ring_tip_y,ring_tip_z,pinky_base_x,pinky_base_y,pinky_base_z,pinky_first_joint_x,pinky_first_joint_y,pinky_first_joint_z,pinky_second_joint_x,pinky_second_joint_y,pinky_second_joint_z,pinky_tip_x,pinky_tip_y,pinky_tip_z,
0.320042774,-0.27306922,0.399816,0.293481289,-0.229620519,0.394023,0.301631574,-0.270510659,0.399299,0.265167906,-0.256663062,0.389907,0.228705081,-0.240325558,0.372054,0.210116939,-0.224787195,0.364951,0.257596625,-0.213922814,0.390809,0.218398169,-0.188357581,0.380435,0.200006812,-0.175634765,0.375248,0.190213918,-0.170242721,0.384312,0.272251792,-0.202817647,0.3899,0.243884774,-0.165838701,0.37782,0.232734621,-0.15934787,0.370773,0.225660652,-0.155105184,0.365739,0.287868265,-0.195899796,0.389574,0.259940536,-0.159456577,0.378187,0.251673174,-0.152833378,0.372362,0.24388324,-0.146544495,0.367066,0.31045187,-0.192370492,0.389961,0.289389,-0.160729246,0.380356,0.282062568,-0.152572858,0.375943,0.275449464,-0.14514058,0.372049
0.321314901,-0.273996842,0.40176,0.288717885,-0.226811811,0.390975,0.301256144,-0.270318391,0.399483,0.262018234,-0.255437631,0.387062,0.225787563,-0.238522838,0.369192,0.204845168,-0.224412796,0.360089,0.245438325,-0.206919766,0.383349,0.206197463,-0.177768284,0.368604,0.187140649,-0.163816263,0.361232,0.176304707,-0.156882639,0.367812,0.265311483,-0.19853505,0.383301,0.232385366,-0.158470218,0.366631,0.223471635,-0.153801544,0.356907,0.224130309,-0.16078531,0.349961,0.282655848,-0.192532448,0.384047,0.243090372,-0.160812887,0.368725,0.239289481,-0.158240819,0.360885,0.242784524,-0.161985609,0.353759,0.30673619,-0.19048148,0.386366,0.280861844,-0.158806872,0.372778,0.274116587,-0.152441393,0.366534,0.268090586,-0.146689446,0.361025
0.311928902,-0.265009247,0.388911,0.277205733,-0.219647418,0.378316,0.290401231,-0.261110074,0.385895,0.251325111,-0.246430746,0.372586,0.218249118,-0.234446003,0.360467,0.200696636,-0.22225973,0.354871,0.236637149,-0.200156233,0.369849,0.20587882,-0.176340989,0.368493,0.191716893,-0.166651316,0.3699,0.181091834,-0.160380344,0.373119,0.25574312,-0.190645799,0.370778,0.225493,-0.147348424,0.354113,0.21791173,-0.144143456,0.344392,0.224711352,-0.159601814,0.347707,0.273892491,-0.185761437,0.372314,0.247921539,-0.143614595,0.356643,0.242662984,-0.141580367,0.348625,0.243778776,-0.153516299,0.341336,0.299803818,-0.185479885,0.375541,0.278675798,-0.150267552,0.362551,0.274848271,-0.147453167,0.356583,0.271501263,-0.144956227,0.351317
0.319082441,-0.270944366,0.399193,0.272770707,-0.215957614,0.374004,0.2938265,-0.264923053,0.393594,0.244009694,-0.244664936,0.375393,0.211095959,-0.234342309,0.362091,0.194729878,-0.221955307,0.352633,0.224979555,-0.186349754,0.35584,0.198221715,-0.160578867,0.356506,0.184620458,-0.147479769,0.356839,0.172124421,-0.135445406,0.357141,0.244800945,-0.181323776,0.356081,0.209305583,-0.145534268,0.32716,0.202098693,-0.157076278,0.31029,0.211142022,-0.173195621,0.314098,0.26270959,-0.177264764,0.358112,0.234092685,-0.130219657,0.330789,0.223008228,-0.130545278,0.31681,0.228946546,-0.146493981,0.320771,0.290560529,-0.181002218,0.363871,0.270246997,-0.141818431,0.341532,0.262523789,-0.143252389,0.331269,0.256373751,-0.151482072,0.322212
0.325894828,-0.276192734,0.40905,0.275883177,-0.215900686,0.378356,0.292859695,-0.265599707,0.400037,0.244783517,-0.243741943,0.377831,0.209429773,-0.22788762,0.36218,0.188343154,-0.216723035,0.350448,0.229748961,-0.178093975,0.353479,0.205108753,-0.149705197,0.353138,0.19254319,-0.135227057,0.352968,0.180973511,-0.121896007,0.352813,0.251638421,-0.173801176,0.356516,0.218623736,-0.142067781,0.322905,0.213106913,-0.151546087,0.303298,0.220357034,-0.165915001,0.303954,0.272584079,-0.174021021,0.361249,0.251570381,-0.153592581,0.329669,0.241720761,-0.164530276,0.313512,0.241943753,-0.173298757,0.314211,0.302852321,-0.181341914,0.370933,0.279143648,-0.16147325,0.344268,0.273062671,-0.169155379,0.332016,0.275016661,-0.176248315,0.331908
0.316834614,-0.268955263,0.40711,0.273976875,-0.205743779,0.373521,0.284678294,-0.255144439,0.396806,0.239550228,-0.228760363,0.374178,0.205076813,-0.213738096,0.35696,0.184313437,-0.198281503,0.345393,0.226897806,-0.164712684,0.345745,0.205997453,-0.130224086,0.339958,0.195243451,-0.1127236,0.337064,0.184762836,-0.0977583775,0.334433,0.24993334,-0.16334238,0.349621,0.219469583,-0.140408041,0.313828,0.207945979,-0.151827018,0.292949,0.210833107,-0.162170213,0.29165,0.271895634,-0.166056378,0.355254,0.243876405,-0.143753147,0.321461,0.233484393,-0.154399436,0.304171,0.233659237,-0.16478923,0.302768,0.301212746,-0.177874125,0.366389,0.268399835,-0.139470213,0.338084,0.258190842,-0.138123754,0.325079,0.259089605,-0.148593779,0.323479
0.310984938,-0.262778059,0.406685,0.27325175,-0.200220624,0.37288,0.282592024,-0.249753682,0.396715,0.23830201,-0.226514889,0.373657,0.203679654,-0.211186189,0.356541,0.182971133,-0.195763738,0.345046,0.226169348,-0.163151266,0.345428,0.204601419,-0.127389532,0.336625,0.193587924,-0.109318194,0.332224,0.183265555,-0.095501911,0.328223,0.248910677,-0.161366212,0.348826,0.218984613,-0.130796511,0.312921,0.206312683,-0.144456226,0.291977,0.209795025,-0.155760286,0.290635,0.270579432,-0.16374594,0.354083,0.243330962,-0.143099987,0.320342,0.233231872,-0.153736353,0.303079,0.233333165,-0.163394439,0.301678,0.301626087,-0.173868946,0.364801,0.266120633,-0.139142283,0.336512,0.257100238,-0.141609543,0.323514,0.259609455,-0.152228195,0.321908
0.306359274,-0.258420378,0.402913,0.270276243,-0.195838122,0.368226,0.276598898,-0.241021803,0.392542,0.230155661,-0.215722755,0.370256,0.195520528,-0.199631682,0.353533,0.175213283,-0.183463911,0.342124,0.227811737,-0.151002659,0.339881,0.208775816,-0.112727779,0.329951,0.198646501,-0.0956789756,0.324986,0.189177666,-0.0796084163,0.320472,0.251288569,-0.152302269,0.343545,0.222173023,-0.12574452,0.307011,0.208619624,-0.138497441,0.285699,0.206213156,-0.148364367,0.283693,0.273056694,-0.15736931,0.349085,0.246412127,-0.139730349,0.314696,0.231790526,-0.150505615,0.297102,0.230224452,-0.158015196,0.294988,0.299660533,-0.171444398,0.360255,0.269717666,-0.13717261,0.331499,0.261675593,-0.140578735,0.318287,0.261462842,-0.150647149,0.316176
0.302341483,-0.250088373,0.401346,0.271489292,-0.188023106,0.365613,0.275938733,-0.237260585,0.391077,0.23430313,-0.207075562,0.368625,0.199875941,-0.189996881,0.351545,0.17960008,-0.17420571,0.339111,0.229757981,-0.145267657,0.336933,0.215233975,-0.105011409,0.324846,0.207322417,-0.0872771702,0.318803,0.199982334,-0.0705616167,0.313308,0.253046252,-0.146464618,0.340189,0.223740289,-0.119505817,0.30299,0.206862187,-0.134452764,0.281291,0.205958606,-0.143003046,0.278609,0.274752111,-0.151380567,0.345468,0.245578018,-0.139050004,0.310618,0.232573525,-0.149264925,0.292788,0.227684416,-0.155183334,0.290014,0.30505006,-0.164620646,0.35647,0.268730483,-0.13375278,0.327359,0.260307349,-0.137547946,0.313984,0.262576306,-0.147637716,0.311398
0.300617764,-0.247268197,0.399509,0.274906063,-0.183271588,0.363679,0.272865928,-0.227738633,0.38775,0.231544532,-0.198322535,0.365179,0.197984087,-0.179151362,0.348486,0.178704751,-0.162561655,0.336368,0.237295783,-0.137830401,0.333089,0.220923947,-0.0970092259,0.319244,0.212748877,-0.0831809989,0.312322,0.205247189,-0.0710968211,0.306029,0.261791117,-0.142667689,0.338184,0.234853478,-0.118312408,0.300834,0.217502842,-0.131463992,0.279046,0.214189676,-0.139842208,0.275787,0.283992304,-0.150682243,0.344984,0.257424573,-0.13972852,0.309413,0.242813328,-0.149589885,0.291214,0.239032116,-0.15351607,0.287658,0.31394231,-0.167789821,0.357796,0.284133697,-0.133455768,0.328256,0.274594493,-0.136701072,0.314684,0.274410624,-0.147238696,0.311575
0.298641947,-0.243984536,0.396078,0.276849798,-0.180781868,0.358221,0.272783615,-0.224759424,0.385238,0.236951163,-0.194883298,0.364386,0.204247647,-0.175092601,0.34867,0.181507526,-0.160075765,0.33562,0.241796655,-0.13769479,0.327885,0.225375241,-0.0956801736,0.310404,0.215224785,-0.0827845657,0.301663,0.205725364,-0.0718027861,0.293717,0.264877139,-0.143960303,0.331284,0.233408561,-0.120193077,0.292766,0.212321093,-0.132521642,0.270298,0.207230559,-0.137137012,0.265832,0.285884621,-0.153083976,0.336836,0.253489268,-0.145944083,0.300769,0.236585265,-0.154318472,0.282317,0.232811555,-0.155410927,0.277677,0.314314218,-0.171339314,0.348443,0.283701576,-0.138476892,0.318482,0.271203103,-0.141855805,0.304716,0.268874968,-0.152238562,0.300812
0.296546372,-0.239715049,0.394463,0.280908233,-0.180126259,0.357102,0.27156188,-0.21782145,0.381373,0.23241397,-0.183587814,0.360314,0.201696969,-0.161159519,0.344944,0.184541089,-0.14311313,0.333325,0.249092303,-0.131778634,0.324168,0.239398606,-0.0897102293,0.305198,0.232434155,-0.0801949907,0.295713,0.226128883,-0.0711733568,0.28709,0.273278374,-0.142383663,0.330518,0.248544109,-0.120423393,0.292317,0.223358033,-0.132031021,0.270033,0.214739682,-0.137902884,0.264892,0.294512428,-0.154941833,0.338462,0.264705026,-0.145038958,0.301744,0.244892556,-0.153914015,0.282958,0.235088329,-0.155666508,0.277321,0.320092219,-0.175247006,0.352829,0.300591735,-0.137276373,0.322586,0.287849452,-0.139696565,0.30869,0.281411198,-0.149556112,0.304134
0.296160941,-0.238552276,0.394444,0.281232274,-0.179609112,0.356712,0.271617599,-0.216482629,0.38142,0.232232693,-0.183505925,0.359794,0.201220612,-0.160869848,0.343842,0.183901297,-0.142724336,0.331832,0.249181989,-0.131982863,0.323698,0.23923196,-0.0898345284,0.304179,0.232232701,-0.0804447131,0.294419,0.225906719,-0.0715587564,0.285547,0.273175329,-0.142522461,0.329865,0.248608189,-0.12090705,0.291456,0.223663982,-0.132087013,0.269051,0.214388088,-0.139163197,0.263635,0.294223519,-0.155003259,0.337687,0.264601841,-0.145411102,0.300843,0.244631966,-0.154103621,0.281992,0.235169209,-0.155465691,0.276088,0.321359363,-0.176899464,0.351958,0.301443675,-0.138590658,0.323155,0.289288981,-0.141776184,0.309921,0.28502834,-0.152753723,0.307769
0.292724805,-0.234337973,0.389454,0.28418864,-0.17647912,0.353643,0.269040164,-0.210206309,0.375731,0.23594453,-0.175184567,0.35538,0.207289517,-0.152389203,0.341884,0.194827805,-0.133554153,0.334061,0.258385073,-0.12884868,0.320603,0.248518941,-0.0903449341,0.295402,0.241616397,-0.081891758,0.282802,0.235484669,-0.0740282237,0.271347,0.282753545,-0.141022199,0.328162,0.266693889,-0.115296116,0.290956,0.239384295,-0.126489934,0.269253,0.227769331,-0.133115737,0.264878,0.303717091,-0.154690851,0.336988,0.27690588,-0.146208337,0.300774,0.255413997,-0.15490229,0.282245,0.24657722,-0.157143246,0.277281,0.330011517,-0.1776784,0.352191,0.312489439,-0.140798715,0.323508,0.300817951,-0.143632389,0.310329,0.295721678,-0.154610633,0.308113
0.291483132,-0.228296509,0.386672,0.295035352,-0.176804402,0.357901,0.270347363,-0.206124668,0.374119,0.242840547,-0.168008869,0.35434,0.215631779,-0.142156682,0.338875,0.200674861,-0.123540839,0.326643,0.275900597,-0.130493013,0.329443,0.267007502,-0.0924500654,0.302454,0.260336605,-0.0840390067,0.28896,0.254452315,-0.0762445007,0.276692,0.299843642,-0.144631077,0.337429,0.275633269,-0.147893636,0.305065,0.245539196,-0.155077553,0.286186,0.240815639,-0.153624476,0.286527,0.319613287,-0.159596723,0.346095,0.297744696,-0.155608709,0.31427,0.275887704,-0.16557824,0.297988,0.267213908,-0.169632835,0.297925,0.342932152,-0.183439443,0.360169,0.325425308,-0.169200353,0.333493,0.308741399,-0.176763619,0.321237,0.303464811,-0.182874278,0.320636
0.289261619,-0.221100198,0.380091,0.300517464,-0.164061368,0.346984,0.272577041,-0.195233471,0.36568,0.242064067,-0.161540937,0.342113,0.220236682,-0.136327768,0.331998,0.209380731,-0.118395449,0.326244,0.273194755,-0.116786029,0.314279,0.261580158,-0.0884848846,0.280422,0.260888127,-0.0759187197,0.26882,0.255235668,-0.0782882593,0.258273,0.298192602,-0.130051583,0.323427,0.267619854,-0.140563631,0.288105,0.260910141,-0.157547163,0.296377,0.269687013,-0.1597346,0.31175,0.31929139,-0.144546462,0.333365,0.292923936,-0.149015989,0.298331,0.262669727,-0.151476003,0.280406,0.252225822,-0.145701936,0.276579,0.345072628,-0.168396538,0.349519,0.313342206,-0.165369484,0.320705,0.286159449,-0.163613439,0.307466,0.273972377,-0.160081458,0.304252
0.30089699,-0.213694525,0.37958,0.310564902,-0.161654799,0.346962,0.285096365,-0.18948899,0.363845,0.252469641,-0.154974704,0.339051,0.228581722,-0.129181981,0.32773,0.216573064,-0.110043694,0.319119,0.282697388,-0.114827786,0.312815,0.270796108,-0.0949807145,0.279076,0.268381127,-0.0861577002,0.265659,0.258103646,-0.0937901376,0.253461,0.308681271,-0.128372993,0.323753,0.280916041,-0.139307703,0.289148,0.270940072,-0.156538454,0.295528,0.276739701,-0.159492713,0.310048,0.330565865,-0.143043157,0.335129,0.303664321,-0.149809836,0.300186,0.275395866,-0.155738256,0.282308,0.2538298,-0.157517753,0.277249,0.357177504,-0.166986725,0.352915,0.341960133,-0.167248021,0.324401,0.313915913,-0.164256949,0.311301,0.300189814,-0.15859924,0.307265
0.311426089,-0.211112108,0.378807,0.320377924,-0.160931486,0.34568,0.295077913,-0.187765224,0.362988,0.262404922,-0.154422294,0.338124,0.237715016,-0.128354052,0.326071,0.226284262,-0.109604064,0.318455,0.291624258,-0.113944632,0.311203,0.279197418,-0.0938916701,0.277162,0.27713618,-0.0851178762,0.264067,0.267021794,-0.0928121943,0.252162,0.317748973,-0.127467483,0.32211,0.289269066,-0.138145449,0.287204,0.278629854,-0.155078727,0.293001,0.284482298,-0.158057895,0.307447,0.33983385,-0.142141991,0.333496,0.312272994,-0.148681062,0.298298,0.284733752,-0.15484584,0.280289,0.265001943,-0.157560875,0.274784,0.366832624,-0.16614105,0.351363,0.351223826,-0.166229726,0.322672,0.322614235,-0.163198945,0.309489,0.30818746,-0.157414992,0.305139
0.317605604,-0.211803511,0.377282,0.326036696,-0.17283759,0.346019,0.297218103,-0.189054932,0.362126,0.268491268,-0.157725467,0.337953,0.24602409,-0.128854608,0.32413,0.238876893,-0.109404922,0.317648,0.302125589,-0.124881012,0.313196,0.266277363,-0.1301799,0.278871,0.261315538,-0.148604695,0.285317,0.267371432,-0.161122528,0.301436,0.327711617,-0.142254751,0.323774,0.288044534,-0.152274095,0.289919,0.279818816,-0.168604426,0.298272,0.290213762,-0.171505483,0.313141,0.349047384,-0.160056078,0.334753,0.309299745,-0.168157941,0.300587,0.27794216,-0.167103944,0.283106,0.270472963,-0.159530648,0.279537,0.374341069,-0.187524235,0.351892,0.344459492,-0.185023346,0.323877,0.321351064,-0.187717865,0.311005,0.31082108,-0.192645142,0.308014
0.313765771,-0.209836602,0.370029,0.323478243,-0.172515354,0.339891,0.298447925,-0.188685824,0.355847,0.270593391,-0.15655393,0.33141,0.251157001,-0.127626175,0.319104,0.24673305,-0.108711649,0.314489,0.306310217,-0.129397054,0.308787,0.292794323,-0.117880583,0.276318,0.28624553,-0.112145578,0.260083,0.279655322,-0.124079437,0.25821,0.330257304,-0.146736791,0.318447,0.290041309,-0.157948271,0.28521,0.281806196,-0.173024438,0.295582,0.290004524,-0.172492685,0.310732,0.349885189,-0.164170172,0.32859,0.310039926,-0.173262953,0.295258,0.27699476,-0.172252023,0.278205,0.267065811,-0.167436751,0.276178,0.372650496,-0.190570835,0.34459,0.343699921,-0.1898887,0.317084,0.319091588,-0.191597497,0.304447,0.306794172,-0.192335306,0.302527
0.314837647,-0.210311103,0.364976,0.324358394,-0.174214512,0.333479,0.297184458,-0.187767129,0.351246,0.274581891,-0.155096896,0.328236,0.256630602,-0.125369047,0.316327,0.252958952,-0.106360824,0.311481,0.310530758,-0.131323506,0.30234,0.287487627,-0.116205889,0.268906,0.278794524,-0.109830605,0.252189,0.272427715,-0.122131906,0.249942,0.332234237,-0.149159698,0.311068,0.293805016,-0.15722916,0.276773,0.282997126,-0.175474418,0.286937,0.288370763,-0.180918352,0.302532,0.349865869,-0.166776166,0.320544,0.30665018,-0.17413294,0.286555,0.272272315,-0.173919241,0.269166,0.257820046,-0.170164375,0.266847,0.370127476,-0.193038905,0.335937,0.331990511,-0.19099596,0.307845,0.323204831,-0.190411452,0.313369,0.332319534,-0.192767713,0.325398
0.315238642,-0.209185204,0.367276,0.325760575,-0.176601284,0.331433,0.299826422,-0.187340631,0.352115,0.281953024,-0.149047878,0.32999,0.266715643,-0.118453663,0.315209,0.265588949,-0.0993002485,0.307639,0.306440511,-0.139508506,0.296578,0.290004045,-0.133301169,0.262623,0.281818974,-0.130214825,0.245646,0.268364469,-0.139579737,0.239834,0.326540865,-0.15846932,0.30593,0.28774534,-0.163399224,0.269106,0.27131022,-0.174033402,0.273652,0.276269772,-0.175238281,0.288399,0.343051227,-0.176155234,0.316235,0.285564027,-0.181218782,0.279812,0.275033089,-0.17930318,0.283465,0.285725928,-0.182065162,0.299631,0.362393166,-0.200849334,0.333187,0.31630542,-0.199615513,0.303466,0.305865672,-0.205127958,0.305529,0.30483691,-0.206927185,0.316789
0.320009787,-0.208977347,0.367911,0.327327557,-0.177653735,0.331762,0.309497613,-0.185541882,0.352817,0.290960959,-0.144043181,0.330754,0.274020721,-0.113232875,0.312829,0.270482537,-0.0934719245,0.301401,0.314020813,-0.143674341,0.296855,0.295363703,-0.142372014,0.263668,0.286056271,-0.141740056,0.247074,0.271700756,-0.149824022,0.241358,0.3313405,-0.164346455,0.30604,0.268248677,-0.167968541,0.269023,0.256939265,-0.164904285,0.273345,0.272692002,-0.16284219,0.288092,0.345487531,-0.182972679,0.31623,0.284043767,-0.182464765,0.279688,0.27375127,-0.179511926,0.28316,0.283927778,-0.181875732,0.299302,0.361942624,-0.20792787,0.333088,0.317739052,-0.2074372,0.303272,0.307536054,-0.213083229,0.305198,0.305407791,-0.210629038,0.316439
0.319786397,-0.207987794,0.363386,0.334649584,-0.181762257,0.325904,0.309171352,-0.184518432,0.34895,0.296088087,-0.148334273,0.324801,0.276452479,-0.117363773,0.304752,0.268706176,-0.09716692,0.290863,0.318432467,-0.140347575,0.291231,0.290382762,-0.139198391,0.257404,0.278942803,-0.138439865,0.24049,0.261912675,-0.145007517,0.234368,0.335761021,-0.161140421,0.299234,0.273325126,-0.16309099,0.261284,0.260900529,-0.165145704,0.265203,0.27012957,-0.162111027,0.28016,0.350028685,-0.180530019,0.308548,0.289150721,-0.18028654,0.271547,0.277494507,-0.177884672,0.274708,0.281118198,-0.184875498,0.290912,0.366755665,-0.207621225,0.324549,0.311134912,-0.200941255,0.294306,0.29840597,-0.203069522,0.295988,0.298417059,-0.20973558,0.307284
0.320525648,-0.207508756,0.364199,0.341909072,-0.184208244,0.331175,0.316035229,-0.183671681,0.35133,0.306569588,-0.146096642,0.331121,0.293456254,-0.113669966,0.31466,0.287289245,-0.0936938881,0.301909,0.338444479,-0.144794323,0.300437,0.293829655,-0.146412193,0.269835,0.271659928,-0.146998987,0.254534,0.255431421,-0.155247422,0.253126,0.350870717,-0.167007921,0.307677,0.292630233,-0.16561631,0.272221,0.280011405,-0.173202143,0.282312,0.292554638,-0.176517554,0.298305,0.360445671,-0.18712035,0.316038,0.304570583,-0.184129025,0.281478,0.293028198,-0.187953266,0.289737,0.296767216,-0.195355729,0.306991,0.371846335,-0.212830683,0.330319,0.331529513,-0.206849145,0.301668,0.323176839,-0.207011129,0.30715,0.325605232,-0.206712322,0.319359
0.328986999,-0.21155785,0.361389,0.346198256,-0.19605446,0.32619,0.324517674,-0.187861789,0.348742,0.317464538,-0.155205263,0.329297,0.307885018,-0.123306895,0.314221,0.302324675,-0.103554132,0.301592,0.340360289,-0.158130602,0.294768,0.285075159,-0.153270838,0.261725,0.257964093,-0.150441075,0.245203,0.239674226,-0.155307208,0.242234,0.350365445,-0.181274309,0.301144,0.283909384,-0.172744299,0.264214,0.271082019,-0.175371563,0.272872,0.287621448,-0.18182024,0.288949,0.358221756,-0.202037476,0.308953,0.293663222,-0.191779004,0.273351,0.283246465,-0.193310491,0.280446,0.289210448,-0.199896042,0.297656,0.366673682,-0.229660899,0.322872,0.320504708,-0.216855044,0.293396,0.311147197,-0.213218902,0.297995,0.318067662,-0.21306684,0.310153
0.32841984,-0.211090433,0.358886,0.342977449,-0.198022544,0.323726,0.324061443,-0.1878267,0.345592,0.316277458,-0.153971391,0.324614,0.313628599,-0.123753686,0.308721,0.309968044,-0.105071277,0.295593,0.339461933,-0.167893921,0.291511,0.282094997,-0.159771994,0.258491,0.254037128,-0.155350664,0.241981,0.235211765,-0.155069995,0.238636,0.346489625,-0.191646629,0.298709,0.278389151,-0.178611436,0.261854,0.267187896,-0.177110347,0.269905,0.283288806,-0.181521173,0.285759,0.351866512,-0.212366874,0.307191,0.28586673,-0.197495029,0.271399,0.275520116,-0.195670428,0.277978,0.284333373,-0.19919355,0.295059,0.357363296,-0.238958387,0.3219,0.310941054,-0.223914695,0.292354,0.302590738,-0.218075455,0.296575,0.309193624,-0.213644268,0.308609
0.329833903,-0.209162358,0.354509,0.337481897,-0.201216193,0.317383,0.330769777,-0.190902022,0.341684,0.327453608,-0.156393896,0.318506,0.316494522,-0.12599143,0.29811,0.314592645,-0.108837903,0.283376,0.337698269,-0.175869741,0.284884,0.273989056,-0.157542825,0.252219,0.241564005,-0.150697545,0.235887,0.224487314,-0.150653505,0.231819,0.338959378,-0.199028617,0.290966,0.264588905,-0.175109697,0.252869,0.254782782,-0.172440764,0.259516,0.272613059,-0.176413158,0.275383,0.340030946,-0.218793031,0.298673,0.289824132,-0.200681945,0.262709,0.264252857,-0.191311328,0.244308,0.240215862,-0.187486282,0.239253,0.3412861,-0.243420134,0.312728,0.293340065,-0.223423293,0.282579,0.286592751,-0.21475259,0.285942,0.298025912,-0.212447346,0.297857
0.338207637,-0.209554618,0.349774,0.337547329,-0.20414679,0.311875,0.339560433,-0.189068813,0.334733,0.331813085,-0.155176087,0.308892,0.316742596,-0.126155548,0.286543,0.311951487,-0.110149929,0.270202,0.331423146,-0.182189949,0.276258,0.25890808,-0.161380868,0.242894,0.225321183,-0.150878155,0.226212,0.206776801,-0.142072858,0.21881,0.334151098,-0.205594184,0.284908,0.254152977,-0.177141318,0.247128,0.244293232,-0.166259002,0.248787,0.261222372,-0.171071693,0.262973,0.337173794,-0.225004305,0.294785,0.281195693,-0.207554994,0.258539,0.252909898,-0.198377411,0.239994,0.225869942,-0.189269026,0.231593,0.341049201,-0.245332619,0.311506,0.287468716,-0.226476354,0.281413,0.281644158,-0.212820469,0.281716,0.291973479,-0.212446027,0.292425
0.363453284,-0.230808476,0.349,0.342035144,-0.218699283,0.307777,0.361916943,-0.210836375,0.336959,0.351291825,-0.174420691,0.316378,0.340823502,-0.143621,0.298678,0.336177148,-0.126049796,0.283281,0.330784965,-0.188299174,0.274446,0.256609798,-0.158908431,0.241135,0.221770669,-0.143269353,0.224479,0.2005368,-0.137789138,0.213064,0.326904657,-0.210160144,0.278445,0.247174003,-0.172123324,0.241213,0.233115682,-0.161204518,0.236454,0.253492121,-0.171511905,0.248429,0.325250411,-0.229026724,0.284736,0.264460322,-0.196956567,0.248783,0.234179512,-0.180680136,0.230389,0.204767185,-0.166326172,0.217877,0.326136027,-0.252886104,0.297665,0.270388379,-0.220223192,0.268675,0.263657853,-0.203814753,0.2651,0.274998775,-0.203959184,0.273916
0.36314457,-0.231434951,0.346546,0.340586669,-0.220065176,0.30572,0.360906409,-0.211416839,0.334009,0.351479128,-0.177710289,0.312245,0.340558562,-0.14722728,0.293892,0.332592093,-0.126859983,0.278652,0.328178421,-0.19329475,0.271945,0.25436274,-0.158870526,0.23935,0.220717138,-0.145714887,0.223052,0.199499638,-0.137083676,0.21151,0.324536741,-0.215396847,0.276671,0.245377242,-0.172433038,0.240032,0.232541814,-0.163132399,0.234766,0.252026069,-0.171894204,0.246366,0.323571063,-0.23118543,0.283532,0.258954812,-0.200735495,0.248,0.227301632,-0.183763477,0.229821,0.201495908,-0.167031813,0.217083,0.325222476,-0.255223687,0.29708,0.269239466,-0.221232086,0.26828,0.261455479,-0.206715715,0.264386,0.273200457,-0.20768717,0.273012
0.363399456,-0.235394015,0.34611,0.341296418,-0.233436714,0.305625,0.360449566,-0.215066953,0.333007,0.349353045,-0.186977261,0.310358,0.337336321,-0.156041839,0.291105,0.327686724,-0.137790697,0.275412,0.327189712,-0.203368964,0.271292,0.253271501,-0.17049794,0.239192,0.219532288,-0.154930466,0.223142,0.200565976,-0.145438131,0.211855,0.324745216,-0.226150656,0.276819,0.244907637,-0.184752422,0.240805,0.233731277,-0.173834908,0.23575,0.253530493,-0.182487548,0.247191,0.324378905,-0.245700397,0.284313,0.259025178,-0.211513153,0.248835,0.226957948,-0.194215897,0.230683,0.199031675,-0.178152935,0.218073,0.327011702,-0.270151272,0.298566,0.27012572,-0.233802254,0.269685,0.262162323,-0.218384182,0.265893,0.273451738,-0.218457827,0.274586
0.365222756,-0.243070785,0.345604,0.340893012,-0.237091621,0.305396,0.362760582,-0.228026214,0.332973,0.352116828,-0.19729793,0.309462,0.340652796,-0.167492603,0.289445,0.331234193,-0.150373744,0.27349,0.32556962,-0.210469365,0.271775,0.252067333,-0.175665686,0.240108,0.219775479,-0.157571021,0.224275,0.200338513,-0.147332398,0.211996,0.322317656,-0.232875035,0.276787,0.243507096,-0.189510335,0.241447,0.233579265,-0.178049287,0.23464,0.2540389,-0.187413045,0.244856,0.321490855,-0.252165702,0.283837,0.255606835,-0.215809673,0.249078,0.225512865,-0.196145396,0.231294,0.197209889,-0.179021562,0.217735,0.323958787,-0.276415194,0.297527,0.267675395,-0.238560092,0.269523,0.258630627,-0.222095858,0.264693,0.269989306,-0.218984383,0.272676
0.364531388,-0.251176728,0.344118,0.336880735,-0.248569041,0.304318,0.362895447,-0.235798512,0.331571,0.353204246,-0.205795054,0.307874,0.343195113,-0.176479039,0.287886,0.334280642,-0.159717244,0.272035,0.322095317,-0.219515556,0.270984,0.251079427,-0.177835677,0.239859,0.218533631,-0.160757412,0.224297,0.199435471,-0.149769819,0.211561,0.316727841,-0.241036697,0.275998,0.241470712,-0.190815115,0.240798,0.231205426,-0.178537719,0.233012,0.251530667,-0.188513442,0.243171,0.314361027,-0.259505283,0.283021,0.249965885,-0.219582664,0.248962,0.221195145,-0.198723221,0.231537,0.193636541,-0.180180805,0.217547,0.315380829,-0.282650503,0.296625,0.261482399,-0.241728873,0.269184,0.255669376,-0.222915221,0.26379,0.265553063,-0.221768636,0.271356
0.365179765,-0.252585168,0.342868,0.337629133,-0.250157318,0.303878,0.362911549,-0.236521067,0.329402,0.352910377,-0.2060261,0.304924,0.344244918,-0.179760084,0.283712,0.332782456,-0.161152444,0.268616,0.320724174,-0.225809036,0.269752,0.250542223,-0.182558954,0.239929,0.219153721,-0.164316549,0.225018,0.200940579,-0.151500872,0.212609,0.316048906,-0.247092437,0.276136,0.241555179,-0.195384244,0.242215,0.232807551,-0.182236334,0.234411,0.252861311,-0.192461093,0.243971,0.315136723,-0.262838617,0.284227,0.250618396,-0.223033781,0.250685,0.218108615,-0.204988884,0.233523,0.194470768,-0.182718215,0.219627,0.317550426,-0.286001526,0.298984,0.263734626,-0.244712287,0.271676,0.255929041,-0.227021956,0.266233,0.267234397,-0.224168783,0.273734
0.362072375,-0.255345897,0.338266,0.332064866,-0.251884926,0.300068,0.358399333,-0.235976724,0.324725,0.348095924,-0.21107028,0.299629,0.337374807,-0.182847103,0.279252,0.328982222,-0.164596362,0.264008,0.310435439,-0.228142471,0.266198,0.243106106,-0.18510121,0.237503,0.215557177,-0.165113024,0.223155,0.198303963,-0.150657219,0.210381,0.30519507,-0.249378758,0.272889,0.234063433,-0.19707058,0.240121,0.227791059,-0.180977754,0.231268,0.247835589,-0.190700525,0.239877,0.303390741,-0.267361475,0.281174,0.239848783,-0.224715473,0.248747,0.209274912,-0.203697251,0.232156,0.187898546,-0.182477384,0.217869,0.305907552,-0.289521381,0.296056,0.254269179,-0.245783848,0.269512,0.246139434,-0.226982457,0.263439,0.254730674,-0.223353381,0.270426
0.300100973,-0.287687737,0.336954,0.322291381,-0.258643912,0.314863,0.297896527,-0.26335941,0.330229,0.278288129,-0.253951862,0.310911,0.252882497,-0.244608976,0.287134,0.242138107,-0.24102397,0.272079,0.327092976,-0.216758365,0.296661,0.324540095,-0.190970573,0.272066,0.318416977,-0.181306745,0.259768,0.31638538,-0.191896242,0.264874,0.336792142,-0.238292175,0.299145,0.295601253,-0.230200568,0.272408,0.291800367,-0.251785763,0.290617,0.302655535,-0.263813587,0.307143,0.34348636,-0.258623415,0.302796,0.303532795,-0.247995675,0.277585,0.271256902,-0.239412362,0.264686,0.260824327,-0.240919922,0.269964,0.348682064,-0.287309088,0.310056,0.313926122,-0.26605322,0.288328,0.311858048,-0.267265578,0.29894,0.312448454,-0.270424888,0.310702
0.295663863,-0.289602454,0.339618,0.297261125,-0.255669536,0.306064,0.30097912,-0.269984049,0.338391,0.295918256,-0.257476681,0.32708,0.286530882,-0.262071222,0.318402,0.282167104,-0.262565717,0.30719,0.308832469,-0.21795953,0.289672,0.305782562,-0.186820677,0.262684,0.304925434,-0.172569938,0.24919,0.293618588,-0.161388766,0.244444,0.301998922,-0.231950012,0.28219,0.237624142,-0.195596791,0.247623,0.231089955,-0.209001526,0.255929,0.242641699,-0.218610962,0.261861,0.295938611,-0.246248199,0.278474,0.238096353,-0.214880002,0.24874,0.209601625,-0.199043501,0.233527,0.191113811,-0.200936745,0.231301,0.287760277,-0.268259197,0.27856,0.240709232,-0.236165781,0.254943,0.232332755,-0.237533493,0.259638,0.228740976,-0.244830409,0.26977
0.296711524,-0.292242957,0.343458,0.300206578,-0.257622451,0.308978,0.303625007,-0.273134387,0.342866,0.296357238,-0.256957455,0.327281,0.284809851,-0.259512981,0.316224,0.279120903,-0.258767746,0.303642,0.312688105,-0.220179241,0.29297,0.31066928,-0.189367869,0.266457,0.310033073,-0.174835503,0.2532,0.291526592,-0.159729209,0.242164,0.304605324,-0.233519326,0.284445,0.238715443,-0.19573044,0.248455,0.229739827,-0.207018579,0.254224,0.239501773,-0.215160655,0.258345,0.297556363,-0.247218899,0.279937,0.233810231,-0.210325784,0.2441,0.202831037,-0.19178465,0.225765,0.183619064,-0.188243774,0.220092,0.288324428,-0.26847991,0.279212,0.238961665,-0.233846543,0.253072,0.229151441,-0.23468049,0.256543,0.22561303,-0.243371432,0.26709
0.294488083,-0.291777772,0.343073,0.299955659,-0.258924869,0.309924,0.303728486,-0.27444597,0.344444,0.294900532,-0.25721836,0.32736,0.274461187,-0.256962284,0.312674,0.267470098,-0.262763521,0.30132,0.316069325,-0.22402231,0.296965,0.311131078,-0.191371797,0.2677,0.308561235,-0.176080241,0.253616,0.28873999,-0.160007909,0.240813,0.305417951,-0.235939749,0.286338,0.240620201,-0.19893846,0.25188,0.229703418,-0.208376865,0.255541,0.238224776,-0.215317587,0.258156,0.296140625,-0.248117809,0.280004,0.232958417,-0.211512706,0.244916,0.201323436,-0.193610567,0.226964,0.180406715,-0.190556835,0.220084,0.284182832,-0.267013636,0.276945,0.231985382,-0.229155873,0.247556,0.22200568,-0.229274943,0.2505,0.219521284,-0.238463846,0.261985
0.293967639,-0.292814929,0.343608,0.298603104,-0.259287143,0.309383,0.303134193,-0.27517645,0.344492,0.29158174,-0.256970091,0.325911,0.272539351,-0.25637119,0.312173,0.263146937,-0.258245232,0.298278,0.31279371,-0.22424718,0.295337,0.304338116,-0.191887045,0.26513,0.300898707,-0.175345269,0.250242,0.278577874,-0.159145232,0.236708,0.300610596,-0.237329002,0.285031,0.234236391,-0.198714171,0.250011,0.223223015,-0.206860193,0.252318,0.23346329,-0.212365834,0.253966,0.291073133,-0.249690251,0.279039,0.226511537,-0.211473917,0.243546,0.195406322,-0.19237249,0.225386,0.173287345,-0.188517255,0.217525,0.279049723,-0.26888739,0.276528,0.227013164,-0.228816332,0.246628,0.216592355,-0.227173754,0.248826,0.216945432,-0.236046344,0.260202
0.293342733,-0.293105879,0.34364,0.297915741,-0.259448316,0.30927,0.302598215,-0.275427659,0.344412,0.288788153,-0.256802587,0.325766,0.268846775,-0.255150157,0.312077,0.257158714,-0.253355674,0.298189,0.310852761,-0.224781742,0.295018,0.301061649,-0.190629401,0.264453,0.296623485,-0.173488491,0.24927,0.273292763,-0.156991268,0.235467,0.29983616,-0.236907002,0.284814,0.232977788,-0.19821901,0.24968,0.221717248,-0.206340409,0.251964,0.229462253,-0.212822036,0.253596,0.29043115,-0.249372088,0.278917,0.225433923,-0.211067738,0.243352,0.194186878,-0.191937271,0.225156,0.172191948,-0.188130787,0.217262,0.278620923,-0.268769837,0.276537,0.226678736,-0.228479778,0.246687,0.216032902,-0.226891046,0.248839,0.214711624,-0.235703408,0.260179
0.292694648,-0.293338901,0.343669,0.297169596,-0.259460672,0.309105,0.302026969,-0.27563114,0.344379,0.287754955,-0.256170725,0.325319,0.267134321,-0.254420765,0.311329,0.255108483,-0.252513635,0.297277,0.309937548,-0.2243275,0.294691,0.29979596,-0.190269813,0.263903,0.295177247,-0.173259004,0.248616,0.27166387,-0.156743184,0.234719,0.298979181,-0.23646084,0.284511,0.230749105,-0.197684143,0.249324,0.219246108,-0.205633284,0.251186,0.227490971,-0.211867258,0.252516,0.289646821,-0.248970062,0.278648,0.223306837,-0.210554821,0.243045,0.191858957,-0.191342268,0.224829,0.170803454,-0.187032178,0.216651,0.277964367,-0.268486681,0.276335,0.225437125,-0.228139013,0.246321,0.214422814,-0.226493562,0.248264,0.211545118,-0.234597171,0.25958
0.291961062,-0.293506018,0.34354,0.296373257,-0.259498675,0.308848,0.301363021,-0.275788924,0.344214,0.286751719,-0.25582443,0.324841,0.265702177,-0.254040411,0.310612,0.253618255,-0.251822065,0.296435,0.309060469,-0.224130984,0.294334,0.298667593,-0.190151337,0.263363,0.293887276,-0.173175705,0.247971,0.270224862,-0.156615912,0.233979,0.298121063,-0.236267545,0.284164,0.229922474,-0.197492689,0.248956,0.218109141,-0.205160445,0.250489,0.224863051,-0.211415437,0.251584,0.288820702,-0.248801102,0.278319,0.222522622,-0.21038851,0.242701,0.191075692,-0.191180101,0.224478,0.168513655,-0.186131812,0.216083,0.277201738,-0.268383102,0.276043,0.223534226,-0.227709814,0.245772,0.211301115,-0.22626226,0.247631,0.210096418,-0.234406629,0.259006
0.288766293,-0.293261025,0.343084,0.293286698,-0.25967623,0.308242,0.299919986,-0.275384604,0.343582,0.278361332,-0.251687005,0.324371,0.256095974,-0.247976952,0.310446,0.244307984,-0.242121933,0.296394,0.304826283,-0.222844385,0.293439,0.29804911,-0.190036936,0.263013,0.294078331,-0.173503532,0.247915,0.272484819,-0.157232951,0.234188,0.294211531,-0.235142316,0.283451,0.226529908,-0.196423575,0.248056,0.21496705,-0.204354204,0.249839,0.222105744,-0.210734429,0.251112,0.285211147,-0.247899385,0.277766,0.219493807,-0.209543031,0.242033,0.186409695,-0.191203017,0.223752,0.166142941,-0.185813293,0.215491,0.273996704,-0.267889179,0.275698,0.219859026,-0.227520238,0.245294,0.208563923,-0.226162276,0.247405,0.20685786,-0.234110719,0.258925
0.288225447,-0.293528437,0.343361,0.29191304,-0.259749973,0.308416,0.298129589,-0.275801831,0.343869,0.277585979,-0.251129275,0.324238,0.255064875,-0.246898926,0.309939,0.243139955,-0.24071365,0.295702,0.30078426,-0.22158374,0.293581,0.298372907,-0.190383175,0.263712,0.294925019,-0.17406967,0.248777,0.273660183,-0.15783615,0.235201,0.292044399,-0.234570077,0.283552,0.224533511,-0.196024688,0.248192,0.212758173,-0.203720159,0.249507,0.220657353,-0.209939052,0.250446,0.283104303,-0.247299692,0.277841,0.217548137,-0.209094307,0.24213,0.183471629,-0.190771546,0.22386,0.164086097,-0.185607639,0.2153,0.271985082,-0.267314249,0.275757,0.219892262,-0.226999249,0.245653,0.207241149,-0.223164961,0.247268,0.207283673,-0.230362577,0.258489
0.287979564,-0.293563251,0.343601,0.290961133,-0.259161653,0.308659,0.297893681,-0.275850832,0.344164,0.277900812,-0.250395935,0.324299,0.255378021,-0.245702199,0.309747,0.243472121,-0.23925988,0.295392,0.301081481,-0.22088491,0.293894,0.297845441,-0.189829105,0.263456,0.294271035,-0.173450125,0.248251,0.272823555,-0.157084848,0.234427,0.290595261,-0.233044599,0.283797,0.223217219,-0.194884622,0.248514,0.213412311,-0.203262807,0.249545,0.220167505,-0.209381909,0.250281,0.281732489,-0.245736433,0.27803,0.2162023,-0.20793082,0.24237,0.183727144,-0.190200645,0.224125,0.163599942,-0.18528572,0.215393,0.271838277,-0.266543439,0.275879,0.22105746,-0.225120645,0.247393,0.209920313,-0.221363224,0.248403,0.207163323,-0.226446875,0.25882
0.287257174,-0.293573425,0.343697,0.290746373,-0.258868761,0.308867,0.297280074,-0.275982715,0.344418,0.277885108,-0.249923307,0.324257,0.255083815,-0.244792267,0.309301,0.243050113,-0.238113867,0.294773,0.301355655,-0.220578188,0.29435,0.297707893,-0.189636244,0.264014,0.294930642,-0.173629705,0.248977,0.272941053,-0.15722106,0.235307,0.290756192,-0.232623762,0.284085,0.223454598,-0.19477782,0.249,0.212497315,-0.202772076,0.249628,0.219706738,-0.208878371,0.250077,0.281806068,-0.245208382,0.278172,0.216269783,-0.207690671,0.242643,0.18386632,-0.190049811,0.224465,0.163229234,-0.185112093,0.215503,0.270729143,-0.265069031,0.275834,0.220252774,-0.223861916,0.246481,0.209047947,-0.220162108,0.247446,0.205551824,-0.227127734,0.258151
0.286427867,-0.293626904,0.343664,0.29057113,-0.258636452,0.309008,0.296502084,-0.276127035,0.344516,0.278072074,-0.249816758,0.324461,0.255272162,-0.244597514,0.309476,0.243251399,-0.237873045,0.294953,0.301630916,-0.220474671,0.294732,0.297876369,-0.189565568,0.264369,0.295197186,-0.173623774,0.249334,0.273323799,-0.157217921,0.235665,0.29094703,-0.232446453,0.28435,0.223685132,-0.194790158,0.24939,0.212755455,-0.202863996,0.250082,0.219933981,-0.209045304,0.250576,0.281920917,-0.244953111,0.278327,0.216371069,-0.207604951,0.242875,0.184005473,-0.190016681,0.224737,0.163155888,-0.185205042,0.215834,0.270751403,-0.264692435,0.275836,0.220343667,-0.22373485,0.246577,0.209120918,-0.220098482,0.24757,0.205777043,-0.226787487,0.258252
0.285898662,-0.293614389,0.343637,0.29041728,-0.258440127,0.309099,0.295936075,-0.276132551,0.344572,0.278216439,-0.249763409,0.32462,0.255443387,-0.244511395,0.309648,0.243444958,-0.237770552,0.295145,0.301804434,-0.220398078,0.294977,0.297956353,-0.189477942,0.2646,0.295345586,-0.173580746,0.249565,0.273566851,-0.157178726,0.235897,0.291071484,-0.232325831,0.284524,0.223829711,-0.194790286,0.24964,0.212945387,-0.202934735,0.250413,0.220111946,-0.209176235,0.250966,0.282002183,-0.244786981,0.278435,0.21643796,-0.207547163,0.243029,0.184094649,-0.189990808,0.224914,0.163095245,-0.185268457,0.216075,0.270777714,-0.264452747,0.275849,0.220402147,-0.223662589,0.246639,0.209192235,-0.220089257,0.247677,0.205958878,-0.226595271,0.258359
0.285732934,-0.293582051,0.343369,0.290509169,-0.258309006,0.308931,0.295719908,-0.276119414,0.344412,0.280314431,-0.251346779,0.324332,0.255167672,-0.244036979,0.309147,0.242856045,-0.236965584,0.294556,0.303502638,-0.221223488,0.29499,0.2978518,-0.188496774,0.264755,0.294981273,-0.172063677,0.249756,0.273155923,-0.156296934,0.236121,0.291370836,-0.232093185,0.284427,0.224447979,-0.193415764,0.249678,0.212611985,-0.201678581,0.250255,0.219870859,-0.208736624,0.250667,0.282249968,-0.24446616,0.27824,0.216483025,-0.207229012,0.242924,0.184119037,-0.189690175,0.224855,0.162896461,-0.184962867,0.215911,0.27159497,-0.264499116,0.275526,0.220524093,-0.223333172,0.246445,0.209111527,-0.219601315,0.247344,0.206377479,-0.224909062,0.257927
0.285622097,-0.293680199,0.343167,0.290161927,-0.258044498,0.30883,0.295560002,-0.276222077,0.344288,0.279802385,-0.250876656,0.324253,0.255178179,-0.243889612,0.309035,0.242684154,-0.236625914,0.294441,0.303635898,-0.221104728,0.295032,0.297519608,-0.187985784,0.264827,0.294758777,-0.171495047,0.249854,0.273147846,-0.155808583,0.236242,0.291641539,-0.231955088,0.284399,0.225017978,-0.193113885,0.249729,0.212974534,-0.201501355,0.250323,0.219597688,-0.208484812,0.250747,0.282489277,-0.244271279,0.278146,0.216548573,-0.207021029,0.242881,0.184159534,-0.189488042,0.224838,0.162840391,-0.18483549,0.215916,0.271704883,-0.264232633,0.275341,0.220637692,-0.223124656,0.246336,0.20916257,-0.219367415,0.247235,0.206369612,-0.224627903,0.257792
0.285765091,-0.293873499,0.343093,0.289989909,-0.257838295,0.308784,0.295621909,-0.276388989,0.344249,0.279314776,-0.250443593,0.324142,0.255087155,-0.243680499,0.308828,0.242419136,-0.236234108,0.294192,0.30323414,-0.220690982,0.295042,0.297469058,-0.187429603,0.265007,0.294909502,-0.170811054,0.250117,0.273549009,-0.155285206,0.236582,0.291847006,-0.231843315,0.284372,0.22541311,-0.192886457,0.249751,0.213137342,-0.201264077,0.250245,0.219185954,-0.208044261,0.250597,0.282689077,-0.244131095,0.278086,0.216606162,-0.206865683,0.242855,0.18419526,-0.189335424,0.22483,0.162282896,-0.184678031,0.215851,0.271431824,-0.263719456,0.27524,0.220743305,-0.222988857,0.246277,0.209163309,-0.21915283,0.247109,0.206310914,-0.22435998,0.257625
0.286056021,-0.294023052,0.343081,0.289960281,-0.25757421,0.308791,0.295817982,-0.276502029,0.34426,0.279004129,-0.24998315,0.324119,0.255090674,-0.243586335,0.308755,0.242295581,-0.23600714,0.2941,0.302949199,-0.220204362,0.295086,0.297676253,-0.18734402,0.265167,0.295112772,-0.170692864,0.250335,0.273959501,-0.154608943,0.236852,0.292055264,-0.231788544,0.284393,0.225740276,-0.1927414,0.249801,0.213317692,-0.201129688,0.250247,0.218959051,-0.207618409,0.250564,0.282900017,-0.244062773,0.278088,0.216690406,-0.206777865,0.242877,0.18425527,-0.189245753,0.224862,0.161879828,-0.184499705,0.215856,0.27165989,-0.263666419,0.275216,0.220888168,-0.22294645,0.246301,0.209235787,-0.219061351,0.247096,0.206333968,-0.224226538,0.257581
0.28683551,-0.294348094,0.34316,0.29040886,-0.257493034,0.30885,0.296524842,-0.276794682,0.344357,0.279159297,-0.249824016,0.323989,0.254899719,-0.242979594,0.308408,0.241871701,-0.235092293,0.293652,0.303158197,-0.219911729,0.295158,0.297717424,-0.187196961,0.265184,0.295034431,-0.170463973,0.250304,0.273742217,-0.154291934,0.236776,0.292278217,-0.231424068,0.284437,0.226052202,-0.19267698,0.249903,0.213313293,-0.200881724,0.250074,0.218797391,-0.207006932,0.250196,0.283156141,-0.243677468,0.27811,0.216752707,-0.206428049,0.242944,0.184310641,-0.188906294,0.224952,0.161798088,-0.184017932,0.21578,0.271992294,-0.263321433,0.275214,0.220890909,-0.222798327,0.246194,0.209092508,-0.218777601,0.246848,0.206167459,-0.223919001,0.257315
0.287367211,-0.294742815,0.342987,0.29060331,-0.257377727,0.308704,0.296899585,-0.277135775,0.344235,0.279194028,-0.249841412,0.323665,0.255004816,-0.242367352,0.307861,0.242061299,-0.234029789,0.293007,0.303016281,-0.219518318,0.29509,0.297694681,-0.186645792,0.265248,0.295189459,-0.170306313,0.250465,0.273912531,-0.153728892,0.237027,0.292244428,-0.230956399,0.284312,0.225956712,-0.192642718,0.249873,0.213199448,-0.200488924,0.249781,0.218476651,-0.206528696,0.249716,0.283234997,-0.243190543,0.277936,0.21665366,-0.206217175,0.242841,0.184209756,-0.188809398,0.224886,0.161583583,-0.183854343,0.21556,0.27224616,-0.26288582,0.274978,0.22116152,-0.222471081,0.246097,0.209162669,-0.218312393,0.24657,0.206129229,-0.223362512,0.256918
0.287708886,-0.295313142,0.342792,0.290689533,-0.257476972,0.308566,0.297118216,-0.277672982,0.344107,0.279107895,-0.250066515,0.323368,0.254940848,-0.242029312,0.307353,0.242056038,-0.233280098,0.29241,0.302836161,-0.219379301,0.295058,0.297707789,-0.186340502,0.265403,0.295301937,-0.169919415,0.250716,0.274128475,-0.153364058,0.237363,0.292153513,-0.230727107,0.284212,0.226058843,-0.192473677,0.249885,0.21301795,-0.200306356,0.249559,0.218097917,-0.206282359,0.249326,0.283235832,-0.242926066,0.277776,0.21653652,-0.206183862,0.242764,0.184077038,-0.188901561,0.22485,0.161410654,-0.1839697,0.215392,0.272389102,-0.262650949,0.274741,0.221344257,-0.222330969,0.246009,0.209184152,-0.218024234,0.246318,0.206056603,-0.222973594,0.25655
