sluyters/QuantumLeap/src/datasets/gesture/HandGestureDataset_SHREC2017_csv/Gesture5/finger_1/subject_15_essai_1_skeletons_world.csv
Wrist_x,Wrist_y,Wrist_z,Palm_x,Palm_y,Palm_z,thumb_base_x,thumb_base_y,thumb_base_z,thumb_first_joint_x,thumb_first_joint_y,thumb_first_joint_z,thumb_second_joint_x,thumb_second_joint_y,thumb_second_joint_z,thumb_tip_x,thumb_tip_y,thumb_tip_z,index_base_x,index_base_y,index_base_z,index_first_joint_x,index_first_joint_y,index_first_joint_z,index_second_joint_x,index_second_joint_y,index_second_joint_z,index_tip_x,index_tip_y,index_tip_z,middle_base_x,middle_base_y,middle_base_z,middle_first_joint_x,middle_first_joint_y,middle_first_joint_z,middle_second_joint_x,middle_second_joint_y,middle_second_joint_z,middle_tip_x,middle_tip_y,middle_tip_z,ring_base_x,ring_base_y,ring_base_z,ring_first_joint_x,ring_first_joint_y,ring_first_joint_z,ring_second_joint_x,ring_second_joint_y,ring_second_joint_z,ring_tip_x,ring_tip_y,ring_tip_z,pinky_base_x,pinky_base_y,pinky_base_z,pinky_first_joint_x,pinky_first_joint_y,pinky_first_joint_z,pinky_second_joint_x,pinky_second_joint_y,pinky_second_joint_z,pinky_tip_x,pinky_tip_y,pinky_tip_z,
0.53249184,-0.38071028,0.524799,0.51521982,-0.32259455,0.500001,0.50837264,-0.36843576,0.518439,0.47308882,-0.32894455,0.493778,0.437652,-0.29590035,0.468687,0.41820094,-0.27140316,0.453827,0.47735474,-0.27318743,0.47705,0.46419669,-0.22907313,0.447935,0.45848301,-0.22023935,0.433377,0.45329462,-0.21361765,0.420143,0.5053218,-0.2773114,0.480263,0.49329878,-0.24040093,0.449562,0.47631835,-0.25228686,0.431653,0.47564459,-0.27051933,0.435573,0.53030853,-0.28718736,0.485948,0.52015239,-0.26233594,0.457757,0.51262439,-0.26409795,0.443334,0.49809634,-0.27259712,0.430223,0.55942801,-0.30935787,0.49755,0.53246974,-0.31107117,0.470312,0.53557935,-0.33238113,0.481645,0.54275493,-0.34463481,0.495625
0.53348567,-0.38079695,0.526158,0.51557476,-0.32204154,0.499877,0.50910549,-0.36817979,0.519413,0.47318172,-0.32806259,0.49389,0.43803128,-0.29511155,0.468384,0.4205059,-0.26936439,0.453468,0.47705909,-0.27214523,0.475547,0.46267729,-0.22800137,0.445167,0.45638622,-0.21851915,0.429976,0.45049829,-0.21228064,0.416167,0.50507526,-0.27677729,0.478958,0.49382195,-0.24238644,0.44698,0.47499694,-0.25486781,0.428326,0.472956,-0.27195631,0.431451,0.53016006,-0.28712947,0.484987,0.51870328,-0.26276026,0.455589,0.51112536,-0.2710052,0.440549,0.49382297,-0.27640499,0.426875,0.5599257,-0.30968784,0.497289,0.53249285,-0.31245756,0.46902,0.53452764,-0.33326746,0.479794,0.54098766,-0.34403485,0.49392
0.53322335,-0.38012408,0.526134,0.51538062,-0.32133324,0.499177,0.50884612,-0.36734642,0.519252,0.47296395,-0.32730259,0.493422,0.43907042,-0.29481215,0.467721,0.42062189,-0.26860824,0.452585,0.47683281,-0.27139882,0.47427,0.46352945,-0.22683396,0.443345,0.45703524,-0.21782501,0.427883,0.44931899,-0.21167688,0.413826,0.50480033,-0.27633361,0.477719,0.49302539,-0.2424105,0.44517,0.47347606,-0.25471208,0.426183,0.47081172,-0.2714069,0.42894,0.53022919,-0.28807886,0.483864,0.51893537,-0.2642106,0.453959,0.50985497,-0.27065476,0.438659,0.49035899,-0.27927844,0.42475,0.562,-0.31029727,0.496436,0.53146964,-0.31253885,0.467716,0.53296028,-0.33294713,0.478228,0.53956864,-0.34355877,0.492411
0.53227838,-0.37814079,0.525049,0.51661942,-0.31826147,0.497902,0.50748351,-0.36524211,0.517862,0.47212058,-0.32489615,0.491974,0.43892556,-0.29319136,0.465726,0.42206649,-0.26804883,0.4503,0.47749761,-0.26956549,0.472473,0.46245356,-0.22573099,0.441289,0.45581613,-0.21676287,0.425696,0.4480017,-0.21090199,0.411522,0.50569177,-0.27518822,0.476294,0.49364394,-0.24323769,0.443557,0.47338073,-0.25568304,0.42446,0.46958089,-0.2707925,0.427058,0.52967476,-0.28625709,0.482768,0.51933951,-0.26536233,0.452661,0.50902152,-0.27037584,0.437258,0.48949978,-0.27883677,0.423255,0.56324225,-0.31021305,0.495755,0.53105969,-0.31229691,0.466824,0.53231623,-0.3325495,0.477205,0.53880026,-0.34323997,0.491412
0.53246959,-0.37753488,0.52525,0.51701273,-0.31798186,0.497832,0.50767366,-0.36453274,0.517932,0.47241554,-0.32453147,0.491802,0.43914068,-0.29280146,0.46535,0.42233619,-0.26778976,0.449595,0.47770029,-0.26928642,0.472068,0.46241806,-0.2253678,0.440639,0.45566216,-0.21640109,0.424925,0.44783234,-0.21071936,0.410639,0.5060176,-0.27498825,0.476008,0.49363071,-0.24306341,0.443035,0.47314209,-0.25546857,0.4238,0.46917149,-0.27061341,0.42623,0.53019372,-0.28613507,0.482612,0.51935785,-0.26526782,0.452286,0.50885121,-0.27036708,0.43677,0.48925058,-0.27871866,0.422665,0.56265303,-0.30980946,0.495804,0.53128723,-0.31243011,0.46667,0.53233369,-0.33256352,0.476924,0.53875066,-0.34333015,0.491154
0.53021277,-0.37523948,0.523615,0.5151184,-0.31760296,0.496438,0.50505333,-0.36155911,0.51557,0.46950083,-0.32229716,0.488201,0.44216257,-0.2928599,0.460418,0.42210921,-0.26579389,0.445312,0.47575125,-0.26767066,0.469826,0.46162713,-0.22453345,0.438253,0.45495003,-0.21517905,0.422467,0.44725338,-0.21016619,0.408115,0.50504537,-0.27410187,0.474805,0.49257522,-0.24295239,0.44196,0.47201154,-0.25546558,0.4228,0.46809307,-0.27052741,0.42518,0.53015983,-0.28586888,0.482237,0.51803948,-0.2639623,0.451782,0.5082821,-0.2698671,0.4362,0.48885831,-0.27822128,0.422035,0.56350485,-0.3102725,0.496322,0.53216523,-0.31280927,0.467108,0.5331411,-0.3329501,0.477266,0.53953221,-0.34390688,0.491486
0.53182726,-0.37559953,0.525872,0.51616911,-0.31692911,0.496583,0.50667703,-0.36155907,0.517576,0.46767644,-0.32231504,0.488518,0.43255029,-0.28979056,0.461993,0.41531226,-0.26422607,0.447237,0.47542196,-0.2667673,0.468411,0.46369651,-0.22480866,0.435425,0.45738085,-0.21225414,0.418932,0.4610993,-0.20066373,0.408753,0.50449061,-0.27331244,0.47327,0.49199392,-0.25068671,0.438702,0.46857991,-0.26307681,0.418537,0.4627058,-0.27321381,0.419732,0.52989205,-0.28504244,0.480861,0.51549617,-0.26291698,0.448857,0.50417477,-0.26752259,0.432483,0.48421536,-0.27527806,0.417597,0.56289133,-0.30984847,0.495565,0.53021755,-0.31157048,0.465045,0.53025227,-0.33107252,0.474333,0.53674975,-0.34220172,0.488676
0.52988048,-0.3734925,0.524633,0.51549233,-0.31637023,0.495874,0.50489344,-0.35912934,0.516131,0.46471183,-0.32145738,0.48685,0.43431288,-0.29414198,0.458556,0.42026224,-0.26627147,0.442663,0.4748348,-0.26609081,0.46773,0.458056,-0.22220385,0.434827,0.44900388,-0.21020781,0.418376,0.44682363,-0.20983275,0.407661,0.50426809,-0.27296523,0.472983,0.49135541,-0.25066252,0.438823,0.46818319,-0.26316601,0.418896,0.46288996,-0.27464049,0.420323,0.52997854,-0.28498767,0.480834,0.51559427,-0.26288678,0.449093,0.50445543,-0.2677942,0.432853,0.48471405,-0.27555483,0.41809,0.5631563,-0.31004416,0.495724,0.53088539,-0.31192797,0.46545,0.53106236,-0.33153981,0.474888,0.537595,-0.34261135,0.489202
0.52888647,-0.37166542,0.522998,0.51402302,-0.31544572,0.494496,0.5039768,-0.35732351,0.514466,0.46266889,-0.31894293,0.485203,0.43226059,-0.29301068,0.456783,0.4163802,-0.26685194,0.438668,0.47345669,-0.26509197,0.46646,0.45817313,-0.22032222,0.433719,0.44974606,-0.21161057,0.417349,0.44653209,-0.20922567,0.407022,0.50293443,-0.27213222,0.47181,0.4894273,-0.24991497,0.437854,0.46659184,-0.26238697,0.418047,0.46158724,-0.27457271,0.419603,0.5292017,-0.28450813,0.479709,0.51426648,-0.26220359,0.448118,0.50320263,-0.26721101,0.431956,0.48355231,-0.27494296,0.417262,0.56264076,-0.30994852,0.494601,0.5305719,-0.31209456,0.464469,0.53014246,-0.33095921,0.473997,0.53704658,-0.34273638,0.488296
0.52846518,-0.37149412,0.523171,0.51402084,-0.31511056,0.494387,0.50425791,-0.35731481,0.515215,0.46017714,-0.31944567,0.486572,0.42414992,-0.29043387,0.458902,0.40850452,-0.26387311,0.441614,0.47374187,-0.26518584,0.466968,0.45781015,-0.22107388,0.434322,0.45044844,-0.21193746,0.417998,0.44621418,-0.20884855,0.406585,0.50235409,-0.27183875,0.471475,0.48805987,-0.24964095,0.437338,0.46519439,-0.26199708,0.417424,0.46029179,-0.27449319,0.418983,0.52788205,-0.28390973,0.478715,0.5121327,-0.26109679,0.447164,0.50133876,-0.26638133,0.431022,0.48216723,-0.27434333,0.416348,0.5600258,-0.3093583,0.492913,0.52848238,-0.31096173,0.462783,0.52852226,-0.3301447,0.472366,0.53558824,-0.34165344,0.486686
0.52636995,-0.37053994,0.521412,0.51220167,-0.31422708,0.492636,0.50220329,-0.35622491,0.513416,0.45746929,-0.31883258,0.484726,0.42303032,-0.29158527,0.456588,0.40942318,-0.26815396,0.437649,0.47163095,-0.26369409,0.465167,0.45580219,-0.22009378,0.432521,0.44833585,-0.21175161,0.416198,0.44503516,-0.20807645,0.404903,0.50023816,-0.2707049,0.469731,0.48475315,-0.24897851,0.435597,0.46211284,-0.26121396,0.415685,0.45759721,-0.27496507,0.417238,0.52574572,-0.28311456,0.477016,0.50967698,-0.26029506,0.445426,0.4980014,-0.26609656,0.429264,0.47985383,-0.27332603,0.414571,0.55832057,-0.30870247,0.491264,0.52696151,-0.30997113,0.461127,0.52700894,-0.32958605,0.470703,0.53393811,-0.34075342,0.485022
0.52640496,-0.37094617,0.521586,0.51185932,-0.31412585,0.49234,0.50239246,-0.35663549,0.513789,0.4551002,-0.31906465,0.485245,0.42209467,-0.2920586,0.457229,0.4040502,-0.26903178,0.438096,0.47098021,-0.26360142,0.464872,0.45542664,-0.21946939,0.431987,0.44738903,-0.2114233,0.415544,0.44482212,-0.2077963,0.404556,0.49923401,-0.27041855,0.469062,0.48235768,-0.24858526,0.434571,0.45951263,-0.26065838,0.414451,0.45533662,-0.27391888,0.415797,0.52450683,-0.28270448,0.476096,0.50627317,-0.26364136,0.444145,0.49338483,-0.27333433,0.427797,0.47467815,-0.27494324,0.412936,0.55694049,-0.30821756,0.490156,0.5249214,-0.30926812,0.45981,0.52546313,-0.32865758,0.469251,0.53262167,-0.33998585,0.483592
0.52489147,-0.37072544,0.520865,0.50953004,-0.31391491,0.491452,0.50181568,-0.35677929,0.513994,0.45622462,-0.31953766,0.486544,0.42246731,-0.28538642,0.460151,0.40287332,-0.25737392,0.443509,0.47035467,-0.26315631,0.465142,0.45593632,-0.21931526,0.43248,0.44843608,-0.21076419,0.41615,0.44393138,-0.20567864,0.404225,0.49694009,-0.26977614,0.468039,0.48051348,-0.24805666,0.433631,0.45668853,-0.26024284,0.41356,0.45199472,-0.27321103,0.41504,0.5206344,-0.28221127,0.47403,0.50221515,-0.26668535,0.442335,0.48929411,-0.27367367,0.426119,0.46869415,-0.27930175,0.411378,0.55134132,-0.30895708,0.486934,0.51955504,-0.3081772,0.456791,0.52000458,-0.32769758,0.466365,0.52928878,-0.33821303,0.480686
0.52375315,-0.3708912,0.521153,0.50945401,-0.31347618,0.491405,0.50120126,-0.35707964,0.515182,0.4540242,-0.30678495,0.4888,0.42204759,-0.27436613,0.464233,0.40451274,-0.24673864,0.448176,0.47486343,-0.25690379,0.466124,0.4619227,-0.22474647,0.433495,0.45256852,-0.21193449,0.41718,0.44312162,-0.20515892,0.402349,0.49786646,-0.26943681,0.467727,0.48045062,-0.24760173,0.433066,0.45102475,-0.25856748,0.412847,0.44428064,-0.27068723,0.414249,0.52070266,-0.28111676,0.472691,0.500452,-0.26668524,0.440835,0.48416224,-0.2747152,0.424537,0.46240984,-0.27996954,0.40972,0.54774919,-0.31180682,0.484495,0.51287956,-0.30867465,0.454482,0.51281068,-0.32771791,0.464054,0.52489726,-0.33778576,0.478329
0.5099325,-0.363019,0.511104,0.50605626,-0.3108228,0.487978,0.48728489,-0.33931225,0.509106,0.45794543,-0.29138246,0.489422,0.4312507,-0.2583835,0.469448,0.4185812,-0.23127282,0.455314,0.49336166,-0.25616474,0.471913,0.48448827,-0.23018691,0.444869,0.47474464,-0.21885901,0.431346,0.46576631,-0.21101889,0.419053,0.51238438,-0.27095518,0.469571,0.48956198,-0.25186966,0.440449,0.45986166,-0.26365447,0.423462,0.45538552,-0.27739472,0.428355,0.52743364,-0.28864212,0.470473,0.50395542,-0.27237746,0.443618,0.48345468,-0.28176077,0.429878,0.46550271,-0.29083215,0.421917,0.54357623,-0.31831078,0.476279,0.50316717,-0.31278864,0.451814,0.50252101,-0.33075404,0.463926,0.5133463,-0.34219093,0.477494
0.5025255,-0.35610794,0.507654,0.50420315,-0.30690887,0.482105,0.48990611,-0.32956487,0.507635,0.49363597,-0.28553223,0.495133,0.49296917,-0.25018239,0.484162,0.49671269,-0.22761716,0.475697,0.50949035,-0.25851908,0.467327,0.49799874,-0.23418772,0.437587,0.48994312,-0.22303753,0.422717,0.48138149,-0.21344434,0.409199,0.52002345,-0.27608073,0.461768,0.47577911,-0.26552894,0.430283,0.43615901,-0.26873329,0.411917,0.42935293,-0.277812,0.415156,0.52754039,-0.29531101,0.460318,0.51048607,-0.26585846,0.433188,0.50199836,-0.25058478,0.419307,0.48152338,-0.24986031,0.406688,0.53416201,-0.32551097,0.463942,0.50246145,-0.30876138,0.439014,0.49771759,-0.3230655,0.449996,0.50587094,-0.33495236,0.463027
0.5047783,-0.35065972,0.510413,0.52459414,-0.30399698,0.483399,0.50093155,-0.32468862,0.509071,0.50509892,-0.27913947,0.494894,0.50371264,-0.24220285,0.483097,0.5079588,-0.22121746,0.475693,0.52115716,-0.25480449,0.465978,0.49875996,-0.23473874,0.435179,0.4933783,-0.22757356,0.419937,0.4817282,-0.21562357,0.406235,0.5325513,-0.27383219,0.461896,0.49045005,-0.26396518,0.42929,0.44909848,-0.26676102,0.410271,0.44202049,-0.27145122,0.412981,0.54079224,-0.29412635,0.461841,0.51198816,-0.28195508,0.431582,0.47576532,-0.27861488,0.416101,0.46094079,-0.2865103,0.41882,0.54829463,-0.32531308,0.467359,0.50326659,-0.30812805,0.440911,0.50328581,-0.31231352,0.451542,0.5012648,-0.31713698,0.464972
0.51086824,-0.3313281,0.504143,0.53092898,-0.29585871,0.475772,0.50703274,-0.29904609,0.495774,0.51346427,-0.28209202,0.473957,0.52186429,-0.26934519,0.456802,0.53022515,-0.2622752,0.443396,0.52760488,-0.24705523,0.448032,0.49735601,-0.23441898,0.415455,0.48770753,-0.2307097,0.403615,0.47910211,-0.22744645,0.392852,0.54211036,-0.27372476,0.45319,0.4923966,-0.26742763,0.419352,0.44579183,-0.26300094,0.399612,0.43125604,-0.26413485,0.401284,0.55252274,-0.2994226,0.460916,0.50540448,-0.29099804,0.429105,0.46673177,-0.28304672,0.41283,0.45472049,-0.28256041,0.414355,0.55971522,-0.33310414,0.475583,0.51493009,-0.3195882,0.445572,0.51911491,-0.32859149,0.454135,0.51812885,-0.34129771,0.468508
0.52384101,-0.3269832,0.513392,0.53607,-0.29833906,0.481024,0.51939796,-0.30321462,0.507525,0.52279353,-0.25822783,0.487872,0.52750801,-0.22488965,0.473897,0.53043837,-0.20610944,0.460582,0.53545684,-0.25098133,0.454371,0.50272172,-0.23731486,0.419863,0.48672328,-0.23067161,0.402854,0.47233473,-0.22471771,0.387473,0.54400956,-0.27585748,0.45526,0.49138526,-0.26594948,0.418953,0.44282563,-0.26013286,0.397774,0.42530833,-0.26065913,0.397703,0.54996545,-0.29985439,0.459957,0.49300005,-0.28725574,0.426489,0.4579004,-0.27834021,0.409366,0.43902216,-0.27527878,0.409286,0.55479739,-0.33345795,0.471998,0.4990966,-0.3145812,0.440606,0.49836768,-0.32208542,0.448968,0.4987932,-0.33347221,0.463259
0.52385773,-0.32233303,0.510302,0.53560858,-0.29646624,0.477753,0.52182803,-0.29579975,0.503485,0.52944731,-0.25270298,0.47975,0.53838027,-0.2232845,0.468722,0.5409108,-0.20678988,0.454266,0.54483171,-0.25412785,0.449707,0.50920184,-0.2428215,0.415356,0.49166305,-0.23734374,0.398365,0.47585125,-0.23246031,0.382996,0.55026184,-0.2806946,0.451846,0.4910415,-0.26682174,0.415623,0.44062502,-0.25834296,0.394493,0.42498339,-0.25943922,0.394275,0.55354649,-0.30510335,0.457595,0.49431281,-0.28749123,0.42356,0.45718624,-0.27795391,0.406147,0.44069066,-0.27419095,0.405721,0.55403549,-0.3342293,0.470872,0.49860696,-0.3148083,0.439039,0.49765397,-0.32147655,0.447188,0.49786927,-0.33222998,0.461551
0.52281265,-0.31929175,0.508129,0.54357857,-0.29892664,0.479117,0.52347255,-0.29419836,0.502541,0.5404937,-0.25874716,0.481621,0.55300364,-0.23745529,0.477197,0.56229833,-0.22461538,0.465996,0.55514375,-0.26285275,0.454781,0.52781578,-0.25191972,0.423082,0.51463201,-0.24671351,0.407473,0.50290833,-0.24212843,0.393386,0.55564807,-0.28890909,0.456025,0.50854286,-0.2762841,0.422443,0.46065631,-0.26566965,0.402854,0.43914628,-0.26518372,0.404837,0.55432728,-0.31207658,0.460604,0.50538613,-0.29700317,0.429342,0.47031112,-0.28489345,0.413348,0.45463244,-0.28226352,0.415289,0.54974533,-0.34168111,0.471816,0.50427561,-0.31979055,0.442361,0.50825921,-0.32673474,0.452284,0.50771245,-0.33725194,0.466498
0.52652174,-0.31602323,0.506778,0.55480041,-0.30374949,0.478374,0.53200555,-0.29295699,0.501847,0.55637383,-0.26192415,0.485863,0.5690237,-0.23516425,0.472962,0.56933601,-0.22197113,0.457132,0.56816418,-0.26796102,0.455281,0.53906495,-0.25052588,0.423765,0.52480546,-0.24188561,0.408108,0.50800146,-0.23485772,0.393874,0.56705476,-0.29383035,0.455765,0.51981682,-0.2781662,0.422557,0.47079018,-0.26596711,0.403186,0.45552518,-0.26593102,0.40551,0.56433511,-0.31665781,0.459643,0.51520581,-0.2992085,0.429073,0.4827439,-0.28696718,0.413433,0.46680877,-0.28309247,0.415829,0.55807467,-0.3454492,0.469931,0.51341668,-0.32223145,0.441077,0.51743872,-0.32752308,0.451301,0.51619744,-0.33738781,0.46542
0.54439372,-0.31546346,0.506257,0.56499943,-0.30374627,0.475978,0.54850791,-0.29427505,0.501529,0.57131033,-0.26275353,0.485063,0.59129389,-0.24386084,0.480531,0.59988733,-0.2312683,0.469119,0.57802368,-0.26912575,0.452076,0.5471687,-0.25004137,0.419147,0.53191587,-0.24051929,0.402705,0.51120577,-0.23306175,0.387757,0.5748157,-0.29445801,0.451876,0.54083749,-0.27849717,0.417043,0.48974383,-0.26429791,0.396724,0.47232254,-0.26256849,0.397942,0.57076085,-0.31666272,0.45542,0.51953184,-0.29807202,0.424191,0.48556619,-0.284397,0.408213,0.464636,-0.27886175,0.409726,0.56368157,-0.34448765,0.465715,0.51753823,-0.31983223,0.435892,0.52242635,-0.32508169,0.445327,0.52190071,-0.33044652,0.459482
0.54211808,-0.31780408,0.497052,0.56123774,-0.31257705,0.470735,0.54851209,-0.29816998,0.494806,0.57593506,-0.3121162,0.491767,0.59628494,-0.29308844,0.480133,0.6101426,-0.30045885,0.47348,0.57857029,-0.27784796,0.452491,0.56333053,-0.26241169,0.422428,0.52240415,-0.2483704,0.407397,0.50663004,-0.24651596,0.410748,0.5749475,-0.30169304,0.449787,0.57900107,-0.28066028,0.418263,0.56140912,-0.26828424,0.399874,0.54994873,-0.27044457,0.40323,0.56990369,-0.32307548,0.450783,0.51991307,-0.3020833,0.421493,0.48687124,-0.29029094,0.406507,0.47064322,-0.29025445,0.409882,0.5605598,-0.35050137,0.457354,0.51544487,-0.32454714,0.430869,0.5194846,-0.33022564,0.44188,0.51777024,-0.34077946,0.455471
0.54251955,-0.32072703,0.4974,0.56132693,-0.31274164,0.471202,0.54858845,-0.30088934,0.495064,0.57499576,-0.31240968,0.493506,0.59077098,-0.30118274,0.483464,0.59651554,-0.31300217,0.476286,0.57855307,-0.27800826,0.452906,0.55643486,-0.26110013,0.422961,0.51896328,-0.24790394,0.407988,0.50393323,-0.24629369,0.411421,0.57511922,-0.30191997,0.45035,0.57927274,-0.28095893,0.418935,0.56242468,-0.26862651,0.40061,0.55167033,-0.27083485,0.404041,0.5702154,-0.3233591,0.451453,0.52041109,-0.30246916,0.422305,0.48747063,-0.29073251,0.407392,0.47135664,-0.29076333,0.410858,0.56100019,-0.35084205,0.458121,0.51592885,-0.3249137,0.431665,0.52001183,-0.33062111,0.442728,0.51830797,-0.34117761,0.456329
0.54212203,-0.32142241,0.500105,0.56233837,-0.31388864,0.472844,0.55053242,-0.30358508,0.497391,0.57284603,-0.31298428,0.494763,0.59224193,-0.30130914,0.484575,0.59978874,-0.31278706,0.477799,0.5783322,-0.27849896,0.45342,0.55466308,-0.26164176,0.422709,0.51315175,-0.24740578,0.407354,0.49747259,-0.2453082,0.410247,0.57516157,-0.30261931,0.451145,0.57173555,-0.2820684,0.418742,0.54972884,-0.26977608,0.399841,0.53607092,-0.2716512,0.4027,0.57062939,-0.32431475,0.45261,0.5197214,-0.30309621,0.422776,0.48679781,-0.29123289,0.407512,0.47004689,-0.29087364,0.410456,0.56207837,-0.35224445,0.459911,0.51584433,-0.32585309,0.432664,0.51932063,-0.3313379,0.443341,0.51773454,-0.34194964,0.457071
0.54192841,-0.32193015,0.499869,0.56101657,-0.31352796,0.472128,0.55014541,-0.30384658,0.497251,0.5727358,-0.31243608,0.493994,0.59343292,-0.30103066,0.484011,0.60167846,-0.31267989,0.477387,0.57731095,-0.27864966,0.452556,0.55046139,-0.26186089,0.42146,0.50910363,-0.24679999,0.405912,0.49418658,-0.24386609,0.408516,0.57334669,-0.30256434,0.450047,0.56925023,-0.28300181,0.417246,0.54616026,-0.27033244,0.398112,0.53177678,-0.27146812,0.400693,0.56637258,-0.32473398,0.451377,0.51748072,-0.30229041,0.421104,0.48430814,-0.29000564,0.405616,0.46730511,-0.28913013,0.408253,0.55677258,-0.35196442,0.458624,0.5134234,-0.32488919,0.431147,0.51695992,-0.33012489,0.441624,0.51537879,-0.34049307,0.455357
0.53555216,-0.3197312,0.497429,0.54651842,-0.31246642,0.466993,0.5428568,-0.30267094,0.494189,0.55650999,-0.31057332,0.48786,0.57319897,-0.30136038,0.475598,0.5768529,-0.31413439,0.467636,0.56081782,-0.27677685,0.445021,0.52930479,-0.25759672,0.41187,0.48682478,-0.24178676,0.395294,0.46939362,-0.237898,0.396323,0.55648244,-0.30080455,0.442766,0.54955303,-0.27944405,0.407779,0.52742136,-0.26641337,0.38737,0.51372617,-0.26553959,0.388418,0.55148127,-0.32245977,0.444637,0.49996187,-0.29988335,0.412517,0.46448978,-0.28649428,0.396083,0.449951,-0.2831041,0.397194,0.54315155,-0.3505516,0.453056,0.49676475,-0.32297677,0.4238,0.49922343,-0.32770284,0.433134,0.49766792,-0.33801317,0.447049
0.52986293,-0.31696848,0.492213,0.53960769,-0.30930006,0.4605,0.53795545,-0.29838091,0.489171,0.54841902,-0.30504276,0.481033,0.56139926,-0.29405164,0.467176,0.55637524,-0.30104509,0.456626,0.55416511,-0.27533236,0.438059,0.54859872,-0.26582063,0.403909,0.53105578,-0.25375407,0.386833,0.51681417,-0.24698155,0.386985,0.54754298,-0.29847329,0.435257,0.53649978,-0.27763698,0.399138,0.50391749,-0.25951874,0.378069,0.48429158,-0.2562096,0.378245,0.5400742,-0.32183242,0.436832,0.48275865,-0.29125904,0.403626,0.44542637,-0.27400259,0.386637,0.42661997,-0.26627911,0.386837,0.52881746,-0.34795146,0.44518,0.47905889,-0.31337121,0.415187,0.47895941,-0.31440548,0.423929,0.47603205,-0.31827647,0.437874
0.53084661,-0.31803365,0.491426,0.53818623,-0.3088472,0.459613,0.5367943,-0.29811513,0.488266,0.54781806,-0.30113656,0.480056,0.56158619,-0.28578406,0.465996,0.5610999,-0.2920716,0.455287,0.55307901,-0.27571503,0.436955,0.54208838,-0.26417154,0.402734,0.52879918,-0.25323971,0.385624,0.51537173,-0.24640752,0.385724,0.54581406,-0.30069596,0.43429,0.53809,-0.2837482,0.398096,0.49919867,-0.26075868,0.376982,0.47946522,-0.25639112,0.377107,0.53768967,-0.32112415,0.435992,0.48086928,-0.29031286,0.402766,0.44360711,-0.27281632,0.385767,0.425712,-0.26644608,0.38593,0.52632259,-0.34702935,0.444503,0.47743014,-0.31229118,0.414423,0.47838204,-0.31315265,0.423118,0.47704955,-0.3208751,0.437077
0.52983157,-0.31665852,0.490591,0.53607808,-0.30639583,0.457718,0.53631455,-0.29703678,0.487517,0.54867439,-0.29140738,0.477778,0.55790205,-0.28381106,0.463255,0.55108789,-0.29529979,0.452294,0.55228027,-0.27597488,0.434565,0.53841233,-0.26326861,0.399522,0.52332628,-0.25279382,0.382,0.50954785,-0.24440643,0.381332,0.54211251,-0.29839668,0.431552,0.53145913,-0.28384169,0.394439,0.48931873,-0.2604827,0.37279,0.47145339,-0.25317214,0.372155,0.53159492,-0.31771793,0.433096,0.47198325,-0.28394596,0.399029,0.43450719,-0.26464811,0.381599,0.41915618,-0.26148791,0.380983,0.51633541,-0.33959945,0.441647,0.46757026,-0.30385575,0.410901,0.46879278,-0.30355958,0.41907,0.46784165,-0.3088115,0.433059
0.53111356,-0.31721267,0.4911,0.53617283,-0.30559924,0.457909,0.53819971,-0.29782873,0.488086,0.54825889,-0.2909442,0.477854,0.55725336,-0.28329385,0.463149,0.55182515,-0.29269488,0.45185,0.55259991,-0.2756677,0.434653,0.53789856,-0.26318927,0.399317,0.52240175,-0.25276556,0.381649,0.50841396,-0.24416517,0.380721,0.54161576,-0.29787415,0.43149,0.52928739,-0.28251681,0.394034,0.48507622,-0.25954938,0.372185,0.46843894,-0.25210099,0.37129,0.52967302,-0.31581608,0.432949,0.47101039,-0.28308934,0.398618,0.43346202,-0.26374475,0.381053,0.41662529,-0.25732757,0.380184,0.51564229,-0.33882054,0.441469,0.46689156,-0.30310419,0.410693,0.46785918,-0.3026333,0.418628,0.46687217,-0.3078322,0.432537
0.53004386,-0.31739164,0.490694,0.53596094,-0.30510662,0.457782,0.53741547,-0.29810568,0.487537,0.548059,-0.29111764,0.47779,0.55704399,-0.28324369,0.463138,0.55164338,-0.29255931,0.452038,0.55252848,-0.27553833,0.434493,0.53793713,-0.26337403,0.399387,0.52252149,-0.25303574,0.381833,0.50885854,-0.24454692,0.381139,0.54153137,-0.29784469,0.431585,0.52934136,-0.28255357,0.394363,0.48509518,-0.25956697,0.372651,0.46824805,-0.25236418,0.37198,0.53070005,-0.31687577,0.43322,0.4716533,-0.28352328,0.399162,0.43425647,-0.26425658,0.381737,0.41838463,-0.25971582,0.381116,0.51612334,-0.33933991,0.441882,0.4676355,-0.30366713,0.411322,0.46875141,-0.30324296,0.419386,0.46771187,-0.30843942,0.433269
0.53135004,-0.3173357,0.49264,0.53741199,-0.30544078,0.459031,0.53937902,-0.29826956,0.489534,0.54871461,-0.29345806,0.478746,0.55743048,-0.28536197,0.4638,0.55295754,-0.29361947,0.452843,0.55377575,-0.27575742,0.435409,0.53848136,-0.26320398,0.399786,0.52268923,-0.25266787,0.381975,0.50830102,-0.24393555,0.380756,0.54233603,-0.29793668,0.432279,0.5186037,-0.27506452,0.394512,0.46820191,-0.25058333,0.372481,0.44964265,-0.2444044,0.371301,0.53084246,-0.31623943,0.433816,0.47188711,-0.28317719,0.399219,0.43415392,-0.26377181,0.381518,0.4169362,-0.2573161,0.380363,0.51712575,-0.33958174,0.442512,0.4681061,-0.30353301,0.411532,0.46878978,-0.30280469,0.419217,0.46774556,-0.30806044,0.4331
0.53326811,-0.31804208,0.495212,0.53803378,-0.30611423,0.459939,0.5422724,-0.29938295,0.492337,0.54819542,-0.29372778,0.478844,0.55485569,-0.28495733,0.462833,0.54887161,-0.29283822,0.451288,0.5537172,-0.27634218,0.43567,0.53091462,-0.26039845,0.398891,0.51429368,-0.24729513,0.380502,0.50205277,-0.23975923,0.377921,0.54015901,-0.29788952,0.431863,0.50810784,-0.27282066,0.392834,0.45682292,-0.24535872,0.370067,0.44160512,-0.2404339,0.367553,0.52449273,-0.31754108,0.433046,0.46202847,-0.27777239,0.397159,0.4254364,-0.2565134,0.378799,0.40599702,-0.24860434,0.376233,0.50989566,-0.34024248,0.441681,0.45859979,-0.29839417,0.40989,0.4584406,-0.29454844,0.416495,0.45774315,-0.29829535,0.430245
0.53229569,-0.316897,0.494897,0.53759242,-0.30611217,0.459855,0.54187495,-0.2985591,0.49196,0.54778488,-0.2938978,0.478878,0.55427788,-0.28506826,0.463009,0.54832153,-0.29269966,0.451513,0.55337981,-0.27663461,0.435635,0.53110894,-0.26049376,0.399037,0.51461266,-0.24744851,0.380738,0.50167584,-0.23914575,0.378371,0.53960684,-0.29826524,0.431962,0.50846094,-0.27301026,0.393107,0.4572846,-0.24560668,0.370441,0.44113463,-0.24031106,0.368128,0.52471437,-0.31767527,0.433229,0.46246006,-0.27803186,0.39753,0.42595977,-0.25682897,0.379265,0.40673405,-0.24905565,0.376916,0.51016118,-0.34041966,0.441911,0.45902383,-0.29867008,0.410269,0.45902508,-0.29492397,0.417026,0.45831447,-0.29866766,0.430782
0.53191823,-0.31607014,0.495094,0.53787641,-0.30620099,0.460377,0.54244827,-0.29830311,0.492566,0.54859627,-0.29424468,0.479718,0.54972624,-0.2868712,0.464335,0.53061934,-0.29787328,0.451876,0.55426793,-0.27676081,0.4369,0.53279318,-0.25999167,0.40048,0.51643298,-0.24678172,0.38227,0.50074041,-0.23572947,0.380063,0.54040207,-0.29814204,0.432743,0.51282563,-0.27339938,0.394087,0.46015063,-0.24554011,0.371538,0.44312715,-0.24036787,0.369385,0.52495423,-0.31676971,0.433571,0.46275567,-0.27685292,0.39792,0.4262889,-0.25560054,0.37968,0.40719775,-0.24800418,0.377453,0.50972408,-0.3390988,0.441686,0.45902503,-0.29735028,0.410412,0.45917062,-0.29349897,0.417297,0.4583761,-0.29712716,0.430974
0.53241382,-0.31499631,0.495388,0.53762571,-0.30585823,0.460492,0.54341973,-0.29754943,0.492792,0.54846887,-0.29410775,0.479708,0.54876153,-0.28722813,0.464128,0.53037745,-0.29773748,0.45167,0.55434459,-0.27719986,0.436818,0.53245573,-0.25916398,0.400315,0.51602848,-0.2458189,0.382063,0.50018628,-0.23463847,0.379736,0.53998094,-0.29793758,0.432715,0.51281973,-0.27290296,0.393934,0.4606265,-0.24499385,0.371312,0.44299612,-0.23968136,0.369033,0.52491305,-0.31621939,0.433609,0.46260927,-0.27608743,0.397862,0.42610039,-0.25477491,0.379573,0.40689186,-0.24715128,0.377223,0.50980841,-0.33863972,0.441836,0.45896129,-0.29664866,0.410426,0.45899857,-0.29263019,0.41721,0.45822081,-0.29623676,0.430895
0.53247364,-0.31400788,0.495552,0.53722561,-0.3052732,0.460597,0.54377275,-0.29679355,0.492939,0.54845179,-0.29404383,0.479774,0.54832878,-0.28751824,0.464127,0.53050544,-0.29780934,0.451779,0.55415239,-0.27712921,0.436868,0.53241431,-0.25874625,0.400337,0.51596448,-0.24532701,0.382071,0.50007157,-0.23408713,0.379705,0.53975547,-0.29783488,0.432775,0.51297331,-0.27265598,0.393953,0.46107392,-0.24475237,0.371307,0.44313376,-0.23934606,0.368986,0.52495029,-0.31592642,0.433683,0.46261074,-0.27568165,0.397904,0.42608635,-0.25433911,0.379597,0.40683779,-0.24671872,0.377205,0.50987512,-0.3383747,0.44194,0.45895841,-0.29625056,0.410466,0.45896601,-0.29215422,0.417222,0.45820363,-0.29575189,0.430919
0.533067,-0.31335153,0.496173,0.53729845,-0.30489487,0.461093,0.54446542,-0.29625235,0.493407,0.54825275,-0.29365333,0.480149,0.54761216,-0.28743102,0.464299,0.52896149,-0.29717938,0.451813,0.55409912,-0.27703207,0.437083,0.53215502,-0.25845509,0.4005,0.5156187,-0.24500685,0.382209,0.49963516,-0.2337219,0.379785,0.53902179,-0.29795547,0.433171,0.51221863,-0.27220029,0.394272,0.46129068,-0.24467278,0.371581,0.44321029,-0.23916811,0.369197,0.52524037,-0.31589129,0.434244,0.46283194,-0.27560734,0.398444,0.42622526,-0.25424721,0.380128,0.40701721,-0.24666322,0.377686,0.51039221,-0.33848254,0.442714,0.4597324,-0.29638599,0.411144,0.45983148,-0.29226221,0.417837,0.4591049,-0.29578976,0.431544
0.53447083,-0.3143227,0.497812,0.53816586,-0.30554442,0.462374,0.54608995,-0.29735166,0.49516,0.54943756,-0.29394863,0.481242,0.54797087,-0.28782565,0.46516,0.52929112,-0.29750683,0.452905,0.55496551,-0.27766431,0.438311,0.52890804,-0.25571533,0.401455,0.50721147,-0.2393746,0.383027,0.49328594,-0.22974395,0.380263,0.53928027,-0.29828325,0.434166,0.51302904,-0.27250857,0.395,0.4619126,-0.24486363,0.372153,0.44337551,-0.239093,0.369445,0.52598703,-0.31619043,0.435091,0.46318189,-0.2756685,0.398995,0.42634681,-0.25419496,0.380527,0.4068307,-0.24643314,0.377737,0.5109908,-0.33871134,0.443466,0.46063272,-0.29670608,0.411939,0.46019683,-0.29234131,0.418315,0.45926696,-0.29590482,0.431884
0.53772684,-0.31648859,0.501183,0.53934811,-0.30346102,0.464245,0.54879715,-0.29908638,0.498315,0.54208567,-0.28712853,0.481984,0.53848697,-0.27819417,0.464381,0.52431481,-0.29233629,0.451296,0.54857978,-0.26121279,0.439023,0.5178328,-0.23839683,0.40102,0.49851712,-0.22582454,0.382019,0.47930699,-0.21798046,0.377899,0.53970508,-0.28370092,0.434843,0.50723607,-0.25704074,0.394666,0.4522137,-0.2357276,0.37123,0.43764284,-0.23618168,0.36726,0.53225078,-0.30440522,0.435923,0.46287729,-0.27385836,0.398931,0.42554296,-0.25395187,0.380006,0.40465307,-0.24574662,0.37593,0.5233895,-0.3318329,0.444784,0.46791487,-0.29630866,0.412559,0.46085281,-0.2940337,0.417814,0.46207666,-0.3026601,0.431194
0.54117173,-0.31921553,0.506068,0.53330061,-0.29406475,0.470232,0.53933134,-0.2964983,0.503239,0.5359267,-0.28861114,0.48879,0.5376721,-0.28126664,0.472411,0.53480071,-0.29718567,0.461085,0.54068409,-0.25362736,0.445699,0.51580128,-0.23360779,0.40841,0.49954083,-0.22313769,0.389765,0.48664517,-0.22125954,0.386651,0.53712767,-0.27668189,0.441707,0.51037686,-0.25307367,0.402274,0.45956026,-0.23909613,0.379272,0.44072315,-0.23587457,0.376276,0.53369876,-0.29832356,0.442807,0.47139393,-0.27837275,0.406517,0.43409209,-0.25952185,0.38795,0.41340564,-0.2556193,0.38488,0.52884639,-0.3277451,0.451464,0.47533957,-0.30008724,0.419149,0.47326983,-0.30253954,0.425427,0.47176198,-0.31066509,0.439235
0.52145211,-0.31741046,0.507912,0.52423414,-0.29671347,0.474456,0.52684118,-0.29715251,0.506598,0.52778254,-0.29166976,0.49479,0.53209867,-0.28564595,0.481187,0.52680147,-0.29624529,0.46967,0.53643187,-0.25781945,0.453355,0.52682031,-0.23895104,0.417364,0.49188896,-0.22539551,0.399369,0.46958675,-0.22177565,0.397703,0.53111695,-0.27994324,0.447826,0.50574231,-0.25523733,0.410021,0.45531793,-0.23854092,0.387968,0.43710374,-0.23682203,0.386448,0.52576012,-0.30074226,0.447369,0.46394297,-0.27572588,0.412105,0.42565348,-0.26377628,0.394063,0.40720191,-0.26390945,0.392367,0.51789846,-0.32903898,0.453758,0.47146479,-0.30249985,0.422651,0.46372037,-0.3024479,0.430329,0.46243882,-0.31564542,0.444254
0.4994463,-0.33019371,0.520662,0.51481733,-0.29947998,0.493457,0.49918718,-0.30989447,0.520939,0.51435994,-0.30331116,0.516498,0.5246316,-0.29580325,0.50824,0.52885239,-0.30597933,0.499512,0.52256662,-0.25519906,0.478124,0.52106631,-0.23136861,0.446566,0.49213095,-0.2239703,0.430786,0.47453846,-0.22846889,0.432891,0.52599925,-0.27537396,0.471802,0.5103395,-0.25052222,0.43889,0.46676163,-0.24425672,0.419691,0.45249369,-0.24960541,0.421889,0.52716898,-0.29565542,0.469926,0.47622492,-0.2823317,0.438774,0.44315688,-0.27835396,0.422836,0.43490966,-0.2859705,0.424844,0.52571402,-0.32520809,0.473406,0.48253598,-0.30680781,0.447399,0.48375948,-0.31558091,0.45767,0.48680797,-0.33389892,0.470806
0.49692793,-0.33540017,0.521934,0.51542863,-0.30390413,0.498653,0.49644355,-0.31605345,0.523655,0.51279965,-0.31315319,0.522838,0.53225522,-0.30288055,0.518081,0.54092141,-0.31327468,0.511351,0.51728945,-0.26040807,0.487545,0.51945219,-0.23350973,0.458871,0.49189584,-0.22891386,0.444533,0.47724405,-0.23702913,0.448425,0.52337363,-0.2781984,0.480121,0.5181304,-0.25021708,0.450475,0.48192285,-0.24694654,0.433181,0.46890309,-0.2573699,0.437173,0.5264743,-0.29688091,0.476856,0.48564606,-0.28759041,0.448307,0.45460837,-0.28609766,0.433701,0.4430764,-0.29621691,0.43743,0.52880531,-0.32679747,0.477943,0.49062872,-0.31088972,0.454504,0.4943027,-0.32118431,0.466034,0.49477848,-0.33997671,0.478753
0.49929089,-0.3410974,0.526841,0.51351625,-0.30977428,0.503228,0.49544361,-0.3258475,0.529491,0.51497351,-0.3160413,0.527488,0.53164607,-0.30638488,0.523506,0.54267652,-0.31609444,0.516507,0.52167558,-0.26552957,0.493189,0.51646255,-0.23845667,0.464039,0.48577959,-0.23239507,0.449464,0.47645673,-0.23983576,0.452781,0.52609779,-0.28264386,0.484432,0.5116972,-0.25395295,0.454468,0.47219779,-0.24902584,0.436989,0.4597131,-0.25811421,0.440472,0.52563355,-0.30273183,0.480109,0.47833589,-0.28801592,0.450929,0.44510557,-0.28766067,0.436,0.44136628,-0.29841396,0.439104,0.5242475,-0.33070229,0.480059,0.48347313,-0.31316354,0.457759,0.48403251,-0.32266991,0.468741,0.48900657,-0.34097338,0.480848
0.50870695,-0.35049685,0.538579,0.52240976,-0.31641392,0.514611,0.50660367,-0.33601598,0.543523,0.51056239,-0.30040061,0.538643,0.51388322,-0.26590412,0.531107,0.51457042,-0.25109854,0.520867,0.52298916,-0.27114373,0.507481,0.51439384,-0.23753864,0.477684,0.4849861,-0.23163621,0.462785,0.46943481,-0.24100437,0.464667,0.52668077,-0.2844916,0.495533,0.51021625,-0.25008198,0.465333,0.47209736,-0.24637868,0.447716,0.45927458,-0.2570367,0.449928,0.52828631,-0.30020503,0.488624,0.47983764,-0.28509137,0.458404,0.44997453,-0.28944955,0.442943,0.44109221,-0.29985521,0.444488,0.52780161,-0.32636277,0.485699,0.48337701,-0.30728949,0.460641,0.48441167,-0.32069,0.470722,0.48970622,-0.34134098,0.48345
0.51832235,-0.37457863,0.553781,0.52410447,-0.33866032,0.528326,0.5167947,-0.36794249,0.560168,0.5173235,-0.32777118,0.555339,0.51318553,-0.29218839,0.547681,0.5165969,-0.26901793,0.540442,0.52456442,-0.29316944,0.522297,0.52695321,-0.25430953,0.491268,0.50782031,-0.24243412,0.475753,0.49320047,-0.25064209,0.475557,0.52791507,-0.3037717,0.508065,0.51088738,-0.25893751,0.476866,0.47511171,-0.25682065,0.458666,0.46320747,-0.2698923,0.458941,0.53003136,-0.31772937,0.499456,0.48474925,-0.29807557,0.467763,0.44896946,-0.29571151,0.451549,0.4422006,-0.3018968,0.450936,0.53152401,-0.34261517,0.4949,0.47330824,-0.32515594,0.46469,0.47091793,-0.34266785,0.474033,0.48569569,-0.35892236,0.487328
0.52623431,-0.39897641,0.567198,0.52726166,-0.35942623,0.537981,0.52172578,-0.38106599,0.570257,0.51697885,-0.34503819,0.560061,0.51529909,-0.31044048,0.551018,0.51662922,-0.2867163,0.540418,0.52482044,-0.31009376,0.525262,0.48571043,-0.28372247,0.491632,0.45095027,-0.28312086,0.474817,0.44604158,-0.28855823,0.474218,0.53094532,-0.32354653,0.514724,0.47156115,-0.30754177,0.480192,0.46540182,-0.32858995,0.492758,0.48302919,-0.342317,0.509216,0.53557009,-0.34019951,0.509621,0.48230854,-0.32154262,0.475936,0.44696957,-0.31929713,0.458702,0.43825982,-0.3252994,0.457852,0.54013729,-0.36890404,0.509839,0.488818,-0.35034938,0.484831,0.48640393,-0.36451945,0.492895,0.49232526,-0.38018969,0.504823
0.51466805,-0.40481274,0.566106,0.5156914,-0.35892782,0.537235,0.51112533,-0.38697547,0.569448,0.50633874,-0.34680582,0.55985,0.50676022,-0.31506188,0.552181,0.50936921,-0.29257435,0.542091,0.51403331,-0.3099999,0.525103,0.47508903,-0.28376171,0.4917,0.44091844,-0.28322938,0.474999,0.43642669,-0.28871887,0.474482,0.51982588,-0.32325236,0.514256,0.46086852,-0.30742713,0.480013,0.45477582,-0.32849793,0.49262,0.47231072,-0.34216642,0.508992,0.52408875,-0.33968817,0.508855,0.47112741,-0.32114402,0.475346,0.43631917,-0.31894909,0.458202,0.42800306,-0.32499247,0.45742,0.52811178,-0.36805168,0.508661,0.47732934,-0.34976478,0.484022,0.47502687,-0.36395148,0.492127,0.48082759,-0.37952619,0.503942
0.51206989,-0.40849494,0.563742,0.52038398,-0.37207036,0.542802,0.50763993,-0.40535885,0.570489,0.50267038,-0.36686,0.567817,0.49867851,-0.33308495,0.565559,0.49931624,-0.30847203,0.559618,0.52061587,-0.32770997,0.539868,0.48762356,-0.30043886,0.512333,0.45794226,-0.30438861,0.498566,0.4560266,-0.31495626,0.501171,0.52685802,-0.33551256,0.526134,0.47697745,-0.32259656,0.498628,0.47429346,-0.3499849,0.513818,0.489666,-0.36577649,0.528825,0.53107948,-0.34752574,0.517383,0.48423563,-0.33109718,0.489087,0.45259409,-0.33135945,0.47461,0.44670747,-0.34118657,0.476792,0.53595968,-0.37049201,0.511733,0.49448002,-0.35704544,0.4937,0.49030802,-0.37567341,0.503729,0.49215465,-0.38993335,0.513964
0.51176718,-0.42405318,0.565853,0.52131609,-0.37681277,0.546391,0.50644068,-0.40991882,0.571691,0.49752554,-0.37642987,0.568424,0.49198346,-0.34348672,0.565981,0.49181543,-0.31860141,0.560642,0.51502585,-0.33432659,0.543076,0.48537479,-0.30995325,0.516847,0.45770534,-0.31555398,0.503733,0.4566699,-0.32701121,0.507798,0.52467775,-0.34173909,0.5309,0.48024486,-0.33239406,0.504575,0.48001606,-0.36249024,0.521518,0.49586972,-0.37482152,0.536938,0.53442427,-0.35250566,0.52325,0.49003548,-0.34088976,0.496405,0.46130575,-0.34451143,0.48267,0.45716356,-0.35341518,0.486364,0.54009783,-0.37635391,0.518551,0.49842924,-0.36442737,0.500707,0.49947918,-0.38658284,0.511879,0.50288571,-0.401909,0.522491
0.51138875,-0.42519304,0.56592,0.52074259,-0.3777543,0.54668,0.50565904,-0.4111245,0.57165,0.49747539,-0.37638666,0.568405,0.49189314,-0.34342509,0.565954,0.49173862,-0.31856376,0.560633,0.5152544,-0.33447979,0.543349,0.48565852,-0.31012872,0.517321,0.45807954,-0.31580662,0.504307,0.45726049,-0.32743062,0.50856,0.52509058,-0.34200428,0.531367,0.48069601,-0.33269656,0.50523,0.48066796,-0.36297816,0.522386,0.49615934,-0.37650903,0.537788,0.5341158,-0.35322217,0.52385,0.49120168,-0.33975752,0.497222,0.46201033,-0.34503315,0.483598,0.45842765,-0.35512963,0.487486,0.5403082,-0.37699655,0.519256,0.4991522,-0.3655714,0.50147,0.50084815,-0.38707883,0.512781,0.50622938,-0.40458965,0.523427
0.5060344,-0.42266472,0.558827,0.51624979,-0.37879491,0.5438,0.50001008,-0.41310369,0.565972,0.49838122,-0.38451776,0.5691,0.49066918,-0.35685502,0.567197,0.48973047,-0.33306947,0.562889,0.50998953,-0.34075068,0.544819,0.48204748,-0.31414048,0.522186,0.46286748,-0.32104971,0.51087,0.46389243,-0.33511872,0.516555,0.52396087,-0.34286162,0.531838,0.48431431,-0.33590913,0.509498,0.48746644,-0.36950506,0.527556,0.5033484,-0.39102929,0.541679,0.53064748,-0.352987,0.522983,0.49202702,-0.34288949,0.499464,0.49450002,-0.36874419,0.513895,0.51311064,-0.38357175,0.530325,0.53705725,-0.37394613,0.515992,0.49936145,-0.3609158,0.501704,0.49773917,-0.37267124,0.513712,0.51122501,-0.38415271,0.524953
0.50592679,-0.42396112,0.558257,0.51553471,-0.3793134,0.543392,0.49957429,-0.41446572,0.565275,0.49669425,-0.38407042,0.568265,0.48936263,-0.3574905,0.56672,0.48837132,-0.33385833,0.562439,0.50904519,-0.34051594,0.544334,0.48080268,-0.31378823,0.521858,0.45930394,-0.32296393,0.510619,0.46310551,-0.336273,0.516462,0.52261447,-0.34297416,0.53156,0.48343645,-0.33591482,0.509358,0.48689712,-0.3693799,0.5276,0.50090609,-0.3864,0.541966,0.52981355,-0.3527538,0.522855,0.49241333,-0.34100887,0.499513,0.49289053,-0.36677408,0.514095,0.51268382,-0.38282926,0.530651,0.53690352,-0.37356309,0.516003,0.49875743,-0.36010136,0.501728,0.49695561,-0.37267031,0.513854,0.51044319,-0.38412277,0.524924
