sluyters/QuantumLeap/src/datasets/gesture/HandGestureDataset_SHREC2017_csv/Gesture1/finger_1/subject_19_essai_3_skeletons_world.csv
Wrist_x,Wrist_y,Wrist_z,Palm_x,Palm_y,Palm_z,thumb_base_x,thumb_base_y,thumb_base_z,thumb_first_joint_x,thumb_first_joint_y,thumb_first_joint_z,thumb_second_joint_x,thumb_second_joint_y,thumb_second_joint_z,thumb_tip_x,thumb_tip_y,thumb_tip_z,index_base_x,index_base_y,index_base_z,index_first_joint_x,index_first_joint_y,index_first_joint_z,index_second_joint_x,index_second_joint_y,index_second_joint_z,index_tip_x,index_tip_y,index_tip_z,middle_base_x,middle_base_y,middle_base_z,middle_first_joint_x,middle_first_joint_y,middle_first_joint_z,middle_second_joint_x,middle_second_joint_y,middle_second_joint_z,middle_tip_x,middle_tip_y,middle_tip_z,ring_base_x,ring_base_y,ring_base_z,ring_first_joint_x,ring_first_joint_y,ring_first_joint_z,ring_second_joint_x,ring_second_joint_y,ring_second_joint_z,ring_tip_x,ring_tip_y,ring_tip_z,pinky_base_x,pinky_base_y,pinky_base_z,pinky_first_joint_x,pinky_first_joint_y,pinky_first_joint_z,pinky_second_joint_x,pinky_second_joint_y,pinky_second_joint_z,pinky_tip_x,pinky_tip_y,pinky_tip_z,
0.51645312,-0.41457461,0.603167,0.50144402,-0.36140628,0.586738,0.50064898,-0.41522333,0.604706,0.46485109,-0.39084928,0.593771,0.44122761,-0.37261247,0.592436,0.43028704,-0.36166413,0.593437,0.47253792,-0.34470659,0.583034,0.47324235,-0.31807939,0.599236,0.47310125,-0.3031939,0.607338,0.47301358,-0.29003944,0.614703,0.49515727,-0.33998306,0.579483,0.47011969,-0.29797027,0.55759,0.45590518,-0.28346042,0.544819,0.46172537,-0.29382607,0.552616,0.51655915,-0.34456121,0.579274,0.49366213,-0.30005723,0.557955,0.48180287,-0.28378365,0.547048,0.47181603,-0.27236877,0.537132,0.5441765,-0.36330079,0.583359,0.5284863,-0.320258,0.570962,0.52196614,-0.30973538,0.565265,0.51621283,-0.30055979,0.560239
0.5165909,-0.41537933,0.60307,0.50148492,-0.36140043,0.586603,0.50081171,-0.41599714,0.604633,0.46487007,-0.39068085,0.593562,0.44124149,-0.3726537,0.59154,0.43004516,-0.36129759,0.592394,0.47262603,-0.34453424,0.582923,0.47330301,-0.31783199,0.599011,0.47312915,-0.30306222,0.607054,0.47322325,-0.29044077,0.614367,0.49520106,-0.33981418,0.579332,0.47007196,-0.29799507,0.557412,0.45594352,-0.28362627,0.544626,0.46145357,-0.29310131,0.552407,0.51656578,-0.34439797,0.579095,0.49366988,-0.29993012,0.557737,0.48203519,-0.28432289,0.54681,0.47186035,-0.27275046,0.536877,0.54414243,-0.363152,0.583161,0.52814977,-0.3199727,0.570492,0.52146866,-0.30953648,0.564671,0.5155719,-0.30044317,0.559535
0.52009362,-0.41836933,0.606244,0.5012813,-0.36180974,0.585039,0.50412492,-0.41884521,0.607688,0.46896959,-0.39188001,0.595067,0.44358075,-0.37350932,0.59073,0.43062089,-0.35880248,0.589562,0.47713029,-0.34301471,0.579397,0.47131987,-0.31365294,0.592509,0.47049937,-0.29918723,0.599065,0.47332516,-0.28550115,0.605025,0.4995371,-0.33878656,0.575676,0.47076777,-0.29837982,0.549599,0.45434918,-0.28484943,0.534387,0.45799236,-0.29530536,0.540186,0.52138017,-0.34425056,0.576116,0.49496915,-0.30488557,0.550775,0.48134911,-0.29366498,0.53781,0.46896757,-0.2854902,0.526024,0.55052343,-0.36480648,0.582146,0.54044123,-0.32376426,0.573221,0.53544063,-0.31172031,0.569121,0.53100421,-0.30111461,0.565502
0.52078047,-0.41909531,0.60613,0.50174805,-0.36179846,0.584845,0.50485438,-0.41954714,0.607623,0.46956517,-0.39203095,0.594852,0.44397241,-0.3735633,0.590295,0.4307351,-0.35857689,0.588825,0.47701089,-0.34292887,0.579252,0.47185819,-0.31350331,0.592048,0.47084733,-0.29889275,0.598447,0.47272903,-0.28514158,0.604263,0.49933752,-0.3386512,0.575446,0.47052365,-0.29822509,0.549314,0.45408051,-0.28468099,0.534071,0.45769222,-0.29511184,0.539832,0.52112135,-0.34407966,0.57583,0.4946645,-0.30469791,0.550436,0.48102153,-0.29346513,0.537444,0.46861898,-0.28527799,0.525633,0.55021608,-0.36460281,0.581821,0.54035355,-0.32371173,0.573128,0.53545286,-0.31172743,0.569134,0.53110562,-0.30117212,0.56561
0.51877776,-0.41734188,0.603477,0.50212307,-0.36180397,0.584779,0.50289268,-0.41770198,0.604937,0.46624443,-0.39127797,0.592784,0.44227747,-0.37317906,0.589573,0.43002085,-0.35993899,0.5892,0.47227071,-0.34290345,0.580102,0.47005057,-0.31283371,0.590698,0.47130971,-0.29735812,0.595996,0.46915343,-0.28302925,0.600812,0.49478471,-0.33841048,0.576523,0.47277,-0.30035094,0.552617,0.45433146,-0.283712,0.538672,0.45615562,-0.29000894,0.545551,0.51639162,-0.34338949,0.576665,0.49422678,-0.3046141,0.553406,0.48018268,-0.28851131,0.541505,0.46925704,-0.27512542,0.530687,0.54472711,-0.36294041,0.58172,0.53815071,-0.32300705,0.571685,0.53285704,-0.31126262,0.567074,0.52462307,-0.30139844,0.563005
0.514019,-0.41383076,0.59784,0.49712259,-0.35793559,0.578135,0.49819882,-0.4140165,0.599228,0.46176759,-0.38888642,0.587065,0.43578906,-0.36996126,0.582108,0.4279099,-0.3561207,0.584208,0.46871214,-0.33949637,0.572965,0.4665657,-0.30885237,0.583841,0.46519673,-0.2931459,0.589279,0.46431945,-0.27950804,0.594223,0.49153683,-0.33614743,0.569433,0.46598484,-0.2956597,0.544631,0.45108451,-0.27621427,0.530163,0.45500465,-0.2788714,0.536618,0.51324082,-0.3422263,0.569781,0.49027615,-0.30108545,0.545618,0.47773382,-0.28829383,0.533255,0.46723439,-0.27285622,0.522017,0.54141804,-0.3632071,0.57532,0.53071795,-0.32100184,0.564637,0.52586098,-0.31047308,0.559729,0.52158458,-0.30226342,0.555398
0.50383152,-0.40506457,0.585657,0.4882352,-0.34414027,0.562684,0.48799291,-0.40483757,0.586676,0.4489516,-0.38017353,0.573866,0.41288418,-0.36056564,0.558693,0.39321233,-0.34404294,0.550281,0.4574662,-0.32152611,0.555705,0.45742565,-0.29182426,0.568023,0.45712427,-0.27654096,0.574182,0.45679839,-0.26246527,0.579781,0.48083392,-0.31961998,0.552539,0.45485049,-0.27813659,0.524841,0.43961129,-0.25690354,0.508684,0.44298175,-0.25909665,0.51369,0.50315386,-0.32718139,0.553731,0.47805584,-0.28488656,0.526654,0.46521445,-0.27049288,0.5128,0.45353607,-0.25728246,0.500206,0.53220884,-0.35020819,0.561026,0.51813574,-0.3060105,0.547265,0.51235733,-0.29538701,0.540943,0.50726413,-0.28583677,0.535365
0.49258259,-0.3950634,0.56982,0.47788584,-0.33644443,0.545764,0.4750214,-0.39303758,0.569793,0.43767815,-0.37190059,0.555265,0.40076173,-0.35159558,0.538593,0.38064706,-0.33473242,0.529411,0.44523542,-0.31266378,0.536722,0.44437926,-0.28261694,0.548502,0.44373761,-0.26715311,0.554393,0.44309297,-0.25288893,0.559747,0.46998901,-0.31161561,0.535141,0.44455177,-0.27007748,0.50627,0.42978803,-0.24887886,0.489429,0.43392227,-0.25119945,0.49391,0.49368214,-0.32000168,0.537822,0.46902762,-0.27759209,0.509583,0.45671327,-0.26325229,0.495135,0.44553633,-0.25010195,0.482001,0.52456691,-0.34413002,0.546987,0.50695412,-0.29801248,0.530121,0.50063938,-0.28780327,0.522371,0.49509428,-0.27865926,0.515534
0.47645315,-0.38038144,0.548834,0.46132233,-0.32446022,0.522443,0.46011238,-0.3791214,0.547425,0.4198109,-0.35836762,0.530604,0.38300798,-0.33784715,0.512638,0.36266264,-0.32055495,0.502181,0.42690185,-0.29840736,0.510336,0.4241476,-0.26579359,0.518525,0.42268048,-0.24912004,0.52262,0.42128347,-0.23371494,0.526343,0.45330555,-0.29931239,0.510789,0.42957404,-0.25976784,0.479695,0.41589913,-0.23994896,0.461558,0.42076666,-0.24357239,0.464756,0.47842187,-0.3094449,0.515536,0.4553775,-0.26886682,0.485038,0.44396304,-0.25588628,0.469435,0.43364099,-0.24401168,0.45525,0.51085721,-0.33564557,0.527515,0.49244727,-0.28825492,0.508032,0.48660407,-0.27892757,0.499081,0.48151245,-0.27060125,0.491183
0.46059947,-0.36963586,0.530017,0.44346691,-0.30930959,0.505057,0.44149955,-0.3651283,0.527322,0.39992342,-0.33998047,0.507202,0.36257747,-0.31604554,0.486993,0.34207864,-0.29659898,0.474868,0.40883667,-0.28134002,0.491443,0.40687209,-0.24776701,0.498249,0.40592876,-0.23054668,0.501653,0.40500643,-0.21456483,0.504747,0.43666773,-0.28452925,0.494035,0.42013027,-0.25184601,0.463917,0.4104968,-0.23329195,0.446348,0.41762524,-0.23382274,0.450032,0.46260362,-0.29641749,0.50031,0.43831553,-0.25526668,0.470467,0.42842811,-0.26362825,0.455198,0.42118537,-0.27487372,0.447245,0.49540317,-0.32446131,0.513543,0.46931287,-0.28230415,0.485856,0.46016921,-0.26472482,0.476081,0.45210228,-0.24917291,0.467456
0.44969825,-0.35931571,0.516492,0.4344046,-0.30040378,0.492717,0.42861148,-0.35266812,0.51219,0.39177385,-0.32877322,0.4906,0.35406889,-0.30511951,0.469201,0.33362184,-0.28618793,0.457008,0.39944032,-0.27062377,0.476998,0.39570176,-0.23662203,0.482591,0.39395223,-0.21918502,0.485388,0.39228798,-0.20299266,0.48793,0.4293102,-0.27453675,0.482218,0.41576847,-0.24286547,0.452919,0.40799473,-0.22488331,0.435828,0.41236706,-0.22707577,0.43964,0.4570352,-0.28691792,0.490468,0.43457607,-0.24648968,0.460763,0.42593629,-0.25515358,0.445565,0.42638145,-0.27487656,0.449442,0.48971453,-0.31736549,0.505493,0.46440032,-0.27585055,0.478021,0.45574835,-0.25499098,0.465398,0.4481785,-0.24336412,0.460102
0.44139808,-0.34985108,0.505611,0.4238629,-0.29037697,0.480121,0.42269085,-0.34384527,0.501182,0.38825298,-0.31807969,0.477121,0.34960514,-0.29211921,0.454762,0.32695612,-0.27099515,0.44177,0.38584016,-0.26283521,0.46356,0.37905279,-0.22953912,0.460793,0.37688234,-0.21222991,0.45941,0.37487513,-0.19594245,0.458153,0.41504104,-0.26635471,0.468866,0.39370855,-0.24402376,0.438138,0.38281116,-0.23125399,0.420213,0.38540851,-0.24657306,0.423131,0.44298554,-0.27819335,0.47747,0.42250261,-0.24180649,0.44704,0.41718101,-0.24402445,0.431471,0.4241032,-0.26432965,0.434574,0.47913218,-0.30395716,0.493323,0.45514357,-0.27193463,0.464671,0.44414136,-0.25714995,0.451507,0.4369927,-0.25887489,0.439891
0.4239293,-0.33006195,0.478026,0.40403351,-0.27321047,0.453149,0.4026895,-0.32510556,0.473275,0.37242224,-0.30061146,0.449065,0.33530519,-0.2734171,0.42635,0.31352721,-0.25153409,0.413245,0.36442677,-0.24666347,0.436308,0.36111795,-0.214079,0.434891,0.35950708,-0.19693443,0.434183,0.35800465,-0.18072976,0.433539,0.39390943,-0.24997098,0.442164,0.37560658,-0.22785792,0.411922,0.36510983,-0.21485437,0.394281,0.36827557,-0.23003877,0.397391,0.42266779,-0.26129927,0.451122,0.40563537,-0.22851963,0.421279,0.39991438,-0.22784967,0.40601,0.4073663,-0.24823162,0.409357,0.46140133,-0.28808219,0.46719,0.43776838,-0.2557347,0.438843,0.42693372,-0.24079278,0.425819,0.42008164,-0.2423826,0.414327
0.4065548,-0.31281553,0.451313,0.39355205,-0.26438504,0.441306,0.3848565,-0.30843461,0.445702,0.35777955,-0.28447967,0.426423,0.32715641,-0.26262112,0.411304,0.30696894,-0.24413654,0.402199,0.35524974,-0.24291221,0.428661,0.34631325,-0.20636223,0.418931,0.34286264,-0.18859052,0.414066,0.33974493,-0.17193422,0.409644,0.38654866,-0.24451131,0.436887,0.38397665,-0.23030482,0.419593,0.38314189,-0.22506607,0.409505,0.39510112,-0.24519501,0.418432,0.41548831,-0.25316175,0.445337,0.41185052,-0.22294758,0.426281,0.40358371,-0.23339436,0.416531,0.40671895,-0.25669584,0.425665,0.45195824,-0.27467096,0.456965,0.4415564,-0.25468544,0.438983,0.43698969,-0.24524057,0.430722,0.43622507,-0.25182073,0.423432
0.39034259,-0.29797289,0.43135,0.38687839,-0.25897717,0.43399,0.37261529,-0.29500745,0.426864,0.34876534,-0.27158989,0.414819,0.32836121,-0.25417527,0.407536,0.31193124,-0.23712137,0.401894,0.35391494,-0.24172803,0.42786,0.35208448,-0.21071831,0.420563,0.35877939,-0.1984868,0.425231,0.3650994,-0.18614704,0.429475,0.38438398,-0.24290464,0.435155,0.39281693,-0.22745847,0.429859,0.39535266,-0.24553726,0.42677,0.404481,-0.27110521,0.439712,0.41075366,-0.24983158,0.440742,0.41846208,-0.22755955,0.433519,0.41898423,-0.24077214,0.429824,0.42604019,-0.26821418,0.443374,0.44123137,-0.26704237,0.446002,0.436959,-0.25300455,0.438379,0.43508749,-0.24665284,0.434877,0.42997704,-0.25654243,0.431786
0.38284787,-0.29053447,0.422438,0.37335137,-0.24919592,0.421478,0.36016028,-0.28538615,0.414847,0.33480921,-0.24545777,0.398116,0.32887223,-0.218274,0.389465,0.32527784,-0.19653944,0.381215,0.33446589,-0.22446773,0.409077,0.33957169,-0.20373947,0.396139,0.36099464,-0.22091626,0.412551,0.37240062,-0.24642348,0.424213,0.36792188,-0.23103998,0.421055,0.38012167,-0.21676289,0.41219,0.37937103,-0.23450729,0.407019,0.38557582,-0.25777438,0.417785,0.397195,-0.24273512,0.431105,0.40718629,-0.22682185,0.419157,0.40745123,-0.24009772,0.413044,0.41113939,-0.26145097,0.423841,0.4315275,-0.26577995,0.442064,0.42998988,-0.25005587,0.430643,0.4305527,-0.24821314,0.425395,0.42668098,-0.25962432,0.420765
0.41117847,-0.2999928,0.423721,0.37177386,-0.25279482,0.407454,0.39893439,-0.30894307,0.426956,0.37858001,-0.28518756,0.416202,0.35441936,-0.27979561,0.420862,0.34184438,-0.27538252,0.425309,0.33955577,-0.24988036,0.406501,0.3226115,-0.2546354,0.384878,0.3528681,-0.27963047,0.401228,0.37800357,-0.29186587,0.416293,0.35491807,-0.23277626,0.40027,0.33081796,-0.23300457,0.379038,0.33470379,-0.2458224,0.366653,0.35013784,-0.25488103,0.374364,0.37421253,-0.22593874,0.39782,0.33874852,-0.19662056,0.378051,0.33167503,-0.20376967,0.367936,0.34892536,-0.22703464,0.376695,0.4058806,-0.2304573,0.399476,0.37901606,-0.21278068,0.380875,0.37103081,-0.22128341,0.372328,0.36774829,-0.23112735,0.365165
0.39256256,-0.29190428,0.413817,0.36593997,-0.24974195,0.401244,0.38939861,-0.30345659,0.417149,0.37072328,-0.28127376,0.408069,0.34997092,-0.27811095,0.416346,0.33834857,-0.27350424,0.422032,0.33538429,-0.24760307,0.401828,0.3204313,-0.25335039,0.38327,0.3511778,-0.27910542,0.400412,0.37617455,-0.29167475,0.415021,0.35075476,-0.2306513,0.395693,0.31417158,-0.19509581,0.377788,0.30624666,-0.20315558,0.367344,0.32242205,-0.22445429,0.376445,0.36940928,-0.22361633,0.392709,0.32564869,-0.19482117,0.377011,0.31231658,-0.19171211,0.36898,0.32456562,-0.20681632,0.379505,0.39926112,-0.22739731,0.392827,0.37517708,-0.20151813,0.376999,0.36732978,-0.20643244,0.369727,0.36415328,-0.21827576,0.363485
0.3922909,-0.29175798,0.411683,0.36410442,-0.24955249,0.399808,0.38681303,-0.30287762,0.415001,0.36842015,-0.28107035,0.4062,0.34797018,-0.27808117,0.414809,0.33604538,-0.27254246,0.420133,0.33379055,-0.24750289,0.40063,0.31920959,-0.25346901,0.382686,0.35001571,-0.2794285,0.399967,0.375025,-0.29211828,0.414505,0.34923498,-0.23060015,0.394564,0.31290949,-0.19481495,0.377284,0.30493951,-0.20260855,0.367205,0.3211885,-0.22411236,0.376558,0.3678333,-0.22355633,0.391522,0.32440309,-0.19521962,0.376408,0.31134832,-0.1923782,0.368675,0.32383363,-0.20777997,0.379468,0.39741956,-0.2272505,0.391395,0.37364439,-0.20179517,0.37608,0.36606375,-0.20691796,0.369043,0.36322529,-0.2189395,0.363119
0.39234652,-0.29183294,0.410627,0.36297542,-0.24941103,0.398943,0.38535193,-0.30246875,0.413728,0.36673289,-0.28063432,0.404702,0.34624267,-0.27763057,0.413225,0.33421692,-0.27170729,0.418418,0.33246543,-0.24722171,0.399492,0.317673,-0.25382032,0.383231,0.34836995,-0.28019807,0.40069,0.37374233,-0.29224765,0.414177,0.34817404,-0.23051304,0.393784,0.31183817,-0.19460855,0.376607,0.3038297,-0.20227086,0.366587,0.32014032,-0.2238083,0.376036,0.36699405,-0.22359625,0.391006,0.32348929,-0.19530803,0.375891,0.31044584,-0.19253111,0.368159,0.32300267,-0.20802179,0.379026,0.39681696,-0.22739849,0.39111,0.37294607,-0.20190793,0.375806,0.36540184,-0.20707195,0.368774,0.36266097,-0.21910708,0.362895
0.38982122,-0.29152756,0.411182,0.36080238,-0.25218528,0.400396,0.38398534,-0.3035218,0.414193,0.35792633,-0.28484311,0.40543,0.33771281,-0.28194951,0.414315,0.33075362,-0.27334006,0.419044,0.32556782,-0.25142224,0.401139,0.31122733,-0.25840358,0.388224,0.34111296,-0.28540321,0.406006,0.36979643,-0.29712409,0.418206,0.34133443,-0.23488136,0.395633,0.30574875,-0.19841268,0.379242,0.29733828,-0.20592067,0.369681,0.31918759,-0.2263413,0.379455,0.3600278,-0.22805461,0.392874,0.31728052,-0.19959136,0.378462,0.30662616,-0.19951667,0.371088,0.32445266,-0.21313335,0.382291,0.38942977,-0.23189963,0.392763,0.36521552,-0.21010408,0.37808,0.3578871,-0.2171686,0.371334,0.35646757,-0.22930382,0.3662
0.38950486,-0.2921441,0.410965,0.35492034,-0.25406688,0.400376,0.3824738,-0.30380455,0.413806,0.35725413,-0.28434627,0.404889,0.33710889,-0.28135314,0.413725,0.32892503,-0.27323353,0.41856,0.32466958,-0.25223604,0.400922,0.31072231,-0.25926447,0.388009,0.34094367,-0.28608237,0.405859,0.36818157,-0.29771544,0.418086,0.34043024,-0.23550099,0.3957,0.30452778,-0.19944873,0.379435,0.29649441,-0.20699389,0.369946,0.31300034,-0.22874852,0.379808,0.35920382,-0.22842056,0.393143,0.3161946,-0.20047988,0.378773,0.30570244,-0.2004849,0.371421,0.32236205,-0.21912069,0.382695,0.38882014,-0.23184745,0.393195,0.36446397,-0.21108498,0.378559,0.35751099,-0.21851679,0.371835,0.35666245,-0.23061528,0.366877
0.38940437,-0.29273415,0.41095,0.35471009,-0.25421345,0.400393,0.38159725,-0.30416628,0.413748,0.35709761,-0.28423439,0.404785,0.33696597,-0.28120309,0.4136,0.32796222,-0.27327922,0.418438,0.32439639,-0.2525276,0.400882,0.31056887,-0.25956395,0.387956,0.34089564,-0.28631586,0.40582,0.36740325,-0.2980324,0.418057,0.3401362,-0.23571273,0.395731,0.30410492,-0.19978414,0.37948,0.29618602,-0.20733333,0.370001,0.31280055,-0.22906016,0.379878,0.35892201,-0.22853813,0.393225,0.31581162,-0.20076323,0.378852,0.30536609,-0.20078959,0.371498,0.3221148,-0.21940085,0.382782,0.38860293,-0.23182176,0.393325,0.36418319,-0.21139527,0.378688,0.35734775,-0.21894376,0.371963,0.3566644,-0.23101206,0.367038
0.39057146,-0.29370819,0.410271,0.35443624,-0.25416573,0.400211,0.38042591,-0.30402641,0.413146,0.3568209,-0.28402049,0.404508,0.33577394,-0.28019297,0.412162,0.32727268,-0.27326931,0.418295,0.32437788,-0.25276542,0.401008,0.31098801,-0.26012845,0.388549,0.34144242,-0.28691224,0.40648,0.36739358,-0.2985936,0.41856,0.34000849,-0.23583201,0.395769,0.30428865,-0.20021188,0.379996,0.29664576,-0.20793349,0.370796,0.31345866,-0.2297717,0.380834,0.35863786,-0.22850563,0.393109,0.31589373,-0.20107912,0.37922,0.30567223,-0.20125431,0.372114,0.32262657,-0.21997424,0.383581,0.38802322,-0.23152783,0.392913,0.3639903,-0.21152005,0.378698,0.35740049,-0.21923978,0.372167,0.35701656,-0.23143815,0.36748
0.39166541,-0.29517044,0.409825,0.35426595,-0.2541328,0.400095,0.37953755,-0.30393406,0.412701,0.35653865,-0.28379962,0.40421,0.33558895,-0.28002941,0.41195,0.32662594,-0.27313292,0.417995,0.32431369,-0.2528668,0.401018,0.31117394,-0.26041262,0.388823,0.3417125,-0.28722158,0.406807,0.36730573,-0.29890201,0.418803,0.33993721,-0.23590729,0.395798,0.3044165,-0.20048055,0.380328,0.29694524,-0.20831076,0.371303,0.3138914,-0.23022696,0.381454,0.35852266,-0.22852137,0.3931,0.31598958,-0.20129858,0.379497,0.30589947,-0.20156226,0.372537,0.32298677,-0.22035498,0.384124,0.38778638,-0.23141762,0.392778,0.36398024,-0.21165638,0.378814,0.35753634,-0.21948151,0.372398,0.3573354,-0.23176376,0.367856
0.39131249,-0.2953684,0.409877,0.35424041,-0.25417389,0.400117,0.37918601,-0.30414718,0.412735,0.3565213,-0.28378837,0.404205,0.33561254,-0.28004293,0.411989,0.32630919,-0.27317104,0.417985,0.32425094,-0.25291884,0.401,0.31110524,-0.26044095,0.388765,0.34165903,-0.28723155,0.406747,0.36705216,-0.29896699,0.418759,0.33988165,-0.23595193,0.395808,0.3043053,-0.2005304,0.380304,0.29684009,-0.20834858,0.37126,0.31379771,-0.2302503,0.381403,0.35848509,-0.22855685,0.393137,0.31589799,-0.20134589,0.379495,0.30580123,-0.20160313,0.372515,0.32289386,-0.22038172,0.38409,0.38778942,-0.23144019,0.392851,0.36393761,-0.21172642,0.378854,0.35750301,-0.21956665,0.372423,0.357319,-0.2318324,0.367871
0.39171411,-0.29728349,0.41136,0.35642091,-0.25594202,0.402373,0.37895111,-0.305608,0.413555,0.35693159,-0.28422066,0.404449,0.336043,-0.28037344,0.41213,0.32732926,-0.27301241,0.418021,0.32570586,-0.25413806,0.402494,0.31271084,-0.26178559,0.390284,0.34336962,-0.28884785,0.408496,0.36771197,-0.3013445,0.420589,0.34236023,-0.2378642,0.398405,0.31053536,-0.20920235,0.38341,0.30434509,-0.21845896,0.374663,0.32139135,-0.24102465,0.385119,0.36178818,-0.23095309,0.396518,0.32086853,-0.20410613,0.383061,0.31048369,-0.20370581,0.376176,0.32639906,-0.22260768,0.388001,0.39188386,-0.23429179,0.396864,0.37087327,-0.21166247,0.383072,0.3636652,-0.21856142,0.376735,0.36350505,-0.23172019,0.371821
0.39505075,-0.30069285,0.415693,0.36179097,-0.25956685,0.408044,0.38205048,-0.3089662,0.417713,0.36299825,-0.28784401,0.408968,0.34367019,-0.2847159,0.417896,0.32685157,-0.27298096,0.417893,0.33290667,-0.25871136,0.408387,0.32151245,-0.26738366,0.397102,0.35088504,-0.29402617,0.415524,0.37606517,-0.30566773,0.427337,0.35001941,-0.24296785,0.404666,0.31716155,-0.21172423,0.390853,0.30656135,-0.21502441,0.382795,0.32466917,-0.23891709,0.393696,0.36955174,-0.2363545,0.402861,0.32775437,-0.20740641,0.390443,0.3177428,-0.20733885,0.38409,0.33547959,-0.22649951,0.396365,0.399209,-0.23978438,0.402943,0.3781124,-0.21464324,0.390079,0.37188066,-0.22017093,0.384168,0.36858861,-0.23722286,0.378953
0.39566069,-0.30179433,0.417018,0.36290635,-0.26018799,0.408999,0.38270627,-0.31010659,0.419052,0.36436111,-0.28831671,0.410159,0.34518506,-0.28535843,0.419317,0.32730438,-0.27353961,0.418757,0.3339078,-0.25897634,0.409226,0.32229227,-0.26744644,0.397654,0.35178439,-0.29433637,0.416025,0.37584445,-0.3065927,0.42793,0.35096741,-0.24317399,0.405458,0.3177265,-0.21146146,0.391306,0.30713863,-0.2153194,0.383051,0.32485288,-0.23899429,0.393833,0.3705169,-0.23654428,0.403674,0.32840765,-0.20746279,0.390944,0.31826481,-0.20730636,0.38443,0.33591154,-0.22635778,0.39658,0.40030995,-0.24000834,0.403877,0.37890015,-0.2147095,0.390736,0.37255012,-0.22015976,0.384698,0.36922047,-0.23683769,0.379371
0.39511987,-0.30220531,0.417386,0.3730914,-0.26585567,0.418006,0.384396,-0.31211699,0.421758,0.37080273,-0.29299843,0.420206,0.35672113,-0.29169405,0.434414,0.34621337,-0.28029118,0.437596,0.34961024,-0.26605689,0.425174,0.34044333,-0.28025684,0.422876,0.36910418,-0.3089115,0.441509,0.39572601,-0.32322532,0.449859,0.36393156,-0.24967592,0.41828,0.33667101,-0.22114637,0.413004,0.32910054,-0.22999024,0.409926,0.34483365,-0.25462716,0.422945,0.37950785,-0.24197609,0.412485,0.34537209,-0.21649503,0.409184,0.33665087,-0.21869349,0.407495,0.35395828,-0.23975769,0.422313,0.40262553,-0.24155757,0.406148,0.38829537,-0.22069502,0.401217,0.38099665,-0.22978104,0.398952,0.3861449,-0.24353136,0.396953
0.43722247,-0.32451824,0.456331,0.39732321,-0.27756507,0.435825,0.43113231,-0.3292633,0.458507,0.41116425,-0.3127809,0.444598,0.3862628,-0.31247245,0.447714,0.37288636,-0.29973835,0.442583,0.36262082,-0.27732421,0.431606,0.32455067,-0.23931269,0.407099,0.30871437,-0.22944866,0.394846,0.31600857,-0.24492213,0.400818,0.37749465,-0.25937501,0.42677,0.32786532,-0.22100776,0.401507,0.30960125,-0.21591654,0.38677,0.32115748,-0.23423773,0.392831,0.3974823,-0.25116883,0.426174,0.34522351,-0.21861049,0.404297,0.32463898,-0.21099149,0.393105,0.33525263,-0.22619609,0.400895,0.43135675,-0.25308753,0.430917,0.3924331,-0.22941635,0.408666,0.3791118,-0.22502193,0.398442,0.37727162,-0.23102895,0.389421
0.45419218,-0.32761581,0.469224,0.40785684,-0.28512911,0.448453,0.44155816,-0.33704806,0.470749,0.42009659,-0.31860196,0.455844,0.39484428,-0.3181957,0.458237,0.38135956,-0.30588308,0.452703,0.37141143,-0.2842283,0.443102,0.3334099,-0.24609034,0.418403,0.31789318,-0.23599743,0.406054,0.32526939,-0.25145267,0.41201,0.38697181,-0.26652774,0.439281,0.33710565,-0.22814457,0.413598,0.31924038,-0.22266748,0.398617,0.3318315,-0.23871203,0.404604,0.40758024,-0.2584916,0.439566,0.3553415,-0.22622774,0.417607,0.33510218,-0.21850197,0.406372,0.34568015,-0.23225513,0.414317,0.44219292,-0.26054892,0.445318,0.40328994,-0.23647029,0.422512,0.3901387,-0.23175934,0.412033,0.38932175,-0.23815345,0.402787
0.43912196,-0.33551315,0.47763,0.4041939,-0.28792907,0.463069,0.42420113,-0.34259563,0.478011,0.39123255,-0.31739264,0.464055,0.36423716,-0.29706672,0.453937,0.35054777,-0.2813957,0.450376,0.36959429,-0.28202631,0.458226,0.33629624,-0.26347826,0.440022,0.31923197,-0.25404012,0.430919,0.33065591,-0.26777308,0.439962,0.38932752,-0.26788404,0.456638,0.35151865,-0.22287725,0.436105,0.33163285,-0.20441645,0.424127,0.33200917,-0.20256307,0.432648,0.41153664,-0.26347288,0.45774,0.36662903,-0.22745667,0.438252,0.35742401,-0.224443,0.428281,0.36449355,-0.23162834,0.437803,0.44523328,-0.27060588,0.462732,0.4126721,-0.24579727,0.443777,0.40497177,-0.24646551,0.435067,0.40544484,-0.25513299,0.427383
0.44292153,-0.33810462,0.483865,0.41323279,-0.29418936,0.476867,0.42802384,-0.34504899,0.484048,0.40468618,-0.3274269,0.484993,0.37633601,-0.30635633,0.474996,0.36203161,-0.29029707,0.471245,0.38165865,-0.29009543,0.47454,0.34949993,-0.27353286,0.462207,0.33284399,-0.26501747,0.45604,0.34387607,-0.27922158,0.467573,0.40137905,-0.27630959,0.473776,0.36887796,-0.23507188,0.46009,0.35022589,-0.21790749,0.452107,0.35069074,-0.21664877,0.46322,0.42257063,-0.27134196,0.474305,0.38162011,-0.23841507,0.461196,0.3726912,-0.23615573,0.454489,0.37931536,-0.24375026,0.466747,0.45340184,-0.27664487,0.476704,0.42193508,-0.25059457,0.463369,0.41371896,-0.25021705,0.457242,0.41526425,-0.25978577,0.451835
0.45033418,-0.34898951,0.50399,0.42005039,-0.30107231,0.489754,0.43667925,-0.35493825,0.505924,0.40471587,-0.33897183,0.502214,0.37562314,-0.32147171,0.492261,0.35928503,-0.30527854,0.484751,0.38549573,-0.28900013,0.487497,0.35378054,-0.27882706,0.470889,0.33405252,-0.27396683,0.462585,0.34239234,-0.29331166,0.47201,0.40703313,-0.28068418,0.483467,0.37157232,-0.23512084,0.463636,0.35024228,-0.2160964,0.452068,0.34831694,-0.21184106,0.46069,0.42741942,-0.27758325,0.482498,0.3851227,-0.23888075,0.46436,0.37285587,-0.23735976,0.45508,0.37631952,-0.2457595,0.464915,0.45454021,-0.29132098,0.485198,0.42572676,-0.25510105,0.467317,0.41430435,-0.25217894,0.459101,0.41086527,-0.26095988,0.451851
0.44837355,-0.36012933,0.522026,0.4283969,-0.31066947,0.509327,0.42843716,-0.36438101,0.528131,0.3996586,-0.34841811,0.523076,0.36655626,-0.32721021,0.508817,0.34919767,-0.30957486,0.501451,0.40274392,-0.2978194,0.514261,0.38549826,-0.2536613,0.496442,0.37549955,-0.23333935,0.487533,0.37840414,-0.22254395,0.495603,0.41800737,-0.28771513,0.50372,0.39306139,-0.24094849,0.486755,0.37534625,-0.22571118,0.476859,0.37048012,-0.22052342,0.485288,0.43311026,-0.28741845,0.497119,0.40339237,-0.24630982,0.483547,0.39365337,-0.24965119,0.476603,0.39531811,-0.26110748,0.486759,0.45359785,-0.30009404,0.493416,0.42976724,-0.26884787,0.479336,0.41797918,-0.26651766,0.472867,0.41138822,-0.2768993,0.467159
0.45059363,-0.36471483,0.528835,0.43355127,-0.31686007,0.521171,0.43317479,-0.368899,0.534652,0.4053283,-0.35342711,0.531346,0.37305634,-0.33235769,0.518013,0.35457328,-0.31393188,0.509016,0.41228608,-0.30707161,0.527532,0.39818381,-0.26445876,0.513961,0.389719,-0.24464601,0.507175,0.38911166,-0.23138423,0.510799,0.42807927,-0.29687946,0.517787,0.40656844,-0.25207278,0.505276,0.390693,-0.23710992,0.497978,0.39100238,-0.2332291,0.508251,0.44297879,-0.29601458,0.51101,0.41644434,-0.25660461,0.501514,0.40828515,-0.26006794,0.496655,0.41409202,-0.27235403,0.508742,0.46212337,-0.30726912,0.5058,0.44327281,-0.27323251,0.495306,0.43306558,-0.2684283,0.490485,0.42693965,-0.27809041,0.486231
0.45533551,-0.37080399,0.536766,0.43934219,-0.32368775,0.528983,0.44082292,-0.37621335,0.544232,0.41448692,-0.36396795,0.543414,0.38362726,-0.34458369,0.532605,0.36835203,-0.32860638,0.528092,0.4221567,-0.3161683,0.537914,0.40732047,-0.27417354,0.524421,0.39823397,-0.25474596,0.517674,0.39364834,-0.23703473,0.516851,0.43474931,-0.30325236,0.525546,0.41361313,-0.25858539,0.513657,0.3972303,-0.24408531,0.506721,0.39646985,-0.24023963,0.516391,0.44756778,-0.30144737,0.516622,0.42190704,-0.26271014,0.508453,0.41234785,-0.26982509,0.504274,0.41799149,-0.2795397,0.515917,0.46427699,-0.3117117,0.509155,0.44429701,-0.28161471,0.499783,0.43324594,-0.27771129,0.495476,0.42913981,-0.28456426,0.491677
0.46602973,-0.38856244,0.561003,0.45445296,-0.33830485,0.547853,0.45193618,-0.39065665,0.565711,0.41755166,-0.37209823,0.559045,0.38530749,-0.34785022,0.544677,0.37226245,-0.33019813,0.540174,0.43282,-0.32198733,0.550403,0.41903794,-0.27550391,0.535093,0.4111752,-0.25383763,0.527438,0.41334239,-0.24192199,0.53401,0.45185667,-0.31795837,0.542046,0.43664787,-0.26979925,0.524112,0.42303263,-0.25355587,0.51365,0.42634504,-0.24939169,0.52229,0.46770207,-0.32395023,0.537324,0.44573762,-0.28296291,0.522211,0.43403925,-0.28098451,0.514479,0.43863899,-0.29491978,0.524687,0.48610706,-0.3433631,0.535741,0.4936806,-0.30528543,0.520893,0.4850112,-0.30247999,0.514071,0.47089266,-0.30968162,0.508052
0.47166568,-0.39807754,0.571169,0.46190277,-0.34718514,0.555816,0.46023959,-0.39921074,0.576733,0.43136203,-0.38213915,0.569761,0.40076062,-0.35707351,0.556437,0.3825239,-0.33635566,0.549039,0.4434799,-0.33122003,0.558899,0.42716282,-0.28625621,0.542975,0.41840549,-0.26465902,0.535013,0.41728374,-0.24802067,0.538663,0.46015128,-0.32771397,0.549036,0.44228818,-0.27918724,0.529482,0.42680042,-0.26353069,0.518076,0.42842449,-0.25991708,0.525649,0.47517265,-0.33308786,0.543435,0.44976966,-0.29669169,0.527178,0.43722149,-0.29862626,0.51886,0.4410476,-0.31607184,0.528035,0.49340994,-0.35212806,0.541493,0.50089904,-0.31425116,0.52715,0.49173659,-0.3123706,0.52056,0.47739625,-0.3168878,0.514745
0.4727975,-0.40004993,0.572904,0.46306017,-0.34857913,0.556619,0.4615123,-0.40099433,0.578638,0.43271647,-0.38333903,0.57155,0.40163281,-0.35785063,0.557648,0.3851913,-0.33774201,0.550905,0.44405597,-0.33165028,0.559625,0.42743502,-0.28643862,0.543321,0.41852827,-0.26473668,0.53517,0.41801682,-0.24971158,0.539464,0.46048066,-0.32794855,0.549429,0.44199247,-0.27900059,0.529128,0.42614961,-0.26312884,0.517286,0.42743259,-0.25931531,0.524432,0.47541048,-0.33325458,0.543707,0.44946508,-0.29649077,0.526821,0.43665017,-0.29823604,0.518182,0.44011795,-0.31540562,0.526922,0.49376349,-0.35238037,0.541881,0.50123066,-0.31445921,0.527499,0.49204927,-0.31256922,0.520891,0.47778771,-0.31811627,0.51506
0.47817154,-0.40500705,0.578624,0.47022511,-0.35515633,0.562872,0.46684124,-0.40720535,0.586218,0.44477336,-0.3931958,0.582256,0.41408457,-0.36844864,0.569623,0.39736196,-0.34646624,0.562514,0.45474634,-0.34061855,0.569028,0.43934302,-0.29675694,0.555711,0.43153243,-0.27517748,0.549053,0.43402522,-0.2631849,0.556747,0.46672493,-0.33273305,0.555916,0.44954773,-0.28603904,0.536949,0.43320749,-0.27007899,0.525885,0.43376701,-0.26414365,0.532536,0.4795642,-0.33641016,0.547699,0.4526595,-0.30706103,0.53132,0.4402607,-0.31232695,0.52294,0.44380064,-0.33187706,0.530893,0.49549601,-0.35365007,0.543075,0.50370609,-0.31627991,0.529821,0.49518701,-0.31391437,0.523732,0.48137631,-0.32003511,0.518359
0.48312463,-0.41189594,0.585504,0.47748597,-0.36270674,0.569585,0.47447096,-0.41465881,0.59294,0.44968617,-0.39917572,0.588657,0.41802489,-0.37415878,0.574907,0.4048261,-0.35561865,0.569761,0.45959472,-0.34635558,0.575427,0.44344253,-0.30173773,0.561382,0.43526749,-0.27984473,0.554359,0.43741599,-0.26760908,0.561706,0.47350414,-0.34012575,0.562556,0.45434788,-0.29104559,0.543363,0.43760834,-0.27582999,0.532168,0.43730853,-0.27279769,0.538821,0.48642371,-0.34338242,0.554564,0.4564422,-0.31090461,0.53635,0.4432966,-0.31531039,0.527032,0.44649448,-0.33433603,0.534499,0.50284251,-0.36035179,0.550224,0.50958781,-0.32199151,0.536275,0.50174023,-0.31664225,0.529866,0.48728952,-0.32302657,0.524211
0.49065456,-0.41963556,0.592514,0.48130386,-0.36736518,0.574294,0.47816422,-0.41915115,0.59693,0.44898201,-0.40179684,0.587104,0.41766142,-0.37751572,0.573478,0.40441116,-0.35954987,0.568819,0.45822505,-0.34973519,0.574483,0.45869217,-0.31681955,0.579485,0.45797368,-0.29945736,0.581985,0.45514735,-0.28271375,0.584258,0.47602702,-0.34562211,0.566248,0.45394051,-0.29439768,0.543726,0.43604711,-0.27873819,0.530588,0.43606262,-0.27688392,0.537284,0.49284595,-0.35095212,0.562466,0.46150716,-0.31600089,0.541954,0.44790265,-0.3182319,0.53146,0.45138739,-0.33629861,0.539268,0.51444726,-0.37087427,0.563215,0.51747577,-0.32942001,0.545646,0.50915641,-0.32152738,0.537574,0.49525221,-0.32550768,0.530452
0.49286424,-0.42225472,0.594725,0.48358308,-0.3714248,0.576765,0.47951361,-0.42102584,0.598048,0.44905835,-0.40205553,0.586741,0.41896355,-0.37830531,0.57464,0.40707615,-0.36118278,0.571446,0.4595638,-0.35100799,0.575318,0.4590015,-0.31709475,0.579001,0.45743406,-0.29975715,0.580843,0.45397059,-0.28361777,0.582518,0.4789005,-0.3494119,0.568834,0.45693251,-0.29798889,0.546145,0.43857146,-0.28095385,0.53291,0.4387656,-0.27926523,0.53992,0.49689015,-0.35565736,0.566455,0.46549692,-0.31952307,0.546239,0.45171468,-0.32160411,0.535897,0.45536467,-0.33952539,0.544187,0.51972696,-0.37661544,0.568631,0.52135301,-0.3340302,0.549371,0.51238053,-0.32550805,0.540521,0.49755016,-0.32763309,0.532713
0.48628513,-0.41604156,0.587346,0.48367284,-0.3689529,0.575432,0.4733951,-0.41535812,0.589886,0.44783294,-0.40174808,0.586189,0.41219667,-0.38172555,0.574198,0.4002376,-0.3683681,0.574125,0.46616142,-0.34692556,0.575006,0.4582329,-0.3135463,0.578182,0.45627722,-0.29567062,0.57977,0.45356941,-0.27998988,0.581214,0.48740141,-0.34673562,0.570172,0.47428993,-0.29786675,0.55261,0.46180873,-0.28415255,0.542366,0.46696991,-0.28272886,0.551792,0.50554503,-0.35463089,0.568153,0.49146346,-0.31110652,0.551179,0.48426327,-0.28870895,0.542495,0.49015831,-0.29404097,0.552887,0.52599508,-0.37620104,0.569127,0.52104224,-0.33299534,0.556147,0.51697464,-0.31651508,0.550183,0.51018161,-0.31336343,0.54492
0.48653579,-0.41614115,0.587156,0.48455626,-0.36890932,0.57557,0.47360012,-0.41531681,0.589744,0.44764234,-0.40205245,0.586571,0.41248095,-0.38198881,0.574594,0.40059801,-0.36869982,0.574642,0.4664322,-0.34712708,0.57534,0.45933549,-0.31342914,0.578794,0.45725164,-0.29561534,0.58052,0.45464804,-0.27978912,0.58209,0.48764162,-0.34690651,0.570453,0.47479803,-0.29818585,0.553202,0.46246607,-0.28455701,0.543138,0.46771802,-0.28318181,0.552676,0.50570875,-0.35474574,0.568337,0.49188254,-0.31137181,0.551649,0.48481315,-0.28903678,0.543111,0.49080815,-0.2944308,0.55362,0.52599045,-0.37619773,0.569122,0.52147789,-0.33327376,0.556612,0.51761453,-0.31690686,0.550864,0.51099802,-0.31386488,0.545792
0.49073388,-0.41855145,0.58939,0.49081422,-0.36800024,0.576648,0.47808485,-0.41816234,0.591706,0.45204016,-0.4039643,0.588048,0.4229197,-0.38728037,0.578985,0.40475879,-0.3718605,0.577585,0.46702302,-0.34727359,0.575557,0.46274524,-0.31605728,0.582296,0.46139451,-0.29926726,0.585665,0.45963151,-0.28173354,0.588729,0.48874683,-0.34623395,0.571022,0.4742582,-0.29652623,0.552645,0.46177678,-0.28244889,0.541925,0.46702329,-0.28075352,0.551072,0.5098809,-0.34981145,0.569388,0.4920783,-0.31024924,0.551423,0.48407551,-0.2879632,0.542231,0.49020359,-0.29393629,0.55226,0.53385562,-0.36905948,0.570989,0.52638205,-0.326246,0.559465,0.52104494,-0.31768045,0.55417,0.51756137,-0.3056799,0.549498
0.49197159,-0.41843468,0.589447,0.49146239,-0.36744516,0.576516,0.47933508,-0.41801205,0.591757,0.45297038,-0.40396668,0.588235,0.42307748,-0.38742485,0.579201,0.40667027,-0.37328558,0.578815,0.46705756,-0.34715224,0.575343,0.46341311,-0.31627674,0.583175,0.46221795,-0.29978592,0.587092,0.4604432,-0.28296532,0.590652,0.48887198,-0.34559267,0.570806,0.47389358,-0.29563975,0.552256,0.46153046,-0.28145938,0.541435,0.46688076,-0.27966847,0.550514,0.50971344,-0.34969656,0.569201,0.49197771,-0.30956113,0.551087,0.4837309,-0.28743981,0.541818,0.49007875,-0.29379526,0.551779,0.53375651,-0.36899097,0.570883,0.5261092,-0.32607689,0.559175,0.52085508,-0.31690267,0.553796,0.51713847,-0.30543013,0.549049
