sluyters/QuantumLeap/backend/src/datasets/gesture/HandGestureDataset_SHREC2017_csv/Gesture3/finger_1/subject_5_essai_1_skeletons_world.csv
Wrist_x,Wrist_y,Wrist_z,Palm_x,Palm_y,Palm_z,thumb_base_x,thumb_base_y,thumb_base_z,thumb_first_joint_x,thumb_first_joint_y,thumb_first_joint_z,thumb_second_joint_x,thumb_second_joint_y,thumb_second_joint_z,thumb_tip_x,thumb_tip_y,thumb_tip_z,index_base_x,index_base_y,index_base_z,index_first_joint_x,index_first_joint_y,index_first_joint_z,index_second_joint_x,index_second_joint_y,index_second_joint_z,index_tip_x,index_tip_y,index_tip_z,middle_base_x,middle_base_y,middle_base_z,middle_first_joint_x,middle_first_joint_y,middle_first_joint_z,middle_second_joint_x,middle_second_joint_y,middle_second_joint_z,middle_tip_x,middle_tip_y,middle_tip_z,ring_base_x,ring_base_y,ring_base_z,ring_first_joint_x,ring_first_joint_y,ring_first_joint_z,ring_second_joint_x,ring_second_joint_y,ring_second_joint_z,ring_tip_x,ring_tip_y,ring_tip_z,pinky_base_x,pinky_base_y,pinky_base_z,pinky_first_joint_x,pinky_first_joint_y,pinky_first_joint_z,pinky_second_joint_x,pinky_second_joint_y,pinky_second_joint_z,pinky_tip_x,pinky_tip_y,pinky_tip_z,r
0.46282738,-0.34473039,0.524347,0.45729342,-0.30100633,0.523916,0.43470131,-0.32810923,0.513362,0.41892096,-0.29172309,0.503366,0.39953886,-0.25585265,0.482504,0.3943133,-0.23391276,0.475069,0.41448788,-0.25320711,0.510141,0.4109642,-0.21913217,0.509689,0.41639123,-0.20239912,0.509463,0.43529467,-0.20288325,0.520913,0.44483077,-0.2619066,0.523502,0.42790096,-0.22015662,0.515465,0.43337587,-0.20907589,0.510777,0.43981881,-0.21251427,0.507429,0.47192767,-0.26837795,0.534525,0.45051634,-0.22715012,0.525382,0.44549406,-0.20691321,0.520704,0.44450688,-0.19019905,0.516452,0.50647582,-0.28324329,0.547713,0.50626802,-0.25363559,0.547924,0.50842566,-0.23926921,0.548021,0.51298869,-0.22523077,0.548107
0.46266739,-0.3445512,0.523998,0.4576804,-0.30263918,0.524727,0.43477086,-0.32828665,0.51319,0.41858517,-0.29127998,0.502616,0.3995805,-0.25583171,0.482016,0.39345691,-0.23379908,0.474347,0.41684818,-0.25386444,0.51191,0.41389189,-0.22012226,0.511766,0.42011705,-0.20408944,0.511694,0.43798839,-0.20391969,0.52314,0.44783828,-0.26034571,0.525428,0.43081015,-0.22097514,0.5185,0.4382326,-0.21045787,0.514459,0.44603071,-0.21244713,0.511572,0.47409666,-0.26923162,0.536498,0.4537064,-0.22878461,0.528006,0.45101764,-0.21016975,0.523661,0.44708984,-0.1918245,0.519711,0.50796561,-0.28436554,0.549584,0.5097326,-0.25546576,0.551451,0.51208456,-0.24172707,0.552309,0.51580181,-0.22953217,0.553066
0.46241683,-0.34429659,0.523488,0.45704648,-0.3025725,0.52454,0.43455747,-0.32815339,0.51268,0.41829875,-0.2909834,0.501993,0.39884672,-0.25570122,0.481469,0.39242653,-0.23386715,0.474142,0.41742288,-0.25371253,0.511929,0.41636722,-0.21837122,0.51055,0.42635844,-0.20346495,0.50986,0.44169866,-0.20491938,0.520976,0.44852368,-0.26034903,0.525553,0.43164919,-0.22077603,0.518942,0.44032733,-0.20819993,0.515085,0.44742071,-0.2013358,0.512331,0.47467957,-0.26919706,0.536687,0.45503966,-0.22989725,0.529612,0.45148834,-0.21010946,0.525992,0.44913033,-0.19282636,0.522702,0.50817745,-0.28453308,0.549805,0.51083231,-0.25582188,0.552241,0.51320511,-0.24233869,0.553361,0.51695802,-0.23024501,0.554348
0.46216321,-0.34412969,0.523045,0.45635651,-0.30258616,0.524387,0.43440925,-0.32816599,0.512317,0.41803885,-0.29092103,0.501698,0.39834979,-0.25577576,0.481289,0.39165943,-0.23400499,0.474056,0.41754183,-0.25379138,0.51206,0.4151723,-0.21830512,0.510309,0.42320871,-0.20311075,0.509433,0.43905749,-0.20229511,0.520433,0.44864997,-0.26041455,0.525679,0.43195366,-0.22076421,0.519342,0.43950886,-0.20852618,0.515646,0.44710955,-0.20163761,0.513006,0.47480699,-0.26915353,0.536788,0.45524216,-0.2304305,0.53031,0.45181137,-0.21072228,0.526996,0.44951626,-0.19326512,0.523983,0.50805437,-0.28452653,0.549837,0.51117302,-0.25593176,0.552658,0.51353879,-0.24260769,0.553953,0.51729668,-0.23057707,0.555097
0.46144711,-0.34352919,0.522749,0.45456558,-0.30095644,0.524272,0.43383826,-0.32754256,0.512028,0.41778913,-0.29067877,0.501366,0.39788979,-0.25558012,0.48091,0.39114553,-0.23393335,0.473881,0.41755442,-0.25361865,0.512069,0.41541702,-0.21791514,0.510269,0.42305161,-0.20238397,0.509369,0.43928138,-0.19975874,0.520321,0.44866938,-0.26031354,0.525737,0.43214753,-0.22062973,0.519578,0.44033023,-0.20740976,0.515985,0.44750413,-0.20178314,0.513418,0.4748354,-0.26906249,0.536874,0.45527278,-0.23068332,0.530748,0.45197287,-0.21103635,0.527614,0.44972057,-0.19348957,0.524764,0.50791345,-0.28453812,0.549932,0.5114094,-0.25606044,0.553128,0.51381051,-0.24285749,0.554597,0.51731613,-0.2309953,0.555892
0.46032155,-0.34249705,0.521908,0.4533536,-0.29995599,0.523909,0.43209132,-0.32570093,0.511275,0.41767157,-0.29020778,0.501199,0.39753674,-0.25497253,0.480606,0.39143784,-0.23352303,0.473937,0.41760541,-0.25334996,0.51212,0.416751,-0.2172797,0.510661,0.42346822,-0.20197248,0.509932,0.44013183,-0.19914261,0.520943,0.44871807,-0.26010016,0.525835,0.43233893,-0.22007839,0.520135,0.44034762,-0.20552989,0.516811,0.44601007,-0.19379468,0.514436,0.47486351,-0.26886795,0.536977,0.4552431,-0.23067441,0.531027,0.45201929,-0.21105414,0.527983,0.44976648,-0.19345887,0.525216,0.50773913,-0.28440032,0.549976,0.51155126,-0.25602787,0.553508,0.51399679,-0.24292612,0.555131,0.51734237,-0.23119684,0.556563
0.45909355,-0.3411459,0.521137,0.45295733,-0.29940762,0.523585,0.43116881,-0.32422299,0.510668,0.41759112,-0.28973511,0.501084,0.39716163,-0.25432366,0.48024,0.39163981,-0.23309033,0.473969,0.41774508,-0.25308397,0.512283,0.41740802,-0.21716969,0.511454,0.42410145,-0.20033803,0.511039,0.44219512,-0.19408834,0.52225,0.44878357,-0.25982774,0.525941,0.43279035,-0.21996405,0.520661,0.43948711,-0.20163429,0.517581,0.44604615,-0.19208614,0.515382,0.47483928,-0.26857492,0.537003,0.45533736,-0.23059022,0.531361,0.45224789,-0.21102052,0.528475,0.45005433,-0.19342307,0.525851,0.50745305,-0.28409979,0.549847,0.51162981,-0.25586839,0.553763,0.51416556,-0.24287073,0.555563,0.51744009,-0.2312623,0.55715
0.45792783,-0.34008029,0.520543,0.45251635,-0.29891852,0.523219,0.43016232,-0.32301519,0.510121,0.41742261,-0.28940121,0.50091,0.39677838,-0.25390384,0.479911,0.39162234,-0.23280517,0.473878,0.41753657,-0.25277628,0.51212,0.41729538,-0.21685922,0.51147,0.42337534,-0.19907322,0.511146,0.44102531,-0.19150985,0.52239,0.44856209,-0.25950422,0.525794,0.43274529,-0.21971524,0.520734,0.4391912,-0.20130408,0.517783,0.44569121,-0.1915117,0.515675,0.47460669,-0.26822721,0.536854,0.45507405,-0.23036498,0.531347,0.45202596,-0.21082727,0.528529,0.44983119,-0.19322106,0.525967,0.50687066,-0.28339099,0.549664,0.51163377,-0.25565675,0.553983,0.51383391,-0.24261394,0.555967,0.51752374,-0.23123251,0.557718
0.45657249,-0.3393623,0.520284,0.45188365,-0.29817058,0.523266,0.42900476,-0.32186835,0.509809,0.41785032,-0.28920891,0.500984,0.39657772,-0.25359732,0.479774,0.39169836,-0.23277634,0.474287,0.41738402,-0.25269308,0.512299,0.41690034,-0.21726238,0.512066,0.42245415,-0.19983997,0.51195,0.43965751,-0.18968439,0.523211,0.44850219,-0.25948629,0.526137,0.43292882,-0.21980046,0.521389,0.43820539,-0.20047652,0.518619,0.44424371,-0.18948431,0.51664,0.47461321,-0.26795628,0.53731,0.45441602,-0.23023577,0.531963,0.4513066,-0.2106966,0.529227,0.44903388,-0.19289682,0.52674,0.50624949,-0.28345146,0.550213,0.51089021,-0.25505086,0.554709,0.51306063,-0.24195347,0.556775,0.5162708,-0.23094993,0.558598
0.45502998,-0.33829663,0.520147,0.45169245,-0.29809694,0.523406,0.42867573,-0.32165097,0.509711,0.41819563,-0.28906269,0.501087,0.39655187,-0.25330715,0.479671,0.39197366,-0.23268781,0.474592,0.41738008,-0.25275288,0.512662,0.41673678,-0.21730954,0.512677,0.42176303,-0.19828781,0.512685,0.43886438,-0.18933213,0.523982,0.44850128,-0.25955418,0.526542,0.43282737,-0.2198673,0.522063,0.4380071,-0.20067795,0.51945,0.4439613,-0.18936495,0.517584,0.4745988,-0.26802164,0.53773,0.45427955,-0.23036956,0.532415,0.45118381,-0.21083533,0.529696,0.44891813,-0.19301205,0.527224,0.50591258,-0.28326166,0.550613,0.51032333,-0.25486503,0.555085,0.51290771,-0.24196252,0.557139,0.51705009,-0.23130112,0.558952
0.45710335,-0.33891608,0.521929,0.45340916,-0.29900038,0.525588,0.43081358,-0.32275093,0.511853,0.41902702,-0.28938135,0.501736,0.39675012,-0.25357289,0.479994,0.39121275,-0.2324018,0.473725,0.41105404,-0.25758292,0.515542,0.40889975,-0.21998342,0.513652,0.4098562,-0.20151035,0.512707,0.42216932,-0.19012279,0.523593,0.44590221,-0.2599669,0.52911,0.4218818,-0.22592881,0.527213,0.43000106,-0.21586617,0.526107,0.43623511,-0.20821575,0.525317,0.47178756,-0.26722667,0.540012,0.45722708,-0.23124817,0.53696,0.45613447,-0.20883421,0.535398,0.45423349,-0.19378968,0.533979,0.5018361,-0.27768161,0.552501,0.51252105,-0.25494199,0.558674,0.51631133,-0.2428962,0.561511,0.52127966,-0.23308088,0.564013
0.4581862,-0.33891598,0.522727,0.45341251,-0.2988825,0.525977,0.4315734,-0.32297736,0.512519,0.41917072,-0.2892901,0.501693,0.39623906,-0.25339314,0.479607,0.39024878,-0.23204272,0.472881,0.41090165,-0.25739093,0.515507,0.40851148,-0.21954201,0.513141,0.40934727,-0.2009738,0.511958,0.42161058,-0.18954059,0.522708,0.44376115,-0.2603456,0.529105,0.42135822,-0.22542797,0.526524,0.4291801,-0.21522057,0.525017,0.43519592,-0.20747723,0.523942,0.47096167,-0.266955,0.540061,0.4568999,-0.23064883,0.536512,0.45591747,-0.20963933,0.534696,0.45359886,-0.19293157,0.533045,0.50192742,-0.27781514,0.55267,0.51281275,-0.25460892,0.559048,0.51684194,-0.24271868,0.561978,0.52154294,-0.2327222,0.564564
0.45865729,-0.3385625,0.522827,0.45297392,-0.29857579,0.525864,0.43172078,-0.32284522,0.512461,0.41948315,-0.28941609,0.501857,0.39648153,-0.25368014,0.479906,0.39040548,-0.23227093,0.473025,0.41068988,-0.25733195,0.515062,0.40822462,-0.2193553,0.512422,0.40900918,-0.20074578,0.511102,0.4212136,-0.18928099,0.521712,0.44410136,-0.26019389,0.528786,0.42112977,-0.22519335,0.525907,0.42887819,-0.21503465,0.524228,0.4348404,-0.20733366,0.523028,0.47038846,-0.26681669,0.53986,0.45669132,-0.2304556,0.535862,0.4553196,-0.21005245,0.533816,0.45309969,-0.19300066,0.531957,0.50313027,-0.28010627,0.552638,0.51320056,-0.25469977,0.559045,0.51725841,-0.24287367,0.561988,0.52128158,-0.23224568,0.564585
0.45956647,-0.33842633,0.523655,0.45219314,-0.29766856,0.525288,0.43194433,-0.32239216,0.512468,0.41806655,-0.28789986,0.499694,0.39381248,-0.25372958,0.477224,0.38604321,-0.23320839,0.47004,0.4136176,-0.2522409,0.512583,0.41427951,-0.21277949,0.510824,0.41688482,-0.19547589,0.509944,0.41604352,-0.17610376,0.509145,0.44245961,-0.25868669,0.52686,0.41820453,-0.22112545,0.520874,0.43075662,-0.20703824,0.517382,0.43885793,-0.19927737,0.514888,0.46737013,-0.26487257,0.53849,0.46050975,-0.22856263,0.539154,0.46023798,-0.20942852,0.539493,0.45998566,-0.19183124,0.539802,0.50107845,-0.27750659,0.55212,0.5127861,-0.2530324,0.558918,0.51809037,-0.24123731,0.562041,0.52196109,-0.23160809,0.564797
0.45968308,-0.33765085,0.523407,0.45166015,-0.29692055,0.524891,0.43211684,-0.32191432,0.512316,0.41716676,-0.28692032,0.498156,0.39137075,-0.25451763,0.475541,0.38343874,-0.23287964,0.468048,0.41309059,-0.25183997,0.51221,0.41380755,-0.21266503,0.510438,0.41588376,-0.19473968,0.509552,0.41550838,-0.17601361,0.508747,0.44201509,-0.25801625,0.52632,0.41821929,-0.21989755,0.520172,0.42999564,-0.20673887,0.516586,0.43781168,-0.19898823,0.514025,0.46697338,-0.26411598,0.537823,0.46088643,-0.22781144,0.538885,0.46037002,-0.20879387,0.539428,0.45989284,-0.19134798,0.539922,0.50023947,-0.27689384,0.551322,0.51293068,-0.25194931,0.558506,0.51823029,-0.24020106,0.561807,0.52283518,-0.23065094,0.564719
0.45955665,-0.3369432,0.522865,0.45109495,-0.29638212,0.524429,0.43208167,-0.32154388,0.511935,0.41683518,-0.28675598,0.497352,0.39031043,-0.25466466,0.474969,0.3820036,-0.23287119,0.467083,0.41221897,-0.25232114,0.511995,0.41272925,-0.21285018,0.509826,0.41317981,-0.19366565,0.508742,0.41197739,-0.17935318,0.507756,0.44172593,-0.25768707,0.525935,0.41895135,-0.21869766,0.519843,0.42971685,-0.20705304,0.51629,0.437403,-0.19933858,0.513751,0.46780072,-0.26444562,0.537292,0.46104974,-0.22742272,0.538508,0.46032623,-0.20846066,0.53913,0.45966088,-0.19109889,0.539696,0.499633,-0.27660549,0.550606,0.51267768,-0.25249677,0.558009,0.51828242,-0.24037918,0.56141,0.52331749,-0.22986229,0.564412
0.45911817,-0.33610524,0.521969,0.45048406,-0.29590693,0.523909,0.43189703,-0.32116775,0.511392,0.41611812,-0.28646922,0.496139,0.38816674,-0.25465019,0.473866,0.38059247,-0.23267469,0.466016,0.41228316,-0.25236322,0.512149,0.41293215,-0.21334569,0.510466,0.41344179,-0.19424326,0.509624,0.41275492,-0.17938698,0.508859,0.44162776,-0.25749814,0.525776,0.41879531,-0.21929353,0.520009,0.42997563,-0.20741614,0.516645,0.43578127,-0.2006799,0.514242,0.46742643,-0.26411017,0.536849,0.46147305,-0.2267022,0.538031,0.46009582,-0.20810317,0.538636,0.45924165,-0.19078469,0.539185,0.49896631,-0.27622934,0.549775,0.51220124,-0.25167851,0.557423,0.51832167,-0.23958967,0.560937,0.52382425,-0.22914428,0.564038
0.457763,-0.33466691,0.520108,0.44951658,-0.29522588,0.523015,0.43124422,-0.32048746,0.510382,0.41343468,-0.28548833,0.492261,0.38618324,-0.25341985,0.470851,0.37637676,-0.23171354,0.461659,0.41267736,-0.25244788,0.51292,0.41228496,-0.215625,0.512175,0.41384805,-0.19610351,0.511802,0.41466065,-0.1800159,0.511464,0.44189286,-0.25722388,0.525814,0.42010557,-0.21892828,0.520903,0.42986294,-0.20886608,0.518039,0.43513165,-0.20206721,0.515993,0.46683223,-0.26369769,0.536216,0.46152111,-0.22585159,0.537239,0.45953101,-0.2075727,0.537763,0.45863729,-0.19021386,0.538239,0.49756886,-0.27546483,0.54821,0.51119905,-0.25065395,0.556205,0.51896938,-0.2383037,0.559878,0.52483769,-0.2280954,0.563119
0.45889782,-0.33461811,0.520844,0.44919135,-0.29443146,0.522492,0.43173507,-0.32023972,0.510562,0.41301744,-0.28513199,0.491583,0.38582413,-0.25312148,0.469827,0.37590456,-0.23131856,0.460167,0.41114322,-0.25044531,0.510908,0.41155379,-0.21256871,0.509559,0.41194194,-0.19360263,0.508885,0.41274085,-0.17651584,0.50882,0.44085112,-0.25507497,0.524078,0.41873708,-0.21623467,0.517989,0.42817364,-0.20610071,0.514437,0.43541971,-0.19850685,0.5119,0.46519248,-0.26174886,0.534796,0.46121512,-0.22405132,0.535774,0.45944058,-0.20505075,0.536274,0.45794564,-0.1890299,0.536729,0.49716483,-0.27467257,0.547338,0.51135102,-0.24927945,0.555077,0.51977012,-0.23716529,0.558633,0.52379001,-0.22750378,0.56177
0.45885298,-0.33370737,0.52024,0.44884592,-0.29359642,0.521907,0.4316267,-0.31953934,0.510022,0.41272461,-0.28488107,0.491105,0.38559088,-0.25292366,0.469124,0.37567878,-0.23110511,0.459238,0.41042286,-0.24976174,0.510414,0.41112427,-0.21209099,0.509281,0.41147754,-0.19320651,0.508715,0.41276548,-0.17642269,0.509392,0.44014314,-0.25407095,0.523511,0.41863582,-0.21555809,0.517435,0.42787393,-0.20550548,0.51389,0.43497439,-0.19796969,0.511358,0.46493398,-0.26108712,0.534168,0.46088367,-0.22336047,0.535071,0.45928742,-0.2042931,0.535533,0.45776047,-0.18823536,0.535953,0.49683652,-0.2740362,0.546635,0.51143706,-0.24883599,0.554617,0.52000672,-0.23681005,0.558285,0.52412798,-0.2272584,0.561521
0.45779541,-0.33326625,0.51945,0.44852184,-0.29330633,0.521528,0.43108616,-0.31929307,0.509714,0.41278946,-0.28583567,0.491341,0.38622141,-0.25457055,0.467986,0.37586635,-0.23233336,0.458357,0.41005492,-0.2512345,0.51089,0.41059072,-0.21373775,0.50996,0.41159068,-0.19438334,0.509494,0.41228263,-0.1781049,0.509071,0.43965348,-0.25505874,0.523528,0.41912269,-0.21584513,0.517806,0.4242187,-0.19978473,0.514468,0.43496764,-0.19771479,0.512084,0.46483023,-0.26102551,0.533778,0.46100143,-0.22334725,0.534774,0.45927585,-0.20479969,0.535283,0.45811458,-0.1877711,0.535746,0.4962873,-0.27357033,0.545704,0.51120147,-0.24864235,0.553882,0.51986128,-0.23683639,0.557639,0.52464778,-0.22707933,0.560954
0.45750086,-0.33342898,0.519442,0.44814231,-0.29304479,0.520995,0.43086309,-0.31933956,0.509686,0.41237445,-0.28739767,0.491144,0.38537225,-0.25851162,0.467371,0.37604954,-0.23330007,0.456245,0.40971646,-0.25056852,0.509996,0.41123456,-0.21309725,0.50859,0.41188277,-0.1940902,0.507886,0.41221067,-0.17766554,0.507247,0.43919747,-0.25441931,0.522489,0.41810309,-0.21537411,0.516257,0.42546994,-0.20111684,0.512621,0.43204536,-0.19723712,0.510025,0.46427231,-0.26043551,0.532656,0.46050335,-0.22309322,0.533744,0.45960588,-0.20396519,0.5343,0.45807777,-0.18709681,0.534806,0.49560966,-0.27308921,0.544556,0.51117009,-0.24817022,0.55253,0.51950314,-0.2366457,0.556194,0.52562785,-0.22644637,0.559427
0.4566971,-0.33312173,0.518856,0.44763071,-0.29270451,0.520444,0.43018226,-0.31900686,0.509148,0.41207153,-0.28914831,0.490659,0.38492004,-0.25885767,0.467124,0.37574889,-0.23410598,0.45619,0.40939959,-0.25088321,0.509527,0.41079686,-0.21320865,0.508145,0.41212545,-0.19433293,0.507454,0.41482422,-0.17718702,0.506826,0.43895381,-0.25400301,0.521971,0.41723477,-0.21616653,0.51577,0.42207634,-0.19965279,0.512152,0.43190478,-0.19626743,0.509568,0.46397911,-0.26005488,0.532097,0.46019045,-0.2230577,0.5333,0.45902086,-0.20399838,0.533916,0.45812345,-0.18661381,0.534475,0.49520817,-0.27276168,0.543942,0.51096232,-0.24794588,0.55219,0.5183188,-0.23658144,0.55598,0.52499358,-0.22653795,0.559324
0.45694102,-0.33368699,0.519249,0.44752499,-0.29296498,0.520376,0.430294,-0.3196148,0.509581,0.41228278,-0.28971168,0.490999,0.38454274,-0.25904686,0.467001,0.37390196,-0.23746136,0.456047,0.40890255,-0.25115934,0.509215,0.41010465,-0.21345261,0.507608,0.41097897,-0.19451727,0.506805,0.41193881,-0.17725417,0.506075,0.43852604,-0.25402369,0.521461,0.41700596,-0.21517019,0.51481,0.42047033,-0.19911379,0.51093,0.42628236,-0.19289365,0.508159,0.46360002,-0.25995021,0.531456,0.45981441,-0.22287007,0.532518,0.45875461,-0.20373543,0.533061,0.4579955,-0.18626212,0.533554,0.49494853,-0.27254181,0.543208,0.51077758,-0.24775237,0.551377,0.51816743,-0.23640425,0.555131,0.52486113,-0.22637929,0.558443
0.45658967,-0.33400109,0.519122,0.44730328,-0.29322828,0.520203,0.42977857,-0.31985188,0.509366,0.41317013,-0.29063571,0.490691,0.39079782,-0.25906692,0.46566,0.37622454,-0.23559271,0.457097,0.40854344,-0.25141083,0.508904,0.4094906,-0.21356406,0.506757,0.41023853,-0.19455726,0.505684,0.41108473,-0.17722824,0.504709,0.43842496,-0.25422514,0.521244,0.41724414,-0.2151251,0.514555,0.42311115,-0.20164092,0.510653,0.42932987,-0.19489196,0.507866,0.46370581,-0.26018045,0.531319,0.45908146,-0.22348559,0.531275,0.45955438,-0.20420478,0.531253,0.4589729,-0.18508582,0.531232,0.49531008,-0.27282395,0.543173,0.51098192,-0.24775418,0.550869,0.51829662,-0.23628391,0.554405,0.52490722,-0.22615996,0.557525
0.45680402,-0.3346483,0.519532,0.44720241,-0.29350256,0.520068,0.42981734,-0.32040704,0.509677,0.41385644,-0.2918449,0.490762,0.38927838,-0.26138231,0.465562,0.37549708,-0.23894,0.456874,0.40807782,-0.25150007,0.508299,0.40890247,-0.21350664,0.505536,0.41091229,-0.19535075,0.504155,0.41038782,-0.17700065,0.502899,0.43784712,-0.25515217,0.520583,0.41664702,-0.21555704,0.513375,0.42241343,-0.20083082,0.509171,0.4284558,-0.19439748,0.506167,0.46322171,-0.26104995,0.530652,0.45944051,-0.22379451,0.531065,0.46009856,-0.20466313,0.531277,0.46036479,-0.18690043,0.531469,0.49500952,-0.27366455,0.542572,0.51120366,-0.24763339,0.549946,0.51891929,-0.23621611,0.553334,0.52468553,-0.2258407,0.556324
0.45670966,-0.33506975,0.519591,0.44703647,-0.29373761,0.519862,0.42964584,-0.32079656,0.509724,0.4141252,-0.29233856,0.490725,0.38871949,-0.26212345,0.465469,0.3752555,-0.2394718,0.456591,0.40779413,-0.25169293,0.507909,0.40879304,-0.21368877,0.504892,0.41055248,-0.19522748,0.503383,0.41045987,-0.17709426,0.502012,0.43765479,-0.25530142,0.520122,0.41669046,-0.2153285,0.51266,0.42171759,-0.19994895,0.508307,0.42758772,-0.19378486,0.505198,0.46312015,-0.26117534,0.530152,0.45980107,-0.22412804,0.530895,0.46047039,-0.20498291,0.531275,0.4610801,-0.18727051,0.531621,0.49503695,-0.27378945,0.542061,0.51125786,-0.24759217,0.549239,0.51849082,-0.23604089,0.552536,0.52469827,-0.22567099,0.555446
0.45711803,-0.33493959,0.519658,0.44721638,-0.29350296,0.519704,0.43032327,-0.3209817,0.510217,0.41484417,-0.2932095,0.491551,0.38385563,-0.26849293,0.466219,0.36746044,-0.24914906,0.455092,0.40832703,-0.25066541,0.508132,0.40918037,-0.21283688,0.505525,0.41083528,-0.19489029,0.504221,0.4119885,-0.17743135,0.503036,0.43776908,-0.25396444,0.519749,0.41659235,-0.21397931,0.512044,0.41845822,-0.19732827,0.50755,0.42382354,-0.19093463,0.504339,0.46287467,-0.2595891,0.529303,0.46220168,-0.22410608,0.533228,0.4650697,-0.2066292,0.535236,0.46743575,-0.18986679,0.537061,0.49415991,-0.27114676,0.540676,0.51058391,-0.24695921,0.548285,0.51807383,-0.23554481,0.551781,0.52471688,-0.22548654,0.554866
0.45684889,-0.33472518,0.519062,0.44928599,-0.29466943,0.52152,0.43048699,-0.32086324,0.509989,0.41518348,-0.29329241,0.492036,0.38397619,-0.26853779,0.466415,0.36731945,-0.24912807,0.45513,0.41984228,-0.24786331,0.51194,0.41048998,-0.21075093,0.506693,0.41021678,-0.19234208,0.50407,0.40961568,-0.17535034,0.501685,0.44905122,-0.25337608,0.523886,0.4482298,-0.21605467,0.527771,0.45147817,-0.19330941,0.530037,0.45381174,-0.17683112,0.531656,0.47356624,-0.26077342,0.533539,0.48240645,-0.23097115,0.545039,0.48719488,-0.21560493,0.550922,0.49351995,-0.20060927,0.55627,0.50361911,-0.27507637,0.544704,0.51311984,-0.24814209,0.549491,0.51917896,-0.23555734,0.55169,0.52453525,-0.22527675,0.554155
0.45699809,-0.33499461,0.518984,0.44915292,-0.29453088,0.520795,0.4305209,-0.32081515,0.509654,0.41602057,-0.29503521,0.491303,0.38335119,-0.26911782,0.465712,0.3665303,-0.24976959,0.454403,0.41864913,-0.24765873,0.510484,0.40835613,-0.21220545,0.503481,0.40492249,-0.19252253,0.499979,0.40065417,-0.17087142,0.496796,0.44794604,-0.25326953,0.522537,0.44722587,-0.216296,0.527728,0.44521347,-0.19471662,0.530756,0.44446621,-0.17906924,0.532919,0.47257294,-0.26077124,0.532325,0.48030937,-0.22987743,0.542653,0.48440099,-0.21402229,0.547937,0.48644876,-0.19769856,0.55274,0.50283256,-0.27524785,0.543737,0.5146318,-0.24805129,0.549206,0.52272474,-0.23490535,0.551719,0.52650591,-0.22525812,0.553936
0.45677814,-0.33464657,0.518479,0.44916318,-0.29409796,0.52019,0.43052297,-0.32036599,0.50926,0.41576396,-0.29522441,0.491018,0.382889,-0.26940495,0.465327,0.3656306,-0.25016396,0.45421,0.41822181,-0.24756389,0.509952,0.40771816,-0.21161431,0.50252,0.40248848,-0.190754,0.498804,0.39843369,-0.17076307,0.495426,0.44741156,-0.25310377,0.521836,0.44652153,-0.2161488,0.527211,0.44496472,-0.19452184,0.530347,0.44428906,-0.17890489,0.532587,0.47194698,-0.26054989,0.531492,0.47940386,-0.2286716,0.540686,0.48381855,-0.21174996,0.54539,0.48795146,-0.19728443,0.550159,0.50209592,-0.27496363,0.54276,0.51430107,-0.24769888,0.548244,0.52275325,-0.23474687,0.550763,0.52701032,-0.22471005,0.552986
0.45399816,-0.33250175,0.515507,0.44775803,-0.29265548,0.518236,0.42837257,-0.3182558,0.50671,0.40778427,-0.29406262,0.489057,0.38026254,-0.26821625,0.463119,0.36314333,-0.24902458,0.45183,0.41753806,-0.24654722,0.509168,0.40880089,-0.20803938,0.503605,0.40597771,-0.18690494,0.500823,0.40056574,-0.17074612,0.498294,0.44649062,-0.2522963,0.520862,0.44586834,-0.21531383,0.526331,0.44641879,-0.19337518,0.529521,0.44680206,-0.17759372,0.5318,0.46957534,-0.25949776,0.530289,0.47711799,-0.22662534,0.537737,0.48038689,-0.20946631,0.541547,0.48169519,-0.19366002,0.545683,0.4981161,-0.27455,0.541148,0.51635419,-0.24855419,0.548235,0.52564825,-0.23732155,0.551491,0.53023274,-0.22617202,0.554364
0.45240611,-0.33108947,0.513921,0.44740292,-0.291658,0.517412,0.42743711,-0.31690763,0.505676,0.40937978,-0.2938333,0.488768,0.3791072,-0.26846078,0.462752,0.36197322,-0.24869823,0.450879,0.41767926,-0.24598532,0.509508,0.41083277,-0.20645701,0.505839,0.40657069,-0.18633964,0.50467,0.40549609,-0.1700408,0.503608,0.44639045,-0.25165648,0.520772,0.44604375,-0.21454998,0.526085,0.44657525,-0.19261944,0.529184,0.44717085,-0.17676736,0.531398,0.46936808,-0.25891646,0.52979,0.47382742,-0.2226203,0.532351,0.47581376,-0.20301853,0.533661,0.47755048,-0.18603298,0.534852,0.49767974,-0.27321173,0.540059,0.51720531,-0.24881162,0.548464,0.52705094,-0.23802465,0.552326,0.53525747,-0.22803775,0.555733
0.45128732,-0.33002501,0.512857,0.44716284,-0.29073423,0.51671,0.4265958,-0.31562555,0.504731,0.40836431,-0.29335545,0.487992,0.37806066,-0.26805042,0.461957,0.36088685,-0.24829334,0.449888,0.41732175,-0.24534365,0.509184,0.41055831,-0.20602405,0.505971,0.40706932,-0.18642537,0.505544,0.40608894,-0.17017541,0.505155,0.44607165,-0.25108706,0.520418,0.44604479,-0.21398437,0.525784,0.44664124,-0.19209917,0.528914,0.44743352,-0.17622309,0.53115,0.46917804,-0.25847778,0.529386,0.47313158,-0.22147802,0.531052,0.47507609,-0.2017394,0.531904,0.476655,-0.18454655,0.532678,0.49744629,-0.27284055,0.539546,0.51767479,-0.24893593,0.548512,0.52770575,-0.23836214,0.552631,0.53609675,-0.22863891,0.556265
0.44999501,-0.32897901,0.511659,0.44676458,-0.28976784,0.515757,0.42593603,-0.31458685,0.504016,0.39514542,-0.29147946,0.487952,0.35954745,-0.26719439,0.465382,0.3404741,-0.24973107,0.456577,0.41746378,-0.24496037,0.508981,0.41136532,-0.20642245,0.506996,0.40879037,-0.18745327,0.506003,0.40813779,-0.17112148,0.505101,0.44588893,-0.25047727,0.519701,0.44519459,-0.21267404,0.523924,0.44637425,-0.18937555,0.526388,0.44779111,-0.17377484,0.528147,0.46945531,-0.25804843,0.52823,0.47117464,-0.22050741,0.528712,0.47265948,-0.20074906,0.52896,0.4766163,-0.18254556,0.529184,0.49782828,-0.2724612,0.537832,0.51707982,-0.2485694,0.546393,0.52843129,-0.23831642,0.550327,0.53479411,-0.22783024,0.553798
0.44962058,-0.32852676,0.511826,0.44651026,-0.28870835,0.515121,0.4252658,-0.31337278,0.503509,0.39269137,-0.29014491,0.486526,0.35738138,-0.26673843,0.464719,0.33876978,-0.25028255,0.457294,0.41658693,-0.2419754,0.507004,0.42275638,-0.20742562,0.513291,0.42532166,-0.19155295,0.517553,0.42768906,-0.1771475,0.52147,0.44515998,-0.24947737,0.518292,0.44646481,-0.2099563,0.52203,0.44856095,-0.18847577,0.52421,0.44857323,-0.17248086,0.526548,0.46907187,-0.2574474,0.527344,0.47347009,-0.22056749,0.529685,0.47580546,-0.20192002,0.530882,0.47906614,-0.18497833,0.531971,0.49780827,-0.27230044,0.537679,0.51726936,-0.24854276,0.546051,0.52749316,-0.23851004,0.549897,0.53491962,-0.22785516,0.553292
