sluyters/QuantumLeap/backend/src/datasets/gesture/HandGestureDataset_SHREC2017_csv/Gesture3/finger_1/subject_24_essai_2_skeletons_world.csv
Wrist_x,Wrist_y,Wrist_z,Palm_x,Palm_y,Palm_z,thumb_base_x,thumb_base_y,thumb_base_z,thumb_first_joint_x,thumb_first_joint_y,thumb_first_joint_z,thumb_second_joint_x,thumb_second_joint_y,thumb_second_joint_z,thumb_tip_x,thumb_tip_y,thumb_tip_z,index_base_x,index_base_y,index_base_z,index_first_joint_x,index_first_joint_y,index_first_joint_z,index_second_joint_x,index_second_joint_y,index_second_joint_z,index_tip_x,index_tip_y,index_tip_z,middle_base_x,middle_base_y,middle_base_z,middle_first_joint_x,middle_first_joint_y,middle_first_joint_z,middle_second_joint_x,middle_second_joint_y,middle_second_joint_z,middle_tip_x,middle_tip_y,middle_tip_z,ring_base_x,ring_base_y,ring_base_z,ring_first_joint_x,ring_first_joint_y,ring_first_joint_z,ring_second_joint_x,ring_second_joint_y,ring_second_joint_z,ring_tip_x,ring_tip_y,ring_tip_z,pinky_base_x,pinky_base_y,pinky_base_z,pinky_first_joint_x,pinky_first_joint_y,pinky_first_joint_z,pinky_second_joint_x,pinky_second_joint_y,pinky_second_joint_z,pinky_tip_x,pinky_tip_y,pinky_tip_z,r
0.396543431,-0.370929989,0.584738,0.403683094,-0.324613021,0.579974,0.378297569,-0.351872958,0.583831,0.367168714,-0.312297313,0.577301,0.357531957,-0.28140297,0.57179,0.362929669,-0.260360562,0.565617,0.395583489,-0.272477215,0.575423,0.386904619,-0.241819892,0.56548,0.379700747,-0.244978641,0.560508,0.375038597,-0.246059349,0.556736,0.417606018,-0.281643901,0.575009,0.413418564,-0.248152849,0.563221,0.400936696,-0.263498519,0.556346,0.404468323,-0.287083657,0.568362,0.434790643,-0.292674267,0.575068,0.425874754,-0.278779347,0.564288,0.409333408,-0.289226301,0.558773,0.411612868,-0.310773958,0.571447,0.453994297,-0.313524764,0.575879,0.442532909,-0.290402021,0.565353,0.435940649,-0.280950238,0.560517,0.429292035,-0.286146266,0.55625
0.396939511,-0.373531556,0.588595,0.403182525,-0.326567118,0.578835,0.377753514,-0.352309797,0.583958,0.358073106,-0.315454945,0.571108,0.349554623,-0.284228439,0.562631,0.355689484,-0.264703325,0.559657,0.385787274,-0.273898112,0.566044,0.37119963,-0.242780668,0.550685,0.365377905,-0.247715703,0.543005,0.360188186,-0.255030238,0.536023,0.41121994,-0.282576797,0.568662,0.400493319,-0.248897105,0.55174,0.387416756,-0.264054703,0.541869,0.391072304,-0.282700223,0.552092,0.431385879,-0.293220648,0.571637,0.418860094,-0.275551337,0.55536,0.400754938,-0.286130664,0.547033,0.39916625,-0.304936246,0.557622,0.454144162,-0.314152347,0.576673,0.436839037,-0.29281441,0.561763,0.429729445,-0.283030451,0.554913,0.422142254,-0.288280388,0.548868
0.394881883,-0.37433804,0.588951,0.40129883,-0.330776198,0.577312,0.376376966,-0.353112127,0.585077,0.35774164,-0.318138817,0.571901,0.348224524,-0.286456954,0.561712,0.348026318,-0.264585105,0.553886,0.384024666,-0.273478005,0.564122,0.369425328,-0.247130101,0.548037,0.362304491,-0.25317659,0.539994,0.357981167,-0.258142399,0.534245,0.407630512,-0.282556289,0.56518,0.396728998,-0.253589548,0.546718,0.381655057,-0.269123381,0.535949,0.384711935,-0.287180783,0.545644,0.42590961,-0.294110314,0.56703,0.41280184,-0.282873038,0.549811,0.393495789,-0.294156627,0.541002,0.392763938,-0.309094597,0.551191,0.445960729,-0.318900024,0.571025,0.43005081,-0.300438254,0.555255,0.42266855,-0.29176217,0.548009,0.41447603,-0.297754787,0.541616
0.394210975,-0.378314828,0.590613,0.397950582,-0.342742554,0.576165,0.376262266,-0.360878684,0.585442,0.355494135,-0.328754194,0.567731,0.343560884,-0.295860883,0.553717,0.342444325,-0.273897821,0.544487,0.380708097,-0.282458011,0.55934,0.365723675,-0.254177921,0.540876,0.35773319,-0.258877205,0.531644,0.350512003,-0.265282365,0.523251,0.404456458,-0.292877443,0.561104,0.393118913,-0.260921999,0.539969,0.376942248,-0.27567875,0.52764,0.378307706,-0.296933499,0.536252,0.423755412,-0.305502672,0.563771,0.409785473,-0.290695403,0.543943,0.389543693,-0.301166129,0.533798,0.386893914,-0.319018677,0.542822,0.446153534,-0.328133906,0.569169,0.425496073,-0.316447738,0.551295,0.415878952,-0.311052006,0.543082,0.406835075,-0.318666904,0.535835
0.386805339,-0.387865881,0.583838,0.395133048,-0.343976814,0.571411,0.368300144,-0.370030303,0.576842,0.350361143,-0.335607609,0.561819,0.335350014,-0.302878716,0.549062,0.331495244,-0.279776765,0.539691,0.375054103,-0.287507311,0.55376,0.362507599,-0.261993061,0.535479,0.356669044,-0.268132188,0.526338,0.351400322,-0.275723287,0.518028,0.401388971,-0.29852395,0.558456,0.394513867,-0.267370292,0.538842,0.381379375,-0.282973746,0.527401,0.383297804,-0.304832749,0.536425,0.422872062,-0.311624204,0.563365,0.413101715,-0.300381072,0.544071,0.39436445,-0.311947185,0.5342,0.391411683,-0.329510752,0.543384,0.44779101,-0.332002681,0.571104,0.430950695,-0.32647781,0.553835,0.423088021,-0.322717398,0.545901,0.415463989,-0.331159595,0.5389
0.385390592,-0.393834412,0.579593,0.39232615,-0.348430469,0.566775,0.365769376,-0.371119442,0.572597,0.346522443,-0.339007389,0.556177,0.331557194,-0.306553872,0.543215,0.328938204,-0.281098448,0.535599,0.371627698,-0.290786903,0.548845,0.359038125,-0.260205101,0.530223,0.35315223,-0.265146861,0.520912,0.347836734,-0.271724723,0.512448,0.397881079,-0.301806672,0.553414,0.391278267,-0.271565179,0.533454,0.37807071,-0.287371956,0.52181,0.379508299,-0.305315992,0.530712,0.419275711,-0.314922378,0.558252,0.409802307,-0.304775832,0.538681,0.390609673,-0.316419208,0.528669,0.38782361,-0.328979356,0.537739,0.444192126,-0.338075565,0.565966,0.427487691,-0.325904192,0.548463,0.419826987,-0.321802447,0.540421,0.412198539,-0.32999194,0.533325
0.384364478,-0.395396625,0.577452,0.390555719,-0.352431608,0.564407,0.364738188,-0.376652556,0.570038,0.34607782,-0.340731757,0.554576,0.331163935,-0.308079653,0.541025,0.327669333,-0.285279792,0.530983,0.3689078,-0.291426013,0.545792,0.356348059,-0.259113801,0.526789,0.350583014,-0.26293248,0.517287,0.345392065,-0.268546161,0.508649,0.395538921,-0.302388097,0.550809,0.38911381,-0.276169413,0.5306,0.376633563,-0.292734682,0.518811,0.377999368,-0.310704467,0.52756,0.417284616,-0.3154684,0.556035,0.408548686,-0.309400444,0.536113,0.389672715,-0.321277267,0.52592,0.386601358,-0.33299735,0.534795,0.442689096,-0.338591556,0.564243,0.427057845,-0.329980926,0.54648,0.420500226,-0.329259889,0.538318,0.41269252,-0.334530695,0.531475
0.380530771,-0.393787792,0.572159,0.387607137,-0.351176721,0.56103,0.361236398,-0.375192903,0.565527,0.344114025,-0.340599829,0.549834,0.331138559,-0.308013445,0.536234,0.329520896,-0.285907509,0.526234,0.367735392,-0.291456905,0.544766,0.357098667,-0.249944607,0.527372,0.351230883,-0.252618973,0.518675,0.347207861,-0.268973285,0.510769,0.394068575,-0.302292452,0.549428,0.38987177,-0.277406487,0.531017,0.377814356,-0.294517836,0.520276,0.379454057,-0.313231716,0.529769,0.41540037,-0.315161472,0.554202,0.407867928,-0.309780419,0.535999,0.390414247,-0.322175959,0.526687,0.387828664,-0.335695009,0.53635,0.440026301,-0.337817355,0.561578,0.423677892,-0.332239455,0.545205,0.412516138,-0.329528213,0.537682,0.395776646,-0.332234164,0.531934
0.378109813,-0.393286484,0.569569,0.38467967,-0.349604954,0.557837,0.358193722,-0.373715388,0.562122,0.340707258,-0.337579606,0.544971,0.329886377,-0.305409945,0.531693,0.328030377,-0.283946019,0.522986,0.363824469,-0.290177919,0.540123,0.354026192,-0.251991519,0.52189,0.349900772,-0.251723001,0.512773,0.343162036,-0.265497301,0.504485,0.390592995,-0.301583805,0.545607,0.386920256,-0.275980141,0.526567,0.374299569,-0.29281049,0.51546,0.37551228,-0.311221389,0.524605,0.412704297,-0.313924772,0.551106,0.405406023,-0.305422767,0.532105,0.388970477,-0.318598198,0.522383,0.385324004,-0.334893597,0.531619,0.437818007,-0.337222684,0.559436,0.418338875,-0.332010813,0.542458,0.409790932,-0.328987959,0.534657,0.401895977,-0.339080139,0.540876
0.377245447,-0.393312385,0.567943,0.383868236,-0.348927348,0.556004,0.356905511,-0.372947894,0.559788,0.340446053,-0.336395123,0.542636,0.329385284,-0.303913278,0.528869,0.328650258,-0.281697446,0.519108,0.362698402,-0.288752449,0.537259,0.353365378,-0.249012285,0.518497,0.349629913,-0.251665056,0.509116,0.352611032,-0.272251,0.517162,0.38993852,-0.30065526,0.543559,0.386348154,-0.275061943,0.524268,0.373571505,-0.291709592,0.513015,0.374541902,-0.311729719,0.521935,0.412249983,-0.313578907,0.549748,0.407781193,-0.304180779,0.530289,0.391313826,-0.315514153,0.520333,0.385814814,-0.333483985,0.529265,0.437959414,-0.33742691,0.558924,0.420233616,-0.331202938,0.541625,0.412087768,-0.327999415,0.533676,0.402469638,-0.338476472,0.539684
0.376345054,-0.393068813,0.566344,0.383402281,-0.348543723,0.554891,0.356126818,-0.372547185,0.558343,0.340473469,-0.335960264,0.541723,0.329539061,-0.30353994,0.52811,0.328848353,-0.281333118,0.51849,0.362795076,-0.288513091,0.536687,0.353878908,-0.249091636,0.518308,0.350229303,-0.251599744,0.509119,0.353317566,-0.272400156,0.517334,0.38999093,-0.300441819,0.542952,0.386905346,-0.275152607,0.524112,0.374280833,-0.291944395,0.513123,0.375298285,-0.312012821,0.522222,0.412118186,-0.313478414,0.549071,0.408292217,-0.303900692,0.530028,0.392040036,-0.315335959,0.520285,0.386869271,-0.333369297,0.529405,0.437667109,-0.337265229,0.558089,0.420175718,-0.331086256,0.54113,0.412082946,-0.32795473,0.533337,0.403052799,-0.338423656,0.539485
0.37645997,-0.3933812,0.566547,0.381090469,-0.346607312,0.550902,0.356398233,-0.370391196,0.558738,0.340581928,-0.335151433,0.541541,0.330116555,-0.303250508,0.527817,0.329477942,-0.281557472,0.517919,0.365587274,-0.281568823,0.529927,0.353422303,-0.254372325,0.509484,0.345590383,-0.263678458,0.499262,0.349369615,-0.284732897,0.506599,0.387673061,-0.295692081,0.534593,0.383382729,-0.270393605,0.512048,0.365166552,-0.285205746,0.498896,0.364140441,-0.301645353,0.506712,0.412025472,-0.309143235,0.53975,0.395264642,-0.307168644,0.517824,0.374386244,-0.317484225,0.506606,0.372761353,-0.326220048,0.514561,0.435961871,-0.334245998,0.54828,0.41246913,-0.326848663,0.528853,0.401536373,-0.323527555,0.519928,0.392303636,-0.329960818,0.525166
0.373829341,-0.390255782,0.562213,0.382506218,-0.340588082,0.546979,0.353677562,-0.368793235,0.553846,0.342704148,-0.325398896,0.537263,0.333029095,-0.293577368,0.522302,0.33463386,-0.273903676,0.512427,0.363429642,-0.277410947,0.525604,0.351535558,-0.249973258,0.50506,0.343943072,-0.259120716,0.494789,0.347769483,-0.280065318,0.50204,0.389669194,-0.290556542,0.531098,0.379581001,-0.277179458,0.508855,0.361304232,-0.293706003,0.495879,0.362255172,-0.301636099,0.503719,0.41095939,-0.305466136,0.536901,0.394863301,-0.303220587,0.515012,0.376347521,-0.308710585,0.503813,0.373086891,-0.323405622,0.511717,0.435548508,-0.330833426,0.546133,0.412609602,-0.323332345,0.526788,0.403922126,-0.317635273,0.5179,0.392779123,-0.328462869,0.523117
0.373187557,-0.390699105,0.560616,0.382118856,-0.339335199,0.54586,0.353010106,-0.367435613,0.552394,0.34207457,-0.324801109,0.536276,0.332597428,-0.293196838,0.521625,0.33418653,-0.273537528,0.511742,0.363294549,-0.276473489,0.525009,0.351792688,-0.249139917,0.50486,0.344426457,-0.258382022,0.494785,0.348413216,-0.279459528,0.502221,0.389542123,-0.289558414,0.530479,0.379443746,-0.277079231,0.508671,0.361355235,-0.293747463,0.495949,0.362449921,-0.302296697,0.503978,0.410809955,-0.304394782,0.536221,0.395232582,-0.302291185,0.514731,0.376178312,-0.309603339,0.503736,0.373163793,-0.323549302,0.511836,0.435322497,-0.329629441,0.545307,0.41280281,-0.322274052,0.526286,0.403646813,-0.317418773,0.517547,0.392991159,-0.327908779,0.52291
0.370602388,-0.388619284,0.556791,0.37986747,-0.33697753,0.542764,0.350712516,-0.365428102,0.548752,0.339488183,-0.322628387,0.533032,0.33042525,-0.291806486,0.518649,0.331353328,-0.271628233,0.508405,0.361628078,-0.27473175,0.522664,0.349929674,-0.240472167,0.502714,0.343015204,-0.244077425,0.492738,0.343668779,-0.263302289,0.500325,0.387830662,-0.28781598,0.528142,0.377686066,-0.276301447,0.506996,0.359827133,-0.293133477,0.494662,0.361557552,-0.302091193,0.502966,0.409014715,-0.302607555,0.533829,0.393324333,-0.301523379,0.512933,0.372965151,-0.312266207,0.502242,0.371900227,-0.322978461,0.510623,0.433329578,-0.327696009,0.542736,0.412629627,-0.319540401,0.524203,0.40271804,-0.316362493,0.515688,0.392622716,-0.326352191,0.521262
0.369577139,-0.387105001,0.555031,0.379029169,-0.335407852,0.541376,0.349824482,-0.363865082,0.547055,0.337869315,-0.321406419,0.531425,0.327921463,-0.29073045,0.516747,0.327154345,-0.271677292,0.505933,0.361174981,-0.272508449,0.521623,0.34974755,-0.243887993,0.50193,0.341959773,-0.246569872,0.492084,0.347133928,-0.272265019,0.499787,0.387502963,-0.285530069,0.527142,0.376832739,-0.275285828,0.506333,0.359173429,-0.292257245,0.494195,0.361214717,-0.301962751,0.502632,0.408786992,-0.300264748,0.532833,0.392467677,-0.300692244,0.512228,0.372208478,-0.311542441,0.501686,0.37135663,-0.32258303,0.510198,0.433202371,-0.325269445,0.541686,0.412220962,-0.318309589,0.523394,0.402454202,-0.315192032,0.51499,0.393620998,-0.324156789,0.520664
0.368779495,-0.385233407,0.553421,0.37868154,-0.33425126,0.540271,0.349171185,-0.361845932,0.545454,0.337002822,-0.320380583,0.529976,0.326531856,-0.289813743,0.515124,0.325605794,-0.270499023,0.50414,0.361012181,-0.271722666,0.520893,0.349629987,-0.243030912,0.501508,0.342309671,-0.246182974,0.491816,0.346963293,-0.267431023,0.499646,0.387456713,-0.284793989,0.526564,0.376936987,-0.274823451,0.506206,0.359487988,-0.291977181,0.494331,0.361599535,-0.302471888,0.502929,0.408824362,-0.299552489,0.532338,0.392500378,-0.300336356,0.512096,0.372357901,-0.311322844,0.501739,0.371516977,-0.322609823,0.510401,0.433296121,-0.324547015,0.541211,0.412642093,-0.317763753,0.523226,0.403024301,-0.314728897,0.514963,0.394291143,-0.323778767,0.520753
0.366448029,-0.377509195,0.549033,0.375218199,-0.32526138,0.535846,0.347182049,-0.352407797,0.540219,0.332192347,-0.315630231,0.523059,0.316554632,-0.284071337,0.504759,0.312988066,-0.262594495,0.492198,0.359688662,-0.260295678,0.515384,0.346623141,-0.235894378,0.495499,0.342598696,-0.226975623,0.485556,0.348619716,-0.229069124,0.493057,0.385943035,-0.277972795,0.522101,0.373753634,-0.271955532,0.501637,0.356101225,-0.288784241,0.4897,0.358172179,-0.299686126,0.49808,0.406934785,-0.294318371,0.528737,0.389838572,-0.297019681,0.508104,0.369634398,-0.307866421,0.497547,0.368422083,-0.319521149,0.505893,0.431739667,-0.320025789,0.538638,0.411949749,-0.31487039,0.520402,0.403609107,-0.31141201,0.512024,0.393014704,-0.321612811,0.517599
0.36495359,-0.374865364,0.547205,0.373188456,-0.319449157,0.533588,0.345656899,-0.349661166,0.538271,0.326672107,-0.308915763,0.51865,0.311544247,-0.280323314,0.500065,0.303832607,-0.256164237,0.487169,0.357148479,-0.258083775,0.512667,0.345633305,-0.23080017,0.492456,0.339227756,-0.223226868,0.482351,0.345025684,-0.224373426,0.489703,0.383758414,-0.27275972,0.519394,0.371070999,-0.269085065,0.498537,0.35309788,-0.285702304,0.48637,0.355640089,-0.297667943,0.494588,0.40507735,-0.288724357,0.526076,0.387698547,-0.294349036,0.505085,0.367380918,-0.305659698,0.494345,0.366499808,-0.316829406,0.502524,0.429073413,-0.314870942,0.536095,0.41206565,-0.310794119,0.517568,0.40316228,-0.308676157,0.509055,0.392859418,-0.318750538,0.514505
0.36405143,-0.3730798,0.546172,0.372717416,-0.318856194,0.532905,0.345122501,-0.348220597,0.537758,0.325151741,-0.307285188,0.516577,0.308885023,-0.277834007,0.496656,0.30135593,-0.253683877,0.484256,0.357084369,-0.257912321,0.512884,0.345834753,-0.230181976,0.493174,0.338946339,-0.219809654,0.48332,0.333236323,-0.212124852,0.474361,0.383372921,-0.272247607,0.519075,0.370803242,-0.269217401,0.498572,0.353331189,-0.286499073,0.486612,0.355453105,-0.298217454,0.495068,0.404392693,-0.287908517,0.525286,0.387323755,-0.29387405,0.504766,0.367417199,-0.305441961,0.494267,0.36636129,-0.316928021,0.502738,0.427996613,-0.313652223,0.534695,0.409731597,-0.310284209,0.516517,0.397393129,-0.310226064,0.508165,0.389765909,-0.319685589,0.513822
0.363062324,-0.371390542,0.544898,0.372322759,-0.318257873,0.532158,0.344409072,-0.346755097,0.536832,0.32282797,-0.306287895,0.516127,0.298785479,-0.278706395,0.495093,0.289370624,-0.254962816,0.482476,0.357184151,-0.257626166,0.512951,0.345596345,-0.231624713,0.493756,0.339609261,-0.219163327,0.484159,0.334903358,-0.207924759,0.476244,0.383290969,-0.271827,0.518879,0.371040958,-0.269892307,0.49889,0.353453536,-0.286773529,0.48723,0.355496287,-0.298962504,0.495934,0.404135528,-0.287362188,0.524829,0.387233143,-0.293595605,0.504836,0.368093285,-0.305110818,0.494607,0.366648269,-0.317326586,0.503351,0.427487453,-0.312931369,0.533848,0.409054953,-0.309584096,0.516084,0.39695063,-0.309669763,0.507923,0.389624049,-0.31970758,0.51378
0.362999571,-0.369754808,0.544819,0.372327449,-0.318105375,0.532055,0.344334792,-0.346082731,0.536865,0.322115705,-0.306408418,0.516277,0.298998512,-0.278905112,0.495446,0.289655511,-0.255213828,0.482951,0.357227799,-0.257443027,0.512968,0.345643705,-0.231463911,0.493822,0.339708831,-0.218691037,0.484248,0.334970072,-0.206985505,0.476275,0.383232608,-0.271568339,0.518749,0.370717707,-0.269744262,0.498756,0.353093416,-0.286621871,0.487094,0.354902038,-0.29915423,0.495819,0.404000601,-0.28704836,0.52458,0.386953517,-0.293220176,0.504618,0.368018019,-0.304868105,0.494404,0.366777001,-0.317133716,0.50318,0.427279745,-0.312570637,0.533462,0.408523454,-0.30904747,0.515714,0.396475794,-0.309140695,0.507559,0.389880809,-0.319008684,0.513437
0.363464834,-0.369307566,0.546461,0.372637293,-0.318350743,0.532904,0.344807161,-0.344481293,0.538568,0.319450035,-0.307556154,0.517902,0.293550431,-0.279340191,0.497917,0.288345568,-0.256273349,0.485106,0.357522863,-0.257324506,0.513325,0.345584583,-0.229158211,0.493739,0.345237938,-0.213861902,0.491877,0.344882458,-0.202411189,0.490184,0.383197571,-0.271430343,0.518773,0.36821296,-0.269649011,0.49806,0.348937523,-0.285771034,0.485977,0.352768863,-0.298199661,0.494463,0.403721804,-0.286919959,0.524396,0.3854635,-0.291654133,0.503898,0.367112,-0.303932676,0.49341,0.366083443,-0.316184919,0.501979,0.426770423,-0.313302157,0.533155,0.407077141,-0.307468633,0.514946,0.394659138,-0.306708786,0.50658,0.389037926,-0.318189696,0.512294
0.363175619,-0.367868689,0.546983,0.37252755,-0.317914258,0.533043,0.344141486,-0.340298915,0.53938,0.31944958,-0.307638538,0.518965,0.29436876,-0.278980131,0.499433,0.288122658,-0.257144645,0.486339,0.357590467,-0.256470435,0.513548,0.345972567,-0.223636121,0.493901,0.343876922,-0.210028382,0.489535,0.34201227,-0.197169669,0.485566,0.382968654,-0.270847347,0.518511,0.367260322,-0.268392519,0.497508,0.347679756,-0.285032622,0.485255,0.351324092,-0.297270024,0.493685,0.403147592,-0.28621965,0.523768,0.383681326,-0.2867244,0.503128,0.366737026,-0.29949192,0.492568,0.36609132,-0.314751331,0.501117,0.42580606,-0.311679394,0.532152,0.40425453,-0.306046516,0.513796,0.386151066,-0.3059107,0.505362,0.385444838,-0.318050803,0.511052
0.362674171,-0.366240042,0.546965,0.372380825,-0.317618358,0.532991,0.344239851,-0.341247455,0.539329,0.318672325,-0.307735149,0.518872,0.292993871,-0.279562974,0.498939,0.282553848,-0.258261475,0.484963,0.357754359,-0.256525551,0.513431,0.346287796,-0.223119158,0.493744,0.344178679,-0.209277315,0.489245,0.342303524,-0.196208946,0.485154,0.382974227,-0.270608701,0.518424,0.366828436,-0.268374775,0.497367,0.347135749,-0.284899096,0.485083,0.350505288,-0.296795404,0.49349,0.403116614,-0.286081928,0.523708,0.384576969,-0.288841028,0.503029,0.366959951,-0.301288151,0.492449,0.366192941,-0.314494938,0.500977,0.42572054,-0.311667707,0.53213,0.403618905,-0.306163062,0.513744,0.386291726,-0.306555816,0.505296,0.384321048,-0.318166937,0.510971
0.362129696,-0.364954281,0.547114,0.372145683,-0.317317277,0.532858,0.343774019,-0.339624705,0.539409,0.318047435,-0.307890238,0.518827,0.292058815,-0.279792546,0.498933,0.281376892,-0.258654057,0.484898,0.357421418,-0.256045848,0.513012,0.345657943,-0.222494515,0.493119,0.3438083,-0.208721997,0.489006,0.342169845,-0.195697464,0.485266,0.38260259,-0.270170929,0.517999,0.365151358,-0.268276086,0.496686,0.346162106,-0.284350535,0.484254,0.349079247,-0.296131645,0.492555,0.402731829,-0.285692449,0.523301,0.383808004,-0.287087337,0.502394,0.366436847,-0.30041816,0.491698,0.366070458,-0.313642815,0.500119,0.425354287,-0.311366851,0.531789,0.40273,-0.305846433,0.513216,0.390049098,-0.305358367,0.504682,0.383804508,-0.317556562,0.510277
0.36114934,-0.36328161,0.546685,0.371797739,-0.316823707,0.532312,0.343687543,-0.339322925,0.539279,0.317927451,-0.308170587,0.519011,0.292103168,-0.280371479,0.499542,0.281405799,-0.259763505,0.485378,0.3573496,-0.255710582,0.512754,0.345693421,-0.222284525,0.492967,0.343970721,-0.208558222,0.489057,0.342448138,-0.195564899,0.485502,0.382207638,-0.269661021,0.51733,0.362763091,-0.268705043,0.495947,0.343435964,-0.284453054,0.483474,0.348301482,-0.295812878,0.491795,0.40205628,-0.285027725,0.522304,0.3834193,-0.287150489,0.501451,0.365923309,-0.299598869,0.490782,0.365878746,-0.312829048,0.49926,0.424338614,-0.310499927,0.530422,0.406344871,-0.303752813,0.511867,0.400100275,-0.296891293,0.503342,0.393295308,-0.312539899,0.508971
0.360737688,-0.362652815,0.546204,0.371484894,-0.316178214,0.53189,0.343399302,-0.338689661,0.538935,0.317641829,-0.308191663,0.51883,0.291800106,-0.280439024,0.49938,0.281065573,-0.260173937,0.485079,0.357250822,-0.255095038,0.512545,0.345723075,-0.222148141,0.492874,0.344088332,-0.208454332,0.489104,0.342646348,-0.195483215,0.485677,0.381982874,-0.269022991,0.516969,0.362449604,-0.269073714,0.495662,0.343197939,-0.284761957,0.483233,0.34752232,-0.29597259,0.491601,0.401727141,-0.28437416,0.521814,0.383207723,-0.286679999,0.501065,0.365810448,-0.29918762,0.490449,0.36616876,-0.312513289,0.498986,0.423879753,-0.309834364,0.529769,0.406252245,-0.302819694,0.51129,0.399669445,-0.296571599,0.5028,0.394117479,-0.309884379,0.50847
0.359208734,-0.361109385,0.544336,0.370269498,-0.314893092,0.530332,0.342331633,-0.337466481,0.537638,0.313092504,-0.308518099,0.51823,0.279324389,-0.283004197,0.498681,0.264327531,-0.259222452,0.486139,0.356859975,-0.254318947,0.511921,0.3460401,-0.218199584,0.492773,0.344493687,-0.199263348,0.487014,0.341763191,-0.188864216,0.482743,0.381093894,-0.267999776,0.515734,0.363567259,-0.26826171,0.495227,0.344912011,-0.284310895,0.483265,0.347524369,-0.295714329,0.49196,0.400369228,-0.283106463,0.520049,0.382310263,-0.285674071,0.499936,0.365380131,-0.298457923,0.489646,0.366029437,-0.31232018,0.498491,0.421889197,-0.308202708,0.52733,0.406109464,-0.298792508,0.50921,0.398060476,-0.295299827,0.500884,0.393742806,-0.30676138,0.506739
0.356201485,-0.357943018,0.540271,0.367430574,-0.312083674,0.526592,0.340153404,-0.335074338,0.534711,0.307005042,-0.306688618,0.517455,0.273955954,-0.277774815,0.497901,0.260815963,-0.256277461,0.485264,0.355268161,-0.251948165,0.509835,0.344923142,-0.213072119,0.491575,0.341676719,-0.193321614,0.485512,0.340406038,-0.180318307,0.48,0.378398342,-0.26477949,0.512334,0.378505129,-0.227763089,0.491838,0.361006557,-0.239705324,0.479883,0.358442647,-0.258585179,0.48873,0.396621324,-0.279105863,0.515541,0.380036875,-0.282476549,0.49714,0.364527507,-0.295502708,0.487726,0.365287416,-0.311584454,0.497248,0.41688782,-0.303400534,0.521459,0.401633642,-0.294560136,0.5039,0.39336379,-0.291732738,0.495833,0.38921046,-0.303567249,0.50196
0.359338821,-0.360476329,0.545394,0.365196688,-0.308867845,0.523773,0.342384502,-0.33659289,0.538573,0.30670738,-0.302764619,0.517977,0.273682496,-0.26939217,0.49221,0.254429825,-0.246067126,0.475629,0.347177803,-0.243596048,0.499738,0.334044123,-0.203175661,0.476202,0.332224005,-0.186140483,0.470887,0.330618739,-0.170270722,0.466055,0.36920516,-0.254279931,0.501234,0.365397509,-0.21818521,0.473745,0.344968589,-0.227558043,0.457709,0.340434685,-0.244030503,0.463356,0.387364738,-0.268177209,0.504284,0.366971955,-0.271300295,0.479636,0.349191022,-0.282564562,0.467025,0.347893313,-0.295965295,0.47329,0.408546633,-0.292321266,0.51125,0.389505055,-0.281357235,0.488776,0.379311513,-0.279298431,0.47845,0.374194063,-0.290498918,0.482191
0.359548975,-0.359987991,0.546117,0.364847081,-0.306573674,0.524107,0.342851945,-0.33641334,0.539831,0.306715912,-0.300846603,0.519836,0.268730125,-0.269704583,0.494425,0.251667009,-0.24694584,0.477695,0.346286243,-0.241491652,0.50046,0.333266944,-0.200824407,0.47706,0.329080406,-0.182256828,0.471981,0.33012865,-0.169219035,0.467363,0.368224389,-0.25137581,0.501163,0.363680953,-0.217268095,0.473403,0.343182164,-0.226990773,0.45721,0.338776696,-0.243244235,0.462712,0.386092466,-0.264660735,0.503593,0.367708259,-0.257370964,0.478291,0.351384565,-0.268679514,0.465346,0.34869801,-0.286822815,0.471337,0.407045234,-0.288086695,0.509886,0.388308568,-0.276834369,0.487397,0.378453706,-0.272902119,0.477064,0.373677715,-0.282763795,0.480746
0.359070297,-0.358071597,0.545001,0.364041344,-0.300629685,0.523127,0.342448647,-0.334876134,0.539136,0.30462791,-0.298152516,0.519665,0.268667228,-0.268235755,0.494645,0.249746776,-0.243630307,0.478735,0.343762752,-0.236620104,0.500105,0.330191832,-0.19702423,0.476909,0.328075706,-0.17977519,0.472028,0.326184643,-0.163693383,0.46759,0.365775709,-0.24695797,0.500326,0.359716968,-0.212701221,0.47271,0.339479405,-0.22353578,0.4566,0.337240488,-0.240531843,0.46217,0.383703387,-0.259519581,0.502348,0.366588093,-0.253980139,0.476952,0.35039494,-0.26538867,0.463959,0.348890751,-0.280063643,0.469952,0.405319167,-0.279209009,0.508137,0.386706534,-0.267749764,0.485879,0.377480823,-0.263204705,0.475652,0.372809616,-0.276113281,0.479421
0.358861251,-0.356446898,0.544222,0.363212728,-0.297274783,0.522272,0.342010929,-0.333316163,0.538308,0.304405628,-0.294717713,0.51877,0.268269957,-0.26665669,0.493581,0.251575989,-0.244204922,0.476949,0.343009784,-0.232915777,0.499133,0.328752506,-0.193127934,0.4759,0.326679727,-0.17595826,0.471582,0.325722812,-0.162045159,0.467657,0.36518942,-0.243049927,0.499391,0.357259296,-0.214638808,0.471714,0.333243475,-0.227181549,0.455569,0.334718546,-0.240907145,0.461106,0.383324342,-0.255469252,0.50145,0.365700489,-0.249522535,0.476008,0.349621807,-0.26103717,0.462992,0.348229058,-0.27790585,0.468954,0.404867692,-0.277938312,0.507294,0.385990858,-0.26607776,0.484977,0.376642613,-0.261342409,0.474723,0.372702445,-0.270553384,0.478462
0.358907629,-0.354733878,0.54404,0.363061346,-0.293930347,0.522247,0.341827176,-0.331725196,0.538127,0.303970327,-0.29334159,0.518606,0.267827631,-0.263846161,0.493727,0.249019069,-0.241418443,0.477324,0.342614134,-0.231648504,0.499224,0.328514276,-0.192047189,0.476061,0.326291402,-0.174820608,0.471453,0.324296923,-0.158738658,0.467264,0.364824297,-0.241783599,0.499531,0.356128322,-0.212175831,0.471998,0.33329453,-0.226547981,0.455938,0.333000645,-0.240007682,0.46155,0.38296472,-0.254185821,0.501617,0.365673207,-0.248570029,0.476322,0.349700615,-0.260173392,0.46338,0.348489009,-0.275007708,0.469424,0.404481878,-0.276595643,0.507468,0.385858004,-0.265004954,0.485235,0.376629295,-0.260395588,0.47502,0.372792066,-0.269676869,0.478811
0.35826248,-0.348420448,0.542327,0.361641154,-0.288133997,0.521158,0.341230805,-0.324902929,0.53726,0.303308112,-0.288598449,0.518833,0.266638051,-0.258685891,0.494383,0.24754795,-0.235663537,0.478281,0.341741564,-0.226878679,0.499638,0.326735774,-0.183884003,0.477496,0.324487829,-0.166224714,0.473925,0.322449157,-0.1497258,0.470678,0.363456558,-0.236433682,0.499092,0.351950499,-0.206141338,0.471985,0.330584278,-0.219618174,0.456173,0.331636141,-0.237096855,0.462019,0.38114314,-0.248307419,0.500423,0.362736872,-0.244441929,0.475275,0.346829682,-0.25630429,0.462408,0.346894232,-0.271929919,0.468621,0.402062766,-0.269982349,0.505285,0.382859934,-0.255626093,0.483709,0.373185974,-0.250938383,0.473795,0.370425643,-0.263583524,0.477861
0.358121902,-0.344949804,0.541823,0.360810808,-0.285976288,0.520614,0.341058771,-0.320251233,0.537235,0.302692521,-0.284974703,0.519397,0.266001547,-0.255435438,0.495744,0.246795471,-0.232569397,0.480087,0.340623801,-0.223006941,0.499662,0.325819884,-0.182349985,0.477691,0.323690583,-0.164741506,0.474434,0.321757418,-0.148273542,0.471473,0.362030653,-0.232081983,0.498507,0.350313366,-0.203976047,0.471285,0.328958494,-0.217378932,0.455406,0.327247594,-0.231999981,0.461185,0.379516773,-0.243574383,0.49934,0.360053633,-0.232903576,0.473913,0.344376191,-0.244398756,0.460904,0.343945108,-0.260533326,0.466995,0.400291678,-0.264825669,0.503618,0.382403989,-0.249031643,0.482212,0.373908092,-0.243220614,0.472376,0.369378593,-0.255416166,0.476463
0.358225185,-0.339484264,0.541089,0.360791503,-0.281794283,0.520534,0.341176207,-0.31843423,0.537216,0.302977204,-0.281913325,0.520335,0.26668362,-0.25469215,0.496827,0.247383528,-0.23206793,0.481156,0.340580771,-0.22000315,0.500943,0.325265734,-0.179199794,0.479591,0.322387982,-0.161789653,0.476092,0.319709447,-0.145858975,0.472911,0.361612621,-0.228426481,0.499107,0.348054099,-0.196204827,0.472378,0.327367303,-0.209092836,0.456786,0.326795228,-0.228269837,0.462794,0.378807539,-0.239365601,0.499326,0.35902208,-0.226225773,0.474157,0.343647108,-0.237751449,0.461279,0.344258935,-0.257734396,0.467548,0.399718822,-0.25713912,0.502776,0.381685718,-0.242010826,0.482007,0.372747128,-0.235721932,0.472465,0.370171662,-0.247626588,0.476803
0.356995095,-0.336547931,0.539109,0.360062038,-0.27819046,0.52045,0.340244183,-0.31288519,0.536238,0.303086298,-0.281528202,0.520808,0.266628887,-0.254480137,0.497499,0.247357337,-0.231842347,0.482471,0.340873139,-0.217947339,0.503471,0.326825956,-0.177561233,0.48308,0.324033355,-0.160001849,0.479264,0.322111108,-0.145268443,0.475795,0.361633391,-0.225467324,0.501001,0.346934526,-0.193196793,0.475883,0.327657283,-0.206174871,0.461232,0.328692348,-0.225761166,0.467998,0.378587032,-0.235607832,0.500537,0.360574735,-0.213425387,0.476663,0.346852561,-0.222918002,0.464448,0.347804125,-0.242913232,0.471444,0.398718996,-0.255108167,0.502886,0.377382599,-0.23967048,0.483548,0.367122444,-0.23456533,0.474663,0.367372004,-0.244246051,0.47965
0.358101466,-0.336259201,0.540688,0.360585421,-0.277862568,0.521456,0.341141131,-0.312676032,0.537671,0.30369542,-0.28184985,0.521998,0.266953513,-0.254693744,0.498571,0.247448027,-0.231806677,0.483468,0.340686444,-0.217750525,0.503883,0.32681871,-0.177332971,0.483073,0.324702232,-0.159872178,0.479868,0.323120502,-0.144886317,0.476954,0.361469884,-0.225159461,0.50141,0.346860164,-0.193155384,0.475781,0.327372414,-0.205995621,0.460831,0.327854737,-0.224693791,0.46735,0.378498315,-0.235234693,0.500991,0.360563388,-0.213418671,0.476648,0.346662872,-0.222796091,0.464194,0.347427876,-0.242650453,0.470934,0.398829919,-0.254716304,0.503482,0.37756054,-0.239783488,0.483776,0.367168077,-0.234594486,0.474722,0.36587591,-0.243908087,0.479522
0.358896877,-0.333672994,0.54088,0.361964916,-0.275848788,0.522176,0.342066253,-0.311951326,0.538106,0.30541603,-0.280492234,0.522794,0.270296015,-0.251591696,0.499972,0.2485316,-0.230355972,0.484792,0.342132308,-0.217802287,0.505284,0.328559257,-0.177388669,0.484924,0.328069464,-0.159603841,0.483338,0.327495126,-0.143360261,0.481897,0.362434207,-0.224050847,0.502679,0.348731124,-0.19256147,0.477507,0.329490299,-0.205404328,0.462823,0.32949629,-0.222910564,0.469553,0.379485359,-0.233721269,0.502109,0.362421979,-0.212584147,0.478145,0.350249689,-0.218500379,0.465885,0.349778452,-0.242038753,0.472833,0.399918466,-0.252706745,0.504337,0.379458978,-0.238840974,0.485016,0.370795567,-0.229933664,0.476139,0.365166541,-0.24221936,0.481114
0.363121814,-0.331350568,0.546325,0.36631558,-0.272746536,0.526413,0.346624892,-0.310456405,0.544356,0.312339263,-0.278803061,0.529979,0.274792844,-0.253208335,0.506985,0.252048211,-0.231152915,0.490542,0.346032048,-0.215692892,0.509658,0.333824224,-0.170856773,0.48961,0.33379423,-0.152482121,0.488074,0.333791521,-0.135351454,0.486678,0.365926821,-0.222300537,0.505657,0.352131653,-0.188869815,0.479277,0.333149656,-0.201830997,0.46389,0.332848308,-0.219096307,0.46989,0.381060318,-0.233557913,0.504039,0.364414416,-0.208219417,0.478576,0.350532298,-0.217194086,0.465549,0.351272721,-0.236948434,0.471621,0.400526282,-0.252101668,0.505216,0.381753462,-0.23589926,0.485615,0.372117546,-0.230088671,0.476609,0.371196613,-0.240766845,0.481196
0.36713748,-0.332957417,0.551918,0.368462165,-0.272006331,0.530828,0.349895875,-0.311492058,0.548926,0.315068024,-0.280106164,0.533127,0.277692645,-0.254109099,0.510007,0.258760007,-0.23169007,0.496321,0.347469697,-0.215968308,0.511952,0.334508591,-0.171459448,0.490528,0.335034279,-0.153399708,0.489834,0.335538598,-0.136508981,0.489203,0.368051748,-0.223130379,0.508844,0.354206221,-0.189117114,0.481508,0.335156783,-0.202084935,0.465562,0.334537345,-0.219122355,0.47117,0.384948422,-0.232969908,0.50806,0.367231828,-0.20903664,0.481975,0.353429861,-0.217601028,0.468629,0.353864534,-0.237506844,0.474373,0.404301047,-0.251253838,0.510407,0.385608123,-0.236403937,0.489737,0.37689855,-0.229890544,0.48024,0.377671981,-0.237356893,0.484424
0.368630824,-0.332725494,0.553817,0.36953157,-0.272715312,0.532272,0.351210517,-0.311254314,0.550567,0.316111196,-0.280658226,0.534401,0.278703212,-0.254447987,0.511093,0.259700776,-0.231864422,0.497176,0.347950091,-0.215956635,0.512748,0.334813678,-0.171699401,0.490947,0.335475846,-0.153718155,0.490462,0.336104679,-0.136888002,0.490021,0.368662857,-0.223270639,0.509814,0.354856491,-0.189033577,0.482097,0.33582171,-0.202008067,0.465928,0.335055833,-0.218922995,0.471352,0.385680021,-0.233242337,0.509211,0.367995107,-0.209076828,0.482827,0.354245281,-0.217412396,0.469328,0.354526161,-0.237357509,0.474897,0.40541488,-0.251858441,0.511844,0.386680001,-0.236475249,0.490826,0.37795722,-0.229713458,0.48117,0.378710645,-0.236941086,0.485194
0.372745825,-0.330974919,0.558534,0.371741989,-0.273627513,0.535146,0.35488283,-0.311231787,0.555183,0.320376272,-0.284219427,0.542255,0.279180779,-0.25960375,0.520376,0.2594335,-0.238324299,0.507791,0.348947375,-0.216143307,0.514172,0.334858133,-0.171372839,0.491838,0.33511488,-0.153423205,0.491849,0.335909764,-0.136814319,0.49186,0.369401125,-0.223302353,0.510767,0.354370952,-0.18830455,0.481407,0.335001962,-0.200990849,0.464281,0.333740319,-0.217379555,0.46876,0.386266901,-0.233178695,0.509933,0.36728179,-0.209029305,0.481913,0.35309418,-0.216978795,0.467577,0.351477416,-0.238396575,0.472129,0.406145864,-0.25177375,0.512576,0.38638478,-0.23689032,0.490582,0.375575862,-0.232645317,0.480476,0.375604021,-0.239596719,0.483842
0.373897047,-0.330673792,0.559929,0.372320302,-0.273680989,0.535813,0.355858614,-0.310919726,0.556331,0.31863573,-0.282813977,0.539556,0.280299073,-0.257034308,0.516225,0.260236309,-0.234052222,0.501166,0.3488282,-0.215861863,0.514006,0.334160097,-0.170893847,0.491364,0.334213522,-0.152939706,0.491585,0.334934428,-0.136510295,0.491785,0.369348832,-0.223070621,0.510674,0.353817596,-0.187861259,0.480695,0.334412816,-0.200500993,0.463207,0.333026785,-0.216653725,0.46734,0.386303607,-0.232994496,0.50996,0.366169337,-0.210766963,0.481395,0.352520211,-0.217197429,0.466781,0.350864513,-0.237991664,0.470979,0.406457565,-0.251720696,0.51286,0.386038099,-0.237458953,0.490393,0.375405743,-0.233056471,0.480071,0.374049769,-0.2419878,0.483166
0.37493112,-0.330535519,0.561215,0.372938307,-0.273887047,0.536592,0.356746119,-0.310765176,0.557417,0.319144426,-0.283069987,0.540359,0.280702337,-0.257363247,0.517024,0.2604886,-0.234294741,0.501761,0.348936866,-0.21578049,0.514173,0.333753291,-0.17060468,0.491133,0.333652005,-0.152640201,0.491395,0.334215975,-0.136279671,0.491633,0.369541784,-0.223044032,0.510926,0.353669349,-0.187675833,0.480522,0.334242316,-0.200301396,0.462787,0.332768038,-0.216299241,0.466679,0.386591734,-0.233020735,0.510325,0.366214192,-0.210808317,0.481396,0.352399106,-0.217530709,0.466595,0.35073522,-0.237912368,0.470552,0.406971909,-0.251874921,0.513436,0.3861816,-0.237827596,0.490631,0.375558244,-0.233459838,0.480154,0.37426515,-0.242098573,0.483058
