sluyters/QuantumLeap/backend/src/datasets/gesture/HandGestureDataset_SHREC2017_csv/Gesture3/finger_1/subject_25_essai_2_skeletons_world.csv
Wrist_x,Wrist_y,Wrist_z,Palm_x,Palm_y,Palm_z,thumb_base_x,thumb_base_y,thumb_base_z,thumb_first_joint_x,thumb_first_joint_y,thumb_first_joint_z,thumb_second_joint_x,thumb_second_joint_y,thumb_second_joint_z,thumb_tip_x,thumb_tip_y,thumb_tip_z,index_base_x,index_base_y,index_base_z,index_first_joint_x,index_first_joint_y,index_first_joint_z,index_second_joint_x,index_second_joint_y,index_second_joint_z,index_tip_x,index_tip_y,index_tip_z,middle_base_x,middle_base_y,middle_base_z,middle_first_joint_x,middle_first_joint_y,middle_first_joint_z,middle_second_joint_x,middle_second_joint_y,middle_second_joint_z,middle_tip_x,middle_tip_y,middle_tip_z,ring_base_x,ring_base_y,ring_base_z,ring_first_joint_x,ring_first_joint_y,ring_first_joint_z,ring_second_joint_x,ring_second_joint_y,ring_second_joint_z,ring_tip_x,ring_tip_y,ring_tip_z,pinky_base_x,pinky_base_y,pinky_base_z,pinky_first_joint_x,pinky_first_joint_y,pinky_first_joint_z,pinky_second_joint_x,pinky_second_joint_y,pinky_second_joint_z,pinky_tip_x,pinky_tip_y,pinky_tip_z,r
0.445392982,-0.359424506,0.518899,0.418368062,-0.307635678,0.503216,0.415799692,-0.349717171,0.510652,0.409355012,-0.319603941,0.504233,0.375345209,-0.288830815,0.48739,0.359288033,-0.26710614,0.479815,0.365434795,-0.264158681,0.48229,0.348390823,-0.226975878,0.461148,0.342550288,-0.224695258,0.450577,0.350579335,-0.244142145,0.457627,0.393530195,-0.26103646,0.488276,0.365897132,-0.213421521,0.465831,0.361474378,-0.214916573,0.452738,0.373033886,-0.234661981,0.460217,0.419504062,-0.262945469,0.494703,0.407194888,-0.247164043,0.472349,0.402625967,-0.26052712,0.460912,0.410114656,-0.277915302,0.468449,0.455188661,-0.273414017,0.504899,0.438161091,-0.268447701,0.485063,0.431607641,-0.273240022,0.475949,0.426197141,-0.279505524,0.467907
0.44539384,-0.359425198,0.5189,0.418368062,-0.307635678,0.503216,0.415800506,-0.349717856,0.510653,0.409355012,-0.319603941,0.504233,0.375344439,-0.288830223,0.487389,0.359287284,-0.267105583,0.479814,0.365434795,-0.264158681,0.48229,0.348390068,-0.226975385,0.461147,0.342549528,-0.224694759,0.450576,0.350577803,-0.244141078,0.457625,0.393531001,-0.261036995,0.488277,0.365897132,-0.213421521,0.465831,0.36147358,-0.214916098,0.452737,0.373033075,-0.234661471,0.460216,0.41950491,-0.262946001,0.494704,0.407194888,-0.247164043,0.472349,0.402625967,-0.26052712,0.460912,0.41011378,-0.277914708,0.468448,0.455189562,-0.273414559,0.5049,0.438161995,-0.268448255,0.485064,0.431607641,-0.273240022,0.475949,0.426197141,-0.279505524,0.467907
0.445043088,-0.359016488,0.518531,0.418736949,-0.307810835,0.5037,0.414631672,-0.348614601,0.50926,0.408214283,-0.318685901,0.503034,0.374654095,-0.28814369,0.486579,0.358864508,-0.266349322,0.478972,0.365202277,-0.263927497,0.482031,0.348008588,-0.227031562,0.460824,0.342069166,-0.224923551,0.450221,0.349921066,-0.244312872,0.457077,0.394538287,-0.261627054,0.489572,0.367512684,-0.214615769,0.467802,0.364311648,-0.224254055,0.455104,0.375552993,-0.244325237,0.462589,0.421592151,-0.26415494,0.497197,0.408947249,-0.255241524,0.475027,0.404041307,-0.268506266,0.463684,0.412325659,-0.279916096,0.47109,0.458567765,-0.275312595,0.508651,0.441602706,-0.27084556,0.48907,0.434705354,-0.28220355,0.480074,0.441022209,-0.290474568,0.485005
0.44518843,-0.359008153,0.51874,0.418821552,-0.307776948,0.503842,0.414812868,-0.348646831,0.509525,0.408380618,-0.318788354,0.503445,0.37497176,-0.288232715,0.487078,0.359419127,-0.266319298,0.479435,0.365294066,-0.26393077,0.4822,0.347948884,-0.227297542,0.460927,0.341911845,-0.225364425,0.450291,0.349730999,-0.244809387,0.457138,0.394564708,-0.26156651,0.48965,0.367597585,-0.214918051,0.467824,0.364302843,-0.224248635,0.455093,0.375540004,-0.244316786,0.462573,0.421573863,-0.264044108,0.497207,0.408933475,-0.255232927,0.475011,0.404016037,-0.268489473,0.463655,0.412201981,-0.280333662,0.471064,0.458511987,-0.275147953,0.508593,0.441348046,-0.270978743,0.488985,0.434616616,-0.282145943,0.479976,0.440932187,-0.290415276,0.484906
0.445529474,-0.359157592,0.519177,0.419002555,-0.30781389,0.5041,0.415150361,-0.348810431,0.509982,0.408647467,-0.318969263,0.50398,0.375364821,-0.288379624,0.487675,0.360027204,-0.266328353,0.479969,0.365382867,-0.263931855,0.482365,0.347822651,-0.227520228,0.460942,0.341655017,-0.225739758,0.45023,0.349407172,-0.245211828,0.457024,0.394599208,-0.261511323,0.489738,0.367611956,-0.215179886,0.467756,0.364174762,-0.224169795,0.454933,0.375367891,-0.244204814,0.462361,0.421581821,-0.263949725,0.497248,0.408864604,-0.255189941,0.474931,0.403892302,-0.268407245,0.463513,0.411936788,-0.280653752,0.470876,0.458523825,-0.275023831,0.50861,0.441090741,-0.271110216,0.488897,0.434492563,-0.282065409,0.479839,0.440774875,-0.290311665,0.484733
0.445897061,-0.359328348,0.519645,0.41919516,-0.307859355,0.504372,0.415511432,-0.348993825,0.510468,0.408930452,-0.319162756,0.504535,0.375771672,-0.288536953,0.48829,0.360646802,-0.266345385,0.480518,0.365472399,-0.263933522,0.482531,0.34768962,-0.227738525,0.460948,0.341388419,-0.226108452,0.450156,0.349069901,-0.245604075,0.456892,0.394632085,-0.261455064,0.489824,0.367612351,-0.215434274,0.46767,0.364025869,-0.224078142,0.454747,0.3751698,-0.244075941,0.462117,0.421588114,-0.263854262,0.497287,0.408782819,-0.255138896,0.474836,0.403750268,-0.268312856,0.46335,0.41164654,-0.280955314,0.470659,0.458535626,-0.274899648,0.508627,0.44082358,-0.271235519,0.488798,0.434355833,-0.281976646,0.479688,0.440599378,-0.290196075,0.48454
0.446562472,-0.359877087,0.520662,0.419318443,-0.307845149,0.504612,0.415976015,-0.349339104,0.511285,0.409048437,-0.319305274,0.505026,0.375978642,-0.28855181,0.488735,0.361286446,-0.266097911,0.480761,0.36506515,-0.263407884,0.481999,0.345983711,-0.229014129,0.459487,0.338816879,-0.228450491,0.448231,0.345933958,-0.248034835,0.454569,0.394259411,-0.260995378,0.489322,0.367461787,-0.216841382,0.466472,0.363063312,-0.223909684,0.453143,0.373823727,-0.243687502,0.460201,0.421312171,-0.263487548,0.496885,0.408077282,-0.250832857,0.473793,0.402934285,-0.263964032,0.461978,0.409936935,-0.280006602,0.468963,0.458497118,-0.274720998,0.508474,0.440060572,-0.271163724,0.48812,0.43348592,-0.281697325,0.478768,0.439502218,-0.289712647,0.483376
0.440849407,-0.355157159,0.514406,0.418790759,-0.307327596,0.504295,0.411531601,-0.34552363,0.506229,0.406188557,-0.317186545,0.50185,0.37864563,-0.291192137,0.492247,0.369080779,-0.271330779,0.490511,0.366339434,-0.263609391,0.487149,0.35355585,-0.238351508,0.469071,0.349413437,-0.241481278,0.460032,0.357567225,-0.261472927,0.468359,0.397738682,-0.261710712,0.494662,0.376452246,-0.222811152,0.477186,0.376316964,-0.235408102,0.466991,0.387089241,-0.252888981,0.476197,0.424988787,-0.264072446,0.501813,0.415474136,-0.254681811,0.483558,0.413600111,-0.268704387,0.474218,0.422325597,-0.288529308,0.483395,0.461423982,-0.275508129,0.511908,0.446647496,-0.275606927,0.495561,0.441894548,-0.287286603,0.488051,0.449303006,-0.296183394,0.494324
0.436493432,-0.35095381,0.509883,0.413888086,-0.295221949,0.50253,0.409682425,-0.343246077,0.504604,0.397266432,-0.303116055,0.501464,0.393807719,-0.273372046,0.49029,0.401080019,-0.255783877,0.493933,0.368633615,-0.256085212,0.490914,0.356396089,-0.254462251,0.476294,0.350230227,-0.253879455,0.468985,0.359233049,-0.276723969,0.479017,0.396491952,-0.252462045,0.495525,0.377274999,-0.215727344,0.48081,0.374539979,-0.224908795,0.472225,0.390544891,-0.246645102,0.482874,0.421644644,-0.253602341,0.500024,0.394440542,-0.218469536,0.485087,0.396099364,-0.224668255,0.477445,0.415602741,-0.246621956,0.48836,0.45509053,-0.262582909,0.506543,0.43871693,-0.26278592,0.492761,0.439992817,-0.278145308,0.486429,0.447633741,-0.292954085,0.493963
0.434781973,-0.349107716,0.508774,0.411983683,-0.294649566,0.501652,0.408039468,-0.341348907,0.503568,0.398096838,-0.303663429,0.502545,0.394364091,-0.273038497,0.489464,0.40253413,-0.255714147,0.493269,0.36720252,-0.255553751,0.490283,0.354721752,-0.254089511,0.475857,0.348418068,-0.253589277,0.468645,0.357289303,-0.276469536,0.478752,0.395013844,-0.252018509,0.494867,0.375553049,-0.214453649,0.48037,0.369877714,-0.218459061,0.471913,0.385348691,-0.244492866,0.482639,0.420098594,-0.253220091,0.499322,0.388606283,-0.214093251,0.484591,0.387286542,-0.215832123,0.477055,0.406451563,-0.236824014,0.488051,0.453400109,-0.262258605,0.50575,0.436787332,-0.260207474,0.492138,0.434620202,-0.272467089,0.485884,0.447193819,-0.291616435,0.49348
0.433275654,-0.347210389,0.508007,0.40729619,-0.289589216,0.494905,0.400960301,-0.331405601,0.499762,0.365289965,-0.297241505,0.47969,0.332395095,-0.269361838,0.457031,0.312838146,-0.248675002,0.446589,0.362924018,-0.240995747,0.475692,0.355853852,-0.203059684,0.458238,0.352375397,-0.183891403,0.449512,0.362124335,-0.17245677,0.457865,0.391795297,-0.241361478,0.482424,0.376423022,-0.200486751,0.462257,0.37649004,-0.20994276,0.450492,0.387378893,-0.230989232,0.458804,0.415001976,-0.24714419,0.489219,0.390035275,-0.202587504,0.46873,0.389858708,-0.200658389,0.458247,0.406360492,-0.219685382,0.466575,0.449888753,-0.259443901,0.499406,0.437339628,-0.255606524,0.481156,0.425928349,-0.264652739,0.472771,0.430145921,-0.279036383,0.47838
0.430873129,-0.344616929,0.506137,0.406597586,-0.288220282,0.493408,0.399427682,-0.32933606,0.498106,0.363302973,-0.29578899,0.476939,0.330470592,-0.268008876,0.454283,0.310991976,-0.247396355,0.443896,0.362324444,-0.240459224,0.474716,0.355440683,-0.202618719,0.457423,0.352058396,-0.183481335,0.448776,0.352503891,-0.167587882,0.44532,0.391107481,-0.24073653,0.481283,0.376885942,-0.201319843,0.461464,0.37708848,-0.211897903,0.449903,0.387807073,-0.233054549,0.458385,0.414910737,-0.246126743,0.487906,0.389570119,-0.202036117,0.46778,0.389583718,-0.200272457,0.457483,0.406267761,-0.219461585,0.466001,0.449124317,-0.258798797,0.497827,0.436596482,-0.255058802,0.479866,0.425667336,-0.263331694,0.471614,0.428812526,-0.278220215,0.477363
0.428865497,-0.342485364,0.504636,0.405807263,-0.287052935,0.491858,0.398126123,-0.327728361,0.496576,0.362283439,-0.294885574,0.475365,0.329391359,-0.266970287,0.452548,0.309919158,-0.246280021,0.44209,0.361466129,-0.239483747,0.473095,0.354656564,-0.201643319,0.455731,0.351312844,-0.182506798,0.447049,0.351091749,-0.166275361,0.442667,0.390291369,-0.239852619,0.479686,0.375591908,-0.199556487,0.45982,0.375230479,-0.20757561,0.448232,0.386601606,-0.230659029,0.456691,0.415860633,-0.244660352,0.486332,0.388869978,-0.201169605,0.466158,0.388864173,-0.199442886,0.455836,0.405485479,-0.218666131,0.464328,0.448427326,-0.25817234,0.496291,0.43579104,-0.254387585,0.478291,0.424947572,-0.262208599,0.470021,0.427342323,-0.277240168,0.475751
0.427380288,-0.340770275,0.503751,0.405377713,-0.286343903,0.490943,0.397331039,-0.326690776,0.495651,0.361631201,-0.294317886,0.474391,0.328705819,-0.266332715,0.45148,0.309276165,-0.245637183,0.441035,0.360904463,-0.23890817,0.472111,0.354131506,-0.201079937,0.454714,0.350806917,-0.181950304,0.446016,0.350577374,-0.165710463,0.441583,0.389765828,-0.239338382,0.478743,0.374823125,-0.198611593,0.458849,0.374614828,-0.206676529,0.447244,0.385863544,-0.229379724,0.455684,0.415364323,-0.244199961,0.485427,0.388409119,-0.200678911,0.465214,0.388385598,-0.198967044,0.454873,0.404963901,-0.218197991,0.463342,0.448066492,-0.257829828,0.495434,0.435299688,-0.254000183,0.477406,0.424567453,-0.261566285,0.469122,0.426505621,-0.276679833,0.474836
0.425807613,-0.338985253,0.502739,0.40500386,-0.285562452,0.489919,0.3964861,-0.325579233,0.494606,0.360971745,-0.293178615,0.473306,0.328162698,-0.264956863,0.450422,0.309054819,-0.244080036,0.439877,0.360758929,-0.237970536,0.471034,0.354189887,-0.200098383,0.453645,0.35225598,-0.180303459,0.444951,0.351352652,-0.164941876,0.441167,0.389676361,-0.238649468,0.477706,0.374950042,-0.197064384,0.457797,0.374862981,-0.206212342,0.446184,0.385658676,-0.228620276,0.454611,0.415297753,-0.243718606,0.484424,0.388558818,-0.200039754,0.464187,0.388451767,-0.19825766,0.453834,0.404893138,-0.217493166,0.462286,0.448716877,-0.257851985,0.494472,0.435098678,-0.253548,0.476427,0.42512212,-0.260126407,0.468136,0.425313454,-0.275616672,0.473838
0.424205194,-0.33717462,0.501695,0.40465299,-0.284926928,0.489066,0.395699678,-0.324608493,0.493632,0.360433184,-0.292338917,0.472453,0.3276929,-0.263953185,0.449569,0.308834811,-0.242984941,0.439002,0.360724985,-0.237387676,0.470399,0.354403438,-0.199543575,0.453157,0.352608142,-0.179733105,0.444536,0.35182906,-0.164410584,0.440839,0.389633621,-0.238200952,0.477036,0.37534665,-0.196742822,0.457303,0.375217013,-0.206046604,0.445792,0.385861695,-0.228315311,0.454296,0.415210711,-0.24337287,0.483706,0.388772185,-0.199672719,0.463639,0.388693589,-0.197886098,0.453373,0.405130429,-0.217176213,0.461907,0.448513848,-0.257615409,0.493667,0.434951604,-0.253238931,0.47576,0.424956942,-0.259787474,0.467532,0.425087048,-0.275309522,0.473296
0.422909767,-0.335472999,0.500813,0.404359595,-0.284418389,0.488378,0.39504186,-0.323808422,0.492817,0.359980732,-0.2916844,0.471755,0.327297649,-0.2631887,0.448878,0.308639496,-0.242173065,0.438323,0.360684824,-0.236961151,0.469925,0.354571088,-0.199155986,0.452828,0.352813179,-0.179388495,0.44428,0.352155922,-0.16402491,0.440588,0.389582912,-0.237868435,0.476533,0.375615668,-0.196530725,0.456979,0.375488207,-0.205955228,0.445572,0.386075869,-0.228138071,0.454152,0.415120647,-0.243109739,0.483161,0.388938938,-0.199418091,0.463265,0.388901694,-0.197638734,0.453085,0.405356048,-0.21697973,0.4617,0.448321312,-0.257419183,0.49304,0.434835009,-0.253011474,0.475271,0.424844906,-0.259548939,0.467107,0.424955623,-0.275103893,0.472932
0.421527734,-0.333831629,0.49966,0.403900602,-0.283854058,0.487557,0.3938556,-0.321810572,0.491726,0.359320454,-0.290933779,0.470811,0.326696454,-0.262370906,0.447942,0.308296515,-0.241410541,0.437535,0.360526735,-0.236557425,0.469403,0.354672275,-0.198851618,0.45255,0.352960439,-0.179164442,0.444123,0.352373981,-0.163723146,0.440366,0.389439437,-0.237554839,0.476027,0.375830503,-0.196391002,0.456775,0.375791042,-0.205949659,0.445544,0.386403474,-0.228103499,0.45424,0.414953886,-0.242854403,0.482637,0.389086156,-0.199238568,0.463011,0.389143696,-0.197496804,0.452969,0.405663602,-0.216906191,0.461702,0.448055962,-0.25720263,0.492437,0.43473727,-0.252834874,0.474893,0.424800767,-0.259394374,0.466832,0.424940806,-0.275000454,0.472746
0.420635968,-0.333174606,0.498911,0.403899358,-0.28320877,0.487029,0.393182164,-0.320891539,0.491018,0.358900065,-0.290425717,0.470199,0.326341055,-0.261825485,0.447368,0.308109763,-0.240880628,0.437036,0.360463517,-0.236282818,0.469075,0.354791841,-0.198637857,0.452386,0.353090235,-0.179017046,0.444042,0.352580047,-0.163505469,0.440239,0.389390291,-0.237349159,0.47571,0.376022203,-0.196302104,0.456659,0.376036941,-0.205955651,0.445545,0.386667547,-0.228081805,0.454319,0.414892445,-0.242695824,0.482309,0.389241438,-0.199119823,0.462862,0.389361451,-0.197401291,0.452913,0.405921082,-0.216858533,0.461724,0.447931264,-0.257081137,0.492058,0.434719841,-0.252731602,0.474663,0.424814612,-0.259303524,0.466671,0.424972075,-0.274945518,0.472645
0.42013417,-0.332729433,0.498597,0.404014124,-0.282322539,0.486243,0.393073151,-0.320139915,0.490876,0.358769446,-0.290502536,0.47013,0.31823399,-0.265106209,0.445938,0.304701152,-0.245189179,0.43851,0.362012863,-0.234446085,0.468194,0.362137297,-0.190567332,0.452042,0.368482402,-0.173982702,0.453933,0.374524746,-0.158457459,0.455652,0.39076126,-0.236138157,0.474474,0.3878,-0.201231079,0.455014,0.385069218,-0.216387091,0.443662,0.392098695,-0.237256896,0.452335,0.41600584,-0.242042893,0.480825,0.390790868,-0.19770401,0.461105,0.390693632,-0.195938901,0.451015,0.405695808,-0.215806404,0.459755,0.448579545,-0.257160335,0.490365,0.434295086,-0.251978479,0.47272,0.423298822,-0.258187931,0.464613,0.42322846,-0.273659175,0.470525
0.41917871,-0.332139147,0.497647,0.403903044,-0.281859512,0.485631,0.392400334,-0.319417289,0.490127,0.358278226,-0.290415394,0.46968,0.317980652,-0.264895165,0.445583,0.300498523,-0.244718294,0.436101,0.362423364,-0.234012111,0.468065,0.362185364,-0.190592626,0.452102,0.368535978,-0.174007998,0.453999,0.374583927,-0.158482498,0.455724,0.391023117,-0.235842027,0.474186,0.387967047,-0.201317761,0.45521,0.385484959,-0.216620714,0.444141,0.392684674,-0.237611469,0.453011,0.416059785,-0.24184533,0.480373,0.391250265,-0.19749488,0.460988,0.391338257,-0.195915232,0.45107,0.40630546,-0.215945023,0.45998,0.448240884,-0.257042541,0.489663,0.434306784,-0.251866888,0.472285,0.423662793,-0.25809421,0.4643,0.423428415,-0.273558697,0.470338
0.418213936,-0.331809774,0.49699,0.403870828,-0.281728527,0.485417,0.391440532,-0.318728953,0.489327,0.357355846,-0.289678698,0.468829,0.317833394,-0.263270233,0.445895,0.304839665,-0.240222483,0.435023,0.362473312,-0.233842035,0.467961,0.361511533,-0.191084913,0.452189,0.367932357,-0.174576726,0.454234,0.374042253,-0.159110412,0.456093,0.390444674,-0.236198864,0.474393,0.388517363,-0.212032445,0.455636,0.384169378,-0.230004799,0.444695,0.389826845,-0.248933013,0.453618,0.415659075,-0.242161427,0.480795,0.391993725,-0.197834231,0.461673,0.392199471,-0.196402639,0.451889,0.40717262,-0.216525393,0.460873,0.448784289,-0.257702052,0.490261,0.435161316,-0.252540072,0.473121,0.424829661,-0.258786802,0.465246,0.424369683,-0.274232393,0.471346
0.418514746,-0.332464213,0.497891,0.404304919,-0.281967155,0.485867,0.391750648,-0.319076252,0.490161,0.357536125,-0.289875295,0.469482,0.318198847,-0.26282442,0.446666,0.304687163,-0.24001298,0.435103,0.362624355,-0.23378219,0.468025,0.360780096,-0.191121602,0.451738,0.367305097,-0.174706061,0.453949,0.373510566,-0.15931307,0.455959,0.390988095,-0.236134852,0.474413,0.388185665,-0.211851422,0.455247,0.383625989,-0.229679468,0.444066,0.389156534,-0.24850497,0.452838,0.41617602,-0.24233934,0.480821,0.391834974,-0.197726269,0.461338,0.391866704,-0.196279581,0.451371,0.406982534,-0.216305007,0.460202,0.448881891,-0.258028604,0.490371,0.435346095,-0.252699846,0.47293,0.424698201,-0.258729514,0.464917,0.423885259,-0.274013586,0.4709
