sluyters/QuantumLeap/backend/src/datasets/gesture/HandGestureDataset_SHREC2017_csv/Gesture3/finger_1/subject_21_essai_2_skeletons_world.csv
Wrist_x,Wrist_y,Wrist_z,Palm_x,Palm_y,Palm_z,thumb_base_x,thumb_base_y,thumb_base_z,thumb_first_joint_x,thumb_first_joint_y,thumb_first_joint_z,thumb_second_joint_x,thumb_second_joint_y,thumb_second_joint_z,thumb_tip_x,thumb_tip_y,thumb_tip_z,index_base_x,index_base_y,index_base_z,index_first_joint_x,index_first_joint_y,index_first_joint_z,index_second_joint_x,index_second_joint_y,index_second_joint_z,index_tip_x,index_tip_y,index_tip_z,middle_base_x,middle_base_y,middle_base_z,middle_first_joint_x,middle_first_joint_y,middle_first_joint_z,middle_second_joint_x,middle_second_joint_y,middle_second_joint_z,middle_tip_x,middle_tip_y,middle_tip_z,ring_base_x,ring_base_y,ring_base_z,ring_first_joint_x,ring_first_joint_y,ring_first_joint_z,ring_second_joint_x,ring_second_joint_y,ring_second_joint_z,ring_tip_x,ring_tip_y,ring_tip_z,pinky_base_x,pinky_base_y,pinky_base_z,pinky_first_joint_x,pinky_first_joint_y,pinky_first_joint_z,pinky_second_joint_x,pinky_second_joint_y,pinky_second_joint_z,pinky_tip_x,pinky_tip_y,pinky_tip_z,r
0.403930636,-0.298725039,0.498734,0.413616904,-0.252894926,0.490441,0.387257575,-0.277363888,0.493653,0.376518677,-0.242072213,0.485823,0.367121762,-0.21314266,0.48071,0.364069607,-0.192155026,0.475842,0.400923384,-0.199022677,0.478559,0.387050071,-0.195386266,0.464826,0.391524031,-0.218168741,0.480993,0.399493676,-0.233949471,0.49613,0.424376669,-0.209807927,0.481975,0.414363207,-0.204545803,0.467958,0.423813055,-0.235050814,0.488545,0.429544334,-0.254850048,0.501374,0.443401526,-0.221816575,0.485368,0.431405979,-0.218630768,0.47136,0.435347339,-0.240876356,0.488531,0.436463484,-0.259694713,0.504236,0.464876769,-0.242198668,0.490537,0.446443627,-0.23384063,0.4784,0.444151681,-0.244943063,0.490329,0.442469299,-0.254810069,0.500052
0.406956285,-0.302028483,0.502285,0.414893875,-0.26545936,0.490541,0.388931919,-0.279589757,0.495673,0.375667742,-0.253576269,0.484331,0.364573423,-0.22311801,0.474222,0.363382409,-0.202470778,0.466379,0.396449565,-0.208575566,0.474429,0.381525516,-0.204859838,0.457917,0.385565197,-0.22772915,0.473503,0.392814064,-0.241515304,0.487672,0.420690353,-0.219503597,0.478554,0.409107742,-0.214223959,0.461594,0.419423791,-0.245751626,0.481449,0.424975908,-0.265804265,0.493835,0.440603959,-0.231759586,0.482772,0.427455265,-0.225718633,0.465884,0.430197795,-0.249310381,0.482439,0.43165491,-0.269162845,0.496184,0.464181588,-0.252808932,0.48939,0.443243703,-0.2441573,0.47505,0.441414311,-0.256781641,0.486493,0.439576284,-0.267796757,0.495978
0.400034565,-0.297779695,0.49026,0.410929109,-0.263199071,0.481493,0.382950565,-0.284538523,0.481947,0.373051763,-0.249930722,0.467568,0.3615889,-0.218878836,0.459053,0.357093755,-0.198891007,0.457293,0.395185224,-0.208935988,0.465336,0.388305618,-0.204425277,0.44952,0.392727513,-0.227421849,0.464814,0.396526246,-0.244003069,0.478718,0.421456143,-0.221557048,0.472545,0.418905966,-0.218653388,0.457848,0.429004217,-0.250345343,0.477426,0.432308023,-0.270160488,0.488888,0.442953766,-0.235084199,0.479092,0.437703459,-0.23007995,0.463414,0.441105474,-0.254260876,0.479685,0.44129146,-0.274279543,0.492522,0.468283849,-0.257423512,0.488088,0.45458922,-0.248821482,0.474882,0.453177443,-0.262370557,0.486162,0.450966153,-0.274047034,0.495184
0.408482607,-0.308601396,0.483364,0.410181126,-0.261647374,0.473724,0.385665524,-0.286175358,0.474217,0.376035232,-0.25927484,0.463981,0.361529561,-0.23116418,0.450439,0.355059102,-0.209567325,0.442891,0.380006488,-0.206711018,0.45595,0.368600451,-0.207119679,0.439204,0.375449834,-0.231148942,0.454164,0.381204732,-0.252475075,0.467765,0.409025058,-0.214127107,0.463884,0.400903433,-0.216433207,0.448427,0.411737774,-0.247123737,0.467597,0.417923093,-0.258373688,0.482352,0.433643038,-0.223577048,0.471088,0.424721049,-0.225164522,0.454517,0.434516518,-0.252161394,0.470439,0.438482053,-0.273004485,0.485233,0.461827242,-0.240853883,0.480986,0.450774919,-0.235892693,0.467134,0.450342313,-0.25015387,0.478153,0.451773033,-0.260615173,0.487424
0.417577906,-0.316061084,0.484359,0.412207262,-0.272642227,0.472811,0.395417715,-0.298209763,0.479225,0.386498449,-0.278887408,0.474104,0.370298283,-0.251069148,0.460666,0.364962803,-0.230414719,0.454481,0.380644646,-0.219899397,0.458641,0.361567323,-0.196359006,0.443117,0.377720684,-0.217900532,0.458968,0.392393674,-0.238418198,0.471425,0.405346458,-0.223945242,0.461023,0.389977745,-0.221618292,0.444408,0.403711115,-0.254013365,0.464554,0.417008517,-0.262722527,0.478944,0.426559313,-0.230660241,0.463794,0.41261908,-0.234385702,0.447706,0.427057411,-0.262314296,0.464529,0.439595649,-0.285725454,0.479371,0.453399619,-0.245334449,0.468659,0.429960862,-0.244383979,0.454845,0.431320831,-0.260294037,0.466485,0.431468903,-0.27405669,0.47586
0.416951978,-0.317292288,0.482289,0.403921056,-0.266832539,0.461812,0.391391452,-0.296883711,0.473229,0.381545818,-0.275342491,0.462388,0.363862461,-0.246658988,0.441675,0.353793812,-0.22335847,0.430362,0.363681274,-0.209318764,0.436739,0.338938366,-0.183762219,0.41425,0.353403745,-0.203774146,0.428012,0.369611105,-0.224391814,0.442385,0.390609059,-0.214247149,0.44091,0.37155253,-0.188505109,0.416909,0.383375023,-0.217532578,0.434415,0.393849714,-0.236739591,0.448592,0.413369747,-0.222042775,0.445779,0.392189897,-0.221290552,0.422469,0.404707813,-0.247366717,0.437076,0.416287274,-0.270219042,0.452324,0.443485247,-0.238678768,0.454353,0.414613953,-0.234474184,0.43506,0.415050659,-0.249535744,0.445008,0.415036511,-0.263248424,0.455655
0.406392521,-0.315483102,0.465992,0.397636944,-0.270619956,0.44834,0.381266747,-0.297483369,0.456042,0.374912966,-0.272958315,0.444945,0.36070772,-0.240233456,0.424984,0.35289211,-0.21659667,0.415754,0.356131084,-0.213030914,0.424109,0.336193521,-0.183109674,0.402567,0.353463242,-0.201642367,0.41659,0.365154608,-0.221225642,0.430693,0.38335898,-0.218673458,0.430321,0.370934942,-0.187897216,0.408402,0.386026729,-0.215339388,0.426304,0.390509595,-0.23417626,0.439852,0.407328686,-0.226850588,0.436672,0.393708825,-0.220102664,0.414689,0.407464787,-0.246973074,0.429592,0.41521605,-0.269029725,0.444422,0.438898271,-0.243702189,0.446633,0.421783723,-0.230779522,0.428474,0.423096893,-0.246471436,0.438665,0.425140771,-0.261565213,0.449008
0.402445074,-0.310141244,0.461353,0.392250273,-0.263214294,0.442306,0.376137905,-0.292818964,0.449584,0.378812656,-0.264166026,0.446847,0.368337878,-0.230684557,0.424681,0.376006873,-0.21513379,0.417071,0.34989268,-0.200277731,0.4149,0.328453864,-0.177385166,0.391666,0.345210333,-0.193168184,0.404832,0.362229168,-0.214626229,0.419261,0.37848772,-0.207266623,0.422865,0.363287395,-0.183240118,0.399763,0.376369921,-0.210824646,0.416619,0.385323905,-0.231634886,0.430266,0.403761628,-0.216629548,0.430757,0.383808972,-0.209699893,0.407215,0.390340997,-0.23459315,0.421219,0.397692917,-0.257952806,0.43632,0.437058053,-0.235096658,0.442744,0.417776226,-0.222267198,0.423501,0.419862668,-0.241234488,0.433036,0.423741118,-0.257080756,0.443505
0.401525027,-0.311501721,0.454367,0.389766899,-0.259782602,0.436579,0.375742365,-0.292784276,0.443665,0.359504908,-0.265130115,0.425847,0.333304044,-0.235427238,0.403096,0.319413807,-0.212554535,0.390145,0.350586502,-0.202612744,0.411337,0.330806008,-0.175892349,0.38932,0.32817014,-0.164195001,0.381472,0.33644064,-0.159276052,0.389818,0.376518325,-0.206364147,0.418423,0.36811824,-0.186132764,0.39635,0.383409425,-0.216442247,0.41393,0.392241401,-0.237435486,0.427432,0.401019512,-0.214660181,0.425502,0.389482745,-0.210793819,0.403138,0.399964497,-0.236298509,0.417758,0.407941836,-0.260857688,0.432629,0.433265575,-0.231625967,0.436349,0.420420495,-0.223814335,0.417953,0.430246084,-0.242451264,0.427941,0.439749126,-0.256908083,0.438288
0.398605752,-0.307062138,0.44351,0.390467567,-0.255096158,0.428548,0.374292242,-0.289670768,0.434491,0.355092594,-0.262195662,0.413535,0.325404404,-0.231996056,0.392414,0.31115999,-0.210709857,0.381554,0.346988222,-0.201588275,0.407294,0.333881073,-0.17481571,0.387808,0.327393146,-0.16111235,0.378066,0.334999001,-0.15465672,0.384666,0.373997911,-0.204910054,0.413275,0.365238192,-0.184921501,0.393534,0.382930485,-0.21594529,0.412233,0.392049851,-0.236690399,0.425244,0.39777394,-0.211019076,0.419247,0.386858493,-0.207505849,0.399311,0.399300179,-0.233787888,0.414878,0.407814925,-0.258426705,0.429147,0.429127016,-0.225023168,0.428392,0.415486658,-0.219340859,0.411798,0.426546645,-0.23833853,0.422496,0.43604019,-0.252441104,0.432484
0.3943087,-0.302778745,0.435914,0.387793731,-0.252285816,0.42139,0.371183562,-0.286455861,0.428433,0.351191709,-0.259391654,0.409228,0.321587983,-0.230487168,0.386699,0.306311183,-0.208930491,0.375302,0.344772949,-0.200238175,0.402319,0.337971429,-0.167204594,0.384424,0.333535667,-0.150362498,0.375477,0.343460364,-0.140579022,0.382852,0.370453011,-0.20222156,0.406566,0.361449418,-0.182697728,0.387317,0.380146562,-0.214242167,0.406534,0.387890998,-0.233253756,0.419529,0.393088615,-0.207200689,0.411081,0.382881131,-0.203419728,0.392073,0.39623905,-0.230105896,0.408098,0.405219549,-0.25503269,0.422175,0.423085358,-0.219767817,0.418428,0.40945418,-0.214858044,0.40245,0.420957267,-0.234107525,0.413481,0.430539887,-0.24819451,0.423381
0.394030832,-0.301113727,0.429892,0.384845904,-0.25124433,0.416579,0.371741306,-0.284553491,0.4227,0.362885033,-0.263515616,0.403968,0.33116006,-0.231271517,0.379518,0.317416891,-0.212041109,0.373678,0.345245442,-0.201025906,0.398687,0.336974709,-0.166455324,0.381509,0.332883452,-0.148993084,0.372919,0.339456333,-0.13715165,0.376493,0.370877159,-0.20329809,0.40299,0.368359769,-0.188817663,0.384723,0.387892076,-0.221590008,0.404211,0.394960917,-0.23845933,0.416936,0.393256912,-0.208496172,0.407465,0.389304939,-0.208675382,0.389337,0.40275297,-0.236431727,0.405585,0.410128185,-0.25955085,0.419396,0.42252739,-0.221249176,0.414601,0.413454132,-0.218520123,0.399308,0.421895467,-0.236104391,0.410513,0.42866027,-0.248547076,0.42024
0.392545793,-0.300096315,0.42669,0.384645708,-0.252772815,0.414064,0.370189392,-0.284031867,0.419728,0.363283517,-0.268724197,0.401342,0.328509523,-0.23673064,0.376369,0.31414178,-0.21358066,0.369883,0.346058058,-0.203296272,0.396923,0.33656214,-0.165983858,0.380242,0.332470141,-0.148160306,0.371901,0.33954967,-0.136210087,0.376267,0.371410586,-0.205385178,0.401176,0.369633582,-0.196713187,0.383478,0.387231397,-0.230034111,0.403126,0.393565156,-0.241067066,0.415695,0.39338256,-0.210418507,0.405563,0.38885402,-0.209430214,0.387966,0.402162042,-0.237262317,0.404348,0.409196737,-0.260325724,0.417997,0.421849847,-0.222887957,0.412501,0.412543509,-0.21923372,0.397617,0.42307184,-0.238614714,0.408926,0.429039065,-0.251643695,0.418549
0.39036699,-0.296945876,0.419452,0.383595903,-0.253260315,0.409804,0.368743864,-0.283275224,0.414397,0.362549291,-0.267482761,0.39858,0.327655472,-0.234913048,0.374439,0.31398155,-0.213730583,0.36916,0.352819338,-0.205252343,0.397029,0.34584922,-0.167797141,0.382913,0.342354895,-0.149119705,0.375855,0.345607332,-0.13641354,0.379978,0.377193284,-0.208178076,0.399956,0.373345269,-0.197804258,0.384858,0.391359144,-0.23168384,0.405294,0.396927902,-0.246287238,0.41717,0.398008601,-0.213801796,0.403042,0.392294715,-0.211862472,0.388184,0.404622818,-0.238797133,0.405238,0.410708655,-0.261628277,0.41805,0.424457669,-0.226788471,0.408026,0.413430061,-0.220996709,0.395199,0.424082262,-0.240513109,0.407028,0.429150005,-0.253949033,0.416129
0.392429674,-0.298993085,0.42071,0.389124677,-0.257013229,0.414786,0.37129542,-0.285587658,0.416439,0.366326962,-0.270034322,0.402075,0.337795389,-0.241770129,0.3857,0.330713375,-0.225256379,0.388551,0.360360411,-0.209639356,0.405515,0.356219828,-0.172828693,0.394395,0.354177982,-0.154269493,0.388835,0.356305734,-0.140206228,0.39078,0.38547736,-0.21275017,0.40874,0.385770879,-0.204085562,0.396823,0.404114189,-0.238960014,0.417774,0.411581608,-0.255276163,0.431776,0.406666114,-0.218452429,0.411809,0.404721238,-0.218427887,0.399698,0.41734822,-0.246350083,0.417167,0.424706113,-0.270721197,0.431526,0.433035745,-0.231371752,0.416272,0.425197717,-0.22731926,0.405608,0.43610285,-0.247332111,0.417782,0.440580944,-0.261075436,0.426378
0.38834221,-0.298072706,0.418926,0.384378765,-0.254548708,0.4097,0.367769876,-0.283532798,0.414358,0.363463917,-0.269052189,0.399163,0.327758106,-0.235476969,0.374722,0.313845559,-0.214558445,0.368969,0.353733551,-0.205757437,0.39781,0.344134439,-0.167894748,0.384046,0.342382809,-0.14907341,0.377164,0.349312161,-0.136648884,0.383195,0.377631862,-0.208850568,0.400283,0.376849265,-0.200008119,0.385588,0.394022707,-0.234006501,0.40615,0.398352667,-0.248259568,0.41792,0.397910916,-0.214593246,0.402967,0.394996317,-0.214425028,0.388602,0.407443531,-0.242572407,0.405768,0.411330373,-0.263093376,0.418425,0.423463309,-0.227665985,0.407413,0.415430065,-0.2239651,0.394947,0.42550849,-0.243525299,0.406862,0.43028216,-0.257044622,0.415869
0.398288495,-0.304893575,0.42976,0.38700859,-0.254581212,0.414631,0.374519534,-0.288388084,0.42192,0.346978878,-0.257929059,0.402239,0.318511148,-0.234081125,0.378359,0.302601323,-0.211087021,0.370404,0.351439526,-0.197253503,0.394705,0.358520719,-0.166293253,0.399807,0.362190741,-0.150152606,0.402358,0.365561077,-0.135067174,0.404678,0.376366546,-0.201955973,0.399189,0.371312313,-0.196602044,0.379427,0.385804635,-0.228812799,0.398448,0.392299086,-0.244584658,0.411567,0.398512365,-0.21257833,0.40394,0.390910417,-0.210157761,0.3844,0.400634524,-0.236284999,0.400259,0.407385201,-0.260263796,0.414484,0.425849119,-0.226512631,0.411651,0.414205059,-0.22310203,0.395275,0.423433757,-0.241885956,0.406179,0.429506822,-0.255950504,0.416171
0.400191805,-0.305778657,0.429358,0.386828907,-0.254127373,0.414283,0.374148638,-0.287825413,0.421469,0.346985234,-0.258717096,0.401741,0.317766863,-0.234076782,0.377793,0.301536374,-0.211590764,0.368617,0.3512873,-0.197089948,0.394335,0.358447918,-0.16625295,0.399857,0.362148266,-0.150187697,0.402617,0.365541489,-0.135183487,0.405127,0.376343609,-0.201831781,0.398896,0.371368444,-0.196474896,0.379172,0.385685242,-0.228642625,0.398191,0.392044479,-0.244569536,0.411296,0.398251426,-0.211628563,0.403708,0.391178615,-0.209173682,0.38418,0.402492318,-0.236164,0.400036,0.407517994,-0.259635226,0.414255,0.425683878,-0.226031318,0.411483,0.41386658,-0.223169289,0.395121,0.423061093,-0.241828133,0.406024,0.429085478,-0.255975708,0.41601
0.399859176,-0.305339927,0.427985,0.384735709,-0.251134229,0.413882,0.374026223,-0.287454846,0.420261,0.345032271,-0.257117195,0.400834,0.314912154,-0.229741987,0.380282,0.299565371,-0.21084041,0.367491,0.350401064,-0.196636188,0.394799,0.357975664,-0.166223423,0.40135,0.36070053,-0.150034825,0.404626,0.36543331,-0.135522812,0.407604,0.375749159,-0.201369281,0.399487,0.369450083,-0.194949823,0.380541,0.385642213,-0.227722885,0.399769,0.392497248,-0.2438354,0.412658,0.39537311,-0.20908629,0.404334,0.387122013,-0.204674327,0.385481,0.399386143,-0.231760995,0.401507,0.405246426,-0.255641422,0.415523,0.423700216,-0.223370222,0.412021,0.411544995,-0.220350882,0.396188,0.419552842,-0.23649627,0.407225,0.428996067,-0.254464837,0.417076
0.397775416,-0.304501495,0.426203,0.384677235,-0.251294539,0.413261,0.372970927,-0.286918224,0.419281,0.342309751,-0.256008172,0.4009,0.311116663,-0.230873667,0.37983,0.295019994,-0.210277688,0.368715,0.350544892,-0.196965728,0.395952,0.35815452,-0.166616971,0.402667,0.362058791,-0.150797479,0.406024,0.365629167,-0.13602508,0.409076,0.374246858,-0.201938455,0.40005,0.37028656,-0.195421191,0.382106,0.384085788,-0.227247349,0.401715,0.393471779,-0.244721441,0.414361,0.395222147,-0.208912102,0.40433,0.388095405,-0.204901489,0.386553,0.400181686,-0.232040965,0.402905,0.407160993,-0.256872379,0.416615,0.422680002,-0.222946668,0.411184,0.410147157,-0.219732917,0.396152,0.419917735,-0.23835336,0.407436,0.427073554,-0.254642488,0.417101
0.39750876,-0.30462586,0.426329,0.385159305,-0.251647013,0.413587,0.373177546,-0.287120539,0.419709,0.341799474,-0.257423692,0.401694,0.311177487,-0.231163877,0.380726,0.295079853,-0.210561653,0.369763,0.350755135,-0.197233141,0.396784,0.358458721,-0.166944536,0.403678,0.362406657,-0.151160941,0.407125,0.366015028,-0.136425774,0.410258,0.374534609,-0.20203324,0.400581,0.370533754,-0.195571635,0.38283,0.384355219,-0.227524227,0.402536,0.393697341,-0.24508652,0.415142,0.395381132,-0.208928799,0.4046,0.388574994,-0.205011099,0.387082,0.40049419,-0.232131242,0.403519,0.408279728,-0.257427364,0.417158,0.422494216,-0.222930266,0.411114,0.409893393,-0.220174297,0.396266,0.419539549,-0.238683758,0.407614,0.42662252,-0.254700667,0.417239
0.395272951,-0.303484693,0.424961,0.384514051,-0.251384114,0.413622,0.37198953,-0.286411594,0.419308,0.341771067,-0.258187313,0.402577,0.310682396,-0.231555488,0.381293,0.294744887,-0.211019558,0.370423,0.349934402,-0.198030579,0.398962,0.358385673,-0.16845473,0.407394,0.362688825,-0.15301718,0.41161,0.366614278,-0.138598963,0.415443,0.373990347,-0.202995633,0.402049,0.370672359,-0.19604765,0.385528,0.386354028,-0.229095587,0.405631,0.392298638,-0.245777071,0.417917,0.394707418,-0.209197938,0.405385,0.390114592,-0.205272724,0.389186,0.402307954,-0.232172702,0.405962,0.409823798,-0.257687672,0.419205,0.420982866,-0.222948795,0.410896,0.409928641,-0.220960566,0.397034,0.418703377,-0.238917979,0.408642,0.425370095,-0.254220696,0.418022
0.395498846,-0.303929558,0.426189,0.384599209,-0.251344337,0.414558,0.372170964,-0.286537901,0.42043,0.342119844,-0.258922959,0.403539,0.310701346,-0.232025943,0.382021,0.294644192,-0.211366059,0.370945,0.349899653,-0.198589358,0.399568,0.358468603,-0.169145479,0.408246,0.362829507,-0.153773309,0.412586,0.366804957,-0.139414482,0.41653,0.374182672,-0.202612892,0.402686,0.370175102,-0.195815323,0.38592,0.385262486,-0.228674822,0.405961,0.391333806,-0.246088008,0.418316,0.394891771,-0.209183155,0.406069,0.389919434,-0.205491708,0.389637,0.402379065,-0.23220559,0.406362,0.409911387,-0.256887036,0.419678,0.421142732,-0.223399258,0.411674,0.40945854,-0.220998924,0.397633,0.419012624,-0.238688354,0.4092,0.42463576,-0.253938181,0.418627
0.39536014,-0.303964248,0.427404,0.38489735,-0.251864066,0.415337,0.371970486,-0.286391386,0.421507,0.342539319,-0.259555841,0.404402,0.310792913,-0.23239893,0.382604,0.294649157,-0.211648948,0.371384,0.349796164,-0.198916026,0.39988,0.358504777,-0.169596752,0.408792,0.362932559,-0.154281147,0.413247,0.366970393,-0.139972551,0.417298,0.37409449,-0.202940648,0.40302,0.369722065,-0.195796514,0.385893,0.384752328,-0.228591672,0.405842,0.390946923,-0.246111545,0.4183,0.394852761,-0.209526783,0.406451,0.389536185,-0.205503933,0.389684,0.402133449,-0.232058436,0.406333,0.409860295,-0.256878014,0.419754,0.421241962,-0.223797144,0.412173,0.409452052,-0.220869104,0.397873,0.419022069,-0.238422943,0.40938,0.424726152,-0.25380982,0.418876
0.395232489,-0.304007629,0.428633,0.385253659,-0.25235032,0.416078,0.371756685,-0.286234608,0.42257,0.343003077,-0.260132985,0.405213,0.310938829,-0.232725847,0.38312,0.294692501,-0.211879766,0.371748,0.349706814,-0.199140393,0.400085,0.358526329,-0.169916956,0.409177,0.363010497,-0.154645645,0.413724,0.36709778,-0.140374663,0.417857,0.374035772,-0.203176938,0.403263,0.369261586,-0.195710172,0.38573,0.384212345,-0.228427566,0.405571,0.390534041,-0.246042083,0.418142,0.394860058,-0.209790852,0.40676,0.389158514,-0.205457541,0.389613,0.401819242,-0.231873247,0.406172,0.409724027,-0.256809887,0.419711,0.421412386,-0.224134387,0.412627,0.409435734,-0.220770109,0.398033,0.418989326,-0.23821093,0.40947,0.424778592,-0.253710775,0.419042
0.39550865,-0.30382843,0.429717,0.385576238,-0.252764354,0.416712,0.371848633,-0.28595309,0.423498,0.343424656,-0.260622299,0.405909,0.311113711,-0.233020238,0.383588,0.294764505,-0.212081372,0.372071,0.349625321,-0.199300287,0.400222,0.358535819,-0.17015385,0.409458,0.363064851,-0.154917243,0.414077,0.367192228,-0.140675809,0.418275,0.373985082,-0.203350459,0.403438,0.368843302,-0.195606486,0.385531,0.383715302,-0.228249452,0.40527,0.390149611,-0.245942611,0.417943,0.394870642,-0.209991605,0.406997,0.388815008,-0.205390722,0.389499,0.401506285,-0.231689721,0.405973,0.409560744,-0.256721013,0.419619,0.421572221,-0.224404484,0.412999,0.409405015,-0.220685927,0.398135,0.418932585,-0.238033642,0.409506,0.424797065,-0.253623976,0.419146
0.395216351,-0.304015907,0.43002,0.385089864,-0.252834499,0.41692,0.371443634,-0.286074151,0.423776,0.343493977,-0.260806868,0.406145,0.311076809,-0.233119842,0.383739,0.294717289,-0.212163967,0.372192,0.349564997,-0.199426307,0.400332,0.358533084,-0.170333275,0.409665,0.363090003,-0.15512113,0.414332,0.367242792,-0.140901245,0.418574,0.37392155,-0.20347223,0.403548,0.368696955,-0.195620603,0.385563,0.383561075,-0.228248967,0.405281,0.390026055,-0.245975698,0.417976,0.394813581,-0.210112996,0.407114,0.388681492,-0.205409242,0.389544,0.401443647,-0.231651306,0.406001,0.409550633,-0.256725491,0.419669,0.42154199,-0.224532341,0.413137,0.409383908,-0.220621974,0.398217,0.418929359,-0.237919014,0.409574,0.424813561,-0.253557676,0.419229
0.392902306,-0.302039455,0.428482,0.384758485,-0.252498723,0.417664,0.370002741,-0.284858135,0.423223,0.343362778,-0.260831129,0.407014,0.309682884,-0.232955382,0.384285,0.294149677,-0.2121911,0.373003,0.348295457,-0.195681209,0.403841,0.358529135,-0.166118633,0.411756,0.366668243,-0.153066397,0.415714,0.368037787,-0.140653508,0.419311,0.372502886,-0.198957538,0.406622,0.371379058,-0.197802173,0.390566,0.386749164,-0.230894628,0.410809,0.394092284,-0.24835369,0.422971,0.393122707,-0.20488004,0.40967,0.390862468,-0.207581092,0.39398,0.396838812,-0.234082061,0.410877,0.408587632,-0.257270975,0.423962,0.419150046,-0.218236535,0.414766,0.411199388,-0.220969733,0.401283,0.421656022,-0.238261048,0.412985,0.428000197,-0.255031917,0.422267
0.393731689,-0.302555297,0.430222,0.384872093,-0.252515738,0.418616,0.370593941,-0.285239797,0.424746,0.344034904,-0.261133252,0.408185,0.310161574,-0.233214583,0.385403,0.294349063,-0.212401018,0.373801,0.348423963,-0.195753407,0.40399,0.359038514,-0.166354646,0.412341,0.36652025,-0.152702591,0.416516,0.368740076,-0.140761311,0.420312,0.372638467,-0.199029954,0.40677,0.370395771,-0.197293144,0.390063,0.38559759,-0.230216212,0.410152,0.392665417,-0.247570515,0.422502,0.393317508,-0.204981562,0.409873,0.389870124,-0.207281316,0.393589,0.396338511,-0.23378695,0.410359,0.406567381,-0.25627695,0.423634,0.419529009,-0.218433848,0.415141,0.410743801,-0.22056861,0.401196,0.421332305,-0.237854722,0.412797,0.427772696,-0.254512226,0.422204
0.394234053,-0.302594821,0.431321,0.384958953,-0.252349704,0.419347,0.370991106,-0.285302063,0.425782,0.344281714,-0.261287754,0.409102,0.310529682,-0.233412933,0.386268,0.294387742,-0.212676926,0.374643,0.348770642,-0.195948209,0.404392,0.359528736,-0.166581782,0.412904,0.366252247,-0.152067425,0.41716,0.369170757,-0.140673046,0.421029,0.37296368,-0.199203653,0.407125,0.370056326,-0.197123778,0.390119,0.385172401,-0.229969428,0.41014,0.391972862,-0.247065462,0.422576,0.393645694,-0.205152599,0.410215,0.389482522,-0.207252143,0.393672,0.396364588,-0.233802332,0.410386,0.404149922,-0.255166289,0.423743,0.419908984,-0.218631687,0.415517,0.410635007,-0.220388552,0.401368,0.421360496,-0.237696965,0.412925,0.428036712,-0.254037102,0.422385
