sluyters/QuantumLeap/backend/src/datasets/gesture/HandGestureDataset_SHREC2017_csv/Gesture2/finger_1/subject_21_essai_4_skeletons_world.csv
Wrist_x,Wrist_y,Wrist_z,Palm_x,Palm_y,Palm_z,thumb_base_x,thumb_base_y,thumb_base_z,thumb_first_joint_x,thumb_first_joint_y,thumb_first_joint_z,thumb_second_joint_x,thumb_second_joint_y,thumb_second_joint_z,thumb_tip_x,thumb_tip_y,thumb_tip_z,index_base_x,index_base_y,index_base_z,index_first_joint_x,index_first_joint_y,index_first_joint_z,index_second_joint_x,index_second_joint_y,index_second_joint_z,index_tip_x,index_tip_y,index_tip_z,middle_base_x,middle_base_y,middle_base_z,middle_first_joint_x,middle_first_joint_y,middle_first_joint_z,middle_second_joint_x,middle_second_joint_y,middle_second_joint_z,middle_tip_x,middle_tip_y,middle_tip_z,ring_base_x,ring_base_y,ring_base_z,ring_first_joint_x,ring_first_joint_y,ring_first_joint_z,ring_second_joint_x,ring_second_joint_y,ring_second_joint_z,ring_tip_x,ring_tip_y,ring_tip_z,pinky_base_x,pinky_base_y,pinky_base_z,pinky_first_joint_x,pinky_first_joint_y,pinky_first_joint_z,pinky_second_joint_x,pinky_second_joint_y,pinky_second_joint_z,pinky_tip_x,pinky_tip_y,pinky_tip_z,r
0.347583965,-0.25831921,0.429783,0.357865711,-0.230271497,0.442809,0.331192895,-0.247729768,0.431558,0.324054686,-0.227739391,0.442732,0.313047878,-0.199050589,0.438703,0.313271008,-0.179705301,0.436439,0.343807835,-0.203365941,0.452742,0.341907693,-0.17216436,0.456778,0.340589343,-0.158284126,0.458796,0.339254687,-0.144963018,0.46063,0.367282211,-0.204307926,0.454364,0.365713441,-0.171807666,0.459319,0.365744839,-0.174316066,0.46221,0.37830542,-0.194930132,0.476528,0.386060342,-0.207457624,0.454645,0.380457762,-0.175494676,0.458491,0.381746919,-0.1701292,0.460458,0.38668997,-0.180664864,0.462246,0.407046242,-0.215713664,0.453048,0.401801327,-0.190733349,0.454977,0.401159554,-0.181544952,0.455864,0.402093495,-0.178079983,0.456646
0.3526903,-0.26397453,0.436605,0.360248466,-0.243792826,0.447066,0.334482006,-0.259557322,0.438633,0.326206167,-0.242679045,0.447526,0.31251448,-0.214323678,0.443083,0.311661108,-0.19410109,0.438929,0.34706717,-0.216921077,0.455799,0.343677528,-0.184279324,0.458011,0.341315245,-0.168408504,0.459117,0.339735283,-0.149825727,0.460123,0.369575994,-0.216946752,0.456346,0.367020464,-0.181633219,0.459089,0.366077899,-0.184136578,0.460688,0.378350873,-0.20501934,0.474693,0.387718399,-0.219393001,0.455951,0.380057206,-0.186731108,0.458074,0.379723078,-0.180711879,0.45916,0.383874847,-0.191547883,0.460147,0.408316016,-0.226927741,0.453934,0.402588637,-0.200391627,0.454397,0.4013997,-0.192848783,0.45461,0.401485906,-0.190989057,0.454797
0.354855908,-0.278975776,0.440286,0.360903098,-0.254008881,0.447839,0.335926293,-0.27428274,0.441756,0.329284533,-0.253931347,0.450208,0.316587303,-0.225022634,0.44587,0.316611926,-0.205372149,0.443905,0.345678316,-0.225218892,0.454151,0.340433406,-0.191761899,0.454013,0.337165306,-0.175734263,0.453944,0.334099182,-0.160691563,0.453881,0.368082932,-0.225289586,0.45454,0.362489396,-0.190900673,0.454673,0.361204193,-0.199553098,0.454751,0.373777699,-0.222185377,0.468259,0.386333735,-0.227931066,0.454249,0.376670216,-0.194224114,0.454038,0.375352109,-0.188319136,0.453931,0.378604223,-0.19905667,0.453833,0.407464311,-0.236003074,0.452786,0.4001317,-0.208435293,0.451345,0.398147807,-0.20068603,0.450683,0.397508976,-0.198674753,0.450099
0.353816895,-0.280936057,0.439665,0.360646024,-0.253827948,0.44752,0.335592819,-0.275703755,0.441312,0.329099487,-0.253788647,0.449955,0.316639847,-0.225059981,0.445944,0.316784531,-0.20548411,0.444147,0.34574073,-0.225259557,0.454233,0.340714593,-0.191920288,0.454388,0.337553019,-0.175936344,0.454466,0.334581324,-0.160923458,0.454536,0.368040823,-0.225263813,0.454488,0.362679939,-0.19100102,0.454912,0.361528263,-0.199732135,0.455159,0.374152867,-0.222408388,0.468729,0.386175544,-0.227837736,0.454063,0.37676562,-0.194273308,0.454153,0.375574543,-0.188430734,0.4542,0.378945426,-0.199236062,0.454242,0.407115148,-0.235800839,0.452398,0.399996947,-0.208365098,0.451193,0.398108936,-0.200666438,0.450639,0.3975549,-0.198697706,0.450151
0.352203065,-0.286094974,0.439935,0.35984535,-0.254162277,0.447183,0.335125998,-0.276922138,0.441073,0.328866746,-0.254413788,0.44995,0.317116477,-0.225282306,0.445632,0.317518809,-0.205988547,0.444471,0.343876719,-0.224921152,0.452898,0.332512035,-0.192418142,0.452044,0.33128341,-0.177514769,0.456692,0.329993371,-0.163538588,0.460918,0.366569895,-0.225160684,0.453612,0.36097845,-0.190084587,0.453427,0.359550989,-0.197209387,0.453319,0.371939989,-0.219471935,0.466752,0.385108464,-0.227967049,0.453614,0.375077415,-0.194198017,0.453024,0.373663796,-0.187964511,0.452722,0.376825735,-0.198386614,0.452448,0.406668151,-0.236284994,0.452543,0.398733279,-0.208398871,0.450812,0.396762135,-0.200848308,0.450016,0.396248756,-0.199175917,0.449315
0.35227585,-0.287603124,0.440822,0.357927825,-0.253441036,0.44553,0.335610182,-0.278642282,0.4426,0.329191143,-0.255140292,0.451149,0.317467027,-0.225259166,0.445987,0.317974129,-0.206261954,0.445472,0.341557488,-0.223574437,0.450544,0.330231925,-0.189792838,0.448529,0.330358298,-0.175425072,0.454571,0.334443346,-0.162358432,0.460063,0.362993596,-0.223210668,0.449705,0.356291763,-0.187045317,0.447476,0.353228531,-0.188731819,0.446176,0.364646833,-0.209658626,0.459175,0.380535701,-0.225615007,0.448635,0.369339886,-0.190948677,0.446611,0.368354607,-0.186852114,0.445575,0.370533393,-0.1959623,0.444633,0.401099585,-0.23360259,0.446674,0.390603326,-0.205502008,0.443699,0.388848901,-0.200029335,0.442333,0.388337823,-0.19902509,0.441127
0.34961908,-0.286630097,0.437959,0.355792529,-0.252469087,0.443183,0.332897671,-0.277404329,0.439579,0.326604721,-0.253342385,0.447777,0.314407073,-0.22152268,0.439744,0.316475909,-0.204880762,0.442847,0.338515877,-0.222302179,0.448305,0.33165939,-0.1886915,0.446541,0.335494684,-0.176474626,0.456646,0.337319183,-0.16360906,0.465833,0.360480413,-0.222694998,0.447818,0.355616787,-0.186172753,0.445995,0.353611827,-0.187837228,0.444932,0.364955289,-0.208784578,0.458027,0.379098481,-0.225166225,0.446994,0.369432587,-0.190892962,0.445243,0.369265223,-0.187106666,0.444347,0.371146045,-0.197028888,0.443533,0.399805907,-0.233571054,0.445248,0.390620006,-0.206056412,0.442512,0.389499893,-0.200805322,0.441255,0.388935087,-0.200151008,0.440147
0.349457992,-0.28746038,0.438525,0.348073661,-0.247650377,0.434871,0.332459894,-0.277560395,0.439711,0.321839687,-0.249193597,0.442493,0.30826254,-0.214031618,0.430455,0.311024602,-0.197888603,0.433111,0.330315342,-0.207215501,0.434195,0.319803819,-0.170421025,0.42676,0.325351329,-0.157727969,0.43747,0.329611064,-0.143984691,0.447207,0.350634427,-0.208584695,0.431629,0.342380642,-0.168519397,0.4224,0.335959998,-0.172001089,0.417016,0.344471408,-0.19251876,0.428055,0.367376642,-0.213043151,0.429814,0.355025583,-0.175796191,0.421897,0.351685029,-0.173835642,0.417846,0.35108443,-0.186772162,0.414164,0.387313607,-0.224587672,0.428211,0.375939248,-0.193403082,0.420418,0.372570975,-0.189298131,0.416838,0.370551504,-0.191515211,0.413678
0.349426059,-0.285314785,0.438698,0.342605559,-0.240639413,0.428711,0.329047859,-0.274965805,0.435737,0.3150806,-0.24048146,0.431171,0.298458147,-0.204931833,0.414211,0.299074852,-0.185428104,0.413605,0.313613904,-0.196728051,0.419091,0.304064375,-0.157435649,0.404943,0.310113184,-0.143093412,0.412271,0.315525544,-0.12925233,0.418933,0.336583756,-0.198526793,0.419852,0.326914529,-0.158500121,0.404745,0.31715526,-0.158760944,0.395933,0.322180743,-0.177758965,0.405127,0.356345277,-0.203628842,0.421286,0.338726182,-0.16811503,0.407113,0.335777279,-0.175180739,0.399862,0.34764833,-0.19603664,0.409589,0.381373329,-0.216560746,0.424459,0.371815377,-0.186115353,0.411828,0.365838685,-0.18213166,0.406025,0.359488806,-0.185417079,0.400905
0.349767196,-0.284907272,0.438302,0.33860366,-0.232547171,0.421452,0.327951491,-0.271180876,0.43345,0.315759471,-0.237376535,0.42285,0.292721097,-0.20313978,0.401958,0.287718092,-0.182341705,0.396857,0.305073054,-0.184418284,0.4054,0.291058981,-0.142676242,0.386019,0.295489012,-0.128067945,0.391726,0.299289792,-0.115438461,0.396915,0.32868506,-0.185325931,0.406506,0.31388422,-0.145195973,0.385738,0.303641108,-0.15033114,0.373623,0.308344191,-0.168807814,0.380515,0.349553261,-0.1900719,0.408779,0.327663362,-0.157495836,0.389374,0.323957873,-0.166398985,0.379446,0.334567994,-0.18530153,0.38678,0.37696005,-0.203208149,0.413958,0.362490668,-0.176967248,0.397212,0.355956212,-0.175492961,0.389518,0.350107996,-0.179593997,0.382729
0.347507407,-0.283667034,0.434667,0.333265468,-0.221402157,0.409728,0.324759053,-0.268329874,0.428285,0.309966268,-0.231669431,0.41463,0.287096024,-0.200430468,0.394228,0.276891999,-0.177895688,0.382032,0.294387423,-0.170046601,0.386973,0.276508226,-0.127626317,0.361832,0.277670119,-0.112574464,0.363041,0.27816064,-0.100589666,0.364141,0.317640864,-0.171810422,0.387607,0.297432415,-0.134339939,0.360586,0.282315808,-0.142182107,0.344824,0.283636923,-0.159149405,0.348498,0.33868243,-0.177522144,0.390146,0.311260618,-0.148536327,0.365208,0.303503317,-0.158766638,0.352449,0.310715894,-0.17463507,0.356504,0.367075993,-0.192297191,0.396837,0.348113797,-0.169424027,0.375765,0.338560275,-0.170031564,0.366083,0.329846489,-0.17518232,0.35754
0.346837513,-0.274789411,0.42595,0.330314351,-0.214299294,0.399428,0.326365817,-0.257416408,0.419571,0.311386643,-0.230591952,0.405324,0.284800515,-0.202875559,0.384691,0.272350614,-0.181469385,0.372632,0.289175136,-0.168305188,0.375739,0.266660014,-0.126453617,0.349769,0.264838061,-0.111801724,0.349758,0.262582903,-0.100623885,0.349748,0.312045133,-0.167978604,0.375902,0.286855105,-0.132321496,0.347762,0.271786803,-0.141354477,0.331348,0.2730961,-0.155215741,0.334314,0.333342527,-0.171938571,0.378181,0.301748819,-0.145882829,0.352362,0.294601368,-0.156237899,0.339152,0.300676614,-0.169159298,0.342514,0.363042048,-0.184606071,0.3848,0.340746719,-0.163846927,0.363034,0.330628285,-0.165515065,0.353033,0.31973259,-0.169907648,0.344209
0.346106458,-0.269525636,0.421917,0.329229474,-0.210849137,0.393073,0.323910455,-0.253031451,0.415192,0.309152401,-0.227065539,0.40019,0.283046637,-0.199501575,0.379488,0.271343918,-0.178499748,0.36782,0.287450282,-0.161615107,0.367577,0.265867047,-0.120745947,0.339874,0.261677101,-0.106189437,0.335325,0.257591695,-0.0934798888,0.331188,0.310259819,-0.164279499,0.367486,0.283532416,-0.121408188,0.33768,0.267079636,-0.127664726,0.320293,0.26865539,-0.143422975,0.322136,0.328462812,-0.169360472,0.369746,0.300757967,-0.146955853,0.342491,0.29038627,-0.15807422,0.328546,0.293987864,-0.167929168,0.330765,0.359401896,-0.185984928,0.376685,0.338345093,-0.167327491,0.353816,0.327450167,-0.167701434,0.343309,0.314866901,-0.169031235,0.334038
0.343425124,-0.262359524,0.41586,0.32138795,-0.204548753,0.382509,0.320665966,-0.24538875,0.408521,0.303747448,-0.221451586,0.390774,0.278871865,-0.196855867,0.370505,0.267380878,-0.175264135,0.358341,0.280691201,-0.155401009,0.353578,0.257251836,-0.115901104,0.323417,0.251469471,-0.101766494,0.316853,0.245802913,-0.0897634609,0.310886,0.302741617,-0.160123417,0.352926,0.275592225,-0.119114666,0.320067,0.255567229,-0.126693164,0.3009,0.253610779,-0.140461656,0.300249,0.322929573,-0.16810169,0.355088,0.290401375,-0.147748482,0.325238,0.276648599,-0.158333422,0.309966,0.278335907,-0.168358495,0.309644,0.350471689,-0.185131677,0.362578,0.32733749,-0.169661833,0.337755,0.314498385,-0.17101477,0.32635,0.302331025,-0.175363608,0.316287
0.340975862,-0.259054093,0.413305,0.317318367,-0.200761205,0.375837,0.314013214,-0.23809422,0.402221,0.29614373,-0.216332566,0.379126,0.271509345,-0.193358657,0.356612,0.258180523,-0.172093713,0.34258,0.27392186,-0.14964241,0.339774,0.255632816,-0.114375007,0.318147,0.245938517,-0.0987723317,0.307333,0.237099608,-0.0842872222,0.297502,0.298714406,-0.157033204,0.342602,0.272464488,-0.118508703,0.306711,0.250727759,-0.126971042,0.285775,0.244753062,-0.138032247,0.282072,0.318803423,-0.165917356,0.34796,0.288562461,-0.150174931,0.314433,0.271755215,-0.159335489,0.29728,0.266094084,-0.162503846,0.293491,0.349670287,-0.185138448,0.359835,0.328351876,-0.173804961,0.332445,0.314596456,-0.175942521,0.31986,0.301125107,-0.180071678,0.308756
0.335261504,-0.250230082,0.407505,0.313515693,-0.195056375,0.369664,0.30978875,-0.230003514,0.395433,0.293848485,-0.213482715,0.37096,0.266569746,-0.18929019,0.347736,0.254470065,-0.170963351,0.331609,0.270584479,-0.143786733,0.332143,0.250918644,-0.110341202,0.309111,0.24093785,-0.0945173051,0.297595,0.230293769,-0.0806912952,0.287126,0.294726469,-0.152616013,0.336097,0.272093979,-0.115250421,0.299931,0.247792759,-0.124447411,0.278835,0.241082413,-0.13488633,0.274608,0.317860457,-0.162785293,0.342414,0.286141645,-0.147855815,0.308334,0.268944483,-0.156504426,0.290898,0.264410264,-0.161745837,0.286468,0.348842336,-0.182128564,0.355475,0.326280053,-0.170813075,0.32774,0.312672577,-0.173351613,0.314997,0.299229636,-0.177493302,0.303753
0.329641861,-0.241412847,0.39966,0.30862044,-0.187619459,0.360996,0.303101529,-0.220994597,0.387172,0.290616584,-0.207849061,0.36167,0.261856348,-0.183288806,0.338683,0.250763765,-0.166763008,0.322296,0.264979524,-0.138601162,0.322466,0.246505829,-0.104345701,0.298736,0.235885254,-0.0883318542,0.286871,0.224531418,-0.0752454415,0.276084,0.293119525,-0.146572908,0.3267,0.268862246,-0.113055277,0.290109,0.243618177,-0.121793006,0.268764,0.235432416,-0.13094227,0.263722,0.316217881,-0.157731651,0.333313,0.284686058,-0.142616187,0.298781,0.265397395,-0.151348442,0.281114,0.257795652,-0.156541374,0.275809,0.344296452,-0.1766752,0.346845,0.321606079,-0.168122634,0.318828,0.307453397,-0.171211939,0.305956,0.291358076,-0.17407538,0.294598
0.325718659,-0.235269896,0.395932,0.305590995,-0.184686622,0.35691,0.299432399,-0.214633015,0.382907,0.286891012,-0.204212064,0.356668,0.259741274,-0.179817534,0.33357,0.254235412,-0.169450221,0.315973,0.26356151,-0.135114963,0.317495,0.243006888,-0.102591794,0.293553,0.232533142,-0.0869459719,0.281583,0.222997394,-0.0724547422,0.2707,0.289542473,-0.144373136,0.322296,0.265511152,-0.111691262,0.285543,0.242171793,-0.121053648,0.264103,0.232755447,-0.130159566,0.258529,0.31281844,-0.155688461,0.329405,0.281327015,-0.141160149,0.294577,0.261695154,-0.149501681,0.276759,0.25357081,-0.154080252,0.270849,0.343587605,-0.175879739,0.343575,0.320139382,-0.169167771,0.315396,0.305163598,-0.172529097,0.302449,0.288496302,-0.173183417,0.291026
0.319474996,-0.227537969,0.388997,0.302192283,-0.181586755,0.352603,0.295146497,-0.210094417,0.377364,0.285663821,-0.198609792,0.35348,0.257889653,-0.174945989,0.330064,0.254149239,-0.164814939,0.314466,0.262905167,-0.133901353,0.316489,0.239307021,-0.100194325,0.288699,0.227324589,-0.08418624,0.274806,0.216472366,-0.0695404325,0.262231,0.287994279,-0.142750189,0.320321,0.265170531,-0.112038309,0.284979,0.242474515,-0.121962626,0.264363,0.235239135,-0.132366873,0.261318,0.310216813,-0.153560064,0.326419,0.280006604,-0.141590126,0.293106,0.261028334,-0.149976546,0.276063,0.255628419,-0.155451602,0.272876,0.339211791,-0.172812814,0.339007,0.317219612,-0.166123286,0.311792,0.303708025,-0.168155995,0.299287,0.289328221,-0.172965625,0.288254
0.324289531,-0.229872633,0.395086,0.304294592,-0.182221003,0.355029,0.298326697,-0.211280007,0.381593,0.286423351,-0.198423378,0.354503,0.258822292,-0.174800544,0.331198,0.251230461,-0.162833843,0.31367,0.261136275,-0.132729545,0.314414,0.240592098,-0.101076526,0.290697,0.23016435,-0.0855975632,0.278838,0.220670057,-0.0712432278,0.268058,0.287247903,-0.142115689,0.319497,0.261298825,-0.120372436,0.282397,0.236077632,-0.131071552,0.260755,0.226959122,-0.133428127,0.253831,0.310690249,-0.15352053,0.326921,0.278781116,-0.143052295,0.291722,0.258621786,-0.149592947,0.273713,0.249468952,-0.15216605,0.266366,0.34177075,-0.173796253,0.341617,0.318850551,-0.166869569,0.313274,0.304526923,-0.16954954,0.300252,0.290391027,-0.173001027,0.288761
0.323751341,-0.228705903,0.394593,0.303817234,-0.181514194,0.354454,0.297821667,-0.210148086,0.381064,0.2859736,-0.197754191,0.353988,0.258400242,-0.174125182,0.330628,0.251170148,-0.162286136,0.313141,0.260554251,-0.132270596,0.313746,0.239629285,-0.100879839,0.289804,0.229036012,-0.0853952553,0.277833,0.219388667,-0.0710437135,0.26695,0.286662895,-0.14166707,0.31885,0.260685358,-0.120089831,0.281734,0.235469229,-0.130733763,0.260083,0.225757839,-0.13408021,0.253032,0.310096009,-0.15306219,0.326298,0.278034026,-0.143380428,0.291081,0.257897281,-0.149771754,0.273063,0.248693192,-0.151999215,0.265581,0.341155894,-0.173291136,0.341034,0.318330122,-0.166532466,0.31269,0.304131306,-0.16911598,0.299666,0.290135771,-0.172487805,0.288175
0.325715982,-0.232718989,0.395296,0.304561966,-0.182058623,0.355183,0.299263896,-0.212762994,0.382052,0.287537639,-0.199632873,0.355508,0.259571715,-0.175700898,0.331889,0.252561262,-0.162610621,0.314596,0.259552816,-0.133842847,0.314847,0.240581799,-0.101710556,0.291525,0.230503558,-0.0863876088,0.279863,0.220739549,-0.0725852327,0.269262,0.2864803,-0.141762354,0.3196,0.259617217,-0.119261966,0.282458,0.235528105,-0.129712247,0.260792,0.226167323,-0.134842214,0.253943,0.309700764,-0.151731824,0.326758,0.277950778,-0.142484269,0.29161,0.257946137,-0.149508389,0.273627,0.248726829,-0.151987055,0.266386,0.341075745,-0.171184831,0.341147,0.319368258,-0.156683181,0.31282,0.307012091,-0.158340884,0.299805,0.295260295,-0.160993759,0.288321
0.327732265,-0.232790168,0.397373,0.306521521,-0.183550274,0.35741,0.301295741,-0.21454283,0.384094,0.28972125,-0.201196348,0.3577,0.261214046,-0.17678733,0.333773,0.254229341,-0.163222881,0.316364,0.257325189,-0.13660821,0.31712,0.240757537,-0.104090301,0.29398,0.231167943,-0.0890635013,0.282411,0.22267993,-0.074022201,0.271893,0.285245043,-0.142603482,0.321962,0.257763314,-0.117178943,0.284867,0.238257662,-0.125710734,0.263228,0.228962058,-0.135049505,0.256542,0.31043221,-0.152732222,0.329181,0.279038888,-0.141681023,0.294048,0.260299383,-0.149409036,0.276073,0.2513706,-0.153211015,0.268996,0.342053405,-0.167910171,0.343621,0.321516617,-0.156445583,0.315296,0.309802946,-0.157274461,0.302282,0.298813668,-0.159065949,0.290799
0.327782272,-0.231754306,0.397033,0.306342317,-0.184565153,0.357901,0.301898489,-0.214038698,0.384582,0.291537405,-0.202482733,0.360026,0.263054709,-0.17729106,0.336778,0.256563094,-0.16337353,0.320036,0.257299661,-0.134700929,0.31914,0.240442295,-0.104545712,0.295238,0.230749267,-0.0900446332,0.283287,0.222996309,-0.0753723616,0.272423,0.283536941,-0.141198651,0.323189,0.256359971,-0.116050227,0.286386,0.231453,-0.123873294,0.264918,0.222898813,-0.133969449,0.259461,0.307593243,-0.149729662,0.329687,0.270197028,-0.134211598,0.29502,0.254672427,-0.142858674,0.277283,0.250823027,-0.14470023,0.27156,0.340593722,-0.167368533,0.343154,0.319737261,-0.15638116,0.315053,0.307923955,-0.156711364,0.302142,0.296860119,-0.158022191,0.29075
0.33104503,-0.233480602,0.400257,0.309703611,-0.185834692,0.36154,0.305416199,-0.216073424,0.388521,0.295443858,-0.205260085,0.364949,0.26421036,-0.17740613,0.342277,0.259025697,-0.164442435,0.325677,0.259489229,-0.135075594,0.323921,0.247102709,-0.102175408,0.304545,0.240125638,-0.0885868271,0.294856,0.232407647,-0.0777458951,0.286049,0.285567377,-0.141906746,0.327196,0.25773362,-0.114753236,0.290615,0.234963383,-0.123835493,0.269276,0.227098003,-0.134045629,0.264411,0.309071863,-0.150391263,0.333024,0.273351257,-0.136025588,0.298762,0.258092121,-0.144827691,0.281233,0.254905933,-0.147065264,0.276193,0.342309944,-0.168539154,0.345637,0.317444436,-0.158823426,0.317773,0.305127689,-0.157663963,0.30497,0.293917375,-0.157154387,0.293674
0.335164422,-0.236345194,0.404079,0.313834456,-0.189798299,0.366861,0.311069296,-0.221404431,0.393806,0.301352326,-0.209410975,0.372875,0.270383579,-0.180594073,0.351326,0.264751887,-0.165216636,0.336078,0.264961825,-0.138309298,0.331963,0.251873556,-0.104612424,0.314582,0.244352609,-0.0903630512,0.305891,0.240464547,-0.0779660438,0.297991,0.289412643,-0.14327279,0.333847,0.261840078,-0.114165504,0.298191,0.237094693,-0.121511533,0.277391,0.233411107,-0.134564855,0.274004,0.311797289,-0.151582777,0.338408,0.276895933,-0.137286729,0.30535,0.262671446,-0.146606253,0.288436,0.262236872,-0.150856176,0.285056,0.344431582,-0.16969802,0.349305,0.320042588,-0.160166228,0.32222,0.305577606,-0.158339553,0.309775,0.294407474,-0.156792543,0.298795
0.341109364,-0.242614342,0.408837,0.318610224,-0.193376038,0.373711,0.316679191,-0.227491588,0.399566,0.306832793,-0.211518182,0.381982,0.280474927,-0.179604177,0.361426,0.272783931,-0.164235097,0.346878,0.272201972,-0.141406913,0.341307,0.262056548,-0.106564239,0.326126,0.25529,-0.0937889641,0.318535,0.248745675,-0.0811128352,0.311634,0.295204572,-0.145420514,0.342553,0.267066107,-0.113895178,0.308245,0.245909504,-0.124202034,0.288232,0.241712773,-0.136794576,0.286405,0.317525422,-0.153835532,0.346421,0.282793235,-0.137829672,0.314744,0.269732299,-0.147872211,0.298537,0.271909807,-0.155191515,0.296835,0.34815054,-0.171346612,0.356188,0.323177402,-0.160551582,0.330067,0.310615622,-0.157914076,0.318065,0.299476941,-0.155706593,0.307476
0.3448127,-0.246960209,0.412703,0.322329565,-0.197119477,0.381342,0.320704364,-0.23237892,0.404399,0.309519215,-0.212794051,0.390678,0.285620005,-0.182723915,0.371127,0.281239063,-0.164063297,0.358975,0.276951245,-0.145586645,0.352378,0.270069018,-0.110972142,0.341692,0.264756604,-0.0976074401,0.336349,0.259870507,-0.0848509454,0.331492,0.299698046,-0.149294068,0.353523,0.27319556,-0.116048424,0.321746,0.252828749,-0.123986453,0.30321,0.253307067,-0.140640149,0.303675,0.320876682,-0.15670713,0.357003,0.287936128,-0.137643569,0.32763,0.276388256,-0.14825108,0.312602,0.282960638,-0.159187687,0.31329,0.353375454,-0.174464255,0.365756,0.326477166,-0.160278904,0.341328,0.314502833,-0.156286112,0.330104,0.307370506,-0.155994706,0.320201
0.344072283,-0.248473562,0.411193,0.323762676,-0.199448398,0.385994,0.321423875,-0.234474462,0.405687,0.312811493,-0.215252311,0.397742,0.290347771,-0.184788078,0.380488,0.28700343,-0.165699828,0.37072,0.285935381,-0.151362515,0.364184,0.281037834,-0.116185878,0.357066,0.27643564,-0.101973468,0.353507,0.272157971,-0.0883702601,0.350272,0.307217904,-0.153851586,0.363642,0.280088512,-0.116294167,0.336605,0.263728051,-0.125384873,0.320833,0.267364154,-0.141059814,0.32442,0.327493939,-0.160202711,0.365235,0.296671943,-0.138632103,0.340606,0.287358208,-0.15019786,0.328005,0.295998755,-0.164839156,0.332067,0.354269041,-0.175789335,0.370847,0.333294812,-0.162001742,0.349972,0.321188263,-0.154605241,0.340381,0.311629296,-0.150354442,0.331918
0.348084956,-0.253163598,0.416932,0.330975273,-0.207398387,0.396807,0.326619658,-0.242277039,0.413736,0.321640659,-0.222943755,0.410966,0.300035029,-0.191734452,0.396878,0.299049947,-0.17200163,0.390572,0.297860949,-0.162813423,0.380892,0.296663567,-0.12784215,0.377393,0.292787197,-0.114435537,0.375643,0.288910766,-0.102087685,0.374053,0.317769833,-0.164781793,0.378954,0.295189813,-0.123410733,0.356063,0.27975987,-0.128736038,0.342709,0.284373276,-0.146152499,0.348419,0.335643571,-0.170477715,0.378988,0.308798178,-0.146024159,0.358497,0.300834789,-0.157778025,0.348014,0.312562491,-0.173637917,0.354382,0.359457346,-0.184932455,0.382008,0.338068398,-0.17002587,0.364293,0.327393075,-0.165185032,0.356154,0.322625309,-0.159648823,0.348973
0.351490879,-0.25659119,0.421669,0.334453346,-0.208927302,0.401304,0.330088248,-0.245478693,0.418853,0.319846463,-0.218137173,0.416681,0.306133223,-0.187967294,0.405671,0.301759818,-0.165814211,0.398085,0.302449617,-0.163081023,0.385725,0.299861755,-0.127893296,0.38189,0.294658931,-0.116111851,0.379972,0.289598579,-0.105051056,0.378229,0.321811107,-0.164540645,0.383238,0.296906879,-0.126813707,0.36026,0.280602608,-0.140040669,0.346856,0.286304507,-0.157118115,0.352453,0.339261715,-0.169828952,0.38284,0.312290881,-0.14987017,0.362423,0.304577897,-0.162072455,0.351977,0.314386414,-0.177255159,0.358273,0.362665443,-0.183851978,0.385386,0.339413639,-0.170979896,0.367711,0.328129663,-0.166150886,0.359591,0.318059668,-0.16199868,0.352426
0.355328549,-0.261964192,0.427582,0.341931945,-0.216064207,0.412284,0.335228992,-0.252051539,0.427519,0.327414349,-0.226697795,0.429939,0.31724344,-0.196022279,0.42311,0.315499616,-0.174363405,0.418284,0.317507629,-0.175672674,0.403155,0.32151592,-0.143916736,0.407831,0.317861817,-0.132905163,0.410169,0.314145266,-0.122156797,0.412294,0.334257268,-0.175338598,0.398715,0.307753228,-0.145298144,0.380161,0.295390802,-0.158506703,0.369338,0.304397353,-0.175335114,0.376707,0.349094257,-0.178848971,0.396298,0.323749747,-0.159056612,0.380434,0.317268859,-0.171230248,0.372317,0.3319348,-0.189582422,0.380595,0.368620004,-0.190261058,0.395711,0.344840399,-0.17570895,0.381543,0.33347118,-0.16912044,0.375034,0.326727966,-0.166047102,0.36929
0.350408587,-0.260531812,0.423017,0.342950242,-0.219836078,0.415437,0.332364631,-0.251128052,0.424639,0.328875812,-0.227788888,0.431683,0.320643562,-0.197802065,0.427173,0.320898411,-0.177195122,0.424927,0.324200773,-0.184726518,0.412985,0.331195935,-0.155008811,0.421629,0.329468598,-0.143362091,0.425951,0.327492315,-0.132019927,0.42988,0.341214504,-0.18308609,0.408713,0.320597155,-0.150860141,0.396482,0.311033533,-0.162248159,0.389348,0.322156895,-0.183715289,0.399214,0.355794421,-0.185071429,0.405809,0.337039777,-0.163251049,0.395638,0.330217025,-0.177460005,0.390435,0.342759036,-0.196034762,0.401261,0.374137021,-0.193815127,0.403505,0.353155332,-0.18378984,0.393847,0.343223583,-0.179053104,0.38941,0.335878982,-0.172630854,0.385495
