sluyters/QuantumLeap/backend/src/datasets/gesture/HandGestureDataset_SHREC2017_csv/Gesture2/finger_1/subject_1_essai_4_skeletons_world.csv
Wrist_x,Wrist_y,Wrist_z,Palm_x,Palm_y,Palm_z,thumb_base_x,thumb_base_y,thumb_base_z,thumb_first_joint_x,thumb_first_joint_y,thumb_first_joint_z,thumb_second_joint_x,thumb_second_joint_y,thumb_second_joint_z,thumb_tip_x,thumb_tip_y,thumb_tip_z,index_base_x,index_base_y,index_base_z,index_first_joint_x,index_first_joint_y,index_first_joint_z,index_second_joint_x,index_second_joint_y,index_second_joint_z,index_tip_x,index_tip_y,index_tip_z,middle_base_x,middle_base_y,middle_base_z,middle_first_joint_x,middle_first_joint_y,middle_first_joint_z,middle_second_joint_x,middle_second_joint_y,middle_second_joint_z,middle_tip_x,middle_tip_y,middle_tip_z,ring_base_x,ring_base_y,ring_base_z,ring_first_joint_x,ring_first_joint_y,ring_first_joint_z,ring_second_joint_x,ring_second_joint_y,ring_second_joint_z,ring_tip_x,ring_tip_y,ring_tip_z,pinky_base_x,pinky_base_y,pinky_base_z,pinky_first_joint_x,pinky_first_joint_y,pinky_first_joint_z,pinky_second_joint_x,pinky_second_joint_y,pinky_second_joint_z,pinky_tip_x,pinky_tip_y,pinky_tip_z,r
0.49371373,-0.42298292,0.546019,0.49049604,-0.38097972,0.547363,0.4783866,-0.41239581,0.551289,0.45224177,-0.38718798,0.55258,0.41851051,-0.35490531,0.537388,0.40951133,-0.33727395,0.537049,0.4708108,-0.33893782,0.55514,0.46068759,-0.29736764,0.549641,0.45490169,-0.27644132,0.546892,0.45385468,-0.25999619,0.548086,0.48683954,-0.33518843,0.548644,0.47886907,-0.28893765,0.542984,0.47403475,-0.2624682,0.539683,0.46685118,-0.24429836,0.537325,0.50000682,-0.33416979,0.543149,0.49564033,-0.29195143,0.53802,0.4927204,-0.27122014,0.535396,0.48829051,-0.25570587,0.533011,0.51635105,-0.33749218,0.536519,0.5207409,-0.3069781,0.531357,0.51932791,-0.29533342,0.528985,0.52046546,-0.28452226,0.526893
0.49285108,-0.42330581,0.546388,0.48590624,-0.37992869,0.546662,0.47643538,-0.41156289,0.550352,0.44454555,-0.38360229,0.547679,0.41596322,-0.35208929,0.534528,0.40550772,-0.33175081,0.532229,0.46775482,-0.33684574,0.552012,0.45701149,-0.29500375,0.545785,0.45153685,-0.2744366,0.542672,0.45495289,-0.26054183,0.549989,0.48491333,-0.33408675,0.546923,0.47589487,-0.28719309,0.539901,0.46972984,-0.26454457,0.535805,0.46585677,-0.25613775,0.532879,0.49918289,-0.33395233,0.542702,0.50103901,-0.30330156,0.546577,0.50202197,-0.29662717,0.54856,0.50286036,-0.29005151,0.550362,0.51590366,-0.34046554,0.537752,0.51228011,-0.31395988,0.531617,0.51021766,-0.30360005,0.528798,0.50818834,-0.29486856,0.526311
0.48446817,-0.42074007,0.545195,0.47940669,-0.37570714,0.544766,0.46571397,-0.40673212,0.548837,0.43821755,-0.37176611,0.545327,0.40907602,-0.33848705,0.527957,0.40025877,-0.31825576,0.523939,0.46473777,-0.32465999,0.549217,0.45214691,-0.28316393,0.543349,0.44594322,-0.26270986,0.540415,0.45284944,-0.25113054,0.553054,0.48174247,-0.3255868,0.544357,0.47378292,-0.28446887,0.536494,0.47158569,-0.26893922,0.531908,0.46914345,-0.26021952,0.528632,0.49695116,-0.33156125,0.540401,0.49763997,-0.29377511,0.544703,0.50067387,-0.28970354,0.546905,0.50251295,-0.28746387,0.548906,0.51480658,-0.33698577,0.53589,0.50875391,-0.31356161,0.529079,0.50636669,-0.30387573,0.525949,0.5041001,-0.29569132,0.523188
0.48237258,-0.41994132,0.548444,0.47936463,-0.36929151,0.546107,0.46411125,-0.40301616,0.551241,0.44054122,-0.36538117,0.546378,0.41113519,-0.33064345,0.527518,0.40280231,-0.31004359,0.523301,0.46426102,-0.31780632,0.548162,0.45015967,-0.27549809,0.540331,0.44316457,-0.25462694,0.536415,0.45176264,-0.24719839,0.551393,0.481674,-0.31935094,0.54388,0.47336726,-0.27643547,0.533763,0.46917492,-0.26543254,0.527862,0.4662002,-0.2602297,0.523647,0.49596563,-0.32287031,0.540606,0.4840563,-0.28155462,0.532856,0.48255805,-0.27688335,0.528891,0.4817797,-0.27518897,0.525287,0.51470956,-0.33536427,0.537245,0.50788033,-0.31344817,0.528633,0.50478094,-0.30378168,0.524677,0.50194144,-0.29545576,0.521186
0.48148706,-0.41845371,0.548725,0.47900531,-0.36822355,0.54592,0.46348076,-0.40110094,0.551168,0.44113762,-0.36487994,0.546675,0.41271942,-0.3291953,0.526887,0.40555579,-0.30849244,0.52266,0.46313384,-0.31730387,0.547196,0.44856651,-0.27471008,0.538801,0.4414061,-0.25378156,0.534604,0.45012869,-0.24530101,0.549441,0.480842,-0.31904429,0.543248,0.47234767,-0.27490971,0.53254,0.46798655,-0.2641466,0.526294,0.46488768,-0.26013634,0.521832,0.49544147,-0.32276085,0.540299,0.48297078,-0.28107895,0.531938,0.48118049,-0.27624435,0.527661,0.48013226,-0.27440076,0.523772,0.51462243,-0.33500196,0.537403,0.50721579,-0.31335178,0.528282,0.50393168,-0.30379426,0.524092,0.50095714,-0.29548042,0.520394
0.47420601,-0.40920892,0.545518,0.47439321,-0.36102492,0.541135,0.45927613,-0.39325034,0.548128,0.43733022,-0.35502082,0.543014,0.40936277,-0.31777033,0.521335,0.40612465,-0.30205838,0.519775,0.45808544,-0.30734749,0.541558,0.44309703,-0.26407127,0.532037,0.43577321,-0.24289908,0.527276,0.44408378,-0.23714913,0.541641,0.47522146,-0.30903893,0.53696,0.46617874,-0.26226846,0.524657,0.46112341,-0.25175981,0.51748,0.45668425,-0.25407007,0.512354,0.48943926,-0.31280097,0.533647,0.47634676,-0.27041063,0.524095,0.47389966,-0.2655543,0.519208,0.47199375,-0.26778831,0.514766,0.50713951,-0.32241962,0.530624,0.49912593,-0.30319509,0.520454,0.49548322,-0.29406832,0.515782,0.506227,-0.29768126,0.525925
0.46639902,-0.39594847,0.544351,0.46290354,-0.34209418,0.536943,0.44632516,-0.37088792,0.545586,0.42450076,-0.33531561,0.535121,0.39744229,-0.29813337,0.514055,0.3902685,-0.27679363,0.50989,0.44787607,-0.29098044,0.533521,0.43268737,-0.24716292,0.521069,0.42512943,-0.2255448,0.514842,0.43396011,-0.21378936,0.528268,0.46518816,-0.29458341,0.529888,0.45584594,-0.25892209,0.514071,0.45054988,-0.237215,0.504845,0.44598789,-0.23087685,0.498254,0.47976407,-0.29999351,0.527695,0.47081491,-0.26899619,0.514814,0.46674265,-0.25509037,0.508224,0.46336522,-0.24377244,0.502233,0.49819945,-0.31173262,0.526542,0.49311474,-0.29033929,0.513568,0.49091522,-0.2802517,0.507608,0.50322621,-0.27906143,0.516908
0.45645125,-0.38453131,0.543698,0.45521197,-0.33271854,0.533985,0.44071329,-0.36446143,0.542978,0.41513015,-0.32117462,0.529164,0.39087176,-0.28435728,0.509977,0.38348545,-0.26303026,0.505887,0.44000699,-0.2796682,0.526453,0.42555622,-0.23552009,0.510433,0.41833563,-0.21360764,0.502423,0.4280709,-0.20145479,0.514737,0.45845533,-0.28549972,0.524735,0.4480667,-0.25579062,0.506048,0.44114284,-0.23918741,0.495147,0.43543011,-0.23425562,0.487361,0.47417327,-0.29284004,0.524367,0.4649027,-0.26389675,0.508436,0.45993786,-0.25007509,0.500285,0.45566781,-0.23854288,0.492875,0.49419509,-0.30706324,0.525766,0.48998033,-0.28269418,0.510282,0.48348084,-0.27368217,0.503168,0.49510793,-0.27491365,0.511721
0.43926833,-0.36794365,0.523955,0.44866803,-0.32488616,0.525363,0.42381902,-0.3460499,0.525434,0.40777693,-0.31015158,0.518078,0.38811813,-0.2770857,0.504901,0.38820774,-0.26353441,0.511563,0.44218536,-0.27442698,0.528245,0.43654444,-0.23443353,0.522737,0.43371106,-0.21394246,0.519984,0.44606187,-0.20589489,0.535895,0.46134013,-0.28040357,0.526704,0.46207166,-0.25802348,0.520206,0.4633361,-0.24393102,0.516875,0.46148209,-0.24469122,0.514627,0.47655865,-0.28725281,0.525284,0.47764804,-0.26202147,0.519849,0.47882009,-0.25154443,0.517068,0.4799444,-0.2462659,0.516178,0.49398456,-0.29974325,0.52337,0.49917456,-0.28060737,0.516907,0.49540967,-0.27677885,0.513937,0.50695703,-0.27810793,0.525399
0.43661736,-0.36383239,0.521106,0.44702109,-0.3183832,0.521933,0.42171612,-0.34215071,0.522381,0.40585154,-0.30562811,0.514551,0.39031407,-0.2701087,0.501094,0.38704715,-0.24967488,0.500019,0.43955397,-0.26986226,0.524155,0.43344483,-0.22982371,0.518047,0.43037776,-0.20930626,0.514994,0.44245552,-0.19697004,0.530037,0.45874474,-0.27598278,0.52272,0.45861981,-0.25389162,0.515537,0.45890945,-0.24062656,0.511434,0.45778032,-0.23974993,0.508504,0.47404002,-0.28299504,0.521449,0.47440831,-0.25797366,0.515391,0.47516791,-0.24765496,0.512291,0.47615143,-0.23887904,0.509473,0.49162752,-0.29576417,0.519819,0.49621182,-0.27679313,0.512831,0.49374443,-0.27023815,0.509621,0.50531936,-0.27166064,0.520942
0.43150676,-0.35712301,0.517279,0.43985636,-0.31197226,0.513099,0.41891168,-0.33854288,0.518974,0.40276625,-0.29982491,0.510103,0.38454773,-0.26592382,0.494364,0.38271638,-0.24633166,0.494744,0.43424111,-0.25826889,0.512467,0.42500844,-0.21727522,0.502379,0.42038378,-0.19634015,0.497335,0.43004468,-0.18565591,0.511682,0.45145594,-0.26431477,0.509117,0.44477066,-0.23941951,0.496573,0.44078147,-0.22537044,0.489255,0.43586001,-0.22662305,0.484029,0.46540402,-0.27156079,0.506809,0.46023969,-0.24709715,0.496614,0.45776266,-0.23736447,0.491398,0.45808286,-0.22932507,0.489353,0.48191675,-0.28520149,0.504916,0.48184206,-0.26673727,0.494449,0.4768882,-0.26039818,0.48964,0.48609037,-0.26079363,0.499815
0.42410823,-0.3497088,0.508022,0.43160694,-0.29798767,0.499476,0.41089727,-0.32847119,0.508182,0.39290906,-0.28741985,0.4959,0.37636567,-0.25516162,0.48013,0.37244569,-0.23328721,0.476351,0.42050211,-0.24327664,0.493881,0.40762388,-0.20070821,0.47912,0.40118218,-0.17917993,0.471739,0.41094974,-0.16575872,0.483409,0.43843962,-0.24973995,0.491337,0.42830859,-0.22346092,0.473905,0.42235248,-0.20877405,0.463736,0.41613966,-0.20725775,0.456472,0.4534504,-0.25759197,0.490163,0.44495486,-0.23171036,0.475437,0.44082659,-0.22138429,0.467902,0.43721449,-0.21281645,0.461053,0.47207477,-0.27245171,0.490407,0.46902665,-0.2526063,0.476135,0.46273707,-0.24572437,0.469577,0.47170722,-0.24716251,0.478515
0.40849362,-0.33168391,0.489564,0.41592916,-0.28015085,0.480841,0.39457147,-0.30780124,0.487583,0.3741603,-0.26465402,0.47236,0.35604666,-0.23074847,0.45965,0.35273122,-0.21101832,0.459419,0.40502366,-0.22327492,0.472339,0.39572045,-0.18193199,0.456074,0.39112241,-0.16086899,0.447941,0.40314088,-0.14738004,0.458949,0.42469783,-0.23244876,0.472534,0.41836784,-0.21363444,0.454565,0.41551477,-0.20220144,0.444364,0.40902075,-0.20563032,0.437078,0.44109089,-0.24252699,0.473635,0.43662368,-0.22203666,0.457691,0.43459273,-0.21438301,0.449533,0.43308118,-0.20733256,0.442144,0.46112541,-0.26001682,0.476553,0.46130235,-0.24158263,0.461225,0.45400635,-0.23631721,0.454182,0.46246657,-0.23934103,0.462886
0.39648183,-0.31734471,0.474808,0.40139552,-0.26260106,0.462152,0.38115077,-0.29124391,0.471689,0.36456883,-0.25077541,0.453854,0.34448827,-0.21613879,0.440287,0.34248788,-0.19781912,0.442535,0.3877466,-0.20296545,0.449496,0.37440689,-0.16098278,0.42936,0.36777222,-0.13970436,0.419292,0.37735171,-0.12535251,0.427812,0.40777417,-0.21237177,0.450098,0.39697859,-0.19601655,0.427875,0.39144175,-0.1862774,0.41518,0.38002883,-0.19287346,0.406111,0.42479099,-0.22287194,0.451958,0.41578357,-0.20587968,0.43218,0.41136164,-0.19932243,0.422061,0.40768264,-0.19330688,0.412934,0.44612798,-0.24129469,0.456496,0.44274253,-0.22500426,0.437953,0.43270869,-0.22127729,0.429433,0.438875,-0.22574535,0.436899
0.3824567,-0.30514493,0.459773,0.38580913,-0.2562702,0.443558,0.36573101,-0.27901471,0.45349,0.34199513,-0.2378431,0.430657,0.32380758,-0.20265171,0.414401,0.32204448,-0.1824425,0.413364,0.37050541,-0.19300843,0.424363,0.35756441,-0.15280598,0.399664,0.35117402,-0.1324339,0.387314,0.35862146,-0.11808024,0.390462,0.39243805,-0.20487002,0.428115,0.38015802,-0.1965166,0.401807,0.37382755,-0.19198433,0.386743,0.35961744,-0.20114125,0.375983,0.41125015,-0.21759003,0.432951,0.39780385,-0.16849472,0.408763,0.3915216,-0.16758973,0.396387,0.38356534,-0.17388939,0.385137,0.43493102,-0.23899082,0.441613,0.43192279,-0.22583409,0.419439,0.41982377,-0.22385007,0.40925,0.42432466,-0.23040316,0.41513
0.3770783,-0.30215807,0.454149,0.3791949,-0.25245353,0.435434,0.35934028,-0.27548075,0.446107,0.33464031,-0.23377646,0.420485,0.31843799,-0.19963313,0.407824,0.31818048,-0.18067414,0.409165,0.36296298,-0.18817556,0.412254,0.34850735,-0.14851804,0.384654,0.34134274,-0.12851544,0.370854,0.34987481,-0.11517609,0.377686,0.38594382,-0.20133774,0.417611,0.37050808,-0.19437894,0.388513,0.36196407,-0.19060371,0.371538,0.36464589,-0.20687297,0.378936,0.40588461,-0.21529974,0.42404,0.39127051,-0.16542436,0.397026,0.38290169,-0.16578112,0.383205,0.36930881,-0.17096949,0.37064,0.4298184,-0.23693476,0.43502,0.42523641,-0.22310491,0.410575,0.41161114,-0.22080674,0.399343,0.414566,-0.22702232,0.404046
0.36902032,-0.29758114,0.444059,0.37014209,-0.24851019,0.420665,0.35193508,-0.27310131,0.435688,0.33091379,-0.23478495,0.408599,0.31073327,-0.19829145,0.390471,0.30876336,-0.17787257,0.389234,0.35541607,-0.18577567,0.393877,0.33781614,-0.14673995,0.362406,0.32903732,-0.12717596,0.346671,0.33737187,-0.11491081,0.349241,0.37732048,-0.19886685,0.398385,0.35389301,-0.19785885,0.364888,0.34041376,-0.19762456,0.345348,0.34123444,-0.21845871,0.350522,0.39674591,-0.21296605,0.404618,0.38621692,-0.16536845,0.38054,0.3787426,-0.16789637,0.368221,0.36921452,-0.17600287,0.357022,0.42218368,-0.23670319,0.41625,0.41477111,-0.22417802,0.388638,0.39862681,-0.22204757,0.375952,0.3993727,-0.22874882,0.378982
0.3600203,-0.2973153,0.433718,0.36045985,-0.25779426,0.404547,0.344147,-0.2730822,0.424652,0.31943795,-0.2412035,0.395718,0.29869459,-0.20408121,0.375508,0.29603555,-0.18203154,0.371256,0.34173025,-0.18985802,0.372931,0.31871242,-0.15240932,0.336863,0.30717497,-0.13373931,0.318829,0.31224278,-0.122938,0.318314,0.3625286,-0.20377111,0.376764,0.32773074,-0.20377846,0.337857,0.3074311,-0.20377736,0.315161,0.30247791,-0.22226499,0.316971,0.38149593,-0.21884704,0.383065,0.36838067,-0.17108464,0.354339,0.3555196,-0.1744697,0.339641,0.34080292,-0.18225852,0.32628,0.40712272,-0.24429073,0.395862,0.39264008,-0.23362929,0.36451,0.37264134,-0.23085072,0.350105,0.36901194,-0.23726508,0.350647
0.38173356,-0.30778473,0.427166,0.37024889,-0.25547888,0.395379,0.36188268,-0.28534592,0.418253,0.32942704,-0.25295992,0.392351,0.29688663,-0.22004883,0.3661,0.28351547,-0.19664166,0.353068,0.33883603,-0.19252623,0.362187,0.3134712,-0.16000506,0.324189,0.30079304,-0.14374098,0.305191,0.30668303,-0.13671506,0.305252,0.36142723,-0.20198762,0.365106,0.32466231,-0.20663331,0.324543,0.3026163,-0.20984815,0.300881,0.29770024,-0.22672764,0.301185,0.38253731,-0.21346507,0.370936,0.36498384,-0.16991507,0.335201,0.34514287,-0.17615792,0.316918,0.32476003,-0.18302133,0.300297,0.41211746,-0.2345234,0.383677,0.3702254,-0.2320545,0.350919,0.35055335,-0.23066275,0.335867,0.33735581,-0.23504932,0.335211
0.37835049,-0.30073033,0.415757,0.3608922,-0.25288553,0.378527,0.35805863,-0.28091023,0.40795,0.3300223,-0.25657271,0.383193,0.29808236,-0.22913992,0.359178,0.2811214,-0.20705137,0.341994,0.31819962,-0.1966346,0.343081,0.29153411,-0.16662165,0.301291,0.27772875,-0.15276783,0.280396,0.28001983,-0.14821389,0.276137,0.33921433,-0.20305075,0.343071,0.30110138,-0.15941059,0.297508,0.27870624,-0.1343458,0.27093,0.27417043,-0.14182183,0.266678,0.36000396,-0.21214021,0.347074,0.34048721,-0.17080349,0.306534,0.31498919,-0.17531757,0.285792,0.28893733,-0.17923019,0.266936,0.39122494,-0.23041473,0.358719,0.34654395,-0.23036586,0.323821,0.32448184,-0.22967364,0.307786,0.30918501,-0.23138017,0.304104
0.38504643,-0.3120812,0.415601,0.36104379,-0.27330129,0.378686,0.36383616,-0.30475034,0.408698,0.3312823,-0.27844977,0.384656,0.29985254,-0.25130908,0.361311,0.28330055,-0.22932904,0.344645,0.31963536,-0.21781584,0.344629,0.29311133,-0.1876345,0.302921,0.27938286,-0.17369594,0.282066,0.26728423,-0.16143174,0.263578,0.3396662,-0.22359248,0.343528,0.30200618,-0.17978065,0.298402,0.27988822,-0.15453558,0.272079,0.26517768,-0.15681312,0.257931,0.3595123,-0.23224042,0.3466,0.33966413,-0.19026711,0.305793,0.31402259,-0.19394437,0.284915,0.28785383,-0.19669754,0.265935,0.38946468,-0.25010165,0.357105,0.34536997,-0.24945273,0.322724,0.32357624,-0.24838321,0.306927,0.30861057,-0.24978783,0.303539
0.38301073,-0.32514765,0.417439,0.35999746,-0.27592913,0.380193,0.36038104,-0.30619677,0.408388,0.3271775,-0.27849487,0.382005,0.29644663,-0.2564925,0.356553,0.28148312,-0.23601785,0.339133,0.31732917,-0.2188582,0.343115,0.2890587,-0.19760414,0.301377,0.27529709,-0.18595833,0.280508,0.26273039,-0.17535288,0.261536,0.33967706,-0.22616624,0.344722,0.30301605,-0.18885291,0.29891,0.28214498,-0.16619817,0.272186,0.26390899,-0.16519362,0.253163,0.36155831,-0.23615742,0.350059,0.34088932,-0.20249623,0.309028,0.31726806,-0.20564652,0.288036,0.29152923,-0.2081949,0.268952,0.39393484,-0.25569894,0.363254,0.38392531,-0.23286401,0.328476,0.36811451,-0.23335666,0.312497,0.35509331,-0.23950746,0.309513
0.38378866,-0.33076115,0.419645,0.35893296,-0.28868305,0.381678,0.36090748,-0.3115601,0.410187,0.32553339,-0.29097189,0.38221,0.29640673,-0.26681667,0.356505,0.28121254,-0.24610092,0.338807,0.31686166,-0.23120993,0.343581,0.28898964,-0.20752975,0.301305,0.27496242,-0.19565055,0.280167,0.26214272,-0.18482233,0.260951,0.33930291,-0.23856253,0.34552,0.30326036,-0.19893298,0.299151,0.28205894,-0.17595828,0.272103,0.26351286,-0.17458779,0.252783,0.36122008,-0.2486984,0.351208,0.3402464,-0.21906473,0.309667,0.31427875,-0.22238159,0.288414,0.28696936,-0.22324408,0.269092,0.39356629,-0.26855474,0.364947,0.38582229,-0.24407017,0.330099,0.36998867,-0.24441105,0.314088,0.3564402,-0.25013584,0.310687
0.37677605,-0.34642007,0.421146,0.3559856,-0.29822682,0.38244,0.35431552,-0.32361995,0.409684,0.31854089,-0.29657407,0.378671,0.29056062,-0.2646089,0.350594,0.276096,-0.24292193,0.332575,0.3210293,-0.23100074,0.341231,0.28803191,-0.21335496,0.298148,0.27144429,-0.20439573,0.276607,0.25629867,-0.19614959,0.257025,0.34395091,-0.24345039,0.345578,0.31274618,-0.21044532,0.298572,0.28735512,-0.20533534,0.271152,0.26914131,-0.20135646,0.251566,0.36611788,-0.25815667,0.353329,0.33094999,-0.25017313,0.311208,0.29752516,-0.24921379,0.289659,0.26711641,-0.23380654,0.270068,0.39814691,-0.28430144,0.369601,0.39100011,-0.2586018,0.334112,0.37418623,-0.25723727,0.317807,0.35826631,-0.26087379,0.313119
0.36286265,-0.35063794,0.416105,0.35006741,-0.29637144,0.377489,0.34146627,-0.3243228,0.402436,0.30679253,-0.29626785,0.368435,0.2765151,-0.26456069,0.338632,0.26525324,-0.23783805,0.322172,0.31496551,-0.22828081,0.333465,0.2853265,-0.2157078,0.29036,0.26973721,-0.20792382,0.268808,0.24653374,-0.20928154,0.249215,0.33998811,-0.24249725,0.340712,0.31197915,-0.21878207,0.293957,0.28477061,-0.21922817,0.266684,0.26525758,-0.21861387,0.247203,0.36390834,-0.25869485,0.350842,0.33262078,-0.25453079,0.308105,0.29838453,-0.25279514,0.28624,0.27609723,-0.24391356,0.278133,0.39780984,-0.28657037,0.369858,0.3915269,-0.26709624,0.334731,0.37371209,-0.26653612,0.318592,0.3560734,-0.26840617,0.31293
0.35716449,-0.35107615,0.412123,0.34441611,-0.29897201,0.37399,0.33686045,-0.32421461,0.39907,0.30409437,-0.29702923,0.366472,0.27551559,-0.27121481,0.337091,0.2612179,-0.24118112,0.318762,0.31273926,-0.22776659,0.331096,0.27691643,-0.21701388,0.287928,0.25891086,-0.2102308,0.266344,0.23371235,-0.20872157,0.246723,0.33717719,-0.24464804,0.337672,0.30177602,-0.22146627,0.291088,0.26166003,-0.22091335,0.263915,0.24796429,-0.21702366,0.257125,0.35926345,-0.26476164,0.347196,0.33862363,-0.239937,0.304792,0.30267398,-0.23831062,0.283096,0.28147133,-0.23522822,0.276102,0.39150317,-0.29568773,0.36542,0.37572309,-0.25677544,0.32872,0.35392344,-0.25533529,0.311858,0.33788891,-0.25827396,0.305963
0.35126953,-0.34843893,0.406346,0.34277614,-0.30334769,0.372703,0.33123248,-0.32184446,0.393174,0.29753005,-0.30201173,0.359473,0.26914569,-0.273842,0.331721,0.25834291,-0.2469261,0.316104,0.31625884,-0.2395429,0.332704,0.28700232,-0.23389523,0.292515,0.27232152,-0.23086883,0.272458,0.24570491,-0.23072166,0.254224,0.34149918,-0.25517134,0.340662,0.31341588,-0.23871037,0.297394,0.27567871,-0.23902592,0.272155,0.26480252,-0.23615878,0.269408,0.36392704,-0.26987272,0.350841,0.34727192,-0.25326438,0.310862,0.31411352,-0.25406525,0.290408,0.29703129,-0.25344144,0.287292,0.39590517,-0.29948961,0.36898,0.38212493,-0.26368816,0.334141,0.36276316,-0.2670241,0.318133,0.34922126,-0.26923002,0.315143
0.34914028,-0.34803147,0.403404,0.34270977,-0.30003016,0.370616,0.3280169,-0.32051356,0.388691,0.29849474,-0.30436763,0.353222,0.26666518,-0.27114608,0.326773,0.25632026,-0.24619062,0.313995,0.31577164,-0.23651721,0.329189,0.28968192,-0.23513706,0.28952,0.27503841,-0.23425684,0.269686,0.26161528,-0.2331344,0.251654,0.34568535,-0.25111474,0.339389,0.32339249,-0.24440402,0.296971,0.2814056,-0.24130053,0.272227,0.26598999,-0.23507688,0.269163,0.37038851,-0.26772026,0.351322,0.34957136,-0.2557608,0.311429,0.32227724,-0.26051424,0.291019,0.30411382,-0.26178352,0.28738,0.40112688,-0.29259109,0.371337,0.38643569,-0.27083884,0.336754,0.36822556,-0.27186191,0.320865,0.35773432,-0.27586445,0.317533
0.3468735,-0.34779235,0.400216,0.34350221,-0.30419585,0.36862,0.32556256,-0.32340768,0.386028,0.29769398,-0.30526235,0.351138,0.26788312,-0.27331585,0.324981,0.25672723,-0.24763357,0.314002,0.31642213,-0.23764737,0.328687,0.29110939,-0.23817187,0.290411,0.27740341,-0.23792748,0.271344,0.2648661,-0.23748381,0.254011,0.34319683,-0.2531535,0.338528,0.32566149,-0.24431443,0.297059,0.28486914,-0.24295442,0.272868,0.26977632,-0.23782582,0.271004,0.36760507,-0.27000235,0.350038,0.35144188,-0.2596947,0.311073,0.32316181,-0.26280349,0.291137,0.30627754,-0.26525423,0.288721,0.40017268,-0.29779637,0.369337,0.38498658,-0.28078406,0.335429,0.36697556,-0.28241088,0.319849,0.35592305,-0.28830488,0.317421
0.34673209,-0.34906472,0.399593,0.34381894,-0.30495212,0.368273,0.32551808,-0.3246022,0.385215,0.29766906,-0.30509478,0.350171,0.26825226,-0.27293441,0.324129,0.25566327,-0.24844839,0.311834,0.31811837,-0.23887946,0.328281,0.29086598,-0.23877929,0.28994,0.27720214,-0.23846914,0.270847,0.26469975,-0.23795794,0.253491,0.34364998,-0.25373895,0.338445,0.32658476,-0.24456039,0.297234,0.28620903,-0.24373363,0.273194,0.27268173,-0.23912754,0.271397,0.36828102,-0.27057618,0.350191,0.35220464,-0.26030876,0.311342,0.32425807,-0.26355462,0.291466,0.30740452,-0.26627541,0.289082,0.40106954,-0.29833962,0.369711,0.38549529,-0.28121031,0.335933,0.3675981,-0.28291052,0.320413,0.35660332,-0.28882202,0.31802
0.34673228,-0.35012962,0.399247,0.34407098,-0.30546098,0.368131,0.32566137,-0.32563243,0.38484,0.2977402,-0.305097,0.349788,0.26858244,-0.27289362,0.323882,0.25609287,-0.2485703,0.311428,0.31811212,-0.23935918,0.32824,0.29100531,-0.23929635,0.289965,0.27742097,-0.23901386,0.270911,0.26498987,-0.23852975,0.253589,0.34402634,-0.25416734,0.338498,0.32720662,-0.24480314,0.297467,0.28706563,-0.24428136,0.273533,0.27354833,-0.23994257,0.271853,0.36870267,-0.27093231,0.350298,0.35270099,-0.26070077,0.311578,0.32495889,-0.26405415,0.291767,0.30821234,-0.26699772,0.289491,0.40150854,-0.29859185,0.369844,0.3857498,-0.28141436,0.336175,0.36792611,-0.28316978,0.320706,0.35702666,-0.28915366,0.318395
0.34735249,-0.3514987,0.399571,0.34479831,-0.30613532,0.36844,0.32640047,-0.32688344,0.385165,0.29837137,-0.30540544,0.350113,0.26926441,-0.27297909,0.324204,0.25712763,-0.2479371,0.311951,0.31864841,-0.23976835,0.328539,0.29138033,-0.2395916,0.290182,0.27772643,-0.239262,0.271097,0.26523437,-0.23873793,0.253748,0.3457771,-0.25479311,0.338792,0.32292634,-0.25323429,0.297747,0.28109124,-0.24828287,0.273805,0.27199232,-0.23998658,0.272115,0.37041788,-0.27124993,0.35059,0.35371177,-0.26036797,0.311859,0.32658736,-0.26335438,0.292043,0.30948444,-0.26722202,0.289757,0.40317686,-0.29858687,0.370136,0.38568702,-0.28274941,0.336458,0.36740419,-0.28450334,0.320985,0.35642707,-0.29009753,0.318667
0.34847113,-0.3528023,0.400324,0.34580628,-0.30652166,0.369083,0.32801525,-0.3262178,0.386186,0.30155531,-0.3061603,0.351378,0.27959715,-0.27173286,0.328005,0.26198274,-0.24962213,0.312613,0.3195116,-0.2399031,0.329456,0.29204658,-0.23954973,0.291074,0.27810404,-0.23941908,0.271914,0.26524887,-0.23919253,0.254495,0.34636878,-0.25471607,0.339329,0.32318429,-0.24912752,0.298162,0.28173365,-0.24530065,0.274148,0.27196699,-0.23995369,0.272555,0.37079702,-0.27100917,0.350827,0.35444477,-0.25700059,0.312099,0.3274051,-0.2607019,0.292285,0.31023093,-0.26689727,0.29013,0.40335376,-0.29818702,0.370045,0.38542885,-0.28205121,0.336336,0.36757238,-0.28281148,0.320848,0.35681792,-0.28818169,0.318619
0.34847921,-0.35513015,0.400175,0.34653213,-0.30669547,0.369446,0.32850905,-0.32885482,0.386469,0.30037832,-0.30822569,0.352142,0.26795008,-0.2722831,0.331276,0.26045984,-0.24967411,0.322014,0.3206797,-0.2402841,0.33073,0.29136682,-0.23592115,0.292777,0.27850799,-0.23672133,0.273801,0.26651441,-0.23894508,0.25655,0.34724447,-0.25484689,0.34018,0.32388481,-0.24771259,0.299428,0.28302453,-0.24602573,0.275657,0.27376275,-0.24137368,0.274657,0.37136798,-0.27089506,0.351274,0.35416283,-0.2593811,0.313024,0.32761166,-0.26379467,0.293454,0.31174128,-0.26812221,0.291926,0.40348504,-0.29772986,0.369927,0.38582005,-0.28081332,0.336558,0.36772552,-0.28266085,0.321226,0.35757289,-0.28867013,0.319457
0.34775905,-0.35531387,0.398465,0.34757823,-0.3067318,0.370299,0.32901246,-0.33008027,0.386213,0.30001586,-0.30280928,0.353757,0.2737102,-0.26727916,0.336151,0.26915399,-0.24570483,0.336688,0.3244348,-0.23808324,0.335216,0.29797271,-0.23152447,0.299463,0.28464175,-0.23116449,0.281587,0.27240139,-0.23115415,0.265335,0.35018013,-0.2522576,0.343474,0.32712361,-0.24374123,0.304997,0.28789777,-0.24320858,0.282552,0.28037824,-0.24595872,0.283842,0.37352644,-0.2685467,0.353309,0.35708001,-0.25724807,0.31736,0.33236046,-0.26169725,0.298967,0.31666839,-0.26975588,0.299807,0.40410501,-0.29445157,0.37002,0.38755652,-0.27483578,0.338399,0.37028647,-0.27713696,0.32387,0.36196458,-0.28805188,0.323857
0.34754003,-0.35420794,0.397704,0.35005786,-0.29350547,0.375941,0.32961418,-0.32477417,0.388419,0.30382247,-0.29659699,0.360589,0.2818607,-0.2625873,0.347858,0.28008289,-0.24271383,0.348191,0.33481332,-0.22801546,0.349069,0.31617747,-0.22401666,0.319438,0.30725136,-0.22252095,0.304753,0.2994091,-0.22152651,0.291476,0.3583407,-0.24353985,0.355214,0.33400881,-0.24469634,0.322982,0.29723033,-0.24633585,0.30418,0.29553528,-0.24648245,0.309856,0.37897965,-0.25982842,0.362619,0.3625747,-0.25126966,0.332669,0.33982414,-0.25983173,0.317346,0.33405224,-0.2736707,0.322694,0.40528787,-0.28623003,0.375305,0.4016545,-0.26896435,0.348464,0.38215753,-0.27062358,0.336131,0.37399884,-0.28065408,0.3395
0.3529181,-0.34919624,0.403569,0.35924093,-0.28705626,0.381595,0.33794154,-0.31497814,0.39612,0.31346298,-0.29048078,0.370462,0.29352214,-0.25780975,0.36061,0.29414125,-0.23929572,0.363278,0.34516501,-0.22287261,0.356972,0.32190928,-0.21745112,0.327354,0.31070307,-0.21527654,0.312828,0.30072242,-0.21363381,0.29972,0.36672163,-0.23750446,0.360667,0.33718082,-0.23696312,0.32844,0.30101239,-0.23932667,0.309641,0.30151029,-0.24049897,0.315656,0.38577598,-0.25300927,0.366078,0.36543447,-0.24347008,0.336847,0.34172552,-0.25209637,0.321892,0.33744256,-0.26668117,0.327797,0.41036439,-0.27846436,0.376489,0.40449406,-0.26124541,0.350092,0.38374257,-0.26253538,0.337964,0.3757255,-0.27238642,0.341712
0.3558225,-0.34044639,0.408346,0.36436713,-0.28885911,0.389684,0.34326725,-0.31549592,0.402985,0.31714008,-0.28598656,0.380712,0.30041741,-0.25456347,0.374506,0.30261606,-0.23686659,0.378708,0.35214093,-0.22187191,0.370029,0.33051273,-0.21374363,0.343732,0.31999582,-0.21005895,0.330771,0.31062469,-0.20697293,0.319094,0.37191741,-0.23577345,0.37191,0.3443054,-0.23249061,0.34325,0.31089598,-0.23892391,0.326533,0.31384603,-0.24373527,0.334446,0.38914741,-0.25047783,0.375469,0.37090195,-0.23836754,0.349853,0.34913032,-0.24810014,0.336746,0.34732881,-0.26613282,0.344677,0.41101279,-0.27470281,0.383109,0.40716077,-0.25631877,0.359628,0.38775383,-0.25772732,0.34884,0.3814012,-0.26892044,0.354111
0.36414347,-0.33722725,0.415494,0.37006163,-0.28090446,0.399518,0.35177898,-0.31297892,0.411714,0.32731625,-0.28590722,0.392147,0.3092253,-0.2576269,0.38881,0.30948143,-0.24153504,0.390666,0.35583696,-0.21915045,0.383748,0.33626539,-0.20796572,0.360203,0.32651526,-0.20287856,0.348601,0.31779029,-0.19841572,0.338158,0.37594911,-0.22983122,0.384303,0.35331706,-0.22121568,0.358608,0.32505212,-0.23388387,0.343619,0.32940725,-0.2433016,0.352893,0.39348495,-0.24180453,0.386482,0.37679005,-0.22729849,0.363817,0.3589066,-0.23854709,0.352221,0.36069685,-0.25985737,0.361603,0.41598176,-0.2626905,0.392015,0.39823173,-0.23637666,0.370944,0.38584619,-0.24201153,0.361263,0.3895829,-0.25890524,0.367633
0.37069278,-0.33859602,0.422413,0.37404415,-0.28115013,0.404917,0.35686712,-0.31380741,0.417839,0.32976055,-0.28631247,0.39686,0.30840762,-0.25684332,0.390258,0.30882554,-0.24073469,0.396297,0.35708138,-0.21849893,0.387079,0.33561309,-0.20738661,0.361997,0.32492023,-0.20253154,0.349731,0.31531567,-0.1983066,0.338689,0.37619847,-0.22641622,0.388254,0.35318457,-0.22097372,0.360892,0.32447892,-0.23299866,0.344931,0.32845965,-0.24143628,0.353461,0.3946618,-0.23826263,0.391107,0.3775485,-0.22728507,0.366819,0.35870552,-0.23826908,0.354392,0.35981195,-0.25860885,0.36299,0.41867292,-0.259078,0.397707,0.39237218,-0.24481523,0.375303,0.38011119,-0.25169433,0.36501,0.38519886,-0.2694246,0.370784
0.4247852,-0.34558304,0.463136,0.40546323,-0.2908789,0.43536,0.40497963,-0.32661359,0.459806,0.37267523,-0.30098451,0.442662,0.33786349,-0.27232226,0.420714,0.32260368,-0.2511501,0.410487,0.36921197,-0.23074762,0.412162,0.34130703,-0.20446769,0.377458,0.33002545,-0.1928014,0.363009,0.31981989,-0.18208831,0.349874,0.38782452,-0.23456231,0.408906,0.35147235,-0.20117943,0.372174,0.33024907,-0.18156082,0.350747,0.3305359,-0.19606665,0.353731,0.4057534,-0.24140052,0.409218,0.36943093,-0.2433918,0.375232,0.35457982,-0.2470494,0.357844,0.35918632,-0.26188743,0.3605,0.43220588,-0.25703934,0.414802,0.39133799,-0.25508697,0.386598,0.37267301,-0.25403947,0.37364,0.36888587,-0.26248273,0.375504
0.42596017,-0.34759541,0.468744,0.41294061,-0.29543642,0.447829,0.40677906,-0.32881228,0.466293,0.37615365,-0.30074697,0.454388,0.34339293,-0.27036624,0.433765,0.32971082,-0.24922453,0.423548,0.37777883,-0.23246116,0.430433,0.35518049,-0.20959998,0.401974,0.34393429,-0.1980009,0.387744,0.33379555,-0.18736477,0.374861,0.39712147,-0.23603384,0.427909,0.36885385,-0.19860754,0.397716,0.35235985,-0.17634542,0.380104,0.35741641,-0.18905294,0.387032,0.41494806,-0.24236326,0.428084,0.38852053,-0.24915525,0.400133,0.37716996,-0.25670542,0.385833,0.38592139,-0.27571524,0.392487,0.43998011,-0.25686779,0.432219,0.40735813,-0.25960034,0.408516,0.39236426,-0.26086797,0.397626,0.39318434,-0.27170481,0.4024
0.43097597,-0.35254004,0.479233,0.41500501,-0.29273343,0.46177,0.40383617,-0.32721557,0.4718,0.3646475,-0.28905847,0.450291,0.33091417,-0.25695138,0.431159,0.31720939,-0.23621777,0.425367,0.38409393,-0.22927584,0.440232,0.36558466,-0.19837317,0.414035,0.35641941,-0.18256898,0.400937,0.36204154,-0.17466064,0.404554,0.40915799,-0.23692874,0.445139,0.39295991,-0.24059341,0.417361,0.37765756,-0.25371949,0.401157,0.37828247,-0.27470746,0.409241,0.43128289,-0.24648466,0.451062,0.41670751,-0.24976528,0.425321,0.39881746,-0.26219608,0.412151,0.40027907,-0.28430098,0.419974,0.46038113,-0.26454062,0.461219,0.44272121,-0.26475147,0.437812,0.43466875,-0.26499628,0.427057,0.44268819,-0.27466138,0.432301
0.43513813,-0.35411281,0.486934,0.42308961,-0.29275778,0.472575,0.40860385,-0.32843501,0.479291,0.37492495,-0.29085902,0.463636,0.34131418,-0.25943879,0.442679,0.3217869,-0.23685403,0.429846,0.39408553,-0.23220474,0.452871,0.37422318,-0.19853208,0.428625,0.36431655,-0.18128969,0.416503,0.36868846,-0.17155671,0.420731,0.42023895,-0.24007379,0.4589,0.40788924,-0.2433085,0.434245,0.39458634,-0.25789452,0.419863,0.39660926,-0.28392606,0.429154,0.44298174,-0.24959397,0.465412,0.43079126,-0.25318016,0.442045,0.4131554,-0.26648541,0.430089,0.41671085,-0.29335952,0.438992,0.47215842,-0.26715511,0.475669,0.45202213,-0.27082474,0.454336,0.44134859,-0.27834591,0.444533,0.445301,-0.29410652,0.450634
0.43762653,-0.3554898,0.502547,0.43104175,-0.2995218,0.485791,0.4156039,-0.32988776,0.496971,0.37975224,-0.29258682,0.479282,0.34858228,-0.25948964,0.45964,0.33749251,-0.23822955,0.454098,0.40339298,-0.2361235,0.467152,0.38308828,-0.19988978,0.442352,0.37295145,-0.18142265,0.429951,0.37687962,-0.17033539,0.433793,0.42628305,-0.24436897,0.469834,0.40778248,-0.24382617,0.443029,0.39030952,-0.25620648,0.427393,0.39055447,-0.27768501,0.436129,0.44626314,-0.25428689,0.473848,0.42936499,-0.25500975,0.449599,0.40967575,-0.26741315,0.437193,0.40975286,-0.28995604,0.445857,0.47510134,-0.27155628,0.481657,0.44798465,-0.2731994,0.459369,0.43532488,-0.27960096,0.449128,0.43811181,-0.29528097,0.454978
0.4307114,-0.35036331,0.497088,0.42772522,-0.297925,0.483916,0.41017807,-0.326166,0.492681,0.37896424,-0.29139203,0.478202,0.35022948,-0.25943787,0.460988,0.34071232,-0.23892738,0.456944,0.40435276,-0.23713038,0.469231,0.38615037,-0.20287611,0.447956,0.37705231,-0.18525998,0.437319,0.3784329,-0.17333806,0.438839,0.42675719,-0.24516389,0.47137,0.41483382,-0.2222389,0.448378,0.39669331,-0.23661315,0.434965,0.39902691,-0.25808219,0.44535,0.44602277,-0.25471464,0.474551,0.4336639,-0.23470367,0.453759,0.42226542,-0.24571862,0.443122,0.42719113,-0.26906965,0.453447,0.47049126,-0.27221822,0.48072,0.45119647,-0.25462506,0.461316,0.44322037,-0.26127258,0.452401,0.45064058,-0.27773767,0.459528
0.44086948,-0.35563756,0.511206,0.43771932,-0.30310795,0.500314,0.42046434,-0.33365017,0.507909,0.39964273,-0.30559321,0.501493,0.36706814,-0.27280774,0.480933,0.35733046,-0.25326753,0.477266,0.41249394,-0.24691224,0.488624,0.39557746,-0.20797353,0.469818,0.38710405,-0.188076,0.460415,0.39432373,-0.1763891,0.469652,0.43495329,-0.25188539,0.489941,0.42561595,-0.22831308,0.469488,0.4124812,-0.24403521,0.457557,0.41898057,-0.26955582,0.468958,0.45430404,-0.25879343,0.492199,0.44559318,-0.24055945,0.473836,0.43661094,-0.25187203,0.464441,0.44561853,-0.27941761,0.475829,0.4790804,-0.27287601,0.496867,0.46216285,-0.2603354,0.479481,0.45556627,-0.26637755,0.471493,0.46730304,-0.28674804,0.479434
0.45146909,-0.3639763,0.527312,0.44823286,-0.31129673,0.515335,0.43439553,-0.3423163,0.525717,0.40763387,-0.31187979,0.517753,0.37759354,-0.27995394,0.500364,0.36811467,-0.2599232,0.496638,0.42268436,-0.25411558,0.505125,0.40488216,-0.21402003,0.486122,0.3959592,-0.1936148,0.476621,0.40194167,-0.1811946,0.485008,0.44295649,-0.25838998,0.503928,0.43060907,-0.23289644,0.482615,0.41554296,-0.24755312,0.470183,0.42454065,-0.27259121,0.481221,0.46047818,-0.2647653,0.504233,0.44947365,-0.24507268,0.485785,0.43917318,-0.25568075,0.476346,0.44953949,-0.28185767,0.48758,0.48314805,-0.27833435,0.506838,0.46436964,-0.26444375,0.489403,0.45683365,-0.26997388,0.481392,0.46966211,-0.288507,0.48922
0.45798947,-0.36684786,0.536263,0.45279302,-0.31727451,0.525728,0.44026141,-0.34836942,0.535107,0.41301954,-0.31926124,0.528553,0.38449964,-0.28814749,0.513516,0.37311919,-0.26509969,0.505428,0.42862989,-0.26227312,0.517071,0.41121833,-0.22158116,0.499504,0.40248321,-0.20090343,0.490721,0.40931372,-0.18871333,0.500834,0.44876018,-0.26621352,0.515696,0.43674477,-0.23905433,0.495996,0.42252643,-0.25321683,0.484505,0.43084665,-0.27826485,0.496143,0.46607697,-0.27225241,0.515698,0.45542178,-0.25100271,0.49874,0.44578606,-0.26112822,0.490064,0.45545952,-0.28755255,0.501912,0.48836068,-0.28532111,0.517682,0.47023874,-0.26842948,0.501435,0.46318871,-0.27285774,0.49397,0.47503248,-0.29291968,0.502255
0.46274439,-0.37129753,0.543197,0.45858262,-0.32371726,0.536102,0.44386742,-0.35303212,0.543243,0.42036462,-0.32622019,0.540272,0.39221598,-0.29604958,0.526897,0.38065963,-0.27359861,0.519581,0.43614733,-0.27038352,0.531345,0.4200264,-0.2300733,0.517352,0.41191104,-0.20952248,0.510356,0.41890746,-0.19738009,0.521949,0.45588971,-0.27314231,0.529345,0.4457135,-0.24498443,0.513444,0.43404225,-0.25925658,0.504168,0.44399487,-0.28688627,0.51712,0.47264227,-0.27802019,0.528463,0.463845,-0.25585791,0.514986,0.45642617,-0.2648073,0.50809,0.46774707,-0.29464894,0.521275,0.49386613,-0.28935522,0.528773,0.47757809,-0.27223353,0.515471,0.47198614,-0.27656228,0.509358,0.48517522,-0.29764518,0.518686
0.46367233,-0.37182376,0.545577,0.46086998,-0.32448388,0.54161,0.44336291,-0.3523354,0.543728,0.41930971,-0.32399225,0.540132,0.39113645,-0.29373307,0.526217,0.38273948,-0.27523875,0.525222,0.43922198,-0.27137114,0.536508,0.4238822,-0.2322532,0.524436,0.41612931,-0.21219221,0.5184,0.42239794,-0.19996813,0.529677,0.4604706,-0.27410034,0.537831,0.45441584,-0.24528946,0.524883,0.44674917,-0.25723126,0.51733,0.45584679,-0.28396271,0.531294,0.47925895,-0.28011452,0.539348,0.47334785,-0.26001309,0.527494,0.46844514,-0.26992124,0.521429,0.47846167,-0.29760564,0.535316,0.50249097,-0.29248364,0.541855,0.48893672,-0.2770275,0.530015,0.48500966,-0.28096393,0.524575,0.49714017,-0.30182995,0.534477
0.4647747,-0.3728308,0.547832,0.46058002,-0.32430149,0.541802,0.44590886,-0.35445373,0.547604,0.421416,-0.32576059,0.543618,0.39314912,-0.2954681,0.529707,0.38436102,-0.27658131,0.528096,0.4396094,-0.27164974,0.537411,0.42280541,-0.23236312,0.524336,0.41431861,-0.21226788,0.517798,0.42040827,-0.20031845,0.529302,0.45988603,-0.27469946,0.53606,0.45088096,-0.24671627,0.521266,0.44106633,-0.25893523,0.512636,0.4494263,-0.28525168,0.525991,0.47700036,-0.27975435,0.535597,0.46924699,-0.25807279,0.522911,0.46308213,-0.26600787,0.51642,0.47292967,-0.29324307,0.529948,0.49849797,-0.29118401,0.536193,0.48316635,-0.27516028,0.523527,0.47827318,-0.27920998,0.517708,0.48960727,-0.29777538,0.527294
0.46742775,-0.37669749,0.554482,0.46488475,-0.32886875,0.549698,0.44917037,-0.3587726,0.554409,0.42533773,-0.3291094,0.550997,0.39805442,-0.29901561,0.53815,0.38888096,-0.27872197,0.534738,0.44517132,-0.27648589,0.546354,0.42751997,-0.23854918,0.534629,0.41960918,-0.21803092,0.528766,0.42726943,-0.20635377,0.542337,0.4650097,-0.28018875,0.545142,0.45580221,-0.25513015,0.53164,0.44960891,-0.26267506,0.523765,0.45828013,-0.29155769,0.537545,0.48203078,-0.2854271,0.544659,0.47387681,-0.26437363,0.533038,0.47097436,-0.27072955,0.527092,0.48123489,-0.29766077,0.541016,0.50089674,-0.29964549,0.544998,0.48937743,-0.28109878,0.533296,0.48520098,-0.28486696,0.52792,0.49713053,-0.30365648,0.537832
0.46489697,-0.37529884,0.551849,0.46632008,-0.33127603,0.551686,0.44764523,-0.35840271,0.552836,0.42708262,-0.33181092,0.552842,0.40151578,-0.30155041,0.539389,0.39243707,-0.2809555,0.53759,0.44832577,-0.28446167,0.552862,0.43638558,-0.24612128,0.545611,0.43068234,-0.23007938,0.541986,0.43696603,-0.21504719,0.553952,0.46852896,-0.28748261,0.551531,0.46242191,-0.24905965,0.543244,0.45841077,-0.24939702,0.538409,0.47100253,-0.27463921,0.553718,0.48503851,-0.29215968,0.550453,0.48194184,-0.27000654,0.543418,0.47891184,-0.2760251,0.539819,0.49289296,-0.30506235,0.555247,0.50481673,-0.30248915,0.549232,0.49363717,-0.28725244,0.541381,0.49105215,-0.29128164,0.537773,0.50619824,-0.30965963,0.548856
0.46863797,-0.37891247,0.556243,0.47089025,-0.3395498,0.559203,0.44956539,-0.36094554,0.555209,0.43228844,-0.3398081,0.558063,0.40417854,-0.31208565,0.545621,0.39928119,-0.29517861,0.547902,0.4498473,-0.29520018,0.559866,0.44217661,-0.2555242,0.554447,0.4373243,-0.23665911,0.551738,0.4458624,-0.22591633,0.565728,0.47507075,-0.2966382,0.562022,0.46948625,-0.25924298,0.556701,0.47108223,-0.25723782,0.553597,0.48584646,-0.28282536,0.569628,0.49187163,-0.30342454,0.563479,0.49324552,-0.28065549,0.557993,0.49382609,-0.28310451,0.555187,0.50592753,-0.31221814,0.571,0.51448509,-0.31347822,0.564613,0.5077687,-0.30285931,0.558304,0.50465356,-0.29776695,0.555405,0.52093978,-0.31604206,0.566863
0.46605559,-0.37801987,0.553511,0.47016972,-0.34512128,0.559765,0.44908339,-0.36302968,0.555193,0.43459879,-0.34635269,0.562192,0.40902425,-0.31568394,0.550232,0.40382284,-0.29446406,0.549727,0.45255263,-0.30410114,0.566202,0.447725,-0.2664883,0.565145,0.44524206,-0.2470424,0.564616,0.45672755,-0.23610205,0.581691,0.47359629,-0.3058189,0.56572,0.47615897,-0.26484655,0.564563,0.47790188,-0.26179316,0.563888,0.48980857,-0.27885562,0.580963,0.49166682,-0.30652712,0.56465,0.485004,-0.27835274,0.563552,0.48489517,-0.2690753,0.56299,0.49995989,-0.26820997,0.580045,0.51117286,-0.31442989,0.562232,0.50595249,-0.30414135,0.559556,0.50112346,-0.30149746,0.558327,0.52251915,-0.31918931,0.570739
0.46803116,-0.38053599,0.555781,0.47244862,-0.34851791,0.562681,0.45085505,-0.36874685,0.557372,0.4363001,-0.35039218,0.563652,0.41116929,-0.31871572,0.551001,0.40628484,-0.30035404,0.553551,0.45453055,-0.30806976,0.569439,0.44945693,-0.27051294,0.569008,0.44684316,-0.25112441,0.568793,0.45803313,-0.24027049,0.586014,0.47586911,-0.30951147,0.569253,0.47825349,-0.27016002,0.568792,0.47867168,-0.26217686,0.568523,0.49271056,-0.27795181,0.585746,0.49296538,-0.31239832,0.568356,0.48734883,-0.28138347,0.567775,0.48825171,-0.27415461,0.567477,0.50557401,-0.28370672,0.584649,0.5128682,-0.31966258,0.566017,0.50534672,-0.30524717,0.563807,0.50085339,-0.29666779,0.562792,0.51595301,-0.30721647,0.575306
0.4687312,-0.38252657,0.557158,0.4732545,-0.34991578,0.563581,0.45135079,-0.36954136,0.558762,0.43659098,-0.3511467,0.563807,0.41048464,-0.31900394,0.550177,0.40631659,-0.301124,0.55337,0.45508394,-0.30908421,0.570032,0.44950372,-0.27119641,0.569125,0.44664038,-0.25168586,0.568672,0.45768385,-0.24081037,0.585783,0.47631548,-0.31035697,0.569699,0.47811818,-0.27055617,0.568713,0.47833434,-0.26171185,0.568138,0.49240709,-0.2766163,0.585249,0.49337021,-0.31312463,0.568732,0.48730235,-0.28168681,0.567738,0.48805201,-0.27425682,0.56723,0.50452869,-0.27706728,0.584308,0.51332917,-0.32028181,0.566402,0.50524111,-0.30475014,0.563826,0.50130179,-0.29669664,0.562642,0.51634475,-0.30721984,0.575076
0.47635605,-0.39498088,0.568552,0.47051463,-0.36263543,0.567009,0.45714113,-0.38141967,0.567527,0.42880284,-0.35620877,0.563419,0.40622717,-0.31885443,0.546385,0.4013275,-0.30149501,0.54802,0.44932994,-0.31430979,0.564626,0.43559867,-0.27225765,0.555062,0.42873785,-0.25126467,0.550279,0.43756911,-0.23497952,0.562734,0.47085077,-0.31863366,0.56554,0.46552789,-0.27195506,0.555338,0.46486178,-0.25260641,0.549386,0.48134223,-0.25502477,0.564176,0.48869817,-0.32428781,0.566458,0.48203141,-0.28627101,0.557104,0.48107986,-0.27123542,0.552319,0.49785573,-0.26831642,0.567043,0.51062845,-0.33556834,0.567814,0.50843537,-0.30808965,0.558095,0.50585591,-0.30158957,0.553629,0.51690807,-0.30353987,0.564189
