sluyters/QuantumLeap/backend/src/datasets/gesture/HandGestureDataset_SHREC2017_csv/Gesture1/finger_2/subject_2_essai_2_skeletons_world.csv
Wrist_x,Wrist_y,Wrist_z,Palm_x,Palm_y,Palm_z,thumb_base_x,thumb_base_y,thumb_base_z,thumb_first_joint_x,thumb_first_joint_y,thumb_first_joint_z,thumb_second_joint_x,thumb_second_joint_y,thumb_second_joint_z,thumb_tip_x,thumb_tip_y,thumb_tip_z,index_base_x,index_base_y,index_base_z,index_first_joint_x,index_first_joint_y,index_first_joint_z,index_second_joint_x,index_second_joint_y,index_second_joint_z,index_tip_x,index_tip_y,index_tip_z,middle_base_x,middle_base_y,middle_base_z,middle_first_joint_x,middle_first_joint_y,middle_first_joint_z,middle_second_joint_x,middle_second_joint_y,middle_second_joint_z,middle_tip_x,middle_tip_y,middle_tip_z,ring_base_x,ring_base_y,ring_base_z,ring_first_joint_x,ring_first_joint_y,ring_first_joint_z,ring_second_joint_x,ring_second_joint_y,ring_second_joint_z,ring_tip_x,ring_tip_y,ring_tip_z,pinky_base_x,pinky_base_y,pinky_base_z,pinky_first_joint_x,pinky_first_joint_y,pinky_first_joint_z,pinky_second_joint_x,pinky_second_joint_y,pinky_second_joint_z,pinky_tip_x,pinky_tip_y,pinky_tip_z,r
0.24675031,-0.23839149,0.29908,0.23795147,-0.19062735,0.29198,0.22630729,-0.23272579,0.296079,0.18978247,-0.2168337,0.284035,0.15843721,-0.19735611,0.258498,0.13790258,-0.17924283,0.244347,0.20681677,-0.16380239,0.284808,0.19286235,-0.12230998,0.271234,0.18686427,-0.10384101,0.264447,0.18154867,-0.08700723,0.258278,0.23278983,-0.16320037,0.287762,0.22555632,-0.11816936,0.274099,0.22164319,-0.09214904,0.266129,0.21934879,-0.074094065,0.260436,0.2553873,-0.16825443,0.291066,0.25337218,-0.12467322,0.278205,0.25339829,-0.10402217,0.271625,0.25367609,-0.084706968,0.265643,0.28306412,-0.1833415,0.296228,0.29440385,-0.14778373,0.289066,0.30112684,-0.13811702,0.285775,0.30771448,-0.12906779,0.282871
0.24505178,-0.23856723,0.296988,0.23488275,-0.18971484,0.287815,0.22407829,-0.23236451,0.293077,0.18829045,-0.21827712,0.278925,0.15467163,-0.1980732,0.253509,0.13542852,-0.17816803,0.240936,0.20242876,-0.16330011,0.278503,0.18720191,-0.11999639,0.263085,0.18139674,-0.10201148,0.255377,0.17840269,-0.089802649,0.248369,0.22899139,-0.16311084,0.282366,0.22066458,-0.11684085,0.266975,0.21689027,-0.091339604,0.257996,0.21491899,-0.074001473,0.251583,0.25219015,-0.1686653,0.286675,0.24949137,-0.12435617,0.272278,0.24936068,-0.10344846,0.264913,0.24995831,-0.084876411,0.258217,0.28073846,-0.18324208,0.293389,0.29166385,-0.14849837,0.285094,0.29875995,-0.13803497,0.281282,0.30376046,-0.1282487,0.27792
0.24100042,-0.23650495,0.292768,0.23153015,-0.18775542,0.282939,0.21971863,-0.2294023,0.287974,0.18636454,-0.21677846,0.272493,0.15279292,-0.19585543,0.24657,0.13235045,-0.17681989,0.232222,0.20043443,-0.16135936,0.272117,0.18649845,-0.1183728,0.255611,0.17782547,-0.099051147,0.247358,0.17421932,-0.087407858,0.239855,0.22779317,-0.1627192,0.277099,0.21827547,-0.11562098,0.26078,0.21436858,-0.090366616,0.251261,0.21369021,-0.072938806,0.248473,0.25144448,-0.16959759,0.28241,0.24737589,-0.12456722,0.267176,0.24699599,-0.1037103,0.259383,0.24586689,-0.08401797,0.252297,0.28005979,-0.18705268,0.290387,0.28956351,-0.15008842,0.281396,0.29676301,-0.13860962,0.277265,0.30236573,-0.12836833,0.27362
0.23699879,-0.23488226,0.288238,0.2298568,-0.1899834,0.279038,0.21590208,-0.22745365,0.283356,0.18395976,-0.21797081,0.268105,0.15008231,-0.19684995,0.241728,0.12913493,-0.17673997,0.226676,0.19853302,-0.16001771,0.268359,0.18383783,-0.11763222,0.251955,0.17553547,-0.097616488,0.243753,0.17181706,-0.085615663,0.236297,0.22754468,-0.16311613,0.273573,0.21901962,-0.1166258,0.257563,0.21515398,-0.090789963,0.248223,0.21275262,-0.073034953,0.243357,0.2510423,-0.17118107,0.278998,0.2494632,-0.12964573,0.264025,0.24723406,-0.10544394,0.256365,0.24558474,-0.084896151,0.249401,0.27893574,-0.18997679,0.286976,0.28862599,-0.15294203,0.278369,0.29621475,-0.1416879,0.274414,0.30199473,-0.13017139,0.270925
0.23475045,-0.23447134,0.285231,0.22816851,-0.19005007,0.274648,0.21260887,-0.22557998,0.27881,0.18150241,-0.21904423,0.261629,0.14503961,-0.19593191,0.235542,0.12604201,-0.17438885,0.222233,0.19655798,-0.15870847,0.26124,0.18255734,-0.11715908,0.243032,0.17534548,-0.096527306,0.233928,0.17258333,-0.086921717,0.225651,0.22547728,-0.16321507,0.268361,0.21719866,-0.11649184,0.251014,0.21269105,-0.089950243,0.240895,0.2145018,-0.073068031,0.238598,0.25042841,-0.1728443,0.275528,0.24584595,-0.12711042,0.259295,0.24488371,-0.10547924,0.250989,0.24467658,-0.086709038,0.243439,0.2804771,-0.19386582,0.285747,0.28966223,-0.15598292,0.276063,0.29661234,-0.14329125,0.271613,0.30011385,-0.12913255,0.267687
0.2340261,-0.23346485,0.281821,0.23763328,-0.19293514,0.271336,0.21287107,-0.22836394,0.275739,0.18157716,-0.21834467,0.260386,0.14735982,-0.19796668,0.234809,0.12503692,-0.17750343,0.221641,0.20370014,-0.16110307,0.258405,0.18240134,-0.11631075,0.239662,0.17398656,-0.095182283,0.230291,0.17169557,-0.086149955,0.221771,0.23192784,-0.16382715,0.265123,0.22287783,-0.11841016,0.252009,0.22027929,-0.092332546,0.244359,0.21670782,-0.073575702,0.238895,0.25653411,-0.17205084,0.27196,0.25195628,-0.12712498,0.25534,0.25151659,-0.10607257,0.246836,0.24732039,-0.087163806,0.239106,0.28678245,-0.19147208,0.281799,0.28961069,-0.15434665,0.270091,0.29395542,-0.13846649,0.264712,0.29675373,-0.12982369,0.259966
0.23457072,-0.23670986,0.276895,0.23616239,-0.19360389,0.268601,0.22325429,-0.23591367,0.27161,0.18289536,-0.21797537,0.258045,0.1492795,-0.19739698,0.233892,0.12709825,-0.17682384,0.22236,0.20358279,-0.16321564,0.257639,0.18624519,-0.11960508,0.241349,0.18231894,-0.10419619,0.233204,0.17611724,-0.087811988,0.225799,0.23094316,-0.16498576,0.263525,0.22335488,-0.11937623,0.247987,0.2194305,-0.093109846,0.238924,0.21964285,-0.075253861,0.235661,0.25452206,-0.17219408,0.269395,0.25300237,-0.12910431,0.255037,0.25398531,-0.10845076,0.247691,0.25515779,-0.089104173,0.241013,0.28315234,-0.18998352,0.277701,0.2922953,-0.15473907,0.267821,0.30005175,-0.14243954,0.263281,0.3039856,-0.1351815,0.259276
0.2420283,-0.24539121,0.278502,0.23732344,-0.20068528,0.270131,0.22474531,-0.24057749,0.27358,0.18675515,-0.227074,0.259685,0.15191506,-0.20434063,0.236692,0.13141634,-0.18431194,0.225579,0.20381742,-0.17485516,0.259642,0.18825086,-0.13026176,0.244045,0.18458229,-0.1129485,0.236246,0.18074829,-0.091900193,0.229157,0.23062648,-0.17520401,0.265009,0.224549,-0.12957676,0.24997,0.22111949,-0.10308217,0.241197,0.22339524,-0.081844187,0.238775,0.25369229,-0.18120197,0.27046,0.2542876,-0.1397941,0.256494,0.25574586,-0.11913527,0.249349,0.2581397,-0.095786298,0.242854,0.28163899,-0.19743961,0.27831,0.29196889,-0.16350875,0.269004,0.29830502,-0.14941597,0.264729,0.30756806,-0.14050408,0.260957
0.24638211,-0.24929327,0.278519,0.237601,-0.20502824,0.270307,0.22544788,-0.24276904,0.273992,0.18803305,-0.23003848,0.261265,0.15295631,-0.21044337,0.236806,0.13329844,-0.19097482,0.226558,0.20549322,-0.17566926,0.260425,0.18905447,-0.13112801,0.245191,0.18524159,-0.11461954,0.237574,0.18188728,-0.098933788,0.230649,0.23209516,-0.17598932,0.265215,0.22522044,-0.13052628,0.250349,0.22193623,-0.10462439,0.241677,0.22175424,-0.086769846,0.237751,0.25496407,-0.18192905,0.270159,0.25516601,-0.14059511,0.256364,0.25629713,-0.11982824,0.249305,0.25758888,-0.10040685,0.242889,0.28268534,-0.19808652,0.277401,0.29341981,-0.16420836,0.268514,0.29927674,-0.14921632,0.26443,0.3074165,-0.14210673,0.260827
0.24664927,-0.25044223,0.278527,0.23806683,-0.20538096,0.270372,0.22578794,-0.24399341,0.274141,0.1883804,-0.23093339,0.261682,0.1533051,-0.21092325,0.237346,0.13321974,-0.19218936,0.226816,0.20607045,-0.17595672,0.26071,0.18932166,-0.13141587,0.245572,0.18545071,-0.1151699,0.238003,0.18204238,-0.099712976,0.231122,0.23261202,-0.17627183,0.265315,0.22545407,-0.13084883,0.250486,0.22220795,-0.10514223,0.241835,0.22101996,-0.086963079,0.236805,0.25542723,-0.18219939,0.2701,0.25548071,-0.14087439,0.256342,0.25649433,-0.12006581,0.249303,0.25767373,-0.10060489,0.242904,0.28308821,-0.19834,0.27715,0.29396346,-0.16447511,0.268405,0.29966333,-0.14918239,0.264388,0.30743619,-0.1429473,0.260843
0.23231514,-0.23159059,0.256045,0.22795914,-0.19796466,0.257645,0.22209283,-0.23946089,0.251237,0.18210546,-0.21478294,0.239307,0.14827257,-0.2033643,0.230196,0.13354912,-0.19580635,0.229573,0.19668405,-0.18038324,0.251722,0.18511613,-0.14142877,0.244196,0.18512471,-0.12504826,0.240433,0.18630574,-0.10575917,0.237012,0.22367143,-0.18282714,0.25865,0.22555605,-0.14401942,0.252833,0.227513,-0.12064918,0.24944,0.22908954,-0.10318555,0.247016,0.2474576,-0.18883998,0.26417,0.25539667,-0.15219389,0.259432,0.2609181,-0.13395924,0.257008,0.2664563,-0.11627841,0.254804,0.27794105,-0.20267597,0.2701,0.29629587,-0.17163553,0.26999,0.30388413,-0.16462328,0.269939,0.31130153,-0.15777848,0.269895
0.25032161,-0.25948367,0.281228,0.24175669,-0.22002795,0.27305,0.2288818,-0.25289847,0.275961,0.20154982,-0.24708905,0.260606,0.16021445,-0.21910331,0.235901,0.14162203,-0.20247597,0.226514,0.20688729,-0.19002666,0.262206,0.18844906,-0.14562798,0.249113,0.18598447,-0.12820824,0.242566,0.18441817,-0.11226079,0.236614,0.23316518,-0.19007052,0.267933,0.22643119,-0.14435156,0.253446,0.22369111,-0.11850713,0.244995,0.2217796,-0.099844551,0.238958,0.25655695,-0.19535877,0.273621,0.25579434,-0.15318643,0.26004,0.25634176,-0.13227068,0.253092,0.25706078,-0.11275294,0.246776,0.28391254,-0.2091206,0.28168,0.29593008,-0.17826809,0.273277,0.30308894,-0.1646031,0.269417,0.31103846,-0.15023097,0.26601
0.25084481,-0.26111802,0.281153,0.2416044,-0.21988935,0.272878,0.22949316,-0.25476114,0.275763,0.20117628,-0.2466311,0.260123,0.16010442,-0.21895285,0.235739,0.14131504,-0.20203708,0.226023,0.2072581,-0.19046224,0.26182,0.18836975,-0.14611249,0.24918,0.18595101,-0.12904204,0.24286,0.18424217,-0.1132046,0.237115,0.23345272,-0.1901332,0.2677,0.22631696,-0.1442035,0.253196,0.22353096,-0.118384,0.244735,0.22158699,-0.099741733,0.238692,0.25654927,-0.19521252,0.273526,0.25558291,-0.15331141,0.259893,0.2559661,-0.13229679,0.252918,0.25652211,-0.11270775,0.246577,0.28399418,-0.20918073,0.281761,0.29596907,-0.17829158,0.273313,0.30303659,-0.16471175,0.269432,0.31078524,-0.150682,0.266007
0.25015572,-0.25976921,0.28131,0.24109103,-0.21867417,0.273288,0.22908651,-0.2551636,0.276176,0.1923961,-0.23723155,0.261132,0.15521365,-0.21323621,0.239207,0.13524829,-0.1949845,0.2299,0.2069883,-0.18698928,0.26268,0.18811584,-0.14219211,0.248673,0.18474175,-0.12739241,0.241669,0.18309855,-0.10863632,0.235302,0.23418762,-0.18940487,0.26815,0.22664128,-0.14321091,0.253424,0.22350737,-0.11719774,0.244834,0.22189203,-0.095262833,0.238699,0.25683488,-0.19443885,0.273588,0.25542561,-0.15226702,0.259814,0.25575011,-0.13125944,0.252766,0.25840959,-0.10758955,0.246359,0.28367023,-0.20832963,0.281326,0.29454082,-0.1762838,0.272612,0.30168581,-0.1634425,0.268608,0.30936135,-0.15016948,0.265075
0.24984075,-0.26022031,0.281053,0.24068546,-0.21813251,0.273114,0.22878573,-0.25545399,0.275914,0.19279621,-0.2373405,0.260649,0.15589483,-0.21312004,0.239029,0.13654261,-0.19453666,0.229375,0.20798335,-0.18920481,0.262581,0.18796026,-0.14412096,0.248952,0.18475426,-0.12722989,0.242138,0.18306318,-0.10906661,0.235943,0.23413918,-0.18896862,0.268107,0.22639294,-0.14273934,0.253465,0.22317433,-0.11673373,0.244924,0.22156066,-0.095397684,0.238823,0.25681126,-0.19410497,0.273584,0.25492965,-0.15163526,0.259832,0.25528608,-0.130752,0.252796,0.25582951,-0.11126118,0.2464,0.28381082,-0.20824559,0.281346,0.29454319,-0.17566588,0.272811,0.30181248,-0.16305589,0.26889,0.30953849,-0.15024544,0.26543
0.2488448,-0.25968831,0.279939,0.24070434,-0.21463374,0.272368,0.2280993,-0.25501802,0.275123,0.19279398,-0.23683574,0.260409,0.15588063,-0.2122393,0.238379,0.13673743,-0.19376121,0.228886,0.20727946,-0.18647959,0.262459,0.18738614,-0.1414358,0.248389,0.18355831,-0.12432447,0.241354,0.18180164,-0.10646922,0.234958,0.23345799,-0.18678109,0.267568,0.22541518,-0.13951559,0.253217,0.22176478,-0.11348331,0.244846,0.22116074,-0.095171194,0.238867,0.256026,-0.19297595,0.272646,0.25308183,-0.14817175,0.259201,0.25351383,-0.12758865,0.252323,0.25658779,-0.10840065,0.24607,0.28345013,-0.20739229,0.279877,0.2922558,-0.17184242,0.271617,0.29949752,-0.15964503,0.267822,0.30817653,-0.14946309,0.264473
0.24772432,-0.26007292,0.279209,0.23888729,-0.21105612,0.271325,0.22744958,-0.2544607,0.274899,0.19092859,-0.23517436,0.261128,0.15555128,-0.21213403,0.237792,0.13616062,-0.19344887,0.227564,0.20668943,-0.17924204,0.261985,0.18589213,-0.13802592,0.247006,0.18106565,-0.12104885,0.239517,0.17886021,-0.10441939,0.232708,0.23286084,-0.17917699,0.26631,0.22231395,-0.13555904,0.251642,0.21827796,-0.10935809,0.243086,0.21867433,-0.090169199,0.236975,0.2551995,-0.18462541,0.270769,0.25147595,-0.1424804,0.256953,0.24980783,-0.12279937,0.249884,0.25110815,-0.10567082,0.243458,0.2821554,-0.19995361,0.277349,0.29027201,-0.1657881,0.269144,0.29742714,-0.1548807,0.265374,0.30563769,-0.14713046,0.262048
0.24582618,-0.25783183,0.275315,0.23535525,-0.20819525,0.267455,0.22404871,-0.25152649,0.271107,0.18835695,-0.23268963,0.257152,0.15170567,-0.20915598,0.233249,0.13313007,-0.19099937,0.223283,0.20313668,-0.17625675,0.258264,0.18241563,-0.13258426,0.24356,0.17757112,-0.11537455,0.236207,0.17612835,-0.10037237,0.229523,0.22915165,-0.17627312,0.262455,0.21834197,-0.13080382,0.247994,0.21429925,-0.10434382,0.239559,0.21462844,-0.087180518,0.233533,0.24934569,-0.18281577,0.266801,0.24586303,-0.13876633,0.25312,0.24588092,-0.11760785,0.24612,0.24646221,-0.10011351,0.239756,0.27588172,-0.19730657,0.273248,0.28573661,-0.16224219,0.265519,0.29336765,-0.15259327,0.261967,0.30189868,-0.14412196,0.258834
0.24070256,-0.25297449,0.269948,0.22870384,-0.2016436,0.262036,0.21971186,-0.24583157,0.265848,0.18024461,-0.22155281,0.250962,0.14711677,-0.19782613,0.227658,0.13042313,-0.18264619,0.217733,0.19632444,-0.17220238,0.252947,0.17698921,-0.12693619,0.238276,0.1728403,-0.11168,0.23094,0.16855623,-0.095920554,0.224271,0.22205329,-0.17183459,0.256928,0.21351164,-0.12520309,0.242489,0.20974983,-0.09894688,0.234066,0.20704783,-0.081660225,0.22805,0.24397166,-0.17676521,0.261095,0.24066893,-0.1329317,0.247514,0.24071779,-0.11178802,0.240566,0.24092886,-0.093876709,0.234249,0.27047926,-0.19111668,0.267344,0.27992107,-0.15585573,0.259316,0.28777139,-0.14533255,0.255627,0.29479011,-0.13675846,0.252373
0.23863927,-0.25100671,0.267884,0.22482435,-0.19833296,0.258887,0.2176269,-0.24396421,0.263754,0.17999341,-0.22209248,0.248608,0.14596771,-0.19863554,0.224666,0.12625517,-0.17955972,0.212999,0.19247913,-0.1676126,0.249275,0.17186741,-0.12210581,0.233722,0.16621528,-0.10478257,0.225945,0.16108122,-0.088338438,0.218876,0.21796777,-0.16653816,0.253078,0.20807925,-0.11937494,0.237783,0.20407828,-0.093324223,0.228861,0.20343124,-0.077034819,0.224705,0.2398565,-0.17092827,0.257222,0.23564667,-0.1268542,0.242807,0.23520151,-0.10555139,0.235432,0.23512401,-0.087866537,0.228728,0.26667652,-0.18471797,0.263648,0.27500893,-0.14897418,0.254759,0.28245599,-0.13840342,0.250674,0.28977259,-0.12865565,0.247071
0.23900925,-0.25213986,0.270423,0.22533344,-0.19827053,0.259509,0.21709096,-0.24420952,0.265518,0.18007254,-0.22214021,0.248733,0.14586992,-0.19879491,0.2245,0.12572677,-0.17946351,0.212369,0.19132945,-0.1665975,0.247967,0.17094731,-0.12137564,0.232749,0.16517805,-0.10366707,0.22514,0.15992441,-0.086879605,0.218223,0.21721179,-0.16575114,0.25237,0.20846764,-0.11929151,0.238754,0.20534875,-0.093539832,0.230811,0.2034352,-0.076272681,0.225137,0.23969043,-0.17045102,0.257207,0.23385586,-0.12543933,0.241168,0.23253424,-0.10382401,0.232962,0.23164318,-0.085585022,0.225502,0.26766223,-0.18486675,0.264775,0.27465085,-0.14818455,0.254606,0.28147322,-0.13721209,0.249934,0.28819206,-0.12716671,0.245812
0.22999348,-0.24182787,0.261129,0.21432556,-0.18624538,0.246571,0.20778293,-0.23245725,0.254829,0.17500501,-0.2142433,0.23436,0.1379315,-0.190542,0.208544,0.11495861,-0.16977872,0.194105,0.17794938,-0.15284875,0.231535,0.15936689,-0.1103786,0.220448,0.15199894,-0.08996294,0.214904,0.1524715,-0.080578138,0.209864,0.2037091,-0.15181591,0.23714,0.19518766,-0.10583662,0.222966,0.19237321,-0.080114011,0.214697,0.19046647,-0.06123727,0.208792,0.22659635,-0.15659127,0.243384,0.22004987,-0.11207327,0.224649,0.21793938,-0.090267503,0.215063,0.22307432,-0.077222751,0.216124,0.25611743,-0.17147604,0.25325,0.26597793,-0.13902465,0.240913,0.27299448,-0.12851582,0.235245,0.27993632,-0.118833,0.230243
0.22768729,-0.23890853,0.258127,0.21337242,-0.18349009,0.243278,0.20561645,-0.22946914,0.251387,0.17342233,-0.21232416,0.230847,0.1356036,-0.18820464,0.205167,0.11306151,-0.16791305,0.19135,0.17638426,-0.15139266,0.227515,0.15467433,-0.10805069,0.214493,0.14774686,-0.088648718,0.207982,0.1455541,-0.075084836,0.202063,0.20240959,-0.15047132,0.233658,0.19221516,-0.10408804,0.219474,0.1888913,-0.078357212,0.2112,0.18691167,-0.059642314,0.20529,0.22548278,-0.15532751,0.240379,0.21628751,-0.10998528,0.220711,0.21348025,-0.088358455,0.210649,0.21239439,-0.068877612,0.202673,0.2550851,-0.17027157,0.250843,0.26276246,-0.13744604,0.237265,0.26869386,-0.12597346,0.231027,0.27486071,-0.11610982,0.225523
0.22436162,-0.23411457,0.253711,0.20943642,-0.17937837,0.238006,0.2033347,-0.22600765,0.247695,0.17046559,-0.20912853,0.227178,0.1341887,-0.18628061,0.200693,0.11527086,-0.16755016,0.183656,0.17314062,-0.14754419,0.222842,0.15124556,-0.10444374,0.208881,0.14525094,-0.086623513,0.2019,0.14095396,-0.071397615,0.195554,0.19814338,-0.14625692,0.227832,0.18949615,-0.100675,0.214148,0.18651705,-0.0753114,0.206166,0.18415987,-0.057432944,0.200465,0.22179255,-0.15105194,0.233697,0.20974103,-0.10511835,0.212388,0.20652621,-0.084679999,0.201485,0.20562321,-0.066340931,0.193179,0.25056967,-0.1657332,0.243347,0.2581565,-0.13737072,0.226518,0.26244221,-0.12752595,0.218785,0.26702472,-0.11852544,0.211963
0.22183648,-0.23057619,0.250178,0.20659504,-0.17714078,0.234261,0.20059021,-0.22293086,0.243471,0.16687644,-0.20631447,0.22211,0.13246914,-0.18489276,0.195308,0.11234895,-0.16514423,0.178577,0.17048939,-0.14482027,0.218065,0.14725697,-0.10013656,0.20144,0.1411043,-0.083134533,0.193127,0.13575935,-0.067189551,0.185571,0.19637555,-0.14433979,0.223948,0.18639399,-0.098765987,0.209358,0.18532826,-0.073428746,0.200847,0.18136606,-0.055222349,0.194768,0.21941118,-0.14957404,0.230573,0.20742465,-0.10388757,0.208924,0.20640594,-0.084417784,0.197847,0.20409215,-0.066092079,0.189793,0.249119,-0.16504533,0.24113,0.2560407,-0.13715146,0.223822,0.26020917,-0.12741026,0.21587,0.26467533,-0.1185253,0.208853
0.21935512,-0.2277518,0.246489,0.20417007,-0.17478141,0.229626,0.19881769,-0.22098348,0.239055,0.16360711,-0.20295339,0.216615,0.13496862,-0.18481713,0.189506,0.11256711,-0.16383194,0.172809,0.16616485,-0.14138933,0.212023,0.14382532,-0.099000606,0.195745,0.13818302,-0.08289572,0.187607,0.13219944,-0.066166838,0.180208,0.19290362,-0.1413029,0.218701,0.18364471,-0.096633556,0.202989,0.18098124,-0.072102476,0.193824,0.17791427,-0.053214684,0.187277,0.21689295,-0.14714019,0.226088,0.20345339,-0.10089033,0.203078,0.20191597,-0.083520718,0.191306,0.200271,-0.066748552,0.180604,0.24820084,-0.16350807,0.237692,0.2519172,-0.13616318,0.21772,0.25460318,-0.12636286,0.208543,0.25807151,-0.13016411,0.200447
0.22041027,-0.2279592,0.246152,0.20281772,-0.17352759,0.227254,0.19774469,-0.21977775,0.236806,0.16063075,-0.19858127,0.211768,0.13324044,-0.17864631,0.184647,0.12128096,-0.15844831,0.167413,0.16264018,-0.13877735,0.206153,0.14115825,-0.097119167,0.191139,0.13614411,-0.081620797,0.183633,0.13180082,-0.066785416,0.176809,0.19088126,-0.14017254,0.21501,0.18049854,-0.094649353,0.19998,0.1793782,-0.071759071,0.191212,0.17861978,-0.054381262,0.18495,0.21601941,-0.14641731,0.22442,0.20090898,-0.099754115,0.198841,0.19878104,-0.083193264,0.185754,0.19669752,-0.06771993,0.173857,0.25015583,-0.16448303,0.238714,0.24877703,-0.14376794,0.213689,0.24768631,-0.13371666,0.202191,0.24694258,-0.12903969,0.192046
0.22192818,-0.22954674,0.246978,0.20312409,-0.17378965,0.226683,0.19871193,-0.22099381,0.237104,0.16086766,-0.19842258,0.211155,0.13412553,-0.1781052,0.184129,0.12208842,-0.15849229,0.166909,0.16196932,-0.1379811,0.204241,0.14153397,-0.096748809,0.186946,0.13647161,-0.081433717,0.178298,0.13199576,-0.066668381,0.170437,0.19047633,-0.13978483,0.213534,0.17622239,-0.092616688,0.194934,0.17524409,-0.072614143,0.184085,0.17901647,-0.068751034,0.176335,0.21679326,-0.14713774,0.223457,0.1994916,-0.10022316,0.196217,0.19886023,-0.089789042,0.182281,0.19853085,-0.082163682,0.169611,0.25196928,-0.16584484,0.238602,0.24873156,-0.14286573,0.212513,0.24702881,-0.13190941,0.200526,0.24518386,-0.12814839,0.189949
0.22332178,-0.23075053,0.246668,0.20727354,-0.17881887,0.224779,0.19881093,-0.22140089,0.235996,0.16669432,-0.2017832,0.208851,0.1380439,-0.17717642,0.182279,0.12586287,-0.15820971,0.165398,0.16472155,-0.14333685,0.200545,0.14256694,-0.10157708,0.181512,0.13772031,-0.087180795,0.171996,0.13353805,-0.073408292,0.163345,0.19366546,-0.14538223,0.210597,0.17698677,-0.098129199,0.19104,0.17577425,-0.079727462,0.179631,0.17877036,-0.074296417,0.171482,0.2205962,-0.15308173,0.221325,0.20084917,-0.1067182,0.192272,0.19769193,-0.094004682,0.177407,0.19667361,-0.08673294,0.163894,0.25549788,-0.17008355,0.237688,0.25120587,-0.14730459,0.210381,0.24919269,-0.13604052,0.197835,0.24521081,-0.13062498,0.186765
0.22401037,-0.23210027,0.245914,0.20753739,-0.18254728,0.223021,0.19842701,-0.22177089,0.234825,0.17091808,-0.2061216,0.207035,0.15101717,-0.18466193,0.179848,0.14325969,-0.16622164,0.161983,0.16328768,-0.14350174,0.197773,0.14197027,-0.1036938,0.175181,0.13664703,-0.089806844,0.163885,0.13219318,-0.076885167,0.153616,0.19245461,-0.14602654,0.208189,0.17674992,-0.10068806,0.185174,0.17498177,-0.083253133,0.171749,0.17700574,-0.079030449,0.162159,0.21958403,-0.15414809,0.219328,0.19441297,-0.11076077,0.188311,0.18888627,-0.097744827,0.172442,0.18693337,-0.092821935,0.158016,0.25606313,-0.17407276,0.236349,0.24689458,-0.15368147,0.208315,0.24404265,-0.14691522,0.195435,0.24234892,-0.14619182,0.18407
0.22743531,-0.23655445,0.248098,0.20854769,-0.18690674,0.222949,0.20359945,-0.2299186,0.236644,0.17168881,-0.20919695,0.207998,0.15113604,-0.19195879,0.180849,0.14320705,-0.17521974,0.163011,0.16384883,-0.14679184,0.196199,0.14135921,-0.10376687,0.173909,0.13920629,-0.09766715,0.162764,0.13948309,-0.10289111,0.152632,0.19338074,-0.14973464,0.206655,0.17474155,-0.10132542,0.183461,0.17397243,-0.093894555,0.169931,0.17381375,-0.10049613,0.160267,0.2208978,-0.1583194,0.21808,0.19474737,-0.11629265,0.18528,0.18989304,-0.10973986,0.168499,0.18565605,-0.11321009,0.153243,0.25787699,-0.17898949,0.235852,0.24795577,-0.16070124,0.206321,0.24391954,-0.15501358,0.192752,0.24068416,-0.15508797,0.18078
0.22765608,-0.23848407,0.246498,0.21071881,-0.19087062,0.223179,0.20420885,-0.23336296,0.235884,0.17132344,-0.21121217,0.208449,0.15024311,-0.19220136,0.181525,0.14215392,-0.1760862,0.16389,0.16801996,-0.152069,0.198385,0.14418404,-0.10705071,0.174703,0.1418398,-0.10357956,0.162862,0.13954206,-0.10617263,0.152097,0.19789437,-0.15527164,0.208072,0.17582547,-0.10458874,0.183599,0.17522855,-0.10645745,0.169324,0.16907343,-0.11613622,0.159127,0.22760902,-0.16642213,0.218658,0.19832499,-0.11764633,0.187491,0.19392601,-0.11281065,0.171545,0.18886725,-0.11836593,0.157049,0.26398916,-0.18727491,0.235129,0.23694257,-0.15026361,0.206897,0.23358145,-0.1512598,0.193925,0.22700777,-0.15605431,0.18248
0.23023277,-0.24261358,0.248044,0.21141542,-0.19154536,0.223202,0.20498905,-0.23492489,0.236779,0.17116462,-0.21098339,0.208377,0.15109713,-0.1928963,0.181592,0.14364893,-0.17738935,0.163977,0.16754682,-0.15130736,0.196847,0.14559367,-0.10801103,0.173245,0.14149445,-0.10255292,0.161443,0.13899957,-0.10639551,0.150715,0.19949837,-0.1567074,0.207108,0.17672025,-0.10503057,0.1834,0.17647078,-0.10671236,0.169571,0.17049673,-0.11672278,0.159693,0.22799146,-0.16647078,0.218338,0.20336924,-0.12163676,0.185824,0.19795596,-0.12073401,0.169188,0.18829656,-0.12746162,0.154066,0.26546466,-0.18833203,0.235829,0.2374066,-0.15039413,0.206517,0.23342816,-0.15142385,0.19305,0.22567936,-0.15562819,0.181167
0.2367657,-0.25135289,0.253318,0.21324164,-0.19376374,0.224598,0.21095706,-0.24309407,0.243188,0.19911794,-0.21259473,0.215116,0.1752738,-0.18008958,0.190375,0.1658805,-0.16049387,0.182544,0.16949155,-0.15375909,0.198048,0.14670196,-0.10902195,0.173142,0.14242778,-0.10870351,0.160689,0.13570336,-0.11705733,0.149369,0.19873542,-0.15710523,0.20599,0.18229302,-0.10790269,0.18094,0.17589004,-0.11072323,0.166328,0.16594625,-0.11597693,0.15589,0.22619621,-0.16619966,0.215742,0.20015235,-0.11980147,0.180872,0.19134596,-0.1223095,0.163031,0.17563459,-0.12800518,0.146812,0.263277,-0.18777557,0.23228,0.23585785,-0.16584009,0.200786,0.2276716,-0.16828385,0.186316,0.21769833,-0.17009908,0.173548
0.23713143,-0.25300587,0.252969,0.21462729,-0.19549649,0.224663,0.21187668,-0.24389259,0.243962,0.20165043,-0.21576577,0.217118,0.17806103,-0.18435077,0.192646,0.16863728,-0.16492128,0.184614,0.17130486,-0.15561271,0.199821,0.14853159,-0.11244423,0.171092,0.14132017,-0.11430023,0.156728,0.13226535,-0.12119728,0.143669,0.19957491,-0.15817402,0.206325,0.183273,-0.10867716,0.181231,0.17669067,-0.11163987,0.166594,0.16564631,-0.12087898,0.156138,0.22690068,-0.16760434,0.214845,0.20282415,-0.1218197,0.180721,0.19204083,-0.1232538,0.163262,0.17660261,-0.1291766,0.14739,0.26502551,-0.19090695,0.229899,0.23418827,-0.16492726,0.198908,0.22603147,-0.16747671,0.184669,0.21617068,-0.16924842,0.172106
0.23841244,-0.2540519,0.253797,0.21650772,-0.19675664,0.226109,0.21108172,-0.24253755,0.242391,0.19997965,-0.2150971,0.213281,0.18390886,-0.19046841,0.186345,0.17278947,-0.16975824,0.173531,0.17045694,-0.15495217,0.19829,0.1603341,-0.11242664,0.176296,0.15854828,-0.11523379,0.165299,0.15091626,-0.1249321,0.155302,0.20166709,-0.15972365,0.20817,0.18508883,-0.10988924,0.182997,0.18064983,-0.11438247,0.168313,0.16913591,-0.12279993,0.157824,0.23102184,-0.16987274,0.219403,0.20766504,-0.12446021,0.184807,0.19871314,-0.12674027,0.167106,0.18641732,-0.13163034,0.151015,0.2703957,-0.19258469,0.237436,0.2447635,-0.1697163,0.206349,0.24082957,-0.17030232,0.192066,0.23057708,-0.17066274,0.179464
0.22394688,-0.23819363,0.236583,0.20879017,-0.18643875,0.21665,0.19708634,-0.22597011,0.22704,0.18894148,-0.1983824,0.210468,0.18510536,-0.17187795,0.183718,0.1868374,-0.15054126,0.170439,0.1684306,-0.13964574,0.194819,0.1418848,-0.1174566,0.167025,0.13113204,-0.12493447,0.153128,0.13608163,-0.136103,0.157205,0.19924848,-0.14726932,0.203736,0.1746909,-0.13278622,0.17709,0.15979306,-0.14416652,0.161547,0.1640823,-0.15181976,0.16637,0.22943048,-0.16015088,0.213309,0.19946992,-0.10701369,0.192117,0.19079613,-0.10312641,0.181275,0.18590295,-0.11369882,0.171418,0.27251753,-0.18818038,0.227987,0.23399925,-0.13032858,0.202214,0.22503119,-0.12535924,0.190372,0.21741235,-0.13235684,0.179924
0.21293359,-0.23016094,0.225902,0.20478659,-0.18059817,0.2162,0.19342167,-0.2234341,0.222147,0.18591466,-0.19468746,0.206532,0.18337582,-0.17048475,0.181563,0.19437532,-0.16601118,0.170381,0.1779538,-0.14618298,0.206781,0.16393538,-0.13128434,0.189997,0.15805433,-0.14754986,0.181604,0.16898691,-0.16872256,0.191714,0.20434305,-0.14983764,0.209915,0.19272525,-0.13385871,0.192915,0.17915056,-0.15298838,0.182998,0.1858098,-0.16835215,0.193153,0.22839133,-0.15851793,0.21358,0.20624399,-0.11024473,0.198772,0.20489219,-0.10902935,0.191195,0.20279227,-0.12426331,0.185671,0.26016491,-0.179213,0.219591,0.23687608,-0.1317058,0.205566,0.23524599,-0.13147779,0.199123,0.23375095,-0.14264249,0.193437
0.21237175,-0.23083651,0.225286,0.21063266,-0.18575328,0.221383,0.19218395,-0.22364671,0.221856,0.18725929,-0.19470211,0.208043,0.18940452,-0.17376761,0.187457,0.19502855,-0.16241221,0.171264,0.18301523,-0.14900336,0.214992,0.1754881,-0.13289708,0.202702,0.17352942,-0.14865559,0.196558,0.18318798,-0.17872778,0.208287,0.21171853,-0.15500786,0.218854,0.20714933,-0.1415493,0.207289,0.19652191,-0.1651039,0.200543,0.20396038,-0.18314963,0.212457,0.23615908,-0.16390432,0.222473,0.21677383,-0.11587666,0.210112,0.21627336,-0.1154595,0.203787,0.21652454,-0.13134601,0.198038,0.26449587,-0.18240852,0.227335,0.2456967,-0.13785762,0.215113,0.24629466,-0.13934587,0.209497,0.24616485,-0.15182651,0.204542
0.21238559,-0.2307692,0.224989,0.21265927,-0.18475961,0.221738,0.19116808,-0.22288718,0.221291,0.1862465,-0.19298425,0.207386,0.18674735,-0.17106116,0.185143,0.19117825,-0.15957447,0.168504,0.18302191,-0.14809461,0.215276,0.17565737,-0.13535395,0.203286,0.1738814,-0.15384384,0.197292,0.18497616,-0.1804313,0.20907,0.21097295,-0.15298934,0.219633,0.20540688,-0.12305367,0.208648,0.20246801,-0.14910712,0.20224,0.21199184,-0.1725466,0.214273,0.23528807,-0.16226213,0.223586,0.22433964,-0.12349148,0.211625,0.23015402,-0.1360275,0.205506,0.24189108,-0.16744136,0.21826,0.26520469,-0.18255618,0.228707,0.24688112,-0.1392572,0.216716,0.24666672,-0.14481182,0.211206,0.24755509,-0.15582151,0.206345
0.216821,-0.23604321,0.230305,0.21440354,-0.18565199,0.226071,0.19264439,-0.22447796,0.224248,0.18504088,-0.19052286,0.207312,0.18121102,-0.16585888,0.182082,0.18525073,-0.15314532,0.165212,0.18313077,-0.14796909,0.21597,0.17487441,-0.13301606,0.201654,0.17172698,-0.15140185,0.194495,0.18112184,-0.17587524,0.205002,0.21375967,-0.15500352,0.223327,0.21285168,-0.12756022,0.211178,0.20726619,-0.15064847,0.204092,0.21497234,-0.17486964,0.215238,0.23940217,-0.16542945,0.229862,0.22658338,-0.12400919,0.215887,0.2322794,-0.13791614,0.208737,0.24519612,-0.16718812,0.220257,0.26767407,-0.18893268,0.238114,0.25572602,-0.15674241,0.224584,0.26209933,-0.17044487,0.218368,0.26378002,-0.18285492,0.215008
0.21195428,-0.2320964,0.226616,0.2115807,-0.18278532,0.225325,0.18841796,-0.21933679,0.221674,0.18346433,-0.18844354,0.207029,0.17750001,-0.16168909,0.181068,0.18271428,-0.15078168,0.164286,0.18411227,-0.14741521,0.218051,0.17937725,-0.13567066,0.206699,0.17753966,-0.15337334,0.201023,0.18744417,-0.1768126,0.212688,0.21360905,-0.15422635,0.224488,0.21696101,-0.12962767,0.215238,0.2131617,-0.15324007,0.209842,0.22126013,-0.17858803,0.22205,0.23869984,-0.16491311,0.229937,0.22642076,-0.11857479,0.218993,0.23007071,-0.12153584,0.213393,0.24706853,-0.14912691,0.226133,0.26519698,-0.1864753,0.236394,0.25578582,-0.15578948,0.225464,0.25933115,-0.1683832,0.220442,0.27237552,-0.19020121,0.2299
0.21408389,-0.23353789,0.229192,0.21290537,-0.183476,0.227352,0.1897281,-0.22009424,0.224118,0.18857087,-0.19069757,0.214559,0.18379037,-0.16362044,0.189756,0.18750131,-0.15314623,0.172481,0.18517316,-0.14773164,0.219653,0.17992067,-0.13623496,0.207794,0.17765549,-0.15394306,0.201864,0.18703709,-0.17813404,0.213357,0.21476627,-0.15465615,0.226159,0.21750334,-0.1305918,0.21637,0.21221834,-0.15554203,0.21066,0.22054879,-0.1789894,0.2227,0.23937461,-0.16481323,0.231726,0.22720695,-0.1183741,0.220249,0.2286462,-0.12039943,0.214378,0.2464032,-0.1492928,0.226931,0.26663428,-0.18584355,0.238422,0.2564399,-0.1533292,0.227026,0.25814684,-0.16575672,0.22179,0.27275911,-0.18954801,0.231098
0.2126676,-0.23397848,0.230509,0.2129857,-0.18294755,0.229079,0.18925798,-0.21833743,0.225851,0.18916696,-0.19100064,0.216096,0.18431254,-0.16370748,0.191208,0.18803627,-0.15316106,0.173937,0.18653578,-0.14778285,0.222127,0.18180143,-0.13794783,0.210857,0.17992419,-0.15615018,0.205222,0.18978862,-0.18032087,0.216989,0.21564563,-0.15457433,0.228152,0.21748746,-0.13357312,0.218794,0.21169704,-0.15755402,0.213335,0.22218281,-0.18114463,0.22559,0.23916028,-0.16471937,0.233277,0.22877443,-0.1188862,0.222356,0.23043489,-0.12157669,0.216768,0.24809982,-0.15086302,0.229597,0.26695425,-0.18582314,0.239392,0.25642869,-0.1527211,0.228448,0.25883258,-0.16638729,0.223419,0.27369571,-0.19009528,0.232937
0.21402876,-0.23309334,0.232677,0.21377669,-0.1834511,0.231435,0.19152849,-0.22032865,0.228879,0.19029778,-0.19198499,0.217741,0.18485901,-0.1641879,0.192728,0.18861207,-0.15332264,0.175463,0.18803592,-0.148582,0.225733,0.18161617,-0.14038926,0.215193,0.18085734,-0.15853878,0.209922,0.19376851,-0.18400125,0.222098,0.21652917,-0.15529725,0.23063,0.21632158,-0.13526127,0.221544,0.21202828,-0.15947018,0.216244,0.22408789,-0.18341177,0.228761,0.24000272,-0.16514152,0.234804,0.22793236,-0.11822837,0.224483,0.22920676,-0.12211044,0.219203,0.24821402,-0.15245774,0.232419,0.26692686,-0.18518083,0.239798,0.2552879,-0.15185745,0.229296,0.25726914,-0.16496233,0.224471,0.27434634,-0.18717631,0.234273
0.2135938,-0.23343722,0.23379,0.21413623,-0.18402698,0.232156,0.19216574,-0.22089809,0.229953,0.19186159,-0.19388579,0.21986,0.18676128,-0.16617188,0.195289,0.19058719,-0.15501967,0.17795,0.18789797,-0.14933947,0.226227,0.18088437,-0.1412038,0.215361,0.1802049,-0.15913004,0.209929,0.19328464,-0.18378634,0.222006,0.2163936,-0.15565834,0.231098,0.21451646,-0.12506671,0.221633,0.20872386,-0.14484091,0.216112,0.21623887,-0.1707023,0.228524,0.23996635,-0.16537788,0.235294,0.24327326,-0.13754639,0.224622,0.23615132,-0.1530877,0.219161,0.24181203,-0.18365123,0.232268,0.26721971,-0.18536069,0.240388,0.25346574,-0.15314167,0.229573,0.25658749,-0.16497545,0.224604,0.27227748,-0.18821559,0.234316
0.21473667,-0.23461287,0.235432,0.21465621,-0.18482242,0.23315,0.19341901,-0.22233788,0.231819,0.19290036,-0.19541957,0.221506,0.18785197,-0.16761157,0.19705,0.19170388,-0.15618444,0.179625,0.18748933,-0.15035401,0.227235,0.17834936,-0.14320307,0.216035,0.17912398,-0.16022968,0.210435,0.19328696,-0.1830967,0.222462,0.21631295,-0.1560761,0.231672,0.21357691,-0.12514417,0.221617,0.20770805,-0.14434486,0.215752,0.21528273,-0.17074904,0.228051,0.23967828,-0.16547776,0.235582,0.24226068,-0.13745768,0.224481,0.23737529,-0.15006338,0.218801,0.24228222,-0.18323632,0.231831,0.26687362,-0.18517697,0.240473,0.25119329,-0.1526561,0.229246,0.25519532,-0.16454462,0.224088,0.27088253,-0.18749571,0.233723
0.21639502,-0.23608643,0.238598,0.21577174,-0.18604569,0.234686,0.19493081,-0.22373669,0.234794,0.19394518,-0.19682568,0.223033,0.18906296,-0.1690299,0.198767,0.19297778,-0.15741589,0.181296,0.18754034,-0.15097834,0.227785,0.17736924,-0.14294005,0.215225,0.17746133,-0.15941314,0.208945,0.19119054,-0.18157344,0.220531,0.21629834,-0.15642279,0.232152,0.21222114,-0.12455855,0.220529,0.20555767,-0.14292011,0.213749,0.21278511,-0.16903617,0.225585,0.23985854,-0.16582652,0.236188,0.24104318,-0.13692844,0.223618,0.23525592,-0.14907994,0.217187,0.2404014,-0.1815521,0.22973,0.26771305,-0.18580188,0.241528,0.2504671,-0.15253978,0.229,0.25370159,-0.16389052,0.223244,0.26894102,-0.18632578,0.23248
0.21938758,-0.23927018,0.242885,0.2183787,-0.18884733,0.237709,0.19825595,-0.22742204,0.23959,0.19539371,-0.20071949,0.225511,0.19169851,-0.17413249,0.202661,0.19592376,-0.15998826,0.185511,0.18868752,-0.15520407,0.230933,0.17901688,-0.14623792,0.217793,0.17818961,-0.16313777,0.211222,0.1920206,-0.18505862,0.222695,0.21565303,-0.15899931,0.234356,0.21537927,-0.13533686,0.221615,0.20717767,-0.15710864,0.214182,0.21729893,-0.1807127,0.225772,0.24129641,-0.16763707,0.237754,0.24068204,-0.14491133,0.22441,0.23058164,-0.16116023,0.217582,0.23726765,-0.18573823,0.229953,0.26877385,-0.18736566,0.242606,0.25051807,-0.15346974,0.229327,0.25239719,-0.16430748,0.223226,0.26924233,-0.18736058,0.232299
0.2203067,-0.24041967,0.244725,0.21909603,-0.18991119,0.23864,0.19916507,-0.22862333,0.241372,0.19643841,-0.20243445,0.226922,0.19301467,-0.17612017,0.204443,0.19736036,-0.16158892,0.187322,0.18910251,-0.15603964,0.23138,0.17872729,-0.14662554,0.217525,0.17758261,-0.16319174,0.210597,0.19042447,-0.18456261,0.221822,0.21599206,-0.15978558,0.234698,0.21428041,-0.13504079,0.221099,0.20538483,-0.15601742,0.213167,0.21363487,-0.17941276,0.224487,0.24139537,-0.16818159,0.238112,0.24022622,-0.14463689,0.223985,0.22970735,-0.16054916,0.216757,0.23543344,-0.1861305,0.228852,0.26918903,-0.18801134,0.243153,0.25013686,-0.15387726,0.229178,0.25162521,-0.1644517,0.222757,0.2680596,-0.18699201,0.231604
0.22099767,-0.24130813,0.245725,0.21919881,-0.1903942,0.239248,0.19966482,-0.2293446,0.242229,0.19679456,-0.20325971,0.22748,0.19334853,-0.17699138,0.205076,0.19765793,-0.16217646,0.187967,0.18933015,-0.15655642,0.231618,0.17855473,-0.14689873,0.217371,0.1772353,-0.16327804,0.210248,0.18926291,-0.18448119,0.221321,0.21633315,-0.16039523,0.235051,0.21385361,-0.13503322,0.221066,0.20465121,-0.15562093,0.212908,0.21259439,-0.17908634,0.22409,0.24122188,-0.16854884,0.238604,0.24032274,-0.14469501,0.224075,0.22958548,-0.16046398,0.216642,0.23480366,-0.18654352,0.228577,0.26944749,-0.18850501,0.243877,0.25038669,-0.15451221,0.229557,0.25169253,-0.16498102,0.222977,0.26705993,-0.18662828,0.231697
0.22218778,-0.24265379,0.246865,0.2194912,-0.1911912,0.239901,0.20063707,-0.23067685,0.243273,0.19690491,-0.20409207,0.228252,0.19305213,-0.17753496,0.205912,0.19755569,-0.16239332,0.188792,0.18960394,-0.15701765,0.231924,0.17842254,-0.14708555,0.21725,0.17691513,-0.16327208,0.209913,0.1888209,-0.1844857,0.220826,0.21665489,-0.16088903,0.235388,0.21344765,-0.13496275,0.220936,0.20394351,-0.15518976,0.212506,0.21158956,-0.1786307,0.223528,0.24103527,-0.16900574,0.239021,0.24028521,-0.14467241,0.22404,0.22930252,-0.16026622,0.216375,0.23414451,-0.18656467,0.228137,0.26970567,-0.18891399,0.244477,0.25048182,-0.15494534,0.229761,0.2515777,-0.16528313,0.223,0.26611389,-0.18641005,0.231581
0.22206947,-0.2436684,0.246933,0.21936712,-0.19557674,0.24071,0.20053371,-0.23181187,0.243381,0.19683208,-0.20626348,0.22865,0.1936497,-0.17851953,0.206909,0.19788434,-0.16279953,0.19006,0.18875969,-0.16505627,0.233119,0.17925546,-0.14802034,0.21902,0.17763728,-0.16250208,0.211971,0.19057976,-0.18597669,0.223089,0.21562117,-0.16895955,0.236678,0.21361409,-0.12711783,0.222922,0.2057434,-0.14411376,0.214897,0.21185195,-0.17533921,0.226142,0.23904301,-0.17755833,0.240306,0.2415901,-0.14695742,0.225956,0.23115142,-0.16265362,0.218614,0.23550949,-0.19130503,0.230606,0.26789109,-0.19710074,0.245617,0.25035814,-0.15859416,0.231463,0.2522856,-0.16727556,0.22496,0.26744291,-0.18825228,0.233728
0.20957691,-0.2309353,0.232986,0.2123435,-0.19021996,0.233415,0.19128963,-0.22222264,0.23214,0.19181888,-0.20091748,0.222965,0.18889758,-0.17126312,0.202845,0.19426742,-0.15790327,0.186749,0.18802612,-0.16427016,0.23246,0.18785476,-0.14396484,0.225327,0.18067872,-0.16160011,0.22176,0.18743752,-0.18573544,0.235292,0.21254639,-0.16648979,0.233693,0.21459669,-0.13184893,0.226657,0.21216966,-0.14895986,0.222553,0.22142809,-0.17698308,0.235966,0.23288879,-0.1729972,0.234661,0.24260188,-0.14842193,0.227403,0.23623785,-0.16664734,0.22369,0.24313221,-0.19810621,0.238204,0.25625796,-0.1886013,0.235684,0.2422225,-0.15599869,0.227634,0.2505933,-0.16637403,0.223936,0.26763168,-0.18904078,0.234713
0.22002608,-0.24380162,0.245094,0.22023247,-0.19790043,0.242484,0.19896621,-0.23239827,0.241904,0.20673242,-0.21641955,0.241609,0.20833441,-0.18871085,0.224367,0.21314256,-0.1718031,0.208604,0.19174822,-0.16711862,0.236996,0.1879313,-0.14403778,0.225847,0.17886384,-0.15991997,0.220272,0.18464685,-0.18264991,0.232387,0.21884742,-0.17131255,0.240794,0.21798203,-0.13385013,0.230484,0.2122287,-0.14947933,0.22447,0.22102264,-0.17695633,0.236772,0.24202494,-0.17986739,0.244214,0.24633588,-0.14555525,0.233065,0.23877762,-0.15800686,0.227361,0.24549945,-0.19589968,0.240454,0.2697216,-0.19878885,0.248608,0.25195318,-0.16253647,0.237292,0.25420623,-0.17146839,0.232092,0.27464561,-0.19505515,0.241762
0.2191801,-0.24432594,0.245136,0.21951259,-0.20203182,0.244851,0.19821519,-0.23291095,0.241925,0.20534243,-0.21552686,0.241497,0.20575225,-0.18661783,0.222408,0.21021522,-0.17056157,0.206148,0.19304864,-0.16892988,0.240372,0.19082725,-0.14693774,0.23097,0.18236489,-0.16360439,0.226268,0.18837171,-0.18702262,0.238873,0.22048665,-0.17358846,0.244666,0.22094951,-0.13570608,0.23657,0.21644136,-0.15034045,0.231847,0.22623889,-0.18106739,0.244723,0.24369513,-0.18234438,0.248236,0.24994611,-0.14897854,0.239038,0.24356247,-0.16214186,0.234333,0.24901923,-0.19208951,0.247988,0.27090604,-0.20114821,0.252361,0.25527527,-0.16581456,0.242808,0.25841473,-0.17519355,0.238419,0.2757991,-0.19966631,0.248563
0.21062545,-0.23569271,0.236228,0.21455589,-0.19916614,0.243158,0.1912395,-0.22579903,0.233989,0.20576479,-0.21570618,0.24393,0.20976188,-0.18927415,0.226542,0.21465381,-0.17418315,0.210908,0.19007013,-0.17142564,0.243218,0.19634761,-0.152766,0.240104,0.19139823,-0.1720743,0.238547,0.19910502,-0.19801288,0.25279,0.21684107,-0.17498466,0.247649,0.22471466,-0.14005106,0.246707,0.22703438,-0.15619009,0.246157,0.23873364,-0.18854332,0.260755,0.23866243,-0.18207985,0.250525,0.25341115,-0.15511281,0.248087,0.2521713,-0.17198285,0.246839,0.25940726,-0.20345846,0.262302,0.25903163,-0.194324,0.2525,0.25068761,-0.16532626,0.248969,0.25926579,-0.17499684,0.247347,0.27943915,-0.20218941,0.259001
0.22371712,-0.25165443,0.252124,0.22325665,-0.20780465,0.2544,0.20047083,-0.23799166,0.246373,0.2066265,-0.21886591,0.250215,0.20897247,-0.19056284,0.237418,0.21723211,-0.17757765,0.224359,0.19300602,-0.17401984,0.247621,0.19357292,-0.15117448,0.23851,0.18693268,-0.16775766,0.233954,0.1925332,-0.19142507,0.245857,0.22332666,-0.1804206,0.255875,0.22769068,-0.14268071,0.250034,0.22728308,-0.15785633,0.246626,0.23672891,-0.18779844,0.259343,0.24675356,-0.18949561,0.262421,0.25890019,-0.15964082,0.254168,0.25312153,-0.17641514,0.249945,0.25898796,-0.20453184,0.263044,0.27646547,-0.20858171,0.269459,0.26343123,-0.17417258,0.261071,0.26947541,-0.18292203,0.257216,0.28703011,-0.20797431,0.267036
0.22474792,-0.25280377,0.254361,0.22517595,-0.20899084,0.259721,0.20302441,-0.24307477,0.252246,0.21405038,-0.2221015,0.263066,0.21777706,-0.19856096,0.250059,0.22569636,-0.18511894,0.23619,0.20292918,-0.17717591,0.259246,0.2032166,-0.15831413,0.254981,0.1973919,-0.17676928,0.252849,0.20639805,-0.20345457,0.266897,0.22895016,-0.18266721,0.263193,0.23510771,-0.14862261,0.260719,0.23636306,-0.16630788,0.259275,0.2462817,-0.19631763,0.273601,0.25053949,-0.19052568,0.265846,0.26378393,-0.16455615,0.262098,0.26116278,-0.18269582,0.26018,0.26781291,-0.2135756,0.275403,0.27537338,-0.20605012,0.267862,0.26507115,-0.1745406,0.263125,0.27200889,-0.18465336,0.260949,0.28985562,-0.20890501,0.272385
0.23303716,-0.26283038,0.269139,0.23330472,-0.21348159,0.272713,0.21074135,-0.25003509,0.266082,0.21785638,-0.22828035,0.271869,0.21463717,-0.20202428,0.258405,0.2262642,-0.18916854,0.244643,0.20332477,-0.18334292,0.270164,0.20038235,-0.16509805,0.263843,0.1948044,-0.1835957,0.260682,0.20666319,-0.20685978,0.274069,0.23088777,-0.18599629,0.275028,0.23143708,-0.15920249,0.270683,0.22888618,-0.18192292,0.268149,0.23869226,-0.20880868,0.281916,0.25414985,-0.19267315,0.278636,0.26024543,-0.1678289,0.272831,0.25495115,-0.18624325,0.269861,0.26713347,-0.2164602,0.284405,0.2811519,-0.20823242,0.282078,0.26542719,-0.17766261,0.275581,0.26995524,-0.18800519,0.272595,0.2930271,-0.21307358,0.283493
0.23418104,-0.26366476,0.271833,0.23349096,-0.2146903,0.27524,0.21193704,-0.24992037,0.270252,0.21780809,-0.23140894,0.27884,0.21600272,-0.20532255,0.268874,0.22834883,-0.19492315,0.256469,0.20607314,-0.18614769,0.274618,0.20162986,-0.16665817,0.269218,0.1924629,-0.18254466,0.266518,0.20471731,-0.2094836,0.280418,0.23194941,-0.18754601,0.277448,0.22775128,-0.15330315,0.273148,0.22307137,-0.16889428,0.27064,0.23335375,-0.19833243,0.284654,0.25372409,-0.19319984,0.279398,0.25798474,-0.16710472,0.274254,0.24758106,-0.18241359,0.271622,0.26009688,-0.21465174,0.286623,0.2790171,-0.20760136,0.280981,0.26215907,-0.17627337,0.274918,0.26233803,-0.18422949,0.272132,0.28386484,-0.20920568,0.28335
0.21081696,-0.17056877,0.213974,0.20476758,-0.17420326,0.23623,0.18964845,-0.17145403,0.210895,0.16290974,-0.1713669,0.218294,0.14046604,-0.16925454,0.224241,0.13728131,-0.15772965,0.230612,0.17666974,-0.1772651,0.24199,0.16802212,-0.15290996,0.254627,0.18129504,-0.14676301,0.260945,0.20648042,-0.16447669,0.276664,0.20234542,-0.17731313,0.25065,0.19972646,-0.14975372,0.265546,0.21583421,-0.14219614,0.274235,0.24058858,-0.15969034,0.290009,0.22386868,-0.17677297,0.255298,0.22839362,-0.14622345,0.267132,0.2422524,-0.15327689,0.273187,0.26365955,-0.18325667,0.289567,0.24954663,-0.17511341,0.256405,0.24763372,-0.1548221,0.265707,0.25316514,-0.16943732,0.269981,0.27007401,-0.19384901,0.282595
0.17883471,-0.14466752,0.200607,0.20866528,-0.17885393,0.24036,0.16493995,-0.15210212,0.203049,0.17021675,-0.15108185,0.228079,0.16558135,-0.14054055,0.235588,0.17557595,-0.13713563,0.248334,0.20313736,-0.20659523,0.261414,0.21213327,-0.19133511,0.291471,0.21567967,-0.18111923,0.3065,0.21885324,-0.17884581,0.319506,0.22842974,-0.203663,0.266115,0.26258791,-0.24370347,0.303798,0.27283976,-0.23769367,0.32578,0.28090425,-0.23537471,0.340032,0.24619473,-0.19714662,0.265549,0.26090338,-0.18142519,0.298569,0.26789557,-0.17497879,0.315463,0.2797833,-0.18579515,0.329856,0.26102073,-0.18285684,0.257408,0.26307025,-0.17418799,0.286516,0.26251228,-0.16860272,0.29989,0.25957182,-0.16545781,0.31169
0.18466519,-0.14679568,0.205832,0.21391976,-0.18317682,0.246718,0.17046875,-0.1544223,0.208433,0.17250356,-0.15147598,0.230607,0.17029035,-0.14382706,0.242654,0.17979594,-0.14038033,0.255376,0.20717886,-0.21085314,0.268492,0.21746217,-0.19573881,0.300433,0.22160842,-0.18539514,0.316404,0.22234744,-0.17382717,0.327878,0.2328079,-0.20784963,0.273206,0.26269632,-0.24486275,0.314526,0.27387874,-0.24094852,0.33863,0.27540772,-0.23065016,0.345321,0.25083312,-0.20117015,0.272524,0.28690711,-0.23973145,0.311596,0.29725017,-0.23494866,0.331587,0.3049569,-0.23053519,0.345583,0.26596376,-0.18651645,0.264039,0.26973529,-0.17842947,0.295142,0.26983964,-0.17293741,0.309433,0.26772937,-0.16913955,0.322043
0.18539802,-0.14606851,0.211423,0.20799029,-0.18090189,0.252783,0.16437281,-0.14500773,0.216033,0.17194568,-0.14732187,0.241428,0.1725296,-0.14262658,0.253072,0.18515263,-0.1429955,0.267468,0.2032294,-0.21212694,0.277492,0.21823883,-0.19636972,0.311158,0.22524377,-0.18634146,0.327991,0.22819036,-0.17493884,0.340433,0.22785054,-0.20983439,0.27958,0.26092264,-0.25423676,0.31903,0.27405781,-0.25079196,0.342042,0.27424231,-0.2335473,0.345181,0.24462068,-0.20295257,0.27668,0.28567506,-0.25076188,0.316022,0.29809366,-0.24675344,0.33615,0.29986491,-0.2312142,0.341873,0.25758341,-0.18676866,0.265574,0.26737552,-0.17857526,0.297733,0.26578905,-0.17278271,0.312509,0.26769699,-0.16848589,0.325546
0.19202752,-0.1498824,0.22128,0.21455793,-0.18627305,0.262235,0.17160681,-0.1496081,0.224552,0.17652159,-0.15042623,0.248041,0.17593074,-0.14538372,0.259401,0.18743504,-0.14524827,0.273027,0.20689082,-0.21617482,0.284948,0.22052186,-0.19898741,0.317227,0.22686101,-0.18837014,0.333366,0.22993721,-0.17664728,0.345486,0.23067689,-0.21352693,0.288768,0.25933856,-0.25702359,0.327367,0.27071647,-0.25327718,0.349884,0.27413478,-0.23983743,0.352138,0.24863221,-0.20773695,0.287341,0.28549087,-0.25472783,0.326069,0.29660785,-0.25057418,0.345883,0.30033461,-0.23839603,0.349846,0.26370108,-0.19290048,0.277992,0.26881069,-0.18348296,0.30918,0.27003072,-0.17772534,0.323509,0.27160523,-0.17282534,0.336153
0.19885822,-0.14895388,0.229983,0.22406104,-0.19099474,0.271073,0.18145196,-0.15251609,0.232363,0.17892833,-0.14990876,0.249871,0.17570556,-0.14704896,0.26338,0.17931139,-0.14751486,0.276777,0.22164423,-0.2287157,0.292638,0.22431867,-0.21683932,0.325634,0.22617536,-0.20931688,0.342132,0.22882946,-0.19913414,0.351448,0.24367594,-0.22574402,0.297695,0.26330504,-0.26328294,0.334785,0.26570502,-0.26119132,0.356421,0.26324761,-0.24639835,0.358651,0.26053806,-0.21716023,0.297271,0.29016648,-0.2599793,0.335837,0.29548134,-0.25734163,0.355568,0.29334141,-0.24418134,0.359508,0.27396384,-0.19778506,0.289042,0.27724563,-0.1921082,0.321458,0.27750842,-0.18821623,0.336352,0.2823913,-0.18141114,0.349494
0.20361048,-0.15077572,0.240674,0.22498372,-0.19519885,0.280382,0.18744573,-0.1583951,0.240847,0.18016423,-0.16086507,0.254495,0.17148413,-0.18124908,0.267117,0.17314564,-0.20346819,0.279995,0.21746451,-0.23235277,0.29834,0.21233521,-0.22997215,0.328097,0.22240662,-0.22465348,0.342976,0.24023213,-0.232603,0.352435,0.24166234,-0.22617247,0.306108,0.26667666,-0.26886164,0.342927,0.26606795,-0.26813394,0.364405,0.26108571,-0.25632243,0.368259,0.25848404,-0.21588378,0.308073,0.2959109,-0.26311905,0.344139,0.29857054,-0.26091529,0.362592,0.29278553,-0.24710926,0.364661,0.27231623,-0.19553826,0.302829,0.26844616,-0.18994105,0.332617,0.26511029,-0.18610756,0.346304,0.26137225,-0.1820814,0.358381
0.1823273,-0.23165883,0.289873,0.22683117,-0.22653183,0.312333,0.18635275,-0.24058956,0.30442,0.1980604,-0.22394245,0.326408,0.20563912,-0.20461176,0.34136,0.21741622,-0.19177022,0.352026,0.25178455,-0.2368064,0.342075,0.24798713,-0.22078496,0.366806,0.24488842,-0.23672707,0.378359,0.24616722,-0.25419696,0.374798,0.25525133,-0.22352468,0.326885,0.25435443,-0.19784899,0.347517,0.24627595,-0.21605819,0.361559,0.24487052,-0.23350205,0.358504,0.25331724,-0.21307218,0.31186,0.27406393,-0.18840598,0.336001,0.26972877,-0.17963267,0.348353,0.26533832,-0.19243687,0.364316,0.242995,-0.20203897,0.290488,0.2314799,-0.18864537,0.310075,0.22000853,-0.19616385,0.319074,0.22183381,-0.21853646,0.331322
0.1900212,-0.2432487,0.306084,0.23150386,-0.23098595,0.320084,0.19494918,-0.24976673,0.319398,0.20499368,-0.22736842,0.335649,0.20904957,-0.20368205,0.342111,0.21340172,-0.18610718,0.342274,0.25793137,-0.23246521,0.344379,0.24584746,-0.21502612,0.360759,0.24324287,-0.23115576,0.374845,0.2449426,-0.25184341,0.374009,0.25745084,-0.22370447,0.329155,0.29683259,-0.20776392,0.340413,0.30049522,-0.1991219,0.359262,0.29015698,-0.20407663,0.366276,0.25460413,-0.21529263,0.315047,0.26857951,-0.1849879,0.330262,0.26070414,-0.17420664,0.338047,0.25560666,-0.18714653,0.353811,0.24032888,-0.20968086,0.296317,0.22349366,-0.19050489,0.307737,0.21053205,-0.19413286,0.312984,0.21468997,-0.21451568,0.324887
0.19033319,-0.24640025,0.311408,0.23103021,-0.23187351,0.325397,0.19815089,-0.25458858,0.327617,0.21189344,-0.23593506,0.349479,0.21828187,-0.21364172,0.359374,0.22792477,-0.19858939,0.365551,0.26020965,-0.23372631,0.353611,0.25047574,-0.21548843,0.373835,0.24268445,-0.2314256,0.383468,0.24542361,-0.25108982,0.379572,0.25537573,-0.22096464,0.33446,0.30145614,-0.21192572,0.348028,0.30134234,-0.19948162,0.361992,0.29085673,-0.20357649,0.369281,0.24666515,-0.21202094,0.317118,0.24245648,-0.18651671,0.335773,0.2269967,-0.19506555,0.345318,0.21528374,-0.21136418,0.358199,0.22868521,-0.20452444,0.294701,0.21050197,-0.19078425,0.309326,0.20156984,-0.1840039,0.316046,0.19301713,-0.19509272,0.325784
0.20137325,-0.26136321,0.329891,0.2384158,-0.23947854,0.337687,0.20930682,-0.26759295,0.346406,0.23077782,-0.25251471,0.368586,0.25193499,-0.24270498,0.387519,0.26844172,-0.23965142,0.395758,0.26641293,-0.23773548,0.363552,0.27309753,-0.20813989,0.379741,0.26225144,-0.20688614,0.389272,0.24929373,-0.21598463,0.387854,0.25987882,-0.22394269,0.342738,0.27302747,-0.18747733,0.350914,0.25776642,-0.18737648,0.361211,0.24707795,-0.20065219,0.362183,0.25043397,-0.21496802,0.324717,0.22237365,-0.20047089,0.338768,0.20470761,-0.21123621,0.345957,0.19424751,-0.23154935,0.356484,0.23280873,-0.20884134,0.302694,0.21071803,-0.19299449,0.313234,0.19690606,-0.18678283,0.318076,0.19111282,-0.19662149,0.325913
0.20078198,-0.26583165,0.335956,0.22857132,-0.24023588,0.342161,0.2108049,-0.27252444,0.352516,0.22290922,-0.25593031,0.373782,0.24376719,-0.24542179,0.392005,0.26001582,-0.2417791,0.399393,0.25784804,-0.23759977,0.367375,0.2648105,-0.20965918,0.382556,0.25305314,-0.20809975,0.391576,0.23988981,-0.21734781,0.390361,0.25041647,-0.22362818,0.346181,0.26449234,-0.18859167,0.353023,0.2481596,-0.18812733,0.362659,0.23745209,-0.20162115,0.363986,0.24056771,-0.21494075,0.328024,0.21297852,-0.20168817,0.340929,0.19596464,-0.21543676,0.347532,0.18928362,-0.23896716,0.357327,0.22305129,-0.20987632,0.306146,0.19949576,-0.19422907,0.315686,0.18764975,-0.187897,0.320069,0.17945858,-0.19881587,0.327324
0.2017695,-0.27184053,0.350767,0.23431986,-0.24382772,0.350139,0.21331048,-0.27732036,0.367113,0.23242127,-0.24872895,0.385336,0.25635419,-0.23168748,0.400922,0.27084839,-0.21947164,0.406231,0.27076078,-0.23984064,0.372015,0.30640626,-0.21841867,0.379901,0.29819801,-0.20840318,0.386723,0.28231624,-0.21471113,0.389731,0.26131851,-0.22758581,0.349733,0.2730065,-0.18904045,0.350824,0.26183022,-0.17028529,0.351461,0.24814042,-0.16663092,0.355515,0.24626626,-0.22316355,0.331443,0.22350833,-0.19935548,0.339237,0.20523883,-0.21041279,0.343224,0.19310107,-0.22779661,0.349688,0.22430882,-0.22011651,0.3107,0.20154187,-0.19522546,0.315824,0.18845805,-0.19401568,0.318179,0.17701648,-0.19871583,0.322798
0.20837523,-0.27806972,0.363876,0.24069664,-0.24731954,0.358594,0.2173393,-0.27162267,0.378955,0.23813976,-0.251119,0.393265,0.26044066,-0.23189851,0.405414,0.27319705,-0.21878775,0.408417,0.27459547,-0.23475135,0.376674,0.30819924,-0.21168764,0.381154,0.30030848,-0.20234941,0.388442,0.28497767,-0.2130861,0.392804,0.26507871,-0.22989647,0.355171,0.27189347,-0.18639152,0.350923,0.25530079,-0.16500247,0.348445,0.24350119,-0.16424832,0.352432,0.25177565,-0.22584215,0.338044,0.22500186,-0.19902262,0.340509,0.20558031,-0.20917463,0.341769,0.19375946,-0.22627372,0.348126,0.23138445,-0.22556892,0.319505,0.20519672,-0.19773374,0.319802,0.19021555,-0.19471255,0.319938,0.17846008,-0.20026566,0.324374
0.20972267,-0.27828542,0.367192,0.24259896,-0.24771914,0.360897,0.21963723,-0.27285045,0.382176,0.24088127,-0.25204256,0.39671,0.26670381,-0.23602559,0.409012,0.2815033,-0.22270241,0.412219,0.27585154,-0.23582516,0.378397,0.30905716,-0.2122769,0.382215,0.30078704,-0.20267187,0.389061,0.28516834,-0.21201561,0.392867,0.26615797,-0.23035228,0.356819,0.27213096,-0.18645034,0.351726,0.25552793,-0.16514927,0.348755,0.24252486,-0.16383795,0.352226,0.25324098,-0.22639068,0.339742,0.22593776,-0.19902313,0.341431,0.20607826,-0.20859958,0.342295,0.19070287,-0.22218747,0.348104,0.23303262,-0.22668326,0.321452,0.20990079,-0.19804414,0.321088,0.19303718,-0.19309544,0.32092,0.18144867,-0.19917991,0.324927
0.20789064,-0.27458516,0.364718,0.24384773,-0.24566394,0.362261,0.21850312,-0.2710201,0.3804,0.24151656,-0.2500003,0.397349,0.2666785,-0.23855265,0.411688,0.2819584,-0.22573212,0.416447,0.27769508,-0.23807634,0.38242,0.30636811,-0.21184197,0.390608,0.29890688,-0.20148595,0.398053,0.28476864,-0.20617606,0.404117,0.26786009,-0.22988479,0.360669,0.27957004,-0.19021437,0.359339,0.26845987,-0.16705501,0.358562,0.25594101,-0.16275559,0.36311,0.25573852,-0.22558006,0.343022,0.2311397,-0.19962544,0.348337,0.21289482,-0.21157157,0.351056,0.2005077,-0.22940736,0.358025,0.23542483,-0.21984996,0.323357,0.21434162,-0.19299421,0.32619,0.19832211,-0.19342453,0.327491,0.18600179,-0.20344834,0.332446
0.20821009,-0.27373336,0.367423,0.2453828,-0.24663614,0.364384,0.22026413,-0.27273568,0.38298,0.24374238,-0.25160823,0.399557,0.26857682,-0.24061833,0.413485,0.28414131,-0.22796406,0.417995,0.27832297,-0.2387233,0.384113,0.30665478,-0.21161465,0.391734,0.29736649,-0.19884876,0.395544,0.2843778,-0.20246082,0.402889,0.26886118,-0.23052561,0.362416,0.28523902,-0.19165544,0.360473,0.27694018,-0.16916722,0.35934,0.26574408,-0.16316562,0.363791,0.25713586,-0.22631295,0.344877,0.2318831,-0.2003938,0.349593,0.21352737,-0.21343509,0.352006,0.20260668,-0.23177489,0.358871,0.23706993,-0.2259496,0.325445,0.21491265,-0.1989099,0.327744,0.1978068,-0.19719926,0.328799,0.18602838,-0.20502256,0.333663
0.29439044,-0.30363473,0.415431,0.29727876,-0.25312792,0.401163,0.2814041,-0.2942306,0.418695,0.26970159,-0.26746943,0.415923,0.24839152,-0.23478157,0.403547,0.24411403,-0.21439547,0.398787,0.28163814,-0.21933616,0.399219,0.27259076,-0.17623498,0.384128,0.26807167,-0.15459288,0.376583,0.26577566,-0.1365929,0.372906,0.29870013,-0.2217926,0.391919,0.2899883,-0.17410672,0.372628,0.28399907,-0.14785696,0.361375,0.28797949,-0.14909301,0.369746,0.31235733,-0.22905708,0.387498,0.28731839,-0.22438896,0.36664,0.26978291,-0.23518838,0.355969,0.27654804,-0.24352502,0.36449,0.32768989,-0.24637395,0.385145,0.29614363,-0.24125416,0.36877,0.29672473,-0.26099164,0.382719,0.30845429,-0.27024576,0.39389
0.29298025,-0.30218026,0.413441,0.29682746,-0.25274365,0.400554,0.28039864,-0.29317932,0.417199,0.26924509,-0.26701671,0.415219,0.24802406,-0.23443424,0.40295,0.24362738,-0.21396806,0.397992,0.28211575,-0.21970811,0.399896,0.27394687,-0.17711173,0.386039,0.26987052,-0.15563025,0.37911,0.26570867,-0.13655847,0.372812,0.2989181,-0.22195445,0.392205,0.29128016,-0.17488234,0.374288,0.28593313,-0.14886388,0.363836,0.27756227,-0.1436998,0.356371,0.31220417,-0.22894477,0.387308,0.28765615,-0.22465273,0.367071,0.27034981,-0.23568259,0.356717,0.27732953,-0.24421319,0.36552,0.32684417,-0.2457381,0.384151,0.29633235,-0.2414079,0.369005,0.29704803,-0.26127601,0.383136,0.30849892,-0.27028487,0.393947
0.29517761,-0.30458904,0.413508,0.29379916,-0.26491731,0.412067,0.27735019,-0.29379723,0.411361,0.25670901,-0.26967774,0.399934,0.24032386,-0.26252087,0.408859,0.23475259,-0.24631009,0.411025,0.26467464,-0.23838262,0.408515,0.24923272,-0.2025881,0.399097,0.24227365,-0.18810773,0.394388,0.23981907,-0.18927213,0.390108,0.29022782,-0.23719561,0.411134,0.28218578,-0.1939394,0.402123,0.28050385,-0.16996513,0.401212,0.2793237,-0.15436407,0.400561,0.31211895,-0.24093371,0.413454,0.30599096,-0.19817932,0.404591,0.30299056,-0.1772956,0.400056,0.31432959,-0.17659729,0.413989,0.33863683,-0.25335075,0.41637,0.34017533,-0.21351248,0.409321,0.34064639,-0.20171161,0.406083,0.35042066,-0.21067513,0.417063
0.30092967,-0.31059637,0.420035,0.29292218,-0.26412655,0.410837,0.28074585,-0.29931824,0.415739,0.25621862,-0.26916257,0.39917,0.23703517,-0.25892842,0.403264,0.22838781,-0.23963196,0.399881,0.2597474,-0.23394484,0.40091,0.23991905,-0.19501751,0.384183,0.23086727,-0.17925151,0.37582,0.22636157,-0.17865108,0.368217,0.28581158,-0.23358633,0.404878,0.27246036,-0.18725536,0.388264,0.26821504,-0.162519,0.383635,0.2652153,-0.14656727,0.380329,0.30888871,-0.23844019,0.409175,0.29711355,-0.19242973,0.392853,0.29121118,-0.17040287,0.384503,0.30037951,-0.16875983,0.395616,0.33818138,-0.25301,0.41581,0.33436281,-0.20986423,0.402327,0.33229891,-0.1967687,0.396132,0.34027512,-0.20457557,0.404988
0.29694183,-0.30382262,0.410906,0.29455133,-0.25838608,0.405355,0.27974919,-0.30007255,0.407652,0.25613751,-0.30167733,0.393496,0.23111683,-0.30053439,0.399951,0.21361446,-0.29880145,0.398274,0.25897315,-0.23286307,0.398466,0.2380971,-0.19171374,0.386342,0.22771861,-0.17402667,0.380279,0.22170163,-0.16702794,0.374768,0.2844153,-0.23137847,0.401758,0.27343843,-0.18692378,0.389717,0.26858618,-0.16175615,0.384938,0.26512672,-0.1448574,0.381525,0.30673571,-0.23502728,0.405091,0.29824111,-0.19174358,0.393832,0.29397798,-0.17025209,0.388071,0.3048792,-0.1694901,0.40107,0.33707571,-0.24402317,0.409939,0.33506311,-0.20408954,0.402452,0.33573525,-0.19184439,0.399012,0.34817199,-0.19211805,0.409772
0.2975852,-0.30274399,0.409468,0.29382142,-0.25791183,0.404431,0.27976405,-0.29817691,0.405412,0.25631587,-0.30188739,0.39377,0.23258056,-0.30243775,0.402484,0.21578346,-0.30183542,0.402318,0.25822229,-0.23199565,0.396686,0.23700812,-0.1908369,0.384575,0.22666529,-0.1732217,0.37852,0.22066461,-0.16624666,0.373015,0.28440306,-0.23083357,0.401168,0.27352425,-0.18647931,0.389869,0.26885486,-0.16142303,0.38571,0.26551227,-0.14424048,0.382739,0.30745501,-0.23470016,0.405423,0.29902909,-0.19153745,0.394615,0.29477926,-0.16982765,0.389086,0.30584001,-0.16912235,0.402097,0.33813396,-0.24478928,0.411226,0.33627531,-0.2048279,0.403908,0.33702598,-0.19258194,0.400546,0.34941591,-0.19280444,0.411236
0.29857848,-0.3025283,0.409191,0.29366279,-0.25789086,0.40427,0.28037334,-0.29769295,0.404954,0.25619675,-0.3017471,0.393587,0.23261465,-0.30248211,0.402543,0.21591379,-0.30201773,0.402561,0.25823567,-0.23189208,0.396331,0.23680105,-0.19067017,0.384239,0.2264695,-0.17307206,0.378193,0.2204759,-0.16610448,0.372696,0.28458626,-0.23066056,0.401082,0.27357137,-0.18620916,0.389954,0.26903299,-0.16123261,0.386198,0.26577666,-0.14388841,0.383515,0.30782996,-0.23445852,0.405546,0.29929735,-0.19128036,0.394814,0.29497829,-0.16940847,0.389323,0.30611939,-0.16873514,0.402322,0.33841353,-0.24499167,0.411566,0.33655255,-0.20499677,0.404241,0.33730365,-0.1927406,0.400876,0.34966827,-0.19294368,0.411533
