sluyters/QuantumLeap/backend/src/datasets/gesture/HandGestureDataset_SHREC2017_csv/Gesture12/finger_1/subject_22_essai_4_skeletons_world.csv
Wrist_x,Wrist_y,Wrist_z,Palm_x,Palm_y,Palm_z,thumb_base_x,thumb_base_y,thumb_base_z,thumb_first_joint_x,thumb_first_joint_y,thumb_first_joint_z,thumb_second_joint_x,thumb_second_joint_y,thumb_second_joint_z,thumb_tip_x,thumb_tip_y,thumb_tip_z,index_base_x,index_base_y,index_base_z,index_first_joint_x,index_first_joint_y,index_first_joint_z,index_second_joint_x,index_second_joint_y,index_second_joint_z,index_tip_x,index_tip_y,index_tip_z,middle_base_x,middle_base_y,middle_base_z,middle_first_joint_x,middle_first_joint_y,middle_first_joint_z,middle_second_joint_x,middle_second_joint_y,middle_second_joint_z,middle_tip_x,middle_tip_y,middle_tip_z,ring_base_x,ring_base_y,ring_base_z,ring_first_joint_x,ring_first_joint_y,ring_first_joint_z,ring_second_joint_x,ring_second_joint_y,ring_second_joint_z,ring_tip_x,ring_tip_y,ring_tip_z,pinky_base_x,pinky_base_y,pinky_base_z,pinky_first_joint_x,pinky_first_joint_y,pinky_first_joint_z,pinky_second_joint_x,pinky_second_joint_y,pinky_second_joint_z,pinky_tip_x,pinky_tip_y,pinky_tip_z,
0.354423159,-0.245499491,0.471112,0.354843766,-0.202595557,0.469369,0.33342726,-0.236805669,0.467121,0.334216112,-0.199597379,0.452509,0.310511885,-0.170336318,0.443414,0.308913276,-0.147818959,0.432681,0.326498269,-0.173255551,0.463087,0.320740498,-0.133939773,0.453263,0.317877124,-0.113830647,0.448352,0.324651495,-0.0980988441,0.457077,0.354778634,-0.171790461,0.468227,0.355934412,-0.148941073,0.458981,0.351884203,-0.164626167,0.453588,0.359954829,-0.183936276,0.465598,0.378329413,-0.177896314,0.47267,0.381338516,-0.157879086,0.462246,0.379669238,-0.161207277,0.456912,0.385855607,-0.185763228,0.469745,0.406382019,-0.192841025,0.478056,0.400968549,-0.180050237,0.467591,0.398180514,-0.171996132,0.462783,0.396871763,-0.164209609,0.459029
0.355973145,-0.244727544,0.47061,0.353308946,-0.20012279,0.465389,0.334258724,-0.235766533,0.465765,0.331965452,-0.199682533,0.448776,0.305923289,-0.169431093,0.436516,0.301015276,-0.150659349,0.423872,0.323957072,-0.167396249,0.45633,0.316309058,-0.12690499,0.443288,0.312497053,-0.106393721,0.436767,0.317662507,-0.090025098,0.442861,0.351984624,-0.169607419,0.46197,0.356469779,-0.146012266,0.449827,0.351172857,-0.1655201,0.442743,0.354848516,-0.185824259,0.453778,0.375982547,-0.176331296,0.467237,0.380063992,-0.159160729,0.453713,0.377175974,-0.163819636,0.446794,0.379092993,-0.18473918,0.458479,0.405006328,-0.192370758,0.474248,0.39970738,-0.180785866,0.460972,0.396853498,-0.174841723,0.455217,0.394565858,-0.16949547,0.450296
0.356907195,-0.248974596,0.472935,0.35644234,-0.208451063,0.463217,0.33663245,-0.238338751,0.467374,0.331980959,-0.214040171,0.447879,0.304305799,-0.183004075,0.433498,0.303634728,-0.15985202,0.427581,0.322361607,-0.176311174,0.4511,0.312678955,-0.134909004,0.434164,0.30784222,-0.114142054,0.425696,0.312907393,-0.0981900241,0.431028,0.350486571,-0.178884729,0.456854,0.349614302,-0.155387548,0.440444,0.342173494,-0.173839206,0.430871,0.34683676,-0.195414108,0.440419,0.374860621,-0.186269829,0.462748,0.373426748,-0.168744599,0.445097,0.368636756,-0.173288191,0.436067,0.371712366,-0.19701873,0.44614,0.40485602,-0.20370093,0.471363,0.394719714,-0.191014266,0.454665,0.390189168,-0.185020563,0.446993,0.386329371,-0.179660397,0.440293
0.359638655,-0.246346909,0.468924,0.356265278,-0.208058924,0.461588,0.340603366,-0.24101051,0.461497,0.331922672,-0.216013732,0.440697,0.298179357,-0.186925749,0.422558,0.293629611,-0.165628228,0.411817,0.320298233,-0.176165778,0.448009,0.309963233,-0.135255623,0.431582,0.30516232,-0.114977271,0.423368,0.309591184,-0.0992116654,0.428046,0.350265923,-0.179012385,0.456785,0.35433349,-0.162124124,0.44216,0.349626663,-0.182454955,0.433629,0.355787334,-0.204492108,0.44321,0.376291906,-0.186558087,0.464887,0.377397382,-0.179973999,0.448036,0.375854522,-0.185994814,0.439414,0.380399,-0.2104289,0.449231,0.405982033,-0.203752703,0.475533,0.403829964,-0.188766915,0.45999,0.396487079,-0.187618818,0.452849,0.385155861,-0.196723454,0.447964
0.36230601,-0.261647691,0.469443,0.356931205,-0.218332576,0.461055,0.342809602,-0.249391451,0.461667,0.331460975,-0.226288103,0.440084,0.298465146,-0.197566812,0.422963,0.293784334,-0.176229363,0.412034,0.319374558,-0.186607282,0.446512,0.307275324,-0.145630063,0.429043,0.30194717,-0.12569709,0.420309,0.306142915,-0.110653147,0.424901,0.349160643,-0.188682863,0.455563,0.35251358,-0.171820369,0.439889,0.34730135,-0.191679398,0.430745,0.353118989,-0.213533762,0.439886,0.375286417,-0.195690408,0.464017,0.376756226,-0.185181113,0.446157,0.374720486,-0.186933697,0.43702,0.379373838,-0.211037627,0.44636,0.407774478,-0.212716116,0.475272,0.402864263,-0.198910421,0.45889,0.396358247,-0.197978476,0.451362,0.383068286,-0.206443543,0.445536
0.361579691,-0.269930894,0.464747,0.349954982,-0.229894491,0.457316,0.338453201,-0.261804978,0.458354,0.327973777,-0.245421105,0.438701,0.30001635,-0.217354004,0.426563,0.294831566,-0.196534462,0.414099,0.315369844,-0.197749386,0.445113,0.307235721,-0.162188152,0.429564,0.303302924,-0.144074552,0.42179,0.305899418,-0.129816703,0.423203,0.344877392,-0.200086595,0.452451,0.337740465,-0.1635403,0.43771,0.337137946,-0.177951952,0.429111,0.347735532,-0.198839747,0.438994,0.370412145,-0.207363485,0.45938,0.368900266,-0.191823633,0.442909,0.360297618,-0.205968169,0.434482,0.36206174,-0.227893425,0.444783,0.40151211,-0.224833045,0.468714,0.395576607,-0.208031373,0.453382,0.387300638,-0.215451754,0.446337,0.378536639,-0.227404684,0.441609
0.356958821,-0.286766973,0.463666,0.349277747,-0.249714199,0.456431,0.333925984,-0.28842915,0.457561,0.327686698,-0.266380836,0.438317,0.299691409,-0.238285512,0.426101,0.294438551,-0.217539293,0.413547,0.315086437,-0.217415874,0.444713,0.307375191,-0.182635094,0.429759,0.303656713,-0.164919606,0.422282,0.306260105,-0.15135546,0.423702,0.344300374,-0.219716642,0.451694,0.337308364,-0.184045537,0.43715,0.336788325,-0.198756561,0.428666,0.34484868,-0.220191642,0.43869,0.369545339,-0.226994488,0.458305,0.368248936,-0.212699613,0.442127,0.359773527,-0.227014786,0.43385,0.361697874,-0.249056511,0.444336,0.400249445,-0.244501178,0.46724,0.394484235,-0.228731829,0.45213,0.386303614,-0.236421089,0.445188,0.38800672,-0.255042064,0.452657
0.355912538,-0.306539876,0.464533,0.347271148,-0.266170196,0.454849,0.331203357,-0.305500918,0.457514,0.340180376,-0.276234913,0.451632,0.308179425,-0.243752804,0.434629,0.296786948,-0.226117786,0.434126,0.31329711,-0.231201782,0.440745,0.303823994,-0.193924834,0.423085,0.299635134,-0.176017485,0.414255,0.301765285,-0.162613893,0.414317,0.342722898,-0.234932606,0.448508,0.338006587,-0.199385722,0.43169,0.336733235,-0.214050709,0.421879,0.342956961,-0.235210569,0.430921,0.367964423,-0.243615545,0.456053,0.368856513,-0.231673765,0.437468,0.358436782,-0.246274256,0.427959,0.357712435,-0.266704623,0.437312,0.398391295,-0.263045169,0.466535,0.394878998,-0.250540815,0.449428,0.384925512,-0.258073785,0.441569,0.383149407,-0.275246461,0.448169
0.352752481,-0.322973421,0.462921,0.345169142,-0.282351969,0.453626,0.329008593,-0.321489292,0.455007,0.338166638,-0.292321146,0.448988,0.306771282,-0.260388763,0.432869,0.293609451,-0.242699305,0.43127,0.310273527,-0.246882659,0.438476,0.301434234,-0.210770176,0.420598,0.297738935,-0.193715421,0.411659,0.299877909,-0.181192793,0.410979,0.340354537,-0.251003096,0.44754,0.336811235,-0.215916693,0.43104,0.336520431,-0.230713762,0.421414,0.342830768,-0.252214815,0.430248,0.36621084,-0.260027725,0.456113,0.367703621,-0.252399433,0.437456,0.358223309,-0.267260423,0.427911,0.357461204,-0.287497574,0.436919,0.397431905,-0.279883745,0.467682,0.399608142,-0.264092437,0.45062,0.387601556,-0.272275051,0.442781,0.383457957,-0.28641756,0.449149
0.352755223,-0.337088258,0.463214,0.345274148,-0.292599424,0.453764,0.329276858,-0.326911438,0.455378,0.338278108,-0.303008926,0.449136,0.306389296,-0.270452579,0.43233,0.293454909,-0.252922034,0.431043,0.310396653,-0.256963162,0.43865,0.301414167,-0.220919778,0.42057,0.297645634,-0.203948729,0.41153,0.299932634,-0.191846651,0.411054,0.340383436,-0.261046432,0.447578,0.336733096,-0.226211265,0.43094,0.336376691,-0.241047292,0.421234,0.342676184,-0.262608582,0.430054,0.366165075,-0.270073749,0.456056,0.36757838,-0.262864143,0.437307,0.358058391,-0.27764959,0.427714,0.357298394,-0.297865537,0.43672,0.397318882,-0.289986185,0.467549,0.399410387,-0.274496893,0.450397,0.38736958,-0.28269293,0.442516,0.383226592,-0.296837603,0.448878
0.354403689,-0.354286794,0.467612,0.345918328,-0.312038897,0.455605,0.329054782,-0.35175633,0.458878,0.338379241,-0.324652973,0.450711,0.309515009,-0.290979656,0.433499,0.29679365,-0.270800536,0.429627,0.31093268,-0.274390036,0.438078,0.30220777,-0.240081419,0.41774,0.298539046,-0.224234936,0.407571,0.300531259,-0.213319322,0.405398,0.341418699,-0.279544531,0.447744,0.338056021,-0.24727758,0.428793,0.335538187,-0.262683477,0.417738,0.339838845,-0.282783083,0.425444,0.3675714,-0.289637184,0.457134,0.367390146,-0.285848373,0.435954,0.355619167,-0.299751023,0.425117,0.352814487,-0.317347347,0.432851,0.3990197,-0.311064416,0.470169,0.400294941,-0.298552462,0.451011,0.386753455,-0.306490533,0.442208,0.381063715,-0.31876834,0.447598
0.353392375,-0.373643859,0.468501,0.346137751,-0.331857492,0.455894,0.329697291,-0.372338337,0.459774,0.338704323,-0.345366425,0.451144,0.309754197,-0.31133887,0.433834,0.296942175,-0.290977407,0.429842,0.310946875,-0.293677379,0.438098,0.301956014,-0.259485988,0.417392,0.298149364,-0.24378296,0.407039,0.300142064,-0.23348027,0.404873,0.341338633,-0.298843772,0.447639,0.337550663,-0.266863115,0.428152,0.334772712,-0.282041623,0.416785,0.338931424,-0.302006569,0.424308,0.367461241,-0.309032899,0.456997,0.366871869,-0.305687277,0.435339,0.354900596,-0.319162126,0.424258,0.351962714,-0.33645705,0.431806,0.398973023,-0.330715055,0.470114,0.399876017,-0.318518153,0.450539,0.387233334,-0.325981453,0.441546,0.381508778,-0.339688992,0.446787
0.371176895,-0.393812182,0.48005,0.360077696,-0.34455459,0.466327,0.354712609,-0.387881221,0.47087,0.339499067,-0.357131661,0.454571,0.312298535,-0.329177417,0.440055,0.294212745,-0.309621117,0.433878,0.316877446,-0.313287555,0.447393,0.312193869,-0.299682497,0.425224,0.306367421,-0.310916345,0.41414,0.307200624,-0.322183911,0.420142,0.347145947,-0.312355565,0.457342,0.331159191,-0.26509327,0.436863,0.331297614,-0.268998447,0.424917,0.342804137,-0.289025483,0.431894,0.375185059,-0.316614885,0.467167,0.373656755,-0.318850154,0.444442,0.365244895,-0.329860546,0.432815,0.364975237,-0.338197396,0.439734,0.40935016,-0.335556787,0.481036,0.395287561,-0.337531043,0.460593,0.378748492,-0.345374381,0.4512,0.375397955,-0.352566604,0.455964
0.43291414,-0.424347385,0.514504,0.386717827,-0.374537541,0.483378,0.409717551,-0.425927401,0.508293,0.395184006,-0.409306083,0.48732,0.349134497,-0.390222346,0.462999,0.321162439,-0.375589155,0.451979,0.335026575,-0.354153069,0.460487,0.305719299,-0.320514049,0.428554,0.29999606,-0.321264174,0.412588,0.307793856,-0.336287195,0.412974,0.356952837,-0.342506004,0.462999,0.315009493,-0.294089513,0.428345,0.299552254,-0.2816062,0.40813,0.307405401,-0.295411354,0.408538,0.38065,-0.338514595,0.468758,0.350901746,-0.299411499,0.434479,0.345464649,-0.305209928,0.416941,0.348111464,-0.319594837,0.417365,0.417153166,-0.343493846,0.48147,0.397561599,-0.347310692,0.451029,0.384296254,-0.352878038,0.437043,0.379049319,-0.35955168,0.436704
0.432849563,-0.427830163,0.515666,0.386327819,-0.378232296,0.48437,0.409786583,-0.429699361,0.509421,0.39461427,-0.415713264,0.488092,0.348891928,-0.397455009,0.463692,0.321174013,-0.379724864,0.452578,0.333628828,-0.361760016,0.461354,0.303217035,-0.32575972,0.429336,0.299065311,-0.32357677,0.413327,0.307102974,-0.338577571,0.413618,0.355075127,-0.349476501,0.46388,0.312808255,-0.301384767,0.429095,0.297775814,-0.288892071,0.408804,0.306970711,-0.299166987,0.409107,0.37839498,-0.34490832,0.469671,0.348729494,-0.30588866,0.435278,0.344019701,-0.311193175,0.417682,0.348616746,-0.321288204,0.417994,0.414500927,-0.349115039,0.482452,0.397250217,-0.350303897,0.451909,0.384275233,-0.355791531,0.437875,0.37902338,-0.362406365,0.437449
0.434943598,-0.431940601,0.518953,0.38554706,-0.38300899,0.485617,0.411284989,-0.433401319,0.511999,0.394949253,-0.418142812,0.488315,0.349767075,-0.399798702,0.463252,0.320901017,-0.384596843,0.450754,0.332546767,-0.362233229,0.460687,0.301035662,-0.325165094,0.427209,0.294904303,-0.324051184,0.410471,0.303162697,-0.336302096,0.409348,0.354340571,-0.350335472,0.463792,0.315149216,-0.304778308,0.434435,0.301652362,-0.293407799,0.417311,0.314012807,-0.3078712,0.42128,0.378192901,-0.346229514,0.470302,0.34720734,-0.306128039,0.434376,0.34191695,-0.310756417,0.415995,0.345599084,-0.319797262,0.414765,0.415354102,-0.35122019,0.484304,0.392280051,-0.358095039,0.452467,0.377979614,-0.362500416,0.437839,0.374558852,-0.364703056,0.436228
0.433658446,-0.431682767,0.517815,0.384779686,-0.38286349,0.484993,0.410068667,-0.433200566,0.510826,0.394068854,-0.417942741,0.487165,0.349193722,-0.399697194,0.461969,0.320561266,-0.384714213,0.449633,0.33194841,-0.362352844,0.460251,0.300606385,-0.325574212,0.427107,0.294309211,-0.324045051,0.410535,0.30282288,-0.337096541,0.409729,0.353777094,-0.350513188,0.463504,0.314663678,-0.305003728,0.434742,0.301146776,-0.293505454,0.417964,0.312181281,-0.309658528,0.422266,0.377630442,-0.346393339,0.470076,0.34592241,-0.304946898,0.434503,0.338066098,-0.306012448,0.416304,0.34440214,-0.320660864,0.41542,0.414729847,-0.35127161,0.484045,0.392128667,-0.358056701,0.452455,0.378307722,-0.362685978,0.437941,0.37423424,-0.366268571,0.436582
0.43297308,-0.43129396,0.516917,0.383920257,-0.382781019,0.48435,0.409709276,-0.433165455,0.510294,0.393603794,-0.418528576,0.486996,0.349173435,-0.402382591,0.462068,0.320300664,-0.386120743,0.449992,0.33133337,-0.362973782,0.460228,0.297822325,-0.328281721,0.427256,0.287788837,-0.327983448,0.410769,0.29982048,-0.340375538,0.410199,0.352689259,-0.350805507,0.463028,0.313047365,-0.307413734,0.438347,0.294168998,-0.294737088,0.423949,0.304375483,-0.311198366,0.430425,0.376192812,-0.346347367,0.469196,0.336335325,-0.302354531,0.433816,0.330497949,-0.305580105,0.415714,0.339404551,-0.320542616,0.415091,0.412963636,-0.350727826,0.482656,0.390147946,-0.357959627,0.451317,0.376568678,-0.362681676,0.436918,0.371357484,-0.367835904,0.435784
0.397535769,-0.422366611,0.513835,0.361278739,-0.36981321,0.481375,0.369114033,-0.412180866,0.511048,0.341766423,-0.392445892,0.493743,0.313541895,-0.36891789,0.476577,0.302494804,-0.354378646,0.462426,0.322012497,-0.332487129,0.462568,0.288500242,-0.326984445,0.432842,0.27132974,-0.325698416,0.41798,0.265676877,-0.342962202,0.418553,0.343225099,-0.335737375,0.460123,0.314194846,-0.287532989,0.430681,0.291770257,-0.283386704,0.413507,0.292195281,-0.301958665,0.41724,0.364456273,-0.344700583,0.461956,0.333026737,-0.295025286,0.428963,0.313292352,-0.29977161,0.412083,0.3132418,-0.316759022,0.412384,0.394736506,-0.365582629,0.470478,0.347994442,-0.36881439,0.440798,0.329130798,-0.364895297,0.427161,0.33047703,-0.360495397,0.426641
0.389697081,-0.420807082,0.519321,0.352694143,-0.359715482,0.481827,0.368032914,-0.409764568,0.514573,0.333824137,-0.383953947,0.493528,0.301994431,-0.359349217,0.472133,0.288811613,-0.343335391,0.455158,0.308268101,-0.321821214,0.458004,0.273853575,-0.314925751,0.424108,0.256482261,-0.312772658,0.40716,0.253203376,-0.328846176,0.403834,0.330811923,-0.324347727,0.457279,0.300438048,-0.27477659,0.42706,0.278569359,-0.269412997,0.409433,0.276623975,-0.287462374,0.412869,0.353938678,-0.332911743,0.461126,0.317570413,-0.28239361,0.424027,0.29811607,-0.286419208,0.405046,0.296544967,-0.299767167,0.401176,0.387780299,-0.353740173,0.472931,0.341364662,-0.357121517,0.440089,0.322473655,-0.352799314,0.425,0.321259738,-0.345619623,0.421362
0.359961543,-0.3889394,0.518997,0.331783526,-0.342820724,0.481404,0.346504032,-0.374565785,0.518285,0.320541472,-0.366957365,0.499408,0.297084036,-0.35742762,0.486221,0.283175049,-0.344857529,0.470636,0.300614899,-0.302479133,0.463073,0.267765615,-0.269998935,0.430021,0.251186684,-0.253923183,0.413495,0.238214962,-0.242699123,0.403044,0.313353691,-0.312782558,0.456792,0.289651095,-0.263143806,0.421336,0.260672981,-0.251488318,0.400654,0.247603094,-0.26290639,0.398663,0.327462368,-0.326955286,0.456071,0.303544753,-0.277356653,0.422125,0.275786346,-0.275565341,0.404757,0.264387566,-0.288287677,0.400941,0.349442529,-0.352586468,0.462714,0.295083786,-0.345166729,0.432161,0.280142612,-0.334877921,0.418123,0.273576685,-0.332155345,0.414142
0.363588306,-0.394369807,0.519022,0.335388555,-0.345704986,0.482555,0.352913266,-0.380361492,0.520107,0.325573922,-0.369827603,0.503778,0.301985904,-0.361856809,0.492105,0.2879429,-0.350505418,0.477807,0.312776554,-0.304642528,0.467209,0.274638364,-0.272754473,0.437212,0.255589457,-0.256824125,0.422213,0.241310908,-0.245638429,0.411052,0.316956067,-0.31408492,0.458679,0.294611927,-0.263383683,0.425023,0.262583511,-0.257326972,0.40539,0.255036726,-0.269622313,0.403896,0.327860829,-0.327630664,0.455972,0.30282125,-0.278619508,0.423831,0.271266043,-0.277792906,0.407387,0.263001681,-0.289910856,0.403525,0.346199361,-0.353106331,0.460138,0.292314041,-0.345002006,0.431285,0.282048434,-0.336620688,0.418028,0.286448625,-0.337453744,0.414368
0.348347518,-0.384862501,0.511245,0.315368064,-0.334937311,0.473972,0.337624981,-0.37162944,0.512971,0.30099988,-0.361454759,0.497409,0.274094543,-0.349126268,0.486912,0.257632205,-0.335131143,0.473299,0.290148206,-0.292934233,0.459135,0.250775896,-0.25807633,0.431656,0.231110157,-0.240814534,0.417917,0.215078212,-0.227854976,0.409507,0.2980092,-0.3014867,0.449569,0.256978678,-0.260502194,0.41373,0.227484217,-0.264006809,0.392824,0.217746853,-0.272970239,0.386839,0.307857592,-0.314829003,0.446104,0.277947751,-0.264937252,0.415028,0.250541974,-0.266225826,0.39913,0.245139361,-0.279142936,0.39503,0.324678835,-0.340671323,0.44957,0.27189222,-0.333920075,0.421226,0.266250386,-0.328207279,0.408203,0.266017958,-0.327814299,0.403351
0.333454066,-0.375034438,0.506314,0.297280814,-0.321722498,0.469965,0.320037181,-0.354000754,0.509371,0.288349727,-0.349206832,0.495229,0.262183339,-0.34504546,0.489213,0.24431726,-0.333080474,0.476443,0.271853147,-0.28311174,0.45738,0.232518775,-0.248542899,0.43184,0.212370299,-0.231926347,0.41907,0.195543923,-0.218459031,0.410457,0.277013628,-0.292080908,0.446166,0.2379442,-0.253249539,0.411767,0.208485032,-0.256084727,0.391702,0.199646959,-0.263811318,0.385438,0.285046633,-0.304989532,0.441233,0.258949956,-0.258239491,0.411781,0.231180009,-0.258831633,0.396712,0.224526665,-0.270280303,0.392125,0.300500654,-0.328922266,0.442851,0.249411618,-0.317882256,0.416104,0.25409105,-0.313228101,0.417558,0.272906473,-0.315485144,0.427535
0.330331168,-0.360439945,0.503534,0.293489355,-0.313253919,0.468399,0.323029346,-0.348586152,0.508126,0.290997626,-0.343231114,0.496276,0.263340029,-0.345807507,0.49406,0.240196902,-0.331096841,0.482874,0.265009316,-0.278190247,0.458481,0.2249068,-0.244284381,0.435559,0.204765968,-0.227627753,0.424097,0.187265659,-0.213374351,0.415296,0.266958627,-0.285617602,0.445395,0.225032838,-0.245580693,0.413093,0.197138543,-0.249482166,0.39425,0.190933503,-0.25730185,0.387155,0.273469351,-0.296902588,0.438775,0.241761918,-0.251442444,0.411548,0.21520914,-0.253562498,0.397618,0.211130173,-0.264412092,0.391565,0.289119015,-0.318391512,0.438239,0.246434859,-0.314603333,0.413765,0.251135206,-0.311250063,0.413845,0.260344739,-0.31763188,0.42249
0.332568948,-0.349792684,0.500825,0.290525255,-0.303853287,0.466582,0.325761269,-0.338894173,0.506209,0.288754838,-0.333753582,0.49367,0.25990605,-0.334828578,0.493304,0.238665757,-0.326697608,0.48224,0.262096988,-0.270163983,0.458162,0.222217217,-0.23815516,0.438107,0.20212531,-0.222400699,0.42808,0.183893954,-0.208101713,0.418964,0.263014102,-0.276493688,0.444162,0.220075659,-0.237298727,0.413179,0.193414997,-0.242492825,0.395106,0.187913058,-0.250594421,0.387662,0.268838941,-0.286805391,0.436683,0.236239709,-0.242256947,0.411011,0.210562004,-0.245490014,0.397877,0.207941514,-0.257452851,0.392757,0.28399926,-0.30708689,0.434995,0.241914827,-0.304205425,0.41188,0.247836889,-0.30306009,0.411281,0.257897277,-0.308289966,0.419184
0.332779411,-0.345787546,0.499871,0.290663337,-0.300665964,0.466919,0.326618605,-0.335661815,0.506132,0.290679414,-0.328255438,0.494547,0.261195749,-0.332858882,0.495188,0.238553752,-0.320995686,0.484705,0.262558363,-0.265068097,0.460299,0.222245819,-0.234037743,0.441829,0.201980852,-0.218799818,0.432594,0.184892436,-0.207819872,0.424199,0.262038949,-0.270048787,0.445344,0.217917426,-0.231367724,0.415725,0.192515145,-0.237798187,0.398447,0.18889683,-0.249842381,0.391388,0.266861979,-0.279216931,0.436926,0.233224731,-0.235284872,0.412855,0.208457496,-0.239566639,0.400539,0.208244851,-0.255836886,0.395743,0.28121067,-0.298165467,0.433916,0.241446606,-0.297733906,0.412117,0.248345425,-0.297261448,0.411626,0.258390795,-0.305401395,0.419108
0.333477369,-0.343611507,0.500298,0.29121873,-0.295938166,0.467823,0.328075672,-0.33072366,0.506913,0.29071924,-0.32717668,0.496408,0.261673589,-0.329660564,0.498223,0.238490708,-0.318504572,0.488415,0.263613808,-0.264158347,0.46191,0.223498471,-0.233120762,0.443774,0.202544464,-0.218896186,0.434706,0.183171641,-0.206662137,0.426463,0.262891542,-0.26870033,0.446561,0.216813687,-0.232602825,0.417703,0.193223389,-0.240149197,0.400869,0.190230658,-0.250582438,0.393492,0.267498309,-0.27749491,0.437762,0.23433092,-0.233752865,0.414405,0.20971715,-0.238332716,0.402455,0.208227477,-0.251304179,0.397724,0.281512409,-0.295996908,0.434225,0.241480278,-0.296805325,0.413198,0.247583996,-0.296459888,0.412187,0.257441703,-0.301822255,0.419196
0.278539236,-0.338866038,0.488826,0.260841846,-0.28170992,0.459104,0.277247872,-0.330153149,0.497047,0.244812711,-0.311814899,0.496236,0.245795161,-0.28612377,0.495744,0.232660135,-0.265655849,0.489155,0.251251519,-0.245402317,0.456666,0.210585743,-0.216678023,0.439793,0.190253938,-0.202316448,0.431356,0.168808397,-0.196256096,0.423686,0.249277717,-0.245362136,0.439645,0.194712633,-0.24278711,0.413643,0.193794304,-0.251892992,0.398475,0.205823047,-0.248914504,0.391899,0.249834563,-0.251978381,0.42914,0.197650248,-0.236335238,0.406407,0.18757607,-0.24564154,0.394776,0.200561265,-0.247959527,0.388422,0.254198043,-0.270984704,0.423123,0.207702886,-0.267497966,0.40479,0.21131986,-0.277546022,0.403997,0.228255847,-0.284379945,0.410142
0.288448983,-0.343626128,0.500845,0.269849619,-0.284435174,0.47049,0.281297825,-0.335235635,0.506534,0.255167679,-0.303327473,0.498973,0.24373831,-0.27559234,0.492974,0.243108216,-0.257114533,0.487482,0.248980559,-0.246359111,0.464284,0.211684361,-0.215228385,0.441524,0.190800321,-0.200774906,0.430144,0.169972238,-0.19319484,0.419799,0.259841036,-0.242764035,0.450615,0.213656369,-0.24451273,0.41699,0.20779759,-0.251813614,0.397375,0.216849268,-0.249612173,0.394196,0.271053016,-0.246490947,0.442949,0.226392805,-0.249627969,0.412265,0.219910984,-0.257105983,0.396566,0.229608368,-0.255999556,0.393822,0.287933304,-0.262201874,0.440277,0.256591262,-0.235805171,0.413897,0.250184367,-0.252681604,0.41897,0.258854997,-0.268655307,0.430222
0.296322217,-0.347763354,0.510749,0.278320952,-0.285248329,0.477381,0.283804857,-0.336792503,0.511112,0.265465406,-0.315647224,0.496871,0.236502713,-0.283385063,0.480926,0.222410496,-0.257750957,0.469155,0.248509435,-0.247343024,0.462476,0.214543963,-0.212343075,0.434967,0.196189551,-0.197450703,0.421213,0.179446382,-0.183871606,0.408709,0.26710975,-0.250020961,0.455534,0.231903532,-0.224863594,0.419057,0.211732173,-0.23468947,0.39778,0.212041676,-0.244264117,0.395916,0.284463099,-0.25710153,0.453768,0.247187224,-0.254007049,0.421923,0.233438681,-0.263079275,0.40563,0.236821178,-0.265555706,0.404835,0.308514935,-0.276178529,0.458388,0.270046823,-0.28162235,0.430092,0.279536021,-0.297436137,0.436876,0.292167111,-0.315957372,0.449465
0.300921013,-0.347331565,0.51202,0.291715676,-0.286863265,0.478714,0.286514436,-0.336026075,0.511046,0.276221579,-0.315061505,0.495949,0.246284228,-0.281825911,0.47828,0.2312413,-0.255505584,0.465068,0.259165188,-0.249023273,0.462004,0.224077922,-0.211545385,0.433333,0.205509251,-0.196411916,0.418997,0.188605069,-0.182637125,0.405965,0.278366898,-0.250775633,0.456909,0.244028275,-0.226388595,0.421899,0.223839927,-0.236870103,0.401476,0.224359703,-0.247115704,0.400538,0.296793042,-0.258738416,0.456657,0.258817624,-0.263493103,0.424407,0.246540406,-0.270489251,0.407907,0.251911479,-0.271452997,0.40757,0.32226384,-0.278946411,0.462982,0.282900372,-0.284101406,0.433878,0.292737495,-0.300369132,0.441184,0.305856626,-0.319328081,0.45426
0.332187921,-0.345616183,0.510638,0.304425746,-0.281303401,0.479639,0.300741486,-0.334268458,0.509097,0.275965642,-0.313155422,0.491785,0.24616666,-0.288586337,0.471705,0.227255664,-0.264062111,0.457388,0.269952886,-0.245715599,0.463216,0.235407338,-0.216234782,0.435273,0.220827484,-0.204380827,0.426712,0.207276411,-0.19341268,0.418929,0.289701281,-0.243058123,0.459344,0.25227277,-0.219993003,0.424737,0.233772514,-0.22829013,0.40455,0.236430128,-0.242828881,0.404948,0.308984759,-0.247670243,0.459827,0.27463797,-0.232250642,0.428582,0.260166769,-0.242586394,0.412596,0.264952012,-0.249402119,0.413915,0.33633889,-0.26474549,0.466528,0.297652782,-0.263913868,0.438229,0.304127364,-0.285292065,0.446937,0.314885802,-0.307729355,0.460273
0.336606482,-0.347162701,0.508747,0.314131716,-0.281858772,0.478565,0.323231206,-0.334922953,0.507944,0.28775422,-0.313884515,0.489268,0.256078287,-0.289152448,0.469466,0.237623616,-0.265542669,0.456386,0.279964915,-0.247053036,0.463532,0.245935177,-0.218482332,0.436645,0.230922653,-0.206381305,0.42717,0.21701904,-0.195220497,0.418557,0.299273435,-0.243948611,0.458805,0.262230423,-0.221680245,0.424761,0.243831815,-0.230325146,0.404901,0.246623189,-0.244970225,0.405633,0.31815329,-0.248134091,0.458487,0.284681032,-0.233799096,0.428275,0.270190453,-0.244354103,0.412817,0.27501304,-0.251231013,0.414649,0.344985504,-0.264576186,0.464116,0.306973975,-0.262695641,0.436641,0.311836576,-0.284608378,0.445605,0.316866883,-0.307381507,0.458751
0.344721397,-0.343771531,0.509431,0.335502982,-0.282006014,0.478815,0.331338068,-0.332318876,0.507514,0.308891557,-0.312527019,0.487152,0.276578444,-0.286971483,0.465925,0.257913294,-0.263378232,0.452666,0.299406991,-0.24626316,0.46205,0.264895555,-0.217164368,0.434011,0.25019451,-0.205077804,0.424472,0.23659995,-0.193934596,0.4158,0.319753214,-0.243930001,0.45877,0.283309147,-0.221993903,0.425362,0.264766989,-0.230879199,0.405875,0.267399709,-0.245689495,0.406824,0.339764155,-0.248787863,0.459695,0.305899326,-0.233888079,0.428438,0.290114398,-0.24413391,0.412445,0.294067153,-0.250842638,0.414008,0.368300943,-0.266118211,0.466821,0.329583763,-0.263826702,0.438521,0.334921977,-0.285802749,0.447475,0.343912845,-0.30951165,0.460907
0.368274861,-0.341157574,0.50581,0.35515682,-0.280778018,0.47673,0.359904606,-0.333937796,0.504376,0.329777269,-0.311115633,0.484952,0.297957588,-0.285961378,0.464285,0.279399648,-0.262682354,0.45147,0.31925218,-0.245884212,0.461339,0.285692581,-0.217433064,0.434548,0.271310353,-0.205369618,0.425076,0.258022336,-0.194244761,0.416465,0.339455529,-0.243356292,0.457691,0.30415618,-0.222095673,0.425557,0.285774537,-0.231412774,0.406813,0.288722531,-0.246775345,0.408622,0.359310911,-0.247941964,0.458132,0.32682609,-0.233757061,0.428198,0.310611354,-0.24439317,0.412883,0.3146112,-0.251694518,0.415414,0.387588496,-0.264740364,0.464404,0.349790876,-0.263013902,0.43717,0.356131948,-0.285348633,0.446764,0.36570891,-0.308948239,0.460068
0.390108905,-0.340924204,0.505464,0.375725938,-0.280742142,0.476622,0.381478945,-0.333940707,0.504103,0.351747948,-0.311382166,0.484824,0.319834154,-0.286393295,0.464143,0.300957528,-0.263246055,0.451386,0.338908161,-0.246211522,0.46144,0.305478793,-0.217998627,0.434843,0.291174936,-0.205925212,0.4252,0.277981208,-0.194798862,0.416434,0.359208559,-0.243425762,0.457738,0.324262037,-0.222391508,0.425803,0.305865505,-0.231830994,0.407174,0.308826554,-0.247265353,0.409112,0.379290378,-0.247777078,0.458106,0.347368851,-0.233815541,0.428378,0.330567826,-0.244567064,0.413168,0.334132103,-0.251933523,0.415843,0.408072636,-0.264263572,0.464247,0.370586024,-0.262813848,0.43718,0.377696343,-0.285216619,0.446867,0.388091962,-0.308808671,0.460149
0.432772013,-0.361423705,0.543354,0.403331899,-0.317041676,0.502075,0.416729006,-0.346973858,0.54104,0.384288576,-0.330953227,0.514107,0.354377405,-0.310900037,0.491204,0.337254933,-0.290142808,0.472884,0.367965581,-0.277323663,0.479845,0.337293172,-0.240229278,0.453741,0.321622186,-0.221973364,0.440689,0.307354659,-0.205337298,0.428823,0.384021955,-0.288156751,0.475049,0.362107494,-0.245038489,0.441303,0.331081167,-0.249258509,0.421617,0.325033695,-0.262370818,0.422019,0.400978985,-0.302473487,0.475989,0.34574119,-0.309133121,0.436756,0.327949419,-0.308403904,0.416684,0.318711826,-0.308523102,0.404201,0.426396732,-0.327795404,0.485249,0.368992645,-0.324282289,0.454421,0.351963813,-0.32864961,0.450985,0.347061325,-0.340346627,0.460359
0.435326546,-0.364510994,0.53785,0.416078683,-0.316663796,0.496791,0.428120056,-0.355323235,0.535852,0.396906927,-0.330255526,0.510124,0.371920516,-0.310097611,0.490684,0.356588006,-0.28652013,0.472885,0.384630844,-0.271236845,0.475097,0.350857717,-0.238573619,0.449982,0.333907024,-0.222154271,0.437425,0.318229737,-0.207448287,0.426009,0.398622931,-0.281523247,0.469909,0.376792717,-0.238392985,0.436027,0.342986111,-0.240449154,0.416263,0.335269048,-0.252688631,0.416179,0.413757152,-0.296678099,0.470501,0.352785254,-0.297054387,0.434716,0.335979533,-0.289052135,0.416408,0.337379915,-0.276431439,0.406722,0.436871761,-0.325335819,0.479321,0.377339516,-0.319056016,0.447976,0.366237795,-0.326493847,0.446894,0.366044096,-0.341408172,0.457506
0.443955582,-0.341595239,0.531709,0.41430108,-0.312385402,0.493855,0.436706476,-0.323302651,0.530328,0.394967481,-0.312050303,0.499785,0.359643426,-0.296617669,0.474075,0.342842185,-0.275547952,0.455411,0.391597356,-0.270063842,0.474485,0.358288746,-0.233377609,0.443354,0.34164178,-0.215052006,0.427789,0.326511971,-0.198403296,0.413638,0.396037778,-0.289202179,0.46907,0.372908704,-0.252227426,0.431341,0.331094677,-0.246139859,0.409332,0.31501938,-0.251053926,0.404965,0.40317692,-0.308869274,0.469095,0.340202504,-0.302031534,0.43948,0.314380801,-0.296536609,0.424329,0.306062711,-0.285207322,0.409114,0.417038082,-0.33755357,0.476637,0.359845661,-0.32032724,0.451344,0.341494114,-0.313068173,0.443338,0.335708843,-0.315811135,0.449135
0.45138157,-0.344003514,0.533777,0.425579923,-0.309103582,0.49517,0.444210631,-0.326149145,0.533116,0.407563511,-0.314633261,0.503345,0.372887042,-0.297051569,0.479543,0.349697932,-0.279045126,0.461428,0.400475729,-0.26813291,0.476441,0.373916352,-0.228498331,0.448524,0.360636403,-0.208676373,0.434566,0.348562587,-0.190652749,0.421876,0.404955762,-0.285518036,0.469893,0.383207904,-0.25147561,0.43278,0.341659851,-0.246689188,0.41113,0.328292631,-0.248924229,0.407194,0.412476542,-0.30432838,0.469073,0.348976583,-0.299408586,0.438698,0.323306035,-0.295045911,0.423158,0.315001071,-0.28575411,0.40904,0.427345819,-0.33305862,0.475804,0.367014559,-0.319265126,0.449659,0.351621594,-0.31270431,0.44291,0.346799199,-0.317196338,0.449495
0.46318017,-0.34779332,0.534914,0.437382021,-0.308668741,0.495192,0.455831526,-0.329886602,0.534298,0.419707745,-0.314108482,0.504463,0.395757229,-0.304911161,0.4933,0.37676631,-0.289385525,0.474877,0.413445243,-0.26547914,0.47601,0.386422246,-0.227202096,0.448255,0.372908384,-0.208041817,0.434378,0.360620713,-0.190608712,0.421762,0.417128711,-0.281836822,0.469185,0.389640979,-0.24551582,0.431208,0.347641909,-0.238954041,0.409055,0.327644844,-0.243196112,0.40224,0.423976578,-0.300498139,0.468269,0.396548163,-0.26158527,0.433614,0.360579269,-0.257033963,0.415884,0.343616898,-0.261161487,0.407629,0.43804413,-0.330295128,0.475113,0.377238499,-0.314173108,0.447295,0.361062881,-0.312139608,0.442301,0.357225511,-0.318949148,0.450155
0.473966449,-0.351234563,0.535259,0.447671828,-0.311597581,0.495532,0.466833254,-0.333220689,0.534658,0.429930231,-0.316999326,0.504636,0.405282546,-0.307716924,0.492817,0.385844452,-0.29224873,0.47424,0.423161713,-0.268501622,0.476368,0.395103032,-0.230169105,0.448134,0.381074017,-0.210998968,0.434018,0.368318843,-0.19356811,0.421184,0.426918011,-0.284897807,0.469522,0.398710651,-0.248757862,0.431512,0.356244154,-0.24224742,0.40934,0.339514276,-0.245173978,0.402284,0.433919059,-0.303566813,0.468589,0.405833739,-0.264875778,0.433953,0.369497026,-0.260364386,0.416232,0.352614546,-0.26451303,0.408276,0.448314794,-0.333327409,0.475415,0.386812997,-0.317106443,0.447586,0.371301699,-0.314956119,0.442622,0.3688317,-0.321696563,0.450491
0.484695829,-0.352111135,0.535244,0.458082954,-0.311046531,0.495769,0.477626836,-0.334365019,0.53499,0.439889291,-0.317984811,0.505195,0.41524473,-0.309441084,0.494144,0.391305347,-0.292454137,0.475748,0.433412428,-0.268401731,0.477197,0.409905687,-0.229081805,0.450251,0.398153557,-0.209390335,0.436778,0.387470795,-0.191468527,0.42453,0.437127934,-0.284455056,0.469923,0.406969287,-0.243642976,0.432275,0.364038746,-0.239139305,0.410313,0.350381649,-0.243870296,0.40372,0.444125498,-0.302793391,0.468607,0.41703708,-0.26484519,0.434364,0.380511242,-0.260848491,0.416845,0.363315838,-0.265048418,0.409179,0.458571915,-0.332102774,0.47495,0.396708721,-0.316712102,0.447478,0.38088825,-0.314789407,0.44249,0.37828431,-0.3216378,0.450224
0.485753496,-0.355931692,0.534935,0.457944368,-0.31418348,0.496094,0.479450421,-0.33883055,0.5356,0.440574208,-0.321200467,0.506194,0.417043447,-0.311648276,0.495892,0.397759546,-0.293796247,0.477709,0.434784523,-0.271300972,0.479076,0.413554705,-0.232564899,0.453523,0.402947011,-0.21311337,0.440747,0.393307678,-0.195375394,0.429132,0.437508471,-0.285769973,0.470663,0.410881843,-0.244490645,0.434146,0.371616083,-0.236611863,0.412844,0.354374546,-0.244250452,0.407366,0.443610241,-0.303145427,0.468334,0.414488418,-0.265245437,0.43426,0.378124925,-0.261293338,0.416827,0.35831765,-0.265099593,0.408606,0.45691201,-0.331986729,0.473402,0.395662448,-0.316617567,0.446748,0.380341696,-0.314550333,0.441912,0.377632663,-0.321039568,0.449418
0.486007367,-0.359133318,0.54013,0.462695203,-0.317639419,0.500956,0.48309983,-0.343418101,0.540877,0.445092646,-0.325581159,0.512709,0.422666138,-0.315547837,0.502519,0.40439569,-0.297984105,0.48458,0.444622073,-0.274511666,0.483897,0.421920578,-0.237195158,0.459406,0.412024152,-0.218071265,0.447161,0.403035182,-0.200600953,0.436028,0.448276994,-0.288567977,0.475308,0.416015986,-0.247398622,0.438704,0.376855078,-0.237456946,0.417353,0.358055558,-0.242604186,0.411238,0.454141823,-0.305796139,0.472873,0.439320729,-0.257494234,0.442628,0.406915062,-0.25172599,0.427154,0.392879403,-0.263653375,0.425319,0.465483175,-0.334873007,0.477885,0.401578512,-0.318369794,0.450505,0.385335563,-0.317410606,0.446726,0.383186618,-0.324258799,0.454897
