sluyters/QuantumLeap/backend/src/datasets/gesture/HandGestureDataset_SHREC2017_csv/Gesture12/finger_1/subject_16_essai_3_skeletons_world.csv
Wrist_x,Wrist_y,Wrist_z,Palm_x,Palm_y,Palm_z,thumb_base_x,thumb_base_y,thumb_base_z,thumb_first_joint_x,thumb_first_joint_y,thumb_first_joint_z,thumb_second_joint_x,thumb_second_joint_y,thumb_second_joint_z,thumb_tip_x,thumb_tip_y,thumb_tip_z,index_base_x,index_base_y,index_base_z,index_first_joint_x,index_first_joint_y,index_first_joint_z,index_second_joint_x,index_second_joint_y,index_second_joint_z,index_tip_x,index_tip_y,index_tip_z,middle_base_x,middle_base_y,middle_base_z,middle_first_joint_x,middle_first_joint_y,middle_first_joint_z,middle_second_joint_x,middle_second_joint_y,middle_second_joint_z,middle_tip_x,middle_tip_y,middle_tip_z,ring_base_x,ring_base_y,ring_base_z,ring_first_joint_x,ring_first_joint_y,ring_first_joint_z,ring_second_joint_x,ring_second_joint_y,ring_second_joint_z,ring_tip_x,ring_tip_y,ring_tip_z,pinky_base_x,pinky_base_y,pinky_base_z,pinky_first_joint_x,pinky_first_joint_y,pinky_first_joint_z,pinky_second_joint_x,pinky_second_joint_y,pinky_second_joint_z,pinky_tip_x,pinky_tip_y,pinky_tip_z,
0.53045089,-0.36461381,0.639932,0.52490161,-0.31127101,0.627058,0.50596854,-0.34427069,0.629804,0.49055838,-0.29892362,0.615285,0.46764785,-0.26102991,0.595393,0.46037808,-0.24006653,0.591797,0.49069879,-0.25684972,0.605126,0.4997917,-0.21807171,0.611941,0.50438909,-0.19809255,0.615349,0.50859807,-0.17958296,0.618447,0.51931062,-0.26738838,0.614797,0.51700495,-0.21660528,0.591522,0.51497932,-0.22660472,0.577945,0.52239975,-0.24843998,0.586952,0.54373699,-0.28015594,0.624149,0.55087108,-0.26151024,0.600917,0.53343614,-0.27980007,0.589031,0.52683086,-0.29630872,0.597314,0.57405377,-0.30272032,0.637424,0.57470093,-0.28850076,0.61648,0.57721345,-0.2937116,0.606857,0.59124271,-0.31315165,0.612572
0.52665517,-0.36023383,0.635786,0.52425466,-0.31016096,0.626256,0.50130471,-0.33877565,0.62369,0.48532071,-0.29437055,0.60816,0.46343575,-0.2579495,0.590654,0.45781596,-0.23967713,0.591366,0.49127274,-0.25516644,0.60403,0.5002806,-0.21638666,0.611036,0.50482874,-0.19642841,0.614538,0.50899094,-0.17795216,0.617723,0.5218626,-0.2676632,0.61718,0.52961132,-0.22049873,0.597489,0.5310791,-0.23171045,0.586003,0.53221959,-0.25414743,0.595123,0.54764438,-0.28194543,0.629035,0.56392771,-0.26095914,0.607901,0.548997,-0.27773596,0.597088,0.53641842,-0.29826699,0.605147,0.57891712,-0.3060905,0.644587,0.58376915,-0.30168519,0.625734,0.57513908,-0.31754891,0.617072,0.57165938,-0.32643482,0.622727
0.52555044,-0.36271242,0.634033,0.5232338,-0.31292763,0.625865,0.50024234,-0.3380993,0.62276,0.48606361,-0.29567454,0.609157,0.46435002,-0.25888181,0.591172,0.45795997,-0.24015886,0.590935,0.48940094,-0.25787723,0.605636,0.49867687,-0.2194506,0.612936,0.50371764,-0.19967546,0.616586,0.50983695,-0.18214804,0.619904,0.51990874,-0.26958362,0.618086,0.52205767,-0.22004734,0.599828,0.52460277,-0.22921088,0.589178,0.53247866,-0.25300365,0.599125,0.54622287,-0.28263311,0.629218,0.55824663,-0.26282716,0.609526,0.54969821,-0.27868018,0.599451,0.54039757,-0.29997831,0.608385,0.57669334,-0.30606234,0.643675,0.58282562,-0.29679323,0.62598,0.57629921,-0.31559984,0.61785,0.57454248,-0.32639818,0.624163
0.51824574,-0.35696324,0.625291,0.52345148,-0.31310398,0.626509,0.49439421,-0.33404825,0.615475,0.48324369,-0.29423391,0.605359,0.4661601,-0.25996834,0.592861,0.46124131,-0.24198023,0.594596,0.49618246,-0.26198661,0.61455,0.50275628,-0.22188423,0.618621,0.50655425,-0.20145383,0.620656,0.51149947,-0.18306328,0.622506,0.52833047,-0.27340403,0.627668,0.53877309,-0.22752147,0.619778,0.54766979,-0.2388682,0.615175,0.55783269,-0.26480732,0.628022,0.55341146,-0.28705989,0.63834,0.57468091,-0.26966641,0.62744,0.57002344,-0.28895897,0.621863,0.56353543,-0.31239781,0.633546,0.5821558,-0.30952331,0.650498,0.59589153,-0.30346008,0.640401,0.59339494,-0.32385886,0.635763,0.59379983,-0.33659117,0.644281
0.51529762,-0.3544295,0.621784,0.5214419,-0.31189738,0.624328,0.49339815,-0.33329105,0.614195,0.48405572,-0.29485111,0.606083,0.46766066,-0.26078526,0.594195,0.46296413,-0.2428481,0.596245,0.49739343,-0.26276214,0.616172,0.50307282,-0.22215236,0.619119,0.50736486,-0.20062208,0.620593,0.51105165,-0.18295358,0.622131,0.52717746,-0.27319549,0.626752,0.54055416,-0.22981611,0.620997,0.55093235,-0.24384196,0.61764,0.56345848,-0.26893178,0.631989,0.5502749,-0.28578472,0.63519,0.57455878,-0.26917472,0.627089,0.57107472,-0.28953362,0.622945,0.56663698,-0.3138865,0.636401,0.57638991,-0.30675152,0.644505,0.59157103,-0.30130694,0.635897,0.60789409,-0.33128064,0.651028,0.61041207,-0.34567356,0.661908
0.5173994,-0.35941787,0.623798,0.52287341,-0.32085626,0.625066,0.49525033,-0.33794368,0.615928,0.48419937,-0.30539009,0.605539,0.46639888,-0.27072495,0.591871,0.46200768,-0.2514135,0.592365,0.4988552,-0.27172939,0.615678,0.49926005,-0.22818991,0.61076,0.50248592,-0.21223762,0.608301,0.50712563,-0.1909578,0.606065,0.52807604,-0.28279424,0.626274,0.54183418,-0.24090108,0.618861,0.55013275,-0.25508173,0.614537,0.55846303,-0.28171633,0.628459,0.55171033,-0.29538503,0.634864,0.57405673,-0.28031699,0.625186,0.56959364,-0.30021576,0.620234,0.56284925,-0.32407492,0.633234,0.57868309,-0.31652936,0.644595,0.59146514,-0.3048786,0.634904,0.60793716,-0.33505572,0.649981,0.6094929,-0.34614986,0.659991
0.51650325,-0.36215344,0.621977,0.52284843,-0.32638069,0.622789,0.49731437,-0.35131627,0.615733,0.49116885,-0.3166169,0.606908,0.46928039,-0.28161081,0.591172,0.46746566,-0.26357259,0.594259,0.50204678,-0.28045855,0.615208,0.49727913,-0.23498488,0.604226,0.49672505,-0.21293901,0.598735,0.50539968,-0.1932208,0.60433,0.52933001,-0.28992895,0.623563,0.54401616,-0.24660187,0.616362,0.55289389,-0.26167973,0.612162,0.56214859,-0.2889671,0.626787,0.55122749,-0.30125255,0.630356,0.57712822,-0.28669645,0.622414,0.57157098,-0.30925911,0.61835,0.56975971,-0.33415414,0.632523,0.57600092,-0.32094429,0.638087,0.58952228,-0.31202185,0.628428,0.60953681,-0.34152686,0.644142,0.61257771,-0.35800971,0.654149
0.52034753,-0.37260988,0.624579,0.52390266,-0.33682656,0.617968,0.49984677,-0.35752447,0.617174,0.48872541,-0.32622802,0.601206,0.46372941,-0.28883693,0.58116,0.45851158,-0.26991774,0.582126,0.49891527,-0.28443459,0.603835,0.49048091,-0.2380504,0.585998,0.48777442,-0.21587149,0.577079,0.49418246,-0.19910163,0.579318,0.52565267,-0.2937818,0.611672,0.53560129,-0.25071703,0.596413,0.53775432,-0.26647271,0.587512,0.54367772,-0.29224527,0.599852,0.54753235,-0.3054175,0.618838,0.56768032,-0.29459606,0.604925,0.55682805,-0.31606835,0.597807,0.55282203,-0.33766433,0.610074,0.57309718,-0.32623458,0.628398,0.58089359,-0.32046641,0.613135,0.59888899,-0.35011423,0.628366,0.60316858,-0.3652225,0.639649
0.51672998,-0.3894591,0.61841,0.52106853,-0.35520219,0.614625,0.49632023,-0.38184465,0.611347,0.48882496,-0.34637675,0.60119,0.46528323,-0.30931736,0.582873,0.46075477,-0.29088031,0.584734,0.49810472,-0.30403166,0.602854,0.49193478,-0.25896403,0.587735,0.49039215,-0.23738572,0.580176,0.49599091,-0.22061636,0.581438,0.5250915,-0.31345755,0.611019,0.53796313,-0.27235161,0.599043,0.54191348,-0.28944475,0.592056,0.54867264,-0.31616421,0.605363,0.54692451,-0.32503351,0.618151,0.57071521,-0.31727038,0.608159,0.56170792,-0.33996415,0.603046,0.55871476,-0.36237564,0.616577,0.5719508,-0.3455312,0.627141,0.58181353,-0.34194646,0.614106,0.60003175,-0.37220907,0.629565,0.60447836,-0.38726639,0.641038
0.51727929,-0.40541002,0.619663,0.52126026,-0.36476857,0.613702,0.49699714,-0.38741975,0.612576,0.4889593,-0.35683817,0.601192,0.46531819,-0.3189969,0.58172,0.46089715,-0.2998659,0.58267,0.49871965,-0.31250597,0.600424,0.49206257,-0.26747225,0.583464,0.49017334,-0.24609004,0.574984,0.49550931,-0.22966846,0.575388,0.52537806,-0.3220156,0.608025,0.53696921,-0.28175341,0.593642,0.5381536,-0.29926475,0.585252,0.54357107,-0.32540559,0.597926,0.54696393,-0.33377145,0.614926,0.56821756,-0.32835844,0.603275,0.55701058,-0.35046231,0.597314,0.55331046,-0.3714295,0.610363,0.57175007,-0.35468207,0.624058,0.57889426,-0.35298048,0.609533,0.59610576,-0.38344791,0.624916,0.60106958,-0.39790033,0.636868
0.51285274,-0.41737582,0.614952,0.52090023,-0.38483531,0.613554,0.49274463,-0.40946944,0.607796,0.48511756,-0.37452865,0.596683,0.46445805,-0.3387319,0.580998,0.46187876,-0.32103497,0.584388,0.50064819,-0.3340937,0.603285,0.49747456,-0.29098642,0.590617,0.49739529,-0.27044036,0.584283,0.5024671,-0.25398012,0.584391,0.52853775,-0.34429818,0.612223,0.54564304,-0.30714091,0.60396,0.55040922,-0.3270799,0.59914,0.55716855,-0.35485755,0.613323,0.55078107,-0.35641771,0.619735,0.57799656,-0.35511971,0.614127,0.56975202,-0.37953937,0.611258,0.56728741,-0.40201191,0.625986,0.57561151,-0.37735258,0.628716,0.58574691,-0.37801542,0.617095,0.60315183,-0.40920048,0.632517,0.6091413,-0.42448061,0.645609
0.51638295,-0.44008712,0.619185,0.52097749,-0.40390553,0.613645,0.496422,-0.4317813,0.612332,0.48947537,-0.39740943,0.602043,0.46619838,-0.35923423,0.583175,0.4616867,-0.34016131,0.584145,0.49871625,-0.35168787,0.600957,0.49244942,-0.307071,0.584651,0.49076799,-0.28600056,0.576498,0.49597895,-0.27025951,0.576845,0.52521056,-0.36093693,0.608369,0.53725458,-0.32172737,0.594675,0.53997831,-0.33874337,0.586688,0.54702003,-0.36645269,0.599616,0.54663511,-0.37250149,0.61507,0.5695524,-0.36980502,0.605155,0.5593349,-0.392471,0.600082,0.55617521,-0.41397432,0.613724,0.57119223,-0.39321197,0.623889,0.57911295,-0.393441,0.610106,0.59657026,-0.42485669,0.625615,0.60161583,-0.43919925,0.637633
0.5477252,-0.45998825,0.617428,0.53440024,-0.41316053,0.609994,0.5223427,-0.44797255,0.608723,0.52610055,-0.42342829,0.61059,0.50798787,-0.38933126,0.594817,0.49910214,-0.37022747,0.593965,0.49356435,-0.36737561,0.593608,0.48488194,-0.32270678,0.577926,0.48178499,-0.30116776,0.570085,0.48700812,-0.28617338,0.571996,0.52178062,-0.36899683,0.602914,0.52858886,-0.33006329,0.58849,0.53425442,-0.34801055,0.580076,0.54467218,-0.37561416,0.592204,0.54479584,-0.37235774,0.611378,0.56879908,-0.37931228,0.601361,0.56393006,-0.40275312,0.596236,0.56313865,-0.42546918,0.609247,0.57724301,-0.38826538,0.6226,0.58239979,-0.39483627,0.60599,0.59920191,-0.42660107,0.620681,0.60205902,-0.44051951,0.634247
0.55562544,-0.4715178,0.623432,0.54099358,-0.42986994,0.614239,0.53028577,-0.46018272,0.615663,0.5427478,-0.44564381,0.622934,0.5287934,-0.41379369,0.612421,0.51930941,-0.39445344,0.6118,0.49730121,-0.38419648,0.597879,0.49023399,-0.34497982,0.580543,0.48680513,-0.32497154,0.571875,0.49254799,-0.31209975,0.574247,0.52480954,-0.38441943,0.605485,0.5294884,-0.35030129,0.588677,0.53284378,-0.36820182,0.578873,0.54347988,-0.39573171,0.59063,0.54904247,-0.38886256,0.612738,0.56536848,-0.39558966,0.600146,0.56135639,-0.41788353,0.593703,0.56275433,-0.44262693,0.606208,0.58046322,-0.40168425,0.622886,0.58163507,-0.40609153,0.605217,0.59962238,-0.43843572,0.620103,0.60651728,-0.45707012,0.632094
0.56653248,-0.48899132,0.627913,0.5468116,-0.4464134,0.616359,0.5446584,-0.48765453,0.6213,0.54579591,-0.46591185,0.625579,0.53138959,-0.4359385,0.615371,0.52181368,-0.41778187,0.615595,0.49855481,-0.40394893,0.5999,0.49136639,-0.36562958,0.581946,0.48788509,-0.34608341,0.572968,0.49487554,-0.33489128,0.576553,0.52429506,-0.4003427,0.605356,0.52332901,-0.3688324,0.585473,0.52578553,-0.38636019,0.573874,0.5378542,-0.41300684,0.584951,0.54763934,-0.40173734,0.611093,0.55955336,-0.40648155,0.595192,0.55501597,-0.42727616,0.587056,0.56065331,-0.454709,0.598713,0.57911229,-0.41110742,0.619925,0.57687621,-0.40175942,0.601084,0.59982776,-0.41306158,0.614996,0.62976271,-0.43628511,0.628332
0.57322474,-0.50186691,0.627048,0.55407327,-0.45860673,0.616945,0.54588599,-0.49191573,0.619108,0.54958634,-0.47308211,0.621797,0.53576815,-0.44139195,0.611594,0.52740536,-0.42329074,0.612699,0.50567095,-0.41348512,0.599743,0.5003053,-0.37376431,0.583022,0.49773369,-0.35354665,0.574662,0.50853266,-0.3437743,0.582017,0.5332276,-0.4124531,0.607324,0.53489929,-0.3794136,0.589532,0.53923804,-0.39583257,0.579154,0.55339006,-0.42434755,0.590556,0.55797928,-0.41592635,0.614655,0.57275109,-0.41966938,0.6012,0.56915628,-0.44165035,0.594316,0.57495833,-0.4708827,0.606471,0.59089992,-0.42772211,0.625063,0.58893736,-0.41398149,0.606682,0.59116777,-0.41043755,0.598236,0.61448413,-0.42905088,0.605356
0.52859994,-0.47268764,0.587267,0.53220385,-0.42492877,0.581945,0.52156365,-0.46303826,0.597807,0.50911111,-0.44605397,0.60223,0.49495464,-0.42811186,0.604023,0.48850722,-0.40924522,0.603224,0.52929575,-0.38854703,0.592059,0.49333824,-0.36608777,0.582749,0.49122612,-0.38268083,0.578093,0.50115376,-0.40881444,0.589155,0.53527602,-0.38130701,0.576876,0.49636694,-0.37091953,0.56685,0.49111255,-0.39595979,0.561001,0.51208956,-0.41372684,0.572099,0.54015616,-0.37937522,0.564946,0.50935155,-0.35881469,0.560526,0.49108444,-0.37756316,0.558264,0.50330824,-0.4072454,0.570746,0.54612096,-0.38469858,0.5521,0.50249395,-0.38115848,0.546067,0.48936142,-0.39809923,0.543295,0.5026364,-0.42167659,0.552046
0.54620492,-0.48113531,0.603878,0.53990796,-0.43440193,0.591116,0.53374111,-0.47512057,0.611524,0.51609962,-0.46598409,0.609557,0.49668011,-0.45032504,0.605378,0.48689493,-0.43251793,0.601086,0.5286334,-0.39013257,0.592409,0.48846033,-0.37003079,0.576091,0.48216075,-0.3855612,0.567932,0.49037898,-0.41134647,0.576922,0.53597857,-0.3882537,0.578962,0.49179352,-0.3773702,0.560313,0.48088741,-0.39809211,0.549435,0.49779909,-0.4136224,0.558195,0.54354633,-0.3902389,0.569263,0.51028628,-0.36930653,0.556856,0.48764238,-0.38498615,0.550508,0.49477759,-0.41102075,0.560573,0.55395313,-0.40128596,0.560405,0.50753053,-0.39436042,0.547596,0.48949433,-0.40741293,0.541711,0.49853507,-0.42922968,0.548558
0.55034538,-0.4917813,0.607585,0.54267787,-0.44993868,0.593637,0.53929325,-0.48752431,0.614048,0.51735066,-0.4771513,0.609913,0.49862114,-0.46222201,0.606422,0.48820225,-0.44402122,0.601415,0.5271627,-0.40219211,0.592585,0.48558933,-0.39693253,0.56857,0.47437294,-0.40958753,0.556563,0.48892954,-0.4272491,0.563617,0.53758031,-0.39976508,0.580354,0.49341926,-0.39850398,0.560014,0.48254491,-0.41563169,0.548149,0.49561444,-0.43357241,0.556796,0.54707389,-0.40255834,0.571785,0.51539342,-0.38234451,0.557549,0.49265823,-0.39783167,0.550265,0.49877705,-0.4234809,0.560122,0.56010022,-0.41479767,0.564461,0.51437169,-0.40829675,0.550114,0.49395759,-0.41941401,0.543522,0.49965473,-0.44079951,0.550199
0.54548202,-0.49706003,0.602718,0.54091346,-0.45291993,0.592011,0.5345658,-0.48854894,0.608671,0.51431204,-0.48305717,0.604371,0.49964427,-0.4694956,0.602842,0.49081524,-0.44821961,0.602038,0.52586812,-0.41118618,0.592495,0.48967218,-0.40546064,0.572975,0.47995327,-0.41701795,0.563215,0.4961418,-0.43719648,0.57268,0.5381801,-0.4086418,0.581813,0.49791783,-0.40350187,0.564339,0.48795472,-0.42259286,0.554145,0.50195513,-0.44337018,0.564649,0.54898683,-0.41114204,0.574171,0.51791841,-0.39461116,0.56195,0.49715205,-0.4110541,0.555697,0.5050976,-0.43931324,0.567243,0.56309847,-0.42270108,0.567313,0.52904225,-0.40664345,0.554684,0.50711725,-0.41508367,0.548882,0.51640779,-0.42803234,0.556861
0.53145286,-0.49939958,0.589789,0.53576244,-0.46119167,0.584653,0.51973849,-0.49246885,0.595026,0.50231756,-0.48042931,0.591005,0.48710212,-0.46114035,0.588621,0.47877888,-0.44193057,0.58592,0.52402033,-0.41718854,0.587986,0.49819556,-0.41283141,0.573141,0.49333519,-0.42866576,0.565719,0.51099139,-0.45190256,0.577788,0.53950936,-0.41684397,0.579762,0.50968587,-0.41519056,0.567549,0.49828994,-0.43730336,0.560424,0.51010122,-0.45813902,0.573576,0.55227277,-0.42072227,0.573542,0.53176051,-0.40505576,0.565145,0.51290678,-0.42103644,0.560848,0.51543212,-0.44891035,0.574772,0.56743988,-0.43309597,0.567289,0.53581243,-0.42071655,0.557974,0.51390169,-0.43007552,0.553694,0.52253479,-0.44574685,0.563532
0.52966459,-0.50130493,0.588091,0.53545266,-0.46233109,0.583644,0.51824129,-0.49371186,0.593441,0.50126335,-0.48005692,0.589781,0.48548784,-0.46062522,0.586863,0.47732766,-0.44118703,0.583953,0.52554763,-0.4186206,0.587592,0.49975805,-0.41389244,0.573441,0.49457147,-0.42991195,0.566365,0.51223136,-0.45371858,0.578685,0.54084585,-0.41873077,0.579408,0.51104175,-0.41654036,0.567938,0.49850352,-0.43923502,0.561247,0.50995851,-0.4659965,0.574647,0.55330941,-0.42292142,0.573148,0.53470214,-0.40424772,0.565382,0.51774137,-0.41631137,0.561409,0.51804733,-0.44933668,0.57557,0.56783914,-0.43555425,0.566718,0.53107328,-0.42700196,0.557944,0.51060068,-0.43615628,0.553913,0.52254753,-0.44889281,0.563939
0.52642784,-0.51104953,0.584966,0.53425108,-0.47289063,0.581665,0.51580551,-0.49918256,0.590849,0.50070021,-0.48931932,0.588314,0.48492875,-0.47026178,0.584965,0.47827697,-0.45080552,0.582582,0.52697285,-0.42990077,0.587087,0.50155378,-0.42550427,0.574008,0.49620949,-0.44194329,0.567469,0.5138974,-0.46643664,0.580061,0.54168426,-0.43022735,0.578522,0.51248352,-0.42849941,0.568421,0.49911847,-0.45197539,0.562528,0.50937512,-0.48088189,0.576254,0.55344737,-0.43450532,0.571824,0.53739448,-0.41394206,0.565358,0.51833159,-0.42770418,0.562049,0.52175778,-0.45745619,0.576559,0.56675886,-0.44708059,0.564671,0.53017379,-0.43687628,0.556999,0.51019509,-0.44619281,0.553473,0.52203389,-0.46187587,0.563775
0.52368727,-0.51069236,0.581707,0.53158897,-0.47140538,0.578928,0.51312558,-0.49895486,0.587622,0.50105917,-0.48868831,0.585284,0.48921468,-0.46930917,0.577699,0.48498458,-0.45038372,0.575143,0.52396106,-0.42895696,0.584744,0.49912413,-0.42556693,0.572207,0.49436663,-0.44224054,0.565938,0.51246537,-0.46667116,0.578735,0.53878772,-0.42907326,0.57628,0.51021325,-0.42851474,0.566725,0.49696808,-0.45236229,0.561152,0.50674555,-0.48225785,0.57507,0.55065378,-0.4331402,0.56961,0.5347691,-0.413601,0.563587,0.51509444,-0.42472889,0.560506,0.51988858,-0.45797061,0.575193,0.56409393,-0.44538883,0.56239,0.52790827,-0.43634068,0.555101,0.52599714,-0.46139932,0.570895,0.53655451,-0.47577882,0.579585
0.5243514,-0.51329936,0.582161,0.53258293,-0.47366806,0.579764,0.51438105,-0.50746744,0.588372,0.50523232,-0.49629871,0.586591,0.48961053,-0.47617643,0.579122,0.48365171,-0.45851141,0.57217,0.52508693,-0.43275147,0.586226,0.4998086,-0.43354473,0.57402,0.49523417,-0.45058415,0.567917,0.51417278,-0.47035731,0.580751,0.53997783,-0.43154822,0.577481,0.51036305,-0.43684848,0.568429,0.49718641,-0.46084371,0.563149,0.5067818,-0.48889071,0.577143,0.55155433,-0.43546183,0.570538,0.53410408,-0.42198891,0.565035,0.51554273,-0.43512919,0.562219,0.52066181,-0.4643839,0.577004,0.56458631,-0.44748357,0.56293,0.52725299,-0.44411777,0.556078,0.52582448,-0.46896588,0.571843,0.53718604,-0.47840274,0.580367
0.52213873,-0.51880873,0.578376,0.53462055,-0.48413818,0.578235,0.5143454,-0.51081712,0.586285,0.507665,-0.50355062,0.587764,0.49451336,-0.48272071,0.585154,0.48982948,-0.46572077,0.580449,0.53114169,-0.44592459,0.58844,0.50425929,-0.44209877,0.578237,0.49997514,-0.45699047,0.573136,0.51943295,-0.48187388,0.586141,0.54332132,-0.44353026,0.5781,0.51345528,-0.44150121,0.572039,0.5025537,-0.46725356,0.568503,0.51345864,-0.49831006,0.582886,0.55281188,-0.44532638,0.569601,0.53536747,-0.42474722,0.567165,0.51767249,-0.43818996,0.565918,0.52135052,-0.47328416,0.58121,0.56313763,-0.4545665,0.559763,0.52622968,-0.44490807,0.5555,0.52502673,-0.47019791,0.57103,0.53594716,-0.48377462,0.578551
0.53156912,-0.52831227,0.590058,0.53852625,-0.48427955,0.585582,0.52232023,-0.51694684,0.596987,0.50419717,-0.50279047,0.595732,0.48145724,-0.48498221,0.584295,0.46940907,-0.46703,0.574169,0.53059595,-0.4360565,0.591568,0.50249266,-0.43898079,0.577019,0.4954913,-0.45638216,0.569745,0.51333204,-0.47865868,0.581371,0.54383806,-0.43861238,0.581319,0.51253545,-0.44083641,0.570428,0.49906623,-0.46399108,0.564076,0.50839586,-0.49346266,0.577056,0.55477746,-0.44477487,0.573361,0.53626814,-0.42803825,0.566712,0.51942238,-0.44341425,0.563311,0.51853106,-0.47203134,0.577235,0.56616121,-0.4589068,0.564966,0.5303751,-0.45553677,0.557092,0.52594795,-0.47473975,0.572275,0.53668309,-0.48607304,0.580933
0.53577503,-0.53199162,0.59492,0.54127435,-0.48601249,0.588612,0.52643626,-0.52006755,0.601579,0.50870169,-0.50553832,0.599427,0.4862816,-0.48822725,0.588903,0.47444856,-0.47057639,0.579361,0.53333783,-0.43908988,0.593001,0.50194141,-0.4404096,0.576613,0.49345058,-0.45556942,0.568419,0.50954454,-0.4794813,0.579339,0.54571395,-0.44003533,0.582604,0.5119658,-0.44097132,0.56976,0.49844605,-0.46376593,0.562269,0.50811708,-0.49157007,0.574558,0.55621101,-0.44606367,0.574721,0.53185803,-0.43902507,0.566425,0.51075226,-0.45311366,0.56218,0.51152626,-0.4849016,0.575444,0.56773947,-0.46065057,0.566757,0.52373136,-0.45865523,0.557472,0.52378244,-0.47754566,0.572395,0.53596305,-0.48817186,0.581449
0.59354147,-0.52976916,0.623097,0.55976193,-0.48741362,0.601607,0.58595357,-0.52435134,0.634382,0.56650004,-0.55537431,0.639551,0.56254211,-0.58265112,0.635503,0.54760949,-0.59371877,0.625376,0.52776167,-0.45242193,0.601713,0.4667802,-0.43734595,0.571803,0.45602564,-0.44535048,0.556848,0.46328041,-0.45171823,0.552304,0.5274759,-0.44686701,0.58114,0.4690615,-0.42918196,0.551601,0.4673663,-0.4585332,0.556754,0.48759038,-0.47470308,0.569057,0.53047256,-0.44628043,0.566514,0.46987585,-0.43969749,0.54562,0.43875359,-0.43635819,0.53493,0.41038462,-0.43334096,0.525212,0.54005455,-0.45292923,0.553577,0.50008666,-0.47166905,0.540137,0.49430724,-0.47810941,0.543426,0.50612368,-0.47416683,0.549432
0.53289684,-0.52335525,0.590227,0.52070301,-0.46787311,0.577125,0.52324823,-0.51542621,0.596566,0.51015181,-0.50777246,0.600929,0.48409813,-0.49776629,0.596345,0.46928803,-0.48333093,0.592986,0.48946784,-0.42783117,0.576487,0.45473955,-0.44022868,0.564454,0.43679722,-0.44693129,0.558438,0.43271221,-0.46731167,0.569351,0.4988121,-0.41954415,0.564648,0.45455423,-0.42674853,0.545047,0.48076698,-0.47024332,0.56719,0.50579947,-0.48940006,0.581231,0.50898893,-0.41733247,0.556311,0.46937197,-0.42856024,0.542596,0.44828927,-0.43517892,0.535733,0.42855782,-0.44178573,0.529589,0.5256398,-0.42332444,0.549096,0.479194,-0.43870503,0.535191,0.49602665,-0.46412591,0.548496,0.51564827,-0.47163241,0.55855
0.52957523,-0.52109023,0.586488,0.50717646,-0.46353447,0.575223,0.51856977,-0.51003915,0.592212,0.48761768,-0.49995798,0.591047,0.46208271,-0.48845996,0.589361,0.44577239,-0.47171761,0.586774,0.47572878,-0.42495436,0.575028,0.44439773,-0.43808909,0.563736,0.42810826,-0.44526436,0.558089,0.42960852,-0.46753326,0.569974,0.48688789,-0.41530096,0.564493,0.44848732,-0.42633453,0.546379,0.47696862,-0.47117167,0.569825,0.50309814,-0.49242642,0.583737,0.49836165,-0.41187422,0.557032,0.46197588,-0.42800162,0.544213,0.44252433,-0.43727168,0.537751,0.4274754,-0.44518936,0.532082,0.51623536,-0.41627415,0.550489,0.47261251,-0.42978371,0.537357,0.49016424,-0.45838264,0.551462,0.50925492,-0.47460898,0.561554
0.52524859,-0.5195537,0.585366,0.49618607,-0.46322181,0.574835,0.51385163,-0.50983954,0.591679,0.47401788,-0.49736788,0.587985,0.44744707,-0.48492349,0.585094,0.4322399,-0.46940876,0.583902,0.46611626,-0.42560395,0.575907,0.43521545,-0.43961768,0.565703,0.41908852,-0.44726853,0.560601,0.41655566,-0.46947865,0.572704,0.47676091,-0.4155305,0.564805,0.43877041,-0.42733096,0.547656,0.46680357,-0.47213746,0.570993,0.48868465,-0.4951977,0.584522,0.48768022,-0.41170119,0.556798,0.4516696,-0.42860798,0.544984,0.4323739,-0.4383491,0.539076,0.41424291,-0.44795659,0.533806,0.50467352,-0.41551343,0.549483,0.46159449,-0.42965254,0.537193,0.47897617,-0.45821058,0.551255,0.49779572,-0.47416865,0.561033
0.50255445,-0.50139665,0.571658,0.47867871,-0.45320041,0.567247,0.48615146,-0.4975219,0.575884,0.45096927,-0.47876144,0.570566,0.42408149,-0.46284603,0.56775,0.40990331,-0.44752649,0.567256,0.44553347,-0.42424164,0.569757,0.41944886,-0.43289989,0.562134,0.40559756,-0.43780461,0.558322,0.40523961,-0.45703965,0.572904,0.45930826,-0.41133724,0.563046,0.42898977,-0.41825535,0.551222,0.46294172,-0.46629127,0.577653,0.48517025,-0.4930848,0.590226,0.47272407,-0.40444358,0.557995,0.44305983,-0.41489327,0.549485,0.42683783,-0.42121294,0.545279,0.41138578,-0.42765762,0.541587,0.49255524,-0.40330681,0.552962,0.45247689,-0.41375204,0.543601,0.46811556,-0.44514925,0.559573,0.48880387,-0.45317947,0.56906
0.50641537,-0.50100304,0.571346,0.48086879,-0.45423277,0.568013,0.49025193,-0.49761426,0.575805,0.46409196,-0.48668044,0.584967,0.44347784,-0.47588402,0.587643,0.430953,-0.46157563,0.589587,0.44784339,-0.42708027,0.571558,0.42136099,-0.43513858,0.564962,0.40725295,-0.43969718,0.561665,0.40649703,-0.45844179,0.576595,0.46107679,-0.41364492,0.564839,0.43038073,-0.42057754,0.554203,0.46499294,-0.4686953,0.580777,0.48760128,-0.49498961,0.592965,0.47407062,-0.40617855,0.559665,0.43861367,-0.39260419,0.552187,0.43725717,-0.41612612,0.548361,0.46241242,-0.44259646,0.562978,0.49343492,-0.40413052,0.554286,0.454108,-0.41532875,0.545809,0.46980679,-0.44693313,0.561887,0.49026839,-0.45488693,0.571104
0.49427255,-0.48719463,0.563475,0.46916847,-0.43731565,0.563191,0.47754399,-0.48712884,0.567905,0.45194587,-0.47032715,0.580583,0.43153554,-0.46218433,0.583503,0.41784532,-0.44860737,0.58476,0.43541493,-0.41411576,0.568769,0.41135003,-0.42569737,0.564511,0.39838862,-0.43214373,0.562382,0.39823824,-0.45234122,0.578223,0.4487707,-0.40067816,0.562921,0.42145439,-0.41269568,0.555455,0.45794346,-0.45964667,0.582576,0.48075412,-0.48330239,0.59379,0.46190961,-0.39281615,0.558136,0.42951061,-0.3843939,0.553147,0.43077859,-0.40932479,0.550595,0.45683953,-0.43473239,0.566185,0.48142567,-0.38962085,0.552635,0.44608653,-0.40591889,0.54633,0.46235709,-0.43673306,0.56278,0.48160367,-0.44257976,0.571377
0.48744614,-0.48020627,0.561629,0.45881803,-0.43534994,0.56167,0.47100914,-0.48060522,0.566265,0.44734704,-0.46838043,0.581863,0.43343196,-0.45831364,0.584707,0.42587382,-0.4462758,0.589915,0.42578541,-0.41334991,0.567735,0.39856178,-0.42191624,0.563908,0.38389981,-0.42668952,0.561995,0.38155584,-0.44496034,0.577935,0.43803132,-0.39948894,0.561709,0.40896249,-0.4124987,0.554649,0.44550999,-0.45911277,0.581748,0.46884407,-0.48231485,0.592808,0.45029468,-0.39118637,0.556742,0.41555375,-0.38403604,0.552159,0.41767311,-0.40903988,0.549814,0.4446917,-0.43426483,0.565498,0.46885307,-0.38732703,0.550969,0.43255596,-0.4052152,0.545005,0.44985613,-0.43554939,0.56145,0.46961215,-0.44157696,0.569925
0.47874251,-0.47503603,0.567504,0.44749491,-0.43007122,0.56561,0.45168131,-0.47053204,0.569581,0.42990231,-0.45953139,0.581017,0.41335619,-0.44519142,0.580822,0.40484537,-0.43075088,0.583088,0.40985305,-0.40516567,0.567031,0.38352692,-0.40752656,0.559532,0.3694821,-0.40903305,0.555783,0.36812807,-0.42444966,0.570982,0.42587818,-0.39275482,0.563807,0.39883239,-0.39972967,0.553957,0.43409396,-0.44664603,0.581445,0.45670147,-0.47157508,0.593636,0.44138777,-0.38578402,0.561357,0.40906435,-0.37201944,0.553525,0.40980973,-0.39539516,0.549519,0.43396989,-0.42140986,0.564565,0.46398491,-0.38370264,0.558868,0.42847249,-0.39645667,0.550235,0.44383477,-0.42779434,0.566837,0.46253505,-0.43603375,0.576313
0.4636132,-0.44643195,0.559381,0.43706133,-0.41433384,0.561603,0.44571917,-0.45809842,0.56193,0.4221058,-0.4475594,0.575634,0.4014901,-0.43685081,0.581025,0.38973134,-0.42533124,0.586198,0.40008177,-0.40194895,0.566433,0.37354676,-0.40474512,0.562413,0.35920648,-0.40639892,0.560403,0.35665658,-0.42129085,0.576672,0.41303624,-0.38527006,0.56372,0.38690134,-0.39201521,0.558379,0.42646594,-0.43573339,0.586207,0.45152966,-0.45804355,0.596874,0.42606821,-0.37391324,0.561246,0.39047691,-0.36123107,0.557175,0.39628595,-0.38339375,0.555092,0.42534425,-0.40961114,0.571317,0.44591627,-0.3650363,0.557957,0.41304028,-0.37974206,0.552586,0.4329964,-0.41162407,0.56946,0.45286427,-0.41934412,0.577893
0.45399666,-0.4412467,0.554479,0.42491634,-0.40762052,0.557834,0.4362806,-0.44665843,0.557504,0.40807055,-0.439248,0.572114,0.38758508,-0.42798351,0.579536,0.37715161,-0.41680939,0.586164,0.38902641,-0.39439613,0.564052,0.35779417,-0.38783485,0.560831,0.34103375,-0.38438392,0.55922,0.33549747,-0.39337794,0.575669,0.40359089,-0.37823556,0.561029,0.37843725,-0.37885258,0.557034,0.41537561,-0.4233579,0.584855,0.43842712,-0.44637473,0.595033,0.41762358,-0.36740114,0.558178,0.38471673,-0.34409382,0.55448,0.36796322,-0.33741651,0.552588,0.36323725,-0.34181035,0.568871,0.44049975,-0.36092691,0.554239,0.406555,-0.36966445,0.549939,0.42197341,-0.40254951,0.566834,0.43981115,-0.41185859,0.574898
0.44624139,-0.43287865,0.548324,0.41644119,-0.39754104,0.553348,0.42303992,-0.43553472,0.549985,0.39869199,-0.42822979,0.564919,0.3754938,-0.41530646,0.569639,0.36941582,-0.40940201,0.579164,0.37916237,-0.38826749,0.558922,0.34836398,-0.38044164,0.556678,0.33178338,-0.37627581,0.555556,0.32609263,-0.38428131,0.572343,0.39452781,-0.37197884,0.558132,0.3705251,-0.3699201,0.555618,0.40862272,-0.41264285,0.583609,0.43219072,-0.43498346,0.593304,0.40925737,-0.36063564,0.556941,0.37624669,-0.3361431,0.554673,0.35970717,-0.32821436,0.553512,0.34365339,-0.32053969,0.552457,0.43056882,-0.35114511,0.554614,0.40027348,-0.35952238,0.550978,0.41679511,-0.39270599,0.567971,0.43473036,-0.40289901,0.575839
0.43745881,-0.41754323,0.544256,0.41484872,-0.38599887,0.551232,0.41842695,-0.42366186,0.545788,0.39686833,-0.4159054,0.562335,0.37435474,-0.40348232,0.567911,0.36385661,-0.39373737,0.575531,0.37851316,-0.37787022,0.557965,0.34883645,-0.37068682,0.557433,0.33274548,-0.36680356,0.557167,0.32723783,-0.37444704,0.574353,0.39434756,-0.3620037,0.557877,0.37177215,-0.36057524,0.557488,0.40989913,-0.40262601,0.585432,0.43294831,-0.42430434,0.594344,0.40933894,-0.35082445,0.557052,0.37760876,-0.32693579,0.556681,0.36164311,-0.31916367,0.556491,0.34605511,-0.31157861,0.556318,0.4307008,-0.34124269,0.554784,0.40155226,-0.35301948,0.552609,0.41898292,-0.38557008,0.569599,0.43783785,-0.39509636,0.578245
0.43641168,-0.44470363,0.593265,0.41134713,-0.39725591,0.581799,0.41459823,-0.4412846,0.593997,0.38553494,-0.42506176,0.591724,0.35610573,-0.40691117,0.584677,0.33983018,-0.38982439,0.580905,0.36847197,-0.362829,0.574967,0.33383209,-0.34590924,0.555329,0.33963669,-0.35631992,0.54551,0.36091925,-0.37605507,0.556351,0.387909,-0.35307893,0.570879,0.36193851,-0.34801905,0.550609,0.38954611,-0.39200251,0.576234,0.41106535,-0.42161109,0.591609,0.40625855,-0.34919576,0.568748,0.36364029,-0.31339036,0.551419,0.34308327,-0.29616498,0.545386,0.32479328,-0.28086635,0.54141,0.43227344,-0.35213924,0.56843,0.40665961,-0.34650713,0.552418,0.41649083,-0.38145239,0.567743,0.42774433,-0.39714165,0.579321
0.43075349,-0.44206629,0.593421,0.40320749,-0.39045528,0.581013,0.40941432,-0.43780653,0.594449,0.37793042,-0.41577095,0.593949,0.35220131,-0.39691359,0.590089,0.33805641,-0.3785103,0.586761,0.36322358,-0.35270863,0.573928,0.32759794,-0.33479924,0.552732,0.33128934,-0.34607208,0.542134,0.35084948,-0.36607925,0.552309,0.38276845,-0.34485545,0.569196,0.3548315,-0.34038405,0.548066,0.37909091,-0.38493025,0.573308,0.39870614,-0.4150829,0.588874,0.40095235,-0.34268216,0.566637,0.35980501,-0.30529856,0.548524,0.34032554,-0.28745512,0.542583,0.32342809,-0.27579714,0.539261,0.42836567,-0.34928271,0.565998,0.40188258,-0.3437107,0.549498,0.40541992,-0.37428773,0.564585,0.41693212,-0.39235625,0.576242
0.42844522,-0.44063703,0.595092,0.40207776,-0.38826588,0.581606,0.40342102,-0.43283696,0.59702,0.37624165,-0.41163645,0.597174,0.35049927,-0.391781,0.592408,0.33752228,-0.37589099,0.587994,0.36204518,-0.34704293,0.57496,0.32585416,-0.3287293,0.552399,0.32961619,-0.34281111,0.541119,0.34837961,-0.36235024,0.550493,0.38090093,-0.33931353,0.568762,0.3519823,-0.33632107,0.544998,0.37511096,-0.38029716,0.569437,0.39472265,-0.41080563,0.585705,0.39912484,-0.33954896,0.565111,0.35854266,-0.30355484,0.546473,0.33984012,-0.28684435,0.541117,0.32306919,-0.2743615,0.537925,0.42351115,-0.34463988,0.563409,0.39632107,-0.33964788,0.546655,0.40177462,-0.37068494,0.561331,0.41296491,-0.388427,0.572917
0.41973581,-0.43502531,0.591636,0.39760098,-0.38468568,0.579994,0.39931026,-0.42998562,0.593401,0.3738133,-0.4098964,0.594828,0.34923807,-0.38976023,0.591162,0.33679423,-0.37158452,0.589358,0.35961314,-0.34721035,0.574388,0.32548026,-0.33006594,0.553754,0.32954631,-0.34171395,0.543437,0.34988502,-0.36347508,0.553762,0.37873441,-0.33922392,0.568906,0.34688596,-0.32863907,0.547169,0.36986202,-0.37154925,0.572346,0.38914451,-0.40229067,0.588112,0.39636626,-0.33691676,0.565646,0.3538739,-0.29856135,0.548347,0.33462497,-0.28031037,0.542419,0.31737849,-0.26385761,0.538301,0.42073839,-0.34195099,0.564051,0.39069918,-0.33059822,0.548437,0.39636126,-0.36154991,0.56357,0.41037186,-0.38470557,0.574933
0.41628365,-0.43205541,0.589123,0.39582021,-0.38367175,0.580206,0.39564702,-0.42694193,0.590505,0.37014908,-0.40704892,0.593471,0.34650183,-0.38635842,0.590642,0.33595441,-0.3703785,0.590337,0.35641107,-0.34728474,0.575951,0.32498742,-0.33146469,0.558255,0.33090319,-0.34353299,0.549408,0.35226681,-0.36502369,0.561081,0.37617241,-0.33912533,0.571713,0.34861828,-0.3299182,0.552992,0.3733451,-0.37368473,0.579123,0.39278533,-0.40278467,0.594097,0.39424565,-0.33649534,0.569184,0.35304196,-0.29762127,0.553827,0.3348093,-0.28070378,0.54597,0.31773414,-0.26502257,0.541892,0.41673519,-0.33880126,0.567925,0.38721553,-0.33948741,0.553973,0.39523451,-0.37132898,0.569698,0.41257257,-0.38812948,0.580705
0.41498774,-0.43107728,0.588709,0.39490579,-0.38314122,0.580276,0.39459949,-0.42635558,0.59048,0.36950309,-0.40642174,0.593424,0.3450083,-0.38582287,0.592855,0.33293788,-0.36828759,0.592804,0.35626731,-0.34737059,0.576856,0.32508484,-0.33162528,0.559544,0.33118187,-0.34379225,0.550888,0.35262082,-0.36533214,0.56267,0.37580098,-0.33890998,0.572245,0.34860699,-0.3297864,0.554008,0.37371809,-0.37360546,0.580162,0.39325611,-0.40219047,0.594968,0.39363022,-0.33600187,0.569356,0.35352707,-0.29803023,0.554588,0.33479271,-0.28076991,0.547032,0.31757763,-0.26518354,0.542627,0.41648791,-0.33860022,0.567588,0.38734764,-0.33960323,0.554162,0.39538783,-0.37147302,0.569919,0.41165623,-0.38794503,0.580754
0.41334551,-0.43228481,0.599408,0.38712974,-0.37564527,0.587612,0.38345328,-0.4180548,0.601217,0.35962497,-0.39774928,0.600441,0.33466418,-0.37605257,0.59528,0.32180932,-0.35663775,0.592018,0.35186304,-0.3357719,0.581957,0.32494072,-0.33050403,0.561152,0.33012882,-0.34190377,0.55075,0.35090224,-0.36380495,0.560988,0.37178705,-0.32970078,0.576377,0.33981622,-0.29639882,0.554448,0.3571186,-0.33567581,0.579555,0.37503689,-0.3627511,0.595368,0.38967798,-0.32902637,0.573053,0.35372391,-0.29010894,0.555571,0.33502486,-0.27964672,0.546626,0.32162236,-0.26933855,0.538495,0.41363363,-0.33605466,0.571412,0.38730586,-0.33977917,0.555716,0.39601365,-0.37127949,0.570808,0.41228998,-0.38841979,0.582183
0.4113401,-0.43090258,0.600146,0.38725632,-0.37587211,0.587944,0.38389422,-0.41844331,0.601825,0.35964029,-0.3979818,0.600789,0.3344089,-0.37622122,0.595478,0.32148494,-0.35684239,0.592226,0.35172255,-0.33572892,0.581847,0.32444896,-0.32984173,0.560665,0.32952924,-0.3412978,0.550074,0.34975244,-0.36300419,0.560157,0.37157448,-0.32969945,0.576323,0.33890243,-0.29802167,0.553969,0.35640785,-0.33792356,0.57898,0.37466401,-0.36451409,0.594917,0.38946671,-0.32908194,0.573089,0.35282727,-0.29009279,0.555313,0.33467538,-0.2749938,0.546218,0.31838602,-0.26477009,0.543597,0.41352594,-0.33622952,0.57163,0.3862124,-0.33939702,0.555597,0.39560527,-0.37080546,0.570622,0.41019119,-0.3867988,0.582091
0.41013738,-0.43007212,0.600581,0.38737445,-0.37602146,0.58817,0.38418365,-0.4187281,0.602251,0.35975193,-0.39817722,0.601083,0.33438741,-0.37634882,0.595657,0.32143651,-0.35697664,0.592405,0.35174141,-0.33577728,0.581919,0.32424203,-0.329534,0.560525,0.32926623,-0.34103438,0.549829,0.3490898,-0.36259556,0.559814,0.37153263,-0.32972478,0.57635,0.33857365,-0.29854189,0.55377,0.35612292,-0.33862546,0.57871,0.37450162,-0.36506244,0.594706,0.38939624,-0.32910048,0.573101,0.35244349,-0.2900174,0.555093,0.33395162,-0.27426825,0.54588,0.31754564,-0.26341707,0.541915,0.41346193,-0.33626507,0.571664,0.38553053,-0.33914446,0.555487,0.39532995,-0.37049278,0.570466,0.41016169,-0.38622863,0.581968
0.40057723,-0.42167634,0.597789,0.38018711,-0.36558395,0.586605,0.37997818,-0.41414745,0.598433,0.34814343,-0.38452687,0.591797,0.32408224,-0.36339852,0.58666,0.31051962,-0.34319094,0.581903,0.34545984,-0.3248843,0.57985,0.32389078,-0.32731898,0.560037,0.32903487,-0.34071254,0.55013,0.34745579,-0.36190469,0.560976,0.36615729,-0.31935024,0.575954,0.3384989,-0.29927821,0.55484,0.35680867,-0.34020505,0.580504,0.37492772,-0.36667152,0.596197,0.38469972,-0.31909096,0.573951,0.35272827,-0.29009088,0.55654,0.33552596,-0.27627139,0.547631,0.31953019,-0.26417059,0.541179,0.40945157,-0.32663803,0.573728,0.37820915,-0.3321867,0.557865,0.39367729,-0.36236548,0.573257,0.41220814,-0.38719809,0.584808
0.40230063,-0.42107172,0.598684,0.39113403,-0.36614182,0.587722,0.38127404,-0.41313305,0.598707,0.35986778,-0.38597116,0.59362,0.33400317,-0.3636907,0.586036,0.32012638,-0.34376894,0.581268,0.35550687,-0.32553214,0.580309,0.33375652,-0.32559309,0.56093,0.33373332,-0.34035799,0.551241,0.35091526,-0.36408538,0.562332,0.3764764,-0.32020167,0.577282,0.34365263,-0.29707289,0.557493,0.3618572,-0.33727113,0.583425,0.37760495,-0.3675039,0.598722,0.39538362,-0.32007514,0.57597,0.35844265,-0.29088412,0.55915,0.34130818,-0.27809021,0.550543,0.32448502,-0.26914316,0.54272,0.4207645,-0.32774969,0.576509,0.38898685,-0.3336678,0.560501,0.40514974,-0.36384864,0.575998,0.4168836,-0.38649493,0.587641
0.40369303,-0.42065603,0.599306,0.39201618,-0.36631141,0.588061,0.38257447,-0.41265611,0.599217,0.36065878,-0.38600492,0.593756,0.33490467,-0.36382887,0.586328,0.3209589,-0.34383092,0.581425,0.35616671,-0.32551561,0.580309,0.33429642,-0.32542013,0.560675,0.33697734,-0.33917515,0.550858,0.35096172,-0.36364962,0.561846,0.37716822,-0.32022583,0.577351,0.34786682,-0.30192167,0.557156,0.3661311,-0.34242071,0.583019,0.37869517,-0.36880327,0.598442,0.39612766,-0.32014723,0.576126,0.36138374,-0.28961293,0.558831,0.34410852,-0.27703788,0.549982,0.32498946,-0.26694368,0.541937,0.42161764,-0.32790612,0.576819,0.3896999,-0.33367418,0.560565,0.40617469,-0.36351236,0.576018,0.42318178,-0.38218436,0.58773
0.40694786,-0.42375219,0.604582,0.39469573,-0.36844851,0.591566,0.38492449,-0.41426331,0.603061,0.35767078,-0.38439987,0.590987,0.32997282,-0.360773,0.579781,0.31160474,-0.33831567,0.571146,0.3634243,-0.32116569,0.580749,0.34272848,-0.32140959,0.559783,0.34296221,-0.33544224,0.5493,0.35179094,-0.36147343,0.559762,0.38610384,-0.32061408,0.579171,0.36000258,-0.30645226,0.556943,0.37461224,-0.34688823,0.582469,0.38586919,-0.37478299,0.598521,0.40597636,-0.32464159,0.579274,0.38026743,-0.30792689,0.559732,0.36671176,-0.29922304,0.549916,0.35409685,-0.29119787,0.541114,0.43163258,-0.33761088,0.58184,0.40139565,-0.33964862,0.563728,0.41662383,-0.37044762,0.57892,0.43021142,-0.38559502,0.591185
0.4148164,-0.42491772,0.602103,0.41603149,-0.36781425,0.590695,0.39378294,-0.40901265,0.601435,0.37469708,-0.38234437,0.587231,0.34586543,-0.35858715,0.573056,0.33122049,-0.33879119,0.567595,0.38503943,-0.32190231,0.582081,0.36593847,-0.32295698,0.562478,0.36625225,-0.33750448,0.552677,0.3807134,-0.36072516,0.56371,0.40737706,-0.32097944,0.579831,0.38280872,-0.29996481,0.559105,0.39822465,-0.33732965,0.584993,0.41139952,-0.36871489,0.600616,0.42685257,-0.32460517,0.579209,0.40349289,-0.30885551,0.56142,0.39106796,-0.30053057,0.552319,0.37952144,-0.2928376,0.544161,0.45184245,-0.33690878,0.58063,0.42365651,-0.3398113,0.563998,0.43960362,-0.3707938,0.579461,0.45610477,-0.38814244,0.591309
0.43255013,-0.41854672,0.602966,0.43344255,-0.36689694,0.591702,0.41171235,-0.40580283,0.601379,0.38498675,-0.38084288,0.585962,0.3545877,-0.35905255,0.570499,0.33676944,-0.33825088,0.560849,0.40423504,-0.31881131,0.581986,0.38818281,-0.31583625,0.562866,0.38680376,-0.33101355,0.553306,0.39964371,-0.35599499,0.56456,0.42765282,-0.32002587,0.580974,0.40829699,-0.30078278,0.560305,0.42480413,-0.33807393,0.586322,0.43601255,-0.36959168,0.601965,0.44776979,-0.3253973,0.581354,0.4294871,-0.30528004,0.56279,0.42645903,-0.32288508,0.553292,0.44004853,-0.35065515,0.564582,0.47310354,-0.33976022,0.583913,0.44845958,-0.33969716,0.566972,0.46490876,-0.37096249,0.582491,0.48048734,-0.38959963,0.59447
0.44272703,-0.41604527,0.60001,0.44295408,-0.36592281,0.590131,0.42247574,-0.40304962,0.598923,0.39508761,-0.3799336,0.584563,0.36476499,-0.35809214,0.568973,0.3471429,-0.33749519,0.559596,0.41464722,-0.31882281,0.582007,0.39991041,-0.31655898,0.564154,0.39879322,-0.33216278,0.555227,0.41216752,-0.35753296,0.566999,0.4378848,-0.31988761,0.580723,0.42012839,-0.301442,0.561533,0.43778603,-0.33896708,0.587871,0.44892944,-0.37027565,0.603079,0.45774789,-0.32504804,0.58073,0.44103501,-0.30563805,0.56345,0.43861854,-0.32365306,0.554608,0.45268092,-0.35180354,0.566431,0.48259063,-0.33899332,0.582595,0.45943091,-0.33961448,0.566834,0.47634083,-0.37101726,0.582577,0.49161746,-0.38944103,0.594228
0.45847126,-0.42043109,0.605568,0.45501335,-0.36805182,0.592153,0.43649897,-0.40636567,0.602675,0.4067212,-0.3808501,0.584936,0.3761095,-0.35788934,0.566658,0.35805889,-0.33654232,0.555195,0.42169825,-0.31893933,0.579277,0.40417705,-0.31411426,0.558413,0.40211459,-0.32638667,0.547982,0.41686907,-0.35124372,0.558458,0.4458292,-0.31993588,0.579377,0.42309631,-0.30183177,0.556434,0.4389101,-0.31184923,0.58189,0.44751971,-0.33938989,0.59818,0.46703232,-0.32526501,0.580906,0.44693705,-0.31020983,0.560312,0.44473849,-0.32870997,0.549775,0.45934153,-0.35534233,0.56019,0.49448114,-0.33987307,0.585202,0.46729093,-0.33836643,0.56623,0.4857621,-0.36864336,0.581347,0.50310052,-0.38820857,0.593885
0.46934654,-0.41980307,0.604539,0.45796768,-0.36691886,0.590887,0.44619311,-0.40624063,0.600961,0.4164985,-0.38274838,0.582258,0.3868181,-0.36176799,0.562803,0.36840541,-0.34124572,0.550289,0.42228425,-0.31785671,0.576957,0.41194865,-0.31594505,0.556119,0.41202922,-0.32851669,0.5457,0.42792022,-0.35286852,0.55614,0.44716881,-0.31867776,0.577885,0.43059111,-0.29801984,0.55461,0.4530486,-0.33055822,0.579974,0.46907078,-0.36241498,0.596355,0.46912266,-0.32387232,0.58012,0.45785345,-0.31293331,0.55987,0.45793107,-0.33160729,0.549509,0.47255687,-0.35695923,0.559984,0.50081235,-0.33671393,0.58528,0.47782983,-0.33167558,0.565868,0.49532242,-0.36222432,0.580911,0.51028268,-0.37547086,0.593575
0.47986017,-0.41892512,0.603915,0.47185295,-0.36597587,0.589926,0.4561693,-0.4060194,0.600277,0.42692085,-0.38218766,0.581405,0.39697858,-0.36086422,0.561397,0.37950655,-0.3407086,0.547817,0.43403036,-0.31735502,0.57569,0.4215234,-0.3150406,0.554527,0.42142851,-0.32746017,0.543945,0.43735074,-0.35166297,0.55424,0.45909386,-0.31753522,0.576604,0.44017722,-0.29713966,0.552972,0.46353941,-0.32956764,0.578236,0.47991786,-0.36141772,0.594714,0.48131247,-0.32221822,0.578865,0.46783294,-0.31220557,0.558568,0.46781787,-0.3308077,0.548184,0.48235863,-0.35607446,0.558596,0.51042609,-0.33604542,0.584118,0.48771622,-0.33084503,0.564451,0.50539412,-0.36129898,0.579427,0.52031327,-0.37457326,0.592156
0.50878308,-0.43056035,0.621759,0.49912158,-0.37444218,0.598788,0.49236408,-0.41590413,0.615292,0.46739919,-0.38490759,0.590663,0.44167153,-0.35634531,0.571431,0.43133877,-0.33636726,0.566201,0.45548271,-0.32165245,0.574768,0.43487094,-0.31031649,0.545663,0.43110163,-0.32164608,0.531111,0.44289741,-0.34274631,0.537133,0.48156948,-0.32292985,0.576911,0.4588664,-0.29074634,0.54388,0.48296621,-0.32245317,0.565471,0.50097742,-0.35509133,0.584197,0.505136,-0.32892598,0.581151,0.48574611,-0.30946589,0.553334,0.48146726,-0.32567682,0.539102,0.49120627,-0.34818683,0.545313,0.53666815,-0.34492839,0.590391,0.50699604,-0.35347684,0.563711,0.51053761,-0.37665656,0.576291,0.51722058,-0.39651261,0.59056
0.53087132,-0.43182992,0.62463,0.5217313,-0.37531952,0.600191,0.51532299,-0.41690791,0.616777,0.48884278,-0.38455114,0.590116,0.46291473,-0.3557741,0.570515,0.45046709,-0.33413472,0.562443,0.4752807,-0.32086954,0.573369,0.45444864,-0.30904659,0.54343,0.44981682,-0.32004121,0.528461,0.46101696,-0.34054485,0.533683,0.50255438,-0.32293265,0.576916,0.47905488,-0.28998671,0.542459,0.50374556,-0.32090726,0.56276,0.52265251,-0.35362889,0.581791,0.52738536,-0.32967309,0.582471,0.50599788,-0.30847373,0.55156,0.49995087,-0.32364822,0.535744,0.50806976,-0.34509071,0.540464,0.56084849,-0.34675238,0.593513,0.53028134,-0.35454596,0.565416,0.53320976,-0.37734871,0.57735,0.54012417,-0.39738948,0.591866
0.55192235,-0.4312254,0.623783,0.54211703,-0.37523514,0.600202,0.53609104,-0.41653725,0.616264,0.51053739,-0.38480731,0.590187,0.48545326,-0.35656055,0.571061,0.47428241,-0.33523068,0.562497,0.4951136,-0.32148219,0.574399,0.47408155,-0.31110967,0.545154,0.46948191,-0.32219097,0.530532,0.48151121,-0.34302309,0.536235,0.52244845,-0.32328992,0.577745,0.50204093,-0.29135398,0.544103,0.52664431,-0.32230703,0.56521,0.54303002,-0.35516889,0.584004,0.54741885,-0.32977517,0.583042,0.52338351,-0.30394158,0.552599,0.51687343,-0.31980023,0.537024,0.52285451,-0.33523122,0.542162,0.58117107,-0.34649012,0.593623,0.55063477,-0.3547889,0.566179,0.55540686,-0.3782509,0.578433,0.56363044,-0.39867377,0.592843
0.54343623,-0.40759838,0.597887,0.53901664,-0.34814471,0.58213,0.52411531,-0.38447381,0.592678,0.51684197,-0.35241293,0.571316,0.50474352,-0.32081585,0.553885,0.50863426,-0.30259261,0.543428,0.50380848,-0.29409631,0.564646,0.48367945,-0.29271718,0.540918,0.46755045,-0.30572912,0.529054,0.46987637,-0.32404611,0.538232,0.53048616,-0.2991019,0.567123,0.51414903,-0.27815117,0.54138,0.50493661,-0.26562565,0.526362,0.51759715,-0.27242339,0.535579,0.55383635,-0.30788692,0.570861,0.54206813,-0.30529853,0.54759,0.53262869,-0.32325508,0.535684,0.53893553,-0.33731776,0.544837,0.58375367,-0.32681958,0.578162,0.55653656,-0.32689399,0.556685,0.56489369,-0.35540437,0.571182,0.57489576,-0.37480169,0.584361
0.56252304,-0.42049371,0.617073,0.55185278,-0.36752214,0.59845,0.53602461,-0.40865241,0.61078,0.54012227,-0.38389777,0.6039,0.52639158,-0.35605675,0.582803,0.53085981,-0.34002648,0.578502,0.51109874,-0.31460913,0.577608,0.49269392,-0.30027161,0.550998,0.47715469,-0.30960316,0.537693,0.47858618,-0.32967701,0.545422,0.53856674,-0.31826875,0.580713,0.51997955,-0.28426175,0.551937,0.50936186,-0.26391815,0.535151,0.51795982,-0.28010686,0.542949,0.56310103,-0.32603116,0.585278,0.54246813,-0.33111447,0.559201,0.52095593,-0.34738345,0.545859,0.52105495,-0.35889081,0.553566,0.59521994,-0.34384803,0.594077,0.56400719,-0.35323763,0.570278,0.57316908,-0.37911108,0.584023,0.58442932,-0.39753803,0.597728
0.58586698,-0.42009369,0.611974,0.57665123,-0.36890813,0.599595,0.56263163,-0.40514189,0.608103,0.57551315,-0.3845849,0.609529,0.55864292,-0.35094516,0.596137,0.57543002,-0.33926408,0.597461,0.54166203,-0.3184704,0.586148,0.53244441,-0.28887149,0.565849,0.52668146,-0.28041177,0.5557,0.53477187,-0.30139192,0.566447,0.56778679,-0.32156944,0.587805,0.55208417,-0.28166127,0.565718,0.54442602,-0.28830824,0.552834,0.55591835,-0.31506307,0.563597,0.59060543,-0.32858934,0.590505,0.57706119,-0.32981825,0.570638,0.55906049,-0.34869332,0.560473,0.56118166,-0.36786489,0.571211,0.61977705,-0.34505761,0.595965,0.59563252,-0.34709791,0.577316,0.60526824,-0.3770708,0.592561,0.61430988,-0.39837469,0.605035
0.60798657,-0.4284959,0.62903,0.59953953,-0.37285963,0.607324,0.59037536,-0.41014195,0.623743,0.60362365,-0.39519802,0.624232,0.59433522,-0.36807661,0.608869,0.59902846,-0.35038784,0.603364,0.56078159,-0.32002188,0.585699,0.54428069,-0.28240825,0.556725,0.53539234,-0.27334389,0.542237,0.54194375,-0.29284475,0.548687,0.58606987,-0.32358928,0.586651,0.56620431,-0.28923892,0.555048,0.55490948,-0.27386358,0.536613,0.56751385,-0.2725986,0.543064,0.60869432,-0.33128917,0.589775,0.59500308,-0.3267587,0.561887,0.57205692,-0.34265563,0.547619,0.56724997,-0.3578007,0.554199,0.63847525,-0.34898335,0.59748,0.61755978,-0.3459253,0.572056,0.62270335,-0.37409708,0.585109,0.62925365,-0.3945906,0.599119
0.62719329,-0.42731565,0.631976,0.62219549,-0.37374248,0.608762,0.6144807,-0.41197388,0.626529,0.62806197,-0.39645724,0.626221,0.62001971,-0.36980676,0.611731,0.62500273,-0.35200689,0.606152,0.58186037,-0.32013498,0.585906,0.56421089,-0.28182743,0.55558,0.55486898,-0.27242642,0.540417,0.56129084,-0.29144854,0.546071,0.60699703,-0.32359093,0.586654,0.5860264,-0.28846873,0.55357,0.57414734,-0.27266833,0.534271,0.58696827,-0.27102243,0.539924,0.62969724,-0.33128748,0.589772,0.61532011,-0.32597595,0.560541,0.59121292,-0.34138292,0.545585,0.58516113,-0.35596908,0.551362,0.65994439,-0.34914339,0.597754,0.63859742,-0.34547842,0.571317,0.64364902,-0.37332856,0.583907,0.65041825,-0.39391486,0.598093
0.62737905,-0.42555355,0.62963,0.6220579,-0.37358195,0.608838,0.61186186,-0.40971275,0.62507,0.63006883,-0.39706579,0.628781,0.63046741,-0.37411762,0.617067,0.63404196,-0.35614736,0.612266,0.58593832,-0.32046179,0.588783,0.57053274,-0.29326514,0.560705,0.55799261,-0.29253844,0.546666,0.55986251,-0.31439214,0.553616,0.61054405,-0.32482814,0.589037,0.59280792,-0.29166978,0.558395,0.58504344,-0.27316709,0.540724,0.58009438,-0.25996645,0.529547,0.63244301,-0.33314011,0.591487,0.60770527,-0.28782992,0.564574,0.59647356,-0.29882207,0.550805,0.60458777,-0.32511224,0.557916,0.66106191,-0.35149046,0.598239,0.64112471,-0.34864187,0.573692,0.63883009,-0.37139714,0.587041,0.63723471,-0.38557208,0.600856
0.63759634,-0.42576959,0.630209,0.63336712,-0.37405165,0.610013,0.61593166,-0.40989725,0.626034,0.64286777,-0.3976541,0.631528,0.64830832,-0.37857704,0.622673,0.65625594,-0.36209149,0.618322,0.59909398,-0.32027744,0.590862,0.58267056,-0.29447396,0.563425,0.5702064,-0.29387514,0.549706,0.57249025,-0.31597265,0.556987,0.62340508,-0.3256276,0.590779,0.60644921,-0.29336759,0.560794,0.59868956,-0.27494362,0.544895,0.59338532,-0.26152728,0.533538,0.64498042,-0.33473884,0.592887,0.61959034,-0.28871136,0.566718,0.60855411,-0.2999181,0.553329,0.61723764,-0.32654929,0.560805,0.67302611,-0.35403603,0.59913,0.65252513,-0.35104564,0.575124,0.64974801,-0.37428105,0.588648,0.64903711,-0.3863312,0.602341
0.64092498,-0.42812035,0.632491,0.63373364,-0.37670042,0.611312,0.61882552,-0.41171791,0.627881,0.64259228,-0.39980497,0.632465,0.6524634,-0.38829964,0.622229,0.6656815,-0.37735641,0.616902,0.59820521,-0.32219239,0.590928,0.57516351,-0.30428928,0.563224,0.56124648,-0.30677093,0.549372,0.56632178,-0.32707337,0.55634,0.6228328,-0.32778403,0.591142,0.60460944,-0.2940525,0.560184,0.5983479,-0.27636292,0.545897,0.59170034,-0.26330425,0.535692,0.64481273,-0.33716068,0.593602,0.61779578,-0.28935442,0.566487,0.60595245,-0.2993289,0.552615,0.6115939,-0.32597239,0.559571,0.67356381,-0.35689536,0.600437,0.65318843,-0.3531714,0.575622,0.65025472,-0.37497615,0.588859,0.64947176,-0.38829324,0.602725
0.63985845,-0.42652861,0.629271,0.63483618,-0.37628164,0.609816,0.62003192,-0.41137811,0.626774,0.6512492,-0.39956313,0.632343,0.66898504,-0.38966879,0.625092,0.6837349,-0.37844264,0.620501,0.60975145,-0.32417515,0.593354,0.59645763,-0.29642175,0.566366,0.57638135,-0.30815224,0.552871,0.57594733,-0.3254525,0.560376,0.63181283,-0.32891951,0.591287,0.61466688,-0.30177262,0.561929,0.6049681,-0.28623877,0.544803,0.59828787,-0.27505307,0.532598,0.65121867,-0.33746839,0.591681,0.63200693,-0.30328453,0.566271,0.62241656,-0.28525608,0.55327,0.61450495,-0.2798211,0.541451,0.67630079,-0.3559822,0.595796,0.65980991,-0.35125287,0.572997,0.65916425,-0.37311813,0.586696,0.65510703,-0.39160245,0.600031
0.6530755,-0.43438365,0.640915,0.65282558,-0.38355986,0.621042,0.63513547,-0.41732611,0.636242,0.66199022,-0.40482356,0.642265,0.67792234,-0.39395483,0.634065,0.69375707,-0.38323212,0.630805,0.6229017,-0.32682953,0.601462,0.60887499,-0.30086238,0.574411,0.58906216,-0.30888467,0.560886,0.58550782,-0.32932865,0.56835,0.64752951,-0.33479127,0.602116,0.63013276,-0.30794179,0.572405,0.62048691,-0.29201473,0.555143,0.61173797,-0.28060328,0.542813,0.6690855,-0.34606394,0.604796,0.64675258,-0.34431246,0.578631,0.63561837,-0.3438757,0.56532,0.62219106,-0.36006926,0.553218,0.69653121,-0.36794344,0.611643,0.65457225,-0.36835911,0.587641,0.65049935,-0.3878145,0.601235,0.64877486,-0.40596391,0.614953
0.66053613,-0.43915613,0.647221,0.65668163,-0.38630015,0.624316,0.63880243,-0.41954772,0.639023,0.62628122,-0.39360735,0.617016,0.60461175,-0.36689146,0.591915,0.59626686,-0.34524832,0.577916,0.61966648,-0.32628702,0.598087,0.59399571,-0.32168999,0.567086,0.58110875,-0.31888353,0.551586,0.57937591,-0.3393066,0.556823,0.64809313,-0.33612083,0.602502,0.62897454,-0.30720938,0.569278,0.63234666,-0.29590206,0.559238,0.633622,-0.28686713,0.552067,0.67330471,-0.34921093,0.608606,0.64919862,-0.34483463,0.578304,0.64088607,-0.34438813,0.5628,0.61688273,-0.35699851,0.548706,0.70583687,-0.37375488,0.619996,0.66231942,-0.37182635,0.592752,0.65601034,-0.39005319,0.605076,0.65427338,-0.40810753,0.619443
0.66130524,-0.44048396,0.647684,0.65639087,-0.38744819,0.624147,0.63668416,-0.42066541,0.640119,0.6494527,-0.39750956,0.62837,0.64769947,-0.36471929,0.617072,0.64841031,-0.3420114,0.613896,0.62051634,-0.3272163,0.598312,0.59467316,-0.32259119,0.567309,0.58160455,-0.31989324,0.551807,0.57972248,-0.34013061,0.556994,0.64751202,-0.33708864,0.601731,0.62990334,-0.30893321,0.567985,0.63777982,-0.29995153,0.564099,0.64407487,-0.29315976,0.561324,0.67142033,-0.35165651,0.607082,0.64760896,-0.35156724,0.576622,0.634672,-0.35225265,0.561037,0.63069806,-0.37718966,0.566174,0.70123426,-0.3799386,0.617719,0.66140001,-0.37002423,0.590286,0.65526015,-0.38845655,0.602545,0.65369702,-0.40689331,0.616953
0.65920778,-0.44008023,0.645371,0.65476286,-0.39004098,0.622417,0.63441752,-0.41969337,0.637373,0.64056475,-0.4002626,0.619296,0.62781861,-0.36594158,0.601658,0.63113403,-0.34645299,0.596714,0.61932042,-0.32844316,0.596413,0.5928824,-0.32282919,0.565514,0.57973426,-0.32016448,0.550065,0.57792849,-0.34037757,0.555357,0.6468981,-0.34078076,0.600555,0.62917637,-0.31154015,0.567309,0.63673528,-0.30256331,0.563393,0.64299237,-0.29428667,0.560595,0.67071357,-0.35522977,0.60644,0.64824934,-0.35118106,0.576198,0.63595026,-0.35104834,0.560726,0.63444287,-0.37213643,0.566004,0.70135266,-0.38151174,0.617585,0.665443,-0.37049442,0.590375,0.65921097,-0.38924346,0.602725,0.65873621,-0.40756011,0.61709
0.65860557,-0.4404747,0.644574,0.65416917,-0.39057116,0.621905,0.63407642,-0.4198889,0.636656,0.64008378,-0.39996206,0.618831,0.62823723,-0.36596155,0.601613,0.63065862,-0.3455994,0.596952,0.6192656,-0.32893294,0.596199,0.59297084,-0.32348212,0.565555,0.57989424,-0.32090311,0.550233,0.57822257,-0.34120129,0.555683,0.64669182,-0.34116668,0.600315,0.62920874,-0.31206801,0.567354,0.63698936,-0.30321926,0.563672,0.64338081,-0.29527533,0.561041,0.67045907,-0.35559116,0.606148,0.64857854,-0.35111467,0.576159,0.63659872,-0.35076775,0.560817,0.63476147,-0.37285752,0.566254,0.70098182,-0.38181327,0.617179,0.66622176,-0.37057697,0.590178,0.66014203,-0.38956655,0.602624,0.65905677,-0.40794518,0.616953
0.65889754,-0.44132274,0.643898,0.65377102,-0.39086447,0.621558,0.63479953,-0.42023525,0.636079,0.63973421,-0.3997436,0.618493,0.62854566,-0.36602905,0.601685,0.63059963,-0.34527066,0.59724,0.61937224,-0.32930089,0.596205,0.59331896,-0.32403507,0.565861,0.58036558,-0.32155451,0.55069,0.5788604,-0.34196848,0.556322,0.64668132,-0.34140849,0.600281,0.62952825,-0.31248261,0.56765,0.63724124,-0.30360701,0.563922,0.64355803,-0.29584351,0.56126,0.67037937,-0.35579704,0.606045,0.64898482,-0.35121214,0.576354,0.63726465,-0.35081509,0.561163,0.63538119,-0.37357827,0.566784,0.70075097,-0.38193917,0.616936,0.66682462,-0.37070156,0.590179,0.66089032,-0.38987195,0.602735,0.65759314,-0.40864629,0.617021
0.65627778,-0.43979414,0.640033,0.65132601,-0.38777347,0.619277,0.63286595,-0.4187264,0.632565,0.63953716,-0.3993242,0.618724,0.62886705,-0.37074791,0.598086,0.63399412,-0.34912314,0.593887,0.61880446,-0.32904107,0.595458,0.60418047,-0.31043666,0.566484,0.58684268,-0.31449096,0.551997,0.58247427,-0.33903472,0.558442,0.64592084,-0.34006243,0.59951,0.63322483,-0.30721379,0.568466,0.64192916,-0.29425685,0.561267,0.64230371,-0.28755328,0.556124,0.6696107,-0.35517618,0.605083,0.64959216,-0.35155775,0.57677,0.63868269,-0.35152601,0.562284,0.6372893,-0.37509799,0.568729,0.69938216,-0.38089066,0.615454,0.66654681,-0.37108538,0.589842,0.65975892,-0.39018879,0.602881,0.65760181,-0.40887893,0.616951
0.65565758,-0.44031831,0.639188,0.65078259,-0.3876981,0.618837,0.63249894,-0.41902482,0.631741,0.6394745,-0.39919778,0.619102,0.62983874,-0.37049414,0.598317,0.63953347,-0.3523132,0.594534,0.6184442,-0.3290297,0.59532,0.60311699,-0.31017867,0.56665,0.58607488,-0.31444895,0.552316,0.58316388,-0.33828589,0.558936,0.64569449,-0.34001932,0.599455,0.63290989,-0.30785439,0.568811,0.64148979,-0.29392875,0.562266,0.64422135,-0.28719971,0.557591,0.66942307,-0.35391483,0.605054,0.64973573,-0.3515499,0.577061,0.63907014,-0.35155679,0.562739,0.63768805,-0.3755334,0.569367,0.69924762,-0.38042121,0.615378,0.66510743,-0.37132308,0.590038,0.65981792,-0.39055788,0.603182,0.65769592,-0.409023,0.617197
0.65644851,-0.44113295,0.639518,0.65101123,-0.38785819,0.619132,0.63342066,-0.41953362,0.63201,0.64078473,-0.39760076,0.620478,0.63391502,-0.36941513,0.60087,0.64314257,-0.3530442,0.597213,0.61824604,-0.32835501,0.595511,0.60004862,-0.31176537,0.566774,0.58166883,-0.3221128,0.552405,0.58122711,-0.34201368,0.558988,0.64571179,-0.339205,0.599717,0.63366021,-0.30605801,0.56903,0.64249911,-0.2934577,0.563849,0.64843336,-0.28578269,0.560149,0.66965838,-0.35298894,0.605378,0.64945412,-0.34964717,0.577328,0.63978079,-0.34978486,0.562977,0.63762077,-0.37530702,0.56957,0.69978763,-0.37908039,0.615781,0.66524956,-0.37150118,0.590397,0.65991538,-0.39068383,0.603521,0.65779919,-0.40910274,0.617543
0.65525268,-0.44110387,0.63871,0.65068259,-0.38810474,0.618841,0.63257684,-0.41943677,0.631388,0.64006171,-0.39771024,0.619927,0.63082442,-0.36725993,0.600461,0.64287243,-0.35280255,0.597277,0.61830965,-0.32842607,0.595813,0.59956944,-0.31241317,0.567577,0.58259017,-0.31881871,0.553458,0.58265668,-0.33932191,0.560323,0.64570736,-0.33917597,0.599918,0.63169693,-0.30706591,0.569763,0.63711758,-0.2951499,0.562672,0.63927392,-0.29020255,0.557607,0.66953939,-0.35284697,0.605439,0.64880096,-0.34706652,0.577878,0.63830082,-0.34640353,0.563778,0.63811289,-0.3734377,0.570652,0.69948163,-0.37696248,0.615583,0.66239991,-0.37091592,0.590602,0.65799693,-0.39037411,0.603886,0.6578086,-0.40908367,0.617828
0.65549946,-0.44232856,0.639388,0.64962138,-0.38898295,0.618768,0.63202193,-0.42031111,0.631386,0.63658618,-0.3985272,0.623272,0.63451948,-0.37000718,0.606275,0.64890359,-0.35694465,0.603978,0.60465674,-0.32736256,0.594344,0.58874907,-0.31188036,0.565112,0.57474912,-0.3189409,0.550496,0.5773878,-0.34091548,0.556793,0.63328965,-0.3353887,0.599129,0.6211928,-0.3033332,0.568149,0.62938596,-0.29110935,0.563285,0.63809936,-0.28510489,0.559811,0.65858577,-0.34690791,0.605291,0.64400881,-0.34560574,0.576819,0.63532326,-0.34533271,0.562252,0.63559206,-0.37367314,0.568579,0.69121834,-0.36945583,0.616321,0.66271226,-0.36961046,0.590621,0.6565146,-0.38881196,0.603586,0.65603861,-0.4082462,0.617657
0.65408419,-0.44208303,0.638479,0.64843824,-0.38833171,0.618221,0.63059397,-0.42023737,0.630552,0.63988113,-0.39843709,0.623777,0.63572022,-0.37087626,0.606922,0.64897003,-0.35697218,0.604705,0.60445123,-0.3272513,0.594142,0.58885117,-0.31193445,0.56521,0.57420045,-0.31912962,0.550743,0.57692716,-0.34138125,0.557216,0.63307719,-0.33527618,0.598928,0.6213743,-0.30342183,0.568315,0.63010888,-0.29144372,0.563932,0.63850025,-0.28453671,0.560801,0.65832682,-0.34677151,0.605053,0.64330829,-0.34550283,0.576896,0.6351111,-0.34531876,0.562491,0.63533579,-0.37405439,0.568999,0.69082468,-0.36924543,0.61597,0.66234253,-0.36871277,0.590533,0.65653802,-0.38851194,0.603602,0.65611079,-0.40851079,0.617621
0.65384648,-0.44258757,0.639421,0.63250241,-0.38569783,0.618424,0.63094375,-0.42158012,0.632306,0.62658818,-0.39802151,0.624813,0.62771815,-0.37333985,0.611671,0.64397831,-0.35389821,0.611793,0.59484375,-0.3276688,0.5949,0.57906503,-0.31237044,0.566,0.56282229,-0.3196893,0.551551,0.56266237,-0.34169976,0.558021,0.62210903,-0.33499572,0.598427,0.60957719,-0.30287565,0.567292,0.61794579,-0.29095689,0.56299,0.62459479,-0.28194601,0.559917,0.64622176,-0.34593532,0.603594,0.62904788,-0.34423352,0.575273,0.62064845,-0.34379022,0.560784,0.6196045,-0.36985196,0.567231,0.67743769,-0.36778755,0.613538,0.64661906,-0.36485117,0.587889,0.64179191,-0.38590226,0.600929,0.6398274,-0.40635859,0.615013
0.65288397,-0.44194259,0.639321,0.63175764,-0.38483256,0.617515,0.63024648,-0.42181009,0.632797,0.62909081,-0.39972025,0.627261,0.62881482,-0.37457264,0.613034,0.64071692,-0.35954902,0.611641,0.59248119,-0.32783957,0.594212,0.57591427,-0.3106059,0.564896,0.55946376,-0.31847382,0.550239,0.55970686,-0.34054694,0.556478,0.6190611,-0.33372367,0.596748,0.59609016,-0.29780641,0.564826,0.59671007,-0.28490132,0.558248,0.59756655,-0.27620452,0.553551,0.64281025,-0.34350673,0.601187,0.62469356,-0.34220646,0.572558,0.61578344,-0.34197341,0.557911,0.61515123,-0.36825781,0.564156,0.67399685,-0.36404458,0.610438,0.64217604,-0.36242715,0.584477,0.63776662,-0.38358513,0.597387,0.63642774,-0.40425073,0.611529
0.65103913,-0.44110619,0.638504,0.63082674,-0.38627908,0.61921,0.63087489,-0.42363473,0.63499,0.62722009,-0.40598823,0.634866,0.62712292,-0.38108829,0.626089,0.63737496,-0.36482137,0.626579,0.58350311,-0.33571145,0.601532,0.56513255,-0.31424346,0.575462,0.55142369,-0.32291421,0.562427,0.55600489,-0.34672703,0.570305,0.60768818,-0.33625677,0.600835,0.58207258,-0.29833258,0.571935,0.58277839,-0.28517939,0.569986,0.58357336,-0.27606102,0.568593,0.62982451,-0.34154326,0.60234,0.61188912,-0.33823573,0.577274,0.60299649,-0.33691772,0.564449,0.60701974,-0.36499198,0.572451,0.65992158,-0.35661512,0.607714,0.62805501,-0.35577489,0.584568,0.62754987,-0.37998798,0.598342,0.63388912,-0.40380017,0.611829
0.64675305,-0.44147985,0.640336,0.61375566,-0.3866728,0.620375,0.62008952,-0.42692951,0.636812,0.61427064,-0.40628149,0.635558,0.61126334,-0.38124857,0.627163,0.61845745,-0.36402641,0.626868,0.57111371,-0.33569789,0.602233,0.55157838,-0.31544889,0.575527,0.53768353,-0.324502,0.562174,0.54190322,-0.34823131,0.56971,0.5951369,-0.33580513,0.601366,0.56822945,-0.29918045,0.571821,0.56669466,-0.28636291,0.568418,0.56583928,-0.27758321,0.565988,0.61720677,-0.340746,0.602803,0.59813478,-0.33903689,0.577229,0.58861163,-0.33858372,0.564144,0.59210659,-0.36678451,0.571839,0.64734221,-0.35542498,0.608223,0.61457413,-0.35612981,0.584645,0.6139211,-0.3800934,0.598237,0.61469997,-0.40251442,0.611806
0.63450444,-0.44240497,0.641666,0.60326909,-0.38715662,0.621118,0.60498529,-0.42933934,0.637982,0.6035865,-0.40724049,0.636654,0.60001698,-0.38218873,0.628261,0.60640325,-0.36467828,0.627603,0.55978094,-0.33610273,0.602367,0.53926984,-0.3155514,0.575019,0.52528675,-0.32445384,0.561345,0.52925803,-0.34800461,0.568556,0.58382075,-0.33594643,0.601548,0.55580313,-0.29910832,0.5714,0.55348281,-0.28628964,0.567839,0.5520333,-0.27751569,0.565296,0.60598934,-0.34070428,0.603089,0.5860639,-0.33876993,0.576979,0.57607403,-0.33819477,0.563621,0.57926425,-0.36626191,0.57102,0.63639937,-0.35522786,0.608739,0.60300789,-0.35591784,0.584716,0.60229482,-0.37992393,0.598144,0.60323686,-0.40253344,0.611805
0.62128654,-0.43923874,0.637163,0.59865813,-0.38503896,0.619195,0.59860771,-0.42698642,0.635033,0.59556458,-0.40279116,0.636292,0.59281924,-0.37709588,0.63096,0.59944863,-0.35912946,0.631695,0.55858747,-0.33588115,0.60422,0.53432416,-0.31152921,0.579773,0.52049294,-0.31983245,0.567549,0.52520593,-0.3438516,0.576115,0.58137891,-0.33503357,0.602082,0.54951946,-0.29442097,0.574806,0.54706813,-0.28012481,0.573828,0.54534664,-0.27007893,0.573129,0.5993228,-0.33792847,0.602258,0.57792721,-0.33257084,0.57902,0.56704282,-0.33010912,0.56713,0.57063972,-0.35815349,0.575895,0.62790314,-0.35150348,0.60584,0.5931518,-0.34918494,0.584164,0.59350102,-0.3741816,0.598247,0.59419305,-0.39697713,0.611336
0.6098329,-0.43514309,0.641203,0.58443032,-0.37464371,0.621438,0.58063329,-0.41590451,0.640121,0.55981619,-0.39175454,0.630428,0.5363395,-0.36676467,0.617473,0.523296,-0.344629,0.609486,0.54712093,-0.32458503,0.60661,0.52186286,-0.30401206,0.580944,0.50540966,-0.31368688,0.568112,0.50756431,-0.33687973,0.575747,0.5680631,-0.32437778,0.602615,0.53585692,-0.2854936,0.5739,0.5298076,-0.27025811,0.571002,0.52531523,-0.2595539,0.568932,0.58737428,-0.32901315,0.601455,0.56128132,-0.32529164,0.577523,0.54783805,-0.32370631,0.565278,0.5480806,-0.35076601,0.573263,0.61388386,-0.34328151,0.603824,0.57667655,-0.34250495,0.5815,0.57511055,-0.36617221,0.594971,0.57499474,-0.38777731,0.608051
0.5979112,-0.43255533,0.648817,0.56878206,-0.37632234,0.623523,0.5780354,-0.41921751,0.648173,0.55296673,-0.39819137,0.636455,0.52469883,-0.36952249,0.614837,0.51416475,-0.34362001,0.602978,0.53270459,-0.32414987,0.60551,0.5082544,-0.27693927,0.575824,0.49601974,-0.2535131,0.560981,0.50086403,-0.2399826,0.565522,0.55093744,-0.32519079,0.599433,0.53013001,-0.26393425,0.565766,0.53597716,-0.26626307,0.575303,0.53674978,-0.28578756,0.582115,0.56817955,-0.33099968,0.597156,0.53834145,-0.32005565,0.569567,0.52185058,-0.31707003,0.555451,0.51696835,-0.33996384,0.560425,0.59257272,-0.34689895,0.599267,0.544439,-0.35220038,0.573861,0.54671688,-0.37293433,0.585229,0.55456641,-0.39078151,0.598578
0.601505,-0.43485404,0.656497,0.5661567,-0.37023428,0.624651,0.57217106,-0.4176718,0.653037,0.54346157,-0.39073458,0.635878,0.51080018,-0.36326252,0.614571,0.49304081,-0.34005322,0.601294,0.51906904,-0.31562594,0.598521,0.51218972,-0.27329507,0.589012,0.50733088,-0.25442438,0.584257,0.50209748,-0.2389123,0.579935,0.53905353,-0.31589163,0.594321,0.5085463,-0.2515449,0.554097,0.51231068,-0.26043849,0.563759,0.52547348,-0.28792746,0.582928,0.55886271,-0.32141447,0.594296,0.51957144,-0.31443978,0.5605,0.4993448,-0.31106009,0.54321,0.49335205,-0.33294912,0.543999,0.58826196,-0.33765295,0.600252,0.53554045,-0.34272856,0.569837,0.534542,-0.36288529,0.578575,0.54112549,-0.3832356,0.592668
0.59025378,-0.42908594,0.654801,0.55875502,-0.36482988,0.625155,0.56755116,-0.41431308,0.651167,0.54050521,-0.3887967,0.634845,0.504138,-0.35747869,0.612354,0.48927601,-0.33665441,0.599792,0.51276181,-0.31103146,0.600292,0.50462854,-0.2702468,0.590379,0.50039259,-0.24987703,0.585422,0.49654206,-0.23098876,0.580916,0.53385792,-0.31074786,0.59692,0.4997487,-0.24707184,0.558474,0.50758747,-0.25424097,0.570314,0.52386033,-0.28110485,0.589844,0.55424999,-0.3157313,0.597338,0.52082486,-0.30541305,0.564462,0.50366201,-0.3002808,0.547641,0.50291256,-0.32305639,0.549869,0.58381046,-0.3311575,0.603397,0.53746494,-0.33513789,0.574021,0.53798335,-0.35797468,0.583981,0.54530136,-0.38364108,0.598182
0.58909024,-0.42775743,0.654573,0.56206069,-0.36687792,0.624988,0.56584632,-0.41283023,0.650423,0.53873988,-0.38727161,0.633196,0.5014611,-0.35502186,0.610164,0.48392505,-0.33160299,0.5982,0.51374294,-0.31082551,0.599494,0.50616278,-0.27023245,0.590871,0.50228405,-0.2496587,0.58656,0.49875347,-0.23059114,0.58264,0.53545747,-0.31111107,0.596812,0.50016783,-0.24737903,0.558268,0.50884568,-0.25500827,0.570792,0.52577091,-0.28214898,0.590459,0.55633995,-0.31656171,0.597791,0.52335862,-0.30577705,0.56499,0.50642107,-0.30065675,0.548208,0.50646781,-0.32363301,0.550573,0.58641049,-0.33253911,0.60449,0.54032191,-0.33604398,0.574893,0.54047773,-0.35871023,0.584951,0.5468033,-0.38320531,0.599267
0.58757959,-0.42695174,0.654499,0.55889432,-0.36494565,0.62506,0.56437586,-0.41218133,0.650468,0.53626081,-0.38573856,0.633302,0.49877776,-0.3527918,0.610675,0.48136299,-0.32928035,0.599603,0.51316353,-0.31065197,0.599821,0.50623857,-0.27012965,0.592229,0.50271216,-0.24948708,0.588434,0.49950011,-0.23035747,0.584983,0.53476537,-0.31090345,0.597023,0.49916672,-0.24733103,0.558639,0.50840379,-0.25576609,0.571776,0.52552118,-0.283152,0.591448,0.55551796,-0.31632599,0.597892,0.52278031,-0.30466495,0.565263,0.50445137,-0.29828843,0.548569,0.50631792,-0.32203411,0.551034,0.58537982,-0.33227031,0.604435,0.53960841,-0.3351407,0.574975,0.53969406,-0.35790973,0.58509,0.545696,-0.38032875,0.599381
0.5862941,-0.42646631,0.654086,0.55807352,-0.36499553,0.62464,0.56291747,-0.41165193,0.649902,0.53508321,-0.38541632,0.632641,0.49731511,-0.35232951,0.609731,0.48110963,-0.3297496,0.59833,0.5122517,-0.31051052,0.599195,0.50587801,-0.270173,0.592379,0.5026387,-0.24955809,0.588971,0.49968682,-0.23044654,0.585872,0.53401125,-0.31087866,0.596595,0.4981371,-0.24731972,0.558161,0.50774507,-0.25622237,0.571702,0.52498975,-0.2837565,0.591407,0.55489872,-0.31640458,0.597628,0.52211046,-0.30421446,0.564897,0.50526789,-0.29847641,0.548151,0.50572115,-0.32125871,0.550605,0.58492077,-0.33248728,0.604361,0.5391596,-0.33496975,0.574823,0.53919302,-0.3577883,0.584952,0.54515865,-0.38028446,0.599275
0.58610276,-0.4261587,0.656852,0.55543708,-0.3638136,0.623882,0.5591728,-0.40974655,0.650934,0.5227075,-0.37277492,0.631264,0.49338777,-0.34117166,0.608583,0.47761653,-0.31592834,0.594713,0.50606892,-0.30663623,0.593788,0.50038846,-0.26364827,0.593031,0.49809046,-0.24382658,0.592652,0.49933415,-0.22941657,0.592308,0.5287712,-0.30779665,0.592483,0.48704995,-0.24845359,0.550622,0.49870409,-0.27279797,0.56552,0.51682995,-0.30261732,0.585338,0.55082525,-0.31417747,0.594961,0.51504157,-0.30036946,0.558899,0.49668509,-0.29364616,0.540449,0.49571979,-0.31523522,0.540347,0.58290326,-0.33167265,0.604034,0.53480052,-0.33217554,0.571855,0.53377797,-0.35416524,0.580269,0.54105293,-0.37731471,0.594857
0.58558961,-0.42620434,0.657504,0.55464031,-0.3633817,0.623831,0.55892413,-0.40982954,0.651739,0.52265614,-0.37332754,0.631828,0.49288072,-0.34205967,0.609079,0.4768539,-0.32198541,0.595369,0.5043468,-0.30469349,0.59346,0.49892587,-0.26350102,0.592192,0.49621873,-0.24369179,0.591558,0.49309682,-0.22787762,0.590982,0.52758735,-0.30700034,0.591762,0.48483691,-0.24932721,0.549376,0.49419466,-0.27709197,0.563568,0.51384126,-0.30404626,0.583356,0.54937937,-0.3133403,0.593993,0.5128112,-0.3004332,0.557596,0.4935617,-0.29476398,0.538975,0.49185088,-0.31410872,0.538354,0.58122698,-0.33085231,0.602912,0.53242211,-0.3308351,0.570463,0.53165852,-0.35302084,0.578444,0.53902487,-0.37612507,0.59296
0.58462636,-0.42581843,0.657346,0.55388087,-0.36294433,0.623541,0.55812464,-0.4094334,0.651591,0.52237772,-0.37332501,0.6317,0.49252215,-0.34222401,0.60901,0.47684584,-0.32130903,0.595171,0.50370711,-0.30427832,0.593092,0.49835125,-0.26340595,0.591809,0.49557357,-0.24363643,0.591168,0.49235833,-0.22788438,0.590585,0.52685489,-0.30650248,0.591345,0.48400611,-0.24957185,0.548856,0.49362117,-0.27677042,0.562914,0.51284624,-0.30451937,0.582695,0.5486036,-0.3128895,0.593551,0.51176105,-0.30028925,0.55708,0.49236891,-0.29468007,0.538421,0.49058976,-0.31417354,0.537698,0.58039979,-0.33047065,0.602465,0.53143061,-0.33056247,0.569957,0.53082319,-0.35264099,0.577855,0.53826221,-0.37575356,0.592359
0.58533429,-0.42690902,0.658864,0.5538877,-0.36341888,0.62396,0.55861736,-0.41030905,0.652759,0.52247162,-0.37430708,0.631939,0.49234838,-0.34315812,0.609233,0.47625633,-0.32102339,0.594699,0.50361875,-0.30514136,0.59231,0.49705825,-0.26359686,0.590477,0.49342201,-0.2445115,0.589561,0.48971369,-0.22962929,0.588727,0.5260276,-0.30639108,0.590719,0.48113595,-0.25916139,0.54728,0.4910586,-0.28883524,0.560237,0.50988805,-0.31681439,0.580016,0.5479811,-0.31295109,0.59317,0.50972745,-0.3004181,0.55584,0.48874256,-0.29561991,0.536741,0.48655814,-0.31508707,0.53511,0.57975173,-0.33088408,0.602576,0.53060941,-0.33122063,0.5694,0.52946434,-0.35233438,0.576612,0.53724449,-0.37612064,0.591084
0.58426332,-0.42658701,0.658261,0.55325389,-0.36339436,0.623595,0.5579061,-0.41019379,0.652415,0.52243304,-0.37494345,0.632029,0.49228395,-0.34395085,0.609495,0.47710109,-0.32242509,0.595449,0.50348098,-0.30536596,0.592444,0.49582334,-0.26361123,0.589241,0.49159875,-0.24453531,0.58764,0.48673576,-0.23337927,0.586184,0.52565918,-0.3065169,0.590581,0.48161383,-0.25344834,0.547395,0.49124901,-0.27712582,0.560565,0.50968126,-0.30928661,0.58032,0.54737688,-0.31297908,0.592782,0.5081203,-0.30159058,0.55575,0.48867408,-0.29663086,0.536803,0.48590954,-0.31879408,0.535385,0.57882822,-0.33079901,0.601854,0.52824603,-0.33192994,0.568907,0.52893333,-0.35253892,0.576256,0.53671988,-0.37613226,0.590701
