sluyters/QuantumLeap/backend/src/datasets/gesture/HandGestureDataset_SHREC2017_csv/Gesture12/finger_1/subject_10_essai_3_skeletons_world.csv
Wrist_x,Wrist_y,Wrist_z,Palm_x,Palm_y,Palm_z,thumb_base_x,thumb_base_y,thumb_base_z,thumb_first_joint_x,thumb_first_joint_y,thumb_first_joint_z,thumb_second_joint_x,thumb_second_joint_y,thumb_second_joint_z,thumb_tip_x,thumb_tip_y,thumb_tip_z,index_base_x,index_base_y,index_base_z,index_first_joint_x,index_first_joint_y,index_first_joint_z,index_second_joint_x,index_second_joint_y,index_second_joint_z,index_tip_x,index_tip_y,index_tip_z,middle_base_x,middle_base_y,middle_base_z,middle_first_joint_x,middle_first_joint_y,middle_first_joint_z,middle_second_joint_x,middle_second_joint_y,middle_second_joint_z,middle_tip_x,middle_tip_y,middle_tip_z,ring_base_x,ring_base_y,ring_base_z,ring_first_joint_x,ring_first_joint_y,ring_first_joint_z,ring_second_joint_x,ring_second_joint_y,ring_second_joint_z,ring_tip_x,ring_tip_y,ring_tip_z,pinky_base_x,pinky_base_y,pinky_base_z,pinky_first_joint_x,pinky_first_joint_y,pinky_first_joint_z,pinky_second_joint_x,pinky_second_joint_y,pinky_second_joint_z,pinky_tip_x,pinky_tip_y,pinky_tip_z,
0.44066449,-0.37512616,0.519072,0.43201749,-0.32094554,0.505898,0.41388092,-0.35624395,0.510362,0.37171553,-0.31402708,0.490494,0.33561192,-0.28829894,0.46998,0.31917212,-0.26646461,0.461818,0.39924686,-0.25825833,0.485773,0.39952513,-0.21989179,0.487857,0.39970387,-0.20040131,0.488898,0.39986042,-0.18249273,0.489845,0.42736407,-0.26557737,0.492207,0.4148997,-0.21388213,0.470683,0.40929731,-0.21481324,0.458128,0.40321635,-0.2268234,0.449159,0.45090629,-0.27536558,0.498542,0.43349594,-0.22917663,0.476749,0.43066127,-0.22952427,0.465599,0.42578711,-0.24167362,0.455462,0.47734267,-0.29491989,0.508011,0.46892155,-0.25519699,0.488079,0.46460579,-0.2584422,0.478921,0.45777889,-0.26790331,0.47084
0.44207742,-0.37607769,0.528156,0.43282842,-0.31067734,0.511332,0.415305,-0.34615287,0.519855,0.37434139,-0.30517281,0.497161,0.34011775,-0.27315897,0.476909,0.32395939,-0.24972473,0.467791,0.40226452,-0.2496995,0.489125,0.40459177,-0.21333476,0.494875,0.40621942,-0.19465074,0.49775,0.40768801,-0.17737366,0.500363,0.4285751,-0.25828567,0.493846,0.42527309,-0.21095222,0.468978,0.41686407,-0.21278634,0.454471,0.40061278,-0.22408937,0.44411,0.45071219,-0.26928914,0.499061,0.44304159,-0.24718411,0.474769,0.43050597,-0.26174193,0.46234,0.43146629,-0.27765676,0.470238,0.47750658,-0.29206149,0.507739,0.46278453,-0.26214979,0.485569,0.4568436,-0.27540796,0.475383,0.46196215,-0.28858576,0.480712
0.43763965,-0.36525293,0.529486,0.43210137,-0.30901852,0.511744,0.41186736,-0.33966908,0.520335,0.37067607,-0.2980843,0.496811,0.33686796,-0.26497768,0.477231,0.32150025,-0.24134701,0.468299,0.40117667,-0.24673824,0.487833,0.40497186,-0.21065139,0.494052,0.4091828,-0.18971389,0.497161,0.4097213,-0.17480999,0.499988,0.42791292,-0.25633497,0.493304,0.42447091,-0.21103014,0.467504,0.4126638,-0.21684217,0.452454,0.39828944,-0.22411504,0.441704,0.45048066,-0.26821142,0.499208,0.44609088,-0.24104329,0.473842,0.42646002,-0.2524449,0.460864,0.42230935,-0.26866022,0.468143,0.47785426,-0.29210743,0.50884,0.46140164,-0.27615881,0.485817,0.45450404,-0.2865081,0.475239,0.45854423,-0.29595413,0.480107
0.4233369,-0.34797768,0.516114,0.43074564,-0.29208661,0.510262,0.4024142,-0.32313613,0.510817,0.37266728,-0.28385962,0.493652,0.34350712,-0.25364918,0.482004,0.33340232,-0.23346985,0.480796,0.41376467,-0.23622959,0.499555,0.41398346,-0.19607159,0.498636,0.41487,-0.17613777,0.499106,0.41580316,-0.15788981,0.499681,0.43999539,-0.24712998,0.50418,0.44053104,-0.22939594,0.490002,0.42259221,-0.24979018,0.481731,0.424971,-0.26694875,0.493547,0.46116719,-0.25959019,0.508448,0.46097067,-0.24399517,0.493867,0.4464823,-0.26059464,0.486407,0.44913533,-0.28291597,0.498507,0.48543086,-0.28104425,0.51438,0.47563061,-0.27504278,0.500466,0.47328389,-0.2882279,0.494073,0.48113514,-0.30478641,0.502683
0.42326961,-0.33244781,0.515037,0.43342488,-0.28267295,0.507545,0.40362337,-0.31071126,0.509361,0.37213694,-0.27338662,0.492002,0.34029488,-0.24278962,0.475989,0.32880752,-0.2263736,0.474006,0.41397268,-0.22651358,0.495206,0.41482549,-0.18756318,0.49701,0.41549473,-0.16789361,0.498209,0.41620634,-0.15394884,0.499796,0.44031922,-0.23694455,0.49976,0.44062599,-0.21118766,0.483956,0.42330296,-0.22998131,0.474737,0.42940669,-0.24567947,0.486023,0.46182171,-0.24907657,0.504099,0.45943857,-0.23115822,0.488066,0.44452829,-0.24724721,0.479863,0.44666693,-0.26658331,0.49143,0.48692483,-0.27028922,0.510357,0.47514057,-0.26390486,0.495194,0.47128514,-0.27731266,0.488228,0.48164757,-0.28498048,0.496415
0.42244096,-0.32738306,0.512519,0.43281822,-0.27849591,0.505677,0.40289104,-0.30564642,0.506821,0.37561173,-0.26515127,0.488876,0.3466266,-0.23384478,0.474901,0.33540985,-0.2120686,0.471162,0.41593252,-0.21934616,0.493771,0.41838372,-0.18099545,0.496891,0.42009822,-0.16178212,0.499033,0.4195845,-0.14722571,0.500981,0.44237243,-0.23031212,0.498566,0.44102602,-0.20986439,0.483384,0.42330053,-0.22919998,0.474527,0.428441,-0.24584567,0.48599,0.46383889,-0.24285661,0.503052,0.46039534,-0.22825925,0.487508,0.44536361,-0.24200098,0.479556,0.45073774,-0.26044442,0.491279,0.48732296,-0.26714042,0.50939,0.47578667,-0.26111312,0.494663,0.47188382,-0.27471037,0.487897,0.48139495,-0.28488068,0.496213
0.42456213,-0.32020947,0.511563,0.43404665,-0.2719844,0.504606,0.40486536,-0.29830801,0.505679,0.37211476,-0.25792931,0.488236,0.34032472,-0.22726918,0.471744,0.32966752,-0.20789388,0.466792,0.41734933,-0.21299918,0.492388,0.41924688,-0.17392138,0.494192,0.42099784,-0.15447401,0.496037,0.42186113,-0.14029394,0.499039,0.44378463,-0.22425782,0.497375,0.44278622,-0.20607336,0.482061,0.42435414,-0.22454035,0.473127,0.4287904,-0.24448058,0.484519,0.46519964,-0.23701468,0.502029,0.46259866,-0.22314581,0.486306,0.44613392,-0.23838003,0.478262,0.45138184,-0.25746686,0.489893,0.48888641,-0.26145923,0.508582,0.47775851,-0.25629627,0.493716,0.47359112,-0.26760108,0.486886,0.48138718,-0.28216994,0.495135
0.42243085,-0.31616482,0.508141,0.43285209,-0.26632881,0.501333,0.40271277,-0.29423442,0.502127,0.37085085,-0.25453321,0.484538,0.34036564,-0.22382872,0.468923,0.32760315,-0.20216477,0.464252,0.41478194,-0.2102869,0.48906,0.41664729,-0.17105338,0.490528,0.41799191,-0.15133088,0.491742,0.41930763,-0.13324759,0.492952,0.44133635,-0.22159794,0.494257,0.44556525,-0.19429089,0.479072,0.42863802,-0.21328004,0.470214,0.42734566,-0.23615967,0.481618,0.46286404,-0.23438377,0.499073,0.46251119,-0.21840393,0.483402,0.44532271,-0.23482681,0.475385,0.44889308,-0.25518948,0.487007,0.48772309,-0.25622565,0.505796,0.47786852,-0.25174299,0.49099,0.47339159,-0.26550611,0.484188,0.4786547,-0.27875721,0.492435
0.42175959,-0.31419686,0.50682,0.43210489,-0.2653986,0.500286,0.40209795,-0.29228883,0.500841,0.37039749,-0.25337858,0.483263,0.34025842,-0.22259863,0.467813,0.32779123,-0.20098505,0.463398,0.4141807,-0.20951293,0.488251,0.41590414,-0.17014826,0.489452,0.41717915,-0.15035188,0.490533,0.4184303,-0.13219566,0.49162,0.44076764,-0.22083654,0.493495,0.44510673,-0.19409095,0.478579,0.42833172,-0.21312763,0.469878,0.42789239,-0.23482275,0.481363,0.46230724,-0.23361999,0.498327,0.46229518,-0.21766585,0.482886,0.44569434,-0.23426564,0.474986,0.44871807,-0.25479163,0.486687,0.48715448,-0.25543552,0.50503,0.47766354,-0.251002,0.490424,0.47332583,-0.26482141,0.483714,0.47948828,-0.27914627,0.492025
0.42460634,-0.316062,0.510382,0.42913626,-0.26569672,0.497429,0.40260503,-0.29219174,0.501424,0.36701848,-0.25144985,0.47967,0.33507192,-0.21941872,0.461839,0.32187653,-0.19743834,0.456032,0.40789394,-0.20509106,0.477154,0.40741027,-0.1636674,0.473411,0.40751702,-0.14277208,0.47154,0.40767806,-0.12357699,0.469892,0.43543592,-0.21788473,0.483967,0.43550422,-0.19143581,0.462632,0.4151763,-0.20884902,0.450187,0.41285461,-0.22655552,0.459056,0.45627429,-0.23015945,0.490597,0.45120204,-0.21112026,0.468858,0.43773784,-0.22708926,0.457736,0.4336784,-0.24422943,0.466608,0.48356876,-0.25361014,0.500384,0.46947005,-0.24552922,0.480527,0.46467932,-0.25743242,0.471404,0.47166229,-0.27607598,0.477539
0.42442616,-0.31994875,0.511384,0.42915695,-0.27502645,0.495777,0.40273728,-0.29616642,0.502723,0.3687289,-0.261219,0.480687,0.3386886,-0.22822541,0.467224,0.32767419,-0.20749703,0.464165,0.40545344,-0.21313532,0.473989,0.40583516,-0.17227074,0.471368,0.4060856,-0.15157003,0.470058,0.40637605,-0.13259607,0.468926,0.43185215,-0.2253213,0.479558,0.42950048,-0.19869025,0.45577,0.40790451,-0.21514698,0.441893,0.4068916,-0.23013577,0.449968,0.45366128,-0.23916306,0.485374,0.44909495,-0.21217033,0.461797,0.4317896,-0.22538125,0.449735,0.4292398,-0.24344605,0.457915,0.47970922,-0.26294062,0.494587,0.46443282,-0.24490494,0.47308,0.4574369,-0.25494536,0.463199,0.46373084,-0.2730398,0.468765
0.42565485,-0.32556388,0.51362,0.42953442,-0.279055,0.496413,0.40252976,-0.30203137,0.503557,0.36679511,-0.2634582,0.479743,0.33800908,-0.23012238,0.465407,0.32739239,-0.20904731,0.462004,0.40434806,-0.21891307,0.471753,0.40660669,-0.17858302,0.470055,0.40825727,-0.1581887,0.469206,0.41017942,-0.13946111,0.468434,0.43129589,-0.2321837,0.47853,0.4282607,-0.20763529,0.453141,0.40582647,-0.22380044,0.438331,0.40232826,-0.23941661,0.445472,0.45364525,-0.24698829,0.485467,0.44928334,-0.2245785,0.460071,0.43209004,-0.23698592,0.447077,0.42816215,-0.25495092,0.454179,0.4805008,-0.2720709,0.496246,0.46654118,-0.2540041,0.473294,0.45880216,-0.25940267,0.462748,0.46428695,-0.27726882,0.467509
0.42921333,-0.32967841,0.516203,0.43366492,-0.28321356,0.497818,0.40573386,-0.30684156,0.505858,0.37236208,-0.27354502,0.480752,0.33769248,-0.24174944,0.463244,0.32404771,-0.22017358,0.457943,0.40399163,-0.21921417,0.471976,0.40107618,-0.17758198,0.465788,0.39712966,-0.15715843,0.462694,0.39637759,-0.13812462,0.461145,0.43154888,-0.22897289,0.478712,0.42000337,-0.21293547,0.452222,0.40166936,-0.23026339,0.436769,0.40139526,-0.2466894,0.443404,0.45477143,-0.24291925,0.485708,0.44761847,-0.22442093,0.460256,0.43256136,-0.23668392,0.447234,0.43054536,-0.25612744,0.454102,0.4843097,-0.2646178,0.496732,0.45772027,-0.25603213,0.472949,0.43194704,-0.25858041,0.462022,0.42673777,-0.26606255,0.466385
0.43302016,-0.33610497,0.510492,0.43581938,-0.28892064,0.493262,0.41267798,-0.31433364,0.5004,0.37267494,-0.28161653,0.475717,0.33745899,-0.25011434,0.455381,0.32096099,-0.22666478,0.442643,0.40182561,-0.22621703,0.46855,0.39866678,-0.18528035,0.462477,0.39712649,-0.1643682,0.459441,0.39577902,-0.14510677,0.45668,0.43080356,-0.23598758,0.475354,0.41792278,-0.22269988,0.449941,0.39880469,-0.23993283,0.435117,0.39873173,-0.25648164,0.442241,0.45309993,-0.24674283,0.482315,0.44308045,-0.23419835,0.456889,0.42863896,-0.24625167,0.44388,0.42824442,-0.26717179,0.450962,0.48639483,-0.27041303,0.493126,0.46060088,-0.26134236,0.470151,0.43638253,-0.26484639,0.459595,0.43069305,-0.27387412,0.464341
0.44027855,-0.34280698,0.510779,0.43845927,-0.29725669,0.493263,0.41704272,-0.32440916,0.501093,0.37389252,-0.29268349,0.47777,0.33717798,-0.26302269,0.460569,0.32158486,-0.24257023,0.455671,0.40241465,-0.23467025,0.468851,0.39865322,-0.1935252,0.460826,0.39680914,-0.17251236,0.456813,0.39518361,-0.15314917,0.453197,0.43105625,-0.24338335,0.475059,0.41788972,-0.23280134,0.449416,0.39857203,-0.24967187,0.434458,0.39823982,-0.26604369,0.441594,0.45562953,-0.25466419,0.481552,0.44339606,-0.23617266,0.456101,0.42950653,-0.24732851,0.44308,0.42915978,-0.26889534,0.450232,0.4866384,-0.27600281,0.49185,0.45896457,-0.26850104,0.468809,0.43616385,-0.27306245,0.458223,0.43124267,-0.28344652,0.46301
0.44257302,-0.34997403,0.509411,0.43798308,-0.29937704,0.492668,0.4165317,-0.32679403,0.499334,0.37247946,-0.29762867,0.475908,0.33570789,-0.26911258,0.460129,0.32101531,-0.24613914,0.456069,0.40151493,-0.23688588,0.46832,0.39592207,-0.19855348,0.456628,0.39341095,-0.1776931,0.450782,0.39119568,-0.15845482,0.445499,0.43072676,-0.24580428,0.475267,0.41977516,-0.2330674,0.450305,0.40206111,-0.24966329,0.435744,0.40181336,-0.26732317,0.443042,0.45577597,-0.25723435,0.482306,0.44543782,-0.24591088,0.457244,0.4332061,-0.25641317,0.444422,0.43260206,-0.27535577,0.451669,0.48734791,-0.27871744,0.493139,0.46116949,-0.27148413,0.470482,0.43926171,-0.27657582,0.460071,0.43396675,-0.28819898,0.464949
0.43936627,-0.35314736,0.503018,0.43434268,-0.30255865,0.487569,0.41573017,-0.33234765,0.495979,0.373903,-0.30598511,0.476069,0.33487123,-0.27538884,0.455423,0.316406,-0.25311086,0.446516,0.40280164,-0.246112,0.467901,0.38957019,-0.20125516,0.446213,0.39334028,-0.18373292,0.447186,0.39690297,-0.16697402,0.448071,0.42911323,-0.25323895,0.471514,0.42186165,-0.24128623,0.448361,0.40604525,-0.25847751,0.434855,0.40655478,-0.27760866,0.443398,0.45138082,-0.26308474,0.475708,0.4449952,-0.2535428,0.453813,0.434132,-0.26565713,0.442611,0.43527162,-0.28884853,0.451612,0.47910863,-0.2823932,0.482971,0.45602791,-0.27785844,0.462102,0.43559721,-0.28379323,0.452514,0.43079589,-0.29678522,0.458494
0.43859428,-0.35963958,0.500842,0.43461623,-0.3159384,0.486367,0.415924,-0.34381421,0.494374,0.37398842,-0.31610254,0.475261,0.33484967,-0.28535506,0.455018,0.31650374,-0.26318365,0.446379,0.40286235,-0.25632162,0.468096,0.39096341,-0.2123398,0.447434,0.39423455,-0.19485385,0.447561,0.39742579,-0.17834989,0.447676,0.42889048,-0.26301509,0.471324,0.42298766,-0.25259151,0.449745,0.4081493,-0.27031351,0.437157,0.40924601,-0.2898989,0.446307,0.45086773,-0.27248026,0.475124,0.44621983,-0.26167671,0.454461,0.43671917,-0.27341757,0.443889,0.43790626,-0.29389279,0.453453,0.47815582,-0.29127669,0.481776,0.45596386,-0.28756327,0.461731,0.43624227,-0.29370916,0.45252,0.43186475,-0.307227,0.458876
0.43880486,-0.37400949,0.499858,0.43449994,-0.32583139,0.485346,0.41610185,-0.35405918,0.493922,0.37471824,-0.32637392,0.475434,0.33550736,-0.29501408,0.45478,0.31685769,-0.27218661,0.445376,0.40413761,-0.26612668,0.467708,0.39302054,-0.22259237,0.447295,0.39551423,-0.20489285,0.44615,0.39799808,-0.18829058,0.445109,0.42952397,-0.27276447,0.470264,0.42345352,-0.26358914,0.448549,0.40802973,-0.28124643,0.435881,0.4088843,-0.30050164,0.445043,0.45086572,-0.28218513,0.473515,0.446733,-0.27297874,0.453413,0.4371434,-0.28517244,0.443127,0.43905327,-0.30956275,0.452913,0.47722595,-0.30091522,0.479521,0.45502899,-0.29799724,0.459646,0.43573819,-0.30367678,0.450515,0.43084424,-0.31779051,0.456957
0.43892425,-0.37917082,0.499994,0.43442295,-0.33536221,0.48526,0.41635469,-0.3642379,0.49406,0.37477341,-0.33614469,0.475504,0.33565565,-0.30468834,0.454981,0.31704764,-0.28179576,0.445643,0.4039285,-0.27529119,0.467466,0.39267084,-0.23172702,0.446897,0.39538835,-0.21437796,0.446008,0.39807855,-0.19809319,0.445199,0.42923443,-0.28188465,0.469947,0.42293712,-0.27304603,0.448002,0.40739318,-0.29052544,0.435201,0.40817778,-0.30965618,0.444274,0.45052199,-0.2912972,0.473154,0.44633101,-0.28251775,0.453005,0.43671921,-0.29476845,0.442697,0.43859572,-0.31918789,0.452441,0.47684578,-0.31007003,0.479139,0.45900706,-0.30468203,0.459125,0.44001178,-0.31042363,0.449929,0.43266904,-0.32076928,0.45631
0.43935632,-0.38873647,0.499445,0.4357956,-0.34409746,0.485071,0.41661877,-0.37322459,0.492975,0.37571088,-0.34565055,0.473708,0.3361561,-0.31464514,0.453749,0.31794903,-0.2927882,0.446327,0.40373349,-0.28379977,0.466867,0.39269512,-0.24055452,0.446323,0.39574223,-0.22365877,0.445673,0.39871049,-0.20768074,0.445082,0.42974361,-0.29032144,0.470131,0.42296464,-0.28852835,0.448691,0.40716292,-0.30657324,0.436184,0.40797253,-0.32421537,0.445382,0.45170249,-0.29970276,0.473954,0.44771639,-0.28520502,0.453358,0.43865395,-0.29650737,0.442821,0.44065121,-0.32147631,0.452417,0.4789765,-0.3184931,0.480617,0.45967779,-0.31517375,0.460634,0.44161107,-0.32142882,0.451453,0.43737124,-0.33605524,0.457834
0.43816614,-0.38975899,0.497453,0.43472337,-0.34320164,0.483408,0.41563357,-0.37364778,0.491179,0.3744702,-0.34524774,0.472296,0.33480051,-0.31466061,0.452464,0.3157271,-0.29223284,0.442778,0.40325612,-0.28314384,0.46568,0.39254066,-0.24007537,0.44547,0.39541318,-0.22304859,0.444589,0.39822001,-0.20696464,0.443788,0.42915798,-0.28969321,0.46881,0.42294552,-0.28635685,0.44766,0.40753945,-0.30441801,0.435323,0.40849088,-0.32278483,0.444657,0.45098814,-0.29907839,0.472496,0.44735698,-0.28554302,0.45227,0.4386419,-0.29668724,0.441922,0.44085174,-0.32198902,0.45169,0.47803425,-0.31783741,0.478949,0.45881686,-0.31464799,0.459247,0.44076907,-0.32093627,0.450194,0.43661729,-0.3356209,0.456701
0.43885821,-0.39774843,0.497851,0.4328063,-0.35338438,0.482763,0.41625051,-0.38085921,0.491517,0.3727156,-0.35655762,0.472495,0.33247736,-0.32575351,0.452247,0.31282081,-0.30293756,0.440714,0.40084075,-0.29234491,0.464223,0.38944783,-0.24889662,0.443223,0.39262145,-0.23233788,0.442706,0.39570515,-0.21666962,0.442236,0.4264951,-0.29884189,0.467083,0.41947385,-0.29359785,0.444872,0.40375674,-0.31092925,0.431915,0.40410417,-0.32517231,0.440837,0.44817252,-0.30825309,0.470629,0.44446499,-0.29650062,0.44971,0.43569536,-0.30696361,0.439007,0.43766149,-0.3325418,0.448434,0.47515663,-0.32718135,0.47707,0.45499901,-0.32378433,0.456683,0.43656816,-0.32971572,0.447316,0.43213892,-0.3441276,0.45353
0.43697028,-0.41250342,0.496225,0.43221908,-0.36324649,0.482108,0.41418101,-0.39241256,0.490319,0.3707992,-0.36686528,0.472479,0.32991455,-0.33648476,0.451626,0.30965492,-0.3139038,0.439641,0.40132688,-0.30273287,0.464786,0.39073596,-0.25980474,0.444689,0.39302277,-0.24356754,0.442849,0.39547277,-0.22881661,0.441176,0.42681834,-0.30910398,0.467437,0.42065155,-0.30498552,0.446121,0.40541321,-0.32269779,0.433687,0.40639286,-0.34156076,0.443006,0.44827251,-0.31838244,0.470734,0.44554228,-0.30777349,0.4508,0.43727734,-0.31878362,0.440601,0.43966713,-0.34492178,0.450489,0.47482397,-0.33708532,0.476736,0.45543739,-0.33457567,0.457123,0.43734503,-0.34074826,0.448112,0.43322134,-0.35545571,0.454666
0.43776017,-0.41857643,0.497122,0.43257051,-0.37389182,0.4825,0.41476978,-0.40354309,0.491016,0.37110763,-0.37765757,0.472872,0.33001901,-0.3468709,0.451769,0.30978944,-0.32425436,0.439832,0.40114296,-0.31262291,0.464573,0.39014725,-0.26948296,0.444019,0.39258435,-0.25361318,0.442355,0.39517427,-0.23921766,0.440843,0.4266969,-0.31904873,0.467304,0.42008015,-0.31512027,0.445515,0.40458965,-0.33251392,0.432806,0.40539661,-0.35114096,0.44192,0.44824584,-0.32842348,0.470706,0.44509061,-0.31800497,0.450343,0.43660544,-0.32898283,0.439924,0.43880046,-0.35507651,0.449601,0.47499528,-0.34734365,0.476908,0.4552162,-0.34488756,0.456901,0.43695074,-0.35087742,0.447708,0.43267251,-0.36545827,0.45409
0.43907929,-0.43052454,0.49862,0.43361675,-0.38517112,0.483667,0.41680555,-0.41614831,0.493426,0.37244963,-0.38954832,0.474582,0.33374371,-0.36096352,0.458706,0.31488533,-0.3397444,0.450274,0.40292256,-0.32408309,0.466634,0.39205309,-0.28091821,0.446188,0.39347716,-0.26453073,0.443361,0.39517606,-0.24979256,0.440845,0.42744838,-0.32966105,0.468127,0.41913355,-0.32972511,0.445784,0.40244459,-0.34677507,0.432751,0.40308504,-0.36369742,0.441735,0.44808491,-0.33836189,0.470537,0.44455987,-0.32815671,0.449806,0.43588591,-0.33911208,0.439199,0.43800601,-0.3652487,0.448787,0.47370149,-0.35650667,0.475609,0.45406048,-0.35445966,0.455741,0.43588107,-0.3604293,0.446612,0.43168061,-0.37504934,0.453049
0.4390106,-0.44114235,0.498542,0.43285955,-0.39541158,0.483641,0.41666865,-0.42691282,0.493424,0.37191349,-0.40091153,0.474683,0.33292689,-0.37256474,0.458829,0.31379747,-0.35150343,0.450406,0.40147752,-0.33437617,0.466739,0.39009692,-0.29124083,0.446358,0.39098934,-0.27489334,0.443289,0.3922967,-0.26030225,0.440668,0.42602402,-0.33950797,0.468155,0.41779799,-0.34003099,0.445849,0.40157536,-0.35705726,0.432837,0.40246735,-0.37399322,0.441841,0.44672091,-0.34787114,0.470498,0.44314009,-0.33807392,0.449844,0.43474489,-0.34923197,0.439276,0.43721692,-0.37563282,0.448898,0.47249578,-0.36566299,0.475483,0.45296041,-0.3641211,0.455678,0.43500534,-0.37025038,0.446578,0.43101788,-0.38504767,0.45304
0.43782512,-0.4470325,0.497368,0.43214731,-0.39573037,0.483926,0.41458522,-0.42712236,0.491164,0.37093338,-0.40151461,0.473183,0.32896466,-0.3707324,0.453059,0.30893242,-0.34925063,0.443937,0.40001506,-0.33537085,0.466713,0.38949507,-0.29322243,0.447039,0.38984787,-0.27663985,0.443168,0.39074692,-0.26192552,0.439873,0.42598484,-0.34115136,0.469955,0.42104417,-0.34375071,0.449415,0.40644675,-0.36182833,0.437433,0.40760039,-0.37909744,0.447002,0.44786348,-0.34997911,0.473686,0.44736442,-0.34214992,0.454783,0.44069042,-0.35439935,0.445112,0.44393055,-0.3814105,0.455355,0.47497197,-0.36818309,0.480103,0.45732529,-0.36794876,0.460814,0.43946262,-0.37475115,0.451951,0.43599524,-0.38843354,0.458629
0.44004888,-0.45636687,0.500066,0.43302392,-0.40782332,0.485985,0.41553851,-0.43580732,0.492553,0.37111767,-0.41382571,0.47317,0.32869834,-0.38325207,0.452383,0.30933324,-0.36307244,0.445028,0.39856795,-0.3464108,0.466699,0.38737361,-0.30415628,0.445973,0.38850006,-0.28856298,0.442811,0.38996093,-0.27461882,0.439937,0.42557976,-0.35255039,0.471351,0.42196396,-0.3561331,0.450498,0.40788589,-0.37397286,0.438334,0.40854708,-0.39065366,0.447571,0.4484509,-0.36173267,0.476291,0.44891081,-0.34938185,0.456227,0.44265784,-0.35785511,0.445961,0.44599484,-0.38484347,0.45559,0.47696067,-0.38047587,0.484239,0.4598375,-0.38077222,0.464086,0.44149232,-0.38757173,0.454826,0.43797755,-0.39948783,0.461064
0.44038628,-0.46087553,0.501353,0.43285133,-0.41181031,0.486484,0.41478123,-0.44682031,0.49313,0.37038899,-0.41503488,0.472359,0.3295134,-0.38417269,0.452478,0.30980824,-0.36219141,0.443592,0.3985719,-0.35285978,0.465761,0.38833626,-0.31122366,0.444218,0.38955601,-0.2958037,0.440144,0.39112233,-0.28211211,0.43644,0.42584894,-0.35992185,0.471031,0.42207086,-0.36507324,0.449562,0.40671957,-0.38221956,0.437039,0.40634733,-0.39770418,0.445905,0.44886585,-0.36988514,0.476543,0.45018266,-0.35642895,0.455888,0.44501106,-0.36665455,0.44532,0.44728921,-0.39051937,0.454556,0.47738961,-0.38959156,0.485285,0.4598947,-0.39057751,0.464392,0.44082409,-0.39672688,0.454793,0.43645878,-0.40761298,0.46066
0.44080772,-0.47412178,0.503393,0.43318776,-0.42670125,0.487643,0.41567195,-0.45741047,0.495621,0.37216703,-0.42705405,0.474576,0.33391402,-0.39494416,0.45659,0.31538837,-0.3693624,0.448556,0.39916422,-0.36358372,0.466854,0.38786749,-0.32154091,0.444814,0.38856045,-0.30616362,0.440562,0.38961003,-0.29254531,0.436697,0.42591723,-0.37015782,0.471275,0.42005807,-0.37485214,0.448761,0.40401352,-0.39122544,0.435628,0.40373127,-0.40633208,0.444202,0.44855359,-0.37979319,0.476158,0.44837358,-0.36630216,0.454998,0.44247532,-0.3764327,0.444171,0.44547498,-0.40398874,0.453246,0.47675163,-0.39925082,0.484284,0.45788931,-0.40003902,0.462972,0.43847535,-0.40579456,0.45318,0.43422525,-0.41645281,0.458923
0.43959435,-0.48309081,0.503154,0.4329505,-0.43735047,0.488778,0.41548906,-0.46801322,0.49574,0.37265866,-0.43547385,0.474988,0.33631689,-0.40310337,0.458793,0.31855249,-0.37702598,0.450681,0.39887791,-0.3749047,0.469405,0.38772745,-0.33270151,0.448483,0.3880612,-0.31703037,0.444342,0.38879895,-0.30316603,0.440606,0.42572046,-0.38111068,0.473837,0.41981963,-0.39075667,0.452649,0.40404364,-0.4071228,0.440289,0.40445589,-0.42101942,0.449424,0.44842742,-0.39041876,0.47862,0.44900898,-0.37653159,0.45848,0.44409677,-0.38682462,0.448176,0.44905861,-0.41173608,0.457771,0.47670339,-0.40944035,0.486424,0.45913705,-0.41049267,0.466113,0.44059161,-0.41687608,0.456781,0.43698122,-0.42848042,0.462966
0.43767499,-0.48320516,0.500677,0.43217568,-0.43610145,0.487571,0.41453788,-0.46838012,0.494331,0.37303656,-0.4388377,0.476625,0.33003246,-0.40690117,0.456021,0.31322236,-0.38717891,0.45193,0.39983262,-0.37578538,0.470421,0.39136155,-0.33467021,0.450965,0.387367,-0.31445266,0.441237,0.38717388,-0.29615059,0.435367,0.42593063,-0.38110835,0.473951,0.42115932,-0.39188188,0.453798,0.40600464,-0.40884117,0.442042,0.40690569,-0.42322841,0.451732,0.44787231,-0.38959031,0.47789,0.45016589,-0.37718908,0.459339,0.44598474,-0.38838241,0.449848,0.45123825,-0.41520903,0.460214,0.47499134,-0.40741295,0.484505,0.4584134,-0.40983721,0.465383,0.44043963,-0.41671173,0.456597,0.43731718,-0.42881169,0.463335
0.43941628,-0.48606444,0.502218,0.43311114,-0.43644047,0.488319,0.41575291,-0.47006923,0.495392,0.37277759,-0.43977311,0.476596,0.33100699,-0.40961845,0.457202,0.31350163,-0.38953251,0.452683,0.39937636,-0.3751952,0.470012,0.3910208,-0.334376,0.45,0.39170071,-0.31792821,0.445306,0.39350798,-0.30356249,0.442101,0.42583373,-0.38068996,0.473873,0.42021713,-0.39071581,0.453021,0.40485186,-0.40730274,0.440857,0.40564943,-0.42139619,0.450217,0.44818956,-0.38937411,0.478149,0.44761984,-0.38398573,0.458849,0.44079288,-0.39715984,0.448974,0.4437304,-0.42405794,0.458967,0.476002,-0.40756347,0.485281,0.46186376,-0.40358584,0.465478,0.44405812,-0.41030876,0.456379,0.43852775,-0.42564074,0.462814
0.43814772,-0.48570181,0.501073,0.43175639,-0.43534829,0.48756,0.41427289,-0.46912529,0.494162,0.37025342,-0.44002275,0.475446,0.33031251,-0.41037844,0.457689,0.31292266,-0.39063605,0.453549,0.39797735,-0.37436704,0.469422,0.39033511,-0.33493918,0.449755,0.39131806,-0.31903307,0.445184,0.39333047,-0.3050329,0.442018,0.42465913,-0.37997842,0.473516,0.41930166,-0.39026304,0.453089,0.40428427,-0.40711845,0.441173,0.40530897,-0.4213684,0.450673,0.44720589,-0.38873514,0.477952,0.44810112,-0.37680202,0.458785,0.44330734,-0.38795743,0.448979,0.44664383,-0.418637,0.459036,0.4752363,-0.406972,0.485217,0.46137705,-0.40379054,0.465635,0.44378539,-0.41071376,0.456637,0.43893489,-0.42545264,0.463154
0.43811716,-0.48618122,0.501045,0.43159614,-0.43347011,0.487262,0.41401378,-0.46912096,0.49395,0.37045312,-0.43908605,0.474894,0.32935698,-0.40990115,0.456394,0.31164292,-0.38984755,0.451874,0.39708336,-0.37374079,0.468705,0.38978808,-0.33481887,0.448821,0.39099951,-0.31920549,0.444194,0.393224,-0.30543961,0.440977,0.42389912,-0.37935611,0.472937,0.41843394,-0.38947355,0.452278,0.40337458,-0.40618722,0.440227,0.40432657,-0.42026934,0.449612,0.44659068,-0.38812972,0.477508,0.44698142,-0.37834697,0.457963,0.43924261,-0.39247664,0.447963,0.44465621,-0.41794573,0.45785,0.47485273,-0.40641435,0.484974,0.46095625,-0.40373374,0.465154,0.44326849,-0.41058164,0.456047,0.43845123,-0.4246408,0.462455
0.43687137,-0.48533538,0.499623,0.43002226,-0.43225405,0.485851,0.41279697,-0.46817823,0.492692,0.36902651,-0.43814625,0.473513,0.32822743,-0.40935341,0.455542,0.31061859,-0.38955562,0.451312,0.39344895,-0.37183189,0.467505,0.38838366,-0.33392305,0.447907,0.39003338,-0.31839327,0.444374,0.39284918,-0.30536261,0.441161,0.4202494,-0.37693441,0.471539,0.41467703,-0.38612866,0.450847,0.40021508,-0.4030538,0.438777,0.40269862,-0.41848563,0.448179,0.44299841,-0.38529709,0.475946,0.44258562,-0.37635605,0.456249,0.43596308,-0.38876636,0.446171,0.43885015,-0.41566955,0.45604,0.47146441,-0.40311486,0.483215,0.45815172,-0.40140673,0.463458,0.4403756,-0.40824938,0.454381,0.43751482,-0.42112238,0.460827
0.4317346,-0.47702016,0.493483,0.42341711,-0.42270744,0.47962,0.40917476,-0.46178894,0.488549,0.36250523,-0.43153574,0.470197,0.32432248,-0.40639761,0.4571,0.31018037,-0.39189627,0.455485,0.38632564,-0.36239288,0.463681,0.37850262,-0.32393667,0.444227,0.37478904,-0.3047018,0.434559,0.37478198,-0.28958755,0.42954,0.4114205,-0.36519413,0.465211,0.40368743,-0.37189852,0.443929,0.38986731,-0.38900024,0.431514,0.39344971,-0.40691532,0.440937,0.43280379,-0.3716836,0.467567,0.42965569,-0.36219867,0.447614,0.42202659,-0.374686,0.437406,0.42530171,-0.40117957,0.447389,0.45982259,-0.38728872,0.472412,0.44521747,-0.38514299,0.453332,0.42810485,-0.39241436,0.444565,0.42653763,-0.40247501,0.451345
0.42553853,-0.46931778,0.488775,0.40987013,-0.40926304,0.474303,0.40151329,-0.44810663,0.482435,0.34781377,-0.41912912,0.464749,0.307743,-0.39409522,0.448741,0.28628957,-0.37252371,0.440722,0.37386861,-0.34811814,0.456191,0.36782075,-0.30780694,0.436137,0.36898604,-0.2906856,0.430905,0.37171885,-0.27583463,0.427882,0.4002064,-0.35256056,0.459262,0.39257366,-0.35824872,0.437687,0.38039892,-0.3756683,0.425102,0.38336435,-0.39070202,0.434267,0.4226949,-0.36044014,0.462932,0.41811383,-0.34929413,0.442161,0.41160932,-0.36096602,0.431534,0.41621434,-0.38786448,0.441081,0.45111205,-0.37782351,0.469429,0.43295286,-0.3811738,0.449431,0.42175651,-0.38863953,0.440243,0.42222841,-0.40073549,0.446623
0.41772109,-0.46490591,0.48227,0.40643372,-0.40712527,0.471387,0.39197427,-0.44523707,0.477424,0.34497006,-0.41612745,0.46246,0.30411228,-0.38877548,0.444028,0.28381954,-0.36805208,0.437046,0.3747978,-0.34896574,0.457669,0.37010931,-0.30992675,0.440615,0.36787617,-0.29009248,0.432087,0.36961543,-0.27460637,0.428622,0.40053204,-0.35338845,0.460076,0.39565967,-0.36100646,0.441871,0.38594014,-0.38046179,0.431252,0.39056232,-0.39747652,0.441817,0.42220228,-0.36103814,0.462916,0.42035135,-0.35372114,0.445946,0.41610093,-0.36717828,0.437263,0.42417049,-0.39792545,0.448473,0.4490291,-0.37772466,0.467897,0.43368166,-0.38206531,0.450765,0.42350156,-0.39081274,0.442894,0.42577282,-0.40524067,0.450468
0.40547931,-0.45670996,0.479734,0.39335717,-0.3988372,0.468539,0.38296092,-0.43844949,0.475314,0.33190285,-0.40236008,0.460382,0.29483631,-0.37459883,0.445039,0.27646461,-0.35249248,0.438186,0.36410471,-0.33966162,0.45513,0.35750207,-0.302747,0.437872,0.35748284,-0.28642026,0.433073,0.35895616,-0.27212578,0.430327,0.38941239,-0.34499834,0.456905,0.38032598,-0.35171045,0.438275,0.37001125,-0.37106819,0.427408,0.37557508,-0.38838827,0.43786,0.41066903,-0.35342494,0.459251,0.40423502,-0.34661784,0.44145,0.3982568,-0.35985027,0.432343,0.40531887,-0.38803145,0.443304,0.43683941,-0.37111755,0.463691,0.41860796,-0.37398966,0.44652,0.40731462,-0.38259731,0.438631,0.4123346,-0.39472875,0.446196
0.38925315,-0.44577444,0.476772,0.38221812,-0.38962267,0.468342,0.36839199,-0.42831189,0.474109,0.32281194,-0.39404614,0.460999,0.28565005,-0.36481461,0.444524,0.26763638,-0.34277873,0.43755,0.3556704,-0.3339613,0.459067,0.34955956,-0.29190913,0.44448,0.34970192,-0.27312745,0.441174,0.35153918,-0.25683895,0.440222,0.38000284,-0.33800171,0.459581,0.37315788,-0.34375119,0.443463,0.365604,-0.36471829,0.434061,0.37262362,-0.38389,0.445485,0.40022023,-0.34517654,0.46067,0.39550582,-0.33822495,0.445652,0.39202221,-0.35189551,0.437969,0.40161716,-0.38156674,0.450079,0.42476929,-0.36099726,0.463209,0.40911541,-0.36365357,0.448538,0.39965706,-0.37358001,0.441798,0.40582568,-0.38681605,0.450297
0.37889736,-0.43142982,0.474694,0.36942425,-0.37007759,0.462211,0.3554739,-0.4083257,0.473974,0.31458027,-0.3812997,0.462226,0.27623157,-0.35467469,0.444947,0.2558439,-0.3318689,0.435215,0.34139521,-0.31558595,0.452467,0.32994276,-0.27373202,0.43463,0.32671879,-0.25448448,0.428974,0.32525246,-0.23765584,0.425715,0.36308887,-0.31665163,0.449238,0.34805176,-0.32277909,0.428606,0.3384367,-0.34113719,0.41657,0.34562735,-0.35668299,0.426163,0.38127363,-0.32148436,0.447567,0.36752128,-0.31458871,0.427356,0.36019926,-0.32702359,0.417015,0.36845179,-0.35307851,0.426912,0.4037927,-0.33467002,0.44743,0.38301247,-0.33886313,0.431036,0.39337685,-0.36540691,0.445738,0.40468712,-0.3809489,0.458624
0.35559284,-0.41059036,0.460483,0.34629259,-0.35985395,0.453432,0.32746395,-0.39494141,0.459893,0.28879814,-0.36625993,0.44888,0.25344713,-0.33834327,0.433213,0.23523772,-0.31578046,0.425266,0.32282413,-0.30710998,0.447702,0.31783245,-0.26473025,0.434501,0.31875198,-0.24593194,0.432494,0.32083586,-0.22921401,0.432264,0.34549571,-0.30964214,0.446104,0.33895764,-0.31272463,0.431042,0.33230365,-0.33419935,0.422256,0.33946381,-0.35460192,0.434018,0.3640507,-0.31541822,0.445347,0.35910757,-0.30547921,0.43078,0.35577663,-0.318015,0.423327,0.36516874,-0.34775947,0.435627,0.38622937,-0.32923975,0.44549,0.37196302,-0.33062425,0.432621,0.38221401,-0.35918904,0.448251,0.39122897,-0.37632504,0.460191
0.33941129,-0.40090504,0.455571,0.33669959,-0.34834009,0.452128,0.3218302,-0.38778147,0.457509,0.28118659,-0.35774392,0.450807,0.24619086,-0.33157122,0.437284,0.22834019,-0.31023974,0.430594,0.31609717,-0.30033805,0.452086,0.31102411,-0.25902806,0.442261,0.30835391,-0.23943144,0.437349,0.30750247,-0.22344275,0.435231,0.33757335,-0.30102712,0.44855,0.33024982,-0.30399013,0.436887,0.3255718,-0.32707901,0.430084,0.33483311,-0.34906844,0.442793,0.35496468,-0.30507753,0.445912,0.34847537,-0.29448508,0.43389,0.34534994,-0.30709419,0.427739,0.3561319,-0.33759598,0.440836,0.3754194,-0.31641981,0.44329,0.36147171,-0.31863735,0.433948,0.37248799,-0.34739514,0.449852,0.38256354,-0.36499188,0.461702
0.33749572,-0.396815,0.454994,0.33641947,-0.3477067,0.454783,0.31991353,-0.38476188,0.457479,0.28035189,-0.35786026,0.451868,0.24454501,-0.33214201,0.437845,0.22666943,-0.31210137,0.432167,0.31188659,-0.30119477,0.45771,0.30601881,-0.26092126,0.450874,0.30301446,-0.24163092,0.447456,0.30023675,-0.22458826,0.444349,0.33382173,-0.30023965,0.454563,0.32968918,-0.30316727,0.446254,0.32887481,-0.32747887,0.441408,0.34203342,-0.35486097,0.455133,0.35167081,-0.30277798,0.451991,0.34727768,-0.29213123,0.443187,0.34683339,-0.30492445,0.438683,0.36013917,-0.33628089,0.452867,0.3727872,-0.31198425,0.448968,0.36143754,-0.31477559,0.442054,0.37398199,-0.34380363,0.458239,0.38471641,-0.36173449,0.470004
0.33661226,-0.39545241,0.464107,0.32493879,-0.33794984,0.459378,0.30852494,-0.37397159,0.466389,0.27078641,-0.35118292,0.460201,0.23461931,-0.32673633,0.446696,0.21605571,-0.30637184,0.440037,0.30189208,-0.29081619,0.45885,0.29289703,-0.24923287,0.447856,0.2877412,-0.23142195,0.442359,0.28266063,-0.21745512,0.437361,0.32300671,-0.28996444,0.454463,0.31136736,-0.29251292,0.441408,0.30703862,-0.31493152,0.433793,0.31733027,-0.33581504,0.445962,0.34031478,-0.29281265,0.451227,0.32863385,-0.27718558,0.437657,0.32404312,-0.28742996,0.430715,0.33504364,-0.31718192,0.443172,0.36105826,-0.30283225,0.448084,0.34398632,-0.30531501,0.438069,0.35526422,-0.33319914,0.453753,0.36657758,-0.35034215,0.465841
0.33379997,-0.38875187,0.477797,0.32167321,-0.3328416,0.467787,0.31274489,-0.37604806,0.476994,0.27197595,-0.35203245,0.465105,0.23257522,-0.32526101,0.446188,0.21294407,-0.30498846,0.438152,0.28866927,-0.285582,0.459694,0.27568951,-0.24100798,0.443956,0.26916159,-0.21926784,0.436088,0.26318861,-0.19995114,0.428934,0.31164799,-0.28365399,0.457383,0.30007511,-0.28662504,0.439285,0.29262293,-0.30700142,0.428727,0.29943068,-0.32606542,0.439372,0.33104106,-0.28577445,0.456273,0.32083761,-0.2716956,0.438683,0.31548226,-0.28257636,0.429683,0.32356565,-0.31070743,0.440758,0.35521518,-0.29514207,0.456435,0.3376549,-0.30249014,0.441561,0.34555171,-0.33040464,0.45674,0.35384243,-0.34780907,0.468864
0.33457184,-0.39212453,0.485364,0.31418394,-0.33567023,0.471794,0.30933818,-0.37532597,0.484159,0.2630803,-0.35313525,0.471038,0.22403596,-0.32851137,0.453217,0.20257064,-0.30685423,0.442225,0.27955561,-0.28591006,0.460679,0.26515118,-0.23963648,0.441973,0.25789378,-0.21722368,0.43262,0.25123992,-0.1974004,0.424117,0.30221725,-0.28379924,0.45769,0.28761174,-0.28447877,0.436029,0.27863305,-0.30315894,0.423393,0.28440242,-0.32099937,0.43259,0.32145294,-0.28594318,0.456303,0.30832033,-0.26972985,0.435216,0.30133948,-0.27931382,0.424427,0.30787368,-0.30609439,0.433936,0.34573348,-0.29567174,0.456663,0.32585351,-0.30132209,0.439389,0.3327107,-0.32864373,0.453899,0.34081688,-0.34594045,0.465955
0.32007577,-0.38324852,0.485061,0.30299421,-0.32702736,0.470445,0.2979305,-0.37127723,0.483453,0.24988973,-0.34270972,0.469718,0.21100043,-0.31712338,0.452236,0.18967003,-0.29485743,0.440809,0.26817123,-0.27554654,0.458091,0.2513068,-0.2286668,0.439034,0.24288879,-0.20580821,0.429505,0.2352249,-0.18595509,0.420843,0.29112162,-0.27373801,0.455256,0.27664686,-0.28095817,0.432601,0.26717792,-0.29909313,0.419386,0.27200572,-0.31721591,0.428183,0.31053522,-0.27620957,0.454077,0.29846538,-0.26663483,0.432121,0.29068971,-0.27561092,0.420887,0.29519354,-0.30285266,0.429994,0.33501473,-0.28647807,0.45484,0.31466364,-0.29214551,0.436665,0.32180389,-0.31890632,0.45104,0.32873606,-0.34001775,0.463011
0.30869669,-0.37782609,0.483745,0.29186705,-0.3227169,0.468705,0.28573485,-0.36487646,0.481109,0.23647631,-0.33901744,0.466795,0.19699451,-0.31469133,0.449543,0.17510119,-0.29327904,0.438224,0.25599262,-0.27007859,0.454776,0.23757457,-0.22274152,0.434962,0.23166768,-0.20219867,0.431087,0.22708762,-0.1839272,0.429166,0.27969938,-0.26879743,0.453074,0.26551624,-0.27412719,0.43015,0.25635351,-0.29204895,0.416777,0.2610756,-0.31292119,0.425536,0.29982148,-0.27174308,0.452862,0.287697,-0.26554232,0.431005,0.27940183,-0.2754418,0.419822,0.28285098,-0.30258337,0.428997,0.32529459,-0.28267845,0.454835,0.30471527,-0.28670323,0.435999,0.31178539,-0.31291535,0.450312,0.31812435,-0.33539537,0.462491
0.3033301,-0.37388779,0.479639,0.28764396,-0.31942985,0.465268,0.28124628,-0.36190175,0.478431,0.2342921,-0.33627832,0.465556,0.19480234,-0.30999577,0.450305,0.17439016,-0.29069433,0.438717,0.25289341,-0.26818668,0.453584,0.23170418,-0.22059806,0.434778,0.22511619,-0.20002818,0.430626,0.22385122,-0.18312217,0.429504,0.27553404,-0.26598076,0.450334,0.25309528,-0.25822792,0.42787,0.24450565,-0.27699931,0.414766,0.25182821,-0.29078967,0.423604,0.29476706,-0.26812932,0.448795,0.27552012,-0.26743362,0.426887,0.26946142,-0.27880544,0.415678,0.27946586,-0.30257092,0.424789,0.31916332,-0.27804739,0.449094,0.29362309,-0.28133984,0.431287,0.30626553,-0.30826721,0.445635,0.31360083,-0.33054222,0.457466
0.29716048,-0.36873079,0.473863,0.28076436,-0.3152581,0.461222,0.27278442,-0.35659016,0.474079,0.22963402,-0.33246976,0.462855,0.19270599,-0.30964845,0.449661,0.17329043,-0.2905582,0.439844,0.24805114,-0.26567226,0.452527,0.22900504,-0.22117908,0.434536,0.22196295,-0.20117216,0.430357,0.21621788,-0.18325624,0.428056,0.26940603,-0.26303511,0.448086,0.24051733,-0.25670905,0.42718,0.23190568,-0.27611822,0.414985,0.24191277,-0.29090188,0.424319,0.28768746,-0.26475412,0.44543,0.26099126,-0.25642598,0.424595,0.24798555,-0.27114211,0.413935,0.25412215,-0.29053454,0.423447,0.31100805,-0.27407552,0.444147,0.28046669,-0.27315496,0.428144,0.28111567,-0.29714467,0.442667,0.28084694,-0.31760528,0.453931
0.29027808,-0.36794813,0.473253,0.27441387,-0.31530621,0.459535,0.26944313,-0.35616905,0.473306,0.21928544,-0.33552588,0.461731,0.18232974,-0.31435451,0.449515,0.16651096,-0.2926518,0.441861,0.2425986,-0.26449696,0.449874,0.22350197,-0.2213677,0.431372,0.2165923,-0.20215507,0.427412,0.21408136,-0.18392547,0.426657,0.26344488,-0.26255614,0.445278,0.23676254,-0.25648067,0.423314,0.22734155,-0.2752154,0.410502,0.23664234,-0.28941725,0.419378,0.28138379,-0.26489346,0.442581,0.25753624,-0.25701222,0.421393,0.24412792,-0.2714167,0.410553,0.24959932,-0.29029481,0.41978,0.30226856,-0.27761448,0.441408,0.27452042,-0.27645786,0.424674,0.27420516,-0.29989115,0.438968,0.2759811,-0.31758795,0.450399
0.29230305,-0.36900319,0.473225,0.27521894,-0.31495176,0.458439,0.2677134,-0.35603901,0.472148,0.21859682,-0.33520486,0.459294,0.18115397,-0.31465867,0.446964,0.15966438,-0.29413849,0.436958,0.23756387,-0.26454629,0.446622,0.21776345,-0.22128266,0.427035,0.2109046,-0.20247873,0.423424,0.20705396,-0.18472863,0.422397,0.2608193,-0.26171982,0.443073,0.23246292,-0.25806684,0.420178,0.22348664,-0.27634551,0.406823,0.23411362,-0.28827397,0.415445,0.27941514,-0.2642277,0.441322,0.2537972,-0.25954226,0.419956,0.24086617,-0.27409565,0.409025,0.24805422,-0.29080286,0.418196,0.30351094,-0.27476474,0.441429,0.27218559,-0.27550675,0.423489,0.27285333,-0.2995654,0.437696,0.27485381,-0.3185741,0.449518
0.28942603,-0.36715299,0.470473,0.27367852,-0.31381931,0.456653,0.26593001,-0.35494597,0.470479,0.21824995,-0.33520341,0.459146,0.18067226,-0.31534874,0.44738,0.1589891,-0.29515938,0.437699,0.24117804,-0.26327101,0.446861,0.22019019,-0.22042564,0.428441,0.21499773,-0.20089505,0.425592,0.20695551,-0.18499331,0.423003,0.26209142,-0.26078446,0.44229,0.23338253,-0.25660731,0.420229,0.22481835,-0.27526911,0.40736,0.23463752,-0.28930629,0.4162,0.27849801,-0.2629855,0.439621,0.25279347,-0.2599937,0.41939,0.24030284,-0.2749696,0.409039,0.24660857,-0.29451504,0.418546,0.30066833,-0.27355286,0.438496,0.27043386,-0.27379534,0.421678,0.27303238,-0.2967729,0.435954,0.27357504,-0.31765224,0.447409
0.28741449,-0.36675843,0.468704,0.2732946,-0.31416836,0.455862,0.2638636,-0.35389336,0.467914,0.2167362,-0.33483139,0.456152,0.17831497,-0.31561454,0.444449,0.15826168,-0.29529074,0.436662,0.2461298,-0.26344448,0.445778,0.22651835,-0.22519312,0.427945,0.22119552,-0.2083337,0.426679,0.21627628,-0.19236041,0.425807,0.26740712,-0.26252117,0.442516,0.24078243,-0.25914097,0.421531,0.23177514,-0.27843293,0.40929,0.24018506,-0.29111533,0.418737,0.28607232,-0.26519669,0.440846,0.26102771,-0.26449158,0.422171,0.24863701,-0.27947457,0.412616,0.2510362,-0.30013199,0.422927,0.30826794,-0.27980939,0.440763,0.27654104,-0.27431817,0.424137,0.27685517,-0.30082663,0.438758,0.27642978,-0.3205781,0.450279
0.28260247,-0.36520036,0.466003,0.26976892,-0.31232119,0.45032,0.26069664,-0.35046664,0.463198,0.21333956,-0.330321,0.450438,0.17575227,-0.30961872,0.437433,0.15307894,-0.28985064,0.425099,0.24695749,-0.25525902,0.435727,0.22553005,-0.21710006,0.416141,0.21855163,-0.20119116,0.413724,0.21191212,-0.18723798,0.414402,0.26929112,-0.25825582,0.434022,0.24308957,-0.25469412,0.410981,0.2304347,-0.27248572,0.39754,0.23783654,-0.28387219,0.406168,0.28816872,-0.26481943,0.433858,0.26359872,-0.26274534,0.413319,0.24842832,-0.27667663,0.402811,0.24998753,-0.29601698,0.412282,0.31172131,-0.28048364,0.435983,0.27960403,-0.27617249,0.416682,0.27989861,-0.30038806,0.430843,0.27833705,-0.32051958,0.443126
0.30390873,-0.36944216,0.469532,0.29585761,-0.31830961,0.452332,0.2863921,-0.35921698,0.468013,0.2437913,-0.3430636,0.45391,0.20219185,-0.32261584,0.437139,0.17794312,-0.30324642,0.4257,0.25734028,-0.26585838,0.438255,0.23558248,-0.22196769,0.416585,0.22923262,-0.20403604,0.413941,0.22334267,-0.1871742,0.411653,0.27850477,-0.26241221,0.434456,0.25051316,-0.25439696,0.409231,0.24154864,-0.27161244,0.394516,0.25072726,-0.2851575,0.402071,0.29729172,-0.26370982,0.43269,0.27094077,-0.26062544,0.408779,0.2578457,-0.2740074,0.396545,0.2643677,-0.2924109,0.404487,0.32244617,-0.27309385,0.433137,0.28896981,-0.27407824,0.413555,0.28896686,-0.29808706,0.427192,0.28964271,-0.31973182,0.439371
0.31119847,-0.36643736,0.454847,0.30245125,-0.31931752,0.444992,0.29019755,-0.35754264,0.456312,0.25555526,-0.342472,0.447211,0.21463609,-0.3190416,0.429488,0.19265033,-0.30016329,0.420314,0.2651126,-0.27586911,0.439817,0.25105198,-0.22862141,0.423846,0.24942695,-0.20995148,0.424979,0.24806395,-0.19264819,0.4263,0.2854347,-0.26916402,0.434749,0.26243857,-0.25262292,0.416516,0.25782274,-0.27297256,0.405879,0.2693744,-0.29091787,0.416156,0.30331158,-0.26739815,0.431358,0.28301103,-0.26907079,0.412797,0.27458339,-0.28521819,0.403301,0.28347398,-0.30483165,0.413732,0.32696807,-0.27229266,0.428789,0.30777884,-0.26801362,0.415126,0.30943303,-0.29251005,0.430041,0.31690271,-0.30364425,0.440633
0.34183676,-0.37554119,0.45178,0.32433121,-0.32725728,0.444024,0.31986745,-0.36915969,0.453261,0.28050972,-0.34757234,0.445628,0.24402153,-0.32512019,0.432997,0.22425617,-0.30533476,0.425133,0.28596992,-0.28644116,0.440359,0.27103593,-0.2425979,0.425862,0.26668203,-0.22320439,0.423581,0.26343869,-0.20574932,0.422767,0.30663927,-0.27887756,0.435964,0.28835628,-0.25376623,0.419871,0.28556126,-0.27390743,0.410484,0.29712748,-0.29458649,0.421636,0.32474343,-0.27629456,0.43296,0.31091945,-0.27128722,0.416583,0.30434175,-0.28776456,0.408203,0.31334248,-0.3098128,0.419606,0.34861096,-0.27994604,0.430541,0.33070277,-0.286018,0.418194,0.33964909,-0.31087271,0.43351,0.344681,-0.33199553,0.443795
0.34752061,-0.37734553,0.452263,0.34086936,-0.3303772,0.446234,0.32455023,-0.36831375,0.451753,0.29117112,-0.34824852,0.440498,0.25258047,-0.32502238,0.42397,0.23191854,-0.30637285,0.417404,0.30576459,-0.28550053,0.441326,0.29695736,-0.24732574,0.428683,0.29539445,-0.22986222,0.426464,0.29382636,-0.21633834,0.424448,0.32877751,-0.28213001,0.439967,0.31694417,-0.25869391,0.425963,0.31526119,-0.27799222,0.417795,0.32681942,-0.30218085,0.42992,0.34851493,-0.28295553,0.439326,0.34100634,-0.27751766,0.42581,0.33583571,-0.2932142,0.418895,0.34460763,-0.32000986,0.431594,0.37371233,-0.29066082,0.439456,0.35661505,-0.27641775,0.42767,0.38047215,-0.30151344,0.443507,0.39601389,-0.31650961,0.453795
0.36406111,-0.38597493,0.459425,0.35707747,-0.33697828,0.448665,0.33859963,-0.3724035,0.454312,0.30675314,-0.34642155,0.436239,0.26919632,-0.31841243,0.416677,0.25100187,-0.29871456,0.410356,0.31851792,-0.28628572,0.434707,0.32142782,-0.24656328,0.434582,0.32383168,-0.22732149,0.435792,0.32614754,-0.20977985,0.437054,0.34422816,-0.28619042,0.437484,0.33499878,-0.2540248,0.419475,0.33428906,-0.27153938,0.40897,0.34367334,-0.29455439,0.419574,0.36625745,-0.28992271,0.440619,0.36676617,-0.28505823,0.42468,0.35858366,-0.30207467,0.416525,0.3618763,-0.31952254,0.428033,0.39425092,-0.30147384,0.445932,0.37736729,-0.27907344,0.429059,0.4002272,-0.3025334,0.444063,0.4169523,-0.32259662,0.455819
0.37557089,-0.38327129,0.458965,0.35969209,-0.32410467,0.440655,0.35034989,-0.37088442,0.453596,0.31245087,-0.34298899,0.434096,0.26739044,-0.31461139,0.410371,0.24623073,-0.29343997,0.400074,0.31373057,-0.2725519,0.421024,0.30278644,-0.23068302,0.398074,0.29957456,-0.21122198,0.389507,0.29671577,-0.19326275,0.381719,0.33693228,-0.26904547,0.421626,0.31351042,-0.22044023,0.395923,0.30710542,-0.20578053,0.38093,0.32136362,-0.22285204,0.388463,0.35739955,-0.27027519,0.423567,0.35326915,-0.26950727,0.399857,0.34378401,-0.28191336,0.387726,0.34565443,-0.29578245,0.395841,0.38477452,-0.27931344,0.42858,0.37058791,-0.26328721,0.407597,0.39242809,-0.28752564,0.421585,0.40929409,-0.30722947,0.434394
0.37042342,-0.37403031,0.446512,0.37633669,-0.32733251,0.440371,0.35732427,-0.36399985,0.448363,0.33281499,-0.34749588,0.440343,0.29085866,-0.31660922,0.414037,0.26939576,-0.29273472,0.397198,0.35164443,-0.27997452,0.438309,0.34827748,-0.23608283,0.424679,0.36208958,-0.22552394,0.436961,0.37407298,-0.2180217,0.448126,0.37169415,-0.27916753,0.433989,0.36096726,-0.27934794,0.419952,0.35070192,-0.29885375,0.411763,0.35941312,-0.31064137,0.423597,0.38839227,-0.28204041,0.43092,0.38175035,-0.27977445,0.416064,0.38060429,-0.29616405,0.408464,0.39255583,-0.31577813,0.420459,0.40895911,-0.29212299,0.428185,0.39336498,-0.27272657,0.417048,0.41572576,-0.29790375,0.43258,0.43143739,-0.31752167,0.442522
0.38036946,-0.36454624,0.435807,0.39262196,-0.31942688,0.436835,0.37344263,-0.35036495,0.439651,0.35783677,-0.34843243,0.43571,0.31852768,-0.31788706,0.41721,0.30177429,-0.29539851,0.411237,0.37622086,-0.2764124,0.442323,0.37805865,-0.24187439,0.435212,0.39254068,-0.23159495,0.446834,0.40656933,-0.22196266,0.458167,0.39622892,-0.27659851,0.437904,0.3918368,-0.2817728,0.430737,0.38579562,-0.30559503,0.427628,0.39673317,-0.32340971,0.441996,0.4122977,-0.27994329,0.434186,0.41485719,-0.25667815,0.426047,0.40496103,-0.27359875,0.421883,0.41181809,-0.29819702,0.436113,0.43082614,-0.28989649,0.42962,0.42165662,-0.27627398,0.424188,0.44534063,-0.30324152,0.440321,0.45953927,-0.32223428,0.448488
0.42031145,-0.37044119,0.445218,0.41439541,-0.32004068,0.436371,0.40171332,-0.356461,0.446052,0.37942157,-0.34745136,0.436193,0.33324857,-0.31167107,0.412947,0.31712222,-0.29083796,0.408859,0.38845044,-0.27024429,0.431131,0.38447548,-0.23075161,0.415172,0.38879426,-0.21414992,0.413801,0.39294465,-0.19842003,0.412554,0.40807124,-0.27077417,0.427177,0.3979424,-0.26876526,0.410043,0.41571024,-0.3105525,0.433976,0.42441091,-0.32780819,0.447686,0.4245501,-0.27481273,0.424622,0.41768315,-0.26994194,0.407418,0.43980003,-0.30502008,0.427193,0.45097238,-0.32050352,0.442039,0.44513504,-0.28643357,0.422897,0.43149589,-0.26706669,0.409452,0.45434218,-0.29212191,0.424706,0.46975822,-0.31273375,0.435353
0.42926707,-0.36949358,0.444245,0.43235041,-0.31952112,0.435754,0.41939781,-0.35487574,0.443606,0.39897395,-0.34172471,0.431764,0.3523634,-0.30621438,0.404888,0.33312584,-0.28397436,0.397432,0.40439261,-0.26913983,0.428943,0.40372467,-0.23175326,0.413787,0.4073179,-0.21463906,0.40997,0.41083008,-0.19857803,0.4065,0.42523163,-0.27061251,0.42693,0.4239536,-0.23849101,0.410375,0.45033734,-0.2768072,0.434709,0.45821995,-0.30226792,0.448335,0.44274626,-0.27540439,0.425945,0.44208683,-0.27193074,0.409871,0.4643116,-0.30718623,0.430009,0.47281635,-0.32217106,0.444545,0.46461362,-0.28785431,0.426031,0.45531983,-0.26915429,0.412386,0.48024064,-0.29411961,0.427887,0.49492351,-0.31449908,0.438699
0.47296607,-0.38167539,0.463177,0.46525266,-0.33364539,0.450337,0.45560256,-0.37082813,0.462941,0.43317054,-0.35193288,0.451054,0.39569797,-0.32113781,0.424512,0.37506127,-0.29648685,0.411666,0.43855616,-0.28564558,0.440942,0.43806192,-0.2413335,0.428882,0.44067119,-0.22279933,0.422852,0.4432306,-0.20562607,0.41737,0.45715736,-0.28428718,0.436994,0.43536484,-0.23036505,0.41735,0.43396652,-0.21180214,0.408097,0.45239747,-0.20682705,0.419227,0.47252663,-0.28682966,0.43476,0.47039859,-0.27505594,0.41394,0.49323825,-0.3103984,0.43294,0.50240519,-0.32909322,0.448938,0.49138646,-0.29654081,0.434006,0.47980671,-0.27565948,0.417466,0.50579663,-0.29621032,0.432082,0.52435436,-0.31893789,0.443571
0.48304308,-0.38726415,0.468344,0.47027022,-0.33480563,0.450804,0.46167934,-0.37315757,0.464103,0.43819075,-0.34846759,0.446179,0.40044211,-0.31607592,0.420638,0.37650644,-0.2931381,0.40919,0.43990419,-0.28173116,0.433114,0.44661941,-0.24225968,0.42564,0.45010671,-0.22221017,0.421903,0.45335567,-0.20379071,0.418505,0.46103418,-0.28225016,0.432574,0.4535253,-0.23582335,0.424984,0.45644913,-0.21457364,0.420557,0.45882017,-0.19869822,0.417394,0.47911853,-0.2866277,0.433515,0.47635264,-0.27240443,0.40996,0.49951429,-0.30701278,0.428248,0.50901791,-0.32651818,0.445065,0.50233876,-0.29915411,0.437227,0.48845167,-0.27540436,0.416435,0.51528293,-0.29488857,0.430424,0.53581655,-0.31853363,0.443166
0.49690122,-0.38731926,0.466792,0.49382059,-0.33477064,0.449704,0.48615754,-0.37355329,0.462469,0.45774928,-0.34774528,0.444488,0.41960107,-0.31576742,0.419058,0.40017337,-0.29245949,0.408965,0.45821499,-0.28146154,0.432236,0.4650878,-0.24221173,0.425309,0.46866746,-0.22223851,0.421846,0.47200814,-0.20386696,0.418697,0.47936606,-0.28176967,0.431945,0.47150949,-0.23565229,0.424741,0.47487282,-0.21449916,0.420538,0.47757839,-0.19867958,0.417536,0.49753909,-0.28595751,0.433057,0.49603345,-0.27193228,0.41001,0.52066213,-0.30659254,0.428441,0.53016583,-0.32603299,0.44511,0.52096633,-0.29822093,0.436903,0.50762879,-0.27470197,0.416389,0.53604869,-0.29414097,0.430471,0.55737169,-0.3176328,0.443151
0.51006274,-0.38828025,0.465683,0.5038554,-0.33870042,0.451845,0.49046321,-0.37502709,0.463147,0.46792427,-0.35023851,0.447957,0.43211401,-0.31807769,0.422081,0.41281742,-0.2934759,0.410406,0.47293897,-0.28579257,0.438892,0.47755707,-0.24461758,0.431638,0.48360772,-0.22758485,0.428011,0.49123353,-0.21742945,0.424713,0.49328473,-0.28693753,0.437463,0.48836628,-0.24265486,0.434985,0.49632255,-0.22474857,0.43354,0.50247505,-0.21111811,0.432507,0.5105056,-0.2916925,0.437381,0.5104399,-0.28248373,0.416712,0.53532658,-0.3177206,0.435876,0.54438134,-0.33521571,0.451878,0.53226275,-0.30443591,0.43933,0.52474418,-0.28302516,0.421466,0.55310216,-0.30092512,0.436171,0.56860589,-0.32318048,0.44816
0.51229907,-0.3852126,0.46526,0.51567565,-0.33197314,0.456019,0.49106986,-0.36962347,0.460791,0.48605959,-0.3544197,0.443801,0.43792596,-0.31466839,0.414479,0.41988138,-0.29059917,0.404938,0.48923322,-0.27791086,0.443934,0.50409535,-0.24093564,0.442692,0.51261018,-0.22258003,0.442071,0.52049454,-0.20561401,0.441507,0.51335377,-0.28339895,0.446415,0.50648307,-0.23666247,0.439932,0.51671093,-0.22410306,0.43615,0.5248237,-0.21455007,0.433449,0.53328752,-0.29153988,0.449187,0.54298946,-0.29446918,0.43449,0.5689185,-0.33038907,0.454621,0.57463105,-0.34543341,0.468598,0.55728883,-0.30801364,0.453845,0.53361966,-0.26364087,0.438517,0.5524361,-0.26729727,0.445404,0.57901854,-0.28658484,0.459846
0.51821706,-0.38630008,0.468675,0.52369185,-0.33513836,0.460843,0.503455,-0.36458047,0.464451,0.48715864,-0.34694288,0.448033,0.4401252,-0.30937443,0.418592,0.4225438,-0.28954261,0.409183,0.50414673,-0.28096238,0.450059,0.51204177,-0.24106146,0.444551,0.51417611,-0.221699,0.441797,0.5216273,-0.20693898,0.439294,0.52765999,-0.2875363,0.452702,0.52406217,-0.2412222,0.446686,0.53590319,-0.22587035,0.443176,0.54624938,-0.21955697,0.440669,0.54676505,-0.29645875,0.455497,0.55880764,-0.30510533,0.442175,0.5823534,-0.34158374,0.462512,0.58455781,-0.35333983,0.476016,0.5691815,-0.31363453,0.459972,0.54900708,-0.26982949,0.445742,0.56444525,-0.27342059,0.448974,0.58933863,-0.29402899,0.462701
0.52097358,-0.38645465,0.470036,0.52495022,-0.33562055,0.46152,0.50100075,-0.36694021,0.463705,0.50435279,-0.34780049,0.444562,0.46357856,-0.30531398,0.415352,0.44834759,-0.2805692,0.407024,0.50018774,-0.27969375,0.447643,0.51055186,-0.24125575,0.442861,0.51585742,-0.22175486,0.440469,0.52569225,-0.21027892,0.438296,0.5266436,-0.28764742,0.45267,0.52386592,-0.24194053,0.44778,0.53522702,-0.22536718,0.444927,0.54568989,-0.22016255,0.44289,0.54845379,-0.29780233,0.457479,0.56023239,-0.29706549,0.444742,0.58735276,-0.33402131,0.464684,0.58856835,-0.35393988,0.477793,0.57446708,-0.31667496,0.464447,0.55424065,-0.27234639,0.448511,0.55956171,-0.27170227,0.443721,0.57933807,-0.29012977,0.453479
0.52409203,-0.38767837,0.472267,0.52552509,-0.33602439,0.462013,0.50291119,-0.3673823,0.465105,0.50392962,-0.34795125,0.444621,0.46351158,-0.30565767,0.415725,0.44873532,-0.28115934,0.407809,0.49758037,-0.27871135,0.445875,0.50824026,-0.24051211,0.439969,0.5162287,-0.22336435,0.437016,0.52600538,-0.21159482,0.434331,0.52455733,-0.28691743,0.451356,0.52321255,-0.24212461,0.447963,0.53296805,-0.22422063,0.445984,0.5461527,-0.22072892,0.44457,0.54700919,-0.29737439,0.456677,0.55718791,-0.29375099,0.442588,0.58442844,-0.33032158,0.46216,0.58787037,-0.35016666,0.475668,0.57416816,-0.31680664,0.464509,0.55511404,-0.2734986,0.446996,0.55622197,-0.27326404,0.43895,0.5717187,-0.29133023,0.446184
0.53128276,-0.39259478,0.478515,0.52726917,-0.33765406,0.463789,0.50671278,-0.36995749,0.468597,0.50230163,-0.3489879,0.444057,0.46154518,-0.30800048,0.415366,0.44829189,-0.28292101,0.407679,0.49156176,-0.27614214,0.441069,0.50442674,-0.24022663,0.435728,0.51476277,-0.22483374,0.433058,0.52543422,-0.21364145,0.43063,0.52059846,-0.28552161,0.448485,0.52094746,-0.24184946,0.446686,0.53183062,-0.22446371,0.445636,0.54405371,-0.22096888,0.444886,0.54531229,-0.29719899,0.455752,0.5428587,-0.27606399,0.433951,0.57253787,-0.30943305,0.451869,0.58287145,-0.33971234,0.467829,0.57615602,-0.3186317,0.466555,0.55709163,-0.28128805,0.445258,0.55542717,-0.28581946,0.435472,0.56555804,-0.3039755,0.440901
0.53360776,-0.39401026,0.480435,0.52797294,-0.33844809,0.46457,0.50702203,-0.37003921,0.468866,0.49979847,-0.3483284,0.44228,0.45999194,-0.30805079,0.414293,0.44845202,-0.28404857,0.407962,0.48886244,-0.27510521,0.438998,0.50313754,-0.24006489,0.434462,0.51378331,-0.22491776,0.432194,0.52492141,-0.21407885,0.430132,0.51975763,-0.28552235,0.448082,0.52078175,-0.2422372,0.446942,0.53223564,-0.22499635,0.446278,0.54480767,-0.22159025,0.445803,0.54622388,-0.2981457,0.45681,0.54013284,-0.27467779,0.431772,0.5684846,-0.30724242,0.44867,0.58064281,-0.33688241,0.46553,0.57948832,-0.32091479,0.469518,0.55934122,-0.28242392,0.447056,0.55703935,-0.28664908,0.436736,0.56611218,-0.30427334,0.441333
0.53335269,-0.39332022,0.479887,0.5271884,-0.3378025,0.463881,0.50688779,-0.36948785,0.468604,0.49322113,-0.35068977,0.442304,0.45025853,-0.30899377,0.415049,0.43763535,-0.2858679,0.409593,0.48802771,-0.27448705,0.438562,0.50509418,-0.24032991,0.436463,0.51618551,-0.22495342,0.435414,0.52483527,-0.20994878,0.43446,0.518515,-0.28471945,0.447245,0.52354107,-0.24071978,0.445375,0.53158503,-0.2204962,0.444284,0.54315605,-0.21984431,0.443505,0.54466475,-0.29719391,0.455655,0.53864864,-0.27396902,0.430626,0.5669765,-0.30662689,0.447654,0.5796661,-0.33567168,0.464564,0.57760798,-0.31979432,0.468006,0.55835703,-0.28223297,0.445518,0.55554043,-0.28737103,0.435185,0.56434661,-0.30489458,0.439852
0.53330611,-0.39274428,0.479458,0.52669238,-0.33735403,0.463603,0.50796543,-0.36992954,0.469493,0.48631244,-0.34952852,0.444699,0.44140176,-0.30961609,0.419446,0.42792223,-0.28908274,0.415968,0.48749747,-0.27511307,0.440023,0.4978982,-0.23934205,0.436035,0.50805622,-0.22473032,0.434041,0.51774853,-0.20792618,0.432228,0.51612879,-0.28419307,0.447125,0.51590045,-0.2387505,0.442576,0.52218929,-0.21496065,0.439923,0.53285744,-0.21392997,0.438028,0.541085,-0.29565594,0.454222,0.53323916,-0.27786858,0.429865,0.56030935,-0.31192885,0.447513,0.57678959,-0.33691627,0.464398,0.57298124,-0.31701793,0.464992,0.55470148,-0.28062629,0.442941,0.55188069,-0.28640031,0.43281,0.56126653,-0.30404267,0.437948
0.53399965,-0.39137838,0.479,0.52243908,-0.33449304,0.461837,0.50799949,-0.36978085,0.469839,0.48380613,-0.34754807,0.44577,0.43918929,-0.3112733,0.420948,0.42664395,-0.29012322,0.417286,0.47939401,-0.27237406,0.438326,0.48592528,-0.23705528,0.430206,0.49146476,-0.21967604,0.426146,0.4968063,-0.20341948,0.422455,0.50754472,-0.27961133,0.444,0.50311263,-0.2328989,0.435677,0.50550951,-0.20960729,0.430822,0.51092751,-0.20901996,0.427354,0.531992,-0.28966798,0.450025,0.52130067,-0.27374294,0.425075,0.54812481,-0.30783236,0.44279,0.5653671,-0.33282944,0.459941,0.56241205,-0.30695808,0.459715,0.54121919,-0.27480082,0.437057,0.53717173,-0.28237998,0.426647,0.5490367,-0.30011831,0.431671
0.53487824,-0.39040247,0.479553,0.52175974,-0.33435728,0.463002,0.50994128,-0.3695072,0.471476,0.48488436,-0.35215976,0.448796,0.43724487,-0.31349264,0.423711,0.42516309,-0.29223025,0.419465,0.47756063,-0.27218501,0.441265,0.48788712,-0.23778682,0.43413,0.49346367,-0.21990199,0.430563,0.49879316,-0.20320808,0.427319,0.50518484,-0.27835964,0.445799,0.50208597,-0.23316434,0.436348,0.50343656,-0.20954331,0.430835,0.50810106,-0.2087039,0.426897,0.52931417,-0.28752426,0.450839,0.52176218,-0.27457542,0.426854,0.54916544,-0.30898127,0.444998,0.56357013,-0.33307847,0.461931,0.56061351,-0.30625638,0.459269,0.53995589,-0.27462183,0.437345,0.53637471,-0.28238481,0.427272,0.5465812,-0.29943352,0.432728
0.53324688,-0.38972826,0.479283,0.50841249,-0.33292307,0.464197,0.50783186,-0.36970271,0.472537,0.47508458,-0.3538447,0.451713,0.42896729,-0.31622126,0.427876,0.4149759,-0.29556697,0.424824,0.46965851,-0.27441131,0.44515,0.48377449,-0.23943301,0.443836,0.49114683,-0.2212511,0.443179,0.49804189,-0.20429759,0.442582,0.49604991,-0.27974073,0.44852,0.49192574,-0.2342392,0.438582,0.4924477,-0.21047462,0.432785,0.49631028,-0.20951674,0.428645,0.51894007,-0.28811916,0.452485,0.51266373,-0.27622691,0.430236,0.54018605,-0.31103221,0.44896,0.55413433,-0.33483155,0.465424,0.54839107,-0.3057146,0.459423,0.52887904,-0.27505033,0.438889,0.52613335,-0.28318253,0.429455,0.53721278,-0.30067074,0.435592
0.52899639,-0.39365201,0.488378,0.50258787,-0.3376168,0.46958,0.49617221,-0.37304604,0.480133,0.45467327,-0.34362172,0.456933,0.41855535,-0.31419192,0.433898,0.39952416,-0.29086721,0.423432,0.46165471,-0.27751295,0.446044,0.47428843,-0.24195497,0.442697,0.48090961,-0.2235445,0.441024,0.48711596,-0.20641834,0.439503,0.48838779,-0.28297016,0.450043,0.48577295,-0.23887103,0.44777,0.49142523,-0.21849977,0.446443,0.49880545,-0.22001831,0.445496,0.51166797,-0.2915682,0.45482,0.50157818,-0.27548287,0.429141,0.52718301,-0.30933505,0.446752,0.54160293,-0.33404426,0.464156,0.54177233,-0.30961162,0.463271,0.52074626,-0.28140484,0.439886,0.51649046,-0.28794698,0.429141,0.52511041,-0.30395681,0.43392
0.52199236,-0.39680446,0.492044,0.49785895,-0.3422644,0.475035,0.48942952,-0.37691612,0.483623,0.44390164,-0.34400549,0.460641,0.40782818,-0.31461006,0.441578,0.38988213,-0.29202675,0.431227,0.45495437,-0.28210141,0.452548,0.46910425,-0.24701068,0.453535,0.47641646,-0.22882302,0.454029,0.48320671,-0.21190097,0.454478,0.48235335,-0.28731882,0.457358,0.48020771,-0.24504325,0.458124,0.48669733,-0.22492764,0.45857,0.49552495,-0.22631452,0.458889,0.50631145,-0.29571696,0.46266,0.50246717,-0.2758086,0.438175,0.51923728,-0.30872581,0.456138,0.5262275,-0.33190071,0.473201,0.53750433,-0.31355447,0.471469,0.51971652,-0.29005808,0.449143,0.51623864,-0.29862356,0.438885,0.52262075,-0.31091482,0.444135
0.51562716,-0.3990742,0.495928,0.49040785,-0.34248819,0.477968,0.48889074,-0.37991719,0.48776,0.43770572,-0.34469612,0.464765,0.40547054,-0.31766294,0.448236,0.38797352,-0.29600735,0.441099,0.44662864,-0.28404498,0.455119,0.45357576,-0.24539858,0.451669,0.45941493,-0.22863967,0.449944,0.4653333,-0.21360616,0.448376,0.47353664,-0.28767931,0.459302,0.46951114,-0.24403214,0.457998,0.47408796,-0.22317869,0.457238,0.48147169,-0.22445319,0.456695,0.49713151,-0.29476653,0.464163,0.49088983,-0.28340183,0.439119,0.50575098,-0.31699094,0.456942,0.51294932,-0.33728726,0.474175,0.52796933,-0.31098507,0.47259,0.50941433,-0.2900622,0.44975,0.50575892,-0.29847464,0.439256,0.51252764,-0.31061916,0.444295
0.50909422,-0.40102437,0.498748,0.48148313,-0.34363682,0.479571,0.47666662,-0.38145257,0.4903,0.42895232,-0.34620688,0.466802,0.39551918,-0.31856229,0.45062,0.37814725,-0.29717064,0.444202,0.43681784,-0.28429151,0.455514,0.44336112,-0.24544151,0.451748,0.44883698,-0.22859953,0.449865,0.45438567,-0.2135004,0.448154,0.46365048,-0.28789101,0.45964,0.4593669,-0.24403214,0.457998,0.46342474,-0.22308205,0.45704,0.47024371,-0.22428658,0.456356,0.48725742,-0.29501293,0.464551,0.47956496,-0.28300298,0.438501,0.49356389,-0.31631803,0.455972,0.50104493,-0.33678578,0.47347,0.51826824,-0.31139767,0.473217,0.49853473,-0.28991967,0.449529,0.49454675,-0.29805946,0.438645,0.50093908,-0.30989975,0.443266
0.49758129,-0.40250236,0.504094,0.47517245,-0.34520304,0.487047,0.47350462,-0.38661426,0.499702,0.42714046,-0.35215392,0.481633,0.39175342,-0.32370057,0.466465,0.37459815,-0.30245097,0.460549,0.43473364,-0.28898959,0.469522,0.44375361,-0.25204705,0.470567,0.44888106,-0.23431163,0.471089,0.45368135,-0.21764608,0.471563,0.45831799,-0.29029047,0.469331,0.44195699,-0.24021438,0.444919,0.43067166,-0.2466335,0.430678,0.43721566,-0.26958931,0.438779,0.47915619,-0.29544548,0.470521,0.46989379,-0.26967782,0.448165,0.48642142,-0.30110925,0.466646,0.49567816,-0.32764458,0.483057,0.50676799,-0.30936396,0.474455,0.48390912,-0.29141192,0.453628,0.48167019,-0.30048577,0.444059,0.49242605,-0.31381669,0.449967
0.48847294,-0.40331497,0.507688,0.46565832,-0.34637524,0.489769,0.46320623,-0.38632209,0.501969,0.42206129,-0.34938347,0.484149,0.38941021,-0.31654241,0.46737,0.37348164,-0.29433257,0.461573,0.42489126,-0.28917487,0.469983,0.43062243,-0.24960941,0.465686,0.43592181,-0.23328981,0.463538,0.44139035,-0.21928882,0.461585,0.44852043,-0.29085916,0.471147,0.43068839,-0.24226034,0.445692,0.42845986,-0.24700104,0.430843,0.43618223,-0.26972145,0.438507,0.46915682,-0.29633527,0.473521,0.46557302,-0.27463582,0.449556,0.48693764,-0.30316383,0.467745,0.49616051,-0.3311592,0.484688,0.49626024,-0.31055753,0.478989,0.4851964,-0.31025694,0.457083,0.5055441,-0.3328711,0.470739,0.51809509,-0.34328667,0.483744
0.47862061,-0.39640047,0.50113,0.46197149,-0.34305783,0.488849,0.45200645,-0.3813091,0.498595,0.41115588,-0.34573458,0.48362,0.37653993,-0.31609909,0.468459,0.3603783,-0.29651163,0.464669,0.42462286,-0.28811418,0.477002,0.4297131,-0.24893084,0.475088,0.43419637,-0.23094891,0.474132,0.43842407,-0.21410165,0.473262,0.44638725,-0.28863214,0.476085,0.43163122,-0.23939289,0.456356,0.43079719,-0.24279997,0.444847,0.44306558,-0.26679878,0.454888,0.46499764,-0.29285584,0.476301,0.46561004,-0.2742953,0.457428,0.48759035,-0.30398511,0.476988,0.49891226,-0.33582835,0.492423,0.48885476,-0.30497997,0.478374,0.47964464,-0.30174161,0.461289,0.49506678,-0.32779402,0.476143,0.50410441,-0.33876736,0.487916
0.46946123,-0.39462514,0.501235,0.44885856,-0.34055807,0.489077,0.44818644,-0.38097523,0.49925,0.40155643,-0.34674543,0.485034,0.36704494,-0.31709031,0.469928,0.3505074,-0.29705658,0.465523,0.41522028,-0.28871637,0.477999,0.42002338,-0.24931124,0.475814,0.42422516,-0.23123581,0.474721,0.42819053,-0.21431247,0.473728,0.43654163,-0.28884857,0.476442,0.42205789,-0.23970554,0.456952,0.42111176,-0.24320168,0.445583,0.43313764,-0.26725861,0.455672,0.45470489,-0.29274517,0.476121,0.45481111,-0.27414898,0.457184,0.47594928,-0.3038124,0.476717,0.48313404,-0.33260398,0.492167,0.47790989,-0.30444699,0.477538,0.46862473,-0.30140539,0.460775,0.48377595,-0.32744361,0.475634,0.49274959,-0.33833619,0.487295
0.46742207,-0.39101792,0.503323,0.44505878,-0.33193387,0.491678,0.44549363,-0.37835807,0.501724,0.40099632,-0.34295017,0.488103,0.36195001,-0.31433023,0.471245,0.34705191,-0.29593565,0.465686,0.40388299,-0.2853461,0.481442,0.40571924,-0.2459879,0.478603,0.40957864,-0.23076422,0.477184,0.41330837,-0.21628831,0.475893,0.42430955,-0.28252101,0.479576,0.41671789,-0.24078457,0.459927,0.41614298,-0.24328201,0.448465,0.42756819,-0.2673361,0.458549,0.4422628,-0.2838053,0.478961,0.44417076,-0.26989326,0.460077,0.47478474,-0.27973782,0.479666,0.50355044,-0.30564022,0.495117,0.46636414,-0.29200612,0.479954,0.45960343,-0.27412839,0.463686,0.47916114,-0.27876411,0.478621,0.48600024,-0.2945832,0.490137
0.45460754,-0.37847121,0.49402,0.43339601,-0.32367024,0.48636,0.43502877,-0.36975768,0.495716,0.39365998,-0.34069424,0.487246,0.35267949,-0.31291915,0.468941,0.33696223,-0.2931842,0.462568,0.39636749,-0.28299961,0.483028,0.38617071,-0.23712678,0.467967,0.38398272,-0.21943507,0.460437,0.38208537,-0.20303374,0.453591,0.41463036,-0.27723922,0.478399,0.40877509,-0.23806344,0.46238,0.41068404,-0.24035443,0.453035,0.42476587,-0.26476432,0.464179,0.43043636,-0.27595392,0.475195,0.43435722,-0.26430281,0.458813,0.46449546,-0.27442542,0.478635,0.49269971,-0.2994554,0.493168,0.45133683,-0.28066245,0.472524,0.4496797,-0.26402973,0.460124,0.47004345,-0.26796699,0.475479,0.47667573,-0.28269841,0.485797
0.44548063,-0.3690312,0.488417,0.42750102,-0.32186328,0.483779,0.42555573,-0.36138782,0.490441,0.3803748,-0.33641874,0.482908,0.34148644,-0.3079557,0.463993,0.32510098,-0.2896599,0.457535,0.39399373,-0.28193502,0.482997,0.38853134,-0.23967141,0.470788,0.38737251,-0.22108611,0.464684,0.38640327,-0.20385065,0.459134,0.41301064,-0.27729116,0.478959,0.39844759,-0.23165862,0.466031,0.39970213,-0.22035972,0.45849,0.41835069,-0.23825949,0.470746,0.42917973,-0.27677513,0.476003,0.42053634,-0.24601821,0.462658,0.45130925,-0.26216708,0.483006,0.47375853,-0.28906035,0.496524,0.44996046,-0.28216071,0.47318,0.45221214,-0.26448662,0.463134,0.47387578,-0.26741272,0.478983,0.48024561,-0.28042687,0.488665
0.43886577,-0.36925547,0.489621,0.41943102,-0.3224343,0.483099,0.4115797,-0.35915289,0.488308,0.3692736,-0.33489443,0.475893,0.32821445,-0.30704729,0.456307,0.30742864,-0.29004371,0.451026,0.37941339,-0.27892666,0.476849,0.37628175,-0.23895116,0.463862,0.37639606,-0.21954474,0.459323,0.3828422,-0.20297613,0.4574,0.40097703,-0.2771508,0.476322,0.39846011,-0.23509798,0.461946,0.39860872,-0.21247868,0.45356,0.41750606,-0.22105662,0.465584,0.41938776,-0.27910679,0.476403,0.4145898,-0.23660139,0.4628,0.44294164,-0.25127653,0.48335,0.45914186,-0.27848076,0.497053,0.44303746,-0.28771763,0.477465,0.44539056,-0.26503979,0.466164,0.46730924,-0.26585317,0.482114,0.48289902,-0.27698619,0.492276
0.42726995,-0.36605294,0.484989,0.40814162,-0.31922091,0.478259,0.40397638,-0.35496467,0.482665,0.35799469,-0.32891397,0.468885,0.31609507,-0.30118751,0.44849,0.30039358,-0.28677548,0.44605,0.36588124,-0.27385933,0.470609,0.36189781,-0.23312539,0.457781,0.36131637,-0.21325574,0.453067,0.36101607,-0.19509781,0.448781,0.38819069,-0.27212018,0.471265,0.38464517,-0.22898108,0.456872,0.38429332,-0.20561515,0.448476,0.40323215,-0.21305283,0.460486,0.4074007,-0.2740798,0.472336,0.40173194,-0.23096961,0.459081,0.43007828,-0.2443694,0.479639,0.44690598,-0.27098713,0.493204,0.43234219,-0.28264769,0.474603,0.43407541,-0.25831245,0.462909,0.45541502,-0.25816145,0.478806,0.46967546,-0.26696578,0.489086
0.41723213,-0.36042129,0.473811,0.40813338,-0.32192751,0.467974,0.39524978,-0.3498508,0.47251,0.35439862,-0.33600515,0.463666,0.31445652,-0.31231745,0.446968,0.29485449,-0.29459775,0.440805,0.37539438,-0.2750129,0.462232,0.36438335,-0.23331068,0.457885,0.36297088,-0.21363387,0.455712,0.36202998,-0.19600343,0.453736,0.39939264,-0.27424903,0.461921,0.38678097,-0.22818873,0.456261,0.38513695,-0.202361,0.452959,0.38295748,-0.18639566,0.4506,0.41981944,-0.27722816,0.462129,0.40450388,-0.22928867,0.449326,0.40014466,-0.21205248,0.442776,0.41339444,-0.20434708,0.455734,0.44543733,-0.28754122,0.463241,0.43425439,-0.24588276,0.451782,0.43099712,-0.23043397,0.446517,0.44381277,-0.23773182,0.456116
0.41157639,-0.35834285,0.46926,0.40289991,-0.31926538,0.465343,0.38790578,-0.34866959,0.468112,0.34406582,-0.33275457,0.461138,0.30523139,-0.3118493,0.446571,0.28451185,-0.2942129,0.439164,0.37243511,-0.27289758,0.461151,0.36188741,-0.23171079,0.457756,0.36035116,-0.21166741,0.456059,0.35696156,-0.19355236,0.454516,0.39687395,-0.27289472,0.461287,0.38563178,-0.22714757,0.455722,0.38216794,-0.20187665,0.452476,0.3794006,-0.185045,0.450157,0.41751681,-0.27642662,0.46171,0.40470581,-0.22937311,0.450705,0.3992752,-0.20750713,0.445074,0.41450266,-0.20276117,0.458664,0.44303761,-0.28726932,0.462795,0.43501121,-0.24629135,0.453229,0.43310211,-0.23072717,0.448834,0.4460304,-0.22933437,0.459024
0.40180745,-0.3563056,0.462814,0.39299568,-0.31636923,0.459894,0.381229,-0.3455996,0.462472,0.33472779,-0.33386038,0.457885,0.2956814,-0.31384069,0.444112,0.277398,-0.29832502,0.441642,0.36552034,-0.27027212,0.457408,0.35909397,-0.23084442,0.455968,0.35492514,-0.21042391,0.455249,0.35173821,-0.19231945,0.454594,0.38950132,-0.27071405,0.456875,0.3794485,-0.22543738,0.452119,0.37588464,-0.19949037,0.449346,0.37266714,-0.1811554,0.447364,0.40957723,-0.27458841,0.45667,0.40171605,-0.22885192,0.448276,0.39756587,-0.20750438,0.443982,0.41183947,-0.1990871,0.458425,0.43264342,-0.28800349,0.456862,0.43027731,-0.24498824,0.448688,0.42903049,-0.22888095,0.444932,0.44224258,-0.22765681,0.45554
0.40058767,-0.35695606,0.462782,0.39235881,-0.31592978,0.459873,0.38021357,-0.34615696,0.462704,0.33455083,-0.33384091,0.458095,0.29945405,-0.31943177,0.450848,0.28242598,-0.30658798,0.451684,0.36512119,-0.26990095,0.457726,0.35533702,-0.22994957,0.456273,0.3515029,-0.21023343,0.456071,0.34801732,-0.19232746,0.455888,0.38888765,-0.27016503,0.456871,0.37986003,-0.22441048,0.452876,0.37631474,-0.19879835,0.450546,0.37340518,-0.18047002,0.448881,0.4087534,-0.27390288,0.4564,0.40580916,-0.23173761,0.454673,0.40572035,-0.21175454,0.453789,0.42296423,-0.20598257,0.470102,0.43292674,-0.28493733,0.456276,0.43179779,-0.24636127,0.450795,0.43167736,-0.22981804,0.448276,0.44540633,-0.22758313,0.459601
0.39819029,-0.35608254,0.460452,0.38920613,-0.31417225,0.456377,0.3769288,-0.34455457,0.459322,0.33183778,-0.33201719,0.453547,0.29334905,-0.31434023,0.441096,0.27463283,-0.30017127,0.439069,0.35849543,-0.26803117,0.452107,0.35146121,-0.22950248,0.45298,0.34504165,-0.21277105,0.453417,0.34519565,-0.19285382,0.454305,0.38298071,-0.26843696,0.452179,0.37575756,-0.22345105,0.449668,0.37189897,-0.19744922,0.448203,0.37045297,-0.17996319,0.447157,0.403642,-0.27235854,0.452567,0.39932397,-0.2280495,0.447931,0.39779847,-0.2071802,0.44556,0.39732366,-0.18852712,0.443404,0.42910192,-0.28375458,0.453636,0.42565961,-0.24287435,0.444947,0.42420864,-0.22560214,0.440955,0.43718369,-0.22320659,0.451413
0.39585718,-0.35573237,0.458769,0.38504426,-0.31353284,0.453649,0.37274079,-0.34442812,0.456786,0.32795765,-0.33004678,0.449698,0.28976901,-0.31443224,0.438288,0.27047021,-0.30063156,0.435912,0.35172788,-0.26763762,0.447584,0.34596199,-0.23066392,0.450579,0.34323329,-0.21217614,0.452076,0.34176832,-0.19344287,0.453438,0.37684381,-0.26764737,0.448375,0.36986122,-0.2233228,0.447063,0.36614811,-0.1975565,0.446297,0.36678766,-0.17849761,0.445751,0.39937234,-0.27153328,0.449439,0.39601106,-0.2272644,0.445452,0.39554688,-0.2059133,0.443412,0.39562306,-0.18916876,0.441557,0.42618915,-0.28266695,0.451468,0.42183916,-0.24194804,0.442358,0.42155799,-0.22762341,0.438172,0.43429265,-0.22217179,0.448481
0.3879989,-0.35549349,0.453184,0.38002008,-0.31283012,0.449184,0.36590664,-0.34419123,0.452952,0.32332709,-0.33399796,0.44923,0.28385906,-0.31581503,0.435312,0.26704807,-0.30166926,0.433291,0.35039845,-0.26821311,0.446084,0.34413385,-0.23079979,0.448427,0.34107282,-0.21211159,0.449599,0.33822742,-0.19481876,0.450664,0.37380941,-0.27174279,0.44507,0.36960753,-0.22512023,0.44529,0.36704902,-0.19979313,0.445418,0.36709079,-0.1805409,0.445509,0.39359408,-0.27578977,0.444559,0.39162676,-0.23248246,0.441872,0.3908743,-0.21056464,0.440498,0.39300542,-0.18975764,0.439248,0.41754349,-0.28724951,0.444555,0.41857736,-0.24881348,0.439777,0.41932758,-0.23010093,0.437582,0.42468766,-0.22044723,0.438195
0.3869912,-0.35621096,0.453132,0.37933246,-0.31363371,0.449065,0.36500082,-0.34484326,0.452816,0.32288912,-0.33448485,0.449113,0.28361792,-0.31650695,0.435368,0.26629962,-0.30218078,0.433184,0.35011083,-0.26878882,0.445814,0.34380679,-0.23126208,0.448116,0.34068066,-0.21250537,0.449267,0.33778408,-0.195188,0.450314,0.37365319,-0.27162922,0.444884,0.36910721,-0.22563098,0.444565,0.36642257,-0.20008668,0.444378,0.36591668,-0.18054737,0.444245,0.39349669,-0.27572153,0.444449,0.391508,-0.23241196,0.441738,0.39074475,-0.21049485,0.440352,0.39248276,-0.18994889,0.439091,0.41753316,-0.2872424,0.444544,0.41911608,-0.24913371,0.440343,0.42003938,-0.230958,0.438413,0.42304485,-0.21990919,0.43671
0.38665232,-0.35682995,0.453506,0.3796938,-0.31449717,0.449991,0.36453319,-0.34523317,0.452862,0.32261944,-0.33412384,0.448532,0.28368902,-0.31650668,0.434976,0.26730274,-0.30193068,0.433977,0.35058356,-0.26952503,0.446719,0.34515903,-0.23212166,0.449583,0.34246399,-0.21339675,0.451015,0.34150886,-0.19460394,0.452317,0.37476793,-0.26970589,0.446377,0.36836854,-0.22493533,0.444415,0.36483131,-0.19890167,0.44327,0.36425646,-0.18012666,0.442452,0.39460521,-0.27454264,0.44638,0.39230482,-0.23062198,0.442255,0.3913342,-0.20837882,0.440144,0.39270451,-0.19063153,0.438225,0.41925458,-0.2858934,0.446913,0.41930605,-0.24879125,0.440388,0.41936053,-0.23049181,0.43739,0.42077182,-0.21667981,0.434745
0.38457496,-0.35805439,0.453623,0.37807075,-0.31685826,0.450234,0.36384399,-0.34579361,0.452707,0.32169067,-0.33508552,0.447938,0.28338704,-0.31678209,0.434606,0.26562428,-0.30258936,0.432522,0.35017757,-0.27174263,0.446714,0.34528577,-0.2329753,0.449087,0.34259597,-0.21403531,0.450273,0.33986201,-0.1962672,0.451352,0.37466543,-0.27270847,0.44675,0.36746331,-0.22680558,0.442879,0.36349078,-0.20030977,0.440622,0.36051953,-0.18072171,0.439009,0.39509722,-0.27706096,0.447055,0.393791,-0.23341632,0.443402,0.39443534,-0.21130875,0.441533,0.39597507,-0.1932789,0.439834,0.41980335,-0.28884503,0.447926,0.41938004,-0.24961064,0.439903,0.42209643,-0.23552762,0.436217,0.42015201,-0.21868669,0.433064
0.38379908,-0.3585367,0.453371,0.37730247,-0.31826474,0.450022,0.36221514,-0.34697553,0.452363,0.32134673,-0.33585095,0.447789,0.28265907,-0.31819043,0.434516,0.26425251,-0.3036313,0.432526,0.34994292,-0.27212502,0.446416,0.345172,-0.23406976,0.448742,0.34274722,-0.21502977,0.449905,0.34004361,-0.19659314,0.450962,0.37447592,-0.27319334,0.44658,0.36727824,-0.22725622,0.44255,0.36336806,-0.20075982,0.440199,0.3617066,-0.18149954,0.43852,0.39491129,-0.27762374,0.446985,0.39535506,-0.23486364,0.444877,0.39739102,-0.21525924,0.443799,0.39843187,-0.19448976,0.442818,0.41967229,-0.29033312,0.44797,0.42090714,-0.25368555,0.439963,0.4220629,-0.23643021,0.436284,0.42037121,-0.21827404,0.433038
0.38320768,-0.36046241,0.454019,0.37742451,-0.31892719,0.45015,0.36238483,-0.34804371,0.452893,0.32148387,-0.33632172,0.448005,0.28264619,-0.31824828,0.434117,0.26519497,-0.30345834,0.432418,0.34973724,-0.27250546,0.446039,0.34540109,-0.2345541,0.44862,0.3444141,-0.21606542,0.449911,0.34093826,-0.19756821,0.451084,0.3743255,-0.27414954,0.44618,0.36888246,-0.22878688,0.443415,0.37101963,-0.2049339,0.441803,0.36709181,-0.1856459,0.440651,0.3946872,-0.27863803,0.446608,0.39722101,-0.23757936,0.445123,0.3988235,-0.21609682,0.444363,0.39977221,-0.19559246,0.443672,0.41927201,-0.2906002,0.447697,0.42062667,-0.2539918,0.43933,0.42189361,-0.23712326,0.435485,0.42324527,-0.22242751,0.432093
