sluyters/QuantumLeap/backend/src/datasets/gesture/HandGestureDataset_SHREC2017_csv/Gesture12/finger_1/subject_17_essai_1_skeletons_world.csv
Wrist_x,Wrist_y,Wrist_z,Palm_x,Palm_y,Palm_z,thumb_base_x,thumb_base_y,thumb_base_z,thumb_first_joint_x,thumb_first_joint_y,thumb_first_joint_z,thumb_second_joint_x,thumb_second_joint_y,thumb_second_joint_z,thumb_tip_x,thumb_tip_y,thumb_tip_z,index_base_x,index_base_y,index_base_z,index_first_joint_x,index_first_joint_y,index_first_joint_z,index_second_joint_x,index_second_joint_y,index_second_joint_z,index_tip_x,index_tip_y,index_tip_z,middle_base_x,middle_base_y,middle_base_z,middle_first_joint_x,middle_first_joint_y,middle_first_joint_z,middle_second_joint_x,middle_second_joint_y,middle_second_joint_z,middle_tip_x,middle_tip_y,middle_tip_z,ring_base_x,ring_base_y,ring_base_z,ring_first_joint_x,ring_first_joint_y,ring_first_joint_z,ring_second_joint_x,ring_second_joint_y,ring_second_joint_z,ring_tip_x,ring_tip_y,ring_tip_z,pinky_base_x,pinky_base_y,pinky_base_z,pinky_first_joint_x,pinky_first_joint_y,pinky_first_joint_z,pinky_second_joint_x,pinky_second_joint_y,pinky_second_joint_z,pinky_tip_x,pinky_tip_y,pinky_tip_z,
0.59021784,-0.42948603,0.677199,0.58144412,-0.37061854,0.658902,0.56883598,-0.41106987,0.673111,0.53035909,-0.37715642,0.656549,0.49330851,-0.35232523,0.64305,0.48395893,-0.33993898,0.645796,0.54941386,-0.31203842,0.640543,0.54904317,-0.27897594,0.649062,0.54881108,-0.26221636,0.653322,0.54857249,-0.24684915,0.657194,0.57165951,-0.31666267,0.639516,0.56007464,-0.30321365,0.614552,0.54799629,-0.3175272,0.599989,0.55068103,-0.33613995,0.607144,0.5906307,-0.32442004,0.64014,0.58054455,-0.3097172,0.616522,0.58767057,-0.33776927,0.633958,0.59431731,-0.3549785,0.65046,0.61471531,-0.34113505,0.643623,0.59620944,-0.33665307,0.623388,0.60649619,-0.35937453,0.636212,0.61613462,-0.37965173,0.648306
0.59019583,-0.41773689,0.67502,0.58376795,-0.35969005,0.657457,0.56820132,-0.39879037,0.67,0.53220106,-0.3635886,0.652077,0.49360856,-0.33825386,0.637126,0.48333917,-0.32593674,0.639558,0.55146787,-0.30100813,0.638476,0.5517653,-0.26821259,0.647684,0.5518628,-0.25156638,0.652288,0.55192255,-0.23629146,0.656474,0.57446348,-0.30661982,0.638848,0.56679841,-0.29257175,0.614753,0.555947,-0.30695265,0.600697,0.55827337,-0.32599677,0.608254,0.59401593,-0.31511845,0.640564,0.58801227,-0.30006219,0.618165,0.59569072,-0.32787022,0.635888,0.6008147,-0.34516726,0.652013,0.61872607,-0.33258885,0.645235,0.60278779,-0.32727368,0.625038,0.61333825,-0.34986592,0.638036,0.62277945,-0.37012775,0.650184
0.58918182,-0.40532341,0.671632,0.58153617,-0.34813432,0.654773,0.56759512,-0.38656407,0.666861,0.5333185,-0.35111284,0.648926,0.49389467,-0.32337904,0.631932,0.48253175,-0.30935329,0.632987,0.54998406,-0.29026462,0.636613,0.5506978,-0.25762299,0.646295,0.55100004,-0.24103372,0.651137,0.55124231,-0.22579827,0.655538,0.57287727,-0.29587502,0.63691,0.56598285,-0.27926895,0.613448,0.55600502,-0.29303861,0.599761,0.55886348,-0.31280619,0.607607,0.59229082,-0.30431301,0.638508,0.58680151,-0.28926656,0.616673,0.59548457,-0.31667031,0.634584,0.59967851,-0.34039864,0.650556,0.61672912,-0.32159427,0.642933,0.60127079,-0.31632703,0.623237,0.61225961,-0.33857047,0.63639,0.62190469,-0.35917511,0.648422
0.60156291,-0.37553943,0.6671,0.59329596,-0.32798169,0.658457,0.5791229,-0.36129744,0.664122,0.54052356,-0.33493585,0.650149,0.50312903,-0.31194549,0.636655,0.48783472,-0.29758261,0.636259,0.56018205,-0.27718297,0.648489,0.55694504,-0.2420479,0.653509,0.55620365,-0.2246745,0.656965,0.55562176,-0.20882198,0.660222,0.58455384,-0.2790878,0.6493,0.58480068,-0.26739282,0.63363,0.57890375,-0.28448083,0.624489,0.58450169,-0.30630057,0.635423,0.60515649,-0.2842869,0.650661,0.60522855,-0.27751738,0.636203,0.6187004,-0.30711795,0.655816,0.62279079,-0.32676302,0.669579,0.63085032,-0.29725984,0.653572,0.62031887,-0.29560427,0.639477,0.63230938,-0.31778602,0.654026,0.64040876,-0.33726302,0.664627
0.60023733,-0.3644157,0.66563,0.59288098,-0.30743907,0.657958,0.57830208,-0.34025136,0.66328,0.5402266,-0.31438357,0.650246,0.50336733,-0.29205704,0.637541,0.48828287,-0.27793436,0.637325,0.56098843,-0.2575787,0.649471,0.55738985,-0.22224094,0.654001,0.55664179,-0.2048178,0.657418,0.55606886,-0.18892531,0.660657,0.58509944,-0.25933548,0.649828,0.5853871,-0.2471016,0.635017,0.57971412,-0.26431403,0.626376,0.58572272,-0.28624512,0.637619,0.60540886,-0.26435711,0.650738,0.60539897,-0.25702496,0.636942,0.61890797,-0.28600775,0.656692,0.62326456,-0.30572948,0.670491,0.63059916,-0.27700874,0.652968,0.62026726,-0.27512744,0.639714,0.6319694,-0.29738811,0.654399,0.63938753,-0.31660518,0.664758
0.60017781,-0.34378927,0.665564,0.59286656,-0.28713778,0.657942,0.57827418,-0.31965653,0.663248,0.54024987,-0.29379253,0.650274,0.50338154,-0.27170878,0.637559,0.48835795,-0.25775441,0.637423,0.56104285,-0.23754078,0.649534,0.55737792,-0.20216984,0.653987,0.55661131,-0.18469319,0.657382,0.55602004,-0.16874753,0.660599,0.58513365,-0.23936911,0.649866,0.58546177,-0.22626569,0.635098,0.57981407,-0.24333912,0.626484,0.58583571,-0.26518717,0.637742,0.60542096,-0.24442375,0.650751,0.6054427,-0.23626297,0.636988,0.61895792,-0.26452769,0.656745,0.62330453,-0.28427789,0.670534,0.63057599,-0.25706679,0.652944,0.62028665,-0.2545864,0.639734,0.63199548,-0.27633151,0.654426,0.639401,-0.29525844,0.664772
0.60259293,-0.31349119,0.66769,0.59443437,-0.26703134,0.659296,0.58076763,-0.29976967,0.665636,0.53834781,-0.27895237,0.654251,0.49877123,-0.25693412,0.635556,0.47787363,-0.24046667,0.628898,0.56217447,-0.21764401,0.650651,0.56277988,-0.18450809,0.658523,0.56413811,-0.16826798,0.663698,0.56548741,-0.15348876,0.668548,0.58580964,-0.21931634,0.650401,0.58500495,-0.20549536,0.634802,0.57890423,-0.22195354,0.625703,0.58474777,-0.24362694,0.636676,0.6057688,-0.22422929,0.650869,0.60441262,-0.21521134,0.636164,0.61790713,-0.24260346,0.655791,0.62242411,-0.26243851,0.669595,0.63065326,-0.23667984,0.652684,0.61979928,-0.23310333,0.639099,0.63145996,-0.25428126,0.653703,0.63904214,-0.2729381,0.664147
0.59898354,-0.30651464,0.663795,0.59237721,-0.25606932,0.657284,0.57823113,-0.29343904,0.662928,0.53745576,-0.26826786,0.653332,0.4984657,-0.24664098,0.635323,0.47712245,-0.22893386,0.626714,0.56242687,-0.20806486,0.651479,0.56280939,-0.17453518,0.65877,0.56412858,-0.15810443,0.663739,0.56544537,-0.14314916,0.668405,0.58549682,-0.2093334,0.650386,0.58552057,-0.18491236,0.636479,0.58105611,-0.19879685,0.628367,0.58821034,-0.22129514,0.639906,0.60484114,-0.21384759,0.650008,0.6038145,-0.20459324,0.636625,0.618122,-0.23202846,0.656465,0.62417618,-0.25235537,0.670982,0.62870711,-0.22568606,0.650537,0.61871034,-0.22241812,0.638592,0.63097629,-0.24371056,0.653421,0.63858388,-0.26208823,0.663375
0.59714836,-0.30234502,0.662076,0.58948061,-0.25260559,0.655096,0.57529579,-0.28885856,0.659804,0.53543781,-0.25655903,0.647791,0.50074583,-0.23263489,0.633863,0.48401412,-0.21622747,0.630443,0.55752747,-0.20398164,0.647209,0.56452112,-0.16743054,0.653549,0.57011562,-0.1507577,0.658256,0.57535146,-0.13558647,0.662703,0.58009036,-0.20270355,0.6477,0.58356327,-0.17255384,0.633577,0.58100091,-0.18763955,0.625338,0.58792658,-0.20986647,0.636812,0.60009631,-0.20742708,0.648665,0.60506572,-0.1939092,0.635547,0.61890018,-0.22135114,0.655393,0.62278821,-0.24098767,0.669419,0.62488658,-0.21956674,0.650857,0.61951034,-0.21223158,0.638064,0.63108075,-0.23321265,0.652827,0.63814395,-0.25143495,0.663054
0.59683919,-0.30047099,0.661693,0.58873484,-0.25141268,0.65435,0.57449179,-0.28680612,0.658805,0.5361599,-0.25426258,0.646131,0.50567432,-0.22698765,0.633337,0.49058822,-0.2103626,0.630809,0.55581617,-0.20246108,0.645436,0.56420737,-0.16713869,0.652798,0.56999479,-0.1505268,0.657728,0.57538638,-0.1353956,0.662354,0.57942296,-0.202272,0.646569,0.58266458,-0.17208262,0.632201,0.57996628,-0.18709754,0.62382,0.58680816,-0.20925752,0.635193,0.59992071,-0.2071688,0.648091,0.60520295,-0.19193606,0.634935,0.61942567,-0.21910003,0.654734,0.62264552,-0.23899879,0.667955,0.62539067,-0.21954667,0.650999,0.61958546,-0.21205379,0.637746,0.63093607,-0.23310879,0.652443,0.63792698,-0.25132631,0.662805
0.59620088,-0.29294615,0.660986,0.59092728,-0.23705055,0.655718,0.5739155,-0.27682432,0.657821,0.5379511,-0.23878113,0.64472,0.50398771,-0.21378977,0.630972,0.48881786,-0.19800542,0.629162,0.56029304,-0.18780788,0.647969,0.55888922,-0.15366064,0.653989,0.55958978,-0.13673176,0.65847,0.56035503,-0.12130648,0.662709,0.58500112,-0.19085314,0.650137,0.59329777,-0.16553917,0.63796,0.59271219,-0.17954656,0.630857,0.59950908,-0.2019882,0.642897,0.60560397,-0.19678961,0.652343,0.61453873,-0.18439245,0.641526,0.63099179,-0.20956914,0.661546,0.6324196,-0.22979499,0.673911,0.63077627,-0.21023018,0.655752,0.63430719,-0.20887944,0.648238,0.65215935,-0.22979518,0.663501,0.66413743,-0.24571992,0.675636
0.59659994,-0.2917677,0.662214,0.59171074,-0.23927067,0.657322,0.57401979,-0.2750676,0.658445,0.53814238,-0.23810823,0.644883,0.50531489,-0.21192528,0.631138,0.49136599,-0.19596689,0.630029,0.56234167,-0.18914819,0.649099,0.56325318,-0.15557539,0.656638,0.56853178,-0.14054084,0.662799,0.5683084,-0.12397814,0.6684,0.58746504,-0.19343658,0.65214,0.5977179,-0.16815444,0.640495,0.59730159,-0.18193188,0.633702,0.60353535,-0.20431644,0.645841,0.60830464,-0.20036302,0.655034,0.62283421,-0.17933945,0.644968,0.64290468,-0.1993719,0.664967,0.64410683,-0.22177973,0.677021,0.63301338,-0.2184992,0.659203,0.6387745,-0.21348219,0.652706,0.65602196,-0.23464815,0.667964,0.66709414,-0.25073398,0.679785
0.59424236,-0.28016756,0.661299,0.59156442,-0.23427189,0.657513,0.57393621,-0.26543566,0.65895,0.53872542,-0.22828296,0.646265,0.50662085,-0.20247812,0.634066,0.49411526,-0.18770315,0.634772,0.56443153,-0.18118596,0.651851,0.56521687,-0.14765873,0.658722,0.56713595,-0.13105086,0.663735,0.5690171,-0.11592305,0.668462,0.58805603,-0.18579876,0.653501,0.60017703,-0.15998899,0.642677,0.60032774,-0.17336522,0.636363,0.60649961,-0.19571054,0.648854,0.60743983,-0.19290456,0.655162,0.62179841,-0.16858845,0.645447,0.64222001,-0.1881562,0.665639,0.64361468,-0.2106016,0.677629,0.63162492,-0.20917285,0.657701,0.63968827,-0.20617388,0.654537,0.65768856,-0.22971559,0.670041,0.66872699,-0.24576821,0.681738
0.59643121,-0.28569225,0.663146,0.59219849,-0.23642124,0.658304,0.57542808,-0.26581425,0.660935,0.5423686,-0.23160351,0.650456,0.51192043,-0.20599718,0.640086,0.50069358,-0.19144466,0.641675,0.56462017,-0.1853134,0.652046,0.56693418,-0.15003094,0.659724,0.56909556,-0.13335125,0.664785,0.5717769,-0.1207379,0.669762,0.58827268,-0.18902787,0.653174,0.5974782,-0.16345319,0.641228,0.59554037,-0.17929308,0.63426,0.60342361,-0.20107464,0.646427,0.60780705,-0.19546116,0.65449,0.62016496,-0.17725937,0.643581,0.63914957,-0.1981473,0.663681,0.64081751,-0.22041076,0.676116,0.63138403,-0.20938603,0.656779,0.63927158,-0.20887709,0.653789,0.65684105,-0.23007265,0.66931,0.66973768,-0.24898733,0.683005
0.59678137,-0.28499836,0.663706,0.5923982,-0.23623919,0.658564,0.57589371,-0.26584734,0.661621,0.5433771,-0.23276004,0.651742,0.5123476,-0.20687794,0.640696,0.50028389,-0.19309542,0.640533,0.56476308,-0.18544605,0.652245,0.5655411,-0.15163901,0.659177,0.56861916,-0.13392479,0.664469,0.57006955,-0.12087688,0.66928,0.58827062,-0.1890716,0.653116,0.59680964,-0.16343634,0.640836,0.59461855,-0.17853354,0.633673,0.60225188,-0.20061849,0.645741,0.60769747,-0.19543878,0.654246,0.6188386,-0.17625492,0.642951,0.63568753,-0.19673575,0.663021,0.63937383,-0.21968051,0.6756,0.63117069,-0.20929806,0.656358,0.63884306,-0.20885638,0.653498,0.65676529,-0.23001256,0.669027,0.67018858,-0.24899048,0.682729
0.59693961,-0.28442785,0.66401,0.59256612,-0.23613164,0.658776,0.57623337,-0.26588279,0.662112,0.54379625,-0.23330223,0.652283,0.51288191,-0.20744748,0.641402,0.50132759,-0.19356232,0.641919,0.56507096,-0.1855986,0.652621,0.56585884,-0.1517561,0.659465,0.56864621,-0.13427412,0.664621,0.57013265,-0.12072539,0.669309,0.58840341,-0.18914089,0.65323,0.59661004,-0.16348133,0.640817,0.5943424,-0.17820972,0.633576,0.60177373,-0.2004154,0.645608,0.60767943,-0.1954407,0.654151,0.61819241,-0.17575723,0.642654,0.63528845,-0.19651943,0.662714,0.63867871,-0.21932464,0.67537,0.63096817,-0.20922058,0.656028,0.6383715,-0.20877381,0.653104,0.65650588,-0.22990151,0.668639,0.67029629,-0.24892036,0.682346
0.59781797,-0.28431008,0.665274,0.59273126,-0.2360255,0.659215,0.57769623,-0.26642715,0.664109,0.54363485,-0.23324494,0.652354,0.51484574,-0.20873201,0.643934,0.50462462,-0.19391207,0.64653,0.56546347,-0.1857014,0.653367,0.56642957,-0.1511021,0.65987,0.56828346,-0.13431316,0.664605,0.56961403,-0.12043826,0.668909,0.58778479,-0.18889938,0.652794,0.59445616,-0.16431738,0.639398,0.59188629,-0.17812093,0.631583,0.59857567,-0.20100775,0.643302,0.6062299,-0.19491967,0.652809,0.61422179,-0.15998267,0.640052,0.63857309,-0.17070541,0.659981,0.64599579,-0.19300134,0.673093,0.62858488,-0.20836459,0.653735,0.63442812,-0.20746974,0.649403,0.65259354,-0.228516,0.664922,0.66657292,-0.24742778,0.678615
0.59610668,-0.28302847,0.663711,0.59218989,-0.23483403,0.659007,0.57606548,-0.2655156,0.662626,0.54522755,-0.23395623,0.654418,0.5192972,-0.2074405,0.649043,0.51040565,-0.19411728,0.65199,0.56590411,-0.18517625,0.654245,0.56729334,-0.15149591,0.661368,0.56917579,-0.13472812,0.666146,0.57032127,-0.11989594,0.670489,0.58856454,-0.18912906,0.654023,0.5968594,-0.16187196,0.641997,0.59262465,-0.17139829,0.634981,0.6018308,-0.19793787,0.647144,0.60722931,-0.19522422,0.654218,0.61619387,-0.16030119,0.642836,0.64066923,-0.17076436,0.662935,0.64761992,-0.19285741,0.67556,0.62966576,-0.20870647,0.655155,0.63673619,-0.20811471,0.652188,0.65499182,-0.22923677,0.667733,0.66917195,-0.24822724,0.68145
0.59701582,-0.28208044,0.665519,0.5925086,-0.2358788,0.659749,0.5774788,-0.26635186,0.66486,0.54597743,-0.23426534,0.655792,0.5205507,-0.20742072,0.650279,0.51501495,-0.19031505,0.653996,0.56593328,-0.18546186,0.65474,0.56680498,-0.1515304,0.661079,0.5686727,-0.13469547,0.665734,0.57021133,-0.12041411,0.669966,0.58792886,-0.18905199,0.653635,0.59357366,-0.1627977,0.640444,0.5887644,-0.17273209,0.632749,0.59731992,-0.19839992,0.644524,0.60603457,-0.19494532,0.653189,0.61335598,-0.16025399,0.640466,0.63717428,-0.17093968,0.660397,0.64435604,-0.19320681,0.673497,0.62790293,-0.20821559,0.653525,0.63274176,-0.20758838,0.648831,0.65110892,-0.22863189,0.664342,0.66542783,-0.24708712,0.678028
0.58570137,-0.27531248,0.653877,0.5866062,-0.23287177,0.653777,0.56712993,-0.26161347,0.65354,0.53898501,-0.23060868,0.648408,0.51750961,-0.20461308,0.646185,0.51115143,-0.18855026,0.649548,0.56425218,-0.18496349,0.653286,0.56348313,-0.15060459,0.65756,0.56483843,-0.13368696,0.661524,0.56627774,-0.11829332,0.665356,0.58755851,-0.18854868,0.653671,0.59626991,-0.15925589,0.646271,0.59731899,-0.17088991,0.641954,0.6048251,-0.1959788,0.655473,0.60648512,-0.19503626,0.653995,0.61915169,-0.16178614,0.647086,0.64357319,-0.17220342,0.667559,0.64895571,-0.19375357,0.678527,0.62847592,-0.20834436,0.654395,0.63676777,-0.20880637,0.654398,0.65529091,-0.22997504,0.669866,0.67039837,-0.24900806,0.683515
0.59658897,-0.28034082,0.667048,0.59225306,-0.23487376,0.660839,0.57757764,-0.26624022,0.666579,0.54747357,-0.23414965,0.659048,0.52235445,-0.20637886,0.652462,0.51483367,-0.1897387,0.654458,0.56604514,-0.18559221,0.655745,0.56712062,-0.15154722,0.662083,0.56904925,-0.13460493,0.666674,0.57092758,-0.11913114,0.670977,0.5877989,-0.1886306,0.65426,0.5904922,-0.15735142,0.640592,0.58803735,-0.16761959,0.632619,0.59424796,-0.19150631,0.644224,0.60572384,-0.19451846,0.653536,0.61229622,-0.16000544,0.640259,0.63608438,-0.16993034,0.660106,0.64392232,-0.19175348,0.673397,0.62737795,-0.20780239,0.653609,0.63035746,-0.20679343,0.648292,0.64881988,-0.22783327,0.66378,0.66392833,-0.24676894,0.677446
0.59584512,-0.27943732,0.666799,0.5921838,-0.23488488,0.661038,0.57642908,-0.26522605,0.665925,0.54847069,-0.23414393,0.660927,0.52381426,-0.20664998,0.654197,0.51607601,-0.18984687,0.655907,0.56590569,-0.18552009,0.655769,0.5678282,-0.15164478,0.662969,0.56978635,-0.1346455,0.667527,0.57165454,-0.11910322,0.671751,0.58826635,-0.18875921,0.654934,0.59095162,-0.15547155,0.64179,0.59061819,-0.16008643,0.634122,0.59620288,-0.18643595,0.645919,0.60668654,-0.19481435,0.654709,0.61407735,-0.16049976,0.642109,0.63802254,-0.17028756,0.662059,0.64572487,-0.19196395,0.675117,0.62888648,-0.20830718,0.655306,0.63323671,-0.20787359,0.65109,0.65151929,-0.22901109,0.666615,0.66633263,-0.24698801,0.680313
0.59930243,-0.28220257,0.671287,0.58964848,-0.23492973,0.658679,0.5798697,-0.26799767,0.67059,0.54931847,-0.236979,0.660388,0.51782046,-0.20852233,0.647112,0.50994877,-0.19160809,0.649978,0.56011528,-0.18506306,0.648655,0.56482114,-0.1524029,0.659124,0.56732349,-0.13570885,0.664358,0.56938246,-0.11950832,0.669116,0.58020864,-0.18775135,0.645322,0.57537502,-0.14905071,0.625339,0.57105653,-0.14687872,0.613683,0.57844153,-0.16538355,0.622861,0.59661415,-0.19367877,0.64359,0.59654847,-0.15656849,0.623913,0.61916065,-0.16541997,0.64246,0.62942668,-0.18694891,0.657815,0.61636843,-0.20795056,0.643426,0.61321688,-0.20567668,0.632902,0.63056341,-0.22633277,0.64793,0.64721016,-0.24100149,0.661189
0.59941306,-0.28312712,0.672173,0.59043089,-0.23604092,0.660199,0.58085312,-0.26932912,0.672528,0.5525402,-0.24060197,0.666852,0.52294463,-0.20846743,0.653178,0.51200104,-0.19202816,0.652036,0.56212595,-0.18778892,0.651938,0.5658026,-0.15401598,0.66074,0.56774356,-0.13704471,0.66514,0.5691454,-0.12011997,0.669141,0.57962597,-0.19324712,0.647512,0.57557732,-0.14901889,0.628019,0.57174632,-0.14307467,0.616648,0.58057154,-0.16315669,0.625895,0.59576558,-0.19848782,0.64483,0.59765989,-0.15749764,0.625287,0.62023487,-0.16600328,0.643754,0.63053574,-0.18733895,0.659023,0.61591439,-0.2111669,0.643444,0.61131032,-0.20842889,0.631923,0.62828435,-0.22906712,0.646863,0.64549851,-0.24124604,0.660045
0.5993798,-0.28453835,0.673501,0.58845563,-0.24279264,0.661562,0.58072695,-0.27061428,0.673731,0.5541371,-0.242106,0.669165,0.52526276,-0.20966919,0.655638,0.51628257,-0.1914846,0.655187,0.56068257,-0.19250171,0.653171,0.56672849,-0.1595985,0.663274,0.56995075,-0.14267519,0.668326,0.57249878,-0.12316979,0.672918,0.5801799,-0.19482894,0.648911,0.57606604,-0.150386,0.629465,0.57309971,-0.14575897,0.618122,0.58101046,-0.16303849,0.627409,0.59648847,-0.20022274,0.646364,0.59740677,-0.16304068,0.626913,0.61961976,-0.16997372,0.645423,0.63161867,-0.18841529,0.660671,0.61677756,-0.21310986,0.645132,0.61076726,-0.21177693,0.633827,0.62757838,-0.23251732,0.648793,0.64220722,-0.24818208,0.661998
0.59891865,-0.28574623,0.674348,0.58844658,-0.24362313,0.662261,0.58030443,-0.27176019,0.674589,0.55487959,-0.24291555,0.670293,0.52614513,-0.2102295,0.656413,0.5172457,-0.19193906,0.65588,0.56083552,-0.1932028,0.653776,0.56727127,-0.16027463,0.664017,0.57068361,-0.14333155,0.669138,0.57326944,-0.12452732,0.673793,0.58031588,-0.19557293,0.649453,0.57601405,-0.1509919,0.629864,0.57286901,-0.14587739,0.618436,0.58075858,-0.16284688,0.627658,0.59660582,-0.20100927,0.646867,0.59733019,-0.16390288,0.627264,0.6193949,-0.17082342,0.64573,0.63156016,-0.18900193,0.661023,0.61685848,-0.2139619,0.64561,0.61046631,-0.21263569,0.634158,0.62718345,-0.23339014,0.649104,0.64171869,-0.24911948,0.662291
0.59771838,-0.28632306,0.673311,0.58871319,-0.24380937,0.661559,0.57920095,-0.27237829,0.673615,0.56182039,-0.24653329,0.671666,0.53408059,-0.21434072,0.656866,0.52144993,-0.1949551,0.656408,0.56126841,-0.19358193,0.653396,0.56848889,-0.16089867,0.664645,0.57228994,-0.14403582,0.67027,0.57579588,-0.12847251,0.675383,0.58077507,-0.1958829,0.649107,0.57658449,-0.1512927,0.629835,0.57535789,-0.14179067,0.618593,0.58875097,-0.15007957,0.627945,0.59707228,-0.20125613,0.64652,0.59798719,-0.164249,0.627222,0.62060489,-0.17052865,0.645763,0.63150456,-0.18931915,0.660963,0.61730438,-0.21412069,0.645213,0.61396789,-0.20963549,0.633964,0.63108056,-0.23035642,0.64894,0.6439241,-0.24604094,0.662154
0.59822096,-0.28783648,0.673854,0.59175642,-0.24417215,0.661869,0.57948851,-0.27378164,0.673901,0.56237371,-0.24724589,0.671144,0.53454413,-0.21502646,0.656236,0.52362035,-0.19534748,0.655924,0.56510181,-0.19636415,0.653218,0.57189022,-0.16258951,0.663667,0.57547381,-0.14515936,0.668892,0.57539306,-0.12814332,0.673642,0.58484757,-0.19841966,0.64917,0.57924243,-0.15221437,0.629701,0.57789899,-0.14088204,0.618344,0.58947563,-0.15092428,0.627649,0.60141514,-0.20361795,0.646801,0.60020989,-0.16332594,0.62739,0.623145,-0.16880236,0.645934,0.63298938,-0.18875575,0.661179,0.62208846,-0.21632396,0.645787,0.61551574,-0.21058958,0.634712,0.63275528,-0.23134834,0.649703,0.64445542,-0.24965231,0.66293
0.59862201,-0.28902521,0.674013,0.59243609,-0.24488654,0.66202,0.5799034,-0.27496701,0.674065,0.56274892,-0.24756723,0.671198,0.53486697,-0.21532259,0.656233,0.52440682,-0.19579818,0.655909,0.56555194,-0.19670037,0.653371,0.57202457,-0.16249706,0.663234,0.57545189,-0.14485942,0.668165,0.57531809,-0.12795564,0.672648,0.5852917,-0.1987508,0.649314,0.57974254,-0.15274958,0.629837,0.57834346,-0.14120604,0.618475,0.58992812,-0.15125981,0.627775,0.60185367,-0.20394581,0.646937,0.60079444,-0.1635607,0.627517,0.62366999,-0.16908578,0.646057,0.63388135,-0.18872638,0.661305,0.62252304,-0.21665064,0.645916,0.6161203,-0.21105149,0.634826,0.63342455,-0.23182137,0.649815,0.64535539,-0.2499589,0.663041
0.59683437,-0.28930449,0.671503,0.59477708,-0.24769159,0.662639,0.5790757,-0.27569774,0.67257,0.56376534,-0.24812297,0.671949,0.53597985,-0.2158845,0.657087,0.52851334,-0.19804385,0.657423,0.56936875,-0.19869221,0.657519,0.57596172,-0.16636452,0.668795,0.57966026,-0.14961412,0.674433,0.5811578,-0.13219825,0.679559,0.58896843,-0.2007831,0.653246,0.58667165,-0.15609772,0.636711,0.58710426,-0.14453111,0.627066,0.59931057,-0.1535565,0.637452,0.60517967,-0.2059222,0.650442,0.6071395,-0.1669919,0.633686,0.63154776,-0.170188,0.652754,0.64187686,-0.19156802,0.667137,0.62497178,-0.21837547,0.648443,0.62073369,-0.21224003,0.638615,0.63841869,-0.23305166,0.65377,0.65207272,-0.2505761,0.667142
0.59801251,-0.29137228,0.672661,0.5953727,-0.2487503,0.663488,0.5799492,-0.27754408,0.673365,0.56487709,-0.24866882,0.672784,0.53837777,-0.21647829,0.657947,0.53041742,-0.19817405,0.658229,0.5695799,-0.19953682,0.657695,0.57645069,-0.16601801,0.667073,0.57989073,-0.14842213,0.671763,0.58220938,-0.13182907,0.676026,0.58983236,-0.20256497,0.653769,0.58697228,-0.15705644,0.636973,0.5865981,-0.14425329,0.627175,0.59916909,-0.15411471,0.637508,0.60629633,-0.20791304,0.651274,0.60776255,-0.16824911,0.634378,0.63196483,-0.17101999,0.653463,0.64238008,-0.19140388,0.66791,0.62644915,-0.22061549,0.64969,0.62236715,-0.21501411,0.640126,0.63996173,-0.23602811,0.655311,0.65188512,-0.25292624,0.668709
0.59786225,-0.29290814,0.672312,0.59577968,-0.24974832,0.664168,0.58013441,-0.27921845,0.673401,0.56534941,-0.24911086,0.673107,0.53924122,-0.21667164,0.658334,0.53171028,-0.19853986,0.658983,0.5713431,-0.20168842,0.659599,0.57872397,-0.17022612,0.669947,0.58269378,-0.15317146,0.675121,0.58558291,-0.13372267,0.679825,0.59112979,-0.20410435,0.655538,0.58924177,-0.16106627,0.639712,0.58933315,-0.14715844,0.63048,0.60233385,-0.15526727,0.641145,0.6070992,-0.21149379,0.652851,0.60952753,-0.16986735,0.636815,0.63392102,-0.17217622,0.656039,0.6442581,-0.19184068,0.670193,0.62685087,-0.22422702,0.650883,0.6230714,-0.21384505,0.64166,0.64074009,-0.23474485,0.656873,0.6534855,-0.25301968,0.670297
0.60083763,-0.29603604,0.67577,0.59566519,-0.25719147,0.666151,0.58230856,-0.28182026,0.675991,0.56611559,-0.25329231,0.673655,0.53870524,-0.21919114,0.6599,0.53305138,-0.20106249,0.660918,0.5699157,-0.20789843,0.659435,0.579293,-0.17796435,0.670589,0.58494487,-0.16037802,0.676166,0.5889208,-0.14170222,0.681237,0.58973882,-0.21429437,0.655959,0.58920139,-0.17064317,0.638783,0.58886938,-0.15768164,0.628763,0.60109427,-0.16677351,0.639005,0.60630401,-0.22065877,0.65387,0.6086097,-0.1788813,0.636753,0.62603812,-0.17040562,0.647358,0.64411083,-0.18536766,0.665981,0.62656553,-0.23444393,0.652834,0.62446469,-0.2215332,0.643589,0.64177702,-0.24266469,0.658803,0.65573393,-0.26080105,0.672228
0.59998567,-0.29727786,0.674752,0.59595065,-0.25881078,0.666406,0.58186686,-0.28316393,0.675364,0.56833818,-0.25668463,0.674976,0.54279622,-0.22426301,0.66176,0.53732094,-0.20321401,0.663239,0.57174829,-0.21198695,0.661101,0.58062271,-0.17902293,0.671286,0.58587249,-0.16130881,0.676378,0.58975064,-0.1429133,0.681008,0.59184959,-0.21557393,0.657564,0.59202684,-0.17218737,0.641597,0.59191396,-0.15939834,0.632283,0.60424593,-0.1686846,0.642956,0.60839921,-0.22181997,0.655323,0.61163624,-0.18021244,0.63931,0.61531929,-0.16794885,0.635877,0.62761524,-0.18228512,0.650205,0.62844796,-0.23542547,0.653916,0.62566251,-0.22495125,0.645218,0.64303956,-0.24615459,0.660485,0.65739909,-0.26284322,0.673957
0.60349602,-0.29884441,0.678886,0.59719575,-0.24941054,0.667582,0.58463846,-0.28174485,0.678278,0.55017169,-0.24163635,0.667549,0.52082819,-0.20997985,0.655654,0.51073002,-0.19342634,0.654682,0.57061233,-0.19765314,0.658617,0.57350733,-0.16280439,0.666585,0.57382958,-0.14518152,0.67057,0.57819494,-0.13013514,0.674192,0.59120488,-0.20243326,0.655606,0.59438221,-0.16605477,0.636883,0.59116756,-0.16301138,0.625962,0.60158572,-0.17375181,0.635665,0.60820221,-0.20935965,0.654035,0.61373725,-0.17316378,0.635621,0.60807862,-0.17206782,0.6262,0.6124602,-0.18224992,0.636284,0.62850628,-0.22684996,0.653866,0.62601152,-0.21777876,0.644359,0.6442182,-0.23726041,0.65952,0.65873344,-0.25681769,0.672897
0.60649887,-0.30017854,0.68209,0.59909547,-0.25072742,0.668853,0.58656303,-0.28325647,0.680249,0.5493715,-0.24009385,0.666523,0.52147408,-0.21067114,0.654873,0.51056182,-0.19420801,0.653205,0.57123748,-0.19747699,0.656954,0.57445668,-0.16419128,0.665633,0.57639512,-0.14609144,0.669972,0.57915104,-0.1307093,0.673917,0.59123724,-0.2029,0.654828,0.5938959,-0.16662796,0.634391,0.58998576,-0.16389764,0.622469,0.59997287,-0.17485076,0.631559,0.60867369,-0.21047372,0.654142,0.61406121,-0.17363886,0.634398,0.60808503,-0.1724772,0.624296,0.61627597,-0.18317586,0.63382,0.62994888,-0.22792374,0.655312,0.6235985,-0.2092187,0.639655,0.64492092,-0.21640883,0.653879,0.66361093,-0.22601541,0.66643
0.60939734,-0.30226994,0.68629,0.60025343,-0.25185376,0.670368,0.58755543,-0.28505194,0.682171,0.55071611,-0.24145468,0.665172,0.52407924,-0.21170258,0.654105,0.51231992,-0.19433706,0.652742,0.56794511,-0.1977364,0.653695,0.57415401,-0.16547114,0.664223,0.5775845,-0.14821981,0.669487,0.58002137,-0.13186837,0.674272,0.59042323,-0.20507784,0.653498,0.59235537,-0.16893834,0.630823,0.58528772,-0.17148022,0.617597,0.5922453,-0.1853761,0.625797,0.6095931,-0.21377904,0.654613,0.61529912,-0.17876112,0.633363,0.60549194,-0.18164582,0.62249,0.60900831,-0.19665745,0.63126,0.63304095,-0.2335595,0.658325,0.62308524,-0.21201802,0.639828,0.64387833,-0.21880659,0.653382,0.66162527,-0.22854317,0.665341
0.61126455,-0.30418655,0.689429,0.60070328,-0.25554812,0.670811,0.58915792,-0.2863868,0.684798,0.56486405,-0.24973246,0.672787,0.53762184,-0.21814767,0.65752,0.53106389,-0.20016507,0.656657,0.57063197,-0.19940387,0.651546,0.57314335,-0.16693303,0.661871,0.57702943,-0.14735053,0.667034,0.57952902,-0.1332659,0.671727,0.59254467,-0.20658942,0.651085,0.58729995,-0.17078331,0.625907,0.57523795,-0.17294751,0.611219,0.58226607,-0.18521931,0.61828,0.61109356,-0.21605265,0.6522,0.61139153,-0.17867384,0.628551,0.59815052,-0.18438845,0.616451,0.59854578,-0.20048513,0.624007,0.63257588,-0.23519061,0.656314,0.61854039,-0.21391579,0.635676,0.63659643,-0.22521465,0.648435,0.65124509,-0.2363615,0.659694
0.60857844,-0.30370294,0.687015,0.59994681,-0.25665162,0.669546,0.58675484,-0.28565738,0.682348,0.5623974,-0.24992915,0.66982,0.53825331,-0.2182897,0.656679,0.53051751,-0.20000164,0.655571,0.57286817,-0.20121772,0.651071,0.57712782,-0.16777486,0.663246,0.57929231,-0.15126317,0.669333,0.58342725,-0.13689634,0.674867,0.59555065,-0.20806447,0.651037,0.58925404,-0.17161887,0.626966,0.57960109,-0.17242743,0.612924,0.5850296,-0.18661557,0.620499,0.61468871,-0.21730776,0.65241,0.61389317,-0.17965883,0.629913,0.60180765,-0.18512815,0.618403,0.60351324,-0.19930786,0.626534,0.63853618,-0.23517282,0.65666,0.62159142,-0.20833741,0.636656,0.64113669,-0.21330458,0.64968,0.65845398,-0.22123596,0.66177
0.60597771,-0.30315084,0.684644,0.59931709,-0.25692389,0.668457,0.58465233,-0.28498454,0.680197,0.56242929,-0.24862136,0.668181,0.53861145,-0.21594037,0.655196,0.53021809,-0.19933901,0.65417,0.57377754,-0.20137174,0.651186,0.57908886,-0.16822616,0.663101,0.58035834,-0.15142332,0.669059,0.58372649,-0.13688935,0.674474,0.59657743,-0.2082608,0.651306,0.59226319,-0.17127982,0.628435,0.58424302,-0.17018166,0.615093,0.59023552,-0.18553098,0.623205,0.61572799,-0.21750511,0.652704,0.61660495,-0.17940486,0.631165,0.6104701,-0.17830789,0.620145,0.61660262,-0.18961703,0.628789,0.63941603,-0.23529769,0.65679,0.62390682,-0.20860212,0.637609,0.64234873,-0.21806617,0.650907,0.65952904,-0.22742028,0.662813
0.60395232,-0.30248668,0.682487,0.60082869,-0.25617306,0.667558,0.58350349,-0.28443106,0.678732,0.563099,-0.2485531,0.667753,0.54027582,-0.21573867,0.655124,0.53256061,-0.19937264,0.65497,0.57520028,-0.20173344,0.652058,0.57998239,-0.16854085,0.663478,0.58250768,-0.15132737,0.669189,0.58394983,-0.13713384,0.67438,0.59760626,-0.20848572,0.651739,0.59467204,-0.16839675,0.629966,0.58871013,-0.16390241,0.617264,0.59582399,-0.17377906,0.625853,0.61631584,-0.21757623,0.652676,0.61985468,-0.18002293,0.632099,0.61231904,-0.17896833,0.621572,0.61890041,-0.19051942,0.630697,0.6392677,-0.23509388,0.656026,0.625418,-0.20968113,0.637849,0.64350098,-0.21841505,0.651401,0.66017894,-0.22754845,0.663053
0.60729837,-0.30461663,0.686052,0.60541925,-0.25833333,0.669577,0.58708117,-0.28717286,0.681726,0.56814861,-0.25252534,0.669721,0.54348744,-0.22007005,0.656787,0.5360933,-0.20114229,0.656473,0.57785995,-0.20306696,0.652247,0.58136679,-0.16978119,0.663389,0.58362249,-0.15266039,0.66896,0.58522242,-0.13792602,0.674025,0.60045415,-0.20975447,0.652121,0.59619812,-0.16965418,0.628948,0.58809924,-0.16874193,0.615431,0.59405647,-0.17932418,0.623411,0.61875559,-0.21861868,0.653339,0.62016328,-0.18046396,0.631453,0.61068874,-0.18729517,0.620255,0.6097304,-0.20338193,0.628742,0.6430011,-0.23650311,0.657256,0.62825052,-0.21190216,0.637957,0.64769951,-0.22452204,0.651196,0.66125451,-0.23130908,0.663122
0.62213151,-0.30781926,0.694213,0.61886533,-0.24926735,0.676823,0.60016411,-0.28959549,0.689295,0.56763131,-0.25182985,0.671111,0.53403597,-0.22596572,0.657224,0.52003845,-0.20785816,0.654262,0.57662324,-0.19683559,0.658094,0.58263661,-0.16265681,0.667378,0.58453815,-0.14527642,0.67202,0.58313958,-0.13084267,0.67624,0.60286296,-0.19899135,0.658398,0.59334703,-0.16570239,0.63445,0.58536556,-0.16026746,0.620481,0.59427095,-0.17081438,0.628106,0.62390311,-0.20440486,0.660044,0.61039416,-0.19799569,0.637761,0.59217946,-0.21419839,0.62636,0.59416945,-0.22402377,0.634574,0.6513944,-0.21786754,0.664605,0.62981556,-0.18725714,0.644777,0.65025328,-0.20130514,0.657944,0.66594135,-0.21816731,0.670028
0.63732834,-0.29982869,0.69486,0.62587176,-0.25174889,0.682699,0.61036209,-0.28404028,0.687435,0.56906194,-0.25242955,0.668747,0.54098951,-0.22851816,0.658877,0.52404132,-0.21009014,0.656296,0.58272225,-0.19993492,0.664664,0.58300724,-0.16521857,0.67068,0.58332216,-0.14727845,0.674006,0.58418923,-0.1322032,0.677597,0.61374433,-0.20252078,0.669813,0.6096741,-0.17518217,0.650141,0.60576992,-0.17545437,0.638665,0.61662989,-0.18742592,0.647834,0.63855379,-0.20859937,0.675027,0.62852135,-0.20414044,0.655302,0.6123888,-0.22150696,0.64521,0.61477829,-0.2336957,0.654603,0.67014857,-0.22285534,0.683037,0.64752927,-0.18627635,0.665243,0.6426617,-0.17714709,0.657068,0.65615193,-0.18565029,0.663439
0.64204379,-0.30162203,0.698514,0.62780984,-0.25246027,0.684119,0.61377317,-0.28558893,0.689974,0.56811887,-0.26073573,0.670743,0.53239171,-0.24181122,0.660589,0.51750977,-0.22897633,0.661191,0.58267168,-0.20169679,0.66308,0.58181572,-0.16592441,0.670356,0.5811292,-0.14775352,0.673994,0.58207677,-0.13197661,0.677301,0.6127756,-0.20238998,0.668867,0.60557335,-0.17971095,0.64707,0.59916984,-0.18034405,0.634355,0.60687557,-0.1938711,0.642572,0.63827524,-0.20840316,0.674784,0.62698321,-0.20202601,0.652939,0.61327239,-0.21830183,0.641763,0.61435908,-0.23385062,0.650116,0.67117152,-0.22270316,0.683965,0.64779305,-0.18907075,0.664459,0.64350227,-0.18229689,0.655496,0.65530367,-0.18860002,0.661091
0.63310857,-0.30708958,0.698249,0.62720393,-0.2538847,0.683873,0.6065194,-0.28905716,0.689776,0.56619765,-0.26143574,0.669654,0.53136935,-0.24080992,0.65895,0.51753912,-0.22726997,0.659989,0.58323711,-0.20403537,0.662932,0.58247568,-0.17070808,0.673856,0.58212896,-0.15835281,0.680654,0.58493807,-0.13988147,0.686835,0.60856265,-0.20973276,0.668642,0.59995412,-0.18828818,0.646869,0.59683398,-0.18329846,0.634168,0.60655095,-0.1953292,0.642407,0.63615613,-0.21426004,0.674494,0.625899,-0.20618182,0.652693,0.61192117,-0.22264484,0.64154,0.61546534,-0.24271912,0.649923,0.66968146,-0.22617563,0.683596,0.64706732,-0.19408081,0.66412,0.64131371,-0.19079389,0.655172,0.65417548,-0.20175451,0.660788
0.63652078,-0.31728607,0.700501,0.62569678,-0.27649616,0.684374,0.61193743,-0.31009167,0.69162,0.56656048,-0.27809882,0.670051,0.53218046,-0.25495274,0.658845,0.51883802,-0.24037333,0.65896,0.58075923,-0.22201912,0.661655,0.58364629,-0.18723045,0.67076,0.5850471,-0.16952223,0.675312,0.5862969,-0.15324345,0.679451,0.61002376,-0.22531437,0.667287,0.59809986,-0.20749886,0.643913,0.59175726,-0.20430633,0.630278,0.60326744,-0.21637775,0.637842,0.63560867,-0.23185564,0.673216,0.62237781,-0.22620794,0.649982,0.60961222,-0.24173234,0.638095,0.61204885,-0.26060441,0.64579,0.66746558,-0.24572771,0.68267,0.64632356,-0.21327027,0.662007,0.63876701,-0.20700884,0.652513,0.65218585,-0.21724491,0.657606
0.65900092,-0.34106741,0.714319,0.64104228,-0.29600891,0.694551,0.63364616,-0.33330004,0.703781,0.58580873,-0.30160036,0.680302,0.54964014,-0.28002416,0.668967,0.53467916,-0.26548598,0.668502,0.58673343,-0.24198282,0.667133,0.58968085,-0.20791442,0.676527,0.59149216,-0.19020873,0.681224,0.59311451,-0.17390842,0.685494,0.61619856,-0.2427406,0.673606,0.60581548,-0.23079821,0.646889,0.60007121,-0.22666316,0.631303,0.61191828,-0.23598262,0.637163,0.64254717,-0.24731482,0.68052,0.62999522,-0.24401171,0.654001,0.61693758,-0.25762477,0.640433,0.61718399,-0.27759222,0.646288,0.67781816,-0.26027563,0.691689,0.66054813,-0.24977953,0.668385,0.65267773,-0.24493714,0.657678,0.64946562,-0.25622383,0.661403
0.67300528,-0.35916467,0.717403,0.64839906,-0.31504085,0.695726,0.64615345,-0.35506221,0.707156,0.59561222,-0.32604665,0.685692,0.55760792,-0.30425751,0.672432,0.53865056,-0.28458443,0.663055,0.58863907,-0.26281667,0.66728,0.59386394,-0.22850236,0.676497,0.59645658,-0.21109197,0.681105,0.5988324,-0.19508059,0.685295,0.61719922,-0.26109772,0.672758,0.60410469,-0.25022487,0.644418,0.59692463,-0.24607797,0.627886,0.60834432,-0.25565426,0.633081,0.6432768,-0.2636523,0.679005,0.62911718,-0.25985887,0.651307,0.61664204,-0.27351367,0.637135,0.618858,-0.29402343,0.642396,0.67915928,-0.27424956,0.689669,0.65744251,-0.26725074,0.665337,0.64748542,-0.26406036,0.654157,0.64601046,-0.27707616,0.657416
0.68315456,-0.39138682,0.71754,0.65668721,-0.34011494,0.70079,0.65104275,-0.37763456,0.707255,0.60212435,-0.35050202,0.688952,0.56417545,-0.32681371,0.673322,0.54575798,-0.30624954,0.6628,0.59960306,-0.28872468,0.675879,0.60297096,-0.25368124,0.683396,0.60463195,-0.23589863,0.687154,0.60612955,-0.21958262,0.690571,0.62925057,-0.28821878,0.683043,0.62293625,-0.27953489,0.659002,0.61974169,-0.27545853,0.644978,0.63428076,-0.28404246,0.651969,0.65593558,-0.29162609,0.690283,0.64737985,-0.28520831,0.665993,0.63724969,-0.29892587,0.653565,0.64276823,-0.32141883,0.660524,0.69198418,-0.3029602,0.701387,0.67140931,-0.29649816,0.67996,0.66196371,-0.29356345,0.670116,0.65952257,-0.30703171,0.674687
0.67896629,-0.42545002,0.717161,0.65606061,-0.37293522,0.699994,0.64773649,-0.41027245,0.706928,0.60380839,-0.3781734,0.688271,0.56816609,-0.35163162,0.673212,0.55131459,-0.3305118,0.664391,0.60211196,-0.31853782,0.674843,0.60960137,-0.28530345,0.684538,0.61334022,-0.26851028,0.689385,0.61916646,-0.25271502,0.693792,0.63210238,-0.31927883,0.681804,0.62149368,-0.29922608,0.657395,0.61781273,-0.29681278,0.643156,0.6324183,-0.30760051,0.650021,0.65884663,-0.32387051,0.68891,0.65048915,-0.30575256,0.664345,0.6374182,-0.32036731,0.651777,0.64169103,-0.34286094,0.658626,0.69447434,-0.33691495,0.699917,0.67616476,-0.33605539,0.67825,0.66378921,-0.34663983,0.668295,0.66608411,-0.36263215,0.672779
0.6818943,-0.43002947,0.713607,0.66090625,-0.38298859,0.695428,0.65126706,-0.41584686,0.704926,0.6043016,-0.39299533,0.682867,0.56462619,-0.37147307,0.669411,0.54489257,-0.35251743,0.661368,0.60422603,-0.32995959,0.671465,0.61314402,-0.29829292,0.683876,0.61758628,-0.28218497,0.690081,0.62373618,-0.2681795,0.695722,0.63255221,-0.32896036,0.676167,0.61834818,-0.31279652,0.65101,0.61099129,-0.30959995,0.636335,0.62286105,-0.32037332,0.643214,0.65827367,-0.33209941,0.681495,0.64442655,-0.31719615,0.656916,0.63344495,-0.33132176,0.64434,0.64022534,-0.35414729,0.651414,0.69345187,-0.34340725,0.690545,0.67485757,-0.32829653,0.668714,0.65707178,-0.33514368,0.658683,0.65474244,-0.34812441,0.663289
0.68157189,-0.46273249,0.708363,0.65976974,-0.410637,0.694217,0.65135205,-0.44803359,0.700202,0.60396595,-0.41952383,0.682014,0.56620114,-0.39760043,0.669682,0.54714921,-0.37815858,0.661375,0.60821898,-0.35750856,0.673829,0.61613096,-0.32460794,0.683706,0.6200809,-0.30794442,0.688644,0.62633812,-0.29423985,0.693133,0.63711846,-0.35779216,0.679228,0.62862548,-0.34539069,0.657692,0.62443233,-0.34451287,0.645129,0.63849687,-0.35781831,0.653513,0.66285791,-0.36193366,0.684807,0.65415117,-0.35042423,0.663312,0.64406071,-0.36529035,0.652315,0.65145824,-0.38932696,0.660877,0.69713878,-0.37430751,0.693548,0.6830632,-0.36182638,0.674306,0.66633649,-0.36902917,0.665464,0.66505497,-0.38303101,0.671209
0.68257995,-0.48813574,0.708901,0.65679067,-0.43302859,0.690063,0.65102919,-0.47276196,0.699085,0.60160101,-0.44394259,0.678123,0.56176331,-0.42134719,0.663119,0.54111988,-0.40177466,0.652656,0.60061416,-0.37675955,0.664214,0.60436,-0.34118859,0.669327,0.6062285,-0.32318937,0.671884,0.61095886,-0.31009227,0.674208,0.62987523,-0.3769011,0.670102,0.61862731,-0.36805222,0.644254,0.61265941,-0.36916222,0.629176,0.62520546,-0.38438666,0.635562,0.65624467,-0.38116874,0.676459,0.6448248,-0.37301714,0.650903,0.63240587,-0.3864174,0.637827,0.63738141,-0.40865505,0.644282,0.69188372,-0.39415091,0.686829,0.67560966,-0.3845955,0.664273,0.65737717,-0.39145616,0.65391,0.65463539,-0.40552628,0.658072
0.67637257,-0.52577937,0.714606,0.65512615,-0.47017173,0.694894,0.64380753,-0.50611025,0.697477,0.59753636,-0.4674345,0.670993,0.56179168,-0.44226214,0.658833,0.55028652,-0.43088221,0.663451,0.60017298,-0.40748892,0.659351,0.60252196,-0.36892601,0.658687,0.60370249,-0.3495658,0.658355,0.61477136,-0.34200765,0.658053,0.63272299,-0.41297752,0.674008,0.63875504,-0.41437333,0.647551,0.64259782,-0.41537244,0.632118,0.65112155,-0.43472632,0.634924,0.66135993,-0.42174601,0.687651,0.66196548,-0.42133476,0.658994,0.6447317,-0.43167385,0.644333,0.64436485,-0.45074864,0.646229,0.6988263,-0.44021638,0.706798,0.69169898,-0.43562848,0.682476,0.68857496,-0.43361464,0.671301,0.68680472,-0.44601325,0.672296
0.67636884,-0.53513598,0.712875,0.65534803,-0.48956241,0.6939,0.64500214,-0.52599615,0.696153,0.59647107,-0.48630946,0.670741,0.56261286,-0.46144084,0.660387,0.55106671,-0.44849895,0.663962,0.59904725,-0.42644845,0.659397,0.60153009,-0.38813267,0.658779,0.60278075,-0.36885996,0.65847,0.61359032,-0.3619955,0.658189,0.63155135,-0.43191959,0.673795,0.63807789,-0.42798929,0.647944,0.64076075,-0.4351332,0.632865,0.64573659,-0.45412036,0.636174,0.66025888,-0.44069543,0.687165,0.66158881,-0.43843744,0.659132,0.64545498,-0.44871302,0.64479,0.64632858,-0.46834366,0.647234,0.69803352,-0.45922246,0.705877,0.69043183,-0.45518854,0.682033,0.68709244,-0.45344524,0.671077,0.68708814,-0.46758114,0.672472
0.67159675,-0.54590538,0.703511,0.65858002,-0.49690009,0.688044,0.64081558,-0.52554002,0.689355,0.59010431,-0.49418078,0.664217,0.55109215,-0.46796089,0.648203,0.53336317,-0.44847202,0.641193,0.60981221,-0.43084224,0.65927,0.61429119,-0.39350932,0.658929,0.61656181,-0.37460628,0.658759,0.6266067,-0.36920253,0.658604,0.64213579,-0.4398451,0.671656,0.64701501,-0.43783634,0.648766,0.64811304,-0.44628288,0.635413,0.65506201,-0.46880106,0.641241,0.67018576,-0.45150258,0.68309,0.67183871,-0.44773043,0.658324,0.65821135,-0.45960676,0.645653,0.66269463,-0.48197559,0.650905,0.70624928,-0.47344574,0.698979,0.69920599,-0.4650685,0.677599,0.69526664,-0.46336011,0.667776,0.69684358,-0.47922573,0.671209
0.66927744,-0.54909538,0.700175,0.65735529,-0.5044581,0.685164,0.63998173,-0.52892316,0.687849,0.5908925,-0.50030379,0.663682,0.55345438,-0.47497215,0.651547,0.54237517,-0.46330498,0.656218,0.61148428,-0.43883642,0.658987,0.61593769,-0.40161925,0.658377,0.61819834,-0.3827616,0.658072,0.62702972,-0.37774795,0.657794,0.64281644,-0.44749421,0.669259,0.64526248,-0.43917761,0.647001,0.64593046,-0.44761815,0.634017,0.65404459,-0.47108884,0.640905,0.66990875,-0.45886658,0.678917,0.67424415,-0.45838386,0.658909,0.66305246,-0.47117437,0.648673,0.67020459,-0.49484684,0.656309,0.7045809,-0.48047048,0.692629,0.69703184,-0.47166152,0.671831,0.69315649,-0.47308301,0.662274,0.69820532,-0.4909451,0.666565
0.66723873,-0.55181225,0.693601,0.65666971,-0.50174418,0.68201,0.63850508,-0.53109019,0.682496,0.59465752,-0.49923247,0.660677,0.56077777,-0.47702762,0.652052,0.54480578,-0.46294959,0.654709,0.61301319,-0.44001945,0.65983,0.61634479,-0.40207075,0.658263,0.61817131,-0.38296795,0.657479,0.62640484,-0.37724349,0.656767,0.64413016,-0.44751722,0.669729,0.64919978,-0.44244983,0.650563,0.65137887,-0.45225995,0.639383,0.6608706,-0.47699349,0.647673,0.67086677,-0.45773762,0.678805,0.67650566,-0.45073444,0.661259,0.66762201,-0.46552198,0.652282,0.6769267,-0.49111176,0.66126,0.70475911,-0.47757435,0.691314,0.69897373,-0.47256154,0.672954,0.69598061,-0.47468646,0.664518,0.7021202,-0.49341995,0.669937
0.671264,-0.55215357,0.698641,0.65858352,-0.50225835,0.683054,0.64085303,-0.53077486,0.685637,0.59310951,-0.50019457,0.661747,0.55221654,-0.47379609,0.642206,0.53828809,-0.45827463,0.643648,0.61012712,-0.43657137,0.655619,0.61696166,-0.40112495,0.65789,0.62069183,-0.38318476,0.659025,0.63071771,-0.37874997,0.660056,0.6420869,-0.44503827,0.66654,0.64296831,-0.43809335,0.643489,0.642407,-0.44621668,0.630043,0.64967699,-0.4692794,0.636398,0.66987814,-0.45626879,0.676777,0.66971908,-0.45037049,0.653025,0.6712543,-0.44813824,0.640873,0.68116318,-0.47206237,0.647037,0.70570806,-0.47774849,0.691263,0.69681714,-0.47061826,0.669978,0.69224668,-0.47207308,0.660198,0.69654798,-0.48959101,0.664103
0.66909999,-0.55121401,0.695801,0.65711291,-0.50086169,0.681027,0.63876729,-0.52952841,0.683021,0.5911967,-0.49952936,0.65849,0.54911136,-0.47241942,0.640135,0.53528284,-0.45769077,0.641552,0.60961475,-0.43540645,0.654459,0.6170159,-0.40046692,0.657359,0.62102094,-0.38274509,0.658808,0.63098329,-0.37865014,0.660126,0.64179685,-0.44426498,0.665372,0.6425643,-0.438125,0.643063,0.64164068,-0.44790169,0.630049,0.64887414,-0.47126943,0.636733,0.66971556,-0.45578012,0.675538,0.66891539,-0.44979299,0.651727,0.66977963,-0.44752619,0.639545,0.68125582,-0.47144617,0.645826,0.70557098,-0.47753812,0.689818,0.69647774,-0.47105852,0.669089,0.69255921,-0.48042978,0.659565,0.69635731,-0.49127834,0.663727
0.66843019,-0.55149418,0.694399,0.65668509,-0.50085614,0.68015,0.63887409,-0.53030113,0.682676,0.59204336,-0.50085032,0.659292,0.55007684,-0.47361645,0.64125,0.53166531,-0.45739501,0.638422,0.61051334,-0.43634293,0.655274,0.61630572,-0.40074214,0.656844,0.61807492,-0.38378031,0.65763,0.62775029,-0.37886798,0.658343,0.64185973,-0.44460566,0.665053,0.64248846,-0.43946998,0.643221,0.63341548,-0.45400792,0.630485,0.64319312,-0.47548184,0.637759,0.66902579,-0.45560045,0.674244,0.66982344,-0.45053806,0.652434,0.67131334,-0.44895934,0.641276,0.68492467,-0.47361251,0.648652,0.7043268,-0.47764546,0.687287,0.6947263,-0.4703314,0.667091,0.69076272,-0.4793832,0.657811,0.69546527,-0.49252363,0.662483
0.66664387,-0.55078329,0.692099,0.65536847,-0.50018024,0.678569,0.63833678,-0.53050437,0.681851,0.59165135,-0.50266941,0.661636,0.54627668,-0.48016203,0.644996,0.53060846,-0.46769467,0.646138,0.61126436,-0.43712918,0.656041,0.60575478,-0.40005243,0.646621,0.60293449,-0.38053951,0.64191,0.60046403,-0.36267554,0.637709,0.64128413,-0.44444143,0.664232,0.64136196,-0.43985871,0.643098,0.63375556,-0.45507215,0.630769,0.64063642,-0.47940462,0.638777,0.66724065,-0.45460707,0.672058,0.67007648,-0.45003547,0.652113,0.67183429,-0.44990369,0.641909,0.68712573,-0.4754058,0.650426,0.70337866,-0.4769168,0.683375,0.69288344,-0.47099118,0.663959,0.68800108,-0.47776447,0.655038,0.69334763,-0.49098785,0.660355
0.65778663,-0.54660312,0.682273,0.64772505,-0.49606415,0.670992,0.63545334,-0.52919093,0.679377,0.58746687,-0.50891073,0.667577,0.54440205,-0.48368214,0.652296,0.53386949,-0.47285949,0.65445,0.61140983,-0.43964282,0.659209,0.59605739,-0.39752178,0.643084,0.59586614,-0.38045896,0.641961,0.59681426,-0.36525979,0.642127,0.63270699,-0.44234097,0.65904,0.63194628,-0.44019158,0.640706,0.62701811,-0.45620909,0.630012,0.63997972,-0.48094673,0.639984,0.65262987,-0.44849889,0.659807,0.65488433,-0.44604688,0.642589,0.65677098,-0.44650874,0.63378,0.67843643,-0.47306053,0.6444,0.6778904,-0.46335374,0.662408,0.67027383,-0.45933148,0.646844,0.66751099,-0.46769292,0.639693,0.67920834,-0.48542125,0.647053
0.6561041,-0.54628314,0.68124,0.64111795,-0.49588811,0.66954,0.63367406,-0.52876586,0.678159,0.58537858,-0.50810326,0.666288,0.54268772,-0.48313655,0.651377,0.52885326,-0.47161905,0.653786,0.60669615,-0.43847177,0.657222,0.59219268,-0.39509324,0.640687,0.59160532,-0.3776657,0.639625,0.59188661,-0.36198453,0.639532,0.6301243,-0.44115048,0.657144,0.62891336,-0.43889382,0.638428,0.62309662,-0.45534981,0.62751,0.63127996,-0.48048213,0.637336,0.65011988,-0.44737372,0.658019,0.6517534,-0.44341187,0.640473,0.65333212,-0.44307108,0.631496,0.67169572,-0.46983814,0.641971,0.67552396,-0.46234511,0.660811,0.66838302,-0.45880644,0.645749,0.66583059,-0.46736992,0.638829,0.67670991,-0.48575989,0.646413
0.64283711,-0.53904998,0.671484,0.62393812,-0.49170803,0.663703,0.61618887,-0.52617522,0.668895,0.56738262,-0.50293591,0.659284,0.52666338,-0.47929822,0.64602,0.51508889,-0.46967149,0.650971,0.5931884,-0.43696166,0.654841,0.58076944,-0.39464842,0.641499,0.58010208,-0.37704502,0.640952,0.58058725,-0.36140113,0.641665,0.61727009,-0.44010078,0.655458,0.61931487,-0.44064435,0.640583,0.61502591,-0.45949672,0.631905,0.62359645,-0.48508737,0.643121,0.63750251,-0.44649245,0.65659,0.64225521,-0.44385627,0.642811,0.64552483,-0.44421662,0.635762,0.66536869,-0.4720289,0.647747,0.66255545,-0.46125649,0.6591,0.65704572,-0.45923307,0.645993,0.65531464,-0.46851473,0.63997,0.66514278,-0.48765395,0.648266
0.62994761,-0.53893612,0.667084,0.61273966,-0.4902587,0.661602,0.60091511,-0.52397674,0.665493,0.55575745,-0.5007636,0.656773,0.51458852,-0.47319839,0.638568,0.49706421,-0.4570891,0.636152,0.58347878,-0.43825407,0.655646,0.57281044,-0.39700255,0.644411,0.56754387,-0.37633324,0.638794,0.56767402,-0.36059,0.639219,0.60725245,-0.44037524,0.655793,0.61082144,-0.4423524,0.643065,0.60761104,-0.4622409,0.63564,0.61671233,-0.48846625,0.647578,0.6271018,-0.44580845,0.656353,0.63316474,-0.44492826,0.644428,0.63707239,-0.4459909,0.638327,0.65707236,-0.47444637,0.651022,0.65145542,-0.45917785,0.657841,0.64721125,-0.45968835,0.64662,0.64593102,-0.46951723,0.641465,0.65614457,-0.48925322,0.650397
0.61707576,-0.53888558,0.667929,0.6010945,-0.48755007,0.661235,0.58947227,-0.52189247,0.664202,0.54246637,-0.49442564,0.652839,0.50522976,-0.47192743,0.642364,0.49485179,-0.46247096,0.648011,0.57092659,-0.43270996,0.651754,0.56030258,-0.39248871,0.638615,0.55975748,-0.3753766,0.637468,0.56603967,-0.36164686,0.640705,0.59616042,-0.43686088,0.654142,0.6003596,-0.43981135,0.640623,0.5946267,-0.45984644,0.632737,0.60168065,-0.48570865,0.644325,0.61721983,-0.44403153,0.656645,0.62399928,-0.44508707,0.644648,0.62811037,-0.44595315,0.638509,0.64460127,-0.47483209,0.651038,0.64298495,-0.45960507,0.660619,0.6380262,-0.46036609,0.647474,0.63547797,-0.46912477,0.641435,0.64376435,-0.48872829,0.649699
0.59903473,-0.5359154,0.667041,0.58960154,-0.48610399,0.660632,0.57713415,-0.51933985,0.663537,0.53137452,-0.49276462,0.652866,0.49336208,-0.46850445,0.640631,0.4829535,-0.45856753,0.646148,0.56073954,-0.43147054,0.651634,0.54721737,-0.39080996,0.638613,0.54180837,-0.3718307,0.632103,0.54043702,-0.35672518,0.630318,0.58571894,-0.43569988,0.653842,0.59003967,-0.43925902,0.640565,0.58392462,-0.45948889,0.63282,0.59066325,-0.48548626,0.6445,0.60646231,-0.44290966,0.656172,0.61313175,-0.44472283,0.644346,0.61717254,-0.44600024,0.638295,0.63264345,-0.47502811,0.650905,0.63166775,-0.45847549,0.659899,0.62692192,-0.45975422,0.647014,0.62433978,-0.46854468,0.641094,0.63236275,-0.4882427,0.649453
0.58471653,-0.53194947,0.667015,0.57568822,-0.47933501,0.65994,0.55527822,-0.51029176,0.662498,0.5152127,-0.48291299,0.651255,0.47584947,-0.45478494,0.634752,0.46318274,-0.44140088,0.637048,0.54978007,-0.42261001,0.649204,0.53484732,-0.37775953,0.635156,0.53275988,-0.35914046,0.634519,0.53218832,-0.34284791,0.635324,0.57485445,-0.42889401,0.652444,0.58026232,-0.43397859,0.638721,0.57202672,-0.45422456,0.630715,0.57748391,-0.48018478,0.64216,0.595435,-0.4377896,0.655679,0.60264866,-0.44185943,0.643743,0.60696918,-0.44436167,0.637636,0.61922604,-0.47328399,0.650091,0.61999409,-0.45534856,0.660578,0.61607772,-0.45720757,0.64692,0.61348768,-0.46523077,0.640645,0.6205058,-0.48493272,0.648697
0.57534045,-0.53092251,0.67301,0.56669671,-0.47657919,0.662111,0.55151034,-0.50977611,0.664932,0.50194246,-0.47573788,0.648534,0.46484506,-0.44748459,0.6312,0.44847786,-0.42939369,0.627719,0.53623943,-0.41503727,0.644182,0.5322071,-0.37616026,0.64244,0.53109014,-0.35722406,0.642666,0.53021208,-0.33998292,0.643048,0.56368003,-0.42360143,0.650562,0.56626667,-0.42781902,0.63387,0.55545747,-0.4467167,0.624133,0.5592361,-0.47143327,0.634039,0.58651695,-0.43458892,0.656686,0.59157552,-0.43900734,0.642925,0.59472392,-0.44170468,0.635885,0.60439922,-0.46951425,0.647012,0.61425412,-0.45509338,0.665589,0.6070413,-0.45539755,0.648401,0.60261284,-0.46257479,0.640504,0.60778983,-0.48130329,0.64699
0.56486163,-0.52829815,0.67504,0.55530701,-0.47325576,0.662118,0.53894716,-0.50484077,0.663792,0.49029969,-0.46756021,0.643066,0.45520197,-0.44003573,0.629738,0.44263103,-0.42443543,0.630537,0.52151083,-0.40856093,0.638793,0.51454353,-0.36920223,0.632732,0.51177022,-0.34980925,0.629701,0.50929883,-0.33201787,0.627011,0.55127047,-0.41905853,0.648426,0.55336837,-0.42384371,0.63049,0.54164607,-0.44222983,0.620028,0.54441616,-0.46606642,0.628581,0.57621714,-0.43176083,0.657389,0.57560514,-0.43442809,0.637381,0.57568866,-0.43616311,0.627145,0.58194898,-0.46163372,0.6353,0.60673951,-0.45456624,0.669964,0.59834104,-0.45466884,0.650713,0.59312351,-0.46183424,0.641868,0.59731518,-0.47992749,0.646978
0.56323784,-0.52622187,0.67692,0.54963022,-0.4648717,0.661988,0.53112051,-0.49971534,0.663802,0.48337544,-0.46137051,0.642839,0.45011934,-0.43720464,0.632397,0.43519874,-0.41977557,0.630158,0.51058903,-0.39974311,0.634887,0.50029083,-0.36035303,0.627773,0.49517861,-0.34048223,0.624299,0.49141389,-0.32285386,0.621142,0.54172798,-0.40938715,0.646166,0.54068875,-0.41304439,0.623719,0.52654679,-0.42957539,0.610626,0.52908003,-0.45227623,0.617112,0.56813883,-0.42148577,0.656645,0.56422183,-0.42312611,0.632604,0.56251209,-0.42426296,0.620304,0.56545272,-0.44803282,0.626345,0.60097746,-0.44375983,0.671321,0.59104162,-0.44455249,0.650435,0.58388428,-0.45257025,0.640838,0.58747955,-0.46994116,0.644831
0.55038114,-0.50974102,0.67211,0.54098675,-0.45118959,0.65987,0.52268634,-0.48698545,0.659052,0.47371064,-0.44795769,0.638422,0.43990539,-0.42530421,0.628405,0.42524621,-0.40992789,0.62802,0.50229053,-0.38747322,0.6348,0.4937472,-0.34933066,0.631467,0.4895124,-0.33002495,0.629799,0.48570131,-0.31235445,0.628366,0.53357059,-0.39742611,0.646902,0.53875607,-0.39149532,0.626963,0.52969219,-0.40872252,0.615332,0.5364199,-0.43176854,0.622541,0.56005664,-0.40964383,0.657841,0.56012941,-0.40892034,0.635842,0.56054566,-0.40881175,0.624586,0.56516436,-0.43254266,0.63129,0.5929222,-0.4318142,0.67266,0.58623894,-0.43069751,0.653537,0.57996816,-0.43937173,0.644751,0.58525536,-0.45596347,0.649275
0.54072443,-0.49236188,0.666086,0.52994626,-0.43226588,0.653858,0.51044596,-0.4639533,0.655266,0.46389067,-0.43300286,0.636875,0.43044361,-0.41130644,0.627457,0.41850854,-0.39932541,0.631318,0.49006059,-0.3709486,0.631568,0.48333169,-0.33326206,0.629413,0.47992403,-0.31410486,0.628336,0.47685111,-0.29653376,0.627424,0.52082109,-0.37872268,0.640902,0.5189434,-0.37108573,0.620946,0.51231429,-0.38881503,0.609304,0.52148469,-0.41231894,0.617479,0.54710119,-0.38913215,0.649564,0.54413095,-0.38628506,0.628353,0.54296424,-0.38506205,0.617501,0.55328864,-0.40963166,0.625473,0.58011853,-0.40916166,0.661677,0.56715048,-0.40586152,0.642963,0.55771247,-0.41650057,0.634365,0.56019114,-0.43345861,0.639762
0.52937713,-0.4758464,0.663666,0.51810701,-0.41694154,0.652355,0.49513379,-0.44546411,0.651504,0.44928374,-0.41366221,0.630571,0.41435549,-0.39158244,0.619825,0.40359533,-0.38108378,0.625336,0.48219014,-0.35436366,0.62907,0.47493245,-0.31614268,0.625939,0.47158005,-0.29686933,0.624374,0.46853261,-0.2791482,0.622985,0.51348471,-0.36468559,0.64037,0.51436088,-0.36062553,0.621272,0.50797851,-0.37447901,0.610131,0.50817912,-0.39592645,0.61799,0.53984999,-0.37712248,0.650576,0.53857944,-0.37598143,0.629574,0.53829554,-0.3756477,0.618828,0.5451319,-0.39974212,0.62628,0.5722707,-0.39941421,0.664385,0.5624362,-0.39720706,0.646015,0.55301795,-0.40795858,0.637574,0.55454588,-0.42485605,0.642639
0.51737753,-0.46609912,0.665932,0.508824,-0.41036645,0.652205,0.49138579,-0.44334467,0.654772,0.44338973,-0.4075958,0.632645,0.40943949,-0.38295729,0.621376,0.40163091,-0.37140037,0.627338,0.4761442,-0.34682743,0.628406,0.46952901,-0.30832931,0.624217,0.46619038,-0.28875048,0.622123,0.46518954,-0.27456965,0.620742,0.50635546,-0.35737717,0.637661,0.50085708,-0.35122728,0.616316,0.49264923,-0.3660906,0.603865,0.494942,-0.38682387,0.611501,0.53170607,-0.37008784,0.646378,0.52037552,-0.3700398,0.623928,0.51473895,-0.37030318,0.612442,0.51392897,-0.39294594,0.619865,0.56265052,-0.39286685,0.658782,0.54706039,-0.39189332,0.639035,0.53715378,-0.40226244,0.629962,0.53923799,-0.41948015,0.63494
0.52009283,-0.4332289,0.644608,0.50154105,-0.38151843,0.630125,0.49232506,-0.41947019,0.637579,0.44755729,-0.39361784,0.61921,0.41494964,-0.37723159,0.61387,0.40002988,-0.36691271,0.619386,0.45484618,-0.32897394,0.610895,0.45076871,-0.29271572,0.614038,0.44882771,-0.2743735,0.615609,0.44720071,-0.25755441,0.617037,0.48215754,-0.32839549,0.61478,0.46998649,-0.31325542,0.593075,0.46226964,-0.33171347,0.580413,0.46798365,-0.34636524,0.588905,0.50627919,-0.33187447,0.61914,0.49557586,-0.31981032,0.597938,0.48691997,-0.33489493,0.587091,0.49157345,-0.35199684,0.595905,0.53803534,-0.3435064,0.626485,0.52121278,-0.33765011,0.607387,0.51055188,-0.34783228,0.598613,0.51326775,-0.36135885,0.604517
0.51582158,-0.42728954,0.641505,0.49691201,-0.37294113,0.628919,0.48842914,-0.41384408,0.634821,0.44226911,-0.38397876,0.616455,0.40861948,-0.36711315,0.609693,0.39503528,-0.3554376,0.612015,0.45162675,-0.32155506,0.611492,0.44747701,-0.28553498,0.614866,0.44554505,-0.26726525,0.616552,0.44397894,-0.25043465,0.618086,0.47901402,-0.32101095,0.615582,0.46924084,-0.30511936,0.595612,0.46260449,-0.32429436,0.583963,0.46854977,-0.33995441,0.593141,0.50305378,-0.3244326,0.619958,0.49458966,-0.3115948,0.600275,0.48687857,-0.32712276,0.590205,0.4918154,-0.34521881,0.599706,0.53445256,-0.33582218,0.627039,0.51960552,-0.32938975,0.609211,0.50972821,-0.33983647,0.60102,0.51273337,-0.35405617,0.60745
0.49937961,-0.41577422,0.648621,0.48539616,-0.36216667,0.631562,0.47362429,-0.39948266,0.642245,0.43053711,-0.37400494,0.628688,0.39538601,-0.35383603,0.618226,0.38042435,-0.33900937,0.61764,0.44436107,-0.30557809,0.611269,0.44303018,-0.26961473,0.615488,0.44275797,-0.25182515,0.618152,0.44235969,-0.23515237,0.620573,0.47062025,-0.30735457,0.613488,0.45326613,-0.29091209,0.589627,0.44323201,-0.30848357,0.575708,0.44905038,-0.32489583,0.583365,0.49353538,-0.31291245,0.616683,0.47779873,-0.30472266,0.593994,0.46761804,-0.31955406,0.582385,0.47251712,-0.33597898,0.590484,0.52324026,-0.32729324,0.623032,0.50141527,-0.32191977,0.602623,0.49033955,-0.33205961,0.593245,0.49396778,-0.34524799,0.598583
0.4987121,-0.40996324,0.647754,0.48558907,-0.35199937,0.631813,0.4732563,-0.39395996,0.641746,0.43086445,-0.36407924,0.629166,0.39626091,-0.34451209,0.619594,0.38076003,-0.32925956,0.618185,0.44546458,-0.2962798,0.612787,0.44334402,-0.25975436,0.615924,0.44299864,-0.24189737,0.618488,0.44253505,-0.22510305,0.620819,0.47172107,-0.29797582,0.614923,0.4552563,-0.29074276,0.592113,0.44564722,-0.30908709,0.578808,0.45177334,-0.32454919,0.586931,0.49455737,-0.3034131,0.61796,0.47935378,-0.29932592,0.596231,0.46942566,-0.31480667,0.585114,0.47490283,-0.3339506,0.593695,0.52401543,-0.3175416,0.623955,0.50283725,-0.31236246,0.604332,0.49205131,-0.32282961,0.595316,0.49597639,-0.33632564,0.601017
0.4919274,-0.40207686,0.642167,0.47855995,-0.34177964,0.627628,0.46780134,-0.38221146,0.638725,0.42265639,-0.35551832,0.6279,0.38514114,-0.33581236,0.614786,0.36731112,-0.31970394,0.610584,0.44541174,-0.2865229,0.6128,0.43528461,-0.24945088,0.612562,0.43077408,-0.23110405,0.613394,0.42675978,-0.21442351,0.614295,0.46958498,-0.28876341,0.612224,0.45407028,-0.28655218,0.590776,0.44478733,-0.3056768,0.578264,0.45129617,-0.32047757,0.586989,0.49017578,-0.29456459,0.612916,0.47594039,-0.29543353,0.592552,0.46661009,-0.31106179,0.582134,0.47246683,-0.32810543,0.591375,0.5166669,-0.31118964,0.615918,0.49490435,-0.3084157,0.598095,0.49613226,-0.32877062,0.611721,0.50208419,-0.34382474,0.623277
0.48990036,-0.39925873,0.641143,0.47762189,-0.34115066,0.626432,0.46694629,-0.38082426,0.639038,0.42360467,-0.35430684,0.628179,0.38878876,-0.3311952,0.616215,0.36950107,-0.31646525,0.61066,0.44558994,-0.28670101,0.613134,0.43535078,-0.24949753,0.612724,0.43062509,-0.23101914,0.613263,0.42640235,-0.21422366,0.613874,0.46847545,-0.28812794,0.610844,0.45239723,-0.28512474,0.589014,0.44285631,-0.30409341,0.57628,0.44947449,-0.32050426,0.584781,0.4879266,-0.29324412,0.610141,0.47260997,-0.28305734,0.589058,0.46320453,-0.29704277,0.578271,0.46883359,-0.32155515,0.587166,0.51277652,-0.3082255,0.611513,0.49365624,-0.29966191,0.594152,0.49695849,-0.3210764,0.607686,0.49991935,-0.33963663,0.619044
0.48706348,-0.39402952,0.640722,0.47636014,-0.34018865,0.625773,0.46544228,-0.37932406,0.638601,0.42251125,-0.35270572,0.627415,0.38788923,-0.3299551,0.616539,0.37204743,-0.31301638,0.61305,0.44431289,-0.28560456,0.612284,0.43463274,-0.24871044,0.612482,0.43005816,-0.23029403,0.613162,0.42596199,-0.21354854,0.613886,0.46712896,-0.2870533,0.609934,0.45040398,-0.28229589,0.587878,0.44054574,-0.30122025,0.575011,0.44745143,-0.31716477,0.583412,0.48653312,-0.2921938,0.609201,0.47047415,-0.28324874,0.58789,0.46084198,-0.29746461,0.576987,0.46686511,-0.32001834,0.585772,0.51095313,-0.30571846,0.610573,0.49169791,-0.297885,0.593069,0.49490102,-0.31923489,0.606553,0.49867627,-0.33764867,0.617942
0.48295358,-0.39112368,0.636463,0.47304035,-0.33859157,0.622696,0.4628338,-0.37766545,0.6363,0.42189062,-0.35236312,0.627103,0.38601898,-0.33103522,0.614745,0.3695527,-0.31421877,0.610989,0.44096074,-0.28539155,0.61249,0.43048435,-0.24780506,0.611603,0.42575749,-0.22928491,0.612066,0.42398251,-0.21335219,0.613258,0.4622973,-0.2855357,0.608109,0.43957342,-0.25385946,0.586944,0.43052964,-0.26989271,0.574597,0.43877745,-0.29005568,0.58317,0.48039705,-0.28955032,0.605608,0.45786429,-0.28760284,0.584527,0.44366681,-0.30145132,0.573742,0.44682813,-0.31918108,0.582522,0.5031465,-0.30161501,0.604706,0.48121195,-0.29475277,0.588767,0.48793903,-0.31623649,0.602289,0.49379923,-0.33351887,0.613141
0.48389248,-0.39398703,0.637005,0.47207844,-0.33871029,0.622191,0.4621889,-0.37776081,0.63627,0.42133439,-0.35237979,0.626686,0.38570199,-0.33113264,0.614514,0.36885113,-0.31387476,0.610112,0.43731377,-0.2863359,0.610518,0.4258261,-0.24807639,0.60858,0.42091703,-0.22950107,0.608936,0.42171802,-0.21294148,0.611397,0.4603641,-0.28550386,0.606496,0.43774457,-0.26015146,0.584392,0.42870737,-0.27777114,0.571498,0.43648939,-0.29223693,0.57972,0.47879259,-0.28957407,0.604376,0.45634124,-0.28761312,0.58253,0.44185162,-0.30117678,0.571353,0.44476955,-0.31863771,0.5798,0.50215266,-0.30180656,0.60408,0.4800878,-0.2949853,0.587283,0.48414264,-0.31683379,0.600645,0.4916269,-0.33362804,0.611738
0.48152146,-0.39113961,0.636363,0.47069665,-0.33841053,0.621348,0.46134254,-0.3776294,0.636183,0.42104298,-0.35246873,0.62698,0.38539471,-0.33109669,0.614649,0.36846081,-0.3136373,0.610032,0.43657963,-0.2862081,0.610215,0.42522695,-0.24788978,0.60824,0.42026697,-0.22922355,0.60842,0.42024877,-0.21258144,0.610349,0.45759583,-0.28580106,0.605439,0.43551229,-0.25967554,0.583086,0.42610975,-0.27723525,0.570046,0.43437213,-0.29274066,0.578056,0.47560232,-0.28942037,0.602715,0.45435904,-0.28504663,0.580417,0.43954945,-0.29867424,0.569008,0.44207295,-0.31645617,0.577166,0.49854009,-0.30113325,0.601733,0.47737368,-0.29438649,0.585087,0.48118941,-0.31607939,0.598313,0.48587946,-0.3339411,0.609299
0.48079445,-0.39099472,0.636181,0.47005622,-0.33844532,0.621203,0.46068168,-0.37750961,0.636082,0.42075037,-0.35246145,0.627064,0.38511965,-0.33102335,0.614657,0.36816512,-0.31345328,0.609947,0.43630825,-0.2862068,0.610197,0.42497775,-0.2478258,0.608142,0.42000353,-0.22911836,0.608251,0.41940787,-0.21242965,0.609903,0.45724557,-0.2858082,0.605333,0.43503501,-0.25967503,0.583006,0.42555991,-0.27726065,0.569982,0.43389173,-0.29337806,0.577991,0.47517752,-0.28943154,0.602533,0.45405211,-0.28419422,0.580234,0.43916294,-0.29794284,0.568825,0.44158467,-0.31598105,0.576972,0.49800799,-0.3011438,0.601456,0.47673695,-0.29452949,0.58487,0.48047287,-0.31619962,0.59809,0.48504893,-0.33412529,0.609054
0.48022698,-0.39088054,0.636037,0.46957785,-0.33847295,0.621097,0.46015287,-0.3774043,0.635983,0.42051026,-0.35243859,0.627096,0.3848889,-0.33094733,0.614624,0.36792864,-0.31330279,0.609859,0.43613597,-0.28619985,0.610173,0.42481967,-0.24778245,0.608071,0.41983054,-0.2290471,0.608128,0.41878084,-0.21231777,0.609574,0.45703283,-0.28581088,0.605266,0.43479947,-0.25967653,0.58297,0.42529637,-0.27728061,0.569965,0.43362473,-0.29377436,0.57798,0.474926,-0.28944026,0.602428,0.45388423,-0.28369278,0.580145,0.43895301,-0.2975185,0.568744,0.4413214,-0.31571705,0.576895,0.49769725,-0.3011552,0.6013,0.47636822,-0.29462343,0.584756,0.4800605,-0.31628328,0.597978,0.48456638,-0.33424682,0.608927
0.47557145,-0.3870689,0.632674,0.46289564,-0.32957116,0.619714,0.45625831,-0.37375204,0.633281,0.41171898,-0.34068013,0.62449,0.37770661,-0.31862407,0.613809,0.36141193,-0.30008383,0.608395,0.43664209,-0.27664865,0.611049,0.42459137,-0.2376996,0.607592,0.41873415,-0.21848769,0.60654,0.41320739,-0.20095438,0.605584,0.45720583,-0.27784941,0.605983,0.43793499,-0.2537563,0.585515,0.42826549,-0.27064012,0.573575,0.43644474,-0.29526325,0.582336,0.4744509,-0.28267987,0.602854,0.45449044,-0.27631678,0.582218,0.44141849,-0.29155531,0.57166,0.44396034,-0.31499891,0.580574,0.49711707,-0.29766524,0.601083,0.47614815,-0.29476486,0.585972,0.48086536,-0.31673914,0.599551,0.48518156,-0.33487906,0.610134
0.48150263,-0.39116802,0.640688,0.46646677,-0.33065558,0.618454,0.46105517,-0.37678259,0.639962,0.41753101,-0.34300868,0.628724,0.38289877,-0.3204455,0.61697,0.37261457,-0.30861256,0.614628,0.43569516,-0.27164575,0.601398,0.4313467,-0.23823894,0.607712,0.4291679,-0.22151449,0.61087,0.42608125,-0.20919968,0.61374,0.45459753,-0.27187813,0.594895,0.42605284,-0.25183993,0.565941,0.40992981,-0.26729331,0.549052,0.4151063,-0.28102504,0.553475,0.47106308,-0.27618202,0.591329,0.44095338,-0.26623614,0.562412,0.44665521,-0.29328924,0.57735,0.46080578,-0.30696958,0.594994,0.49277245,-0.29184925,0.590431,0.46565271,-0.28273046,0.569714,0.47029737,-0.30357113,0.580811,0.47625429,-0.32249212,0.592405
0.47688788,-0.38610812,0.63378,0.47637963,-0.32633875,0.615258,0.45795549,-0.37277217,0.634777,0.4298617,-0.3418669,0.626597,0.3975644,-0.32138587,0.618438,0.38644724,-0.30709397,0.619145,0.44729255,-0.27238472,0.603034,0.44281032,-0.23881678,0.609186,0.44056585,-0.22201928,0.612262,0.43852324,-0.20674099,0.615058,0.46550585,-0.27221541,0.595633,0.44183297,-0.25352173,0.569941,0.42563884,-0.2709092,0.554955,0.43018929,-0.28332778,0.560877,0.48113528,-0.2760419,0.591029,0.45427236,-0.26908453,0.564871,0.46303405,-0.29607768,0.580779,0.47361506,-0.3083636,0.597696,0.50125773,-0.28804882,0.588343,0.47680104,-0.28059504,0.570428,0.48186336,-0.30156055,0.58235,0.48438447,-0.32214779,0.593278
0.51014736,-0.3825492,0.636118,0.49861761,-0.328309,0.616425,0.49172033,-0.368319,0.637147,0.45302823,-0.34449967,0.628918,0.41967528,-0.3234942,0.619916,0.40696253,-0.30813865,0.618587,0.46839316,-0.27386526,0.60339,0.4636717,-0.24015018,0.609221,0.4613116,-0.22329363,0.612137,0.4591654,-0.20796956,0.614787,0.48613505,-0.27349226,0.59556,0.46217804,-0.25436395,0.568813,0.44494345,-0.27136483,0.55321,0.4486468,-0.28339971,0.558474,0.50147571,-0.27719228,0.590697,0.4752149,-0.26737185,0.563435,0.48071468,-0.29420916,0.578785,0.49358145,-0.3088034,0.595925,0.52147478,-0.28912675,0.587878,0.49699637,-0.28141764,0.569388,0.50221833,-0.30216932,0.580888,0.5091672,-0.32117043,0.591855
0.54332351,-0.38049966,0.643822,0.53852526,-0.33147496,0.633262,0.52483075,-0.36647951,0.644801,0.48601091,-0.34301624,0.6354,0.45340106,-0.3236573,0.628949,0.43883078,-0.30832098,0.627171,0.51289666,-0.28079478,0.6268,0.49923802,-0.27658099,0.609751,0.49241637,-0.27456845,0.601226,0.50464967,-0.29546709,0.610637,0.53324282,-0.28159352,0.622073,0.51720794,-0.26123522,0.603887,0.50494469,-0.2762514,0.593278,0.51146056,-0.29787859,0.60299,0.55036945,-0.28594813,0.61903,0.53549871,-0.27170958,0.602014,0.54465555,-0.29841384,0.620767,0.55165616,-0.32166337,0.63513,0.57162669,-0.29810544,0.617002,0.55225397,-0.2886709,0.603444,0.56037667,-0.30144873,0.617474,0.56566232,-0.32049717,0.627685
0.54838931,-0.38022307,0.643354,0.54906661,-0.33138493,0.63309,0.529778,-0.3661402,0.644204,0.49626017,-0.34260326,0.634635,0.46357004,-0.32327083,0.628198,0.44954137,-0.30841144,0.627355,0.5232567,-0.28074281,0.626684,0.51021752,-0.27666763,0.609942,0.50372428,-0.27472601,0.601571,0.51639717,-0.29571047,0.61114,0.5438063,-0.28165735,0.622214,0.52843953,-0.26142686,0.60433,0.5163942,-0.27654009,0.593898,0.52307283,-0.29825897,0.60376,0.56111282,-0.28610011,0.619359,0.54688671,-0.27197903,0.602611,0.55661912,-0.2987513,0.621469,0.56359603,-0.32198548,0.635766,0.58259394,-0.29835136,0.617511,0.5636377,-0.28896749,0.604064,0.57232312,-0.301789,0.618171,0.5778405,-0.32084897,0.628374
0.56785519,-0.36551628,0.626195,0.57037143,-0.32406985,0.623111,0.55867209,-0.35857885,0.635678,0.53465854,-0.34114594,0.639367,0.49715736,-0.31546449,0.62391,0.47777649,-0.29490806,0.615701,0.56159951,-0.28775686,0.632618,0.54877159,-0.2536781,0.629998,0.5421838,-0.23609198,0.628689,0.54704207,-0.23889685,0.64066,0.57273443,-0.28242121,0.619844,0.56172409,-0.23865139,0.612673,0.55137112,-0.23858078,0.60849,0.56082398,-0.25895199,0.619455,0.58166224,-0.28109806,0.60958,0.56363435,-0.2696884,0.600379,0.57827115,-0.28936169,0.617217,0.59255004,-0.31402419,0.627659,0.59208444,-0.28530782,0.597862,0.57466401,-0.27767616,0.593323,0.58665777,-0.29029474,0.606204,0.59672685,-0.30410004,0.612796
0.60026977,-0.37085441,0.631813,0.60790242,-0.33047216,0.632326,0.59209726,-0.36255225,0.642117,0.56969191,-0.34346451,0.64751,0.54374048,-0.32290261,0.645199,0.53020869,-0.30485411,0.64408,0.60377965,-0.29225273,0.645464,0.59148258,-0.25864849,0.644119,0.58511891,-0.24120209,0.643447,0.59380716,-0.24440452,0.655964,0.61573983,-0.28911032,0.63287,0.59997154,-0.2801562,0.625217,0.59517461,-0.30371524,0.620753,0.60569161,-0.32774192,0.631757,0.62487672,-0.28958436,0.622466,0.60685599,-0.27968306,0.611524,0.61979249,-0.29958639,0.628496,0.63033145,-0.32556102,0.639694,0.63462545,-0.29588657,0.610041,0.62106297,-0.28866342,0.607468,0.63232982,-0.29998188,0.620664,0.64059965,-0.31456968,0.626686
0.61997936,-0.36303216,0.622915,0.63304058,-0.32584424,0.628602,0.61458512,-0.35598316,0.635011,0.5951923,-0.34220399,0.643955,0.5733857,-0.32692062,0.649116,0.56422861,-0.31245423,0.653737,0.63599628,-0.29052198,0.64772,0.62602956,-0.25893533,0.650696,0.62075455,-0.242397,0.652184,0.62953046,-0.24604872,0.665664,0.6467956,-0.28690951,0.634629,0.63299272,-0.2813453,0.632198,0.63090419,-0.30650643,0.63078,0.64307009,-0.33132474,0.64288,0.65458909,-0.28685982,0.6234,0.638243,-0.28008948,0.617164,0.65064138,-0.29952678,0.633955,0.65999024,-0.32465357,0.643182,0.66188042,-0.29226501,0.609221,0.65145894,-0.28982201,0.611503,0.66194573,-0.30055187,0.624714,0.66798136,-0.31373298,0.629033
0.65449621,-0.36746354,0.629949,0.67045246,-0.33273958,0.639769,0.64808698,-0.35983649,0.641983,0.63117648,-0.34701129,0.651554,0.61142574,-0.33365699,0.65864,0.60324518,-0.32082376,0.665829,0.67418621,-0.29768791,0.661812,0.67221661,-0.26459091,0.665543,0.67108356,-0.24714598,0.667409,0.68664767,-0.24991636,0.68142,0.68734394,-0.29605476,0.650174,0.69102309,-0.28874107,0.651931,0.69109168,-0.3141997,0.652955,0.70457498,-0.33987239,0.666507,0.69663171,-0.29742947,0.639808,0.69707918,-0.29247857,0.637885,0.71662911,-0.30917448,0.65533,0.7235747,-0.33382198,0.663076,0.70497536,-0.30408284,0.626034,0.70640524,-0.28766026,0.630375,0.71996479,-0.28463309,0.644016,0.72542982,-0.29266834,0.647777
0.70701123,-0.38606525,0.656738,0.71347507,-0.34856606,0.660949,0.69393502,-0.37728439,0.663682,0.67412516,-0.36212086,0.664692,0.64892727,-0.34490464,0.663344,0.63454298,-0.32801991,0.662829,0.70262495,-0.31212814,0.67261,0.69869483,-0.29111168,0.670244,0.69667938,-0.27990212,0.669062,0.71020722,-0.29457658,0.682889,0.72025744,-0.31019167,0.66541,0.71835215,-0.27653742,0.66179,0.7126722,-0.29255646,0.659679,0.72554595,-0.316994,0.673414,0.73434059,-0.311467,0.659148,0.73162753,-0.29948552,0.65395,0.75634564,-0.30782211,0.673426,0.77280634,-0.32808111,0.683305,0.75034621,-0.31841271,0.651084,0.74536907,-0.29535683,0.649464,0.74295622,-0.28470164,0.648719,0.75374355,-0.28894153,0.659798
0.71280662,-0.38529774,0.65715,0.72396653,-0.34656409,0.660918,0.69877359,-0.37602391,0.663228,0.68328994,-0.35910358,0.662942,0.65676257,-0.34111211,0.660059,0.64237445,-0.32426873,0.659463,0.71145259,-0.30952192,0.671187,0.70957465,-0.289102,0.670312,0.7086001,-0.27815237,0.669874,0.72327931,-0.29301974,0.684338,0.73006238,-0.30800802,0.664912,0.72993479,-0.27481672,0.662536,0.72527164,-0.29113229,0.661151,0.73886226,-0.31583378,0.67542,0.74505424,-0.30964852,0.659445,0.74622716,-0.29890215,0.657195,0.77164312,-0.30512773,0.677095,0.78720839,-0.32240796,0.685953,0.76230976,-0.31707977,0.652392,0.75685158,-0.29358658,0.650054,0.7542342,-0.28274422,0.648979,0.76537472,-0.28688639,0.660011
0.72921708,-0.38447522,0.65747,0.7451697,-0.3466354,0.661054,0.72553225,-0.37512107,0.663404,0.70510543,-0.35907108,0.662882,0.67940656,-0.34138653,0.66059,0.66507659,-0.32455884,0.660053,0.73188889,-0.30944076,0.671011,0.73115562,-0.28908734,0.670278,0.73079199,-0.27816814,0.669912,0.74652515,-0.29306513,0.684444,0.75068389,-0.30798069,0.664853,0.75117322,-0.27470431,0.662265,0.74684347,-0.29095835,0.660756,0.76069216,-0.31563458,0.674994,0.76588142,-0.30967341,0.659498,0.76851159,-0.29903677,0.657491,0.7953847,-0.3052832,0.67744,0.81171812,-0.32253346,0.68622,0.78347758,-0.31718329,0.652605,0.77849002,-0.29359697,0.650077,0.77606348,-0.28352156,0.648916,0.78797207,-0.28924263,0.659915
0.74397893,-0.38625675,0.662114,0.74812354,-0.3471587,0.664755,0.72197419,-0.37148299,0.660347,0.6918835,-0.34264742,0.650637,0.66294309,-0.31816212,0.640064,0.64892426,-0.30092882,0.638798,0.72431512,-0.29906829,0.664484,0.72557159,-0.2661699,0.658391,0.72638943,-0.24899433,0.655344,0.74522235,-0.2386808,0.668699,0.7524754,-0.30708588,0.667553,0.76632905,-0.27315217,0.662399,0.76485999,-0.29088134,0.659392,0.77350937,-0.3143496,0.673351,0.77553317,-0.31369422,0.669867,0.78370501,-0.30715955,0.663984,0.79812349,-0.33712229,0.684285,0.80157536,-0.36120642,0.694769,0.79888056,-0.32810328,0.672216,0.79415379,-0.31886267,0.665886,0.77787424,-0.32818806,0.662978,0.77835664,-0.34301709,0.673241
0.77635378,-0.40638358,0.679803,0.77746836,-0.36424723,0.679231,0.75556649,-0.39099215,0.678513,0.72458883,-0.36441413,0.668416,0.69465395,-0.34030019,0.657829,0.67905094,-0.32170833,0.654219,0.75305046,-0.31615878,0.677217,0.7534949,-0.28465542,0.669517,0.75393352,-0.26823326,0.665667,0.77329001,-0.25919092,0.678686,0.77859862,-0.32080089,0.678625,0.78958095,-0.29206776,0.670549,0.78473235,-0.31097334,0.665838,0.79320789,-0.33406102,0.679145,0.79963813,-0.32789219,0.67983,0.80599802,-0.3242541,0.671724,0.82169494,-0.35467392,0.692096,0.82689593,-0.37950572,0.703507,0.82468139,-0.34249929,0.681346,0.81655467,-0.33540447,0.673032,0.82301045,-0.35450822,0.688311,0.82263635,-0.36950875,0.697161
0.77319427,-0.4006981,0.672452,0.78474721,-0.36266299,0.677267,0.75576845,-0.38733625,0.674475,0.73691058,-0.35992738,0.669272,0.71216188,-0.33635591,0.663678,0.69951812,-0.31917932,0.663783,0.76770639,-0.32126085,0.68327,0.77282795,-0.29185399,0.681163,0.77560691,-0.27632065,0.680109,0.79609565,-0.2676726,0.694706,0.79134044,-0.32514837,0.682368,0.80520937,-0.29634059,0.679946,0.80585084,-0.31069777,0.678534,0.81374901,-0.33852598,0.693297,0.81040883,-0.33116775,0.681239,0.82133141,-0.32140423,0.679027,0.83826229,-0.35182405,0.699609,0.84182742,-0.37550643,0.708724,0.8323965,-0.34367252,0.679177,0.82842599,-0.33331664,0.675707,0.83872525,-0.35189972,0.691247,0.83901336,-0.36710139,0.698493
0.76305411,-0.39339302,0.670169,0.77455623,-0.34990423,0.676025,0.7528746,-0.38217418,0.672941,0.73957482,-0.35210852,0.668693,0.71290998,-0.32942758,0.665857,0.70700275,-0.31939205,0.671961,0.75901206,-0.30928795,0.683715,0.76878383,-0.2786445,0.682556,0.77399116,-0.26244562,0.681976,0.79646215,-0.25273555,0.69679,0.78190089,-0.31255255,0.68223,0.79594928,-0.29023721,0.680561,0.79960375,-0.31014153,0.679587,0.8148871,-0.3380002,0.694489,0.80023352,-0.31803955,0.680538,0.81821675,-0.28738797,0.679155,0.84078017,-0.30980961,0.699693,0.84922569,-0.32682052,0.708456,0.82113536,-0.32984881,0.677652,0.82202736,-0.32233677,0.675186,0.83829431,-0.34510208,0.690729,0.84111742,-0.36450832,0.697623
0.77592264,-0.39524833,0.673836,0.77999992,-0.35046142,0.677701,0.75878648,-0.38279858,0.676481,0.74942243,-0.35512412,0.671609,0.71663724,-0.33034725,0.66161,0.69906947,-0.31488146,0.662502,0.76099723,-0.30883095,0.683785,0.77266212,-0.27174018,0.680299,0.77996209,-0.25355987,0.680474,0.78779408,-0.23688276,0.681514,0.78315659,-0.31064403,0.681796,0.79637719,-0.28822864,0.678023,0.79911918,-0.30902748,0.675822,0.81049589,-0.33552463,0.690212,0.80280573,-0.31249266,0.679849,0.81662388,-0.28486405,0.675859,0.84050543,-0.30856124,0.696337,0.85658132,-0.32885759,0.706128,0.82375941,-0.32248403,0.676959,0.82187864,-0.32078393,0.673111,0.83755244,-0.34265613,0.688616,0.84335786,-0.35971078,0.695982
0.79348012,-0.39049172,0.675412,0.79054162,-0.34364665,0.666963,0.77418589,-0.37793569,0.676102,0.7571016,-0.35274134,0.666788,0.70567023,-0.32942947,0.648167,0.68840691,-0.31184971,0.648021,0.75937109,-0.29528688,0.66168,0.74443627,-0.25303413,0.650269,0.74578793,-0.23483807,0.65227,0.75022068,-0.21874055,0.654088,0.77737849,-0.29628139,0.658011,0.7846906,-0.2885662,0.641933,0.81125249,-0.32506043,0.665114,0.81621593,-0.34031912,0.678207,0.79287504,-0.30054525,0.655671,0.79902176,-0.29232503,0.639516,0.82439268,-0.32204803,0.658764,0.83224501,-0.34346068,0.672977,0.81294716,-0.31203804,0.654161,0.81206378,-0.30254952,0.641711,0.82982155,-0.32483906,0.656163,0.83660917,-0.33911141,0.666148
0.78904499,-0.39225156,0.673104,0.78717979,-0.34394218,0.665871,0.77440661,-0.37773353,0.674639,0.75001169,-0.35360657,0.666269,0.70353691,-0.32848731,0.645405,0.68286506,-0.31047974,0.643348,0.75878647,-0.29650498,0.662516,0.74414589,-0.25660282,0.652463,0.74771401,-0.23632273,0.653232,0.75306883,-0.22244875,0.653932,0.77599896,-0.29693754,0.658207,0.78483081,-0.28964821,0.643232,0.8114211,-0.32625678,0.666501,0.81586599,-0.34135027,0.679221,0.79064561,-0.30071964,0.655243,0.79782782,-0.29428967,0.639923,0.82280914,-0.32421749,0.659232,0.8299392,-0.34500254,0.673132,0.80934091,-0.31156901,0.652809,0.8100542,-0.30272291,0.641294,0.82804919,-0.32496653,0.655928,0.83431065,-0.33935431,0.665654
0.79025621,-0.39202692,0.673118,0.78623321,-0.34415031,0.665723,0.77235624,-0.37968316,0.674661,0.74767594,-0.35478747,0.666243,0.702899,-0.32832841,0.6448,0.68213564,-0.31045829,0.642125,0.75785626,-0.29663524,0.662262,0.74372812,-0.256084,0.65212,0.74702852,-0.23636753,0.652536,0.75180231,-0.2217554,0.652914,0.77501296,-0.29694474,0.657889,0.78362108,-0.28955371,0.642753,0.8101321,-0.32615318,0.665979,0.81465002,-0.34127401,0.678745,0.78961046,-0.30064225,0.654884,0.79651209,-0.29459951,0.639396,0.81979248,-0.32584695,0.658669,0.82839982,-0.34522246,0.672622,0.80824422,-0.31141833,0.652426,0.80700607,-0.30513927,0.640802,0.82288175,-0.33005837,0.655403,0.83215031,-0.34055918,0.665155
0.78849851,-0.3907619,0.671305,0.78034212,-0.34341308,0.664259,0.77021178,-0.37819025,0.672349,0.74334811,-0.35852952,0.665115,0.69242443,-0.33215086,0.640135,0.66951147,-0.31570936,0.633985,0.75383798,-0.29620423,0.660433,0.74156506,-0.25380863,0.650124,0.74454456,-0.23582347,0.650834,0.74876541,-0.21962629,0.651478,0.77174531,-0.29674472,0.656794,0.78098057,-0.2894773,0.642064,0.80768654,-0.32617985,0.665501,0.81308147,-0.3410518,0.678186,0.78693115,-0.30063767,0.654365,0.79462681,-0.29573254,0.63947,0.81933656,-0.3258953,0.658929,0.82747766,-0.34548075,0.672717,0.80617601,-0.31165565,0.652538,0.80519727,-0.30749395,0.641085,0.82253421,-0.33006189,0.6558,0.83006686,-0.3427626,0.665537
0.78956757,-0.39133118,0.671969,0.78329627,-0.34416664,0.664637,0.77108929,-0.37872437,0.672783,0.74467418,-0.36006607,0.664942,0.69362817,-0.33367063,0.640308,0.67111664,-0.31738803,0.634584,0.75316226,-0.29677954,0.660318,0.74077025,-0.2546081,0.649505,0.74508491,-0.23735909,0.650766,0.75010506,-0.22116476,0.651912,0.77128255,-0.29725792,0.656868,0.78026028,-0.289362,0.641882,0.80704566,-0.32605578,0.665305,0.81243583,-0.34103786,0.678078,0.78668404,-0.30111966,0.654618,0.79423841,-0.29573716,0.639541,0.8185561,-0.32594852,0.658992,0.826388,-0.34507665,0.67285,0.80625445,-0.3121373,0.653047,0.80516717,-0.3076494,0.641337,0.82258745,-0.33011202,0.656027,0.82992779,-0.34343942,0.665844
0.79052345,-0.3922656,0.672715,0.77965708,-0.34529079,0.664941,0.77156218,-0.37946706,0.673092,0.74344953,-0.3595335,0.663055,0.69425707,-0.33287727,0.639434,0.6749385,-0.31382064,0.634949,0.74958494,-0.29988349,0.65976,0.74084434,-0.25779289,0.648093,0.7446989,-0.23865814,0.649751,0.74925606,-0.22136796,0.651257,0.7681084,-0.30013132,0.656705,0.77880218,-0.28943844,0.641337,0.80610492,-0.3261005,0.664751,0.81096928,-0.34183426,0.677659,0.78451929,-0.30284032,0.654815,0.79285155,-0.29668603,0.6395,0.81676414,-0.326982,0.658949,0.82376781,-0.34573589,0.672903,0.80472817,-0.31393946,0.653737,0.80485747,-0.30822381,0.641648,0.82243871,-0.33066838,0.656333,0.82899456,-0.3453768,0.666282
0.78816433,-0.39285169,0.672847,0.77205944,-0.3557084,0.665087,0.76928845,-0.38087358,0.672568,0.73636678,-0.36697782,0.663861,0.68595681,-0.34004863,0.640936,0.66524339,-0.32522309,0.637497,0.74252783,-0.306596,0.659103,0.73388555,-0.26207937,0.646725,0.74216486,-0.24307547,0.649045,0.74899935,-0.22292039,0.651154,0.76094645,-0.30759182,0.656865,0.7742426,-0.29148317,0.641606,0.80475426,-0.32697022,0.665138,0.80907404,-0.34642147,0.678044,0.77670309,-0.31189206,0.655646,0.78950661,-0.30169836,0.640672,0.81280668,-0.33222154,0.660233,0.8175259,-0.34935516,0.674094,0.79552057,-0.32122252,0.655363,0.7990692,-0.31490507,0.642977,0.81771471,-0.33629589,0.657657,0.82345838,-0.35267149,0.667708
0.78206499,-0.40103875,0.670585,0.76160695,-0.36055265,0.661893,0.75966256,-0.39158919,0.670201,0.72180236,-0.36908431,0.65902,0.67897074,-0.34353423,0.642542,0.66475823,-0.32789962,0.640815,0.72871657,-0.31191817,0.6551,0.72019682,-0.26944413,0.641686,0.72516662,-0.25142771,0.643168,0.73324107,-0.23420672,0.644515,0.74782785,-0.3122225,0.652683,0.75564785,-0.29760069,0.636508,0.78319838,-0.33448321,0.659847,0.7885101,-0.35210271,0.673023,0.76428485,-0.31601732,0.651391,0.7712664,-0.30783558,0.635515,0.79447273,-0.33844372,0.654913,0.80011271,-0.3568738,0.669073,0.78556189,-0.32710716,0.651161,0.78444569,-0.31930916,0.638088,0.80283758,-0.34064975,0.6526,0.80966996,-0.35753697,0.662828
0.76921777,-0.40873943,0.671021,0.75021284,-0.36114572,0.661283,0.74772116,-0.39466951,0.668711,0.70926725,-0.36957422,0.656521,0.66464624,-0.34561098,0.640319,0.64924762,-0.3335549,0.641862,0.7154609,-0.31024315,0.651346,0.73167965,-0.27732798,0.660826,0.73983604,-0.26056749,0.665566,0.74727889,-0.24515698,0.669876,0.73657721,-0.3123476,0.650965,0.74398704,-0.29776621,0.634064,0.77043153,-0.33457396,0.657374,0.77555579,-0.35217717,0.670804,0.75476747,-0.3176564,0.651434,0.76202508,-0.30934553,0.635482,0.78453744,-0.33997076,0.65489,0.78973328,-0.35834979,0.669084,0.77821038,-0.33065331,0.65345,0.7759142,-0.32141867,0.638942,0.79383026,-0.34270519,0.653364,0.80086536,-0.35987366,0.664063
0.7584358,-0.41421743,0.672248,0.73804946,-0.37121227,0.663924,0.73617012,-0.39994326,0.668978,0.69704564,-0.38085207,0.655403,0.65128738,-0.35665524,0.636529,0.63431021,-0.34446837,0.637036,0.70109033,-0.32167642,0.653824,0.7145967,-0.28868015,0.66362,0.72137451,-0.27187285,0.668518,0.72755049,-0.25641607,0.672971,0.72312428,-0.3230923,0.655104,0.73469472,-0.31404999,0.639817,0.76288559,-0.3515898,0.663397,0.76781111,-0.37051006,0.676328,0.74216233,-0.32780618,0.656826,0.75405005,-0.32032954,0.642861,0.77791484,-0.35142408,0.662518,0.78192137,-0.36965047,0.67601,0.76675422,-0.34001027,0.660117,0.76719764,-0.33133821,0.64611,0.78632637,-0.35307423,0.660679,0.7933272,-0.37028294,0.671257
0.74610134,-0.41892942,0.671632,0.72631602,-0.37276578,0.663497,0.72325379,-0.40479439,0.667904,0.68024331,-0.37691041,0.652924,0.64263558,-0.35309707,0.639443,0.62422168,-0.33848239,0.637492,0.68867722,-0.32269923,0.652967,0.68612744,-0.28683374,0.639932,0.68501138,-0.26848551,0.633415,0.68409491,-0.25154568,0.62749,0.71155658,-0.3251434,0.654877,0.72297462,-0.31430351,0.639882,0.75297803,-0.35159318,0.663462,0.75821874,-0.37049831,0.676287,0.73132271,-0.33065437,0.657102,0.74336235,-0.32065027,0.643594,0.76847213,-0.35164522,0.663261,0.77309789,-0.37046263,0.676572,0.75683904,-0.34375291,0.660962,0.75716849,-0.33151303,0.646907,0.77691802,-0.35336392,0.661461,0.78465442,-0.37070376,0.672051
0.73257079,-0.41835434,0.669279,0.71454238,-0.37208261,0.662281,0.71006869,-0.40416863,0.665951,0.66827157,-0.37620153,0.651696,0.63135805,-0.35272268,0.638765,0.61379201,-0.33853124,0.637584,0.67853137,-0.32275211,0.653074,0.67563303,-0.28681178,0.639883,0.67433398,-0.26843126,0.633287,0.67324743,-0.2514659,0.627291,0.70135522,-0.32513844,0.654867,0.71356791,-0.31482614,0.640946,0.743354,-0.35226143,0.664723,0.74822746,-0.37101054,0.677222,0.72094834,-0.33055473,0.656904,0.73368872,-0.32103091,0.644358,0.75861906,-0.35213564,0.664186,0.76288814,-0.37079171,0.677173,0.74601644,-0.34344555,0.660371,0.74703001,-0.33165037,0.647175,0.76660155,-0.35358455,0.661874,0.7740059,-0.37079587,0.672218
0.69319739,-0.41486859,0.656511,0.68786596,-0.37268051,0.65575,0.67865364,-0.40534704,0.66111,0.65347276,-0.38590978,0.660444,0.60916994,-0.36512452,0.646,0.59588107,-0.3572792,0.650072,0.66656944,-0.33059162,0.660895,0.66564466,-0.29189904,0.655857,0.67834425,-0.27847775,0.666323,0.68992594,-0.26595335,0.675837,0.68237202,-0.32939551,0.654945,0.6974915,-0.31752551,0.646146,0.72588269,-0.35535206,0.669813,0.7290888,-0.37260457,0.680424,0.69525288,-0.33155263,0.650109,0.71052663,-0.32695097,0.640042,0.747434,-0.34713351,0.659649,0.76526156,-0.37314003,0.671547,0.7107948,-0.33986275,0.644485,0.71843912,-0.32622562,0.638565,0.73616729,-0.34914893,0.653505,0.74085287,-0.36485807,0.661381
0.69609305,-0.42584957,0.66427,0.68361796,-0.39314039,0.66833,0.67349894,-0.42594506,0.669137,0.64277262,-0.4054891,0.667249,0.60883221,-0.38531343,0.659835,0.59336089,-0.3694385,0.658767,0.65741358,-0.35788172,0.67731,0.66162654,-0.32442375,0.673124,0.66500609,-0.30750461,0.672132,0.66837619,-0.29171976,0.671402,0.67624864,-0.35307149,0.672633,0.66929661,-0.31176293,0.668758,0.67074854,-0.29213077,0.666498,0.69417113,-0.30166636,0.680603,0.69192522,-0.35212184,0.668458,0.70743719,-0.34748353,0.663336,0.74086235,-0.35687648,0.683406,0.76495647,-0.37854053,0.693493,0.71118177,-0.35648113,0.662895,0.71893641,-0.35539052,0.660259,0.74087529,-0.36375061,0.675483,0.75337209,-0.36758373,0.682314
0.66982905,-0.43415292,0.666077,0.65796261,-0.39038637,0.662995,0.65451903,-0.42773005,0.671577,0.62231925,-0.40715767,0.669299,0.58183583,-0.38274173,0.654648,0.56449649,-0.36555071,0.651138,0.63102123,-0.35080135,0.66757,0.62611528,-0.30758735,0.656369,0.63025713,-0.28924053,0.657685,0.63405664,-0.27234133,0.658882,0.64571112,-0.34554291,0.65973,0.63130749,-0.29952757,0.648541,0.63188297,-0.27963661,0.642014,0.65341476,-0.28922563,0.653538,0.65806793,-0.34453944,0.653527,0.66607503,-0.33605255,0.640687,0.69775367,-0.34495279,0.659544,0.7183183,-0.36900362,0.672261,0.67378186,-0.34932889,0.646627,0.67496837,-0.34509517,0.638973,0.69481121,-0.3528185,0.653366,0.70791666,-0.35745004,0.661641
0.66445913,-0.43457492,0.664917,0.64767773,-0.39282401,0.662594,0.64917996,-0.42889409,0.670992,0.61501291,-0.41254564,0.669652,0.57107637,-0.38974024,0.653213,0.55276877,-0.3780736,0.652335,0.61970591,-0.35540331,0.668433,0.61607553,-0.31442478,0.657818,0.61492449,-0.29420055,0.65299,0.61390316,-0.27567666,0.6486,0.63475343,-0.34893689,0.660133,0.6194682,-0.30379625,0.649669,0.61676267,-0.28206819,0.643565,0.63027696,-0.27282552,0.655197,0.64749141,-0.3468906,0.65349,0.65393864,-0.33681721,0.64119,0.68421147,-0.34581404,0.659955,0.70813305,-0.36855181,0.672419,0.6637984,-0.35035627,0.645954,0.66453643,-0.3448058,0.63867,0.68379854,-0.35251848,0.653004,0.69641853,-0.35709092,0.661126
0.66335266,-0.43872207,0.665479,0.64629347,-0.40306508,0.662792,0.64451306,-0.43615676,0.671605,0.61423244,-0.42433244,0.670286,0.56940741,-0.39978006,0.651778,0.54927316,-0.38635354,0.648911,0.61732557,-0.36610705,0.668429,0.61264606,-0.32495944,0.657463,0.61051511,-0.30445723,0.65198,0.60859504,-0.28571348,0.646995,0.6321956,-0.3589186,0.659945,0.61578129,-0.31373927,0.649118,0.61246109,-0.29211034,0.642802,0.62542291,-0.28321285,0.654276,0.64486521,-0.35630876,0.653179,0.65072876,-0.34627238,0.640488,0.68070948,-0.35574333,0.659153,0.70496776,-0.37874606,0.671734,0.66124504,-0.35914914,0.645553,0.66116554,-0.35363138,0.637614,0.68058052,-0.36327828,0.651869,0.69383995,-0.37066801,0.66019
0.6501345,-0.43964086,0.65888,0.63217041,-0.40351619,0.65868,0.63479937,-0.44045548,0.667591,0.60166886,-0.42514991,0.670442,0.55981412,-0.40167455,0.65572,0.54424506,-0.39087222,0.656915,0.60853039,-0.36874579,0.669326,0.60337636,-0.32594909,0.660201,0.60271366,-0.30567555,0.657741,0.60211319,-0.28722547,0.655505,0.62138039,-0.36046024,0.658468,0.61047172,-0.31757346,0.653446,0.6040791,-0.29236874,0.650516,0.60452996,-0.27658022,0.653864,0.63198067,-0.35687824,0.64955,0.64035781,-0.34961694,0.638413,0.66933824,-0.35873486,0.656265,0.69179471,-0.38196252,0.667894,0.64520034,-0.35835724,0.638995,0.64711959,-0.35454977,0.632262,0.66601375,-0.36424578,0.645905,0.67874273,-0.37147567,0.653565
0.64429931,-0.44480779,0.659605,0.62242514,-0.4040537,0.658252,0.62513413,-0.44276259,0.667643,0.59369417,-0.42627323,0.669322,0.5508668,-0.40479847,0.65472,0.53579324,-0.39585335,0.656734,0.5956279,-0.36960038,0.667226,0.59011105,-0.32794325,0.65714,0.58736211,-0.30701634,0.652097,0.58574935,-0.28891008,0.647513,0.60914578,-0.36062805,0.656818,0.59561719,-0.31773276,0.650526,0.58769225,-0.29254297,0.646855,0.58828079,-0.27772701,0.647796,0.62052642,-0.35653151,0.648362,0.62742454,-0.34882141,0.636298,0.65582024,-0.35812297,0.65428,0.68040767,-0.38077155,0.666335,0.63508377,-0.35749758,0.63853,0.63500994,-0.35322135,0.630118,0.65397999,-0.36319037,0.643845,0.66752294,-0.37074605,0.652128
0.63702128,-0.44744493,0.660604,0.62102939,-0.40656063,0.660381,0.62223971,-0.44407982,0.668056,0.59099424,-0.42761915,0.669031,0.54530739,-0.40793359,0.653916,0.53260879,-0.39755564,0.656219,0.59029538,-0.37409868,0.669451,0.58587806,-0.33286566,0.660529,0.58368192,-0.3121274,0.656069,0.58626462,-0.29253826,0.652014,0.60436248,-0.36534068,0.660145,0.59145541,-0.32287525,0.654624,0.58388506,-0.29789428,0.651404,0.58827565,-0.28121721,0.652036,0.61619839,-0.3613625,0.652505,0.62357195,-0.34836425,0.641806,0.65167809,-0.35441964,0.660346,0.67701866,-0.37469448,0.672073,0.63127685,-0.36234443,0.643472,0.63621562,-0.3567073,0.634828,0.65592462,-0.36681159,0.64893,0.67006942,-0.37441732,0.65744
0.63625768,-0.44879862,0.661507,0.62031565,-0.40767678,0.660769,0.62135324,-0.44551152,0.668851,0.59076999,-0.42850923,0.669591,0.54775276,-0.4068865,0.654626,0.53264421,-0.39832054,0.656918,0.59033662,-0.37469611,0.669331,0.58559471,-0.33327223,0.659947,0.58323446,-0.31245052,0.655255,0.58437907,-0.29310377,0.650989,0.60437367,-0.36590285,0.659988,0.59111052,-0.32321187,0.653974,0.58333584,-0.29811628,0.650466,0.5865302,-0.28189565,0.651268,0.61621457,-0.36192355,0.652358,0.62318531,-0.34887397,0.641175,0.65128377,-0.35505817,0.659666,0.67677965,-0.37552249,0.671568,0.63136217,-0.36295649,0.643414,0.63249048,-0.35813694,0.63442,0.6545661,-0.36744325,0.6485,0.668947,-0.37514754,0.657126
0.64189176,-0.45377518,0.667965,0.62327027,-0.41030624,0.663941,0.62612623,-0.45005905,0.674438,0.58895398,-0.4392296,0.673441,0.54694733,-0.41920502,0.659399,0.53135017,-0.40999425,0.661631,0.59099073,-0.37518392,0.669036,0.58200499,-0.33281297,0.656757,0.57427875,-0.31431377,0.650618,0.56864791,-0.29527978,0.645036,0.60478748,-0.36618568,0.659677,0.5867269,-0.32193531,0.650476,0.58455811,-0.30098567,0.655538,0.58856154,-0.28703527,0.659153,0.61666418,-0.36220384,0.652299,0.62328739,-0.34817103,0.638123,0.65153119,-0.35508543,0.656308,0.67702651,-0.37701389,0.669297,0.63232316,-0.36353115,0.644146,0.63098531,-0.3578371,0.632545,0.6506475,-0.36789155,0.646502,0.66721542,-0.37533276,0.655997
0.63892171,-0.46108337,0.672185,0.61895762,-0.42226069,0.663141,0.617117,-0.45212688,0.671229,0.57284403,-0.43592305,0.661375,0.53873671,-0.41401606,0.650666,0.52910983,-0.40243639,0.656781,0.58808512,-0.37405938,0.655383,0.56802699,-0.32925024,0.641824,0.56564609,-0.31139053,0.641621,0.5634432,-0.29485376,0.641435,0.60829482,-0.37259275,0.653557,0.6014144,-0.33112393,0.637119,0.63592549,-0.36040109,0.660461,0.64917486,-0.38602862,0.673734,0.6253191,-0.37508323,0.652781,0.61109111,-0.32994195,0.637532,0.64134084,-0.3455548,0.656981,0.66090205,-0.37155852,0.670908,0.64664405,-0.38480901,0.653216,0.65054002,-0.39265342,0.64622,0.66616374,-0.41755789,0.661604,0.67477037,-0.43669353,0.670031
0.63662531,-0.4550401,0.665018,0.62052009,-0.41105771,0.656882,0.61907347,-0.44921505,0.668881,0.58679342,-0.44217291,0.665436,0.54005684,-0.41912578,0.646518,0.5215382,-0.40571393,0.644781,0.59033518,-0.37337743,0.655756,0.57020755,-0.33006435,0.643955,0.56567046,-0.31138999,0.642543,0.56151398,-0.29423673,0.64126,0.60934226,-0.36534608,0.648262,0.59539178,-0.31890095,0.632203,0.58862465,-0.29363146,0.622836,0.60277934,-0.29146977,0.632816,0.62401796,-0.36318094,0.642748,0.61719639,-0.31749499,0.629674,0.61767487,-0.30260025,0.622985,0.63649976,-0.30171771,0.634637,0.64302888,-0.36730657,0.637424,0.63399461,-0.36870724,0.624114,0.64807036,-0.3933447,0.638709,0.65628421,-0.40713124,0.649052
