sluyters/QuantumLeap/backend/src/datasets/dynamic/HandGestureDataset_SHREC2017_csv/Gesture4/finger_1/subject_5_essai_2_skeletons_world.csv
Wrist_x,Wrist_y,Wrist_z,Palm_x,Palm_y,Palm_z,thumb_base_x,thumb_base_y,thumb_base_z,thumb_first_joint_x,thumb_first_joint_y,thumb_first_joint_z,thumb_second_joint_x,thumb_second_joint_y,thumb_second_joint_z,thumb_tip_x,thumb_tip_y,thumb_tip_z,index_base_x,index_base_y,index_base_z,index_first_joint_x,index_first_joint_y,index_first_joint_z,index_second_joint_x,index_second_joint_y,index_second_joint_z,index_tip_x,index_tip_y,index_tip_z,middle_base_x,middle_base_y,middle_base_z,middle_first_joint_x,middle_first_joint_y,middle_first_joint_z,middle_second_joint_x,middle_second_joint_y,middle_second_joint_z,middle_tip_x,middle_tip_y,middle_tip_z,ring_base_x,ring_base_y,ring_base_z,ring_first_joint_x,ring_first_joint_y,ring_first_joint_z,ring_second_joint_x,ring_second_joint_y,ring_second_joint_z,ring_tip_x,ring_tip_y,ring_tip_z,pinky_base_x,pinky_base_y,pinky_base_z,pinky_first_joint_x,pinky_first_joint_y,pinky_first_joint_z,pinky_second_joint_x,pinky_second_joint_y,pinky_second_joint_z,pinky_tip_x,pinky_tip_y,pinky_tip_z,r
0.49316317,-0.3360285,0.53925,0.49000237,-0.29082539,0.530434,0.47071512,-0.31937491,0.533002,0.443498,-0.29937678,0.51806,0.41532699,-0.27229724,0.493445,0.4027098,-0.25199976,0.480293,0.45991744,-0.24759903,0.517702,0.4437586,-0.21061874,0.511548,0.4371552,-0.19048387,0.508471,0.43661335,-0.16857329,0.505674,0.48600746,-0.25255711,0.522598,0.46692336,-0.20650274,0.506508,0.46350397,-0.19891578,0.497122,0.45983129,-0.20984234,0.490417,0.5082769,-0.25818756,0.527219,0.49443115,-0.21321144,0.511301,0.48766758,-0.21071773,0.503156,0.48244388,-0.21929024,0.495753,0.53219901,-0.27494848,0.533858,0.51106884,-0.23492983,0.518687,0.50782189,-0.2291957,0.511716,0.50612926,-0.23561137,0.505566
0.49260469,-0.33600127,0.538619,0.48890039,-0.28946566,0.530617,0.46936444,-0.31907834,0.531596,0.46691446,-0.29875891,0.525027,0.4380407,-0.26496897,0.502587,0.42744792,-0.24599925,0.499341,0.45545653,-0.24988236,0.517403,0.4453728,-0.2124001,0.516923,0.43694171,-0.19337605,0.516684,0.43739117,-0.17745209,0.516466,0.48490743,-0.25117565,0.523504,0.46645996,-0.20575176,0.507864,0.46309563,-0.19978047,0.498742,0.45962667,-0.21103444,0.492225,0.50740522,-0.25674007,0.529061,0.49030768,-0.21137027,0.51333,0.4877998,-0.21098535,0.505282,0.48356499,-0.22088971,0.497965,0.53546774,-0.2701129,0.536713,0.5097605,-0.23217923,0.521814,0.5089456,-0.23018445,0.514969,0.5075927,-0.23681747,0.508929
0.50161739,-0.34278278,0.548443,0.49189537,-0.29688876,0.53499,0.47522641,-0.32395851,0.538334,0.46949216,-0.30244893,0.528069,0.44253839,-0.26815953,0.505325,0.43279849,-0.24857859,0.50164,0.4521279,-0.24988544,0.514855,0.43989006,-0.21339951,0.514791,0.43610902,-0.1990741,0.514759,0.43376254,-0.18443833,0.514729,0.48087184,-0.2547793,0.523032,0.45971786,-0.21055471,0.502252,0.45472328,-0.21383103,0.49013,0.45078422,-0.22344693,0.481471,0.50577071,-0.26209085,0.530662,0.48042352,-0.21870983,0.513801,0.47698337,-0.21426584,0.505175,0.47759585,-0.22386527,0.497332,0.53757496,-0.27725834,0.541486,0.51290504,-0.23629693,0.524218,0.50635088,-0.22899103,0.516284,0.50571197,-0.23136705,0.509284
0.5033923,-0.34397192,0.549894,0.49198123,-0.29653629,0.53567,0.47654461,-0.32526397,0.539511,0.47018269,-0.30294183,0.528527,0.44322525,-0.2687823,0.505238,0.43378962,-0.24893128,0.500902,0.45146627,-0.2501105,0.514756,0.43808518,-0.21327736,0.513525,0.43400402,-0.19871713,0.512909,0.43112124,-0.18419978,0.51235,0.48023431,-0.25466489,0.523026,0.45840627,-0.20927367,0.501543,0.45346437,-0.21334056,0.489011,0.44965096,-0.22278061,0.48006,0.50524485,-0.26170656,0.530785,0.47893445,-0.21644115,0.51236,0.47527284,-0.21354313,0.502934,0.47410129,-0.22384287,0.494364,0.53844895,-0.27334192,0.541861,0.51141505,-0.23576376,0.525677,0.5055616,-0.2275712,0.518241,0.5064798,-0.23007198,0.51168
0.51160855,-0.34994542,0.558117,0.49640821,-0.30180931,0.540472,0.48366088,-0.33404588,0.545798,0.47566894,-0.31257217,0.532992,0.44722418,-0.27996755,0.510271,0.43622502,-0.25443805,0.501359,0.45050742,-0.25850306,0.515216,0.43873536,-0.21958234,0.511435,0.43578055,-0.20357619,0.509544,0.43382356,-0.19014783,0.507825,0.48021408,-0.25980406,0.524787,0.45623529,-0.21524885,0.500236,0.45043859,-0.22197521,0.485914,0.44616556,-0.23072993,0.475685,0.50805091,-0.26598959,0.533847,0.47714947,-0.21888568,0.510774,0.47150684,-0.21940517,0.49897,0.46703282,-0.22724777,0.488238,0.54212777,-0.27961182,0.546911,0.50977612,-0.23766432,0.525657,0.5030923,-0.23510738,0.515891,0.50408464,-0.23714252,0.507275
0.51476424,-0.35265822,0.560882,0.49768678,-0.30448426,0.541967,0.48638886,-0.33814569,0.548184,0.48505614,-0.31625379,0.534913,0.45352029,-0.28298268,0.511104,0.43856859,-0.26110736,0.504013,0.44989685,-0.2594787,0.515515,0.4358253,-0.22057234,0.510821,0.42973213,-0.20831951,0.508474,0.42670864,-0.19641127,0.50634,0.4799679,-0.2611236,0.525153,0.45508502,-0.21705994,0.499484,0.44836801,-0.22804111,0.48451,0.44401424,-0.23369285,0.473815,0.5063835,-0.26773738,0.534352,0.47584441,-0.22144035,0.51198,0.47058444,-0.21918094,0.500534,0.4674707,-0.22688539,0.490129,0.54236545,-0.28227175,0.547746,0.50948542,-0.24005515,0.52626,0.50249077,-0.23593672,0.516389,0.50129979,-0.23866975,0.507678
0.51640481,-0.35541887,0.562866,0.49783721,-0.3084496,0.543599,0.48750987,-0.34022608,0.5499,0.48084995,-0.32030219,0.53703,0.45508494,-0.28589243,0.513133,0.44020248,-0.26358917,0.505467,0.4484326,-0.26239793,0.516616,0.43182747,-0.22297987,0.509462,0.42732428,-0.20913567,0.505886,0.42384709,-0.19760783,0.502634,0.4783681,-0.26570259,0.526472,0.45405753,-0.22087916,0.500501,0.44760406,-0.2293896,0.485352,0.44282406,-0.23793375,0.474531,0.5049373,-0.27177071,0.535876,0.4746513,-0.22464185,0.514229,0.46943166,-0.22147151,0.503154,0.46801765,-0.23264794,0.493086,0.54102488,-0.28479353,0.549558,0.5077106,-0.24388353,0.528413,0.50127139,-0.24294535,0.518698,0.49864501,-0.25053193,0.510126
0.51804389,-0.35786717,0.564318,0.49785294,-0.30950879,0.54429,0.48826989,-0.34173882,0.551087,0.48077058,-0.31873047,0.537498,0.45539952,-0.28663222,0.513673,0.44052462,-0.26447074,0.505758,0.44776831,-0.26278779,0.516544,0.4301709,-0.22156477,0.505829,0.43012335,-0.20948204,0.500471,0.42800735,-0.19946952,0.495601,0.4777633,-0.26615321,0.526486,0.45325799,-0.2217044,0.499855,0.44559774,-0.23183097,0.48432,0.44143196,-0.2389727,0.473224,0.50442215,-0.27229517,0.536011,0.47427912,-0.22513913,0.514403,0.46912066,-0.22204075,0.503348,0.4673681,-0.23310408,0.493298,0.54062568,-0.28554798,0.549935,0.50708982,-0.24428821,0.528324,0.50175025,-0.24085946,0.518394,0.49815961,-0.25003839,0.509633
0.51883894,-0.35982624,0.565172,0.49673441,-0.31057207,0.544894,0.48828838,-0.34267616,0.55171,0.48068431,-0.31933996,0.538025,0.45499564,-0.28698186,0.514091,0.4405843,-0.26491915,0.506002,0.44592742,-0.26370206,0.516722,0.43219322,-0.22256498,0.508421,0.42858513,-0.20908249,0.504271,0.4258784,-0.19794304,0.500498,0.47604115,-0.26722176,0.526869,0.45180001,-0.22320818,0.50003,0.44489225,-0.2324138,0.484374,0.44062841,-0.2397177,0.473192,0.50279681,-0.27349212,0.53658,0.47349891,-0.22655342,0.515586,0.46869698,-0.2237782,0.504845,0.46659464,-0.23410391,0.495081,0.53818921,-0.28764301,0.550758,0.50539586,-0.24535073,0.528598,0.49989179,-0.24200823,0.518417,0.49780147,-0.24721745,0.509433
0.52181988,-0.36268799,0.567979,0.49908748,-0.31019017,0.546151,0.49075519,-0.34456409,0.554242,0.4817508,-0.3203538,0.539541,0.45610814,-0.28838806,0.515875,0.440964,-0.2658521,0.506602,0.44561506,-0.26392729,0.516749,0.42900285,-0.22108517,0.504536,0.42719309,-0.21500951,0.49843,0.42527602,-0.20847848,0.492879,0.47556347,-0.2669066,0.526747,0.45016709,-0.22305026,0.498569,0.44245363,-0.23343466,0.482132,0.43692067,-0.2417383,0.470391,0.503316,-0.27227275,0.536439,0.46831214,-0.22569727,0.514673,0.46297958,-0.2230824,0.503537,0.46287556,-0.23420486,0.493414,0.53995931,-0.28568239,0.550794,0.50314049,-0.24366089,0.52776,0.49720317,-0.24024737,0.517177,0.49558835,-0.24618265,0.507839
0.52382468,-0.36408138,0.569723,0.49902994,-0.31140207,0.54672,0.4925736,-0.34648505,0.556003,0.48274524,-0.32132746,0.540825,0.45647077,-0.29004932,0.516993,0.44182287,-0.26771356,0.507368,0.44538019,-0.26416356,0.516664,0.42901979,-0.22130297,0.504417,0.42727743,-0.21531401,0.498294,0.42541328,-0.2087722,0.492727,0.47495021,-0.26667023,0.526273,0.44871659,-0.22282833,0.497083,0.44055156,-0.23301786,0.480055,0.43465882,-0.24112132,0.467892,0.50234311,-0.27178953,0.535724,0.46696579,-0.22562615,0.514031,0.46166389,-0.22315328,0.502933,0.46168551,-0.23400498,0.492843,0.53880072,-0.28494878,0.549942,0.4996457,-0.24224943,0.525374,0.49578372,-0.24507951,0.514085,0.49213217,-0.24787602,0.504125
0.52528219,-0.3655836,0.571003,0.49927745,-0.31177486,0.547129,0.49355336,-0.34821682,0.556906,0.48396459,-0.32292708,0.541736,0.45953189,-0.29172742,0.518391,0.44327459,-0.26934238,0.508034,0.44459638,-0.26426287,0.51611,0.42895552,-0.22173874,0.503459,0.43112492,-0.2254081,0.497134,0.42883243,-0.23957904,0.491384,0.47428538,-0.26661031,0.525907,0.44715388,-0.2233904,0.495993,0.43893496,-0.23286695,0.478543,0.43285969,-0.24079223,0.466078,0.50103325,-0.27197061,0.535572,0.46506901,-0.22616537,0.514391,0.4600262,-0.2241586,0.503554,0.46182836,-0.23460719,0.493702,0.53711712,-0.28515587,0.550157,0.49866357,-0.2439488,0.524446,0.49370873,-0.24467179,0.512634,0.49026746,-0.24783533,0.50221
0.52923161,-0.36791917,0.574877,0.49963386,-0.31275106,0.54813,0.49681642,-0.35079066,0.560322,0.48588694,-0.3236021,0.54408,0.46046295,-0.29277535,0.520547,0.44469479,-0.26982891,0.509503,0.4417611,-0.26409281,0.514895,0.42649264,-0.2215354,0.501282,0.42313998,-0.22072204,0.494475,0.42391679,-0.23550625,0.488286,0.47063586,-0.26541594,0.524354,0.43910701,-0.22767189,0.49206,0.43058499,-0.23902119,0.473221,0.42414431,-0.24743243,0.459765,0.49689487,-0.26943713,0.533933,0.45887942,-0.22477116,0.511714,0.4534046,-0.22283139,0.500347,0.45445582,-0.23281327,0.490012,0.53255727,-0.28077708,0.548783,0.4928009,-0.24191609,0.521451,0.48740334,-0.24270891,0.508893,0.4853837,-0.24608566,0.497812
0.52902774,-0.36803522,0.574696,0.49906079,-0.31244169,0.54787,0.49662957,-0.35143166,0.560261,0.48577497,-0.32359803,0.544043,0.46055307,-0.29297148,0.520607,0.44502499,-0.27026107,0.509767,0.44100553,-0.26407501,0.514737,0.42600987,-0.22151908,0.50109,0.42296113,-0.22062875,0.494266,0.42298015,-0.23453801,0.488063,0.46963785,-0.26509862,0.524024,0.43874738,-0.22748542,0.491657,0.43018008,-0.23879642,0.472776,0.42370611,-0.2471768,0.45929,0.49568575,-0.26889199,0.533466,0.45812301,-0.22452062,0.511829,0.45288804,-0.22276473,0.500758,0.45424683,-0.23302879,0.490695,0.53131305,-0.27991291,0.548164,0.49146908,-0.24134946,0.520828,0.48612641,-0.24225709,0.508268,0.48434963,-0.24607698,0.497185
0.52825273,-0.36722818,0.573948,0.49786815,-0.31216247,0.547317,0.49562001,-0.35091805,0.559319,0.48525609,-0.322709,0.542103,0.46343648,-0.29283732,0.517247,0.44573744,-0.27086422,0.50602,0.4400891,-0.26382236,0.514059,0.42406154,-0.22087537,0.499819,0.42173855,-0.2196437,0.492698,0.42029633,-0.23130106,0.486226,0.46935223,-0.26485626,0.523644,0.43883837,-0.22741334,0.49145,0.43061144,-0.2387648,0.47267,0.4247932,-0.24529568,0.459256,0.49520069,-0.26849629,0.533319,0.45568329,-0.22349567,0.511094,0.45028111,-0.22173789,0.499723,0.45261407,-0.23228612,0.489386,0.53031452,-0.27843113,0.548269,0.49049198,-0.2401372,0.521667,0.48336836,-0.23572331,0.509445,0.48316392,-0.241273,0.49866
0.53019937,-0.36805633,0.575994,0.49835545,-0.31260551,0.548316,0.49722547,-0.35194783,0.56112,0.4860874,-0.32363978,0.54338,0.46127333,-0.29261651,0.519015,0.44448651,-0.2700066,0.507517,0.44105549,-0.26361878,0.514155,0.42397164,-0.22116061,0.498466,0.42195753,-0.21963376,0.490622,0.41977903,-0.2311823,0.48349,0.46937328,-0.2647578,0.523713,0.43930093,-0.22757829,0.490679,0.43247906,-0.23956753,0.471409,0.4241365,-0.24707727,0.457644,0.49611756,-0.26893092,0.533437,0.4568792,-0.22364328,0.510803,0.45291448,-0.22173975,0.499223,0.45276253,-0.23179281,0.488695,0.53236778,-0.27957856,0.548579,0.49101449,-0.23964145,0.521818,0.48462308,-0.23562578,0.509523,0.48407353,-0.24177439,0.498674
0.53003397,-0.36686121,0.575146,0.49786111,-0.31189525,0.547765,0.49708693,-0.35120898,0.560398,0.48580396,-0.32313824,0.542724,0.4612434,-0.29250647,0.51841,0.44469355,-0.27011906,0.507153,0.44039112,-0.2636349,0.513928,0.4237781,-0.2210058,0.497875,0.42170009,-0.21927182,0.489848,0.41952152,-0.23055498,0.482551,0.46908339,-0.26450838,0.523425,0.43994295,-0.22786606,0.490623,0.43320524,-0.24007331,0.471489,0.42505599,-0.24763732,0.457821,0.49574036,-0.26854403,0.533078,0.45714859,-0.22359133,0.510993,0.45330588,-0.22184715,0.499693,0.45339643,-0.23203964,0.489421,0.53193373,-0.27906402,0.548098,0.49099857,-0.23918413,0.521559,0.4848659,-0.23550822,0.509365,0.48388726,-0.24154321,0.498606
0.52931358,-0.36513127,0.5736,0.49781781,-0.3114522,0.54762,0.49654983,-0.35009097,0.55908,0.4849897,-0.32264496,0.541821,0.45863269,-0.29201778,0.517437,0.44272582,-0.27007599,0.505941,0.44083637,-0.26443119,0.514869,0.42224303,-0.22033933,0.495762,0.41891074,-0.21725827,0.486209,0.41961949,-0.21901249,0.477524,0.47009172,-0.26507792,0.524525,0.44221285,-0.22470268,0.492863,0.43507155,-0.23268951,0.474393,0.42839356,-0.24084,0.461201,0.4967785,-0.26899398,0.534214,0.4575728,-0.22384263,0.51142,0.45340519,-0.22196505,0.499758,0.45322373,-0.23198518,0.489156,0.53289965,-0.27932841,0.549099,0.49245083,-0.23816935,0.523098,0.4870618,-0.23582933,0.511152,0.4848819,-0.24165009,0.500611
0.52953874,-0.36391006,0.57272,0.49768244,-0.31084281,0.547089,0.49673097,-0.34936102,0.558229,0.48430394,-0.32211476,0.540753,0.45659603,-0.29211938,0.516226,0.43956072,-0.27050776,0.504925,0.44040997,-0.2646521,0.514575,0.42507232,-0.22154568,0.499323,0.42155543,-0.21247626,0.491697,0.42151653,-0.21442672,0.484765,0.46964054,-0.26491436,0.524305,0.4413173,-0.22316913,0.492932,0.43453787,-0.23147452,0.474631,0.42913145,-0.23944292,0.461559,0.49632833,-0.26847341,0.534032,0.45691917,-0.22361853,0.510837,0.45215387,-0.22160423,0.49897,0.45177963,-0.23154959,0.488182,0.53191905,-0.27808221,0.548916,0.49194287,-0.23776606,0.522934,0.48584572,-0.23509131,0.510996,0.48405702,-0.24068919,0.500463
0.52957415,-0.36338729,0.572436,0.49737183,-0.31052599,0.546767,0.49675001,-0.34910233,0.557928,0.4839973,-0.32188492,0.540135,0.45608782,-0.29218371,0.515431,0.4384415,-0.27083992,0.503968,0.4398743,-0.26472068,0.514211,0.42449216,-0.2215534,0.498819,0.42106509,-0.21236198,0.491124,0.42096265,-0.21414495,0.484128,0.46902777,-0.26475076,0.52395,0.44036589,-0.22246521,0.492547,0.43365297,-0.23067872,0.474229,0.42881006,-0.2384941,0.461145,0.49566616,-0.26810331,0.533687,0.45636034,-0.22341946,0.510327,0.45111469,-0.22141272,0.498376,0.4509156,-0.23126614,0.487511,0.53162077,-0.27778791,0.548588,0.49136574,-0.23843892,0.52246,0.48517891,-0.23462863,0.510456,0.48301505,-0.24002739,0.499863
