sluyters/QuantumLeap/backend/src/datasets/gesture/HandGestureDataset_SHREC2017_csv/Gesture7/finger_1/subject_19_essai_2_skeletons_world.csv
Wrist_x,Wrist_y,Wrist_z,Palm_x,Palm_y,Palm_z,thumb_base_x,thumb_base_y,thumb_base_z,thumb_first_joint_x,thumb_first_joint_y,thumb_first_joint_z,thumb_second_joint_x,thumb_second_joint_y,thumb_second_joint_z,thumb_tip_x,thumb_tip_y,thumb_tip_z,index_base_x,index_base_y,index_base_z,index_first_joint_x,index_first_joint_y,index_first_joint_z,index_second_joint_x,index_second_joint_y,index_second_joint_z,index_tip_x,index_tip_y,index_tip_z,middle_base_x,middle_base_y,middle_base_z,middle_first_joint_x,middle_first_joint_y,middle_first_joint_z,middle_second_joint_x,middle_second_joint_y,middle_second_joint_z,middle_tip_x,middle_tip_y,middle_tip_z,ring_base_x,ring_base_y,ring_base_z,ring_first_joint_x,ring_first_joint_y,ring_first_joint_z,ring_second_joint_x,ring_second_joint_y,ring_second_joint_z,ring_tip_x,ring_tip_y,ring_tip_z,pinky_base_x,pinky_base_y,pinky_base_z,pinky_first_joint_x,pinky_first_joint_y,pinky_first_joint_z,pinky_second_joint_x,pinky_second_joint_y,pinky_second_joint_z,pinky_tip_x,pinky_tip_y,pinky_tip_z,
0.44089999,-0.38941025,0.536179,0.4279778,-0.33528564,0.505599,0.42072143,-0.3692132,0.530939,0.38684308,-0.33273292,0.511493,0.36050114,-0.30112477,0.497172,0.34949553,-0.27733793,0.488465,0.39536902,-0.27666802,0.479529,0.36643247,-0.22954716,0.449323,0.36050156,-0.21359404,0.445437,0.35480996,-0.19918091,0.441905,0.41592583,-0.28619866,0.477545,0.38810963,-0.24719844,0.442111,0.36144512,-0.25242454,0.421442,0.344118,-0.2586876,0.406678,0.43452299,-0.29840754,0.4788,0.40393941,-0.2579331,0.445547,0.38383942,-0.25854257,0.428534,0.36602408,-0.26773746,0.413067,0.45899407,-0.32270238,0.48541,0.4367574,-0.27185647,0.454715,0.42145558,-0.27047175,0.440612,0.40509134,-0.26770421,0.428167
0.44072153,-0.38950654,0.535267,0.42670526,-0.33023436,0.50287,0.4221739,-0.37058516,0.531951,0.39299365,-0.33480765,0.514739,0.36597977,-0.30292144,0.500501,0.35157203,-0.27902535,0.489788,0.39639505,-0.27183641,0.478109,0.36757025,-0.22568473,0.448587,0.36060774,-0.21290118,0.445167,0.35472877,-0.19912422,0.442057,0.41448495,-0.27802108,0.47315,0.38201964,-0.24358877,0.436983,0.34890313,-0.2475757,0.415886,0.33066712,-0.25294974,0.400816,0.43105998,-0.28853709,0.472127,0.39052596,-0.27036829,0.439114,0.36615045,-0.27940227,0.422224,0.36633766,-0.28958487,0.422505,0.45500137,-0.31331746,0.476377,0.42619054,-0.26730962,0.445971,0.40585678,-0.27042595,0.432001,0.38801887,-0.27300395,0.419674
0.44022261,-0.38933516,0.533952,0.42640978,-0.32975567,0.501767,0.42217796,-0.37070508,0.531128,0.3936916,-0.33470203,0.514626,0.36676962,-0.3029091,0.500532,0.35201093,-0.27904474,0.48959,0.39674333,-0.27177943,0.477769,0.36848985,-0.22537243,0.448777,0.36051845,-0.21234453,0.4448,0.3538812,-0.19863758,0.441185,0.41415405,-0.27776428,0.472241,0.3809993,-0.24302631,0.436399,0.34858528,-0.24800359,0.415491,0.33370611,-0.2535766,0.400557,0.43049839,-0.28838199,0.470729,0.38978077,-0.26986136,0.438202,0.36563638,-0.27905008,0.42156,0.36590984,-0.28929114,0.421934,0.45321063,-0.31206005,0.474372,0.4229087,-0.26834235,0.444364,0.40122169,-0.27537903,0.430576,0.38532071,-0.27584877,0.41841
0.44018207,-0.38998411,0.534024,0.425615,-0.33013806,0.500973,0.42361949,-0.37207063,0.532628,0.39727266,-0.3286318,0.517938,0.37597902,-0.29587799,0.507451,0.36580979,-0.27159088,0.497969,0.40034493,-0.27201569,0.478253,0.37721307,-0.22258216,0.450208,0.36292902,-0.21059394,0.44464,0.35309159,-0.19769571,0.439578,0.41401572,-0.27735187,0.470653,0.37401197,-0.2472771,0.434833,0.34112079,-0.25366728,0.413938,0.3284102,-0.25366927,0.399014,0.42845238,-0.28857386,0.467518,0.38611984,-0.2695284,0.435669,0.35837012,-0.28065465,0.419375,0.36155203,-0.2881158,0.418638,0.44575962,-0.31488104,0.469407,0.41415264,-0.27335019,0.439999,0.39240021,-0.27732426,0.426488,0.37690412,-0.2789542,0.414565
0.43943153,-0.39021079,0.533715,0.42444459,-0.32916582,0.499385,0.42376407,-0.37211471,0.532649,0.39654411,-0.32750782,0.51834,0.37534127,-0.29473891,0.508035,0.36636776,-0.27021283,0.498623,0.40405121,-0.26976987,0.476276,0.37699067,-0.22188013,0.448093,0.36276738,-0.20919887,0.442837,0.35225008,-0.19708318,0.438058,0.41356676,-0.27710705,0.467891,0.36637353,-0.25231413,0.431482,0.33225965,-0.25825058,0.410244,0.33049854,-0.26493953,0.407261,0.42625747,-0.29057722,0.464229,0.3774104,-0.26931972,0.430407,0.3509658,-0.27664686,0.413102,0.34964748,-0.2851509,0.410439,0.44139136,-0.3149876,0.465718,0.40981858,-0.27297469,0.436131,0.38696058,-0.27605712,0.422538,0.3671904,-0.27910173,0.410543
0.43795022,-0.38985564,0.533106,0.42409702,-0.32933248,0.498813,0.42324773,-0.37142489,0.532306,0.39616695,-0.32702169,0.5183,0.37550222,-0.29465183,0.508737,0.36728699,-0.27029484,0.499839,0.40478688,-0.26955563,0.476067,0.37758033,-0.22203618,0.448175,0.36297177,-0.20897243,0.44222,0.35153869,-0.19657524,0.436806,0.41380035,-0.27716274,0.467352,0.36605851,-0.25209719,0.431111,0.33203774,-0.2580781,0.40997,0.32955564,-0.26555284,0.406866,0.42572818,-0.29061213,0.463417,0.37558101,-0.26851475,0.428796,0.34856925,-0.27535818,0.411083,0.34694258,-0.28363326,0.407995,0.4400204,-0.3150834,0.464578,0.40873061,-0.2730861,0.435221,0.38561649,-0.27596733,0.421732,0.36564563,-0.27890516,0.409831
0.42762949,-0.38058681,0.51935,0.42457921,-0.32599416,0.491594,0.41651394,-0.36313399,0.520919,0.39991666,-0.32661809,0.510425,0.3803778,-0.29537123,0.503066,0.36732022,-0.2706393,0.494884,0.41444904,-0.2708597,0.476019,0.3843585,-0.23082619,0.453209,0.37387815,-0.21542927,0.451587,0.36236421,-0.203153,0.450113,0.42372644,-0.27804151,0.466131,0.36792064,-0.26560815,0.435251,0.33604391,-0.27323912,0.417237,0.33712398,-0.28478118,0.418503,0.43232071,-0.28921735,0.460612,0.38065149,-0.2785031,0.433805,0.35461483,-0.28321387,0.42009,0.35749926,-0.29611374,0.422575,0.44401753,-0.31196058,0.458821,0.40512592,-0.27718175,0.433838,0.38402764,-0.28372433,0.422359,0.36645171,-0.28420273,0.412886
0.42865147,-0.38048199,0.51982,0.4239071,-0.32562103,0.491085,0.41812152,-0.36215567,0.52105,0.39821774,-0.32466813,0.509853,0.37975537,-0.29280616,0.502207,0.37253697,-0.2694756,0.495195,0.41464717,-0.26960775,0.474456,0.38191025,-0.23188222,0.450856,0.37055024,-0.21853995,0.446946,0.35957078,-0.2029203,0.443391,0.42341377,-0.27772727,0.464725,0.36540798,-0.26656603,0.433001,0.33314266,-0.27357241,0.414495,0.3340087,-0.28444738,0.415189,0.43152752,-0.28966255,0.459427,0.37710363,-0.27934695,0.43105,0.35015405,-0.28672219,0.416532,0.35210073,-0.299107,0.418164,0.44253941,-0.31327026,0.458059,0.40079156,-0.28161857,0.432379,0.37966042,-0.28860024,0.42058,0.36314063,-0.29126313,0.410497
0.42747626,-0.37933684,0.518052,0.42685063,-0.32548931,0.488002,0.41761729,-0.36013792,0.518881,0.39665051,-0.32298262,0.507709,0.37793136,-0.29087621,0.499647,0.3715364,-0.26771751,0.492814,0.41412933,-0.26754348,0.470029,0.37878574,-0.23118846,0.444562,0.36631074,-0.21599236,0.438134,0.35473482,-0.20177901,0.432291,0.4220088,-0.27696638,0.460435,0.3608419,-0.26724396,0.427603,0.32817581,-0.27344623,0.408451,0.32893835,-0.28145122,0.408301,0.4293292,-0.28996066,0.455375,0.37055526,-0.27989303,0.424509,0.34281521,-0.28605795,0.408716,0.34445642,-0.29683208,0.408997,0.43927154,-0.31477136,0.454507,0.39682253,-0.28076681,0.427958,0.3752712,-0.2873391,0.41576,0.3572211,-0.29279453,0.404997
0.42545979,-0.37802862,0.51498,0.42498708,-0.32507947,0.485132,0.41560801,-0.35934075,0.515945,0.39661383,-0.32172611,0.504814,0.37689836,-0.28889109,0.495682,0.36858893,-0.26563183,0.487458,0.41943009,-0.27176965,0.467461,0.38159324,-0.23259234,0.4431,0.36899158,-0.21700232,0.43679,0.35473418,-0.20233404,0.431054,0.42591987,-0.28152468,0.457751,0.36221819,-0.26697497,0.425146,0.32787323,-0.27192269,0.406126,0.32804688,-0.28080322,0.406078,0.43174033,-0.29478495,0.452576,0.37041609,-0.27947091,0.422492,0.34288238,-0.28586264,0.4071,0.34459055,-0.2974997,0.407661,0.43827985,-0.31739795,0.451539,0.39568645,-0.27972468,0.425179,0.37401279,-0.28605606,0.413068,0.35598372,-0.29150009,0.402381
0.43165775,-0.37734459,0.510185,0.43861744,-0.33007958,0.478953,0.44248623,-0.36599551,0.511895,0.41362098,-0.3300131,0.501513,0.39149111,-0.29841019,0.492845,0.37973127,-0.27391049,0.483333,0.42448605,-0.2717905,0.461356,0.38566299,-0.23649949,0.437234,0.371415,-0.22190092,0.431234,0.35526655,-0.20516045,0.42578,0.42894629,-0.28006765,0.4503,0.36189964,-0.2693032,0.417252,0.32930965,-0.27398345,0.397973,0.33095822,-0.28177501,0.396251,0.43395751,-0.29232206,0.444149,0.37131713,-0.28467956,0.416013,0.34520417,-0.2908487,0.401619,0.34893121,-0.30026442,0.401064,0.44206221,-0.31663044,0.442202,0.38994816,-0.28698557,0.415944,0.36908547,-0.29307919,0.40388,0.35174764,-0.29777367,0.393236
0.45006114,-0.38680806,0.510288,0.44010628,-0.33080103,0.47829,0.4444907,-0.36635921,0.51191,0.4159493,-0.33031185,0.501529,0.39967186,-0.29793948,0.493724,0.39020658,-0.27325438,0.484706,0.42601928,-0.27226004,0.460097,0.38697082,-0.23702462,0.435514,0.37558271,-0.22406914,0.429262,0.35934658,-0.20890907,0.423579,0.43012855,-0.2808914,0.448936,0.36239173,-0.26964825,0.415408,0.32929,-0.27367372,0.39585,0.33019484,-0.28067044,0.393424,0.43486465,-0.29341884,0.442771,0.37161949,-0.28532406,0.414221,0.34507476,-0.2909068,0.399614,0.34796909,-0.29942595,0.398304,0.44268046,-0.31800778,0.440936,0.38900487,-0.29423537,0.41437,0.36933115,-0.29989682,0.402164,0.35306879,-0.30402976,0.391394
0.45360822,-0.38631797,0.509421,0.45320045,-0.33197982,0.478288,0.44786057,-0.36566718,0.510779,0.42784834,-0.32953991,0.49992,0.40837288,-0.29645559,0.491265,0.39865982,-0.27180497,0.482135,0.43954982,-0.27360085,0.460304,0.40078496,-0.23866371,0.43583,0.38581519,-0.22370584,0.428566,0.37198664,-0.20981714,0.421962,0.44415074,-0.28306906,0.449727,0.37585115,-0.27191633,0.416523,0.34187975,-0.27573298,0.397155,0.34321253,-0.28325541,0.39577,0.44921091,-0.29622314,0.44396,0.38534716,-0.28810231,0.415524,0.35799395,-0.29341325,0.400975,0.36136226,-0.3024962,0.400746,0.45722269,-0.32139245,0.442446,0.40137931,-0.29533031,0.415912,0.38126302,-0.30105789,0.403721,0.36461083,-0.30524931,0.392964
0.4683116,-0.38755373,0.509936,0.46415846,-0.33295185,0.478248,0.46252266,-0.36674228,0.511249,0.4391047,-0.33078489,0.500301,0.41933057,-0.2976166,0.491577,0.40928973,-0.27283307,0.482261,0.44974327,-0.27430028,0.459856,0.41081281,-0.23925209,0.435133,0.39613367,-0.22439539,0.428001,0.38257532,-0.21059473,0.421518,0.45436332,-0.28370193,0.449179,0.38540139,-0.27227212,0.415625,0.35066251,-0.2758521,0.396052,0.35122874,-0.28296597,0.394171,0.45952263,-0.29682824,0.443382,0.39516102,-0.28846235,0.41465,0.36719698,-0.29358321,0.39995,0.36973492,-0.30221121,0.399191,0.46780486,-0.32202578,0.441926,0.41156959,-0.29579447,0.415169,0.39094409,-0.30137991,0.402875,0.37384405,-0.30544076,0.392028
0.47338441,-0.38724215,0.509807,0.47545318,-0.33235528,0.478524,0.47284031,-0.36643643,0.510974,0.45190121,-0.32696915,0.499952,0.42928798,-0.29412761,0.489632,0.41794047,-0.2689161,0.479085,0.46183782,-0.27386329,0.460201,0.42279214,-0.24095388,0.435121,0.40894595,-0.22759692,0.428618,0.39610828,-0.21512935,0.422707,0.4669351,-0.28367975,0.449826,0.39823633,-0.27174196,0.416422,0.36203516,-0.27511133,0.396936,0.36173806,-0.28292547,0.395537,0.47236605,-0.29709302,0.44424,0.40692158,-0.28636973,0.41555,0.37412927,-0.28753687,0.400871,0.37134347,-0.29948314,0.40061,0.48073445,-0.32252214,0.442963,0.424854,-0.29626199,0.416213,0.40322988,-0.30177353,0.403923,0.38553626,-0.3058621,0.393079
0.50142964,-0.39358428,0.519182,0.49500265,-0.34105696,0.483638,0.50289026,-0.37103162,0.518853,0.4748789,-0.33320748,0.507105,0.45244268,-0.30072684,0.497121,0.44005367,-0.27583953,0.486215,0.47592223,-0.2815095,0.460704,0.43670956,-0.24532045,0.432177,0.42231679,-0.23004571,0.423152,0.40910312,-0.21590858,0.414949,0.48066962,-0.29395732,0.451031,0.40566271,-0.28267815,0.414519,0.36483963,-0.28055879,0.39322,0.3584099,-0.28355628,0.388284,0.48631848,-0.30935257,0.446425,0.4149994,-0.29930043,0.414607,0.38073557,-0.29691475,0.398327,0.37544607,-0.29822223,0.394157,0.49587602,-0.33666623,0.447011,0.44178155,-0.30257134,0.417846,0.41617638,-0.3060914,0.404446,0.39815128,-0.30990068,0.392634
0.52140722,-0.39349895,0.519511,0.51710309,-0.34118954,0.483826,0.5246969,-0.37089074,0.518656,0.49348717,-0.33488161,0.504961,0.46775409,-0.3032474,0.49308,0.4531667,-0.27854772,0.480898,0.49663894,-0.28115937,0.460131,0.45769652,-0.24511327,0.431812,0.44407771,-0.23009627,0.423245,0.43157471,-0.21617238,0.415456,0.50228199,-0.29399577,0.45109,0.42567853,-0.28242719,0.414151,0.38331147,-0.28011928,0.392604,0.37630089,-0.28330872,0.387945,0.50876257,-0.30976349,0.447018,0.43577805,-0.29929033,0.414593,0.39998969,-0.29667324,0.398003,0.39398899,-0.29816549,0.394082,0.51942112,-0.33760089,0.448252,0.46422127,-0.3030804,0.418549,0.43763857,-0.30643576,0.404901,0.41861622,-0.31009484,0.39288
0.48319179,-0.38383548,0.503398,0.48740282,-0.33285748,0.47153,0.4833568,-0.36351804,0.504638,0.47028953,-0.32533489,0.493566,0.46282468,-0.29447316,0.491005,0.46085575,-0.27235306,0.485571,0.48676928,-0.27671228,0.45293,0.43528082,-0.25364326,0.428062,0.42950387,-0.27340159,0.435911,0.42684174,-0.29297358,0.443046,0.49081993,-0.28640203,0.442294,0.44587881,-0.23700391,0.408593,0.41960301,-0.210549,0.388934,0.40380542,-0.21235023,0.386928,0.49370588,-0.29638486,0.436549,0.43463214,-0.27314958,0.407665,0.40706194,-0.27944226,0.392887,0.41147559,-0.28702856,0.391989,0.50034731,-0.32024237,0.435184,0.43969463,-0.29146313,0.408305,0.41745437,-0.29505831,0.395956,0.42270526,-0.30148078,0.394453
0.49281549,-0.38452098,0.504661,0.5037241,-0.33079565,0.47177,0.49189231,-0.36325721,0.50451,0.48695095,-0.32219109,0.498853,0.48725966,-0.29737272,0.502543,0.49180101,-0.28064499,0.502321,0.49433402,-0.27133508,0.450743,0.46077177,-0.2350902,0.420804,0.46905809,-0.22918225,0.428749,0.47655034,-0.22275707,0.435973,0.50055527,-0.28188677,0.441596,0.45845362,-0.23817155,0.4065,0.43391803,-0.21288222,0.386028,0.41958638,-0.1964186,0.374243,0.50646596,-0.29573328,0.437172,0.44951386,-0.27338849,0.4065,0.41840966,-0.27784864,0.390807,0.41955014,-0.28425402,0.389679,0.51458985,-0.32162128,0.437526,0.45510159,-0.29454567,0.409133,0.43125928,-0.2951652,0.396088,0.4339958,-0.3008475,0.394403
0.54604215,-0.39894374,0.527914,0.54888424,-0.34740109,0.494805,0.53199668,-0.37240895,0.521382,0.5130365,-0.32627249,0.50449,0.49767907,-0.2910275,0.494324,0.49415712,-0.26799505,0.487661,0.52783751,-0.28476145,0.465482,0.498537,-0.24859829,0.432999,0.49499328,-0.23572121,0.426295,0.49196964,-0.22358844,0.420201,0.54543702,-0.30220424,0.464432,0.48750948,-0.29691908,0.426809,0.45392885,-0.29354159,0.404862,0.44045933,-0.30594786,0.404282,0.56066002,-0.32149826,0.466695,0.5021237,-0.31418843,0.431089,0.4663698,-0.31160498,0.412872,0.44814716,-0.31783669,0.412672,0.57957399,-0.35306573,0.47491,0.51958365,-0.33716067,0.442431,0.48552722,-0.3303209,0.427508,0.47958708,-0.33011144,0.426557
0.5507598,-0.39882058,0.527349,0.56028201,-0.34891088,0.495559,0.54205617,-0.37273994,0.521407,0.52218933,-0.32688816,0.502856,0.50822177,-0.29249344,0.493988,0.50419789,-0.26925321,0.486881,0.54040743,-0.28659869,0.467826,0.51177725,-0.24929442,0.436452,0.51038012,-0.23653983,0.431664,0.50933064,-0.22442234,0.427312,0.55772068,-0.30384148,0.466395,0.5004606,-0.29729583,0.429879,0.46667272,-0.29377678,0.408578,0.45406362,-0.30711785,0.408879,0.5726583,-0.32300173,0.46822,0.5154962,-0.31508364,0.433775,0.48040966,-0.31300685,0.416152,0.46366406,-0.32168117,0.416941,0.59110668,-0.35446534,0.475701,0.531879,-0.33757229,0.444157,0.49810648,-0.33163017,0.429664,0.49303893,-0.33285244,0.42947
0.55917964,-0.39633759,0.526148,0.5736335,-0.34804595,0.497696,0.55286606,-0.37094909,0.52156,0.53941658,-0.32496249,0.509213,0.52100044,-0.29028767,0.497292,0.51540702,-0.26645462,0.489026,0.56223376,-0.28876685,0.473807,0.53758533,-0.25310202,0.445241,0.52940167,-0.23874193,0.435111,0.5214507,-0.22630052,0.425902,0.57709361,-0.30699998,0.471594,0.52143404,-0.29847415,0.437867,0.47888939,-0.30074018,0.418194,0.47767567,-0.30495091,0.420491,0.58933407,-0.32658727,0.472459,0.53532734,-0.3184535,0.440904,0.50181906,-0.31743742,0.42476,0.48788802,-0.33035872,0.427789,0.60339106,-0.3577905,0.478256,0.54760803,-0.33971326,0.449137,0.51497933,-0.33589459,0.435758,0.51258291,-0.33981575,0.437301
0.57004678,-0.39586165,0.526796,0.58505636,-0.3483012,0.498061,0.56406182,-0.36862317,0.521999,0.5497771,-0.32471361,0.508823,0.53124276,-0.29006352,0.496908,0.525735,-0.26635382,0.488841,0.57278958,-0.28871688,0.473725,0.54787879,-0.25287577,0.444843,0.54007961,-0.23861134,0.434873,0.53250227,-0.22625164,0.42581,0.58799948,-0.30706834,0.471699,0.5319466,-0.29835145,0.437687,0.48851352,-0.30049064,0.417847,0.4868045,-0.30458322,0.419984,0.60059738,-0.32678497,0.472745,0.54614412,-0.31840727,0.44084,0.51226784,-0.31725582,0.424517,0.49798527,-0.33001971,0.42735,0.61518101,-0.35819822,0.478801,0.5589377,-0.33992958,0.449423,0.52558985,-0.33602254,0.435924,0.52274511,-0.3398344,0.437325
0.57656502,-0.39176022,0.523413,0.59354421,-0.34683194,0.49596,0.57456939,-0.36825314,0.521475,0.56386354,-0.32534978,0.510104,0.54646432,-0.2901345,0.497881,0.54147469,-0.26633104,0.489452,0.58635778,-0.29015947,0.476092,0.56339154,-0.25609656,0.449078,0.55168275,-0.24051839,0.436075,0.54053565,-0.22710174,0.424282,0.59760268,-0.30646618,0.470774,0.54173368,-0.29783475,0.436929,0.49774513,-0.30001456,0.417185,0.49569829,-0.30408572,0.419298,0.6066455,-0.32418863,0.468989,0.54988411,-0.31431776,0.435178,0.51482566,-0.31229502,0.417879,0.49990152,-0.32438616,0.420055,0.61675583,-0.35274895,0.471517,0.56351344,-0.33610916,0.444372,0.56075892,-0.35046245,0.454994,0.57671881,-0.36259033,0.468755
0.55960089,-0.3723578,0.499172,0.58316715,-0.33312165,0.479271,0.56035657,-0.35062065,0.499404,0.55575529,-0.31260661,0.49614,0.54287374,-0.28007527,0.488815,0.53949137,-0.25856332,0.483263,0.58760419,-0.28350659,0.466963,0.56980451,-0.25457158,0.446355,0.56188242,-0.24004685,0.43666,0.55505817,-0.22665172,0.428028,0.59622181,-0.29971551,0.461015,0.54708972,-0.29030003,0.43376,0.5060418,-0.29455711,0.417861,0.50401886,-0.30539881,0.423704,0.6021371,-0.31669637,0.457997,0.55353509,-0.30788768,0.430217,0.52294533,-0.30839123,0.416004,0.5151837,-0.32644726,0.422141,0.60679491,-0.34306297,0.457812,0.56077522,-0.32728617,0.436217,0.56293706,-0.3458078,0.449388,0.58091091,-0.35991771,0.463419
0.59712532,-0.38891517,0.524116,0.61727576,-0.34545701,0.499359,0.59981836,-0.36580853,0.525666,0.59341156,-0.32686685,0.521711,0.58247552,-0.29432929,0.516017,0.58271449,-0.27388662,0.513024,0.62167497,-0.29383713,0.485659,0.59955979,-0.25988063,0.461634,0.58922928,-0.24283007,0.45007,0.58009242,-0.22716011,0.439673,0.62634991,-0.30884004,0.476647,0.57034552,-0.29309561,0.445036,0.52477472,-0.2956177,0.426596,0.52111607,-0.30377398,0.429114,0.62941054,-0.32505727,0.471565,0.57315245,-0.30959947,0.438354,0.53798117,-0.30852504,0.421362,0.52586685,-0.32445211,0.423498,0.6315359,-0.35108634,0.469782,0.57935175,-0.33084084,0.444603,0.5797831,-0.34973717,0.455398,0.59875452,-0.36463592,0.468896
0.64189295,-0.40055736,0.541178,0.63887384,-0.35427534,0.508328,0.63808149,-0.37857465,0.541598,0.61459253,-0.33734091,0.529324,0.59561892,-0.30330146,0.519508,0.58056297,-0.27471923,0.508173,0.6311964,-0.29829554,0.488058,0.59639043,-0.25913752,0.458611,0.58210526,-0.24083003,0.445021,0.56953069,-0.22460493,0.433168,0.6350074,-0.31248887,0.478193,0.57283371,-0.28863649,0.440232,0.52255143,-0.2883433,0.418089,0.51149786,-0.29321448,0.414799,0.63866424,-0.32853838,0.473174,0.57296154,-0.3036969,0.433663,0.53315479,-0.29843651,0.413448,0.51067399,-0.31125162,0.409186,0.64385152,-0.35526119,0.472825,0.58841454,-0.32822413,0.441322,0.58131364,-0.34331364,0.447475,0.59684885,-0.35945803,0.460948
0.66551129,-0.41132288,0.561529,0.65777445,-0.36616889,0.52713,0.65422072,-0.38621963,0.556292,0.63172912,-0.34422078,0.542145,0.61872827,-0.30816797,0.530973,0.6235669,-0.28878381,0.528067,0.63753032,-0.31047971,0.498645,0.61474865,-0.265948,0.466587,0.6060491,-0.24489898,0.452623,0.59920651,-0.22610808,0.440688,0.6508693,-0.32860549,0.495573,0.60812736,-0.30351193,0.456305,0.55821672,-0.30372941,0.433398,0.54326867,-0.30930236,0.431456,0.66268847,-0.34754452,0.496292,0.58828993,-0.34418304,0.457591,0.55268081,-0.33589232,0.43779,0.54143408,-0.33980154,0.435646,0.67788528,-0.37684311,0.502919,0.60610192,-0.36369562,0.47052,0.6033451,-0.3718402,0.477901,0.61045027,-0.38477259,0.49184
0.67993268,-0.40809013,0.573161,0.66501987,-0.36107207,0.532266,0.66572287,-0.38354463,0.565804,0.63750119,-0.33818003,0.546479,0.61511785,-0.30199225,0.529963,0.60585597,-0.27659035,0.516333,0.63821291,-0.30647773,0.496955,0.62283684,-0.26116523,0.466636,0.61210158,-0.2422918,0.451476,0.59817897,-0.22540057,0.437695,0.64979101,-0.32649318,0.49475,0.60952064,-0.29660399,0.451875,0.55686114,-0.29488706,0.426865,0.53216089,-0.29504373,0.418301,0.66280945,-0.34600534,0.496796,0.58460449,-0.34004651,0.45485,0.57638304,-0.34844536,0.456884,0.58925694,-0.36802467,0.474634,0.68093202,-0.37627667,0.506068,0.60209586,-0.35461558,0.470856,0.58764826,-0.3477137,0.471768,0.59012255,-0.35059422,0.484515
0.67606703,-0.41008491,0.570157,0.66182293,-0.3633254,0.52996,0.66260584,-0.38490539,0.563279,0.63606941,-0.33773398,0.544543,0.61517986,-0.30101369,0.528529,0.60968399,-0.27894537,0.517497,0.63620704,-0.30523585,0.495705,0.62197329,-0.25833554,0.466237,0.61028007,-0.24088887,0.451502,0.59799179,-0.22527422,0.438108,0.64803867,-0.32418951,0.493084,0.60660163,-0.29591232,0.450263,0.55369788,-0.29440212,0.425284,0.5289862,-0.29649697,0.4177,0.66064594,-0.34332265,0.494723,0.58285026,-0.33777199,0.452811,0.57582683,-0.34698347,0.456193,0.5889502,-0.36669827,0.474467,0.67787588,-0.37116309,0.503401,0.60216739,-0.35292827,0.468413,0.58895052,-0.34824705,0.470415,0.59180461,-0.35263235,0.483505
0.67544113,-0.40930823,0.570067,0.66175668,-0.36295867,0.530072,0.66271351,-0.384695,0.563821,0.63822,-0.33800254,0.545418,0.62412363,-0.30101331,0.530783,0.6108586,-0.27829526,0.517345,0.63632668,-0.30471405,0.496751,0.62418574,-0.25637625,0.468048,0.61272251,-0.24153319,0.453697,0.60116863,-0.22650642,0.440651,0.64870263,-0.32232859,0.493381,0.60684069,-0.29613852,0.450649,0.55416561,-0.29463007,0.425721,0.52980284,-0.29634552,0.418155,0.66032392,-0.34086763,0.494383,0.59433263,-0.32837278,0.452327,0.58280987,-0.34164025,0.455691,0.59018345,-0.3643373,0.474016,0.67648152,-0.36986685,0.502282,0.60259378,-0.35207123,0.467723,0.58935361,-0.34792262,0.469746,0.59202809,-0.35265593,0.482694
0.67461329,-0.40835539,0.56974,0.66163431,-0.36227948,0.530071,0.6629501,-0.38434066,0.564335,0.64279827,-0.33752706,0.547438,0.62834034,-0.30129525,0.534032,0.62098552,-0.27723983,0.521908,0.63828819,-0.30297842,0.498032,0.62601099,-0.25628854,0.469285,0.61384308,-0.24174927,0.454911,0.60214944,-0.22717446,0.441844,0.64949561,-0.32066048,0.493679,0.60751789,-0.29485325,0.451131,0.55526929,-0.29318647,0.426311,0.53162251,-0.29457211,0.418777,0.65966419,-0.33960286,0.493843,0.60192469,-0.31726343,0.451661,0.58914716,-0.33364757,0.454993,0.59433752,-0.36199143,0.473357,0.67430865,-0.36803714,0.500704,0.60383353,-0.35008563,0.466762,0.5888289,-0.34682053,0.468808,0.59124211,-0.35182306,0.481548
0.67427578,-0.40770172,0.569731,0.66148518,-0.36038162,0.530067,0.66294429,-0.3838482,0.564569,0.64320232,-0.33720594,0.548281,0.62921233,-0.30122279,0.535595,0.62027359,-0.27754255,0.5232,0.63854292,-0.3031345,0.498343,0.63099233,-0.2567292,0.472848,0.62164953,-0.23809401,0.4601,0.61313769,-0.22269617,0.448511,0.64935189,-0.31994319,0.49368,0.60717377,-0.29453218,0.451168,0.5549544,-0.29122631,0.426369,0.53116719,-0.29357646,0.418676,0.65954542,-0.33795407,0.493587,0.60064315,-0.31621738,0.451347,0.58782448,-0.33267872,0.454442,0.59617859,-0.35886468,0.472735,0.6734261,-0.36711641,0.500148,0.60338048,-0.34913217,0.466403,0.58853101,-0.34613428,0.468277,0.59081185,-0.35131534,0.48088
0.67424177,-0.40709275,0.569909,0.66199211,-0.36005414,0.530652,0.66400923,-0.38384931,0.565685,0.64459359,-0.33696406,0.549441,0.62976613,-0.30084597,0.536304,0.62061016,-0.27713379,0.523675,0.64080115,-0.30131648,0.500384,0.63273172,-0.25523869,0.47453,0.62206297,-0.23744315,0.461603,0.61249884,-0.22247768,0.449852,0.65003428,-0.31764181,0.494638,0.60682147,-0.28994303,0.452425,0.5545703,-0.28790863,0.427801,0.53160677,-0.29014853,0.420065,0.65885221,-0.33524362,0.493615,0.60211334,-0.30788435,0.451331,0.58924734,-0.32531414,0.45425,0.59652104,-0.35539073,0.47249,0.67198356,-0.36449212,0.499019,0.60276764,-0.34585661,0.466049,0.58761517,-0.34401654,0.467838,0.59006348,-0.35031672,0.480135
0.67315329,-0.40569483,0.569069,0.66094351,-0.35869564,0.529868,0.66334075,-0.3827045,0.565211,0.644847,-0.3350907,0.549652,0.62944159,-0.29849077,0.536877,0.62211919,-0.27611073,0.524634,0.63946052,-0.29754686,0.500103,0.63143742,-0.25105597,0.474469,0.62069547,-0.23447083,0.461652,0.61216262,-0.22091031,0.45,0.64833399,-0.31359733,0.493905,0.60497718,-0.28628751,0.451808,0.55278194,-0.28443029,0.427251,0.52955655,-0.28727437,0.419273,0.65691419,-0.33102094,0.492505,0.600596,-0.30596701,0.450197,0.5872695,-0.32313977,0.452732,0.5954652,-0.35010959,0.470828,0.66930036,-0.35909511,0.497458,0.60061916,-0.34159363,0.464832,0.58703075,-0.33963707,0.466339,0.58811606,-0.34845656,0.478407
0.67265038,-0.4047831,0.568629,0.66026532,-0.3571651,0.529402,0.66283086,-0.38181006,0.564801,0.64413834,-0.33409415,0.548928,0.62824621,-0.29747762,0.535821,0.61896618,-0.27526656,0.523004,0.63899759,-0.2968306,0.499662,0.63022479,-0.25000731,0.473595,0.61917621,-0.23323049,0.460562,0.60890499,-0.21818835,0.448714,0.64793546,-0.31280889,0.493417,0.6044725,-0.2855406,0.451326,0.55230231,-0.28381447,0.426773,0.52884765,-0.28633828,0.418715,0.6565829,-0.33018464,0.49198,0.59903259,-0.30626822,0.449665,0.58573347,-0.32327847,0.452087,0.5936861,-0.35172649,0.470141,0.66907884,-0.3582253,0.496896,0.60035144,-0.34091585,0.464307,0.58665225,-0.33893927,0.465727,0.58755589,-0.34756514,0.477747
0.67287699,-0.40295942,0.568951,0.66034433,-0.35606438,0.529488,0.66274877,-0.38016901,0.565002,0.64455159,-0.33385413,0.549073,0.62906206,-0.29786591,0.535834,0.62044969,-0.27440787,0.523194,0.63841268,-0.29635516,0.499442,0.62878095,-0.24846642,0.473061,0.61746575,-0.23144323,0.45987,0.60712473,-0.21721793,0.447879,0.64763506,-0.31229777,0.493286,0.60399765,-0.28506902,0.451126,0.55187373,-0.28349094,0.426533,0.52800055,-0.28561742,0.418129,0.6565694,-0.3296812,0.491945,0.59909612,-0.30572653,0.449594,0.58530659,-0.32254618,0.451558,0.59354818,-0.34934808,0.469443,0.66948687,-0.35779555,0.497011,0.60063672,-0.34071426,0.464364,0.58646424,-0.33852775,0.465416,0.58722286,-0.34691809,0.477314
0.67320513,-0.4019942,0.569507,0.66032377,-0.35540651,0.52994,0.66290594,-0.3790977,0.565441,0.6443761,-0.33310048,0.549363,0.62817367,-0.29715379,0.535915,0.61858962,-0.27366517,0.52303,0.63798967,-0.29620078,0.499679,0.62793752,-0.24833469,0.473236,0.61653918,-0.23130741,0.460014,0.60633785,-0.21689044,0.447994,0.64745641,-0.31214925,0.493642,0.60374842,-0.28490365,0.451432,0.55169911,-0.28340577,0.42681,0.52780456,-0.28539377,0.418314,0.65661968,-0.32956137,0.492408,0.59927052,-0.30555899,0.450048,0.58541419,-0.32238403,0.451902,0.59366067,-0.34922211,0.469748,0.66985188,-0.35775266,0.497618,0.60092672,-0.34075828,0.464884,0.58663898,-0.33855646,0.465843,0.58766437,-0.34687886,0.477736
0.67250259,-0.40200111,0.569445,0.65988308,-0.3534477,0.530151,0.66260591,-0.37919397,0.565826,0.64613499,-0.33315735,0.551702,0.6308007,-0.29836035,0.54001,0.6223024,-0.27461832,0.528678,0.63810459,-0.2952799,0.500633,0.62589473,-0.24704128,0.474367,0.61254992,-0.22918327,0.461233,0.60338729,-0.21464191,0.449294,0.64677476,-0.31038119,0.494103,0.60349852,-0.28387838,0.452085,0.54951388,-0.28045393,0.427575,0.52744264,-0.28365668,0.419144,0.65573106,-0.32742042,0.492438,0.5950517,-0.30527361,0.45011,0.58375215,-0.32200039,0.451985,0.59271491,-0.34909167,0.469825,0.66873747,-0.35524907,0.497098,0.60050602,-0.33878676,0.464753,0.58635225,-0.3373671,0.465754,0.58799467,-0.34482717,0.477526
0.67443678,-0.40264384,0.571526,0.66193101,-0.35435205,0.532324,0.66466632,-0.37984327,0.568133,0.64465168,-0.33400675,0.554363,0.62976651,-0.29853099,0.542856,0.62427701,-0.27555139,0.53182,0.63725396,-0.29422647,0.503154,0.62303322,-0.24498284,0.476361,0.61035002,-0.22755666,0.462965,0.59841134,-0.21216164,0.450787,0.64655778,-0.30924287,0.49636,0.60400775,-0.28368607,0.454447,0.55043923,-0.2795874,0.429998,0.52811097,-0.28363352,0.421484,0.65490717,-0.32442973,0.49447,0.59003577,-0.30685667,0.452162,0.5809875,-0.32449954,0.453883,0.59331392,-0.35284642,0.471654,0.66886518,-0.35373296,0.498849,0.60137996,-0.33760543,0.46673,0.58832571,-0.33818127,0.467623,0.58982327,-0.3450914,0.479274
0.67529225,-0.40295405,0.573155,0.65938818,-0.35301761,0.533726,0.66462923,-0.37967111,0.569143,0.63673709,-0.33509621,0.556263,0.62182656,-0.29969934,0.545304,0.61452078,-0.27531775,0.534629,0.63232061,-0.29331374,0.503621,0.62005362,-0.24558912,0.477374,0.61034471,-0.22837126,0.46425,0.59921574,-0.21304438,0.452319,0.64302294,-0.30827374,0.497555,0.60385728,-0.28434405,0.455374,0.55257632,-0.28286784,0.430769,0.52913365,-0.28487204,0.422503,0.65500459,-0.32549023,0.496284,0.58855107,-0.31045799,0.45394,0.57775104,-0.32748636,0.456105,0.59320689,-0.3556411,0.474068,0.66959127,-0.35361776,0.501427,0.60222726,-0.33873713,0.468703,0.59013919,-0.3394715,0.46991,0.59217261,-0.34668966,0.481895
0.67457911,-0.40245395,0.573469,0.66232926,-0.35509199,0.537252,0.66481604,-0.37984339,0.570416,0.64037013,-0.33544007,0.556701,0.62709472,-0.30041046,0.546417,0.62679163,-0.27776862,0.537172,0.63943344,-0.29736405,0.510407,0.62868676,-0.24962816,0.485039,0.61792141,-0.23235524,0.472355,0.60937788,-0.21710091,0.460825,0.65000814,-0.31226208,0.504027,0.5850363,-0.30302629,0.463448,0.53366817,-0.30102231,0.439776,0.52055301,-0.29924777,0.43529,0.66134681,-0.32915709,0.502195,0.59717383,-0.31570995,0.461248,0.5922055,-0.3363348,0.468148,0.6075094,-0.3643948,0.487438,0.67447122,-0.35653924,0.506141,0.60845082,-0.34263714,0.47448,0.60124373,-0.34605341,0.479478,0.60450048,-0.35409172,0.49256
0.67419405,-0.40223957,0.574054,0.66213068,-0.35526516,0.537884,0.6641683,-0.37963385,0.570973,0.63977464,-0.33535629,0.556446,0.6263536,-0.30007311,0.545672,0.62933513,-0.27802878,0.536802,0.63938357,-0.29759231,0.511034,0.62827264,-0.24983981,0.485501,0.61582392,-0.23333452,0.472735,0.60538189,-0.21884705,0.461129,0.65008185,-0.31247001,0.504703,0.58567623,-0.30283304,0.464151,0.53436249,-0.30095901,0.440496,0.52136206,-0.29937635,0.436077,0.66134571,-0.32933944,0.502907,0.59762111,-0.31602583,0.462001,0.59270797,-0.33692505,0.468985,0.60766707,-0.36422677,0.488293,0.67459276,-0.35668684,0.506887,0.60773613,-0.34200374,0.475217,0.59958134,-0.34503279,0.480282,0.60488884,-0.35441905,0.493392
0.67439266,-0.40237926,0.575321,0.6616546,-0.35492568,0.539214,0.66424274,-0.37976818,0.572272,0.6412796,-0.3370673,0.560406,0.62495278,-0.30155518,0.550973,0.61874904,-0.27775483,0.541766,0.63888293,-0.29752978,0.512445,0.62916608,-0.24980775,0.486848,0.61616235,-0.23358976,0.474049,0.60643653,-0.21895764,0.462414,0.64951648,-0.31238551,0.50609,0.58519047,-0.30050343,0.465579,0.53544323,-0.30079577,0.441949,0.52282905,-0.30015975,0.437578,0.65925603,-0.32890449,0.504268,0.5977942,-0.31477307,0.463394,0.59039336,-0.33586803,0.470432,0.60187015,-0.36468563,0.489749,0.67249171,-0.35602705,0.508207,0.60744738,-0.34207461,0.476579,0.59985766,-0.34510092,0.481688,0.60571458,-0.35488337,0.494801
0.6743502,-0.4024415,0.57642,0.66141062,-0.35479586,0.540643,0.66456293,-0.38015164,0.573849,0.64103048,-0.33659968,0.563189,0.62500886,-0.30132585,0.554625,0.62252019,-0.27915225,0.546484,0.64000945,-0.29630097,0.514695,0.62797533,-0.24687394,0.489088,0.61534763,-0.23355972,0.476284,0.60539452,-0.22016452,0.464916,0.65004126,-0.31092125,0.507823,0.58464054,-0.29887874,0.467561,0.53737136,-0.30166469,0.444074,0.52510454,-0.30160227,0.439781,0.65927723,-0.32726306,0.505545,0.59449154,-0.31250939,0.46475,0.58925507,-0.33427833,0.471806,0.60245285,-0.36472227,0.491098,0.67190256,-0.35420276,0.508894,0.60606977,-0.34036625,0.477715,0.59970566,-0.34540434,0.482866,0.60598992,-0.35530089,0.495837
0.67871334,-0.40479601,0.58216,0.66154479,-0.35322224,0.545947,0.66441116,-0.38051926,0.577867,0.63092028,-0.33321,0.56466,0.61783322,-0.29899889,0.555599,0.6217424,-0.27901885,0.549968,0.63213341,-0.29463618,0.51752,0.61961785,-0.24868933,0.491299,0.60665469,-0.2343289,0.478189,0.59386971,-0.22262421,0.46627,0.64466613,-0.31004101,0.512725,0.58964831,-0.29879359,0.472102,0.54160203,-0.3013485,0.448405,0.53026666,-0.3042363,0.444531,0.6613536,-0.32793591,0.512198,0.60876572,-0.31082423,0.471688,0.59851719,-0.32828876,0.479481,0.61353759,-0.34172768,0.498952,0.67138491,-0.35361729,0.517671,0.60229559,-0.34202816,0.485148,0.59620157,-0.34432797,0.490781,0.60146903,-0.3523968,0.504316
0.677713,-0.40442177,0.583556,0.66042773,-0.3533683,0.547088,0.6644022,-0.3806636,0.579279,0.63153207,-0.33435294,0.56524,0.61783138,-0.2999859,0.555352,0.61953037,-0.27852006,0.54876,0.63125629,-0.29546846,0.51852,0.62077811,-0.249362,0.493835,0.60930712,-0.23421934,0.481492,0.60172393,-0.2208267,0.470364,0.64389766,-0.31067705,0.513633,0.58942305,-0.29604458,0.472842,0.54187535,-0.29824042,0.449047,0.52834588,-0.30286265,0.444911,0.65545591,-0.32733326,0.513055,0.61029083,-0.30968455,0.472419,0.59965611,-0.32725835,0.479904,0.61365335,-0.34141488,0.499302,0.67106852,-0.35428449,0.51851,0.60223241,-0.34246287,0.485917,0.59570562,-0.34472891,0.491305,0.60104931,-0.35287009,0.504861
0.67521858,-0.40381563,0.583781,0.65374285,-0.3523286,0.54765,0.66036658,-0.37989812,0.579791,0.62935883,-0.3367186,0.565076,0.61558544,-0.30228987,0.554888,0.61596565,-0.27881711,0.547665,0.63097594,-0.29643816,0.519663,0.62083718,-0.25018416,0.495492,0.60980514,-0.23484256,0.483407,0.59950294,-0.22120954,0.472421,0.64345594,-0.31137208,0.514504,0.59038575,-0.2957065,0.473938,0.54336852,-0.29809323,0.450273,0.52894664,-0.30236064,0.446351,0.65483403,-0.32787402,0.51367,0.61202402,-0.30721406,0.473208,0.60138597,-0.32678047,0.480915,0.61475527,-0.34170715,0.500332,0.67016227,-0.35478885,0.51877,0.60251581,-0.34273784,0.486473,0.59591587,-0.34557135,0.492051,0.60563343,-0.35678376,0.505581
0.67413328,-0.40422171,0.58534,0.65269103,-0.35447877,0.54921,0.66070308,-0.38095704,0.581519,0.62811822,-0.33924,0.566756,0.6169517,-0.30385236,0.55727,0.61510457,-0.28005861,0.549598,0.62994507,-0.29758553,0.521439,0.61719824,-0.25109955,0.497275,0.60230009,-0.23817359,0.485193,0.58979769,-0.22736441,0.474209,0.64243885,-0.31222033,0.516064,0.58778871,-0.29729513,0.475501,0.54093765,-0.29980929,0.451839,0.52915632,-0.30351564,0.447841,0.65384698,-0.32861984,0.515052,0.61304641,-0.30710541,0.474585,0.60313309,-0.3255958,0.482184,0.61453198,-0.34253723,0.50156,0.66924256,-0.35569389,0.519944,0.60338281,-0.34330795,0.487761,0.59562709,-0.34647348,0.493261,0.60139718,-0.35504452,0.50672
0.67177504,-0.40370286,0.585683,0.65241828,-0.35459197,0.549609,0.65995177,-0.38112706,0.582018,0.62823414,-0.33920977,0.567341,0.61767468,-0.30337003,0.557993,0.61482397,-0.28042598,0.550106,0.62983799,-0.29757659,0.522073,0.61648092,-0.25082975,0.497546,0.60157624,-0.23755021,0.485283,0.58869322,-0.22663001,0.474134,0.64218306,-0.31208067,0.516516,0.5842393,-0.29706559,0.475994,0.54004604,-0.29980784,0.452356,0.52859174,-0.30371404,0.448341,0.65346554,-0.32839602,0.515347,0.61239784,-0.30545216,0.474991,0.60286614,-0.32422999,0.482557,0.61299082,-0.34269033,0.501875,0.6687156,-0.35541971,0.520046,0.60234806,-0.34277517,0.487988,0.59528319,-0.34627898,0.493466,0.60090284,-0.35505718,0.506873
0.67215622,-0.40422053,0.58833,0.65091978,-0.35459233,0.551471,0.65356412,-0.37920476,0.584714,0.62653139,-0.33415902,0.569532,0.61273509,-0.29854012,0.557907,0.60770318,-0.27787195,0.548012,0.62844423,-0.29698526,0.5235,0.6111622,-0.24922297,0.495587,0.59366992,-0.23740133,0.48163,0.58123198,-0.22616121,0.470349,0.64024602,-0.31155724,0.517657,0.58180718,-0.2967174,0.476646,0.53148653,-0.29829143,0.452722,0.5218137,-0.30254711,0.447845,0.65015478,-0.32746966,0.516329,0.59917335,-0.30934112,0.475371,0.58742688,-0.32654811,0.481889,0.59523004,-0.34572176,0.50103,0.66484555,-0.3547524,0.520972,0.59444443,-0.34065777,0.488731,0.58669363,-0.34300615,0.493385,0.59577748,-0.35373637,0.506537
0.64450548,-0.3895993,0.571401,0.62880404,-0.34401107,0.537885,0.63157033,-0.3688025,0.568035,0.60360413,-0.32785664,0.554041,0.59108548,-0.29440993,0.544148,0.58955315,-0.27070769,0.535457,0.60652539,-0.29072676,0.512351,0.59548481,-0.24422406,0.485656,0.57998918,-0.23255928,0.472308,0.56979872,-0.22240399,0.462317,0.62166343,-0.30463287,0.507138,0.56786295,-0.29228454,0.468431,0.52246288,-0.29484333,0.445852,0.51436732,-0.29963645,0.44405,0.63214065,-0.3208616,0.506012,0.5877271,-0.30463055,0.46727,0.58096898,-0.32433692,0.477318,0.58940139,-0.3437987,0.496976,0.64580906,-0.34714383,0.51033,0.5829792,-0.33520376,0.479407,0.57802551,-0.33942034,0.486877,0.58288919,-0.34791244,0.500595
0.64079202,-0.39065693,0.570627,0.62733554,-0.34882517,0.539402,0.62792689,-0.36963984,0.567367,0.60188895,-0.33448538,0.553669,0.59033016,-0.30141773,0.545203,0.58741728,-0.27575174,0.537133,0.60910959,-0.29480491,0.515456,0.59913013,-0.24763048,0.490274,0.58450789,-0.23589551,0.477683,0.57322036,-0.22638581,0.468073,0.62218463,-0.30958831,0.510757,0.56682111,-0.30174386,0.473842,0.52332211,-0.30531527,0.452309,0.51850287,-0.30824554,0.452251,0.63354277,-0.32583733,0.509837,0.58118719,-0.31738692,0.472953,0.57619191,-0.33815267,0.484852,0.58812764,-0.35572861,0.5045,0.64787421,-0.35216346,0.514011,0.58661745,-0.34113753,0.484184,0.58317162,-0.34654131,0.49313,0.58893607,-0.35372195,0.506582
0.66168718,-0.40447943,0.590178,0.64286319,-0.35788604,0.552986,0.64808609,-0.38253914,0.586541,0.62008847,-0.34133291,0.570118,0.60426359,-0.3053755,0.557647,0.59753694,-0.28101278,0.546849,0.61948421,-0.30005796,0.524779,0.60820709,-0.25179117,0.498783,0.59299508,-0.23950443,0.485785,0.57898043,-0.22851594,0.473968,0.63152788,-0.31437679,0.518867,0.57079846,-0.30265235,0.477661,0.52432429,-0.30478495,0.453624,0.51437818,-0.30446369,0.448375,0.64268147,-0.33063783,0.517514,0.58453584,-0.31797569,0.476116,0.57251211,-0.33479658,0.482168,0.58714655,-0.35064192,0.501301,0.657998,-0.35778963,0.522183,0.5925548,-0.34473223,0.489851,0.58374718,-0.34702149,0.494146,0.58908191,-0.35438557,0.50719
0.65711737,-0.4048369,0.588069,0.64100425,-0.35808223,0.551973,0.64499719,-0.38466546,0.586083,0.61923193,-0.34706147,0.571356,0.60030919,-0.31326991,0.560004,0.59871898,-0.28626011,0.550875,0.6187139,-0.30171883,0.52657,0.60909908,-0.2536717,0.501939,0.59473437,-0.24124494,0.489623,0.58168743,-0.22982581,0.478427,0.62818533,-0.31341725,0.51886,0.56405073,-0.29713685,0.478485,0.51949085,-0.30047893,0.454933,0.51181297,-0.3067508,0.449892,0.63829695,-0.32851218,0.515921,0.57638932,-0.31035688,0.475244,0.56560461,-0.3285694,0.481307,0.58124892,-0.35039005,0.500154,0.65255582,-0.3547809,0.518553,0.58991059,-0.34077613,0.487764,0.58216449,-0.34529806,0.492144,0.5851262,-0.35428693,0.504679
0.65541636,-0.40536002,0.587238,0.63802886,-0.35915112,0.550695,0.6397543,-0.38656568,0.585443,0.61583531,-0.34929431,0.571567,0.59929715,-0.31424454,0.561228,0.59339344,-0.29033938,0.552492,0.61164248,-0.30028671,0.525254,0.60832063,-0.25524933,0.503442,0.58951586,-0.24426252,0.492536,0.58424551,-0.23327943,0.48382,0.62234304,-0.31203607,0.517172,0.55555104,-0.29888959,0.476601,0.51116629,-0.30186132,0.452934,0.5029257,-0.30407247,0.447182,0.63277465,-0.32673612,0.51397,0.56749297,-0.31167788,0.47336,0.55606194,-0.32918231,0.47851,0.57213528,-0.34741885,0.496965,0.64788612,-0.35311491,0.516367,0.58311469,-0.33877632,0.485672,0.57647376,-0.34410362,0.489328,0.57943618,-0.35542803,0.501548
0.64737982,-0.40764451,0.586297,0.63285273,-0.35999246,0.552025,0.63716664,-0.38861606,0.585651,0.61016725,-0.34555097,0.573859,0.597702,-0.31100751,0.565078,0.59769603,-0.29151751,0.557765,0.61530365,-0.30206585,0.529491,0.60191795,-0.25451479,0.503654,0.5849864,-0.24336892,0.490735,0.56957062,-0.23316179,0.478991,0.62483826,-0.31375811,0.520585,0.55967757,-0.30353156,0.481523,0.51623717,-0.30704625,0.458737,0.5095209,-0.30996438,0.454764,0.63205169,-0.32827033,0.516489,0.57355914,-0.31188378,0.476221,0.56424649,-0.33103359,0.483298,0.57745129,-0.35131349,0.502384,0.6443643,-0.35392629,0.51746,0.5882522,-0.33961398,0.488239,0.57823142,-0.34752151,0.493521,0.58308183,-0.35877971,0.505853
0.646013,-0.41056984,0.587098,0.6319825,-0.36045503,0.552852,0.63653846,-0.38970669,0.586703,0.60913646,-0.34784397,0.574492,0.59089277,-0.31469308,0.564249,0.58376565,-0.29004329,0.554519,0.61338981,-0.30229905,0.530655,0.59881241,-0.2539862,0.504819,0.58213328,-0.24260751,0.491901,0.56927192,-0.2324203,0.480298,0.6224919,-0.31390221,0.521436,0.55614033,-0.30509095,0.482438,0.50932258,-0.30715311,0.459689,0.50550449,-0.31104563,0.455551,0.63105376,-0.32823166,0.51708,0.56885696,-0.31266508,0.47678,0.5559848,-0.32997278,0.483601,0.57338037,-0.35151401,0.502599,0.6405331,-0.35335674,0.517742,0.57938936,-0.33795091,0.488745,0.57014783,-0.34614795,0.49384,0.57679768,-0.3589146,0.506021
0.64360667,-0.41052622,0.586448,0.62743562,-0.35992852,0.5521,0.63085024,-0.39081557,0.585547,0.60427764,-0.34900407,0.573105,0.58841231,-0.31449505,0.563705,0.58327598,-0.29093645,0.555537,0.61070796,-0.30177797,0.529192,0.59949198,-0.25515065,0.506249,0.58394092,-0.24485776,0.494777,0.56976328,-0.23540561,0.484349,0.61885482,-0.31358894,0.52059,0.55650546,-0.30305083,0.481437,0.50936473,-0.30519983,0.458598,0.49978213,-0.30944776,0.454731,0.62763897,-0.32838152,0.516752,0.56720817,-0.3125811,0.476489,0.55563711,-0.33094991,0.483746,0.57229458,-0.35194373,0.502903,0.63977703,-0.35442327,0.518037,0.57736371,-0.33899183,0.488581,0.56916393,-0.3471497,0.493991,0.57563718,-0.35949133,0.506455
0.64145351,-0.41236021,0.586847,0.62839993,-0.36197534,0.5538,0.63125791,-0.39244173,0.587194,0.60664217,-0.35195592,0.576368,0.59159678,-0.31784437,0.567877,0.58606688,-0.29404937,0.559521,0.61181556,-0.30522031,0.533311,0.59908469,-0.25727188,0.508471,0.57951482,-0.24859859,0.496052,0.56248925,-0.24001742,0.484761,0.61992896,-0.31665384,0.523484,0.5573995,-0.30496157,0.485381,0.51389796,-0.30806009,0.463155,0.50464931,-0.31310249,0.459719,0.62746184,-0.33078436,0.518514,0.56441105,-0.31588072,0.47888,0.55570282,-0.33500087,0.486375,0.57419903,-0.35383113,0.505373,0.63663741,-0.35725933,0.518256,0.57615211,-0.3418241,0.490234,0.57025628,-0.34925139,0.495907,0.57384716,-0.36120439,0.507969
0.6386576,-0.41360903,0.587385,0.62729364,-0.36358462,0.555157,0.62585939,-0.39246233,0.587685,0.59898371,-0.35257576,0.5773,0.58391267,-0.31909656,0.569517,0.58778886,-0.29627336,0.563422,0.61252282,-0.30634051,0.535128,0.59582467,-0.25912484,0.510596,0.57474515,-0.24733879,0.49833,0.56370977,-0.24022154,0.487864,0.61990139,-0.31886213,0.525593,0.55702916,-0.30772471,0.488028,0.51428359,-0.31121852,0.466115,0.50749291,-0.31627435,0.46353,0.6273466,-0.33328218,0.520787,0.56289761,-0.31849138,0.481749,0.55842278,-0.33791807,0.490257,0.577852,-0.35674204,0.50942,0.63742335,-0.35866118,0.520581,0.57761135,-0.34330794,0.492782,0.57174684,-0.35242481,0.499254,0.57701077,-0.36410033,0.511547
0.63825301,-0.41449881,0.588004,0.62734409,-0.36448045,0.556014,0.62601399,-0.3937289,0.588581,0.60039304,-0.3550691,0.578362,0.58430164,-0.32163737,0.570385,0.57868696,-0.29818808,0.56277,0.61046697,-0.30832098,0.536487,0.59133778,-0.25936361,0.511573,0.57309085,-0.24765009,0.499116,0.55644804,-0.23692518,0.487791,0.6199281,-0.3194617,0.526666,0.55317106,-0.30997315,0.489307,0.51145261,-0.31394543,0.467514,0.50812578,-0.31777546,0.464959,0.62729479,-0.33360871,0.521602,0.56308307,-0.31909016,0.482674,0.55655928,-0.33957023,0.491153,0.57494245,-0.3578465,0.510258,0.63729582,-0.35869644,0.521056,0.57768813,-0.34376212,0.493565,0.57191519,-0.35305362,0.50003,0.57718099,-0.3648591,0.512212
0.63324445,-0.41239504,0.584038,0.62464704,-0.3636818,0.55405,0.62316108,-0.39311445,0.586323,0.60004956,-0.35819519,0.577821,0.58199738,-0.32459148,0.569089,0.5747525,-0.30054255,0.561024,0.61144773,-0.30943617,0.537976,0.59246877,-0.26050544,0.513513,0.57453994,-0.24824309,0.501282,0.55818611,-0.2370082,0.490163,0.61909499,-0.31944225,0.526539,0.55740767,-0.3092394,0.490885,0.51843734,-0.31168017,0.470087,0.5090293,-0.32078973,0.46812,0.62482199,-0.3324867,0.519956,0.5598293,-0.31944449,0.482165,0.55420149,-0.34048171,0.490879,0.57314024,-0.35862796,0.509619,0.63250482,-0.35599422,0.517294,0.57541489,-0.34243555,0.49197,0.57015661,-0.35213682,0.498727,0.57474742,-0.36372197,0.510259
0.60594898,-0.3981635,0.563251,0.60213812,-0.35361503,0.537834,0.60101375,-0.38005217,0.566513,0.57390707,-0.34631807,0.558195,0.55925515,-0.31552905,0.552267,0.55770384,-0.29406234,0.547261,0.59528633,-0.30199698,0.525905,0.57440618,-0.25632519,0.504492,0.55930776,-0.24170286,0.493785,0.54851214,-0.23169822,0.484324,0.60137298,-0.31168984,0.514517,0.54470833,-0.30079555,0.482481,0.50658577,-0.30592745,0.463794,0.50098008,-0.31767612,0.464908,0.60646048,-0.3239283,0.507542,0.5454014,-0.30892042,0.47321,0.5461646,-0.33457383,0.485033,0.56561666,-0.35412122,0.503546,0.60883476,-0.34514953,0.503654,0.55558805,-0.33210288,0.481061,0.55812232,-0.34612688,0.490344,0.56504059,-0.35819462,0.502149
0.62720559,-0.41314713,0.583778,0.61885153,-0.36401571,0.553465,0.62095938,-0.3936702,0.586132,0.59461158,-0.35815973,0.576704,0.57343496,-0.3246573,0.567817,0.56824167,-0.30074963,0.559644,0.60635684,-0.30866858,0.537274,0.57859526,-0.26348122,0.512575,0.55969327,-0.25055375,0.500226,0.54244788,-0.23872021,0.488999,0.61281551,-0.31823411,0.525657,0.54938114,-0.30473123,0.489796,0.50881675,-0.30849032,0.468877,0.50162795,-0.31875763,0.466543,0.61877824,-0.33082199,0.518956,0.55376287,-0.31405445,0.480915,0.55010002,-0.33712417,0.489182,0.57057515,-0.3569292,0.507845,0.62419567,-0.35366749,0.516211,0.56673763,-0.33857566,0.490838,0.56493132,-0.35084557,0.497245,0.57192436,-0.36304455,0.508649
0.62682358,-0.41376323,0.584092,0.61858726,-0.36438771,0.55383,0.62072305,-0.39438793,0.586623,0.59293876,-0.3582555,0.577495,0.57251499,-0.32577364,0.568876,0.56813891,-0.30153188,0.560806,0.60630084,-0.30905124,0.537897,0.57843028,-0.26410173,0.513093,0.55934982,-0.25125881,0.500691,0.541942,-0.23950535,0.489416,0.61252286,-0.31845203,0.526067,0.54924966,-0.30537511,0.490283,0.50878617,-0.30919134,0.469409,0.50123729,-0.31921561,0.466969,0.61606635,-0.33045275,0.519187,0.55338064,-0.31451141,0.481156,0.54947184,-0.3371999,0.489248,0.57020866,-0.35692254,0.507837,0.62390972,-0.35374877,0.516223,0.56647311,-0.33883282,0.49103,0.56378375,-0.35078362,0.49731,0.57088154,-0.36360642,0.508609
0.62792161,-0.41651944,0.586048,0.61879776,-0.36692395,0.556168,0.62362724,-0.39834994,0.5904,0.60074693,-0.37291533,0.584599,0.58323626,-0.34313138,0.579014,0.57504374,-0.31936677,0.571506,0.60046205,-0.31442453,0.542805,0.57037156,-0.27198149,0.515566,0.56192915,-0.2528667,0.504642,0.54705596,-0.23973363,0.494711,0.60260305,-0.32089611,0.528756,0.53619825,-0.29990425,0.493863,0.49769275,-0.30576911,0.473508,0.49999658,-0.31924328,0.469514,0.60572469,-0.33127758,0.520013,0.53161215,-0.31343435,0.482178,0.52616184,-0.3289263,0.487778,0.53618748,-0.35089518,0.505293,0.61178344,-0.3526074,0.514806,0.54943149,-0.33995349,0.491624,0.54929636,-0.35306052,0.496049,0.56520455,-0.36145805,0.504414
0.62661921,-0.41739269,0.585778,0.61808222,-0.36733721,0.556228,0.62248908,-0.39937945,0.590279,0.60082194,-0.3729619,0.584672,0.58345485,-0.34325998,0.579231,0.57532245,-0.31952156,0.571783,0.60097091,-0.31469099,0.543265,0.5714314,-0.27248687,0.516524,0.56230978,-0.25326235,0.505804,0.54817411,-0.23921233,0.496059,0.60301675,-0.32111641,0.529119,0.53686271,-0.30027589,0.494475,0.49849052,-0.30625923,0.474267,0.49958701,-0.31900434,0.470482,0.60601707,-0.33143748,0.520264,0.5321182,-0.31373271,0.482637,0.5268824,-0.32937676,0.488446,0.53689527,-0.35135837,0.50596,0.61186068,-0.35265192,0.514871,0.54977012,-0.34016301,0.491927,0.54982346,-0.35339931,0.496525,0.56554781,-0.36232075,0.505009
0.60128416,-0.4019813,0.563712,0.58926875,-0.3521822,0.538197,0.59932616,-0.38578254,0.569747,0.57927904,-0.35100467,0.566209,0.565605,-0.32249403,0.563798,0.5618302,-0.29974392,0.558078,0.58856547,-0.3050478,0.529751,0.55587638,-0.26397332,0.505499,0.54221652,-0.24602759,0.495654,0.52987492,-0.22960054,0.486807,0.58668682,-0.31124125,0.514789,0.5212897,-0.28971536,0.483305,0.48397378,-0.29554045,0.464938,0.4852775,-0.30923443,0.463654,0.58735739,-0.3207858,0.504882,0.51686693,-0.2967512,0.47067,0.51282785,-0.31331587,0.478949,0.52480247,-0.33362663,0.495762,0.58551094,-0.33917104,0.497578,0.52806019,-0.32441753,0.477445,0.53008941,-0.34140592,0.484067,0.54815904,-0.35303335,0.491679
0.61940694,-0.41525431,0.582258,0.60504618,-0.36161173,0.552607,0.61609192,-0.39752215,0.587042,0.59443058,-0.36065231,0.582063,0.57890844,-0.33041462,0.577978,0.57336272,-0.30632703,0.57054,0.59980558,-0.31028994,0.539944,0.56594925,-0.26875671,0.514659,0.55098446,-0.25000599,0.503669,0.5373538,-0.23284122,0.493678,0.59878851,-0.31705651,0.525407,0.52944494,-0.29424777,0.490866,0.48998938,-0.29921391,0.470717,0.4874061,-0.31022777,0.466403,0.60018919,-0.32756412,0.51624,0.53567936,-0.30755207,0.487801,0.52822932,-0.32272551,0.493333,0.53672628,-0.34120682,0.507026,0.60071419,-0.34797788,0.510498,0.5396147,-0.33151613,0.487892,0.53866275,-0.34692761,0.491896,0.55167841,-0.35595887,0.495428
0.59740128,-0.40180767,0.562671,0.58718941,-0.35153435,0.536974,0.59583235,-0.38570635,0.568819,0.57295073,-0.35058938,0.565526,0.56023751,-0.32216611,0.563529,0.55455134,-0.29971391,0.55786,0.58515655,-0.30125133,0.528559,0.55300141,-0.26358763,0.5044,0.53863215,-0.24545201,0.493906,0.52553908,-0.22883204,0.484366,0.58393086,-0.30773071,0.513401,0.51924726,-0.28860758,0.481837,0.48189626,-0.29436935,0.463424,0.47962175,-0.30464614,0.461837,0.58335458,-0.31761917,0.503349,0.52250716,-0.30105163,0.476555,0.51849805,-0.3180332,0.484846,0.5277871,-0.33665484,0.498883,0.58344603,-0.33743452,0.495907,0.5264516,-0.32333592,0.475836,0.52827496,-0.34015738,0.482149,0.54114746,-0.35126755,0.48772
0.61476371,-0.41464493,0.580352,0.6020122,-0.36070922,0.550893,0.6118066,-0.39705607,0.585283,0.58731268,-0.36034896,0.580544,0.57250276,-0.33015467,0.576818,0.5652916,-0.30641912,0.569568,0.59247122,-0.30677002,0.538538,0.55840575,-0.26836788,0.51288,0.5438181,-0.25023151,0.502325,0.53396071,-0.23322628,0.493222,0.59512551,-0.31377641,0.523868,0.5271503,-0.2931202,0.489506,0.48784334,-0.29819007,0.469461,0.48266229,-0.30691557,0.465181,0.59593758,-0.3243701,0.514574,0.53216306,-0.30722566,0.485808,0.52280733,-0.32420179,0.491302,0.526693,-0.34435041,0.505112,0.59841175,-0.34570499,0.50865,0.53807321,-0.33044386,0.486258,0.53735575,-0.3459644,0.490261,0.5479768,-0.35572246,0.493792
0.61206842,-0.41414081,0.579529,0.60089682,-0.36076976,0.550496,0.6097171,-0.3968214,0.58481,0.58447495,-0.36216888,0.580661,0.57023886,-0.33210747,0.57757,0.56588805,-0.30771729,0.570994,0.59237419,-0.30747285,0.538858,0.56156976,-0.26815326,0.513805,0.5477213,-0.249749,0.503803,0.53504553,-0.23289226,0.49471,0.59437933,-0.31387767,0.523861,0.52737754,-0.29249605,0.489915,0.48634296,-0.29266852,0.470113,0.48124978,-0.30602433,0.465865,0.5949104,-0.32414781,0.514257,0.53112071,-0.30692864,0.485486,0.5195173,-0.32373816,0.490865,0.52406543,-0.34431872,0.504631,0.59698623,-0.34507849,0.507901,0.53734906,-0.33005651,0.48602,0.53662578,-0.34571147,0.489967,0.54719312,-0.35557585,0.493449
0.61050903,-0.41424343,0.579096,0.60031571,-0.36090745,0.55038,0.60848771,-0.39709096,0.584559,0.58421035,-0.36246701,0.580681,0.57016026,-0.33249963,0.577767,0.56566114,-0.30824368,0.571315,0.59250075,-0.30791462,0.539177,0.56198449,-0.26827212,0.514578,0.54839861,-0.24971512,0.504768,0.53592876,-0.23273925,0.49585,0.59408724,-0.31405341,0.524037,0.52771106,-0.2921799,0.490357,0.48696057,-0.29304018,0.47071,0.48156955,-0.30582717,0.466602,0.59450408,-0.32415114,0.514286,0.53075312,-0.30691952,0.48557,0.51919891,-0.3237366,0.491047,0.52356219,-0.34455426,0.504831,0.59639067,-0.34486567,0.507703,0.53713336,-0.32996232,0.486103,0.53654946,-0.3458074,0.490146,0.54721651,-0.35583321,0.493713
0.60658839,-0.41258702,0.576551,0.59796561,-0.35991758,0.548728,0.60307614,-0.39478096,0.582318,0.58043185,-0.36276862,0.578773,0.56197876,-0.33461217,0.575365,0.5539544,-0.31100424,0.56862,0.5911392,-0.30757782,0.538478,0.55963483,-0.26782641,0.514788,0.54717571,-0.24938717,0.506002,0.53748069,-0.23319824,0.498015,0.59095944,-0.3133314,0.523204,0.52769522,-0.283318,0.49016,0.48732593,-0.28563513,0.470884,0.47956243,-0.29777219,0.467459,0.59156569,-0.3229569,0.513258,0.52986509,-0.30762662,0.486501,0.52084375,-0.32478606,0.492794,0.52754783,-0.34492119,0.506113,0.59423481,-0.34369697,0.506297,0.5355806,-0.32849977,0.485226,0.53392721,-0.34454203,0.489873,0.544164,-0.35604917,0.493973
