sluyters/QuantumLeap/backend/src/datasets/gesture/HandGestureDataset_SHREC2017_csv/Gesture7/finger_1/subject_20_essai_4_skeletons_world.csv
Wrist_x,Wrist_y,Wrist_z,Palm_x,Palm_y,Palm_z,thumb_base_x,thumb_base_y,thumb_base_z,thumb_first_joint_x,thumb_first_joint_y,thumb_first_joint_z,thumb_second_joint_x,thumb_second_joint_y,thumb_second_joint_z,thumb_tip_x,thumb_tip_y,thumb_tip_z,index_base_x,index_base_y,index_base_z,index_first_joint_x,index_first_joint_y,index_first_joint_z,index_second_joint_x,index_second_joint_y,index_second_joint_z,index_tip_x,index_tip_y,index_tip_z,middle_base_x,middle_base_y,middle_base_z,middle_first_joint_x,middle_first_joint_y,middle_first_joint_z,middle_second_joint_x,middle_second_joint_y,middle_second_joint_z,middle_tip_x,middle_tip_y,middle_tip_z,ring_base_x,ring_base_y,ring_base_z,ring_first_joint_x,ring_first_joint_y,ring_first_joint_z,ring_second_joint_x,ring_second_joint_y,ring_second_joint_z,ring_tip_x,ring_tip_y,ring_tip_z,pinky_base_x,pinky_base_y,pinky_base_z,pinky_first_joint_x,pinky_first_joint_y,pinky_first_joint_z,pinky_second_joint_x,pinky_second_joint_y,pinky_second_joint_z,pinky_tip_x,pinky_tip_y,pinky_tip_z,
0.49677494,-0.3514364,0.508182,0.48801282,-0.301391,0.497462,0.48218989,-0.34053539,0.51463,0.45701004,-0.31259465,0.517298,0.43063519,-0.28562905,0.513318,0.41748052,-0.26326392,0.508771,0.46404424,-0.25067927,0.497029,0.44776516,-0.20671804,0.483071,0.44599459,-0.18677323,0.480692,0.43874201,-0.16829432,0.47853,0.47802024,-0.24687271,0.485339,0.45486651,-0.24871054,0.465932,0.4729608,-0.28770556,0.486353,0.48663865,-0.30862739,0.500939,0.4899612,-0.24743894,0.476569,0.4668542,-0.23874216,0.453727,0.47723822,-0.27081467,0.471428,0.48714909,-0.29314118,0.48752,0.50537082,-0.25509377,0.467737,0.48018397,-0.25870937,0.455422,0.49020072,-0.28443017,0.469456,0.50289105,-0.30493937,0.481838
0.49739827,-0.35174774,0.508459,0.48881343,-0.30173372,0.497818,0.48240228,-0.34050261,0.514447,0.45691587,-0.31216643,0.516628,0.43088233,-0.28494604,0.512292,0.41713793,-0.26246584,0.507365,0.46470237,-0.25076676,0.49688,0.45038298,-0.20670873,0.482992,0.44612061,-0.1868616,0.48023,0.43925871,-0.16837689,0.477718,0.47923664,-0.24735019,0.485785,0.45732374,-0.24929712,0.466436,0.47495158,-0.28814995,0.487268,0.48830194,-0.309936,0.502147,0.49311562,-0.24869579,0.477498,0.4686608,-0.23917462,0.4549,0.47941022,-0.27150901,0.472971,0.49253359,-0.29257847,0.489399,0.50901153,-0.25684345,0.469229,0.48336806,-0.26002691,0.456815,0.49261715,-0.28535877,0.471112,0.50558485,-0.30596647,0.483727
0.49461997,-0.3499923,0.505688,0.48805152,-0.30129135,0.496809,0.48125268,-0.33971166,0.513182,0.45828887,-0.31249624,0.517539,0.43488631,-0.2850557,0.513739,0.42351146,-0.26311779,0.511025,0.46859061,-0.25209916,0.499103,0.46034318,-0.20591612,0.485501,0.45314566,-0.18848798,0.4787,0.44287328,-0.17120755,0.472517,0.48199182,-0.24832802,0.486769,0.46031208,-0.25048992,0.469202,0.47833801,-0.28918352,0.489654,0.49091343,-0.31174062,0.504263,0.49317093,-0.24882931,0.477322,0.47094029,-0.23655736,0.456075,0.48177564,-0.26887127,0.473791,0.49361935,-0.29206372,0.489896,0.50716585,-0.25619883,0.46741,0.4833223,-0.25979287,0.456621,0.49257516,-0.28507369,0.47072,0.5055845,-0.30552084,0.48316
0.49391022,-0.34816868,0.503122,0.49857009,-0.30084767,0.495641,0.48379117,-0.33814214,0.510038,0.47751852,-0.31894732,0.520061,0.44911909,-0.29219026,0.514212,0.43596216,-0.27063351,0.511603,0.47060975,-0.25264992,0.498316,0.45913536,-0.21336805,0.483911,0.45197536,-0.19297342,0.476708,0.44800516,-0.17455407,0.473609,0.48404361,-0.24871101,0.487182,0.46364711,-0.25745814,0.470963,0.48564623,-0.29382295,0.492527,0.50366029,-0.30679278,0.50793,0.49618387,-0.24934005,0.478613,0.47456056,-0.23734914,0.459061,0.48684488,-0.27047762,0.477769,0.49966084,-0.29473948,0.494777,0.51343362,-0.25542167,0.469536,0.48826107,-0.26179027,0.459686,0.49704775,-0.28734062,0.474538,0.51069681,-0.3085945,0.487644
0.50217125,-0.35097999,0.507284,0.50471255,-0.30214709,0.498366,0.49981666,-0.34044519,0.514183,0.47756115,-0.3157859,0.516905,0.4515352,-0.28582468,0.508582,0.43955293,-0.26413133,0.501539,0.48611221,-0.25241804,0.499898,0.47545147,-0.20997939,0.48432,0.46961752,-0.18940359,0.476531,0.46300194,-0.17352914,0.469451,0.49984794,-0.24875511,0.488282,0.47592172,-0.25286429,0.470648,0.49646676,-0.28990311,0.491583,0.51328074,-0.30536269,0.506536,0.51152444,-0.24936752,0.479431,0.48664435,-0.23580539,0.458343,0.49981907,-0.26834467,0.476494,0.51455442,-0.2928313,0.492994,0.52639431,-0.25693509,0.470232,0.50151255,-0.26257118,0.459487,0.51130322,-0.28597516,0.473901,0.5247747,-0.30895673,0.486619
0.51875078,-0.34970168,0.507381,0.52291266,-0.30038872,0.497412,0.50790934,-0.33780673,0.513674,0.49136972,-0.31030184,0.513328,0.45964849,-0.28013861,0.501617,0.44600505,-0.25815392,0.492396,0.50354244,-0.24858326,0.497375,0.49507666,-0.20610022,0.480883,0.49034475,-0.18546669,0.472637,0.4845962,-0.16942743,0.465141,0.51725922,-0.24698301,0.486139,0.49165526,-0.24986957,0.467455,0.51046727,-0.28668397,0.488374,0.52664607,-0.30226403,0.503316,0.52877911,-0.24930991,0.477683,0.5036595,-0.23484529,0.45569,0.51571417,-0.26682434,0.473834,0.52921057,-0.29111866,0.490329,0.54318173,-0.2589832,0.469112,0.51662537,-0.26281381,0.457312,0.52587563,-0.28567439,0.471684,0.53818932,-0.30858388,0.484366
0.53521668,-0.35274092,0.508817,0.53331103,-0.30601828,0.497695,0.52154839,-0.3405624,0.514923,0.51062613,-0.3154199,0.517206,0.48498282,-0.28525697,0.512743,0.47795839,-0.26667004,0.514444,0.51048157,-0.25415605,0.496527,0.50117809,-0.20958839,0.478812,0.50301114,-0.18947331,0.476032,0.50482754,-0.17059046,0.473505,0.52422864,-0.2515928,0.485118,0.50012703,-0.25278941,0.465307,0.51873492,-0.28962048,0.485804,0.53415738,-0.303155,0.500444,0.53593184,-0.25318128,0.47661,0.51541045,-0.22969822,0.453463,0.52822929,-0.25981418,0.471235,0.53989099,-0.2860942,0.487682,0.55092948,-0.2620591,0.468151,0.52582649,-0.26474737,0.455531,0.53535396,-0.28750061,0.469601,0.54648012,-0.30997914,0.482017
0.54923322,-0.35432325,0.506758,0.5527636,-0.30552947,0.496652,0.54577954,-0.34260141,0.512987,0.53082696,-0.31384171,0.515518,0.50775569,-0.2840682,0.512603,0.49953083,-0.26410158,0.513078,0.53124946,-0.25403399,0.496429,0.522818,-0.21025684,0.479326,0.5236429,-0.18983178,0.475265,0.52227185,-0.17727424,0.471573,0.54500664,-0.25176616,0.485224,0.5228847,-0.25319079,0.466404,0.54265777,-0.29053923,0.487307,0.55837791,-0.30429152,0.502237,0.55664432,-0.25355546,0.476804,0.53772257,-0.23035722,0.454688,0.55235404,-0.2605088,0.472819,0.56399916,-0.28705928,0.488992,0.57140669,-0.26259677,0.468296,0.54792112,-0.26511548,0.456369,0.55903805,-0.28815482,0.470728,0.57112656,-0.31094054,0.483397
0.56614255,-0.35136633,0.506855,0.56640077,-0.29663678,0.491486,0.54911571,-0.33529988,0.508823,0.54108835,-0.29842717,0.503116,0.51018995,-0.26365342,0.492123,0.49920706,-0.24295564,0.489885,0.54263145,-0.23896929,0.481903,0.53504794,-0.20219189,0.461795,0.53154143,-0.18329544,0.451741,0.52854088,-0.16578102,0.4426,0.55825378,-0.24186953,0.474107,0.53506201,-0.23550291,0.450176,0.55050955,-0.27152081,0.471345,0.56247039,-0.28836581,0.486466,0.57160586,-0.24792672,0.468908,0.55323782,-0.22517634,0.442878,0.56691265,-0.25264069,0.461306,0.57620246,-0.27867667,0.479179,0.58882245,-0.26223975,0.465019,0.56694954,-0.25766682,0.447173,0.58636448,-0.28433263,0.461514,0.60286763,-0.30062752,0.474168
0.58928295,-0.34776631,0.501084,0.58352838,-0.29765391,0.488045,0.57257823,-0.32996634,0.501865,0.55638349,-0.2962023,0.491164,0.52185376,-0.25989117,0.476449,0.51048193,-0.23959181,0.475388,0.55923915,-0.24020929,0.47882,0.55929519,-0.20417621,0.459792,0.55975314,-0.18564851,0.450278,0.56045275,-0.16846858,0.441629,0.57622551,-0.2443945,0.4733,0.5660371,-0.23949611,0.451745,0.58339045,-0.2766672,0.474486,0.59315065,-0.29419684,0.490729,0.59050722,-0.25135618,0.46979,0.58549513,-0.23047645,0.446801,0.60577508,-0.25897958,0.466643,0.61251816,-0.28479101,0.483852,0.60854515,-0.26643281,0.467563,0.59502437,-0.26179482,0.449179,0.61764682,-0.28935511,0.465019,0.63294508,-0.30632313,0.478995
0.59768829,-0.34636021,0.499058,0.60320547,-0.2970367,0.487033,0.59264928,-0.32912411,0.500584,0.57837192,-0.2961432,0.491066,0.54217792,-0.25929987,0.475365,0.53156964,-0.23953032,0.475266,0.58036701,-0.24055996,0.479519,0.58186562,-0.20481121,0.461222,0.58310325,-0.186389,0.452074,0.58454872,-0.16928035,0.443757,0.59651253,-0.24446473,0.473436,0.58851071,-0.24007504,0.452837,0.60673398,-0.27736107,0.475676,0.61653184,-0.29495282,0.49199,0.61001163,-0.25113788,0.469382,0.60685417,-0.23065545,0.447148,0.62866417,-0.25921378,0.467065,0.63528009,-0.28487812,0.484,0.62696756,-0.26574503,0.466356,0.61547119,-0.26163512,0.448905,0.63941499,-0.28940613,0.465101,0.65521559,-0.30657638,0.479391
0.61854704,-0.34595906,0.49848,0.62348268,-0.2967464,0.486557,0.61383338,-0.32893739,0.5003,0.60066341,-0.29623788,0.491223,0.56370249,-0.25930587,0.475376,0.5524452,-0.23938165,0.474971,0.60063589,-0.2405429,0.479485,0.60258814,-0.20477436,0.461139,0.60407767,-0.18634488,0.451967,0.605768,-0.16923114,0.443628,0.61616508,-0.24427884,0.473076,0.60923769,-0.23992607,0.452556,0.63027563,-0.27799174,0.475312,0.64011953,-0.29998447,0.491566,0.62917386,-0.25079706,0.468745,0.62682781,-0.23031345,0.446485,0.64997267,-0.25880254,0.466324,0.6568176,-0.28442902,0.483237,0.64559994,-0.26518602,0.465375,0.63538093,-0.26126503,0.44827,0.66036221,-0.28909439,0.4646,0.67642198,-0.30633145,0.479008
0.65832485,-0.35429501,0.521631,0.64866352,-0.2960054,0.504264,0.64317733,-0.33092122,0.523313,0.62268951,-0.29815719,0.513677,0.59142518,-0.26329811,0.494315,0.57906705,-0.23842784,0.485048,0.62337732,-0.23807609,0.492769,0.61957548,-0.19838163,0.469705,0.62187264,-0.17940453,0.461107,0.62427753,-0.16179531,0.45329,0.63730882,-0.24046582,0.484627,0.62388161,-0.2299946,0.458783,0.64174051,-0.26596292,0.479071,0.64943949,-0.28616103,0.493562,0.64918467,-0.24610124,0.479302,0.64000544,-0.22287711,0.451294,0.6629248,-0.24905056,0.468948,0.6726611,-0.27615435,0.487309,0.66461793,-0.2597856,0.475561,0.64345681,-0.25477646,0.453091,0.66689376,-0.27988336,0.468162,0.68133046,-0.304284,0.48146
0.67284671,-0.35330846,0.528462,0.66454478,-0.30137915,0.508704,0.65572004,-0.33619617,0.528955,0.63867148,-0.30203256,0.517442,0.61005348,-0.26682308,0.498334,0.59933043,-0.24178387,0.488796,0.63220458,-0.24140668,0.493875,0.62353745,-0.20052129,0.470538,0.62426756,-0.18068137,0.462687,0.62654589,-0.16305271,0.455549,0.64739625,-0.24371331,0.486363,0.62917587,-0.22908914,0.458284,0.64960302,-0.2648197,0.477895,0.65835711,-0.28528305,0.491903,0.66086567,-0.2494517,0.481744,0.64640759,-0.2228804,0.451755,0.67017629,-0.24729156,0.468829,0.67796099,-0.27618965,0.487759,0.67920925,-0.26364864,0.479201,0.65465435,-0.24947329,0.454356,0.67914558,-0.27238029,0.468449,0.69600366,-0.29421226,0.480885
0.6753026,-0.35004309,0.527878,0.66978256,-0.29164043,0.509608,0.6599415,-0.33352459,0.529922,0.64296948,-0.29064981,0.520826,0.61399284,-0.25543194,0.505899,0.60040836,-0.22961618,0.496624,0.64174554,-0.23298176,0.497852,0.63489715,-0.19468289,0.475754,0.63389604,-0.17572462,0.466262,0.63091769,-0.1611891,0.457632,0.65523929,-0.23565289,0.488949,0.63481587,-0.22482767,0.462245,0.65673856,-0.26012839,0.481781,0.66517669,-0.28420164,0.495736,0.66714457,-0.24155495,0.483069,0.64842124,-0.22189271,0.453982,0.67155128,-0.24667258,0.470965,0.68438072,-0.27529212,0.489494,0.68333994,-0.25572799,0.478803,0.65780528,-0.24159931,0.454746,0.68273666,-0.26357219,0.468524,0.70097623,-0.2851902,0.48068
0.68303306,-0.34551747,0.528667,0.67456415,-0.28421344,0.51042,0.67060093,-0.32439746,0.532107,0.64913073,-0.28658699,0.525233,0.61810815,-0.25485763,0.510008,0.60392115,-0.22944222,0.501583,0.64746028,-0.22682625,0.5004,0.63674007,-0.18890753,0.478081,0.63166285,-0.16951623,0.466922,0.62965678,-0.15472621,0.456777,0.65956497,-0.22809524,0.489786,0.63425285,-0.21875486,0.463135,0.65446166,-0.25354268,0.48164,0.66552794,-0.27692456,0.494857,0.6703545,-0.23287664,0.482496,0.64477777,-0.21222556,0.452922,0.66434832,-0.23718605,0.468971,0.67982531,-0.26895196,0.487325,0.68524766,-0.24574452,0.47655,0.6521234,-0.23826175,0.450771,0.67579836,-0.26063941,0.464191,0.69403874,-0.2811996,0.476032
0.68791155,-0.33973383,0.53199,0.67517263,-0.28350802,0.513008,0.67350739,-0.32353601,0.535476,0.65006848,-0.28774358,0.528692,0.61355596,-0.25485415,0.513399,0.60155341,-0.22937805,0.504479,0.64766312,-0.22585325,0.502472,0.63519108,-0.18341507,0.481821,0.63506791,-0.16398158,0.474996,0.63520842,-0.14583447,0.468791,0.65943781,-0.22701407,0.491543,0.63049321,-0.21056678,0.464224,0.65194075,-0.24429399,0.482185,0.66356786,-0.26439196,0.495013,0.6700038,-0.23173163,0.484053,0.64199215,-0.2124433,0.453728,0.66054799,-0.23763752,0.469296,0.67760239,-0.26805314,0.48776,0.68472269,-0.2445687,0.477978,0.64798101,-0.22986284,0.452035,0.67147894,-0.25145758,0.464866,0.69117884,-0.2712546,0.476187
0.68941841,-0.33988453,0.533555,0.67593058,-0.28438235,0.51462,0.67512211,-0.32397004,0.53736,0.65246285,-0.29124607,0.531102,0.61654591,-0.2574878,0.516567,0.5995311,-0.23234241,0.506285,0.64823996,-0.22706706,0.504514,0.63064194,-0.18866693,0.485057,0.62371114,-0.17044674,0.475329,0.61725468,-0.15490193,0.466484,0.65971382,-0.22779755,0.493209,0.62986575,-0.21137612,0.465955,0.65138819,-0.24459465,0.483662,0.66346287,-0.26524488,0.49631,0.66793164,-0.23112211,0.485405,0.6369914,-0.2127102,0.455025,0.65567981,-0.23793301,0.470365,0.67543508,-0.26636021,0.488761,0.6826206,-0.24344009,0.47895,0.64631295,-0.23198846,0.452061,0.67010516,-0.25416502,0.465003,0.69250398,-0.27743136,0.476423
0.69651463,-0.34834361,0.543611,0.66806595,-0.28904089,0.523032,0.67303378,-0.3253003,0.543868,0.63343022,-0.2874198,0.531985,0.60272485,-0.25397247,0.518714,0.58493052,-0.22933801,0.510559,0.6338996,-0.22900695,0.507272,0.61846697,-0.18871986,0.484142,0.61769146,-0.17016833,0.477847,0.62094088,-0.15476884,0.472124,0.64934993,-0.23209574,0.499763,0.62959133,-0.21545779,0.470923,0.64662696,-0.24831815,0.490172,0.65505481,-0.27104752,0.50392,0.66328696,-0.23842442,0.495213,0.63658093,-0.22258543,0.464482,0.65812593,-0.24377108,0.48124,0.6712436,-0.27310727,0.500343,0.68267316,-0.25331886,0.492874,0.65086654,-0.24190521,0.470959,0.65525845,-0.26082282,0.483893,0.66095326,-0.27648358,0.495306
0.67835803,-0.34768084,0.540656,0.66303613,-0.28865483,0.521824,0.65797442,-0.32335966,0.540965,0.6230863,-0.28589131,0.529197,0.59394753,-0.25279307,0.517141,0.58213144,-0.22911316,0.510752,0.62718204,-0.22982574,0.507493,0.6130724,-0.1904602,0.485494,0.60947035,-0.17320382,0.476869,0.60651837,-0.15840685,0.469028,0.64329517,-0.2331796,0.50053,0.62029443,-0.2225661,0.473336,0.64080751,-0.25544738,0.493579,0.64990568,-0.27758619,0.508039,0.65763088,-0.23965822,0.49629,0.63381432,-0.22354726,0.467338,0.65624983,-0.2447083,0.484975,0.67212458,-0.27443448,0.503711,0.67718048,-0.25460061,0.49406,0.64717749,-0.242871,0.473171,0.65239346,-0.26202663,0.486796,0.66216545,-0.27838879,0.498818
0.66710454,-0.3403183,0.536773,0.65022963,-0.29149755,0.519202,0.64592173,-0.32196497,0.537146,0.60993982,-0.28618264,0.525521,0.57377487,-0.25113654,0.507458,0.55437806,-0.22529375,0.496596,0.62507758,-0.23054397,0.505933,0.61434963,-0.19167977,0.486938,0.61098355,-0.17320844,0.478747,0.60816296,-0.15665284,0.4713,0.64003564,-0.237943,0.499333,0.62165859,-0.22513397,0.473344,0.64352956,-0.26245145,0.494228,0.6519182,-0.28229583,0.509145,0.65307925,-0.2463731,0.495292,0.6338983,-0.23295949,0.467631,0.65781089,-0.25618038,0.485833,0.66903482,-0.28525601,0.504274,0.67020243,-0.26330117,0.49311,0.6462531,-0.25109986,0.472997,0.65319724,-0.2722029,0.487069,0.66024584,-0.28891763,0.499485
0.65546511,-0.3394442,0.533813,0.63812755,-0.28859779,0.516277,0.63485187,-0.32110129,0.534663,0.59807101,-0.28603243,0.523754,0.55954294,-0.25175875,0.506578,0.54059514,-0.22613514,0.495086,0.61107364,-0.23007579,0.503623,0.59939769,-0.19360498,0.485725,0.59376613,-0.17478791,0.476776,0.58878103,-0.15730042,0.46864,0.62635357,-0.23468232,0.496448,0.60787822,-0.22344562,0.470468,0.63049232,-0.25864611,0.491131,0.64510336,-0.28403815,0.50589,0.63966069,-0.24203921,0.491931,0.61852529,-0.22862404,0.464098,0.64318075,-0.2527068,0.482096,0.66088791,-0.28306952,0.500525,0.65736712,-0.25776697,0.489178,0.63214702,-0.24575984,0.469368,0.64038551,-0.26836591,0.483308,0.65237113,-0.28599297,0.495607
0.62771272,-0.33262525,0.522251,0.62589111,-0.28811816,0.516354,0.61493203,-0.31619512,0.526407,0.58282075,-0.28584451,0.521451,0.5577629,-0.25953986,0.519193,0.54574914,-0.23993925,0.519002,0.61323987,-0.23610307,0.516865,0.61064925,-0.2085232,0.505948,0.61105316,-0.19422575,0.50154,0.61197028,-0.18064159,0.497734,0.62964204,-0.24029653,0.509685,0.62470389,-0.23295471,0.495131,0.65132009,-0.27068166,0.51891,0.66644935,-0.29946971,0.535895,0.64278814,-0.24696766,0.504244,0.63630348,-0.23871611,0.487568,0.66520745,-0.26660706,0.508283,0.67736796,-0.29656582,0.523291,0.65806592,-0.26110798,0.498651,0.64462465,-0.25340166,0.488098,0.65722142,-0.27915598,0.504364,0.67016869,-0.2986663,0.518716
0.62656403,-0.33746214,0.525663,0.61474227,-0.29560787,0.517495,0.60507487,-0.32183828,0.527759,0.56677036,-0.29734813,0.519949,0.53668126,-0.27101935,0.510336,0.51963976,-0.24853551,0.503756,0.59400905,-0.24120456,0.513695,0.58663207,-0.21041914,0.500896,0.58412761,-0.19447945,0.495283,0.58222495,-0.17944023,0.490342,0.61270796,-0.24445665,0.508259,0.60819288,-0.23088891,0.491534,0.63375339,-0.26920765,0.515464,0.64827613,-0.2977809,0.532557,0.62813775,-0.25060016,0.504432,0.62241263,-0.23814231,0.486188,0.65075612,-0.26626005,0.507068,0.66235842,-0.29628271,0.522776,0.64685559,-0.26454544,0.5011,0.6349705,-0.25529711,0.487886,0.64508709,-0.27994838,0.504161,0.65525696,-0.2981001,0.518521
0.60666711,-0.34265795,0.526316,0.59764861,-0.29493664,0.516644,0.58247042,-0.32511859,0.529331,0.55480515,-0.29514456,0.522244,0.52705789,-0.26724087,0.515501,0.513211,-0.24530559,0.512314,0.58194272,-0.23951272,0.512802,0.57353622,-0.21051356,0.498667,0.57076108,-0.1956188,0.492599,0.5686439,-0.1815689,0.487262,0.59842359,-0.24380102,0.505707,0.58973542,-0.22788835,0.487374,0.6124697,-0.26613067,0.510437,0.62631039,-0.29415446,0.526911,0.61179604,-0.25076506,0.500635,0.60176672,-0.23287378,0.480293,0.62769697,-0.262618,0.500387,0.64144788,-0.29263296,0.516628,0.62767172,-0.26564747,0.496046,0.61125531,-0.26227733,0.482364,0.62839428,-0.28534681,0.498074,0.64191822,-0.30931783,0.511935
0.59459241,-0.34706181,0.527221,0.58724488,-0.30116763,0.514639,0.57886301,-0.3298124,0.529198,0.54103573,-0.30327881,0.520292,0.51126854,-0.27617221,0.511908,0.49521305,-0.25394446,0.507158,0.56414718,-0.24416716,0.507244,0.55019891,-0.21547893,0.490226,0.54434209,-0.20084138,0.482568,0.53930762,-0.18712417,0.475761,0.58150985,-0.24703114,0.500412,0.56956524,-0.22664788,0.479223,0.58892928,-0.26410076,0.501646,0.60057265,-0.2913204,0.517663,0.5960832,-0.25303547,0.495786,0.5828456,-0.23200356,0.472738,0.60476024,-0.26097605,0.492278,0.61706059,-0.29117458,0.509391,0.61430588,-0.26718228,0.492162,0.59268628,-0.26347346,0.47603,0.6071015,-0.28408948,0.491244,0.61750178,-0.30778504,0.504668
0.57455272,-0.34756583,0.518495,0.56412963,-0.29982686,0.506704,0.55165482,-0.33308797,0.521228,0.51800628,-0.30034672,0.513517,0.48886183,-0.27236318,0.506834,0.47378136,-0.24907432,0.49993,0.54359073,-0.24342019,0.500858,0.53006381,-0.21453936,0.484441,0.52442578,-0.19978653,0.477128,0.51957789,-0.18593548,0.470638,0.56025407,-0.24619171,0.493371,0.54760427,-0.22959067,0.472927,0.567961,-0.2680245,0.495311,0.5806695,-0.29555952,0.511299,0.57406983,-0.25206785,0.488144,0.56020541,-0.23308677,0.465616,0.58258905,-0.2631876,0.48511,0.59595038,-0.29360011,0.501994,0.59108034,-0.26595429,0.483687,0.57119837,-0.26328889,0.468494,0.58634297,-0.28556185,0.483715,0.59853853,-0.30965022,0.497145
0.53595657,-0.35674993,0.501918,0.52765289,-0.30567978,0.487508,0.52022261,-0.34282579,0.505487,0.49332293,-0.30789875,0.501609,0.47409554,-0.28130316,0.502553,0.46460859,-0.25883713,0.499629,0.50231475,-0.24979789,0.480647,0.48749964,-0.20202484,0.463647,0.4805031,-0.18507698,0.455148,0.47420853,-0.16921514,0.447421,0.5179907,-0.24950509,0.471214,0.49614015,-0.25535997,0.44818,0.51456566,-0.29321637,0.468858,0.52765555,-0.3051857,0.483628,0.53123251,-0.25304854,0.464592,0.50710679,-0.25748058,0.438921,0.52372699,-0.29040509,0.45689,0.5413371,-0.30546484,0.47612,0.54804496,-0.26441268,0.458867,0.52103495,-0.26882907,0.440894,0.5328195,-0.29433294,0.455039,0.54707562,-0.30524554,0.467519
0.5355507,-0.35883048,0.511383,0.51576577,-0.30169136,0.49322,0.50932512,-0.33870431,0.514108,0.47795195,-0.30364217,0.508099,0.45161389,-0.27488602,0.502803,0.44068002,-0.2526426,0.49931,0.48941492,-0.24300004,0.482387,0.48051881,-0.19640859,0.471407,0.47524139,-0.1820457,0.465917,0.47040868,-0.16917557,0.460926,0.50474641,-0.24399742,0.472682,0.47582478,-0.24957774,0.446086,0.49264872,-0.2861088,0.465207,0.50585698,-0.29732551,0.478865,0.51785782,-0.24870019,0.466134,0.48668689,-0.25284823,0.436899,0.50205617,-0.28445112,0.453505,0.51659187,-0.29628189,0.4686,0.53478209,-0.2616665,0.461057,0.50036311,-0.26364859,0.438423,0.5117886,-0.28810632,0.451635,0.52631278,-0.29789245,0.463293
0.5206767,-0.35647414,0.514584,0.50535742,-0.30346853,0.495743,0.50594329,-0.34079414,0.518051,0.46908622,-0.30481836,0.51284,0.44461467,-0.27643413,0.509032,0.43311755,-0.25366643,0.504725,0.48238146,-0.24387851,0.485294,0.47076253,-0.19802645,0.475415,0.46377665,-0.18198739,0.470475,0.45734087,-0.16683348,0.465985,0.49625289,-0.24550337,0.474439,0.46532724,-0.24377296,0.447247,0.47925674,-0.28070079,0.465323,0.49150152,-0.29493172,0.478235,0.50800676,-0.25070485,0.466998,0.47446858,-0.25206841,0.43682,0.48912911,-0.28337751,0.452491,0.50368095,-0.29545069,0.466737,0.52306836,-0.26425964,0.46096,0.48596049,-0.26210833,0.436387,0.4974414,-0.2862559,0.449055,0.51214099,-0.29592122,0.460232
0.50580466,-0.35555574,0.513249,0.49279509,-0.30298784,0.494617,0.49020115,-0.33856949,0.515273,0.45702861,-0.30509885,0.512348,0.43413504,-0.27795487,0.510323,0.41870897,-0.25536838,0.50238,0.46829824,-0.24293236,0.482552,0.45585748,-0.19793555,0.47415,0.44879189,-0.18398431,0.469949,0.44222153,-0.17071177,0.466129,0.48410286,-0.24538428,0.473547,0.45480776,-0.24000767,0.446504,0.46979223,-0.27654271,0.465833,0.48310245,-0.28836603,0.47964,0.4975129,-0.25128295,0.467612,0.46666824,-0.25349056,0.438162,0.4847126,-0.28374435,0.454962,0.50412645,-0.29507155,0.470235,0.51457734,-0.26570402,0.463335,0.48093378,-0.26217116,0.443631,0.47948598,-0.27811815,0.4567,0.49052678,-0.28511214,0.468232
0.50362544,-0.35696997,0.514936,0.49025634,-0.30374084,0.495238,0.48999835,-0.34118759,0.519065,0.45768161,-0.30687024,0.515291,0.43549077,-0.27978366,0.513617,0.41925662,-0.25766021,0.505171,0.463951,-0.24462289,0.484936,0.45504257,-0.19921511,0.47639,0.44235434,-0.18658771,0.472117,0.43321379,-0.17499949,0.468232,0.47659487,-0.24571352,0.472965,0.4397076,-0.2391877,0.445057,0.45270866,-0.27418853,0.461878,0.4669861,-0.28523278,0.473892,0.48753268,-0.25054227,0.464674,0.44849079,-0.25103544,0.433447,0.46489616,-0.28123428,0.448,0.48193614,-0.29306003,0.46123,0.50189931,-0.26379112,0.457752,0.46372351,-0.25997704,0.438964,0.46175569,-0.27481066,0.4504,0.47366444,-0.28120716,0.460491
0.50214078,-0.35701207,0.516611,0.48417533,-0.3025995,0.495866,0.48354657,-0.34078454,0.520234,0.44748909,-0.30621975,0.516446,0.42163146,-0.27963245,0.513067,0.40657139,-0.2569914,0.506944,0.45341506,-0.24180335,0.484122,0.44038805,-0.1968338,0.475935,0.43017709,-0.17896802,0.471841,0.42070498,-0.16224778,0.46812,0.46654394,-0.24233633,0.472409,0.42710476,-0.2383608,0.443528,0.43970063,-0.27309022,0.460025,0.45422937,-0.2840687,0.471809,0.47816806,-0.24673916,0.464412,0.43670872,-0.2500215,0.432317,0.45233169,-0.28029402,0.446592,0.46981035,-0.29207593,0.45957,0.49383081,-0.25952369,0.457997,0.45300184,-0.25877501,0.438301,0.45073446,-0.27436068,0.449491,0.46139968,-0.28074151,0.459364
0.49937784,-0.35857474,0.521175,0.48009804,-0.30228497,0.499528,0.48521002,-0.34307582,0.525324,0.44500232,-0.30913856,0.521921,0.41881093,-0.28332864,0.518814,0.40857993,-0.26077019,0.513824,0.44701301,-0.24342363,0.487728,0.4329964,-0.19863518,0.479631,0.42180646,-0.18035763,0.475583,0.4114472,-0.16333069,0.471903,0.45913828,-0.24306286,0.475051,0.41725764,-0.23420956,0.445458,0.42791755,-0.26900252,0.460605,0.44201915,-0.28226713,0.471425,0.47013032,-0.24675085,0.466332,0.4257087,-0.2499501,0.433242,0.44021193,-0.27975868,0.446319,0.45787199,-0.29104754,0.458208,0.48539816,-0.25871714,0.459194,0.44348894,-0.25892599,0.43948,0.44011243,-0.27424136,0.449766,0.44952641,-0.28047832,0.458842
0.50022746,-0.36092101,0.525484,0.47508526,-0.30409804,0.50253,0.48303454,-0.34487003,0.529786,0.44156117,-0.31252014,0.526075,0.41580011,-0.28683656,0.523396,0.40525797,-0.26422444,0.518641,0.44150052,-0.24607586,0.489895,0.42662012,-0.20071697,0.480664,0.4145994,-0.18241411,0.476048,0.40797421,-0.16457411,0.472468,0.45293478,-0.24551696,0.476574,0.40839584,-0.24409447,0.445927,0.41921084,-0.27674075,0.459606,0.43678383,-0.28346344,0.469377,0.4634439,-0.24907436,0.467429,0.41603296,-0.24554155,0.433111,0.42791382,-0.27537666,0.444892,0.44459158,-0.28903548,0.455602,0.47831962,-0.26095051,0.459979,0.43516424,-0.26124377,0.439817,0.43103834,-0.27572349,0.449101,0.44401577,-0.28035274,0.457293
0.49596735,-0.3607528,0.526782,0.47073164,-0.30544825,0.503576,0.47839077,-0.34442865,0.530807,0.44102538,-0.31320777,0.527066,0.41523608,-0.28743039,0.524319,0.40027623,-0.26500013,0.518567,0.44028225,-0.24645918,0.490405,0.42526865,-0.20111577,0.481188,0.41297064,-0.18320833,0.476579,0.40159395,-0.16654542,0.47239,0.45197534,-0.24597299,0.477337,0.40707493,-0.24430683,0.446433,0.41802006,-0.27702873,0.460217,0.43249025,-0.28618772,0.470063,0.46274996,-0.24961497,0.468419,0.41503836,-0.24591211,0.43393,0.42699203,-0.2758469,0.445808,0.44384519,-0.289599,0.456607,0.47803012,-0.26164759,0.461278,0.43440139,-0.26176565,0.440771,0.43031345,-0.27628928,0.450115,0.43940369,-0.28177152,0.45836
0.48653692,-0.35832188,0.526286,0.46135598,-0.30254749,0.504164,0.46776142,-0.34299771,0.529404,0.42756749,-0.3100898,0.523925,0.40088924,-0.28415643,0.520298,0.38563834,-0.2617843,0.514322,0.42960237,-0.24360904,0.490723,0.41039864,-0.19877163,0.480762,0.39898309,-0.17797069,0.475782,0.38854833,-0.15891122,0.471255,0.4432194,-0.24302092,0.479151,0.40000837,-0.24801184,0.449021,0.41218332,-0.27833767,0.464884,0.42756951,-0.28355608,0.476214,0.45558993,-0.2466019,0.471379,0.41057012,-0.2504542,0.438112,0.42333703,-0.27697651,0.451835,0.4405279,-0.28230744,0.46431,0.47276126,-0.25861065,0.465438,0.43356133,-0.26379893,0.444686,0.43782487,-0.28144894,0.455416,0.45244157,-0.28597049,0.464883
0.4875917,-0.35854732,0.52606,0.46443626,-0.30413892,0.503938,0.46898712,-0.34294712,0.529242,0.42925293,-0.30997438,0.523757,0.40650314,-0.28436987,0.520944,0.39471255,-0.26264698,0.516218,0.43020066,-0.24444077,0.490575,0.41370392,-0.20019193,0.482568,0.40356219,-0.17936713,0.478564,0.39429253,-0.16029296,0.474924,0.44373436,-0.24380738,0.478924,0.40299533,-0.2464503,0.448801,0.41242323,-0.27788781,0.464596,0.42754022,-0.28395441,0.475878,0.45603134,-0.24734908,0.471087,0.411003,-0.25117724,0.437801,0.42371632,-0.27765304,0.451464,0.44084188,-0.28294102,0.463885,0.47311065,-0.25930628,0.465069,0.43274814,-0.26413278,0.444366,0.4389244,-0.28396682,0.455052,0.45493629,-0.2870104,0.464481
0.48085029,-0.35843244,0.5272,0.46108033,-0.30362553,0.505376,0.46543548,-0.34345224,0.530823,0.42802053,-0.31033007,0.526713,0.40247666,-0.28487179,0.524122,0.38808544,-0.26276807,0.518857,0.4304719,-0.24497777,0.492789,0.41406385,-0.2001392,0.483913,0.40325617,-0.17962995,0.479475,0.39336472,-0.1608076,0.475441,0.4423091,-0.24368911,0.480699,0.40081906,-0.24751516,0.450883,0.41324883,-0.27897617,0.466468,0.4286023,-0.28543537,0.4776,0.45411835,-0.24726983,0.472477,0.4107178,-0.25209454,0.439353,0.4242848,-0.27874681,0.452824,0.44166073,-0.28415791,0.46507,0.47047553,-0.25921585,0.465957,0.43050951,-0.26514876,0.445738,0.43937471,-0.28521685,0.4563,0.45418826,-0.28807784,0.46562
0.48026357,-0.35874362,0.528256,0.46094632,-0.30404125,0.506583,0.46562429,-0.34432576,0.532786,0.42837322,-0.31071284,0.527967,0.40325125,-0.28538738,0.527045,0.38954236,-0.26385156,0.521393,0.43024879,-0.24534641,0.495231,0.41279038,-0.19970376,0.484684,0.40070213,-0.17952332,0.479411,0.3896277,-0.16097641,0.474617,0.4423149,-0.24429319,0.482076,0.39757097,-0.24726116,0.452523,0.41304567,-0.27934689,0.467185,0.42810228,-0.2856604,0.477658,0.45326217,-0.24744252,0.472967,0.40659976,-0.25221032,0.439766,0.42313125,-0.27853622,0.45241,0.44010669,-0.28361371,0.463904,0.46642219,-0.25894338,0.465368,0.42611398,-0.26518602,0.445956,0.43825932,-0.28511879,0.455926,0.45320896,-0.2879343,0.464723
0.47930579,-0.35856406,0.528419,0.46040742,-0.30398854,0.506804,0.46473637,-0.34419467,0.533021,0.42833199,-0.3107463,0.528325,0.40346678,-0.28566427,0.527382,0.38970244,-0.26400827,0.5219,0.42998222,-0.24546965,0.495587,0.41294239,-0.1998795,0.485247,0.40083926,-0.17983945,0.480077,0.38974436,-0.16140734,0.475377,0.44194839,-0.24439167,0.482363,0.39752047,-0.247422,0.452871,0.41281928,-0.27949918,0.467498,0.42802894,-0.28594694,0.477946,0.45281481,-0.24751839,0.473192,0.40649626,-0.25230293,0.440029,0.42288793,-0.27870499,0.452641,0.4400302,-0.28383818,0.464106,0.46634399,-0.25893633,0.465511,0.4259935,-0.26523398,0.446158,0.43798086,-0.2853141,0.456108,0.45329433,-0.28832998,0.464887
