sluyters/QuantumLeap/backend/src/datasets/gesture/HandGestureDataset_SHREC2017_csv/Gesture7/finger_1/subject_1_essai_4_skeletons_world.csv
Wrist_x,Wrist_y,Wrist_z,Palm_x,Palm_y,Palm_z,thumb_base_x,thumb_base_y,thumb_base_z,thumb_first_joint_x,thumb_first_joint_y,thumb_first_joint_z,thumb_second_joint_x,thumb_second_joint_y,thumb_second_joint_z,thumb_tip_x,thumb_tip_y,thumb_tip_z,index_base_x,index_base_y,index_base_z,index_first_joint_x,index_first_joint_y,index_first_joint_z,index_second_joint_x,index_second_joint_y,index_second_joint_z,index_tip_x,index_tip_y,index_tip_z,middle_base_x,middle_base_y,middle_base_z,middle_first_joint_x,middle_first_joint_y,middle_first_joint_z,middle_second_joint_x,middle_second_joint_y,middle_second_joint_z,middle_tip_x,middle_tip_y,middle_tip_z,ring_base_x,ring_base_y,ring_base_z,ring_first_joint_x,ring_first_joint_y,ring_first_joint_z,ring_second_joint_x,ring_second_joint_y,ring_second_joint_z,ring_tip_x,ring_tip_y,ring_tip_z,pinky_base_x,pinky_base_y,pinky_base_z,pinky_first_joint_x,pinky_first_joint_y,pinky_first_joint_z,pinky_second_joint_x,pinky_second_joint_y,pinky_second_joint_z,pinky_tip_x,pinky_tip_y,pinky_tip_z,
0.44767568,-0.3727983,0.540426,0.43318901,-0.32210455,0.528252,0.42710388,-0.35861662,0.540169,0.39283693,-0.32678069,0.531573,0.35807583,-0.29687957,0.516781,0.34834855,-0.27923992,0.51547,0.39840541,-0.26660775,0.518604,0.37744117,-0.22511262,0.50247,0.36687799,-0.20437404,0.494402,0.35722907,-0.18534202,0.487069,0.41778024,-0.26500585,0.514378,0.39926511,-0.2171078,0.495211,0.38901494,-0.19149985,0.484031,0.38227038,-0.17213768,0.476045,0.4345239,-0.26664416,0.511661,0.41885241,-0.22179456,0.492707,0.40946193,-0.19969149,0.48301,0.40095616,-0.17876539,0.474194,0.45637465,-0.27458436,0.509918,0.44568471,-0.24378767,0.493074,0.44165937,-0.22937397,0.485335,0.44039369,-0.21463876,0.478507
0.45220206,-0.37578167,0.546254,0.43312276,-0.32015213,0.530016,0.43130141,-0.36149913,0.545921,0.39350532,-0.32877392,0.536409,0.35847521,-0.30025158,0.522811,0.34679673,-0.28025745,0.519518,0.39462323,-0.2651613,0.517159,0.37133788,-0.22183553,0.497692,0.35944528,-0.20093232,0.487959,0.34968419,-0.18339885,0.47911,0.41278505,-0.26300425,0.511511,0.39015769,-0.21518885,0.488725,0.37505751,-0.188912,0.475433,0.36534848,-0.17136179,0.465939,0.42865616,-0.26427891,0.507877,0.40600273,-0.22270717,0.48486,0.39500571,-0.20569443,0.473084,0.38497371,-0.1898699,0.462379,0.44980425,-0.27195891,0.505541,0.43653973,-0.23981614,0.485207,0.43067952,-0.22560479,0.475864,0.42547586,-0.21314034,0.467621
0.45525277,-0.37745997,0.550163,0.43436662,-0.32196221,0.531706,0.43363823,-0.36287041,0.549207,0.39495067,-0.33056944,0.540606,0.36053277,-0.30363852,0.527132,0.34755567,-0.28151915,0.521277,0.39055969,-0.26565349,0.5164,0.36437166,-0.22318199,0.49557,0.35125733,-0.2027265,0.485155,0.34812868,-0.18545314,0.482754,0.4086642,-0.26293228,0.510674,0.38454481,-0.21514719,0.486157,0.36763799,-0.19326436,0.471856,0.35619484,-0.1847837,0.46164,0.42613915,-0.26382877,0.507114,0.39993936,-0.2261226,0.482457,0.38722421,-0.20954095,0.469841,0.37560239,-0.19416708,0.458373,0.44777427,-0.2713684,0.505146,0.4317269,-0.23989113,0.48324,0.42268097,-0.23116281,0.473176,0.41428976,-0.22785192,0.464295
0.45846507,-0.38086893,0.555543,0.42904038,-0.32927421,0.535166,0.43351392,-0.36313112,0.554074,0.3950077,-0.33377184,0.544851,0.36276334,-0.30566031,0.531467,0.34880611,-0.28262475,0.523795,0.39127192,-0.27010876,0.517769,0.3648688,-0.22510321,0.496512,0.3513209,-0.20419253,0.485884,0.34558072,-0.18763479,0.482839,0.40995423,-0.2712731,0.511945,0.39143376,-0.21605202,0.488829,0.37439169,-0.2133662,0.475345,0.36634805,-0.22539974,0.465714,0.42584071,-0.27379109,0.508425,0.40005951,-0.23519642,0.482466,0.38655363,-0.22036104,0.469185,0.37417684,-0.20758835,0.457111,0.44698585,-0.28308141,0.506744,0.43064473,-0.25210739,0.483432,0.42217046,-0.24170009,0.472721,0.4133981,-0.23770768,0.46327
0.46359057,-0.38509148,0.563958,0.43660876,-0.32634692,0.539305,0.43972345,-0.36807996,0.562996,0.39926197,-0.32962192,0.553446,0.37001049,-0.30293761,0.54585,0.35379547,-0.28046979,0.537989,0.39577356,-0.26645321,0.519238,0.36423447,-0.22449041,0.497381,0.34523314,-0.2012725,0.486452,0.33503458,-0.18467842,0.483293,0.40943125,-0.2656943,0.511211,0.38086379,-0.21297157,0.481886,0.35945975,-0.21773558,0.46478,0.34919212,-0.22978463,0.452561,0.4238592,-0.26850918,0.506145,0.38505076,-0.22920214,0.478594,0.37052037,-0.23882376,0.464498,0.36515926,-0.25085959,0.451684,0.44428524,-0.27829084,0.503141,0.40712282,-0.24779414,0.47991,0.39230766,-0.24747041,0.469236,0.38394769,-0.25552564,0.459818
0.46426201,-0.38667208,0.56698,0.43368859,-0.3339317,0.540075,0.44140438,-0.37049021,0.564524,0.3988363,-0.33877999,0.552264,0.37142,-0.3107888,0.545037,0.35628663,-0.28815768,0.537669,0.39148792,-0.27288821,0.516484,0.35844625,-0.23039679,0.49296,0.3467015,-0.21215424,0.488521,0.33586092,-0.19526021,0.484485,0.40833188,-0.2722327,0.509415,0.37703578,-0.22039258,0.477807,0.35527412,-0.22501084,0.459368,0.34428248,-0.23611026,0.446198,0.42374755,-0.277931,0.505278,0.38292035,-0.23797738,0.475946,0.36768146,-0.24701429,0.460939,0.36161263,-0.25806248,0.447297,0.44475413,-0.28864316,0.503672,0.40587068,-0.25710336,0.478434,0.3903028,-0.25634515,0.466838,0.38126567,-0.26383295,0.456606
0.4546174,-0.38678552,0.566689,0.4277613,-0.32983566,0.537765,0.42818757,-0.36639868,0.559958,0.40036124,-0.33024656,0.546649,0.37833983,-0.29440314,0.527446,0.3720703,-0.26962282,0.517996,0.38586167,-0.26048021,0.507485,0.35074681,-0.21587163,0.47929,0.3448028,-0.20057933,0.480496,0.33906576,-0.18608971,0.481592,0.40431762,-0.26263635,0.504804,0.37042035,-0.21700021,0.470116,0.34822483,-0.2268661,0.449881,0.33589737,-0.23360161,0.435427,0.42239713,-0.26995043,0.504402,0.38264128,-0.24206645,0.472639,0.36901143,-0.25462756,0.456388,0.36023732,-0.26445381,0.441614,0.44674179,-0.28867428,0.507542,0.40511614,-0.25950378,0.478762,0.3906244,-0.26668939,0.465538,0.38186079,-0.27420286,0.453871
0.44980758,-0.39293166,0.568126,0.42426149,-0.33914054,0.537807,0.42542197,-0.37090713,0.560632,0.40153483,-0.33738462,0.546575,0.37824149,-0.30531259,0.527848,0.3690094,-0.27839184,0.514413,0.38325751,-0.26751132,0.505539,0.3467814,-0.22260176,0.476108,0.3393707,-0.20754749,0.476897,0.33229896,-0.19321558,0.477614,0.40337635,-0.27202437,0.503257,0.36661649,-0.22865386,0.467298,0.34424246,-0.23922848,0.446322,0.3320376,-0.2479237,0.431339,0.42129691,-0.27846452,0.503269,0.38005781,-0.25081575,0.470192,0.36583707,-0.26266624,0.453269,0.3566218,-0.27157332,0.437884,0.44466474,-0.29634975,0.507082,0.40223832,-0.2710111,0.477248,0.38828172,-0.27557591,0.46354,0.37910732,-0.2826367,0.451445
0.44813193,-0.39383925,0.567828,0.42413919,-0.33807087,0.537698,0.42395155,-0.37139698,0.560261,0.40100884,-0.33761554,0.546393,0.37806984,-0.30422184,0.52781,0.36928833,-0.27431627,0.514745,0.38288292,-0.26613468,0.505488,0.34758234,-0.22079839,0.476078,0.33919769,-0.20682734,0.476369,0.33225613,-0.19018537,0.476634,0.40322255,-0.27044179,0.503363,0.36659637,-0.22778322,0.467521,0.34423577,-0.23841323,0.446613,0.33208995,-0.24718748,0.431679,0.42117118,-0.27848612,0.503493,0.38008064,-0.25300831,0.470469,0.36636903,-0.26517327,0.453574,0.35752481,-0.27335532,0.438214,0.44594024,-0.29396676,0.507423,0.4023541,-0.27021566,0.477634,0.38864347,-0.27517735,0.463948,0.37986502,-0.28243985,0.451871
0.41342751,-0.38516221,0.559922,0.41377157,-0.32992735,0.537585,0.40633826,-0.3604349,0.554355,0.38043678,-0.31511817,0.54214,0.36771416,-0.28791562,0.530725,0.36270993,-0.26221552,0.519817,0.39141807,-0.26237298,0.513758,0.3630029,-0.2321535,0.489641,0.35577244,-0.22303523,0.489732,0.3487125,-0.21413473,0.489815,0.41102529,-0.26876089,0.51213,0.36979444,-0.26437497,0.482988,0.3419986,-0.27247668,0.465988,0.32900272,-0.28232809,0.455896,0.42839736,-0.28275153,0.512184,0.39742733,-0.24263926,0.485202,0.37731953,-0.25185781,0.471398,0.36430229,-0.26432072,0.458849,0.45024147,-0.3004504,0.515046,0.40779987,-0.28777954,0.490228,0.39783885,-0.29878461,0.478825,0.38992033,-0.30813165,0.468818
0.42330627,-0.38418162,0.552834,0.40924541,-0.32633195,0.531469,0.40535914,-0.36226992,0.549442,0.37928812,-0.31981087,0.539327,0.36565965,-0.29447019,0.52882,0.36023538,-0.27081442,0.519118,0.3866118,-0.261808,0.511002,0.34997275,-0.22510818,0.489152,0.34214013,-0.21338182,0.491975,0.33441003,-0.2019158,0.494541,0.40377292,-0.26496142,0.507122,0.35861926,-0.26158621,0.479413,0.33764008,-0.27140971,0.463249,0.33889967,-0.29206732,0.469245,0.41603531,-0.27224903,0.505263,0.38034199,-0.23197273,0.480391,0.36537817,-0.24436364,0.467666,0.3763489,-0.27010082,0.474902,0.4353842,-0.28807924,0.505703,0.39427749,-0.28287911,0.482562,0.39156155,-0.29402842,0.471929,0.38678777,-0.30291046,0.462548
0.41336267,-0.37761685,0.544818,0.402853,-0.32261209,0.524982,0.38845505,-0.35290972,0.539657,0.37182561,-0.31920309,0.525662,0.35970634,-0.28731328,0.514667,0.35706682,-0.26559488,0.510744,0.37611427,-0.25643883,0.503561,0.34296845,-0.22070306,0.48106,0.3350096,-0.20913242,0.48359,0.32902992,-0.19933584,0.486871,0.39547309,-0.26242726,0.502378,0.35535717,-0.2596566,0.475438,0.33350706,-0.27243817,0.459723,0.3367784,-0.29271972,0.466637,0.41228363,-0.2707643,0.502641,0.37735817,-0.23614075,0.477555,0.36492409,-0.25056286,0.464721,0.37677639,-0.27055077,0.472665,0.43405503,-0.28783508,0.505442,0.39459135,-0.283639,0.482224,0.39113552,-0.29433893,0.471556,0.38666039,-0.30315183,0.462143
0.41407725,-0.38012986,0.54489,0.3967981,-0.33025971,0.522018,0.38729202,-0.35538636,0.538799,0.3689767,-0.33027298,0.523718,0.35220828,-0.29765674,0.512928,0.34585886,-0.27189731,0.504327,0.36460966,-0.26203076,0.497149,0.33123406,-0.22532918,0.472345,0.3241539,-0.21320814,0.474142,0.31683811,-0.20505127,0.475775,0.385008,-0.26737249,0.495953,0.34847356,-0.25400719,0.46623,0.32562752,-0.26602607,0.448892,0.32671404,-0.28702667,0.454338,0.40284252,-0.27524474,0.496395,0.36788154,-0.24150798,0.468726,0.3557227,-0.25517349,0.454569,0.36556076,-0.27468991,0.460953,0.42630561,-0.29188541,0.499791,0.3885509,-0.29020152,0.474419,0.38356643,-0.29973256,0.462762,0.39093485,-0.31707382,0.466783
0.41432235,-0.38250349,0.545624,0.39603085,-0.33193074,0.51955,0.3930316,-0.36098875,0.538612,0.36579107,-0.3352025,0.517999,0.34540478,-0.30293714,0.505611,0.33760832,-0.27784297,0.497365,0.35941995,-0.26498507,0.491118,0.32150981,-0.22893495,0.464002,0.31219708,-0.21760713,0.464874,0.30282626,-0.21041347,0.465667,0.38000693,-0.26684085,0.489837,0.33891684,-0.25628274,0.457272,0.31524034,-0.26868777,0.438275,0.31377841,-0.28890404,0.442031,0.39794,-0.27449908,0.490408,0.35765006,-0.24411861,0.460129,0.34508469,-0.25726954,0.444637,0.35562143,-0.27124321,0.449226,0.42206318,-0.29113093,0.494362,0.38144528,-0.29273548,0.46683,0.37660483,-0.30109561,0.45418,0.38311943,-0.3137293,0.456834
0.4079699,-0.38143674,0.535379,0.39264244,-0.33327471,0.51247,0.38198425,-0.3651639,0.529499,0.36121925,-0.33339218,0.510351,0.34094406,-0.30146101,0.497907,0.33352555,-0.2769114,0.490259,0.35755185,-0.26558023,0.487827,0.32197045,-0.23054077,0.463172,0.31304992,-0.21916537,0.464179,0.30411946,-0.21189671,0.465095,0.37784515,-0.26995816,0.486364,0.34023319,-0.25775774,0.456666,0.31802865,-0.2711761,0.439342,0.31777876,-0.29270934,0.444761,0.39577757,-0.27705769,0.486588,0.35854332,-0.24523001,0.459034,0.34734008,-0.25908013,0.444936,0.3584702,-0.27791849,0.451318,0.41971501,-0.29281258,0.489727,0.3815297,-0.29299838,0.46444,0.37752259,-0.30196301,0.452821,0.38576523,-0.31904123,0.456838
0.39560297,-0.38474131,0.524818,0.38045417,-0.3302076,0.498205,0.37508653,-0.36536836,0.51853,0.35304842,-0.33245801,0.49901,0.33039598,-0.29736435,0.48186,0.32557859,-0.27474017,0.477126,0.33960449,-0.26518953,0.470232,0.30323321,-0.22960914,0.443448,0.29282344,-0.2175876,0.441819,0.28624687,-0.20244841,0.440339,0.35754389,-0.26703067,0.467879,0.36060485,-0.22555131,0.469217,0.35683501,-0.2016252,0.469997,0.36000183,-0.20273991,0.485899,0.37399301,-0.27217312,0.467602,0.32940112,-0.24208022,0.437488,0.3191325,-0.25426123,0.422081,0.33097879,-0.27158328,0.426381,0.39710851,-0.28595434,0.470603,0.34786505,-0.2786633,0.443174,0.3252401,-0.28046001,0.430572,0.31920101,-0.29518473,0.432997
0.39053184,-0.38658498,0.516527,0.37309855,-0.33236094,0.48965,0.36897348,-0.36719346,0.510019,0.34820801,-0.33783003,0.490201,0.32627803,-0.30103611,0.47105,0.32347139,-0.27891035,0.466649,0.33817067,-0.26613731,0.46121,0.30272303,-0.23061577,0.434123,0.29270701,-0.21859482,0.432001,0.28316367,-0.20710788,0.430072,0.35606427,-0.26957925,0.459023,0.36016284,-0.22486898,0.459055,0.35773278,-0.20307235,0.459074,0.36151877,-0.20461282,0.474733,0.3723642,-0.27610157,0.458899,0.32830222,-0.24602733,0.428477,0.31655313,-0.25815439,0.412912,0.32731732,-0.27527177,0.41705,0.39503559,-0.29165931,0.462117,0.34503654,-0.28345606,0.43444,0.3217532,-0.28454525,0.421724,0.31490475,-0.29862667,0.424027
0.38339273,-0.38615244,0.499125,0.37087747,-0.33114271,0.473527,0.36312738,-0.36789482,0.492181,0.34732156,-0.33935445,0.482699,0.32322388,-0.30472578,0.463808,0.31630884,-0.27690156,0.456061,0.32224115,-0.26543311,0.445542,0.2861888,-0.22942464,0.418711,0.27629507,-0.21862782,0.417813,0.26676156,-0.20821369,0.416997,0.34186708,-0.264781,0.444357,0.34321707,-0.2223901,0.445048,0.34001345,-0.19838238,0.445452,0.34466531,-0.20016617,0.461395,0.36016738,-0.26775909,0.444977,0.31931535,-0.23055945,0.415035,0.30579673,-0.24087464,0.399716,0.31138758,-0.26399015,0.404578,0.38648327,-0.27871678,0.44893,0.33928443,-0.2748177,0.421679,0.31692862,-0.2773968,0.409158,0.30823475,-0.29090235,0.41202
0.38578952,-0.38761496,0.48452,0.36358491,-0.3280292,0.462708,0.36069029,-0.36742788,0.478339,0.3414843,-0.34015823,0.471964,0.32012682,-0.30736683,0.453582,0.31377457,-0.28398528,0.444782,0.32076096,-0.26807245,0.438545,0.28755591,-0.23347148,0.414215,0.27677126,-0.22182881,0.411155,0.26621572,-0.2122061,0.408374,0.3407924,-0.26866048,0.437852,0.34329715,-0.2312004,0.447204,0.34473541,-0.20914429,0.452659,0.34044025,-0.19867684,0.456556,0.35920038,-0.27258069,0.438642,0.31701142,-0.22923726,0.4116,0.30420334,-0.23821809,0.397764,0.31405332,-0.26187237,0.404667,0.38508943,-0.28450315,0.442324,0.34266596,-0.28410339,0.417495,0.32925451,-0.29309086,0.406087,0.3380452,-0.30383171,0.410511
0.38592043,-0.3890467,0.482585,0.36545142,-0.33286106,0.460919,0.35951455,-0.36775028,0.474975,0.3403829,-0.33858684,0.467327,0.31869751,-0.30438053,0.447501,0.31227626,-0.28045785,0.438174,0.31963838,-0.26751371,0.435151,0.28974224,-0.23402722,0.409635,0.27994352,-0.22105896,0.40546,0.27052281,-0.20991247,0.401664,0.3413711,-0.26894524,0.43623,0.34455127,-0.23246125,0.447123,0.34636916,-0.21087941,0.453477,0.34407064,-0.19957261,0.458016,0.36125524,-0.27355687,0.438468,0.32227575,-0.2321579,0.410637,0.31154799,-0.23896858,0.396398,0.32408438,-0.26242519,0.403155,0.38902946,-0.28632862,0.443874,0.35174392,-0.28590325,0.418475,0.33762737,-0.2948115,0.406806,0.34171511,-0.30511066,0.411141
0.38796389,-0.39165238,0.482058,0.36943736,-0.33640897,0.459572,0.36098381,-0.37223136,0.47228,0.34726869,-0.3445319,0.46376,0.3319866,-0.3125172,0.442506,0.32989383,-0.29021418,0.432682,0.32238473,-0.27198901,0.430566,0.29175262,-0.23623044,0.403087,0.28470153,-0.22483245,0.401052,0.27788632,-0.21482828,0.399203,0.34668926,-0.27432428,0.433947,0.31970781,-0.22855281,0.414405,0.30884628,-0.23669372,0.403006,0.32048303,-0.26115039,0.413258,0.36879294,-0.279707,0.43813,0.32947763,-0.24239941,0.408497,0.32033128,-0.24978341,0.393337,0.33309257,-0.27187432,0.399204,0.39945557,-0.29346569,0.445976,0.36246768,-0.28663091,0.419213,0.34731019,-0.29498821,0.406917,0.34827483,-0.30640597,0.410611
0.3747778,-0.38451796,0.473191,0.35956729,-0.33128506,0.453772,0.34914528,-0.36508092,0.465428,0.32971514,-0.33143124,0.457272,0.30666862,-0.28740317,0.435203,0.3027869,-0.26089198,0.424135,0.32621113,-0.26379251,0.429541,0.30081842,-0.23734172,0.405317,0.28797028,-0.22386526,0.393205,0.27618514,-0.21145275,0.382193,0.34695296,-0.27170844,0.431642,0.32482331,-0.22600082,0.404501,0.30815777,-0.2367108,0.388668,0.31302747,-0.25839362,0.395659,0.36738777,-0.27848766,0.43458,0.34136888,-0.2274881,0.408183,0.32977546,-0.23183156,0.394678,0.33822315,-0.25659404,0.402369,0.3950276,-0.29763957,0.440546,0.35879856,-0.28461338,0.416405,0.33755763,-0.2880761,0.405313,0.33686729,-0.30518132,0.410383
0.35839445,-0.37227449,0.48026,0.36897751,-0.32379039,0.462009,0.34697034,-0.34494903,0.477288,0.34757586,-0.30243397,0.469916,0.34963065,-0.2671774,0.466889,0.35577575,-0.24469543,0.462921,0.37002196,-0.25868373,0.444436,0.33478167,-0.24675756,0.424522,0.31705514,-0.24110445,0.415115,0.30004842,-0.23653578,0.406582,0.38366334,-0.27139847,0.44121,0.35933935,-0.23832327,0.416211,0.33059673,-0.25040199,0.401628,0.32579218,-0.26912068,0.409158,0.39450516,-0.2849887,0.439694,0.36701057,-0.26019342,0.417118,0.34700409,-0.27409337,0.405567,0.3541224,-0.29191564,0.414371,0.40655318,-0.3077643,0.440158,0.36690021,-0.29261232,0.418956,0.34900125,-0.2988877,0.409215,0.35321213,-0.31131853,0.415071
0.3541722,-0.36664077,0.480832,0.37554586,-0.31851494,0.458961,0.35071972,-0.33857267,0.477468,0.36145378,-0.28899095,0.469108,0.36939529,-0.25685613,0.464945,0.37952038,-0.2378696,0.461215,0.38838271,-0.25715661,0.438141,0.35044785,-0.23967157,0.416066,0.32722182,-0.23334569,0.405029,0.30596292,-0.22765339,0.395096,0.39645765,-0.27332785,0.434038,0.35253316,-0.25401289,0.405928,0.31534102,-0.25699988,0.389531,0.30449105,-0.27183052,0.395247,0.40227248,-0.2894338,0.432027,0.36704945,-0.2702705,0.40686,0.33913698,-0.27711997,0.393984,0.33051694,-0.29865075,0.400945,0.40736933,-0.31453065,0.432348,0.36887018,-0.29078963,0.408955,0.34694633,-0.29639856,0.398207,0.3476919,-0.30681572,0.402645
0.35976785,-0.3649138,0.48083,0.38850406,-0.31884594,0.456061,0.36068378,-0.33084525,0.474959,0.3720651,-0.28611693,0.462802,0.37753324,-0.25139358,0.455768,0.3855919,-0.23071091,0.449759,0.39606402,-0.25395458,0.430001,0.3519218,-0.23866642,0.404432,0.32596999,-0.23319296,0.391647,0.30244804,-0.22829101,0.380142,0.40565537,-0.27213973,0.427834,0.35522449,-0.25557358,0.396626,0.31600815,-0.25730496,0.378422,0.3049333,-0.27050613,0.382836,0.41293317,-0.29007199,0.427596,0.37067421,-0.27352243,0.398882,0.34032011,-0.27941955,0.384191,0.33087336,-0.2991687,0.389571,0.42016163,-0.31761742,0.430412,0.37578179,-0.29559124,0.404139,0.35246131,-0.29934695,0.392068,0.3558779,-0.30881221,0.395315
0.37771979,-0.37083968,0.479118,0.39960168,-0.32864816,0.453487,0.37456998,-0.33719946,0.474108,0.38367508,-0.29698864,0.4611,0.39145909,-0.26456592,0.457095,0.40106953,-0.24513874,0.45301,0.40682012,-0.26317839,0.427802,0.36404731,-0.24407836,0.402538,0.33865026,-0.23688403,0.389907,0.31559703,-0.2304054,0.378523,0.41540653,-0.27992322,0.424278,0.36572338,-0.25850075,0.392652,0.32582279,-0.25940291,0.374203,0.31406317,-0.27264405,0.378012,0.42199273,-0.29679806,0.422977,0.3811069,-0.27555884,0.394344,0.35065756,-0.28070368,0.379695,0.34077703,-0.30051801,0.384564,0.4286497,-0.32340046,0.424623,0.38508946,-0.29746971,0.398382,0.36121099,-0.30149878,0.386324,0.36373372,-0.3120958,0.389172
0.37448499,-0.36237686,0.474971,0.39789493,-0.3241775,0.449612,0.37346416,-0.33226481,0.468765,0.38809867,-0.28624741,0.456019,0.39603128,-0.25190541,0.447191,0.40647727,-0.23370095,0.441423,0.41346064,-0.26192183,0.422698,0.37226767,-0.24318712,0.396573,0.34700609,-0.23583902,0.383511,0.32399057,-0.22924571,0.371718,0.42031197,-0.28168639,0.420714,0.37292443,-0.26131303,0.38894,0.33149483,-0.26025888,0.370405,0.31469177,-0.27115149,0.374514,0.42509992,-0.3006333,0.420662,0.37987122,-0.27618986,0.39136,0.3458238,-0.27575702,0.376368,0.32999358,-0.28240217,0.381404,0.42886207,-0.32882816,0.423777,0.38882926,-0.30313118,0.397025,0.36383032,-0.30605436,0.384734,0.3635797,-0.31340658,0.387721
0.3792977,-0.35745978,0.46929,0.40863612,-0.31706158,0.442792,0.38228525,-0.32306863,0.461551,0.40165457,-0.28051195,0.451857,0.41164929,-0.24872323,0.444755,0.4185074,-0.22838966,0.435899,0.42105572,-0.25755186,0.41316,0.37281696,-0.24067846,0.385267,0.34751085,-0.23282295,0.371728,0.32260893,-0.2261298,0.35942,0.42786299,-0.27922092,0.412594,0.38109106,-0.2584985,0.379502,0.33814582,-0.25531629,0.360199,0.33288398,-0.26239055,0.36374,0.43260749,-0.29956068,0.413781,0.38767115,-0.27999008,0.382766,0.34787289,-0.27244713,0.366898,0.3333075,-0.27866808,0.371186,0.43632234,-0.32896223,0.418527,0.39419912,-0.30422217,0.390417,0.36820734,-0.30577336,0.377502,0.36943047,-0.31348586,0.379934
0.40087171,-0.35573718,0.473711,0.42638021,-0.32159662,0.447401,0.40034986,-0.32519663,0.465185,0.4116858,-0.28299179,0.449469,0.41849771,-0.24941086,0.440704,0.42278421,-0.23042443,0.429118,0.43538721,-0.25996637,0.416968,0.38788443,-0.24550613,0.388563,0.36456417,-0.23865192,0.374919,0.34165885,-0.23281263,0.362516,0.44457815,-0.28197823,0.417419,0.40034634,-0.26360049,0.384293,0.35664064,-0.26123967,0.364969,0.35547795,-0.26607666,0.368612,0.45136918,-0.30269232,0.41943,0.40684937,-0.28538809,0.388034,0.36598993,-0.27614027,0.371971,0.35824401,-0.27909344,0.376266,0.45770729,-0.33273796,0.425144,0.40820418,-0.31268801,0.396763,0.37636889,-0.31024767,0.383722,0.37379878,-0.31863671,0.386171
0.41283406,-0.353845,0.473334,0.43513413,-0.31780067,0.445165,0.4108133,-0.32260961,0.463219,0.42396412,-0.27711303,0.450212,0.43790564,-0.25144674,0.448468,0.44307201,-0.23122486,0.438586,0.44370898,-0.25751869,0.411396,0.3972371,-0.24243876,0.3809,0.37431045,-0.23517388,0.36604,0.3521782,-0.2287346,0.35253,0.45255656,-0.28091033,0.413065,0.40275271,-0.26468534,0.378105,0.3578576,-0.2584956,0.357712,0.35054208,-0.26087092,0.360248,0.45906346,-0.30259028,0.416193,0.41363705,-0.28683854,0.38268,0.37432889,-0.28234317,0.365534,0.36663781,-0.2875179,0.36852,0.46508339,-0.33344862,0.423484,0.41500524,-0.31235038,0.393423,0.38325041,-0.30761636,0.379611,0.37321538,-0.31402982,0.381085
0.41986326,-0.34463305,0.468756,0.44982734,-0.31461403,0.444902,0.42295036,-0.31646572,0.461936,0.44501043,-0.27571215,0.451763,0.46015636,-0.25556623,0.451728,0.47140557,-0.23890381,0.444912,0.46940892,-0.26212955,0.418404,0.42997264,-0.24672532,0.392533,0.41071338,-0.23941314,0.380194,0.38106371,-0.24052197,0.368977,0.47392769,-0.28421647,0.417719,0.43100824,-0.2632264,0.387002,0.38458907,-0.2592327,0.369084,0.38091551,-0.2663234,0.374041,0.47648893,-0.30449601,0.418642,0.43876515,-0.28521394,0.389874,0.39983029,-0.28384482,0.375155,0.39335595,-0.29371217,0.380966,0.47698092,-0.33301648,0.42274,0.43420204,-0.30867341,0.396478,0.40396116,-0.30539915,0.384411,0.39762202,-0.31546109,0.388001
0.41832414,-0.33859372,0.460782,0.45797536,-0.31347462,0.442,0.43105295,-0.31120566,0.456889,0.45120823,-0.27782476,0.452317,0.46395276,-0.25722486,0.453887,0.47547447,-0.24041174,0.44792,0.48333992,-0.26527658,0.422912,0.45313034,-0.25064919,0.398305,0.42500174,-0.25192569,0.386002,0.41638808,-0.26710307,0.392929,0.48682512,-0.28604701,0.420596,0.46512943,-0.26504401,0.394886,0.41985443,-0.26335806,0.379888,0.41750732,-0.27203453,0.387242,0.48827945,-0.30494748,0.419863,0.46119479,-0.2867547,0.39631,0.42160875,-0.28008006,0.38426,0.41706237,-0.28780788,0.392786,0.48698941,-0.33132851,0.421333,0.45498836,-0.30324786,0.399349,0.42530354,-0.29105518,0.389248,0.41671135,-0.29535441,0.3949
0.42541385,-0.3357715,0.457923,0.45785597,-0.31160007,0.439591,0.43318428,-0.31116378,0.455516,0.46140848,-0.28216214,0.45489,0.47782644,-0.25654721,0.453353,0.47880522,-0.23873627,0.444451,0.48419989,-0.26493808,0.422635,0.45367009,-0.24004517,0.403146,0.45050185,-0.25548014,0.419949,0.46465095,-0.27309368,0.436796,0.48649914,-0.28378978,0.4187,0.45830506,-0.25342717,0.393803,0.41553845,-0.25276963,0.379281,0.41476442,-0.26902203,0.386705,0.48700803,-0.30118358,0.416606,0.45637413,-0.27581952,0.39437,0.42037348,-0.27803452,0.382994,0.41800818,-0.28945134,0.391755,0.48799586,-0.32426337,0.416385,0.45167167,-0.2922764,0.395443,0.42175126,-0.28723677,0.385821,0.41473784,-0.29506201,0.39164
0.44178878,-0.34312522,0.465628,0.47312573,-0.31512579,0.443179,0.44756097,-0.3154919,0.458483,0.4658112,-0.27839998,0.447686,0.4764974,-0.25539308,0.449286,0.49292288,-0.24132115,0.44423,0.48793664,-0.26079578,0.417369,0.45678434,-0.24295575,0.391971,0.47443037,-0.25162903,0.407861,0.48056482,-0.27001976,0.424232,0.49557681,-0.28245263,0.417598,0.45831867,-0.25994148,0.387975,0.43479945,-0.24685092,0.370696,0.4216136,-0.25424171,0.376358,0.50088256,-0.30260832,0.419185,0.467166,-0.28122067,0.39112,0.42669066,-0.275322,0.376761,0.41471287,-0.2845122,0.383231,0.50494478,-0.33140836,0.423905,0.46417213,-0.3069873,0.398268,0.46269659,-0.32622334,0.411232,0.47062273,-0.34446539,0.425282
0.45016932,-0.34084701,0.465876,0.48714258,-0.31264465,0.448615,0.46056375,-0.31406738,0.462056,0.48231612,-0.27471885,0.452119,0.49585942,-0.25894112,0.458068,0.51506325,-0.24758475,0.458387,0.51173321,-0.26803567,0.430781,0.48908745,-0.25183934,0.410711,0.51050748,-0.26029186,0.4281,0.52897061,-0.26705396,0.442967,0.5158025,-0.28824933,0.428944,0.49472536,-0.26360891,0.404554,0.48278405,-0.24887894,0.390325,0.47522691,-0.25475055,0.398379,0.51778745,-0.30668026,0.428509,0.49345087,-0.2864631,0.406021,0.45850092,-0.28356747,0.394515,0.45043062,-0.29654489,0.403737,0.51714872,-0.33237857,0.430148,0.48871078,-0.30754207,0.409078,0.48855409,-0.3281254,0.423412,0.49289669,-0.34691396,0.436385
0.46025907,-0.33804362,0.467328,0.49512481,-0.31468663,0.453121,0.47175836,-0.31038084,0.464981,0.49574721,-0.27667454,0.456881,0.51001949,-0.26213968,0.464965,0.53002341,-0.25180394,0.465857,0.5253167,-0.27324782,0.439402,0.51058648,-0.25636036,0.422169,0.53595277,-0.26366357,0.44025,0.55661833,-0.26828676,0.454274,0.52895944,-0.29270516,0.436932,0.5158206,-0.26758258,0.415587,0.50877946,-0.25239887,0.403137,0.50440272,-0.25803474,0.412449,0.53049108,-0.31032004,0.435786,0.51398643,-0.28983643,0.416353,0.4819586,-0.28739985,0.406411,0.47425553,-0.30201778,0.417031,0.52910559,-0.33466138,0.436187,0.51139488,-0.30839326,0.417664,0.5122481,-0.32877574,0.432644,0.5137505,-0.34758844,0.444971
0.55647528,-0.39531988,0.518099,0.55337452,-0.35028323,0.485488,0.55102808,-0.36782618,0.513381,0.54302722,-0.32594614,0.498648,0.53701682,-0.28875031,0.486166,0.53885906,-0.26050409,0.475114,0.54349656,-0.2835073,0.454801,0.5158167,-0.25415274,0.420397,0.50219314,-0.23907349,0.403195,0.49098661,-0.22583004,0.388433,0.54870915,-0.29967463,0.448325,0.51906476,-0.25800996,0.411917,0.50183338,-0.23363246,0.390678,0.49003245,-0.236206,0.389212,0.55357107,-0.31532373,0.445032,0.51121477,-0.2871676,0.407711,0.47280613,-0.2792877,0.388617,0.45053011,-0.28544345,0.386505,0.56010265,-0.34000773,0.445156,0.49538341,-0.32248274,0.416217,0.49524377,-0.33682167,0.423233,0.50263033,-0.34691817,0.429423
0.57098833,-0.40089741,0.532851,0.57529846,-0.35480928,0.500555,0.56175123,-0.3696489,0.522851,0.54701395,-0.31837776,0.499933,0.53534873,-0.27761753,0.481703,0.53419092,-0.25315657,0.469818,0.56844517,-0.28900475,0.463759,0.54006565,-0.2607235,0.431131,0.53396614,-0.25022914,0.421098,0.52869088,-0.24050413,0.411977,0.57962544,-0.30957975,0.463752,0.52189399,-0.29721683,0.425495,0.48829609,-0.28989724,0.403177,0.47132933,-0.29978117,0.403108,0.5887562,-0.32918179,0.465759,0.54029893,-0.31558622,0.429676,0.4988593,-0.30889697,0.411215,0.47861205,-0.31037172,0.411554,0.59946052,-0.35815304,0.472219,0.54076152,-0.34137446,0.440213,0.53455028,-0.35631094,0.449069,0.54360663,-0.3733128,0.463768
0.571285,-0.39825198,0.533575,0.57672023,-0.35351458,0.501909,0.56207255,-0.36693521,0.523108,0.54667527,-0.31864225,0.499427,0.5339872,-0.2783217,0.480065,0.52989473,-0.2540849,0.467551,0.56954715,-0.28752996,0.465033,0.54080913,-0.26111042,0.432524,0.53549801,-0.25203062,0.423329,0.53095262,-0.2436137,0.414969,0.58184217,-0.30843412,0.465824,0.52604288,-0.29698688,0.428061,0.49353991,-0.29023462,0.406032,0.47727468,-0.30073896,0.406425,0.59186215,-0.32832729,0.468448,0.54509526,-0.31545867,0.432654,0.50424605,-0.30933132,0.41434,0.48425222,-0.31137812,0.415126,0.60355446,-0.35766972,0.47557,0.54592947,-0.34162384,0.443629,0.54022005,-0.35705775,0.452845,0.54989879,-0.37278923,0.46766
0.57407068,-0.39733974,0.535844,0.58345548,-0.35240599,0.50693,0.56578259,-0.36288469,0.525678,0.5585525,-0.31775319,0.503445,0.55104842,-0.27738835,0.487375,0.5531145,-0.25457808,0.479837,0.57978429,-0.28507204,0.472527,0.55891491,-0.25656033,0.441503,0.55953588,-0.24694031,0.434387,0.56061872,-0.23789974,0.427918,0.59321474,-0.30591213,0.47398,0.54309067,-0.2982576,0.438368,0.5122187,-0.29459785,0.417594,0.49654946,-0.30795175,0.41969,0.60396169,-0.32566317,0.476977,0.56239935,-0.31548181,0.442839,0.52437633,-0.31211745,0.425373,0.50334367,-0.31825977,0.427882,0.61613676,-0.35467467,0.484204,0.56440423,-0.34200371,0.453737,0.5612875,-0.35984422,0.464265,0.56733598,-0.37781397,0.479071
0.57326803,-0.39446745,0.53477,0.58763959,-0.34938182,0.509739,0.56891343,-0.36276827,0.528258,0.56672425,-0.32050903,0.512002,0.56190283,-0.27976997,0.501968,0.5649858,-0.25871923,0.496476,0.58921299,-0.28408719,0.482709,0.57089764,-0.26012796,0.45415,0.57459665,-0.25354322,0.449683,0.58114922,-0.24751639,0.445623,0.60000097,-0.30302879,0.481214,0.55043993,-0.29140135,0.449619,0.52013537,-0.2855202,0.431188,0.50860799,-0.29944249,0.435502,0.60842474,-0.3212802,0.481545,0.56727313,-0.30584967,0.452239,0.5313267,-0.30100949,0.437246,0.51616198,-0.30926846,0.442452,0.61743954,-0.34858863,0.485079,0.57260076,-0.32447222,0.458341,0.57817109,-0.3295471,0.469633,0.57656211,-0.33627721,0.483922
0.57360798,-0.38939513,0.534896,0.58938277,-0.34581042,0.511428,0.56887693,-0.36067733,0.527978,0.56633269,-0.31686893,0.512295,0.56196416,-0.27842975,0.501051,0.56493815,-0.25794371,0.493595,0.59151309,-0.28351356,0.485109,0.57406106,-0.2612035,0.457876,0.5775432,-0.25515239,0.453579,0.58128852,-0.24941641,0.449673,0.60375217,-0.30299235,0.484685,0.56475817,-0.28564846,0.454264,0.5400989,-0.27836579,0.436518,0.53053416,-0.29297365,0.441675,0.61328575,-0.32168012,0.485799,0.57805994,-0.30446678,0.457215,0.54316558,-0.30137812,0.442591,0.52624122,-0.31244834,0.448589,0.62342442,-0.34945767,0.490079,0.57964348,-0.32668127,0.463981,0.57505101,-0.33244132,0.4766,0.5795154,-0.34262892,0.490679
0.5768758,-0.38990147,0.537488,0.59347374,-0.34682552,0.515028,0.57260899,-0.36146384,0.531242,0.57381487,-0.31794122,0.517744,0.57129893,-0.28023583,0.507444,0.57241018,-0.25919463,0.500985,0.59616019,-0.28324966,0.49029,0.5785817,-0.26135065,0.463924,0.58083771,-0.25495426,0.459214,0.58577934,-0.25007402,0.454932,0.60833817,-0.30215483,0.489434,0.5693931,-0.28784652,0.460014,0.5444279,-0.28110291,0.442853,0.53529175,-0.29631935,0.448513,0.6177846,-0.3203516,0.490129,0.58809076,-0.30111008,0.462625,0.55556172,-0.29785971,0.448553,0.53932902,-0.31267633,0.455131,0.6277607,-0.34751234,0.493779,0.58501659,-0.32568699,0.468558,0.5810677,-0.33341129,0.481489,0.58384871,-0.34366083,0.495379
0.57830356,-0.38895049,0.538449,0.59744369,-0.34520964,0.518774,0.57504946,-0.35937719,0.533254,0.5775812,-0.31670057,0.52167,0.57243831,-0.27652029,0.512316,0.57548362,-0.2576297,0.505732,0.60063733,-0.27958634,0.497435,0.59290466,-0.25480345,0.47325,0.6064071,-0.24905893,0.474335,0.61967302,-0.24332097,0.475322,0.61359736,-0.29761237,0.496353,0.58006185,-0.285034,0.469541,0.55836311,-0.27945035,0.453901,0.55266846,-0.30095809,0.460891,0.62359526,-0.31505386,0.496689,0.60122822,-0.29876736,0.471688,0.57204971,-0.29698494,0.458897,0.55787914,-0.31397272,0.466912,0.63406601,-0.3412678,0.499557,0.59642636,-0.32071986,0.476415,0.59445809,-0.32951489,0.490163,0.59351931,-0.34366356,0.503639
0.58360948,-0.38924428,0.541483,0.60058995,-0.34616234,0.520689,0.57967419,-0.35983644,0.53633,0.57921521,-0.32137446,0.525511,0.57291783,-0.28457998,0.512033,0.57446487,-0.25983055,0.505527,0.60055047,-0.2805487,0.498542,0.59182602,-0.25394262,0.47359,0.60094873,-0.24568038,0.471319,0.61004926,-0.23769323,0.469254,0.61420431,-0.29757157,0.496992,0.57791925,-0.28438489,0.469245,0.55467196,-0.27859286,0.453059,0.5482985,-0.29962642,0.459512,0.62500309,-0.31435627,0.497014,0.59290308,-0.30036442,0.471303,0.55403495,-0.30251757,0.458149,0.5511871,-0.311919,0.46564,0.63687801,-0.34011252,0.499644,0.5953665,-0.32056322,0.475888,0.59280161,-0.32958652,0.489286,0.59304359,-0.3423926,0.502843
0.58008334,-0.3878241,0.538209,0.59958948,-0.3450132,0.520393,0.57899769,-0.36235997,0.536435,0.5755435,-0.31929209,0.529809,0.56849655,-0.28459788,0.519492,0.56798587,-0.25985714,0.511324,0.59837475,-0.28036938,0.504594,0.59196007,-0.25200566,0.482844,0.60045144,-0.24194086,0.480955,0.60887082,-0.23220188,0.479237,0.61017422,-0.29427317,0.50009,0.57698823,-0.28006254,0.475826,0.55516355,-0.27441763,0.461671,0.55118275,-0.29262888,0.469261,0.61937849,-0.30846104,0.497496,0.6055216,-0.28824845,0.476046,0.57058283,-0.29227925,0.465071,0.56511512,-0.30647726,0.474063,0.62926393,-0.33105294,0.496608,0.60205775,-0.30506743,0.476306,0.61286358,-0.3306942,0.490152,0.6266142,-0.35018231,0.502667
0.58598848,-0.3864637,0.542175,0.59848588,-0.33230001,0.52282,0.58369576,-0.36078981,0.540443,0.57711388,-0.31078636,0.532808,0.57082034,-0.27642487,0.52354,0.56973063,-0.25135454,0.515024,0.59795344,-0.27056597,0.505892,0.58696387,-0.24289463,0.482921,0.59140145,-0.23243653,0.479166,0.5959728,-0.22241886,0.475753,0.60924206,-0.283915,0.500765,0.57444121,-0.26894694,0.475243,0.54990563,-0.26504479,0.460356,0.54666206,-0.28745635,0.467147,0.61813916,-0.29768278,0.497754,0.59581385,-0.28028222,0.47535,0.5598211,-0.28496648,0.463888,0.55934709,-0.30143314,0.472091,0.62792787,-0.319877,0.496557,0.5994401,-0.2933883,0.475439,0.60956668,-0.31723765,0.488733,0.62198864,-0.33938615,0.50132
0.58956244,-0.38827415,0.547775,0.59299676,-0.33329833,0.530374,0.58571916,-0.35997226,0.545378,0.56562914,-0.31106426,0.535352,0.5566854,-0.27665233,0.52379,0.55415014,-0.25132663,0.514156,0.59284895,-0.27210578,0.514144,0.59139341,-0.24288761,0.491938,0.60581902,-0.23354238,0.492736,0.6198882,-0.22435674,0.493462,0.60604965,-0.28607865,0.510544,0.58318725,-0.27461194,0.486434,0.56113159,-0.27202619,0.47237,0.55974097,-0.29411861,0.480247,0.61636028,-0.30025777,0.508668,0.60545049,-0.28194027,0.487049,0.57364355,-0.28970581,0.475988,0.56929636,-0.30357939,0.485196,0.62756681,-0.32275405,0.508591,0.60450583,-0.29827445,0.488179,0.6166758,-0.32243024,0.502283,0.6335303,-0.34628603,0.514936
0.5916799,-0.38970074,0.5521,0.59563344,-0.33658676,0.535826,0.58281675,-0.35784734,0.551816,0.56445964,-0.31376444,0.544098,0.55627272,-0.27796585,0.536376,0.55512423,-0.25360913,0.529861,0.59304119,-0.27636936,0.523001,0.59413636,-0.24233291,0.502158,0.60469966,-0.22934834,0.500322,0.61448436,-0.21721282,0.498654,0.60472615,-0.28827962,0.517281,0.58239142,-0.26878506,0.494676,0.56208061,-0.26459922,0.48149,0.55737114,-0.2826338,0.489551,0.61381631,-0.30076865,0.513591,0.60734379,-0.27654176,0.493802,0.57708598,-0.28172577,0.483678,0.57180192,-0.29834829,0.493196,0.62367112,-0.32130532,0.511191,0.58955339,-0.30929876,0.492603,0.59375248,-0.33207069,0.506591,0.60428454,-0.34884759,0.518557
0.59474056,-0.39053462,0.555911,0.59177044,-0.33820683,0.538618,0.57803647,-0.35855983,0.555797,0.56838419,-0.31921461,0.549609,0.56266967,-0.28438336,0.544578,0.56213762,-0.26011066,0.538818,0.58494801,-0.27680398,0.525215,0.58140251,-0.24267973,0.503579,0.58667552,-0.22781357,0.49844,0.59149329,-0.21412602,0.493768,0.59693641,-0.28748657,0.518911,0.57230143,-0.26686559,0.495324,0.54089242,-0.2810176,0.481565,0.54336995,-0.29507242,0.489012,0.60644491,-0.2990829,0.514804,0.59649984,-0.27658948,0.494357,0.56717064,-0.28275633,0.483895,0.56172769,-0.29962892,0.492835,0.61715571,-0.31875278,0.512031,0.59339405,-0.29236676,0.492986,0.60449071,-0.31583812,0.506568,0.61638718,-0.33696294,0.518536
0.58521478,-0.38617585,0.561023,0.58075894,-0.33945854,0.54387,0.5750088,-0.36262074,0.561066,0.55780068,-0.32190745,0.553828,0.55288542,-0.2872266,0.549982,0.55344916,-0.2638466,0.545769,0.57705052,-0.27800596,0.530765,0.57425501,-0.24216306,0.509014,0.58134811,-0.22709249,0.505259,0.58787167,-0.2131367,0.501846,0.58916103,-0.28823029,0.524322,0.56673425,-0.26525854,0.500925,0.53646863,-0.27960753,0.487276,0.53849766,-0.29463637,0.494764,0.5987853,-0.29945626,0.520093,0.59058959,-0.27457749,0.499803,0.56254417,-0.28041782,0.489422,0.55693414,-0.29813736,0.498397,0.60969895,-0.31872627,0.517155,0.58859469,-0.28876708,0.498283,0.60023083,-0.31095602,0.511865,0.61145426,-0.33287139,0.523773
0.56903021,-0.38800185,0.562565,0.57491603,-0.33957114,0.542434,0.56093576,-0.36391815,0.562112,0.54999319,-0.32446107,0.555465,0.54003205,-0.28714509,0.546619,0.53911895,-0.26397151,0.5417,0.56464212,-0.27880474,0.526447,0.5617119,-0.23969754,0.501798,0.56216438,-0.22215985,0.492694,0.56260485,-0.20608148,0.484416,0.57564106,-0.28832105,0.519492,0.54954081,-0.26006749,0.493816,0.51942492,-0.27152362,0.478838,0.51880737,-0.28914206,0.484894,0.58460964,-0.29903337,0.515027,0.5735175,-0.24796121,0.493115,0.55984462,-0.23991984,0.481905,0.56196779,-0.2593147,0.489501,0.59526167,-0.31788613,0.512178,0.57149622,-0.28391555,0.491434,0.58156642,-0.30496306,0.504005,0.59776448,-0.32782005,0.516181
0.57989552,-0.39019861,0.566388,0.57066922,-0.33928379,0.544184,0.5615348,-0.36523526,0.564871,0.54837654,-0.32522018,0.556823,0.52983855,-0.28776455,0.545763,0.52463139,-0.26256319,0.538614,0.5548012,-0.27227084,0.525328,0.54366027,-0.23543903,0.49937,0.54123502,-0.21802703,0.489104,0.53921435,-0.20193489,0.479772,0.56760465,-0.28091073,0.518881,0.53644536,-0.2566041,0.489973,0.50650168,-0.26925561,0.47311,0.50873405,-0.28503387,0.477913,0.57835532,-0.29106922,0.514962,0.56140508,-0.23973809,0.490976,0.54624889,-0.23423364,0.478705,0.54839366,-0.25490804,0.485261,0.59179486,-0.30958252,0.513031,0.56395144,-0.27911235,0.490572,0.57718631,-0.30271882,0.502616,0.58971082,-0.32518517,0.51519
0.57051474,-0.39178302,0.569115,0.55914312,-0.33938424,0.548235,0.55742219,-0.36829736,0.568789,0.53538546,-0.32994283,0.562198,0.51949512,-0.29321159,0.552756,0.51431152,-0.26869688,0.546815,0.54437169,-0.27595716,0.531827,0.5327601,-0.23743693,0.506965,0.5308225,-0.21953643,0.498064,0.52922642,-0.20295669,0.489972,0.55697158,-0.28277548,0.524442,0.5258589,-0.25674173,0.496191,0.49837285,-0.26994196,0.479711,0.49928869,-0.28684049,0.484731,0.56758323,-0.29144186,0.519668,0.54998892,-0.23999862,0.49741,0.53582751,-0.23396103,0.486022,0.53950234,-0.25463856,0.493146,0.58095677,-0.30818192,0.516543,0.55337925,-0.27722086,0.495506,0.56459297,-0.29910351,0.507693,0.57815777,-0.32122147,0.519822
0.55379053,-0.39190735,0.569781,0.54828844,-0.3394673,0.548999,0.54303543,-0.36919691,0.569912,0.5238767,-0.32908754,0.563111,0.50799434,-0.29201062,0.553784,0.50351739,-0.26813958,0.548406,0.5357486,-0.27657377,0.533214,0.52459465,-0.23450196,0.51168,0.52569331,-0.21605591,0.507311,0.52684883,-0.19882387,0.503339,0.54760814,-0.28337093,0.525315,0.51711173,-0.25798334,0.497925,0.48997149,-0.27098349,0.481947,0.49082764,-0.28796854,0.487038,0.55751551,-0.29197645,0.520113,0.5411982,-0.24104135,0.498282,0.52729077,-0.23473421,0.487113,0.53035763,-0.25520396,0.494188,0.56987539,-0.30857037,0.516461,0.54095628,-0.28216948,0.495775,0.55186033,-0.30522238,0.50781,0.5658264,-0.32634752,0.519756
0.54209236,-0.39183048,0.570142,0.53761106,-0.33947349,0.549009,0.53154056,-0.36889326,0.570105,0.51288569,-0.32908871,0.563113,0.49696069,-0.29191306,0.553599,0.49259777,-0.2680017,0.548124,0.52505226,-0.27633517,0.532754,0.51375905,-0.23425723,0.511146,0.51503141,-0.21597159,0.507113,0.5163436,-0.19886613,0.503446,0.53695886,-0.28316163,0.524927,0.50568963,-0.25751652,0.497024,0.47846356,-0.27030933,0.480748,0.47924062,-0.28713782,0.485633,0.54690806,-0.29180411,0.519806,0.52971016,-0.24194979,0.497633,0.51500215,-0.23756692,0.486288,0.51751594,-0.2589883,0.493187,0.55932103,-0.3084706,0.516294,0.5299268,-0.28191336,0.495325,0.54033136,-0.30489721,0.507269,0.55424,-0.32604864,0.51928
0.52465391,-0.38737063,0.564567,0.52365518,-0.33776733,0.547503,0.51695174,-0.3663165,0.567077,0.49553363,-0.32747788,0.562279,0.48140259,-0.29381274,0.557723,0.47982551,-0.27232542,0.555989,0.51848633,-0.2783707,0.537432,0.5069346,-0.23586079,0.519232,0.50491092,-0.21600625,0.513916,0.50313483,-0.19760483,0.509083,0.52859924,-0.28452497,0.528058,0.51433969,-0.23807719,0.505127,0.49094611,-0.24131303,0.491751,0.49000721,-0.26187438,0.49835,0.53671002,-0.29243974,0.521411,0.5314865,-0.24443945,0.499311,0.51157358,-0.24504212,0.488004,0.50751065,-0.26577678,0.49532,0.54617798,-0.30784195,0.515555,0.52649409,-0.26726795,0.498344,0.53643211,-0.27760987,0.510944,0.54599988,-0.29900352,0.521888
0.52401758,-0.38860835,0.566257,0.52444567,-0.33868576,0.548549,0.51587102,-0.3672146,0.568278,0.49418455,-0.32714536,0.560987,0.48171551,-0.29460099,0.558392,0.4809056,-0.27350979,0.557614,0.51792696,-0.2786619,0.537396,0.50191523,-0.23768106,0.520646,0.4931101,-0.21865548,0.512271,0.48444384,-0.20245269,0.504658,0.52843486,-0.28484529,0.52837,0.51438844,-0.23853867,0.505638,0.49098107,-0.24149062,0.492378,0.48993216,-0.26203988,0.499036,0.53695126,-0.29282932,0.522049,0.53093527,-0.24492777,0.499075,0.51036205,-0.24451557,0.487321,0.50594734,-0.26499645,0.494377,0.54705398,-0.30841184,0.516666,0.52671442,-0.26739395,0.49879,0.53646878,-0.27763372,0.511349,0.54613008,-0.29912831,0.52251
0.52484091,-0.39243416,0.571072,0.52455356,-0.3484328,0.561715,0.50949312,-0.3693026,0.570249,0.4803882,-0.33091203,0.560627,0.46165504,-0.29632786,0.552212,0.45638247,-0.27291659,0.548451,0.51739844,-0.28880189,0.553546,0.50981337,-0.2486098,0.539829,0.51148594,-0.22862538,0.534998,0.50789645,-0.21168969,0.530606,0.53560305,-0.29833337,0.551051,0.53382379,-0.26082293,0.533994,0.52091265,-0.27066888,0.524043,0.52450791,-0.29489234,0.535095,0.55003315,-0.30888438,0.549582,0.53861421,-0.30298208,0.531652,0.52474631,-0.31991736,0.522479,0.53210576,-0.33326105,0.534181,0.56636548,-0.32711705,0.548988,0.55423924,-0.29654467,0.534205,0.54924047,-0.29115775,0.527413,0.56018961,-0.30781867,0.536208
0.52145964,-0.39655512,0.576918,0.50987201,-0.34513909,0.558913,0.50074591,-0.37470735,0.575968,0.47231462,-0.33333181,0.565489,0.4502628,-0.29755278,0.555111,0.44325509,-0.27314615,0.549359,0.49537502,-0.28231007,0.54396,0.48229444,-0.2390667,0.525881,0.4808885,-0.21965385,0.522405,0.47965281,-0.20158184,0.519245,0.51058845,-0.28951431,0.538395,0.49890309,-0.24874608,0.513203,0.48115351,-0.25623386,0.498508,0.48155913,-0.27749944,0.505569,0.52300196,-0.29832784,0.53494,0.50083201,-0.28863581,0.507608,0.51445978,-0.32107263,0.525386,0.52864456,-0.33852347,0.543525,0.53802867,-0.31491282,0.53304,0.51905414,-0.28368774,0.51311,0.51034947,-0.26909692,0.503952,0.51760412,-0.27898238,0.50982
0.51109691,-0.39874767,0.579002,0.50123103,-0.34503051,0.559892,0.49186092,-0.3757045,0.577572,0.46524865,-0.33586946,0.567533,0.44247652,-0.29916036,0.554604,0.43403475,-0.2750676,0.548952,0.48270013,-0.28184129,0.543515,0.46688839,-0.23902132,0.523933,0.46613859,-0.22088907,0.522152,0.46548453,-0.20385581,0.520534,0.49850146,-0.28803175,0.538114,0.48342153,-0.24600937,0.51075,0.46629428,-0.25064624,0.494787,0.46693309,-0.27163647,0.501064,0.51159291,-0.29608271,0.534864,0.49627459,-0.26840301,0.506595,0.50850226,-0.28610723,0.524055,0.51277718,-0.31425245,0.542445,0.52784954,-0.31189689,0.533348,0.50643514,-0.28797494,0.512539,0.4965816,-0.27679082,0.502977,0.50341044,-0.28977919,0.508438
0.50212075,-0.39949109,0.578278,0.49293655,-0.34829333,0.559081,0.48688346,-0.37657563,0.576118,0.45502638,-0.33930005,0.564395,0.43069985,-0.30211022,0.550126,0.42141604,-0.27802571,0.544383,0.47169856,-0.28450731,0.541758,0.45564342,-0.24142801,0.521771,0.45509968,-0.22347688,0.52033,0.45462968,-0.20659144,0.519021,0.48856086,-0.29047101,0.537204,0.47423474,-0.24813174,0.509812,0.4587743,-0.25280147,0.493833,0.46316231,-0.27263773,0.500278,0.50260249,-0.29837208,0.534655,0.48916311,-0.27050413,0.506643,0.50269854,-0.28866056,0.524359,0.51030509,-0.31589564,0.542747,0.5201846,-0.31408012,0.533994,0.49968185,-0.28999706,0.512714,0.49026568,-0.27874458,0.502937,0.50067422,-0.29076412,0.508411
0.49366141,-0.40053281,0.577447,0.48300883,-0.34785211,0.558388,0.47378117,-0.37961507,0.575177,0.44508101,-0.33899973,0.563832,0.42103014,-0.30191098,0.549686,0.41169493,-0.27769264,0.543697,0.46213028,-0.28410826,0.54104,0.44622707,-0.24112043,0.521081,0.44582604,-0.22331826,0.519903,0.44548197,-0.20655049,0.518832,0.47916567,-0.29016273,0.536669,0.46510216,-0.24799153,0.509421,0.44977295,-0.25274205,0.493527,0.45110797,-0.27405587,0.500078,0.49332351,-0.29813341,0.534263,0.48013038,-0.2704711,0.506451,0.49324539,-0.28872991,0.524271,0.49773242,-0.31741454,0.54262,0.51098627,-0.31391222,0.533756,0.49026272,-0.29573571,0.512489,0.48073456,-0.28727838,0.502718,0.48819868,-0.30244619,0.508251
0.4991094,-0.40251604,0.580373,0.48494418,-0.34931923,0.561234,0.47787813,-0.38050954,0.576697,0.44340122,-0.34588295,0.564323,0.41374544,-0.31142628,0.551092,0.4022905,-0.28871557,0.546343,0.45088973,-0.28609977,0.542133,0.43486022,-0.24122166,0.519164,0.43638661,-0.22376246,0.519037,0.4416965,-0.20692036,0.518921,0.47065502,-0.28897907,0.539423,0.45780952,-0.24999431,0.512254,0.44435775,-0.2551704,0.496405,0.45013635,-0.27636285,0.50324,0.48755921,-0.2944749,0.538387,0.47768544,-0.25937807,0.511207,0.49037303,-0.28528217,0.529424,0.49798108,-0.3136973,0.547677,0.50957687,-0.30748794,0.539538,0.4834019,-0.29720754,0.517465,0.4706493,-0.29332272,0.507323,0.46592758,-0.30795612,0.512847
0.4964325,-0.40147225,0.577978,0.48387176,-0.34904812,0.560723,0.47607201,-0.38088266,0.575567,0.44440038,-0.34676514,0.565904,0.41549281,-0.31221399,0.553154,0.40433531,-0.28941023,0.54839,0.45183206,-0.28775065,0.544588,0.43314575,-0.24363031,0.525375,0.43047565,-0.22504607,0.52294,0.42839994,-0.2086982,0.520726,0.47104067,-0.29004036,0.54106,0.45926125,-0.25160725,0.515597,0.44666351,-0.25726564,0.500743,0.4493496,-0.27961721,0.50829,0.48735794,-0.29498592,0.539233,0.47244354,-0.28305901,0.513419,0.49290054,-0.31601075,0.532054,0.50809279,-0.33958106,0.549922,0.50843162,-0.30718805,0.539198,0.48544127,-0.29574059,0.518861,0.46607066,-0.29663472,0.509517,0.46125395,-0.30984684,0.515735
0.4818706,-0.39305737,0.565455,0.47888033,-0.34617649,0.55985,0.46322228,-0.37478853,0.564922,0.43194526,-0.33737573,0.559658,0.4099734,-0.3070464,0.554376,0.40526622,-0.28929995,0.552085,0.45524801,-0.28900944,0.554909,0.44598364,-0.25071787,0.543437,0.44872274,-0.23459149,0.547817,0.4513603,-0.21955134,0.551798,0.47663606,-0.29256005,0.553462,0.46745711,-0.26028787,0.540342,0.45803396,-0.27111374,0.532689,0.46608075,-0.29746445,0.545171,0.49436144,-0.29825919,0.552621,0.47917568,-0.25530061,0.540513,0.47410736,-0.24785466,0.534318,0.48956733,-0.27078667,0.54818,0.51595906,-0.31079765,0.552313,0.50268834,-0.2929354,0.540076,0.48880494,-0.30391859,0.534454,0.49087166,-0.32585499,0.544266
0.47973407,-0.39427666,0.567644,0.47354047,-0.34290365,0.561073,0.45742259,-0.37294118,0.567328,0.42253415,-0.33439675,0.559639,0.39876278,-0.30482847,0.554088,0.39052437,-0.2857062,0.553581,0.4509131,-0.28592204,0.555654,0.43632986,-0.24925196,0.54431,0.43449551,-0.23326397,0.545632,0.43268855,-0.21793374,0.546833,0.47163392,-0.28972646,0.553586,0.46079361,-0.25805587,0.539628,0.450548,-0.26901162,0.531487,0.46152159,-0.29588637,0.543641,0.48875675,-0.29564894,0.552294,0.47514824,-0.26429542,0.53918,0.47161233,-0.27745603,0.532471,0.48593163,-0.30566783,0.545919,0.5095458,-0.30849154,0.551564,0.49469404,-0.2897714,0.538805,0.48106737,-0.30083166,0.532943,0.48801349,-0.32379808,0.542524
