sluyters/QuantumLeap/backend/src/datasets/gesture/HandGestureDataset_SHREC2017_csv/Gesture7/finger_1/subject_26_essai_1_skeletons_world.csv
Wrist_x,Wrist_y,Wrist_z,Palm_x,Palm_y,Palm_z,thumb_base_x,thumb_base_y,thumb_base_z,thumb_first_joint_x,thumb_first_joint_y,thumb_first_joint_z,thumb_second_joint_x,thumb_second_joint_y,thumb_second_joint_z,thumb_tip_x,thumb_tip_y,thumb_tip_z,index_base_x,index_base_y,index_base_z,index_first_joint_x,index_first_joint_y,index_first_joint_z,index_second_joint_x,index_second_joint_y,index_second_joint_z,index_tip_x,index_tip_y,index_tip_z,middle_base_x,middle_base_y,middle_base_z,middle_first_joint_x,middle_first_joint_y,middle_first_joint_z,middle_second_joint_x,middle_second_joint_y,middle_second_joint_z,middle_tip_x,middle_tip_y,middle_tip_z,ring_base_x,ring_base_y,ring_base_z,ring_first_joint_x,ring_first_joint_y,ring_first_joint_z,ring_second_joint_x,ring_second_joint_y,ring_second_joint_z,ring_tip_x,ring_tip_y,ring_tip_z,pinky_base_x,pinky_base_y,pinky_base_z,pinky_first_joint_x,pinky_first_joint_y,pinky_first_joint_z,pinky_second_joint_x,pinky_second_joint_y,pinky_second_joint_z,pinky_tip_x,pinky_tip_y,pinky_tip_z,
0.230802998,-0.383209613,0.4698,0.224135526,-0.329546553,0.450894,0.229060441,-0.371816721,0.477631,0.201600026,-0.352560614,0.479704,0.170249997,-0.338584474,0.470241,0.154700517,-0.330334986,0.463661,0.217483781,-0.281274372,0.448257,0.17727313,-0.245324805,0.427398,0.156884645,-0.227134773,0.416968,0.138165236,-0.21045822,0.407486,0.217676955,-0.280029291,0.432889,0.157797313,-0.273853271,0.408836,0.166770349,-0.30966251,0.425694,0.181964491,-0.33402344,0.439686,0.21872985,-0.284746246,0.422271,0.166793649,-0.286144062,0.405775,0.170042194,-0.313255359,0.419295,0.191554545,-0.329008652,0.431586,0.221504979,-0.300597157,0.4135,0.173921136,-0.292760638,0.397301,0.177525557,-0.309984229,0.407367,0.19351625,-0.322408793,0.416971
0.230822602,-0.383162448,0.470149,0.224213825,-0.329522281,0.451209,0.229036231,-0.371747611,0.477971,0.20156158,-0.3524671,0.47999,0.170195322,-0.338447912,0.470443,0.154693261,-0.330452952,0.463828,0.217542226,-0.28122136,0.448536,0.177346772,-0.245230557,0.427476,0.156966892,-0.227020782,0.416946,0.138255689,-0.21032643,0.407373,0.217807751,-0.280020132,0.43317,0.157951498,-0.273914023,0.409081,0.166989855,-0.309652235,0.425923,0.182176742,-0.333973874,0.439923,0.218914049,-0.284769992,0.422557,0.166943917,-0.285881012,0.40603,0.170134915,-0.312958836,0.419537,0.191659725,-0.328632127,0.431816,0.2217411,-0.300652063,0.413799,0.174085337,-0.292605132,0.397575,0.176607622,-0.309435621,0.40763,0.191947378,-0.322069914,0.417239
0.230785482,-0.383195475,0.47053,0.22414815,-0.329528538,0.451435,0.228869312,-0.371676091,0.478254,0.201311433,-0.352277685,0.480045,0.169878013,-0.338110193,0.470221,0.154405145,-0.330316062,0.463469,0.217290817,-0.281073069,0.44853,0.177214791,-0.244988646,0.427205,0.15689619,-0.226732245,0.416543,0.138241214,-0.209995246,0.40685,0.217713895,-0.280001156,0.43325,0.157860307,-0.273919404,0.408969,0.167022234,-0.309546393,0.425817,0.182210469,-0.333842103,0.439889,0.218955539,-0.284861917,0.422725,0.168547491,-0.281562264,0.406006,0.168549663,-0.30875561,0.419517,0.191072528,-0.327962499,0.4318,0.221948896,-0.300879037,0.414098,0.174200245,-0.292671737,0.397712,0.176729518,-0.30970478,0.407767,0.191867858,-0.322428695,0.417433
0.230963429,-0.383478164,0.470893,0.224275347,-0.329724248,0.45164,0.228933426,-0.371869106,0.478528,0.20155327,-0.352240083,0.480194,0.170360138,-0.337998149,0.470455,0.155100773,-0.330354651,0.463646,0.217238431,-0.281110415,0.448511,0.177223264,-0.244918414,0.426988,0.156940182,-0.226611238,0.416227,0.138320784,-0.209829946,0.406444,0.217790464,-0.280124911,0.433304,0.157931121,-0.27418234,0.408833,0.167269331,-0.309708754,0.425671,0.182533303,-0.333960076,0.439807,0.21914574,-0.285064896,0.422855,0.168431774,-0.281062962,0.40595,0.167899387,-0.308253397,0.419452,0.190320824,-0.327638952,0.431726,0.222285977,-0.301191608,0.414347,0.174494907,-0.293008578,0.397805,0.176788565,-0.309945568,0.40785,0.191672301,-0.322765703,0.417566
0.231123416,-0.383861055,0.47131,0.22438021,-0.329985857,0.451864,0.228925905,-0.372110198,0.478807,0.201715686,-0.352253701,0.480325,0.170799488,-0.33800771,0.470731,0.155772662,-0.330531282,0.463858,0.217093394,-0.281133251,0.448427,0.17712919,-0.244813915,0.426646,0.156876303,-0.226445547,0.415755,0.138287583,-0.20961061,0.405854,0.217840587,-0.280284026,0.433345,0.157945728,-0.274472256,0.408627,0.167462748,-0.309923154,0.425489,0.182810106,-0.33414981,0.439722,0.219367741,-0.285351307,0.423021,0.167136901,-0.284350977,0.405864,0.169147403,-0.311432366,0.419383,0.189916332,-0.327589043,0.431673,0.222724882,-0.301652451,0.414693,0.174833382,-0.293468754,0.397939,0.177119659,-0.310321525,0.407993,0.192028511,-0.323128065,0.417788
0.231196592,-0.384099818,0.47155,0.224396152,-0.330116806,0.451909,0.228837947,-0.372220778,0.478918,0.201800964,-0.352132303,0.480272,0.171158601,-0.337856732,0.470784,0.156367726,-0.330541923,0.463837,0.216864589,-0.28104763,0.44817,0.176976203,-0.244627927,0.426162,0.156765238,-0.226211744,0.415158,0.13821686,-0.209334433,0.405154,0.21779871,-0.280324833,0.433203,0.157890292,-0.274640406,0.40824,0.167579159,-0.309995174,0.425112,0.183003422,-0.334187289,0.439437,0.219490784,-0.285508965,0.422996,0.167157156,-0.284016643,0.405592,0.168864353,-0.311102503,0.419117,0.189420208,-0.327382024,0.431413,0.223057136,-0.301968651,0.41484,0.175086455,-0.293785534,0.397879,0.177362342,-0.310542781,0.407933,0.192288381,-0.323328612,0.417801
0.230123068,-0.382107538,0.469084,0.225755837,-0.331801371,0.454127,0.228653243,-0.371888031,0.478486,0.203484455,-0.354922215,0.4839,0.172732117,-0.340514275,0.474144,0.158794921,-0.334862419,0.469326,0.220950233,-0.286143863,0.456216,0.182699156,-0.251960131,0.438935,0.164184573,-0.234526369,0.430294,0.144732304,-0.218200504,0.422439,0.221529607,-0.284748043,0.439882,0.164031131,-0.284353056,0.420231,0.174805327,-0.320678238,0.43797,0.188816798,-0.344097426,0.45218,0.222617922,-0.289050852,0.428043,0.172916754,-0.289412716,0.415643,0.173253303,-0.31889894,0.429864,0.194211638,-0.335986788,0.442791,0.226223611,-0.304207242,0.417113,0.180237701,-0.300656112,0.404348,0.187373331,-0.321382733,0.415031,0.201361082,-0.331026659,0.42531
0.231848018,-0.384573456,0.472091,0.225132698,-0.330350003,0.452029,0.228843304,-0.371989573,0.478629,0.201640912,-0.351289824,0.47878,0.171435781,-0.335324027,0.467093,0.156207375,-0.327762173,0.459375,0.216813713,-0.280368904,0.446922,0.178172793,-0.243758873,0.424489,0.161208668,-0.22473186,0.413273,0.140426181,-0.208146349,0.403077,0.21932386,-0.280613312,0.432922,0.159961475,-0.275556477,0.407108,0.169885945,-0.311023691,0.424676,0.18418151,-0.334688276,0.439528,0.22197981,-0.286521638,0.423555,0.172551215,-0.283974089,0.405123,0.169908043,-0.311776116,0.419182,0.189482231,-0.327778995,0.431962,0.227859088,-0.304502193,0.416453,0.181866361,-0.298062246,0.398618,0.184956693,-0.316993088,0.409071,0.199432682,-0.327355007,0.419401
0.223565176,-0.368896903,0.452019,0.232354608,-0.323612864,0.441406,0.235562343,-0.370546666,0.462317,0.210982741,-0.350888533,0.47096,0.179461818,-0.332223153,0.460855,0.160921123,-0.324663039,0.452734,0.22674346,-0.286123021,0.447614,0.192005905,-0.250354219,0.436072,0.174264518,-0.232150033,0.430301,0.15788777,-0.215410287,0.425054,0.22462254,-0.278462906,0.431299,0.17002128,-0.281429194,0.416119,0.18409357,-0.322306591,0.435473,0.198652169,-0.348423622,0.447039,0.228659265,-0.274504393,0.419007,0.191042608,-0.242830422,0.410467,0.17126772,-0.22654686,0.406098,0.158342738,-0.218941471,0.41609,0.231466272,-0.281253689,0.406735,0.187821141,-0.283416651,0.397213,0.191977535,-0.30684876,0.408949,0.201154029,-0.326508406,0.416851
0.243406925,-0.370370669,0.448677,0.250041821,-0.321722548,0.44372,0.240667295,-0.36496386,0.458406,0.222906764,-0.344852734,0.467229,0.194003723,-0.332016388,0.463982,0.17943111,-0.322307915,0.452926,0.245391864,-0.284989182,0.453027,0.203143861,-0.295287905,0.450235,0.180204866,-0.300975154,0.44884,0.175354273,-0.320908779,0.447571,0.249091742,-0.278495579,0.439,0.196749567,-0.271765742,0.428904,0.182264804,-0.307397644,0.451557,0.181276076,-0.337256274,0.462319,0.252510617,-0.278094221,0.427983,0.214831363,-0.249190159,0.423154,0.19599056,-0.236360694,0.423812,0.178639307,-0.224784956,0.42542,0.25707821,-0.286603877,0.416127,0.214043371,-0.290123574,0.40975,0.213940114,-0.31435174,0.423544,0.220499617,-0.332383306,0.431137
0.283146119,-0.372109979,0.453745,0.272271482,-0.324301946,0.447824,0.272560911,-0.367756392,0.459413,0.244088777,-0.35044936,0.464508,0.21727011,-0.336788358,0.459134,0.206784447,-0.323817081,0.446941,0.252483626,-0.289758473,0.451186,0.215137883,-0.300222194,0.443722,0.194881064,-0.306182659,0.43999,0.20240696,-0.336330677,0.454,0.262261313,-0.280844038,0.442185,0.213233102,-0.27749724,0.429337,0.204513472,-0.313418868,0.454706,0.198161281,-0.342081229,0.467316,0.271901216,-0.278293906,0.435411,0.229974518,-0.250809495,0.426694,0.211827016,-0.241948029,0.430499,0.194311162,-0.233333027,0.433959,0.285926457,-0.284186477,0.428661,0.244436426,-0.292170859,0.419051,0.25047912,-0.320365863,0.43439,0.258346869,-0.341774955,0.44372
0.288154767,-0.371596605,0.453119,0.282153129,-0.324161575,0.447518,0.27743357,-0.367305784,0.458751,0.254870784,-0.351065016,0.464701,0.22763839,-0.336561771,0.457897,0.216918921,-0.32301675,0.44489,0.261696975,-0.28999954,0.451051,0.222909851,-0.29733167,0.443793,0.201912599,-0.301554283,0.440164,0.205285759,-0.33386544,0.454293,0.271660416,-0.280998181,0.442184,0.223506122,-0.27933975,0.429647,0.216611614,-0.316258896,0.455126,0.21159027,-0.345413825,0.467659,0.281523492,-0.278340661,0.435486,0.239588355,-0.251344573,0.426998,0.221473731,-0.242570917,0.430617,0.204023807,-0.234074423,0.433946,0.295928286,-0.284048288,0.428764,0.254857702,-0.292518273,0.419354,0.261458405,-0.320813193,0.434763,0.269590311,-0.342184097,0.44405
0.304044222,-0.371220185,0.45266,0.30306565,-0.324013082,0.447313,0.303652977,-0.367135269,0.458439,0.276796362,-0.35094943,0.464548,0.251174441,-0.337231352,0.456204,0.24199297,-0.324443399,0.442357,0.281970593,-0.290101125,0.451209,0.244532132,-0.297655939,0.444277,0.22425799,-0.30199754,0.440811,0.231780477,-0.331712662,0.455017,0.292229122,-0.281021058,0.44222,0.245277809,-0.279566656,0.429996,0.240761437,-0.316495156,0.455466,0.237115417,-0.345579272,0.467883,0.302390483,-0.278281859,0.435394,0.260949791,-0.251471717,0.427214,0.243422961,-0.242688649,0.430826,0.226528134,-0.234181226,0.434144,0.317237642,-0.283857493,0.428476,0.276744478,-0.292498044,0.419325,0.284029762,-0.320792531,0.434735,0.292340458,-0.342092396,0.443931
0.374757638,-0.409218308,0.502627,0.338529236,-0.358257692,0.473007,0.361791352,-0.398509173,0.507222,0.331085185,-0.390052316,0.497297,0.304337419,-0.384035752,0.492048,0.286203823,-0.369571146,0.480415,0.298265548,-0.311383892,0.458882,0.250146632,-0.283572509,0.428558,0.222876435,-0.2824517,0.413396,0.212382212,-0.299644733,0.411887,0.304467129,-0.310560769,0.444798,0.255954202,-0.266356286,0.410375,0.220957991,-0.266913127,0.390295,0.203567386,-0.277538128,0.388422,0.313666055,-0.315401829,0.436393,0.279542475,-0.274069683,0.421859,0.259893117,-0.255168986,0.414423,0.240747418,-0.239414429,0.407663,0.331588547,-0.330839817,0.432204,0.28418212,-0.335240515,0.408441,0.290573326,-0.345565907,0.414122,0.300068025,-0.359215666,0.424687
0.388234368,-0.414400238,0.511551,0.358726159,-0.360270104,0.478483,0.369956916,-0.401732296,0.511572,0.350836508,-0.392334721,0.497585,0.328515675,-0.384127659,0.486131,0.313454382,-0.367757123,0.471925,0.309446965,-0.312415203,0.456058,0.265780685,-0.294068111,0.423326,0.247821147,-0.303045717,0.406961,0.25165416,-0.312180111,0.405946,0.324591473,-0.311543076,0.446989,0.280187084,-0.264170001,0.407308,0.249136947,-0.26543466,0.384161,0.236395952,-0.277663158,0.382066,0.34125573,-0.31640059,0.443085,0.292229314,-0.283380993,0.414928,0.266149567,-0.273081378,0.400522,0.242507309,-0.268330855,0.387426,0.368001452,-0.331947957,0.44477,0.320600335,-0.337868495,0.41597,0.325037888,-0.34956376,0.422491,0.334275737,-0.365533966,0.435155
0.408348586,-0.415125392,0.514897,0.382137129,-0.36232708,0.481148,0.398682794,-0.40400328,0.514632,0.374675162,-0.39399057,0.499664,0.353093657,-0.385572549,0.487957,0.338071573,-0.368831587,0.473318,0.331695432,-0.31353774,0.457887,0.287679073,-0.294858361,0.424499,0.268629261,-0.303594208,0.407804,0.271261091,-0.312509695,0.406223,0.347227569,-0.312906149,0.449006,0.306558618,-0.258333265,0.416255,0.279066274,-0.265696506,0.39715,0.282726151,-0.286609701,0.400572,0.364330243,-0.318044952,0.44533,0.322544161,-0.272737411,0.419687,0.29842417,-0.271502313,0.406567,0.283806997,-0.281882629,0.39464,0.39179171,-0.334077213,0.447407,0.342941865,-0.339624662,0.418151,0.34669818,-0.351040482,0.424272,0.355990034,-0.367028699,0.436942
0.424523811,-0.41760871,0.51149,0.401085009,-0.364629579,0.47932,0.413806686,-0.410039569,0.511922,0.39235501,-0.396346533,0.499216,0.372881626,-0.384207735,0.486352,0.361354667,-0.366941213,0.473649,0.356299029,-0.311147382,0.45804,0.310091003,-0.309846023,0.428513,0.29581934,-0.317400769,0.413749,0.303381914,-0.319636956,0.414115,0.371115822,-0.31083179,0.448683,0.328111943,-0.261101365,0.416645,0.300878193,-0.269714097,0.397956,0.3052272,-0.290404545,0.401624,0.387090229,-0.316708775,0.444444,0.35081404,-0.270685776,0.42286,0.329468656,-0.272839319,0.411818,0.320447138,-0.286106878,0.401779,0.412362905,-0.334538323,0.445571,0.361738233,-0.335876375,0.417415,0.365772056,-0.350544613,0.424407,0.374902219,-0.368778497,0.437028
0.425948503,-0.410408219,0.491781,0.418701905,-0.360339762,0.475647,0.419632676,-0.404867081,0.495248,0.398260233,-0.383698698,0.490942,0.382416457,-0.371206172,0.471901,0.377977865,-0.357499852,0.466088,0.386479602,-0.313989557,0.469209,0.349384827,-0.322075628,0.452384,0.338625926,-0.33784562,0.443971,0.353434152,-0.353334792,0.453942,0.402195762,-0.310486448,0.460281,0.364682331,-0.273157856,0.436578,0.339233072,-0.280251342,0.422752,0.341867704,-0.307107369,0.431268,0.417463924,-0.313253271,0.454668,0.379796214,-0.289073828,0.436535,0.368820511,-0.304742466,0.427258,0.370878225,-0.317506576,0.421833,0.439288918,-0.326656635,0.451186,0.403145322,-0.294004158,0.433598,0.390762298,-0.301446063,0.425517,0.392002983,-0.318154026,0.431876
0.448054188,-0.402875387,0.511056,0.445840966,-0.345540091,0.489021,0.431067513,-0.383672155,0.509783,0.428776453,-0.346975363,0.501568,0.426972384,-0.313817351,0.496077,0.433965866,-0.293908336,0.489244,0.422268069,-0.286429348,0.472401,0.386615447,-0.282333139,0.447327,0.367617052,-0.294649937,0.43479,0.372691587,-0.312907373,0.44199,0.442465056,-0.293899655,0.468036,0.402446778,-0.279417662,0.437128,0.372409224,-0.285512182,0.419099,0.368109701,-0.308102023,0.425333,0.459995269,-0.30598165,0.466816,0.426634241,-0.296936803,0.441099,0.406200707,-0.30875653,0.427942,0.409814414,-0.328081818,0.434774,0.481966744,-0.330832438,0.469541,0.448166479,-0.30219896,0.445719,0.435519123,-0.309655719,0.434774,0.438350851,-0.326683526,0.439135
0.4637923,-0.422142234,0.522942,0.467025158,-0.363027054,0.497376,0.455967731,-0.393343637,0.52208,0.450182057,-0.367593113,0.51174,0.439820815,-0.335558113,0.499154,0.437831374,-0.311911833,0.487816,0.448679659,-0.303524479,0.478894,0.426692254,-0.261945062,0.451172,0.41574687,-0.240858009,0.43731,0.412056784,-0.224886898,0.431225,0.464684155,-0.315405697,0.473027,0.406573915,-0.314133833,0.437673,0.377879349,-0.318818706,0.41705,0.377606652,-0.332005232,0.420739,0.478479758,-0.330801079,0.470952,0.447752329,-0.297822479,0.442373,0.421067033,-0.306455905,0.427751,0.421058959,-0.323416883,0.432379,0.495411697,-0.358642958,0.473348,0.445720694,-0.347769161,0.447669,0.418727723,-0.346305212,0.43587,0.411052398,-0.354287317,0.438694
0.472833057,-0.414384953,0.522999,0.476651037,-0.362741046,0.497279,0.458412741,-0.39222062,0.520347,0.454566892,-0.370713755,0.506234,0.441867038,-0.345203306,0.48782,0.443281786,-0.337642628,0.474391,0.457080531,-0.301076584,0.476361,0.435283363,-0.257248967,0.446951,0.433364295,-0.240095214,0.441342,0.431798325,-0.223843129,0.436253,0.475550678,-0.314476865,0.472783,0.419564716,-0.311527412,0.436862,0.388820558,-0.315918847,0.415908,0.387024382,-0.330028112,0.419796,0.491357686,-0.331268096,0.472609,0.458082775,-0.301581883,0.442832,0.432116316,-0.311105419,0.427598,0.433130645,-0.327125767,0.432216,0.510523893,-0.361043067,0.477241,0.459224911,-0.349451099,0.450542,0.431482068,-0.348034063,0.438275,0.423763852,-0.356403804,0.441081
0.473620493,-0.414021322,0.522398,0.472810242,-0.362402559,0.496828,0.459326028,-0.392045242,0.519972,0.44756138,-0.365792848,0.503373,0.430838664,-0.339728456,0.483807,0.427210637,-0.329146595,0.467443,0.456479387,-0.300930055,0.476307,0.435391412,-0.256418197,0.447148,0.433643194,-0.238808503,0.441477,0.432239714,-0.222150344,0.436335,0.474783845,-0.314039046,0.472477,0.419587377,-0.310279731,0.436676,0.38869556,-0.315226625,0.415793,0.386744843,-0.329764869,0.419729,0.49044719,-0.330571384,0.472078,0.457278143,-0.301122732,0.442511,0.431567207,-0.310784845,0.427384,0.432771481,-0.326860966,0.432081,0.509452737,-0.360012151,0.476421,0.459410262,-0.348454509,0.449922,0.431429497,-0.347292072,0.437747,0.419316865,-0.356112825,0.44062
0.473820139,-0.414394893,0.521934,0.472935018,-0.362766069,0.496511,0.459418787,-0.392481331,0.519513,0.444084549,-0.367401407,0.500736,0.421285113,-0.342233303,0.47867,0.41476359,-0.331158187,0.460712,0.455337147,-0.301645679,0.476095,0.435426844,-0.259064916,0.446623,0.434098419,-0.242044673,0.440469,0.433172366,-0.225975934,0.434938,0.47374969,-0.31464725,0.472298,0.418687288,-0.310938692,0.436642,0.38810533,-0.316062321,0.415843,0.383996718,-0.330872108,0.419871,0.489537169,-0.331096935,0.471911,0.456041012,-0.302166117,0.442482,0.430456146,-0.311898443,0.427425,0.43196733,-0.327904644,0.432216,0.50873683,-0.360443566,0.47624,0.458873877,-0.349141465,0.449828,0.431105002,-0.348106525,0.437693,0.422700054,-0.357077049,0.440631
0.474423359,-0.415041901,0.522188,0.473284508,-0.363194861,0.496609,0.460023207,-0.393211926,0.519858,0.443258867,-0.367826799,0.500377,0.421404808,-0.342330538,0.478806,0.414718577,-0.331122247,0.460662,0.454973515,-0.302140983,0.476206,0.435456644,-0.259660121,0.446495,0.433735518,-0.242355194,0.439562,0.432596782,-0.226146526,0.433464,0.47327323,-0.314978344,0.472249,0.418047345,-0.311127195,0.436427,0.387495505,-0.316224234,0.415531,0.383902118,-0.330839177,0.41944,0.488997563,-0.331302553,0.471746,0.455034522,-0.302430592,0.442091,0.429370771,-0.31207071,0.426919,0.430849681,-0.327882343,0.431567,0.508188278,-0.360524096,0.475971,0.458334285,-0.349278556,0.449515,0.43064054,-0.348269121,0.437359,0.422368573,-0.35715881,0.440228
0.474746464,-0.415404143,0.52227,0.47345341,-0.36343159,0.496607,0.460302543,-0.393593473,0.519948,0.443087625,-0.368239494,0.50047,0.421664443,-0.342541454,0.479101,0.415027368,-0.331368794,0.461005,0.454645835,-0.302365513,0.476158,0.435365233,-0.25989433,0.446322,0.433799862,-0.242647446,0.439358,0.43280592,-0.226491007,0.433226,0.472933624,-0.315141266,0.472166,0.417627117,-0.311213115,0.43626,0.387101955,-0.316298542,0.415314,0.383852154,-0.3308285,0.419167,0.488670724,-0.331423795,0.471644,0.454497401,-0.302633206,0.441921,0.4288192,-0.312245685,0.426714,0.430310895,-0.327968201,0.431309,0.50791512,-0.3606121,0.475862,0.458045062,-0.349386978,0.449361,0.430387939,-0.348387398,0.437185,0.422198161,-0.357231444,0.440016
0.472361512,-0.417817549,0.5211,0.472782537,-0.36325994,0.496,0.459545966,-0.393406973,0.519102,0.441765051,-0.369909092,0.500164,0.421198895,-0.342543374,0.479527,0.414603863,-0.330672305,0.461886,0.452455503,-0.302854701,0.476354,0.435783001,-0.259218761,0.447013,0.433877674,-0.241311762,0.439696,0.432831163,-0.224719677,0.433517,0.471098745,-0.315168595,0.472095,0.417442472,-0.311512025,0.436709,0.387350185,-0.316975352,0.416067,0.38474012,-0.331793205,0.420204,0.486543346,-0.331235111,0.471293,0.45151737,-0.302560773,0.442108,0.427192294,-0.313636335,0.427176,0.430460515,-0.328650918,0.432077,0.506729136,-0.360095311,0.475079,0.45731396,-0.349193231,0.449068,0.430314955,-0.348333945,0.437116,0.423805369,-0.357172805,0.440194
0.472466186,-0.417710546,0.520997,0.472615158,-0.363389072,0.495897,0.459511034,-0.393722667,0.519069,0.441650717,-0.370478793,0.500233,0.421018756,-0.34262539,0.479896,0.414466221,-0.330346918,0.462546,0.452288453,-0.302987573,0.476342,0.435722837,-0.259150895,0.447012,0.434131105,-0.24121113,0.439833,0.433363181,-0.224575937,0.433765,0.470810909,-0.315193956,0.471991,0.416896408,-0.311416875,0.436597,0.386917087,-0.316960089,0.41595,0.384572038,-0.331797993,0.420071,0.486222172,-0.331169929,0.471114,0.451187946,-0.302548767,0.441967,0.426646496,-0.313398268,0.427055,0.429896328,-0.328627138,0.431953,0.50619502,-0.359948472,0.474813,0.456769592,-0.349037938,0.448837,0.430100681,-0.348164538,0.436902,0.424394695,-0.356658544,0.439978
0.474920907,-0.416990537,0.522624,0.471982889,-0.364159663,0.496192,0.460804296,-0.395712111,0.520955,0.441246313,-0.374678445,0.502326,0.415566444,-0.341950267,0.484353,0.414214498,-0.330595043,0.468285,0.445649434,-0.303265113,0.476072,0.433438916,-0.258036496,0.445223,0.431234963,-0.239816238,0.437399,0.429414109,-0.222902846,0.430387,0.465733161,-0.315033299,0.471019,0.408543432,-0.310325615,0.434288,0.379056579,-0.315416794,0.412861,0.380476016,-0.328827633,0.416046,0.480933742,-0.33043048,0.469707,0.44180645,-0.301053939,0.439449,0.420109867,-0.3105659,0.423969,0.422792588,-0.325441315,0.427957,0.499986696,-0.358801011,0.473152,0.452176712,-0.347473912,0.446551,0.42736123,-0.346072127,0.434329,0.42109675,-0.353832525,0.436795
0.474462288,-0.417097419,0.52235,0.471191485,-0.364018975,0.495874,0.46102778,-0.396502075,0.521538,0.438031778,-0.376826361,0.504174,0.415812572,-0.344424622,0.488142,0.403676833,-0.328859921,0.472529,0.445872301,-0.303748722,0.47684,0.432093722,-0.256521856,0.44641,0.428720765,-0.23781386,0.438295,0.425307014,-0.220773486,0.430918,0.462164829,-0.314297473,0.470659,0.404105184,-0.309415835,0.433816,0.375424095,-0.31463647,0.412324,0.378371889,-0.328622587,0.415218,0.476532262,-0.328854583,0.468423,0.439139374,-0.298887225,0.438518,0.414913403,-0.306731098,0.423219,0.418669712,-0.323747877,0.427055,0.494745149,-0.356259507,0.470804,0.446291296,-0.344099716,0.444644,0.422086166,-0.343267272,0.432625,0.419339186,-0.352056737,0.435018
0.473853518,-0.41684339,0.521181,0.470442465,-0.36359166,0.494849,0.460966653,-0.396817649,0.521069,0.437651525,-0.376493216,0.504777,0.413165183,-0.343529368,0.489569,0.404198199,-0.328227673,0.474782,0.448034227,-0.304158969,0.476823,0.431678776,-0.256426203,0.44672,0.428985632,-0.23801953,0.439306,0.42608221,-0.221297969,0.432565,0.461109014,-0.313632713,0.469771,0.403030908,-0.306897535,0.433028,0.374945937,-0.313004693,0.411594,0.376099831,-0.327737645,0.414343,0.474986848,-0.327376746,0.466801,0.437268433,-0.297373442,0.437597,0.410951687,-0.305840399,0.422656,0.414905832,-0.323176656,0.426532,0.492820001,-0.354019691,0.468304,0.442446193,-0.340786595,0.442622,0.419756247,-0.341460217,0.430822,0.417421975,-0.350330047,0.433217
0.473061909,-0.417063435,0.520695,0.469896077,-0.363513978,0.494675,0.460291429,-0.397254924,0.520814,0.437312977,-0.376198978,0.504907,0.413215615,-0.343244517,0.489969,0.404146698,-0.327833538,0.475269,0.447969288,-0.30426821,0.477163,0.431216715,-0.256533897,0.447527,0.429131288,-0.238217263,0.440531,0.426573009,-0.22173413,0.43417,0.461186248,-0.313560805,0.469894,0.402964719,-0.306705695,0.433442,0.375107411,-0.313055624,0.412178,0.376226866,-0.328062881,0.415058,0.474793338,-0.327188027,0.466713,0.437055801,-0.297108387,0.437859,0.411115549,-0.305929301,0.423097,0.415030133,-0.323248197,0.427131,0.49225473,-0.353663194,0.467911,0.441636633,-0.340808925,0.442535,0.419079102,-0.341340253,0.430875,0.417553247,-0.350260729,0.433396
0.471744732,-0.416818795,0.51963,0.468776188,-0.36354348,0.494256,0.459068877,-0.397182205,0.51991,0.436531816,-0.375525166,0.504317,0.412524022,-0.343043201,0.489152,0.407400875,-0.332455205,0.473085,0.447909732,-0.304337382,0.477392,0.430604514,-0.256908145,0.448145,0.429059077,-0.238597651,0.441388,0.429654273,-0.222613828,0.435245,0.461352494,-0.313599147,0.47009,0.403448434,-0.306988798,0.434254,0.37615722,-0.313558125,0.41335,0.379076565,-0.329122587,0.416615,0.474831659,-0.32718117,0.466812,0.437020993,-0.295939461,0.438636,0.412328966,-0.305871036,0.42422,0.416322101,-0.323762773,0.428677,0.492021566,-0.353525486,0.467776,0.441631446,-0.3410774,0.44285,0.419549359,-0.341545783,0.431397,0.419955324,-0.349128454,0.43421
0.470857884,-0.416662918,0.519018,0.467908046,-0.36341231,0.493974,0.458242425,-0.397115165,0.519397,0.436069756,-0.375126523,0.503991,0.412156485,-0.342961598,0.488718,0.405967328,-0.332606546,0.472253,0.44777054,-0.304325028,0.477463,0.430878684,-0.256985117,0.448499,0.42939263,-0.238509496,0.441717,0.429739559,-0.22236272,0.435552,0.461366504,-0.31355888,0.470122,0.403590889,-0.307040455,0.434602,0.376630138,-0.313703259,0.413882,0.379213553,-0.329301799,0.417334,0.4747544,-0.327105782,0.466777,0.437480114,-0.295706101,0.438952,0.412884544,-0.305705526,0.424716,0.416865236,-0.323856262,0.429381,0.491776681,-0.353369426,0.467601,0.441504553,-0.341143001,0.442915,0.419696589,-0.341547536,0.431574,0.42056527,-0.349044217,0.434531
0.469956701,-0.41649398,0.51839,0.467020953,-0.363266466,0.493672,0.457376752,-0.397013291,0.518839,0.435584116,-0.374707888,0.503578,0.412454821,-0.343359446,0.489073,0.405395511,-0.332931669,0.472088,0.447620864,-0.304287222,0.477474,0.431115944,-0.257064769,0.448795,0.429723223,-0.238497752,0.442047,0.42992651,-0.22222991,0.435913,0.461362893,-0.313520847,0.470131,0.403761591,-0.307129713,0.434925,0.377082585,-0.313902153,0.414388,0.379331749,-0.329464809,0.418034,0.474696169,-0.327049826,0.466749,0.437890267,-0.295620503,0.439267,0.413409919,-0.305708932,0.425206,0.417447111,-0.324072681,0.430084,0.491594421,-0.353252654,0.467469,0.441468476,-0.341224183,0.443007,0.419866477,-0.341601504,0.431767,0.421125322,-0.349049484,0.434869
0.469308883,-0.416728684,0.518027,0.466114716,-0.363313177,0.493434,0.456769511,-0.397325695,0.518569,0.43550173,-0.374828418,0.503464,0.413800702,-0.344860067,0.488662,0.404813002,-0.332830975,0.471541,0.446040074,-0.304317991,0.477441,0.430847485,-0.257188781,0.448941,0.429370227,-0.238250813,0.442617,0.428311162,-0.222008907,0.436868,0.461030783,-0.313538215,0.470012,0.402739539,-0.306622016,0.434923,0.376176767,-0.313699963,0.414455,0.375488193,-0.330390361,0.41815,0.474266647,-0.326992366,0.466545,0.43751444,-0.295499977,0.439296,0.413124283,-0.30564621,0.425356,0.416755287,-0.323529097,0.430321,0.491053798,-0.353105719,0.467143,0.440168266,-0.341271366,0.442805,0.41948021,-0.341530696,0.431622,0.421090071,-0.348869691,0.434772
0.468819926,-0.416869541,0.517752,0.465421499,-0.36333627,0.493262,0.456339686,-0.397537263,0.51838,0.435475431,-0.374954666,0.503419,0.413740934,-0.345254881,0.488558,0.404620753,-0.332942979,0.471411,0.44590915,-0.304423506,0.477451,0.430646729,-0.257290091,0.449063,0.429223113,-0.238377579,0.442832,0.428225188,-0.22201427,0.437167,0.46079067,-0.313564098,0.469938,0.402431261,-0.306700304,0.434946,0.375811619,-0.313972129,0.414535,0.374858501,-0.330966557,0.418266,0.473936291,-0.326950259,0.46639,0.437202888,-0.295389595,0.439288,0.412864611,-0.305565646,0.425422,0.41658899,-0.323567243,0.430442,0.490618067,-0.352980526,0.466875,0.43972872,-0.341235318,0.442646,0.419183612,-0.341478581,0.431513,0.420854291,-0.348528715,0.434701
0.468310955,-0.416992696,0.517455,0.46472723,-0.363358685,0.493089,0.455884466,-0.397726449,0.518162,0.435414577,-0.37502133,0.503337,0.413650401,-0.345512936,0.488426,0.404428066,-0.332987097,0.471257,0.445811941,-0.304513037,0.477467,0.430526763,-0.25739543,0.449203,0.429128732,-0.238487371,0.44302,0.428150323,-0.222015396,0.4374,0.460604694,-0.313588951,0.469885,0.40223693,-0.306795838,0.435013,0.375593924,-0.314239964,0.414671,0.374537219,-0.331440104,0.418455,0.473673027,-0.326917243,0.466267,0.436998553,-0.295329397,0.43932,0.41272133,-0.305546492,0.425534,0.416542491,-0.323661391,0.430622,0.490255249,-0.352870079,0.466647,0.439406286,-0.341213832,0.442534,0.418974805,-0.341459985,0.431455,0.420678386,-0.348237243,0.434692
0.468242525,-0.417029098,0.517346,0.464536348,-0.363317692,0.493013,0.455969991,-0.397830893,0.518178,0.43524535,-0.375139964,0.503547,0.413129015,-0.346018714,0.488585,0.403556125,-0.333413094,0.471397,0.445734906,-0.304534361,0.477573,0.430224357,-0.257312778,0.449436,0.429173775,-0.238642276,0.443295,0.427769236,-0.221569226,0.437711,0.460298089,-0.313481233,0.469838,0.402012501,-0.30681964,0.434992,0.375316359,-0.314368174,0.414666,0.374157545,-0.331646526,0.418423,0.473196299,-0.326715703,0.46609,0.436691293,-0.295184047,0.439201,0.412431498,-0.305401482,0.425443,0.4162614,-0.323547274,0.430514,0.489612026,-0.352586015,0.466314,0.439001796,-0.341077712,0.442292,0.418235411,-0.341124887,0.431255,0.420579329,-0.347757238,0.434491
0.468136973,-0.417126467,0.517196,0.464366885,-0.363376818,0.492884,0.455978798,-0.397978293,0.518118,0.43530931,-0.375234402,0.50363,0.413245454,-0.346483678,0.488614,0.403740962,-0.33418349,0.471406,0.445673227,-0.304646518,0.477578,0.430029003,-0.25736724,0.449512,0.429095751,-0.238639718,0.443511,0.427856959,-0.221449422,0.438055,0.460070785,-0.313508268,0.46973,0.40152499,-0.306692279,0.434902,0.374796284,-0.314369956,0.414586,0.373276022,-0.331948117,0.418323,0.472841777,-0.326678781,0.465887,0.436292736,-0.294801536,0.439112,0.412017662,-0.304992612,0.425413,0.415879071,-0.32329281,0.430493,0.489123187,-0.352486382,0.465996,0.438620337,-0.340923701,0.44204,0.417723757,-0.341010941,0.431033,0.42064845,-0.347459228,0.434268
0.467443832,-0.416897889,0.516705,0.463411861,-0.362974264,0.492224,0.455433268,-0.397893867,0.517808,0.435025816,-0.375390797,0.503581,0.412224991,-0.346242654,0.487728,0.403616723,-0.33342965,0.472234,0.444750629,-0.304324831,0.47704,0.427651254,-0.257732916,0.448744,0.427300169,-0.239064999,0.442969,0.427716567,-0.221729789,0.437967,0.458859312,-0.312965731,0.46891,0.398712541,-0.306283829,0.433914,0.373458311,-0.313528112,0.413499,0.373676546,-0.329422543,0.417049,0.471408539,-0.325958204,0.464853,0.429217714,-0.296844396,0.438031,0.408855729,-0.304528984,0.424308,0.414161245,-0.322480622,0.429233,0.487476866,-0.351569626,0.464746,0.435823213,-0.34025933,0.440804,0.415451035,-0.340347793,0.429803,0.418335094,-0.346846568,0.432935
0.466594134,-0.416529765,0.516041,0.4624889,-0.362596791,0.491598,0.454587746,-0.397547431,0.517157,0.434242774,-0.3751166,0.502954,0.411505577,-0.346131424,0.487134,0.402885087,-0.333655976,0.471454,0.443784346,-0.303973206,0.476455,0.426880525,-0.257603776,0.448051,0.426042807,-0.239076878,0.442049,0.426912014,-0.22166659,0.437199,0.457872121,-0.312576052,0.468319,0.397869671,-0.30580405,0.433358,0.372620609,-0.313105612,0.412965,0.37305207,-0.328903771,0.416535,0.470415677,-0.325541936,0.464253,0.428683679,-0.296475061,0.437486,0.407882303,-0.304628926,0.423791,0.413187294,-0.322246724,0.428743,0.486493674,-0.351130942,0.464128,0.434960544,-0.339751134,0.440214,0.414378139,-0.339952879,0.429226,0.41752024,-0.346417041,0.432374
