sluyters/QuantumLeap/backend/src/datasets/gesture/HandGestureDataset_SHREC2017_csv/Gesture11/finger_2/subject_21_essai_1_skeletons_world.csv
Wrist_x,Wrist_y,Wrist_z,Palm_x,Palm_y,Palm_z,thumb_base_x,thumb_base_y,thumb_base_z,thumb_first_joint_x,thumb_first_joint_y,thumb_first_joint_z,thumb_second_joint_x,thumb_second_joint_y,thumb_second_joint_z,thumb_tip_x,thumb_tip_y,thumb_tip_z,index_base_x,index_base_y,index_base_z,index_first_joint_x,index_first_joint_y,index_first_joint_z,index_second_joint_x,index_second_joint_y,index_second_joint_z,index_tip_x,index_tip_y,index_tip_z,middle_base_x,middle_base_y,middle_base_z,middle_first_joint_x,middle_first_joint_y,middle_first_joint_z,middle_second_joint_x,middle_second_joint_y,middle_second_joint_z,middle_tip_x,middle_tip_y,middle_tip_z,ring_base_x,ring_base_y,ring_base_z,ring_first_joint_x,ring_first_joint_y,ring_first_joint_z,ring_second_joint_x,ring_second_joint_y,ring_second_joint_z,ring_tip_x,ring_tip_y,ring_tip_z,pinky_base_x,pinky_base_y,pinky_base_z,pinky_first_joint_x,pinky_first_joint_y,pinky_first_joint_z,pinky_second_joint_x,pinky_second_joint_y,pinky_second_joint_z,pinky_tip_x,pinky_tip_y,pinky_tip_z,
0.320980486,-0.215096483,0.389386,0.338101964,-0.172918415,0.387194,0.309682268,-0.194662554,0.391741,0.297280371,-0.159954538,0.386156,0.280861966,-0.132414997,0.372231,0.275685389,-0.112227309,0.362765,0.339827072,-0.127883039,0.388896,0.350507185,-0.0922927775,0.381394,0.351735431,-0.0772287653,0.377643,0.350677097,-0.0641704602,0.374232,0.35626789,-0.137406217,0.385304,0.366891606,-0.097526913,0.376944,0.370207634,-0.0770878961,0.372067,0.376219195,-0.0558933328,0.368584,0.36728138,-0.151041121,0.382525,0.377416236,-0.113463743,0.374683,0.381489693,-0.093898803,0.370672,0.385032555,-0.0759969351,0.367025,0.379094961,-0.17043277,0.379567,0.392883878,-0.144146363,0.37524,0.39973847,-0.130695956,0.373252,0.405634983,-0.121418217,0.372366
0.319067145,-0.217075344,0.387179,0.335317973,-0.174532919,0.383435,0.308774031,-0.201031332,0.388631,0.293831443,-0.163964873,0.381584,0.280239522,-0.132963199,0.372302,0.276411849,-0.113150075,0.365415,0.331938917,-0.131350561,0.383107,0.340315237,-0.094018425,0.373837,0.344414355,-0.0753855628,0.369202,0.343344608,-0.0613542187,0.364989,0.349531892,-0.140853614,0.380194,0.359291562,-0.0990842845,0.370019,0.364448078,-0.0749172215,0.364085,0.368410537,-0.0591124452,0.362987,0.363151377,-0.149656905,0.378096,0.37202825,-0.109758147,0.368525,0.3754086,-0.0899284948,0.363628,0.377286609,-0.0735838215,0.359176,0.376060082,-0.168046089,0.376168,0.387929977,-0.138970877,0.368523,0.393017184,-0.126183128,0.36501,0.397170434,-0.114880343,0.36191
0.314382418,-0.217537185,0.382983,0.327628913,-0.17299266,0.375573,0.304265539,-0.201764073,0.384644,0.286232741,-0.167093615,0.377233,0.267137749,-0.135595506,0.362548,0.262807125,-0.115206294,0.357272,0.322235405,-0.131806028,0.373415,0.331818765,-0.0936246288,0.36579,0.332877418,-0.0769214335,0.361977,0.336520118,-0.0593441631,0.358512,0.338797663,-0.13990983,0.369171,0.34464456,-0.0982944915,0.358074,0.346993701,-0.0739360112,0.3516,0.348802922,-0.0561924536,0.346976,0.35146965,-0.149890323,0.366274,0.356256859,-0.109475049,0.354725,0.358540069,-0.0888127558,0.348816,0.367026696,-0.0701833358,0.34881,0.364696776,-0.167854847,0.363943,0.37428306,-0.138748794,0.356681,0.378605358,-0.125401886,0.353344,0.38536755,-0.113241183,0.352104
0.312425749,-0.222492995,0.381646,0.317214454,-0.180486392,0.371473,0.301789594,-0.205652564,0.383011,0.279271554,-0.173723322,0.374787,0.261719804,-0.142636198,0.361633,0.258535498,-0.122549304,0.357346,0.310224144,-0.136051774,0.367387,0.313366792,-0.0974850694,0.356669,0.314978479,-0.0780871883,0.35131,0.316468449,-0.0603818588,0.346438,0.326360936,-0.143559846,0.362724,0.330150762,-0.101235006,0.349623,0.331872623,-0.0765277098,0.341981,0.333155395,-0.0587454631,0.336522,0.338965779,-0.153238446,0.359707,0.342509701,-0.112607918,0.346152,0.344014141,-0.0919225655,0.339216,0.345179465,-0.0730826156,0.332912,0.35260246,-0.171194313,0.357646,0.36047728,-0.141401189,0.348099,0.363668723,-0.127791696,0.343712,0.366512893,-0.11574203,0.339842
0.299491369,-0.227782546,0.373567,0.301217909,-0.185770578,0.364579,0.283990243,-0.208465303,0.37486,0.261540763,-0.180331728,0.366706,0.24255426,-0.149886302,0.353407,0.238276487,-0.12986087,0.349108,0.293669409,-0.1417476,0.36111,0.295809952,-0.103202787,0.347588,0.296912757,-0.0838456121,0.340826,0.297371365,-0.0662623168,0.334679,0.310373223,-0.14902498,0.356889,0.313860596,-0.106205522,0.342133,0.314678724,-0.0815620898,0.333526,0.31535716,-0.0637194793,0.327377,0.323445085,-0.158535445,0.354141,0.328105918,-0.118309058,0.339678,0.329632183,-0.098084366,0.332279,0.331127766,-0.0794769307,0.325552,0.337592733,-0.176298925,0.352224,0.345575389,-0.146609992,0.341168,0.350536399,-0.133674278,0.337481,0.354940465,-0.122263145,0.334253
0.282816378,-0.232985854,0.368271,0.288261059,-0.195416191,0.358773,0.271927413,-0.217211443,0.370013,0.249143782,-0.192453674,0.36237,0.228951697,-0.16357203,0.350315,0.222345548,-0.143749609,0.344544,0.278809816,-0.15153871,0.355612,0.281214333,-0.111690922,0.341651,0.279989963,-0.0929939618,0.33467,0.278621262,-0.0759450673,0.328324,0.295383117,-0.158253807,0.350687,0.297245994,-0.114737868,0.335164,0.298621436,-0.0895763139,0.32655,0.299614647,-0.0715794152,0.320398,0.308374203,-0.167304683,0.3474,0.31080637,-0.126218446,0.332511,0.311620434,-0.105517698,0.324893,0.312422325,-0.0865612863,0.317968,0.32251464,-0.184429887,0.34492,0.330690584,-0.154415129,0.334955,0.334235981,-0.140846547,0.330376,0.337311506,-0.128918237,0.326336
0.275088128,-0.240053655,0.366967,0.28271402,-0.195480642,0.355401,0.262914667,-0.223406103,0.367125,0.246142291,-0.19276009,0.361357,0.227156763,-0.163413345,0.349568,0.221252007,-0.143208634,0.343695,0.269580589,-0.151952695,0.349105,0.273164898,-0.113097396,0.338442,0.276803444,-0.0930899171,0.333111,0.277532199,-0.0758989101,0.328264,0.286913218,-0.1601431,0.345578,0.286535928,-0.116251482,0.328449,0.285826453,-0.0910176984,0.318456,0.284928035,-0.0732086445,0.311319,0.300593583,-0.170451827,0.343606,0.300793898,-0.128519999,0.327355,0.300202575,-0.107820711,0.31904,0.299573418,-0.0890145495,0.311481,0.315632328,-0.189162694,0.342982,0.322045037,-0.158670216,0.331029,0.324914286,-0.144765886,0.325537,0.327153911,-0.132897838,0.320691
0.266967048,-0.247073772,0.365552,0.2676854,-0.207244003,0.351848,0.254516229,-0.230458983,0.365619,0.231758201,-0.205590808,0.357782,0.211526169,-0.175850624,0.344792,0.205150047,-0.155713268,0.338777,0.253678553,-0.161608619,0.344261,0.25279608,-0.120819639,0.328421,0.249127456,-0.102889643,0.3205,0.245855356,-0.0862047629,0.3133,0.270974016,-0.168523166,0.340242,0.267356524,-0.123728122,0.321445,0.263940507,-0.0987293644,0.31048,0.261066235,-0.0811402308,0.302648,0.285008989,-0.177944801,0.338041,0.280214136,-0.135521274,0.320473,0.277754921,-0.113837226,0.311485,0.275515039,-0.0941380744,0.303314,0.301156043,-0.195911743,0.337462,0.30479476,-0.164111654,0.324116,0.305103171,-0.151271971,0.317983,0.305454313,-0.139817176,0.312572
0.211645797,-0.238697294,0.322454,0.229947294,-0.202743328,0.323314,0.199284322,-0.223207036,0.323691,0.186538443,-0.193863127,0.321901,0.182028224,-0.178394281,0.331146,0.185464441,-0.161194747,0.332516,0.224808569,-0.16899012,0.325352,0.227138715,-0.135010746,0.320053,0.228462147,-0.11719354,0.317403,0.22976679,-0.100467384,0.314994,0.243667499,-0.175978513,0.324049,0.248314374,-0.1418863,0.318078,0.251217583,-0.120727185,0.314595,0.253559354,-0.104678374,0.312107,0.258259449,-0.184230428,0.322908,0.26430448,-0.149992693,0.317273,0.267044816,-0.132727046,0.314391,0.269821721,-0.116144174,0.31177,0.273996212,-0.198899731,0.321435,0.286981814,-0.172010534,0.317039,0.291590925,-0.159909537,0.315019,0.295821219,-0.148951468,0.313236
0.206261884,-0.271298249,0.330473,0.219943079,-0.226980656,0.327445,0.194488665,-0.256351643,0.332647,0.180885287,-0.22526689,0.331429,0.171397024,-0.201755991,0.333647,0.1699994,-0.183816155,0.334029,0.212987643,-0.187222777,0.328464,0.214051113,-0.151263483,0.319425,0.212749849,-0.134202142,0.314906,0.209536341,-0.120269337,0.310797,0.23063221,-0.191805235,0.324859,0.245101902,-0.157689944,0.33244,0.253602799,-0.137536276,0.336863,0.25518411,-0.126325397,0.340021,0.244425301,-0.198867184,0.322134,0.244506005,-0.163087303,0.312895,0.244759636,-0.143880372,0.308168,0.245132872,-0.125815501,0.303871,0.259460348,-0.213473577,0.319362,0.267199645,-0.183844363,0.312125,0.270810796,-0.170130562,0.3088,0.274028311,-0.157975149,0.305867
0.211068952,-0.285489087,0.340129,0.212019963,-0.239002878,0.327928,0.197957564,-0.270262761,0.341712,0.177788095,-0.244858443,0.337502,0.16200285,-0.218912888,0.33427,0.156146259,-0.199677971,0.331378,0.196685806,-0.195060726,0.323029,0.185736503,-0.160614465,0.306163,0.180248087,-0.142900325,0.29773,0.175248922,-0.126463501,0.290063,0.213174643,-0.197028472,0.31751,0.201681443,-0.156696318,0.299786,0.194985777,-0.132589228,0.289448,0.183232407,-0.129405404,0.282063,0.226793303,-0.202506041,0.313942,0.215580745,-0.165652234,0.296972,0.20965274,-0.146540717,0.28829,0.204273993,-0.128764686,0.280397,0.243173931,-0.216271299,0.311516,0.241161783,-0.188786822,0.297689,0.238827937,-0.177364839,0.291337,0.235328521,-0.168672477,0.285731
0.216631774,-0.29070323,0.345803,0.212907381,-0.243454277,0.332198,0.204319699,-0.281101599,0.349012,0.182527123,-0.258870671,0.346112,0.156420394,-0.237876733,0.337373,0.140996857,-0.221168359,0.32738,0.190331968,-0.203649757,0.328548,0.166603721,-0.176209615,0.316717,0.15343105,-0.188828394,0.310801,0.158461058,-0.210828802,0.319988,0.20310852,-0.204811823,0.320581,0.192574977,-0.159168824,0.303037,0.172236426,-0.150489255,0.292803,0.157817493,-0.159776523,0.285493,0.214627351,-0.209624902,0.315112,0.198657627,-0.174845056,0.297177,0.190373306,-0.156354594,0.288002,0.173836378,-0.152902207,0.27966,0.229906148,-0.222421981,0.310645,0.228121238,-0.18678043,0.296649,0.216345656,-0.184946922,0.290219,0.204985932,-0.191306841,0.284545
0.218115588,-0.302731748,0.355723,0.201066003,-0.254246476,0.337286,0.206626294,-0.289511723,0.359642,0.168578768,-0.271391015,0.356256,0.142988113,-0.253765107,0.353083,0.131809812,-0.235410696,0.34959,0.185546431,-0.209479966,0.331801,0.153263534,-0.185383491,0.318136,0.141476278,-0.198576485,0.311304,0.147826428,-0.218650548,0.3183,0.194811641,-0.212603983,0.321543,0.177372906,-0.16684541,0.300621,0.152197901,-0.160605533,0.288417,0.137280861,-0.169460303,0.279699,0.20316153,-0.219159315,0.314574,0.178212082,-0.187005377,0.29404,0.165113584,-0.170045048,0.283534,0.145204115,-0.166513398,0.273984,0.214298132,-0.234250457,0.309045,0.214951108,-0.200224068,0.290929,0.205719545,-0.191460504,0.282605,0.191022001,-0.192787419,0.275261
0.218392471,-0.328762085,0.384332,0.190942088,-0.278284836,0.351196,0.194924834,-0.310502188,0.379964,0.157136293,-0.28729485,0.362695,0.12745613,-0.269167075,0.352791,0.111096844,-0.250238717,0.342889,0.158154352,-0.226828419,0.327018,0.121843393,-0.235817951,0.29933,0.135813505,-0.251422933,0.308509,0.155796788,-0.254949996,0.323102,0.172986963,-0.235030039,0.322901,0.161585815,-0.186325249,0.292907,0.135635716,-0.187294277,0.275411,0.123112069,-0.192092077,0.262913,0.187235487,-0.246064605,0.322161,0.165298013,-0.200390801,0.289526,0.142192003,-0.200013006,0.272829,0.128434006,-0.203214883,0.25765,0.207675991,-0.266982997,0.32613,0.184408364,-0.22742429,0.302138,0.16888465,-0.217662022,0.291115,0.155055449,-0.219332902,0.281388
0.20695279,-0.32967006,0.374033,0.185633526,-0.289371551,0.342582,0.192414379,-0.313364588,0.373236,0.156073973,-0.306025342,0.361079,0.12391311,-0.284901003,0.347032,0.107105364,-0.264710841,0.336127,0.155858169,-0.241137173,0.323835,0.141080684,-0.194350044,0.294749,0.120207916,-0.187172141,0.280206,0.10542984,-0.194677347,0.279877,0.16699203,-0.247579476,0.315725,0.134772459,-0.206547024,0.283856,0.116030277,-0.182666142,0.265265,0.0956627548,-0.180603232,0.251986,0.178043776,-0.256908619,0.311565,0.144835934,-0.216420507,0.284757,0.127949172,-0.195811965,0.271042,0.106401546,-0.194057869,0.258573,0.194524358,-0.275321669,0.311252,0.181011488,-0.236792743,0.293181,0.172227342,-0.221428491,0.284878,0.155603107,-0.217741186,0.277552
0.199067652,-0.358114292,0.406327,0.181352465,-0.311251608,0.368799,0.18681917,-0.335461035,0.401129,0.152412229,-0.334979473,0.383439,0.123230008,-0.316129054,0.369096,0.10905196,-0.294664438,0.355239,0.156241272,-0.257348632,0.341102,0.12053688,-0.2330562,0.308144,0.102629281,-0.220910753,0.291664,0.0879540542,-0.219726107,0.287499,0.166211676,-0.27152105,0.336754,0.133768208,-0.234578314,0.299604,0.114015897,-0.213745803,0.277934,0.0948106476,-0.203754307,0.262454,0.176029903,-0.287186749,0.336175,0.141234757,-0.25701582,0.303442,0.123326433,-0.241565555,0.286694,0.0998520805,-0.238908893,0.271469,0.190498197,-0.312966683,0.340977,0.145552796,-0.297111887,0.314333,0.137262943,-0.281794702,0.302091,0.136791427,-0.274572706,0.298728
0.196751861,-0.365954131,0.399442,0.185267891,-0.320389139,0.363037,0.184687363,-0.356657555,0.3945,0.144700834,-0.358555526,0.376898,0.115175274,-0.329222432,0.360531,0.100120468,-0.306995019,0.348137,0.162044483,-0.259634436,0.336293,0.117464779,-0.241426449,0.305993,0.0953396373,-0.232294809,0.290844,0.0842965692,-0.245267467,0.288312,0.174167355,-0.270475267,0.331949,0.126299819,-0.247529482,0.295446,0.098637062,-0.234083303,0.274153,0.0812698161,-0.23434447,0.258943,0.18557427,-0.284411639,0.331284,0.141218048,-0.253239044,0.299126,0.120621553,-0.239963252,0.282673,0.101403158,-0.244284602,0.267716,0.201595096,-0.31025601,0.33582,0.15631957,-0.298211824,0.30955,0.150098579,-0.286834395,0.297481,0.155397568,-0.281670585,0.29485
0.183575742,-0.365526652,0.382535,0.16721343,-0.309212039,0.350173,0.170689458,-0.342592601,0.378131,0.135793491,-0.326249164,0.36075,0.11092266,-0.304872358,0.346983,0.0984436237,-0.291940073,0.334182,0.145135073,-0.250679442,0.326387,0.101609981,-0.24432973,0.298977,0.0798040845,-0.241175213,0.285272,0.062841895,-0.249816111,0.285971,0.158287368,-0.261519606,0.322539,0.10902345,-0.252100379,0.288613,0.0805772164,-0.24644462,0.268823,0.0604218533,-0.242314928,0.254688,0.170358945,-0.275261953,0.321958,0.129150514,-0.246385706,0.291967,0.107928799,-0.250017047,0.276622,0.0984245869,-0.253408957,0.262672,0.186774077,-0.300457005,0.326003,0.143059602,-0.292173293,0.301246,0.138301169,-0.283152119,0.289871,0.142951955,-0.282008849,0.289427
0.181766356,-0.369438238,0.382785,0.167196318,-0.318605958,0.34952,0.168927239,-0.346765017,0.3788,0.13673146,-0.337864356,0.362087,0.112232896,-0.317745469,0.349461,0.099954226,-0.305661492,0.337407,0.145172028,-0.259882754,0.32575,0.10183456,-0.253456877,0.298341,0.0801363985,-0.250259026,0.284637,0.0631690584,-0.258744346,0.284703,0.157858639,-0.270138622,0.321113,0.108724562,-0.260089922,0.286768,0.0804348721,-0.254010421,0.266733,0.0604366323,-0.2495468,0.252423,0.169529955,-0.283416304,0.319957,0.128539182,-0.254518327,0.28983,0.107455925,-0.257690304,0.274416,0.0979577088,-0.260277357,0.260404,0.185495952,-0.308114872,0.323454,0.142096082,-0.299197377,0.298608,0.145683163,-0.307094661,0.304753,0.156280009,-0.317195395,0.31588
0.180295255,-0.370268569,0.381731,0.156649661,-0.316341277,0.348571,0.166449908,-0.348739757,0.378039,0.128955543,-0.344640438,0.361734,0.100096998,-0.32854351,0.349345,0.0853258659,-0.317098095,0.337212,0.124510614,-0.26156793,0.325228,0.0841643885,-0.260886022,0.298114,0.0639413729,-0.260581332,0.284558,0.0476001602,-0.272214055,0.284663,0.139248736,-0.266894632,0.320255,0.0937024629,-0.262849936,0.286085,0.0674777923,-0.260216085,0.266152,0.0489389619,-0.258182082,0.251915,0.153366815,-0.276077435,0.318813,0.109938534,-0.250065381,0.288948,0.0925057965,-0.255327371,0.273669,0.0875442168,-0.259099011,0.259778,0.173700766,-0.295890194,0.321957,0.134326157,-0.293874457,0.297305,0.140053153,-0.302089818,0.303416,0.154181778,-0.311175857,0.314462
0.169989221,-0.368951322,0.376611,0.144215032,-0.306346917,0.340598,0.153586319,-0.349144386,0.371696,0.115752679,-0.330013936,0.354051,0.0924036202,-0.310360004,0.339735,0.0818332056,-0.292129672,0.327857,0.122385424,-0.243624691,0.314111,0.0812046292,-0.239667708,0.284935,0.0608781947,-0.237523906,0.270347,0.0444628862,-0.245860391,0.26844,0.134784941,-0.251993598,0.309846,0.0860140697,-0.241888504,0.273559,0.0585010249,-0.235443268,0.252392,0.0393690078,-0.230532734,0.237272,0.147561698,-0.266035476,0.309215,0.1208889,-0.232604706,0.277226,0.0971235818,-0.231774338,0.260859,0.0969821397,-0.23620459,0.25835,0.165936233,-0.288697311,0.313733,0.120141581,-0.280260448,0.287574,0.124317517,-0.291217514,0.292223,0.141801124,-0.301584949,0.303232
0.1667156,-0.369157335,0.375926,0.143946585,-0.305776673,0.339964,0.150319732,-0.348492333,0.370992,0.115510091,-0.329322312,0.353309,0.0921971818,-0.30966663,0.338976,0.081661231,-0.291515754,0.327168,0.12214035,-0.243136838,0.313482,0.0810250833,-0.239137796,0.284305,0.0607363279,-0.236970395,0.269717,0.0443661557,-0.245325514,0.267856,0.134528287,-0.251513759,0.309256,0.0858348469,-0.241384494,0.272989,0.0583716881,-0.234922739,0.251834,0.0392779158,-0.229999328,0.236723,0.146893546,-0.264969145,0.308652,0.120057541,-0.231683985,0.276669,0.0969176876,-0.231282995,0.260306,0.0965096794,-0.235897218,0.257848,0.164526715,-0.288326703,0.313196,0.119918071,-0.279739054,0.287039,0.124109062,-0.2907292,0.291733,0.140059186,-0.301582929,0.302759
0.162504276,-0.352924504,0.361701,0.148132419,-0.294694758,0.339739,0.153446864,-0.338807923,0.365967,0.112779243,-0.343217213,0.361125,0.0904011372,-0.325948619,0.362629,0.0798654597,-0.308620331,0.361152,0.137563747,-0.245613103,0.332699,0.0951152656,-0.249999419,0.317754,0.0734604419,-0.253088076,0.310282,0.0555299479,-0.266277001,0.315286,0.142008737,-0.24862497,0.320985,0.0914344776,-0.242966917,0.29776,0.0617333559,-0.239727357,0.284212,0.0404120307,-0.237446031,0.274535,0.146420362,-0.255612595,0.313099,0.119342672,-0.226903153,0.295252,0.0983587435,-0.233195891,0.28612,0.101878874,-0.247702905,0.290775,0.152991525,-0.272322827,0.307003,0.112576473,-0.264398582,0.291358,0.0943431346,-0.260696694,0.28417,0.0784432674,-0.257395283,0.277827
0.153195101,-0.34708182,0.35756,0.148103563,-0.283744607,0.338895,0.151056277,-0.327636839,0.36269,0.110573374,-0.332719196,0.359184,0.088712747,-0.3162405,0.361998,0.0789478656,-0.29941088,0.361814,0.139470124,-0.237059798,0.3348,0.0979635044,-0.241829512,0.322208,0.0764082528,-0.245241073,0.315911,0.0584586437,-0.25865849,0.322407,0.144356789,-0.239017587,0.322957,0.0950523927,-0.234110582,0.302464,0.0655292733,-0.231442353,0.290509,0.0440320791,-0.22964212,0.281971,0.148910926,-0.244979801,0.314703,0.122954865,-0.212766054,0.295523,0.101438616,-0.218764356,0.285711,0.104253293,-0.23471919,0.290806,0.155233831,-0.260179177,0.307689,0.115735148,-0.253600788,0.293954,0.0976909053,-0.2505619,0.287643,0.0818284567,-0.24787195,0.282075
0.153170817,-0.345786086,0.357833,0.1481158,-0.283768051,0.338923,0.150181956,-0.32655257,0.362871,0.110583533,-0.332749765,0.359217,0.088701229,-0.316199441,0.361951,0.078941756,-0.299387709,0.361786,0.139375978,-0.236899775,0.334574,0.0978318559,-0.241504529,0.321775,0.0762788543,-0.244825753,0.315376,0.0583444125,-0.258153058,0.321777,0.144275885,-0.23888363,0.322776,0.0949257459,-0.233798656,0.302061,0.0654094971,-0.231019317,0.289978,0.0439346364,-0.229133923,0.281347,0.148851306,-0.244881717,0.314577,0.122843778,-0.212573823,0.295256,0.101317547,-0.218503257,0.28537,0.104103082,-0.234381002,0.290387,0.155222227,-0.260159728,0.307666,0.115661523,-0.253439459,0.293767,0.0976019234,-0.250333676,0.287381,0.0817330155,-0.247582843,0.281746
0.152325949,-0.336062947,0.3566,0.148692749,-0.273196711,0.339155,0.147142883,-0.318381158,0.362032,0.111233921,-0.321294876,0.359017,0.0894179931,-0.304554742,0.361509,0.0797405314,-0.287837363,0.361427,0.140518403,-0.22771765,0.336125,0.0993343709,-0.23274708,0.324405,0.0778677667,-0.236299683,0.318544,0.0600099914,-0.249506787,0.325556,0.14538963,-0.229543768,0.324257,0.0964648018,-0.22519157,0.304787,0.067029602,-0.222862546,0.293429,0.0455236588,-0.22131163,0.285316,0.149883618,-0.235291073,0.315885,0.124417269,-0.203473656,0.297772,0.103049868,-0.210117772,0.288505,0.106073778,-0.226775246,0.2942,0.156037412,-0.250016271,0.308553,0.116909092,-0.244065069,0.295534,0.0989807524,-0.241323454,0.289552,0.0831897938,-0.238900631,0.284274
0.172887257,-0.300753465,0.380247,0.150728461,-0.247415829,0.350032,0.163182676,-0.283697324,0.381588,0.124013089,-0.283250478,0.372745,0.0894415271,-0.279436245,0.364511,0.0659585915,-0.269523589,0.354186,0.126819293,-0.197903555,0.334666,0.0811030663,-0.187077059,0.313506,0.0579742041,-0.181675936,0.302926,0.0380570804,-0.182981761,0.303608,0.132060077,-0.20275567,0.324231,0.0850625276,-0.206893318,0.294255,0.059660486,-0.207981819,0.276768,0.0595765818,-0.218409981,0.275625,0.138302283,-0.211139418,0.318058,0.103889255,-0.176064791,0.292901,0.0844662543,-0.182726603,0.28003,0.0889008072,-0.195204931,0.279819,0.149220257,-0.229213219,0.31519,0.113071273,-0.221622856,0.294701,0.103649494,-0.220611647,0.285288,0.110610466,-0.219621493,0.284654
0.220159502,-0.317523533,0.378368,0.177270525,-0.271151777,0.352974,0.199750841,-0.312747372,0.377425,0.163518384,-0.301258276,0.370738,0.13177557,-0.288122574,0.363432,0.111983425,-0.273118732,0.35558,0.130139974,-0.240659449,0.337461,0.0942874055,-0.227971625,0.316071,0.0909502542,-0.239399461,0.305376,0.0993933074,-0.256842483,0.309794,0.141751425,-0.232538582,0.331289,0.101466069,-0.189970176,0.302156,0.078316087,-0.166383518,0.285162,0.0634924979,-0.161521574,0.287319,0.155011417,-0.229354574,0.328239,0.118322151,-0.22975535,0.304376,0.120115395,-0.237410369,0.292166,0.134457029,-0.239518008,0.296409,0.177582127,-0.232225896,0.328351,0.145915548,-0.204187301,0.314554,0.131608119,-0.191487601,0.308215,0.117447818,-0.183988667,0.302621
0.165457437,-0.288823102,0.371062,0.13318143,-0.232969525,0.346244,0.1499633,-0.275068055,0.369519,0.107099869,-0.25999682,0.359432,0.07721496,-0.238228492,0.348547,0.0611382428,-0.219274473,0.340317,0.0926497476,-0.194758219,0.330303,0.0691005391,-0.152693394,0.31079,0.0504978193,-0.146586438,0.301033,0.0356687751,-0.15266861,0.307386,0.10900087,-0.190312962,0.32505,0.0750970046,-0.145757339,0.297302,0.0558123619,-0.120527651,0.281115,0.0396170243,-0.117386712,0.276826,0.124945526,-0.190606053,0.322712,0.0971845726,-0.203897678,0.29875,0.103978451,-0.206677846,0.28649,0.116527819,-0.202975068,0.291128,0.148381695,-0.198319148,0.323579,0.129591985,-0.164724946,0.312443,0.120657734,-0.149781231,0.307326,0.109098474,-0.142772283,0.302812
0.159664717,-0.257022189,0.363987,0.131462845,-0.208156232,0.343616,0.140535071,-0.249771905,0.363264,0.106686743,-0.234482668,0.354372,0.0763978275,-0.214067348,0.343175,0.0603423997,-0.197272328,0.337092,0.0931855685,-0.17330334,0.331215,0.0686435475,-0.133325022,0.310199,0.0504555588,-0.126417249,0.299691,0.0357604021,-0.130857436,0.305735,0.107976713,-0.167495351,0.326221,0.0752311946,-0.127347543,0.302066,0.0560795605,-0.103871751,0.287975,0.0388334479,-0.0984902535,0.27791,0.12267061,-0.16644242,0.323739,0.0948359697,-0.12418511,0.30264,0.0799612635,-0.129328683,0.291845,0.0850741435,-0.150055699,0.298543,0.144664373,-0.172236354,0.323788,0.125383687,-0.138016261,0.309723,0.114542889,-0.124261666,0.30326,0.104926313,-0.112057559,0.297558
0.160013865,-0.250711368,0.361788,0.132152051,-0.198889563,0.343355,0.1410756,-0.244654362,0.361809,0.108845548,-0.225057337,0.355696,0.0782191711,-0.205483398,0.344892,0.0619562921,-0.188730048,0.338715,0.0931328402,-0.167052609,0.33298,0.06996901,-0.127518146,0.315635,0.0536053453,-0.127624694,0.306963,0.0384874112,-0.134556196,0.314552,0.107786423,-0.159622439,0.327614,0.0745376391,-0.119982806,0.305189,0.0546992905,-0.0970742446,0.292108,0.0373836357,-0.0908519138,0.282765,0.122399679,-0.157089269,0.324671,0.0952144038,-0.115269321,0.30444,0.0807681097,-0.120247658,0.294089,0.0860595836,-0.14114162,0.301371,0.144358878,-0.160842991,0.323893,0.125732936,-0.127246471,0.311094,0.115446344,-0.113325502,0.305214,0.10631344,-0.100960142,0.300025
0.162714248,-0.238980743,0.360886,0.135401585,-0.185778583,0.342132,0.142470945,-0.232904139,0.359265,0.110810671,-0.210630913,0.351848,0.0790745366,-0.190587476,0.338593,0.0620601612,-0.173497347,0.331072,0.0943919581,-0.153652794,0.329515,0.0710057828,-0.115032377,0.313378,0.0559488569,-0.114895485,0.30531,0.0438257641,-0.121030323,0.313846,0.111048741,-0.146607377,0.326117,0.0788807994,-0.106369398,0.302949,0.0597162649,-0.0830669905,0.289434,0.0435893068,-0.076196751,0.279781,0.127353492,-0.144369124,0.324819,0.100315001,-0.102192267,0.303507,0.0872320126,-0.106492837,0.292604,0.0931170656,-0.126938078,0.29985,0.151353516,-0.148445697,0.326028,0.132659629,-0.114692664,0.312666,0.122655072,-0.100547436,0.306526,0.113774582,-0.0879810673,0.301109
0.164471785,-0.223251387,0.355666,0.137313249,-0.173844454,0.341801,0.144517257,-0.21947367,0.355514,0.113923553,-0.199759304,0.35069,0.0816197461,-0.181033566,0.337801,0.0643132834,-0.165313345,0.331742,0.0965523015,-0.146845269,0.333787,0.0717738456,-0.110083806,0.318732,0.0566884057,-0.109135382,0.311204,0.0444735587,-0.114028782,0.32028,0.112443916,-0.137358268,0.329962,0.082381892,-0.0957183065,0.311114,0.0646467617,-0.0717864664,0.300119,0.0484340569,-0.062063125,0.292266,0.128121312,-0.132845586,0.327922,0.102906381,-0.0915836333,0.310532,0.0892226433,-0.0928368771,0.301636,0.0947984743,-0.112398829,0.310809,0.151366109,-0.133737006,0.32754,0.131584838,-0.1014291,0.316081,0.121111775,-0.0876484965,0.310816,0.111813638,-0.0754057784,0.30617
0.163798687,-0.207946572,0.34898,0.135212301,-0.162061347,0.338513,0.144874513,-0.206184035,0.350379,0.113565985,-0.188561532,0.349283,0.0811192388,-0.170123766,0.33624,0.0649660003,-0.156067232,0.333423,0.0958510571,-0.137542414,0.334361,0.0657189962,-0.104535911,0.323437,0.0474321177,-0.0906367838,0.317975,0.0302855672,-0.0776324863,0.31301,0.110727857,-0.127314363,0.329574,0.075093825,-0.0904572026,0.31395,0.0522226437,-0.0705720763,0.304836,0.035619694,-0.0561462275,0.298326,0.125520186,-0.122051341,0.326472,0.0914554428,-0.0873203287,0.312532,0.074063668,-0.0695887222,0.3054,0.0559031173,-0.0553476395,0.298917,0.147570008,-0.1217952,0.32434,0.129363656,-0.089055939,0.312575,0.118798212,-0.075417415,0.307169,0.109407563,-0.0632840278,0.3024
0.165074677,-0.205517739,0.350658,0.136388727,-0.160331278,0.339935,0.145782538,-0.203571931,0.351425,0.114412733,-0.186385064,0.349671,0.0818589621,-0.16790116,0.33635,0.0656572745,-0.154030918,0.333779,0.0964700616,-0.135696416,0.334846,0.0663840972,-0.102884329,0.324272,0.0481725373,-0.0889673204,0.318985,0.0310816983,-0.0759333549,0.314179,0.111702688,-0.125519209,0.330778,0.0760253894,-0.0887020904,0.315177,0.0531852194,-0.0687765468,0.306077,0.0366076569,-0.0543225947,0.299576,0.126842422,-0.120282168,0.328287,0.092545382,-0.0854402561,0.313898,0.074409264,-0.0681426666,0.306536,0.0557734492,-0.054965333,0.299844,0.15005846,-0.11737834,0.326915,0.13184253,-0.0850687383,0.315658,0.12139454,-0.0714491503,0.310486,0.111397679,-0.0616591181,0.305923
0.164659176,-0.197971027,0.349377,0.13660107,-0.155173609,0.340164,0.14576672,-0.196846852,0.350854,0.113500405,-0.181566197,0.34908,0.080809194,-0.164145168,0.339867,0.0650838992,-0.151052553,0.334754,0.0973862481,-0.131936383,0.336817,0.0689494103,-0.094371188,0.324144,0.0495971612,-0.084453979,0.317808,0.0316366422,-0.0738426749,0.312048,0.112203488,-0.118023073,0.332296,0.0763229929,-0.0849384469,0.317731,0.0535765255,-0.0615832597,0.309235,0.0378780988,-0.0496784112,0.303166,0.126961339,-0.111718098,0.329312,0.0942176325,-0.0767728028,0.31661,0.0766471835,-0.0592781844,0.310111,0.0605454354,-0.0432430092,0.304203,0.148863466,-0.11008512,0.327136,0.131849489,-0.0771694161,0.315605,0.123270895,-0.0624699173,0.310306,0.112679866,-0.0557188906,0.305631
0.166848982,-0.197041313,0.3509,0.138696536,-0.154507565,0.341249,0.147495425,-0.195860602,0.351921,0.114852012,-0.180727587,0.349061,0.0828515982,-0.164603401,0.338006,0.0654676614,-0.151849527,0.333294,0.0988796533,-0.12936355,0.337084,0.0709175984,-0.0940743032,0.323687,0.0528064764,-0.0833313892,0.316988,0.0382123535,-0.076752877,0.310898,0.114651079,-0.118227485,0.333008,0.0784070337,-0.0819265941,0.31795,0.0604153957,-0.0598142435,0.309166,0.0416332224,-0.0454380457,0.302892,0.130140499,-0.112174146,0.330425,0.101807266,-0.0750102709,0.315624,0.0848859547,-0.0566285893,0.308052,0.0693648203,-0.0397598613,0.301168,0.152965009,-0.110872418,0.328787,0.13467048,-0.0783884437,0.317369,0.125852419,-0.0637914872,0.312123,0.116236073,-0.0526815082,0.307494
0.168652381,-0.196357385,0.352369,0.140608617,-0.151812785,0.341414,0.149237401,-0.195204835,0.353501,0.11890013,-0.178654025,0.350757,0.0850555897,-0.164351324,0.338446,0.0659184736,-0.150994346,0.332831,0.10102157,-0.127656798,0.336652,0.0707098581,-0.0935434131,0.323288,0.0521610218,-0.0832704395,0.316605,0.0333940643,-0.074619824,0.31053,0.116950187,-0.116828305,0.33206,0.081405931,-0.0794503727,0.315956,0.0606530598,-0.0578263019,0.306562,0.0442070601,-0.0446414665,0.299852,0.132626857,-0.111085419,0.329156,0.102383525,-0.0746446064,0.314596,0.0838581739,-0.0590313999,0.307147,0.0692138744,-0.0612448263,0.300375,0.155747223,-0.110221438,0.327329,0.135334246,-0.0787937456,0.318069,0.126729144,-0.0645946765,0.313815,0.117918059,-0.0532567001,0.31006
0.174504144,-0.195924757,0.355798,0.155487966,-0.154194937,0.342111,0.158144383,-0.192453692,0.355539,0.132342142,-0.182347248,0.35058,0.0981399686,-0.166779278,0.335849,0.0795096609,-0.153525362,0.330717,0.111313271,-0.130445704,0.334063,0.0782682505,-0.0969531498,0.318339,0.0593726295,-0.0875552897,0.310476,0.0414328444,-0.0786974392,0.303329,0.127723539,-0.119422666,0.330423,0.0905147002,-0.0818977996,0.31169,0.067822517,-0.0612417408,0.300762,0.0508467186,-0.0530013296,0.292956,0.14404028,-0.113512639,0.328522,0.11181522,-0.0781471364,0.312197,0.091853687,-0.0653474635,0.303845,0.079325344,-0.0647287547,0.296252,0.168381626,-0.112469848,0.328278,0.14734837,-0.0826291665,0.319494,0.137177967,-0.0692206698,0.315458,0.123994776,-0.0555946157,0.311897
0.179497386,-0.199106665,0.361085,0.157708163,-0.155647078,0.343901,0.16215634,-0.195356512,0.359289,0.13302174,-0.18281358,0.351492,0.0995780088,-0.167279503,0.338457,0.0813704745,-0.153346824,0.332852,0.11239325,-0.129405511,0.331952,0.0805992591,-0.0961377395,0.316558,0.067176577,-0.0904428628,0.308861,0.0517217602,-0.0853393293,0.301864,0.12963302,-0.119128016,0.329228,0.0931736307,-0.0831232813,0.307259,0.0701385767,-0.0622643198,0.294444,0.0556106425,-0.0569013905,0.285291,0.146677152,-0.113962174,0.328359,0.112362367,-0.079433727,0.311408,0.093361746,-0.069443154,0.302735,0.0778688408,-0.0635990972,0.29485,0.172036776,-0.1140452,0.329846,0.151449718,-0.0834446613,0.315833,0.140461699,-0.0693859727,0.309395,0.130535898,-0.0616264944,0.303714
0.19445572,-0.201810596,0.361852,0.16616181,-0.165142382,0.346052,0.172660496,-0.200262378,0.360624,0.143776679,-0.193145715,0.354728,0.109950757,-0.177947862,0.340776,0.0905332752,-0.1636451,0.331916,0.120222592,-0.14115601,0.335596,0.0912291483,-0.105471496,0.31972,0.0749073407,-0.0991734561,0.311782,0.0593297089,-0.0932544563,0.304566,0.137190407,-0.130228297,0.332559,0.0976926394,-0.0941039813,0.311852,0.0743813566,-0.0734706863,0.299772,0.056819467,-0.0593735261,0.291144,0.154064745,-0.124413271,0.331324,0.120624161,-0.0871891289,0.313118,0.101944425,-0.0756024151,0.303804,0.0801011859,-0.0640297756,0.295336,0.179256333,-0.123496822,0.332175,0.158842717,-0.0904594437,0.318435,0.148509444,-0.0765414741,0.312122,0.135434887,-0.0636054455,0.306552
0.198248675,-0.20320569,0.361915,0.168796123,-0.165773699,0.344657,0.183019206,-0.206140995,0.360481,0.1523775,-0.196289916,0.355064,0.118424047,-0.182790407,0.341372,0.0948679754,-0.167098187,0.33414,0.124496992,-0.144945736,0.333118,0.0934944222,-0.107269172,0.312698,0.0773742379,-0.100206878,0.302488,0.0621595392,-0.0936340138,0.293206,0.14047837,-0.13302912,0.329919,0.100376163,-0.0986639567,0.311841,0.0758477016,-0.0762133304,0.301296,0.0587915526,-0.0627015393,0.293764,0.156832543,-0.126275431,0.328666,0.11909873,-0.0915453152,0.3079,0.09974686,-0.0738965402,0.297275,0.0817989563,-0.0618242102,0.287616,0.179933854,-0.123315278,0.329709,0.160200568,-0.0908964963,0.317766,0.150553826,-0.0767282785,0.312279,0.141872708,-0.0645778507,0.307437
0.210371346,-0.212858493,0.36702,0.181128396,-0.176514329,0.347084,0.187614044,-0.211133026,0.364371,0.157782467,-0.203852045,0.355469,0.123675788,-0.187959589,0.337772,0.104732305,-0.173879407,0.327101,0.13359435,-0.149667111,0.33251,0.0968808777,-0.122009663,0.32059,0.0784990752,-0.10816345,0.31463,0.0583896678,-0.0926068892,0.309212,0.15182797,-0.140246383,0.33006,0.112764721,-0.102183899,0.305687,0.0893772121,-0.0836617373,0.29147,0.0723941045,-0.0702207617,0.281314,0.169771189,-0.135815331,0.329638,0.132678606,-0.102165869,0.313041,0.113990043,-0.0851749695,0.305196,0.0970089224,-0.0697285017,0.298178,0.196268917,-0.136777485,0.332053,0.175018159,-0.103992439,0.318445,0.165208326,-0.0892763645,0.312192,0.155928413,-0.078733934,0.306675
0.223213495,-0.219405793,0.36447,0.192516976,-0.179660774,0.344297,0.20847435,-0.221528045,0.360249,0.170617683,-0.209689778,0.350891,0.136047776,-0.196750508,0.336779,0.115403105,-0.18331431,0.32752,0.140913922,-0.157265277,0.327618,0.107387863,-0.120866052,0.307773,0.0952890956,-0.116020216,0.29785,0.0838708987,-0.111568805,0.288829,0.158857914,-0.144781158,0.327071,0.117386848,-0.111398998,0.302135,0.0929611679,-0.0917478278,0.287589,0.075387523,-0.0776148103,0.277199,0.176921743,-0.13765018,0.328233,0.137687687,-0.104868595,0.304628,0.117508203,-0.0880048939,0.292551,0.0990900992,-0.0726111053,0.281573,0.204324327,-0.135077141,0.332552,0.180718975,-0.100555464,0.314489,0.172429404,-0.092346235,0.30619,0.165014572,-0.0849437971,0.298868
0.239710265,-0.227099744,0.364405,0.206630596,-0.190758996,0.342837,0.221772678,-0.232865868,0.358452,0.18257094,-0.21932438,0.345188,0.148724695,-0.207534521,0.334336,0.13086099,-0.196690598,0.331421,0.153538354,-0.167257257,0.323198,0.116631794,-0.130058616,0.299175,0.104847823,-0.12290282,0.287164,0.0938657144,-0.11632419,0.276245,0.1727722,-0.155227364,0.324419,0.13235377,-0.121558993,0.298027,0.108527765,-0.101720678,0.282631,0.0913728708,-0.0874416723,0.271634,0.191872693,-0.14855802,0.327148,0.15350414,-0.114418853,0.302096,0.133836216,-0.0969163239,0.289278,0.115930806,-0.0809803519,0.277626,0.220453815,-0.146656087,0.333521,0.196413161,-0.111779768,0.315269,0.189184118,-0.102215488,0.306883,0.182753618,-0.0936066029,0.299483
0.255548025,-0.242810612,0.368017,0.222755862,-0.206383271,0.344469,0.236339187,-0.248616339,0.361863,0.19795844,-0.234518801,0.347598,0.163287077,-0.220621826,0.333679,0.144219056,-0.207800215,0.328518,0.16988944,-0.180188598,0.32346,0.132706828,-0.142654884,0.300346,0.121036258,-0.137169344,0.288789,0.11016426,-0.132182336,0.278282,0.189882568,-0.169451967,0.324361,0.150160506,-0.134730726,0.29637,0.127068274,-0.114823822,0.280043,0.110458566,-0.100507471,0.26838,0.209534459,-0.163984199,0.326984,0.171127087,-0.13063254,0.300471,0.151416498,-0.113512462,0.286906,0.133455311,-0.0979089991,0.274574,0.238611474,-0.163760817,0.333521,0.214812605,-0.127817286,0.313739,0.206992009,-0.11729021,0.30465,0.200674516,-0.109240539,0.296631
0.274500023,-0.272804183,0.368153,0.237169462,-0.225359641,0.344616,0.24787531,-0.269302259,0.359713,0.207084805,-0.249816929,0.342131,0.180980423,-0.242213256,0.342899,0.171127025,-0.235429518,0.347762,0.184024977,-0.194918722,0.320745,0.154028885,-0.153380616,0.295695,0.146830025,-0.145597549,0.28317,0.140262712,-0.138478191,0.271784,0.205899933,-0.185767801,0.324517,0.170536007,-0.147857985,0.296213,0.149841678,-0.125662243,0.279703,0.13502369,-0.109762891,0.26791,0.226865636,-0.181872545,0.329504,0.193504748,-0.147701419,0.302512,0.176325033,-0.130073308,0.288702,0.168234787,-0.122389688,0.276148,0.257155179,-0.183925673,0.338828,0.243619618,-0.15135345,0.330555,0.237405251,-0.13640568,0.326754,0.231924379,-0.123226144,0.3234
0.281865556,-0.275920634,0.368165,0.250566505,-0.23100629,0.341326,0.255294096,-0.272024649,0.360374,0.220660383,-0.259142939,0.339085,0.19051396,-0.249767349,0.3353,0.176603943,-0.239937958,0.336644,0.196370845,-0.19890977,0.316407,0.161782563,-0.164137303,0.288361,0.149166389,-0.156660988,0.274338,0.137567314,-0.149878291,0.26159,0.218092002,-0.19084661,0.318407,0.180319152,-0.156807832,0.287589,0.158176443,-0.136850457,0.269612,0.142298451,-0.122537503,0.256771,0.239270625,-0.187824652,0.322199,0.200326477,-0.150361771,0.292949,0.180568278,-0.131392281,0.277984,0.171322655,-0.128466988,0.26438,0.270334068,-0.191006131,0.330597,0.252420496,-0.155714207,0.315924,0.245423599,-0.140389567,0.310685,0.239286766,-0.126898425,0.306106
0.295520128,-0.282323736,0.37242,0.261077421,-0.237187209,0.344368,0.26850799,-0.277825837,0.364203,0.230012608,-0.259839907,0.341982,0.199170282,-0.249628529,0.330348,0.179186783,-0.236029789,0.321049,0.207533772,-0.207229555,0.31823,0.173758567,-0.178518768,0.289336,0.156765356,-0.164093157,0.274888,0.13945029,-0.150451958,0.261755,0.229432782,-0.198937141,0.320413,0.190943301,-0.161968375,0.28861,0.168532544,-0.140448726,0.270058,0.15355706,-0.125930466,0.258505,0.250593338,-0.195603375,0.324453,0.214229134,-0.16292746,0.294336,0.195580013,-0.146160669,0.278927,0.175116941,-0.129800825,0.264919,0.281281468,-0.198140401,0.33332,0.256642596,-0.161787172,0.312573,0.248955085,-0.151150845,0.303041,0.242174032,-0.141669172,0.29463
0.307129582,-0.291628288,0.37475,0.272642647,-0.25010854,0.346591,0.285752491,-0.294800245,0.361945,0.242048693,-0.273032158,0.337394,0.20705323,-0.258842408,0.322991,0.187094387,-0.246764968,0.317426,0.215226936,-0.217611166,0.314635,0.186560217,-0.187061063,0.284503,0.172178176,-0.171727174,0.269438,0.159066927,-0.157743297,0.255741,0.23792202,-0.209203569,0.322545,0.209513161,-0.17510387,0.29029,0.192885388,-0.155053513,0.271474,0.180976328,-0.140640249,0.258034,0.259961482,-0.205967753,0.331306,0.229670586,-0.17377083,0.299752,0.214135372,-0.15721391,0.283607,0.199986437,-0.142101475,0.268931,0.292221275,-0.208935904,0.34576,0.2879695,-0.17262219,0.332936,0.29231526,-0.173163391,0.327043,0.296396402,-0.173735005,0.321844
0.31988808,-0.308990336,0.378555,0.282801354,-0.264147105,0.34885,0.290632876,-0.303117845,0.364587,0.253708214,-0.284891465,0.338755,0.217514088,-0.265815517,0.32015,0.198325294,-0.253602305,0.315642,0.225548418,-0.227921158,0.314564,0.20118786,-0.197492641,0.283395,0.188997562,-0.182238313,0.267811,0.177907419,-0.168340866,0.253643,0.249549242,-0.221284378,0.323484,0.225926845,-0.189210227,0.290083,0.212372925,-0.170572725,0.270599,0.204990782,-0.159464528,0.256681,0.272571144,-0.219666342,0.333201,0.246262094,-0.187130038,0.300528,0.232803392,-0.170425001,0.283811,0.22057008,-0.15519584,0.268614,0.305800886,-0.224866391,0.349009,0.302279419,-0.188358326,0.336087,0.306864713,-0.189524256,0.33015,0.311151709,-0.190662262,0.324912
0.336761079,-0.325893613,0.391648,0.305292243,-0.27884845,0.360806,0.308660108,-0.320538457,0.377754,0.277092221,-0.29971119,0.350299,0.242299097,-0.285030159,0.33529,0.224502088,-0.275206439,0.333214,0.252782816,-0.247123184,0.32597,0.225019347,-0.21437924,0.294069,0.211950424,-0.198732569,0.278119,0.200313891,-0.184717367,0.263619,0.275990698,-0.239520381,0.334469,0.249667188,-0.205265805,0.300211,0.235522527,-0.186293726,0.280228,0.227451444,-0.174598612,0.265954,0.297906034,-0.236871912,0.343929,0.256396176,-0.199583579,0.313652,0.242715558,-0.185970686,0.298162,0.236296484,-0.178409235,0.28408,0.328921432,-0.240384549,0.359601,0.321988643,-0.212465838,0.338148,0.318863332,-0.199573729,0.328291,0.311037719,-0.187847033,0.319594
0.346334822,-0.333113708,0.395529,0.314144285,-0.287698008,0.362822,0.319128548,-0.327717369,0.382619,0.285918615,-0.30863709,0.358879,0.255114158,-0.288913701,0.334925,0.236546859,-0.271680224,0.322496,0.259312214,-0.251050808,0.328169,0.233193046,-0.222126875,0.295154,0.220132999,-0.207654912,0.278646,0.208260374,-0.194491798,0.263639,0.284066718,-0.245555998,0.334893,0.257629487,-0.212829767,0.299256,0.242227081,-0.193704227,0.278467,0.234050837,-0.184240094,0.263618,0.307427388,-0.244863713,0.343042,0.281033354,-0.215014748,0.308578,0.267549614,-0.199720885,0.290946,0.255306244,-0.185800518,0.274917,0.340466531,-0.251125801,0.357438,0.328494195,-0.222399414,0.332734,0.323004648,-0.20919052,0.321384,0.318167113,-0.197529047,0.311369
0.360984129,-0.342291679,0.399231,0.332102563,-0.29468794,0.366053,0.340663397,-0.337345689,0.386754,0.307113264,-0.318396113,0.363224,0.274143156,-0.298649271,0.339873,0.25441949,-0.281930186,0.328073,0.276444756,-0.259646232,0.331677,0.249388491,-0.23207273,0.298484,0.235861867,-0.218280535,0.281887,0.223566489,-0.205738688,0.266799,0.300739625,-0.25341313,0.337721,0.273185034,-0.222065659,0.301756,0.257137277,-0.203753861,0.280776,0.248565808,-0.194883115,0.26579,0.323844035,-0.252031363,0.345348,0.296536724,-0.223622614,0.310725,0.282591428,-0.209072248,0.293011,0.269933684,-0.195833431,0.276908,0.356792687,-0.257329323,0.359197,0.343918386,-0.229407753,0.33413,0.338023312,-0.216562621,0.322613,0.332832789,-0.205218114,0.31245
0.372853446,-0.349817005,0.400298,0.339752625,-0.304185015,0.368648,0.344321599,-0.342970579,0.387604,0.31367169,-0.326358315,0.363847,0.281194571,-0.305009888,0.340953,0.259214624,-0.285936282,0.330234,0.284575843,-0.266980973,0.334861,0.258431122,-0.236890489,0.302485,0.245683509,-0.222125332,0.286672,0.23116637,-0.209326379,0.272296,0.309238117,-0.261401194,0.34162,0.282805232,-0.227428254,0.306742,0.26741065,-0.207574764,0.286396,0.256861507,-0.19843167,0.271864,0.332536879,-0.260704372,0.349713,0.306254771,-0.229720289,0.316041,0.293717516,-0.214944616,0.298813,0.282887387,-0.202171132,0.283152,0.365552584,-0.267066256,0.36389,0.353349035,-0.237378117,0.339732,0.347746444,-0.223734258,0.328633,0.34124376,-0.210569494,0.31884
0.374418258,-0.35410392,0.403293,0.343111179,-0.309393424,0.371848,0.346342613,-0.347194714,0.390656,0.317434874,-0.331587915,0.367726,0.286042714,-0.312369917,0.343636,0.268295408,-0.295415954,0.331415,0.293624358,-0.277435404,0.338249,0.258656435,-0.238520417,0.305821,0.24862271,-0.228988063,0.289606,0.244360275,-0.229310695,0.274866,0.319166439,-0.273228273,0.344996,0.285619773,-0.229556086,0.310269,0.271532558,-0.211935373,0.290011,0.267188854,-0.210624096,0.275541,0.34258623,-0.273331646,0.353063,0.307191,-0.233392582,0.31914,0.290665431,-0.221239216,0.301784,0.280938772,-0.213798571,0.286005,0.374538764,-0.280031988,0.367177,0.360376892,-0.247359074,0.34343,0.353842315,-0.232386925,0.332519,0.347870268,-0.216971114,0.323129
0.370729818,-0.351121981,0.399273,0.340949224,-0.307421475,0.368476,0.343901904,-0.344943611,0.387874,0.315500333,-0.328924282,0.364523,0.286269817,-0.311186278,0.342747,0.267424887,-0.293472202,0.332417,0.292838313,-0.275918195,0.336796,0.261469482,-0.236199429,0.305575,0.255516211,-0.2322422,0.289965,0.250571425,-0.23598358,0.275774,0.317748137,-0.271387584,0.342177,0.285439969,-0.227756156,0.309067,0.274530649,-0.214354705,0.289753,0.269943376,-0.213146167,0.275957,0.340555626,-0.271159981,0.349067,0.317962969,-0.240953266,0.316156,0.305515559,-0.224985277,0.299333,0.299826087,-0.224463378,0.284039,0.371637633,-0.27733035,0.3617,0.358238883,-0.244930634,0.338409,0.352760603,-0.231240187,0.327707,0.348075904,-0.219260316,0.318383
0.379161794,-0.360028103,0.407893,0.348065876,-0.306603431,0.374183,0.349906854,-0.350224451,0.394523,0.339414982,-0.323918835,0.373302,0.31600948,-0.29471656,0.349307,0.301763758,-0.273134023,0.338784,0.297547006,-0.250612262,0.338387,0.272820373,-0.235522774,0.30428,0.261137403,-0.23073737,0.287227,0.249244628,-0.232256652,0.271724,0.325834869,-0.254346614,0.345397,0.297982223,-0.221701004,0.309063,0.284394644,-0.21719467,0.287868,0.274577531,-0.220298466,0.272729,0.352078165,-0.262023871,0.353862,0.326323736,-0.239019637,0.318411,0.313206623,-0.227270245,0.300273,0.301179994,-0.225793639,0.283784,0.388366513,-0.279762639,0.368778,0.371262679,-0.24751321,0.341609,0.363684125,-0.234195747,0.329126,0.354910827,-0.22237706,0.318112
0.381450802,-0.362704353,0.409959,0.350236628,-0.307025511,0.375245,0.351628815,-0.351480805,0.396253,0.319571899,-0.332830628,0.368644,0.28750516,-0.312576635,0.345134,0.266765115,-0.292998634,0.331016,0.297807929,-0.25185102,0.33846,0.278794736,-0.244127726,0.303932,0.269167737,-0.239637362,0.286668,0.260162639,-0.237002954,0.270974,0.32614319,-0.255238586,0.345601,0.297868616,-0.221244414,0.308599,0.284348726,-0.215913541,0.287014,0.274717487,-0.218261799,0.271596,0.352476926,-0.262652274,0.354254,0.326024591,-0.239180153,0.318162,0.312535792,-0.227187022,0.299697,0.30103967,-0.225939709,0.28291,0.388990005,-0.280109624,0.369538,0.37213652,-0.248369254,0.342418,0.364662485,-0.235082919,0.329957,0.356634428,-0.223209774,0.318963
0.384339745,-0.36302578,0.41086,0.362181774,-0.302045886,0.376092,0.355314158,-0.350811789,0.397727,0.331098619,-0.33010663,0.370019,0.297390553,-0.314077296,0.347286,0.271353145,-0.296396601,0.333373,0.304894687,-0.252235443,0.339997,0.281834463,-0.243595077,0.305582,0.271673833,-0.238778229,0.288375,0.262274798,-0.235892137,0.272731,0.332823331,-0.25392005,0.346404,0.299376687,-0.221756475,0.309348,0.285418079,-0.216679694,0.287732,0.275720109,-0.219019387,0.272292,0.359170963,-0.259694174,0.354456,0.327019141,-0.236549728,0.318533,0.311443864,-0.220846834,0.300154,0.301291072,-0.224794048,0.283446,0.396271204,-0.274785837,0.369039,0.372711399,-0.246707106,0.341318,0.364632212,-0.233949926,0.328581,0.356154087,-0.222653305,0.317343
0.385767965,-0.362724739,0.410923,0.361444801,-0.301974408,0.376003,0.356745042,-0.350119835,0.397924,0.330736598,-0.330406387,0.370355,0.295200287,-0.314734099,0.347702,0.272152638,-0.296574126,0.333654,0.301721024,-0.252608314,0.33999,0.281946943,-0.242999997,0.305607,0.271595031,-0.238054269,0.288415,0.262054776,-0.235063196,0.272787,0.329341867,-0.254712125,0.346184,0.299139447,-0.221512495,0.309025,0.284826974,-0.21616504,0.287349,0.275042035,-0.218203227,0.271866,0.358140737,-0.259413567,0.354073,0.326252021,-0.236415598,0.318121,0.311589149,-0.224221332,0.299726,0.300544445,-0.224090016,0.283004,0.395020004,-0.274374075,0.368486,0.372787393,-0.245954063,0.340875,0.364616958,-0.233593533,0.328188,0.356303272,-0.222756621,0.316995
0.387773024,-0.363896269,0.412304,0.359373928,-0.305203352,0.377784,0.357931304,-0.351679934,0.399292,0.331667883,-0.331494629,0.371692,0.298298785,-0.314728247,0.348583,0.273622557,-0.296748949,0.334342,0.305919374,-0.25337862,0.34198,0.285094177,-0.24268316,0.307835,0.274690652,-0.237348756,0.290763,0.265192529,-0.234055042,0.275242,0.333664995,-0.255008595,0.348307,0.30256611,-0.223162699,0.311415,0.289214604,-0.217788385,0.289895,0.278649894,-0.219950551,0.274524,0.359741244,-0.26077385,0.356273,0.328897942,-0.234735513,0.320522,0.313489906,-0.222332694,0.302231,0.303452512,-0.225160335,0.285603,0.396342823,-0.275906043,0.370719,0.381515514,-0.247099037,0.345244,0.377376373,-0.235165135,0.333539,0.373077565,-0.225984298,0.323211
0.389097237,-0.36467298,0.413751,0.360419049,-0.305556145,0.379403,0.358669163,-0.351590497,0.400145,0.330065808,-0.330146341,0.371967,0.297662358,-0.312874842,0.348733,0.274363656,-0.295315634,0.334191,0.305149877,-0.253161435,0.342952,0.285545456,-0.241924068,0.308615,0.275291609,-0.236920746,0.291447,0.265661169,-0.235544312,0.27584,0.333584612,-0.255712248,0.350073,0.304128119,-0.223951072,0.313312,0.291503623,-0.21822115,0.291867,0.281774667,-0.220188834,0.27655,0.360969341,-0.261478598,0.35868,0.330689527,-0.235155069,0.322811,0.315614128,-0.222709042,0.30446,0.3053652,-0.222606427,0.287776,0.395388927,-0.276154876,0.373857,0.384385004,-0.247122696,0.348572,0.379744715,-0.235946005,0.336954,0.375792091,-0.226844824,0.326703
