sluyters/QuantumLeap/backend/src/datasets/dynamic/HandGestureDataset_SHREC2017_csv/Gesture3/finger_2/subject_25_essai_5_skeletons_world.csv
Wrist_x,Wrist_y,Wrist_z,Palm_x,Palm_y,Palm_z,thumb_base_x,thumb_base_y,thumb_base_z,thumb_first_joint_x,thumb_first_joint_y,thumb_first_joint_z,thumb_second_joint_x,thumb_second_joint_y,thumb_second_joint_z,thumb_tip_x,thumb_tip_y,thumb_tip_z,index_base_x,index_base_y,index_base_z,index_first_joint_x,index_first_joint_y,index_first_joint_z,index_second_joint_x,index_second_joint_y,index_second_joint_z,index_tip_x,index_tip_y,index_tip_z,middle_base_x,middle_base_y,middle_base_z,middle_first_joint_x,middle_first_joint_y,middle_first_joint_z,middle_second_joint_x,middle_second_joint_y,middle_second_joint_z,middle_tip_x,middle_tip_y,middle_tip_z,ring_base_x,ring_base_y,ring_base_z,ring_first_joint_x,ring_first_joint_y,ring_first_joint_z,ring_second_joint_x,ring_second_joint_y,ring_second_joint_z,ring_tip_x,ring_tip_y,ring_tip_z,pinky_base_x,pinky_base_y,pinky_base_z,pinky_first_joint_x,pinky_first_joint_y,pinky_first_joint_z,pinky_second_joint_x,pinky_second_joint_y,pinky_second_joint_z,pinky_tip_x,pinky_tip_y,pinky_tip_z,r
0.435410608,-0.343357683,0.501762,0.414666276,-0.300979395,0.490661,0.406975021,-0.336534877,0.492235,0.399888216,-0.309825223,0.484785,0.363418685,-0.281199794,0.467566,0.346252601,-0.266725906,0.465253,0.360963906,-0.256471477,0.470568,0.348146033,-0.221158497,0.453623,0.345477591,-0.225855997,0.44515,0.353691104,-0.246937036,0.452949,0.392161993,-0.254469907,0.479524,0.369242098,-0.212955198,0.466976,0.368944669,-0.209427485,0.459657,0.371676109,-0.220410145,0.454428,0.420563064,-0.257308241,0.488015,0.396037053,-0.216967048,0.469155,0.396336213,-0.220859341,0.459506,0.395370889,-0.232790127,0.450734,0.45860259,-0.268882062,0.49992,0.433793347,-0.241040693,0.483399,0.423136296,-0.228796164,0.475809,0.419905591,-0.223897203,0.469111
0.440377149,-0.348653321,0.506478,0.415213411,-0.302266245,0.491628,0.4113566,-0.341156475,0.497752,0.403611594,-0.313345213,0.488928,0.365040445,-0.288318378,0.469622,0.347471632,-0.273177198,0.468491,0.359881495,-0.257503129,0.469904,0.342674059,-0.225396535,0.449841,0.33849822,-0.231016088,0.43981,0.348092895,-0.247199403,0.446677,0.389280561,-0.254326591,0.47673,0.367926891,-0.212543354,0.464951,0.369119107,-0.212425324,0.45808,0.370457825,-0.220867143,0.453173,0.416381234,-0.256395505,0.483845,0.391190556,-0.21468789,0.462614,0.391089039,-0.220885118,0.451752,0.402597558,-0.238374497,0.459209,0.453380107,-0.267350708,0.494811,0.432205483,-0.253149623,0.476217,0.422795667,-0.245401662,0.467674,0.423714631,-0.247991605,0.460137
0.439892701,-0.349674911,0.505167,0.413155241,-0.302441563,0.489889,0.410132156,-0.342177834,0.496283,0.402719284,-0.313238654,0.487654,0.363801948,-0.287841047,0.468293,0.345896687,-0.273784506,0.466974,0.355877048,-0.259839438,0.467659,0.340338623,-0.224234726,0.447432,0.336396255,-0.22963536,0.437319,0.345426393,-0.246595454,0.444067,0.385352005,-0.25637743,0.474561,0.367463152,-0.212726659,0.4645,0.368159155,-0.210352835,0.458631,0.371272904,-0.222141808,0.454439,0.414145473,-0.255832199,0.481783,0.391159199,-0.216240778,0.46026,0.389158042,-0.220938281,0.449248,0.400314027,-0.241523398,0.45654,0.451265402,-0.266814398,0.49295,0.429922274,-0.251876051,0.474066,0.420636425,-0.243907972,0.46539,0.421643485,-0.246274864,0.457734
0.438599449,-0.350268054,0.503318,0.411161009,-0.301808229,0.487698,0.408449593,-0.341691411,0.494367,0.402036914,-0.31587072,0.485363,0.364834375,-0.286746525,0.466276,0.346248898,-0.269993444,0.465187,0.353826956,-0.259247185,0.465137,0.338269809,-0.223676493,0.4448,0.334412962,-0.229048064,0.434631,0.342436748,-0.247048867,0.441301,0.383195782,-0.255695513,0.472026,0.364630087,-0.212545093,0.460453,0.364784612,-0.211088136,0.453702,0.366818187,-0.223110023,0.448881,0.410417826,-0.257478878,0.47927,0.389625376,-0.21685544,0.457419,0.386987477,-0.221866549,0.446239,0.397269324,-0.242654493,0.453383,0.447808819,-0.268157609,0.490525,0.426900877,-0.249982923,0.471423,0.417240845,-0.241511921,0.462647,0.418001452,-0.243448642,0.454904
0.437280039,-0.350875085,0.502027,0.410114419,-0.301660837,0.486587,0.406939759,-0.342466389,0.492944,0.401297009,-0.315651936,0.4843,0.364896402,-0.285989437,0.465152,0.34595679,-0.269643805,0.464038,0.352885716,-0.259011568,0.463986,0.337428647,-0.223524377,0.443738,0.333672827,-0.228925899,0.433614,0.341557761,-0.247115869,0.440297,0.382391737,-0.255536717,0.471096,0.363710592,-0.212467891,0.459462,0.363832503,-0.210955341,0.452676,0.365821411,-0.222956815,0.447828,0.409731064,-0.257368403,0.478505,0.389109153,-0.216944831,0.456719,0.386586842,-0.222098475,0.445573,0.396863729,-0.24288086,0.452721,0.447253042,-0.268081799,0.48992,0.426108001,-0.249456912,0.470893,0.416334589,-0.240772972,0.462151,0.417054248,-0.242545704,0.454438
0.431629282,-0.349567762,0.496765,0.399333746,-0.300983874,0.476674,0.402916059,-0.34185451,0.489897,0.386614283,-0.319299188,0.479448,0.356592038,-0.282658858,0.458556,0.345774251,-0.262463735,0.45338,0.344666883,-0.253977123,0.453616,0.327601153,-0.217941988,0.430967,0.319102587,-0.223961905,0.419643,0.327931686,-0.240944677,0.425387,0.371996328,-0.251068704,0.456518,0.352013302,-0.205527904,0.436567,0.344763399,-0.207035642,0.424929,0.340236354,-0.218665515,0.416616,0.397496074,-0.254615312,0.46093,0.376588906,-0.214538163,0.43691,0.368932579,-0.221075842,0.424621,0.375767539,-0.241620919,0.430846,0.432451059,-0.268251506,0.469673,0.405857123,-0.247350005,0.448607,0.393561632,-0.237652139,0.438928,0.39058239,-0.239921946,0.430387
0.432642275,-0.352364972,0.498492,0.397095505,-0.303049067,0.475826,0.403521439,-0.343410711,0.491081,0.39451216,-0.317592363,0.483267,0.363398168,-0.283789688,0.46381,0.359485312,-0.257902145,0.458026,0.342047032,-0.252010024,0.450245,0.324713643,-0.246555006,0.425952,0.316870366,-0.256393815,0.413805,0.321464361,-0.272089441,0.418545,0.368977413,-0.248437679,0.453086,0.339178327,-0.206852622,0.426188,0.322130719,-0.183486113,0.410497,0.315643822,-0.18088337,0.39929,0.394473288,-0.251186395,0.457707,0.374248684,-0.221100125,0.431723,0.364064277,-0.206318082,0.418429,0.371870699,-0.219461865,0.423498,0.430268739,-0.264001126,0.467154,0.409654961,-0.2554306,0.44453,0.400121933,-0.252874281,0.434135,0.395785812,-0.259490675,0.424962
0.434853993,-0.354033376,0.501627,0.408100819,-0.285312441,0.476798,0.409814449,-0.340305551,0.497167,0.383448667,-0.298615688,0.486504,0.357938101,-0.265889901,0.47086,0.3472216,-0.241733603,0.460374,0.359647356,-0.231895884,0.453467,0.342886824,-0.192793466,0.429822,0.33168485,-0.197750031,0.417999,0.333640294,-0.215505367,0.422465,0.383816866,-0.229903202,0.451887,0.356569573,-0.198341686,0.423826,0.340627734,-0.179694091,0.407456,0.331922751,-0.182520161,0.395764,0.406359573,-0.233653145,0.453087,0.381781005,-0.215458194,0.427212,0.369177577,-0.206047917,0.413974,0.372161951,-0.217323895,0.41857,0.437800725,-0.247851097,0.458923,0.412193035,-0.246505373,0.436195,0.40039288,-0.245981789,0.425752,0.389723913,-0.252984963,0.416538
0.425175836,-0.343391607,0.488914,0.403715454,-0.282140793,0.468385,0.397844891,-0.333463486,0.482302,0.374481881,-0.298076778,0.469832,0.340593188,-0.268209287,0.451672,0.328198254,-0.24731834,0.442194,0.35749411,-0.236019552,0.445344,0.334017446,-0.202771614,0.422552,0.322233794,-0.185959717,0.411157,0.31183969,-0.171233755,0.400797,0.384624638,-0.233452685,0.447789,0.364093045,-0.191839121,0.422684,0.352238739,-0.167712836,0.40804,0.346212277,-0.151488319,0.4004,0.407208991,-0.234678008,0.451869,0.397044533,-0.199350195,0.427993,0.390919229,-0.180209769,0.415777,0.385404602,-0.162668857,0.404671,0.440544901,-0.248634671,0.460304,0.437633438,-0.230383419,0.440477,0.435876986,-0.221861134,0.431368,0.434464374,-0.214270133,0.42333
0.410791146,-0.323226003,0.471777,0.399929115,-0.264238985,0.458628,0.384158622,-0.307269011,0.467151,0.380620478,-0.268295483,0.458201,0.374782306,-0.236584902,0.445549,0.373253199,-0.215145555,0.443738,0.361327548,-0.213325685,0.44337,0.34919053,-0.191134861,0.426137,0.343181363,-0.179609996,0.417521,0.337818348,-0.168872161,0.409761,0.388400719,-0.215078218,0.445436,0.37807018,-0.182384284,0.426643,0.372236987,-0.162558635,0.41568,0.370453098,-0.148917424,0.410376,0.411913323,-0.221333577,0.448461,0.406338171,-0.189451196,0.430634,0.403749078,-0.172575915,0.421513,0.401628987,-0.156874953,0.413278,0.441873743,-0.237344771,0.454344,0.442874417,-0.220648455,0.439138,0.443699736,-0.212774054,0.432151,0.444731765,-0.20574574,0.426069
0.408640531,-0.331595694,0.47214,0.388706781,-0.278235428,0.451658,0.381570661,-0.320367594,0.464958,0.346041458,-0.30645572,0.443348,0.315676033,-0.295260713,0.416531,0.298714811,-0.283087488,0.400273,0.345948202,-0.225887705,0.427919,0.323931917,-0.189866288,0.40842,0.312878941,-0.171669695,0.398671,0.302801329,-0.155006821,0.389808,0.374109077,-0.22777301,0.431109,0.362890324,-0.184172996,0.413623,0.35887411,-0.15833464,0.403422,0.35543826,-0.143995349,0.396136,0.398844562,-0.234348123,0.435798,0.391849508,-0.194371083,0.420185,0.393166718,-0.170314001,0.412197,0.39141107,-0.15312235,0.404935,0.430586579,-0.251021622,0.444935,0.438830139,-0.22608929,0.430263,0.442833487,-0.214472737,0.423521,0.446490569,-0.204131346,0.417573
0.404999237,-0.329040369,0.468099,0.388781344,-0.278548244,0.449897,0.378108424,-0.320496071,0.461876,0.346257563,-0.308841609,0.442214,0.312399762,-0.295787928,0.414688,0.28482135,-0.27906876,0.395991,0.347098734,-0.227414258,0.429007,0.324550609,-0.190611503,0.407808,0.313251515,-0.172090004,0.397209,0.302962746,-0.15517404,0.387573,0.374743033,-0.228442319,0.431637,0.363851728,-0.184795088,0.414554,0.359147522,-0.158992236,0.404589,0.355562136,-0.143481689,0.397472,0.398910105,-0.234265152,0.435634,0.394416609,-0.194668134,0.423245,0.39354807,-0.172404023,0.416906,0.391966896,-0.153187487,0.411143,0.4298017,-0.249946764,0.443557,0.439907955,-0.224552863,0.430962,0.444813656,-0.212868044,0.425176,0.449279243,-0.202461793,0.42007
0.403498056,-0.328032349,0.466463,0.388361599,-0.278334053,0.448795,0.37696676,-0.319295175,0.460217,0.345623521,-0.309012136,0.440931,0.310742103,-0.295429699,0.413324,0.28385538,-0.278122301,0.394648,0.346578957,-0.227331791,0.428253,0.324609562,-0.19077341,0.407419,0.313596197,-0.172351146,0.397002,0.303565465,-0.155510854,0.387532,0.374309251,-0.228272152,0.43107,0.36407192,-0.184951587,0.41475,0.359335007,-0.1593437,0.40523,0.355885708,-0.143331626,0.39843,0.398555182,-0.234016286,0.435168,0.394928378,-0.194431989,0.423948,0.393969361,-0.172474841,0.418208,0.392622672,-0.153314629,0.412989,0.429553333,-0.249596894,0.443112,0.440248474,-0.224033274,0.431177,0.44543724,-0.212317622,0.425693,0.450157037,-0.201883412,0.420854
0.402532299,-0.326539626,0.464873,0.390826439,-0.278446839,0.448099,0.377306125,-0.315939121,0.458431,0.346508037,-0.309049693,0.441536,0.312365183,-0.294852214,0.414046,0.284930142,-0.279345891,0.395896,0.348397731,-0.228114508,0.427961,0.325733659,-0.19080973,0.407624,0.314675489,-0.172297582,0.397456,0.304768148,-0.155711648,0.388212,0.376562741,-0.228787731,0.431289,0.365760091,-0.185214389,0.416023,0.360782737,-0.159744507,0.407117,0.356215745,-0.142844027,0.400756,0.401226084,-0.234276764,0.435714,0.397529774,-0.191949984,0.424492,0.394856353,-0.172145772,0.41875,0.393130545,-0.15287187,0.41353,0.437023199,-0.248863787,0.443877,0.450487371,-0.221705671,0.434665,0.456810644,-0.209093179,0.430432,0.462467104,-0.19789076,0.426698
0.401575388,-0.324923359,0.463607,0.390126153,-0.27719869,0.448036,0.37751182,-0.312059807,0.457474,0.346993758,-0.307636612,0.443123,0.310028205,-0.296969263,0.415727,0.285033759,-0.28072367,0.39776,0.349431148,-0.22799414,0.429157,0.330201064,-0.189532706,0.40981,0.318983987,-0.170140063,0.400137,0.309114812,-0.153144808,0.391343,0.377649285,-0.228813958,0.432448,0.368256919,-0.184344237,0.418148,0.362083121,-0.159779712,0.409807,0.358087161,-0.141786698,0.403849,0.402165295,-0.234321734,0.436723,0.399376729,-0.191756517,0.426587,0.396459492,-0.171510921,0.4214,0.394529731,-0.152137951,0.416686,0.433891469,-0.249012407,0.444495,0.450621656,-0.220680995,0.43607,0.457222631,-0.208074765,0.432199,0.463114954,-0.196882733,0.428783
0.403538999,-0.324032645,0.464314,0.390792867,-0.277099689,0.448355,0.378195478,-0.312330426,0.457843,0.347549739,-0.308611624,0.444932,0.308025436,-0.297442156,0.418096,0.282464052,-0.282880268,0.401849,0.349399507,-0.227754732,0.428771,0.327448164,-0.190210482,0.408962,0.316451238,-0.171337848,0.399058,0.306549752,-0.15433508,0.390054,0.377870703,-0.228621386,0.432391,0.368583714,-0.184388044,0.418596,0.362579469,-0.159942072,0.410549,0.358630639,-0.14160376,0.404801,0.402671417,-0.234181957,0.436979,0.400099472,-0.192004006,0.42764,0.397486534,-0.171594583,0.422862,0.39573672,-0.152295758,0.418518,0.434755185,-0.248954127,0.44519,0.450529583,-0.220394825,0.436739,0.457013864,-0.207664086,0.432856,0.462790737,-0.196374463,0.42943
0.403450252,-0.322377553,0.463791,0.391113389,-0.277019224,0.448658,0.378169726,-0.312145975,0.457676,0.346585775,-0.308435907,0.445983,0.307537164,-0.297381732,0.419251,0.282145359,-0.282965479,0.403494,0.350497359,-0.228382007,0.430123,0.329625827,-0.189708599,0.411067,0.320705784,-0.169322478,0.403088,0.312026119,-0.151875752,0.395834,0.378865847,-0.229088127,0.433541,0.370082535,-0.185088116,0.420491,0.364046476,-0.158946076,0.412879,0.360645419,-0.142149733,0.407442,0.403501349,-0.234476279,0.437883,0.401325755,-0.192617794,0.429326,0.399220545,-0.171063988,0.424949,0.397549576,-0.152902667,0.420969,0.434578422,-0.249327251,0.445663,0.450533012,-0.220459319,0.437552,0.457072891,-0.207691794,0.433826,0.462889823,-0.196375444,0.430537
0.40304401,-0.322175142,0.462838,0.39094901,-0.276672623,0.448421,0.378085507,-0.31231624,0.456897,0.3460572,-0.308202122,0.445946,0.306932339,-0.297002125,0.419334,0.28180796,-0.282829196,0.40406,0.350901058,-0.228578835,0.430622,0.330502165,-0.189861764,0.412111,0.321581514,-0.169551995,0.40416,0.313023521,-0.152033349,0.396932,0.379282284,-0.229238452,0.434026,0.370549142,-0.185282817,0.421171,0.364562237,-0.159168362,0.413673,0.361188722,-0.142186186,0.408317,0.403866712,-0.234547387,0.438282,0.401779951,-0.192854722,0.430093,0.399682543,-0.171362221,0.425903,0.398252962,-0.153108552,0.422094,0.43475542,-0.249226463,0.445832,0.450615259,-0.220537205,0.438117,0.457282122,-0.207787413,0.434572,0.463211764,-0.196487419,0.431444
0.401741052,-0.321438463,0.461569,0.390961982,-0.276082464,0.448271,0.376947209,-0.309826242,0.45572,0.345259118,-0.306881488,0.445852,0.305559963,-0.294506296,0.419739,0.28134992,-0.28143927,0.405199,0.35237987,-0.228286168,0.431391,0.331934792,-0.188678186,0.41359,0.322106428,-0.168654201,0.405204,0.312984591,-0.151519124,0.397581,0.381005874,-0.228983778,0.435014,0.372341346,-0.184158965,0.423542,0.366258856,-0.159289393,0.41685,0.362428556,-0.141118994,0.41207,0.406300358,-0.233902532,0.439341,0.403454827,-0.191969201,0.432115,0.400967182,-0.171302408,0.428418,0.400223873,-0.152672701,0.425057,0.437156792,-0.248125446,0.446774,0.450853742,-0.219696471,0.439476,0.457450967,-0.206789508,0.436124,0.46330031,-0.195367124,0.433165
0.403484351,-0.324128994,0.464142,0.392561274,-0.277092673,0.450428,0.378861632,-0.312895168,0.45848,0.345440398,-0.307449301,0.447767,0.307760508,-0.296765744,0.423453,0.285277765,-0.285280158,0.411399,0.352907639,-0.229236104,0.433515,0.332510477,-0.189838972,0.415471,0.323077559,-0.169821067,0.40714,0.31404512,-0.15206087,0.399568,0.381706187,-0.230088392,0.436792,0.373168982,-0.185613126,0.425027,0.367521599,-0.159641214,0.418479,0.364176481,-0.1419014,0.413803,0.406228833,-0.235332991,0.440877,0.403089004,-0.193737415,0.433093,0.401984684,-0.171827783,0.4299,0.402151745,-0.154159364,0.426997,0.436384541,-0.249728748,0.448105,0.451320656,-0.220208939,0.440448,0.457772394,-0.207209231,0.43693,0.464425281,-0.196477918,0.433825
0.402556331,-0.322729071,0.462677,0.391602471,-0.275924425,0.449055,0.377849432,-0.311502083,0.456833,0.344089549,-0.306333353,0.446557,0.305268578,-0.29444556,0.420437,0.280978798,-0.280923132,0.405557,0.351834591,-0.22826812,0.431985,0.331457222,-0.188424953,0.413937,0.321350827,-0.168929613,0.405389,0.312154533,-0.15116563,0.397618,0.380737445,-0.229182216,0.435537,0.372530148,-0.185182978,0.424532,0.367080287,-0.159309076,0.418113,0.36381238,-0.141575755,0.413527,0.405387857,-0.234450106,0.439844,0.40193779,-0.193132571,0.432097,0.400070677,-0.171074146,0.428134,0.399591411,-0.153116667,0.424531,0.43572938,-0.248800032,0.447317,0.450337243,-0.21993237,0.439857,0.456874068,-0.206998403,0.436429,0.463534005,-0.196220585,0.433405
0.404897168,-0.323878481,0.465667,0.393656417,-0.276828193,0.451507,0.380222426,-0.31274093,0.459908,0.345457524,-0.307613274,0.448721,0.308193686,-0.297322748,0.424744,0.285684353,-0.285585543,0.412609,0.353746434,-0.229062448,0.434195,0.33279586,-0.189191646,0.415905,0.322339886,-0.169461753,0.406957,0.312830539,-0.151508183,0.398822,0.38254025,-0.229886466,0.437493,0.373778494,-0.185715917,0.426136,0.368491513,-0.159815974,0.419823,0.365289307,-0.142007353,0.415313,0.407114508,-0.235075883,0.441644,0.403358598,-0.193410783,0.433856,0.401750152,-0.171840928,0.430143,0.401309538,-0.153457449,0.426768,0.437389189,-0.249330341,0.449032,0.451283977,-0.220547599,0.441059,0.457604836,-0.20747667,0.437395,0.464001036,-0.19651153,0.434163
0.404532964,-0.322443313,0.46465,0.392708947,-0.275324002,0.449912,0.379289454,-0.310931867,0.458141,0.344801682,-0.306663981,0.446696,0.305950248,-0.294955734,0.420695,0.281564506,-0.281123824,0.405483,0.35206275,-0.227573848,0.431255,0.331642863,-0.188438276,0.414271,0.321572004,-0.168955722,0.405779,0.312405882,-0.15119625,0.398058,0.381048683,-0.228452495,0.435366,0.372275038,-0.184932933,0.42452,0.367160896,-0.159499419,0.418193,0.363577957,-0.141352873,0.413673,0.406217854,-0.233942089,0.440251,0.403047943,-0.192764464,0.433018,0.40098077,-0.1713551,0.429318,0.400185181,-0.152564047,0.425954,0.437854635,-0.248833528,0.448601,0.451063686,-0.220112619,0.440681,0.457358046,-0.207016084,0.437042,0.462930247,-0.19544115,0.433832
0.404466633,-0.322066055,0.464669,0.392588697,-0.274935643,0.449948,0.379257228,-0.310621875,0.458206,0.345108413,-0.306708514,0.446803,0.306177892,-0.294906198,0.420737,0.281609097,-0.280934995,0.405479,0.351963425,-0.227317069,0.431383,0.331728824,-0.188408836,0.414224,0.321597092,-0.168887106,0.405644,0.312378336,-0.151097991,0.397845,0.380909521,-0.228143871,0.435459,0.37217253,-0.184671062,0.424795,0.36707655,-0.159253567,0.418574,0.363481566,-0.141096278,0.41413,0.406051576,-0.233596725,0.440316,0.402996432,-0.192474678,0.433391,0.40147671,-0.171441547,0.429848,0.400240537,-0.152349388,0.426627,0.437665799,-0.24845216,0.448634,0.451301249,-0.219966739,0.440783,0.457595251,-0.206844569,0.437175,0.46316557,-0.195248076,0.433992
0.404534929,-0.321926863,0.464529,0.392709573,-0.274859665,0.450033,0.379370187,-0.310552989,0.458168,0.34500647,-0.306417157,0.446911,0.306420821,-0.294924998,0.420854,0.281553311,-0.28065265,0.406084,0.352182945,-0.227418656,0.431775,0.331947794,-0.188465727,0.414589,0.321815589,-0.168922319,0.405995,0.312596383,-0.151113973,0.398183,0.381116726,-0.228199957,0.435807,0.372208419,-0.184687589,0.425128,0.367012889,-0.159250417,0.418899,0.36334713,-0.141080726,0.41445,0.40625168,-0.233617204,0.440609,0.403236911,-0.19251746,0.433891,0.401736574,-0.171499322,0.430453,0.400517884,-0.152423295,0.427328,0.437855627,-0.248433202,0.448829,0.45146256,-0.219814006,0.441101,0.457736983,-0.206638121,0.43755,0.463285961,-0.194998153,0.434417
0.404322817,-0.321769648,0.464482,0.392715535,-0.274746917,0.450078,0.37917991,-0.310327093,0.458116,0.344756192,-0.305771373,0.446625,0.306320261,-0.293416816,0.420568,0.28148534,-0.27965239,0.405837,0.352368447,-0.227315736,0.431899,0.332163352,-0.18830497,0.414701,0.322047116,-0.168733199,0.406102,0.312841362,-0.150898499,0.398284,0.381367765,-0.228222548,0.435979,0.37226804,-0.18461692,0.425175,0.366961609,-0.159133341,0.418873,0.363219357,-0.140941294,0.414371,0.406546375,-0.233749839,0.440814,0.403452116,-0.192486526,0.433792,0.402748211,-0.17157297,0.4302,0.400789015,-0.15235714,0.426934,0.438166013,-0.248702824,0.449057,0.451760164,-0.219981249,0.441363,0.4580242,-0.206763975,0.437828,0.463561252,-0.195090393,0.434709
0.404079191,-0.321506979,0.464208,0.392661409,-0.274521571,0.449877,0.378947996,-0.310007514,0.457814,0.344553879,-0.305126218,0.446181,0.306197159,-0.292878266,0.420083,0.281524501,-0.278729904,0.405376,0.35246355,-0.227106221,0.431735,0.331986819,-0.188097581,0.414332,0.321734306,-0.168527501,0.40563,0.312405066,-0.150695125,0.397719,0.381530264,-0.228122752,0.435886,0.372134931,-0.184417785,0.424895,0.366656918,-0.158884767,0.418484,0.362821908,-0.140685505,0.413904,0.406754244,-0.233746388,0.440775,0.403480257,-0.192298684,0.433371,0.403023296,-0.171296428,0.429583,0.40077454,-0.152112858,0.42614,0.438392706,-0.24881741,0.449067,0.452030842,-0.220061901,0.441427,0.458316018,-0.206828209,0.437917,0.46387098,-0.195139168,0.434819
