sluyters/QuantumLeap/backend/src/datasets/dynamic/HandGestureDataset_SHREC2017_csv/Gesture3/finger_2/subject_1_essai_4_skeletons_world.csv
Wrist_x,Wrist_y,Wrist_z,Palm_x,Palm_y,Palm_z,thumb_base_x,thumb_base_y,thumb_base_z,thumb_first_joint_x,thumb_first_joint_y,thumb_first_joint_z,thumb_second_joint_x,thumb_second_joint_y,thumb_second_joint_z,thumb_tip_x,thumb_tip_y,thumb_tip_z,index_base_x,index_base_y,index_base_z,index_first_joint_x,index_first_joint_y,index_first_joint_z,index_second_joint_x,index_second_joint_y,index_second_joint_z,index_tip_x,index_tip_y,index_tip_z,middle_base_x,middle_base_y,middle_base_z,middle_first_joint_x,middle_first_joint_y,middle_first_joint_z,middle_second_joint_x,middle_second_joint_y,middle_second_joint_z,middle_tip_x,middle_tip_y,middle_tip_z,ring_base_x,ring_base_y,ring_base_z,ring_first_joint_x,ring_first_joint_y,ring_first_joint_z,ring_second_joint_x,ring_second_joint_y,ring_second_joint_z,ring_tip_x,ring_tip_y,ring_tip_z,pinky_base_x,pinky_base_y,pinky_base_z,pinky_first_joint_x,pinky_first_joint_y,pinky_first_joint_z,pinky_second_joint_x,pinky_second_joint_y,pinky_second_joint_z,pinky_tip_x,pinky_tip_y,pinky_tip_z,r
0.54084791,-0.37847365,0.674699,0.53433938,-0.33408008,0.666843,0.51324731,-0.35859984,0.664918,0.49050742,-0.32748179,0.64311,0.46955005,-0.29579557,0.62562,0.45798946,-0.27060669,0.618644,0.50291689,-0.2791363,0.649068,0.49582953,-0.26200146,0.630565,0.4890701,-0.26391326,0.621313,0.49452864,-0.27895979,0.630305,0.53262694,-0.28723622,0.658038,0.5292643,-0.26725862,0.641229,0.52064924,-0.28313108,0.631424,0.52315728,-0.30510533,0.641727,0.55762113,-0.29691755,0.665933,0.54928,-0.28852209,0.647113,0.5592603,-0.3170671,0.666379,0.56375239,-0.34234249,0.681675,0.58853284,-0.31462903,0.676426,0.57326289,-0.30869917,0.658415,0.56614644,-0.32334954,0.650139,0.57286185,-0.34341749,0.657767
0.53959847,-0.37914504,0.673342,0.53335621,-0.33336675,0.665443,0.5122885,-0.35899883,0.663608,0.48940987,-0.32733359,0.641843,0.46823378,-0.29604283,0.62388,0.45714881,-0.27298731,0.616141,0.50241375,-0.27821003,0.647692,0.49502708,-0.26154606,0.629187,0.48807136,-0.2636963,0.619935,0.49336233,-0.27894728,0.628946,0.53209015,-0.28632578,0.656589,0.52832132,-0.2671815,0.639738,0.51932351,-0.28335482,0.629908,0.52141065,-0.30663599,0.64022,0.55704635,-0.2960294,0.664427,0.54812168,-0.28874563,0.645592,0.55734289,-0.31954426,0.664885,0.56112783,-0.34470955,0.680198,0.5878838,-0.31378401,0.674857,0.57223719,-0.30830563,0.656825,0.56503563,-0.32291348,0.64854,0.5717047,-0.34294522,0.656179
0.53832614,-0.37960417,0.671945,0.53267185,-0.33313085,0.664277,0.51129589,-0.3592595,0.662298,0.48843356,-0.32703188,0.640666,0.46715658,-0.29600937,0.622453,0.4560073,-0.2729491,0.614507,0.50206524,-0.27762823,0.646806,0.49465816,-0.26133226,0.628503,0.48766411,-0.26367009,0.619352,0.49290912,-0.27907959,0.628445,0.53173708,-0.28576254,0.655681,0.52793885,-0.26722834,0.639065,0.51884359,-0.28356728,0.629372,0.52129526,-0.30695372,0.639769,0.55667128,-0.2954802,0.663487,0.54757964,-0.28887786,0.644875,0.55660333,-0.31961273,0.66421,0.56028559,-0.34479103,0.67945,0.58743573,-0.31324549,0.673848,0.57174653,-0.3081368,0.656014,0.56457692,-0.32277061,0.647819,0.57127768,-0.34282224,0.655533
0.53794987,-0.37928831,0.670152,0.53267283,-0.33399012,0.661566,0.51161636,-0.35952025,0.661438,0.48867712,-0.32760944,0.640669,0.46552331,-0.29941302,0.62102,0.45260152,-0.27628641,0.611436,0.49982358,-0.27687272,0.64453,0.49054314,-0.25921998,0.626178,0.48517461,-0.26214453,0.617002,0.49095135,-0.27789853,0.626421,0.52835198,-0.28369201,0.651943,0.52292252,-0.26649146,0.634456,0.51425761,-0.28154258,0.624256,0.51892906,-0.30576609,0.634766,0.55158796,-0.28731496,0.658606,0.54111934,-0.28169195,0.639676,0.5530948,-0.3154059,0.659472,0.55805902,-0.34111873,0.675023,0.58357381,-0.30042509,0.667715,0.56569169,-0.295895,0.649454,0.55904584,-0.31082019,0.641064,0.56551962,-0.3369411,0.648954
0.53888701,-0.37991731,0.670226,0.5329238,-0.33406444,0.660522,0.51177385,-0.35968781,0.660599,0.48736848,-0.32700697,0.63865,0.4631069,-0.29871042,0.617892,0.44932226,-0.27560471,0.607647,0.49721931,-0.27559035,0.641537,0.48821566,-0.25771865,0.621918,0.48099738,-0.25972348,0.612108,0.48650199,-0.27528813,0.620879,0.52653392,-0.28143764,0.649646,0.51929488,-0.26502088,0.631003,0.51063413,-0.28005026,0.620129,0.51587639,-0.30216363,0.630046,0.5501698,-0.28654807,0.656956,0.53892933,-0.28049446,0.636731,0.55050441,-0.31346761,0.656075,0.55613239,-0.33971256,0.67197,0.58287169,-0.30007018,0.666986,0.56434639,-0.29516333,0.647633,0.55722363,-0.30978563,0.638741,0.56328883,-0.33435539,0.646086
0.542185,-0.38146124,0.672747,0.5270065,-0.32957318,0.652459,0.51265218,-0.35994063,0.660195,0.49606637,-0.33286819,0.640297,0.47004403,-0.30683468,0.621431,0.45100236,-0.28141508,0.609999,0.47705958,-0.26941947,0.621924,0.46293367,-0.25760712,0.594022,0.45583912,-0.25752981,0.580071,0.46057687,-0.27822609,0.584913,0.50618044,-0.27036979,0.629718,0.48967926,-0.23975715,0.600792,0.48063541,-0.25959623,0.583919,0.48503712,-0.28252929,0.589529,0.53192084,-0.27440964,0.637465,0.51598475,-0.28134938,0.607891,0.52555367,-0.30929864,0.624666,0.5370198,-0.3367654,0.643309,0.56617674,-0.28583453,0.649398,0.54093289,-0.29247233,0.621737,0.54904383,-0.31396287,0.634786,0.56449371,-0.33263685,0.64958
0.5398609,-0.38002002,0.66846,0.52971867,-0.32781023,0.649479,0.51161473,-0.35944967,0.657284,0.50161539,-0.3366944,0.638541,0.47547859,-0.307341,0.617527,0.46198238,-0.28466173,0.606637,0.48674046,-0.27263353,0.621598,0.4599362,-0.23794401,0.595299,0.4530756,-0.2340657,0.58215,0.46416819,-0.24641085,0.58803,0.51489278,-0.2757313,0.628203,0.50312613,-0.24083829,0.600574,0.49206971,-0.25796005,0.584458,0.49682444,-0.28003993,0.590998,0.53929339,-0.28156779,0.634886,0.52504601,-0.28897329,0.606897,0.53407613,-0.3166152,0.624548,0.54492091,-0.34373603,0.643813,0.57094841,-0.29514763,0.645373,0.54981452,-0.29842783,0.618998,0.56067065,-0.32157999,0.632782,0.56670122,-0.340213,0.647518
0.5296974,-0.3730561,0.654524,0.52230324,-0.32367108,0.63964,0.50332462,-0.35386691,0.645107,0.49130485,-0.32977376,0.625416,0.46667704,-0.30165183,0.606096,0.45491371,-0.28030619,0.597355,0.48312983,-0.27061114,0.616987,0.45912342,-0.23752352,0.594247,0.45364141,-0.234358,0.582877,0.46622132,-0.24750079,0.590631,0.51059301,-0.27342873,0.622957,0.50207476,-0.24033502,0.599319,0.49297309,-0.25843363,0.585531,0.49934556,-0.28146098,0.593997,0.53416366,-0.27888953,0.628847,0.52317732,-0.28794481,0.604737,0.53338859,-0.31620761,0.623744,0.54483712,-0.34368317,0.643714,0.56429208,-0.29170669,0.637849,0.54612569,-0.29642561,0.614845,0.55803379,-0.32006759,0.629806,0.56582732,-0.33966249,0.645207
0.52979445,-0.37223536,0.653011,0.52154877,-0.32445282,0.640807,0.50414539,-0.35395661,0.644621,0.47950534,-0.33348282,0.623706,0.45347844,-0.31326437,0.604614,0.43862542,-0.29480658,0.596469,0.48647401,-0.27140257,0.621425,0.4648981,-0.23881234,0.600983,0.46086398,-0.23659375,0.590763,0.47460312,-0.2504251,0.59959,0.51383918,-0.2743292,0.627128,0.50791982,-0.24246469,0.606145,0.50040402,-0.26124777,0.593905,0.50805905,-0.28506504,0.603495,0.53713486,-0.27982985,0.632623,0.52883008,-0.28949817,0.611044,0.53970295,-0.31856753,0.630735,0.55054436,-0.34593616,0.650003,0.56655001,-0.29257915,0.640803,0.55054657,-0.2985045,0.620024,0.56311052,-0.3225862,0.635591,0.57115848,-0.34259196,0.651209
0.57201208,-0.37442528,0.664228,0.52927349,-0.32719109,0.641828,0.53834113,-0.36402998,0.652107,0.50158895,-0.34350755,0.634889,0.46708641,-0.3217061,0.612056,0.44614277,-0.30169693,0.596734,0.46783793,-0.27769519,0.610217,0.44345651,-0.23872033,0.58269,0.43591086,-0.2305245,0.568926,0.45033039,-0.24037332,0.57372,0.49387414,-0.27205814,0.61672,0.45605871,-0.22675297,0.598087,0.45381592,-0.22467997,0.587217,0.46910319,-0.23459847,0.597736,0.51912264,-0.26941163,0.623544,0.50449902,-0.27323211,0.592652,0.52180886,-0.3026146,0.609132,0.53258416,-0.32748252,0.624114,0.55266425,-0.27691824,0.634645,0.53173762,-0.27561636,0.60572,0.54158698,-0.29923181,0.618493,0.55482402,-0.30393946,0.629763
0.56387502,-0.36572009,0.656146,0.5289588,-0.3122299,0.636421,0.53281092,-0.35623239,0.647058,0.49326156,-0.33187384,0.626666,0.45496981,-0.31483508,0.601859,0.42699829,-0.29892824,0.587087,0.46798905,-0.26457289,0.610501,0.43617375,-0.22710183,0.585078,0.42555181,-0.2150122,0.572366,0.42923215,-0.21042433,0.578826,0.49293668,-0.26142354,0.61431,0.46194465,-0.21079838,0.586234,0.45314527,-0.200778,0.569856,0.46171634,-0.1999287,0.576602,0.51441907,-0.25751722,0.618743,0.50365336,-0.25650395,0.591276,0.52188716,-0.28556334,0.609402,0.53788927,-0.31168935,0.62588,0.54580252,-0.26167015,0.626627,0.52626434,-0.25941913,0.600493,0.54261886,-0.28266484,0.614654,0.55385604,-0.29131677,0.62715
0.55595307,-0.35932296,0.647711,0.5256323,-0.30935984,0.632317,0.52756282,-0.35094404,0.641542,0.49213232,-0.33389825,0.622974,0.44947708,-0.3159644,0.596488,0.4228755,-0.30003052,0.583123,0.47035977,-0.26476381,0.613206,0.44283249,-0.2280548,0.592174,0.43071376,-0.20769823,0.581658,0.41898099,-0.19091966,0.572914,0.49336465,-0.25825802,0.615062,0.47293282,-0.21632774,0.591407,0.46057517,-0.19195609,0.577608,0.45172757,-0.17425244,0.567751,0.51418318,-0.25621935,0.617603,0.50735383,-0.25641574,0.594853,0.52672607,-0.28638151,0.614504,0.54381811,-0.31351443,0.632369,0.54301321,-0.25960461,0.622653,0.5269323,-0.25903914,0.600545,0.54435156,-0.28289355,0.61603,0.55659788,-0.29209299,0.629693
0.56224196,-0.33255075,0.643588,0.53145568,-0.29283906,0.635573,0.53618956,-0.32877992,0.640453,0.50197124,-0.32470013,0.627685,0.45617654,-0.31534258,0.603058,0.42882689,-0.30489844,0.591728,0.47741903,-0.25861114,0.625717,0.45753149,-0.22181974,0.611581,0.44778731,-0.20303607,0.605002,0.43889808,-0.18561975,0.599129,0.49759651,-0.24929636,0.62659,0.48310927,-0.21036707,0.610595,0.47467443,-0.18666369,0.601356,0.4686739,-0.16922836,0.594824,0.51594815,-0.24425348,0.627836,0.50998153,-0.20982976,0.612841,0.53159392,-0.20091956,0.634097,0.55170382,-0.19090994,0.65342,0.54163358,-0.24321261,0.630374,0.55160147,-0.24060403,0.626504,0.58286136,-0.25769367,0.644393,0.59768919,-0.26813441,0.660178
0.55623487,-0.34854676,0.64858,0.53189694,-0.2971113,0.636638,0.53115527,-0.33748648,0.645573,0.49148908,-0.32691881,0.632684,0.45977231,-0.31572699,0.60454,0.43771811,-0.29836534,0.586946,0.49131557,-0.25182552,0.623993,0.46251824,-0.2130676,0.606745,0.44791581,-0.1959603,0.59812,0.43346824,-0.18151494,0.59028,0.51387511,-0.25067439,0.623299,0.48841351,-0.20206523,0.603634,0.47317709,-0.17512377,0.592163,0.46205677,-0.15704166,0.58397,0.53370612,-0.25272023,0.623518,0.51554901,-0.20242704,0.604642,0.50528286,-0.18114643,0.594985,0.49591248,-0.16147354,0.586205,0.55980031,-0.26114629,0.62534,0.55545629,-0.21786413,0.610387,0.55332949,-0.19891843,0.603516,0.55147741,-0.18210641,0.597454
0.56217627,-0.35140501,0.657278,0.53742225,-0.29970405,0.643128,0.53222374,-0.33478342,0.654789,0.50734726,-0.32685552,0.641058,0.47213248,-0.31397568,0.613604,0.44578226,-0.29851297,0.594377,0.49554016,-0.25202395,0.629447,0.46654776,-0.21238247,0.610262,0.45394639,-0.19092978,0.600669,0.44121254,-0.17301224,0.591949,0.51697008,-0.25007653,0.627324,0.49646964,-0.19962208,0.610812,0.4843371,-0.17195172,0.60118,0.47564538,-0.15204114,0.5943,0.53597112,-0.25152171,0.626515,0.52540032,-0.20084967,0.613783,0.51964411,-0.17692645,0.60727,0.51440849,-0.15496625,0.601348,0.56103195,-0.25665431,0.627392,0.5563436,-0.21643003,0.610031,0.55394952,-0.19738774,0.602055,0.55169576,-0.18120253,0.595017
0.56381801,-0.34408939,0.657967,0.54779322,-0.29478909,0.643971,0.53976888,-0.33431337,0.655605,0.51021878,-0.32707699,0.642719,0.47300609,-0.3155455,0.615396,0.4454628,-0.30106898,0.596236,0.50295873,-0.24746264,0.630558,0.47036033,-0.21005236,0.612189,0.455593,-0.19062794,0.603004,0.44226109,-0.17386521,0.594655,0.52421856,-0.24339809,0.628338,0.50424507,-0.19556508,0.615452,0.4925162,-0.16790196,0.607934,0.48359021,-0.15609306,0.602565,0.54321586,-0.24308186,0.627438,0.53525685,-0.19664347,0.620137,0.53113804,-0.172846,0.616401,0.52738801,-0.15106011,0.613005,0.56892624,-0.24872374,0.628187,0.55951545,-0.21301587,0.61041,0.55686363,-0.19470855,0.602242,0.55266662,-0.17987176,0.595035
0.56201411,-0.33656603,0.650336,0.54864309,-0.29124089,0.64269,0.54306266,-0.32785756,0.64994,0.51598575,-0.32014293,0.643157,0.4747709,-0.30802448,0.615955,0.44761838,-0.29494478,0.597495,0.51078855,-0.243966,0.636446,0.48415789,-0.20462445,0.623101,0.47075236,-0.18476041,0.616428,0.45842181,-0.16798461,0.610362,0.53174513,-0.23928297,0.63415,0.52028871,-0.19338099,0.629373,0.51357629,-0.16643194,0.626586,0.50876798,-0.14710284,0.624595,0.55028504,-0.23831325,0.632768,0.547182,-0.1938018,0.630955,0.5455921,-0.17097159,0.630027,0.5441452,-0.15018311,0.629183,0.57497106,-0.24291715,0.632109,0.57463037,-0.20094144,0.620461,0.57384475,-0.18368399,0.615109,0.57322175,-0.16819282,0.610386
0.58136635,-0.34131907,0.668357,0.56408904,-0.29224398,0.655902,0.55537329,-0.32999155,0.663817,0.52944521,-0.32103887,0.65047,0.48917793,-0.30743203,0.622029,0.46446978,-0.29282902,0.605572,0.51682031,-0.24607639,0.641016,0.48977273,-0.20553418,0.626997,0.47892204,-0.18451409,0.619987,0.46380901,-0.16729286,0.613614,0.54065292,-0.24247829,0.641991,0.52606212,-0.19515152,0.633656,0.51754905,-0.16753349,0.628794,0.51147472,-0.14780336,0.62533,0.5638026,-0.24260052,0.643618,0.55135873,-0.19482499,0.633054,0.54721263,-0.17094866,0.629007,0.54347495,-0.14925417,0.625364,0.59124611,-0.2482856,0.647194,0.5867593,-0.20541089,0.633177,0.5874014,-0.19082305,0.626737,0.5856963,-0.17444008,0.621055
0.5782403,-0.34300801,0.669185,0.5629667,-0.29363635,0.656321,0.55411378,-0.32888917,0.662828,0.5242451,-0.32146044,0.648766,0.48205148,-0.30601847,0.620912,0.45355837,-0.29251988,0.605225,0.51624689,-0.24520279,0.638928,0.49773522,-0.20533383,0.631598,0.49058633,-0.18366709,0.628691,0.48246652,-0.16511668,0.626049,0.54337058,-0.24302608,0.641953,0.52685492,-0.19551878,0.633555,0.51820724,-0.16793337,0.628655,0.51202883,-0.14821615,0.625156,0.56551916,-0.24410095,0.645293,0.55607073,-0.19660873,0.635041,0.55133048,-0.17226874,0.629796,0.54575751,-0.15004415,0.626065,0.59448514,-0.25130357,0.650978,0.59126003,-0.2086115,0.637733,0.59252118,-0.19300607,0.631648,0.59376,-0.17898826,0.626279
0.57791211,-0.34240876,0.671365,0.55997279,-0.28938876,0.662546,0.55138576,-0.32431225,0.668284,0.53192358,-0.3275004,0.659843,0.49009408,-0.31088201,0.631872,0.46511357,-0.29304013,0.612408,0.52824729,-0.2373575,0.652168,0.51073411,-0.1970935,0.646138,0.50189913,-0.17672735,0.643122,0.49382159,-0.15807299,0.640381,0.55199941,-0.2390863,0.652696,0.54309209,-0.19213461,0.646413,0.5378823,-0.16457317,0.642748,0.53415444,-0.14480613,0.64013,0.57241584,-0.24495633,0.653715,0.57074077,-0.197911,0.649309,0.57000232,-0.17452678,0.647054,0.56933333,-0.15324181,0.645005,0.59860055,-0.25380103,0.656088,0.60036505,-0.21356341,0.645402,0.60276029,-0.19606116,0.640492,0.60995272,-0.18058029,0.640318
0.57821751,-0.34208575,0.673156,0.5633436,-0.29042381,0.665358,0.55610944,-0.32577446,0.672058,0.53872826,-0.33004441,0.665843,0.49875019,-0.31460796,0.639913,0.47612247,-0.2950429,0.625281,0.5339564,-0.23945694,0.658148,0.51274137,-0.19826012,0.647828,0.50224396,-0.17756837,0.642875,0.49270358,-0.15866809,0.638421,0.55613994,-0.24031763,0.656647,0.54542684,-0.19273673,0.648463,0.53929759,-0.16492496,0.643842,0.53491086,-0.14500361,0.640542,0.57487241,-0.24401782,0.655929,0.57381605,-0.19861126,0.651708,0.5732763,-0.1753769,0.649549,0.57278998,-0.15425382,0.647591,0.59844961,-0.25452023,0.656086,0.60454072,-0.21464266,0.647612,0.60745885,-0.19643751,0.643718,0.61344775,-0.18140135,0.643872
0.58397518,-0.33906737,0.677851,0.58045585,-0.28556811,0.673961,0.55949452,-0.32320901,0.675569,0.52994387,-0.31138272,0.671527,0.4958082,-0.30156895,0.644281,0.47546086,-0.29286714,0.624865,0.54753249,-0.23744984,0.668274,0.52376733,-0.1971182,0.657243,0.51182671,-0.17680806,0.651728,0.49981208,-0.16019884,0.646714,0.57207748,-0.23695771,0.669626,0.55400485,-0.18918125,0.657781,0.54345194,-0.16125128,0.650872,0.53823819,-0.14456169,0.645937,0.59301277,-0.23944036,0.670996,0.59630289,-0.19728679,0.67453,0.59828921,-0.17585746,0.676681,0.60011755,-0.1563909,0.678662,0.61942176,-0.24820067,0.673146,0.62933258,-0.21021796,0.667679,0.6338223,-0.19291982,0.665167,0.63990568,-0.17833799,0.665191
0.58488089,-0.33606626,0.674831,0.58260508,-0.28522127,0.674021,0.56613963,-0.31503313,0.673462,0.54149451,-0.31194173,0.670425,0.49721973,-0.29992037,0.643452,0.47356886,-0.28638562,0.625971,0.55181539,-0.2388077,0.671755,0.54255046,-0.20340985,0.677055,0.53713404,-0.18547356,0.679705,0.53216876,-0.16906561,0.682114,0.57642461,-0.23808087,0.673118,0.57253226,-0.19511277,0.675819,0.56944448,-0.16996544,0.677393,0.56722806,-0.15193683,0.678518,0.59723192,-0.24029136,0.674294,0.59778128,-0.1961274,0.674225,0.59843297,-0.17367673,0.674608,0.59902611,-0.15326474,0.674957,0.62313872,-0.2485446,0.675809,0.63572519,-0.2118101,0.673196,0.64147171,-0.19501799,0.671995,0.64671864,-0.18030088,0.671138
0.60300622,-0.33732919,0.689063,0.59556873,-0.29068939,0.684567,0.57869358,-0.32133246,0.684534,0.5519513,-0.31812717,0.680859,0.51164223,-0.30419997,0.653791,0.48831908,-0.29180647,0.643601,0.557513,-0.24662419,0.67569,0.54473518,-0.20799885,0.675632,0.53831744,-0.18859876,0.675603,0.53172837,-0.16979987,0.678096,0.58234412,-0.24166763,0.679544,0.57239204,-0.19682591,0.675802,0.56606614,-0.17030998,0.673619,0.56154707,-0.15136495,0.67206,0.60569806,-0.24414413,0.683014,0.60228898,-0.2000732,0.680645,0.60143581,-0.17756984,0.679596,0.60193424,-0.15542984,0.678643,0.633108,-0.25196324,0.687763,0.64543388,-0.21529027,0.685757,0.65109012,-0.19845749,0.684835,0.65884326,-0.18385372,0.684021
0.5969933,-0.34059188,0.690685,0.59165606,-0.29370794,0.690461,0.57275844,-0.32540003,0.69066,0.54454915,-0.31459237,0.689751,0.51397292,-0.30516242,0.66372,0.48996767,-0.29145773,0.645267,0.56796085,-0.24555214,0.690261,0.55138928,-0.20717976,0.688048,0.54295118,-0.18765112,0.686942,0.53529176,-0.17010462,0.685936,0.59132872,-0.24664483,0.690211,0.57865145,-0.19916114,0.68234,0.5708512,-0.17170677,0.677749,0.56528036,-0.15210588,0.674469,0.61110974,-0.24910021,0.690185,0.60964903,-0.2045985,0.687476,0.60897968,-0.18185828,0.68609,0.60744353,-0.16009194,0.68483,0.63416957,-0.26057087,0.690184,0.64415249,-0.22318009,0.688486,0.64874386,-0.20598651,0.687706,0.65279753,-0.19080839,0.687018
0.60085796,-0.33932779,0.688739,0.60571491,-0.30454577,0.693428,0.58582165,-0.33057077,0.690551,0.55614685,-0.32576094,0.689935,0.51738795,-0.30753828,0.664097,0.49371299,-0.29324223,0.650462,0.57836371,-0.26370181,0.699161,0.56420862,-0.22922925,0.699681,0.55825071,-0.21228046,0.699941,0.55265115,-0.19636516,0.700178,0.60143338,-0.26082262,0.698662,0.59228852,-0.21554127,0.695909,0.58690992,-0.18883409,0.694304,0.58304684,-0.16962205,0.693157,0.62075327,-0.26108102,0.697938,0.62442364,-0.22059367,0.702999,0.62630061,-0.19985152,0.705588,0.62800699,-0.18097909,0.707942,0.6444983,-0.26658543,0.696454,0.65814866,-0.23203519,0.69982,0.66441892,-0.21616403,0.701366,0.66995083,-0.2021619,0.70273
0.60391328,-0.34087235,0.691309,0.60810781,-0.30518404,0.69676,0.58728386,-0.32856,0.692372,0.56175571,-0.32383768,0.690441,0.52018873,-0.30821384,0.664177,0.49605429,-0.29348676,0.652475,0.58113364,-0.26363354,0.702158,0.56547801,-0.22710916,0.700099,0.55937632,-0.20991117,0.699069,0.55367865,-0.1937936,0.698133,0.60522114,-0.2615727,0.702843,0.59633916,-0.21659526,0.70087,0.59075189,-0.18990536,0.699719,0.58761242,-0.17098408,0.698897,0.62531712,-0.26250558,0.703042,0.63024048,-0.22277705,0.709772,0.63244934,-0.20276226,0.713215,0.63504511,-0.18382074,0.716345,0.64983682,-0.26882488,0.702564,0.66279649,-0.23388927,0.705204,0.66874381,-0.21785863,0.706416,0.67398975,-0.20372537,0.707487
0.61521748,-0.34500334,0.702037,0.61372246,-0.30969762,0.705981,0.5969512,-0.33667124,0.701482,0.56583345,-0.32901766,0.696968,0.52542364,-0.31103296,0.671073,0.50007425,-0.29545659,0.657361,0.58551336,-0.26573802,0.708284,0.56851632,-0.22877452,0.704329,0.56206605,-0.21133663,0.702351,0.55607104,-0.1950299,0.700553,0.61079795,-0.26496489,0.710383,0.60019881,-0.21964388,0.706807,0.59402838,-0.19316446,0.704721,0.59020007,-0.1740224,0.70323,0.63189678,-0.26702745,0.711846,0.63635172,-0.22718811,0.71739,0.63863097,-0.20684171,0.720226,0.64101456,-0.18776169,0.722804,0.65764159,-0.27484163,0.713081,0.6698064,-0.23936443,0.714447,0.67538023,-0.22311293,0.715074,0.68029133,-0.20879902,0.715628
0.61845153,-0.34877621,0.70593,0.61564401,-0.31176359,0.708919,0.59925336,-0.33910227,0.705209,0.56863029,-0.33107917,0.700228,0.52675611,-0.31327389,0.67467,0.50379498,-0.29675645,0.661605,0.58685246,-0.26719787,0.710299,0.5692207,-0.22948677,0.705529,0.56266419,-0.21201063,0.703143,0.55658144,-0.19567941,0.700975,0.61202514,-0.26646246,0.712254,0.60052628,-0.22082319,0.707683,0.59384282,-0.19423561,0.705016,0.58973356,-0.17503883,0.703111,0.63305482,-0.2685895,0.713663,0.63640205,-0.22806362,0.717545,0.63811467,-0.20742271,0.719531,0.64002778,-0.18710834,0.721337,0.65877682,-0.27653927,0.714958,0.67039976,-0.2406746,0.715402,0.6757207,-0.22425827,0.715606,0.68089672,-0.20884715,0.715786
