sluyters/QuantumLeap/backend/src/datasets/dynamic/HandGestureDataset_SHREC2017_csv/Gesture3/finger_2/subject_26_essai_2_skeletons_world.csv
Wrist_x,Wrist_y,Wrist_z,Palm_x,Palm_y,Palm_z,thumb_base_x,thumb_base_y,thumb_base_z,thumb_first_joint_x,thumb_first_joint_y,thumb_first_joint_z,thumb_second_joint_x,thumb_second_joint_y,thumb_second_joint_z,thumb_tip_x,thumb_tip_y,thumb_tip_z,index_base_x,index_base_y,index_base_z,index_first_joint_x,index_first_joint_y,index_first_joint_z,index_second_joint_x,index_second_joint_y,index_second_joint_z,index_tip_x,index_tip_y,index_tip_z,middle_base_x,middle_base_y,middle_base_z,middle_first_joint_x,middle_first_joint_y,middle_first_joint_z,middle_second_joint_x,middle_second_joint_y,middle_second_joint_z,middle_tip_x,middle_tip_y,middle_tip_z,ring_base_x,ring_base_y,ring_base_z,ring_first_joint_x,ring_first_joint_y,ring_first_joint_z,ring_second_joint_x,ring_second_joint_y,ring_second_joint_z,ring_tip_x,ring_tip_y,ring_tip_z,pinky_base_x,pinky_base_y,pinky_base_z,pinky_first_joint_x,pinky_first_joint_y,pinky_first_joint_z,pinky_second_joint_x,pinky_second_joint_y,pinky_second_joint_z,pinky_tip_x,pinky_tip_y,pinky_tip_z,r
0.35232316,-0.285328869,0.443775,0.329488842,-0.236473412,0.422343,0.324499453,-0.270383582,0.436622,0.294194968,-0.241381798,0.424822,0.262853337,-0.206031121,0.406986,0.248314069,-0.17593961,0.395736,0.278618844,-0.181339194,0.398475,0.266550958,-0.146989089,0.395412,0.260362776,-0.129302833,0.39388,0.256095379,-0.122838215,0.392488,0.305137109,-0.17996685,0.401932,0.275621258,-0.135256808,0.370274,0.262810929,-0.145745106,0.351807,0.270599852,-0.163602673,0.358142,0.329914531,-0.183117182,0.407089,0.305054232,-0.144408272,0.396887,0.292328466,-0.124590748,0.391667,0.285517044,-0.116055484,0.386922,0.364764717,-0.195051964,0.417102,0.334998424,-0.17013014,0.391159,0.321299074,-0.158639539,0.379238,0.321374097,-0.154323996,0.383239
0.352118506,-0.285879577,0.44345,0.328836483,-0.23632703,0.42204,0.324181293,-0.271120568,0.43631,0.293653469,-0.241397413,0.424665,0.262416845,-0.206127439,0.406842,0.24825561,-0.176532127,0.395853,0.277972912,-0.181250349,0.398203,0.265472738,-0.146807385,0.394591,0.259068877,-0.129080438,0.392785,0.254665064,-0.122770107,0.391142,0.304476098,-0.179854572,0.401649,0.275286176,-0.135216745,0.370014,0.262497504,-0.1457559,0.35156,0.270045933,-0.164021926,0.357908,0.329238845,-0.182983925,0.406795,0.304283989,-0.144278444,0.396504,0.291508423,-0.124460341,0.391238,0.284656967,-0.115973218,0.386452,0.364065334,-0.194888927,0.416791,0.334323731,-0.170078251,0.390866,0.320635487,-0.158637908,0.378954,0.320704827,-0.154372871,0.382965
0.355021325,-0.289206655,0.44731,0.328628798,-0.237285126,0.422922,0.326600809,-0.275708279,0.439762,0.292295094,-0.242963692,0.425507,0.255248334,-0.210905705,0.407848,0.240499215,-0.185012247,0.397401,0.273971311,-0.181529555,0.396532,0.255901814,-0.148885854,0.391006,0.248174615,-0.13114709,0.388243,0.247290557,-0.123255195,0.385731,0.300176258,-0.179752101,0.399696,0.266532203,-0.144870474,0.365145,0.253891578,-0.158563388,0.34499,0.259873345,-0.174709442,0.349755,0.324954669,-0.182699238,0.404929,0.295699997,-0.145568786,0.394424,0.282221979,-0.125965922,0.389049,0.280019089,-0.1160183,0.384162,0.360895719,-0.194528371,0.415588,0.328711174,-0.169376903,0.387628,0.314177214,-0.157781216,0.374782,0.313737924,-0.152959918,0.377621
0.354078966,-0.290798878,0.446589,0.327923221,-0.237517106,0.422783,0.325589554,-0.275889392,0.438825,0.291433494,-0.243251142,0.425086,0.255138811,-0.21081521,0.407673,0.240490138,-0.185005264,0.397386,0.273217477,-0.181986775,0.396507,0.255799716,-0.148826452,0.39085,0.248033347,-0.131072437,0.388022,0.24600892,-0.123730306,0.385451,0.299743425,-0.18030453,0.400111,0.267215422,-0.14524183,0.366081,0.254804878,-0.159133773,0.346231,0.26099307,-0.175462217,0.351262,0.324793021,-0.183301988,0.405644,0.295774217,-0.145605324,0.394523,0.282066014,-0.12589631,0.388834,0.278617742,-0.11623831,0.383661,0.36105943,-0.19513488,0.416541,0.328970955,-0.170162687,0.388871,0.314490237,-0.158632928,0.376158,0.302376784,-0.14812834,0.36494
0.353754063,-0.291738866,0.445843,0.326963032,-0.237352749,0.422089,0.32463147,-0.275912388,0.437872,0.291096184,-0.243651022,0.425158,0.258136899,-0.209230735,0.407472,0.246363941,-0.182597699,0.397637,0.272131973,-0.181834359,0.395579,0.254250076,-0.148462212,0.388561,0.246027009,-0.130747645,0.385052,0.240510787,-0.125678368,0.381862,0.298817368,-0.18022517,0.399467,0.266762618,-0.144968793,0.365459,0.254358398,-0.158841086,0.345621,0.260533291,-0.175146629,0.350638,0.324028243,-0.183273606,0.405228,0.295528585,-0.145449253,0.394188,0.281852985,-0.125758863,0.38854,0.277740039,-0.116384679,0.383405,0.360493293,-0.195161492,0.416381,0.328342403,-0.170211039,0.388673,0.313820382,-0.158693011,0.375943,0.301646594,-0.148226124,0.36471
0.345918981,-0.286507722,0.435861,0.323198384,-0.236042975,0.418691,0.318311432,-0.272522175,0.42965,0.287659825,-0.244579447,0.422483,0.25541391,-0.210994727,0.406449,0.24269424,-0.185954283,0.397141,0.272092423,-0.185284588,0.398943,0.255273092,-0.149576366,0.389983,0.246746743,-0.131380052,0.385502,0.240404911,-0.125973168,0.381429,0.298459416,-0.182934685,0.402339,0.266488981,-0.136075905,0.37502,0.253991784,-0.143093026,0.359084,0.263447707,-0.164631276,0.367539,0.322923518,-0.185059535,0.406986,0.293892475,-0.145610836,0.39335,0.279127786,-0.125589604,0.386373,0.270382601,-0.11738847,0.38003,0.356974714,-0.195384356,0.415608,0.318236937,-0.16484771,0.392811,0.301502477,-0.150938103,0.382338,0.286831702,-0.138774988,0.373096
0.344940237,-0.286435927,0.434426,0.322072879,-0.234756874,0.416679,0.317081754,-0.272914811,0.428167,0.288258528,-0.24237802,0.421194,0.254503922,-0.210511389,0.404675,0.241617513,-0.1854685,0.394926,0.26993132,-0.184158834,0.396477,0.252949215,-0.14818571,0.386471,0.244336652,-0.130181997,0.381468,0.237657232,-0.124581052,0.37692,0.296082707,-0.181650984,0.399777,0.263788788,-0.134199081,0.371876,0.251058927,-0.140618479,0.3556,0.260206778,-0.16208496,0.363795,0.320455307,-0.183650553,0.404408,0.284823179,-0.142581763,0.385209,0.267584369,-0.122248064,0.375386,0.256632462,-0.115839249,0.366456,0.354551073,-0.193838951,0.413118,0.316530924,-0.16342047,0.389917,0.299842877,-0.149821648,0.379257,0.285194547,-0.137909612,0.369851
0.33679475,-0.280203728,0.423925,0.315916605,-0.231197277,0.410023,0.311841711,-0.269714541,0.42124,0.28486833,-0.242497441,0.4178,0.25180791,-0.211007467,0.399901,0.239440319,-0.18716518,0.390824,0.266769534,-0.184976249,0.397085,0.250812455,-0.146577005,0.383304,0.240407274,-0.131235567,0.376413,0.233221964,-0.137403465,0.370149,0.290223646,-0.180001835,0.396782,0.262914236,-0.128583223,0.373389,0.246372614,-0.116785558,0.359744,0.252406075,-0.131484038,0.369976,0.31205573,-0.179753626,0.398031,0.280891872,-0.138131947,0.378397,0.267625971,-0.114233481,0.368352,0.25382721,-0.110371158,0.35922,0.34258872,-0.186818992,0.402094,0.312469767,-0.158199914,0.382876,0.298596171,-0.145000303,0.374046,0.286334593,-0.133324592,0.366255
0.338771719,-0.281827121,0.427101,0.314951947,-0.230394533,0.409218,0.312615771,-0.270611819,0.423114,0.274359652,-0.242024237,0.410571,0.237348404,-0.216408848,0.388707,0.217982349,-0.194438368,0.373555,0.262740456,-0.181386533,0.391881,0.249456077,-0.143629501,0.381582,0.240610854,-0.130319926,0.376432,0.233436442,-0.136011634,0.37175,0.286361306,-0.176889245,0.392186,0.254956044,-0.124091521,0.364524,0.236066011,-0.107241834,0.348388,0.239469498,-0.120066562,0.356779,0.308742789,-0.17717734,0.394364,0.272414099,-0.134618607,0.375454,0.254248484,-0.118138446,0.365779,0.24430715,-0.118067226,0.356983,0.340681096,-0.185172533,0.400254,0.309114058,-0.153336866,0.37783,0.295159333,-0.139839267,0.367527,0.282945632,-0.128448633,0.358436
0.336909458,-0.27964257,0.425014,0.310910573,-0.225903108,0.404489,0.312275413,-0.269684907,0.422948,0.277127459,-0.238563372,0.410435,0.23584104,-0.216831432,0.388293,0.214778198,-0.195072599,0.373728,0.262140278,-0.171803106,0.387862,0.252763887,-0.132002354,0.376627,0.240496022,-0.126024521,0.37101,0.231225711,-0.133460437,0.365904,0.281602349,-0.169647404,0.384942,0.253155746,-0.114934293,0.35493,0.230246324,-0.102487007,0.337422,0.231840104,-0.114733864,0.344457,0.301899049,-0.169743572,0.38475,0.278055722,-0.129220044,0.357535,0.265017741,-0.108966806,0.343612,0.250558096,-0.10835933,0.330954,0.33152454,-0.177681122,0.388384,0.299579922,-0.151499313,0.365108,0.28411214,-0.13964752,0.354413,0.271254211,-0.12739008,0.344977
0.332828702,-0.276413732,0.420337,0.308382262,-0.225723076,0.40207,0.310271406,-0.267847559,0.420669,0.264866299,-0.242244875,0.406272,0.222852911,-0.220674614,0.383321,0.198219468,-0.199981347,0.367826,0.270181398,-0.172273597,0.390101,0.250267358,-0.132724895,0.375832,0.235298405,-0.122826083,0.368698,0.226821586,-0.118958118,0.362212,0.289823865,-0.168665808,0.384674,0.263160854,-0.116552941,0.358205,0.243760781,-0.101039659,0.342765,0.243017165,-0.0948763516,0.350997,0.308193686,-0.169880466,0.382173,0.287438864,-0.128889703,0.356692,0.276380321,-0.10876715,0.343654,0.264963667,-0.0941105526,0.331803,0.334263768,-0.179287635,0.382704,0.316170134,-0.150212117,0.361255,0.307862835,-0.136673238,0.3514,0.300537016,-0.124619697,0.342705
0.330110928,-0.273744355,0.417095,0.30748966,-0.221683694,0.400116,0.308954243,-0.266055291,0.419033,0.265294229,-0.242824022,0.407256,0.221838707,-0.222858475,0.383408,0.194881021,-0.207849957,0.365773,0.27156564,-0.171365294,0.391111,0.245252108,-0.131709122,0.372115,0.230608699,-0.117943021,0.362616,0.216136777,-0.100369986,0.353982,0.290166534,-0.167094253,0.383945,0.262756163,-0.115699051,0.358363,0.24297025,-0.0931922414,0.34344,0.242105014,-0.081855016,0.351746,0.307395605,-0.167686062,0.379874,0.290116297,-0.122452679,0.354364,0.279971179,-0.101649004,0.341312,0.269598022,-0.0857879814,0.329446,0.33167131,-0.176140649,0.378341,0.31944814,-0.146278184,0.357338,0.313322494,-0.132862596,0.347688,0.307950751,-0.120902121,0.339174
0.327860195,-0.271187897,0.414428,0.307419288,-0.219765536,0.399309,0.307956095,-0.264138153,0.41775,0.265077582,-0.244636577,0.408437,0.217254392,-0.231589488,0.384235,0.188529559,-0.213619852,0.367739,0.273334318,-0.171498856,0.393371,0.245182526,-0.131173451,0.372268,0.229423928,-0.113797629,0.361716,0.215323604,-0.0987631435,0.352123,0.291231953,-0.166829183,0.38491,0.267035413,-0.116946549,0.363859,0.251708194,-0.0905299231,0.351578,0.240273604,-0.0720334617,0.342807,0.307556429,-0.167009846,0.379572,0.290999555,-0.12206975,0.35474,0.281472336,-0.101056991,0.342036,0.272247457,-0.0834115465,0.330486,0.330217939,-0.174769564,0.376218,0.319900081,-0.145453846,0.356077,0.314859833,-0.132104537,0.346822,0.310459104,-0.120193344,0.338657
0.326594883,-0.269423188,0.413069,0.307136622,-0.219038763,0.398657,0.306760723,-0.26202037,0.416263,0.263946782,-0.24456654,0.407618,0.216419206,-0.230705394,0.383391,0.18787847,-0.212975067,0.367147,0.27316807,-0.170730978,0.393032,0.245315814,-0.129795501,0.37212,0.230427128,-0.112543151,0.361665,0.216806144,-0.096945792,0.35216,0.291403043,-0.166335604,0.384931,0.2668627,-0.116110925,0.363066,0.251709087,-0.0892425143,0.350311,0.240311347,-0.0705274439,0.341201,0.307948895,-0.166710546,0.379813,0.291758493,-0.121750327,0.35563,0.282636026,-0.1003624,0.343258,0.275081325,-0.0796344823,0.33201,0.330730841,-0.174643354,0.376581,0.321441394,-0.145005815,0.357065,0.318606157,-0.130646318,0.348098,0.315174378,-0.118359307,0.340186
0.325911214,-0.268133698,0.412451,0.306999201,-0.218565613,0.398275,0.306184445,-0.26042655,0.415617,0.263464859,-0.244705411,0.407429,0.216192121,-0.230465383,0.3832,0.187721682,-0.212828336,0.367067,0.273029056,-0.170245107,0.392772,0.245521769,-0.12941042,0.371968,0.230882135,-0.111892746,0.361566,0.217503756,-0.0960190663,0.352109,0.291376743,-0.165965108,0.384773,0.267055424,-0.115737951,0.362993,0.251994321,-0.0889172277,0.350288,0.240706039,-0.0701419515,0.341213,0.307987153,-0.1664235,0.379714,0.291895129,-0.121489085,0.355779,0.282941127,-0.0999173827,0.343533,0.275338261,-0.0792173542,0.3324,0.330781636,-0.174431537,0.376506,0.321906102,-0.14464355,0.357219,0.318933631,-0.130239386,0.348357,0.315612977,-0.117866926,0.340538
0.324654825,-0.26646785,0.411479,0.306787837,-0.218220732,0.397995,0.3051537,-0.258437728,0.414701,0.263186936,-0.244978489,0.407706,0.215928987,-0.230342409,0.383473,0.187682177,-0.212624916,0.367896,0.273188674,-0.170072052,0.393035,0.246254241,-0.129975688,0.372979,0.232430081,-0.110738986,0.362951,0.220576568,-0.092989884,0.353834,0.291697,-0.165939974,0.385152,0.268017756,-0.115633317,0.363843,0.253236813,-0.0890153842,0.351412,0.242129055,-0.0703148625,0.342533,0.308364032,-0.166491239,0.380114,0.293402357,-0.120967913,0.357053,0.285013257,-0.0991916849,0.345254,0.277390582,-0.0793364378,0.334527,0.331068145,-0.174551758,0.376801,0.323998843,-0.144079352,0.358114,0.320595273,-0.130240852,0.349527,0.31765046,-0.117893663,0.341951
0.323414863,-0.264910347,0.410489,0.306537722,-0.217749078,0.397638,0.304059558,-0.256484462,0.413647,0.262869125,-0.244919056,0.407667,0.215567934,-0.229853403,0.383534,0.187520399,-0.212398913,0.368357,0.273154615,-0.169735428,0.393026,0.246809929,-0.129673569,0.373644,0.233798667,-0.109566858,0.363952,0.221460542,-0.092624395,0.355142,0.291898487,-0.165777495,0.385399,0.268671965,-0.115505603,0.364554,0.254637052,-0.0880693823,0.352394,0.243923501,-0.0690562011,0.343708,0.308712976,-0.166444193,0.380504,0.294342311,-0.120860122,0.358231,0.28625599,-0.0983857072,0.346835,0.278930693,-0.0783461485,0.336476,0.331474359,-0.174589314,0.377237,0.325337121,-0.144114286,0.35916,0.322804161,-0.129474912,0.350855,0.320390842,-0.116924425,0.343526
0.323258985,-0.264427558,0.410921,0.307306369,-0.218059338,0.398609,0.3040957,-0.25559855,0.414158,0.263232802,-0.245435747,0.408572,0.21881708,-0.233247618,0.38979,0.19251103,-0.218022396,0.378693,0.274135152,-0.170106926,0.394467,0.24817198,-0.129940838,0.375573,0.235228504,-0.109829307,0.366126,0.22300832,-0.092828516,0.357558,0.293034829,-0.166214019,0.386885,0.270772972,-0.116099136,0.367271,0.257208142,-0.0885016186,0.35583,0.246898764,-0.069277364,0.347658,0.309924481,-0.166920026,0.381967,0.295974296,-0.12119942,0.36024,0.28811052,-0.0986757982,0.349123,0.280987065,-0.078551519,0.339017,0.332666585,-0.175084351,0.378574,0.327216097,-0.1445725,0.360945,0.325253622,-0.130027655,0.353076,0.323355965,-0.117487648,0.346133
0.322299542,-0.263555888,0.410123,0.306543462,-0.216714182,0.397122,0.303334512,-0.254377175,0.413397,0.262594431,-0.244978623,0.407846,0.215296176,-0.229445128,0.383852,0.187239331,-0.212031778,0.368693,0.272794337,-0.169090656,0.392561,0.246673805,-0.128810216,0.373203,0.233578093,-0.108789719,0.363523,0.221267918,-0.0918119973,0.354724,0.291419343,-0.165136031,0.384741,0.269005295,-0.115101998,0.36477,0.255307478,-0.0875461351,0.35312,0.244981657,-0.0683306571,0.344799,0.308106461,-0.165803691,0.379703,0.295871416,-0.120921695,0.360131,0.288909098,-0.0987178057,0.350118,0.282609656,-0.0787564768,0.341015,0.33068001,-0.173936064,0.376298,0.324735344,-0.143211949,0.358004,0.322317257,-0.128570948,0.349598,0.320015878,-0.115933447,0.342182
0.32216397,-0.263425261,0.410291,0.306595083,-0.216147722,0.39684,0.302842598,-0.253706723,0.413009,0.262249573,-0.244642005,0.40741,0.215014525,-0.229033361,0.383584,0.187088319,-0.211913616,0.36871,0.271993999,-0.167676313,0.391247,0.247375318,-0.126574202,0.373842,0.234307838,-0.108206553,0.36514,0.222534586,-0.092347295,0.357228,0.291084106,-0.164046167,0.384029,0.26974776,-0.115183188,0.36595,0.256641646,-0.08630107,0.355404,0.247030677,-0.0666207904,0.347871,0.308221673,-0.164996157,0.379535,0.296495816,-0.119619444,0.361145,0.289888783,-0.097918378,0.351735,0.283945856,-0.0788158631,0.343181,0.331423036,-0.173500838,0.376848,0.325304985,-0.142464181,0.358491,0.323304512,-0.127578502,0.350057,0.320184979,-0.115550258,0.342615
0.322469846,-0.262810867,0.410692,0.306812219,-0.215486118,0.397009,0.302968512,-0.252968668,0.413197,0.261988621,-0.24486849,0.407614,0.215085202,-0.229021979,0.383892,0.187172405,-0.212049915,0.36912,0.271807848,-0.167317046,0.390982,0.247523649,-0.126407301,0.374156,0.23452798,-0.108281279,0.365743,0.222853434,-0.0924868967,0.358095,0.291052261,-0.163757555,0.383978,0.269825867,-0.114566781,0.366088,0.256455422,-0.0861195742,0.355651,0.246843493,-0.0664228791,0.348197,0.308352197,-0.164775356,0.379685,0.296491777,-0.119390933,0.361428,0.289842957,-0.0976803732,0.352088,0.283945687,-0.0785810581,0.343596,0.331803637,-0.173382842,0.377275,0.325520698,-0.142230258,0.358831,0.323274618,-0.127285455,0.350357,0.320256903,-0.115243053,0.342881
0.322449289,-0.2624941,0.41096,0.306800544,-0.21510045,0.397149,0.302827016,-0.252548908,0.413308,0.261748239,-0.245078904,0.407787,0.215120302,-0.22899006,0.3841,0.187221935,-0.212138887,0.369413,0.271664185,-0.166767873,0.39083,0.247610295,-0.126278536,0.374351,0.234645624,-0.108316368,0.366112,0.223009477,-0.0925573295,0.358622,0.291067899,-0.163316412,0.383996,0.270012542,-0.114146596,0.36623,0.256368324,-0.0860110306,0.355867,0.246754074,-0.0663005291,0.348464,0.308503231,-0.164428002,0.379856,0.296487882,-0.119227242,0.361629,0.289780399,-0.0975002398,0.352304,0.283868937,-0.0783772791,0.343826,0.33212056,-0.173156282,0.377648,0.325760593,-0.142079716,0.359175,0.32336081,-0.127118339,0.350688,0.320416616,-0.11504144,0.343199
0.322620142,-0.262239912,0.411238,0.306914219,-0.214803687,0.397333,0.302912041,-0.252259283,0.413494,0.261846452,-0.245016679,0.40806,0.21510621,-0.228880275,0.38457,0.187218942,-0.212165093,0.370006,0.271635778,-0.166404484,0.39083,0.247702246,-0.126195864,0.374538,0.234735945,-0.108343645,0.366392,0.223099075,-0.0925990471,0.358987,0.291130289,-0.162987358,0.38409,0.270088932,-0.113803235,0.3664,0.256349095,-0.0859479016,0.356081,0.246729349,-0.0662236479,0.34871,0.308647804,-0.164130563,0.380038,0.296496616,-0.11910913,0.361794,0.289728508,-0.0973634528,0.35246,0.283778763,-0.0782064036,0.343975,0.332372767,-0.172900532,0.377948,0.325942328,-0.141954727,0.359439,0.32342414,-0.12699236,0.350935,0.320523422,-0.114872555,0.343431
0.322805199,-0.262025117,0.41147,0.307055712,-0.214569879,0.397516,0.303010587,-0.252017093,0.413634,0.261969858,-0.244990435,0.408305,0.215150595,-0.228831691,0.385017,0.187289454,-0.212256078,0.370607,0.271641238,-0.166131042,0.390861,0.24791174,-0.126201883,0.374892,0.234997178,-0.108453009,0.366908,0.22330059,-0.0924761961,0.359649,0.291230618,-0.162740675,0.384227,0.27003109,-0.113578479,0.366543,0.25632492,-0.0858972632,0.356228,0.246685705,-0.0661592407,0.348859,0.308833729,-0.163907463,0.380268,0.296670212,-0.119084195,0.362126,0.289903954,-0.0973295035,0.352844,0.283843515,-0.0778533944,0.344406,0.332671202,-0.172708148,0.378296,0.326316996,-0.141659429,0.359794,0.323626165,-0.126954217,0.351293,0.320959652,-0.114498685,0.343792
