sluyters/QuantumLeap/backend/src/datasets/dynamic/HandGestureDataset_SHREC2017_csv/Gesture3/finger_2/subject_23_essai_1_skeletons_world.csv
Wrist_x,Wrist_y,Wrist_z,Palm_x,Palm_y,Palm_z,thumb_base_x,thumb_base_y,thumb_base_z,thumb_first_joint_x,thumb_first_joint_y,thumb_first_joint_z,thumb_second_joint_x,thumb_second_joint_y,thumb_second_joint_z,thumb_tip_x,thumb_tip_y,thumb_tip_z,index_base_x,index_base_y,index_base_z,index_first_joint_x,index_first_joint_y,index_first_joint_z,index_second_joint_x,index_second_joint_y,index_second_joint_z,index_tip_x,index_tip_y,index_tip_z,middle_base_x,middle_base_y,middle_base_z,middle_first_joint_x,middle_first_joint_y,middle_first_joint_z,middle_second_joint_x,middle_second_joint_y,middle_second_joint_z,middle_tip_x,middle_tip_y,middle_tip_z,ring_base_x,ring_base_y,ring_base_z,ring_first_joint_x,ring_first_joint_y,ring_first_joint_z,ring_second_joint_x,ring_second_joint_y,ring_second_joint_z,ring_tip_x,ring_tip_y,ring_tip_z,pinky_base_x,pinky_base_y,pinky_base_z,pinky_first_joint_x,pinky_first_joint_y,pinky_first_joint_z,pinky_second_joint_x,pinky_second_joint_y,pinky_second_joint_z,pinky_tip_x,pinky_tip_y,pinky_tip_z,r
0.242818808,-0.259866641,0.405664,0.244215056,-0.223026371,0.367732,0.245262901,-0.237635921,0.400938,0.232059152,-0.220749693,0.384572,0.208812034,-0.217634769,0.371065,0.201461215,-0.210586482,0.35833,0.249782631,-0.178763173,0.343923,0.198016462,-0.158474182,0.315996,0.172365076,-0.154006526,0.302032,0.163597854,-0.161072679,0.298459,0.244535888,-0.195859805,0.339373,0.190730431,-0.169219847,0.304237,0.171148364,-0.175092446,0.309726,0.173841033,-0.190001308,0.324158,0.242718697,-0.21256256,0.338408,0.186413813,-0.188773364,0.307393,0.170440462,-0.189315482,0.312138,0.165730555,-0.198524097,0.326557,0.240444239,-0.237804092,0.342381,0.193631867,-0.208830377,0.315601,0.173062898,-0.19774452,0.303297,0.163336028,-0.192067921,0.299477
0.244586016,-0.259514525,0.406105,0.24584017,-0.223230898,0.368117,0.247284383,-0.237415583,0.401456,0.232993137,-0.221007495,0.385055,0.210853715,-0.217474164,0.370751,0.202375005,-0.211467578,0.358907,0.25099354,-0.179684182,0.344381,0.201802918,-0.158658397,0.316524,0.175877136,-0.153973754,0.302595,0.165219563,-0.161043049,0.298934,0.248094563,-0.196595523,0.339718,0.193687725,-0.168314678,0.304604,0.172333117,-0.174727345,0.309918,0.174627807,-0.189463731,0.324287,0.243958767,-0.213130551,0.338665,0.187588378,-0.189062778,0.307706,0.171556262,-0.189370635,0.312306,0.166906942,-0.19833318,0.326644,0.24133278,-0.238238031,0.342541,0.194623547,-0.208977596,0.315813,0.174272215,-0.195985936,0.303532,0.164351216,-0.191842861,0.299641
0.245048999,-0.257389422,0.404742,0.248844966,-0.221495619,0.36727,0.247826951,-0.235348143,0.399935,0.233900979,-0.21940347,0.384258,0.215367036,-0.216649755,0.370948,0.203949737,-0.211460693,0.358332,0.253390091,-0.17883999,0.343578,0.210426542,-0.153058969,0.315651,0.185432393,-0.14375118,0.301687,0.169485168,-0.147787973,0.298609,0.249309798,-0.195832816,0.339256,0.195735966,-0.167369248,0.304256,0.17604682,-0.173260287,0.310558,0.176719826,-0.18878835,0.325197,0.246976755,-0.212701311,0.338445,0.190405702,-0.188275133,0.307476,0.176081158,-0.188282944,0.312899,0.170541978,-0.197640876,0.32757,0.244050434,-0.237805097,0.342538,0.197357164,-0.208099389,0.31576,0.176974009,-0.194926014,0.303456,0.167272434,-0.190693232,0.30003
0.244604712,-0.254626922,0.401831,0.25087873,-0.217147277,0.363925,0.249416375,-0.231317247,0.396472,0.236306853,-0.207998786,0.379789,0.219171971,-0.192144124,0.364972,0.206278887,-0.189045821,0.351586,0.254585749,-0.174549065,0.339338,0.207635587,-0.150685537,0.310803,0.182910949,-0.140635547,0.296535,0.16635451,-0.142950554,0.293174,0.251883171,-0.19187485,0.335586,0.197145529,-0.163729284,0.300159,0.176342051,-0.16913702,0.306269,0.177008918,-0.184545777,0.321002,0.249575731,-0.208963196,0.335278,0.19609696,-0.182292738,0.30374,0.181405076,-0.181854246,0.308993,0.173272722,-0.19165378,0.323826,0.246550898,-0.234346589,0.340022,0.199679212,-0.203986518,0.312811,0.178982257,-0.190699266,0.300309,0.167490893,-0.187522618,0.29668
0.246442064,-0.24929969,0.397249,0.252482481,-0.212541251,0.358777,0.251998738,-0.224809321,0.391515,0.235494735,-0.205516137,0.374195,0.217643277,-0.194920625,0.358663,0.203127804,-0.199483333,0.346267,0.254816376,-0.169943395,0.333456,0.204878728,-0.147988704,0.30447,0.179972546,-0.137718228,0.289977,0.162698829,-0.139418224,0.28613,0.252213362,-0.187773007,0.330016,0.192285039,-0.161572328,0.294205,0.175136058,-0.165943348,0.299718,0.178816498,-0.180677542,0.314402,0.250107567,-0.205207043,0.330005,0.194213189,-0.179907995,0.298025,0.179390418,-0.179710647,0.302773,0.173102485,-0.187678098,0.317582,0.247559215,-0.230858849,0.335177,0.199702487,-0.20076692,0.30765,0.17854987,-0.187666326,0.295002,0.167359117,-0.183357533,0.291004
0.251856287,-0.239614982,0.389532,0.253123094,-0.205153604,0.350012,0.258010158,-0.215217374,0.382955,0.23872997,-0.197604023,0.364151,0.213622483,-0.187837602,0.348065,0.198604351,-0.187517344,0.333753,0.255139185,-0.160651665,0.323141,0.199948532,-0.141519227,0.293236,0.174272905,-0.131761583,0.278284,0.156556828,-0.131720705,0.273456,0.252864908,-0.179543411,0.320466,0.188560913,-0.155838373,0.283941,0.169761098,-0.159843202,0.288258,0.177307073,-0.173119768,0.302825,0.251373968,-0.197785039,0.321161,0.18882713,-0.174079783,0.288301,0.178066511,-0.176707343,0.292034,0.184544458,-0.187415264,0.306794,0.250220743,-0.224207861,0.32731,0.198013308,-0.19515297,0.299161,0.176660898,-0.182071839,0.286228,0.167106632,-0.177154419,0.281493
0.257007773,-0.236132208,0.386975,0.256578661,-0.202427563,0.347672,0.258627866,-0.213788193,0.380731,0.238735161,-0.196419864,0.362392,0.216360415,-0.184603699,0.346299,0.199524065,-0.185670269,0.332761,0.255858561,-0.159579298,0.321319,0.203150303,-0.138537854,0.291745,0.179944716,-0.127622437,0.276958,0.160245352,-0.129088133,0.272311,0.253260151,-0.177967995,0.318288,0.191160431,-0.152679026,0.281974,0.172404256,-0.156716941,0.286438,0.178797255,-0.170815878,0.300975,0.251446236,-0.19582219,0.318675,0.195763566,-0.170206475,0.286117,0.182370948,-0.172997491,0.289979,0.186513576,-0.185307808,0.304668,0.249797549,-0.221855673,0.324431,0.200237473,-0.19189194,0.296505,0.178751875,-0.17884288,0.283674,0.169217443,-0.17414423,0.279068
0.251845568,-0.234769183,0.385708,0.255564362,-0.200910809,0.346797,0.256240962,-0.210410332,0.378303,0.234038102,-0.184404922,0.35897,0.214296362,-0.169334022,0.342078,0.19906622,-0.167014011,0.327516,0.257536589,-0.158588177,0.319178,0.209552756,-0.136820105,0.288636,0.184677732,-0.126340722,0.273365,0.163665389,-0.126006751,0.269281,0.255821574,-0.177796612,0.317707,0.195611372,-0.151759483,0.281084,0.177089723,-0.155595046,0.28691,0.179467452,-0.169005513,0.301987,0.252948392,-0.196381452,0.319349,0.197969631,-0.170828483,0.28601,0.184417522,-0.173367421,0.290989,0.190899216,-0.18431255,0.30644,0.251675145,-0.22308332,0.326535,0.202340921,-0.192514783,0.29796,0.182124094,-0.178400464,0.284831,0.170780257,-0.174295647,0.280717
0.250309528,-0.232509207,0.383996,0.252642633,-0.198030361,0.343124,0.25322828,-0.207661716,0.375451,0.230142708,-0.181735134,0.354068,0.211115395,-0.167083722,0.33724,0.196950006,-0.164872098,0.32296,0.252609534,-0.155008922,0.313153,0.204931057,-0.13392098,0.281474,0.179986227,-0.12387232,0.265635,0.158778924,-0.121332636,0.259272,0.252230756,-0.174372791,0.312567,0.220710622,-0.148391352,0.274991,0.200271394,-0.149439404,0.277602,0.198899811,-0.158854208,0.292013,0.252013779,-0.193011817,0.31508,0.240910255,-0.157645388,0.280625,0.22600535,-0.160916936,0.282895,0.223218056,-0.17649174,0.297715,0.251742159,-0.219986439,0.32356,0.204475401,-0.189890712,0.294299,0.182754071,-0.176454389,0.280855,0.168165486,-0.17059652,0.275008
0.246622559,-0.231662737,0.381708,0.251418248,-0.196342485,0.341365,0.248520294,-0.206941151,0.372735,0.220767765,-0.188430281,0.351265,0.215010618,-0.156690875,0.332534,0.206218655,-0.145785453,0.317335,0.250914029,-0.152891233,0.31111,0.204852046,-0.132408194,0.2791,0.1813163,-0.123478512,0.263095,0.161198239,-0.120493273,0.257414,0.253231969,-0.170930907,0.311204,0.22654107,-0.144629013,0.273615,0.208153516,-0.148047515,0.277494,0.202189926,-0.158872688,0.292309,0.255126652,-0.189820391,0.314238,0.248786034,-0.152067077,0.279548,0.232512734,-0.153404389,0.277342,0.227982469,-0.168823135,0.290302,0.25982826,-0.21594215,0.323263,0.212497149,-0.190365974,0.293765,0.190252886,-0.17850302,0.280212,0.172920294,-0.171172572,0.274918
0.24536126,-0.223478408,0.372988,0.248935646,-0.191236578,0.333286,0.245587458,-0.200466303,0.364495,0.224326635,-0.184243935,0.343776,0.218627387,-0.154004002,0.325733,0.205089113,-0.143457585,0.310794,0.253912008,-0.148465852,0.303934,0.232420382,-0.128329367,0.270121,0.202423782,-0.118941063,0.253214,0.185784121,-0.117005037,0.247629,0.255138687,-0.16841083,0.303605,0.221163906,-0.142290554,0.26635,0.203246481,-0.145475124,0.271277,0.201291197,-0.155742427,0.286299,0.256075978,-0.187350287,0.306244,0.239996355,-0.153450159,0.271981,0.217488902,-0.151396087,0.265125,0.212676305,-0.161649233,0.274928,0.254882527,-0.212283379,0.314715,0.207179736,-0.185660031,0.285486,0.185125847,-0.173405497,0.272057,0.169246932,-0.166633215,0.26734
0.245266363,-0.219431085,0.368735,0.258565994,-0.190328837,0.333954,0.249823076,-0.198095248,0.362086,0.23514919,-0.182821601,0.343945,0.230105986,-0.153219775,0.326695,0.222367393,-0.142311691,0.313112,0.266351216,-0.150331866,0.30923,0.24865322,-0.131648677,0.277844,0.221082159,-0.122210558,0.262152,0.199261674,-0.12175773,0.260477,0.266350365,-0.170135333,0.307951,0.227029278,-0.146505604,0.273686,0.200616359,-0.133835569,0.253697,0.182374798,-0.133082352,0.25208,0.266022793,-0.188595432,0.309449,0.247945844,-0.157511456,0.278174,0.222597366,-0.148229765,0.262173,0.204541,-0.14949458,0.260901,0.264929567,-0.214331982,0.315908,0.218436648,-0.184498404,0.288805,0.197896507,-0.171186643,0.276352,0.186624452,-0.165322279,0.274766
0.249856196,-0.220076681,0.364443,0.261741797,-0.195720046,0.324591,0.254724653,-0.199037932,0.357522,0.237865692,-0.190738198,0.3393,0.234386657,-0.160276185,0.323642,0.226737812,-0.147664561,0.31031,0.26284119,-0.153199716,0.297133,0.242381918,-0.129801433,0.263484,0.213873637,-0.118371701,0.24666,0.190338705,-0.11252729,0.240488,0.261636212,-0.171786075,0.294797,0.217076534,-0.141198541,0.258036,0.18956185,-0.125719003,0.236592,0.168870293,-0.122319222,0.230438,0.260700522,-0.18980926,0.295796,0.242858718,-0.154644864,0.262617,0.211287607,-0.140625876,0.245642,0.190244718,-0.138618305,0.239672,0.259506819,-0.216140829,0.302349,0.211831085,-0.182659299,0.273977,0.190972372,-0.167868001,0.260941,0.175729417,-0.156556878,0.255957
0.223890871,-0.217909057,0.298241,0.241351745,-0.175981344,0.29506,0.224552356,-0.211241294,0.308899,0.221384063,-0.187512905,0.318848,0.226057827,-0.176744153,0.329625,0.227459943,-0.160420803,0.332178,0.247981544,-0.150909735,0.306883,0.217261308,-0.133937422,0.295931,0.203347534,-0.145075371,0.290455,0.211611952,-0.163447175,0.297011,0.253207885,-0.147028181,0.292683,0.222405156,-0.131629651,0.287459,0.203080551,-0.144018249,0.284412,0.206881788,-0.161363217,0.292881,0.254911307,-0.146297962,0.281229,0.233241986,-0.120338027,0.276793,0.216133808,-0.128217653,0.274523,0.220179932,-0.15113707,0.283734,0.255222582,-0.150766755,0.26812,0.229783481,-0.137450816,0.265778,0.220387364,-0.145945836,0.264702,0.218775943,-0.15935131,0.271811
0.213139272,-0.205725898,0.283407,0.236798314,-0.171853688,0.288168,0.214247819,-0.201684329,0.295641,0.216020616,-0.183774607,0.310109,0.221920064,-0.174985858,0.323973,0.225207319,-0.159991267,0.328652,0.247847031,-0.152612173,0.305709,0.223102827,-0.136051943,0.301135,0.210760409,-0.148535647,0.298848,0.219795595,-0.168710674,0.307477,0.253492678,-0.148376472,0.291727,0.231785255,-0.129051005,0.288957,0.215314953,-0.140698468,0.287342,0.221420292,-0.163432114,0.296659,0.2556111,-0.146537965,0.279871,0.236271391,-0.125302705,0.272896,0.232340709,-0.141317572,0.269328,0.245925817,-0.161517767,0.277962,0.258396061,-0.148130538,0.265216,0.239988691,-0.134817123,0.268151,0.230501918,-0.127976374,0.2695,0.228562215,-0.139450204,0.278241
0.215138397,-0.210764756,0.286306,0.233519985,-0.171690852,0.283551,0.211359256,-0.201693686,0.292906,0.207125351,-0.187540568,0.298309,0.21024756,-0.178048593,0.30951,0.211719008,-0.162713746,0.311934,0.236846315,-0.149375387,0.290502,0.220350428,-0.133190781,0.286621,0.221869284,-0.157156549,0.302064,0.223744042,-0.172551018,0.310792,0.247410094,-0.15070373,0.281491,0.229376367,-0.131738244,0.27417,0.213200658,-0.145370963,0.269898,0.217497981,-0.170299704,0.280362,0.255091106,-0.154330881,0.274278,0.239949223,-0.136468714,0.26456,0.231729127,-0.126370649,0.259587,0.236129624,-0.131011919,0.269935,0.262564721,-0.163600392,0.266124,0.265704238,-0.137522126,0.258823,0.267551914,-0.12469576,0.255469,0.256257748,-0.119289483,0.252509
0.213214309,-0.209652803,0.281184,0.235639208,-0.178105491,0.28146,0.207905648,-0.199547134,0.286517,0.207319844,-0.19047878,0.29295,0.210213011,-0.183655111,0.306705,0.210790124,-0.164973136,0.309408,0.23776638,-0.154088639,0.288258,0.226107533,-0.137877602,0.286557,0.22915833,-0.162590743,0.303051,0.229577253,-0.179235711,0.310311,0.250994342,-0.155974983,0.281667,0.238478021,-0.136790428,0.276716,0.224720479,-0.154693889,0.273827,0.231169791,-0.177730521,0.28568,0.261016267,-0.159920678,0.276223,0.254488794,-0.143379002,0.272011,0.250911183,-0.133593809,0.269857,0.260630819,-0.138439333,0.28267,0.271476028,-0.16931931,0.26975,0.278849954,-0.14351005,0.265139,0.282720981,-0.130731997,0.263021,0.273666775,-0.12539195,0.261151
0.212916077,-0.210222432,0.279783,0.235166805,-0.178282438,0.280457,0.207128994,-0.199849115,0.28498,0.206195865,-0.190173249,0.29243,0.209444335,-0.18359378,0.306499,0.210682194,-0.166250007,0.309459,0.236290828,-0.153623365,0.287273,0.224517549,-0.137485591,0.285683,0.227586947,-0.162188499,0.302263,0.22934348,-0.179717251,0.309514,0.249663152,-0.1556367,0.280961,0.238744384,-0.133773373,0.276287,0.223652291,-0.146412985,0.27356,0.230722616,-0.173807044,0.285553,0.25979962,-0.159675471,0.275717,0.254035512,-0.143699052,0.272629,0.250809426,-0.134148443,0.271049,0.25666794,-0.138763011,0.284272,0.270353041,-0.169164527,0.269428,0.277959687,-0.143536182,0.265189,0.281942536,-0.130815279,0.263241,0.270465983,-0.124878432,0.261523
0.220048718,-0.217183056,0.288656,0.227650479,-0.17221604,0.270531,0.199310656,-0.192649002,0.273433,0.193458623,-0.171847183,0.246981,0.174387959,-0.145006794,0.235942,0.172189021,-0.127343657,0.225545,0.209034275,-0.126454154,0.242947,0.204059458,-0.0908256241,0.218465,0.205654044,-0.0795461466,0.208215,0.218023329,-0.0902794447,0.212022,0.235689487,-0.139799234,0.25698,0.231607885,-0.154172827,0.234684,0.228594389,-0.175569495,0.246844,0.229054172,-0.177001257,0.258725,0.254193894,-0.154640922,0.269857,0.253849748,-0.11827316,0.244865,0.25210248,-0.100076343,0.232078,0.255386287,-0.0961150291,0.222352,0.282136739,-0.177234181,0.287521,0.291819862,-0.154380674,0.269847,0.296794365,-0.146826068,0.261727,0.295516645,-0.151468117,0.254562
0.218932675,-0.216181374,0.287054,0.22703169,-0.171676588,0.269432,0.198556127,-0.19229594,0.272029,0.191677598,-0.171927562,0.245811,0.173732496,-0.145772126,0.235193,0.172208341,-0.129030006,0.225033,0.208120335,-0.126169117,0.242335,0.20394302,-0.0915356577,0.218224,0.203697607,-0.079187698,0.206169,0.214001083,-0.0879645226,0.207531,0.234625385,-0.139466017,0.256258,0.230810985,-0.154022732,0.234336,0.228098774,-0.175617816,0.246828,0.228543118,-0.177016584,0.258679,0.253841617,-0.154082024,0.269009,0.252979723,-0.118146653,0.244391,0.251437784,-0.100069293,0.231796,0.252715582,-0.0953774461,0.220346,0.280642632,-0.176674804,0.286455,0.290821023,-0.154210678,0.269316,0.295960049,-0.146039008,0.261442,0.295918202,-0.149892511,0.254493
0.214939405,-0.211264218,0.282322,0.227058041,-0.160848422,0.271835,0.196575587,-0.185386553,0.272194,0.194564275,-0.149784225,0.251539,0.190580825,-0.122897995,0.233903,0.193867809,-0.106447966,0.224102,0.218374451,-0.113254491,0.254226,0.22997069,-0.094478539,0.238113,0.236732249,-0.0846517053,0.230057,0.245772081,-0.0985718895,0.236989,0.24196409,-0.12917155,0.263995,0.254763419,-0.102341456,0.247535,0.262827426,-0.0927421708,0.237933,0.274733779,-0.107130118,0.245268,0.260440132,-0.145392194,0.272804,0.266138269,-0.114526558,0.254439,0.269655564,-0.0981887087,0.245043,0.271744376,-0.0999932988,0.236502,0.279846878,-0.172961441,0.284629,0.308337441,-0.161126149,0.279206,0.321396344,-0.15681376,0.276713,0.330174596,-0.158721874,0.274515
0.216508993,-0.211885606,0.284358,0.227880035,-0.157234779,0.267371,0.196373697,-0.183072083,0.271189,0.191679979,-0.145895351,0.246538,0.185579799,-0.117561845,0.227198,0.187618547,-0.10060972,0.21665,0.210764952,-0.108166797,0.242892,0.217175996,-0.0879252175,0.222032,0.220777434,-0.0776283678,0.211603,0.229361032,-0.0858743541,0.215392,0.235459547,-0.124835883,0.254671,0.24243232,-0.0963725892,0.232957,0.246450823,-0.0858087226,0.22029,0.254926905,-0.0978874526,0.224447,0.255511375,-0.142004507,0.26561,0.255451954,-0.109070767,0.241819,0.255501052,-0.0921521234,0.229648,0.255196708,-0.0880142939,0.218582,0.276763429,-0.171065127,0.280829,0.302796021,-0.158014635,0.272417,0.313917343,-0.153040112,0.268552,0.321122694,-0.154122481,0.265141
0.20833671,-0.200930083,0.278647,0.221522037,-0.153077746,0.260559,0.191029215,-0.171285241,0.264861,0.189956058,-0.139825663,0.250208,0.189141489,-0.115995381,0.232015,0.19162116,-0.100887864,0.221314,0.211042498,-0.105903712,0.234789,0.223478748,-0.0796311502,0.217806,0.22954502,-0.0665974267,0.209315,0.236803343,-0.0666121679,0.206768,0.234078986,-0.125658336,0.247036,0.214835961,-0.135630475,0.224491,0.184293343,-0.140711377,0.21134,0.1744624,-0.152343001,0.214806,0.252073857,-0.144981254,0.258441,0.261334468,-0.111045136,0.239097,0.265402494,-0.0942322157,0.2292,0.268048454,-0.0903346693,0.220203,0.273125254,-0.171670241,0.27436,0.296457899,-0.157088946,0.269042,0.308141652,-0.151763171,0.266598,0.318792695,-0.151336762,0.264442
0.212750029,-0.203637849,0.285408,0.224684798,-0.155096868,0.263734,0.195949528,-0.176709827,0.271644,0.194531838,-0.143342845,0.25584,0.191296573,-0.117323117,0.236073,0.193619457,-0.0998201601,0.225241,0.21283752,-0.107535031,0.2363,0.222204186,-0.0800547412,0.216376,0.226386811,-0.0666521637,0.206414,0.237751148,-0.0678684974,0.20745,0.23531839,-0.126268142,0.24753,0.213788209,-0.13490846,0.222075,0.1824179,-0.138892392,0.207225,0.172304153,-0.149469592,0.209683,0.253106542,-0.144799527,0.258361,0.271102337,-0.114713582,0.247543,0.280442657,-0.099209994,0.242009,0.29088743,-0.0874015715,0.236977,0.273777148,-0.17231214,0.274085,0.300316778,-0.158281422,0.270978,0.313300384,-0.153523948,0.269551,0.323155703,-0.148739208,0.269188
0.212188127,-0.201259778,0.284685,0.230513732,-0.15699258,0.266398,0.196961466,-0.173584716,0.271562,0.200157448,-0.141119599,0.254756,0.192674373,-0.114188658,0.235028,0.193351844,-0.0982829966,0.223931,0.226065174,-0.1112787,0.241364,0.233082136,-0.0808505692,0.221505,0.236008807,-0.0661202353,0.211576,0.249923806,-0.0667014522,0.21365,0.247618871,-0.130124521,0.252727,0.229981443,-0.141377296,0.229937,0.199347291,-0.146495532,0.216643,0.186738858,-0.158249791,0.220488,0.264266738,-0.148448526,0.263419,0.278176523,-0.116392268,0.252584,0.286611791,-0.100204842,0.24704,0.296828287,-0.0886774041,0.242001,0.280220631,-0.174927891,0.278521,0.305450676,-0.159820614,0.274668,0.317162019,-0.154164365,0.272897,0.326647115,-0.149223864,0.271572
0.211952263,-0.197345782,0.284579,0.232246711,-0.156965811,0.267188,0.197706436,-0.172400383,0.271542,0.199365785,-0.138369821,0.253956,0.194503721,-0.110586039,0.235261,0.196735945,-0.0931999777,0.225114,0.228769155,-0.110898207,0.242685,0.233863749,-0.0795782945,0.221794,0.235866944,-0.0643956177,0.211348,0.249158162,-0.0650065097,0.213058,0.249637699,-0.130390445,0.254187,0.234105804,-0.141336445,0.232124,0.203463673,-0.146726804,0.219255,0.194418877,-0.159021885,0.223391,0.265611769,-0.149181982,0.264928,0.28267489,-0.117605112,0.255916,0.291433386,-0.101420198,0.251305,0.302918937,-0.0908241166,0.247114,0.281419701,-0.176210949,0.279968,0.306936955,-0.160720911,0.277102,0.319210797,-0.154371687,0.275785,0.329303723,-0.14952402,0.274623
0.210813762,-0.195196116,0.283227,0.232745081,-0.156122341,0.267358,0.197407861,-0.170457357,0.270624,0.197839193,-0.132958246,0.252777,0.193614418,-0.104930006,0.234905,0.196219122,-0.0876640267,0.224991,0.230793613,-0.108846846,0.244115,0.235064473,-0.076975868,0.223457,0.23673169,-0.0614860955,0.213128,0.249866728,-0.0616653277,0.214873,0.250534065,-0.129865952,0.255495,0.238096,-0.138772011,0.234649,0.207874856,-0.144744658,0.22249,0.199226918,-0.157513818,0.227275,0.26499231,-0.148872383,0.266023,0.283479567,-0.117408876,0.257464,0.292693298,-0.101512608,0.253085,0.304703866,-0.0914553819,0.249104,0.279267107,-0.175152148,0.280607,0.307244569,-0.160240091,0.280076,0.319759713,-0.153334682,0.279832,0.334049115,-0.150030891,0.279617
0.208203641,-0.191891611,0.28021,0.23308953,-0.155433354,0.267947,0.19657917,-0.165325765,0.269509,0.19792787,-0.129639217,0.25514,0.193741899,-0.0992760528,0.239269,0.198255083,-0.0844061192,0.229671,0.232883483,-0.108022606,0.248783,0.239738797,-0.0764434004,0.230893,0.242822062,-0.0610026215,0.221949,0.254115129,-0.0594670777,0.222189,0.251556462,-0.128121685,0.258779,0.242111479,-0.137005057,0.240833,0.210380806,-0.140473624,0.230365,0.201842101,-0.152408904,0.237032,0.266956664,-0.148993384,0.267904,0.283560579,-0.116295412,0.26073,0.295022605,-0.10203707,0.25706,0.308337599,-0.0923849507,0.253723,0.278914471,-0.174144248,0.280343,0.307445668,-0.160398547,0.281316,0.320690804,-0.153905095,0.281763,0.3323801,-0.148174982,0.282158
0.247896783,-0.213100304,0.298213,0.251346278,-0.167118973,0.282519,0.228459299,-0.194400294,0.288844,0.199018376,-0.178783457,0.272053,0.171991392,-0.166395882,0.247675,0.155482885,-0.151678024,0.231919,0.228521299,-0.123087417,0.263401,0.214743002,-0.0859632729,0.24222,0.207868211,-0.0673132642,0.231629,0.203886599,-0.0638965112,0.222001,0.253731724,-0.133150554,0.270786,0.258760483,-0.09382793,0.256754,0.26173976,-0.0708087281,0.248569,0.264918584,-0.0550999581,0.242722,0.274503206,-0.1448577,0.278015,0.289795767,-0.111458804,0.269016,0.297681996,-0.0944239035,0.264412,0.304853878,-0.0789336809,0.260226,0.298901629,-0.165053183,0.288673,0.325410824,-0.149258878,0.286471,0.337513937,-0.142041613,0.28546,0.348151197,-0.135693589,0.284567
0.248000449,-0.211232366,0.299907,0.251213188,-0.166406702,0.283776,0.228692678,-0.193500271,0.290374,0.200900097,-0.180036695,0.273399,0.172144783,-0.165245953,0.249082,0.155623402,-0.150118417,0.233669,0.227993744,-0.121649721,0.264247,0.215315202,-0.0855277198,0.244985,0.206331455,-0.0646195954,0.235354,0.203686359,-0.0582869663,0.226599,0.252082451,-0.132989626,0.271716,0.259490484,-0.0936733601,0.259,0.26326673,-0.0708543052,0.251583,0.267011702,-0.055131533,0.246284,0.274120965,-0.14413156,0.279046,0.290034568,-0.110795207,0.271618,0.29504726,-0.0918242718,0.267817,0.305742626,-0.0781478448,0.264362,0.298151234,-0.16343371,0.289884,0.325475201,-0.148455603,0.288377,0.337996221,-0.141590468,0.287685,0.349596619,-0.136068859,0.287074
0.249406891,-0.212006662,0.300301,0.25275399,-0.167164569,0.285553,0.230112859,-0.194592345,0.29123,0.202585684,-0.180746804,0.274683,0.17297043,-0.16294623,0.250554,0.156690458,-0.14712699,0.236452,0.230117148,-0.124590363,0.267254,0.216319493,-0.0862388655,0.249607,0.209861079,-0.0670453503,0.240784,0.202722727,-0.0507620159,0.232763,0.25523323,-0.13369052,0.274527,0.26109081,-0.0938026943,0.263784,0.265408881,-0.0709975339,0.257517,0.269025498,-0.054879047,0.253041,0.275802318,-0.144516187,0.281594,0.289912524,-0.109576855,0.27535,0.297942301,-0.092307943,0.272155,0.305277273,-0.0765587068,0.26925,0.29979915,-0.16346891,0.291935,0.325833902,-0.146664546,0.291005,0.338309908,-0.13974188,0.290578,0.352390156,-0.13628947,0.290202
0.249183621,-0.212113105,0.299443,0.252974795,-0.167389904,0.285971,0.230012129,-0.194825294,0.290747,0.202658186,-0.18094025,0.274893,0.172299474,-0.162543253,0.250924,0.155879888,-0.146314871,0.237712,0.230705447,-0.125017144,0.268742,0.217153844,-0.08681447,0.251243,0.210789681,-0.067676416,0.242493,0.204107756,-0.0509429995,0.234539,0.255792027,-0.133993947,0.275899,0.261693554,-0.0941874088,0.265361,0.265977608,-0.0713336513,0.259213,0.269408547,-0.0550847985,0.254822,0.276301482,-0.144709338,0.282776,0.290551181,-0.109972779,0.276746,0.298731243,-0.0927533637,0.273661,0.306217833,-0.077028258,0.270856,0.300166626,-0.163516934,0.292721,0.326567183,-0.146928619,0.292197,0.339094195,-0.139905084,0.291956,0.3531284,-0.136114725,0.291744
0.249405956,-0.211930217,0.300929,0.254085485,-0.167778499,0.288359,0.23020869,-0.194759167,0.292065,0.202373311,-0.181054808,0.276385,0.169922975,-0.160874185,0.252883,0.15319134,-0.14406262,0.241103,0.230589446,-0.124702656,0.271346,0.21823031,-0.0859915865,0.25545,0.210687831,-0.0641650535,0.247503,0.206995424,-0.0491789413,0.240278,0.255918398,-0.133339215,0.278962,0.260125073,-0.0915602982,0.270215,0.264235173,-0.0686636175,0.265112,0.271635912,-0.054701346,0.261468,0.276637256,-0.14378345,0.286151,0.290867013,-0.109342887,0.279607,0.298701066,-0.0919973715,0.276259,0.305884646,-0.076193286,0.273215,0.296467585,-0.158880366,0.296343,0.329188421,-0.14712948,0.296621,0.342275144,-0.140144768,0.296749,0.355445064,-0.135231664,0.296861
0.249620731,-0.211440043,0.300945,0.255276204,-0.167934021,0.29008,0.231067211,-0.194844481,0.293118,0.203133806,-0.179766306,0.27872,0.172096667,-0.160787835,0.254758,0.156047228,-0.144527871,0.241431,0.231580621,-0.123234098,0.275164,0.218074755,-0.0847725824,0.25773,0.211324382,-0.0654970177,0.249014,0.2074654,-0.0501236136,0.241089,0.256190469,-0.131385568,0.281938,0.262148077,-0.0917105322,0.272325,0.265935158,-0.0686947456,0.266717,0.271893798,-0.0541839196,0.262712,0.276155412,-0.141338333,0.288307,0.290473663,-0.107068746,0.282191,0.298230271,-0.089742324,0.279062,0.308082974,-0.0760018878,0.276217,0.29915216,-0.159069831,0.297297,0.327994047,-0.144376372,0.29775,0.341338869,-0.137577243,0.297959,0.356468037,-0.134587027,0.298142
0.250605115,-0.211372075,0.301938,0.255898499,-0.16716759,0.291657,0.232381653,-0.195131771,0.294734,0.204712715,-0.178084426,0.28106,0.175656705,-0.158734538,0.257055,0.157323121,-0.144548072,0.242581,0.232840019,-0.122264582,0.277802,0.220217116,-0.0852325668,0.261023,0.213623746,-0.0659856636,0.252633,0.207633911,-0.0483848671,0.245007,0.257783751,-0.131289497,0.283963,0.264136212,-0.091672348,0.275358,0.267436848,-0.0677881533,0.270338,0.270963657,-0.0519067847,0.266753,0.277549183,-0.141018596,0.289783,0.292338923,-0.106808641,0.284316,0.300215421,-0.0894087762,0.281519,0.307663812,-0.0735765631,0.278976,0.30031421,-0.158491361,0.298046,0.328554734,-0.143278755,0.29825,0.341797545,-0.134894984,0.298343,0.356185162,-0.1343348,0.298426
0.253019261,-0.21215778,0.304811,0.256731306,-0.166729767,0.293386,0.234348032,-0.195929841,0.297238,0.207904941,-0.177929002,0.282498,0.178201348,-0.160200051,0.258589,0.160627607,-0.144740802,0.244993,0.234189534,-0.125079247,0.27853,0.219124133,-0.0861248766,0.262472,0.207787808,-0.0680527805,0.254443,0.204052051,-0.0493471646,0.247144,0.258104128,-0.131663827,0.284835,0.264112225,-0.0918917702,0.276322,0.265133331,-0.067351187,0.271356,0.2705142,-0.0518960161,0.267808,0.27816433,-0.141085935,0.290858,0.292089666,-0.106404111,0.28477,0.298794201,-0.0877669014,0.281655,0.305477263,-0.0715599314,0.278823,0.302046525,-0.157424809,0.299514,0.328398073,-0.139465818,0.29908,0.340797361,-0.131756374,0.298881,0.353988473,-0.132266076,0.298705
0.25466827,-0.212574062,0.30677,0.257319978,-0.166754763,0.294347,0.23574848,-0.196441098,0.299022,0.209500633,-0.178928029,0.283723,0.179685594,-0.161125804,0.25967,0.162238812,-0.145423734,0.246248,0.234044998,-0.125271687,0.278809,0.218467655,-0.0864725489,0.262672,0.207919287,-0.0680958413,0.254604,0.202954052,-0.0497737847,0.247269,0.258024093,-0.131749652,0.285058,0.263508095,-0.0918183614,0.276284,0.264573755,-0.067554383,0.271166,0.269304011,-0.0517091203,0.26751,0.278155505,-0.140934549,0.291108,0.291296762,-0.105926646,0.284416,0.297584591,-0.0872347872,0.280992,0.303843573,-0.0708613635,0.277879,0.302054255,-0.157050115,0.299928,0.327807079,-0.138855129,0.298872,0.339902911,-0.130941137,0.298387,0.352721864,-0.131697349,0.297958
0.255884387,-0.212820114,0.308213,0.257758429,-0.166771858,0.295064,0.236755147,-0.196754879,0.300305,0.210536077,-0.179594191,0.284564,0.180667168,-0.161763199,0.260451,0.163360318,-0.1459224,0.247158,0.233931647,-0.125403576,0.278996,0.218085428,-0.0866857433,0.262806,0.208006667,-0.0681244593,0.254711,0.202422855,-0.0499908907,0.247352,0.258012756,-0.131828279,0.285253,0.263228187,-0.0918121321,0.276387,0.264434339,-0.0676919354,0.271215,0.268708931,-0.0516250984,0.26752,0.278234121,-0.140876518,0.291363,0.290847244,-0.105637206,0.284257,0.296887077,-0.0869237606,0.280621,0.302867228,-0.0704431804,0.277316,0.302237094,-0.156918259,0.300353,0.327680732,-0.138621656,0.298922,0.339598379,-0.130588865,0.298265,0.352143955,-0.131417753,0.297685
0.257669269,-0.212926509,0.310381,0.258468312,-0.167023724,0.296044,0.238109116,-0.196954742,0.302122,0.211597022,-0.180354259,0.285625,0.181684368,-0.162512721,0.261494,0.164369729,-0.146464561,0.248123,0.233716683,-0.125432669,0.278981,0.217811289,-0.0868201808,0.262872,0.208093231,-0.0681528098,0.254817,0.20218055,-0.0501399414,0.247495,0.257965538,-0.131864438,0.285349,0.26302117,-0.0918051708,0.276453,0.264369679,-0.0677794277,0.271264,0.268315315,-0.0515710999,0.267558,0.278377988,-0.140879457,0.291637,0.290601431,-0.10545779,0.284217,0.296472033,-0.0867310024,0.280421,0.302248369,-0.0701718669,0.27697,0.302720744,-0.157018023,0.300996,0.327687121,-0.138516324,0.299027,0.339337385,-0.1303475,0.298123,0.351536023,-0.131145227,0.297325
0.259079357,-0.213102038,0.311783,0.258632587,-0.166560953,0.296666,0.239169602,-0.197128321,0.303319,0.212322179,-0.180869011,0.286338,0.182385167,-0.163024706,0.262201,0.165080279,-0.146829388,0.248776,0.233572048,-0.125467253,0.278996,0.21761372,-0.0869154816,0.262917,0.208143046,-0.0681691247,0.254878,0.20200157,-0.0502349856,0.247569,0.257927454,-0.131890175,0.285418,0.262774212,-0.0917679276,0.276406,0.264182659,-0.0678008678,0.271149,0.267827475,-0.0514935579,0.267394,0.278454846,-0.140865935,0.29181,0.290383307,-0.10531097,0.284154,0.29613097,-0.0865802466,0.280236,0.301754161,-0.0699659482,0.276675,0.303010404,-0.157060171,0.3014,0.327643131,-0.138425709,0.299053,0.339102732,-0.130163372,0.297975,0.351042388,-0.130926789,0.297023
0.257630313,-0.211408099,0.310801,0.257633213,-0.165393287,0.296296,0.237990723,-0.195588724,0.302574,0.208477959,-0.17886164,0.28611,0.177555257,-0.162153499,0.26196,0.163425308,-0.146174265,0.247928,0.232923593,-0.124539453,0.279232,0.217292708,-0.0860926209,0.26143,0.213244631,-0.0657928129,0.252529,0.203173879,-0.0494725433,0.245765,0.257963326,-0.131761159,0.285541,0.262727642,-0.0916202196,0.276405,0.265604889,-0.0681546721,0.271076,0.267677181,-0.0513479433,0.26727,0.278365167,-0.140857893,0.291797,0.29062747,-0.10547596,0.284362,0.297089564,-0.0874153326,0.280558,0.303073114,-0.0709675095,0.2771,0.302488562,-0.157726651,0.301144,0.327950323,-0.140292661,0.298968,0.339633104,-0.132297134,0.297968,0.35170463,-0.131344304,0.297085
0.258132583,-0.211124551,0.312143,0.258091445,-0.165655863,0.297014,0.238401984,-0.195216123,0.303798,0.20879233,-0.178978683,0.286995,0.17820882,-0.162262637,0.262783,0.164180066,-0.146102577,0.248665,0.233155294,-0.124347095,0.279538,0.217735992,-0.0860033318,0.261738,0.213331478,-0.0657742608,0.252838,0.203487039,-0.0493260584,0.24564,0.258171473,-0.131749662,0.285838,0.262952571,-0.0915935481,0.27668,0.26583404,-0.068115155,0.271338,0.26790975,-0.0512992073,0.267523,0.278623883,-0.141018677,0.292133,0.291028831,-0.105682685,0.28473,0.297608674,-0.0876734346,0.280943,0.303691731,-0.0712697216,0.2775,0.302890875,-0.158161709,0.301609,0.327875602,-0.140494453,0.298931,0.339310302,-0.13241275,0.2977,0.35071824,-0.130532739,0.296614
0.258456004,-0.211135092,0.312269,0.258266835,-0.165573348,0.297265,0.238794115,-0.195250353,0.304173,0.208940334,-0.17983863,0.287731,0.178984874,-0.162445126,0.26371,0.161804081,-0.145627053,0.249011,0.233636998,-0.124574833,0.280176,0.218201968,-0.0863873732,0.262675,0.210482373,-0.0672029566,0.253925,0.203462499,-0.0497021634,0.24597,0.258226957,-0.131690065,0.286204,0.263067826,-0.0916312872,0.277203,0.265964375,-0.0681548821,0.271952,0.268057394,-0.0513217632,0.268202,0.278583442,-0.140905678,0.292266,0.291272281,-0.10572242,0.285205,0.297989404,-0.0877432572,0.281593,0.30420019,-0.0713447262,0.278309,0.302775626,-0.157998395,0.30145,0.328555921,-0.142788535,0.298853,0.340144644,-0.134964911,0.297659,0.350778163,-0.130333601,0.296606
0.258778164,-0.211387639,0.313025,0.258462011,-0.165731938,0.297776,0.239168258,-0.195546306,0.304976,0.209030102,-0.180300556,0.288727,0.17892298,-0.163143864,0.264764,0.161617372,-0.146415822,0.250071,0.23383453,-0.124771825,0.280633,0.218442032,-0.0865662379,0.263182,0.21074352,-0.0673684128,0.254457,0.203742967,-0.0498525767,0.246525,0.258307521,-0.131841831,0.286534,0.263118857,-0.0917581823,0.277662,0.265991353,-0.0682497591,0.272486,0.268067647,-0.0513898036,0.268789,0.278566666,-0.141023496,0.292511,0.291310147,-0.105861616,0.285468,0.298062976,-0.0878861908,0.281864,0.304286385,-0.0714824828,0.278588,0.302649529,-0.158076745,0.301626,0.327978682,-0.142774408,0.298676,0.339526207,-0.134903081,0.297321,0.350138115,-0.130196179,0.296125
0.25869665,-0.211597125,0.313308,0.258449317,-0.165966705,0.298023,0.23914059,-0.195760977,0.305286,0.208916169,-0.181099723,0.289306,0.178495561,-0.163969266,0.265396,0.16096748,-0.147123529,0.250871,0.233924666,-0.1250563,0.280916,0.218516241,-0.0868500546,0.263346,0.210809634,-0.0676527457,0.254561,0.203802314,-0.0501381811,0.246575,0.25836119,-0.13215306,0.286787,0.263103799,-0.0920259173,0.277761,0.265943207,-0.0685031062,0.272496,0.267994911,-0.0516347001,0.268735,0.278582946,-0.141356573,0.292742,0.291307359,-0.106182355,0.285604,0.298084551,-0.0882105087,0.281952,0.304290581,-0.0718013756,0.278632,0.302609463,-0.158433326,0.301837,0.327942163,-0.143511922,0.298809,0.339651475,-0.13567706,0.297417,0.350307001,-0.130127083,0.296189
0.257908762,-0.211600474,0.312843,0.258310817,-0.165992614,0.298029,0.238685144,-0.195708096,0.305176,0.209034798,-0.181179739,0.289505,0.17850484,-0.163942114,0.265411,0.164130729,-0.147594005,0.250984,0.234508926,-0.125064601,0.281599,0.219025326,-0.0867320061,0.263447,0.213659182,-0.0671322091,0.254371,0.204243196,-0.0499556351,0.24612,0.258697292,-0.132284652,0.287166,0.263422009,-0.0920957484,0.277955,0.266250527,-0.0685517492,0.272583,0.268292092,-0.0516738722,0.268745,0.278655816,-0.141585379,0.292839,0.291752623,-0.10657601,0.285903,0.298789395,-0.0887247263,0.282355,0.305235319,-0.0724194553,0.279129,0.302274054,-0.15876365,0.301539,0.327737645,-0.143688235,0.29845,0.339498876,-0.135961249,0.297031,0.350193774,-0.130207527,0.295778
0.256757614,-0.211306603,0.311938,0.257923409,-0.165858693,0.297748,0.2378115,-0.19531278,0.304532,0.208923049,-0.181066565,0.289375,0.178376466,-0.163798752,0.265221,0.16329834,-0.14744135,0.250723,0.234811726,-0.124922465,0.281944,0.219427189,-0.0865714903,0.263419,0.213533655,-0.0670488601,0.254157,0.204742171,-0.0497876034,0.245736,0.258867644,-0.132331453,0.287361,0.263655863,-0.0921360967,0.27806,0.266522682,-0.0685913107,0.272634,0.268593181,-0.0517138341,0.268759,0.278661137,-0.141779885,0.292865,0.292175283,-0.106961181,0.28618,0.299496234,-0.0892393729,0.28276,0.306207392,-0.0730439874,0.279651,0.30197977,-0.159115492,0.301282,0.327754508,-0.143885581,0.298342,0.339659308,-0.136272216,0.296991,0.350590753,-0.130477264,0.295799
0.255601624,-0.211008647,0.311027,0.257545569,-0.165730896,0.297478,0.236924651,-0.194906546,0.303871,0.208820836,-0.180965765,0.289252,0.178259691,-0.163672417,0.265048,0.162483665,-0.14730632,0.250492,0.235120354,-0.124783448,0.282296,0.219907342,-0.0864418631,0.263485,0.213508806,-0.0670081219,0.254079,0.205388643,-0.0496554228,0.245529,0.259059609,-0.132389302,0.28758,0.26392101,-0.0921873756,0.278198,0.266833905,-0.0686409461,0.272725,0.268936245,-0.0517618524,0.268815,0.278700707,-0.141991855,0.292927,0.292631524,-0.107358401,0.28649,0.300235773,-0.0897636532,0.283196,0.307211282,-0.0736761664,0.280202,0.301732569,-0.159492248,0.301072,0.327807859,-0.144051527,0.298298,0.339850751,-0.136534185,0.297023,0.351080739,-0.130781435,0.295899
0.254623758,-0.21085805,0.310333,0.257082061,-0.165547936,0.297109,0.236037943,-0.194500315,0.30321,0.208533908,-0.180707618,0.288869,0.177968126,-0.163389897,0.264615,0.161423537,-0.146949618,0.249884,0.235000018,-0.124417334,0.282133,0.22034666,-0.0862961385,0.263502,0.213631246,-0.0670209108,0.254187,0.206368306,-0.0496031391,0.245718,0.258959723,-0.132298045,0.287475,0.264051374,-0.092191602,0.278194,0.267109893,-0.0686815299,0.27278,0.269321361,-0.0518179518,0.268913,0.278605173,-0.142134933,0.292847,0.293019163,-0.107730222,0.286733,0.300945551,-0.0902789147,0.283604,0.308222934,-0.0743103164,0.28076,0.301602619,-0.15993134,0.300979,0.327947476,-0.144223796,0.298353,0.340112075,-0.136783325,0.297146,0.351667632,-0.131121547,0.296081
