sluyters/QuantumLeap/backend/src/datasets/dynamic/HandGestureDataset_SHREC2017_csv/Gesture14/finger_1/subject_9_essai_1_skeletons_world.csv
Wrist_x,Wrist_y,Wrist_z,Palm_x,Palm_y,Palm_z,thumb_base_x,thumb_base_y,thumb_base_z,thumb_first_joint_x,thumb_first_joint_y,thumb_first_joint_z,thumb_second_joint_x,thumb_second_joint_y,thumb_second_joint_z,thumb_tip_x,thumb_tip_y,thumb_tip_z,index_base_x,index_base_y,index_base_z,index_first_joint_x,index_first_joint_y,index_first_joint_z,index_second_joint_x,index_second_joint_y,index_second_joint_z,index_tip_x,index_tip_y,index_tip_z,middle_base_x,middle_base_y,middle_base_z,middle_first_joint_x,middle_first_joint_y,middle_first_joint_z,middle_second_joint_x,middle_second_joint_y,middle_second_joint_z,middle_tip_x,middle_tip_y,middle_tip_z,ring_base_x,ring_base_y,ring_base_z,ring_first_joint_x,ring_first_joint_y,ring_first_joint_z,ring_second_joint_x,ring_second_joint_y,ring_second_joint_z,ring_tip_x,ring_tip_y,ring_tip_z,pinky_base_x,pinky_base_y,pinky_base_z,pinky_first_joint_x,pinky_first_joint_y,pinky_first_joint_z,pinky_second_joint_x,pinky_second_joint_y,pinky_second_joint_z,pinky_tip_x,pinky_tip_y,pinky_tip_z,
0.76301539,-0.43292882,0.675219,0.75750791,-0.39748129,0.676583,0.74714578,-0.42515808,0.675948,0.70693044,-0.40080696,0.667568,0.66383869,-0.37579402,0.654762,0.64619471,-0.35843617,0.653496,0.72452647,-0.3581245,0.678458,0.72779118,-0.331478,0.690972,0.74614735,-0.3211863,0.697229,0.77641376,-0.33792466,0.716673,0.74596164,-0.35872442,0.677881,0.75490085,-0.32887354,0.698803,0.76275027,-0.3095014,0.711008,0.76925979,-0.29492724,0.719726,0.76428537,-0.36234792,0.677259,0.78382789,-0.34094799,0.670878,0.79407051,-0.35218563,0.667613,0.81161068,-0.38111005,0.68325,0.78763494,-0.37236307,0.676281,0.80040959,-0.35731911,0.672606,0.82658255,-0.3832014,0.689588,0.83115207,-0.39790703,0.697466
0.76910395,-0.43292902,0.674563,0.77306334,-0.39540707,0.681877,0.74937263,-0.42406934,0.672941,0.7202624,-0.3959218,0.664302,0.67442828,-0.37166254,0.648584,0.65826783,-0.35771953,0.650228,0.74173421,-0.35310744,0.68473,0.75173591,-0.30962862,0.685988,0.76664888,-0.31398541,0.686617,0.79533421,-0.33657622,0.704063,0.76768157,-0.35441853,0.688843,0.76788187,-0.31689967,0.699173,0.77294657,-0.29345425,0.705199,0.7765447,-0.27636614,0.709504,0.78902748,-0.35862324,0.691441,0.82242068,-0.3530288,0.693127,0.83806718,-0.36394301,0.69399,0.85986886,-0.39510045,0.711575,0.81438201,-0.3692714,0.693083,0.84057119,-0.37018069,0.69714,0.86780588,-0.3955795,0.713797,0.87410069,-0.41341297,0.721833
0.76931102,-0.43195677,0.673302,0.77151893,-0.39465803,0.680518,0.74803317,-0.42192077,0.670394,0.7156243,-0.39350922,0.659838,0.6772805,-0.3731483,0.650936,0.65878815,-0.35784604,0.650285,0.73826987,-0.35172261,0.681629,0.76740851,-0.32653666,0.68338,0.77751212,-0.3451748,0.684255,0.79316447,-0.37583821,0.701618,0.76578917,-0.35363123,0.68739,0.76008651,-0.30945788,0.686967,0.7599281,-0.28354751,0.686721,0.77199985,-0.26899875,0.697554,0.78852907,-0.35833983,0.691356,0.82162453,-0.34034479,0.693761,0.83220526,-0.35786583,0.694992,0.84807823,-0.39177887,0.712566,0.81563333,-0.36961463,0.694603,0.82450067,-0.36539504,0.691001,0.8468969,-0.3794629,0.707403,0.85135247,-0.39526155,0.715031
0.77214444,-0.43266984,0.674598,0.7732109,-0.39523869,0.681523,0.75014221,-0.4220059,0.671126,0.71625892,-0.39333765,0.659715,0.67954655,-0.37144419,0.64978,0.66050051,-0.35596058,0.649055,0.73907625,-0.3517217,0.681703,0.76923959,-0.32648572,0.683394,0.77941945,-0.34510729,0.68424,0.79480596,-0.37568347,0.701491,0.76710951,-0.35398541,0.688118,0.76201275,-0.30958391,0.687337,0.76184565,-0.28354633,0.686882,0.77338998,-0.26872467,0.697065,0.79033063,-0.3590093,0.692654,0.82452081,-0.34153641,0.6951,0.83563926,-0.35870866,0.696352,0.85456934,-0.39140766,0.713844,0.81808457,-0.37069925,0.696617,0.83166552,-0.36672954,0.692608,0.84989757,-0.39327424,0.708888,0.85644019,-0.41043475,0.719579
0.77231022,-0.43172,0.67429,0.77533205,-0.39507743,0.683314,0.75313117,-0.42224946,0.673435,0.72515154,-0.3914047,0.669852,0.68018848,-0.36104043,0.650344,0.6626765,-0.34902921,0.64825,0.74935034,-0.34891279,0.688329,0.75581538,-0.30866601,0.694269,0.76696838,-0.28866089,0.69724,0.78117499,-0.27284575,0.69994,0.77422366,-0.35096524,0.691909,0.77461193,-0.30733679,0.693528,0.77808473,-0.28172336,0.694473,0.78386372,-0.26416072,0.698055,0.79281627,-0.35841143,0.693884,0.82942474,-0.3433537,0.697043,0.83957122,-0.36010918,0.69866,0.85754465,-0.39241638,0.716607,0.81600312,-0.36888652,0.69448,0.83397019,-0.3666868,0.693017,0.85187547,-0.39153442,0.709712,0.85883342,-0.41083784,0.721774
0.77482689,-0.43234572,0.676148,0.77234381,-0.39283491,0.680675,0.75910619,-0.42460216,0.678524,0.72898451,-0.39378854,0.673487,0.68304284,-0.36302823,0.65323,0.66505265,-0.3498305,0.651679,0.74747271,-0.34825554,0.686843,0.7487854,-0.30598275,0.688169,0.75726954,-0.28519089,0.688832,0.76895598,-0.26875788,0.689435,0.76569689,-0.34906016,0.684986,0.75928128,-0.30238983,0.682096,0.75838069,-0.27610604,0.680411,0.7634205,-0.26360322,0.688135,0.78058102,-0.35205007,0.682968,0.80739238,-0.33425857,0.679174,0.81457323,-0.35072143,0.677234,0.82633239,-0.3782354,0.69352,0.79889772,-0.36059127,0.679775,0.81371761,-0.35449574,0.67607,0.83347969,-0.37781446,0.693041,0.83431542,-0.39797031,0.700926
0.78142191,-0.4352869,0.681662,0.77452898,-0.39327571,0.682628,0.76417806,-0.42536358,0.681984,0.72841801,-0.39357463,0.672923,0.68575812,-0.3650369,0.655908,0.66563655,-0.35034563,0.6529,0.74391053,-0.34632793,0.683703,0.74894843,-0.29960052,0.677001,0.75931946,-0.30425614,0.67365,0.75743711,-0.32160455,0.670604,0.76447564,-0.34627172,0.683548,0.75157415,-0.29958324,0.676322,0.74819531,-0.27255294,0.672108,0.76116534,-0.25832767,0.682412,0.78178327,-0.34967815,0.683316,0.80476047,-0.3334043,0.676726,0.80973591,-0.34910862,0.673355,0.82037403,-0.37622358,0.688937,0.80265924,-0.36121623,0.682865,0.81300548,-0.35592257,0.675574,0.83294658,-0.37752625,0.692434,0.83530858,-0.39796861,0.701537
0.7808154,-0.43390272,0.681233,0.77421601,-0.3879327,0.684495,0.76528617,-0.42311656,0.6825,0.72402113,-0.39092816,0.676671,0.67740614,-0.36430361,0.65886,0.65943809,-0.35264896,0.661103,0.74361831,-0.342029,0.688361,0.74420517,-0.2962512,0.684036,0.74774583,-0.27364637,0.681873,0.75111487,-0.25305452,0.679906,0.76291043,-0.34228505,0.687603,0.75730391,-0.30729136,0.697564,0.76626692,-0.28418968,0.703375,0.77843704,-0.26756988,0.707525,0.77893944,-0.34575287,0.686626,0.81044632,-0.33619836,0.68204,0.81607895,-0.3520465,0.679694,0.82788208,-0.38036396,0.695828,0.79857031,-0.35571591,0.684879,0.8179834,-0.34928602,0.68152,0.84266022,-0.37537873,0.698508,0.84528374,-0.39003058,0.706278
0.78143799,-0.43293321,0.680866,0.77140049,-0.38490778,0.684645,0.76499727,-0.42212911,0.682812,0.722927,-0.39344558,0.678737,0.67570656,-0.36605746,0.659636,0.65499741,-0.35513654,0.659205,0.74454313,-0.34250642,0.689747,0.74539113,-0.29695556,0.685915,0.74865509,-0.27437716,0.684,0.75169419,-0.25383569,0.682258,0.76310118,-0.34248658,0.688245,0.75700965,-0.30722632,0.697655,0.76723739,-0.28443255,0.703144,0.77928938,-0.26931629,0.707065,0.77841889,-0.3456971,0.686601,0.80953945,-0.33641805,0.682213,0.81522867,-0.3527783,0.679968,0.82757519,-0.38079301,0.696121,0.79704442,-0.35529513,0.683982,0.81771835,-0.34940036,0.681751,0.84233369,-0.37548199,0.698699,0.8444849,-0.38990521,0.706056
0.78927183,-0.4362914,0.687204,0.77727945,-0.39500574,0.685787,0.76822929,-0.42558421,0.686439,0.72085683,-0.39970244,0.675506,0.67889333,-0.37399498,0.661988,0.65698536,-0.35650276,0.658147,0.73753491,-0.35177904,0.683828,0.73685998,-0.31092207,0.689807,0.74630044,-0.29074396,0.692797,0.75502236,-0.27191818,0.695515,0.75529179,-0.34978324,0.684438,0.74695234,-0.3145343,0.693418,0.75911203,-0.29334688,0.698657,0.7713302,-0.27398899,0.702398,0.77338734,-0.35271358,0.685093,0.79762586,-0.33106414,0.676514,0.80486785,-0.34546319,0.672125,0.81669168,-0.37537267,0.687094,0.79696845,-0.36249144,0.686119,0.81585511,-0.3496014,0.681087,0.84102333,-0.37560015,0.698044,0.84467236,-0.39058366,0.70639
0.79058793,-0.43588124,0.688231,0.77748759,-0.39531145,0.686609,0.76995217,-0.42545328,0.687678,0.72153133,-0.4000274,0.676576,0.68003121,-0.37465399,0.663457,0.66035088,-0.35772356,0.6635,0.73513953,-0.35058012,0.684788,0.72797874,-0.30568962,0.681156,0.73542851,-0.28481135,0.67934,0.74305471,-0.26740275,0.677689,0.75574266,-0.3497265,0.685065,0.74777383,-0.31688009,0.696044,0.75989956,-0.29571624,0.702449,0.76872534,-0.27983833,0.707023,0.7737206,-0.35254806,0.685468,0.79372789,-0.33010592,0.676544,0.80360733,-0.34501399,0.671978,0.81620536,-0.37486046,0.686843,0.79718974,-0.36222047,0.68624,0.81678285,-0.35334112,0.681207,0.84024331,-0.37779794,0.698167,0.84432329,-0.39141545,0.706515
0.78958797,-0.43560425,0.68826,0.77147121,-0.39484302,0.686629,0.76875401,-0.42499162,0.687477,0.71891964,-0.4010418,0.676905,0.67257787,-0.37708592,0.661523,0.6587979,-0.36000713,0.663345,0.7342212,-0.35025631,0.684502,0.73453672,-0.30875978,0.688314,0.74215958,-0.28899793,0.690221,0.75014277,-0.2701235,0.691954,0.75532161,-0.34983478,0.685076,0.74838296,-0.31758907,0.696891,0.76095255,-0.29653601,0.703783,0.77009608,-0.28072559,0.708706,0.7736575,-0.35302441,0.685724,0.79472412,-0.33896884,0.676923,0.80177889,-0.35285393,0.672419,0.81501276,-0.37741801,0.687317,0.79744281,-0.36316811,0.686784,0.81517918,-0.35548678,0.681559,0.83955843,-0.38025228,0.69851,0.84455906,-0.39244982,0.706921
0.78769318,-0.43484788,0.687547,0.7707899,-0.39498989,0.68663,0.76729971,-0.42436867,0.687106,0.7187136,-0.40176793,0.677495,0.67249552,-0.37703975,0.661442,0.65631788,-0.36246207,0.662664,0.73491412,-0.350644,0.685433,0.72759733,-0.30521324,0.681173,0.73625572,-0.28490336,0.679043,0.74418616,-0.26793218,0.677106,0.75585572,-0.35023388,0.685757,0.74695951,-0.31720962,0.695705,0.75927468,-0.29629436,0.701508,0.77304358,-0.28209745,0.705654,0.77393045,-0.35340169,0.686122,0.79587584,-0.33946007,0.677904,0.80119093,-0.3563619,0.673699,0.81540283,-0.37946723,0.688786,0.79717796,-0.36346398,0.686719,0.81533772,-0.35498639,0.681933,0.83995297,-0.38078157,0.698902,0.84468447,-0.39312474,0.707165
0.78634802,-0.43453954,0.687249,0.77498647,-0.39495621,0.68739,0.76513156,-0.42337755,0.686004,0.71872961,-0.40068362,0.676219,0.67779397,-0.37354923,0.661329,0.65869777,-0.35953014,0.663005,0.7397549,-0.35031618,0.685864,0.7435064,-0.30584408,0.685282,0.75259508,-0.28861569,0.684991,0.76380661,-0.26884798,0.684727,0.76248212,-0.35335922,0.687525,0.75914342,-0.3224733,0.701164,0.77637095,-0.30281685,0.70912,0.79006049,-0.28865086,0.714803,0.78129589,-0.35861572,0.688877,0.80743699,-0.34760603,0.682288,0.81140796,-0.36611326,0.678917,0.81970795,-0.38791451,0.694466,0.80482523,-0.37106047,0.69042,0.82528571,-0.36047652,0.686307,0.84920239,-0.38859615,0.703261,0.84963235,-0.39882075,0.711282
0.78674269,-0.4359905,0.688535,0.77783001,-0.39953738,0.692479,0.76246888,-0.4228333,0.684478,0.71699468,-0.39695882,0.671803,0.67673809,-0.36930884,0.659532,0.66080732,-0.35630826,0.661009,0.74827985,-0.35134851,0.689872,0.74985563,-0.30847442,0.690301,0.75880532,-0.28824487,0.690515,0.76883283,-0.27082414,0.69071,0.77367744,-0.35887873,0.696235,0.80785851,-0.34781526,0.693679,0.81471798,-0.37255531,0.692188,0.82363325,-0.39688086,0.708424,0.79649315,-0.36673296,0.70105,0.83035109,-0.35648557,0.700486,0.83695538,-0.37766593,0.700198,0.84647422,-0.40157071,0.716957,0.82383047,-0.38205991,0.705897,0.84595495,-0.37354094,0.703868,0.87130528,-0.40005252,0.72032,0.87368608,-0.41413728,0.727878
0.7796103,-0.43328827,0.682966,0.77496294,-0.39875299,0.689666,0.7571132,-0.42090356,0.680356,0.71606167,-0.39609157,0.670101,0.6808528,-0.36629379,0.654619,0.66325906,-0.35118944,0.65504,0.74730954,-0.35504796,0.690816,0.75910726,-0.31490363,0.690123,0.7665132,-0.29349993,0.69108,0.77632515,-0.2769501,0.692784,0.77385989,-0.36007517,0.696046,0.8096797,-0.34950364,0.696381,0.81935752,-0.37480389,0.696576,0.82999464,-0.4001428,0.713634,0.79650276,-0.36891315,0.699632,0.83117305,-0.35689818,0.70125,0.83932072,-0.37869224,0.702079,0.85061133,-0.40465225,0.719537,0.82174027,-0.38370424,0.702534,0.84592221,-0.37414804,0.703488,0.87198507,-0.40063558,0.720086,0.87548057,-0.41514783,0.728371
0.78742782,-0.43880906,0.689616,0.79559658,-0.41336247,0.6965,0.7616414,-0.42480334,0.683878,0.73014981,-0.39656141,0.669834,0.69493383,-0.3671466,0.656073,0.67833125,-0.3504165,0.656016,0.76794728,-0.36209972,0.693701,0.81102715,-0.34369713,0.696532,0.83441641,-0.33384637,0.6982,0.84902852,-0.34417659,0.699717,0.79521687,-0.37500457,0.703056,0.83841846,-0.36357922,0.704705,0.85074182,-0.38344079,0.705666,0.85977776,-0.41032334,0.722172,0.81739304,-0.38848384,0.710018,0.86184801,-0.37743628,0.714001,0.87742527,-0.38844572,0.716039,0.89259093,-0.41687979,0.733305,0.84314998,-0.40970316,0.716805,0.86743664,-0.39679251,0.712841,0.89464912,-0.41611219,0.728424,0.89821212,-0.43602245,0.735861
0.76969909,-0.42357465,0.673724,0.78077621,-0.38676842,0.687259,0.75237812,-0.40129183,0.67404,0.75826892,-0.3532363,0.669894,0.74888541,-0.31764896,0.664327,0.75980493,-0.30022164,0.66601,0.76356755,-0.34924574,0.69686,0.78960178,-0.31247746,0.700837,0.80507948,-0.29459361,0.702826,0.81958379,-0.27772017,0.704634,0.78771231,-0.3609057,0.700149,0.79518835,-0.32716041,0.706962,0.81913226,-0.31897206,0.710936,0.84781184,-0.33754739,0.729271,0.80649197,-0.37225907,0.701399,0.85000813,-0.35925112,0.708523,0.86482501,-0.37710246,0.712169,0.89277348,-0.40592162,0.730814,0.82697962,-0.38906941,0.700305,0.85439752,-0.37399148,0.70294,0.87952756,-0.39954821,0.719428,0.88894256,-0.41849772,0.724893
0.76605404,-0.41987468,0.670075,0.77830412,-0.38554384,0.685083,0.75104352,-0.39243215,0.671381,0.75740979,-0.35283608,0.669135,0.74829133,-0.31739697,0.6638,0.76003537,-0.30031269,0.666212,0.76369246,-0.34930287,0.696974,0.79199592,-0.31342492,0.702962,0.80866486,-0.29590556,0.705956,0.82428634,-0.27931366,0.708677,0.78684263,-0.36050724,0.699376,0.79641775,-0.32766622,0.708055,0.82164518,-0.3199506,0.713117,0.85076471,-0.33872304,0.731811,0.80458094,-0.37137698,0.699737,0.84998414,-0.35924098,0.708503,0.86581956,-0.37753613,0.712988,0.89420277,-0.40657149,0.731984,0.82347121,-0.3874188,0.697334,0.85271046,-0.37325301,0.701552,0.87778788,-0.39875792,0.718005,0.88649853,-0.41734711,0.7229
0.76607559,-0.41892166,0.670234,0.77887398,-0.38610062,0.685193,0.75135195,-0.39286034,0.671252,0.7633278,-0.35606141,0.668619,0.75584696,-0.31994549,0.660865,0.77416537,-0.30705938,0.667514,0.76380048,-0.34963687,0.696676,0.79182514,-0.31367909,0.702412,0.80834835,-0.29613152,0.70528,0.82383373,-0.27952096,0.707887,0.78734786,-0.36102213,0.69944,0.79859363,-0.32733283,0.708014,0.82380628,-0.32082061,0.713016,0.85223833,-0.34042573,0.731661,0.80543569,-0.37205317,0.700104,0.85102739,-0.35999939,0.708989,0.86695764,-0.37835288,0.713535,0.89538217,-0.40743263,0.732545,0.82476427,-0.38830538,0.698062,0.85387399,-0.37407007,0.702134,0.87893289,-0.39958832,0.718556,0.88770051,-0.41821916,0.723491
0.76493608,-0.41621999,0.66881,0.78414022,-0.38857465,0.689588,0.75026875,-0.39320838,0.669956,0.77023311,-0.36156926,0.670229,0.77263846,-0.32715654,0.666808,0.78647304,-0.31326921,0.680261,0.7729106,-0.35354777,0.705189,0.81086174,-0.32071503,0.718593,0.83210264,-0.30411194,0.725295,0.85202259,-0.28821912,0.731424,0.7981786,-0.36455167,0.709377,0.83709815,-0.32901451,0.724999,0.86053429,-0.30796496,0.734111,0.89274508,-0.2971856,0.753344,0.81735506,-0.37547306,0.710587,0.8719357,-0.36795369,0.726339,0.89254276,-0.38917521,0.734399,0.92332879,-0.41899428,0.754165,0.83792284,-0.38694295,0.708085,0.872956,-0.38125394,0.717632,0.89722909,-0.40668267,0.733088,0.90333438,-0.42434063,0.735721
0.79484871,-0.43910859,0.684315,0.80299787,-0.39978904,0.696225,0.77493607,-0.42388342,0.682083,0.74868202,-0.39134326,0.674286,0.70623769,-0.36264229,0.657744,0.69398704,-0.35188282,0.664252,0.77648282,-0.35710591,0.701405,0.80644159,-0.32102344,0.708068,0.82266129,-0.3021329,0.711939,0.83783252,-0.2842746,0.718816,0.79824333,-0.36441097,0.707569,0.82235386,-0.32287278,0.712715,0.83279041,-0.29795512,0.715717,0.84166766,-0.28027548,0.718588,0.82519834,-0.36874784,0.71136,0.8640351,-0.36369941,0.718759,0.8786459,-0.38305151,0.722545,0.90790395,-0.41189562,0.741084,0.84979141,-0.3818579,0.713522,0.86948479,-0.37982434,0.713974,0.89437907,-0.40453249,0.730122,0.90409695,-0.42416962,0.736224
0.8087364,-0.4321527,0.683262,0.81878325,-0.39880927,0.692835,0.79119643,-0.423081,0.686698,0.76332035,-0.40083617,0.68612,0.72452351,-0.38002844,0.674701,0.70757545,-0.35891022,0.673139,0.79421422,-0.36296272,0.70381,0.80695606,-0.32101123,0.706129,0.81294,-0.29780456,0.707289,0.82491294,-0.28040917,0.708342,0.81783,-0.3625218,0.701952,0.83934685,-0.34147815,0.704296,0.8505854,-0.36585667,0.705664,0.87725704,-0.39461204,0.72338,0.8368952,-0.36483455,0.69939,0.85999713,-0.35367229,0.700677,0.86737695,-0.37495102,0.701335,0.88105244,-0.39991285,0.718804,0.8591188,-0.37257852,0.694617,0.8638488,-0.36173853,0.695298,0.87850469,-0.38624538,0.712228,0.88143432,-0.40229198,0.718553
0.79908687,-0.43406991,0.681315,0.7995557,-0.39698513,0.691354,0.78126204,-0.42293993,0.683545,0.75071487,-0.4012518,0.681152,0.71410777,-0.37565601,0.665956,0.69627827,-0.35477158,0.659135,0.77746705,-0.35757174,0.701075,0.79536457,-0.31544636,0.703965,0.80179306,-0.29708035,0.70541,0.81006575,-0.27849596,0.70685,0.80436853,-0.35888454,0.700915,0.82615335,-0.34105463,0.704062,0.83680986,-0.3663004,0.705897,0.86302817,-0.3952271,0.72383,0.82484414,-0.36229161,0.699702,0.84911505,-0.35458083,0.702185,0.85842484,-0.3761809,0.703455,0.88167841,-0.402544,0.721287,0.84821842,-0.3716344,0.696407,0.84979935,-0.36355862,0.696939,0.85977956,-0.38382114,0.71386,0.85845479,-0.40003389,0.720234
0.79544147,-0.43048286,0.680711,0.79962951,-0.39643882,0.690892,0.78150321,-0.42286859,0.684692,0.74969849,-0.39777705,0.683973,0.71611037,-0.37703334,0.676855,0.69874585,-0.3608522,0.677375,0.78033518,-0.35833895,0.70299,0.7957305,-0.31538419,0.705387,0.80723069,-0.2953985,0.706586,0.81468964,-0.27897439,0.707675,0.80449879,-0.35860241,0.700588,0.82643587,-0.34084247,0.70357,0.83646125,-0.36600996,0.705309,0.86206696,-0.39490532,0.723104,0.82277611,-0.36143792,0.697513,0.84536313,-0.34674674,0.699196,0.85545618,-0.36608428,0.700057,0.87713664,-0.39858433,0.717552,0.84333263,-0.37000166,0.69203,0.84605367,-0.36159009,0.693436,0.85603636,-0.38189988,0.710324,0.85457394,-0.39800158,0.716378
0.79787137,-0.4316539,0.682785,0.80093549,-0.39676099,0.691727,0.78180993,-0.42289547,0.685602,0.7484513,-0.39711042,0.682815,0.71809313,-0.37766399,0.678984,0.70103073,-0.3619885,0.680101,0.77909037,-0.35743567,0.701466,0.78754073,-0.31898941,0.703369,0.7917378,-0.29933447,0.704321,0.79732817,-0.28260578,0.705186,0.80439889,-0.35836059,0.700242,0.82480332,-0.34005441,0.70194,0.83368546,-0.36478337,0.70293,0.8588911,-0.39354494,0.720557,0.82398984,-0.36190071,0.69827,0.84537677,-0.3466933,0.699179,0.85492979,-0.3658819,0.699644,0.87612993,-0.39784504,0.717085,0.84641537,-0.37143549,0.6943,0.84722277,-0.36192547,0.694212,0.85721347,-0.38235656,0.711173,0.85648134,-0.39882025,0.717781
0.79114383,-0.42755357,0.682325,0.78861928,-0.39915271,0.689334,0.77604264,-0.42234647,0.686342,0.73823792,-0.40957919,0.686546,0.70141122,-0.3899406,0.677331,0.68106465,-0.37377126,0.675807,0.77212911,-0.35738051,0.699326,0.77486047,-0.31735741,0.69938,0.77833634,-0.29621431,0.700297,0.78342787,-0.27709165,0.702806,0.79299424,-0.35906369,0.696009,0.806291,-0.34358554,0.695185,0.81000115,-0.36902696,0.694704,0.8320888,-0.3980124,0.711669,0.81125226,-0.36239384,0.692523,0.82456423,-0.34861409,0.690623,0.83020646,-0.36807432,0.689651,0.84757471,-0.39547786,0.706264,0.83200812,-0.37203208,0.687158,0.82745428,-0.36352334,0.686108,0.83572888,-0.38516223,0.703021,0.83666782,-0.40108091,0.709949
0.79869649,-0.43612558,0.686424,0.7920585,-0.40283299,0.691686,0.77883198,-0.42651836,0.690061,0.7469097,-0.41954799,0.688897,0.70527249,-0.40145356,0.680989,0.69106559,-0.39087684,0.686992,0.77015739,-0.36171977,0.699995,0.76969217,-0.32197162,0.698052,0.77154952,-0.30072086,0.698638,0.77834851,-0.27899953,0.700998,0.79310529,-0.3612518,0.696697,0.8034605,-0.34318498,0.693863,0.80675632,-0.36773861,0.692209,0.82895219,-0.39637801,0.708737,0.81170631,-0.3640493,0.693414,0.82237994,-0.34844842,0.68977,0.82774772,-0.36716055,0.687905,0.84530122,-0.39432512,0.704098,0.83345199,-0.37330913,0.688615,0.82816412,-0.36437386,0.686046,0.83655879,-0.38579474,0.702959,0.83763254,-0.40189286,0.710421
0.78607621,-0.4409433,0.686285,0.77828162,-0.40179927,0.690159,0.76470725,-0.42919727,0.687515,0.71999682,-0.41379364,0.683556,0.6808781,-0.3970075,0.674467,0.65912156,-0.3787218,0.666777,0.75294247,-0.35722436,0.694391,0.75121475,-0.32020191,0.690873,0.75040833,-0.30072274,0.689114,0.74979518,-0.28243939,0.687592,0.77820014,-0.3587219,0.693849,0.79126997,-0.33988789,0.689809,0.79140985,-0.36493185,0.687453,0.81199289,-0.39342471,0.703864,0.79886794,-0.3632858,0.692984,0.81283641,-0.34734686,0.689097,0.81602608,-0.36767656,0.687108,0.83013771,-0.39305482,0.703437,0.82325839,-0.37487971,0.691252,0.81920017,-0.36607047,0.686551,0.82737684,-0.38717115,0.703523,0.82774775,-0.40292016,0.711758
0.77891749,-0.43856302,0.681941,0.77787359,-0.40331997,0.689991,0.76094757,-0.42885437,0.686233,0.72362095,-0.41798039,0.687634,0.68752927,-0.40337956,0.681255,0.66600234,-0.38643193,0.67553,0.75915574,-0.36718959,0.701048,0.7600294,-0.33210919,0.702598,0.76044175,-0.31347665,0.703373,0.76425005,-0.29256865,0.704077,0.78228099,-0.3667818,0.697659,0.79359289,-0.3529334,0.698032,0.79820077,-0.37900095,0.69825,0.81846512,-0.40843067,0.715454,0.80073541,-0.36931197,0.694,0.81451919,-0.35047705,0.693122,0.82147165,-0.37072793,0.692673,0.83873868,-0.39726102,0.709509,0.82071597,-0.37547889,0.688239,0.81988534,-0.36581157,0.688123,0.82847762,-0.38748446,0.705017,0.8286255,-0.40337059,0.711609
0.76949855,-0.4354464,0.677511,0.77395138,-0.40250992,0.687474,0.75281957,-0.42645301,0.682919,0.7203013,-0.41893034,0.686761,0.68219869,-0.4036929,0.678507,0.66418173,-0.38564297,0.673061,0.75763046,-0.36807412,0.701282,0.76023344,-0.33299683,0.705201,0.76150135,-0.31432014,0.707176,0.7627202,-0.29666948,0.709062,0.77975805,-0.36704641,0.696962,0.7929585,-0.35391329,0.699461,0.79916872,-0.38045593,0.700918,0.81984114,-0.4101437,0.718422,0.79713062,-0.368909,0.692331,0.80926578,-0.35155605,0.693033,0.81913941,-0.37100097,0.693392,0.83910689,-0.39804668,0.710429,0.81645635,-0.37624113,0.685083,0.81547259,-0.36357439,0.68699,0.82574855,-0.38640638,0.703753,0.82591541,-0.40232684,0.709581
0.76743251,-0.43910659,0.679745,0.77239402,-0.40521954,0.688061,0.75097529,-0.43013246,0.685399,0.72009549,-0.41898773,0.686319,0.68336603,-0.40434876,0.6808,0.66627806,-0.38642737,0.674652,0.75517443,-0.36882151,0.701072,0.75691626,-0.33151047,0.70284,0.7574941,-0.31247433,0.703725,0.76065547,-0.29338417,0.704529,0.77627692,-0.36803365,0.695981,0.78982372,-0.35390924,0.696481,0.79241258,-0.38079656,0.696773,0.81286434,-0.40911815,0.713784,0.79286075,-0.37020853,0.690893,0.80172652,-0.36324486,0.689629,0.79439658,-0.38447032,0.688983,0.80522326,-0.41188435,0.705474,0.81141633,-0.37810184,0.683423,0.80686949,-0.37127098,0.684175,0.81985389,-0.38251438,0.700904,0.81482096,-0.39604831,0.707126
0.76335401,-0.43787948,0.676931,0.76950622,-0.40444163,0.685864,0.74593273,-0.42805309,0.68154,0.7186043,-0.41699393,0.683319,0.67999641,-0.400171,0.676996,0.66185606,-0.38130846,0.666861,0.75324037,-0.36668761,0.697933,0.75619155,-0.32893308,0.700439,0.75805046,-0.3104884,0.701692,0.76201515,-0.29361589,0.702831,0.77592998,-0.3669255,0.694372,0.78980177,-0.35429992,0.695753,0.79308923,-0.38157385,0.696558,0.81286876,-0.41006412,0.713942,0.79284455,-0.37074955,0.690477,0.80460872,-0.36125211,0.690426,0.80075732,-0.38002971,0.6904,0.80995123,-0.41095294,0.707394,0.81203315,-0.38169418,0.684277,0.80911123,-0.3716431,0.684996,0.8220811,-0.38144045,0.701858,0.81735072,-0.39680639,0.708143
0.77085172,-0.43908914,0.679483,0.77480217,-0.40329258,0.687304,0.75300535,-0.42889188,0.683652,0.73227368,-0.41894407,0.685078,0.68579797,-0.39564744,0.667602,0.65745508,-0.37792638,0.662157,0.75928868,-0.3646444,0.698044,0.76686838,-0.32102917,0.699177,0.76542379,-0.29833524,0.702042,0.77119054,-0.28002348,0.707803,0.78179906,-0.36547173,0.694752,0.80530264,-0.35601465,0.694871,0.80547876,-0.38263487,0.69494,0.81766944,-0.40902753,0.712103,0.79955839,-0.36909587,0.691199,0.81972882,-0.36015721,0.690128,0.81367916,-0.38046305,0.68958,0.82326389,-0.4085512,0.706385,0.82029061,-0.38150478,0.685605,0.82176784,-0.37385815,0.685252,0.84300467,-0.37930555,0.702158,0.84025227,-0.39166195,0.708837
0.76932436,-0.43858016,0.678152,0.77350667,-0.40284711,0.685656,0.75002292,-0.42732705,0.680824,0.72726695,-0.41593273,0.680038,0.68179815,-0.39310846,0.663155,0.65763603,-0.37659986,0.66079,0.75833014,-0.36163768,0.694233,0.76412497,-0.31949394,0.694612,0.7665979,-0.29815407,0.694801,0.77140585,-0.2771442,0.695244,0.7803208,-0.3644961,0.692804,0.80303703,-0.35496969,0.692803,0.80321565,-0.38148139,0.692802,0.81647233,-0.40871463,0.710079,0.79953821,-0.3692926,0.690818,0.81983031,-0.3602014,0.690188,0.81325093,-0.38103289,0.689865,0.82264203,-0.40786067,0.706951,0.82160346,-0.38229159,0.687103,0.82239004,-0.37417174,0.685826,0.84393266,-0.37968269,0.702813,0.84172172,-0.3922531,0.709849
0.7690175,-0.43862042,0.677742,0.77357036,-0.40290826,0.685131,0.74991057,-0.42729708,0.680476,0.72762671,-0.41583765,0.679743,0.68133485,-0.39251544,0.662018,0.65735926,-0.37608179,0.659702,0.75821486,-0.36135463,0.693709,0.76341408,-0.3188799,0.694005,0.76620306,-0.29751245,0.694153,0.77049416,-0.27692152,0.694287,0.78037763,-0.36419025,0.692169,0.80278326,-0.35456831,0.692018,0.80289577,-0.38103089,0.69193,0.81645952,-0.40864658,0.709171,0.79935124,-0.36911864,0.690104,0.81897175,-0.36117484,0.68931,0.81223233,-0.3820352,0.688904,0.82155642,-0.40898784,0.705945,0.82110154,-0.381863,0.686318,0.82197936,-0.37372707,0.684978,0.84362207,-0.37924737,0.701965,0.84149478,-0.39183133,0.709023
0.77300891,-0.44123317,0.680367,0.78023901,-0.40506877,0.686432,0.75401346,-0.4291219,0.682032,0.73242945,-0.41766523,0.678366,0.68942218,-0.39203394,0.655499,0.66540657,-0.37209469,0.64581,0.75735934,-0.3615997,0.69272,0.76011562,-0.31822822,0.691455,0.76607482,-0.30335453,0.690822,0.77338766,-0.28780178,0.690427,0.78070878,-0.36443675,0.692209,0.80210589,-0.35428267,0.690686,0.80202174,-0.37998216,0.689797,0.81705013,-0.40870513,0.706783,0.80065957,-0.36967409,0.691135,0.82061206,-0.36476878,0.689447,0.81947811,-0.38556582,0.688584,0.82547888,-0.41294899,0.705471,0.82388997,-0.38256947,0.688747,0.82395378,-0.37404262,0.685919,0.84818347,-0.37982546,0.702917,0.84612475,-0.39308147,0.710504
0.77404444,-0.44163962,0.680362,0.77959363,-0.40596973,0.686296,0.75471952,-0.42979652,0.681729,0.7325368,-0.41737694,0.677609,0.68925229,-0.39170562,0.65446,0.66550359,-0.37147058,0.644131,0.75722953,-0.36170577,0.692104,0.75981665,-0.31831525,0.690664,0.76764614,-0.30236088,0.689944,0.77461346,-0.28589774,0.689687,0.78096655,-0.36441647,0.691947,0.80261395,-0.35439642,0.690328,0.80538088,-0.38012845,0.689383,0.81795552,-0.40863642,0.706354,0.8019042,-0.37003471,0.691178,0.82176921,-0.36509169,0.689511,0.82060743,-0.38580943,0.688658,0.83097529,-0.41398511,0.705563,0.82479958,-0.38237731,0.68917,0.82786031,-0.37365439,0.686113,0.85156581,-0.38014556,0.703107,0.85233499,-0.39432062,0.710771
0.77478265,-0.44208754,0.679614,0.7798197,-0.40583796,0.685818,0.75559417,-0.4303404,0.680829,0.73175063,-0.4168128,0.676597,0.6889901,-0.39147951,0.653919,0.66549671,-0.37124087,0.643534,0.75705386,-0.36173386,0.691612,0.76037207,-0.31862245,0.690436,0.76838917,-0.30211504,0.689847,0.77534871,-0.28538337,0.689731,0.78111253,-0.36438419,0.691726,0.80338711,-0.3546641,0.690463,0.80592144,-0.38075681,0.689726,0.8185387,-0.40880613,0.706777,0.80212981,-0.36993017,0.691151,0.82274126,-0.3654279,0.689873,0.82162487,-0.38619181,0.68922,0.83211364,-0.41443064,0.706226,0.8252455,-0.38217498,0.689318,0.82860223,-0.37384767,0.686409,0.85230761,-0.38036899,0.703397,0.85301684,-0.39455155,0.711008
0.77714714,-0.44334445,0.68021,0.78110205,-0.40656794,0.686498,0.75867246,-0.43194684,0.681795,0.73242446,-0.41639521,0.677469,0.69197779,-0.38948719,0.663842,0.67232824,-0.37364375,0.662814,0.75931416,-0.36453395,0.692832,0.76536228,-0.3218556,0.691756,0.77326138,-0.30312158,0.694431,0.78138493,-0.284277,0.698065,0.78299013,-0.36533812,0.692487,0.80416138,-0.35530621,0.691246,0.80510862,-0.38097739,0.690522,0.81992994,-0.40929535,0.707573,0.8027412,-0.37041412,0.691526,0.82283653,-0.36558974,0.690133,0.82178017,-0.3861969,0.68942,0.83276037,-0.41456946,0.706386,0.82548169,-0.38222047,0.689228,0.82898066,-0.37378001,0.686538,0.85239459,-0.38027606,0.703535,0.85338855,-0.39473502,0.711072
0.77885635,-0.44397795,0.679809,0.78301359,-0.40714996,0.686298,0.75888647,-0.43197042,0.681347,0.73228848,-0.41603314,0.677227,0.69241239,-0.39242757,0.659745,0.67199377,-0.37500051,0.661947,0.759308,-0.36487648,0.692707,0.76593256,-0.32237619,0.691845,0.77353119,-0.30296662,0.694076,0.78154519,-0.28408968,0.697605,0.7832116,-0.36565672,0.692478,0.80451152,-0.35561043,0.691488,0.80766642,-0.38154848,0.69091,0.82097269,-0.40957379,0.708017,0.80310829,-0.37066075,0.69159,0.82329879,-0.36577374,0.69045,0.82253836,-0.38638254,0.689866,0.83391694,-0.41489573,0.706896,0.8263533,-0.38219233,0.68934,0.8296843,-0.37383269,0.686787,0.85292841,-0.38030897,0.703782,0.85409211,-0.3949338,0.71127
0.78074016,-0.44499908,0.680961,0.78513425,-0.40822597,0.687119,0.7605055,-0.43294591,0.682337,0.73309873,-0.41631224,0.677823,0.69247428,-0.39109523,0.663102,0.67185038,-0.37488363,0.661094,0.75999453,-0.36532643,0.693092,0.76636308,-0.32258956,0.691884,0.77231979,-0.30236166,0.692318,0.77855889,-0.28400576,0.692712,0.78433498,-0.36633806,0.692984,0.80529647,-0.35601636,0.691631,0.8087705,-0.38173625,0.690842,0.82282654,-0.40962213,0.707872,0.80416796,-0.37115326,0.692231,0.82444991,-0.36624672,0.690811,0.82314056,-0.38650281,0.690084,0.83457735,-0.41503362,0.70705,0.82827612,-0.38232299,0.6902,0.83077864,-0.37423765,0.687322,0.85399308,-0.38072382,0.704315,0.85535085,-0.39534159,0.711917
0.78320787,-0.44705421,0.68281,0.7876556,-0.41158569,0.6887,0.76623293,-0.43666421,0.684182,0.73569269,-0.41906467,0.679685,0.6942504,-0.39282273,0.661888,0.67113787,-0.37452283,0.657574,0.76234951,-0.36857088,0.694485,0.76832864,-0.32531735,0.692998,0.77277476,-0.3045704,0.692254,0.77992673,-0.28715356,0.693532,0.78727811,-0.37002546,0.694309,0.81095293,-0.36772426,0.692637,0.81215896,-0.3932912,0.691661,0.82574035,-0.42104614,0.70862,0.80801298,-0.37478697,0.693529,0.8284076,-0.37712199,0.69181,0.82791435,-0.39624233,0.69093,0.83950931,-0.42592053,0.707822,0.83158304,-0.38675896,0.691517,0.83363932,-0.38512377,0.688428,0.85632022,-0.39452814,0.705422,0.85795157,-0.40912485,0.713098
0.78419337,-0.44788637,0.682637,0.78738176,-0.41115697,0.688614,0.76642554,-0.43746689,0.684324,0.73592993,-0.41922856,0.680224,0.6951355,-0.39327653,0.662159,0.67241991,-0.37474237,0.657773,0.76311903,-0.36935229,0.694869,0.76800431,-0.32471525,0.693519,0.77189043,-0.30454114,0.692845,0.77737486,-0.28563339,0.692232,0.78752143,-0.37061368,0.694305,0.81086678,-0.36728644,0.69267,0.81213241,-0.39283317,0.691717,0.82573823,-0.42060093,0.708677,0.80729006,-0.37482523,0.693197,0.82779578,-0.37644195,0.691397,0.82727948,-0.39548912,0.690477,0.83886721,-0.42513797,0.707335,0.83033041,-0.38567786,0.690787,0.83289369,-0.3843897,0.687899,0.85557224,-0.39373484,0.704897,0.85714165,-0.4082566,0.712505
0.78694472,-0.44968907,0.683973,0.78813945,-0.41197223,0.689151,0.76775777,-0.43869755,0.68545,0.73641653,-0.41955657,0.680606,0.69670925,-0.39360685,0.663255,0.67573056,-0.37507227,0.659061,0.76325241,-0.36946953,0.694591,0.7666236,-0.32444047,0.692398,0.7702591,-0.30489176,0.691302,0.77646671,-0.28679667,0.690907,0.78765446,-0.37080078,0.694083,0.80998135,-0.36653194,0.691541,0.81051223,-0.39177686,0.690058,0.82385544,-0.41939395,0.706817,0.80749932,-0.37512897,0.693107,0.82719127,-0.3758024,0.690533,0.82610723,-0.39463281,0.689216,0.83744007,-0.42414012,0.705885,0.83076741,-0.38622432,0.691,0.83401641,-0.38294962,0.687405,0.86226385,-0.38833635,0.704398,0.86009257,-0.40174873,0.712252
0.78830429,-0.45075143,0.684185,0.78823125,-0.41233431,0.689076,0.76803623,-0.43921763,0.685588,0.73651858,-0.41963025,0.680591,0.69714696,-0.39405895,0.664644,0.67486103,-0.37529074,0.660517,0.76321547,-0.36949122,0.694225,0.76579804,-0.32432631,0.691727,0.76943006,-0.30484222,0.690478,0.77526491,-0.28667155,0.689854,0.78759245,-0.3708602,0.693735,0.80952544,-0.36606353,0.690866,0.80980374,-0.3911919,0.689192,0.82306272,-0.41877293,0.705877,0.80743607,-0.37524365,0.692804,0.82684231,-0.37537371,0.689951,0.82556458,-0.39411403,0.688492,0.83638259,-0.42167954,0.705091,0.8307395,-0.38644715,0.690804,0.83447699,-0.38210227,0.686957,0.86201541,-0.38799097,0.703946,0.86024908,-0.40033823,0.711888
