sluyters/QuantumLeap/src/datasets/gesture/HandGestureDataset_SHREC2017_csv/Gesture8/finger_2/subject_22_essai_2_skeletons_world.csv
Wrist_x,Wrist_y,Wrist_z,Palm_x,Palm_y,Palm_z,thumb_base_x,thumb_base_y,thumb_base_z,thumb_first_joint_x,thumb_first_joint_y,thumb_first_joint_z,thumb_second_joint_x,thumb_second_joint_y,thumb_second_joint_z,thumb_tip_x,thumb_tip_y,thumb_tip_z,index_base_x,index_base_y,index_base_z,index_first_joint_x,index_first_joint_y,index_first_joint_z,index_second_joint_x,index_second_joint_y,index_second_joint_z,index_tip_x,index_tip_y,index_tip_z,middle_base_x,middle_base_y,middle_base_z,middle_first_joint_x,middle_first_joint_y,middle_first_joint_z,middle_second_joint_x,middle_second_joint_y,middle_second_joint_z,middle_tip_x,middle_tip_y,middle_tip_z,ring_base_x,ring_base_y,ring_base_z,ring_first_joint_x,ring_first_joint_y,ring_first_joint_z,ring_second_joint_x,ring_second_joint_y,ring_second_joint_z,ring_tip_x,ring_tip_y,ring_tip_z,pinky_base_x,pinky_base_y,pinky_base_z,pinky_first_joint_x,pinky_first_joint_y,pinky_first_joint_z,pinky_second_joint_x,pinky_second_joint_y,pinky_second_joint_z,pinky_tip_x,pinky_tip_y,pinky_tip_z,
0.347407594,-0.313532645,0.437703,0.356178746,-0.260312625,0.431998,0.329149175,-0.298855575,0.436843,0.302929686,-0.259278594,0.426772,0.277768087,-0.234991771,0.421714,0.268811907,-0.216417224,0.420645,0.333715373,-0.214063846,0.427192,0.32516301,-0.173536253,0.416026,0.32088782,-0.153066865,0.410443,0.315188165,-0.136647721,0.405368,0.357470886,-0.217891207,0.426621,0.356896528,-0.177569829,0.414048,0.358745869,-0.150368329,0.406714,0.354982182,-0.135940337,0.401475,0.376880884,-0.225093053,0.426679,0.376116772,-0.182008894,0.414166,0.374333685,-0.160826917,0.407764,0.37351461,-0.145073655,0.401944,0.399610857,-0.240905173,0.427692,0.408005921,-0.20539782,0.417644,0.408326362,-0.199181657,0.413027,0.40842733,-0.189752115,0.408953
0.348667964,-0.312307843,0.437492,0.356003953,-0.260184879,0.431786,0.330289161,-0.297781038,0.436659,0.302924717,-0.259274342,0.426765,0.277992407,-0.234739092,0.421775,0.268830744,-0.215964484,0.420485,0.333590384,-0.213983671,0.427032,0.325037173,-0.173469096,0.415865,0.320761168,-0.15300645,0.410281,0.315386913,-0.136275753,0.405205,0.357315873,-0.21779672,0.426436,0.35694475,-0.177154085,0.413857,0.358573868,-0.150296235,0.406519,0.355328625,-0.135728737,0.401278,0.376701547,-0.224985961,0.426476,0.375926973,-0.181917047,0.413957,0.374435192,-0.160507846,0.407553,0.373625051,-0.144489613,0.40173,0.399405302,-0.240781254,0.427472,0.407815421,-0.205301919,0.417449,0.408393768,-0.198865015,0.412844,0.408662706,-0.189810645,0.408781
0.346185104,-0.30895198,0.432929,0.34837176,-0.26678669,0.427274,0.329565502,-0.296132961,0.434292,0.299699689,-0.265801139,0.426365,0.277962052,-0.239718777,0.423083,0.269734055,-0.216884645,0.421346,0.331305119,-0.220628158,0.425375,0.323089818,-0.178916178,0.41531,0.318413266,-0.159282056,0.410278,0.314150226,-0.141191455,0.405702,0.352834983,-0.224270477,0.422007,0.352616039,-0.179263898,0.409492,0.3518919,-0.154017095,0.402191,0.352683623,-0.134638585,0.396977,0.370040983,-0.231278626,0.419763,0.369386626,-0.185827032,0.407009,0.372582989,-0.16914708,0.400484,0.372508552,-0.152583855,0.394552,0.388932098,-0.246404287,0.418078,0.397784433,-0.210889717,0.40757,0.399274407,-0.199314583,0.402742,0.401101423,-0.186522426,0.398482
0.346730647,-0.308308756,0.432166,0.348371679,-0.266472552,0.426541,0.330125319,-0.295642207,0.433622,0.300129431,-0.265798522,0.426148,0.278404081,-0.239734598,0.422873,0.269859636,-0.217136548,0.421114,0.331320374,-0.220693921,0.424805,0.323299458,-0.178908577,0.414748,0.318715183,-0.159623127,0.409719,0.314537018,-0.141799672,0.405148,0.352803279,-0.224216932,0.421336,0.352804664,-0.179312456,0.408812,0.352246924,-0.154141913,0.401506,0.352418698,-0.134704196,0.396287,0.36997468,-0.231144966,0.419011,0.369580056,-0.185732293,0.406261,0.371888031,-0.168831579,0.399737,0.371805175,-0.152295743,0.393807,0.388805113,-0.246198272,0.417233,0.396952889,-0.210448865,0.406718,0.398426768,-0.198891449,0.401887,0.400192737,-0.186484937,0.397624
0.346386009,-0.308521884,0.431844,0.34621793,-0.265272085,0.423377,0.330943762,-0.296671463,0.434671,0.302545888,-0.264132045,0.428182,0.279607755,-0.236642811,0.423041,0.270337602,-0.216214318,0.420663,0.329929804,-0.219835552,0.421576,0.324459068,-0.180002688,0.410305,0.318143726,-0.159531612,0.404669,0.314055973,-0.141994013,0.399545,0.349054547,-0.222315126,0.415544,0.350539878,-0.18150178,0.40027,0.350505302,-0.156118363,0.391361,0.348017078,-0.135173511,0.38623,0.365429793,-0.229690352,0.411375,0.365123221,-0.187897121,0.396255,0.364320449,-0.166690117,0.388519,0.361128352,-0.148241628,0.381625,0.381765335,-0.249212097,0.407916,0.385569109,-0.212219136,0.394683,0.384481117,-0.201456209,0.388603,0.383703638,-0.191676989,0.383238
0.340258791,-0.311595395,0.42999,0.341504203,-0.264629569,0.420082,0.326268303,-0.299103724,0.433343,0.298931004,-0.263965252,0.426617,0.280430282,-0.234032324,0.422996,0.277551176,-0.213702516,0.422304,0.328437984,-0.219697879,0.418032,0.322305949,-0.179373898,0.406567,0.318358226,-0.15943951,0.400835,0.312142515,-0.140952861,0.395624,0.346195055,-0.225366573,0.410916,0.345954385,-0.181087982,0.394738,0.344842583,-0.158803266,0.385302,0.344322572,-0.1382823,0.378561,0.358926361,-0.236636079,0.40599,0.35885215,-0.192186994,0.389991,0.357581413,-0.171203538,0.381806,0.356219289,-0.149280228,0.374364,0.37245994,-0.254597812,0.401888,0.375345366,-0.217973817,0.387571,0.374136628,-0.205047109,0.380993,0.374442063,-0.190490604,0.375189
0.337178636,-0.312392963,0.429332,0.334870063,-0.269154303,0.418117,0.324311156,-0.299948968,0.433447,0.297761652,-0.264465106,0.427811,0.280458286,-0.235111864,0.423905,0.272301643,-0.214890404,0.42073,0.326707249,-0.220967708,0.416205,0.320206627,-0.179322262,0.40446,0.316090579,-0.159472509,0.398587,0.310467332,-0.14069597,0.393248,0.341946789,-0.22722813,0.407741,0.34119829,-0.18285887,0.390351,0.339600286,-0.15815585,0.380207,0.338421913,-0.140405365,0.372962,0.353769122,-0.23565751,0.40183,0.353224951,-0.191048716,0.384698,0.351405698,-0.170208754,0.375933,0.349852398,-0.150977186,0.367964,0.366340265,-0.252977874,0.396793,0.36574429,-0.219697698,0.381489,0.363926981,-0.206527354,0.374457,0.36442252,-0.192183485,0.368253
0.324165745,-0.311669621,0.424354,0.328444061,-0.26602547,0.412273,0.31524471,-0.299279844,0.430943,0.294258582,-0.265263031,0.42855,0.279881476,-0.234777678,0.424425,0.272342554,-0.214812103,0.421069,0.323478983,-0.219737397,0.412966,0.317344783,-0.17918011,0.400853,0.313001544,-0.159567669,0.394796,0.308950768,-0.14058044,0.38929,0.333581213,-0.225089049,0.401095,0.331607286,-0.181135088,0.38252,0.329243012,-0.156203635,0.371684,0.327501214,-0.138326325,0.363945,0.342283588,-0.232217148,0.392461,0.341947765,-0.187788275,0.373823,0.337079672,-0.168670198,0.364287,0.335459621,-0.148904237,0.355619,0.348749306,-0.249234339,0.384381,0.349813491,-0.213206619,0.367906,0.344977136,-0.200665884,0.360337,0.340781375,-0.189351241,0.353658
0.313196566,-0.314116206,0.42372,0.311722008,-0.269300144,0.407121,0.30879203,-0.299638736,0.430381,0.28926725,-0.264041383,0.427632,0.279805846,-0.235041558,0.425617,0.272969366,-0.213283051,0.421519,0.31397248,-0.219299514,0.405019,0.304830727,-0.180639837,0.390171,0.29976016,-0.160466395,0.382747,0.297949412,-0.139506906,0.377434,0.319544786,-0.227186532,0.391763,0.312698165,-0.183849143,0.369054,0.307580486,-0.158855439,0.355807,0.303969736,-0.140868412,0.346345,0.324373132,-0.23594604,0.382415,0.320133551,-0.192456602,0.359172,0.314211268,-0.171744617,0.34728,0.308900927,-0.152689686,0.336469,0.328759112,-0.253874079,0.374257,0.3256171,-0.217265128,0.354547,0.320409491,-0.20224843,0.345491,0.315867537,-0.188835571,0.3375
0.30038139,-0.320283206,0.425425,0.306455499,-0.277053515,0.406394,0.301351027,-0.302928899,0.431414,0.285580058,-0.266050039,0.427385,0.27564975,-0.234981813,0.424905,0.271096203,-0.214545531,0.41981,0.309254519,-0.228323305,0.401877,0.300875638,-0.187381297,0.384927,0.29544462,-0.167286445,0.376451,0.290518871,-0.148868704,0.368746,0.314352125,-0.235458007,0.388786,0.306702336,-0.193059802,0.364401,0.301007188,-0.168599718,0.350176,0.296986223,-0.151003546,0.340016,0.317788521,-0.245523879,0.379802,0.312847408,-0.203035178,0.354844,0.303744882,-0.183953038,0.342075,0.293995044,-0.167201659,0.330467,0.320539208,-0.264965164,0.372479,0.31648531,-0.229185847,0.351096,0.31045428,-0.214443223,0.341271,0.305177623,-0.201303204,0.332602
0.296101636,-0.319458736,0.426455,0.295102373,-0.273228372,0.403224,0.294984595,-0.30316667,0.432753,0.286294272,-0.262838905,0.429303,0.276904183,-0.230664216,0.42529,0.272425804,-0.211056295,0.419131,0.304373014,-0.225082655,0.396419,0.294849721,-0.184572803,0.376916,0.288933619,-0.164615591,0.367164,0.282918567,-0.145473199,0.358299,0.302728459,-0.234022588,0.381731,0.291605758,-0.192841671,0.353358,0.283627933,-0.168981292,0.336808,0.277962784,-0.151849726,0.324986,0.301180447,-0.245416149,0.371829,0.29270688,-0.204471391,0.342628,0.280561678,-0.185316222,0.327688,0.26777924,-0.168386058,0.314106,0.298060707,-0.265890596,0.364136,0.290709577,-0.231694892,0.3393,0.28237794,-0.217052786,0.327889,0.27504368,-0.20405425,0.317821
0.29401512,-0.317820387,0.426912,0.288787193,-0.269389028,0.395849,0.290919213,-0.297868849,0.428396,0.281769341,-0.252576419,0.424584,0.277879829,-0.221395891,0.423471,0.276932909,-0.198681317,0.418185,0.289052408,-0.218422466,0.377889,0.294113257,-0.178174183,0.357566,0.275371076,-0.166033603,0.347404,0.258172791,-0.154887707,0.338166,0.28833638,-0.23269641,0.36711,0.26622919,-0.195509848,0.332236,0.251162826,-0.174222396,0.311893,0.24040729,-0.158968744,0.297362,0.287740378,-0.248355086,0.361163,0.271323651,-0.203484158,0.333056,0.260204736,-0.181413402,0.318675,0.248436433,-0.161939008,0.305602,0.287009321,-0.273758886,0.359416,0.286670524,-0.230695186,0.335003,0.265926884,-0.223847259,0.323786,0.24797163,-0.216104209,0.313889
0.286749399,-0.315585353,0.430831,0.279131702,-0.273171893,0.397192,0.286529134,-0.293896157,0.430916,0.280450967,-0.252819014,0.426225,0.276025564,-0.220572723,0.423235,0.274409191,-0.197410194,0.416574,0.278544704,-0.221124771,0.375797,0.282122025,-0.181334615,0.352854,0.261315837,-0.16893756,0.341383,0.24233736,-0.157631884,0.330955,0.276470346,-0.237038535,0.366068,0.250578453,-0.201887798,0.329798,0.233223581,-0.181701795,0.30864,0.220821534,-0.167251336,0.293527,0.275064556,-0.25388884,0.361229,0.260540231,-0.209397648,0.331285,0.250251174,-0.187285795,0.315965,0.239157191,-0.167635067,0.302038,0.273926585,-0.280365827,0.361212,0.271546721,-0.24012496,0.334426,0.249391184,-0.230509234,0.322118,0.230011292,-0.222036276,0.311259
0.286046503,-0.318021184,0.435381,0.27070085,-0.275237948,0.398877,0.284981588,-0.294834232,0.433509,0.26892443,-0.252349306,0.427097,0.264194476,-0.219258385,0.422561,0.269538159,-0.1969628,0.41675,0.267688352,-0.221245262,0.373152,0.2512934,-0.181432065,0.347524,0.243100536,-0.161477879,0.334711,0.235654513,-0.143304979,0.323062,0.266297239,-0.238457877,0.365104,0.239958659,-0.201787177,0.328407,0.222296075,-0.180784948,0.307,0.209649705,-0.165776416,0.29171,0.265655177,-0.256562354,0.361918,0.254562537,-0.222231498,0.324665,0.223797439,-0.208771505,0.305605,0.193504899,-0.199846415,0.288278,0.265728069,-0.284845768,0.364317,0.262445346,-0.244130043,0.335888,0.240848076,-0.232911824,0.322826,0.220971633,-0.223909847,0.3113
0.312348686,-0.317621934,0.431269,0.283808087,-0.268938251,0.393411,0.311321931,-0.295291361,0.42999,0.291758283,-0.245402952,0.411247,0.269767246,-0.218172428,0.399228,0.25831858,-0.196669652,0.383701,0.268896405,-0.218479012,0.367576,0.24075583,-0.178430269,0.340092,0.226699164,-0.158446145,0.32635,0.213929411,-0.140305806,0.313857,0.261484399,-0.234995,0.358384,0.245319022,-0.197730848,0.322542,0.210864217,-0.178945505,0.301634,0.186707866,-0.165531456,0.2867,0.25902647,-0.252472695,0.354383,0.211815575,-0.224149685,0.319261,0.183957432,-0.209273862,0.301291,0.156330965,-0.197896362,0.284955,0.258760875,-0.279533477,0.356058,0.23530689,-0.243775793,0.329579,0.21288068,-0.230023402,0.317413,0.191147486,-0.222155368,0.306679
0.301154018,-0.31068531,0.424014,0.276914485,-0.264857313,0.386654,0.304960725,-0.28758167,0.423296,0.285453776,-0.242002196,0.405588,0.26560405,-0.215854015,0.396452,0.254357735,-0.194174582,0.381196,0.258642344,-0.212377362,0.361853,0.228696991,-0.171955135,0.33574,0.213763842,-0.151831459,0.322684,0.200213827,-0.133595009,0.310814,0.249314175,-0.229157035,0.352088,0.21030799,-0.189924796,0.317495,0.187629551,-0.167125883,0.297316,0.171472038,-0.150888688,0.282902,0.244245213,-0.246528008,0.347568,0.214052677,-0.219676537,0.310945,0.179269868,-0.203808373,0.292207,0.154515751,-0.191524892,0.275173,0.242967262,-0.273184316,0.348551,0.216576775,-0.235693125,0.323002,0.192708797,-0.223239244,0.311264,0.172409543,-0.212434895,0.300906
0.299207112,-0.311043759,0.423549,0.268873683,-0.2684241,0.388067,0.302984401,-0.289171427,0.424615,0.277197064,-0.255182182,0.40947,0.261483611,-0.226991811,0.404133,0.247227896,-0.204199186,0.390007,0.249191679,-0.217928616,0.366747,0.22309765,-0.176809888,0.34228,0.210079875,-0.156333249,0.330046,0.201759597,-0.137416532,0.318885,0.23926623,-0.232313804,0.355239,0.203558789,-0.19389469,0.321228,0.181659645,-0.171582876,0.301388,0.165765616,-0.155694775,0.287216,0.23427388,-0.248133749,0.349108,0.198090123,-0.207946426,0.321724,0.179559593,-0.187364587,0.307714,0.154608036,-0.172507525,0.294977,0.234108199,-0.273749571,0.347889,0.207063929,-0.237342407,0.324637,0.184349798,-0.225084757,0.313953,0.164876952,-0.214591879,0.304527
0.299916613,-0.313310237,0.426626,0.271227587,-0.272227901,0.392337,0.303232835,-0.293299539,0.428239,0.278146015,-0.257472602,0.41364,0.261632945,-0.230226914,0.407836,0.246743358,-0.207568598,0.393938,0.246231951,-0.223016694,0.372478,0.218151795,-0.182601359,0.349139,0.204142171,-0.162456901,0.33747,0.191425393,-0.144184642,0.326861,0.235577381,-0.23719422,0.360612,0.197070682,-0.199436013,0.327522,0.17360848,-0.177540272,0.308219,0.15662942,-0.161963069,0.294431,0.230246115,-0.252727655,0.354074,0.192399568,-0.214074777,0.328769,0.172983583,-0.194248305,0.315823,0.148265273,-0.180230564,0.304053,0.230144949,-0.277806452,0.352178,0.201488282,-0.242656895,0.330587,0.179258442,-0.231078214,0.320667,0.160279859,-0.221185332,0.311914
0.250018618,-0.268854376,0.417626,0.236667392,-0.243994884,0.379366,0.2581749,-0.248637488,0.413313,0.23208442,-0.214234884,0.390052,0.216367367,-0.185876587,0.375724,0.199908959,-0.169925222,0.360142,0.238759514,-0.202069994,0.349399,0.187531928,-0.170191292,0.323035,0.163241427,-0.154914603,0.309853,0.141969549,-0.141432446,0.297869,0.224417689,-0.220991861,0.343967,0.169693823,-0.181878241,0.310491,0.139281515,-0.159870603,0.290964,0.118326038,-0.144561812,0.277016,0.213850724,-0.238915496,0.3431,0.163620983,-0.198934537,0.31254,0.138731745,-0.178964879,0.296905,0.116874703,-0.167810436,0.282691,0.203724912,-0.264019377,0.34851,0.157377101,-0.229224693,0.32227,0.137061734,-0.213708763,0.310213,0.119683617,-0.200281725,0.299575
0.248886959,-0.266855655,0.419789,0.233313054,-0.241705285,0.378232,0.254578359,-0.244433998,0.411826,0.224893203,-0.205628119,0.389546,0.199962824,-0.17520314,0.370011,0.18247298,-0.157788685,0.353593,0.230401486,-0.197098316,0.341495,0.171664518,-0.163278274,0.30901,0.146251242,-0.147576746,0.292605,0.124622363,-0.133928779,0.277657,0.218871756,-0.218431409,0.339783,0.154923146,-0.178700566,0.301038,0.122222678,-0.15662063,0.278373,0.100320838,-0.141445432,0.262182,0.210715506,-0.238642294,0.342289,0.148500852,-0.197293943,0.305492,0.121025947,-0.177268139,0.286665,0.109047467,-0.160232234,0.26955,0.20359001,-0.266852832,0.352201,0.154844228,-0.226259824,0.320419,0.133870643,-0.208382466,0.305816,0.116151977,-0.193036395,0.292931
0.24219249,-0.255430834,0.416986,0.220143824,-0.231914493,0.375625,0.244424774,-0.231689405,0.4056,0.208431575,-0.191255514,0.380531,0.181094098,-0.161986193,0.36019,0.161925537,-0.145302543,0.342939,0.209190077,-0.191027505,0.33464,0.151744981,-0.16219232,0.300206,0.125897094,-0.14844146,0.282824,0.104127251,-0.136368253,0.266988,0.202163248,-0.215970442,0.337356,0.139953655,-0.179283888,0.29842,0.107376888,-0.158966709,0.275621,0.0859030289,-0.14499751,0.259336,0.198136204,-0.238309213,0.343489,0.139021075,-0.196644064,0.3052,0.112354367,-0.176786105,0.28561,0.105027913,-0.160626465,0.271508,0.196608077,-0.267500953,0.357616,0.147217523,-0.226375454,0.324866,0.126181287,-0.208357826,0.309819,0.108523043,-0.192937381,0.29654
0.241175302,-0.254510275,0.417789,0.219653867,-0.232284744,0.376349,0.243255573,-0.230949039,0.406863,0.207996878,-0.192127193,0.382376,0.180526525,-0.162379083,0.362416,0.161205886,-0.145200686,0.345386,0.208883859,-0.19058947,0.335902,0.151024742,-0.161677956,0.300588,0.125057521,-0.147882536,0.282757,0.103230732,-0.135766736,0.266512,0.201651425,-0.215299127,0.338008,0.139462848,-0.178860666,0.299096,0.106928518,-0.158682873,0.276308,0.0854967816,-0.144810964,0.260032,0.197461561,-0.237546241,0.343646,0.138459983,-0.196411576,0.305562,0.111866167,-0.176799357,0.286077,0.104604638,-0.161032153,0.272017,0.195751714,-0.266817717,0.357207,0.146405337,-0.225862945,0.3246,0.12541312,-0.207932318,0.309619,0.107804707,-0.192592529,0.296399
0.240414933,-0.254545995,0.419214,0.218792567,-0.233018861,0.377893,0.24236911,-0.231057253,0.408493,0.205834803,-0.193028098,0.3845,0.177982243,-0.162704694,0.364582,0.158375788,-0.145037303,0.347693,0.206321434,-0.190292491,0.337785,0.14907615,-0.161897693,0.302743,0.12338889,-0.14831171,0.284988,0.10270509,-0.136538438,0.268533,0.199075833,-0.214923845,0.339662,0.137386402,-0.178839395,0.301049,0.105157314,-0.158853627,0.2784,0.0848132988,-0.145445387,0.261923,0.194907248,-0.2372302,0.345101,0.136549304,-0.19667157,0.307378,0.110286883,-0.17733993,0.288078,0.104172396,-0.161881828,0.273773,0.193285846,-0.266767309,0.358408,0.144308488,-0.226039596,0.326136,0.123507968,-0.208227652,0.311308,0.106999502,-0.193175682,0.297968
0.239605622,-0.253852771,0.419459,0.216875591,-0.232479669,0.379211,0.239229912,-0.228396711,0.409447,0.204082573,-0.194216272,0.387717,0.176227577,-0.165281781,0.3696,0.156349012,-0.148151165,0.353285,0.20021681,-0.186699064,0.340693,0.145029801,-0.16228355,0.307907,0.120392363,-0.150606515,0.291514,0.101735212,-0.140671251,0.277519,0.194207772,-0.21124128,0.341973,0.13542994,-0.179956722,0.305287,0.103815312,-0.161321912,0.283887,0.0829737877,-0.148484834,0.268601,0.192254551,-0.235732971,0.346818,0.135339834,-0.197851572,0.311158,0.109701424,-0.179748594,0.292913,0.102821359,-0.163854766,0.277326,0.191331551,-0.264968387,0.35925,0.143176378,-0.226542008,0.328917,0.122708206,-0.209717899,0.31498,0.105538428,-0.195317635,0.302678
0.239397396,-0.25359226,0.420483,0.215042083,-0.231107493,0.380166,0.238901592,-0.228267364,0.41044,0.203705573,-0.193886571,0.388599,0.174207489,-0.165256743,0.371002,0.153290726,-0.149120964,0.35501,0.200240549,-0.18613354,0.341565,0.144939575,-0.161716014,0.308633,0.120258876,-0.150041631,0.292168,0.101158782,-0.140473683,0.278215,0.19421075,-0.210742253,0.342865,0.133642495,-0.178418688,0.30607,0.102077718,-0.16038977,0.284409,0.0821959752,-0.147832521,0.268393,0.191241349,-0.233090256,0.347733,0.135095027,-0.19746535,0.31196,0.109456115,-0.179561042,0.293658,0.102709712,-0.163884157,0.278132,0.191506729,-0.264361937,0.360203,0.143130871,-0.22618323,0.329764,0.122592338,-0.209472477,0.315779,0.105376982,-0.195173738,0.303439
0.235940823,-0.250118291,0.415801,0.209993959,-0.227711162,0.377042,0.235065415,-0.225148457,0.405652,0.197259629,-0.190071164,0.385056,0.164631741,-0.161820797,0.369142,0.141501321,-0.146654899,0.354952,0.186359856,-0.185367444,0.3393,0.134357195,-0.161220565,0.308035,0.111406011,-0.149766133,0.292403,0.091990298,-0.139305533,0.277407,0.180466141,-0.210344523,0.341181,0.122802868,-0.178464315,0.30652,0.0931313004,-0.160865016,0.28617,0.0737669882,-0.14878104,0.27163,0.178086382,-0.2327364,0.346381,0.125291154,-0.196385685,0.312517,0.101819447,-0.17914775,0.295191,0.0997438823,-0.163058085,0.278527,0.179761938,-0.262018125,0.358978,0.133620911,-0.22490785,0.330395,0.115236637,-0.207806381,0.317262,0.100669985,-0.192848149,0.305674
0.225492349,-0.241124389,0.410334,0.184428096,-0.218791549,0.373645,0.208945517,-0.209561836,0.398477,0.174558236,-0.175764053,0.376939,0.144560944,-0.148632229,0.361005,0.12110315,-0.134412431,0.347404,0.160731715,-0.179186609,0.335046,0.113894449,-0.156010159,0.30541,0.0935041458,-0.145102126,0.290592,0.0760326752,-0.134511029,0.274981,0.157603795,-0.205825793,0.3397,0.105858471,-0.175397141,0.307131,0.0798572991,-0.15877694,0.287938,0.0631289137,-0.147431571,0.274203,0.15775586,-0.229181036,0.346988,0.107431714,-0.199142987,0.314333,0.0852994827,-0.184637288,0.297625,0.081831164,-0.173617254,0.280102,0.162851008,-0.258786255,0.361683,0.121032312,-0.222100418,0.334428,0.10539396,-0.206035253,0.321906,0.0936870012,-0.192481719,0.310857
0.223090575,-0.239591247,0.410449,0.184463141,-0.218833124,0.373716,0.208969113,-0.209585502,0.398522,0.174517484,-0.175723019,0.376851,0.144455227,-0.148523536,0.360741,0.120981491,-0.134277401,0.347055,0.160709168,-0.179161473,0.334999,0.113840002,-0.155935579,0.305264,0.0934414005,-0.145004756,0.290397,0.0759842874,-0.134425425,0.274806,0.157617714,-0.20584397,0.33973,0.105841927,-0.175369729,0.307083,0.0798295649,-0.158721797,0.287838,0.0630973726,-0.14735791,0.274066,0.15779996,-0.229245103,0.347085,0.107431031,-0.19914172,0.314331,0.085284866,-0.184605649,0.297574,0.0818235682,-0.173601138,0.280076,0.162933405,-0.258917193,0.361866,0.121067779,-0.222165502,0.334526,0.10541295,-0.206072376,0.321964,0.093693933,-0.19249596,0.31088
0.23533929,-0.250596618,0.415929,0.199569955,-0.224434628,0.386493,0.235822744,-0.22887613,0.41229,0.224403728,-0.195200965,0.407101,0.21977674,-0.16364802,0.40124,0.208954428,-0.140792647,0.390588,0.182009143,-0.17739823,0.363028,0.140521773,-0.148064488,0.34538,0.120676808,-0.133968025,0.336557,0.100784619,-0.118682591,0.320938,0.169939809,-0.197281685,0.359259,0.119332365,-0.170414665,0.336475,0.0917106964,-0.155424777,0.323179,0.0728679965,-0.145037869,0.313683,0.163002228,-0.216578034,0.358929,0.112293246,-0.189474404,0.336038,0.0883026377,-0.176211783,0.324327,0.0661749554,-0.160451588,0.30579,0.160361523,-0.244051568,0.363486,0.119328317,-0.220411425,0.346597,0.102081573,-0.209736746,0.338836,0.0914907554,-0.19987627,0.331989
0.230269771,-0.246953136,0.416052,0.201818203,-0.226799932,0.391595,0.235870067,-0.230523961,0.414288,0.228124989,-0.197881784,0.413878,0.231641386,-0.172061737,0.423045,0.225617408,-0.15023978,0.418187,0.186357068,-0.182242097,0.373708,0.146258659,-0.154436097,0.361284,0.126670338,-0.140828742,0.355072,0.10607136,-0.125020422,0.339606,0.173766294,-0.202172777,0.368967,0.124099741,-0.178099438,0.351856,0.0963011531,-0.164471363,0.341875,0.0769942725,-0.15493115,0.334746,0.166311001,-0.221148135,0.367368,0.116853571,-0.197009345,0.350191,0.0929892797,-0.185118363,0.341402,0.0701386182,-0.169228701,0.323041,0.162884603,-0.247506966,0.369604,0.123360299,-0.226829967,0.357729,0.106520739,-0.217419827,0.352274,0.0960747842,-0.208745627,0.34746
0.230429614,-0.248315176,0.417754,0.202440888,-0.227445477,0.393052,0.236358796,-0.231677435,0.415957,0.229024726,-0.198477127,0.415519,0.232262912,-0.172383346,0.424228,0.226605464,-0.150309507,0.418846,0.186650516,-0.182731172,0.374966,0.146436659,-0.154733177,0.362326,0.126788591,-0.141029413,0.356005,0.106173274,-0.125178141,0.340546,0.174092214,-0.202701467,0.370198,0.124212435,-0.178553944,0.352823,0.0962924233,-0.164880838,0.342688,0.076900867,-0.15530788,0.335449,0.166695196,-0.221716787,0.3686,0.117136935,-0.197434119,0.351208,0.0932488115,-0.185487617,0.342309,0.0704147697,-0.169620372,0.323962,0.163387268,-0.248143252,0.370877,0.123788385,-0.227277099,0.358779,0.106935978,-0.217793728,0.35322,0.0964174592,-0.2091127,0.348316
0.230300365,-0.248157214,0.417818,0.203437123,-0.227535974,0.394987,0.237096309,-0.231732407,0.416861,0.230988862,-0.198763505,0.418003,0.233331228,-0.172429494,0.426221,0.227210568,-0.150153904,0.420442,0.184261933,-0.180575767,0.379171,0.144887806,-0.154532429,0.368521,0.125718738,-0.141828382,0.363196,0.107190957,-0.127228877,0.347942,0.174146089,-0.203085487,0.373865,0.124932448,-0.180499513,0.358545,0.0962847723,-0.166556011,0.349608,0.0779663049,-0.158675406,0.343225,0.166794571,-0.22186155,0.371648,0.118259692,-0.199152349,0.356487,0.0950890284,-0.186784893,0.348731,0.072776498,-0.172623931,0.330631,0.163910799,-0.248367196,0.372886,0.125332932,-0.228244641,0.362656,0.10902641,-0.219404477,0.357956,0.0989506522,-0.211401232,0.353809
0.231042344,-0.248711075,0.418999,0.204070151,-0.227855861,0.39653,0.237773203,-0.231979961,0.417823,0.231866122,-0.198565849,0.418704,0.234007617,-0.172248057,0.426963,0.227776572,-0.149926867,0.421116,0.184757094,-0.181598523,0.380664,0.145600642,-0.155165685,0.370174,0.126530184,-0.142268682,0.364929,0.107416746,-0.127489139,0.349566,0.172200415,-0.201685141,0.375741,0.123845491,-0.179663602,0.360783,0.0969115513,-0.167247157,0.352058,0.0785019707,-0.15938276,0.345826,0.165193619,-0.220609859,0.373805,0.117727297,-0.198451034,0.359196,0.0956991596,-0.187813611,0.351722,0.0748793411,-0.172836274,0.333617,0.164091377,-0.248638237,0.375312,0.125419051,-0.229594172,0.365328,0.108944057,-0.220915964,0.360741,0.0986344133,-0.213325966,0.356693
0.232139415,-0.249816038,0.420837,0.204652438,-0.228246871,0.397871,0.238505486,-0.232759117,0.419568,0.23306507,-0.198957516,0.420278,0.23462726,-0.172250581,0.427765,0.228203074,-0.149807494,0.421656,0.185119863,-0.182134873,0.38157,0.145801387,-0.155337263,0.370631,0.126681127,-0.142280305,0.365161,0.107321981,-0.127372035,0.34979,0.172435584,-0.202236064,0.376623,0.123891355,-0.179762899,0.361135,0.0969071698,-0.167108752,0.3521,0.0784285635,-0.159006294,0.345647,0.16535718,-0.221191023,0.374714,0.11772465,-0.198556528,0.359589,0.0956656647,-0.187691319,0.35185,0.0748957703,-0.172641276,0.333726,0.164126435,-0.248905165,0.376336,0.125113186,-0.229753933,0.365899,0.108495781,-0.221021021,0.361104,0.0981756479,-0.2133023,0.356873
0.2333064,-0.251080745,0.422633,0.205229555,-0.228705134,0.399143,0.239357561,-0.233791153,0.421291,0.234171797,-0.199448089,0.421851,0.235144843,-0.172306698,0.428474,0.228531777,-0.14973777,0.422086,0.185490295,-0.182589432,0.382413,0.145962162,-0.15548737,0.371013,0.126769143,-0.142300114,0.365313,0.107260947,-0.127296487,0.349945,0.172711235,-0.202697471,0.37741,0.12393176,-0.179837896,0.361362,0.0968716712,-0.166982187,0.352,0.0783311005,-0.158658072,0.345313,0.165586544,-0.221679725,0.375504,0.117740761,-0.198638764,0.359839,0.0956247386,-0.187582756,0.351825,0.0748845544,-0.17249915,0.333694,0.164235629,-0.249213613,0.377217,0.124918277,-0.229877467,0.366307,0.10818117,-0.221059206,0.361294,0.0978126118,-0.213207513,0.356871
0.23395143,-0.251632374,0.423192,0.205390758,-0.228745704,0.399569,0.239781317,-0.233865473,0.421782,0.234561342,-0.199439513,0.422236,0.235383437,-0.172238902,0.428733,0.228738552,-0.149659293,0.422335,0.185589853,-0.182741565,0.382666,0.146009771,-0.155525368,0.371118,0.126801398,-0.142288928,0.365345,0.107187569,-0.127207236,0.349958,0.172798587,-0.20288297,0.377712,0.123962437,-0.179892241,0.361517,0.0968858793,-0.166967483,0.352069,0.0783174823,-0.158523343,0.345321,0.165671498,-0.221902735,0.375859,0.117767404,-0.198716776,0.360041,0.0956374502,-0.187590692,0.351947,0.0749052397,-0.172477072,0.333797,0.164231301,-0.249309202,0.377658,0.124783445,-0.229974156,0.366612,0.107988459,-0.221152103,0.361537,0.0975922566,-0.213249108,0.357058
0.236010005,-0.253093034,0.423668,0.205542141,-0.228806103,0.399951,0.24013617,-0.23394749,0.422208,0.234888126,-0.199452774,0.422578,0.235567157,-0.172184733,0.428931,0.228915281,-0.149608602,0.422558,0.185700509,-0.182886626,0.382926,0.146075759,-0.155587169,0.371275,0.12685197,-0.142314062,0.36545,0.107157876,-0.127170342,0.35005,0.172900111,-0.203057513,0.378008,0.124013616,-0.179973075,0.36171,0.0969195577,-0.166999384,0.352203,0.0783265971,-0.158461612,0.345412,0.165771419,-0.22210948,0.376194,0.117811432,-0.198813108,0.360256,0.0956656485,-0.187634692,0.352101,0.0749346228,-0.172498169,0.333935,0.164256307,-0.249423824,0.378054,0.124706441,-0.23009128,0.366912,0.107865796,-0.22126686,0.361793,0.0974409656,-0.213325367,0.357277
0.238389152,-0.254321523,0.424002,0.205897469,-0.228627849,0.400235,0.240756615,-0.233881723,0.422666,0.23565596,-0.199158402,0.423254,0.235976182,-0.172215792,0.429479,0.229107432,-0.149637259,0.423091,0.185785857,-0.182613411,0.383336,0.145894959,-0.155562302,0.371718,0.126526717,-0.142522574,0.365909,0.106241312,-0.127316678,0.350562,0.173094174,-0.202780506,0.378246,0.124130173,-0.180114717,0.361905,0.0971271265,-0.167430924,0.352373,0.0785760066,-0.158624201,0.345564,0.16608397,-0.221838885,0.376294,0.118402194,-0.199639625,0.360234,0.095755267,-0.187942044,0.352017,0.0750193435,-0.17299793,0.333862,0.16456004,-0.249115851,0.378001,0.125192079,-0.230343228,0.366853,0.108367109,-0.221298093,0.361731,0.0980703668,-0.213243494,0.357211
0.238666904,-0.25304072,0.422817,0.205614785,-0.227401161,0.399223,0.241047801,-0.232955637,0.422153,0.236068281,-0.199387773,0.423961,0.236425937,-0.172254399,0.430448,0.229499802,-0.149702433,0.424102,0.18565159,-0.182230623,0.383291,0.145670875,-0.155790281,0.372196,0.126219303,-0.143121809,0.366648,0.10588975,-0.128299524,0.351571,0.172879099,-0.202038933,0.377394,0.124513232,-0.180627219,0.361284,0.0975113419,-0.169814128,0.351886,0.07941781,-0.1622841,0.345173,0.166488801,-0.221599894,0.374762,0.117961911,-0.198998709,0.358707,0.0955340004,-0.189663376,0.350494,0.0736283143,-0.175018029,0.332468,0.167628051,-0.245778486,0.375642,0.127258584,-0.230230641,0.364833,0.110998049,-0.22191756,0.359866,0.101494323,-0.214330955,0.355484
