sluyters/QuantumLeap/src/datasets/gesture/HandGestureDataset_SHREC2017_csv/Gesture8/finger_2/subject_5_essai_3_skeletons_world.csv
Wrist_x,Wrist_y,Wrist_z,Palm_x,Palm_y,Palm_z,thumb_base_x,thumb_base_y,thumb_base_z,thumb_first_joint_x,thumb_first_joint_y,thumb_first_joint_z,thumb_second_joint_x,thumb_second_joint_y,thumb_second_joint_z,thumb_tip_x,thumb_tip_y,thumb_tip_z,index_base_x,index_base_y,index_base_z,index_first_joint_x,index_first_joint_y,index_first_joint_z,index_second_joint_x,index_second_joint_y,index_second_joint_z,index_tip_x,index_tip_y,index_tip_z,middle_base_x,middle_base_y,middle_base_z,middle_first_joint_x,middle_first_joint_y,middle_first_joint_z,middle_second_joint_x,middle_second_joint_y,middle_second_joint_z,middle_tip_x,middle_tip_y,middle_tip_z,ring_base_x,ring_base_y,ring_base_z,ring_first_joint_x,ring_first_joint_y,ring_first_joint_z,ring_second_joint_x,ring_second_joint_y,ring_second_joint_z,ring_tip_x,ring_tip_y,ring_tip_z,pinky_base_x,pinky_base_y,pinky_base_z,pinky_first_joint_x,pinky_first_joint_y,pinky_first_joint_z,pinky_second_joint_x,pinky_second_joint_y,pinky_second_joint_z,pinky_tip_x,pinky_tip_y,pinky_tip_z,
0.52009819,-0.38279611,0.56095,0.52541849,-0.34058563,0.560915,0.505397,-0.36985459,0.563354,0.48787778,-0.34327731,0.563128,0.46852894,-0.3174406,0.558193,0.46451934,-0.30109714,0.561309,0.51077271,-0.30080471,0.563851,0.50336717,-0.26106595,0.558416,0.4995315,-0.24349532,0.555698,0.49609923,-0.22693514,0.553228,0.53024044,-0.30260493,0.560882,0.52560951,-0.25900437,0.554392,0.52287248,-0.2340372,0.550606,0.52088768,-0.21650149,0.547902,0.5460497,-0.30728184,0.558443,0.54204054,-0.26675323,0.552406,0.54001714,-0.24581318,0.549318,0.53794132,-0.22810921,0.54651,0.56433672,-0.31841985,0.555542,0.5751205,-0.28747192,0.559332,0.58093916,-0.27370784,0.561072,0.58533053,-0.2613134,0.562609
0.52008237,-0.38291114,0.560942,0.52540005,-0.3406658,0.560816,0.50524794,-0.36986546,0.563146,0.48780873,-0.34310191,0.562661,0.46867944,-0.3173318,0.55791,0.46498558,-0.30138583,0.561511,0.51060868,-0.30082833,0.56345,0.50329993,-0.26136815,0.557879,0.4990823,-0.24322017,0.555152,0.49558836,-0.22654169,0.552672,0.53022552,-0.30276066,0.560699,0.5256105,-0.25906178,0.554078,0.52288705,-0.23404519,0.550216,0.52090193,-0.2164677,0.547457,0.54617065,-0.30757582,0.558445,0.54207741,-0.2667862,0.552297,0.53999337,-0.24582626,0.549151,0.53820276,-0.22731034,0.546291,0.56461139,-0.31888845,0.555779,0.57553468,-0.28776608,0.559309,0.580858,-0.2736088,0.560931,0.58516973,-0.26111071,0.562362
0.52041281,-0.38371902,0.561251,0.52555535,-0.3414146,0.560968,0.50585723,-0.37092873,0.56377,0.48849341,-0.34363132,0.563547,0.4689251,-0.31752886,0.558193,0.46499162,-0.30134512,0.561401,0.51100762,-0.30103782,0.563896,0.50546694,-0.26241778,0.560629,0.50241307,-0.24424994,0.558996,0.50016241,-0.22889849,0.55751,0.53040428,-0.30307488,0.560709,0.52551493,-0.25954174,0.554059,0.52273573,-0.23444609,0.55018,0.52070049,-0.21683611,0.54741,0.54585004,-0.30749104,0.558106,0.54173014,-0.2665857,0.551807,0.53962581,-0.24571314,0.548585,0.53780881,-0.22718809,0.545655,0.56385738,-0.31862408,0.555045,0.57429074,-0.28739061,0.558112,0.57941304,-0.27334289,0.55952,0.58393269,-0.26051997,0.560763
0.52340316,-0.38563006,0.563467,0.52607551,-0.34173869,0.560924,0.50748084,-0.37208567,0.56468,0.48885283,-0.34415595,0.563504,0.46903632,-0.31766114,0.558014,0.46493271,-0.30154693,0.560576,0.50833051,-0.29953806,0.560903,0.50369386,-0.26148813,0.558372,0.50131695,-0.24384536,0.557106,0.49904792,-0.22813993,0.555956,0.52848762,-0.30197893,0.558612,0.52158894,-0.25846775,0.549691,0.51742486,-0.23286743,0.544486,0.51439615,-0.21487536,0.540769,0.54499317,-0.30701347,0.556907,0.53856477,-0.26496888,0.548336,0.53528246,-0.24353478,0.543951,0.53240137,-0.22465425,0.539964,0.56448094,-0.31880352,0.555217,0.5706268,-0.2854073,0.554313,0.57579337,-0.27090863,0.553898,0.57940574,-0.25834955,0.555469
0.52423614,-0.38719878,0.565795,0.52397387,-0.34094115,0.559355,0.50973863,-0.37431318,0.568384,0.48919698,-0.34481262,0.565935,0.46960145,-0.31707396,0.559247,0.46576884,-0.30130262,0.561418,0.50638379,-0.2983325,0.558711,0.50158209,-0.25722576,0.549275,0.50045922,-0.2404309,0.550567,0.49990246,-0.22611531,0.551742,0.52351703,-0.29941695,0.553505,0.52037009,-0.25827278,0.54153,0.51776226,-0.23220112,0.534544,0.51913448,-0.21496057,0.532882,0.53797477,-0.30660266,0.549675,0.5327279,-0.2671674,0.538459,0.52992907,-0.24533394,0.53272,0.5253453,-0.23883878,0.527503,0.55352878,-0.32298845,0.545977,0.55426988,-0.2861223,0.537272,0.55450494,-0.27013993,0.533273,0.55474212,-0.25593755,0.529743
0.51982943,-0.38470016,0.562684,0.51954024,-0.33828802,0.555205,0.50833389,-0.37341565,0.568065,0.48676479,-0.34092568,0.567349,0.47209442,-0.3133356,0.564303,0.47163758,-0.29675707,0.566831,0.5071468,-0.29706815,0.55738,0.51277211,-0.25677145,0.553834,0.5100207,-0.23970961,0.552061,0.50575831,-0.22337556,0.550449,0.52092456,-0.29835543,0.54841,0.51847001,-0.25449115,0.536717,0.51601216,-0.22887257,0.529896,0.51617044,-0.21242404,0.527696,0.53161727,-0.30432985,0.541557,0.52721427,-0.26181473,0.529559,0.52932946,-0.23887956,0.523421,0.51892374,-0.23241285,0.51784,0.54335002,-0.31648022,0.534399,0.54512905,-0.27989054,0.522639,0.54283349,-0.26694133,0.517236,0.54087605,-0.25530796,0.512468
0.50653868,-0.38619347,0.565086,0.50343145,-0.34004022,0.551539,0.49673076,-0.37062316,0.568442,0.47796563,-0.33447445,0.565238,0.47030429,-0.30743686,0.562378,0.47140446,-0.28996764,0.563603,0.49968211,-0.29179262,0.54761,0.49933342,-0.25119989,0.536048,0.49544614,-0.23576058,0.530268,0.49195281,-0.22136776,0.525012,0.51059767,-0.29904593,0.539231,0.50686696,-0.25537895,0.521696,0.5046358,-0.22993368,0.511467,0.50132058,-0.21419273,0.504161,0.51949971,-0.30737693,0.533293,0.5147765,-0.26769158,0.516638,0.51247227,-0.24709104,0.508116,0.50744826,-0.22534823,0.50037,0.52905609,-0.32320487,0.528033,0.52632139,-0.29136938,0.512149,0.52518254,-0.2765474,0.504852,0.5242422,-0.26335745,0.498412
0.48023083,-0.37866548,0.549673,0.4859055,-0.33556283,0.532577,0.48511369,-0.36399896,0.557056,0.47501389,-0.33267842,0.558364,0.46669293,-0.3058945,0.558315,0.46608751,-0.2892915,0.557922,0.49111775,-0.29019765,0.531494,0.48613365,-0.24918352,0.519195,0.48365766,-0.22859282,0.513046,0.48019927,-0.21271382,0.509347,0.49180493,-0.29424895,0.517045,0.48489643,-0.2494678,0.499359,0.48087312,-0.22332141,0.489042,0.47800197,-0.20463348,0.481672,0.49193664,-0.30077203,0.506363,0.49079448,-0.25711062,0.489482,0.48470067,-0.23603391,0.480846,0.47918523,-0.21671551,0.472995,0.49130562,-0.31463738,0.49593,0.48658261,-0.27865492,0.476822,0.48168694,-0.26276955,0.468042,0.47739336,-0.24868739,0.460296
0.47212435,-0.38174024,0.552962,0.46475592,-0.33349158,0.529198,0.47522098,-0.36389294,0.558263,0.46079277,-0.32833384,0.55712,0.4536806,-0.30014496,0.555809,0.44800477,-0.27931976,0.550334,0.47005452,-0.28547484,0.521585,0.45746947,-0.24450494,0.499871,0.45118641,-0.22398054,0.489014,0.44548052,-0.20529703,0.479144,0.46644206,-0.2922105,0.50761,0.46903575,-0.25031911,0.483006,0.45235245,-0.22775795,0.468654,0.43074301,-0.21830693,0.458402,0.46338133,-0.30099685,0.497787,0.47541957,-0.2618995,0.487672,0.48144215,-0.24210629,0.482497,0.47427863,-0.22466839,0.477793,0.45955126,-0.31764081,0.489267,0.46102375,-0.28564437,0.465615,0.43968233,-0.27629529,0.454748,0.41723006,-0.27516561,0.445159
0.47462541,-0.38076011,0.553927,0.46166383,-0.33197848,0.528721,0.4732569,-0.36374144,0.558755,0.4600095,-0.3287677,0.557154,0.45315714,-0.3000627,0.555204,0.44947371,-0.27900153,0.549665,0.45265488,-0.28091807,0.519666,0.44676214,-0.2400725,0.499564,0.44381496,-0.21965178,0.489513,0.44387074,-0.20344827,0.480376,0.45135945,-0.28667503,0.505822,0.44747634,-0.24341182,0.483005,0.44518813,-0.21821937,0.469696,0.4362828,-0.2015618,0.460189,0.45092915,-0.29487103,0.496208,0.4502203,-0.25083757,0.48288,0.44978266,-0.22854261,0.47606,0.43407906,-0.21515072,0.469861,0.45160893,-0.31121221,0.488129,0.44777115,-0.27881283,0.461326,0.42364619,-0.27240205,0.44901,0.40118314,-0.27140307,0.438144
0.44898807,-0.41378887,0.583354,0.44722205,-0.36075937,0.549457,0.44470138,-0.39023047,0.58079,0.43716534,-0.35031646,0.568143,0.43367565,-0.31747391,0.559604,0.43507185,-0.29594386,0.551358,0.43958344,-0.30331859,0.526131,0.45861782,-0.27541956,0.514327,0.44301812,-0.26877763,0.508426,0.42855657,-0.26264507,0.503061,0.44427912,-0.31417948,0.518663,0.46613656,-0.28096961,0.513495,0.47905551,-0.2614035,0.51048,0.47553086,-0.24960425,0.508327,0.4485818,-0.32693369,0.514909,0.39729364,-0.30814278,0.485874,0.37117866,-0.2985306,0.471019,0.34834382,-0.30312244,0.457514,0.45442087,-0.34949567,0.514963,0.43634276,-0.32052742,0.485339,0.42387909,-0.30797086,0.471728,0.40350324,-0.29974923,0.459719
0.43036842,-0.39617457,0.562522,0.42585442,-0.34509069,0.535216,0.43011013,-0.37703014,0.565594,0.426268,-0.33810511,0.561294,0.42156796,-0.30816207,0.557497,0.42394686,-0.28734691,0.551288,0.42364208,-0.29374219,0.52275,0.42818111,-0.25711563,0.497519,0.40430819,-0.2483798,0.484904,0.37890552,-0.24716101,0.473435,0.42374313,-0.30191839,0.510409,0.39592867,-0.26185708,0.47981,0.37936138,-0.23857429,0.46196,0.36752454,-0.22191558,0.449211,0.42403402,-0.3120236,0.50218,0.39763311,-0.27086389,0.475758,0.38394887,-0.24985589,0.46224,0.37150411,-0.23073209,0.449951,0.4247716,-0.33051478,0.496029,0.42185691,-0.30255765,0.466732,0.39753236,-0.29488893,0.453271,0.37430331,-0.28911946,0.441393
0.43081109,-0.39048301,0.558504,0.42158995,-0.3386888,0.527498,0.42827638,-0.36975256,0.558985,0.41595203,-0.341309,0.549889,0.39953802,-0.32078794,0.542128,0.39124184,-0.30255576,0.532061,0.4119659,-0.28529374,0.509641,0.40710554,-0.24849932,0.484153,0.38129472,-0.24038498,0.471409,0.35565313,-0.2370527,0.459823,0.41244751,-0.29488218,0.49933,0.36885551,-0.25592769,0.469113,0.34476939,-0.23360823,0.451486,0.31926869,-0.22874472,0.438896,0.41092169,-0.3062614,0.493033,0.37237162,-0.26750666,0.46796,0.35271644,-0.24776803,0.455132,0.33221475,-0.23210747,0.44347,0.41367241,-0.3269699,0.489674,0.39363813,-0.28487869,0.466833,0.37044675,-0.28331457,0.456338,0.35701248,-0.28854033,0.447078
0.42916787,-0.38837445,0.557534,0.41552011,-0.33804031,0.526488,0.42682415,-0.36795378,0.558441,0.40484253,-0.34110227,0.549556,0.38859097,-0.32093232,0.542372,0.38029173,-0.30276844,0.532435,0.40002889,-0.28390588,0.509131,0.39652839,-0.24843619,0.48403,0.37093418,-0.24042118,0.47148,0.34558918,-0.23718055,0.460071,0.39894353,-0.29377226,0.498283,0.35781617,-0.25551851,0.468363,0.33391391,-0.2333102,0.45091,0.30868673,-0.22850915,0.438444,0.39913133,-0.30533771,0.491546,0.36104264,-0.26691901,0.466932,0.34161219,-0.24733578,0.454338,0.32131719,-0.23180391,0.44289,0.40135975,-0.32563177,0.48767,0.38181192,-0.28390899,0.465244,0.35897679,-0.2824466,0.45494,0.34598467,-0.28774647,0.445848
0.42215896,-0.38826927,0.560294,0.40411427,-0.33536204,0.531519,0.42232286,-0.36960055,0.564098,0.39586239,-0.34959229,0.559953,0.38054483,-0.33183519,0.556405,0.37262167,-0.31589602,0.548955,0.40077646,-0.28330578,0.519081,0.35901496,-0.2563712,0.496936,0.33807798,-0.24287,0.485863,0.31437613,-0.24295255,0.475797,0.39687488,-0.28923573,0.505378,0.33891338,-0.27176023,0.478973,0.30592492,-0.26161838,0.46357,0.28708891,-0.26511214,0.452568,0.39428983,-0.29778143,0.496131,0.34561581,-0.27806114,0.475743,0.31864696,-0.27839735,0.465312,0.30435832,-0.28290989,0.455997,0.39236752,-0.31498264,0.488966,0.34435928,-0.2974642,0.4702,0.32275519,-0.29566111,0.461577,0.3054418,-0.2961868,0.453969
0.40487008,-0.38589802,0.558411,0.39220046,-0.33445878,0.52988,0.40612666,-0.367327,0.562186,0.38317505,-0.34840663,0.557848,0.36737799,-0.33055762,0.554099,0.35922735,-0.31459964,0.546576,0.38914103,-0.28250252,0.517552,0.34765964,-0.2557931,0.495821,0.32684533,-0.24239487,0.484955,0.30347524,-0.24257619,0.475077,0.38527261,-0.28848657,0.503961,0.32757253,-0.27101456,0.477562,0.29474669,-0.26087568,0.462164,0.27626593,-0.26436224,0.451165,0.38269004,-0.29707081,0.49479,0.33399235,-0.27733135,0.474364,0.30654609,-0.27626372,0.463914,0.28920155,-0.28005574,0.454444,0.38071956,-0.31430175,0.487682,0.33291846,-0.29673668,0.468845,0.31150852,-0.29490856,0.46019,0.29440453,-0.29540955,0.452554
0.38843477,-0.38585948,0.558208,0.37076799,-0.33444679,0.529861,0.379018,-0.36725439,0.561954,0.36063567,-0.34822988,0.557565,0.34404376,-0.33031184,0.553687,0.33545724,-0.31429343,0.546044,0.36815972,-0.28253145,0.517605,0.32672891,-0.25592208,0.496071,0.30592833,-0.24256881,0.485303,0.28302845,-0.24279983,0.475515,0.36425989,-0.28857072,0.504108,0.30702656,-0.27110423,0.47772,0.27448494,-0.26096769,0.462327,0.25668704,-0.2644601,0.451332,0.36161441,-0.29719809,0.495002,0.31286657,-0.27744009,0.47455,0.28587879,-0.27636674,0.464087,0.26934259,-0.28016482,0.454621,0.35949637,-0.31447124,0.487945,0.3121462,-0.29687275,0.46906,0.2911326,-0.29503225,0.460383,0.27445097,-0.29552248,0.452727
0.37256701,-0.38619835,0.558803,0.36047155,-0.33470265,0.530414,0.37412149,-0.36765693,0.562656,0.35015017,-0.3487392,0.558527,0.3333524,-0.3309665,0.554901,0.32474566,-0.31509588,0.547528,0.35813219,-0.28286946,0.518265,0.31663925,-0.2562419,0.496687,0.29580842,-0.24288084,0.485897,0.27311485,-0.24309914,0.476089,0.35407716,-0.2888215,0.504623,0.29717036,-0.27142038,0.478346,0.26481698,-0.26132154,0.463018,0.24738417,-0.26484065,0.452069,0.35128926,-0.29736993,0.4954,0.30266202,-0.27770912,0.475103,0.27596784,-0.27668133,0.464719,0.25986945,-0.28051528,0.455312,0.34898009,-0.31453859,0.488211,0.30201736,-0.29704435,0.469477,0.28126669,-0.29524754,0.46087,0.26484647,-0.29577622,0.453275
0.37999916,-0.39114667,0.570334,0.35488497,-0.33483912,0.544349,0.36933557,-0.37236861,0.571517,0.3290165,-0.36111349,0.563051,0.30755512,-0.33790625,0.560158,0.2904168,-0.32115183,0.553651,0.32176786,-0.28849811,0.530345,0.284853,-0.30137349,0.511109,0.27637013,-0.31352624,0.501491,0.28764897,-0.32228978,0.504981,0.33261542,-0.28944741,0.520743,0.2961951,-0.24919342,0.493738,0.26906612,-0.24897592,0.477985,0.25324813,-0.25632155,0.466733,0.34337548,-0.29378479,0.514676,0.29925812,-0.27031912,0.492325,0.28563171,-0.28459645,0.48089,0.29632435,-0.2990146,0.483971,0.35963454,-0.30571956,0.510921,0.31652261,-0.31115272,0.49016,0.31096921,-0.30960836,0.480622,0.31377827,-0.31353923,0.482197
0.38220014,-0.39292667,0.575732,0.35225474,-0.33485192,0.545176,0.36885869,-0.37453619,0.576051,0.32582646,-0.36292041,0.566972,0.30800229,-0.33950383,0.563919,0.29095146,-0.32218511,0.557253,0.31296348,-0.28663812,0.527386,0.27492704,-0.29832429,0.50571,0.26649489,-0.30935516,0.494872,0.27930427,-0.31593091,0.495285,0.32299689,-0.28715521,0.517416,0.28367362,-0.24626066,0.487303,0.25560094,-0.24538625,0.469737,0.23953478,-0.25186925,0.457189,0.33338235,-0.29126071,0.511367,0.28686707,-0.26717842,0.486273,0.27292536,-0.27868871,0.473434,0.28399598,-0.292039,0.473159,0.34981063,-0.30319184,0.508245,0.30585483,-0.30758404,0.485348,0.31078949,-0.31554561,0.490924,0.32293833,-0.32541825,0.501144
0.3872835,-0.39611066,0.582432,0.35478885,-0.339698,0.552932,0.37386269,-0.37951476,0.583974,0.34970138,-0.37152608,0.576846,0.32449048,-0.35139628,0.574289,0.30913405,-0.33674945,0.56558,0.31622911,-0.29692746,0.537278,0.28328516,-0.26415386,0.511552,0.26246657,-0.2670544,0.49869,0.2577823,-0.28246865,0.497536,0.32475376,-0.29515493,0.526133,0.29521448,-0.2507312,0.504377,0.26939794,-0.23811885,0.491686,0.25389402,-0.2452106,0.482621,0.33424315,-0.29720537,0.519042,0.28827512,-0.29210884,0.495588,0.28178517,-0.30435076,0.483588,0.29362341,-0.31201341,0.483418,0.35026685,-0.30635777,0.51454,0.31080407,-0.3160477,0.493016,0.32012229,-0.3254745,0.498303,0.3314521,-0.33695269,0.507928
0.3885162,-0.396028,0.583656,0.3555828,-0.34042373,0.553802,0.37450413,-0.38010511,0.58504,0.35023365,-0.37209156,0.577724,0.32482893,-0.35176279,0.574888,0.30938767,-0.33702571,0.566044,0.31650162,-0.29718334,0.537741,0.2831146,-0.26399481,0.511244,0.26210131,-0.26668275,0.497996,0.25723206,-0.28186571,0.496474,0.32509077,-0.29546123,0.526679,0.29558732,-0.25104786,0.505014,0.269776,-0.23845301,0.492376,0.25427648,-0.24557997,0.483348,0.33465593,-0.2975724,0.519683,0.28848161,-0.29231808,0.495943,0.28190695,-0.3044823,0.483797,0.29360701,-0.31199599,0.483391,0.35081144,-0.30683409,0.51534,0.31116656,-0.3164163,0.493591,0.32038633,-0.32574295,0.498714,0.33173139,-0.33723662,0.508356
0.38927143,-0.39621306,0.58492,0.35557411,-0.34103133,0.554577,0.37471636,-0.38066915,0.58608,0.34983059,-0.37259733,0.5785,0.32392639,-0.35213336,0.575123,0.30855663,-0.33763426,0.566012,0.31585891,-0.29734624,0.53795,0.28231872,-0.26411383,0.511195,0.26122726,-0.26675577,0.497817,0.25621535,-0.2817572,0.496024,0.32450783,-0.29577176,0.527012,0.29485828,-0.25124613,0.505061,0.26894197,-0.23861238,0.492257,0.25336916,-0.24569388,0.48311,0.33414654,-0.29802194,0.520151,0.28768845,-0.29260473,0.496016,0.28051797,-0.30468659,0.483668,0.29160885,-0.3126882,0.482934,0.35043876,-0.30748717,0.516034,0.31056506,-0.31686328,0.493974,0.31965268,-0.32599681,0.49887,0.33101085,-0.33746366,0.508532
0.38826452,-0.39325201,0.582598,0.35538348,-0.33611739,0.553868,0.37500712,-0.37910265,0.585551,0.35185591,-0.36465833,0.58096,0.32534817,-0.35455,0.576585,0.31699985,-0.35067401,0.567267,0.31953877,-0.28930311,0.540409,0.28160242,-0.26311992,0.51898,0.26284899,-0.27108911,0.508266,0.2646535,-0.28522279,0.507309,0.32399257,-0.28722672,0.527768,0.2989844,-0.24213388,0.509597,0.27146173,-0.23388368,0.498998,0.2576514,-0.24822992,0.491427,0.33025437,-0.28906462,0.519393,0.28795706,-0.30229619,0.497802,0.2666692,-0.3087548,0.486756,0.2656107,-0.32321559,0.485995,0.34267316,-0.29806117,0.513258,0.30388533,-0.30860548,0.493355,0.31407796,-0.32056048,0.497616,0.32738594,-0.33426189,0.506274
0.38109738,-0.38565692,0.572601,0.3525357,-0.33255065,0.550599,0.37069124,-0.3737894,0.578897,0.3433805,-0.36238496,0.579817,0.32256187,-0.36799284,0.573389,0.307575,-0.36231442,0.567489,0.3276556,-0.28610204,0.545259,0.29028517,-0.25810554,0.526095,0.26754674,-0.26099761,0.516513,0.26453127,-0.2769322,0.517644,0.32665792,-0.28688267,0.530612,0.30364864,-0.24407694,0.515944,0.27877256,-0.25046981,0.507388,0.27306423,-0.26336146,0.501277,0.3300551,-0.28851998,0.520111,0.28495227,-0.29825334,0.504685,0.2878193,-0.30599853,0.496793,0.30564025,-0.30478097,0.499424,0.3380174,-0.29690343,0.51055,0.29397638,-0.30104852,0.495672,0.28308622,-0.3104893,0.501787,0.27637524,-0.320932,0.509394
0.39007353,-0.38951787,0.585909,0.35753446,-0.33060519,0.559046,0.37948949,-0.36930926,0.589105,0.35225994,-0.35703673,0.584701,0.32879266,-0.35853561,0.579708,0.31543229,-0.35850361,0.571465,0.32681282,-0.28515966,0.546996,0.30747253,-0.2451097,0.529706,0.28546136,-0.24355641,0.521061,0.27952708,-0.26106007,0.527115,0.32919798,-0.28577666,0.534641,0.27870832,-0.25942364,0.508368,0.26250551,-0.27263427,0.493043,0.27206016,-0.28245143,0.492643,0.33388247,-0.29087532,0.52637,0.28672485,-0.29856524,0.505621,0.29865242,-0.31593079,0.513781,0.32199067,-0.31959373,0.525418,0.34439687,-0.30168154,0.52011,0.30461322,-0.30851916,0.500799,0.31633686,-0.31858088,0.506615,0.32905022,-0.32986168,0.515667
0.3963988,-0.38984635,0.591353,0.37146082,-0.32983122,0.562152,0.38680453,-0.3678791,0.59306,0.36421679,-0.35915043,0.586129,0.34248773,-0.36236463,0.580215,0.3225605,-0.35377939,0.570721,0.33550728,-0.28445625,0.546879,0.31759146,-0.2457357,0.528242,0.29537859,-0.24393781,0.518924,0.28946085,-0.26134974,0.524835,0.33989999,-0.28625231,0.535624,0.2890928,-0.26024734,0.50712,0.27176863,-0.27265968,0.490493,0.28049545,-0.28184275,0.489214,0.34610506,-0.29120448,0.528422,0.29885792,-0.29961941,0.505245,0.30867244,-0.31717899,0.512898,0.33139594,-0.32268932,0.525315,0.35839258,-0.30373712,0.523747,0.3165521,-0.31098433,0.502447,0.32779488,-0.32069916,0.507831,0.34075649,-0.33225975,0.517415
0.4024566,-0.38100851,0.59251,0.37152583,-0.32848569,0.561392,0.39068809,-0.3632823,0.593906,0.36404891,-0.357519,0.585455,0.34444221,-0.36322464,0.580798,0.32866259,-0.35654589,0.570842,0.33494178,-0.2821168,0.544594,0.31457485,-0.24417151,0.524442,0.2919155,-0.24314528,0.514366,0.28601391,-0.26008528,0.519046,0.33936255,-0.28421594,0.533122,0.28830722,-0.25785875,0.503584,0.27039258,-0.26980342,0.486353,0.27784672,-0.27781955,0.483273,0.34562312,-0.28946086,0.525878,0.29468819,-0.29589119,0.501831,0.3047568,-0.31254115,0.507344,0.32668712,-0.3184057,0.519257,0.35804815,-0.30242695,0.521407,0.31464978,-0.30810822,0.499506,0.32355317,-0.31731765,0.50322,0.3315031,-0.33021545,0.512368
0.41157628,-0.37818978,0.593547,0.38263501,-0.32746818,0.561202,0.3978977,-0.36277302,0.594115,0.37169545,-0.35188711,0.58386,0.34857468,-0.35460764,0.578999,0.33057302,-0.34579609,0.568264,0.34504751,-0.27995268,0.542656,0.31869136,-0.2443,0.519965,0.29531867,-0.2453041,0.508619,0.29048336,-0.26169481,0.511585,0.35012465,-0.28281574,0.531818,0.29860296,-0.25603908,0.501161,0.27961621,-0.26753884,0.483277,0.28624145,-0.27511707,0.47962,0.35697104,-0.28873261,0.525181,0.30724222,-0.29322529,0.499893,0.31301577,-0.30985874,0.504964,0.3347528,-0.31657678,0.5172,0.37017569,-0.302585,0.521598,0.32441787,-0.30653685,0.498698,0.33167676,-0.31610349,0.50205,0.33949463,-0.32842996,0.511408
0.41872475,-0.3773386,0.593493,0.39363459,-0.32711524,0.561253,0.41067712,-0.36179819,0.594296,0.38298918,-0.35123286,0.584068,0.36028974,-0.35380718,0.57976,0.34237821,-0.34476927,0.569128,0.35667533,-0.27937682,0.543058,0.33065169,-0.24348394,0.520496,0.30708796,-0.24421704,0.509215,0.30180039,-0.26032439,0.511817,0.36133692,-0.28220446,0.531964,0.30985134,-0.25493689,0.501552,0.29017496,-0.26642625,0.483812,0.29633029,-0.27413047,0.479997,0.36782247,-0.28811065,0.52511,0.31768132,-0.29215307,0.500136,0.32298047,-0.30872801,0.504914,0.34464807,-0.31559733,0.516907,0.38056039,-0.30198634,0.521253,0.33430773,-0.30559983,0.498632,0.34121864,-0.31518578,0.501762,0.35160135,-0.32755083,0.510937
0.42244421,-0.37228865,0.585663,0.39149867,-0.3221101,0.554013,0.41386483,-0.35712322,0.586782,0.38424998,-0.34653628,0.577188,0.36199384,-0.34846893,0.572911,0.34137655,-0.33988996,0.562543,0.35482683,-0.27507135,0.536556,0.33173069,-0.23765555,0.514814,0.30858162,-0.23845914,0.503943,0.3011371,-0.25636886,0.506714,0.36218053,-0.27594241,0.525259,0.31384583,-0.24328429,0.495303,0.291652,-0.25460157,0.47783,0.29626421,-0.26456305,0.474406,0.36887052,-0.28106171,0.518195,0.3193813,-0.28537917,0.493708,0.32494402,-0.30285344,0.49888,0.34353345,-0.31095181,0.510834,0.38187374,-0.29405867,0.514011,0.33593672,-0.29851542,0.491767,0.34300494,-0.30879836,0.49521,0.35022207,-0.32246544,0.504374
0.42312433,-0.3729358,0.584965,0.39342192,-0.31906788,0.55017,0.40759931,-0.35612856,0.583191,0.38501781,-0.33995312,0.567758,0.36502496,-0.32466043,0.558005,0.34965177,-0.30290394,0.544746,0.35714326,-0.26712334,0.527281,0.33397336,-0.23025182,0.505372,0.31276697,-0.22895709,0.494417,0.30741796,-0.24623139,0.498737,0.36664966,-0.26869673,0.518559,0.31760788,-0.23599712,0.485227,0.29668122,-0.24725938,0.465783,0.3007367,-0.25646486,0.46149,0.37690835,-0.2739498,0.513836,0.32905185,-0.28273757,0.485375,0.3178298,-0.29865573,0.490399,0.32287341,-0.32210895,0.503898,0.39375692,-0.28785366,0.512856,0.34582281,-0.29087662,0.487354,0.35027807,-0.30117459,0.490619,0.35943317,-0.31465688,0.500861
0.43185781,-0.37194368,0.580586,0.41391884,-0.31745975,0.547079,0.42928037,-0.35747358,0.579656,0.40457248,-0.33831038,0.564421,0.38731316,-0.32519208,0.557843,0.37197421,-0.3037274,0.544876,0.37637514,-0.26681593,0.525997,0.35302961,-0.2301423,0.503938,0.33187812,-0.22898723,0.492909,0.32652137,-0.24606705,0.496783,0.38556497,-0.26804779,0.516639,0.33693476,-0.23626199,0.484374,0.31589485,-0.24788261,0.465553,0.32007227,-0.25741037,0.462054,0.3955291,-0.27293709,0.511302,0.34824641,-0.28256938,0.484031,0.3381958,-0.29907182,0.489813,0.34347539,-0.32235611,0.503135,0.41196507,-0.28623324,0.509421,0.36425837,-0.2899068,0.484848,0.36890813,-0.3004278,0.488718,0.37807001,-0.31373658,0.498867
0.44241703,-0.36711121,0.570797,0.41640177,-0.31091756,0.53875,0.42771027,-0.35185099,0.571153,0.4074945,-0.33146455,0.556872,0.39063944,-0.31802689,0.551977,0.3719806,-0.29860745,0.539726,0.38131866,-0.26084058,0.520119,0.35796484,-0.22354612,0.498893,0.33628911,-0.22183791,0.488279,0.33062132,-0.23874195,0.492264,0.38881931,-0.26148258,0.509636,0.34015525,-0.22896902,0.478896,0.31870111,-0.24091019,0.460965,0.32016522,-0.2532103,0.457923,0.39732097,-0.26588353,0.503269,0.34956955,-0.27536784,0.47778,0.33893467,-0.29123218,0.483717,0.34129994,-0.31617151,0.496382,0.41188615,-0.27860057,0.499968,0.36408368,-0.28215084,0.476851,0.36913349,-0.29327207,0.48087,0.37499863,-0.30762455,0.490564
0.4562627,-0.37118192,0.573078,0.43667011,-0.31385972,0.53952,0.44113182,-0.35419881,0.572074,0.42393286,-0.33597078,0.557426,0.40585796,-0.3208858,0.55083,0.39071304,-0.29851218,0.53808,0.40341807,-0.26018666,0.518317,0.35788046,-0.24418356,0.490521,0.33512727,-0.2361829,0.476622,0.32106803,-0.23372587,0.473747,0.41202816,-0.2616008,0.509034,0.3581966,-0.25966653,0.476696,0.33920394,-0.27060968,0.457833,0.33950779,-0.28138326,0.454342,0.42128901,-0.26686179,0.503762,0.37036008,-0.27083354,0.476399,0.36365658,-0.29084065,0.482215,0.3705904,-0.31352772,0.495587,0.43646034,-0.28109016,0.501965,0.38545059,-0.27992241,0.477314,0.3892693,-0.29171815,0.481209,0.39809064,-0.30610679,0.491395
0.46859003,-0.37912019,0.584073,0.45807588,-0.3268559,0.548462,0.45481114,-0.35972498,0.57733,0.43385814,-0.32921658,0.560236,0.41403977,-0.30309512,0.544739,0.40347485,-0.27974403,0.531101,0.42416701,-0.27073265,0.51897,0.38536338,-0.24891207,0.487519,0.36591227,-0.23798131,0.471793,0.35485077,-0.23238833,0.466239,0.44178693,-0.27898528,0.51611,0.39426575,-0.28535464,0.4786,0.36765596,-0.29282551,0.456719,0.35932399,-0.30567934,0.453847,0.45768195,-0.28951693,0.516269,0.40803968,-0.29408157,0.480117,0.40472617,-0.31333491,0.488245,0.40828119,-0.33819251,0.50609,0.47926402,-0.30922412,0.521207,0.42934579,-0.30742902,0.491813,0.4219157,-0.31913688,0.497546,0.4222692,-0.33243631,0.510113
0.48550897,-0.38082702,0.584747,0.48028638,-0.32889211,0.551595,0.47837653,-0.35967268,0.579924,0.47246188,-0.34590384,0.569117,0.47532788,-0.35108232,0.557614,0.47904498,-0.34530555,0.548349,0.45132749,-0.27377328,0.525932,0.40604419,-0.27187053,0.492525,0.38574128,-0.27888808,0.475822,0.38278434,-0.29370939,0.474246,0.46671091,-0.28274285,0.521478,0.41605359,-0.28790603,0.485624,0.39248991,-0.29272665,0.46471,0.39390996,-0.29370409,0.463189,0.48052357,-0.29373629,0.520151,0.4485207,-0.27548131,0.485844,0.44305403,-0.29672932,0.49531,0.45379378,-0.31258123,0.512945,0.4991516,-0.31372511,0.522993,0.44724367,-0.30888789,0.495535,0.43770581,-0.31716405,0.502366,0.44297923,-0.3236905,0.514679
0.4975142,-0.37383356,0.575406,0.49477442,-0.3233177,0.544204,0.4932097,-0.35255906,0.571541,0.48936222,-0.34079374,0.562757,0.49350613,-0.34793545,0.553266,0.49632604,-0.34230335,0.543118,0.46848485,-0.26921024,0.520879,0.43821045,-0.24857065,0.490242,0.41275067,-0.25168143,0.474923,0.40214675,-0.26446748,0.474913,0.48241137,-0.27852856,0.515858,0.44283569,-0.26274987,0.483293,0.410853,-0.27070542,0.464297,0.40747197,-0.27873817,0.464405,0.49495945,-0.28973804,0.513927,0.46331158,-0.27191624,0.481879,0.45803153,-0.29270737,0.49248,0.46872731,-0.30819068,0.509656,0.51190965,-0.30982916,0.515791,0.45996973,-0.30476189,0.489618,0.4523157,-0.31383481,0.497327,0.4595934,-0.3212378,0.509528
0.50023695,-0.37304162,0.574489,0.50261849,-0.32640534,0.543613,0.49479277,-0.35066815,0.570305,0.49682461,-0.33797917,0.562239,0.49568064,-0.34721967,0.552978,0.49825911,-0.34243574,0.542563,0.48734226,-0.27151335,0.520089,0.45917786,-0.24886639,0.490069,0.43112762,-0.24842335,0.475059,0.41763012,-0.2586748,0.475521,0.4979701,-0.28487843,0.515562,0.45864507,-0.26467999,0.483085,0.42163216,-0.26835466,0.464141,0.41598589,-0.27609227,0.464558,0.50721323,-0.29922631,0.514015,0.47729932,-0.27944977,0.483105,0.4690269,-0.29657296,0.494162,0.47392427,-0.31021916,0.511059,0.51906608,-0.32266618,0.516292,0.46518381,-0.30943475,0.490051,0.45466756,-0.31488438,0.498062,0.46015594,-0.32241215,0.510404
0.49615247,-0.35742902,0.5532,0.50480019,-0.30197047,0.519424,0.49914849,-0.33068082,0.547611,0.50126017,-0.31315598,0.53654,0.50705539,-0.31669457,0.525054,0.51139807,-0.30895845,0.513098,0.48336438,-0.2442446,0.492446,0.45877406,-0.21709527,0.460174,0.43264184,-0.21603511,0.444038,0.41831378,-0.22657147,0.442699,0.49674511,-0.25587999,0.48874,0.46215829,-0.23139571,0.453953,0.42559288,-0.23587715,0.433661,0.41644244,-0.24456639,0.432332,0.50858835,-0.26911913,0.488072,0.48243157,-0.24396172,0.454273,0.47511815,-0.26124349,0.463632,0.48254945,-0.27845456,0.481018,0.52423238,-0.29197106,0.491783,0.47272453,-0.27866053,0.463651,0.46328814,-0.28548258,0.47033,0.46539008,-0.29498348,0.482821
0.51105318,-0.35447876,0.59304,0.50493529,-0.32601393,0.555039,0.52160343,-0.33497241,0.589812,0.5322225,-0.30334522,0.574454,0.52418461,-0.272813,0.562204,0.52209422,-0.25394814,0.549371,0.51441171,-0.27930591,0.528452,0.45018311,-0.2416928,0.492764,0.4231796,-0.24358832,0.47492,0.4210744,-0.24923062,0.464939,0.49981162,-0.29305412,0.520515,0.43165487,-0.25188468,0.483117,0.40101143,-0.24831236,0.461301,0.3995005,-0.25193303,0.45173,0.48818671,-0.30672508,0.516665,0.41826699,-0.2665511,0.478602,0.40667253,-0.27264332,0.47736,0.42548825,-0.29015232,0.489859,0.47506464,-0.32742583,0.517151,0.42388845,-0.28959261,0.491071,0.41173184,-0.2888753,0.489831,0.42020872,-0.30233633,0.498529
0.51357399,-0.35567861,0.589234,0.51572556,-0.3305444,0.555706,0.52898362,-0.33968684,0.59032,0.50941444,-0.3166418,0.585228,0.4917998,-0.29564585,0.586529,0.47956287,-0.27608383,0.579066,0.53720415,-0.28985908,0.537093,0.47502283,-0.24895943,0.504503,0.44432433,-0.23080599,0.488209,0.42453503,-0.22787868,0.478267,0.51623765,-0.29854635,0.525246,0.45163644,-0.25491117,0.491843,0.43809572,-0.26381489,0.48934,0.45581467,-0.28176042,0.500637,0.49910196,-0.30792331,0.517864,0.43319891,-0.26411778,0.482302,0.41912405,-0.27271461,0.479999,0.43760442,-0.29412505,0.493439,0.4789393,-0.32328599,0.51355,0.43937853,-0.28219959,0.49259,0.43884173,-0.28174795,0.490781,0.45196908,-0.29519845,0.497456
0.5211636,-0.37203019,0.57842,0.52314743,-0.32675053,0.545737,0.53242673,-0.34337832,0.579773,0.51299317,-0.3213425,0.574019,0.49297795,-0.29620739,0.569174,0.47843864,-0.27698769,0.56048,0.5326932,-0.28054375,0.527955,0.48759502,-0.24335311,0.501257,0.4652752,-0.2250489,0.487907,0.45147861,-0.21156615,0.482559,0.51847689,-0.29021068,0.516045,0.50002831,-0.24680713,0.48626,0.46869808,-0.2232618,0.468885,0.44607079,-0.21675775,0.463325,0.50445909,-0.29854424,0.508551,0.5065545,-0.2659799,0.476992,0.48379796,-0.25107031,0.469452,0.47249182,-0.25762855,0.477277,0.49427333,-0.31951354,0.503991,0.44530124,-0.28553391,0.482277,0.44111433,-0.28330162,0.48342,0.45484382,-0.29329226,0.491506
0.53347129,-0.36947946,0.576707,0.54367172,-0.32446929,0.551051,0.53893541,-0.35157057,0.579715,0.51347604,-0.32784976,0.57434,0.49044911,-0.29726462,0.566393,0.47728944,-0.27621655,0.557613,0.54409372,-0.27535143,0.539489,0.49869549,-0.24761146,0.510215,0.47607652,-0.23380609,0.495578,0.46741377,-0.22705274,0.494815,0.54572319,-0.28193092,0.527744,0.51385092,-0.24203064,0.501395,0.49525307,-0.2187226,0.486025,0.48337081,-0.22120172,0.486682,0.54705789,-0.29070674,0.519889,0.52234897,-0.24826771,0.493791,0.50355107,-0.23073487,0.480439,0.4975857,-0.22252355,0.481016,0.54860778,-0.30767251,0.513963,0.523445,-0.28518772,0.492268,0.51377456,-0.28963637,0.499332,0.51901096,-0.29931251,0.509706
0.51813277,-0.3867456,0.565432,0.52431245,-0.33944366,0.552413,0.50567819,-0.36789901,0.564957,0.48873914,-0.33348977,0.557896,0.47095207,-0.30286321,0.545635,0.46665368,-0.28190987,0.541566,0.51253491,-0.29009067,0.544082,0.50627919,-0.25145947,0.527484,0.50321312,-0.23194773,0.519185,0.50046496,-0.21408728,0.511641,0.52931306,-0.29777017,0.540585,0.52231905,-0.25687277,0.522489,0.51835857,-0.23267163,0.511933,0.51558878,-0.21521465,0.504393,0.54286303,-0.30734029,0.538627,0.53961343,-0.26363977,0.520908,0.53596988,-0.24614576,0.511843,0.55159733,-0.2380813,0.521386,0.55851863,-0.32498455,0.538032,0.5632266,-0.29074037,0.522351,0.56500079,-0.27563265,0.515146,0.57644591,-0.27607522,0.522246
0.52717009,-0.39133373,0.572289,0.53049633,-0.34376307,0.557919,0.51410941,-0.37331695,0.571861,0.50075087,-0.34542504,0.565666,0.47792984,-0.31368486,0.550394,0.47301534,-0.29364077,0.54655,0.5163935,-0.29458499,0.548842,0.50920524,-0.25463715,0.531252,0.50559458,-0.23470428,0.522457,0.5023381,-0.21650029,0.514462,0.53311689,-0.30146276,0.544865,0.52500849,-0.25948486,0.5257,0.52031958,-0.23492187,0.514521,0.51701047,-0.21726537,0.506536,0.54672772,-0.3103928,0.542605,0.54132481,-0.26615058,0.523875,0.53725941,-0.24740141,0.514293,0.55229315,-0.23831375,0.523266,0.56269549,-0.32728273,0.541834,0.56425562,-0.29331646,0.525049,0.56191711,-0.280062,0.517338,0.5769914,-0.27642838,0.523923
0.53201838,-0.39322796,0.574051,0.53411236,-0.34569704,0.560354,0.51579625,-0.37437012,0.570997,0.49996408,-0.34575518,0.562606,0.47634629,-0.31428414,0.547278,0.47041499,-0.29415947,0.542769,0.51469564,-0.29705779,0.548444,0.5078608,-0.25505729,0.530532,0.50410552,-0.23486393,0.521576,0.50070697,-0.2164551,0.513434,0.53572919,-0.30325417,0.547911,0.5271632,-0.26071412,0.528624,0.52222006,-0.23587818,0.517373,0.51875024,-0.21822732,0.509336,0.55255575,-0.3129701,0.548438,0.54422169,-0.26743407,0.529663,0.54018948,-0.24837035,0.520058,0.55710369,-0.24039498,0.529458,0.57359735,-0.32734306,0.550893,0.57531635,-0.29516256,0.535054,0.5738373,-0.27653541,0.527777,0.57500729,-0.26285209,0.522324
0.53206208,-0.39292137,0.5723,0.53509967,-0.34646095,0.560931,0.51525292,-0.37445327,0.569065,0.49930364,-0.34588144,0.561153,0.47597528,-0.31461294,0.546523,0.46968048,-0.29434948,0.541909,0.51547734,-0.29839517,0.550183,0.51040034,-0.25716098,0.534025,0.50752342,-0.23712678,0.525946,0.50493272,-0.21882997,0.518601,0.53767133,-0.30478484,0.550602,0.53000903,-0.26246691,0.533205,0.52467007,-0.23627156,0.523057,0.52296208,-0.21970348,0.515808,0.55509842,-0.3142222,0.551749,0.55402084,-0.27033341,0.541115,0.55528365,-0.25143169,0.535675,0.55679479,-0.23408816,0.530729,0.57649712,-0.3291754,0.55463,0.5787278,-0.29507256,0.540626,0.57981509,-0.27930831,0.534192,0.58080909,-0.26534578,0.528515
0.53995185,-0.39592305,0.575424,0.54244737,-0.34989787,0.564605,0.52282337,-0.37887741,0.572807,0.51406496,-0.35244225,0.572055,0.49450926,-0.32382174,0.565087,0.48710872,-0.30386109,0.556827,0.52193937,-0.30158972,0.554964,0.51441109,-0.26087258,0.539338,0.51114751,-0.24069474,0.531524,0.50914253,-0.22170632,0.524421,0.54335521,-0.30809511,0.554806,0.5341825,-0.26281207,0.537986,0.52932669,-0.23702426,0.528174,0.52587094,-0.21855279,0.521166,0.56168617,-0.31580676,0.555441,0.55899173,-0.2722217,0.544966,0.55958739,-0.25302359,0.539607,0.56024666,-0.23525065,0.534735,0.58545363,-0.33130263,0.557643,0.58280282,-0.29599548,0.544033,0.58275636,-0.27885194,0.53778,0.58407971,-0.26588115,0.532262
0.54127926,-0.39572884,0.574466,0.54755305,-0.35108648,0.565081,0.52546085,-0.38007801,0.571546,0.5146003,-0.35333027,0.571081,0.49599287,-0.32572767,0.565301,0.48744519,-0.30491194,0.555441,0.5229615,-0.30292086,0.555917,0.51585576,-0.26236171,0.541375,0.5114249,-0.24254272,0.534103,0.51030763,-0.22369188,0.527493,0.54455784,-0.30902545,0.556581,0.53632282,-0.26422104,0.540907,0.53135099,-0.23833257,0.531764,0.52785801,-0.21989034,0.525233,0.56438981,-0.31692567,0.55779,0.56109107,-0.27317077,0.54744,0.56108948,-0.25337951,0.542144,0.56117605,-0.23511131,0.53733,0.58825153,-0.33192079,0.560484,0.59089366,-0.29636098,0.552038,0.59323358,-0.27905467,0.550959,0.5970936,-0.26601771,0.550007
0.54390709,-0.39626917,0.572942,0.54929964,-0.35281187,0.566546,0.52691048,-0.38116004,0.571555,0.51796679,-0.35677125,0.571506,0.4977518,-0.32862429,0.564582,0.49030231,-0.3073633,0.558674,0.52846844,-0.30852141,0.561044,0.52102578,-0.2691394,0.552362,0.51987054,-0.25498474,0.548021,0.51891655,-0.24171997,0.544074,0.55037046,-0.31256185,0.560754,0.54214123,-0.26772301,0.547932,0.53523363,-0.24193711,0.540453,0.53456629,-0.22402097,0.535111,0.56835885,-0.31904541,0.560967,0.56219322,-0.27490598,0.549968,0.56042267,-0.25411922,0.54434,0.55767318,-0.23441726,0.54083,0.58965096,-0.33273649,0.562075,0.59664605,-0.29895673,0.560708,0.6002866,-0.28531172,0.563218,0.60541891,-0.27313809,0.565433
0.5449013,-0.3967258,0.572795,0.54991198,-0.35350761,0.567009,0.52782777,-0.3818458,0.571509,0.51844086,-0.3572998,0.571451,0.49790885,-0.32899441,0.56435,0.49125743,-0.30829339,0.559751,0.52908058,-0.30953947,0.561995,0.5222841,-0.2697894,0.553696,0.52131816,-0.25569476,0.549547,0.5205389,-0.24247569,0.545775,0.55108627,-0.31341423,0.56177,0.54291277,-0.26857116,0.549493,0.53655024,-0.24288283,0.542331,0.53552372,-0.22498975,0.537216,0.56915157,-0.31974891,0.561993,0.56257338,-0.27559686,0.550808,0.56006328,-0.2544698,0.545085,0.55711636,-0.23479214,0.541459,0.59051997,-0.33323991,0.563032,0.59769684,-0.29986325,0.562376,0.60158796,-0.28593025,0.564439,0.60630332,-0.2735371,0.566259
0.54853062,-0.39857579,0.575355,0.55357065,-0.35538567,0.570736,0.52830401,-0.38174704,0.570924,0.51648483,-0.35536268,0.568745,0.49631712,-0.32744835,0.562056,0.49002105,-0.3073974,0.558467,0.52899328,-0.30957908,0.562538,0.5253229,-0.27094488,0.557784,0.52449765,-0.25151513,0.555407,0.52529851,-0.2350192,0.553245,0.55391813,-0.3156569,0.566552,0.55117716,-0.27172032,0.563707,0.55188206,-0.24780096,0.562048,0.55240297,-0.23053279,0.560862,0.57545038,-0.32317466,0.570181,0.56064334,-0.27581672,0.558218,0.56143044,-0.25687492,0.552098,0.55876676,-0.23908366,0.546533,0.5985548,-0.33430345,0.575117,0.59614478,-0.29733825,0.567707,0.60019858,-0.28492929,0.564302,0.60259056,-0.27100458,0.561298
0.54784582,-0.39748682,0.573667,0.55557662,-0.35628529,0.572656,0.52840123,-0.38139948,0.57015,0.51681861,-0.35457817,0.568192,0.49643576,-0.32690896,0.561763,0.49321637,-0.31076076,0.563264,0.53285883,-0.31267898,0.567725,0.52736813,-0.27186055,0.560586,0.52499642,-0.25198641,0.557016,0.52416368,-0.23481872,0.553771,0.55749651,-0.31606963,0.571741,0.55895543,-0.27614985,0.572434,0.56048195,-0.25387673,0.574586,0.5621043,-0.23768229,0.576123,0.57838551,-0.32312422,0.575117,0.56820364,-0.28004463,0.565953,0.56415624,-0.25895523,0.561264,0.56156939,-0.2404342,0.561123,0.60317792,-0.33730123,0.579268,0.59592414,-0.30072918,0.572049,0.59972097,-0.28618625,0.568732,0.60142459,-0.27448247,0.565805
0.54861969,-0.39733403,0.573685,0.55547513,-0.35577361,0.572435,0.53165738,-0.38233126,0.570096,0.52003839,-0.35296356,0.565394,0.49635129,-0.3292942,0.560998,0.49138345,-0.32146806,0.566843,0.53268284,-0.31200494,0.567274,0.52779935,-0.27215819,0.563934,0.52837892,-0.25457745,0.562263,0.52895655,-0.23820609,0.560745,0.55815993,-0.31716091,0.571304,0.55807312,-0.27572504,0.572102,0.55909548,-0.2524255,0.572568,0.55982802,-0.23565425,0.5729,0.57805857,-0.3224566,0.574708,0.56894547,-0.2808777,0.568841,0.56777349,-0.26109501,0.565839,0.57211778,-0.24414489,0.56477,0.60278422,-0.33643613,0.578924,0.60039919,-0.30202907,0.576849,0.60569436,-0.29673942,0.575896,0.61110969,-0.29300043,0.575055
0.54967779,-0.39758688,0.574274,0.55605148,-0.35594019,0.573176,0.52957226,-0.38150981,0.570208,0.52039638,-0.35298453,0.56534,0.49701892,-0.32838671,0.561401,0.49550364,-0.3167023,0.568242,0.5324937,-0.31200642,0.567517,0.52281872,-0.27181767,0.562979,0.52213216,-0.25447133,0.56071,0.52342051,-0.23771567,0.558647,0.55850424,-0.31727436,0.572182,0.55758554,-0.27590048,0.572791,0.55510536,-0.25206878,0.573147,0.55649004,-0.23585178,0.573706,0.57893009,-0.32290213,0.576098,0.56546302,-0.28026359,0.569644,0.56496429,-0.26125766,0.566343,0.56290927,-0.24340354,0.563341,0.60433116,-0.33703001,0.580903,0.60076014,-0.30203509,0.57828,0.59961418,-0.28550638,0.577075,0.6006239,-0.27206042,0.576011
0.55165739,-0.39804293,0.574725,0.55633067,-0.3559615,0.573578,0.53132746,-0.3822924,0.570661,0.52090018,-0.3532154,0.565666,0.49762076,-0.32899455,0.562031,0.49581725,-0.31760193,0.569116,0.53253367,-0.31211406,0.567893,0.52240219,-0.27192695,0.563076,0.52152902,-0.25450721,0.560667,0.52233888,-0.23784342,0.558477,0.55848737,-0.31720606,0.57254,0.55699684,-0.27585947,0.572901,0.55437931,-0.25204165,0.573112,0.55527381,-0.23564369,0.573466,0.57896174,-0.32289533,0.576444,0.56497055,-0.28040096,0.569937,0.56424056,-0.26144327,0.566608,0.56240249,-0.24391534,0.563582,0.60437574,-0.33689303,0.581242,0.60031605,-0.30172383,0.578396,0.59962872,-0.28551331,0.577089,0.60054465,-0.27202452,0.575935
0.55443476,-0.39813951,0.575788,0.55771371,-0.35529671,0.5752,0.53363744,-0.38262531,0.5715,0.52147076,-0.35256321,0.565902,0.49680471,-0.32825425,0.561569,0.49559912,-0.31686864,0.568963,0.53182395,-0.31113782,0.569569,0.52887679,-0.27409758,0.570113,0.52794331,-0.25183145,0.570386,0.52762493,-0.2348345,0.570634,0.5565909,-0.31095266,0.574667,0.54903545,-0.26818808,0.568894,0.54879906,-0.24844199,0.569125,0.54815496,-0.23171878,0.569289,0.57843893,-0.31683898,0.578903,0.56231424,-0.27483348,0.57122,0.56192013,-0.26088479,0.567289,0.56233175,-0.24391085,0.563715,0.60466766,-0.32958266,0.584022,0.60632205,-0.29649853,0.584525,0.60797968,-0.28126121,0.584756,0.60944322,-0.26780912,0.58496
0.55547366,-0.39757886,0.575797,0.55786129,-0.35439082,0.575303,0.53452295,-0.38245346,0.57157,0.52161139,-0.3519659,0.565799,0.49694472,-0.32831103,0.561734,0.49548293,-0.3171095,0.569295,0.5317267,-0.31052913,0.569802,0.52909486,-0.27349027,0.570383,0.52820895,-0.25195816,0.570673,0.52790417,-0.23495878,0.570936,0.55677298,-0.31105439,0.574855,0.54892543,-0.26813434,0.56878,0.54740109,-0.24697265,0.567857,0.54607116,-0.22992047,0.567198,0.57858281,-0.31691779,0.579047,0.56212819,-0.27474255,0.571031,0.56154312,-0.26018822,0.56693,0.56168417,-0.24364744,0.563202,0.60474945,-0.32962725,0.584101,0.60648698,-0.29657918,0.584684,0.60818347,-0.28135548,0.584952,0.60968076,-0.2679135,0.585188
