sluyters/QuantumLeap/backend/src/datasets/gesture/HandGestureDataset_SHREC2017_csv/Gesture11/finger_1/subject_11_essai_4_skeletons_world.csv
Wrist_x,Wrist_y,Wrist_z,Palm_x,Palm_y,Palm_z,thumb_base_x,thumb_base_y,thumb_base_z,thumb_first_joint_x,thumb_first_joint_y,thumb_first_joint_z,thumb_second_joint_x,thumb_second_joint_y,thumb_second_joint_z,thumb_tip_x,thumb_tip_y,thumb_tip_z,index_base_x,index_base_y,index_base_z,index_first_joint_x,index_first_joint_y,index_first_joint_z,index_second_joint_x,index_second_joint_y,index_second_joint_z,index_tip_x,index_tip_y,index_tip_z,middle_base_x,middle_base_y,middle_base_z,middle_first_joint_x,middle_first_joint_y,middle_first_joint_z,middle_second_joint_x,middle_second_joint_y,middle_second_joint_z,middle_tip_x,middle_tip_y,middle_tip_z,ring_base_x,ring_base_y,ring_base_z,ring_first_joint_x,ring_first_joint_y,ring_first_joint_z,ring_second_joint_x,ring_second_joint_y,ring_second_joint_z,ring_tip_x,ring_tip_y,ring_tip_z,pinky_base_x,pinky_base_y,pinky_base_z,pinky_first_joint_x,pinky_first_joint_y,pinky_first_joint_z,pinky_second_joint_x,pinky_second_joint_y,pinky_second_joint_z,pinky_tip_x,pinky_tip_y,pinky_tip_z,
0.40023944,-0.28867553,0.578505,0.39676484,-0.24295476,0.574674,0.37475519,-0.26884154,0.570344,0.36165521,-0.23390347,0.560143,0.34670776,-0.2015162,0.548026,0.34470491,-0.17862317,0.544342,0.36263429,-0.18458297,0.561615,0.34302916,-0.14056552,0.54675,0.33507401,-0.11954151,0.539317,0.32808616,-0.1003765,0.53256,0.39183513,-0.19021359,0.569965,0.39391454,-0.16432788,0.557438,0.39477295,-0.149313,0.550131,0.39675449,-0.15688388,0.544911,0.41625086,-0.19769664,0.577087,0.41794105,-0.18325954,0.562131,0.40745421,-0.20268622,0.554479,0.40938645,-0.2231176,0.566742,0.44735162,-0.21290683,0.586152,0.44111017,-0.20836439,0.571856,0.43965923,-0.2242268,0.565288,0.4497472,-0.24383723,0.574265
0.39979104,-0.28860507,0.578341,0.39622027,-0.2431687,0.574538,0.37424821,-0.26887659,0.570203,0.36145639,-0.23423485,0.560567,0.34608303,-0.20173572,0.547956,0.3467151,-0.18040758,0.544706,0.36210284,-0.18480433,0.561531,0.34245293,-0.14081354,0.546697,0.33452225,-0.11985205,0.53928,0.32759196,-0.10077148,0.532538,0.39130072,-0.19040443,0.569864,0.39326699,-0.16455064,0.557366,0.39413189,-0.14922666,0.550076,0.39600917,-0.15713922,0.544869,0.41571544,-0.19786232,0.57697,0.41730351,-0.18346058,0.562047,0.40687078,-0.20297076,0.554412,0.40884108,-0.22307794,0.566691,0.4467021,-0.21291584,0.586013,0.44046038,-0.2085281,0.571745,0.43906472,-0.22437396,0.565189,0.44917244,-0.24394703,0.574179
0.39915522,-0.28807568,0.577775,0.39559473,-0.24284575,0.574076,0.3736301,-0.26846817,0.569729,0.36245157,-0.23252782,0.560795,0.34557892,-0.20126032,0.54766,0.34355675,-0.17864386,0.542705,0.36162803,-0.18448228,0.561266,0.34201634,-0.14053187,0.546555,0.33399267,-0.11949151,0.539199,0.3269109,-0.10028062,0.532512,0.3907826,-0.1900422,0.569528,0.39274363,-0.16421519,0.557138,0.39444605,-0.14799232,0.549911,0.39549272,-0.15682743,0.544748,0.41515507,-0.19746396,0.576569,0.41748281,-0.18290563,0.561771,0.4063607,-0.20277026,0.5542,0.4077787,-0.22159987,0.566541,0.44518701,-0.21214548,0.58552,0.43979267,-0.20819016,0.571355,0.43846414,-0.22404295,0.564847,0.44861486,-0.24360239,0.573884
0.40257473,-0.29098273,0.582463,0.39445058,-0.24318229,0.571137,0.37482269,-0.26983593,0.571387,0.36011992,-0.23680599,0.555493,0.33666078,-0.2000399,0.530297,0.33272849,-0.17682101,0.517631,0.35306577,-0.18179264,0.548251,0.32951755,-0.13685804,0.526781,0.31970206,-0.11578095,0.516045,0.32059936,-0.098631115,0.522088,0.38219359,-0.18753844,0.557216,0.38001802,-0.16043731,0.537161,0.37849317,-0.14408252,0.525463,0.37677189,-0.15032797,0.517107,0.40695145,-0.19524474,0.565339,0.40437768,-0.18002275,0.543056,0.39046246,-0.19769124,0.531655,0.39009304,-0.2130682,0.540965,0.43831736,-0.21058215,0.5766,0.42912573,-0.20524703,0.555954,0.4251978,-0.21941019,0.546468,0.43307928,-0.23648525,0.553091
0.40573496,-0.29284073,0.585447,0.39979114,-0.24795643,0.572598,0.3768178,-0.2710208,0.572825,0.37056998,-0.24085537,0.554269,0.34779645,-0.20646638,0.528286,0.34037462,-0.18305722,0.514487,0.35950965,-0.18358699,0.546568,0.33068809,-0.13820316,0.523267,0.31930328,-0.11565063,0.511617,0.31897425,-0.099393835,0.517916,0.38938471,-0.18889822,0.556806,0.38242092,-0.15805019,0.535244,0.37992762,-0.13732522,0.522666,0.37919801,-0.14338518,0.513682,0.41384766,-0.19543342,0.566078,0.41302455,-0.18004721,0.541956,0.40122205,-0.19742173,0.529615,0.39936482,-0.2151051,0.537724,0.44610928,-0.21157695,0.578921,0.4315011,-0.20652475,0.556802,0.42114455,-0.21861452,0.546639,0.41831702,-0.23086279,0.552351
0.40630172,-0.29317442,0.585294,0.39872374,-0.246634,0.571801,0.37780615,-0.27176233,0.573336,0.36915947,-0.2418452,0.555526,0.34243284,-0.20822012,0.530458,0.33345355,-0.18096515,0.518051,0.3588312,-0.18369253,0.546025,0.33082992,-0.1382495,0.522673,0.31930343,-0.11594906,0.510997,0.31982245,-0.10003873,0.516371,0.38803462,-0.18873222,0.555215,0.38044561,-0.15719013,0.533038,0.37854564,-0.1361968,0.520102,0.37777475,-0.14182694,0.510861,0.41295428,-0.19596484,0.563668,0.41067164,-0.17894496,0.539304,0.39882707,-0.19624138,0.526839,0.39450838,-0.21490649,0.535161,0.4438949,-0.21074371,0.575611,0.42952072,-0.20768395,0.553181,0.4190432,-0.22013373,0.542875,0.4201002,-0.2399138,0.548719
0.40690586,-0.29429863,0.585666,0.40066448,-0.25807218,0.572735,0.38239481,-0.27791022,0.575709,0.36786684,-0.2536758,0.557214,0.345579,-0.22050412,0.53533,0.33975329,-0.19845879,0.526909,0.36042144,-0.1947883,0.549844,0.33998798,-0.14812223,0.528007,0.32981529,-0.12506728,0.517089,0.32380221,-0.10329018,0.5176,0.38866898,-0.1992365,0.55684,0.38600055,-0.17215286,0.535594,0.38408562,-0.17414386,0.523199,0.38128233,-0.18324577,0.514347,0.41260581,-0.20601998,0.563452,0.40125947,-0.176698,0.540715,0.39625913,-0.15628728,0.529082,0.41262423,-0.16809943,0.538605,0.44284502,-0.22047431,0.573108,0.43006308,-0.20630163,0.551625,0.42880396,-0.1986539,0.541755,0.43734575,-0.19795711,0.54841
0.44555254,-0.30957643,0.586896,0.41992266,-0.25907917,0.568698,0.41479932,-0.29603608,0.578151,0.38927482,-0.26719402,0.567931,0.3505612,-0.2483787,0.550698,0.33997126,-0.23089239,0.549713,0.3627429,-0.20230011,0.542829,0.34195571,-0.1543376,0.518785,0.337655,-0.13312993,0.516002,0.33427285,-0.11449827,0.513471,0.38898831,-0.1989765,0.546331,0.37199394,-0.17472972,0.520515,0.36822529,-0.17823203,0.505455,0.36818611,-0.19321643,0.496126,0.41229875,-0.19941309,0.550416,0.40658557,-0.20066083,0.526692,0.40682419,-0.21661059,0.514554,0.41680309,-0.2347534,0.523488,0.44385084,-0.20632072,0.557735,0.4253414,-0.20745878,0.533111,0.41950591,-0.22100603,0.521797,0.42629812,-0.23545457,0.527338
0.44740436,-0.31791681,0.588469,0.42563924,-0.27472018,0.570427,0.4143837,-0.30175627,0.575611,0.41179784,-0.27912192,0.560354,0.37241603,-0.25197655,0.537847,0.35477458,-0.23614026,0.53364,0.36904114,-0.21420021,0.539736,0.3456052,-0.1653518,0.514182,0.34712496,-0.15105016,0.515658,0.3486798,-0.1374435,0.516999,0.39843958,-0.21415905,0.548252,0.384394,-0.17909466,0.521738,0.38179899,-0.18490991,0.506272,0.39165834,-0.20602926,0.512734,0.42430867,-0.21732024,0.55645,0.41584542,-0.1851599,0.528595,0.41200341,-0.18541859,0.514344,0.42148141,-0.20547201,0.521029,0.458712,-0.22762347,0.568692,0.44264782,-0.2318917,0.542852,0.43478038,-0.24439453,0.53098,0.43877198,-0.25726434,0.535415
0.43983492,-0.32297058,0.575339,0.42939814,-0.27958338,0.565808,0.40865785,-0.30445205,0.563088,0.39883055,-0.26722966,0.5441,0.38989502,-0.23415529,0.530063,0.39017308,-0.21193062,0.522779,0.3834478,-0.21754852,0.543019,0.3639044,-0.17532339,0.52209,0.36500077,-0.15868921,0.527382,0.3623877,-0.14194072,0.532192,0.41465537,-0.22319409,0.554093,0.41509384,-0.19649316,0.535796,0.41306,-0.20840798,0.525123,0.42061251,-0.23148484,0.534125,0.44143988,-0.23082192,0.563832,0.44094918,-0.20759044,0.542529,0.43761798,-0.21037304,0.53163,0.4452739,-0.23168188,0.540644,0.47580553,-0.24611021,0.576798,0.46569492,-0.23827293,0.557217,0.4590012,-0.25303277,0.54822,0.46452716,-0.27208446,0.554687
0.44003416,-0.33012019,0.56735,0.43600769,-0.28840705,0.558582,0.41343753,-0.31176609,0.560543,0.40542523,-0.28403046,0.543011,0.39118327,-0.25202831,0.520285,0.39063749,-0.23149533,0.511818,0.39801621,-0.22845437,0.542993,0.37894982,-0.19211039,0.525729,0.37875803,-0.17779326,0.53036,0.37833668,-0.16365723,0.53457,0.42568679,-0.23128924,0.547804,0.41215253,-0.18882027,0.530547,0.40331711,-0.20264827,0.52048,0.41496083,-0.22822264,0.531421,0.44946345,-0.23668179,0.552343,0.43354421,-0.2292245,0.534061,0.42396651,-0.23132723,0.524708,0.42813379,-0.2583133,0.536475,0.47985276,-0.24945823,0.558957,0.4579599,-0.24737657,0.54144,0.45447693,-0.26190976,0.533392,0.46503542,-0.28143274,0.541853
0.44916657,-0.34629313,0.572078,0.44203083,-0.30453466,0.562724,0.42415386,-0.32814027,0.567014,0.41359238,-0.30417935,0.551362,0.39587631,-0.27211693,0.526829,0.39534091,-0.2527984,0.520068,0.40638453,-0.24468288,0.548743,0.3887902,-0.20669842,0.532335,0.39163565,-0.19294994,0.540326,0.39399729,-0.17918099,0.547591,0.43209462,-0.24696274,0.551228,0.41742643,-0.207291,0.53366,0.40631845,-0.20126992,0.523412,0.41082228,-0.21672655,0.534462,0.45416864,-0.25192518,0.553891,0.44244319,-0.21558162,0.536081,0.43178085,-0.22094508,0.52697,0.43755768,-0.24799535,0.539092,0.48238153,-0.26421637,0.558329,0.45403107,-0.23182213,0.541051,0.44864926,-0.23112664,0.533113,0.45891979,-0.2451487,0.541804
0.46401987,-0.36616082,0.581194,0.45847887,-0.32316006,0.569114,0.44374632,-0.35473157,0.574441,0.43062348,-0.32371695,0.556617,0.41240134,-0.29164375,0.531864,0.41255175,-0.27305341,0.526462,0.41697957,-0.26137471,0.550801,0.39865539,-0.22647463,0.531726,0.40179547,-0.21515124,0.538786,0.40447938,-0.20371748,0.545205,0.44364885,-0.26351645,0.554267,0.42722472,-0.22669271,0.533889,0.41717819,-0.21349027,0.522002,0.42150769,-0.23088592,0.531937,0.46678127,-0.26845833,0.557918,0.45235418,-0.23426436,0.537126,0.44278847,-0.2363047,0.526489,0.45017844,-0.25729563,0.537318,0.49682252,-0.28092158,0.563905,0.46979757,-0.26159804,0.5441,0.45720781,-0.25253417,0.53504,0.44705935,-0.24190123,0.528063
0.48909209,-0.38963396,0.596797,0.48317401,-0.34199928,0.57856,0.47139089,-0.37448919,0.591619,0.4526239,-0.34782095,0.57528,0.43141272,-0.32080654,0.554438,0.42510247,-0.30162821,0.543654,0.44596449,-0.2750118,0.556954,0.42060554,-0.2410515,0.535215,0.41981373,-0.23065937,0.539848,0.41877351,-0.22031129,0.544059,0.46872851,-0.27857878,0.556144,0.44051319,-0.24523992,0.530511,0.42334249,-0.232376,0.515559,0.42678182,-0.2493976,0.523233,0.48856854,-0.28493783,0.556685,0.45803662,-0.2589122,0.532343,0.44404282,-0.25699939,0.519889,0.45146144,-0.27724559,0.528718,0.51453564,-0.29956582,0.559749,0.48244751,-0.29875509,0.536618,0.46754306,-0.29855601,0.525991,0.4543676,-0.29852911,0.516695
0.49525154,-0.40333665,0.597131,0.48083922,-0.35619634,0.57855,0.46639254,-0.37959961,0.585968,0.44966035,-0.35752443,0.562804,0.43348244,-0.32895143,0.539483,0.42943493,-0.30841235,0.527197,0.43396233,-0.286573,0.549445,0.41454988,-0.25068716,0.523549,0.41777856,-0.24019536,0.526803,0.42076028,-0.22979411,0.529761,0.46280961,-0.29159005,0.555711,0.44538012,-0.25756792,0.528808,0.4364449,-0.24432676,0.513115,0.4461494,-0.26126708,0.519902,0.48782981,-0.29916053,0.562094,0.46779141,-0.27161099,0.534219,0.46096368,-0.26869946,0.519957,0.47478776,-0.28805405,0.527114,0.5204048,-0.31529102,0.572226,0.50057151,-0.31365404,0.546511,0.4915161,-0.31310372,0.534696,0.48363022,-0.31278365,0.524347
0.503585,-0.41406809,0.597121,0.49937363,-0.36391055,0.583249,0.47546321,-0.39265863,0.58839,0.46944377,-0.36765357,0.568221,0.45254459,-0.34051491,0.551941,0.44229249,-0.31772845,0.54319,0.45571097,-0.29716875,0.561043,0.43988365,-0.26932373,0.539385,0.44957886,-0.26540008,0.550051,0.45849221,-0.26091481,0.559748,0.48415932,-0.30149458,0.566198,0.46636123,-0.2941576,0.543893,0.45738243,-0.30412383,0.530881,0.46726545,-0.32875095,0.539864,0.50890845,-0.30839666,0.571358,0.49057841,-0.30529168,0.548188,0.48037674,-0.32089209,0.536334,0.48829094,-0.3439549,0.545968,0.54113675,-0.32358493,0.579394,0.51834123,-0.31952347,0.557653,0.51034915,-0.32206126,0.547663,0.50061599,-0.32325459,0.539331
0.51050498,-0.42081983,0.594993,0.49918519,-0.37249092,0.580448,0.48104894,-0.39800419,0.584983,0.46683345,-0.37442592,0.563381,0.44890632,-0.34700283,0.547154,0.43848152,-0.32488998,0.539801,0.45499741,-0.30383445,0.556133,0.44305034,-0.27342238,0.533625,0.45064216,-0.26577481,0.538423,0.45782893,-0.25802152,0.542784,0.4845599,-0.30941722,0.56257,0.46981292,-0.30006754,0.539506,0.45826526,-0.31364821,0.526053,0.46407798,-0.33856799,0.534516,0.51014352,-0.31740261,0.568828,0.49360821,-0.31440604,0.544522,0.47874932,-0.33004013,0.532087,0.48151884,-0.35124612,0.541028,0.54321137,-0.33396424,0.578273,0.5217566,-0.32741502,0.55565,0.52052252,-0.33831651,0.545255,0.53068753,-0.34803112,0.551507
0.51335956,-0.44487526,0.58046,0.50730628,-0.3965939,0.575148,0.48520623,-0.42280656,0.571974,0.47234092,-0.38840734,0.553169,0.45634246,-0.3572157,0.538426,0.4475041,-0.33489687,0.532743,0.46941718,-0.33300348,0.560451,0.46832635,-0.30280375,0.545277,0.48247212,-0.29599967,0.554228,0.49587928,-0.28881775,0.562366,0.4999438,-0.33978295,0.568619,0.50058637,-0.32776814,0.554595,0.4963104,-0.34661052,0.546414,0.50482802,-0.37382464,0.55777,0.52583159,-0.34840559,0.57569,0.52612287,-0.33940415,0.559374,0.52670409,-0.35194095,0.551026,0.54300293,-0.38200861,0.562874,0.55834749,-0.36501053,0.584889,0.54928864,-0.35184461,0.569382,0.55088543,-0.36378711,0.562257,0.56284976,-0.3819463,0.570891
0.50081038,-0.42665695,0.572374,0.50429173,-0.38599825,0.570146,0.47793213,-0.41172123,0.563224,0.47439942,-0.36811236,0.552614,0.47524203,-0.33641274,0.54413,0.47776288,-0.31520566,0.541559,0.47264591,-0.32171542,0.557246,0.47627053,-0.29849073,0.542928,0.49102712,-0.29385092,0.5497,0.50518617,-0.2889266,0.555856,0.50347906,-0.33279252,0.567408,0.51402266,-0.32804131,0.556484,0.50458,-0.35139294,0.550112,0.50969375,-0.37734161,0.561788,0.52761943,-0.34665772,0.575913,0.5383076,-0.33863631,0.561889,0.53129223,-0.35790634,0.554715,0.54398222,-0.38636217,0.566678,0.56029345,-0.36551545,0.586429,0.56186486,-0.35880224,0.573134,0.56376076,-0.36433753,0.567026,0.57635315,-0.38735679,0.575838
0.48877934,-0.40881164,0.562627,0.50055659,-0.37938962,0.565767,0.46866508,-0.39423648,0.552831,0.46741141,-0.35077783,0.541649,0.46677706,-0.31779506,0.530744,0.47221452,-0.29789611,0.528422,0.475835,-0.31447523,0.556612,0.48046764,-0.30202233,0.545838,0.5053767,-0.31046932,0.562124,0.52760379,-0.31609023,0.57693,0.50860856,-0.3294866,0.569625,0.52506851,-0.32273211,0.564389,0.51702031,-0.34782215,0.561334,0.52320007,-0.37503572,0.573252,0.53437038,-0.345873,0.580121,0.54975582,-0.33587148,0.570574,0.54320251,-0.35636107,0.565689,0.55467689,-0.38905268,0.577567,0.56665166,-0.36873367,0.592318,0.57348811,-0.35891524,0.583306,0.57611261,-0.36934755,0.579165,0.58493253,-0.39304051,0.588072
0.497352,-0.42248868,0.560186,0.50963124,-0.38543509,0.56533,0.47114838,-0.39901083,0.55215,0.47271705,-0.35850359,0.539781,0.47026435,-0.32573647,0.532461,0.47233345,-0.30483952,0.531364,0.47893707,-0.33055185,0.559984,0.48549472,-0.31579979,0.551543,0.50836216,-0.31995919,0.568568,0.53208833,-0.32154174,0.584046,0.51162566,-0.34227595,0.571653,0.52847833,-0.32762782,0.568477,0.52725851,-0.3553106,0.566625,0.53973081,-0.38343655,0.579591,0.53891885,-0.35429157,0.580909,0.55312908,-0.33901233,0.573751,0.54983198,-0.36005664,0.570088,0.56231022,-0.39245098,0.583232,0.57235133,-0.37364413,0.591352,0.57617493,-0.36009911,0.584304,0.58068085,-0.36704511,0.581065,0.59352875,-0.39107309,0.590942
0.49051215,-0.41754081,0.552216,0.50313558,-0.38356657,0.559416,0.46611581,-0.39491174,0.545719,0.4702331,-0.35847511,0.537828,0.47058103,-0.32661348,0.531039,0.47664355,-0.30785603,0.531489,0.48322455,-0.33012445,0.557656,0.49248676,-0.31965209,0.551521,0.51638592,-0.32615858,0.568996,0.5390861,-0.33182515,0.584883,0.51457334,-0.34416516,0.568265,0.53243995,-0.33654469,0.567263,0.52621975,-0.36327815,0.566679,0.53135866,-0.39151893,0.580496,0.54019545,-0.35808828,0.576513,0.5543414,-0.33933223,0.571762,0.55264184,-0.36081064,0.569331,0.56357025,-0.39252737,0.583492,0.57040746,-0.37968948,0.585472,0.5752759,-0.36980489,0.580448,0.57460263,-0.38398086,0.57814,0.58243654,-0.40764386,0.588808
0.48958771,-0.417491,0.551207,0.50024845,-0.38272184,0.559169,0.46586636,-0.39496515,0.545285,0.46828533,-0.35925384,0.538601,0.47150858,-0.32773468,0.531912,0.47800561,-0.3090191,0.532258,0.48171098,-0.3304519,0.558745,0.49366923,-0.32078575,0.553477,0.51768767,-0.32736234,0.571096,0.5404983,-0.33309031,0.587113,0.51283487,-0.34326943,0.568955,0.53327429,-0.33743935,0.568771,0.52552221,-0.36411621,0.568664,0.53420356,-0.39332019,0.582779,0.53994322,-0.35828269,0.576826,0.5560812,-0.34013497,0.57298,0.55277689,-0.36141337,0.571011,0.56590164,-0.39384046,0.585532,0.56961607,-0.37953254,0.58523,0.57520232,-0.37013682,0.580969,0.57486631,-0.38455935,0.579011,0.58296684,-0.40844141,0.58996
0.48851495,-0.41710464,0.550022,0.49964553,-0.38276856,0.558409,0.46499282,-0.39441403,0.544161,0.46777714,-0.35895319,0.537849,0.47110509,-0.32769276,0.53137,0.47790712,-0.30909689,0.531774,0.48177462,-0.33033586,0.558415,0.49349721,-0.32079618,0.553495,0.51743013,-0.3273268,0.571034,0.54015964,-0.33301372,0.586978,0.51294033,-0.34345294,0.568716,0.53328772,-0.33757047,0.568992,0.5263156,-0.36453752,0.569152,0.53507331,-0.39381295,0.583315,0.53958174,-0.35816344,0.576634,0.55709236,-0.34711831,0.573195,0.54995238,-0.36933806,0.571435,0.56302081,-0.40042329,0.585993,0.569245,-0.37940867,0.585039,0.57518582,-0.37025278,0.581151,0.57501702,-0.38479447,0.579365,0.58315195,-0.40871349,0.590353
0.48692284,-0.41630468,0.548461,0.49863032,-0.38247714,0.557405,0.46375878,-0.39363339,0.542836,0.46673681,-0.35834799,0.536768,0.47056935,-0.3274773,0.530337,0.47875934,-0.30979673,0.530284,0.48169174,-0.33025078,0.558165,0.49226746,-0.32019072,0.553787,0.51733001,-0.32748489,0.57131,0.53857389,-0.33147996,0.58724,0.5127676,-0.34350827,0.568398,0.53325608,-0.33779355,0.569277,0.5268949,-0.36504157,0.569789,0.53574338,-0.39443116,0.584081,0.53899999,-0.35800799,0.576222,0.55687368,-0.34741999,0.573378,0.55095597,-0.36998364,0.571923,0.56354703,-0.40137935,0.586623,0.56844407,-0.37916655,0.584441,0.57479562,-0.37032769,0.581078,0.57479807,-0.38501922,0.579533,0.58302317,-0.40902965,0.590638
0.48597514,-0.4159304,0.547574,0.49803157,-0.38236523,0.556829,0.46300974,-0.39320477,0.542052,0.46647568,-0.35818157,0.536526,0.47104394,-0.32770761,0.530538,0.47971405,-0.31020238,0.530782,0.48161628,-0.33018022,0.557975,0.49241432,-0.32038101,0.553885,0.51718324,-0.32752494,0.57138,0.53864039,-0.33178036,0.587285,0.51266956,-0.3435566,0.568205,0.53321169,-0.33791142,0.569421,0.52720468,-0.36532475,0.570131,0.53608762,-0.39476807,0.58448,0.53868024,-0.35793404,0.576006,0.5568444,-0.34754785,0.573484,0.55148382,-0.37032393,0.572194,0.56381766,-0.40192015,0.586954,0.56803346,-0.37906774,0.584154,0.57460577,-0.37040122,0.581079,0.57469848,-0.3851755,0.579666,0.58296042,-0.40922984,0.590824
0.4815659,-0.41500435,0.545747,0.49193649,-0.38053185,0.554048,0.46113643,-0.39245485,0.542366,0.4551206,-0.35792034,0.539756,0.46039227,-0.32792908,0.535259,0.47338388,-0.31017357,0.535999,0.48069381,-0.32962677,0.55697,0.48636067,-0.3184918,0.553356,0.50685306,-0.32698735,0.572172,0.52668767,-0.33286005,0.589277,0.50907625,-0.34150315,0.564251,0.52120153,-0.33440599,0.564485,0.51444701,-0.3605458,0.564622,0.52395193,-0.39037144,0.579729,0.53261428,-0.35451854,0.56969,0.54375402,-0.34401776,0.567191,0.53740426,-0.36909999,0.565912,0.54726363,-0.40202863,0.581814,0.55778731,-0.37809857,0.575127,0.55794315,-0.36821164,0.571761,0.55457501,-0.38248588,0.570215,0.56308877,-0.40724824,0.582166
0.45844519,-0.41158427,0.538991,0.47207711,-0.37897656,0.548507,0.44073819,-0.38854275,0.536226,0.44195876,-0.35601455,0.536882,0.4487488,-0.32733848,0.534295,0.45895321,-0.31027036,0.536038,0.46689138,-0.3276397,0.553195,0.47247468,-0.31870012,0.550823,0.49287489,-0.32553921,0.569638,0.51189572,-0.33142813,0.586742,0.49490043,-0.34108543,0.560203,0.50722828,-0.33443919,0.561762,0.49941389,-0.36152768,0.562671,0.50665653,-0.39122873,0.578086,0.51723383,-0.35437686,0.565338,0.52991731,-0.34439974,0.564186,0.52376975,-0.36758945,0.563596,0.53353386,-0.40067014,0.579848,0.54234657,-0.37489103,0.570248,0.54291968,-0.36582693,0.568058,0.53983532,-0.38036422,0.567052,0.54846989,-0.40523566,0.579289
0.45672603,-0.41294489,0.540251,0.47036038,-0.37924536,0.548541,0.4389853,-0.39014098,0.537674,0.43989021,-0.35727801,0.537647,0.44181955,-0.3287098,0.534517,0.44908682,-0.31075868,0.536691,0.46393493,-0.32738822,0.552422,0.4637058,-0.31845655,0.549276,0.48247385,-0.32565305,0.568408,0.49980969,-0.33188469,0.585801,0.49154623,-0.33995062,0.55873,0.49749933,-0.3324837,0.559005,0.489941,-0.35948564,0.559165,0.50059704,-0.38909739,0.574514,0.51363505,-0.35256963,0.563369,0.52102777,-0.33827099,0.561225,0.5155445,-0.36112826,0.560128,0.52830479,-0.39623549,0.576394,0.53864252,-0.37240212,0.567847,0.53403913,-0.36226462,0.564704,0.53036219,-0.37679668,0.56326,0.54239155,-0.40211217,0.575471
0.46365747,-0.4188061,0.550242,0.47217604,-0.37883976,0.554454,0.44207532,-0.39320828,0.543622,0.43580277,-0.35858008,0.538245,0.43121721,-0.33056746,0.527556,0.43301799,-0.30987076,0.523157,0.45345498,-0.3147659,0.55003,0.44900626,-0.31256676,0.541638,0.46543892,-0.32451813,0.559735,0.48056597,-0.33558117,0.576188,0.48455874,-0.32686652,0.559632,0.48675537,-0.32828209,0.555436,0.4763481,-0.35355808,0.552988,0.48632419,-0.38292768,0.566522,0.5100193,-0.33955267,0.56725,0.50861952,-0.33883536,0.55979,0.49779206,-0.35518839,0.555973,0.49924688,-0.38477305,0.569962,0.53991125,-0.36036591,0.575848,0.53072668,-0.35863472,0.568302,0.52374343,-0.37046345,0.564835,0.52978351,-0.39386533,0.575294
0.46184288,-0.42153929,0.556015,0.46168449,-0.37652156,0.557915,0.43934863,-0.39578313,0.548709,0.42474436,-0.36114481,0.541875,0.4207588,-0.33193972,0.529746,0.42219519,-0.31090789,0.524908,0.44246463,-0.3151579,0.550715,0.43567636,-0.31179116,0.540294,0.45122984,-0.32376964,0.558444,0.46548986,-0.33485664,0.574944,0.47333362,-0.32722748,0.56025,0.47254679,-0.32720759,0.553618,0.4609848,-0.3514872,0.549749,0.46580761,-0.37934542,0.562748,0.49872429,-0.33998246,0.567968,0.49445906,-0.33788323,0.558217,0.48237534,-0.35343472,0.553228,0.48310308,-0.3825446,0.566661,0.52880045,-0.36108057,0.57699,0.51704894,-0.35806866,0.567405,0.50898778,-0.36926122,0.563002,0.51446608,-0.39229067,0.572994
0.47210326,-0.43287135,0.572916,0.46019235,-0.37915011,0.566881,0.43640655,-0.40236285,0.563433,0.42277449,-0.3677089,0.552686,0.41059702,-0.33564449,0.539743,0.41063424,-0.31448917,0.532743,0.43249065,-0.31166965,0.550373,0.41834027,-0.30816736,0.533275,0.4319646,-0.32208743,0.55117,0.44429608,-0.33521042,0.567438,0.4631344,-0.32272881,0.559464,0.45310294,-0.32197751,0.544677,0.44046635,-0.3410333,0.536051,0.44390273,-0.36755489,0.54691,0.48881732,-0.33499248,0.56734,0.47556548,-0.33244907,0.550002,0.46023366,-0.34623573,0.541132,0.45964486,-0.37354907,0.552349,0.5202544,-0.35622669,0.577604,0.50043017,-0.35280801,0.561289,0.48939569,-0.36252085,0.553793,0.49369338,-0.38380879,0.561952
0.46083214,-0.43218031,0.577818,0.44324192,-0.37674263,0.564496,0.42718262,-0.40319564,0.564706,0.40341215,-0.36655367,0.545891,0.38708086,-0.33342389,0.529852,0.38507919,-0.31153894,0.522067,0.40105696,-0.30431476,0.537475,0.3847128,-0.29857387,0.513608,0.39760563,-0.31242513,0.529687,0.4094358,-0.3255987,0.544304,0.43299709,-0.31354978,0.548121,0.42033297,-0.31017108,0.5261,0.40805907,-0.32723769,0.513254,0.41118171,-0.35172389,0.520993,0.46047637,-0.32456785,0.55776,0.44434384,-0.3194148,0.533072,0.42910453,-0.33192386,0.52044,0.42789828,-0.35734678,0.52815,0.495624,-0.34489019,0.571106,0.47333135,-0.3400344,0.548538,0.46230448,-0.34879616,0.538169,0.46571849,-0.36792651,0.543578
0.44813206,-0.42885808,0.574113,0.43067527,-0.37658229,0.562267,0.41306685,-0.40280617,0.5614,0.39154889,-0.36735937,0.545207,0.37490572,-0.33420418,0.529095,0.37223263,-0.31194048,0.520616,0.39051218,-0.30527417,0.536971,0.37407276,-0.30020432,0.514273,0.38598726,-0.31427613,0.530599,0.39682457,-0.32765915,0.545442,0.42234138,-0.31459681,0.547706,0.40964242,-0.31207799,0.527125,0.39781272,-0.32971777,0.515119,0.4011436,-0.35465516,0.523397,0.44965262,-0.32563655,0.557321,0.43349148,-0.32128956,0.533965,0.4185668,-0.33426192,0.522016,0.41767869,-0.3601417,0.530292,0.48440359,-0.34588113,0.570443,0.46212537,-0.34174381,0.54904,0.45128984,-0.35087149,0.539206,0.4551477,-0.3703619,0.54507
0.42961136,-0.42887745,0.572655,0.41729493,-0.37605184,0.561475,0.40018584,-0.40246996,0.560046,0.37789466,-0.36669501,0.544221,0.36141041,-0.33372981,0.528344,0.35877621,-0.31154024,0.519948,0.37833425,-0.30521448,0.536866,0.3618341,-0.30043023,0.51466,0.37285863,-0.31453912,0.531043,0.38281633,-0.3279559,0.545936,0.41003837,-0.31461232,0.547733,0.39726291,-0.31248175,0.527807,0.38569308,-0.33039882,0.516183,0.38894937,-0.35551301,0.524663,0.43719598,-0.32568972,0.557412,0.42097848,-0.3216921,0.534634,0.40624435,-0.33487856,0.522979,0.40534257,-0.3609329,0.531457,0.47164572,-0.34592964,0.570523,0.44936235,-0.34211416,0.549635,0.43864559,-0.35141289,0.540038,0.44261423,-0.37104002,0.546068
0.40845378,-0.44555874,0.584832,0.39950005,-0.38982755,0.56709,0.37849191,-0.41839242,0.569846,0.36867477,-0.38460258,0.551347,0.35959679,-0.35517192,0.536172,0.35627196,-0.33199076,0.526814,0.35672344,-0.31446104,0.534088,0.33675402,-0.28960505,0.506445,0.34567208,-0.29307116,0.521164,0.35367253,-0.29560987,0.534546,0.38826744,-0.32411963,0.545283,0.37313195,-0.32823029,0.519043,0.36394477,-0.33321547,0.503737,0.365221,-0.35681111,0.509411,0.41536956,-0.33562641,0.555665,0.39939979,-0.33838185,0.526815,0.38425686,-0.34806798,0.512054,0.38482213,-0.36878007,0.517484,0.44996977,-0.3567667,0.570492,0.42899688,-0.35879852,0.544389,0.41935491,-0.36001788,0.532396,0.4249676,-0.37959056,0.536022
0.42367679,-0.44746736,0.589332,0.40276372,-0.39404765,0.569699,0.38807385,-0.42730317,0.577025,0.371344,-0.40190137,0.555879,0.34980515,-0.37433083,0.535001,0.34912645,-0.35626088,0.518623,0.35066489,-0.32796064,0.538331,0.31957987,-0.29747505,0.511012,0.31609327,-0.29340388,0.517358,0.31227754,-0.28902977,0.523128,0.37968119,-0.33077737,0.545567,0.36179972,-0.32763008,0.517615,0.35171076,-0.33190344,0.50131,0.36047432,-0.35560433,0.507397,0.40530153,-0.33656071,0.55282,0.38655174,-0.34172643,0.523636,0.37577645,-0.35462844,0.508705,0.38054043,-0.38071628,0.515006,0.43943263,-0.35062868,0.564135,0.41161532,-0.33241913,0.537377,0.39877425,-0.32414973,0.525083,0.39305167,-0.32807634,0.514235
0.4112359,-0.44665172,0.582472,0.38844975,-0.39492472,0.566178,0.38179944,-0.42533822,0.571646,0.35361299,-0.40622062,0.549022,0.32849346,-0.38300003,0.528934,0.32700892,-0.36768286,0.511883,0.33734613,-0.32835576,0.539407,0.30923779,-0.3031062,0.514976,0.30643117,-0.30159667,0.522373,0.30319979,-0.29967432,0.529097,0.36577855,-0.3304834,0.54615,0.34913439,-0.33042013,0.521385,0.34074622,-0.3357283,0.506938,0.35042626,-0.36054185,0.514613,0.39085455,-0.33561359,0.552775,0.3732038,-0.33812848,0.526762,0.36586947,-0.35271941,0.513453,0.37359402,-0.38012799,0.521514,0.42421304,-0.34875268,0.562894,0.39846117,-0.33234638,0.53882,0.38647611,-0.32477835,0.527759,0.38093657,-0.33191594,0.518
0.40140939,-0.44541515,0.579565,0.3764697,-0.39378344,0.564615,0.36934916,-0.42750336,0.569148,0.34131175,-0.404782,0.547077,0.31585605,-0.38130865,0.526594,0.31430074,-0.36589995,0.509492,0.32680212,-0.32843792,0.539468,0.29941076,-0.30417692,0.516104,0.29588648,-0.30252346,0.522916,0.29199316,-0.30049763,0.529109,0.35515263,-0.3305305,0.546239,0.33919371,-0.33131573,0.522762,0.33115812,-0.33719998,0.509066,0.34083002,-0.36251553,0.517291,0.38007689,-0.33557629,0.552798,0.36319478,-0.33891786,0.527993,0.35636542,-0.3540108,0.515301,0.36414618,-0.38194019,0.523951,0.41307125,-0.34849443,0.56266,0.38792458,-0.3329348,0.539631,0.37619347,-0.32575834,0.529051,0.37123366,-0.33319023,0.519715
0.38849257,-0.44709105,0.579307,0.36559808,-0.39370179,0.564498,0.35830787,-0.42730719,0.568908,0.33014552,-0.40462958,0.546871,0.30460026,-0.38116234,0.526392,0.30306726,-0.36576853,0.509309,0.31643702,-0.32845314,0.539493,0.28881733,-0.30424942,0.516227,0.28476861,-0.30262817,0.523097,0.28035824,-0.30062996,0.529342,0.34468347,-0.3305656,0.546297,0.32839975,-0.33143679,0.522953,0.32018384,-0.33737949,0.509337,0.32966432,-0.36273978,0.517611,0.36950203,-0.33562182,0.552873,0.35233387,-0.33904046,0.528184,0.34567897,-0.35418324,0.515552,0.35318847,-0.38215958,0.524252,0.40232703,-0.34854213,0.562737,0.37692958,-0.33304647,0.539812,0.36506487,-0.32589872,0.529279,0.36008041,-0.33336333,0.519985
0.38342726,-0.44761276,0.579983,0.35501352,-0.39403737,0.56487,0.34760666,-0.42750937,0.569155,0.31874661,-0.4058848,0.546641,0.29257801,-0.38311334,0.525582,0.28918943,-0.36738224,0.508306,0.30573342,-0.32831477,0.539092,0.28016152,-0.30923649,0.515381,0.27785184,-0.31167152,0.523845,0.27504626,-0.31361495,0.531539,0.33410958,-0.33066636,0.546294,0.31728215,-0.33167333,0.522633,0.30876084,-0.33767596,0.50883,0.31790054,-0.36288653,0.516887,0.35906108,-0.33593159,0.553218,0.34130768,-0.33941509,0.528099,0.33466254,-0.3544401,0.515247,0.34170397,-0.38224231,0.523671,0.39207856,-0.34913716,0.563541,0.36614955,-0.33372393,0.540277,0.3544805,-0.32819788,0.529588,0.35023569,-0.33687831,0.520157
0.37238287,-0.44760427,0.579972,0.34420133,-0.39403109,0.564861,0.33675366,-0.42753353,0.569165,0.30771889,-0.40590782,0.546672,0.2811954,-0.3830437,0.525762,0.27757987,-0.36720744,0.50854,0.29535765,-0.32832573,0.53911,0.26947587,-0.30925509,0.515412,0.26654075,-0.31167985,0.523859,0.26312177,-0.31361377,0.531537,0.32358619,-0.33066273,0.546288,0.30635622,-0.33167143,0.52263,0.29760942,-0.33767596,0.50883,0.30653499,-0.36289144,0.516894,0.34839969,-0.33591641,0.553193,0.33029591,-0.33940545,0.528084,0.32379484,-0.35443391,0.515238,0.33054391,-0.38224231,0.523671,0.3812173,-0.34910619,0.563491,0.3549739,-0.33369798,0.540235,0.34313948,-0.32817433,0.52955,0.33888434,-0.33685564,0.520122
0.38215426,-0.45363614,0.586493,0.35428827,-0.40320246,0.565618,0.35087517,-0.43517481,0.575275,0.31341424,-0.41569148,0.551914,0.28284205,-0.39338183,0.530355,0.26975096,-0.37415391,0.514459,0.29424548,-0.34067326,0.534514,0.25798032,-0.3109973,0.507138,0.24802865,-0.30641444,0.510761,0.23809088,-0.30173407,0.514054,0.32088837,-0.33868883,0.539959,0.29945182,-0.3265199,0.510978,0.2901166,-0.33474672,0.494072,0.29738757,-0.35433091,0.49997,0.34494843,-0.34040091,0.54582,0.32553123,-0.34204012,0.516252,0.31573772,-0.34519767,0.501124,0.32058748,-0.3709504,0.507408,0.37698874,-0.34677251,0.555627,0.34882034,-0.3376615,0.5284,0.33616276,-0.33391755,0.51589,0.33490611,-0.34088072,0.504852
0.38183888,-0.45452506,0.58669,0.35240045,-0.40319889,0.565145,0.34692976,-0.43593419,0.575262,0.3117527,-0.41614357,0.551644,0.28112127,-0.39408701,0.530127,0.26798172,-0.37497797,0.514264,0.29162088,-0.34042234,0.533225,0.25500247,-0.31071428,0.505335,0.24509526,-0.30651599,0.509293,0.23517011,-0.30218729,0.51289,0.31820656,-0.33829508,0.538664,0.29706218,-0.32648963,0.509064,0.28703261,-0.33400809,0.491798,0.29506395,-0.35412932,0.497377,0.34226182,-0.33990631,0.544565,0.32262127,-0.34135194,0.514415,0.31273046,-0.3443813,0.498989,0.31781039,-0.37042409,0.504931,0.37536982,-0.34699954,0.554509,0.34592679,-0.33702011,0.526784,0.33315067,-0.33324192,0.514046,0.33186963,-0.34003809,0.502806
0.38115692,-0.45474097,0.58631,0.35121042,-0.40285323,0.564436,0.34660145,-0.43667317,0.57489,0.31088108,-0.41564276,0.551266,0.28032646,-0.39326341,0.529733,0.26742513,-0.3740024,0.51383,0.29023146,-0.34008641,0.532248,0.25322221,-0.30924429,0.504176,0.24095641,-0.3039371,0.5072,0.23234236,-0.29881525,0.509948,0.31674344,-0.33782858,0.537551,0.2950305,-0.32790854,0.50766,0.28579283,-0.33379979,0.490224,0.29383657,-0.35622511,0.495669,0.34073725,-0.33934039,0.543361,0.32115094,-0.33986062,0.512982,0.3112892,-0.34241712,0.497438,0.31631805,-0.36839193,0.50325,0.37399401,-0.34672937,0.55324,0.344404,-0.33659791,0.52531,0.3316477,-0.33288478,0.512477,0.3304633,-0.3395719,0.501154
0.37849996,-0.45601851,0.586731,0.35069149,-0.40327917,0.56439,0.34674791,-0.43797396,0.575353,0.31075907,-0.41631141,0.551758,0.28019992,-0.39374447,0.530191,0.26748811,-0.37444417,0.514315,0.28944451,-0.34041753,0.531861,0.2525908,-0.3083268,0.503554,0.24049333,-0.29987128,0.506102,0.23187501,-0.29465829,0.508419,0.31583495,-0.33796252,0.536932,0.29414555,-0.32793816,0.506633,0.28497375,-0.3338304,0.488959,0.29294528,-0.35604368,0.494218,0.33972743,-0.33932991,0.542582,0.32019052,-0.33930055,0.511894,0.31035838,-0.34156898,0.496193,0.31532449,-0.36741148,0.501828,0.37278085,-0.34790646,0.55233,0.34487067,-0.34401943,0.524121,0.33349344,-0.34295373,0.51116,0.33355264,-0.34962905,0.499724
0.37836968,-0.45634741,0.586556,0.35020109,-0.40338885,0.564106,0.34648509,-0.43852636,0.575106,0.31033543,-0.41609045,0.551429,0.27976745,-0.39317015,0.529741,0.26762455,-0.37383348,0.513698,0.2888125,-0.3404897,0.531396,0.25207157,-0.30767214,0.502982,0.24029164,-0.29897279,0.50517,0.23112482,-0.29300349,0.507159,0.31523611,-0.3380328,0.536512,0.2934963,-0.32750344,0.506109,0.28432313,-0.33322068,0.488373,0.29234109,-0.35392349,0.493571,0.33916057,-0.33940055,0.542206,0.31969816,-0.33910032,0.511405,0.30988382,-0.34097324,0.495646,0.31482323,-0.36679283,0.501209,0.37226262,-0.34798151,0.552022,0.34549978,-0.34565104,0.523719,0.33588794,-0.34811099,0.510715,0.33483842,-0.35197869,0.499241
0.37321033,-0.45098663,0.579032,0.34660362,-0.40002429,0.559233,0.34168725,-0.43359516,0.567809,0.31425086,-0.41131189,0.5445,0.28236322,-0.38559602,0.527516,0.2773773,-0.36741892,0.511441,0.28698666,-0.33884258,0.529029,0.25123066,-0.3045134,0.502271,0.24198811,-0.29077246,0.502105,0.22969959,-0.28493709,0.501954,0.31380219,-0.3368793,0.534897,0.28904344,-0.31372782,0.506882,0.28575209,-0.33075614,0.49054,0.29480726,-0.35009842,0.496858,0.33797531,-0.33854033,0.541035,0.31162092,-0.32085493,0.512239,0.3105068,-0.32945029,0.497507,0.32549286,-0.35081848,0.5042,0.37139952,-0.34641616,0.551032,0.34661361,-0.34703924,0.524497,0.3374843,-0.34959444,0.512306,0.33703957,-0.35491362,0.501549
0.37451118,-0.44978375,0.576511,0.35871177,-0.3928527,0.556971,0.34369367,-0.43400505,0.566757,0.32801266,-0.40643064,0.545059,0.29303197,-0.3841122,0.52708,0.28026519,-0.36679938,0.512855,0.29643304,-0.33665511,0.528756,0.26202706,-0.3010668,0.503085,0.24564222,-0.28987145,0.502268,0.23502776,-0.27903864,0.501525,0.3219967,-0.33318208,0.532953,0.29487014,-0.30974483,0.50534,0.28808772,-0.32428987,0.489232,0.29805698,-0.34605447,0.49596,0.34523493,-0.33362356,0.5377,0.31674943,-0.31590872,0.509831,0.31454166,-0.32423059,0.495573,0.32787504,-0.34801576,0.502881,0.37755786,-0.34093525,0.545991,0.35314638,-0.34234268,0.520129,0.34182615,-0.34327086,0.508247,0.33777541,-0.35312249,0.497762
0.38151446,-0.44613082,0.570639,0.36328941,-0.39352394,0.552881,0.35492601,-0.43188124,0.561175,0.33499723,-0.40529251,0.539897,0.30175273,-0.38183479,0.524345,0.29099022,-0.36405293,0.508902,0.30407053,-0.33458039,0.526516,0.27053764,-0.29599056,0.502067,0.2613613,-0.28746913,0.502639,0.25241384,-0.27915699,0.503159,0.33005212,-0.33131769,0.531053,0.30444331,-0.30278448,0.505083,0.29852787,-0.31486752,0.489933,0.30841272,-0.33844338,0.497404,0.35353826,-0.33184961,0.535961,0.32764172,-0.31498289,0.509532,0.32659055,-0.32440709,0.49601,0.34330279,-0.34689949,0.504083,0.38593713,-0.33909178,0.54421,0.36369374,-0.34179226,0.519609,0.35338886,-0.34334953,0.508305,0.35354865,-0.35159751,0.498331
0.39011099,-0.44504605,0.56987,0.37067114,-0.39087015,0.551357,0.35818518,-0.43002311,0.559791,0.34527326,-0.40296322,0.537793,0.31062946,-0.38194756,0.524758,0.29600409,-0.36094396,0.510554,0.31081373,-0.33156284,0.523615,0.27810244,-0.29184632,0.498339,0.26846165,-0.27894888,0.498265,0.25931117,-0.26691084,0.498198,0.33737492,-0.32858654,0.528602,0.31312615,-0.2988634,0.501872,0.30910426,-0.31227001,0.48628,0.31927084,-0.33524075,0.493344,0.36129391,-0.32937628,0.533929,0.337554,-0.31167016,0.506649,0.33717031,-0.32186363,0.492692,0.35263952,-0.3440409,0.500285,0.39413506,-0.33694749,0.542782,0.37333785,-0.34008769,0.51747,0.36374301,-0.3418366,0.50584,0.36248657,-0.35036087,0.495579
0.42419459,-0.42785226,0.57616,0.3917188,-0.37518967,0.552356,0.39417456,-0.41506112,0.569246,0.37554844,-0.39958358,0.550799,0.34028939,-0.38162156,0.540209,0.32538201,-0.36307052,0.526407,0.32999447,-0.3174987,0.523968,0.2910981,-0.28098424,0.497394,0.27708315,-0.26798399,0.493875,0.26387836,-0.25573825,0.490676,0.35254823,-0.31220905,0.523096,0.31395888,-0.28261256,0.492333,0.30938342,-0.29614981,0.474388,0.32141582,-0.31221031,0.479387,0.37339777,-0.31116817,0.523956,0.33652259,-0.29519541,0.49475,0.32123123,-0.29339347,0.479807,0.33381959,-0.31638609,0.485744,0.40306731,-0.31663115,0.528141,0.37474762,-0.3229487,0.500895,0.36167149,-0.32604641,0.488377,0.36026065,-0.33352573,0.477332
0.42902254,-0.43225089,0.580955,0.39331287,-0.3756858,0.551655,0.39649881,-0.41624543,0.570407,0.37108153,-0.39581945,0.547835,0.3379831,-0.37095485,0.524917,0.318579,-0.3528873,0.514036,0.32959344,-0.31245214,0.514259,0.30214608,-0.27828764,0.505267,0.28809834,-0.26077626,0.500772,0.27512469,-0.24458855,0.496684,0.35343716,-0.30978971,0.515641,0.31289956,-0.2795319,0.47963,0.30407504,-0.29102993,0.458624,0.31079942,-0.3015448,0.460512,0.37568552,-0.31108814,0.518718,0.33033281,-0.2585867,0.483871,0.31739787,-0.26180621,0.466043,0.32717587,-0.28154741,0.468401,0.40764955,-0.31980149,0.526296,0.37191912,-0.32045643,0.49437,0.36116987,-0.32553383,0.479701,0.3607656,-0.32977634,0.466758
0.42767725,-0.43152193,0.582533,0.39266331,-0.37447196,0.551118,0.3948269,-0.41409267,0.570727,0.36644542,-0.39123607,0.546851,0.33669385,-0.36834484,0.523318,0.31791191,-0.34986149,0.511412,0.3284194,-0.30837185,0.510425,0.30492138,-0.2667783,0.496018,0.29197655,-0.24844527,0.488815,0.28003939,-0.23149209,0.482266,0.35310359,-0.30739366,0.512505,0.31651475,-0.27606715,0.474609,0.30255615,-0.2874771,0.452502,0.30934731,-0.29839306,0.453006,0.37596689,-0.31012065,0.516297,0.33618126,-0.25618127,0.47945,0.32195012,-0.2596682,0.460597,0.32527919,-0.27825849,0.461383,0.40849063,-0.3206205,0.525013,0.37316429,-0.32208626,0.491465,0.35956348,-0.32524269,0.476051,0.35746945,-0.32943563,0.46245
0.42347435,-0.42625488,0.576755,0.3977852,-0.37531221,0.549842,0.39095199,-0.40744172,0.563829,0.37402906,-0.38512009,0.549143,0.34717641,-0.36001074,0.524603,0.33534649,-0.34106077,0.512425,0.34689443,-0.31079183,0.511595,0.32662556,-0.27366947,0.505567,0.31615643,-0.2548823,0.502553,0.30649877,-0.23752145,0.499812,0.37413748,-0.31631634,0.516763,0.35198875,-0.26557211,0.494172,0.33817992,-0.23920641,0.480994,0.32751847,-0.23758746,0.471582,0.39853306,-0.32409946,0.522796,0.37305908,-0.26911192,0.488214,0.35732983,-0.26638239,0.470521,0.35761083,-0.28838807,0.473527,0.43144828,-0.3400207,0.53361,0.40501489,-0.29199791,0.504835,0.39261519,-0.2727511,0.491615,0.38144934,-0.25921766,0.479949
0.4335192,-0.42960818,0.58136,0.42487007,-0.37748889,0.553184,0.41753318,-0.40578822,0.568222,0.39706754,-0.38679342,0.551529,0.37013148,-0.36159392,0.52691,0.3582818,-0.34250175,0.51459,0.3688483,-0.31201958,0.513616,0.34819222,-0.27424055,0.506622,0.33757405,-0.2551719,0.503124,0.327801,-0.23758465,0.499945,0.39630478,-0.31741141,0.518552,0.37339967,-0.26608533,0.495127,0.35934702,-0.23943916,0.481462,0.34879678,-0.23764792,0.471702,0.42093537,-0.32514219,0.524478,0.39427988,-0.26951045,0.488937,0.37830087,-0.26651317,0.470752,0.37833909,-0.28808782,0.473034,0.45427305,-0.34111669,0.53533,0.42736704,-0.29287592,0.506353,0.41486002,-0.27354115,0.493039,0.40370509,-0.25994246,0.481291
0.45172626,-0.4235476,0.586705,0.43502718,-0.37027544,0.561327,0.42376992,-0.40267531,0.57566,0.41728529,-0.38400494,0.562321,0.39241795,-0.3587484,0.538111,0.38041657,-0.33830812,0.524811,0.38922135,-0.30528018,0.526638,0.36755977,-0.26486308,0.512829,0.35662329,-0.24435622,0.505924,0.34661547,-0.22552769,0.499647,0.41514152,-0.31338822,0.530134,0.387779,-0.26514297,0.497254,0.37096204,-0.24002362,0.478073,0.35619395,-0.24041078,0.464373,0.43794663,-0.32325284,0.534691,0.41145094,-0.27118537,0.504199,0.39767629,-0.24550681,0.488599,0.3825355,-0.23630008,0.474417,0.467966,-0.34150593,0.543527,0.43981167,-0.28886888,0.513591,0.4249349,-0.28997239,0.499836,0.41428396,-0.29828169,0.4877
0.45018744,-0.41970185,0.580996,0.44195511,-0.37167282,0.555552,0.42351516,-0.39810477,0.570498,0.42197841,-0.38202602,0.555043,0.39741852,-0.35389538,0.530548,0.38670477,-0.33245593,0.517805,0.39968994,-0.30288035,0.521467,0.38220509,-0.2612545,0.50971,0.37339417,-0.24016158,0.503831,0.36534255,-0.22081362,0.498487,0.42466728,-0.31227524,0.524279,0.39909431,-0.26146883,0.491427,0.38309727,-0.23470559,0.472263,0.36744301,-0.23336603,0.458575,0.44658382,-0.32336712,0.528277,0.42833661,-0.26948266,0.503451,0.41870431,-0.2427862,0.490749,0.40619235,-0.23033795,0.479203,0.47531323,-0.34343444,0.536449,0.44929722,-0.2891669,0.506687,0.43352566,-0.28876223,0.493012,0.42139375,-0.29698921,0.480946
0.45942392,-0.3839691,0.576981,0.44715605,-0.32666154,0.554296,0.42707714,-0.35493164,0.558011,0.41289776,-0.31652155,0.540486,0.40251128,-0.28270016,0.514788,0.40163098,-0.26110854,0.508502,0.39871581,-0.24932705,0.512329,0.38998656,-0.21189676,0.500454,0.3866486,-0.19387533,0.494516,0.38365539,-0.17699716,0.489118,0.43149884,-0.26043507,0.526413,0.42408644,-0.24550136,0.495865,0.42016794,-0.236794,0.478045,0.41278497,-0.24668081,0.465316,0.45981116,-0.27314668,0.5395,0.44453763,-0.23699771,0.505664,0.43683529,-0.21834492,0.488352,0.43222052,-0.22185386,0.472614,0.49633331,-0.29577613,0.558229,0.47435093,-0.29202774,0.528216,0.45473177,-0.2995715,0.514427,0.44871391,-0.30933425,0.514653
0.45406276,-0.37448684,0.567959,0.44067938,-0.31937185,0.547003,0.42273567,-0.34873698,0.551471,0.4128178,-0.31507102,0.537384,0.40068759,-0.28181766,0.513039,0.396164,-0.25848039,0.502417,0.38872959,-0.24508172,0.509485,0.37402538,-0.2082927,0.49175,0.36665085,-0.18936642,0.482882,0.36030894,-0.17245995,0.474821,0.42060091,-0.25201792,0.521246,0.40367612,-0.20799693,0.492043,0.39385255,-0.18209651,0.475008,0.39015468,-0.18115175,0.46284,0.44831459,-0.2611607,0.532308,0.43214338,-0.23530166,0.50048,0.42406831,-0.22188034,0.484196,0.42030152,-0.22928425,0.469392,0.48441775,-0.27920378,0.548376,0.46379477,-0.28094029,0.519788,0.45023541,-0.28901998,0.506653,0.44703296,-0.30454152,0.50877
0.48317155,-0.35203402,0.55091,0.46619685,-0.30114573,0.538178,0.45251902,-0.33296146,0.541725,0.44297649,-0.30268571,0.526455,0.40649285,-0.26847107,0.503965,0.39162509,-0.2540072,0.497963,0.41724018,-0.24032965,0.516386,0.40622116,-0.20205286,0.510248,0.40059015,-0.18220427,0.507179,0.39539531,-0.16371736,0.504389,0.44584953,-0.2423997,0.522529,0.42625845,-0.1905061,0.501248,0.41909831,-0.18658607,0.488834,0.41375451,-0.19604946,0.479967,0.47092761,-0.24717394,0.528426,0.45956321,-0.20604527,0.505902,0.45002502,-0.21422317,0.494378,0.4403117,-0.22853039,0.483901,0.50406587,-0.25926417,0.537197,0.47627559,-0.22703116,0.516094,0.47543635,-0.23007914,0.506397,0.48962776,-0.24015863,0.513327
0.49159528,-0.35071974,0.563803,0.46962248,-0.29041132,0.545439,0.45911907,-0.33073831,0.551636,0.45203127,-0.30149173,0.532667,0.41578789,-0.27041345,0.506352,0.39370371,-0.2521716,0.49821,0.41664395,-0.2270339,0.515308,0.39589919,-0.18563978,0.489686,0.38594264,-0.16571513,0.476875,0.37776129,-0.14960658,0.465229,0.44613521,-0.22925471,0.522867,0.42877985,-0.19634507,0.496089,0.4188102,-0.17655127,0.480468,0.41556816,-0.18123717,0.46931,0.47197275,-0.2343275,0.5303,0.45107118,-0.18356657,0.502675,0.4454786,-0.18537306,0.488541,0.44054181,-0.18716008,0.475692,0.50605321,-0.24705434,0.541664,0.49045639,-0.23403264,0.515794,0.47756222,-0.24655137,0.503907,0.47824615,-0.25555415,0.508496
0.50029503,-0.34400616,0.570349,0.48384555,-0.28880977,0.550593,0.46972321,-0.32566805,0.560201,0.45875388,-0.30342578,0.538058,0.42117127,-0.27201423,0.511258,0.40191685,-0.25118914,0.501309,0.4292068,-0.22511465,0.521723,0.4105877,-0.1812516,0.496349,0.40127596,-0.1593526,0.483662,0.40578895,-0.14407348,0.487729,0.45682524,-0.22606696,0.526311,0.43752909,-0.19824804,0.498455,0.42641777,-0.18154802,0.482205,0.41763099,-0.18522838,0.470598,0.48136974,-0.23014664,0.531393,0.44846782,-0.17878611,0.503167,0.43975278,-0.17632202,0.488726,0.43695292,-0.18568319,0.475597,0.51445152,-0.24182109,0.540117,0.49982253,-0.22449502,0.513976,0.48005861,-0.23103344,0.501965,0.47402036,-0.24477714,0.506715
0.49488525,-0.3134054,0.555972,0.48684976,-0.26506749,0.546536,0.46744631,-0.29330995,0.547908,0.47112113,-0.26294761,0.542072,0.46546096,-0.23125763,0.528057,0.46871637,-0.21049403,0.525323,0.44786078,-0.20317937,0.528871,0.43287968,-0.16684238,0.510392,0.42540419,-0.14803392,0.501153,0.42755265,-0.13330091,0.503271,0.47695471,-0.2077334,0.534937,0.47136557,-0.19794298,0.516904,0.4687857,-0.19213063,0.506512,0.46245561,-0.20622567,0.499088,0.50175313,-0.21456119,0.540552,0.48193981,-0.16874901,0.521126,0.48144023,-0.17735066,0.511187,0.48091237,-0.18944253,0.502152,0.53315053,-0.2290582,0.548548,0.51560324,-0.22912821,0.530134,0.50546922,-0.23712028,0.521674,0.5103055,-0.25649397,0.529662
0.49893583,-0.30976793,0.561066,0.48782737,-0.25460887,0.548671,0.47009093,-0.28933768,0.551281,0.47001279,-0.2553996,0.545557,0.45978351,-0.22487056,0.530444,0.45828261,-0.20321193,0.524602,0.44495269,-0.19187726,0.526439,0.43065183,-0.15314993,0.505451,0.42406903,-0.13488022,0.494957,0.42821233,-0.12072933,0.497105,0.47474409,-0.19593839,0.533437,0.46818571,-0.18553635,0.512424,0.46493838,-0.17934097,0.500167,0.47499577,-0.20006684,0.509347,0.50028574,-0.2024439,0.540013,0.47789152,-0.15578706,0.517464,0.47551571,-0.16406017,0.505927,0.47315779,-0.17605467,0.49544,0.53286609,-0.21670948,0.549556,0.51444268,-0.2159312,0.528503,0.50325729,-0.22468969,0.518829,0.50548869,-0.24348432,0.525661
0.50055505,-0.3070589,0.56193,0.48876612,-0.25304455,0.549046,0.47168896,-0.28711279,0.552404,0.46912349,-0.25322351,0.544183,0.45887088,-0.22273398,0.528204,0.45750911,-0.20113387,0.522036,0.4446259,-0.19058148,0.526713,0.43182516,-0.15332371,0.505699,0.42577457,-0.13495344,0.495192,0.43091747,-0.12133163,0.497763,0.4740725,-0.19407874,0.533209,0.46250584,-0.16583691,0.511752,0.46118523,-0.17867601,0.499236,0.46878337,-0.20155606,0.508341,0.49941136,-0.20012283,0.539405,0.49259852,-0.16359956,0.5166,0.48327762,-0.17564328,0.504932,0.47456131,-0.19033319,0.496776,0.5319362,-0.21384541,0.548557,0.51574165,-0.19976481,0.527239,0.50918899,-0.21044404,0.517444,0.5167547,-0.22875216,0.524239
0.50632611,-0.30271229,0.563383,0.50047212,-0.25192862,0.549368,0.47717952,-0.28336937,0.553839,0.4773679,-0.25238793,0.540884,0.46280565,-0.22140084,0.519284,0.45970676,-0.20309158,0.512852,0.45353705,-0.18964422,0.526061,0.44072693,-0.14941365,0.504535,0.43439646,-0.12887707,0.493772,0.44080301,-0.11303999,0.497663,0.48275375,-0.1924169,0.532141,0.47356003,-0.16111273,0.509617,0.46475359,-0.17726224,0.496477,0.46798422,-0.19952854,0.505227,0.50806508,-0.19787432,0.53807,0.50239428,-0.16557672,0.514391,0.4922059,-0.17635305,0.502277,0.49638539,-0.20124727,0.511563,0.54091313,-0.2109223,0.547051,0.52432669,-0.19892829,0.524941,0.51762933,-0.20757266,0.514783,0.52567008,-0.22678229,0.521299
0.50737161,-0.30163816,0.563041,0.49921922,-0.25031202,0.548909,0.47856239,-0.28241488,0.553853,0.47183791,-0.25057668,0.540296,0.45444971,-0.22002194,0.521947,0.45085362,-0.19808902,0.514079,0.45348392,-0.18780753,0.525932,0.44146105,-0.14686363,0.504596,0.43668379,-0.1237268,0.493928,0.44128902,-0.11029676,0.496487,0.48227459,-0.19074023,0.531538,0.47325478,-0.16204001,0.508939,0.46405537,-0.17908308,0.495757,0.46789732,-0.20019681,0.504554,0.50715805,-0.19633463,0.537085,0.50162471,-0.16492186,0.513491,0.49137603,-0.17595117,0.50142,0.49539887,-0.20088889,0.510807,0.53936085,-0.20954461,0.545622,0.52273417,-0.19837371,0.523548,0.5161872,-0.2061683,0.513406,0.52480992,-0.22546824,0.519989
0.50781726,-0.30050928,0.562945,0.49830124,-0.2489431,0.548736,0.47895867,-0.28125684,0.553671,0.47214235,-0.24856155,0.53975,0.45398226,-0.21909944,0.520955,0.44966059,-0.19712809,0.512808,0.45249953,-0.18478771,0.525591,0.44125193,-0.1434949,0.504184,0.4353403,-0.12524246,0.493481,0.44205313,-0.10993214,0.496884,0.48155961,-0.18936179,0.531271,0.47254281,-0.16188111,0.508592,0.46329878,-0.17929088,0.495362,0.46752773,-0.20023348,0.504115,0.50647953,-0.1950212,0.536883,0.5009053,-0.16414955,0.513189,0.48996258,-0.17643376,0.501067,0.49097476,-0.19873318,0.510398,0.53869954,-0.208315,0.545509,0.52198631,-0.19783434,0.523354,0.51556222,-0.2052595,0.513175,0.52452891,-0.22453031,0.519716
0.5076184,-0.29945949,0.562687,0.49421544,-0.2476654,0.548296,0.47858203,-0.28016048,0.553215,0.46355379,-0.24681782,0.537605,0.44564192,-0.21559881,0.518666,0.44591542,-0.19568887,0.509823,0.45052263,-0.18376904,0.52476,0.43924573,-0.14260385,0.503318,0.43384745,-0.12442617,0.492598,0.44096301,-0.10981337,0.496268,0.47849862,-0.18587677,0.530608,0.47083541,-0.16120563,0.507739,0.46009797,-0.17790076,0.494399,0.46637909,-0.19959509,0.503045,0.50352291,-0.19155888,0.536371,0.49881602,-0.16251249,0.512443,0.48477892,-0.17600157,0.5002,0.48879214,-0.19793088,0.5094,0.5358456,-0.2048925,0.545203,0.52056996,-0.19694507,0.522858,0.51379447,-0.20329879,0.512591,0.5209369,-0.22398845,0.519033
0.50700627,-0.29846249,0.562367,0.49401805,-0.24700789,0.548682,0.47788429,-0.27912994,0.552838,0.46790177,-0.24738186,0.53905,0.45263174,-0.21729126,0.517449,0.45456456,-0.20018252,0.50598,0.44744189,-0.181939,0.525672,0.43560377,-0.14234965,0.504364,0.43001877,-0.12320065,0.493711,0.43152021,-0.12044073,0.497224,0.47686104,-0.18497302,0.531861,0.46194902,-0.16313432,0.509648,0.45901536,-0.17731643,0.496691,0.46800722,-0.20026087,0.505549,0.50228549,-0.19065436,0.537857,0.49139743,-0.16416015,0.514438,0.47823143,-0.18290308,0.502455,0.48357037,-0.20127717,0.511847,0.53512129,-0.20399097,0.546875,0.51630503,-0.19601055,0.524999,0.50644289,-0.20870646,0.514947,0.51303481,-0.22464229,0.52155
0.50515192,-0.29670089,0.560801,0.49258439,-0.24367358,0.547807,0.47628932,-0.2775093,0.55153,0.46272026,-0.24442612,0.535457,0.44968536,-0.21550755,0.513521,0.44975051,-0.19591191,0.498794,0.44676042,-0.18081992,0.525691,0.4364609,-0.14334476,0.50547,0.43266047,-0.12592082,0.495359,0.43725652,-0.11359226,0.496352,0.47617234,-0.18390234,0.531837,0.46495465,-0.16200881,0.5103,0.45583397,-0.17884708,0.497737,0.45826065,-0.19989472,0.506875,0.50155729,-0.18960802,0.537752,0.49196849,-0.16060896,0.514986,0.48136193,-0.17338496,0.503338,0.48659892,-0.19849757,0.513033,0.53425955,-0.20294458,0.546581,0.51531739,-0.19144416,0.525267,0.50932646,-0.20482906,0.515475,0.51296266,-0.22031585,0.522317
0.50562764,-0.29662144,0.562023,0.49119423,-0.24274044,0.548618,0.47550277,-0.27660966,0.552457,0.46217679,-0.24385834,0.535074,0.44889005,-0.21509811,0.512573,0.44831215,-0.19551462,0.497589,0.44501244,-0.1794745,0.525799,0.43468934,-0.14418723,0.50498,0.42968465,-0.12593959,0.494571,0.43721223,-0.1163064,0.499019,0.47465107,-0.18270988,0.532141,0.46291972,-0.16199893,0.510189,0.45480911,-0.17885555,0.497383,0.46206633,-0.2001808,0.506319,0.50028129,-0.18855675,0.538245,0.49174135,-0.15990874,0.515022,0.48051181,-0.17292426,0.50314,0.4853987,-0.19794397,0.512598,0.53336998,-0.20210909,0.547356,0.51494377,-0.19101972,0.525662,0.506252,-0.20537877,0.515694,0.51240152,-0.21986485,0.522354
0.50515874,-0.29605869,0.562058,0.49054255,-0.24239401,0.548558,0.47498793,-0.27597831,0.552386,0.46155127,-0.24334097,0.534514,0.44821612,-0.21475494,0.511775,0.44724837,-0.1951886,0.496643,0.44436858,-0.1791425,0.525531,0.43424578,-0.14421799,0.504625,0.42934881,-0.12615062,0.494172,0.43681014,-0.11588991,0.49844,0.47407442,-0.18243006,0.531965,0.46260095,-0.16168428,0.509914,0.45408509,-0.17881756,0.497051,0.46101462,-0.20026959,0.50593,0.49976534,-0.18832302,0.538151,0.49140204,-0.15948421,0.514804,0.47991241,-0.17263103,0.502859,0.48350434,-0.19823612,0.512246,0.53293389,-0.20193757,0.547372,0.51448071,-0.19070484,0.525578,0.50581301,-0.20502229,0.515565,0.51192288,-0.21955421,0.522171
0.50544964,-0.29502553,0.56262,0.48882595,-0.24170965,0.548745,0.47503809,-0.27473946,0.552817,0.45784996,-0.2418781,0.532329,0.44304821,-0.21856021,0.506654,0.44349004,-0.19526904,0.492944,0.44257391,-0.1783767,0.525246,0.4319878,-0.14476519,0.504078,0.42691577,-0.12915565,0.493494,0.43379744,-0.11582236,0.496139,0.47229772,-0.18169856,0.531692,0.46082784,-0.16146162,0.509277,0.44996029,-0.17913057,0.496201,0.45580084,-0.20032227,0.50493,0.49802019,-0.18763189,0.537912,0.48450473,-0.16983412,0.514217,0.47083445,-0.18573955,0.502094,0.47285802,-0.20879559,0.511319,0.53125655,-0.20132134,0.547224,0.51154907,-0.19003929,0.52513,0.50290133,-0.20428931,0.514979,0.51025519,-0.2193041,0.521456
0.50460644,-0.2938306,0.562261,0.48800555,-0.24154884,0.548561,0.47443668,-0.27356766,0.55277,0.45328339,-0.24218849,0.531802,0.44105214,-0.21756766,0.506348,0.43946472,-0.19583415,0.490867,0.44224464,-0.17850469,0.525583,0.43270773,-0.1445752,0.504561,0.42707357,-0.12757752,0.49405,0.43195027,-0.11418632,0.494174,0.47170759,-0.18171694,0.531721,0.46100803,-0.160406,0.509497,0.44988892,-0.17997926,0.496534,0.45528886,-0.20023131,0.505396,0.49718434,-0.18755418,0.537676,0.48459585,-0.16956502,0.514263,0.47081167,-0.18590822,0.502284,0.47288809,-0.2083095,0.511686,0.53007645,-0.20110986,0.546647,0.51131098,-0.18979135,0.524772,0.50197633,-0.20423557,0.514721,0.50949549,-0.21920206,0.52133
0.50345419,-0.29307142,0.562829,0.48774326,-0.24164255,0.548905,0.47459069,-0.2738331,0.553703,0.44682431,-0.24141885,0.533103,0.42998606,-0.21562047,0.510214,0.42304139,-0.19517621,0.495259,0.44134929,-0.17879483,0.526179,0.43125237,-0.14512048,0.504921,0.42428507,-0.12867817,0.494292,0.42783945,-0.11608815,0.49309,0.47036571,-0.18176149,0.53179,0.45694531,-0.15964864,0.509393,0.44825862,-0.17958811,0.496328,0.45427728,-0.19990067,0.505207,0.49546282,-0.18739803,0.537328,0.48326104,-0.17106391,0.513923,0.46669371,-0.19201031,0.501948,0.47143663,-0.20952414,0.511422,0.52789877,-0.20070548,0.545826,0.5069557,-0.1909189,0.523916,0.49840978,-0.2052216,0.513849,0.50801956,-0.21925042,0.520502
0.5026613,-0.29360878,0.56372,0.48953859,-0.24619992,0.554906,0.47719332,-0.27631806,0.558604,0.45579665,-0.25498237,0.542947,0.43833534,-0.22853118,0.521722,0.43257693,-0.20405733,0.507853,0.45086466,-0.19408225,0.541317,0.44130323,-0.15925508,0.525368,0.43662192,-0.14106064,0.517393,0.43942079,-0.12601172,0.518388,0.47750763,-0.19607503,0.544073,0.46315305,-0.18092187,0.527006,0.45732488,-0.20428918,0.51705,0.46781863,-0.21962989,0.528262,0.50035836,-0.20077471,0.546924,0.48820863,-0.1823297,0.529499,0.48138099,-0.1984301,0.520584,0.49018977,-0.21950981,0.532851,0.52947672,-0.21267633,0.551517,0.50886057,-0.20317989,0.534593,0.50739641,-0.21474827,0.526817,0.51918714,-0.22798375,0.535631
0.50319987,-0.29571265,0.56624,0.48900229,-0.25594915,0.556904,0.47822834,-0.27857398,0.56176,0.45783081,-0.25918207,0.546778,0.43673745,-0.23472412,0.525081,0.43180608,-0.21171131,0.512971,0.45310718,-0.19697927,0.543641,0.44186897,-0.16258951,0.52755,0.43422874,-0.14759568,0.519505,0.43775891,-0.12970946,0.519871,0.47887819,-0.19890843,0.545429,0.46273403,-0.1815994,0.527976,0.45622477,-0.20450774,0.517795,0.46705113,-0.22100072,0.528916,0.50097812,-0.20356956,0.547518,0.48708047,-0.18334547,0.530047,0.47803424,-0.19751937,0.521108,0.4900277,-0.22050486,0.533377,0.52915522,-0.21544812,0.551264,0.50679941,-0.2035858,0.534234,0.50359671,-0.2163903,0.526409,0.51773066,-0.23162539,0.535203
0.50294259,-0.29765169,0.567759,0.49086578,-0.25899501,0.560092,0.47672649,-0.28045209,0.562514,0.45637312,-0.26258794,0.546841,0.43717527,-0.23556531,0.525677,0.42878496,-0.21430051,0.514823,0.45476509,-0.20225398,0.547316,0.44095314,-0.1681094,0.531773,0.43980584,-0.15507521,0.535795,0.44633583,-0.13939088,0.539451,0.48180098,-0.20486542,0.55067,0.46754238,-0.18530203,0.534671,0.46256177,-0.20717099,0.525338,0.47355517,-0.22547401,0.536876,0.50492659,-0.21004329,0.553936,0.49709492,-0.17701526,0.537326,0.48719586,-0.1850964,0.528827,0.49275935,-0.21141005,0.541381,0.53214843,-0.22360379,0.558876,0.51285522,-0.20727656,0.542708,0.51167757,-0.21934796,0.535279,0.52808334,-0.23319055,0.544336
0.49974453,-0.30962952,0.573445,0.48238355,-0.26429584,0.564731,0.4744163,-0.29162437,0.568362,0.4449576,-0.26688507,0.552754,0.42518468,-0.24173915,0.536143,0.41406064,-0.22018249,0.525991,0.44597927,-0.20558672,0.551265,0.42996016,-0.17072769,0.535211,0.42954184,-0.15535567,0.536764,0.42905783,-0.14039167,0.538176,0.47243291,-0.20778865,0.55402,0.4588444,-0.1871691,0.537052,0.45254058,-0.20725524,0.527154,0.46285281,-0.22842546,0.538401,0.49507325,-0.21262558,0.556863,0.48816209,-0.177742,0.539532,0.47772126,-0.18573973,0.530665,0.48285477,-0.21203056,0.54297,0.52390782,-0.22462724,0.561434,0.50330684,-0.20790995,0.544592,0.50122622,-0.21863322,0.536854,0.51541507,-0.23690717,0.545698
0.49949492,-0.31488781,0.580294,0.47661774,-0.26616251,0.568754,0.46657032,-0.29749372,0.575812,0.43641626,-0.27233362,0.560637,0.41159436,-0.24898419,0.543765,0.39737326,-0.22811794,0.532918,0.44002501,-0.20602845,0.55363,0.42009794,-0.17359858,0.536136,0.41600575,-0.15903286,0.535137,0.41209804,-0.14498074,0.53423,0.46486539,-0.20780748,0.554569,0.44502039,-0.19068697,0.535072,0.43623339,-0.21128629,0.523699,0.44657242,-0.23082366,0.534071,0.48625938,-0.21240521,0.556105,0.47455179,-0.18054852,0.536981,0.46121488,-0.19028501,0.527197,0.46536411,-0.21607319,0.53875,0.51375387,-0.22432837,0.55948,0.48802925,-0.21070993,0.540955,0.48390947,-0.22226104,0.532444,0.49768624,-0.23963179,0.54065
0.50115389,-0.332714,0.602394,0.48609403,-0.28891107,0.5836,0.47529442,-0.31288425,0.595382,0.45677773,-0.29401058,0.583747,0.4324131,-0.26586231,0.565391,0.42281676,-0.24495514,0.554347,0.44663106,-0.22465703,0.559317,0.41584984,-0.18272896,0.535938,0.40654611,-0.16417841,0.532243,0.3978997,-0.14680947,0.528883,0.4716541,-0.22897014,0.560499,0.44873801,-0.18069494,0.533994,0.43437105,-0.19058897,0.518532,0.44036065,-0.21236375,0.525903,0.49323784,-0.23578145,0.562717,0.468881,-0.24537298,0.536889,0.45551659,-0.25892676,0.523674,0.46112839,-0.28036781,0.53198,0.52102596,-0.25054628,0.567869,0.49439305,-0.21544066,0.543568,0.48368558,-0.215696,0.532403,0.49278875,-0.23628801,0.53804
0.47625578,-0.35232624,0.568277,0.46531895,-0.30706247,0.563213,0.44927234,-0.33629494,0.563111,0.41819682,-0.30573154,0.552386,0.39005603,-0.27518285,0.535423,0.37892487,-0.25334102,0.527136,0.42534804,-0.25312742,0.552724,0.40895805,-0.20947329,0.539447,0.40390589,-0.19033141,0.535391,0.40001486,-0.17409452,0.531704,0.45232904,-0.25427649,0.556989,0.44115191,-0.20510296,0.543505,0.43760591,-0.18722952,0.53564,0.4498573,-0.17979801,0.547905,0.47544082,-0.25799258,0.560832,0.46324045,-0.20892498,0.547181,0.45998888,-0.1911048,0.540197,0.47451505,-0.18286145,0.553698,0.50507559,-0.26811685,0.566121,0.49155607,-0.22797875,0.551846,0.48555047,-0.2096636,0.545287,0.48354908,-0.20713592,0.5395
0.44385679,-0.34356345,0.565652,0.44166232,-0.29916305,0.561836,0.41894613,-0.32348845,0.559269,0.39583877,-0.28867872,0.547475,0.37106477,-0.25556916,0.530604,0.36357397,-0.23301238,0.522313,0.41090381,-0.24139401,0.550931,0.39516747,-0.19978288,0.537133,0.38984486,-0.18222913,0.530234,0.38499852,-0.16581942,0.523962,0.43891148,-0.24742294,0.557146,0.42898939,-0.19882138,0.544754,0.42773914,-0.18090897,0.537525,0.44101003,-0.17305798,0.54982,0.46238102,-0.25514847,0.56251,0.45209524,-0.20648928,0.548857,0.45060947,-0.18950486,0.541872,0.46585844,-0.17987195,0.555076,0.49140198,-0.27009209,0.569461,0.48437399,-0.23058229,0.555695,0.48168604,-0.2138003,0.54937,0.48382704,-0.20762382,0.54379
