sluyters/QuantumLeap/backend/src/datasets/gesture/HandGestureDataset_SHREC2017_csv/Gesture11/finger_1/subject_19_essai_2_skeletons_world.csv
Wrist_x,Wrist_y,Wrist_z,Palm_x,Palm_y,Palm_z,thumb_base_x,thumb_base_y,thumb_base_z,thumb_first_joint_x,thumb_first_joint_y,thumb_first_joint_z,thumb_second_joint_x,thumb_second_joint_y,thumb_second_joint_z,thumb_tip_x,thumb_tip_y,thumb_tip_z,index_base_x,index_base_y,index_base_z,index_first_joint_x,index_first_joint_y,index_first_joint_z,index_second_joint_x,index_second_joint_y,index_second_joint_z,index_tip_x,index_tip_y,index_tip_z,middle_base_x,middle_base_y,middle_base_z,middle_first_joint_x,middle_first_joint_y,middle_first_joint_z,middle_second_joint_x,middle_second_joint_y,middle_second_joint_z,middle_tip_x,middle_tip_y,middle_tip_z,ring_base_x,ring_base_y,ring_base_z,ring_first_joint_x,ring_first_joint_y,ring_first_joint_z,ring_second_joint_x,ring_second_joint_y,ring_second_joint_z,ring_tip_x,ring_tip_y,ring_tip_z,pinky_base_x,pinky_base_y,pinky_base_z,pinky_first_joint_x,pinky_first_joint_y,pinky_first_joint_z,pinky_second_joint_x,pinky_second_joint_y,pinky_second_joint_z,pinky_tip_x,pinky_tip_y,pinky_tip_z,
0.2420061,-0.24459603,0.457074,0.20966967,-0.19117459,0.434332,0.21172041,-0.23714393,0.450804,0.16636308,-0.21038233,0.432146,0.13261704,-0.19096711,0.418735,0.11535423,-0.17640557,0.412823,0.15862207,-0.15207161,0.411507,0.12961037,-0.11830238,0.406843,0.11755661,-0.10280819,0.404511,0.1073827,-0.090748132,0.402391,0.1847151,-0.14745401,0.413286,0.15321362,-0.10580439,0.383737,0.16281455,-0.11793372,0.403358,0.17880427,-0.14124303,0.420206,0.20720763,-0.14621675,0.417037,0.18103174,-0.11063641,0.387899,0.1912079,-0.12371642,0.404914,0.20763944,-0.15042234,0.423477,0.23855466,-0.15283871,0.425434,0.21306833,-0.13046123,0.398102,0.22550392,-0.15268398,0.411233,0.23577901,-0.1692676,0.425943
0.23943222,-0.24324097,0.456188,0.2083393,-0.1903739,0.433759,0.20989233,-0.23622875,0.450179,0.1661247,-0.21013172,0.431561,0.1323276,-0.19064976,0.417934,0.11518009,-0.17626841,0.412441,0.1585407,-0.15200497,0.411472,0.12932796,-0.11807994,0.40631,0.11418334,-0.10065307,0.403729,0.102326,-0.087990093,0.401382,0.18397297,-0.14666058,0.413002,0.15250113,-0.10413931,0.383764,0.1592371,-0.11044602,0.403545,0.17438751,-0.13253961,0.42033,0.20636903,-0.14548511,0.416516,0.18093126,-0.11062306,0.387668,0.19120985,-0.12383997,0.404821,0.20762765,-0.15056106,0.423321,0.23750516,-0.15218483,0.424582,0.21294535,-0.12917908,0.397559,0.22424982,-0.15158294,0.410809,0.23504778,-0.16831262,0.425458
0.22506621,-0.23569463,0.450697,0.19160547,-0.18057631,0.429522,0.19908657,-0.22979511,0.444749,0.15097307,-0.19815781,0.429424,0.1195595,-0.17449713,0.414974,0.10357217,-0.15525928,0.406389,0.14624182,-0.14159694,0.408129,0.11928076,-0.10734559,0.406632,0.10523452,-0.089497832,0.405883,0.092117056,-0.072828194,0.405202,0.17150079,-0.13682024,0.409927,0.1465925,-0.094757494,0.381786,0.15800185,-0.10772088,0.40208,0.17220568,-0.12877848,0.418629,0.19423833,-0.13749056,0.413536,0.17916167,-0.10965089,0.386419,0.19038791,-0.12366613,0.404052,0.20641329,-0.15028223,0.422045,0.22484234,-0.1463512,0.42149,0.20397078,-0.12772542,0.395314,0.21997277,-0.14963829,0.408939,0.23329822,-0.16704222,0.423434
0.20708735,-0.2258696,0.444428,0.17990261,-0.17346808,0.424464,0.18119077,-0.21937943,0.438704,0.14051119,-0.1900501,0.425137,0.11018936,-0.16571212,0.411294,0.095427838,-0.14670341,0.403958,0.13487891,-0.13586049,0.404144,0.10779262,-0.10191564,0.403449,0.093686304,-0.084236215,0.403102,0.080517162,-0.067730686,0.402786,0.16018043,-0.13100383,0.405989,0.13619925,-0.088161121,0.379113,0.14685554,-0.096707807,0.399896,0.15998533,-0.11553344,0.416141,0.18283247,-0.13147653,0.409515,0.16669724,-0.10083043,0.384057,0.17948067,-0.11449853,0.402136,0.19498743,-0.14050308,0.419638,0.21318327,-0.13983516,0.417159,0.19345684,-0.1195157,0.391877,0.20732099,-0.13952917,0.405855,0.22080916,-0.15707553,0.420172
0.20438527,-0.22270722,0.442795,0.17801871,-0.17074127,0.422889,0.17852279,-0.21653961,0.437259,0.13936584,-0.18762753,0.424141,0.10907431,-0.16332012,0.41031,0.09438971,-0.14442997,0.40321,0.13272783,-0.13364289,0.40285,0.10507991,-0.099761221,0.401865,0.090674609,-0.082106414,0.401373,0.07722191,-0.065618234,0.400926,0.15788617,-0.1284877,0.404468,0.13118234,-0.082749784,0.377591,0.14132441,-0.089253381,0.39841,0.15696585,-0.11100322,0.414667,0.18042928,-0.12870255,0.407802,0.1645033,-0.098281998,0.382613,0.17500759,-0.1060565,0.400738,0.19253247,-0.13481826,0.418149,0.21067465,-0.13671313,0.41521,0.19122475,-0.11663473,0.390045,0.20527138,-0.13650528,0.404056,0.21876581,-0.15389429,0.418346
0.20327072,-0.22111267,0.442493,0.1775102,-0.16963224,0.4226,0.17748233,-0.21521005,0.437241,0.13893145,-0.18711666,0.424129,0.10860556,-0.16345167,0.41076,0.093951643,-0.14464561,0.40387,0.13227259,-0.13289997,0.402935,0.10439779,-0.099081028,0.401771,0.089891663,-0.081479817,0.40119,0.076354995,-0.065054013,0.400661,0.15725991,-0.12751813,0.404191,0.13086386,-0.082386105,0.377348,0.14066947,-0.088683058,0.398196,0.15366445,-0.10611255,0.41445,0.17856417,-0.12592426,0.407224,0.16216712,-0.09538098,0.381877,0.17395677,-0.10513501,0.400017,0.1895757,-0.1284331,0.417498,0.20870493,-0.13347973,0.414282,0.18907383,-0.11343711,0.389241,0.20341978,-0.13335161,0.40328,0.21766208,-0.15201032,0.417536
0.20076069,-0.21878563,0.440587,0.17464819,-0.16658637,0.421423,0.17286666,-0.21140551,0.435928,0.13553509,-0.18471376,0.424217,0.10524972,-0.16137998,0.411072,0.092576378,-0.1432361,0.403411,0.12916121,-0.13001057,0.402995,0.10092922,-0.096312762,0.401734,0.086270183,-0.078814261,0.401103,0.073134886,-0.062915164,0.40053,0.15457653,-0.12491707,0.403688,0.12841923,-0.080688646,0.377541,0.13743612,-0.086612625,0.398687,0.15143426,-0.10479383,0.414783,0.17674469,-0.12462094,0.406185,0.15897427,-0.093223752,0.38122,0.17009633,-0.10265063,0.399601,0.18692029,-0.12685757,0.417025,0.20644638,-0.13191338,0.412487,0.1826511,-0.10705346,0.388184,0.1965414,-0.12655762,0.402454,0.21287324,-0.14593711,0.41654
0.19991885,-0.21814055,0.441142,0.17385705,-0.16606154,0.421405,0.17190338,-0.21058956,0.4357,0.13411322,-0.1834626,0.42244,0.10412941,-0.16012493,0.409665,0.090587342,-0.14138899,0.402628,0.12799248,-0.12910416,0.401595,0.1001022,-0.095723525,0.401287,0.085569122,-0.078329285,0.401132,0.07256386,-0.062513689,0.400992,0.15367801,-0.1242557,0.403139,0.12542125,-0.078416468,0.37637,0.1332086,-0.082788906,0.397256,0.14499232,-0.098981439,0.413495,0.17615287,-0.12419348,0.406395,0.15414886,-0.086782314,0.380368,0.16179121,-0.088077491,0.398499,0.17437962,-0.10344032,0.416252,0.20636439,-0.13179935,0.413683,0.18287884,-0.10718694,0.388668,0.19667717,-0.12664504,0.402732,0.21212315,-0.14523502,0.41699
0.19910528,-0.21744885,0.441076,0.1733338,-0.16570032,0.421277,0.17117881,-0.20994467,0.435339,0.13347699,-0.18293749,0.42178,0.10359094,-0.15953015,0.409043,0.089949139,-0.14094926,0.402195,0.12745785,-0.12870051,0.401046,0.099706965,-0.095446273,0.401135,0.085225486,-0.07809309,0.401179,0.072211945,-0.06226484,0.401219,0.15319458,-0.12390382,0.402954,0.12521654,-0.078158959,0.376077,0.132791,-0.082100667,0.396908,0.144456,-0.09801116,0.413169,0.17579458,-0.12393472,0.406515,0.15416304,-0.0867903,0.380403,0.16178674,-0.08807506,0.398488,0.17438172,-0.10344156,0.416257,0.20619802,-0.13165591,0.41417,0.18303223,-0.10727684,0.388994,0.19681439,-0.12673341,0.403013,0.21179439,-0.14491526,0.41731
0.19879007,-0.21695337,0.440821,0.17435045,-0.16676874,0.421648,0.17260575,-0.21073099,0.434589,0.13404746,-0.18273145,0.420365,0.10437146,-0.1594878,0.408072,0.090709696,-0.14177408,0.401974,0.1282249,-0.12930831,0.401185,0.10045505,-0.096094978,0.4014,0.085945306,-0.07874126,0.401508,0.072371812,-0.062507545,0.401605,0.15366132,-0.12421675,0.403906,0.12598674,-0.078525829,0.377519,0.13353251,-0.082315497,0.398496,0.14524578,-0.098316718,0.414625,0.17655785,-0.12439911,0.408072,0.15411937,-0.082604748,0.382368,0.15941076,-0.077861911,0.400575,0.1698388,-0.086884346,0.418228,0.20735484,-0.1322902,0.416323,0.18482753,-0.10216867,0.391373,0.19776687,-0.1195239,0.405491,0.21153271,-0.14288401,0.419746
0.19858911,-0.21731298,0.441221,0.17420661,-0.16707636,0.421621,0.17241575,-0.21111629,0.435107,0.13413396,-0.18347848,0.421084,0.10498807,-0.16049024,0.408329,0.090595445,-0.14206017,0.402131,0.12892637,-0.13031713,0.401034,0.10146048,-0.097098947,0.401451,0.086206525,-0.079132312,0.40166,0.073667629,-0.063486755,0.40185,0.15427415,-0.12526823,0.403483,0.12610641,-0.07890507,0.376694,0.13360429,-0.082502941,0.397543,0.14532885,-0.098532238,0.413777,0.1770679,-0.12550534,0.40747,0.15550547,-0.088594184,0.381424,0.16257088,-0.087895774,0.399523,0.17489475,-0.10237893,0.41727,0.20919065,-0.13502393,0.415586,0.18410879,-0.10604807,0.390394,0.19749008,-0.12469169,0.404421,0.21201901,-0.14353098,0.418726
0.19978006,-0.21878885,0.443049,0.17916652,-0.17186301,0.422779,0.17311946,-0.21213244,0.436023,0.13885809,-0.18897327,0.419668,0.10924318,-0.16499566,0.406735,0.094707123,-0.14635926,0.402162,0.13375086,-0.13589545,0.40058,0.10730904,-0.1029329,0.401698,0.091749306,-0.083982258,0.402257,0.077108592,-0.066567293,0.402765,0.15946891,-0.13149523,0.40402,0.13168391,-0.083891585,0.376507,0.1389757,-0.087384406,0.396953,0.14864201,-0.10138802,0.413323,0.18263241,-0.13227802,0.40889,0.15688355,-0.089252346,0.381968,0.16414633,-0.087873538,0.39971,0.17649736,-0.10134232,0.417668,0.21384336,-0.14095527,0.418155,0.18707037,-0.10955355,0.392163,0.20465506,-0.12654099,0.405883,0.21459381,-0.14629541,0.420351
0.20041883,-0.18773518,0.438969,0.16922595,-0.14372525,0.422751,0.17789115,-0.18895344,0.439448,0.13833907,-0.17433151,0.430557,0.10471536,-0.16205831,0.419591,0.083614656,-0.14683619,0.413934,0.12124077,-0.11739002,0.412861,0.088505781,-0.08174826,0.402795,0.071542919,-0.063910001,0.397899,0.054783134,-0.052070375,0.393449,0.14117638,-0.10427092,0.407742,0.12100143,-0.10324302,0.383786,0.14332168,-0.13398158,0.405245,0.15878718,-0.14468559,0.422974,0.16037844,-0.097780684,0.405158,0.14163699,-0.097452919,0.380399,0.16084812,-0.12408325,0.398945,0.17851082,-0.13758298,0.418717,0.1879689,-0.097621505,0.405017,0.16892669,-0.080187064,0.384465,0.16834053,-0.098062363,0.39938,0.17295247,-0.11724033,0.412396
0.19490124,-0.20504842,0.430692,0.1818466,-0.15701062,0.419702,0.17779472,-0.2062117,0.432206,0.15262269,-0.1890377,0.431383,0.11548971,-0.17322658,0.420195,0.098121838,-0.1570507,0.414416,0.13471497,-0.13411428,0.414535,0.10170775,-0.097098992,0.404831,0.08592744,-0.078664675,0.399979,0.070303182,-0.066222264,0.395568,0.1559501,-0.11879531,0.409532,0.1383484,-0.12020432,0.390548,0.161578,-0.15234916,0.413478,0.17640561,-0.16249458,0.429856,0.1750793,-0.11237128,0.406516,0.15905123,-0.11430072,0.386562,0.17915369,-0.14218844,0.406377,0.1958953,-0.15504849,0.424391,0.20202683,-0.11214793,0.404947,0.18606718,-0.096687949,0.388627,0.1867325,-0.11591175,0.404715,0.190727,-0.13493473,0.416697
0.21840985,-0.20374275,0.440033,0.1896762,-0.1584417,0.421034,0.19667914,-0.20489248,0.441602,0.16082996,-0.19191907,0.432348,0.12726526,-0.18037157,0.424934,0.10413638,-0.16498097,0.418905,0.14278088,-0.13078,0.41075,0.11564923,-0.093411007,0.403275,0.098787406,-0.075648362,0.399538,0.084675558,-0.070903587,0.396141,0.16057673,-0.11748887,0.403452,0.13526306,-0.12032804,0.376793,0.15744551,-0.15062557,0.396562,0.17102694,-0.15707691,0.410682,0.178231,-0.11095445,0.399353,0.15289064,-0.11579257,0.37135,0.16359137,-0.14368935,0.388399,0.18057628,-0.16398819,0.403898,0.20441292,-0.11099316,0.397939,0.18866591,-0.083622799,0.374278,0.18814319,-0.10160871,0.388461,0.1921291,-0.12117362,0.402287
0.22367188,-0.21891181,0.430061,0.19947923,-0.1715804,0.413704,0.19974214,-0.21609826,0.428256,0.16278079,-0.19556706,0.419215,0.13273958,-0.18051248,0.412608,0.12000737,-0.16992627,0.410962,0.15595536,-0.13960285,0.400776,0.12955718,-0.10325244,0.395351,0.1158844,-0.084603841,0.392639,0.10664972,-0.075153434,0.390174,0.17835709,-0.13092843,0.398566,0.16185726,-0.12226628,0.374768,0.18246063,-0.15472533,0.396733,0.19623592,-0.17087717,0.412421,0.19880336,-0.12810432,0.39839,0.17432789,-0.08891546,0.374659,0.1859019,-0.10841485,0.39369,0.2003583,-0.13473193,0.410876,0.22679892,-0.13228855,0.401082,0.19894333,-0.12492684,0.379971,0.20228984,-0.14714111,0.394939,0.21352863,-0.15868337,0.408172
0.24302281,-0.23195503,0.427853,0.22194343,-0.18667677,0.417527,0.22151856,-0.23020104,0.428674,0.18606005,-0.21013125,0.421907,0.15733487,-0.19558129,0.418571,0.14548932,-0.18471496,0.41891,0.1825759,-0.15688193,0.411896,0.15822194,-0.12019711,0.408198,0.14581709,-0.10150077,0.406349,0.13392453,-0.092373791,0.404668,0.20324686,-0.14689079,0.40797,0.18309003,-0.14383153,0.389726,0.20206525,-0.17587006,0.413036,0.22165438,-0.1978875,0.429686,0.22223594,-0.14288873,0.405776,0.19527111,-0.10537104,0.38811,0.20485726,-0.1260775,0.40834,0.21837269,-0.15313971,0.423555,0.24819138,-0.14564886,0.405047,0.23223923,-0.12089487,0.389403,0.23262668,-0.1410686,0.405465,0.23780758,-0.15981289,0.417198
0.26418717,-0.25190478,0.42282,0.24717035,-0.20704126,0.414248,0.24379172,-0.24735125,0.423833,0.21020758,-0.22705956,0.416945,0.18308441,-0.2105622,0.41442,0.17218657,-0.1971928,0.415677,0.21021804,-0.17268166,0.41,0.1847987,-0.13354101,0.400452,0.17181154,-0.11349532,0.395679,0.15941113,-0.10785222,0.391339,0.23151915,-0.16585466,0.406314,0.21162307,-0.17499854,0.38998,0.23111164,-0.21288079,0.413704,0.25056132,-0.23281295,0.43065,0.25089809,-0.1646714,0.404141,0.22667641,-0.13465995,0.388509,0.23719446,-0.16272295,0.409105,0.24983237,-0.19164485,0.423645,0.27671601,-0.17119912,0.403126,0.26290558,-0.15677768,0.388818,0.26324141,-0.17997152,0.405184,0.26771308,-0.19585007,0.416863
0.27953307,-0.2613174,0.438619,0.26074304,-0.20950478,0.419177,0.25757322,-0.25581762,0.43834,0.22671934,-0.23312236,0.428078,0.19681991,-0.21396081,0.421109,0.18412212,-0.19871132,0.418878,0.2186068,-0.17109004,0.406221,0.19285014,-0.13179759,0.395224,0.17976383,-0.11178778,0.389726,0.16761587,-0.10602997,0.384727,0.23892638,-0.16376145,0.401186,0.21372923,-0.1679408,0.374252,0.23175982,-0.20304576,0.394591,0.24935034,-0.22117312,0.409119,0.25806793,-0.1625742,0.398994,0.22821918,-0.12923313,0.372852,0.23788934,-0.15532752,0.390512,0.25251581,-0.18462314,0.408123,0.28495604,-0.16982103,0.399881,0.2661925,-0.1522298,0.377539,0.26566779,-0.1738526,0.391408,0.27124102,-0.1901117,0.404649
0.29966254,-0.28288242,0.437712,0.27414782,-0.23046247,0.41871,0.2731056,-0.27528781,0.431784,0.24157225,-0.24707319,0.417032,0.21249665,-0.22965142,0.411693,0.2022005,-0.21998247,0.414165,0.22579969,-0.18947511,0.39875,0.21554073,-0.15401074,0.403011,0.20957707,-0.14286626,0.405142,0.20351422,-0.13165532,0.407079,0.2512898,-0.18437175,0.401125,0.23400303,-0.18604235,0.374894,0.25179932,-0.2226776,0.395974,0.26546544,-0.2442692,0.411031,0.27504182,-0.18500229,0.404991,0.25507545,-0.17330685,0.379598,0.2796076,-0.20174423,0.397903,0.30094596,-0.22324928,0.415469,0.30784646,-0.19446601,0.412861,0.30274079,-0.14969934,0.39172,0.30290126,-0.15506598,0.391822,0.30902243,-0.17619879,0.405122
0.33767585,-0.30283593,0.437921,0.30524489,-0.25040164,0.416359,0.31124699,-0.29781308,0.433158,0.27360993,-0.2738475,0.420784,0.24169916,-0.25410263,0.411914,0.22591381,-0.23810415,0.40812,0.25257247,-0.21212889,0.396243,0.24022291,-0.17418013,0.39637,0.23412204,-0.16312822,0.396434,0.2281632,-0.1525779,0.396492,0.2761347,-0.20402089,0.396404,0.25474492,-0.19609957,0.36806,0.28119825,-0.23126102,0.388266,0.29664988,-0.2454755,0.402698,0.29885789,-0.20222159,0.398705,0.28222535,-0.20556908,0.371161,0.30080248,-0.23646455,0.388704,0.3176405,-0.25553346,0.407983,0.33149357,-0.20883847,0.405203,0.32360329,-0.17527929,0.380062,0.32799527,-0.19393382,0.388431,0.3353561,-0.21807139,0.403952
0.37432505,-0.32479228,0.455133,0.33957313,-0.27088244,0.428931,0.34654936,-0.31896956,0.44816,0.30786642,-0.29446629,0.430263,0.27273949,-0.27245267,0.414568,0.25293094,-0.25312231,0.404335,0.28321769,-0.23015822,0.402958,0.27107369,-0.18929953,0.39857,0.26735475,-0.17514613,0.396375,0.26382955,-0.16142748,0.39438,0.30810322,-0.22283277,0.404684,0.28654866,-0.20807355,0.37245,0.31225887,-0.24198812,0.390394,0.32832852,-0.25843676,0.407686,0.33209465,-0.22189236,0.408738,0.31644464,-0.21716584,0.37652,0.33373504,-0.24902566,0.392058,0.3480389,-0.27478337,0.411274,0.36651609,-0.22983242,0.418102,0.3474731,-0.23665627,0.388297,0.36594321,-0.25442559,0.400187,0.38658598,-0.27321072,0.415287
0.40208935,-0.3399271,0.454868,0.36660161,-0.28640251,0.425182,0.37452684,-0.33411812,0.447711,0.33657106,-0.31153309,0.428736,0.30053975,-0.28958406,0.411275,0.28006803,-0.27012924,0.399476,0.30944887,-0.24539354,0.396716,0.28861095,-0.20259863,0.382015,0.28004521,-0.18512428,0.374665,0.2733306,-0.17168078,0.367983,0.33415734,-0.23821017,0.397712,0.31025232,-0.22210716,0.362475,0.33447979,-0.25592322,0.378381,0.35061255,-0.27228005,0.39612,0.35805064,-0.23744598,0.401515,0.34188175,-0.23073524,0.366633,0.35765722,-0.26247732,0.38042,0.37069061,-0.28469431,0.400013,0.39240597,-0.24564973,0.411203,0.36849564,-0.25183977,0.379247,0.3782424,-0.27041511,0.389679,0.39274737,-0.2911412,0.404971
0.43042105,-0.37011018,0.460044,0.39971244,-0.31553725,0.435107,0.40573686,-0.36420726,0.456859,0.36636259,-0.33760079,0.439251,0.34189752,-0.32105004,0.439395,0.33807071,-0.31237385,0.446962,0.34921387,-0.27368102,0.414841,0.33040077,-0.23098119,0.400584,0.32127283,-0.20964068,0.393847,0.31300931,-0.19012396,0.387805,0.37160583,-0.2664922,0.41203,0.3460449,-0.24677367,0.380359,0.37200289,-0.28479923,0.398738,0.38932854,-0.30393727,0.415963,0.39293261,-0.26584214,0.412221,0.37543462,-0.25685059,0.380733,0.39218637,-0.29142523,0.396657,0.40554312,-0.31527797,0.415733,0.42324467,-0.27432334,0.416859,0.39812364,-0.28161326,0.38956,0.40886129,-0.30265907,0.401905,0.42187015,-0.32404315,0.416299
0.43319215,-0.37129081,0.456734,0.40249248,-0.31274521,0.42708,0.40699216,-0.36360306,0.452184,0.37179683,-0.3383257,0.43244,0.33746444,-0.314332,0.415815,0.31954213,-0.29473183,0.406009,0.34723194,-0.26466436,0.401997,0.33055524,-0.22746553,0.387347,0.32214265,-0.2083522,0.380023,0.31634875,-0.19783924,0.373363,0.36926335,-0.25841615,0.399639,0.34012562,-0.23605311,0.363974,0.363486,-0.27123964,0.379674,0.38161916,-0.29142396,0.397502,0.39096215,-0.25899465,0.400677,0.36677711,-0.24666706,0.365536,0.38274198,-0.27859913,0.379154,0.39905941,-0.30274972,0.398783,0.42313994,-0.26983009,0.407136,0.39354116,-0.24651246,0.376408,0.41008362,-0.27068335,0.386798,0.42796797,-0.29181951,0.40164
0.44255977,-0.37122907,0.448713,0.42019845,-0.31290673,0.423814,0.4283892,-0.36560571,0.445931,0.38915474,-0.34183472,0.428834,0.35283528,-0.31927842,0.412,0.3322968,-0.29971847,0.4016,0.36882356,-0.26645691,0.404092,0.35045404,-0.23072427,0.386817,0.34122007,-0.21240143,0.378179,0.33636751,-0.21315818,0.370326,0.38993321,-0.26025699,0.400773,0.36307387,-0.23944382,0.369085,0.38986358,-0.2767723,0.387388,0.40893179,-0.29925975,0.404596,0.41056464,-0.26068351,0.400542,0.38714151,-0.24858217,0.368915,0.40833186,-0.28199915,0.384767,0.42723177,-0.30772585,0.403871,0.440959,-0.27103399,0.40468,0.41333691,-0.24732751,0.377612,0.43190922,-0.2727341,0.38992,0.44970079,-0.29432594,0.404219
0.46961514,-0.3990128,0.448837,0.43764375,-0.33795227,0.427649,0.4465519,-0.39258106,0.448285,0.41404794,-0.36627701,0.434511,0.38037042,-0.33888183,0.417147,0.36230599,-0.31719603,0.40749,0.39050994,-0.29365016,0.413208,0.36925561,-0.24847702,0.389354,0.37143871,-0.23417824,0.390919,0.37725056,-0.23723082,0.392341,0.40907187,-0.28582237,0.40804,0.39508122,-0.27983227,0.379507,0.42762554,-0.31370187,0.399099,0.45060104,-0.34558527,0.41557,0.42704185,-0.28485839,0.405915,0.41186408,-0.27537404,0.376753,0.44124633,-0.30049171,0.393687,0.46951943,-0.33665894,0.412227,0.4535729,-0.29331479,0.407188,0.43393174,-0.28147196,0.383595,0.45261364,-0.29404985,0.396918,0.46659971,-0.31818753,0.410388
0.48132095,-0.42197055,0.454135,0.46193898,-0.36527974,0.435625,0.46284074,-0.41417908,0.456832,0.43531785,-0.39386163,0.447773,0.40977871,-0.37487005,0.437464,0.39520618,-0.35601556,0.429225,0.42675117,-0.3201847,0.427113,0.40871,-0.28169856,0.404034,0.41222334,-0.27038401,0.404742,0.41439067,-0.27932876,0.405387,0.44399107,-0.31482877,0.418496,0.42271992,-0.32205052,0.392247,0.44837921,-0.36458397,0.411641,0.4665608,-0.39569873,0.427224,0.45981137,-0.31575524,0.413261,0.43653201,-0.31196084,0.385256,0.46060251,-0.34247226,0.401959,0.48375346,-0.38158158,0.419939,0.48164794,-0.32624534,0.410437,0.45842124,-0.32566613,0.390041,0.4745135,-0.34528224,0.403407,0.48195987,-0.37141783,0.415768
0.4862915,-0.42782197,0.45468,0.46925646,-0.37609634,0.438654,0.46110394,-0.41550684,0.450892,0.45130273,-0.39675621,0.43398,0.42754231,-0.37419393,0.427657,0.41598529,-0.35835274,0.428808,0.42448709,-0.32768722,0.423384,0.41278456,-0.29556462,0.401776,0.42377347,-0.29056427,0.406934,0.43571853,-0.30190679,0.411624,0.44965005,-0.32576017,0.423824,0.44117621,-0.33130682,0.400705,0.47377761,-0.37740283,0.422926,0.49263888,-0.41295169,0.438264,0.47253983,-0.32951629,0.425797,0.45725336,-0.30239049,0.402857,0.49178957,-0.3339747,0.422118,0.5178721,-0.36963954,0.439075,0.5033933,-0.34343062,0.430933,0.50056326,-0.32555389,0.410093,0.49986899,-0.31730464,0.400518,0.50919682,-0.33617596,0.407575
0.49253933,-0.4392405,0.454548,0.46867852,-0.38031989,0.430694,0.46404931,-0.42409316,0.447041,0.44567008,-0.39617173,0.424454,0.41186622,-0.36373066,0.409501,0.39510798,-0.34160494,0.406034,0.41821525,-0.3220562,0.405554,0.3950437,-0.28236342,0.377058,0.39638437,-0.271347,0.375035,0.39914437,-0.26339263,0.373196,0.44475145,-0.32401164,0.40862,0.4323169,-0.31681646,0.378798,0.46155863,-0.36022428,0.3978,0.47603805,-0.38876145,0.414552,0.46935779,-0.33155308,0.413542,0.44774695,-0.29735491,0.383039,0.48114283,-0.32551348,0.399458,0.51050548,-0.36257684,0.418334,0.50334667,-0.35105856,0.423501,0.48443064,-0.32173855,0.395096,0.47588887,-0.30821034,0.382046,0.48733467,-0.32379986,0.385307
0.49653892,-0.44378391,0.456353,0.46997601,-0.3817766,0.430376,0.46661285,-0.42740501,0.447293,0.44881443,-0.40111809,0.422682,0.41289668,-0.36886424,0.405714,0.39620168,-0.34643092,0.403726,0.4157485,-0.32183261,0.401857,0.39226801,-0.28570585,0.371059,0.39369765,-0.27598142,0.36863,0.39224598,-0.26906371,0.366422,0.44354344,-0.32423122,0.406338,0.43242611,-0.32043329,0.374947,0.46122931,-0.36327634,0.39261,0.47304151,-0.3874254,0.409509,0.46954388,-0.33226644,0.412638,0.44604323,-0.29786835,0.379946,0.48115448,-0.32950184,0.39517,0.50853106,-0.36278676,0.414452,0.50574719,-0.35260479,0.42458,0.48516653,-0.32307099,0.394236,0.47582985,-0.30946916,0.380295,0.48607765,-0.32444892,0.382328
0.4957293,-0.44799336,0.451351,0.4748582,-0.39154598,0.428077,0.46662087,-0.43137178,0.442204,0.45205237,-0.40489122,0.417919,0.41550566,-0.37052608,0.40059,0.40102868,-0.35256572,0.398817,0.42314169,-0.33185085,0.401194,0.39997312,-0.29169751,0.372027,0.40126049,-0.28067313,0.369225,0.40435203,-0.27243543,0.366679,0.45065343,-0.33475606,0.406538,0.44489667,-0.32378872,0.377723,0.4731358,-0.3680806,0.396544,0.4817589,-0.39446295,0.412875,0.47603316,-0.34311948,0.413277,0.45928856,-0.30846557,0.383048,0.49598046,-0.33680347,0.399271,0.52593466,-0.3740593,0.417959,0.51087,-0.36361212,0.425252,0.49751857,-0.33388844,0.397446,0.49158025,-0.32017429,0.384671,0.50527622,-0.33599536,0.38808
0.496192,-0.4488739,0.449683,0.47640146,-0.39166707,0.426955,0.4697985,-0.4352454,0.440705,0.45166449,-0.40484923,0.416693,0.41852981,-0.37354048,0.40268,0.40345037,-0.35457764,0.400032,0.42833219,-0.33355657,0.400644,0.40182425,-0.29379675,0.371929,0.40313571,-0.28541126,0.368107,0.40314706,-0.27433715,0.364633,0.45694976,-0.33728598,0.405922,0.44487643,-0.32347632,0.376027,0.47309753,-0.36797391,0.395024,0.48265622,-0.39462829,0.4118,0.48319099,-0.34623533,0.412552,0.46059017,-0.30941325,0.382492,0.49680791,-0.34439707,0.398934,0.52466078,-0.37713677,0.41764,0.51878922,-0.36730201,0.424302,0.489775,-0.32593561,0.39599,0.4867532,-0.31853261,0.382982,0.50099775,-0.33395683,0.386231
0.49523856,-0.44800636,0.447372,0.47594141,-0.39040415,0.425379,0.46890287,-0.43408406,0.438581,0.45038398,-0.40333117,0.414898,0.41809631,-0.37279252,0.401696,0.40375655,-0.3540862,0.399386,0.42788188,-0.33244182,0.399785,0.40250828,-0.29400373,0.371657,0.40210211,-0.28296533,0.367791,0.40347423,-0.27485304,0.364276,0.45648862,-0.33613777,0.405026,0.44568951,-0.32340683,0.375791,0.47429732,-0.36831043,0.395127,0.48404895,-0.39506981,0.411771,0.48263345,-0.34499948,0.411551,0.46124908,-0.3092863,0.382121,0.49750162,-0.34392956,0.398856,0.52466117,-0.37782267,0.417425,0.51795641,-0.36585232,0.42305,0.48959476,-0.32486633,0.395287,0.48580421,-0.31780157,0.382531,0.5007604,-0.33343706,0.386096
0.49627421,-0.45069101,0.448671,0.47565422,-0.39134323,0.425815,0.46680597,-0.43299424,0.438981,0.44608087,-0.40191537,0.414197,0.412689,-0.3688563,0.401382,0.40033873,-0.35128117,0.398468,0.42433583,-0.33076144,0.398505,0.39986208,-0.29181378,0.36927,0.40024671,-0.28127836,0.366098,0.40231254,-0.27358757,0.363213,0.45356598,-0.33539417,0.404665,0.44422637,-0.32250452,0.374599,0.46974601,-0.36618249,0.393272,0.48187358,-0.39380021,0.410009,0.48032283,-0.34512648,0.412033,0.46067833,-0.30924854,0.381575,0.49559816,-0.34306383,0.397725,0.52275914,-0.37780971,0.416475,0.51518384,-0.36731231,0.424668,0.49238765,-0.32526095,0.396048,0.48757585,-0.31972611,0.382899,0.49803344,-0.34131179,0.385894
0.4902779,-0.44725188,0.444086,0.46645107,-0.38794937,0.421411,0.46278788,-0.43103409,0.436053,0.4373796,-0.40214092,0.413073,0.40750992,-0.36751542,0.40102,0.3946805,-0.34813049,0.397487,0.41710564,-0.32844033,0.396355,0.39085025,-0.28660481,0.368277,0.39162997,-0.27628648,0.365534,0.39490704,-0.26917255,0.363041,0.44370889,-0.33146665,0.400427,0.43061222,-0.3179038,0.370681,0.46078059,-0.36396666,0.389993,0.47236324,-0.38862582,0.406814,0.46841816,-0.34266476,0.406059,0.45236777,-0.31279845,0.376313,0.48550078,-0.34852034,0.393037,0.5091618,-0.38391783,0.411729,0.50193031,-0.36439648,0.416637,0.48137248,-0.31956243,0.389572,0.47728068,-0.31424911,0.377136,0.48929498,-0.33675386,0.381065
0.48727049,-0.44657648,0.442039,0.46021745,-0.38938053,0.419918,0.45708538,-0.42938266,0.433906,0.4340897,-0.39909083,0.410913,0.40573723,-0.36700791,0.40054,0.3918231,-0.34784914,0.39819,0.41222599,-0.32909745,0.395091,0.38824434,-0.28900677,0.367301,0.38917885,-0.27880469,0.364806,0.39001477,-0.26903941,0.362537,0.43972869,-0.33315441,0.399446,0.42935046,-0.31728416,0.37017,0.45850114,-0.36251951,0.389667,0.46891447,-0.38799063,0.406377,0.46478503,-0.34242671,0.405255,0.44895343,-0.31158031,0.376035,0.48269144,-0.34680631,0.392924,0.50677694,-0.38231623,0.411469,0.49863959,-0.36397552,0.415941,0.4782528,-0.31926062,0.388869,0.4733336,-0.31653361,0.376431,0.48341538,-0.33621022,0.380378
0.46200262,-0.44279509,0.428553,0.4326894,-0.38369359,0.408961,0.42355331,-0.42882913,0.420511,0.40112004,-0.39285383,0.404785,0.37439475,-0.36014691,0.393209,0.3605254,-0.33838399,0.389308,0.38763926,-0.32349878,0.385891,0.37345232,-0.285693,0.360244,0.37983843,-0.27548976,0.359422,0.38731068,-0.26741601,0.358674,0.41563567,-0.32886921,0.39083,0.40747734,-0.31830014,0.363796,0.43190481,-0.36481547,0.384196,0.44135217,-0.39009887,0.400378,0.44081281,-0.33908504,0.396866,0.42758448,-0.3095791,0.36984,0.46089926,-0.34550941,0.38751,0.48350859,-0.38126999,0.405482,0.47425673,-0.36154665,0.407369,0.45648527,-0.3192102,0.382054,0.45240205,-0.31687317,0.370423,0.46259347,-0.33766516,0.375255
0.44282582,-0.44487426,0.426145,0.42076629,-0.38240824,0.407591,0.41581145,-0.42649077,0.418218,0.38875231,-0.39142425,0.403312,0.36289669,-0.35943158,0.392428,0.34969419,-0.33810759,0.38899,0.37715952,-0.32303855,0.385342,0.36356591,-0.28579689,0.360375,0.36628721,-0.27410578,0.357087,0.36964974,-0.26453927,0.354098,0.40522231,-0.32852505,0.390421,0.39767973,-0.31876474,0.364327,0.42162844,-0.36565488,0.38508,0.43068588,-0.39073705,0.401033,0.43029733,-0.33874413,0.396467,0.41766321,-0.30989635,0.370219,0.45037723,-0.34611304,0.388187,0.47237462,-0.38172321,0.405964,0.46331842,-0.36103988,0.406798,0.4462476,-0.31922189,0.382068,0.44233506,-0.3171144,0.370705,0.45257554,-0.33818616,0.375834
0.42125819,-0.43981164,0.420962,0.40351213,-0.38632282,0.411272,0.38550996,-0.42341698,0.414633,0.36554756,-0.39033665,0.401921,0.34358104,-0.36185172,0.3948,0.33295364,-0.34249463,0.393804,0.36786682,-0.33297185,0.396826,0.35549306,-0.2996858,0.37877,0.38068995,-0.32345552,0.396076,0.40316349,-0.35781708,0.41176,0.39690281,-0.33887195,0.402304,0.39750907,-0.33632907,0.384551,0.42246088,-0.38694266,0.407696,0.42874189,-0.41092207,0.421382,0.42180344,-0.34880889,0.407788,0.41719109,-0.32611386,0.389259,0.45089098,-0.36480305,0.409272,0.46973449,-0.39936507,0.424749,0.45270405,-0.36958599,0.415895,0.44588898,-0.35104495,0.397662,0.44317925,-0.34245083,0.389285,0.45855236,-0.36494233,0.397208
0.41871433,-0.44135782,0.421535,0.39071419,-0.38668494,0.408382,0.38785361,-0.43038042,0.418075,0.35834,-0.40457973,0.405036,0.32972482,-0.38071136,0.398293,0.31502975,-0.36316086,0.396983,0.34607239,-0.3407096,0.395397,0.32694429,-0.30912046,0.376309,0.32027868,-0.29569305,0.370182,0.33645635,-0.31723033,0.382506,0.37120363,-0.3370972,0.396211,0.36126107,-0.32296632,0.375663,0.39174703,-0.3659131,0.398684,0.40850122,-0.40121913,0.413342,0.39407018,-0.33936516,0.398202,0.37902252,-0.32027848,0.377889,0.41206818,-0.35645304,0.397847,0.44241603,-0.39104175,0.414023,0.42493419,-0.35136579,0.402852,0.40925206,-0.3429145,0.3832,0.40222306,-0.33933469,0.374171,0.41290923,-0.35061316,0.381714
0.38734006,-0.44127623,0.421038,0.36662294,-0.38583745,0.408444,0.3634361,-0.43342586,0.419211,0.33926243,-0.40806512,0.408864,0.30995832,-0.3834855,0.401534,0.29617367,-0.36676531,0.401177,0.32439545,-0.34226963,0.397926,0.30312811,-0.31417622,0.380069,0.2924484,-0.30019801,0.371141,0.29562839,-0.30047937,0.379752,0.34799743,-0.33706222,0.396789,0.33374212,-0.32532267,0.376829,0.36171888,-0.3683155,0.39997,0.38066138,-0.40301329,0.414454,0.36943664,-0.33794688,0.397118,0.35938458,-0.32890447,0.37748,0.3819471,-0.36715571,0.397548,0.40082565,-0.40388339,0.413495,0.39834989,-0.34816599,0.399731,0.38131349,-0.34640108,0.381198,0.37353931,-0.34612425,0.372683,0.38219473,-0.36083314,0.380586
0.34946902,-0.42896781,0.413378,0.3314977,-0.37194893,0.401144,0.32597355,-0.41990657,0.411963,0.28594201,-0.39629327,0.398675,0.25168755,-0.37576237,0.38707,0.23313866,-0.3574404,0.381685,0.29198966,-0.32678166,0.391391,0.26812585,-0.30555054,0.374419,0.25576732,-0.29466606,0.365933,0.25654214,-0.29892358,0.376268,0.31542461,-0.32242962,0.389821,0.3002225,-0.32545468,0.370308,0.31947625,-0.3601602,0.393516,0.3329244,-0.39774026,0.407859,0.33653671,-0.32406598,0.389759,0.32250253,-0.32227601,0.370558,0.34253528,-0.36275842,0.390684,0.35900052,-0.40133066,0.406477,0.36477619,-0.33532756,0.391852,0.34600384,-0.33826301,0.373764,0.33740899,-0.34053647,0.365453,0.34394845,-0.35773147,0.373502
0.33514039,-0.42520248,0.408458,0.31143766,-0.36959318,0.396915,0.30291914,-0.41621735,0.40787,0.26824468,-0.39271601,0.395743,0.23789835,-0.37191895,0.38465,0.22143409,-0.3523844,0.375636,0.2766264,-0.32324328,0.388678,0.25181039,-0.3025076,0.372972,0.23886569,-0.29183775,0.365119,0.23804772,-0.29600709,0.375856,0.29932209,-0.32019907,0.386233,0.2815621,-0.32521252,0.36753,0.29697361,-0.36115138,0.39083,0.30983648,-0.39861592,0.404908,0.31949429,-0.3229077,0.38538,0.30270315,-0.32318359,0.367343,0.32080901,-0.36456621,0.387568,0.33502001,-0.40351234,0.40293,0.34600177,-0.3354918,0.386429,0.32549971,-0.33778766,0.369223,0.31741069,-0.34166795,0.361318,0.3237632,-0.36075884,0.369637
0.29447169,-0.42102389,0.402181,0.27982647,-0.36621316,0.392817,0.27169402,-0.4123859,0.401054,0.23652654,-0.38959758,0.388752,0.20562199,-0.3690479,0.377063,0.18910995,-0.34993502,0.368548,0.24339707,-0.32316135,0.385296,0.21796016,-0.30200638,0.370772,0.20458095,-0.29106429,0.36351,0.20162962,-0.29501086,0.374884,0.26683801,-0.3187503,0.384152,0.25197871,-0.32362447,0.36738,0.26594541,-0.35875441,0.391254,0.27988039,-0.39521651,0.404814,0.28768874,-0.3201094,0.38415,0.272877,-0.3199893,0.3677,0.29140313,-0.3607793,0.388406,0.30588183,-0.39833692,0.40332,0.31511058,-0.33068053,0.385807,0.29675707,-0.33330246,0.369891,0.29011987,-0.33757823,0.362579,0.29649802,-0.35670531,0.371509
0.28252482,-0.41888139,0.400114,0.2585717,-0.36636241,0.393303,0.24720718,-0.40859757,0.396096,0.20903582,-0.381775,0.381058,0.17721195,-0.3584448,0.366506,0.16097506,-0.33857292,0.357088,0.22034128,-0.32277425,0.383706,0.19665471,-0.29954987,0.36901,0.18425079,-0.28760399,0.361662,0.18134041,-0.290522,0.373052,0.24671635,-0.32086989,0.387,0.2338942,-0.32519087,0.372263,0.24659159,-0.35946723,0.396371,0.2561481,-0.3954546,0.40927,0.27005453,-0.32406106,0.390397,0.25788243,-0.3267254,0.375073,0.27260107,-0.3659455,0.395934,0.28329733,-0.40312684,0.410455,0.30037262,-0.33643772,0.395561,0.28188726,-0.34074328,0.380305,0.28237891,-0.35201969,0.373296,0.29445683,-0.37652678,0.382475
0.21008471,-0.37433789,0.355056,0.2009202,-0.32818967,0.355525,0.19004985,-0.37000871,0.356437,0.1642528,-0.35338026,0.359047,0.14251237,-0.34006157,0.361423,0.12861969,-0.32442753,0.358364,0.17175481,-0.29668537,0.35761,0.14956762,-0.29780893,0.351966,0.15343022,-0.31640638,0.349144,0.16758074,-0.34998653,0.36354,0.19313461,-0.28892036,0.355958,0.17177996,-0.29391307,0.349182,0.19065222,-0.34540664,0.374292,0.20735604,-0.3650092,0.384625,0.21186903,-0.28657892,0.354551,0.193116,-0.29184661,0.34833,0.21276746,-0.3360574,0.370126,0.23083106,-0.35533992,0.381346,0.23600515,-0.29123718,0.352828,0.21007629,-0.29784431,0.34538,0.21400988,-0.31378274,0.341957,0.23185565,-0.32718543,0.353608
0.21557821,-0.37541613,0.362164,0.20058718,-0.33051181,0.360314,0.19876568,-0.37732763,0.368883,0.16995678,-0.36603446,0.372415,0.14445611,-0.35184465,0.372493,0.12428361,-0.33731818,0.368034,0.16519911,-0.30593152,0.367786,0.13816034,-0.27121121,0.362947,0.1274037,-0.28170144,0.360528,0.12190063,-0.30504009,0.373983,0.18031675,-0.29134375,0.358603,0.15625848,-0.31057196,0.348372,0.17728385,-0.35974597,0.371393,0.19970653,-0.37742225,0.385457,0.19454679,-0.28334773,0.351227,0.16552472,-0.29096891,0.338427,0.18864072,-0.32996551,0.35824,0.21522456,-0.34753797,0.373748,0.21441596,-0.28105228,0.342958,0.18360339,-0.30010433,0.33669,0.1712826,-0.31458928,0.333809,0.17873145,-0.33369244,0.344774
0.20892914,-0.37049478,0.359426,0.18341511,-0.3279505,0.359215,0.18247978,-0.36829794,0.365622,0.15010418,-0.35896047,0.366696,0.12114819,-0.34853445,0.365206,0.10549287,-0.33454949,0.363203,0.15101435,-0.30481412,0.367074,0.12590455,-0.27006799,0.363531,0.11568019,-0.28078986,0.36176,0.11013339,-0.30438127,0.375905,0.16860442,-0.29214823,0.35902,0.14683397,-0.31284627,0.35048,0.1668303,-0.36305623,0.374091,0.18916605,-0.38368609,0.391105,0.18452709,-0.28564409,0.352411,0.1613616,-0.29866088,0.341573,0.18452738,-0.33867987,0.361914,0.2115391,-0.36245392,0.380658,0.20566411,-0.28486579,0.344744,0.17754588,-0.30324969,0.339347,0.16422078,-0.3179562,0.336867,0.16871069,-0.33850136,0.348341
0.20531797,-0.38782553,0.380345,0.17662266,-0.33937156,0.371139,0.18803808,-0.38970707,0.386947,0.14729606,-0.37749861,0.384804,0.11747185,-0.36663637,0.383785,0.10116868,-0.35208263,0.381778,0.14173854,-0.31175351,0.373693,0.11154349,-0.2734785,0.359602,0.093290048,-0.27357446,0.352556,0.079188961,-0.28674484,0.362239,0.15611539,-0.29634687,0.362619,0.11864288,-0.29833068,0.345125,0.13111085,-0.34563665,0.366065,0.15208911,-0.36806139,0.378965,0.16998184,-0.28827919,0.354426,0.14092778,-0.30000529,0.334086,0.16106859,-0.33668784,0.352075,0.18419491,-0.36395904,0.368429,0.19003213,-0.28692765,0.346507,0.15544726,-0.30054891,0.335062,0.162724,-0.32528558,0.349715,0.1798233,-0.33229591,0.362572
0.19652061,-0.391267,0.38369,0.16826551,-0.34273981,0.373648,0.17986087,-0.39315,0.390473,0.1391728,-0.38213335,0.388443,0.10939439,-0.37135993,0.388082,0.093214127,-0.35667832,0.38637,0.13319612,-0.31478636,0.375894,0.10562919,-0.27404958,0.360452,0.086745714,-0.27156724,0.352731,0.071786149,-0.28201563,0.361754,0.14740888,-0.2994252,0.364355,0.10789799,-0.29942675,0.346065,0.11725486,-0.34657908,0.366544,0.13793419,-0.36946968,0.379588,0.16116494,-0.29143265,0.355864,0.12948243,-0.30054997,0.334621,0.14925554,-0.33691133,0.352204,0.17281564,-0.3635382,0.36819,0.1811153,-0.29022737,0.347745,0.14567296,-0.30561267,0.335872,0.15370772,-0.32856385,0.350204,0.17108822,-0.3341665,0.362849
0.19275228,-0.39494263,0.386251,0.16647489,-0.34398733,0.374595,0.17126163,-0.39598649,0.39301,0.13183554,-0.38090566,0.390687,0.10237355,-0.36798697,0.390047,0.087144263,-0.35098664,0.387544,0.1330033,-0.31285379,0.375764,0.099402659,-0.27633523,0.361842,0.079651057,-0.27268508,0.35488,0.067773695,-0.28258441,0.363994,0.14756938,-0.29839396,0.363808,0.1085187,-0.29786524,0.343986,0.11618397,-0.3445835,0.363799,0.1359737,-0.36814178,0.377188,0.16136209,-0.29136376,0.355136,0.12923922,-0.29859481,0.332299,0.14812921,-0.33467937,0.3493,0.17107199,-0.36085708,0.364756,0.18098273,-0.29167221,0.347091,0.14626642,-0.29992423,0.334153,0.14763236,-0.33252505,0.348006,0.16193576,-0.35216468,0.360229
0.18519757,-0.39495354,0.385478,0.16550775,-0.34355604,0.37458,0.16870686,-0.39496403,0.392158,0.13089503,-0.37924611,0.38984,0.1014474,-0.36530012,0.388439,0.086512582,-0.3483884,0.386139,0.1330864,-0.31192799,0.376139,0.10038703,-0.2761831,0.363625,0.08087344,-0.27261594,0.357367,0.064730991,-0.28127874,0.367119,0.14803548,-0.29807636,0.364496,0.11179237,-0.30052972,0.345387,0.11975423,-0.34797944,0.365593,0.13853875,-0.37001894,0.378848,0.16200104,-0.29152868,0.356004,0.13019406,-0.29882577,0.333945,0.14954158,-0.33494847,0.351291,0.17279421,-0.36024344,0.367061,0.18156989,-0.29238366,0.348036,0.14701241,-0.29925015,0.335532,0.14830151,-0.33209523,0.349662,0.16258384,-0.35231089,0.36213
0.18337095,-0.39354096,0.383981,0.1647925,-0.34285789,0.374046,0.16704713,-0.39354869,0.390834,0.13036978,-0.37807835,0.388925,0.101007,-0.3639291,0.387395,0.085755481,-0.3473515,0.38507,0.13317238,-0.31156933,0.376452,0.10134752,-0.27584309,0.364795,0.082623129,-0.26999028,0.358967,0.066762865,-0.27750338,0.369102,0.14827301,-0.29792652,0.364851,0.11272625,-0.30204588,0.346664,0.12131839,-0.34980795,0.367132,0.13998741,-0.37140372,0.380135,0.16225684,-0.29149645,0.356298,0.13060737,-0.29897513,0.335136,0.15043233,-0.33491213,0.352708,0.17429507,-0.35693944,0.368683,0.18164408,-0.29238615,0.348088,0.14741127,-0.29932826,0.336334,0.14871449,-0.33237322,0.350662,0.16171802,-0.35001535,0.360354
0.18131433,-0.38912974,0.381081,0.16340269,-0.33232373,0.372816,0.16562835,-0.38992303,0.388865,0.13047614,-0.36733637,0.388591,0.10238929,-0.35243599,0.387779,0.086811478,-0.33571789,0.384927,0.13539323,-0.30118082,0.377505,0.1002429,-0.28027476,0.36839,0.080661607,-0.27126808,0.363832,0.057178036,-0.2608726,0.359688,0.14997431,-0.28750668,0.365168,0.11565336,-0.30063923,0.348615,0.11935016,-0.34842266,0.368997,0.14031203,-0.37220604,0.381382,0.16318935,-0.28101933,0.35584,0.13028066,-0.28863351,0.336027,0.14391107,-0.32774536,0.353511,0.16208194,-0.36159601,0.369405,0.18111441,-0.28179245,0.346431,0.14732411,-0.29862597,0.336433,0.14853651,-0.33166382,0.350754,0.16149959,-0.34908156,0.359826
0.18032602,-0.38644802,0.379819,0.16450291,-0.33054638,0.372566,0.16469655,-0.38680958,0.387368,0.13045322,-0.36424154,0.386933,0.10331161,-0.34732843,0.386669,0.087448879,-0.3323063,0.38381,0.13745116,-0.29932252,0.377608,0.10547786,-0.27372828,0.365717,0.087699514,-0.26243183,0.361283,0.070621046,-0.25171919,0.357252,0.15238674,-0.28638309,0.365854,0.12161547,-0.294242,0.350268,0.12908547,-0.34167815,0.371214,0.1450463,-0.37120223,0.383426,0.1657849,-0.28043047,0.356906,0.13159228,-0.28815146,0.338195,0.1278922,-0.32493085,0.356176,0.13959983,-0.35862597,0.372521,0.18370959,-0.28172136,0.34776,0.15007016,-0.29543684,0.338272,0.15781653,-0.32628138,0.352985,0.17403239,-0.34818371,0.362029
0.18218906,-0.37575093,0.380799,0.17213209,-0.31569384,0.374153,0.1745891,-0.36541595,0.388802,0.14092455,-0.35265215,0.389137,0.11070211,-0.33939415,0.387281,0.090713657,-0.32566599,0.382757,0.14376784,-0.28827707,0.380174,0.10798105,-0.26864266,0.368355,0.088391609,-0.26094384,0.362619,0.070604102,-0.25120239,0.358288,0.15702823,-0.2733332,0.368003,0.12333252,-0.2841731,0.353021,0.12874259,-0.33007874,0.373823,0.1460806,-0.35609911,0.385772,0.16940869,-0.26554837,0.35865,0.13343486,-0.27377496,0.340395,0.1290722,-0.31081005,0.358243,0.14110411,-0.34392546,0.372744,0.18675541,-0.26437075,0.348924,0.15372618,-0.27943578,0.340163,0.15829282,-0.31180901,0.3548,0.17123733,-0.33298972,0.363559
0.19838915,-0.35882305,0.381901,0.18681196,-0.30323093,0.372484,0.19428403,-0.3538992,0.391083,0.15979407,-0.34612776,0.39272,0.1282198,-0.3362429,0.391603,0.11177197,-0.32194098,0.390529,0.15910016,-0.274807,0.378231,0.12064048,-0.25317117,0.364333,0.10103298,-0.24376222,0.360054,0.082188413,-0.23484849,0.356165,0.16898639,-0.25969389,0.36377,0.12994351,-0.26729162,0.346236,0.13402798,-0.30988816,0.364817,0.15237537,-0.33579683,0.376991,0.17893993,-0.25188243,0.35281,0.139469,-0.26066049,0.331427,0.14118809,-0.29772605,0.347316,0.16003132,-0.32289694,0.362298,0.19404036,-0.25092905,0.341702,0.15831497,-0.26463964,0.332006,0.16402625,-0.29503718,0.345121,0.17808481,-0.31499674,0.353619
0.22021867,-0.35338905,0.388199,0.20931066,-0.29779619,0.37661,0.21713656,-0.34748741,0.396793,0.18295852,-0.34018719,0.397229,0.15084877,-0.33033433,0.394696,0.1325546,-0.31579917,0.392096,0.18115138,-0.26596669,0.38019,0.14259463,-0.24494269,0.364174,0.12335729,-0.23613019,0.359242,0.10489388,-0.22780906,0.354758,0.19097862,-0.25301631,0.365884,0.15378231,-0.26457583,0.346268,0.15846712,-0.30685361,0.364397,0.17806261,-0.3303941,0.377183,0.20100564,-0.24711839,0.355271,0.16041014,-0.25560773,0.331935,0.15934845,-0.29100441,0.347438,0.17569269,-0.3193229,0.363054,0.21637669,-0.24869489,0.344951,0.17846163,-0.25585122,0.333431,0.19433977,-0.2828583,0.346188,0.2156035,-0.29147263,0.356112
0.23836349,-0.3482421,0.388666,0.22778204,-0.28874895,0.370096,0.23466172,-0.34208391,0.394736,0.20144848,-0.32713264,0.390564,0.16905584,-0.30831125,0.381118,0.1508944,-0.29206131,0.373237,0.20260196,-0.24867543,0.365895,0.16367361,-0.2284035,0.348728,0.14368261,-0.21834927,0.3406,0.12498189,-0.20905547,0.333212,0.21101824,-0.23856313,0.35291,0.17032443,-0.203906,0.330764,0.16510741,-0.2348435,0.34768,0.17725976,-0.26181057,0.361001,0.2199295,-0.23548765,0.344085,0.17861364,-0.24173414,0.326681,0.17250127,-0.27185028,0.341591,0.18250143,-0.30188941,0.354575,0.23423735,-0.24149986,0.337086,0.19123373,-0.24313716,0.319431,0.19926895,-0.2704942,0.331008,0.21903815,-0.2853392,0.341711
0.26566107,-0.33474678,0.382545,0.24724465,-0.28631808,0.37422,0.25374507,-0.33472457,0.391896,0.22330718,-0.32836506,0.393956,0.19293439,-0.31544909,0.392144,0.17489294,-0.30271568,0.388552,0.22144157,-0.25690306,0.380892,0.1857666,-0.23463999,0.367311,0.16700341,-0.22309282,0.360573,0.1493186,-0.21231888,0.354496,0.23080948,-0.2434801,0.366516,0.19083841,-0.21492396,0.353644,0.16551035,-0.20305949,0.346135,0.15993646,-0.22112329,0.35499,0.24024886,-0.23698589,0.355515,0.20753664,-0.25200473,0.345765,0.20456813,-0.28403238,0.36251,0.21311735,-0.31474475,0.373136,0.25456903,-0.23748911,0.344167,0.21957144,-0.24478558,0.3353,0.22145079,-0.27273107,0.348657,0.23493646,-0.29355286,0.356956
0.30505566,-0.3421079,0.396943,0.28903038,-0.28785617,0.382073,0.28938173,-0.33516998,0.402389,0.25593452,-0.32234673,0.397697,0.22652579,-0.30462791,0.394746,0.2079163,-0.28988383,0.387379,0.25975579,-0.24616144,0.379467,0.22370496,-0.24500015,0.356745,0.21880957,-0.2579233,0.345384,0.22494755,-0.2824419,0.351713,0.27442509,-0.239671,0.368313,0.23709098,-0.23906831,0.34544,0.2309492,-0.25562588,0.332098,0.24476392,-0.26634373,0.338752,0.2881401,-0.2394672,0.360624,0.25131734,-0.24139934,0.3351,0.26914374,-0.27675038,0.351715,0.29292767,-0.29393384,0.368659,0.3072878,-0.24843948,0.354295,0.26981085,-0.25102849,0.338398,0.27163595,-0.27537111,0.351845,0.2797838,-0.29096842,0.362654
0.33479777,-0.32499689,0.403259,0.31463754,-0.27050629,0.38126,0.31443856,-0.31686608,0.404252,0.28207931,-0.29841717,0.392439,0.25003192,-0.27787284,0.379474,0.23227852,-0.25940731,0.36863,0.27625316,-0.22578657,0.368289,0.24556253,-0.17604739,0.345365,0.23373279,-0.17610168,0.333904,0.23411891,-0.18531488,0.339867,0.29605598,-0.22153157,0.360902,0.26789408,-0.21688389,0.331526,0.25456442,-0.22943658,0.31439,0.26106985,-0.24759327,0.318974,0.31406371,-0.22324147,0.357031,0.28567836,-0.21646119,0.326397,0.30172064,-0.2503488,0.342313,0.31992871,-0.2693251,0.361041,0.33849797,-0.23438881,0.356413,0.31057236,-0.2366377,0.333233,0.30891142,-0.25944806,0.345821,0.3121985,-0.27264626,0.358861
0.37079573,-0.31200072,0.416773,0.34597035,-0.25384397,0.387734,0.34573932,-0.29905033,0.411942,0.31125718,-0.275308,0.394334,0.27952371,-0.25250491,0.379128,0.26142991,-0.23222404,0.365641,0.29902618,-0.20232283,0.362686,0.2769123,-0.15880725,0.349837,0.26983602,-0.16179563,0.343412,0.27695565,-0.17347328,0.355117,0.32293395,-0.20228591,0.360861,0.29140788,-0.19534873,0.325769,0.27423408,-0.20561664,0.305298,0.27701188,-0.22080658,0.307137,0.34536557,-0.20776388,0.362276,0.31453133,-0.19345494,0.327646,0.32905452,-0.22529665,0.34168,0.34738098,-0.24697421,0.361269,0.37660483,-0.22408892,0.369066,0.34234365,-0.22265314,0.338541,0.33941153,-0.24297374,0.34926,0.3438579,-0.25653446,0.364159
0.36934719,-0.30362148,0.40676,0.36979923,-0.24962026,0.386806,0.351983,-0.28556595,0.396061,0.31509515,-0.24993656,0.373081,0.2856783,-0.22105151,0.353339,0.27138636,-0.19953891,0.345065,0.33351312,-0.19492254,0.360074,0.31525906,-0.14953477,0.34654,0.31695521,-0.13967525,0.339774,0.33594562,-0.13715108,0.351316,0.36274967,-0.20218609,0.368341,0.36782462,-0.17557341,0.343267,0.36564532,-0.18278488,0.32864,0.36825741,-0.20508508,0.334748,0.38760926,-0.21322869,0.377154,0.3839711,-0.18602787,0.351231,0.38497679,-0.18436577,0.337969,0.39935533,-0.20868097,0.344363,0.41817188,-0.2351351,0.390957,0.39791649,-0.23792234,0.364026,0.39739203,-0.2590145,0.376768,0.39944597,-0.28054451,0.391187
0.39809791,-0.26976459,0.37343,0.38271776,-0.22308823,0.365151,0.37148093,-0.2550004,0.368832,0.33962794,-0.21834584,0.357638,0.31454216,-0.19057105,0.350577,0.30350183,-0.17705525,0.351214,0.34303698,-0.18091832,0.353854,0.33251093,-0.14000562,0.337729,0.32833911,-0.12001009,0.329666,0.34525343,-0.10946414,0.340498,0.36941979,-0.18569611,0.35749,0.37261187,-0.16490608,0.341279,0.36386249,-0.18387787,0.331824,0.36841227,-0.20306768,0.342798,0.39278398,-0.1934861,0.361315,0.39495975,-0.16676158,0.344483,0.39138401,-0.17196089,0.33587,0.40000577,-0.19874925,0.347734,0.42363151,-0.20979644,0.36724,0.41882295,-0.17798116,0.350669,0.41517476,-0.17281029,0.343056,0.42752228,-0.18542425,0.351748
0.43604402,-0.2639537,0.387623,0.42085763,-0.21581105,0.380611,0.41135659,-0.25323047,0.383341,0.38512793,-0.22159543,0.376094,0.35987431,-0.19287446,0.366798,0.35218074,-0.17063219,0.360276,0.38093186,-0.17318869,0.370543,0.37284788,-0.12851602,0.356392,0.3707143,-0.10705311,0.349316,0.38282017,-0.090482112,0.355847,0.40725039,-0.17390582,0.374123,0.41980233,-0.15930679,0.360233,0.42258173,-0.1750366,0.352131,0.43253059,-0.20053879,0.36383,0.43023074,-0.17891302,0.377775,0.44437675,-0.16771417,0.3648,0.45350765,-0.16279789,0.358162,0.47580443,-0.18815254,0.3713,0.45975679,-0.19257915,0.383272,0.4594525,-0.18008882,0.367766,0.46017745,-0.17412821,0.360642,0.4813691,-0.17604033,0.369716
0.46891145,-0.27140017,0.442125,0.4516759,-0.21861307,0.411783,0.44171021,-0.253245,0.43214,0.41619098,-0.21963856,0.412751,0.39892561,-0.19920451,0.391399,0.39567091,-0.19416701,0.373192,0.40543639,-0.16354469,0.37924,0.39887489,-0.12187917,0.365136,0.39595299,-0.10095338,0.358085,0.39342761,-0.081416683,0.351674,0.43512438,-0.17113475,0.383703,0.39943654,-0.17891611,0.347332,0.4056165,-0.20423643,0.362218,0.41980201,-0.20921419,0.379444,0.46194148,-0.18264016,0.390428,0.43959959,-0.15193976,0.354143,0.42493845,-0.15081733,0.335579,0.42681616,-0.16973673,0.33629,0.49713743,-0.20556954,0.403637,0.46711641,-0.16815811,0.370245,0.45332252,-0.15097069,0.354903,0.44121718,-0.14885159,0.341365
0.46942057,-0.26504586,0.440041,0.45935814,-0.20785528,0.410821,0.43966121,-0.24492794,0.42631,0.42484883,-0.20639382,0.406649,0.4067631,-0.17824505,0.382506,0.40428028,-0.16845329,0.36367,0.41393512,-0.15135862,0.374171,0.41018792,-0.11051417,0.365012,0.40963549,-0.090256088,0.360433,0.40930382,-0.071132747,0.356269,0.4466018,-0.16136997,0.383781,0.43074149,-0.13076829,0.348228,0.44876292,-0.15962958,0.361555,0.45939183,-0.18207599,0.378597,0.47541336,-0.17475365,0.394629,0.45420436,-0.130515,0.358802,0.44479741,-0.11274482,0.340472,0.45449657,-0.12222108,0.34022,0.51213488,-0.1996958,0.412446,0.48554807,-0.16551834,0.378803,0.47336278,-0.14977867,0.363345,0.46420821,-0.14214053,0.349705
0.47522484,-0.26438592,0.442397,0.46553168,-0.20833749,0.413803,0.44925183,-0.24064328,0.428465,0.44854866,-0.2121923,0.409089,0.42122062,-0.17700132,0.384721,0.41296837,-0.15490969,0.376551,0.4218479,-0.15043473,0.377301,0.41890399,-0.10950106,0.369306,0.41910145,-0.08927768,0.365308,0.41815061,-0.071807178,0.361673,0.45492624,-0.16038099,0.387343,0.43907095,-0.12356724,0.352318,0.46220071,-0.14846475,0.365811,0.47492244,-0.17321449,0.382715,0.48417516,-0.17375366,0.398484,0.46618731,-0.13499908,0.363096,0.45703449,-0.11512349,0.34499,0.46895831,-0.12254084,0.344963,0.52159165,-0.19879292,0.416531,0.49540154,-0.16365289,0.383238,0.48356464,-0.14786508,0.367941,0.47460485,-0.13830192,0.354444
0.48977864,-0.26278094,0.451886,0.47838273,-0.20097239,0.422218,0.45932563,-0.24111071,0.436819,0.44737887,-0.1996176,0.414583,0.42957771,-0.16899829,0.38984,0.4213379,-0.14596951,0.377989,0.42960042,-0.14153507,0.383555,0.4314478,-0.10361991,0.375823,0.43339613,-0.084290537,0.371957,0.43590208,-0.066431311,0.368443,0.46395592,-0.15350605,0.394763,0.44689624,-0.12020916,0.358969,0.46733396,-0.1411648,0.370732,0.47987793,-0.16601585,0.387371,0.4946135,-0.16870763,0.406973,0.47189209,-0.14691115,0.369234,0.46049646,-0.13569874,0.349926,0.46405146,-0.15076567,0.348034,0.53421421,-0.19631473,0.426456,0.50677639,-0.15989044,0.392392,0.4948926,-0.14528523,0.37674,0.48506176,-0.13490783,0.36293
0.50053084,-0.26068386,0.458411,0.48698869,-0.20138502,0.428707,0.47053518,-0.23350373,0.443361,0.45663715,-0.19713714,0.420334,0.43839615,-0.16642066,0.395372,0.42609561,-0.14486409,0.381167,0.4388207,-0.13969869,0.390043,0.43951299,-0.10135784,0.381533,0.44087178,-0.081870726,0.377278,0.44230916,-0.065598961,0.37341,0.47323364,-0.15134571,0.401219,0.45604694,-0.11782114,0.365394,0.47687342,-0.13834567,0.377154,0.48878554,-0.16590041,0.393804,0.50398327,-0.16625987,0.413406,0.48132349,-0.14424049,0.375647,0.46995245,-0.1329094,0.356328,0.47377549,-0.14777176,0.35443,0.54379079,-0.1934956,0.43287,0.51615768,-0.15701549,0.398785,0.50421587,-0.14236556,0.383124,0.49397981,-0.13457762,0.369306
0.52192903,-0.25586232,0.468036,0.50398283,-0.19425695,0.435467,0.48933065,-0.23407785,0.453343,0.469098,-0.19485067,0.428988,0.44846742,-0.16785239,0.40369,0.43733612,-0.1441074,0.389648,0.44313848,-0.13637618,0.395407,0.44409115,-0.10181516,0.386009,0.44485173,-0.082486874,0.38131,0.44603987,-0.064396018,0.377039,0.47834606,-0.14425004,0.405328,0.45366477,-0.1114226,0.36721,0.47039156,-0.12866134,0.377435,0.48428411,-0.153348,0.394432,0.51122605,-0.15623624,0.416769,0.48153305,-0.14542119,0.377213,0.46367918,-0.14080292,0.356975,0.4587595,-0.15760646,0.353578,0.55622872,-0.18059664,0.43587,0.51903778,-0.14406727,0.400196,0.50655514,-0.12856584,0.387357,0.49558455,-0.11477269,0.376028
0.52815036,-0.25470258,0.469619,0.50564354,-0.19276516,0.436598,0.49426304,-0.2334418,0.454817,0.47015917,-0.19397012,0.430594,0.45121527,-0.16557897,0.405801,0.43849337,-0.14336367,0.390779,0.44250672,-0.13537973,0.396104,0.44368567,-0.10121488,0.386928,0.44436937,-0.082134618,0.38234,0.4454157,-0.064161476,0.378169,0.47776674,-0.14251576,0.40604,0.45235155,-0.11084666,0.367596,0.46956007,-0.12653633,0.377346,0.48459537,-0.15129343,0.394313,0.50971249,-0.15123488,0.417539,0.47991823,-0.14453606,0.377672,0.46107166,-0.1394227,0.357274,0.44808355,-0.15362336,0.353472,0.5561952,-0.17401711,0.436788,0.51912022,-0.14226301,0.400867,0.50508982,-0.12699491,0.386901,0.49273738,-0.11345352,0.374578
0.53602781,-0.25125038,0.46994,0.50632627,-0.19161013,0.436961,0.50113763,-0.23132811,0.455937,0.46864225,-0.19178211,0.431785,0.44537157,-0.16235673,0.408685,0.4315685,-0.13893913,0.394676,0.44374437,-0.13482812,0.397526,0.44344089,-0.099744479,0.388027,0.44368867,-0.080965025,0.383277,0.44548252,-0.063519843,0.378959,0.47703815,-0.13972283,0.406442,0.45234297,-0.11006625,0.367944,0.47055263,-0.12632521,0.378554,0.48581805,-0.15124463,0.39581,0.50941333,-0.15010092,0.417098,0.47559055,-0.1414005,0.377479,0.45828824,-0.13694999,0.357209,0.44910671,-0.15294199,0.354072,0.55464628,-0.17244846,0.435355,0.51689544,-0.13873537,0.399535,0.50000268,-0.12458633,0.383076,0.48998194,-0.11185548,0.372569
0.53775837,-0.25075798,0.470073,0.50692675,-0.19100321,0.437083,0.50303464,-0.23145529,0.456613,0.47008517,-0.19350061,0.432743,0.44558304,-0.16386925,0.409973,0.43120238,-0.14056951,0.396203,0.4440538,-0.1349355,0.398342,0.44237528,-0.099372213,0.389655,0.44119725,-0.080258015,0.385312,0.44244898,-0.062914974,0.381363,0.47683518,-0.139421,0.406554,0.44991895,-0.10873081,0.368012,0.46883341,-0.12485544,0.379097,0.4854578,-0.15098209,0.396518,0.50878887,-0.14917413,0.416632,0.4745447,-0.14038158,0.37718,0.45702936,-0.13588495,0.356995,0.44856332,-0.15212299,0.354236,0.55370721,-0.17074733,0.434217,0.51488218,-0.13713459,0.398469,0.49999104,-0.12146855,0.384667,0.48770699,-0.10969469,0.372489
0.53918774,-0.25067697,0.471154,0.50744747,-0.19076581,0.438189,0.50486574,-0.23202082,0.458358,0.46600706,-0.19238591,0.434563,0.43761896,-0.16403221,0.413252,0.42181337,-0.14105986,0.400702,0.43851348,-0.13423712,0.40032,0.43499957,-0.099038149,0.391676,0.4334725,-0.080185387,0.387353,0.43552569,-0.062938571,0.383424,0.47120857,-0.13762093,0.407683,0.44582504,-0.10691743,0.369138,0.46516378,-0.12360194,0.380759,0.4854593,-0.14986487,0.398349,0.50267555,-0.14571669,0.417058,0.47175682,-0.13753082,0.377856,0.45428788,-0.1328146,0.357799,0.44911587,-0.15152089,0.355482,0.54756296,-0.16519423,0.43382,0.51124008,-0.13546531,0.398206,0.4947829,-0.12162185,0.383216,0.4821132,-0.10998551,0.36999
0.53723438,-0.24925132,0.469282,0.50509798,-0.18850843,0.436621,0.50098582,-0.23212314,0.45704,0.46189932,-0.19272494,0.434218,0.43688401,-0.16392246,0.413022,0.42081525,-0.14087316,0.400342,0.4375346,-0.13382496,0.399663,0.43321784,-0.098453202,0.390568,0.4312743,-0.079539364,0.386021,0.429664,-0.061549123,0.381887,0.46960242,-0.13688901,0.406395,0.44152088,-0.10548128,0.368082,0.46192257,-0.12232742,0.380303,0.48069218,-0.14844185,0.397999,0.5004944,-0.14470364,0.415221,0.46753206,-0.13539493,0.376425,0.45070172,-0.13064275,0.356576,0.44586339,-0.14859719,0.354784,0.54463247,-0.16380269,0.431289,0.50630306,-0.13512774,0.395958,0.48869233,-0.12195316,0.379725,0.47315367,-0.11032884,0.365402
0.53347428,-0.25031213,0.469009,0.50257143,-0.18791283,0.436646,0.49960492,-0.2315498,0.456114,0.45958802,-0.19235107,0.432907,0.43436533,-0.16318019,0.411941,0.41866712,-0.14028678,0.399845,0.43599612,-0.13390736,0.399038,0.43233088,-0.097543318,0.392947,0.42811311,-0.077301771,0.389901,0.43087709,-0.060585706,0.387132,0.46899814,-0.13750503,0.406696,0.44169025,-0.10607051,0.368612,0.4620292,-0.12248095,0.380605,0.48025823,-0.14835998,0.398146,0.50063752,-0.14577092,0.416253,0.46829883,-0.13571484,0.377399,0.45156504,-0.13107724,0.35752,0.44647772,-0.14857642,0.355545,0.54555471,-0.16544032,0.433122,0.50198433,-0.12855211,0.397813,0.49082604,-0.11273401,0.387606,0.48100679,-0.09857786,0.378599
0.5333499,-0.25013778,0.46904,0.50056648,-0.18794304,0.436803,0.49938999,-0.23153633,0.456196,0.45904022,-0.19255212,0.432962,0.43358843,-0.16312367,0.412067,0.41788538,-0.14025052,0.400149,0.43557955,-0.13424801,0.399344,0.43090137,-0.097097643,0.395165,0.43050544,-0.078119074,0.393075,0.43037785,-0.060069067,0.391176,0.46849719,-0.13787928,0.40697,0.44150124,-0.1063086,0.368984,0.46214501,-0.1224937,0.381105,0.48027196,-0.14831569,0.398651,0.50003219,-0.14616949,0.416489,0.46819312,-0.1356495,0.377736,0.45133735,-0.13159271,0.357909,0.44611842,-0.14905639,0.356048,0.54476982,-0.16585467,0.433291,0.5015091,-0.12831711,0.398062,0.49033811,-0.11287536,0.387572,0.48077469,-0.099364009,0.378316
0.53313637,-0.25039477,0.469502,0.49669584,-0.18933591,0.436974,0.49928118,-0.23196809,0.456851,0.4552401,-0.19412353,0.43365,0.42943916,-0.16408954,0.413197,0.41482907,-0.14078711,0.401587,0.43150398,-0.13557083,0.399575,0.4279227,-0.097855881,0.395097,0.42724431,-0.078890063,0.392858,0.42830587,-0.060516556,0.390822,0.46386937,-0.13932599,0.406872,0.43719299,-0.10755553,0.36866,0.45544186,-0.12446473,0.380708,0.476853,-0.14829703,0.398312,0.49485633,-0.14773847,0.41615,0.46154647,-0.13719651,0.377281,0.44382585,-0.1351672,0.357394,0.4389148,-0.15124929,0.355457,0.53881893,-0.16758264,0.432721,0.4977539,-0.12882477,0.397373,0.48649405,-0.11384941,0.386522,0.47771176,-0.10009625,0.376949
0.52957045,-0.24758881,0.465742,0.48911662,-0.1899158,0.435024,0.49470447,-0.23035756,0.453871,0.44893245,-0.19427212,0.431564,0.42298735,-0.16418075,0.411911,0.40752433,-0.14133066,0.400625,0.42847079,-0.1362735,0.399805,0.42337079,-0.097702447,0.394064,0.42168823,-0.078128195,0.391193,0.42067924,-0.059930211,0.388583,0.46021809,-0.14009055,0.406597,0.43421675,-0.095433942,0.36981,0.45461945,-0.11538715,0.383582,0.46950377,-0.13964258,0.401212,0.49029076,-0.14852339,0.415277,0.46190628,-0.13803048,0.377908,0.44561385,-0.13647902,0.358789,0.43999156,-0.15479988,0.358426,0.53244926,-0.16827367,0.430832,0.49294403,-0.12851708,0.396681,0.48177663,-0.11074219,0.38814,0.47356142,-0.095801194,0.380603
0.50823984,-0.2429054,0.458976,0.48103535,-0.18350845,0.434921,0.47524582,-0.22499776,0.446765,0.43763954,-0.18253458,0.425651,0.41119199,-0.15187335,0.408497,0.39732711,-0.12955085,0.39874,0.42892413,-0.13025689,0.403579,0.42329634,-0.092876204,0.39592,0.42070224,-0.075126624,0.39209,0.42186652,-0.058972142,0.388608,0.46277645,-0.13744715,0.41266,0.44557912,-0.099534273,0.381448,0.46981566,-0.12098863,0.398303,0.48393484,-0.14564588,0.414883,0.49711795,-0.15021588,0.422554,0.47165707,-0.13178947,0.389793,0.44543369,-0.14332379,0.373031,0.43712818,-0.1592557,0.375941,0.537346,-0.17124247,0.438345,0.50715264,-0.12197436,0.40827,0.49998029,-0.11932852,0.396437,0.48721282,-0.12996893,0.385995
0.51174361,-0.24297328,0.459537,0.4843282,-0.1870485,0.435762,0.47442036,-0.22454819,0.447634,0.4380293,-0.18446195,0.426668,0.41123482,-0.15399778,0.409827,0.39784286,-0.13180689,0.400325,0.43075806,-0.13217794,0.405,0.42488538,-0.096544079,0.396783,0.42042239,-0.075722788,0.392674,0.41957698,-0.059045762,0.388939,0.46642693,-0.14084181,0.41376,0.44390306,-0.10229163,0.382795,0.46780054,-0.12404857,0.399958,0.48436041,-0.14759042,0.416546,0.49759742,-0.15068331,0.423362,0.47209912,-0.13338786,0.39093,0.44566649,-0.14504285,0.374337,0.43812989,-0.16116251,0.377547,0.53780186,-0.17206243,0.438763,0.50871113,-0.12321103,0.408942,0.49852834,-0.11998948,0.395241,0.48350469,-0.13005065,0.383152
0.50679743,-0.24378088,0.460964,0.48465324,-0.18839261,0.43725,0.47419757,-0.22539646,0.448973,0.43758573,-0.18831665,0.428109,0.41030794,-0.15790789,0.411318,0.39781672,-0.13402735,0.401769,0.43048417,-0.13577969,0.406412,0.42370523,-0.098383106,0.398263,0.41991471,-0.078373241,0.394189,0.41984602,-0.060186047,0.390485,0.46455536,-0.14261672,0.415304,0.4417138,-0.11308011,0.384391,0.46410654,-0.13878011,0.401519,0.47842335,-0.16286412,0.418077,0.49721259,-0.15301395,0.425008,0.4733624,-0.13384564,0.392587,0.44747183,-0.14517762,0.375999,0.43996716,-0.16177025,0.379186,0.53731504,-0.17417045,0.440517,0.50894636,-0.12624636,0.410717,0.49848669,-0.12291346,0.397025,0.48436677,-0.13182327,0.384944
0.50922148,-0.24654464,0.464854,0.48162701,-0.19317379,0.44027,0.47440677,-0.22754719,0.452984,0.43347835,-0.19615872,0.431091,0.40565154,-0.16702003,0.415027,0.3915544,-0.14548501,0.406368,0.42841817,-0.139963,0.409026,0.41703427,-0.10572837,0.402511,0.41263289,-0.086645929,0.399253,0.4098857,-0.070606196,0.396291,0.46208719,-0.14618224,0.417521,0.43542133,-0.11732204,0.385852,0.45678959,-0.14381449,0.402724,0.47605884,-0.16558736,0.419475,0.49302161,-0.15643253,0.426985,0.47095315,-0.13278327,0.393964,0.44653297,-0.14267651,0.37707,0.44012633,-0.16138915,0.379931,0.53464905,-0.17809158,0.442368,0.50211863,-0.12919571,0.412022,0.49085507,-0.12632846,0.398079,0.47942056,-0.13541676,0.385776
