sluyters/QuantumLeap/src/datasets/gesture/HandGestureDataset_SHREC2017_csv/Gesture10/finger_2/subject_24_essai_1_skeletons_world.csv
Wrist_x,Wrist_y,Wrist_z,Palm_x,Palm_y,Palm_z,thumb_base_x,thumb_base_y,thumb_base_z,thumb_first_joint_x,thumb_first_joint_y,thumb_first_joint_z,thumb_second_joint_x,thumb_second_joint_y,thumb_second_joint_z,thumb_tip_x,thumb_tip_y,thumb_tip_z,index_base_x,index_base_y,index_base_z,index_first_joint_x,index_first_joint_y,index_first_joint_z,index_second_joint_x,index_second_joint_y,index_second_joint_z,index_tip_x,index_tip_y,index_tip_z,middle_base_x,middle_base_y,middle_base_z,middle_first_joint_x,middle_first_joint_y,middle_first_joint_z,middle_second_joint_x,middle_second_joint_y,middle_second_joint_z,middle_tip_x,middle_tip_y,middle_tip_z,ring_base_x,ring_base_y,ring_base_z,ring_first_joint_x,ring_first_joint_y,ring_first_joint_z,ring_second_joint_x,ring_second_joint_y,ring_second_joint_z,ring_tip_x,ring_tip_y,ring_tip_z,pinky_base_x,pinky_base_y,pinky_base_z,pinky_first_joint_x,pinky_first_joint_y,pinky_first_joint_z,pinky_second_joint_x,pinky_second_joint_y,pinky_second_joint_z,pinky_tip_x,pinky_tip_y,pinky_tip_z,
0.364333903,-0.243284102,0.59039,0.363414724,-0.187333884,0.580632,0.345033046,-0.22864287,0.589145,0.315465743,-0.192157119,0.57745,0.288782447,-0.169809039,0.569321,0.278144323,-0.150325775,0.56565,0.336024828,-0.142639125,0.572557,0.321602663,-0.101057216,0.558176,0.311887689,-0.0900862234,0.550986,0.303213319,-0.0753918835,0.54445,0.359773956,-0.143709728,0.571306,0.356647475,-0.0990611886,0.558036,0.349822518,-0.0798463715,0.550295,0.344756258,-0.0631616526,0.544766,0.379833216,-0.148921629,0.571208,0.377852074,-0.105594983,0.558895,0.376836098,-0.0834417188,0.552595,0.375007744,-0.0633524131,0.546869,0.404255412,-0.162856345,0.572752,0.409281786,-0.127791766,0.567241,0.411306341,-0.111409399,0.564709,0.413094374,-0.0969479811,0.562475
0.362439635,-0.238642576,0.590922,0.360268439,-0.185979323,0.578205,0.342312669,-0.222286845,0.588293,0.309994191,-0.184989012,0.577724,0.284180286,-0.158767793,0.567439,0.274009374,-0.138472599,0.56245,0.337508456,-0.135418357,0.566391,0.319172766,-0.0947151025,0.550007,0.306971758,-0.0833845436,0.541815,0.296739585,-0.0704900342,0.534368,0.358412085,-0.142066481,0.566047,0.354305196,-0.0970474233,0.550771,0.346309914,-0.0749121838,0.54186,0.340543836,-0.0585997187,0.535495,0.379281623,-0.151382891,0.566978,0.375876694,-0.107530251,0.551386,0.373426693,-0.0852473457,0.543409,0.371781639,-0.0639050681,0.539586,0.399865101,-0.172619856,0.570234,0.405951739,-0.135013142,0.561855,0.407778738,-0.118620714,0.558006,0.408594369,-0.103828578,0.554609
0.362569053,-0.240148719,0.591044,0.35889378,-0.188736243,0.577609,0.342938205,-0.224328388,0.588695,0.311398442,-0.188010921,0.575739,0.285270492,-0.16172257,0.565096,0.275201304,-0.144387155,0.561284,0.334431483,-0.13827403,0.565674,0.318387679,-0.0958835277,0.548674,0.306946605,-0.0810337619,0.540174,0.296289548,-0.0695558107,0.532447,0.357551082,-0.14214317,0.564766,0.355092565,-0.096881343,0.547142,0.346404519,-0.0750133787,0.536862,0.340153484,-0.0589439334,0.529519,0.37752294,-0.150959582,0.5653,0.374556661,-0.107333518,0.546392,0.370399524,-0.0903130722,0.536718,0.364754643,-0.0737487502,0.527923,0.40007625,-0.16929622,0.568212,0.401956246,-0.132771812,0.55412,0.402402366,-0.116484606,0.547645,0.401241319,-0.102461801,0.541932
0.361148248,-0.242586643,0.588045,0.359852465,-0.197232683,0.574436,0.341876213,-0.228171835,0.584972,0.310065437,-0.196386046,0.569238,0.286553899,-0.168568735,0.559986,0.276211654,-0.147086576,0.557567,0.335240856,-0.150366287,0.561462,0.317503859,-0.11316591,0.543857,0.308541596,-0.0941454063,0.535054,0.29875985,-0.081470662,0.527051,0.358909721,-0.153628278,0.561426,0.351399585,-0.107565308,0.541625,0.344182578,-0.0825097698,0.530075,0.33781043,-0.0624557162,0.521825,0.378829804,-0.160646158,0.562696,0.37514277,-0.116615607,0.544273,0.369900256,-0.0961775513,0.534847,0.364366261,-0.0754297719,0.526279,0.402960215,-0.17683907,0.566499,0.403404718,-0.139020889,0.552107,0.402845898,-0.121787339,0.545495,0.400551467,-0.104444546,0.53966
0.357914464,-0.241045003,0.580292,0.360716575,-0.194716498,0.569216,0.340377713,-0.226501316,0.580601,0.313276526,-0.196284529,0.569619,0.290709539,-0.170884371,0.564761,0.281603734,-0.151263374,0.563081,0.346399805,-0.1473399,0.56225,0.322287769,-0.113364383,0.548641,0.312743264,-0.0949698999,0.54189,0.303134565,-0.0803405645,0.535753,0.366752884,-0.150675391,0.558631,0.35272875,-0.106471176,0.541808,0.34595472,-0.0807069939,0.531994,0.339572961,-0.0622421283,0.524984,0.383546284,-0.157754865,0.556708,0.376694072,-0.115247734,0.543712,0.371344968,-0.0935010412,0.537064,0.367053015,-0.0755953717,0.53102,0.403247038,-0.173928681,0.556338,0.402278787,-0.137424358,0.547699,0.402869264,-0.120611048,0.54373,0.401378287,-0.104811105,0.540228
0.36246723,-0.244596743,0.587346,0.358245842,-0.198299242,0.569445,0.343239739,-0.232446826,0.583844,0.311957502,-0.19698566,0.566801,0.287309344,-0.17130717,0.55546,0.274980931,-0.150388942,0.547863,0.331972254,-0.150185435,0.553081,0.311939704,-0.111324524,0.532983,0.301958548,-0.0914526953,0.522934,0.291352843,-0.0758976481,0.513799,0.355522026,-0.15539293,0.552345,0.346239588,-0.108770299,0.530349,0.33863583,-0.0837644419,0.517518,0.33242882,-0.0669066772,0.508353,0.375475614,-0.164252506,0.553447,0.371625889,-0.119889999,0.534392,0.366182511,-0.100813886,0.524643,0.361261307,-0.083123522,0.51578,0.399835553,-0.182875683,0.557781,0.401330232,-0.14560805,0.544348,0.401912889,-0.128689375,0.538176,0.399516867,-0.1175103,0.53273
0.362372522,-0.24813567,0.586243,0.356174198,-0.209846241,0.566454,0.341793038,-0.234951283,0.582499,0.307506934,-0.209677508,0.564855,0.278474605,-0.182461341,0.548903,0.26618146,-0.161410889,0.541236,0.330277328,-0.157790189,0.548527,0.308193375,-0.122215315,0.526713,0.297052239,-0.104103218,0.515806,0.286859654,-0.0874281627,0.50589,0.352487616,-0.16351615,0.547551,0.342092056,-0.117865119,0.522328,0.334048054,-0.0927568255,0.507615,0.32830968,-0.0747247755,0.497106,0.371437759,-0.172899603,0.548635,0.36907011,-0.128673015,0.52811,0.361392237,-0.111112022,0.517609,0.354404107,-0.0948019849,0.508062,0.394756555,-0.192404637,0.553269,0.398528268,-0.155700131,0.539886,0.400018069,-0.139106937,0.533737,0.395987317,-0.128966809,0.528312
0.35861916,-0.273549411,0.572383,0.352129172,-0.224891081,0.556394,0.337408481,-0.259294814,0.56826,0.306242806,-0.227845458,0.554892,0.278826672,-0.200978878,0.541394,0.26537848,-0.179989272,0.531432,0.321040423,-0.175543901,0.540513,0.302952159,-0.137081033,0.520646,0.293614077,-0.11817646,0.510713,0.285078402,-0.100777716,0.501683,0.345875267,-0.179107674,0.541129,0.337677785,-0.132419776,0.519235,0.329838053,-0.109857469,0.506463,0.324159897,-0.0936302593,0.497341,0.367148817,-0.186629395,0.543161,0.359160267,-0.142797033,0.522219,0.354678701,-0.120929894,0.511504,0.350615215,-0.100984898,0.501764,0.393490642,-0.203733233,0.548261,0.392017848,-0.166062335,0.531339,0.391303477,-0.148864802,0.523564,0.390108333,-0.134503857,0.516703
0.354491763,-0.281051946,0.571778,0.347461546,-0.240075657,0.553656,0.333129316,-0.265357508,0.566422,0.298030056,-0.238446731,0.549688,0.271625492,-0.210970392,0.536496,0.25907824,-0.189716225,0.527223,0.31894657,-0.187701476,0.534786,0.298537884,-0.149268913,0.513292,0.288282092,-0.129843202,0.502545,0.278925764,-0.112049683,0.492775,0.344203994,-0.194204169,0.536356,0.332211914,-0.148912692,0.512413,0.325215921,-0.122497704,0.498446,0.32118573,-0.103945421,0.489945,0.365492232,-0.20416044,0.539377,0.356288074,-0.159119127,0.516467,0.350438383,-0.138544295,0.504745,0.345140005,-0.119693924,0.494089,0.391277966,-0.224131093,0.545998,0.388238138,-0.185840377,0.528288,0.386667496,-0.168634293,0.520151,0.385273524,-0.153480657,0.512972
0.349003775,-0.307418708,0.567423,0.344650173,-0.258369861,0.549587,0.328990023,-0.291037425,0.562882,0.298251157,-0.258258748,0.547904,0.271385998,-0.230896544,0.533714,0.258496849,-0.209533802,0.523757,0.316421145,-0.206307421,0.531948,0.293950286,-0.17051444,0.511047,0.282609136,-0.152326973,0.500596,0.272231676,-0.135606033,0.491096,0.340375128,-0.212253487,0.53256,0.326254226,-0.168078497,0.508984,0.318020945,-0.142157633,0.495231,0.312141826,-0.123566733,0.485407,0.360813973,-0.221818076,0.534765,0.351651866,-0.177223705,0.512175,0.346270176,-0.15528927,0.500617,0.341381756,-0.135322098,0.49011,0.385918597,-0.241483471,0.540381,0.386686271,-0.202715896,0.524586,0.384808634,-0.187274332,0.517329,0.383186858,-0.173522973,0.510926
0.353061116,-0.317497119,0.569199,0.348061912,-0.275549834,0.549511,0.332674138,-0.310852002,0.562163,0.298199505,-0.277549441,0.544642,0.27031203,-0.251119075,0.531549,0.256852971,-0.230269467,0.523009,0.313435348,-0.22303921,0.527455,0.288754508,-0.186503764,0.504072,0.276346147,-0.1680687,0.49238,0.26502234,-0.151202034,0.481751,0.340327421,-0.22786956,0.530715,0.324382934,-0.185654051,0.505211,0.314978416,-0.1615616,0.490334,0.308261713,-0.144205329,0.479707,0.363418998,-0.236595821,0.535276,0.349799169,-0.195017586,0.510936,0.342822243,-0.173789412,0.498483,0.336487016,-0.15441142,0.487162,0.392187205,-0.255415572,0.543967,0.384751653,-0.216599024,0.523369,0.38100182,-0.201102117,0.513906,0.37771181,-0.187357142,0.505555
0.352960339,-0.331901698,0.567084,0.343243319,-0.28768301,0.547107,0.330098684,-0.316216182,0.560596,0.29451234,-0.289256962,0.543473,0.266994572,-0.262972913,0.531053,0.254883538,-0.242520464,0.524935,0.30930081,-0.235075003,0.525559,0.287486931,-0.197362477,0.502212,0.27643758,-0.178943426,0.490539,0.266354104,-0.162076715,0.479927,0.335544894,-0.240158067,0.528036,0.320147341,-0.196779231,0.50237,0.311169106,-0.171343782,0.487398,0.304758188,-0.153109642,0.476704,0.35813031,-0.249099322,0.53198,0.346353971,-0.205119999,0.507507,0.339671532,-0.185010622,0.494987,0.333611794,-0.166599588,0.483604,0.386303056,-0.268176614,0.539996,0.383490568,-0.227601349,0.521608,0.380461696,-0.215197849,0.513159,0.3778396,-0.204115432,0.505704
0.353188564,-0.348693268,0.568067,0.343918593,-0.307098016,0.546531,0.330751367,-0.342944427,0.560815,0.29694697,-0.310975418,0.545752,0.269099778,-0.285576236,0.534457,0.256695164,-0.265549997,0.528945,0.30690626,-0.254610678,0.522972,0.283383179,-0.217906928,0.498226,0.271512247,-0.200438981,0.485853,0.260673207,-0.184441875,0.474604,0.333694982,-0.258973873,0.525971,0.317215597,-0.215287483,0.49901,0.307422635,-0.190699559,0.483283,0.300428907,-0.173057493,0.47205,0.356966717,-0.267370458,0.530493,0.344290877,-0.226474353,0.504921,0.337820084,-0.205462674,0.491838,0.331946659,-0.186303234,0.479944,0.386382981,-0.285889095,0.539452,0.380366326,-0.245061639,0.519052,0.376763869,-0.231594361,0.509679,0.373621404,-0.219609566,0.501408
0.354313783,-0.370387611,0.571644,0.340032924,-0.328146411,0.54778,0.327439254,-0.364266996,0.56341,0.292495232,-0.331725614,0.546502,0.263611065,-0.306318524,0.533398,0.25023504,-0.28587165,0.526383,0.301502793,-0.274775934,0.521422,0.277347689,-0.23950196,0.494746,0.265204217,-0.222780117,0.481407,0.25412235,-0.207485061,0.469281,0.3286849,-0.279440726,0.524997,0.311530968,-0.236852825,0.496066,0.301378199,-0.213024744,0.479189,0.294128098,-0.195938934,0.467134,0.352378356,-0.288138701,0.530216,0.338991634,-0.24939746,0.502801,0.332163831,-0.229472699,0.488775,0.325970591,-0.211290554,0.476024,0.382478312,-0.307097995,0.540387,0.376036409,-0.266627114,0.518244,0.372339767,-0.253779907,0.50807,0.369114942,-0.242367915,0.499093
0.34111908,-0.399474462,0.566442,0.333685143,-0.346823689,0.543446,0.317195485,-0.381543344,0.557298,0.282466727,-0.347710096,0.539539,0.253930834,-0.321744772,0.52577,0.242076954,-0.301226837,0.520335,0.298659012,-0.290610692,0.516504,0.274486914,-0.257842199,0.489919,0.262333033,-0.241320398,0.476627,0.251239207,-0.22620997,0.464543,0.326395228,-0.297661936,0.521494,0.309794703,-0.257984976,0.493009,0.300119681,-0.234678881,0.476393,0.293213636,-0.217949034,0.464525,0.350170863,-0.308376145,0.527794,0.3376902,-0.271446556,0.500803,0.331340558,-0.252413707,0.486994,0.325591593,-0.235018737,0.47444,0.379701898,-0.329815299,0.539084,0.374172022,-0.289520735,0.51666,0.370611311,-0.278061008,0.506357,0.367514878,-0.267883138,0.497266
0.34321302,-0.408480576,0.56768,0.335227252,-0.365512505,0.54233,0.321511523,-0.398344428,0.559351,0.286550623,-0.367083045,0.543822,0.254643537,-0.343722109,0.52713,0.239736907,-0.323420989,0.518648,0.299900773,-0.309582307,0.514863,0.271954832,-0.276052446,0.487429,0.257897024,-0.259362983,0.473711,0.245074515,-0.244131119,0.461241,0.326203476,-0.317432514,0.518129,0.30657287,-0.277747064,0.487832,0.294797296,-0.255638349,0.470158,0.286381857,-0.239765614,0.457534,0.349026176,-0.328749688,0.523235,0.332428666,-0.28529404,0.494242,0.323890784,-0.263271652,0.479408,0.318252355,-0.244933829,0.469059,0.377752102,-0.350768965,0.533527,0.368921826,-0.30514597,0.508638,0.360799606,-0.299114513,0.497203,0.353635093,-0.293803895,0.487113
0.34348251,-0.425978674,0.568307,0.332420674,-0.384106832,0.541531,0.318935444,-0.416332399,0.559546,0.284536672,-0.382153614,0.539962,0.254145704,-0.357395727,0.520596,0.240110463,-0.335964954,0.510011,0.296804539,-0.327731394,0.512567,0.268552012,-0.295057801,0.484082,0.254343573,-0.278822144,0.46984,0.241385621,-0.264013167,0.456892,0.323115519,-0.336180248,0.515968,0.303168202,-0.297562511,0.484488,0.291194268,-0.276162625,0.466125,0.282637941,-0.260811384,0.453008,0.345959119,-0.347976702,0.521322,0.329138824,-0.3052179,0.491196,0.320484537,-0.283552181,0.475783,0.314725091,-0.265678344,0.464893,0.374738047,-0.370519444,0.532147,0.365939369,-0.324639751,0.506401,0.357566445,-0.319232443,0.494571,0.35018093,-0.314488634,0.484133
0.343100627,-0.444393789,0.572667,0.33335193,-0.399395367,0.54565,0.319907136,-0.425275872,0.563502,0.282021213,-0.398417814,0.542414,0.251372904,-0.373459867,0.525283,0.23786902,-0.35218744,0.516769,0.298885757,-0.342065676,0.516011,0.271635141,-0.31034608,0.487151,0.25795103,-0.294416038,0.472721,0.245472324,-0.279888009,0.459603,0.325350893,-0.351272169,0.519858,0.305734557,-0.313365097,0.488141,0.294072609,-0.292017356,0.46964,0.28574157,-0.276712277,0.456424,0.34817531,-0.363707226,0.525602,0.330901194,-0.32098561,0.495158,0.322053946,-0.299197832,0.479582,0.316675226,-0.281813087,0.46938,0.376687721,-0.387024375,0.536923,0.369643608,-0.342029527,0.513234,0.363650575,-0.332571049,0.50235,0.357406484,-0.322156284,0.492746
0.340921651,-0.470467344,0.571719,0.333172444,-0.41952333,0.545364,0.318052928,-0.450998467,0.562535,0.282191395,-0.418912249,0.542628,0.251707505,-0.39395713,0.525683,0.238098742,-0.372490878,0.516911,0.2990489,-0.361953878,0.51614,0.271922335,-0.331168163,0.487631,0.258289143,-0.315704112,0.473376,0.245849998,-0.301599882,0.460418,0.325613499,-0.371480828,0.520204,0.305989885,-0.335128028,0.489006,0.29440054,-0.314374471,0.470808,0.286120679,-0.29948925,0.457809,0.348492792,-0.384180207,0.526063,0.331522503,-0.341884496,0.496128,0.322833621,-0.320288127,0.480812,0.317155024,-0.302807487,0.470186,0.377002066,-0.407805854,0.537408,0.370480391,-0.362993626,0.514458,0.364768018,-0.353676808,0.503914,0.359706407,-0.345596536,0.49461
0.339336358,-0.478865966,0.572856,0.331628416,-0.435193163,0.546103,0.316158936,-0.458109845,0.562501,0.276011561,-0.435245104,0.541011,0.24539147,-0.409437321,0.52613,0.229861256,-0.388992784,0.516257,0.299072468,-0.375585682,0.515119,0.273039135,-0.348006734,0.485708,0.259950267,-0.334167648,0.471002,0.248003586,-0.321554045,0.457633,0.326196339,-0.38702151,0.520563,0.316910105,-0.347869783,0.489875,0.311502156,-0.325017029,0.471974,0.307644155,-0.308686476,0.459188,0.349360537,-0.401324227,0.527596,0.332050035,-0.360260795,0.496885,0.322777151,-0.341142335,0.481173,0.314093714,-0.324909319,0.466889,0.377864909,-0.426890217,0.540383,0.370983257,-0.381702358,0.515779,0.365445295,-0.371187624,0.504474,0.360225114,-0.363134959,0.494499
0.33499522,-0.505094671,0.569422,0.330261814,-0.45618596,0.545538,0.312986641,-0.485161235,0.56058,0.276069604,-0.453936708,0.541561,0.249042445,-0.431437169,0.533278,0.234749007,-0.41134196,0.525503,0.299097209,-0.399061423,0.518391,0.273930595,-0.367966674,0.491474,0.261268655,-0.352334621,0.478015,0.24970605,-0.338067796,0.465779,0.325627283,-0.409842057,0.522738,0.318255997,-0.369193954,0.494506,0.313969362,-0.345457924,0.478037,0.310914691,-0.328491601,0.466274,0.348180737,-0.423422387,0.528593,0.329433678,-0.380015338,0.500248,0.319842393,-0.35784401,0.485746,0.311123526,-0.337712849,0.472563,0.37573552,-0.447780324,0.539513,0.371468837,-0.402739586,0.517155,0.367619294,-0.390008642,0.506883,0.361441185,-0.387247942,0.497818
0.337314616,-0.514910301,0.572111,0.332622273,-0.47246427,0.547824,0.315420272,-0.495084114,0.563634,0.279382129,-0.471234724,0.54544,0.25181425,-0.447674289,0.536279,0.236459065,-0.427843204,0.527383,0.301166794,-0.414731322,0.520874,0.275336603,-0.383175356,0.493946,0.262345398,-0.36732231,0.480482,0.250485263,-0.352861232,0.468242,0.327307511,-0.425275798,0.524638,0.318966379,-0.383763146,0.495924,0.31410019,-0.35954606,0.479173,0.310625131,-0.342248674,0.467209,0.349611943,-0.438745833,0.530053,0.33015118,-0.394649438,0.501554,0.319913956,-0.373331274,0.486974,0.310435689,-0.354682564,0.473719,0.377012917,-0.463129244,0.540525,0.372410369,-0.41746101,0.518105,0.368248551,-0.40455502,0.507804,0.361752948,-0.401692675,0.498715
0.340488348,-0.539295286,0.585303,0.333136094,-0.489297198,0.559389,0.323202659,-0.519214144,0.580766,0.286132181,-0.495355627,0.561358,0.255699431,-0.472179273,0.543535,0.239782162,-0.451292902,0.529764,0.313159264,-0.425534159,0.53639,0.285359386,-0.403536214,0.508917,0.271329409,-0.392535426,0.495181,0.258488329,-0.382532593,0.482693,0.330685634,-0.438079055,0.534649,0.284429236,-0.437067834,0.504588,0.29088966,-0.463914419,0.521663,0.300763847,-0.483827883,0.537896,0.345763369,-0.453800151,0.535688,0.327489172,-0.416846905,0.506433,0.318142004,-0.397887207,0.491465,0.308848668,-0.381430572,0.477858,0.364412671,-0.482002005,0.541313,0.371137508,-0.442762253,0.521639,0.370321372,-0.42813524,0.5126,0.362156076,-0.422390378,0.504625
0.331793723,-0.546984913,0.586265,0.329773451,-0.490755598,0.558113,0.316704939,-0.521997309,0.580145,0.281843739,-0.494528903,0.558565,0.251348969,-0.470124724,0.539013,0.236501166,-0.447940703,0.525414,0.308961277,-0.424390551,0.531607,0.278753726,-0.40739691,0.502505,0.264241519,-0.397599216,0.487954,0.250801678,-0.388893619,0.474726,0.325868753,-0.441548181,0.531236,0.292592813,-0.419552378,0.499126,0.286712432,-0.452280343,0.515089,0.297083327,-0.470505053,0.531715,0.341498463,-0.458937536,0.533616,0.325535394,-0.421356246,0.502638,0.316942265,-0.402548808,0.486789,0.307588663,-0.387021971,0.47238,0.360601401,-0.489232007,0.541192,0.365183675,-0.446210825,0.518564,0.359247055,-0.43446652,0.508167,0.345327149,-0.43373185,0.498993
0.333064765,-0.555507778,0.59117,0.327935684,-0.508046319,0.560427,0.317156984,-0.528990794,0.583475,0.279261289,-0.50952457,0.559808,0.248227669,-0.484836283,0.537829,0.23393435,-0.461562535,0.523458,0.306271071,-0.440124765,0.53019,0.276392337,-0.420834934,0.499156,0.261194813,-0.411423006,0.483639,0.247264112,-0.402959554,0.469532,0.32525917,-0.456351087,0.531078,0.291589202,-0.434739517,0.496739,0.284473266,-0.46571654,0.511103,0.294541744,-0.483216023,0.528033,0.341580738,-0.475194672,0.534741,0.324441078,-0.438896523,0.501793,0.315215887,-0.420803484,0.484935,0.305265638,-0.406014926,0.46961,0.361737785,-0.507189532,0.54426,0.364636947,-0.463373101,0.519607,0.357666061,-0.452308918,0.508281,0.343626371,-0.451095723,0.498286
0.327836273,-0.566535248,0.587934,0.330315921,-0.522147788,0.564681,0.313678784,-0.543536901,0.583569,0.281380944,-0.524176721,0.564668,0.253434082,-0.502777842,0.547139,0.241269416,-0.482825643,0.536849,0.313548272,-0.460921211,0.54367,0.288737934,-0.446101662,0.519,0.275699104,-0.439400408,0.506669,0.263548301,-0.433613255,0.495461,0.332702593,-0.474481019,0.542483,0.310979852,-0.451617773,0.51454,0.298206099,-0.438315003,0.498239,0.298836082,-0.443382892,0.503107,0.348478669,-0.490564484,0.543724,0.334475435,-0.461427317,0.51683,0.32735236,-0.446458992,0.503071,0.32013583,-0.433751598,0.490562,0.366864571,-0.518269601,0.549132,0.369309139,-0.480019176,0.527496,0.364589735,-0.469849494,0.517555,0.352445098,-0.470082703,0.508783
0.330814154,-0.58548332,0.596052,0.331942195,-0.534495908,0.566967,0.313688896,-0.557936575,0.586789,0.278912994,-0.527737,0.561404,0.248953541,-0.503727581,0.53702,0.234832977,-0.480555615,0.521365,0.311406038,-0.465067406,0.53583,0.282765513,-0.444436735,0.505646,0.267943089,-0.435110796,0.490554,0.254310196,-0.426889878,0.476835,0.333231237,-0.48252521,0.539201,0.308043053,-0.454211686,0.505871,0.29316568,-0.43793768,0.486428,0.291760748,-0.440329302,0.488035,0.351488393,-0.502348379,0.54475,0.33312219,-0.468169042,0.512732,0.323646901,-0.450800001,0.49635,0.314658649,-0.435595887,0.481458,0.373212663,-0.535453131,0.556196,0.375298928,-0.487779115,0.532762,0.366608703,-0.481147324,0.521995,0.352438916,-0.484147547,0.512495
0.3297026,-0.595414752,0.596042,0.331890673,-0.544554107,0.566879,0.312658232,-0.567700617,0.58656,0.27867204,-0.537468039,0.560919,0.24862996,-0.513258813,0.536322,0.234497865,-0.490012423,0.520621,0.311160786,-0.47447982,0.535408,0.282518899,-0.4539241,0.505205,0.267697297,-0.444641803,0.490104,0.254064864,-0.436462239,0.476375,0.333130501,-0.492280057,0.539038,0.307891427,-0.463983936,0.505622,0.292985475,-0.447728157,0.486129,0.291534172,-0.450427271,0.487656,0.351525171,-0.512427599,0.544807,0.333083208,-0.478182057,0.512672,0.323569306,-0.460784314,0.496231,0.31454493,-0.445560794,0.481284,0.373432754,-0.545986402,0.556524,0.375379234,-0.497786792,0.532876,0.366619238,-0.491144988,0.52201,0.352389402,-0.494035459,0.512423
0.327457631,-0.59616452,0.594089,0.330474065,-0.546385644,0.566508,0.310554073,-0.568851915,0.584755,0.27700359,-0.538196804,0.559436,0.247432048,-0.513655749,0.534264,0.23377003,-0.490618631,0.518482,0.310891197,-0.47815801,0.536279,0.283450015,-0.456666243,0.50701,0.269425315,-0.446439056,0.492376,0.255692826,-0.44009201,0.479072,0.333165816,-0.496132544,0.540178,0.32229691,-0.453405764,0.508,0.306287202,-0.443894084,0.48923,0.300540938,-0.458426974,0.491587,0.350950086,-0.518829675,0.546018,0.335949724,-0.486480994,0.515061,0.328044417,-0.470348382,0.499223,0.320491362,-0.456317642,0.484824,0.372458486,-0.551456235,0.557549,0.375634247,-0.504697079,0.534368,0.368036153,-0.49900659,0.523717,0.353975625,-0.499083752,0.51432
0.32653051,-0.597231148,0.593198,0.329764416,-0.547296807,0.565992,0.309814924,-0.570143058,0.584102,0.276533847,-0.538840437,0.55909,0.247113887,-0.514400435,0.534292,0.233589245,-0.491502687,0.518749,0.309985617,-0.481711861,0.536314,0.283082512,-0.45742201,0.507392,0.269106732,-0.446702592,0.49293,0.25512618,-0.44080785,0.479783,0.33210536,-0.499632001,0.54002,0.321573738,-0.453992109,0.508162,0.305176137,-0.444320408,0.489578,0.299181278,-0.458852031,0.492162,0.350365456,-0.519558514,0.545665,0.334845464,-0.487011802,0.514996,0.326665537,-0.470771417,0.499305,0.318234525,-0.454103803,0.48504,0.371667656,-0.552239298,0.556903,0.3745529,-0.505091755,0.533438,0.366534159,-0.499077675,0.522657,0.352488577,-0.502119965,0.513144
0.324095748,-0.60088663,0.591725,0.327688672,-0.550025489,0.564914,0.307702619,-0.573981586,0.58284,0.275168295,-0.540765747,0.558113,0.247108927,-0.514289869,0.534135,0.234335068,-0.491238173,0.519196,0.309421109,-0.484124634,0.535768,0.282762881,-0.459499481,0.507189,0.269258229,-0.447638782,0.492899,0.255321434,-0.442028244,0.479908,0.331171332,-0.50229576,0.539318,0.321955286,-0.462335074,0.507795,0.308155394,-0.450234255,0.489406,0.300904066,-0.459954772,0.492218,0.349063728,-0.52241888,0.544797,0.333850526,-0.489722075,0.514456,0.325825134,-0.473392408,0.498932,0.318926064,-0.458217474,0.48482,0.369814063,-0.555310751,0.555774,0.373049418,-0.511110631,0.532535,0.36531963,-0.505021157,0.521857,0.351726985,-0.503582924,0.512435
0.324513232,-0.599177749,0.592109,0.327276524,-0.550097846,0.564525,0.30737041,-0.574615385,0.582942,0.275583812,-0.539189814,0.55781,0.24728088,-0.513850782,0.533739,0.234606342,-0.491277513,0.518535,0.308662198,-0.482453586,0.534507,0.281954707,-0.457350844,0.505337,0.268230162,-0.445895273,0.490751,0.254077906,-0.440470985,0.477492,0.330612064,-0.500523587,0.538192,0.312761319,-0.472826904,0.506031,0.304728361,-0.451861222,0.487271,0.299589329,-0.459408252,0.489657,0.348707859,-0.520582468,0.543857,0.333480246,-0.487449493,0.51291,0.325415848,-0.470962262,0.497076,0.317689234,-0.456632432,0.482682,0.369780048,-0.553436616,0.555182,0.37334549,-0.506993218,0.532364,0.365507348,-0.501445891,0.52188,0.351570554,-0.504722501,0.512629
0.324341968,-0.599359253,0.59147,0.327915649,-0.548443054,0.563906,0.307338611,-0.574518076,0.582311,0.275851433,-0.538741654,0.55719,0.24824315,-0.512931727,0.533311,0.235880368,-0.490587875,0.518107,0.30883649,-0.482129424,0.53391,0.282148236,-0.456802058,0.504755,0.269133041,-0.444658324,0.490177,0.254323779,-0.439867191,0.476925,0.330787781,-0.500184638,0.537591,0.31393177,-0.471133743,0.505446,0.304666114,-0.451500951,0.486695,0.30113255,-0.46009661,0.489092,0.348887574,-0.520235637,0.543251,0.333967066,-0.485840224,0.51231,0.325489869,-0.470456037,0.49648,0.31743993,-0.456560985,0.482089,0.369969205,-0.553089027,0.554567,0.373635603,-0.506818291,0.532029,0.366294411,-0.500136597,0.521674,0.35239269,-0.50434636,0.512537
0.324487848,-0.599731695,0.591491,0.328065304,-0.548408705,0.563849,0.30784102,-0.572524201,0.582244,0.276422791,-0.537773245,0.557016,0.249157421,-0.512174733,0.53345,0.236402363,-0.490322239,0.518096,0.30887314,-0.481684074,0.53369,0.281882715,-0.456962616,0.50444,0.267609632,-0.445751997,0.489816,0.253144116,-0.441746807,0.47652,0.33113938,-0.499115711,0.53746,0.313931977,-0.469652107,0.505245,0.303965662,-0.447570354,0.486453,0.300126331,-0.458732191,0.488796,0.349409074,-0.519140418,0.543201,0.333933131,-0.483941161,0.512182,0.325613985,-0.46909654,0.496312,0.316873392,-0.454745007,0.481884,0.370749004,-0.551988883,0.554625,0.37431902,-0.50583464,0.532355,0.36748831,-0.498880544,0.522123,0.35393584,-0.500617774,0.513094
0.325244032,-0.599975391,0.59151,0.329603517,-0.548211351,0.564553,0.308415863,-0.572608051,0.582083,0.279606717,-0.537539151,0.556727,0.252784341,-0.511076462,0.533657,0.238845205,-0.489841266,0.51823,0.31058814,-0.479661977,0.534617,0.282808609,-0.457968891,0.505631,0.269039664,-0.446612574,0.491138,0.254674125,-0.442306464,0.477963,0.33306351,-0.497922705,0.538817,0.318257149,-0.464999466,0.507117,0.305838471,-0.446590728,0.488626,0.294432896,-0.444100558,0.475418,0.352093466,-0.516652541,0.544846,0.336727907,-0.481705575,0.514251,0.327584838,-0.466714158,0.498598,0.318685815,-0.455719581,0.484368,0.374775713,-0.549507784,0.556492,0.376251246,-0.501927729,0.533116,0.369020041,-0.494120472,0.522375,0.355761408,-0.498475234,0.512898
0.325448515,-0.599432507,0.590798,0.33001129,-0.547970099,0.564452,0.308443353,-0.571970566,0.581214,0.278624074,-0.536760005,0.555758,0.25204916,-0.511086556,0.533321,0.237867528,-0.489794402,0.518277,0.310481057,-0.48022424,0.534724,0.28242202,-0.459913389,0.505984,0.267884608,-0.451573985,0.491614,0.252373732,-0.451886304,0.47855,0.333593977,-0.498085023,0.539302,0.32134517,-0.457215939,0.50807,0.310587349,-0.438098126,0.489851,0.297596202,-0.436102724,0.476838,0.352950936,-0.517128039,0.545583,0.337739172,-0.482154457,0.515383,0.328593927,-0.466319954,0.499932,0.319519841,-0.455693956,0.485886,0.375947218,-0.550097492,0.557419,0.377041802,-0.502074813,0.533826,0.369753558,-0.494014643,0.522986,0.35643305,-0.496590479,0.513422
0.326443119,-0.600710454,0.59093,0.333316637,-0.546347859,0.565152,0.309375598,-0.573470479,0.581486,0.282952492,-0.53501754,0.556257,0.254316939,-0.510752648,0.534331,0.240447117,-0.489852603,0.519244,0.312331356,-0.479083022,0.535979,0.283884017,-0.460289532,0.507636,0.269534666,-0.452332354,0.493464,0.254548527,-0.451994425,0.480581,0.336392866,-0.495735715,0.540543,0.322397478,-0.456803065,0.509777,0.312464153,-0.438099376,0.49183,0.300884666,-0.431727187,0.47901,0.355673586,-0.515754186,0.546759,0.340824165,-0.480861864,0.51698,0.330321932,-0.465414164,0.501743,0.321014914,-0.452657607,0.487892,0.379655552,-0.548964945,0.558423,0.379526415,-0.500114084,0.535084,0.372861421,-0.492332047,0.52436,0.360013278,-0.494949879,0.514898
0.326266649,-0.599550243,0.589647,0.332690597,-0.548222349,0.565928,0.308897998,-0.57213236,0.579859,0.280367921,-0.534074974,0.554543,0.255016876,-0.50891692,0.534285,0.243764973,-0.487125459,0.521169,0.313550444,-0.480531355,0.537682,0.286828225,-0.460740922,0.510306,0.273829999,-0.449777077,0.496618,0.258954014,-0.449184364,0.484174,0.338734715,-0.497606758,0.543284,0.325493942,-0.458132849,0.514149,0.31668765,-0.432605979,0.497153,0.304993347,-0.433893096,0.485014,0.358851467,-0.516652265,0.550158,0.343687095,-0.47370581,0.521633,0.334779982,-0.456438159,0.507039,0.325868961,-0.442641592,0.493772,0.38254135,-0.549483226,0.562242,0.382588275,-0.497413403,0.5384,0.374991709,-0.489130444,0.527446,0.362001158,-0.495546176,0.51778
0.327018731,-0.599275286,0.589521,0.333344706,-0.547464496,0.565778,0.309783284,-0.572428055,0.580249,0.281001078,-0.53474441,0.555495,0.257883306,-0.507157664,0.53866,0.248480899,-0.483993443,0.528923,0.314287834,-0.479984144,0.538175,0.288010944,-0.460446677,0.511084,0.275178538,-0.449739666,0.497538,0.260084166,-0.450517827,0.485224,0.338494501,-0.496726022,0.543111,0.325241363,-0.456739657,0.514002,0.316770194,-0.432642142,0.497022,0.305210824,-0.432223558,0.484894,0.358229178,-0.516364386,0.549439,0.343635623,-0.476040712,0.521091,0.334463536,-0.456082002,0.506587,0.325641767,-0.442333617,0.493402,0.381496445,-0.5472777,0.560888,0.38491758,-0.502303959,0.542078,0.380344094,-0.492937604,0.533436,0.379714077,-0.481095603,0.525811
0.32615455,-0.596065281,0.586765,0.334649773,-0.545883925,0.566118,0.310035567,-0.57156283,0.579732,0.282236704,-0.536926907,0.558001,0.258098381,-0.505371805,0.540704,0.249187715,-0.482888316,0.530932,0.317370323,-0.482269948,0.54343,0.300105116,-0.445284269,0.519485,0.285831371,-0.445756198,0.507512,0.273501351,-0.45311662,0.496628,0.34046431,-0.496789564,0.546407,0.335815022,-0.447492609,0.520106,0.32237491,-0.438720386,0.504764,0.308670464,-0.441794583,0.493805,0.359179522,-0.514430643,0.550827,0.345367928,-0.476519884,0.525449,0.337474258,-0.458460763,0.512464,0.329641341,-0.43877022,0.500661,0.380635307,-0.543771246,0.559515,0.384995777,-0.500189181,0.542529,0.380787241,-0.490888586,0.534724,0.379014831,-0.481698345,0.527838
0.326510449,-0.594333995,0.585885,0.335754218,-0.54445074,0.566925,0.310032563,-0.569419207,0.578407,0.285231351,-0.525906716,0.556462,0.266245224,-0.498258658,0.540765,0.260211807,-0.474429941,0.531729,0.318325442,-0.47994969,0.544789,0.301512335,-0.445390638,0.521569,0.287777505,-0.446422774,0.509959,0.276328893,-0.454409161,0.499404,0.341807972,-0.497157065,0.548825,0.340617597,-0.443606589,0.523875,0.327461432,-0.4382518,0.509321,0.312970192,-0.443388113,0.498926,0.360964959,-0.515554627,0.553955,0.354213644,-0.459498819,0.52956,0.344168628,-0.447910109,0.517079,0.332279592,-0.452301955,0.505733,0.383129427,-0.546586435,0.563188,0.385708697,-0.499921811,0.544521,0.381409867,-0.487829982,0.535945,0.379185127,-0.480286184,0.528377
0.327006186,-0.593708913,0.585965,0.335898772,-0.543137121,0.567324,0.310629153,-0.568891537,0.578715,0.285549638,-0.524866187,0.557086,0.269858577,-0.49332813,0.545398,0.266598412,-0.469501544,0.539246,0.320788082,-0.47633458,0.54569,0.302739103,-0.44548536,0.522798,0.289156301,-0.447035559,0.511352,0.277923233,-0.455232837,0.500946,0.342988609,-0.494798358,0.549527,0.342006601,-0.443783435,0.524874,0.328798652,-0.438159678,0.510493,0.314307306,-0.44345596,0.50022,0.361589683,-0.514459299,0.554464,0.359603219,-0.462190715,0.535757,0.353984772,-0.447325237,0.526186,0.342990038,-0.450312527,0.517485,0.382727159,-0.545347222,0.563417,0.385655035,-0.49882954,0.544993,0.38197767,-0.487493147,0.536529,0.379535316,-0.479807731,0.52906
0.327182506,-0.592978255,0.586517,0.334598019,-0.539608378,0.568138,0.31077873,-0.567994144,0.579205,0.285060903,-0.521426651,0.557556,0.269220101,-0.49217572,0.544866,0.265658569,-0.468366152,0.537939,0.32114056,-0.47534301,0.5466,0.303784414,-0.443499854,0.523827,0.290476865,-0.4454802,0.512441,0.278839364,-0.454908706,0.50209,0.344156069,-0.492590022,0.550592,0.342498002,-0.444027704,0.526152,0.329422374,-0.438702928,0.511895,0.31488068,-0.444222913,0.501712,0.362533911,-0.511713314,0.555631,0.361784815,-0.459649468,0.537965,0.355472691,-0.447822226,0.528926,0.344868187,-0.451184679,0.520709,0.382827091,-0.544135186,0.564659,0.386221334,-0.498005863,0.54638,0.382927951,-0.486067414,0.537981,0.379601099,-0.478354389,0.530571
0.328606298,-0.594315808,0.589166,0.335940369,-0.541188766,0.571571,0.311893741,-0.56879571,0.581435,0.285362865,-0.521938149,0.559463,0.268870017,-0.491730026,0.547603,0.265815986,-0.468941265,0.540766,0.321128751,-0.473386037,0.550019,0.30373922,-0.442112252,0.527469,0.290574263,-0.444413792,0.516194,0.280390425,-0.457007456,0.505943,0.344579434,-0.491157576,0.554775,0.340119326,-0.442316896,0.530953,0.326710865,-0.436932012,0.517057,0.317099271,-0.447849589,0.507131,0.363302193,-0.510701419,0.560368,0.3614877,-0.45865304,0.541536,0.35120971,-0.446464006,0.531901,0.344167334,-0.452975077,0.523142,0.383946516,-0.542492963,0.569911,0.38734285,-0.496290599,0.551768,0.383976918,-0.485475145,0.543432,0.380890558,-0.476188687,0.536077
