sluyters/QuantumLeap/src/datasets/gesture/HandGestureDataset_SHREC2017_csv/Gesture10/finger_2/subject_27_essai_1_skeletons_world.csv
Wrist_x,Wrist_y,Wrist_z,Palm_x,Palm_y,Palm_z,thumb_base_x,thumb_base_y,thumb_base_z,thumb_first_joint_x,thumb_first_joint_y,thumb_first_joint_z,thumb_second_joint_x,thumb_second_joint_y,thumb_second_joint_z,thumb_tip_x,thumb_tip_y,thumb_tip_z,index_base_x,index_base_y,index_base_z,index_first_joint_x,index_first_joint_y,index_first_joint_z,index_second_joint_x,index_second_joint_y,index_second_joint_z,index_tip_x,index_tip_y,index_tip_z,middle_base_x,middle_base_y,middle_base_z,middle_first_joint_x,middle_first_joint_y,middle_first_joint_z,middle_second_joint_x,middle_second_joint_y,middle_second_joint_z,middle_tip_x,middle_tip_y,middle_tip_z,ring_base_x,ring_base_y,ring_base_z,ring_first_joint_x,ring_first_joint_y,ring_first_joint_z,ring_second_joint_x,ring_second_joint_y,ring_second_joint_z,ring_tip_x,ring_tip_y,ring_tip_z,pinky_base_x,pinky_base_y,pinky_base_z,pinky_first_joint_x,pinky_first_joint_y,pinky_first_joint_z,pinky_second_joint_x,pinky_second_joint_y,pinky_second_joint_z,pinky_tip_x,pinky_tip_y,pinky_tip_z,
0.304869092,-0.200170954,0.403844,0.294028648,-0.150978378,0.392846,0.28310856,-0.191348296,0.4017,0.245438694,-0.162688945,0.3862,0.208251385,-0.135517701,0.361353,0.189253938,-0.114125487,0.348946,0.258251358,-0.110680683,0.383111,0.239253264,-0.0652020663,0.365588,0.229587068,-0.0435157628,0.356826,0.220571391,-0.0240524607,0.348861,0.28379898,-0.10935328,0.383109,0.266992642,-0.0586617287,0.3638,0.256919885,-0.0315002211,0.352537,0.249726347,-0.0124256926,0.344492,0.306129143,-0.11326011,0.384311,0.292658692,-0.0631267988,0.365325,0.285733394,-0.0387381124,0.355611,0.281302808,-0.0173957347,0.34678,0.334277123,-0.126565683,0.387785,0.324396494,-0.0846570672,0.371387,0.319902074,-0.0650061574,0.363852,0.317634623,-0.0488865402,0.357204
0.303725226,-0.200448942,0.403884,0.292493447,-0.151526993,0.392362,0.281730006,-0.191470952,0.401447,0.24060922,-0.162834017,0.385447,0.20674953,-0.136326988,0.360542,0.187989132,-0.115002571,0.348442,0.256399497,-0.111316122,0.381897,0.237077179,-0.0658872443,0.363876,0.225643487,-0.0442786762,0.354865,0.217969902,-0.0249277629,0.346673,0.282079363,-0.110183028,0.382135,0.263765674,-0.0599244889,0.362278,0.252981825,-0.0347240724,0.350695,0.247351125,-0.0131282388,0.342422,0.303801465,-0.115210834,0.383591,0.289517186,-0.0651035707,0.364125,0.282261084,-0.0404853017,0.354165,0.276950468,-0.0172181106,0.345111,0.331839436,-0.129509047,0.387454,0.320845638,-0.0872127149,0.370376,0.315823257,-0.0674859092,0.362529,0.313044725,-0.0483410791,0.355605
0.302290684,-0.200741221,0.40348,0.288427825,-0.152782091,0.391546,0.280411263,-0.191735155,0.401141,0.23958106,-0.165656199,0.385143,0.204413795,-0.139095851,0.3599,0.189099054,-0.116145296,0.348363,0.254775078,-0.113036672,0.380929,0.233699307,-0.0684994043,0.362614,0.223463114,-0.0468702511,0.353456,0.216047343,-0.0268910328,0.345131,0.279050164,-0.112990881,0.380929,0.261585998,-0.0623081697,0.36073,0.250869406,-0.0353021043,0.348948,0.243771223,-0.0139032065,0.340532,0.30141227,-0.117520325,0.382236,0.286797177,-0.0671917096,0.362395,0.27917074,-0.0427952326,0.352244,0.272223313,-0.020359884,0.343015,0.329560307,-0.131702353,0.386009,0.317882993,-0.0887826191,0.368613,0.313512067,-0.0681940783,0.36062,0.308935593,-0.0507655269,0.353567
0.295134614,-0.244356962,0.398118,0.279506221,-0.194543353,0.382127,0.272973426,-0.23578025,0.395928,0.234985949,-0.209314277,0.379071,0.199341661,-0.183974032,0.354458,0.18118856,-0.163512066,0.338904,0.241444251,-0.153496871,0.36914,0.218141913,-0.109950974,0.347534,0.206106898,-0.0889581777,0.336731,0.194877509,-0.0703152655,0.32691,0.265709823,-0.15136973,0.3679,0.24390661,-0.102556222,0.343858,0.2306445,-0.0755367251,0.329833,0.221110039,-0.0558137176,0.319815,0.287696089,-0.154878304,0.36863,0.270372631,-0.104427717,0.344823,0.260909386,-0.0809736358,0.332642,0.252308668,-0.0592655967,0.321569,0.316628273,-0.16825075,0.372504,0.302224915,-0.126680178,0.351762,0.295630289,-0.107350242,0.342232,0.289825933,-0.0901578604,0.333824
0.288351436,-0.246629278,0.391916,0.274062364,-0.203991782,0.37795,0.267326648,-0.238463894,0.390858,0.230344838,-0.220560963,0.376001,0.197671944,-0.197826423,0.356431,0.179323338,-0.176700776,0.346258,0.239409145,-0.162946154,0.367732,0.217096648,-0.121051121,0.348049,0.205776859,-0.0997357936,0.338241,0.195415125,-0.0799997974,0.329388,0.263349839,-0.161404013,0.365526,0.243679887,-0.114241118,0.343482,0.231778481,-0.0878526294,0.330623,0.223208101,-0.0684037618,0.321447,0.284473636,-0.165338107,0.365239,0.266488493,-0.115434922,0.343372,0.257230399,-0.0902518519,0.332185,0.25071745,-0.0633583932,0.322014,0.31142864,-0.178982381,0.367553,0.299830116,-0.139407862,0.348609,0.294549027,-0.12092105,0.339905,0.289954772,-0.104375699,0.332259
0.290495299,-0.260608446,0.39578,0.275203877,-0.2154592,0.377689,0.268057475,-0.251116663,0.392977,0.233203505,-0.234742448,0.374819,0.195700844,-0.20970483,0.348112,0.175583636,-0.188352362,0.335403,0.235893037,-0.172989427,0.362569,0.212308658,-0.130363148,0.338928,0.200454476,-0.108812116,0.327108,0.189634102,-0.0890649922,0.316363,0.260339523,-0.171571913,0.361594,0.238142579,-0.122115586,0.335443,0.223993588,-0.0983837548,0.320187,0.213797581,-0.0809376828,0.309291,0.282644337,-0.17576806,0.362772,0.261873655,-0.124707835,0.337043,0.251099702,-0.099469686,0.32388,0.246116727,-0.078110799,0.318131,0.312201522,-0.190120834,0.367562,0.29639721,-0.14921016,0.34501,0.28916014,-0.130206552,0.334649,0.282787925,-0.113313699,0.325506
0.296090107,-0.289816736,0.397577,0.274358665,-0.236253236,0.37555,0.272455436,-0.280693122,0.39405,0.232129785,-0.256974716,0.374099,0.194365293,-0.233175622,0.350202,0.173553696,-0.211996737,0.338209,0.23107628,-0.192685116,0.35699,0.204099435,-0.153642924,0.329874,0.190514522,-0.133871962,0.316316,0.17809762,-0.115724405,0.303991,0.255263429,-0.190275824,0.355954,0.229348478,-0.142708808,0.325999,0.213140852,-0.124164064,0.308526,0.201443314,-0.11058243,0.296045,0.277873971,-0.19386146,0.357512,0.256149509,-0.144988827,0.327951,0.244225623,-0.125795423,0.312826,0.233383421,-0.107998081,0.299077,0.308828656,-0.207902996,0.363487,0.291193468,-0.169872439,0.337897,0.283129421,-0.15218217,0.32614,0.27603655,-0.136438671,0.315765
0.302576653,-0.30104348,0.406327,0.276134074,-0.256041795,0.378146,0.278944012,-0.292224951,0.402929,0.236381717,-0.281806333,0.382146,0.1954219,-0.262254425,0.359577,0.177609755,-0.252508423,0.340213,0.22953986,-0.214390338,0.355865,0.197867597,-0.174935653,0.323685,0.18170061,-0.157218214,0.307595,0.166939977,-0.14102101,0.292968,0.25274042,-0.21240991,0.353075,0.222415042,-0.169108385,0.317225,0.204271042,-0.146762276,0.296313,0.191268241,-0.130662845,0.281376,0.274936767,-0.21612978,0.353863,0.2467231,-0.169580264,0.318615,0.231994719,-0.148286677,0.300582,0.218598981,-0.128848059,0.284187,0.305979877,-0.229801647,0.360113,0.282833777,-0.191579701,0.329798,0.272204515,-0.173975528,0.315869,0.262830561,-0.158416656,0.30358
0.302573205,-0.312197665,0.40733,0.274090051,-0.268039496,0.377044,0.27896958,-0.303496056,0.403553,0.234821369,-0.294744444,0.382028,0.193796881,-0.27611138,0.359485,0.176233259,-0.26763773,0.340274,0.226219007,-0.225947911,0.352935,0.19354616,-0.187224265,0.318994,0.176913353,-0.170005669,0.302024,0.161742708,-0.154295197,0.286597,0.249507402,-0.224197601,0.350101,0.218083581,-0.181797184,0.312348,0.199324051,-0.160191423,0.290326,0.185890135,-0.144669777,0.274596,0.271907773,-0.228133422,0.351084,0.242597564,-0.182214704,0.313988,0.227312217,-0.161441973,0.295009,0.213413178,-0.142510636,0.277755,0.303435229,-0.24209045,0.357957,0.279346706,-0.204591165,0.326078,0.268283076,-0.187340265,0.311431,0.258523392,-0.172105226,0.298507
0.30082657,-0.340855274,0.406058,0.273463903,-0.291829976,0.375045,0.277006972,-0.331891229,0.401778,0.233842952,-0.318186043,0.379505,0.193121507,-0.300053576,0.356633,0.176074156,-0.292561697,0.33738,0.225450276,-0.249685458,0.349815,0.193254767,-0.212240606,0.315179,0.176882465,-0.195791833,0.297861,0.161946875,-0.180795356,0.282117,0.249198415,-0.248619633,0.347455,0.218455648,-0.207814914,0.309055,0.20012834,-0.1873435,0.286655,0.187009841,-0.172661279,0.270655,0.271925508,-0.253052156,0.348908,0.243291227,-0.208434361,0.311203,0.228381169,-0.188499814,0.291912,0.21482788,-0.170332962,0.274375,0.303715238,-0.267444029,0.356462,0.280314284,-0.231367763,0.324097,0.269571669,-0.214764396,0.309226,0.260100283,-0.200098085,0.296106
0.299650957,-0.37033605,0.409869,0.272552609,-0.322105422,0.379043,0.276314371,-0.360963183,0.406077,0.236297118,-0.351315261,0.384486,0.196716693,-0.334971231,0.360914,0.176833219,-0.324636466,0.342026,0.225202385,-0.279774805,0.354573,0.203122345,-0.230786333,0.319504,0.188563791,-0.223002154,0.30197,0.175272205,-0.216006502,0.28603,0.248502633,-0.279453169,0.35162,0.216842179,-0.227854822,0.313809,0.195887222,-0.223789879,0.291753,0.182762747,-0.230160019,0.275999,0.270846769,-0.284448794,0.352563,0.229000194,-0.231837426,0.317739,0.207566493,-0.223033585,0.299922,0.187917395,-0.215109361,0.283724,0.302128179,-0.29939226,0.359494,0.275390401,-0.266591149,0.327204,0.263108704,-0.251485359,0.312369,0.252271398,-0.238151208,0.299279
0.300186846,-0.38118639,0.410602,0.27278774,-0.342609783,0.37937,0.276720599,-0.381775015,0.406674,0.236530043,-0.37230238,0.384865,0.196917272,-0.35591151,0.361282,0.177010556,-0.345648866,0.342369,0.225133155,-0.299665878,0.354464,0.202846432,-0.25003702,0.31907,0.188190997,-0.242279008,0.301373,0.174815687,-0.235320223,0.285285,0.248477897,-0.299498758,0.351585,0.216583745,-0.247325254,0.313435,0.195503172,-0.243257753,0.291181,0.182290608,-0.248880717,0.275286,0.270902081,-0.304681063,0.352635,0.228789024,-0.251234845,0.317446,0.207234992,-0.24246521,0.299443,0.187488208,-0.234589247,0.283076,0.302355094,-0.319939551,0.359764,0.275362627,-0.287028018,0.327171,0.262962986,-0.271885477,0.312196,0.25202189,-0.258529144,0.298983
0.307890543,-0.418671913,0.41768,0.28036132,-0.366921388,0.38605,0.284437542,-0.407884972,0.413767,0.246120442,-0.405515306,0.391952,0.204764461,-0.371248958,0.370257,0.18192937,-0.358618418,0.352191,0.232915212,-0.32085043,0.360911,0.207511666,-0.278493016,0.325346,0.192513115,-0.267277787,0.307564,0.178328687,-0.259741641,0.291398,0.255967883,-0.321348502,0.35791,0.222187963,-0.275553465,0.319792,0.200187373,-0.268482672,0.297556,0.186031076,-0.273675947,0.281674,0.278226485,-0.32738897,0.358902,0.255057738,-0.267441886,0.324534,0.237880633,-0.270670604,0.30695,0.222832671,-0.274787638,0.290965,0.30965295,-0.344216041,0.366041,0.281199858,-0.312826522,0.333248,0.268121549,-0.298399962,0.31818,0.256580066,-0.285669617,0.304886
0.304944767,-0.427380985,0.416627,0.285505501,-0.378636166,0.388734,0.281888704,-0.414297315,0.412447,0.253930245,-0.390876289,0.390646,0.233004565,-0.366799481,0.373873,0.22599832,-0.34826841,0.363772,0.246023648,-0.323554241,0.365606,0.214778742,-0.299444722,0.334953,0.198149461,-0.298876528,0.319627,0.182846665,-0.298717184,0.305694,0.270064233,-0.327617826,0.363918,0.235555584,-0.300547676,0.328778,0.214078521,-0.30015766,0.30828,0.200872234,-0.30671415,0.293639,0.292115926,-0.337270478,0.365582,0.259356902,-0.295950353,0.332451,0.243370307,-0.30467224,0.3155,0.234558156,-0.304945049,0.30207,0.321607144,-0.359579846,0.372791,0.291211503,-0.336945698,0.342796,0.277174032,-0.326647482,0.329015,0.264752217,-0.317638268,0.316868
0.30914676,-0.449836046,0.421869,0.296134775,-0.39673968,0.393263,0.287789822,-0.439663248,0.415435,0.257022473,-0.407263972,0.390618,0.232406338,-0.382700483,0.371846,0.222348537,-0.363398967,0.358728,0.255706853,-0.338776012,0.366725,0.223225022,-0.330395532,0.334813,0.208718315,-0.333295372,0.318857,0.198863335,-0.342021504,0.309626,0.281983493,-0.344829727,0.367813,0.250024692,-0.332455201,0.331588,0.230549422,-0.335773218,0.310456,0.230177407,-0.359317886,0.312753,0.305777084,-0.356232953,0.371843,0.271400367,-0.325827249,0.336918,0.257907317,-0.333220326,0.31905,0.262718508,-0.346085186,0.321744,0.337074093,-0.380767084,0.381921,0.306937452,-0.364715183,0.350489,0.294812873,-0.359726802,0.338065,0.284329036,-0.355882364,0.327393
0.31371988,-0.466695794,0.424319,0.295709149,-0.407148256,0.395162,0.288800301,-0.448970121,0.417273,0.255284556,-0.420129335,0.391616,0.228319734,-0.391513052,0.369818,0.215864885,-0.367598435,0.353404,0.252600279,-0.345148434,0.367471,0.222482936,-0.337248761,0.334754,0.209957967,-0.340146554,0.318396,0.209795047,-0.362329035,0.320541,0.279280909,-0.350093039,0.369223,0.249255571,-0.331916855,0.332423,0.230190748,-0.33348575,0.310957,0.230172289,-0.357076822,0.312857,0.303785153,-0.361145276,0.373858,0.270445319,-0.325287789,0.338188,0.25755713,-0.332335537,0.319938,0.262477216,-0.345989479,0.322142,0.338136266,-0.384996492,0.384742,0.306900667,-0.368570548,0.352732,0.29181977,-0.364750603,0.339847,0.282950789,-0.358960417,0.328739
0.31306267,-0.4686538,0.423335,0.294912803,-0.406799703,0.394151,0.288007631,-0.450872146,0.416299,0.254403879,-0.419747186,0.390653,0.227319007,-0.391136938,0.368909,0.214190591,-0.36633998,0.35275,0.251743747,-0.344671464,0.366458,0.221381211,-0.336763666,0.33375,0.208747143,-0.339667034,0.317395,0.20844299,-0.36188522,0.319535,0.27840899,-0.349662145,0.368189,0.24774983,-0.330896725,0.331369,0.228793606,-0.331988427,0.309891,0.228954852,-0.35570103,0.311777,0.302924437,-0.360766583,0.37281,0.26876674,-0.32407682,0.337127,0.256137224,-0.331080665,0.318871,0.261252777,-0.345143412,0.321061,0.336811161,-0.384918601,0.383681,0.303375388,-0.371542245,0.35166,0.289849668,-0.366966418,0.33868,0.278027045,-0.363396129,0.327431
0.312862311,-0.470213968,0.423629,0.294691773,-0.407111178,0.394545,0.287791927,-0.45240472,0.416654,0.254922679,-0.420583305,0.391094,0.228556451,-0.39253228,0.36943,0.215468536,-0.367384961,0.353053,0.251704292,-0.344998002,0.366993,0.221217445,-0.337179188,0.334405,0.20851259,-0.340158401,0.318111,0.208111395,-0.36246302,0.320328,0.278328777,-0.350044485,0.368671,0.247434154,-0.331323128,0.331945,0.228504924,-0.33230665,0.310522,0.228753427,-0.356192528,0.312475,0.302797628,-0.361190639,0.373238,0.267484412,-0.338110769,0.33766,0.256162586,-0.343482303,0.319457,0.261531044,-0.352058496,0.321725,0.335696836,-0.386577562,0.384028,0.302890292,-0.372640004,0.352089,0.28815646,-0.370479614,0.339066,0.277050099,-0.364778759,0.327663
0.312601577,-0.470941578,0.423616,0.294460155,-0.407099758,0.39458,0.28751412,-0.453093294,0.416653,0.2550523,-0.420787243,0.391115,0.229047045,-0.393008246,0.36948,0.21601471,-0.367747045,0.353049,0.251557923,-0.344987778,0.367076,0.220998668,-0.337178605,0.334526,0.208252655,-0.340171927,0.318252,0.207797824,-0.362495421,0.320498,0.278166209,-0.35008183,0.36875,0.247078224,-0.331355834,0.332067,0.228161056,-0.332249641,0.310669,0.22845554,-0.356212566,0.312653,0.302617201,-0.361263322,0.373308,0.267573135,-0.338222919,0.337772,0.256270036,-0.34362638,0.319591,0.261666799,-0.352241241,0.321892,0.335484636,-0.386686943,0.384079,0.30253585,-0.373052249,0.352174,0.287877866,-0.370432412,0.339147,0.276552062,-0.365458104,0.327768
0.305672092,-0.456524746,0.41447,0.291616941,-0.391474689,0.385407,0.285178735,-0.446622974,0.412041,0.260992056,-0.411899223,0.392505,0.238770238,-0.390669603,0.378428,0.230138918,-0.372111216,0.370143,0.25562685,-0.335566057,0.363843,0.22081237,-0.337386352,0.334761,0.201490737,-0.343328422,0.320221,0.195455549,-0.367560379,0.323175,0.276926015,-0.338721701,0.359552,0.23775601,-0.325205388,0.323931,0.208458171,-0.331420809,0.303151,0.205068464,-0.354170554,0.305101,0.297535407,-0.35156632,0.359201,0.25520177,-0.329903035,0.326515,0.24092707,-0.336975314,0.309792,0.248292174,-0.347889267,0.312605,0.323919426,-0.376492545,0.364301,0.281165552,-0.368546011,0.334533,0.261543341,-0.365323375,0.321057,0.244159151,-0.362662025,0.309203
0.304795892,-0.454334143,0.413189,0.291348503,-0.389827858,0.384502,0.284521746,-0.430807938,0.410614,0.26220288,-0.405915007,0.390909,0.242316331,-0.385044669,0.37865,0.231976862,-0.362917634,0.371063,0.259643962,-0.329000145,0.362982,0.221824336,-0.330241862,0.333996,0.202251991,-0.336680319,0.319504,0.195363271,-0.363752564,0.322677,0.27895535,-0.337979829,0.358981,0.237992532,-0.324719736,0.32362,0.210484334,-0.324017624,0.302993,0.204333631,-0.347758812,0.305205,0.298070941,-0.34986132,0.358827,0.256402664,-0.328283585,0.326297,0.241366862,-0.335320021,0.309654,0.25018203,-0.343198611,0.312724,0.323883491,-0.375426614,0.364084,0.281260242,-0.3673066,0.334448,0.261711542,-0.36403028,0.321054,0.244394732,-0.361333073,0.30928
0.301843682,-0.442901798,0.409966,0.288134079,-0.384522342,0.380879,0.281482551,-0.422687966,0.407195,0.257973511,-0.402113222,0.387177,0.237936713,-0.38118475,0.374603,0.229660372,-0.357706813,0.367933,0.255321077,-0.324841094,0.35885,0.217575757,-0.326122183,0.329471,0.197746613,-0.332275784,0.314782,0.19090501,-0.355903852,0.317709,0.275965978,-0.332100217,0.355003,0.232530766,-0.321706662,0.319257,0.206181817,-0.319952067,0.298405,0.199862799,-0.343460651,0.300382,0.294916069,-0.344672952,0.355019,0.253653982,-0.323013921,0.322078,0.237645507,-0.329652272,0.305224,0.244045997,-0.341109989,0.308027,0.320253273,-0.370953332,0.360548,0.277512665,-0.362495353,0.33058,0.258028214,-0.359211136,0.317171,0.24086184,-0.357027818,0.305345
0.296342946,-0.435081964,0.402967,0.281442381,-0.375645788,0.37381,0.275552974,-0.415652382,0.400311,0.252216293,-0.3897976,0.380446,0.232261953,-0.368226747,0.366895,0.223616412,-0.347696038,0.359322,0.249016462,-0.316785593,0.351887,0.209712306,-0.319457999,0.322562,0.190743552,-0.325258058,0.307899,0.185211868,-0.348303745,0.310788,0.26945786,-0.324336886,0.347871,0.225436592,-0.315138992,0.312102,0.198627913,-0.314719378,0.291237,0.193762356,-0.336414458,0.293154,0.288192708,-0.337020028,0.347756,0.246536105,-0.316771761,0.314845,0.23034047,-0.323031964,0.298007,0.237230144,-0.332466774,0.30076,0.313176813,-0.363164239,0.353147,0.269987028,-0.355528845,0.323201,0.250310813,-0.352633438,0.309816,0.233805323,-0.34905068,0.298005
0.29101095,-0.429795609,0.398838,0.277608379,-0.368292304,0.370468,0.271751901,-0.410995492,0.396962,0.252915448,-0.388015678,0.378278,0.237728996,-0.359389641,0.376953,0.231466424,-0.334541478,0.375539,0.247291995,-0.307094671,0.350068,0.208141067,-0.312106256,0.321853,0.188791646,-0.318293325,0.307745,0.181665638,-0.345495011,0.311124,0.266901718,-0.3146858,0.345229,0.223136888,-0.307400684,0.310347,0.196243706,-0.308431031,0.289999,0.191312645,-0.334889603,0.292319,0.284552339,-0.327340184,0.344351,0.244401542,-0.308796805,0.312533,0.228048219,-0.315737536,0.296255,0.234345594,-0.328798591,0.299516,0.308514775,-0.355892478,0.348709,0.264850871,-0.346268123,0.319641,0.245629621,-0.344312586,0.307139,0.229329884,-0.346123596,0.296217
0.287240833,-0.426555989,0.398218,0.274403659,-0.364097854,0.369268,0.267661967,-0.405528017,0.395341,0.25093405,-0.384498395,0.375188,0.234815281,-0.354480519,0.372684,0.229251731,-0.330206724,0.371467,0.24544336,-0.304002902,0.347185,0.20731298,-0.303482686,0.317797,0.187377084,-0.308030113,0.303104,0.178917007,-0.330517269,0.306106,0.265755812,-0.312907877,0.343512,0.222369109,-0.30492895,0.307846,0.197745994,-0.302531221,0.287041,0.18884792,-0.326686029,0.289118,0.2839498,-0.326682123,0.343658,0.244583713,-0.305631456,0.310737,0.227004298,-0.31207711,0.293894,0.231701983,-0.322505258,0.296788,0.308353938,-0.355732473,0.349311,0.264805913,-0.346143355,0.319363,0.245602985,-0.34636241,0.306511,0.229047658,-0.345462071,0.295229
0.285081582,-0.424320292,0.404634,0.277892354,-0.35628619,0.379313,0.263403794,-0.399090861,0.399597,0.248317209,-0.375248142,0.377071,0.230321283,-0.342995085,0.369844,0.226795896,-0.323002806,0.368656,0.252565759,-0.295096728,0.356688,0.219804767,-0.290922269,0.327844,0.199051969,-0.295860058,0.313422,0.191890868,-0.316451261,0.318061,0.275830194,-0.307529007,0.356788,0.235136974,-0.308759185,0.323671,0.211031086,-0.310203815,0.304353,0.202962674,-0.332252225,0.308606,0.295765684,-0.323989932,0.359643,0.263954503,-0.300857523,0.32796,0.244287914,-0.310114529,0.311751,0.246177652,-0.329465641,0.316644,0.320040461,-0.354100259,0.367741,0.28803422,-0.321545195,0.338932,0.27379472,-0.328665205,0.325696,0.277768267,-0.340354386,0.328605
0.280072735,-0.412596872,0.41047,0.277305263,-0.350128866,0.38404,0.260006354,-0.388819753,0.40306,0.246189439,-0.365443074,0.37738,0.228151042,-0.331640006,0.367339,0.222906521,-0.30653605,0.364335,0.251455113,-0.286925779,0.357596,0.220659892,-0.282018602,0.326361,0.200186822,-0.286262487,0.310744,0.190652921,-0.308952299,0.314188,0.276784158,-0.301558833,0.360527,0.238511177,-0.302946352,0.326022,0.215924628,-0.304424564,0.305894,0.205187706,-0.329145775,0.309282,0.298273587,-0.31982291,0.365836,0.26930712,-0.296466574,0.33197,0.249347659,-0.304989113,0.314643,0.248138855,-0.326815011,0.318339,0.324048165,-0.35200833,0.376981,0.294593539,-0.319563156,0.346509,0.279837105,-0.326225805,0.332508,0.282270574,-0.341487475,0.334545
