sluyters/QuantumLeap/src/datasets/gesture/HandGestureDataset_SHREC2017_csv/Gesture10/finger_2/subject_13_essai_5_skeletons_world.csv
Wrist_x,Wrist_y,Wrist_z,Palm_x,Palm_y,Palm_z,thumb_base_x,thumb_base_y,thumb_base_z,thumb_first_joint_x,thumb_first_joint_y,thumb_first_joint_z,thumb_second_joint_x,thumb_second_joint_y,thumb_second_joint_z,thumb_tip_x,thumb_tip_y,thumb_tip_z,index_base_x,index_base_y,index_base_z,index_first_joint_x,index_first_joint_y,index_first_joint_z,index_second_joint_x,index_second_joint_y,index_second_joint_z,index_tip_x,index_tip_y,index_tip_z,middle_base_x,middle_base_y,middle_base_z,middle_first_joint_x,middle_first_joint_y,middle_first_joint_z,middle_second_joint_x,middle_second_joint_y,middle_second_joint_z,middle_tip_x,middle_tip_y,middle_tip_z,ring_base_x,ring_base_y,ring_base_z,ring_first_joint_x,ring_first_joint_y,ring_first_joint_z,ring_second_joint_x,ring_second_joint_y,ring_second_joint_z,ring_tip_x,ring_tip_y,ring_tip_z,pinky_base_x,pinky_base_y,pinky_base_z,pinky_first_joint_x,pinky_first_joint_y,pinky_first_joint_z,pinky_second_joint_x,pinky_second_joint_y,pinky_second_joint_z,pinky_tip_x,pinky_tip_y,pinky_tip_z,
0.46847476,-0.3187483,0.514171,0.46645798,-0.2658508,0.511282,0.45029873,-0.30420631,0.516625,0.42157858,-0.27270568,0.51974,0.39560951,-0.25335663,0.516174,0.39061802,-0.23812047,0.523075,0.44383771,-0.20822731,0.512517,0.42944218,-0.16311441,0.50305,0.42296517,-0.14185985,0.498316,0.41702063,-0.1220838,0.494012,0.46617524,-0.20898513,0.508531,0.45299639,-0.15787829,0.496594,0.44632226,-0.12932907,0.489631,0.4415498,-0.10854215,0.484657,0.48458435,-0.21277729,0.50556,0.47311804,-0.1564398,0.494669,0.47056303,-0.13397909,0.489097,0.46841378,-0.11226198,0.484031,0.50691544,-0.22358445,0.502655,0.50803866,-0.1801483,0.494091,0.50862872,-0.16011854,0.490156,0.51308552,-0.15136485,0.494532
0.4660785,-0.31667479,0.511846,0.46372333,-0.27150534,0.506247,0.45013845,-0.30339784,0.516653,0.42068732,-0.27212422,0.516511,0.39222315,-0.24835432,0.510789,0.38851768,-0.23788301,0.518992,0.44464084,-0.21100565,0.508707,0.42780123,-0.16491934,0.496405,0.41854911,-0.14302609,0.490254,0.40959893,-0.12128817,0.484662,0.4629932,-0.21074695,0.500915,0.44747002,-0.15939136,0.486817,0.43779403,-0.13016023,0.478593,0.43233066,-0.10798851,0.474523,0.47842746,-0.21383636,0.495103,0.47186217,-0.16728412,0.484814,0.46732566,-0.14463085,0.47955,0.46321253,-0.12366233,0.474765,0.49777645,-0.22414293,0.489408,0.49826107,-0.18026945,0.480272,0.49845321,-0.16023348,0.476074,0.49741709,-0.14477493,0.47237
0.46795619,-0.31759608,0.513443,0.46208341,-0.26896752,0.501525,0.44966244,-0.30259857,0.515637,0.4192706,-0.27540664,0.507247,0.3895522,-0.25146507,0.500583,0.37925683,-0.23429185,0.502045,0.43592197,-0.21105361,0.49629,0.41434447,-0.16459038,0.476654,0.40355009,-0.14130919,0.466836,0.39351079,-0.12057208,0.45791,0.45601191,-0.21083032,0.490174,0.43669323,-0.15690869,0.469609,0.42335455,-0.13150363,0.457612,0.41378503,-0.11294356,0.449043,0.47374436,-0.21424585,0.486423,0.46658122,-0.16815645,0.474184,0.46270029,-0.1449016,0.467922,0.45871273,-0.12303642,0.465962,0.49495702,-0.22363744,0.484308,0.48800081,-0.17662804,0.467598,0.48645036,-0.16094885,0.45992,0.48249666,-0.14604211,0.453145
0.46828618,-0.31775333,0.51377,0.45955071,-0.26855041,0.496115,0.44699653,-0.2990657,0.510612,0.40759923,-0.26866904,0.498283,0.37659962,-0.24387721,0.490431,0.37063622,-0.22888955,0.493964,0.42153745,-0.19899095,0.476155,0.3981883,-0.15451709,0.453289,0.38649833,-0.13209783,0.441857,0.3758595,-0.11159814,0.431463,0.44413992,-0.20164088,0.472975,0.42734106,-0.14961501,0.453599,0.41739587,-0.12018761,0.442297,0.41029628,-0.099012809,0.434224,0.46375018,-0.20743143,0.47163,0.44817057,-0.15309472,0.449563,0.43957027,-0.13172346,0.438273,0.43183044,-0.1117737,0.428009,0.48933104,-0.22162407,0.472524,0.48635571,-0.17540997,0.456006,0.48484524,-0.15456809,0.448417,0.48214674,-0.14372154,0.441721
0.46459552,-0.31559068,0.509363,0.45213393,-0.26641119,0.485798,0.44219019,-0.2957291,0.504521,0.40205555,-0.26583741,0.488782,0.36935523,-0.24158692,0.474396,0.35378827,-0.22039909,0.468084,0.41195083,-0.19773843,0.458397,0.38370148,-0.15546694,0.430793,0.3695591,-0.13418278,0.41699,0.35669232,-0.11473566,0.404443,0.43396096,-0.20151631,0.454911,0.41414254,-0.14785798,0.431503,0.40146393,-0.12087893,0.417849,0.39202752,-0.10334854,0.408096,0.45341077,-0.20837357,0.453739,0.435149,-0.15562264,0.429517,0.42563854,-0.12946376,0.417124,0.41700244,-0.10560835,0.405857,0.47941625,-0.22412894,0.45568,0.46910036,-0.1750878,0.432973,0.46302977,-0.15951429,0.42254,0.45779047,-0.14551776,0.413334
0.46050408,-0.31416342,0.504783,0.44993291,-0.26913942,0.480558,0.44000197,-0.2978313,0.498836,0.39897236,-0.26593584,0.481487,0.36677699,-0.24107925,0.470004,0.35140251,-0.21983358,0.463634,0.40537989,-0.19652512,0.451218,0.37877742,-0.15687279,0.422213,0.3653133,-0.13678038,0.407711,0.35306817,-0.11836096,0.394527,0.42822915,-0.20069275,0.448808,0.4052121,-0.14855341,0.420038,0.39017382,-0.12336816,0.403256,0.37944843,-0.10510923,0.391269,0.44851906,-0.20788025,0.448568,0.4279279,-0.15709693,0.419699,0.41846154,-0.1306984,0.406139,0.41256384,-0.10593085,0.398996,0.47575295,-0.22406129,0.45172,0.46555476,-0.17691758,0.425975,0.45951813,-0.15992798,0.414146,0.45066598,-0.14342456,0.403709
0.45208574,-0.31079257,0.490421,0.44019277,-0.27143609,0.464405,0.42767947,-0.29515675,0.481949,0.38663426,-0.26715558,0.463235,0.35694091,-0.24325596,0.455789,0.34655692,-0.22095584,0.455729,0.39070367,-0.19969278,0.430373,0.36385517,-0.15411386,0.401325,0.35056036,-0.13142656,0.386943,0.33851214,-0.11083815,0.37391,0.41621458,-0.20344917,0.430306,0.38805241,-0.15004141,0.397203,0.37239854,-0.12534207,0.377892,0.36128391,-0.10787003,0.364099,0.43863123,-0.21023744,0.432124,0.41863163,-0.15748491,0.402367,0.40873115,-0.13218917,0.387143,0.39975434,-0.109116,0.373303,0.46839088,-0.22575508,0.437998,0.45253197,-0.17462137,0.40914,0.44524398,-0.16717391,0.395881,0.43897848,-0.16056266,0.384182
0.44598022,-0.31416896,0.475456,0.4333897,-0.2729653,0.447622,0.42263171,-0.29884795,0.467806,0.38394388,-0.2743469,0.452017,0.35004445,-0.25273267,0.441835,0.33560037,-0.23340284,0.438283,0.38197636,-0.20539581,0.412923,0.35273713,-0.16226641,0.381085,0.33811838,-0.14071016,0.365167,0.32482755,-0.12111861,0.350695,0.40596569,-0.20895693,0.411141,0.37845201,-0.15941081,0.378035,0.36248011,-0.13059693,0.358809,0.35112972,-0.1100588,0.345137,0.42734301,-0.21540954,0.411678,0.40294849,-0.16322514,0.379098,0.39048552,-0.13926624,0.36243,0.37918905,-0.11737355,0.347276,0.4561758,-0.23014588,0.416275,0.43895561,-0.18040385,0.387026,0.43102836,-0.16715978,0.373587,0.42417361,-0.15534181,0.36173
0.43382628,-0.31496837,0.462249,0.4121954,-0.27772704,0.432619,0.40166161,-0.30389449,0.452065,0.36568482,-0.2702126,0.439476,0.33025388,-0.24741748,0.423173,0.31317066,-0.22590905,0.413713,0.36636377,-0.20768316,0.393212,0.33805136,-0.16608689,0.359661,0.32389713,-0.145269,0.342885,0.31103119,-0.12633005,0.327634,0.39151478,-0.21502885,0.393785,0.36602349,-0.16755548,0.35769,0.35114466,-0.13988468,0.336634,0.34051071,-0.1203885,0.321595,0.41343285,-0.22452225,0.396387,0.3980403,-0.17210243,0.366544,0.39004859,-0.14554449,0.351275,0.38306976,-0.12901942,0.337395,0.44212709,-0.24275502,0.403717,0.43519203,-0.19682546,0.37671,0.43261008,-0.18045859,0.364301,0.43046882,-0.16590218,0.353352
0.42823732,-0.31367312,0.457262,0.40395012,-0.2726422,0.422034,0.40010013,-0.2953901,0.445117,0.3566621,-0.26174762,0.424929,0.31929065,-0.24640452,0.403874,0.29746209,-0.22709946,0.388114,0.3547897,-0.20747288,0.375136,0.32440445,-0.16788035,0.338274,0.30920825,-0.14809488,0.319842,0.29539196,-0.13011635,0.303086,0.37991565,-0.21481784,0.375861,0.35464779,-0.16814288,0.338185,0.33989125,-0.14094826,0.316207,0.3294846,-0.12159472,0.300639,0.40199293,-0.22410543,0.378991,0.38072696,-0.17057144,0.343312,0.37002494,-0.15198425,0.325058,0.36047625,-0.13490609,0.308463,0.43133934,-0.24168469,0.387749,0.42116233,-0.19754995,0.356913,0.41689621,-0.18263814,0.342745,0.41326512,-0.16940405,0.330243
0.41024265,-0.31527184,0.441457,0.39116048,-0.27866215,0.405569,0.38357696,-0.29360906,0.429871,0.34138914,-0.26721133,0.4108,0.30246528,-0.25351382,0.39141,0.27929351,-0.23513501,0.376777,0.33986704,-0.20944981,0.358744,0.3130177,-0.17171183,0.320395,0.29962369,-0.15287469,0.301259,0.28745562,-0.13576278,0.283875,0.36401153,-0.21750679,0.35853,0.33951091,-0.17342883,0.318795,0.32520489,-0.14773385,0.295616,0.31496571,-0.12954216,0.279063,0.38539346,-0.22747423,0.360936,0.37305337,-0.1763498,0.327451,0.36646023,-0.15055135,0.310319,0.35681022,-0.14554865,0.294744,0.41411233,-0.24606934,0.36892,0.40726593,-0.20343008,0.338736,0.40427691,-0.18744598,0.324868,0.40163155,-0.17515818,0.312631
0.41199471,-0.32883388,0.436069,0.39413678,-0.29049411,0.40276,0.38957877,-0.31650592,0.425976,0.34718908,-0.28864693,0.40745,0.31079123,-0.26528067,0.391231,0.29338238,-0.24347422,0.381642,0.33924238,-0.22613502,0.360099,0.31506065,-0.18729352,0.32286,0.30295681,-0.16789023,0.30424,0.29194552,-0.15026442,0.287314,0.36353112,-0.23136054,0.359102,0.3367483,-0.18957388,0.318276,0.32105885,-0.16584717,0.294461,0.30984782,-0.14909025,0.277451,0.38526877,-0.23891713,0.360678,0.37185116,-0.18796272,0.327073,0.36474535,-0.16220113,0.30988,0.35605064,-0.15613855,0.29425,0.41477924,-0.25442662,0.3673,0.40581409,-0.21167057,0.336484,0.40198122,-0.19593548,0.322325,0.39864335,-0.18399688,0.309833
0.4210205,-0.34538835,0.438357,0.39754695,-0.30928874,0.40433,0.39376782,-0.33529814,0.427862,0.35243041,-0.30586179,0.407499,0.3179503,-0.28036866,0.391137,0.30021595,-0.25800349,0.379631,0.34016503,-0.24771109,0.360528,0.3164828,-0.20722411,0.323992,0.30457586,-0.187686,0.305724,0.2937465,-0.16999964,0.289117,0.3648847,-0.25186812,0.359731,0.33733635,-0.20882984,0.318499,0.32119982,-0.18462169,0.294447,0.30966332,-0.16757185,0.277267,0.38706388,-0.25844766,0.361525,0.37171661,-0.20762535,0.326548,0.36363743,-0.18188892,0.308653,0.35518909,-0.17527272,0.292384,0.41727943,-0.272581,0.368509,0.40651201,-0.22989249,0.336551,0.40199371,-0.21463943,0.321868,0.39811974,-0.20266839,0.308912
0.42057247,-0.35700017,0.43516,0.39639296,-0.31900321,0.399792,0.39147701,-0.33872181,0.424014,0.34956177,-0.31415495,0.401122,0.31488953,-0.28845792,0.384101,0.29685623,-0.26577064,0.37193,0.33806918,-0.25657097,0.353976,0.31476785,-0.21636136,0.317071,0.30305645,-0.19698382,0.298619,0.29240311,-0.17944745,0.281844,0.36295481,-0.26090806,0.353436,0.33598259,-0.21830373,0.311954,0.32019035,-0.19436758,0.287756,0.30890245,-0.17751788,0.270471,0.38529793,-0.26766473,0.355537,0.37046816,-0.2171093,0.320419,0.36264512,-0.19148726,0.302451,0.35457718,-0.18536275,0.286117,0.41580133,-0.28207491,0.363079,0.4057399,-0.23980227,0.331213,0.40162286,-0.22488151,0.316571,0.39813449,-0.21325152,0.303653
0.41395924,-0.35584959,0.42935,0.38953508,-0.31649925,0.392454,0.38436836,-0.3361077,0.416646,0.34192175,-0.3088401,0.392702,0.30604637,-0.28464845,0.372478,0.28676177,-0.26263934,0.357173,0.33581788,-0.25589693,0.343354,0.30918145,-0.21684592,0.305545,0.29575251,-0.19819679,0.28664,0.28354813,-0.18124017,0.269454,0.36096422,-0.2633289,0.344094,0.33982946,-0.22165998,0.303311,0.32747309,-0.19736662,0.279521,0.31874825,-0.18008858,0.262625,0.38325184,-0.27254225,0.347357,0.36601218,-0.22160212,0.309331,0.35703814,-0.20535431,0.289876,0.34912229,-0.19054403,0.27219,0.4131908,-0.28973234,0.356512,0.40107403,-0.24693058,0.323588,0.39574126,-0.2324195,0.308461,0.39103636,-0.22145633,0.295114
0.41218409,-0.36404462,0.428135,0.38885978,-0.32915291,0.391345,0.38317626,-0.34383648,0.415237,0.33979969,-0.31858836,0.390619,0.30464956,-0.29342462,0.370778,0.28563214,-0.2716548,0.355766,0.33460021,-0.26502476,0.342109,0.30791556,-0.22599136,0.304294,0.29445864,-0.20736319,0.285386,0.28222643,-0.19042909,0.268198,0.35994771,-0.27264982,0.343125,0.33877404,-0.23101973,0.302369,0.32638706,-0.20674996,0.278594,0.3176462,-0.18949939,0.261717,0.38242434,-0.28202622,0.346607,0.36539098,-0.23113761,0.308806,0.35653315,-0.21506406,0.289466,0.3487298,-0.20042316,0.271884,0.41260783,-0.29941591,0.356009,0.40071955,-0.25670927,0.323302,0.39550135,-0.24232395,0.308274,0.39090386,-0.23149893,0.295014
0.39583927,-0.39074719,0.434065,0.38609142,-0.34916747,0.401444,0.36847212,-0.36731242,0.417307,0.33311812,-0.3307385,0.392479,0.30198302,-0.30208765,0.369449,0.2873951,-0.27921057,0.354312,0.34390436,-0.28300068,0.35135,0.31582419,-0.24537737,0.313628,0.3017866,-0.2266304,0.294767,0.28902887,-0.20964179,0.277621,0.37319903,-0.29474177,0.358689,0.35396762,-0.25598324,0.318168,0.34281807,-0.23335905,0.294532,0.33489233,-0.21718862,0.277648,0.39812338,-0.3074193,0.367072,0.37753021,-0.2632866,0.326778,0.3671002,-0.24243027,0.306162,0.35774166,-0.22469887,0.287421,0.42953519,-0.32858046,0.381761,0.40267866,-0.27437271,0.344822,0.38735679,-0.27671733,0.32785,0.37374914,-0.27847728,0.312874
0.39443881,-0.39202866,0.43126,0.38135843,-0.348908,0.396417,0.36609676,-0.36898505,0.414223,0.33090825,-0.33116028,0.390506,0.29688807,-0.30728422,0.365935,0.28483951,-0.28188564,0.353081,0.33307511,-0.28708812,0.343956,0.31807134,-0.25208788,0.305925,0.31046218,-0.23663802,0.28691,0.30356904,-0.22259341,0.269624,0.36269389,-0.29714936,0.35075,0.33925719,-0.25823187,0.308484,0.32559641,-0.23552852,0.283829,0.31584458,-0.21931067,0.266218,0.38823084,-0.30852217,0.358846,0.36389841,-0.25340171,0.320618,0.35294368,-0.2370739,0.30106,0.34320273,-0.22449766,0.283279,0.42064603,-0.32482979,0.373505,0.39035469,-0.27903427,0.335036,0.37331838,-0.28228605,0.317361,0.35815421,-0.28448985,0.301765
0.39677331,-0.39806799,0.433422,0.38244172,-0.36247106,0.397667,0.36786763,-0.3749396,0.416142,0.32973225,-0.34131396,0.389708,0.2965124,-0.31471339,0.365234,0.28180873,-0.29203742,0.350888,0.33282388,-0.29523222,0.344075,0.30922115,-0.25643213,0.307548,0.29742749,-0.23702643,0.289284,0.28671158,-0.21938081,0.27268,0.36235794,-0.30528012,0.350803,0.33954837,-0.25098161,0.310379,0.3279414,-0.23700024,0.286798,0.31579078,-0.23451051,0.269955,0.38790582,-0.31670698,0.35891,0.36393776,-0.26224146,0.320833,0.35306534,-0.24544729,0.301351,0.34341545,-0.23289795,0.283641,0.42091795,-0.33665875,0.373711,0.38980739,-0.28703934,0.334753,0.37271298,-0.28968364,0.316854,0.35730815,-0.29150419,0.301061
0.39616554,-0.4054975,0.431938,0.38127324,-0.37153159,0.396452,0.36671109,-0.38720385,0.414664,0.32920344,-0.35079958,0.389083,0.29603829,-0.32423328,0.36465,0.28155735,-0.30179985,0.350575,0.3318943,-0.30444922,0.343114,0.31135736,-0.26029228,0.309897,0.30114724,-0.24067228,0.293288,0.291909,-0.22279957,0.27819,0.36146858,-0.31461618,0.349942,0.33982922,-0.25988482,0.309831,0.326495,-0.24567341,0.286433,0.31551588,-0.24427413,0.26972,0.38704227,-0.326127,0.358111,0.3646093,-0.27271085,0.321425,0.354462,-0.25434938,0.302656,0.34565215,-0.23675006,0.285592,0.42005969,-0.34615157,0.372949,0.38906563,-0.29644468,0.334116,0.37203191,-0.29891008,0.316275,0.35668032,-0.3005505,0.300532
0.39288341,-0.41205436,0.428758,0.37791361,-0.37319419,0.39276,0.36267936,-0.39392385,0.410368,0.3239321,-0.356785,0.383743,0.29089787,-0.33182426,0.358957,0.27568248,-0.30885426,0.343968,0.32894899,-0.31108921,0.337605,0.30496475,-0.2757768,0.299558,0.29302566,-0.25849586,0.280534,0.28227645,-0.24382133,0.26324,0.35917002,-0.32094523,0.345579,0.3399938,-0.26745595,0.308932,0.329355,-0.24784671,0.287555,0.32046169,-0.24236918,0.272286,0.38520758,-0.33221466,0.354728,0.35691777,-0.27739488,0.317153,0.34449224,-0.25989682,0.297928,0.3337755,-0.24810241,0.280451,0.4186776,-0.35198273,0.370813,0.3881994,-0.30391328,0.331587,0.37143725,-0.30649194,0.313565,0.35645454,-0.30792444,0.297662
0.39083351,-0.41070809,0.424657,0.37540815,-0.3711378,0.388289,0.36134534,-0.39272841,0.406724,0.3232244,-0.35558855,0.381044,0.28922016,-0.33196105,0.356263,0.27310961,-0.30968809,0.341159,0.32541875,-0.30896423,0.333349,0.30128666,-0.27420128,0.294848,0.28925051,-0.25700931,0.275598,0.27842281,-0.24284766,0.258098,0.35528838,-0.31781888,0.340623,0.33216406,-0.2808529,0.298204,0.31808156,-0.25961023,0.273459,0.30816845,-0.24546046,0.255784,0.38114433,-0.3282389,0.349223,0.3509893,-0.2733042,0.310608,0.33918929,-0.26101744,0.290851,0.32613552,-0.24704557,0.272891,0.41462446,-0.34693829,0.364704,0.38463185,-0.30250673,0.325397,0.36571513,-0.30285128,0.307336,0.3504723,-0.3041414,0.291401
0.38899151,-0.40980705,0.421647,0.37496333,-0.37362685,0.386038,0.3599032,-0.39216259,0.404166,0.32182683,-0.35553462,0.379131,0.28729306,-0.33433113,0.353846,0.26974745,-0.3121703,0.338087,0.32451508,-0.30955194,0.332336,0.3008369,-0.27347679,0.294581,0.28822253,-0.2533131,0.275762,0.27738602,-0.23697374,0.258654,0.35426092,-0.31775365,0.339364,0.33008821,-0.2787709,0.296519,0.31575333,-0.25724376,0.271526,0.30566896,-0.24309401,0.253673,0.37996127,-0.3275717,0.347708,0.36020225,-0.27555796,0.309907,0.35195308,-0.25820729,0.290566,0.34495798,-0.24455003,0.272984,0.41315726,-0.34541523,0.362773,0.38254406,-0.30184946,0.323859,0.36465757,-0.30286124,0.305979,0.34968298,-0.30431155,0.290203
0.38673811,-0.40803188,0.418732,0.37208749,-0.36898858,0.383749,0.35754241,-0.39003033,0.401189,0.320376,-0.35464585,0.377385,0.28577675,-0.33047801,0.352415,0.26928558,-0.30795266,0.337338,0.32262601,-0.30801827,0.330545,0.2985858,-0.26977064,0.293115,0.28674736,-0.24979861,0.274441,0.27591349,-0.2317095,0.257493,0.35268366,-0.31634884,0.337897,0.32863369,-0.27465293,0.295942,0.31531992,-0.2556416,0.271468,0.30578046,-0.24306788,0.253987,0.37863819,-0.32622933,0.346461,0.36046682,-0.27477497,0.310417,0.35334823,-0.2581298,0.291977,0.34746621,-0.24512061,0.275212,0.41209279,-0.34406354,0.361701,0.38243711,-0.30152344,0.324051,0.36567769,-0.30375463,0.306753,0.35137813,-0.3058418,0.29149
0.38910875,-0.41146368,0.421037,0.37330943,-0.37081721,0.384971,0.35938238,-0.39289482,0.403174,0.32068046,-0.35604586,0.377995,0.2863783,-0.33188503,0.353609,0.27021484,-0.30946013,0.339095,0.32206607,-0.30793492,0.330391,0.29935799,-0.27013255,0.294573,0.28818632,-0.25064122,0.276664,0.2780486,-0.23291369,0.260383,0.35213612,-0.31611214,0.3377,0.32748676,-0.2712294,0.296421,0.31441078,-0.2521406,0.272341,0.306407,-0.2432333,0.255141,0.37819881,-0.32595869,0.346307,0.35673418,-0.27239368,0.30764,0.34797252,-0.25594075,0.287857,0.33969808,-0.25056874,0.269872,0.41199489,-0.34393801,0.361753,0.3800972,-0.30089462,0.322528,0.36322549,-0.30366552,0.304506,0.3475892,-0.30370973,0.288604
0.42853528,-0.37796799,0.379432,0.38045809,-0.32579633,0.357155,0.39806913,-0.36791754,0.378905,0.35152835,-0.35522237,0.371097,0.31215528,-0.33849129,0.364884,0.28342603,-0.32415228,0.355062,0.3047687,-0.27024793,0.336152,0.27067258,-0.27771895,0.315415,0.25325186,-0.282607,0.305299,0.23701407,-0.28777796,0.296145,0.31979105,-0.2604865,0.327956,0.2742834,-0.261584,0.299534,0.27264338,-0.26965861,0.282954,0.27234451,-0.27063935,0.271876,0.33614199,-0.25588172,0.322818,0.29823652,-0.26662022,0.297981,0.29636971,-0.27785116,0.285274,0.29736803,-0.28048324,0.275299,0.36370541,-0.25741105,0.319819,0.31936984,-0.26468138,0.295894,0.32003253,-0.27170448,0.284902,0.32436733,-0.26832592,0.277441
0.42306892,-0.37314667,0.374592,0.37614818,-0.32171794,0.352875,0.3945208,-0.36443298,0.375491,0.34990875,-0.35306286,0.369289,0.31288124,-0.33671319,0.36514,0.28472492,-0.32450393,0.355992,0.30341131,-0.26809951,0.33411,0.26924629,-0.27515537,0.313266,0.25181702,-0.27982171,0.303113,0.23557881,-0.28477114,0.293925,0.31688557,-0.25728567,0.324411,0.27173086,-0.25735494,0.297018,0.27007746,-0.26656035,0.281039,0.28551509,-0.28402548,0.285947,0.33170503,-0.25178824,0.317996,0.29307757,-0.25771172,0.294646,0.2917554,-0.26961762,0.282699,0.31163451,-0.29101699,0.289439,0.35698402,-0.25212758,0.313387,0.31345671,-0.258244,0.290721,0.31409976,-0.2661025,0.280307,0.33196747,-0.27488469,0.284628
0.42360274,-0.37354455,0.375282,0.37703677,-0.32197972,0.353707,0.39512749,-0.3646945,0.376216,0.35058447,-0.35304485,0.370057,0.3139235,-0.33622535,0.366114,0.28627081,-0.32379739,0.357042,0.30467706,-0.26810641,0.335113,0.27052241,-0.27503518,0.314444,0.2530705,-0.27961558,0.304358,0.23680523,-0.28448253,0.295231,0.31821189,-0.25738654,0.325428,0.27279794,-0.25675477,0.298161,0.27096169,-0.26644693,0.282255,0.28637209,-0.28432015,0.287245,0.33306097,-0.25197684,0.319015,0.29423673,-0.25739121,0.295779,0.29311598,-0.26899039,0.283892,0.31202321,-0.28546488,0.29072,0.3583293,-0.25244217,0.314387,0.31623133,-0.26110108,0.291818,0.31744021,-0.26805379,0.281449,0.33440616,-0.27560531,0.285839
0.42358525,-0.37349271,0.375375,0.37736018,-0.32190564,0.353993,0.39526924,-0.36463619,0.376418,0.35089812,-0.35288529,0.370406,0.31451823,-0.33586894,0.366648,0.28710441,-0.32376719,0.357526,0.3054624,-0.2680114,0.335707,0.27132501,-0.2748219,0.315188,0.25386848,-0.27933539,0.305172,0.23759377,-0.28413993,0.29611,0.31896119,-0.25729206,0.325968,0.27344024,-0.25473165,0.298899,0.27123717,-0.26520999,0.283108,0.28706251,-0.28452463,0.288187,0.33374992,-0.25188379,0.319495,0.29493085,-0.25715914,0.296467,0.29394311,-0.26880897,0.284685,0.31294839,-0.28508532,0.291615,0.35888847,-0.25235457,0.314768,0.3166531,-0.26044428,0.292376,0.31832581,-0.2685751,0.282087,0.33562459,-0.27672342,0.286557
0.42031798,-0.36929599,0.371204,0.37867541,-0.32126648,0.3542,0.3925449,-0.36171649,0.372656,0.35305182,-0.34548975,0.367937,0.34512793,-0.33632932,0.379265,0.32640531,-0.32044996,0.377943,0.31091827,-0.27064127,0.340412,0.28021541,-0.26796533,0.31821,0.26441431,-0.26934267,0.307109,0.24973428,-0.27125939,0.29706,0.32895677,-0.25432368,0.331913,0.29791759,-0.25383101,0.305585,0.29998608,-0.26292995,0.290227,0.31321921,-0.26707594,0.29704,0.34475271,-0.2454979,0.326146,0.31314673,-0.24537932,0.297358,0.31608607,-0.24965423,0.28263,0.33032567,-0.25190454,0.289525,0.36986482,-0.24155654,0.321644,0.34777692,-0.24087521,0.300104,0.33755298,-0.24227288,0.290207,0.34580365,-0.25831429,0.29645
0.41666355,-0.36342645,0.367133,0.37987196,-0.30561844,0.351534,0.38907954,-0.35656864,0.368594,0.35094798,-0.33410667,0.365918,0.34406982,-0.32657591,0.37864,0.32602868,-0.31195574,0.378341,0.31126868,-0.25943496,0.339042,0.28009487,-0.26007317,0.318673,0.26524881,-0.26242117,0.308489,0.25146513,-0.26925497,0.299231,0.32730023,-0.24479576,0.33109,0.29803723,-0.24570833,0.306157,0.30131072,-0.25571542,0.291612,0.3153678,-0.26043289,0.299245,0.3434237,-0.23596991,0.325671,0.31390362,-0.23741929,0.29843,0.31803304,-0.242561,0.284493,0.3333005,-0.24547005,0.292351,0.36880085,-0.2317594,0.321387,0.34870315,-0.23230096,0.301243,0.33942928,-0.23431306,0.291987,0.34872324,-0.25058076,0.298948
0.42096762,-0.35080686,0.37055,0.37749607,-0.29509433,0.354108,0.39302761,-0.34639829,0.372159,0.3495391,-0.32175947,0.371833,0.31162629,-0.31156851,0.366,0.28622768,-0.29962527,0.35658,0.31146165,-0.24649212,0.341024,0.28520244,-0.25190994,0.317986,0.27210867,-0.2558474,0.306768,0.26010235,-0.26025283,0.296655,0.327812,-0.23319725,0.332559,0.2982155,-0.23498446,0.306783,0.29914355,-0.24595352,0.291747,0.31239971,-0.25071384,0.298835,0.34402183,-0.22555935,0.326778,0.31300389,-0.22683258,0.298544,0.31510933,-0.23289284,0.284099,0.32946167,-0.23570679,0.291302,0.36913762,-0.22293613,0.322181,0.34810543,-0.22105195,0.301162,0.33827252,-0.22230597,0.291505,0.34684629,-0.23713521,0.297991
0.442858,-0.34055122,0.416553,0.39845293,-0.28836913,0.386953,0.40719231,-0.33047844,0.407495,0.35278663,-0.30888719,0.390176,0.30955014,-0.29556486,0.374436,0.28210415,-0.28068603,0.360908,0.31721991,-0.23073996,0.348936,0.28531087,-0.22461104,0.317124,0.26944057,-0.2220201,0.30139,0.25501048,-0.21997697,0.287144,0.3412324,-0.22209547,0.348157,0.30763166,-0.20812925,0.311075,0.29931792,-0.21654317,0.289444,0.30395304,-0.2210106,0.291194,0.36439059,-0.21846891,0.349646,0.32783154,-0.20642565,0.31282,0.32334177,-0.21355835,0.293979,0.33196714,-0.21955715,0.296041,0.3989533,-0.22111322,0.355636,0.38058478,-0.21836721,0.322924,0.37246439,-0.21741197,0.307894,0.37100548,-0.23580384,0.308936
0.44007994,-0.33712272,0.424416,0.39170146,-0.28413475,0.394391,0.4052954,-0.32890163,0.413543,0.35127421,-0.30567351,0.399031,0.31093983,-0.29230787,0.382501,0.28633545,-0.27533411,0.372826,0.32007826,-0.23592962,0.353789,0.2738362,-0.21108984,0.320537,0.26169514,-0.20804915,0.303911,0.25071261,-0.20549364,0.288797,0.34493572,-0.22673498,0.355037,0.30629977,-0.19557237,0.317192,0.30157106,-0.20351125,0.295115,0.30706891,-0.21282927,0.29657,0.36388417,-0.22117936,0.358224,0.32038314,-0.18643762,0.320872,0.30463822,-0.17597684,0.301762,0.29433951,-0.17119526,0.284388,0.39546388,-0.22041468,0.366312,0.39289256,-0.216429,0.335548,0.39202021,-0.21474434,0.321414,0.41044641,-0.22370633,0.323938
0.445384,-0.34313808,0.434262,0.40282065,-0.27978967,0.404545,0.39834231,-0.32132635,0.415414,0.37394439,-0.28307379,0.391645,0.35787147,-0.24978416,0.362216,0.34832403,-0.22531007,0.34994,0.3283075,-0.20444101,0.354576,0.30188372,-0.16742652,0.317652,0.29592114,-0.16293705,0.29919,0.29046502,-0.15883956,0.282406,0.36009989,-0.20589005,0.365595,0.34932967,-0.1870624,0.327558,0.34340789,-0.17611478,0.30537,0.3549686,-0.19015376,0.304796,0.38894607,-0.21093581,0.376797,0.359472,-0.17203644,0.33652,0.34798412,-0.15661936,0.315913,0.34077598,-0.14785922,0.29718,0.42887617,-0.22480391,0.394453,0.41335729,-0.21638313,0.358482,0.40633656,-0.21257023,0.341955,0.41601426,-0.21750372,0.340299
0.42580779,-0.3429432,0.436121,0.39977994,-0.29228632,0.409761,0.39506745,-0.32312908,0.423643,0.34713313,-0.30377717,0.402489,0.30668767,-0.2725517,0.384568,0.29360642,-0.25520263,0.383383,0.35147439,-0.21858153,0.37057,0.32761179,-0.17469521,0.338545,0.31654661,-0.15699563,0.322532,0.30714014,-0.15649432,0.307975,0.37984062,-0.2251551,0.375213,0.36106866,-0.18422674,0.340323,0.35030413,-0.16012648,0.31997,0.34321697,-0.15061118,0.305433,0.40448449,-0.23423503,0.380928,0.38667338,-0.19240632,0.345806,0.37815936,-0.1736567,0.327836,0.37071694,-0.15705528,0.3115,0.43658264,-0.25246539,0.391527,0.42697906,-0.21617846,0.359246,0.42214524,-0.20661865,0.344414,0.43704494,-0.20788662,0.346467
0.41347516,-0.34691261,0.434729,0.40516597,-0.2979935,0.415243,0.39694618,-0.32757447,0.429086,0.35318189,-0.30096272,0.415692,0.32113629,-0.27458532,0.405799,0.307879,-0.25473048,0.402707,0.36992633,-0.22880318,0.390603,0.35103882,-0.18211277,0.365845,0.34135268,-0.16536856,0.353466,0.33260988,-0.14984135,0.342212,0.39372512,-0.23495796,0.389703,0.37620505,-0.18357451,0.362085,0.36592947,-0.16147932,0.345974,0.35875357,-0.14534369,0.334466,0.41428909,-0.24183023,0.390365,0.40048248,-0.19310201,0.362284,0.3936781,-0.17105317,0.347916,0.38767512,-0.15072088,0.334855,0.4400002,-0.26102707,0.393927,0.43879644,-0.22192344,0.370167,0.4367423,-0.20425746,0.359251,0.43610319,-0.18923148,0.349619
0.41995973,-0.34515826,0.435271,0.40945844,-0.29920907,0.419848,0.3948522,-0.32840213,0.43327,0.35900003,-0.29716643,0.424495,0.3305154,-0.2742703,0.420218,0.31743986,-0.25507046,0.418258,0.37825561,-0.22651964,0.403327,0.36265426,-0.1805007,0.382146,0.35382118,-0.16250377,0.371556,0.34582742,-0.14574724,0.361928,0.39973945,-0.23073601,0.399632,0.38501679,-0.17986687,0.3759,0.37568455,-0.1548629,0.362056,0.3691297,-0.13658451,0.352168,0.41808314,-0.23773708,0.397703,0.40778843,-0.18560876,0.373088,0.40166009,-0.16451419,0.360495,0.39631583,-0.1448944,0.349046,0.44235988,-0.25476805,0.39758,0.43922178,-0.20806097,0.376747,0.43709617,-0.1941783,0.367175,0.43550187,-0.18166107,0.358729
0.42018001,-0.34498191,0.436892,0.4129218,-0.29488932,0.425837,0.39803626,-0.32858651,0.43734,0.36521499,-0.2933142,0.433628,0.33861713,-0.27046837,0.430613,0.32483273,-0.25050856,0.427135,0.3854525,-0.2253332,0.416273,0.37153728,-0.18256338,0.398669,0.36424143,-0.16161843,0.389868,0.35762691,-0.14222108,0.381866,0.4055777,-0.22836251,0.411348,0.39392391,-0.18040975,0.391414,0.38628722,-0.1542203,0.379786,0.38092802,-0.13502767,0.371481,0.42268951,-0.23429342,0.408092,0.41497464,-0.18368378,0.387354,0.41019173,-0.15985934,0.376744,0.40598154,-0.13780518,0.367098,0.4442326,-0.24830016,0.405758,0.44523594,-0.20461936,0.388499,0.44528224,-0.18594707,0.38057,0.44544367,-0.16927819,0.373573
0.42518603,-0.34447285,0.443094,0.41497196,-0.28317458,0.434242,0.40136265,-0.31905469,0.444745,0.36876259,-0.28567341,0.441495,0.34264558,-0.26279702,0.438851,0.32913096,-0.24284697,0.435497,0.39213098,-0.22021912,0.428147,0.37848399,-0.17627648,0.413197,0.37116008,-0.15584705,0.405722,0.36448964,-0.13681269,0.398927,0.41200582,-0.22256044,0.42264,0.40145708,-0.17199428,0.405285,0.39439831,-0.14581805,0.395161,0.38942882,-0.12658979,0.38793,0.42860461,-0.22779493,0.418747,0.42091215,-0.17753649,0.400558,0.41688344,-0.15228497,0.391252,0.41328732,-0.12908541,0.382792,0.44903752,-0.24066615,0.415335,0.45248584,-0.20051086,0.399816,0.4542875,-0.18172716,0.392686,0.45600167,-0.16495965,0.386394
0.42378378,-0.33178406,0.451764,0.42005207,-0.27912424,0.443989,0.40592319,-0.31424466,0.453717,0.37154211,-0.28186258,0.449764,0.34551385,-0.25995688,0.44809,0.3315981,-0.24034252,0.444724,0.39659714,-0.21704491,0.439244,0.38415343,-0.17047423,0.425372,0.37712185,-0.15235121,0.418436,0.37070092,-0.13529636,0.412131,0.41683289,-0.21864365,0.433799,0.40634691,-0.16761661,0.417752,0.39965046,-0.14175799,0.408392,0.39493078,-0.12270162,0.401706,0.43367916,-0.22322606,0.42988,0.42728054,-0.17268161,0.412757,0.42367465,-0.14911931,0.403997,0.42054358,-0.12716198,0.396033,0.45439678,-0.23523395,0.426283,0.4581298,-0.19244666,0.411765,0.45890923,-0.17664976,0.405095,0.45848387,-0.16569389,0.399209
0.42986114,-0.3327689,0.460809,0.42319572,-0.27653512,0.451879,0.41025465,-0.31029308,0.462713,0.38045341,-0.28181996,0.463283,0.35136946,-0.25907794,0.457251,0.33403721,-0.23986421,0.448734,0.40080211,-0.21484811,0.446037,0.38872493,-0.17063218,0.431656,0.37992931,-0.14849815,0.424465,0.37288785,-0.13000457,0.417928,0.42168662,-0.2195302,0.440196,0.41038778,-0.16800995,0.423324,0.40167808,-0.13877609,0.413482,0.39801491,-0.12143094,0.406452,0.43827827,-0.22441332,0.436034,0.43080413,-0.17297297,0.417989,0.42644737,-0.1494297,0.408756,0.42261884,-0.12752452,0.400363,0.45865918,-0.23681874,0.43231,0.46112532,-0.19352353,0.416605,0.46164542,-0.17641435,0.409389,0.45999101,-0.1596662,0.403022
0.43189218,-0.32645098,0.466151,0.4287978,-0.27305463,0.460609,0.41530549,-0.31044246,0.46953,0.38607867,-0.27953551,0.471467,0.35701073,-0.25719576,0.465939,0.33887324,-0.23820955,0.456746,0.40780862,-0.21435732,0.459652,0.39681753,-0.16740888,0.447831,0.38937809,-0.14876449,0.441921,0.38253469,-0.13121793,0.436548,0.427408,-0.21535941,0.453372,0.41827863,-0.16566271,0.439653,0.41219656,-0.13843046,0.43165,0.40776867,-0.11888276,0.425934,0.44360624,-0.21937925,0.448607,0.43719447,-0.1684919,0.43392,0.43360615,-0.14337693,0.426405,0.43003207,-0.12156432,0.419573,0.46316661,-0.23049212,0.443682,0.4682238,-0.18909133,0.430836,0.47066362,-0.16985123,0.424934,0.47286064,-0.15294466,0.419726
0.44082092,-0.32338575,0.475556,0.44234308,-0.27064419,0.472702,0.42436971,-0.30867121,0.479761,0.39713768,-0.28031477,0.481312,0.36800421,-0.26016166,0.478166,0.34724993,-0.23969685,0.468357,0.41876355,-0.21498272,0.47518,0.40617383,-0.17002815,0.46631,0.39904231,-0.15119755,0.461874,0.39244473,-0.13347319,0.457842,0.43892239,-0.21361696,0.468958,0.42810442,-0.163843,0.458201,0.42145804,-0.13615625,0.451926,0.416659,-0.11616658,0.447444,0.45566437,-0.21564196,0.464048,0.44890365,-0.1656285,0.452268,0.44536949,-0.1405108,0.446241,0.44218117,-0.11744792,0.440762,0.47610613,-0.22426752,0.458571,0.48006826,-0.18165744,0.448293,0.48138606,-0.16493543,0.443571,0.48247994,-0.15063902,0.439404
0.44014594,-0.32571205,0.475086,0.44057376,-0.27541956,0.473714,0.42254858,-0.30664364,0.478936,0.39637401,-0.2813697,0.483554,0.36854401,-0.26075143,0.481154,0.35319209,-0.24165519,0.477422,0.4198616,-0.21705898,0.477124,0.40859269,-0.17247972,0.469696,0.40200765,-0.15249398,0.465983,0.39592418,-0.1337889,0.462607,0.4406957,-0.21685771,0.471918,0.4320782,-0.16746842,0.46304,0.42545954,-0.14170758,0.45786,0.42197035,-0.11978607,0.454161,0.45795354,-0.2198189,0.467737,0.45319689,-0.17022681,0.457966,0.45040556,-0.14523395,0.452967,0.44775565,-0.12239586,0.448422,0.47694665,-0.2327244,0.462921,0.48016282,-0.18986961,0.454509,0.4810761,-0.17071679,0.450644,0.48168794,-0.15406506,0.447234
0.44430352,-0.32040472,0.482735,0.4400282,-0.27161772,0.483633,0.42824306,-0.30668933,0.487809,0.39853949,-0.28125442,0.495396,0.37101612,-0.26100432,0.49326,0.35534539,-0.24210972,0.485511,0.42261752,-0.21790282,0.490603,0.41374449,-0.1738634,0.484866,0.40920238,-0.15171201,0.481997,0.40506058,-0.13145358,0.479388,0.44286586,-0.21747213,0.484809,0.43776456,-0.16834045,0.477618,0.43345658,-0.14032467,0.473423,0.4303709,-0.11985262,0.470426,0.45950478,-0.22019908,0.479977,0.45788955,-0.17113705,0.471884,0.45663415,-0.1461044,0.467744,0.45541533,-0.12321084,0.463981,0.47923826,-0.22953475,0.474056,0.48529809,-0.18740983,0.467455,0.48800697,-0.16806395,0.464423,0.49020415,-0.15099734,0.461747
0.44258288,-0.3221913,0.482542,0.44044169,-0.27423218,0.485567,0.42786409,-0.306833,0.489543,0.39930433,-0.28225867,0.496963,0.37328283,-0.26116304,0.495494,0.35937055,-0.2419116,0.492634,0.42766159,-0.2224217,0.496827,0.42007379,-0.18122434,0.493701,0.41638621,-0.15961424,0.492138,0.41381611,-0.13725521,0.490717,0.44653599,-0.2213889,0.489536,0.44324341,-0.17320072,0.485223,0.43841509,-0.14738965,0.482707,0.43600012,-0.12712739,0.48091,0.46178913,-0.22353926,0.483317,0.46446735,-0.17671468,0.481224,0.4629311,-0.15508912,0.480872,0.46375761,-0.13327406,0.480552,0.47940931,-0.23200043,0.475428,0.48644792,-0.19054815,0.47044,0.48963787,-0.17152169,0.468148,0.49212585,-0.15460007,0.466126
0.44764947,-0.32032942,0.490941,0.44862716,-0.27479606,0.495156,0.43079608,-0.3070878,0.498264,0.40218183,-0.27916205,0.503441,0.37675351,-0.25866829,0.503244,0.36311932,-0.24075935,0.498313,0.43352606,-0.22154271,0.507902,0.42665266,-0.17869962,0.505743,0.4228342,-0.15713593,0.504663,0.41933953,-0.13735769,0.503682,0.45267449,-0.21943973,0.500699,0.44810597,-0.17199765,0.497685,0.44413852,-0.14413669,0.495926,0.44082131,-0.12432268,0.49467,0.46815013,-0.22060939,0.494466,0.46983569,-0.17479896,0.492583,0.46986127,-0.15083488,0.491619,0.46989941,-0.1286857,0.490743,0.48613017,-0.22773198,0.486388,0.49298134,-0.18658392,0.482453,0.49582294,-0.16745577,0.480645,0.49837118,-0.15041395,0.479049
0.44802453,-0.3217913,0.49683,0.45002009,-0.27670759,0.499308,0.43151112,-0.30683028,0.503526,0.40087958,-0.27967312,0.505202,0.37523119,-0.25779857,0.503769,0.36219728,-0.23841398,0.501404,0.43422443,-0.22259828,0.509699,0.42631077,-0.179438,0.506691,0.42208203,-0.15776234,0.505187,0.4182056,-0.13791922,0.503819,0.45356305,-0.22153588,0.502568,0.44824306,-0.17340227,0.498143,0.44436881,-0.14520336,0.495561,0.44336842,-0.1269089,0.493717,0.46912503,-0.22360982,0.496521,0.46949206,-0.17728704,0.493948,0.46924356,-0.1532386,0.492631,0.47074681,-0.1327939,0.491434,0.48568154,-0.2348283,0.488916,0.4914726,-0.19353526,0.483501,0.49421307,-0.17428648,0.481013,0.50245802,-0.15855341,0.478818
0.44674909,-0.31924607,0.493371,0.44663539,-0.27345759,0.498175,0.43081546,-0.30639502,0.501332,0.40169599,-0.27981785,0.505997,0.37718091,-0.25900704,0.506244,0.36493631,-0.2403666,0.50518,0.43540788,-0.22355994,0.512235,0.42973006,-0.18271122,0.512628,0.42641984,-0.16197242,0.512825,0.42478236,-0.14141617,0.513004,0.45420352,-0.2217788,0.504503,0.45083739,-0.17440675,0.50204,0.44798011,-0.14645973,0.500604,0.44572022,-0.12639355,0.499578,0.46919406,-0.22317581,0.497794,0.47063222,-0.17743254,0.496372,0.47071791,-0.15351847,0.495644,0.47080373,-0.13140811,0.494983,0.48650162,-0.22822793,0.489061,0.49351476,-0.18714075,0.485567,0.49657499,-0.16815391,0.483962,0.49862833,-0.15179497,0.482546
0.44658815,-0.31834556,0.49352,0.44883172,-0.27472728,0.498572,0.43263324,-0.30661662,0.501247,0.40545819,-0.28105169,0.508102,0.38005328,-0.26061965,0.509541,0.36757286,-0.2421116,0.50791,0.43615437,-0.22365036,0.512571,0.42933402,-0.18204037,0.511744,0.42528052,-0.16098097,0.511331,0.42224737,-0.14123487,0.510955,0.45523797,-0.22191313,0.505237,0.45142744,-0.1748575,0.503228,0.4482798,-0.14709902,0.502056,0.44579415,-0.12713706,0.501219,0.47050808,-0.22333491,0.49884,0.47122659,-0.17833868,0.498272,0.47232415,-0.15420098,0.497982,0.47241775,-0.13214449,0.497718,0.48823183,-0.22899754,0.490448,0.49474087,-0.18786588,0.487418,0.49763222,-0.16884998,0.486026,0.49965167,-0.15227711,0.484797
0.44921116,-0.31922175,0.501732,0.45033552,-0.27577811,0.505608,0.43504013,-0.30720582,0.509175,0.40462574,-0.28031435,0.516865,0.37946076,-0.26054078,0.517263,0.36937755,-0.24395227,0.515763,0.436797,-0.22078414,0.518188,0.43057341,-0.17783166,0.516023,0.42715674,-0.16075557,0.514941,0.42398498,-0.14122323,0.513957,0.45642841,-0.22147714,0.510729,0.45270741,-0.17494531,0.507558,0.44828225,-0.14725427,0.505708,0.44604233,-0.12714223,0.504387,0.4715735,-0.22285773,0.504314,0.47298272,-0.17673557,0.503309,0.4731395,-0.15277642,0.502795,0.47346297,-0.13164852,0.502328,0.48911103,-0.2302259,0.496067,0.49593896,-0.18922852,0.491907,0.49787528,-0.17013716,0.489995,0.49902326,-0.15347201,0.488308
0.44947111,-0.31913261,0.503147,0.45053106,-0.27542532,0.506679,0.43508622,-0.30685532,0.510262,0.40498272,-0.28056165,0.517321,0.37959574,-0.26063346,0.517447,0.36894694,-0.24378967,0.516655,0.43710046,-0.22093753,0.518548,0.43054671,-0.17782063,0.515991,0.4265848,-0.15979453,0.514713,0.42315449,-0.14055055,0.513551,0.45660369,-0.22114771,0.511357,0.45234238,-0.17448958,0.507828,0.44765968,-0.14681945,0.505768,0.44513229,-0.12683866,0.504298,0.47189835,-0.22284081,0.505189,0.47321505,-0.17648243,0.504232,0.47350981,-0.15252094,0.503743,0.47401641,-0.13135302,0.503298,0.48963163,-0.23062125,0.497287,0.49611221,-0.18959318,0.492919,0.49782605,-0.17052876,0.490913,0.4989255,-0.15376553,0.489142
0.44964017,-0.31903987,0.50421,0.45077235,-0.27528998,0.50746,0.43511784,-0.30658025,0.511101,0.40525515,-0.28075039,0.517669,0.37965149,-0.26067174,0.517523,0.36872677,-0.2437051,0.517094,0.43730023,-0.22103851,0.518785,0.43055588,-0.17782443,0.516002,0.42627021,-0.15922798,0.514611,0.42263145,-0.14009354,0.513346,0.4567665,-0.22101957,0.511755,0.45219709,-0.17424494,0.508072,0.44739289,-0.14659374,0.505924,0.44465959,-0.12667454,0.504389,0.47216774,-0.22288285,0.505741,0.4734557,-0.17640178,0.504827,0.47382932,-0.15243646,0.50436,0.47440091,-0.13119104,0.503935,0.490055,-0.23089581,0.498063,0.49618082,-0.1897981,0.49349,0.49772041,-0.17073776,0.491389,0.4987576,-0.15390787,0.489535
0.44972464,-0.31892978,0.505003,0.45098617,-0.27523225,0.50804,0.4351344,-0.3063544,0.511761,0.40545007,-0.28088543,0.517918,0.3796845,-0.2606944,0.517568,0.36859654,-0.24365561,0.51736,0.43748821,-0.22113352,0.519008,0.4305926,-0.17783959,0.516046,0.42607851,-0.15885674,0.514565,0.42226043,-0.13975785,0.513218,0.45691789,-0.22096871,0.512054,0.45208208,-0.17407499,0.508214,0.44716744,-0.14642775,0.505974,0.44425199,-0.12653742,0.504374,0.47237114,-0.22292776,0.506117,0.47364659,-0.17637057,0.505234,0.47406964,-0.15240134,0.504782,0.47466814,-0.13108638,0.504371,0.49034267,-0.23107645,0.498563,0.49618819,-0.18991985,0.493832,0.49760101,-0.17086029,0.491658,0.49858881,-0.15398516,0.489741
0.44951922,-0.31845256,0.506324,0.45160278,-0.27547407,0.508977,0.4349025,-0.30577236,0.512959,0.40582897,-0.28114792,0.518402,0.37973659,-0.26073016,0.517639,0.36855364,-0.24365167,0.517599,0.43785657,-0.22131971,0.519445,0.43071025,-0.17788818,0.516187,0.4259621,-0.15859903,0.514557,0.42193694,-0.13948523,0.513076,0.45722643,-0.22103512,0.512486,0.4520219,-0.17396212,0.50834,0.44692814,-0.14628361,0.505921,0.44379813,-0.12639237,0.504194,0.47269735,-0.22304767,0.506572,0.47388587,-0.17639134,0.505625,0.47430271,-0.15240132,0.505141,0.47487569,-0.13101638,0.5047,0.49073463,-0.23129123,0.4991,0.49614527,-0.18998825,0.494028,0.49736189,-0.17089492,0.491698,0.49821797,-0.15396295,0.489642
0.44886311,-0.31782666,0.507908,0.44975543,-0.27434691,0.509518,0.43431386,-0.30501682,0.51531,0.40025274,-0.27745438,0.517752,0.37853279,-0.2594693,0.516667,0.36715421,-0.24197086,0.517407,0.43837081,-0.22131984,0.51995,0.43092099,-0.17784986,0.516535,0.42538829,-0.15688986,0.514827,0.42095227,-0.13948084,0.513275,0.45635339,-0.22074553,0.511648,0.45158648,-0.17351202,0.506771,0.44685775,-0.14602858,0.503927,0.44293623,-0.12596482,0.501895,0.47066779,-0.22260808,0.504704,0.47237882,-0.17618995,0.505042,0.47439198,-0.15332166,0.505214,0.47511497,-0.13161801,0.505371,0.48387227,-0.23531666,0.496144,0.4918574,-0.19424611,0.491792,0.49400538,-0.1711704,0.489793,0.49751227,-0.15490922,0.488029
0.44804596,-0.31811382,0.50939,0.44985172,-0.27497951,0.510473,0.43365208,-0.30490504,0.516781,0.4012639,-0.27815532,0.51906,0.37761344,-0.25852756,0.515892,0.36646762,-0.24088922,0.516641,0.43881778,-0.22135963,0.520405,0.43106599,-0.17782012,0.516777,0.42540332,-0.15674856,0.514963,0.42058352,-0.13948772,0.513314,0.45648844,-0.22091035,0.511905,0.45126387,-0.17320769,0.50672,0.44641444,-0.14582394,0.503696,0.44243251,-0.12574624,0.501535,0.47057555,-0.22295414,0.504836,0.47231556,-0.17666765,0.505223,0.47427743,-0.15365463,0.505422,0.47502767,-0.13201011,0.505602,0.48392688,-0.23534322,0.4962,0.49142235,-0.1940743,0.491357,0.49350772,-0.17152078,0.489132,0.49647097,-0.15505544,0.487168
0.44716988,-0.31763311,0.508661,0.45256813,-0.27615537,0.509453,0.43409427,-0.30508632,0.516277,0.40816991,-0.28304141,0.518473,0.38098299,-0.26116506,0.51583,0.36946915,-0.24358127,0.516349,0.44051858,-0.2269043,0.519383,0.43235725,-0.18407166,0.515839,0.42703814,-0.16256739,0.514066,0.41960906,-0.13957389,0.512455,0.45819548,-0.22445756,0.510502,0.45120452,-0.17618441,0.50531,0.44659295,-0.14664747,0.502282,0.4404763,-0.12554531,0.500118,0.46925858,-0.22509431,0.503141,0.47125915,-0.17934247,0.503083,0.47252074,-0.1556805,0.503053,0.47277589,-0.13396699,0.503026,0.48344835,-0.23508186,0.494194,0.49121298,-0.19427587,0.490528,0.49430965,-0.17537754,0.488844,0.49577074,-0.15498629,0.487358
0.44727632,-0.31854973,0.50962,0.45256187,-0.2770081,0.510123,0.43428199,-0.30580675,0.517191,0.40821161,-0.28326153,0.518979,0.38101142,-0.26095744,0.515958,0.36932043,-0.24299422,0.515943,0.44053017,-0.227549,0.519727,0.43213727,-0.18441455,0.515899,0.42672982,-0.16281887,0.513985,0.41934803,-0.13959411,0.512246,0.45802175,-0.22569269,0.510792,0.45048832,-0.17724528,0.505319,0.44591307,-0.14723918,0.502127,0.43989467,-0.12580605,0.499846,0.46904544,-0.22641718,0.503408,0.47086103,-0.18034852,0.503237,0.47226934,-0.15643186,0.50315,0.47255717,-0.13471544,0.503071,0.48445761,-0.23555839,0.494471,0.49166569,-0.19459669,0.490671,0.49443038,-0.17563724,0.488926,0.49538923,-0.15557478,0.487386
0.44647162,-0.3185513,0.509167,0.45335525,-0.28206077,0.509952,0.43314774,-0.3055118,0.5163,0.40857269,-0.2851949,0.516515,0.38100107,-0.26008189,0.511094,0.37003985,-0.24104728,0.510385,0.43939084,-0.22801966,0.519291,0.43168901,-0.18471572,0.515416,0.42682059,-0.16301615,0.513479,0.41917586,-0.13953449,0.511718,0.45741238,-0.22656258,0.510998,0.45040199,-0.17795503,0.505642,0.44620292,-0.14764735,0.502518,0.4402715,-0.12611232,0.500286,0.47201409,-0.22831823,0.50412,0.47209254,-0.18141392,0.501854,0.46989992,-0.15601002,0.500694,0.47114782,-0.1348664,0.49964,0.48913642,-0.23629888,0.495753,0.49308347,-0.19185289,0.49189,0.49508877,-0.17303554,0.490115,0.4964101,-0.15632455,0.488549
