sluyters/QuantumLeap/src/datasets/gesture/HandGestureDataset_SHREC2017_csv/Gesture10/finger_2/subject_24_essai_4_skeletons_world.csv
Wrist_x,Wrist_y,Wrist_z,Palm_x,Palm_y,Palm_z,thumb_base_x,thumb_base_y,thumb_base_z,thumb_first_joint_x,thumb_first_joint_y,thumb_first_joint_z,thumb_second_joint_x,thumb_second_joint_y,thumb_second_joint_z,thumb_tip_x,thumb_tip_y,thumb_tip_z,index_base_x,index_base_y,index_base_z,index_first_joint_x,index_first_joint_y,index_first_joint_z,index_second_joint_x,index_second_joint_y,index_second_joint_z,index_tip_x,index_tip_y,index_tip_z,middle_base_x,middle_base_y,middle_base_z,middle_first_joint_x,middle_first_joint_y,middle_first_joint_z,middle_second_joint_x,middle_second_joint_y,middle_second_joint_z,middle_tip_x,middle_tip_y,middle_tip_z,ring_base_x,ring_base_y,ring_base_z,ring_first_joint_x,ring_first_joint_y,ring_first_joint_z,ring_second_joint_x,ring_second_joint_y,ring_second_joint_z,ring_tip_x,ring_tip_y,ring_tip_z,pinky_base_x,pinky_base_y,pinky_base_z,pinky_first_joint_x,pinky_first_joint_y,pinky_first_joint_z,pinky_second_joint_x,pinky_second_joint_y,pinky_second_joint_z,pinky_tip_x,pinky_tip_y,pinky_tip_z,
0.376301909,-0.246199529,0.502451,0.368265049,-0.196202327,0.492399,0.356972468,-0.235731192,0.502692,0.32249269,-0.202127614,0.492304,0.296524503,-0.179192618,0.480084,0.283602645,-0.160108765,0.474365,0.337811554,-0.151406548,0.485943,0.317812779,-0.112816543,0.473121,0.306837036,-0.096409107,0.466711,0.295057864,-0.076812547,0.460882,0.360165151,-0.151515681,0.482641,0.346845158,-0.105250561,0.466909,0.338412492,-0.0836652447,0.457732,0.331261835,-0.0677923604,0.451178,0.379057592,-0.154551183,0.480852,0.369943,-0.112680801,0.467102,0.363640456,-0.0931748294,0.460067,0.357886918,-0.0751105804,0.453671,0.402971193,-0.165846386,0.480423,0.397250343,-0.131626951,0.468132,0.394627764,-0.115861459,0.462484,0.392317759,-0.10192728,0.457501
0.369859188,-0.237800249,0.497345,0.35687618,-0.181163064,0.486605,0.345144392,-0.221595888,0.496421,0.309460745,-0.187283179,0.484471,0.281537629,-0.162616255,0.472592,0.267650042,-0.142804425,0.464384,0.330203372,-0.135148691,0.478208,0.308538592,-0.0978669989,0.464674,0.297272894,-0.0814342169,0.457908,0.288045701,-0.0707478045,0.451756,0.352873888,-0.136490959,0.47618,0.340759932,-0.0919117551,0.459929,0.331099563,-0.0701357328,0.450449,0.325105154,-0.0587516841,0.443678,0.372151161,-0.141832639,0.475504,0.36593395,-0.100565447,0.463082,0.360536216,-0.0818138554,0.456727,0.355595294,-0.0724189096,0.450949,0.395894079,-0.155873561,0.476495,0.393406832,-0.12445092,0.46383,0.390953728,-0.109031041,0.458011,0.388529079,-0.0989907165,0.452877
0.363334484,-0.227220255,0.493461,0.35689466,-0.170353856,0.482167,0.342687405,-0.210934774,0.49315,0.313664411,-0.179679747,0.481846,0.285875321,-0.155722404,0.470647,0.269227583,-0.139236246,0.462827,0.325477072,-0.126698881,0.474179,0.304542792,-0.0877932677,0.460263,0.293972683,-0.0781487196,0.453305,0.28451577,-0.068110904,0.44698,0.347778272,-0.125414465,0.471211,0.335093816,-0.0811730207,0.454057,0.325953947,-0.0583336938,0.444051,0.319385717,-0.0415510095,0.436903,0.367132629,-0.128602688,0.469813,0.355927663,-0.0864962609,0.453641,0.349211892,-0.0665121849,0.445367,0.343028664,-0.0482011344,0.437845,0.391706174,-0.140075535,0.470049,0.386145768,-0.106153332,0.457011,0.383608412,-0.0904660154,0.45102,0.381379634,-0.0765679522,0.445734
0.360602625,-0.219371193,0.492121,0.353943843,-0.168555866,0.480501,0.340658382,-0.207674852,0.491075,0.309599109,-0.176588788,0.478803,0.282368278,-0.152775474,0.467973,0.268920199,-0.133460414,0.461123,0.323012424,-0.123843372,0.471369,0.301844756,-0.083131364,0.456746,0.290866053,-0.0708233439,0.449434,0.28015267,-0.0510136168,0.442788,0.345782535,-0.123516652,0.469242,0.33338815,-0.0791267955,0.451978,0.323495901,-0.0572890475,0.441908,0.316370591,-0.0412132243,0.434714,0.365518033,-0.12752798,0.468569,0.355235193,-0.0855552872,0.452588,0.348102144,-0.0668301154,0.444411,0.341563894,-0.0494927059,0.436978,0.390453495,-0.140057098,0.469712,0.385270881,-0.105729796,0.456486,0.382834584,-0.0899707885,0.45041,0.380690084,-0.0760342497,0.445048
0.358723147,-0.215667674,0.489005,0.351108304,-0.165221396,0.477058,0.338868806,-0.204318075,0.488209,0.306424762,-0.171664891,0.476186,0.279056616,-0.147661551,0.464737,0.267193316,-0.130664189,0.458506,0.319441226,-0.118671641,0.468023,0.298679,-0.0797838818,0.45309,0.287325749,-0.0638612565,0.445624,0.276868017,-0.0498679907,0.438837,0.341917807,-0.118399762,0.465481,0.327986917,-0.0712637996,0.447828,0.31930442,-0.0512801542,0.437531,0.312105808,-0.0349304016,0.430176,0.36138544,-0.122472946,0.464496,0.352439588,-0.0807077456,0.449506,0.345811625,-0.0572736722,0.441837,0.340476533,-0.0433839427,0.434866,0.386096152,-0.131316887,0.465328,0.382068851,-0.0966978188,0.451993,0.379749818,-0.081307347,0.445866,0.376964014,-0.0729394082,0.44046
0.35647317,-0.208349356,0.484702,0.346557935,-0.156097911,0.472476,0.335969419,-0.197282529,0.48344,0.302300957,-0.164333946,0.470796,0.273216637,-0.136117462,0.459483,0.260336509,-0.117133736,0.454042,0.314480895,-0.111990398,0.462661,0.293870464,-0.0731075501,0.447408,0.282807188,-0.0577717957,0.439781,0.273030936,-0.0461670984,0.432848,0.337389624,-0.111183852,0.460629,0.324285139,-0.06334119,0.44272,0.315125902,-0.043256906,0.432273,0.308312101,-0.0265689412,0.42481,0.357008283,-0.111408372,0.460088,0.34757869,-0.0726785381,0.443094,0.341017445,-0.0533388517,0.434399,0.335058619,-0.0353764825,0.426495,0.382525832,-0.123247897,0.461489,0.380266864,-0.0889631256,0.448112,0.376957586,-0.0780843781,0.441965,0.374100318,-0.0689691144,0.436542
0.353482275,-0.209116222,0.483507,0.343921733,-0.154451107,0.470436,0.333052761,-0.194713,0.48132,0.296988878,-0.158534945,0.467406,0.269766267,-0.13340615,0.4558,0.257379356,-0.114197374,0.450326,0.311816637,-0.106802243,0.458881,0.290727617,-0.0683681821,0.442846,0.279562469,-0.0527404038,0.434828,0.269143284,-0.0414207344,0.427539,0.335435576,-0.109372706,0.457771,0.322058833,-0.0650528789,0.439244,0.312606376,-0.041517674,0.428437,0.305657014,-0.0247169854,0.420718,0.355801704,-0.113718558,0.458069,0.346303954,-0.0695115604,0.440515,0.339704057,-0.0503998269,0.431534,0.332881065,-0.0343768417,0.42337,0.381693591,-0.12668649,0.460594,0.378303923,-0.0922069658,0.44653,0.375447185,-0.0778931836,0.440068,0.372585876,-0.0657971393,0.434367
0.351922864,-0.207522798,0.482504,0.342592052,-0.153622579,0.4694,0.331357392,-0.19314506,0.480268,0.295655456,-0.157758195,0.466289,0.268617198,-0.132503929,0.454572,0.256383216,-0.113215172,0.449068,0.311211186,-0.106163112,0.457761,0.290054679,-0.0678794298,0.44173,0.278818253,-0.052210212,0.433715,0.268383407,-0.0401446092,0.426428,0.334723657,-0.108554709,0.456704,0.321440278,-0.0642281438,0.438168,0.311956773,-0.0407318959,0.427356,0.305026832,-0.0238515713,0.419633,0.355029931,-0.113190234,0.457048,0.345516428,-0.0695556334,0.439486,0.338854624,-0.0504213175,0.4305,0.332204827,-0.0339192244,0.422332,0.380754727,-0.126510011,0.459633,0.377503152,-0.0920523417,0.445515,0.374613897,-0.0777813168,0.439028,0.371699528,-0.0657580878,0.433304
0.349263692,-0.20627395,0.479729,0.336360501,-0.152138906,0.463432,0.329146697,-0.194365955,0.478135,0.291874286,-0.163083956,0.464412,0.263248115,-0.13748077,0.450911,0.257416729,-0.119665891,0.449302,0.305732835,-0.108880329,0.450462,0.283345367,-0.0732210042,0.432364,0.271875657,-0.0553063087,0.423314,0.261298891,-0.0370652129,0.415088,0.327503197,-0.109664594,0.447641,0.315050495,-0.0645778679,0.426313,0.302444737,-0.0459315952,0.413872,0.293352273,-0.0321808973,0.404985,0.346527427,-0.114704593,0.446829,0.336481375,-0.0724948177,0.42645,0.328788626,-0.0536902601,0.416023,0.321806792,-0.0362539277,0.406545,0.370887212,-0.128727397,0.448588,0.367324198,-0.0939704714,0.432773,0.364242412,-0.0790927813,0.425506,0.362863205,-0.0650524152,0.422158
0.332136414,-0.207621169,0.463239,0.325949335,-0.168118202,0.449856,0.311838388,-0.203879838,0.461527,0.28219273,-0.171210441,0.448132,0.259695634,-0.144862546,0.439773,0.249942306,-0.12462018,0.434349,0.298356549,-0.122587216,0.438695,0.277584904,-0.0880705181,0.422715,0.267023884,-0.070282322,0.414724,0.257310288,-0.0537665709,0.407461,0.320418241,-0.123366192,0.436889,0.306918693,-0.0803675135,0.4183,0.295988659,-0.0592023504,0.407456,0.28810489,-0.0435895256,0.399711,0.339527473,-0.128241269,0.436643,0.330827526,-0.0869516582,0.418873,0.323799777,-0.0684113674,0.409782,0.317414504,-0.051130061,0.401517,0.363684226,-0.141853923,0.438581,0.359256677,-0.106962204,0.424033,0.356548992,-0.0913298336,0.417349,0.354166132,-0.0775054695,0.411451
0.32666552,-0.223880977,0.463874,0.318862799,-0.180647115,0.445944,0.306716814,-0.208525243,0.460167,0.271602506,-0.180743883,0.443627,0.24719776,-0.15395861,0.432569,0.237803951,-0.134052779,0.427847,0.293404815,-0.129005443,0.429196,0.268744913,-0.0973814554,0.409629,0.256139041,-0.0816301413,0.399845,0.244536634,-0.0670008448,0.390951,0.31581743,-0.134298318,0.428572,0.298178974,-0.0923707959,0.405897,0.285810792,-0.0715543475,0.39267,0.276921612,-0.0563182345,0.383222,0.334986243,-0.143129183,0.42972,0.320720709,-0.102516395,0.408436,0.31277097,-0.0825786408,0.397546,0.305550798,-0.0642571382,0.387646,0.358724001,-0.161808583,0.434052,0.351214859,-0.126753141,0.416279,0.347738925,-0.110752347,0.408114,0.345424188,-0.0969083122,0.401802
0.31737932,-0.242684212,0.448825,0.30822,-0.191281269,0.430621,0.296704108,-0.228196699,0.445787,0.263963218,-0.195940648,0.430012,0.238957874,-0.171183601,0.420362,0.228589397,-0.151974718,0.416443,0.27668294,-0.141439864,0.414537,0.253140418,-0.108648603,0.394682,0.241202439,-0.0918321597,0.384754,0.230239412,-0.0762649219,0.375729,0.299158719,-0.143558037,0.412982,0.283364407,-0.101783835,0.390031,0.27208987,-0.0808965976,0.376643,0.264004124,-0.0656130776,0.36708,0.318881531,-0.149841169,0.413389,0.306251021,-0.110507826,0.391647,0.299304119,-0.090972801,0.380524,0.292241142,-0.0743410297,0.370411,0.34425683,-0.165620752,0.416897,0.340115237,-0.132270057,0.399542,0.338209411,-0.116954142,0.391568,0.336526083,-0.103444289,0.384532
0.315961078,-0.248961857,0.445547,0.307250154,-0.206338191,0.427428,0.29689702,-0.235433416,0.444603,0.26406435,-0.215619728,0.431442,0.236915395,-0.193312245,0.423172,0.225761545,-0.175013604,0.420516,0.27723014,-0.156683098,0.414061,0.251460189,-0.130099775,0.395227,0.238400228,-0.116380669,0.386086,0.226343512,-0.103575487,0.377876,0.297837178,-0.158476631,0.409872,0.278937906,-0.121337702,0.386997,0.267663774,-0.0993717007,0.373654,0.259614909,-0.0833270116,0.364177,0.315895172,-0.164517607,0.408103,0.301230883,-0.125945572,0.386314,0.293749899,-0.105916546,0.375166,0.287495478,-0.0876723791,0.365708,0.339092805,-0.179953625,0.409042,0.333726564,-0.147424651,0.391315,0.331289629,-0.132402663,0.38317,0.329170509,-0.11910959,0.376
0.314049302,-0.2628645,0.443159,0.304416283,-0.219134044,0.424902,0.295164021,-0.248760502,0.442011,0.261821465,-0.226147447,0.428573,0.234719476,-0.20306621,0.417412,0.221784955,-0.183368958,0.410955,0.275411483,-0.168505214,0.411182,0.249610327,-0.142971092,0.392673,0.236448665,-0.129923415,0.383629,0.224277805,-0.117747821,0.375499,0.296024637,-0.17101425,0.407211,0.277118253,-0.133904471,0.384538,0.265643513,-0.112339859,0.371312,0.257433284,-0.0965817145,0.361904,0.314016233,-0.177678578,0.405634,0.299711175,-0.139199484,0.383916,0.292430129,-0.119230985,0.372821,0.285865904,-0.100896896,0.362783,0.336997594,-0.193922814,0.406822,0.331650471,-0.161342423,0.388979,0.329220058,-0.146306049,0.380781,0.327102523,-0.133005009,0.373561
0.311649886,-0.276890067,0.44,0.302529881,-0.234824642,0.419894,0.293879902,-0.270636874,0.438525,0.259563027,-0.243111685,0.424445,0.229425902,-0.223333946,0.409423,0.213524477,-0.204155736,0.399959,0.27238047,-0.183358756,0.404519,0.244127452,-0.161084811,0.384835,0.22966221,-0.149630242,0.375103,0.216275848,-0.138995326,0.366334,0.292664058,-0.186605865,0.400413,0.272133873,-0.150957364,0.375992,0.260029722,-0.12975331,0.361762,0.25137718,-0.114315602,0.351638,0.310534389,-0.193916063,0.398897,0.294378093,-0.155163899,0.375743,0.286125264,-0.135134045,0.363896,0.279944183,-0.117338092,0.354789,0.333594339,-0.210962844,0.400464,0.326818112,-0.17841757,0.381389,0.323723719,-0.163415352,0.372624,0.321015098,-0.150154968,0.364902
0.314152825,-0.294467711,0.441962,0.299937649,-0.251130323,0.416611,0.29402387,-0.278466526,0.438662,0.257344163,-0.259037219,0.421768,0.225742068,-0.241570163,0.40523,0.208646963,-0.2231949,0.394673,0.26496921,-0.198120979,0.395394,0.23402629,-0.176958857,0.371832,0.218362209,-0.166276924,0.360258,0.203934759,-0.156456592,0.349807,0.285929526,-0.202543747,0.392046,0.262799935,-0.16562406,0.363358,0.249362064,-0.143860773,0.346737,0.239767568,-0.128171151,0.334892,0.304747225,-0.210870207,0.39164,0.286221443,-0.169512745,0.364533,0.276733087,-0.148455141,0.350664,0.265654731,-0.134668035,0.338056,0.329610177,-0.229174356,0.395382,0.320507858,-0.195293023,0.373239,0.316295527,-0.179795788,0.363066,0.312560181,-0.166161534,0.354089
0.30878737,-0.321260168,0.43414,0.29510994,-0.271124777,0.410433,0.288822985,-0.305819298,0.43131,0.252448439,-0.279230803,0.415144,0.220779492,-0.262017542,0.39858,0.20335617,-0.243464244,0.387594,0.260857806,-0.218875313,0.390918,0.230283498,-0.198689403,0.368271,0.214687323,-0.188465917,0.35703,0.200293199,-0.179081731,0.346873,0.281804276,-0.223087021,0.387462,0.259208829,-0.186845634,0.359981,0.246021959,-0.165407915,0.343999,0.236596416,-0.149929088,0.332606,0.300536549,-0.231195955,0.386814,0.28252778,-0.190143836,0.360849,0.273310893,-0.169181027,0.347565,0.262516566,-0.155725276,0.335488,0.325141231,-0.249143831,0.389999,0.316441625,-0.215445102,0.368707,0.312426398,-0.2000016,0.358924,0.308873249,-0.186398053,0.350292
0.307545209,-0.342609367,0.434,0.295743226,-0.292743071,0.410535,0.288894861,-0.32657085,0.431859,0.252181408,-0.3077393,0.416591,0.220241384,-0.288507475,0.403681,0.202448124,-0.270911284,0.393945,0.264346661,-0.2398002,0.392058,0.233604057,-0.22052184,0.369675,0.217914016,-0.210799093,0.358565,0.203428497,-0.20190401,0.348527,0.284234341,-0.244903687,0.387799,0.259180927,-0.21009095,0.361117,0.244495963,-0.189479955,0.345594,0.233966471,-0.174589616,0.334527,0.30188802,-0.253731982,0.386468,0.282103351,-0.213536747,0.361159,0.271980804,-0.192947919,0.34821,0.260342666,-0.179743309,0.336438,0.324866598,-0.272482217,0.388812,0.313879901,-0.240114824,0.367517,0.308841657,-0.225218928,0.357733,0.304401704,-0.212061126,0.3491
0.308356589,-0.35371855,0.435145,0.296059475,-0.313287999,0.410974,0.289460798,-0.347502496,0.432705,0.252427178,-0.328523804,0.416997,0.220450888,-0.309336057,0.404065,0.202731797,-0.291893743,0.394497,0.26406752,-0.259485122,0.391644,0.233042915,-0.240465767,0.368787,0.217202961,-0.230892856,0.357395,0.202590331,-0.222163337,0.347091,0.284054771,-0.264790041,0.387554,0.258610339,-0.2299847,0.360322,0.243686622,-0.209422142,0.34445,0.232988717,-0.194598177,0.333129,0.301856774,-0.27385289,0.386428,0.281662026,-0.233343961,0.360594,0.271329381,-0.212623671,0.347376,0.259508487,-0.199516451,0.33536,0.325131463,-0.293011039,0.389129,0.313775706,-0.260357576,0.367395,0.308561938,-0.245345303,0.357409,0.303964851,-0.232094587,0.348599
0.307572052,-0.369276316,0.435492,0.295213064,-0.323275862,0.410805,0.288571032,-0.352386815,0.432692,0.250238713,-0.337939317,0.416482,0.219970374,-0.316849949,0.405931,0.203307674,-0.297471839,0.397106,0.263928871,-0.268456169,0.390669,0.231696109,-0.251057999,0.368088,0.21529312,-0.242423597,0.356955,0.200149983,-0.234590713,0.346903,0.284108677,-0.274425943,0.386884,0.257990985,-0.242005391,0.359204,0.242683024,-0.222883195,0.343112,0.231702594,-0.209102158,0.33164,0.301970288,-0.284064065,0.386056,0.281398304,-0.24328751,0.360098,0.270873242,-0.222447121,0.346817,0.258972321,-0.209359196,0.334744,0.325156622,-0.303953927,0.389193,0.311407843,-0.272882776,0.367198,0.305105256,-0.258562951,0.357092,0.299552787,-0.245902078,0.348175
0.304462416,-0.382997336,0.433773,0.293174623,-0.34232575,0.409602,0.284932176,-0.375725675,0.430896,0.247686571,-0.357099286,0.41685,0.215433128,-0.338798384,0.404715,0.1959275,-0.323635587,0.393295,0.262701054,-0.287151854,0.389713,0.230678793,-0.271186295,0.367339,0.214295972,-0.263245979,0.356193,0.199159919,-0.256078717,0.346118,0.282950844,-0.293650462,0.38618,0.256856526,-0.261754633,0.358862,0.241514099,-0.242926942,0.342928,0.230502719,-0.229370643,0.331567,0.300803904,-0.303723771,0.385512,0.280999071,-0.262898418,0.359865,0.270866777,-0.242026709,0.346744,0.259038733,-0.229687397,0.334815,0.323837908,-0.324116176,0.388751,0.310994657,-0.293164413,0.367065,0.304588443,-0.280079959,0.357101,0.298634399,-0.269212593,0.348309
0.305175542,-0.407440529,0.442052,0.288959896,-0.36010697,0.413498,0.279462846,-0.393401767,0.434952,0.240558021,-0.372572212,0.41683,0.20622331,-0.351196609,0.399599,0.186400395,-0.334026795,0.386173,0.253877191,-0.299454992,0.385305,0.221016529,-0.281085326,0.357813,0.204367387,-0.272342373,0.344067,0.189059503,-0.265062519,0.33157,0.27700595,-0.308755826,0.38583,0.250135787,-0.275875919,0.354356,0.234418501,-0.256618594,0.335996,0.223168451,-0.242821048,0.322882,0.297621959,-0.321468974,0.388909,0.27618857,-0.278959495,0.359336,0.265213554,-0.257352391,0.344206,0.252937499,-0.24467195,0.330451,0.324521328,-0.345622026,0.397276,0.310702654,-0.313275097,0.372726,0.303873074,-0.299677449,0.361446,0.297566157,-0.288422454,0.351494
0.302486883,-0.423988526,0.445414,0.288956411,-0.377399561,0.41604,0.280964401,-0.403244542,0.438371,0.241673377,-0.387818717,0.420064,0.20688476,-0.368517318,0.4008,0.188454294,-0.348592222,0.388694,0.253561745,-0.317066093,0.387367,0.220268965,-0.296221345,0.359505,0.203456245,-0.285820661,0.345574,0.187855768,-0.278346182,0.332909,0.276392413,-0.32665309,0.387577,0.249617393,-0.292463469,0.355519,0.233970316,-0.272467431,0.336819,0.222777517,-0.25815502,0.323461,0.296781556,-0.339543339,0.390472,0.272496491,-0.296314696,0.360668,0.260086874,-0.274356145,0.34542,0.245501447,-0.266348061,0.331558,0.323453683,-0.363767127,0.39876,0.308387483,-0.330570289,0.373725,0.301452342,-0.315341958,0.362222,0.295326348,-0.301920319,0.352073
0.30221613,-0.436214153,0.447166,0.288050068,-0.38720066,0.416502,0.280493234,-0.415242235,0.439682,0.240858667,-0.397466706,0.420507,0.205973885,-0.379428122,0.400722,0.186937381,-0.359680764,0.387614,0.251751824,-0.326753434,0.386403,0.21797608,-0.306453411,0.357627,0.200940289,-0.296359865,0.343239,0.185094163,-0.290155655,0.330159,0.274722541,-0.336661768,0.38679,0.247342994,-0.303693171,0.353731,0.231344606,-0.284432495,0.334447,0.219902321,-0.27065892,0.320673,0.295279294,-0.349791378,0.38995,0.270695966,-0.308950477,0.359133,0.258126438,-0.288133552,0.343367,0.242743424,-0.283962369,0.329034,0.322251407,-0.374235004,0.398763,0.306827344,-0.341797902,0.373001,0.299728515,-0.326911981,0.361164,0.293458266,-0.313788323,0.35072
0.303685217,-0.442309973,0.450052,0.289562158,-0.392605688,0.418742,0.281764899,-0.420956464,0.442221,0.242094092,-0.40533424,0.422611,0.2071295,-0.386817007,0.402272,0.187508135,-0.368136274,0.38799,0.253455342,-0.33484151,0.387772,0.219684842,-0.31452243,0.358464,0.2026692,-0.304424939,0.343811,0.186811609,-0.298201057,0.330489,0.276474313,-0.345358368,0.388406,0.249260757,-0.312578861,0.354833,0.233365112,-0.29343869,0.335248,0.222000662,-0.279758257,0.32126,0.297040613,-0.358994994,0.391829,0.27270191,-0.318211854,0.360519,0.260253324,-0.297420932,0.3445,0.244769851,-0.29324889,0.329937,0.323971342,-0.384040503,0.401059,0.308758101,-0.351784093,0.37493,0.301754301,-0.336981146,0.362925,0.295565819,-0.323929601,0.352332
0.303367266,-0.443439611,0.449936,0.289272483,-0.393061062,0.418435,0.281491302,-0.422122338,0.442085,0.241826815,-0.402677781,0.422269,0.206840667,-0.386122165,0.401998,0.186978885,-0.368141508,0.387362,0.25294819,-0.334101536,0.387308,0.219029586,-0.313897717,0.357897,0.201839197,-0.304745709,0.343191,0.185899436,-0.29983773,0.329822,0.275942325,-0.344583722,0.387912,0.24853029,-0.311925243,0.354201,0.23251911,-0.292857934,0.334536,0.221071431,-0.279229759,0.32049,0.296506611,-0.35818527,0.391328,0.272001902,-0.317529949,0.35991,0.259056237,-0.298040466,0.343836,0.243187983,-0.295503395,0.329223,0.323469866,-0.383176405,0.400581,0.308084582,-0.350993444,0.374324,0.300773122,-0.336848017,0.36226,0.294180812,-0.324741908,0.351616
