sluyters/QuantumLeap/backend/src/datasets/gesture/HandGestureDataset_SHREC2017_csv/Gesture14/finger_1/subject_17_essai_3_skeletons_world.csv
Wrist_x,Wrist_y,Wrist_z,Palm_x,Palm_y,Palm_z,thumb_base_x,thumb_base_y,thumb_base_z,thumb_first_joint_x,thumb_first_joint_y,thumb_first_joint_z,thumb_second_joint_x,thumb_second_joint_y,thumb_second_joint_z,thumb_tip_x,thumb_tip_y,thumb_tip_z,index_base_x,index_base_y,index_base_z,index_first_joint_x,index_first_joint_y,index_first_joint_z,index_second_joint_x,index_second_joint_y,index_second_joint_z,index_tip_x,index_tip_y,index_tip_z,middle_base_x,middle_base_y,middle_base_z,middle_first_joint_x,middle_first_joint_y,middle_first_joint_z,middle_second_joint_x,middle_second_joint_y,middle_second_joint_z,middle_tip_x,middle_tip_y,middle_tip_z,ring_base_x,ring_base_y,ring_base_z,ring_first_joint_x,ring_first_joint_y,ring_first_joint_z,ring_second_joint_x,ring_second_joint_y,ring_second_joint_z,ring_tip_x,ring_tip_y,ring_tip_z,pinky_base_x,pinky_base_y,pinky_base_z,pinky_first_joint_x,pinky_first_joint_y,pinky_first_joint_z,pinky_second_joint_x,pinky_second_joint_y,pinky_second_joint_z,pinky_tip_x,pinky_tip_y,pinky_tip_z,
0.56732099,-0.5004418,0.632656,0.54198073,-0.44591006,0.614405,0.54222302,-0.48960357,0.630416,0.49138604,-0.46376819,0.61629,0.45293248,-0.44411867,0.602245,0.43440628,-0.42757976,0.595488,0.49371733,-0.39459123,0.598242,0.48788423,-0.35292181,0.595252,0.48479438,-0.33234284,0.593861,0.48161107,-0.31523753,0.592595,0.51537463,-0.38962002,0.594942,0.49151095,-0.38975663,0.568294,0.51486519,-0.43039296,0.590503,0.53172757,-0.45541289,0.607113,0.5353199,-0.38974569,0.593711,0.51391856,-0.39841337,0.570318,0.50281259,-0.41010746,0.558349,0.51055841,-0.42737438,0.567152,0.56308523,-0.39783927,0.595018,0.53712488,-0.40565305,0.573884,0.55317422,-0.4330753,0.587704,0.56985214,-0.44985398,0.6005
0.56665071,-0.50035944,0.632655,0.54186856,-0.44579283,0.614457,0.54161602,-0.48927439,0.63036,0.49124651,-0.4636365,0.616115,0.45210569,-0.44319072,0.601868,0.43385417,-0.42686192,0.594995,0.49405799,-0.39414051,0.598266,0.48787243,-0.35266401,0.595306,0.48485152,-0.33211519,0.594017,0.48172578,-0.31506396,0.592844,0.5158332,-0.3894566,0.595052,0.49171841,-0.38988007,0.568464,0.51502173,-0.43055309,0.590711,0.53225822,-0.45578946,0.607312,0.53583201,-0.38982334,0.593887,0.51449921,-0.39878686,0.570489,0.50328219,-0.41035178,0.558518,0.5109525,-0.42754519,0.567343,0.56357912,-0.39821365,0.595265,0.5373598,-0.40583047,0.574135,0.55343212,-0.43327721,0.587978,0.57011975,-0.45006524,0.600782
0.56481273,-0.49942613,0.631712,0.54082186,-0.44509027,0.613853,0.54024382,-0.48845972,0.629811,0.49110203,-0.46334704,0.616134,0.45242872,-0.44334569,0.602829,0.43017349,-0.42399715,0.594395,0.49392303,-0.39177132,0.598399,0.48777144,-0.35030445,0.596228,0.48482703,-0.32995757,0.595455,0.48177622,-0.31302533,0.594752,0.51559819,-0.3889448,0.59481,0.49184202,-0.39022242,0.568481,0.5150411,-0.43085198,0.590771,0.53209794,-0.45592174,0.607291,0.53528845,-0.38928117,0.593308,0.51436635,-0.39852291,0.570348,0.50328197,-0.41002338,0.5586,0.5104847,-0.42513289,0.567576,0.56251286,-0.39760356,0.594235,0.53682492,-0.40179075,0.573504,0.55303798,-0.42932331,0.587392,0.56966271,-0.4458395,0.600073
0.56344214,-0.49890499,0.63129,0.54007685,-0.44463589,0.613591,0.53908231,-0.4878353,0.629507,0.49096578,-0.46310918,0.616106,0.45235928,-0.44316244,0.603115,0.43047696,-0.42409581,0.595215,0.49386909,-0.39161747,0.598399,0.48759299,-0.35014402,0.596317,0.48436882,-0.32982748,0.59539,0.48110149,-0.31270247,0.594546,0.51549227,-0.38853028,0.594717,0.49191895,-0.39052784,0.568444,0.51500379,-0.43110342,0.590766,0.53194303,-0.45605846,0.607276,0.535103,-0.38899949,0.593126,0.51436062,-0.39835736,0.570348,0.5032926,-0.40970384,0.558694,0.51065365,-0.42453752,0.567744,0.56212645,-0.39747373,0.593923,0.53662881,-0.40211423,0.573346,0.55283761,-0.42968854,0.587263,0.56942769,-0.44626509,0.599902
0.56257717,-0.49789365,0.630658,0.53948933,-0.44378189,0.613026,0.53819484,-0.48672072,0.628777,0.49836692,-0.46643931,0.614571,0.45406169,-0.44452532,0.603216,0.43423641,-0.42716292,0.59786,0.49349511,-0.39119326,0.597763,0.48674124,-0.34998189,0.594996,0.48310888,-0.32937144,0.594296,0.47989824,-0.31220603,0.593659,0.51518386,-0.38779607,0.594224,0.49205437,-0.39063958,0.568178,0.51505111,-0.43102067,0.590567,0.53179053,-0.45556738,0.607017,0.53489497,-0.38840213,0.592746,0.51446635,-0.39734076,0.570039,0.50311605,-0.40837284,0.558422,0.51065327,-0.42380416,0.567529,0.56233741,-0.39570594,0.593666,0.53665772,-0.40384998,0.57308,0.55274331,-0.43146734,0.587031,0.56935774,-0.44661525,0.599685
0.56297389,-0.49795148,0.631513,0.53959815,-0.443488,0.613306,0.5384089,-0.48656404,0.629403,0.49256871,-0.46354617,0.615373,0.45390416,-0.44423933,0.601868,0.43220486,-0.42561909,0.595703,0.4932173,-0.39088998,0.597338,0.48565366,-0.34931156,0.594647,0.47932077,-0.32869215,0.593302,0.47869457,-0.31173137,0.593078,0.51498268,-0.38715382,0.593892,0.49160255,-0.39032955,0.567248,0.5142654,-0.43029153,0.58944,0.53097864,-0.45457471,0.606043,0.5348125,-0.38790407,0.592536,0.51386648,-0.39699642,0.56924,0.50205687,-0.40854201,0.557321,0.5095062,-0.42364528,0.566143,0.56253169,-0.39513302,0.593688,0.53650286,-0.40262698,0.572646,0.55243941,-0.43016983,0.586461,0.56906861,-0.44677094,0.599224
0.56274349,-0.49745428,0.631665,0.53934427,-0.44289568,0.613174,0.53808967,-0.485925,0.629406,0.49206837,-0.46309169,0.615239,0.45302712,-0.44391496,0.601385,0.43140747,-0.42528914,0.595245,0.49284067,-0.390525,0.596811,0.48502625,-0.34907857,0.59424,0.47859936,-0.32849851,0.592955,0.47790133,-0.31146164,0.592822,0.5146905,-0.38644279,0.593455,0.49132274,-0.39015598,0.566517,0.51374598,-0.42978544,0.588619,0.53036897,-0.45375633,0.6053,0.5346146,-0.38732189,0.592198,0.51351723,-0.39647908,0.568603,0.50139719,-0.40798258,0.556531,0.50853719,-0.42274023,0.565214,0.56253681,-0.39442576,0.59351,0.53637342,-0.40277509,0.572223,0.55216037,-0.43030385,0.585975,0.56881263,-0.44695235,0.598798
0.56372163,-0.49716256,0.632028,0.53970556,-0.44251199,0.613161,0.53886017,-0.48569532,0.629614,0.4925706,-0.46325105,0.615278,0.4533571,-0.44436668,0.601439,0.43176788,-0.42589118,0.5956,0.49251151,-0.39014987,0.59633,0.48429799,-0.34882174,0.593854,0.47803169,-0.32830979,0.592616,0.47672971,-0.31103221,0.592397,0.51440752,-0.38596125,0.593042,0.49091402,-0.38995386,0.565763,0.5132145,-0.42921718,0.587734,0.52986319,-0.45287559,0.604497,0.53442033,-0.38675872,0.59187,0.51311989,-0.39600712,0.567946,0.50077389,-0.40757385,0.555705,0.50764532,-0.42209622,0.564215,0.56248545,-0.39405859,0.59334,0.53622182,-0.40208554,0.571754,0.55185829,-0.42958622,0.585414,0.56855292,-0.44623537,0.598307
0.5644716,-0.4966928,0.63205,0.53994597,-0.44201962,0.612959,0.53952809,-0.4853875,0.629622,0.49393941,-0.46387655,0.61523,0.45433064,-0.44514565,0.602292,0.43281762,-0.42691781,0.596835,0.49229384,-0.38982994,0.595947,0.48386174,-0.34876503,0.593849,0.47785682,-0.32855294,0.5928,0.47345262,-0.31054154,0.592104,0.51411736,-0.38544498,0.5926,0.49060073,-0.38968544,0.565159,0.51283815,-0.42889309,0.587032,0.52952257,-0.45267464,0.603824,0.53410793,-0.38608297,0.591399,0.51277848,-0.39545177,0.567386,0.50050032,-0.40677097,0.555101,0.50704203,-0.42172215,0.563524,0.56213083,-0.39353945,0.592868,0.53631762,-0.39925128,0.571143,0.55168831,-0.42687415,0.584736,0.56849205,-0.44393266,0.597653
0.56565519,-0.49660379,0.632557,0.54049222,-0.44177737,0.613104,0.54053409,-0.48538317,0.630024,0.49482625,-0.46422646,0.615503,0.45510724,-0.44573168,0.602884,0.43360627,-0.42768693,0.59771,0.49218602,-0.38959697,0.595697,0.48340439,-0.34869314,0.593818,0.47767812,-0.32870259,0.592879,0.4730297,-0.3107736,0.592025,0.51400335,-0.38506069,0.592361,0.49031058,-0.38943547,0.564582,0.51244576,-0.42855563,0.586312,0.52920799,-0.45249592,0.603181,0.53403839,-0.38558285,0.591197,0.51249388,-0.39494057,0.566889,0.50001159,-0.40637343,0.554452,0.50632446,-0.42125297,0.562706,0.5621037,-0.39331753,0.592766,0.53607278,-0.39840428,0.570776,0.55130308,-0.42593723,0.584271,0.56812938,-0.44326301,0.597244
0.56333414,-0.49388457,0.629176,0.53954804,-0.4404476,0.611531,0.53984843,-0.48415945,0.628482,0.49633428,-0.46515894,0.616536,0.45678694,-0.44702822,0.604524,0.43549051,-0.42931923,0.599938,0.49409692,-0.39075529,0.597731,0.49881005,-0.35494275,0.606832,0.50032928,-0.33728471,0.611382,0.50172343,-0.32113105,0.61555,0.51449826,-0.38502122,0.592716,0.4916083,-0.39033436,0.566081,0.51410226,-0.42988199,0.588043,0.53072904,-0.4535031,0.604571,0.53315786,-0.38446901,0.590023,0.51132764,-0.38250382,0.567827,0.50060781,-0.39779312,0.556471,0.50923846,-0.41786714,0.565472,0.55897841,-0.39160672,0.589505,0.53473963,-0.39708203,0.569526,0.55023251,-0.4214004,0.583267,0.56670509,-0.44187584,0.595626
0.56486008,-0.49496352,0.630377,0.54028378,-0.44069073,0.61195,0.54053269,-0.4845031,0.6288,0.49490109,-0.46411326,0.615713,0.45551278,-0.44557669,0.603884,0.43465512,-0.42827836,0.59854,0.49337681,-0.38978017,0.59648,0.49493284,-0.34893993,0.595104,0.49431434,-0.32949046,0.594416,0.4929647,-0.31587283,0.593791,0.51443071,-0.38456472,0.5923,0.49091276,-0.38944566,0.564972,0.51345645,-0.42909231,0.586875,0.53036451,-0.45277165,0.603635,0.53374663,-0.38448383,0.590358,0.51200909,-0.38326356,0.567117,0.50110884,-0.399731,0.555226,0.50778822,-0.42183511,0.5639,0.56055295,-0.39229117,0.590849,0.5352203,-0.39702478,0.569947,0.5509053,-0.42151042,0.583613,0.56759198,-0.44221141,0.596268
0.56660478,-0.49614333,0.631686,0.54281152,-0.44221502,0.613992,0.54097001,-0.48444871,0.628604,0.49395515,-0.46216683,0.612521,0.45870494,-0.43836336,0.598655,0.43590939,-0.42142279,0.591975,0.49759245,-0.38945934,0.597194,0.49638142,-0.34502931,0.587887,0.493515,-0.33083685,0.583234,0.49094712,-0.31752507,0.579004,0.52163947,-0.38671334,0.595124,0.50347553,-0.38901571,0.56874,0.5219986,-0.43171896,0.591352,0.53495973,-0.45588297,0.607993,0.54232992,-0.38875827,0.594859,0.52566935,-0.39227531,0.571515,0.50854918,-0.40632424,0.559571,0.51239299,-0.42560643,0.568647,0.57050171,-0.3992981,0.597228,0.54909013,-0.40149301,0.576021,0.5640147,-0.42850733,0.590086,0.57480897,-0.44743218,0.603003
0.56748078,-0.49704156,0.632427,0.54285993,-0.44190338,0.613243,0.54070838,-0.48405215,0.627914,0.4937816,-0.45933799,0.610124,0.45726683,-0.43445197,0.597487,0.43854422,-0.41487286,0.592089,0.49995482,-0.38689473,0.593576,0.49766037,-0.34442543,0.585588,0.50066813,-0.32403575,0.581595,0.50183092,-0.30547182,0.579551,0.52405311,-0.38614294,0.592785,0.50227083,-0.3875276,0.56544,0.51982782,-0.42939169,0.587653,0.53251357,-0.45321274,0.604517,0.54564836,-0.38988406,0.593695,0.5254222,-0.39752103,0.568485,0.50769976,-0.40887762,0.555587,0.50848102,-0.42246824,0.56387,0.57469031,-0.40256718,0.597682,0.5495036,-0.40132141,0.574915,0.56328497,-0.4281742,0.588651,0.57453384,-0.4470258,0.601991
0.56459408,-0.49626314,0.630579,0.54160469,-0.44137179,0.611967,0.53756163,-0.48228038,0.625371,0.48464084,-0.45268895,0.608927,0.44820262,-0.42814055,0.596819,0.4305763,-0.40799923,0.591583,0.49884731,-0.3850517,0.59186,0.49945338,-0.34220963,0.582331,0.49953549,-0.32091416,0.577824,0.49964344,-0.30153531,0.573727,0.52382539,-0.38577566,0.592121,0.50265796,-0.38773032,0.565257,0.51710945,-0.42984839,0.587731,0.5327615,-0.45412549,0.604503,0.5460173,-0.39071729,0.593849,0.52541084,-0.39752157,0.568635,0.50375318,-0.4082921,0.555735,0.50883607,-0.42316882,0.564171,0.57604585,-0.40675694,0.59872,0.54815361,-0.40436978,0.576001,0.55396408,-0.43124568,0.589891,0.56646518,-0.44056263,0.603273
0.56101188,-0.49535239,0.628257,0.53949349,-0.44071158,0.61043,0.53486265,-0.48133822,0.623678,0.48226699,-0.45212484,0.606323,0.44439745,-0.42705456,0.591562,0.43136831,-0.40784107,0.588962,0.4967681,-0.38486918,0.591678,0.49809825,-0.34250624,0.583646,0.50062504,-0.321389,0.57963,0.50116937,-0.30319942,0.575979,0.52009891,-0.38487104,0.591421,0.50193809,-0.38785838,0.565309,0.51825447,-0.43048178,0.588059,0.53379958,-0.45617459,0.604645,0.54426968,-0.39045477,0.592658,0.52388514,-0.39711196,0.568397,0.50450919,-0.40841541,0.555984,0.50979968,-0.42336287,0.564862,0.57179352,-0.40717558,0.596829,0.53951923,-0.40358456,0.574863,0.53602614,-0.42699059,0.588954,0.53959513,-0.44284027,0.602148
0.56285423,-0.49771339,0.630042,0.54133893,-0.44245717,0.611791,0.53653791,-0.48350251,0.625358,0.49312374,-0.45973631,0.609477,0.45719903,-0.43553594,0.59407,0.43707046,-0.41357158,0.587886,0.49151473,-0.38808965,0.592598,0.49481067,-0.35087322,0.594858,0.49562608,-0.3317985,0.595989,0.49585278,-0.32092624,0.597016,0.51780965,-0.38611899,0.592329,0.49455749,-0.388474,0.565853,0.5182781,-0.43066031,0.588449,0.53400225,-0.4558791,0.605119,0.54060043,-0.38917416,0.593592,0.51727273,-0.39631049,0.568956,0.50532263,-0.40853862,0.556352,0.51020899,-0.4223715,0.565029,0.57020133,-0.39946802,0.597856,0.53901138,-0.40444462,0.575584,0.53859429,-0.42792506,0.589569,0.54279671,-0.44503008,0.60283
0.56134198,-0.49739154,0.62854,0.54034602,-0.44217226,0.610607,0.53426413,-0.4823483,0.622866,0.48899661,-0.45542433,0.603656,0.45038187,-0.43329667,0.588925,0.43147939,-0.41565113,0.584536,0.48981778,-0.38803703,0.590418,0.47620867,-0.3478607,0.584849,0.46980344,-0.3277953,0.58328,0.46501342,-0.30940261,0.584484,0.51603424,-0.38530362,0.591483,0.50044057,-0.38769792,0.565138,0.51894738,-0.43046425,0.587847,0.53391528,-0.45581109,0.604504,0.53967502,-0.38859633,0.593818,0.52302349,-0.39564561,0.56883,0.50586408,-0.40829139,0.556045,0.51049444,-0.42297644,0.564685,0.57136766,-0.40064275,0.599306,0.54929924,-0.40416677,0.576813,0.55611228,-0.43015529,0.590851,0.56868095,-0.43913195,0.60421
0.55723717,-0.49527221,0.624727,0.53795159,-0.44100566,0.608196,0.53000994,-0.47979256,0.618622,0.48315662,-0.45497632,0.598954,0.44546487,-0.43280309,0.585529,0.42910176,-0.41491881,0.583081,0.4886459,-0.38722912,0.588501,0.47237862,-0.35027342,0.590112,0.46503554,-0.33258621,0.591826,0.45835173,-0.31646081,0.593383,0.51551307,-0.38515522,0.590568,0.5007055,-0.38794291,0.565449,0.51970997,-0.43087516,0.588577,0.53457448,-0.45594097,0.604924,0.53907428,-0.38911281,0.593612,0.52352344,-0.39598391,0.569426,0.50758796,-0.40907398,0.557052,0.51219093,-0.42415985,0.566164,0.57058065,-0.40122632,0.59973,0.54766789,-0.40399003,0.577951,0.55776604,-0.43075383,0.592263,0.57010757,-0.43973175,0.605478
0.55592743,-0.49515788,0.623597,0.53700583,-0.44083304,0.607244,0.52843812,-0.47935638,0.617104,0.4823573,-0.45336794,0.596746,0.44620223,-0.43087413,0.582322,0.42750198,-0.41201888,0.577783,0.48778295,-0.38712037,0.587197,0.47140989,-0.35040171,0.58939,0.46419469,-0.33279773,0.591249,0.4576123,-0.31672948,0.59294,0.51426227,-0.38514549,0.589805,0.50009065,-0.38756126,0.564785,0.52050865,-0.4305378,0.587914,0.53434917,-0.45522107,0.604224,0.5382142,-0.3888356,0.59328,0.52309806,-0.39554693,0.569012,0.50809791,-0.40874195,0.556596,0.51246215,-0.42489994,0.56568,0.57046616,-0.40119661,0.599882,0.54761424,-0.40408758,0.578069,0.55787262,-0.43062218,0.592375,0.57013783,-0.43979562,0.605599
0.55490333,-0.49484685,0.622757,0.53620418,-0.44064932,0.606483,0.52735471,-0.4790637,0.616129,0.48190711,-0.45251734,0.595581,0.44551728,-0.42977229,0.580664,0.42647024,-0.41098434,0.575934,0.48682096,-0.38651187,0.586327,0.4709724,-0.35035915,0.589006,0.46383613,-0.33281215,0.590957,0.45731855,-0.31678617,0.592731,0.51369292,-0.38527588,0.589128,0.49951725,-0.38719057,0.564161,0.52008441,-0.43008934,0.587291,0.53412515,-0.45488974,0.603582,0.53775309,-0.38899158,0.592756,0.52256865,-0.395057,0.568474,0.507767,-0.40836573,0.556051,0.51211969,-0.42510142,0.565129,0.57001823,-0.40135592,0.599527,0.54715981,-0.40385022,0.577714,0.55753797,-0.43023551,0.592019,0.56975248,-0.43952267,0.605243
0.56328206,-0.50289997,0.632153,0.54359219,-0.44672298,0.61392,0.53465882,-0.48619602,0.624542,0.49592056,-0.46049281,0.606264,0.45843129,-0.43523613,0.590454,0.43286595,-0.41306784,0.578817,0.49453901,-0.39130064,0.591109,0.48719475,-0.39373484,0.568269,0.48256295,-0.39538244,0.556849,0.49831662,-0.41890512,0.564583,0.52573996,-0.39022129,0.594476,0.50549825,-0.38860805,0.567528,0.52428721,-0.43161993,0.589892,0.53753113,-0.45747816,0.60666,0.54983921,-0.39595183,0.59873,0.52995762,-0.39867786,0.572439,0.51777572,-0.40885694,0.558988,0.51449668,-0.42690042,0.567028,0.58272168,-0.41209773,0.606541,0.55795895,-0.40657454,0.583113,0.56275502,-0.43270909,0.59689,0.57420743,-0.44365365,0.610478
0.55637105,-0.49829805,0.625425,0.53876539,-0.44407421,0.6096,0.52753318,-0.48100094,0.617134,0.48120308,-0.45267434,0.595532,0.44246132,-0.42849519,0.578868,0.42409181,-0.40938936,0.573351,0.49249385,-0.38577696,0.587712,0.48970949,-0.34863793,0.587708,0.48902056,-0.32961101,0.587706,0.48961827,-0.31729508,0.587704,0.52256196,-0.38834897,0.592725,0.50740259,-0.38860251,0.567952,0.52562791,-0.43256851,0.590803,0.53793006,-0.45800025,0.606936,0.54731882,-0.39705383,0.598136,0.53111276,-0.39857839,0.573326,0.51903844,-0.40970604,0.560632,0.51706177,-0.42932682,0.569356,0.5801565,-0.41322899,0.606954,0.5599094,-0.40642736,0.584852,0.56429055,-0.4344028,0.598953,0.57519355,-0.44530993,0.612199
0.55744835,-0.50055721,0.627559,0.53942551,-0.44570005,0.6111,0.52779304,-0.48248934,0.61828,0.48165564,-0.45339391,0.596242,0.44425122,-0.42788951,0.577756,0.42467604,-0.40750528,0.570557,0.49137429,-0.38767635,0.58752,0.48944977,-0.34858,0.580035,0.4881689,-0.32832957,0.576293,0.4886739,-0.31874613,0.57289,0.52155198,-0.3911219,0.593548,0.508135,-0.38886066,0.568066,0.52535361,-0.43280477,0.590423,0.53779434,-0.45821125,0.606658,0.5482498,-0.3989729,0.599847,0.53128917,-0.40516981,0.574058,0.51645066,-0.41221954,0.560864,0.51803387,-0.43230416,0.56899,0.58194562,-0.41610858,0.609814,0.55893345,-0.41600409,0.58698,0.56465989,-0.43993184,0.60074,0.5716444,-0.46370319,0.614112
0.55638384,-0.49980904,0.626532,0.53831483,-0.44519844,0.610235,0.52760114,-0.48272051,0.618235,0.48137162,-0.45305849,0.596222,0.44301019,-0.42824341,0.579203,0.42465617,-0.40903726,0.5736,0.49060571,-0.38670006,0.587993,0.4964936,-0.34337525,0.584347,0.49524768,-0.32453765,0.582587,0.50099958,-0.30768925,0.580986,0.51921478,-0.38891314,0.592856,0.50695143,-0.3882985,0.567633,0.52500206,-0.43246913,0.590367,0.53773424,-0.4572807,0.606627,0.54542226,-0.39586478,0.598182,0.5303818,-0.40048144,0.573005,0.51532341,-0.41161419,0.560124,0.51782487,-0.43257653,0.568677,0.57853399,-0.41357958,0.606971,0.55590292,-0.41258893,0.584557,0.56382343,-0.43453749,0.598577,0.56904181,-0.46032862,0.611903
0.55581691,-0.4990476,0.62514,0.53748069,-0.44466394,0.609214,0.52710568,-0.48240439,0.617031,0.48096064,-0.45236828,0.59566,0.44289431,-0.42425775,0.580102,0.42316384,-0.4065239,0.571278,0.48924413,-0.38661412,0.587478,0.49392796,-0.35071108,0.592726,0.49645449,-0.33179386,0.595851,0.50050427,-0.31334916,0.598692,0.51830415,-0.38871991,0.592232,0.50542109,-0.37788309,0.567385,0.52729638,-0.42198053,0.590267,0.53694447,-0.45055162,0.606437,0.54231881,-0.39442458,0.597439,0.52820839,-0.39527671,0.572643,0.51858156,-0.40036687,0.559956,0.52096526,-0.42974644,0.568708,0.57447694,-0.41026408,0.606029,0.5552671,-0.40529051,0.583921,0.5635536,-0.43247397,0.598043,0.57031927,-0.45094618,0.6113
0.55372803,-0.49883889,0.624323,0.53573011,-0.44415711,0.608728,0.52516794,-0.48189343,0.616173,0.47743105,-0.45193094,0.594876,0.43630885,-0.42708299,0.578276,0.41959071,-0.40961973,0.573569,0.48881926,-0.385973,0.587184,0.4780123,-0.34667014,0.584621,0.47753821,-0.32760994,0.58334,0.47584349,-0.31188202,0.582175,0.51688879,-0.38779691,0.592099,0.50525456,-0.37801965,0.567562,0.52752381,-0.4219641,0.59051,0.53756378,-0.45351066,0.606589,0.54159798,-0.39457254,0.597411,0.52795275,-0.39517001,0.572849,0.51852553,-0.40049884,0.560283,0.52131948,-0.42860694,0.569137,0.57388205,-0.41060709,0.606076,0.55308084,-0.40695919,0.584172,0.56322648,-0.43292761,0.59834,0.56945161,-0.45530395,0.611542
0.54998362,-0.4957286,0.620373,0.53379091,-0.44261486,0.606947,0.52272049,-0.4798683,0.613622,0.47946221,-0.45077781,0.593499,0.44256655,-0.42733981,0.578232,0.42268003,-0.4085555,0.573365,0.48885713,-0.38569892,0.588727,0.47289347,-0.35058278,0.590604,0.46767547,-0.33173916,0.592449,0.46009135,-0.31665533,0.594126,0.5152543,-0.38700392,0.59263,0.50606163,-0.37956028,0.570347,0.53013508,-0.42406352,0.594158,0.54108266,-0.45223629,0.609692,0.53903747,-0.39122496,0.596933,0.52527082,-0.38684458,0.574776,0.51842214,-0.40096634,0.563439,0.52427118,-0.42858897,0.573505,0.57243534,-0.40357411,0.604073,0.54922455,-0.39987658,0.584083,0.5629731,-0.43063711,0.598851,0.57040012,-0.45222224,0.611613
0.54805602,-0.49369197,0.617771,0.53145667,-0.44052099,0.604266,0.51973815,-0.47697252,0.609779,0.47697795,-0.44651372,0.588026,0.44135041,-0.42005058,0.567511,0.41999746,-0.3980793,0.556214,0.48400914,-0.38361615,0.584449,0.47153009,-0.34945728,0.588712,0.46556302,-0.3320267,0.590844,0.46010478,-0.31601732,0.592782,0.51269286,-0.38517833,0.589864,0.50297401,-0.3780756,0.567351,0.52706302,-0.42221885,0.59079,0.53909542,-0.45320431,0.606291,0.53796098,-0.389925,0.595419,0.5241962,-0.38603919,0.572565,0.51713588,-0.39917535,0.560873,0.52188159,-0.42600238,0.570489,0.57150755,-0.40252406,0.604055,0.54997729,-0.39850278,0.583596,0.56184571,-0.42694939,0.598103,0.57160057,-0.44920599,0.610928
0.55707447,-0.49754802,0.62304,0.53478602,-0.44240678,0.606526,0.52820433,-0.4801534,0.612957,0.49607668,-0.45383477,0.594284,0.45845203,-0.42912607,0.578446,0.43546972,-0.40989605,0.572572,0.47793622,-0.39063176,0.581909,0.47683748,-0.35841602,0.592961,0.47944483,-0.34801741,0.598487,0.48199341,-0.33858395,0.60351,0.50840792,-0.38553723,0.588916,0.496751,-0.38512935,0.563313,0.52279338,-0.42752915,0.58532,0.5351968,-0.44987921,0.601489,0.53663204,-0.38927014,0.596024,0.52112903,-0.38438856,0.569813,0.51311296,-0.39572636,0.556403,0.51733011,-0.42108686,0.564172,0.57013883,-0.39854682,0.606959,0.55118662,-0.39982288,0.583853,0.56256448,-0.42814798,0.597374,0.5740725,-0.44552791,0.610749
0.55808415,-0.49680514,0.621881,0.53925335,-0.44370684,0.606896,0.5308097,-0.48099241,0.612983,0.49860672,-0.45425983,0.594916,0.46105601,-0.42845637,0.578143,0.44012981,-0.40906044,0.571249,0.48307262,-0.39201945,0.58487,0.4887056,-0.35846186,0.59615,0.49090109,-0.34228123,0.601789,0.49307062,-0.32748145,0.606916,0.51546092,-0.38767911,0.590916,0.50355733,-0.3861061,0.566883,0.52805192,-0.43022669,0.589706,0.54252539,-0.45540024,0.605564,0.54001076,-0.39221778,0.59711,0.52577822,-0.38807467,0.572652,0.51808365,-0.3986231,0.560138,0.52402625,-0.42520144,0.56892,0.57367355,-0.40291221,0.606728,0.5529497,-0.4016288,0.584991,0.5659043,-0.43035725,0.599072,0.57869711,-0.44727019,0.612183
0.55598673,-0.49819836,0.62348,0.53558644,-0.44316267,0.607516,0.52587456,-0.48119474,0.614119,0.48199323,-0.45086034,0.59519,0.4458019,-0.42283591,0.581024,0.42602971,-0.40484365,0.573995,0.48351718,-0.38328354,0.584199,0.48367681,-0.34484702,0.583423,0.48622943,-0.34150597,0.583036,0.48982456,-0.33810527,0.582683,0.51227465,-0.38649352,0.590493,0.50251546,-0.38517167,0.565477,0.52641529,-0.42957268,0.587913,0.53894906,-0.45356287,0.604004,0.5383315,-0.39134408,0.59697,0.52619906,-0.38871518,0.571526,0.51743462,-0.39935726,0.558509,0.52057123,-0.42435449,0.566774,0.57379407,-0.4036718,0.607073,0.55280421,-0.40138289,0.584544,0.56451722,-0.42849914,0.598358,0.5759151,-0.4488545,0.611644
0.55068697,-0.49742514,0.621875,0.53389054,-0.44254416,0.606837,0.52150912,-0.47987733,0.613011,0.47803766,-0.44842387,0.593022,0.44287352,-0.41976811,0.578181,0.42451648,-0.39985251,0.572738,0.48544914,-0.38379146,0.584817,0.48927213,-0.3418062,0.57897,0.49037631,-0.32923007,0.576047,0.49272463,-0.31912294,0.573389,0.51410962,-0.38645355,0.590802,0.50573556,-0.38696496,0.566722,0.52831814,-0.43092315,0.589549,0.54056647,-0.45473952,0.605424,0.53978591,-0.3922193,0.59695,0.5285303,-0.39155215,0.572468,0.51948297,-0.40085895,0.559943,0.52309074,-0.42566794,0.568721,0.57388422,-0.40951878,0.606521,0.55526988,-0.40307361,0.584761,0.56719121,-0.42965844,0.598844,0.57649244,-0.44994911,0.611963
0.54722558,-0.4941596,0.617934,0.53189211,-0.44054796,0.604682,0.51883076,-0.47724288,0.609901,0.47351144,-0.44287636,0.59094,0.43831611,-0.41430999,0.575449,0.42038717,-0.39371245,0.569706,0.48636397,-0.38273189,0.585,0.49326821,-0.34291183,0.582377,0.49664176,-0.32241718,0.581065,0.49973121,-0.30544012,0.579873,0.51420846,-0.38613766,0.59055,0.50854015,-0.38708078,0.568308,0.53085797,-0.43166524,0.591781,0.5417181,-0.453727,0.607195,0.53935764,-0.39180738,0.596194,0.53031892,-0.3921657,0.57352,0.52173205,-0.40247846,0.561919,0.52574042,-0.42806701,0.571602,0.57271331,-0.40952445,0.604898,0.55652027,-0.40219893,0.584597,0.56643376,-0.42909913,0.599127,0.57646308,-0.44957722,0.611906
0.54522105,-0.49267492,0.615519,0.52974539,-0.43952068,0.60321,0.51699636,-0.4758933,0.607687,0.47159788,-0.44144294,0.58925,0.43672619,-0.41336232,0.574231,0.42009047,-0.39531215,0.569754,0.48510076,-0.38230618,0.58447,0.49173491,-0.34090171,0.580225,0.49577332,-0.32025915,0.578103,0.49913747,-0.30275826,0.576173,0.51351578,-0.38563519,0.590085,0.5083917,-0.38676049,0.56878,0.53226666,-0.43187018,0.592485,0.54258181,-0.4544475,0.607633,0.53860209,-0.39127618,0.595706,0.53062796,-0.39161481,0.573877,0.52259574,-0.40313765,0.562709,0.52672963,-0.42910475,0.572764,0.57134299,-0.40783003,0.60424,0.55604506,-0.40287912,0.584643,0.56615091,-0.42980098,0.599335,0.57627304,-0.44942055,0.611929
0.55118771,-0.49292372,0.616606,0.53202797,-0.43960894,0.603203,0.52164799,-0.47687539,0.607971,0.47930189,-0.44621247,0.587595,0.44107513,-0.42028865,0.566932,0.42345488,-0.40074617,0.558967,0.48322228,-0.38322824,0.582663,0.48783537,-0.34935434,0.590553,0.49309687,-0.33186682,0.594978,0.49751536,-0.31621104,0.599001,0.51259551,-0.38490293,0.58891,0.50768267,-0.38524111,0.56643,0.53037529,-0.42991144,0.589653,0.54229266,-0.45518015,0.605073,0.53820957,-0.3906789,0.595139,0.53001445,-0.39108646,0.572052,0.52247455,-0.40150441,0.56024,0.52661823,-0.42800266,0.56964,0.57183128,-0.4040603,0.604561,0.55568895,-0.40270997,0.58397,0.56650706,-0.4300408,0.598328,0.57736186,-0.44683406,0.611143
0.55205353,-0.49246265,0.616163,0.53222848,-0.43927614,0.602722,0.52238887,-0.47679198,0.607525,0.47828914,-0.4465448,0.58713,0.44071003,-0.42064185,0.566928,0.42222192,-0.40064489,0.558592,0.48289738,-0.38479492,0.582153,0.4759965,-0.34912183,0.588939,0.47638243,-0.33286441,0.592332,0.47091584,-0.31588016,0.596115,0.51152231,-0.38492559,0.58839,0.50631167,-0.38493598,0.565875,0.5301585,-0.42960406,0.58909,0.54157455,-0.45419371,0.604521,0.53715575,-0.38989413,0.594615,0.52961381,-0.39010525,0.571498,0.52169408,-0.40145721,0.559671,0.52660045,-0.4278194,0.569058,0.57137962,-0.40369102,0.604036,0.55484898,-0.40187785,0.58342,0.56577008,-0.4292146,0.597773,0.57572804,-0.44664555,0.610595
0.54950269,-0.4893954,0.612253,0.53145753,-0.43865919,0.601423,0.52130315,-0.47545438,0.60527,0.4829539,-0.44987715,0.588645,0.45213179,-0.42522423,0.571808,0.42984564,-0.40403389,0.563159,0.48308389,-0.38969179,0.58482,0.47345191,-0.3535536,0.589533,0.4691363,-0.334727,0.59189,0.46958049,-0.3185755,0.595841,0.51090435,-0.38705973,0.589873,0.50139516,-0.3907391,0.570077,0.53022732,-0.43914658,0.594291,0.54580577,-0.45845912,0.609052,0.53576196,-0.38956694,0.594912,0.52722202,-0.39384591,0.574684,0.51704502,-0.41150457,0.564334,0.52365667,-0.42783813,0.575151,0.56886412,-0.3998292,0.602532,0.55227151,-0.40263717,0.584219,0.5666805,-0.43029468,0.599269,0.57693046,-0.44642703,0.61155
0.55130316,-0.49023348,0.613386,0.531932,-0.43901831,0.60161,0.52269906,-0.47634783,0.606076,0.48684106,-0.4509283,0.590549,0.45347219,-0.42566659,0.573474,0.43564232,-0.40585997,0.566028,0.48197554,-0.3892798,0.583906,0.47233331,-0.35331563,0.587587,0.46893628,-0.33536351,0.589427,0.46789726,-0.3173711,0.591548,0.50986501,-0.38722941,0.589051,0.5006782,-0.39311415,0.568293,0.52832295,-0.4379427,0.592257,0.54383285,-0.45694276,0.607287,0.53487877,-0.38939329,0.594242,0.52528214,-0.39363293,0.573095,0.51544435,-0.41062985,0.562276,0.52160726,-0.42642285,0.572688,0.5684314,-0.39929087,0.602186,0.55079112,-0.40243149,0.583118,0.56506327,-0.43019934,0.597993,0.57564783,-0.445456,0.610471
0.55107881,-0.4905689,0.613634,0.53168669,-0.4389653,0.601391,0.52473432,-0.47694338,0.605985,0.49167163,-0.45105201,0.591316,0.45811476,-0.42480341,0.574553,0.43655821,-0.40448448,0.565236,0.48158318,-0.38838981,0.582926,0.47209526,-0.3511291,0.584936,0.46766994,-0.33414196,0.585941,0.46474642,-0.31784066,0.588503,0.51100867,-0.38611642,0.588335,0.50046482,-0.39285166,0.567084,0.52779315,-0.43735254,0.590861,0.54239634,-0.45609794,0.606012,0.53610366,-0.38977682,0.593782,0.52468916,-0.39363681,0.572096,0.51508642,-0.41023583,0.561001,0.52092753,-0.42563188,0.571145,0.56935953,-0.40011805,0.602099,0.55196411,-0.40308426,0.582605,0.56493176,-0.4299303,0.597348,0.57473427,-0.44517806,0.609926
0.54851031,-0.48918086,0.612029,0.53031247,-0.43803529,0.600456,0.52054008,-0.47529776,0.605207,0.48151968,-0.44434269,0.59003,0.4490649,-0.41714953,0.575923,0.42933875,-0.39937174,0.572649,0.48493507,-0.38353458,0.583507,0.48886362,-0.34860083,0.59026,0.4915126,-0.32995944,0.593636,0.4946173,-0.31344697,0.596706,0.51223207,-0.38488436,0.588114,0.50811909,-0.38694075,0.567797,0.53181667,-0.43402914,0.591952,0.54279688,-0.45661311,0.606883,0.53562593,-0.38909654,0.592847,0.52988768,-0.39187025,0.572108,0.51717156,-0.40883741,0.561498,0.52245997,-0.42582673,0.572144,0.56753985,-0.39903663,0.600214,0.55198723,-0.40201986,0.581448,0.56383561,-0.42956735,0.596448,0.57335135,-0.44432226,0.608869
0.54886715,-0.4905602,0.613427,0.5300117,-0.43889845,0.600661,0.51971519,-0.47533611,0.605109,0.48141595,-0.4468967,0.58828,0.44910771,-0.4181046,0.576174,0.43197458,-0.39793137,0.571325,0.48114157,-0.38552469,0.580981,0.4842178,-0.3414658,0.574918,0.48679882,-0.32822281,0.571887,0.48935006,-0.31572584,0.569131,0.51128119,-0.38614914,0.587047,0.50247423,-0.38876202,0.565217,0.52879784,-0.43192231,0.588668,0.54006652,-0.45431069,0.603926,0.5374656,-0.39147425,0.593076,0.52746941,-0.39477051,0.570646,0.51377241,-0.40963716,0.559171,0.51921234,-0.42350997,0.568896,0.57008065,-0.40815041,0.602163,0.54907273,-0.41718531,0.582103,0.55531974,-0.44172539,0.59662,0.56090618,-0.46192304,0.609309
0.54876845,-0.48944798,0.612399,0.53168567,-0.43742764,0.599301,0.52111441,-0.47575922,0.605836,0.48283997,-0.44731049,0.588463,0.44548337,-0.41970046,0.571954,0.42815609,-0.3995319,0.562462,0.48693469,-0.3845581,0.581556,0.4895981,-0.341583,0.578544,0.49260554,-0.32138335,0.577037,0.49668327,-0.30300488,0.5758,0.51354308,-0.38344286,0.585335,0.50497366,-0.3846349,0.563436,0.52765808,-0.43115162,0.587362,0.53919384,-0.4532941,0.602794,0.53823256,-0.38830862,0.589509,0.52812621,-0.39672921,0.567707,0.51376062,-0.41001902,0.556553,0.51764334,-0.42303204,0.566788,0.57329013,-0.40305586,0.596445,0.55053682,-0.40913505,0.576741,0.55644553,-0.43434498,0.591589,0.55874657,-0.45686424,0.604281
0.5518206,-0.49111176,0.614664,0.53156757,-0.43870819,0.60053,0.52311976,-0.47685293,0.607118,0.48295594,-0.44724359,0.589354,0.44632117,-0.42028715,0.573085,0.42745512,-0.39918639,0.563954,0.48500948,-0.38401045,0.580807,0.48863314,-0.34237777,0.578314,0.49171775,-0.32163234,0.577067,0.49388671,-0.30403282,0.575934,0.51388326,-0.38391554,0.585459,0.50271228,-0.38857508,0.562393,0.52500497,-0.43229524,0.585846,0.53811404,-0.45257452,0.601551,0.53851317,-0.38913646,0.590436,0.52793227,-0.39651729,0.567316,0.51225957,-0.40895715,0.555488,0.51609893,-0.42246712,0.565055,0.57245899,-0.40268755,0.598483,0.55066832,-0.40964581,0.577749,0.55460317,-0.43594621,0.592266,0.55991738,-0.45703325,0.605193
0.55298071,-0.49099637,0.614878,0.53283813,-0.43816935,0.600411,0.52393298,-0.47669463,0.60706,0.48409299,-0.4469634,0.590099,0.44881787,-0.41875954,0.574481,0.43158247,-0.39854322,0.562486,0.48533776,-0.38252816,0.580105,0.48961249,-0.34180306,0.578889,0.49117406,-0.32192942,0.57828,0.49277955,-0.30390728,0.577727,0.51372935,-0.38337242,0.584984,0.50184164,-0.38807079,0.561565,0.52404084,-0.43182115,0.584867,0.53729881,-0.45211016,0.600652,0.53796074,-0.38809941,0.590175,0.52582878,-0.39506114,0.566656,0.51098083,-0.40787892,0.554624,0.51499919,-0.42218751,0.563984,0.57152942,-0.40207035,0.598525,0.54884909,-0.4045088,0.577478,0.55619566,-0.43024308,0.59189,0.55974449,-0.45600923,0.604886
0.55215437,-0.49067238,0.614699,0.5317668,-0.43834109,0.600114,0.52363294,-0.47661233,0.60739,0.48435094,-0.44773598,0.590268,0.44947932,-0.4199434,0.574065,0.43103862,-0.3994912,0.561897,0.48477719,-0.38322803,0.580351,0.48853108,-0.34254688,0.579115,0.49076495,-0.32209348,0.578498,0.49248061,-0.30442492,0.577936,0.51265507,-0.38393666,0.58456,0.50098197,-0.39059303,0.561091,0.52287873,-0.43178975,0.584508,0.53557133,-0.45136901,0.600769,0.5376883,-0.38781175,0.589209,0.52492504,-0.39479956,0.565859,0.51007669,-0.40755499,0.553912,0.51411056,-0.42165058,0.563403,0.57078722,-0.40184754,0.596935,0.54793775,-0.40730771,0.57598,0.55363018,-0.43229909,0.590475,0.55813725,-0.45474857,0.603469
0.5517275,-0.49051856,0.614837,0.53154585,-0.43807888,0.599908,0.52350462,-0.47647868,0.607778,0.48470414,-0.44752986,0.590481,0.44932331,-0.42010841,0.573794,0.43068766,-0.39932647,0.561529,0.48518501,-0.38273793,0.580204,0.4884048,-0.34238596,0.579256,0.49065006,-0.32227779,0.578783,0.49254798,-0.30488934,0.578352,0.5128333,-0.38349633,0.583988,0.50020905,-0.39024664,0.560226,0.52178938,-0.43113116,0.583624,0.53470725,-0.4503889,0.600355,0.53777498,-0.387462,0.588315,0.5238543,-0.39429207,0.564831,0.50887407,-0.40690266,0.552815,0.51278569,-0.42071687,0.562264,0.57073753,-0.40177404,0.595712,0.54626044,-0.40628059,0.574618,0.55197039,-0.43123189,0.589101,0.5567109,-0.45361895,0.60214
0.55059671,-0.49081282,0.614857,0.53142568,-0.43827622,0.599869,0.52261863,-0.47635071,0.607824,0.48396154,-0.44704717,0.590136,0.44883798,-0.42031879,0.572415,0.43003948,-0.3983538,0.561151,0.48519787,-0.38279116,0.580154,0.48971157,-0.34328935,0.580786,0.49207169,-0.32331468,0.581102,0.4960031,-0.30549391,0.58306,0.51282328,-0.38363539,0.583885,0.50003379,-0.39051944,0.560071,0.52079479,-0.43212277,0.58346,0.53474129,-0.45027905,0.600609,0.53778245,-0.38910939,0.588174,0.52432462,-0.39505746,0.564658,0.50876274,-0.40749241,0.552626,0.51207829,-0.4215707,0.562062,0.56962507,-0.40288316,0.595534,0.54530308,-0.40717319,0.574411,0.55095026,-0.43179172,0.588888,0.55619223,-0.45314415,0.601936
0.54959718,-0.49111429,0.614886,0.53131472,-0.43844702,0.599816,0.52182203,-0.47623745,0.607866,0.48318934,-0.4468386,0.589798,0.44703875,-0.42070997,0.571776,0.42904549,-0.39795566,0.560504,0.48510826,-0.38284723,0.580058,0.49008854,-0.34369852,0.581385,0.49263468,-0.32391535,0.582049,0.49646453,-0.30653542,0.584451,0.51271421,-0.38372019,0.583746,0.49969524,-0.39066867,0.559856,0.52030411,-0.43220343,0.583229,0.53430847,-0.45015037,0.600552,0.53758818,-0.38916814,0.588006,0.52329732,-0.394581,0.564434,0.50849717,-0.40789567,0.552374,0.51155118,-0.42184665,0.561785,0.5694315,-0.4029616,0.595345,0.54498496,-0.40705439,0.574173,0.55092849,-0.43088088,0.588638,0.55575111,-0.45270917,0.601699
0.54852871,-0.49157273,0.614992,0.530945,-0.43863205,0.599668,0.52063111,-0.47600071,0.60762,0.48178135,-0.44712603,0.588385,0.44600728,-0.42112548,0.56915,0.42651803,-0.39812636,0.559013,0.48443801,-0.38255528,0.579288,0.48880725,-0.34307341,0.580038,0.49146597,-0.32398078,0.580414,0.49437685,-0.30700539,0.580755,0.5128018,-0.38408183,0.583327,0.49948972,-0.39078104,0.559147,0.51894678,-0.4317432,0.582375,0.53310436,-0.44950029,0.599853,0.53744302,-0.38933478,0.587897,0.5232602,-0.39499937,0.563945,0.5076729,-0.40804499,0.55169,0.51027108,-0.42270385,0.560901,0.56969988,-0.40341338,0.595641,0.54493579,-0.40717908,0.574179,0.55031801,-0.43140405,0.588543,0.55552007,-0.45251552,0.601666
0.54828907,-0.49226001,0.615295,0.53105498,-0.43930846,0.599853,0.52063176,-0.4766525,0.608106,0.48077985,-0.44655249,0.58698,0.44555396,-0.42121936,0.568223,0.42684349,-0.39904089,0.559379,0.48504904,-0.38311639,0.579612,0.48895356,-0.34339482,0.58035,0.49160164,-0.32450578,0.58072,0.4944774,-0.30777214,0.581056,0.51280121,-0.38430486,0.583385,0.4993219,-0.39102806,0.559152,0.51877725,-0.43193437,0.582396,0.53252005,-0.44967208,0.599945,0.53726854,-0.38942591,0.587746,0.52298657,-0.39508622,0.563798,0.5074114,-0.40817217,0.551546,0.51004185,-0.42315346,0.560771,0.56932277,-0.40335586,0.595259,0.54451603,-0.40699462,0.573783,0.54984664,-0.43109923,0.588158,0.55501347,-0.45209851,0.601291
0.54865578,-0.49204542,0.615023,0.53123179,-0.43906438,0.59954,0.52099719,-0.47649899,0.607912,0.48093415,-0.44713438,0.586872,0.44526089,-0.42283479,0.568138,0.42697014,-0.39984806,0.559874,0.48510021,-0.38294584,0.579366,0.48895275,-0.34324274,0.580295,0.49150833,-0.32497443,0.580759,0.49364344,-0.31043248,0.581181,0.51278288,-0.38403976,0.58303,0.49806058,-0.39168966,0.558735,0.51774553,-0.4320592,0.581985,0.53167688,-0.44976665,0.599762,0.53721271,-0.38908377,0.587304,0.52200968,-0.39531896,0.563366,0.50624393,-0.40831335,0.551119,0.50948162,-0.42305288,0.560353,0.56916741,-0.40327678,0.594721,0.54422809,-0.40637079,0.573246,0.54943199,-0.43034446,0.587627,0.55448239,-0.45129209,0.600761
0.54788656,-0.49205741,0.614586,0.53059661,-0.43916367,0.59924,0.52028855,-0.47651312,0.60755,0.48088552,-0.44777162,0.586622,0.44590264,-0.4225055,0.568871,0.42695293,-0.40064346,0.559722,0.48463302,-0.38311139,0.579259,0.48875203,-0.34355981,0.58058,0.49146698,-0.32570399,0.581241,0.49415122,-0.31145331,0.581841,0.51228853,-0.38422012,0.582875,0.49787976,-0.39188285,0.558721,0.51764622,-0.43241156,0.582022,0.5310273,-0.45006738,0.599924,0.5366901,-0.38927086,0.587098,0.5217941,-0.3954873,0.563306,0.50609605,-0.40851586,0.551133,0.50899466,-0.42325192,0.56044,0.56856365,-0.40350645,0.594434,0.54363642,-0.4064288,0.573076,0.54880821,-0.43024653,0.587492,0.5537962,-0.45101547,0.600599
0.54716476,-0.49215411,0.614255,0.52993739,-0.4392253,0.598878,0.51948025,-0.47643921,0.607099,0.48051703,-0.4493688,0.586023,0.4454721,-0.42529785,0.568181,0.42621003,-0.40350507,0.559428,0.4839185,-0.3829767,0.578726,0.48817587,-0.34347066,0.580204,0.49090996,-0.3282138,0.580942,0.49403903,-0.31411729,0.581614,0.51169393,-0.38425219,0.58248,0.49730769,-0.3917161,0.558279,0.51668453,-0.43254317,0.581545,0.52984241,-0.45130083,0.599212,0.53604907,-0.38985195,0.586819,0.52099045,-0.39559776,0.562939,0.50516458,-0.4084855,0.550722,0.50807002,-0.42307797,0.559981,0.56819516,-0.40390721,0.594298,0.54285799,-0.40697964,0.572877,0.54811995,-0.43018441,0.587268,0.55306971,-0.45076155,0.600388
0.54698311,-0.49306607,0.614709,0.52961326,-0.43994091,0.599074,0.51928079,-0.47726873,0.607529,0.48065565,-0.45059429,0.586384,0.44444554,-0.42663027,0.568937,0.42567268,-0.40494461,0.559689,0.4834819,-0.38348111,0.578704,0.4879134,-0.34405831,0.580323,0.49081591,-0.32865985,0.581132,0.49403212,-0.3149979,0.581868,0.51121852,-0.38478441,0.582402,0.49666314,-0.39166184,0.557954,0.51570116,-0.43343737,0.581149,0.52864616,-0.45150351,0.598801,0.53571257,-0.39001218,0.586716,0.52012881,-0.39590277,0.562626,0.50417214,-0.4086688,0.5503,0.50686292,-0.42462276,0.559459,0.56785406,-0.40496382,0.594204,0.54238989,-0.40691443,0.572606,0.54727371,-0.43035181,0.586949,0.55213852,-0.4508916,0.600112
0.54674539,-0.49366267,0.614898,0.52934681,-0.44044316,0.59914,0.51901667,-0.47777023,0.607679,0.48043922,-0.45095618,0.586467,0.44404526,-0.42701928,0.568942,0.425187,-0.40528112,0.559598,0.48316496,-0.38382129,0.578629,0.48781304,-0.34451346,0.580442,0.49081635,-0.32902413,0.581348,0.49413175,-0.31569517,0.582173,0.51091813,-0.38519541,0.582335,0.4960227,-0.39188301,0.557764,0.51520507,-0.43352143,0.580919,0.5281071,-0.45184675,0.598477,0.53543587,-0.39048906,0.586666,0.51957382,-0.39614878,0.56246,0.50359892,-0.40896654,0.550075,0.50632516,-0.4248139,0.559176,0.56759882,-0.40512341,0.594193,0.54205462,-0.40718515,0.572499,0.54677625,-0.43050679,0.586814,0.55153859,-0.45100381,0.6
