sluyters/QuantumLeap/backend/src/datasets/gesture/HandGestureDataset_SHREC2017_csv/Gesture14/finger_1/subject_28_essai_9_skeletons_world.csv
Wrist_x,Wrist_y,Wrist_z,Palm_x,Palm_y,Palm_z,thumb_base_x,thumb_base_y,thumb_base_z,thumb_first_joint_x,thumb_first_joint_y,thumb_first_joint_z,thumb_second_joint_x,thumb_second_joint_y,thumb_second_joint_z,thumb_tip_x,thumb_tip_y,thumb_tip_z,index_base_x,index_base_y,index_base_z,index_first_joint_x,index_first_joint_y,index_first_joint_z,index_second_joint_x,index_second_joint_y,index_second_joint_z,index_tip_x,index_tip_y,index_tip_z,middle_base_x,middle_base_y,middle_base_z,middle_first_joint_x,middle_first_joint_y,middle_first_joint_z,middle_second_joint_x,middle_second_joint_y,middle_second_joint_z,middle_tip_x,middle_tip_y,middle_tip_z,ring_base_x,ring_base_y,ring_base_z,ring_first_joint_x,ring_first_joint_y,ring_first_joint_z,ring_second_joint_x,ring_second_joint_y,ring_second_joint_z,ring_tip_x,ring_tip_y,ring_tip_z,pinky_base_x,pinky_base_y,pinky_base_z,pinky_first_joint_x,pinky_first_joint_y,pinky_first_joint_z,pinky_second_joint_x,pinky_second_joint_y,pinky_second_joint_z,pinky_tip_x,pinky_tip_y,pinky_tip_z,
0.374655345,-0.333062455,0.49608,0.366825607,-0.278926431,0.478727,0.348919237,-0.31455958,0.486665,0.317683504,-0.273943534,0.464421,0.292681189,-0.23967415,0.447066,0.282539483,-0.217898483,0.442804,0.338379618,-0.225690967,0.4558,0.344759889,-0.194178973,0.467708,0.345443083,-0.177544589,0.473663,0.350775631,-0.162952271,0.479076,0.366790854,-0.236380767,0.462994,0.362375295,-0.198472779,0.438866,0.354582966,-0.191439112,0.424791,0.341725455,-0.200818156,0.414738,0.390797254,-0.249993203,0.470569,0.377437879,-0.204224582,0.445146,0.370521944,-0.195901195,0.432139,0.360682643,-0.205932996,0.420314,0.419891128,-0.274795473,0.48236,0.401449821,-0.23050947,0.460077,0.395471877,-0.220775125,0.449838,0.390517473,-0.22199359,0.440804
0.37530095,-0.334559867,0.498397,0.370706889,-0.282594624,0.480318,0.34867569,-0.314212705,0.487049,0.332355758,-0.271163112,0.468947,0.315229036,-0.234162713,0.451196,0.310286775,-0.210304254,0.443926,0.349500075,-0.225456691,0.454461,0.355975662,-0.189727957,0.457983,0.359822972,-0.171749914,0.459744,0.363393921,-0.154852808,0.461345,0.378443216,-0.240417184,0.463927,0.378747591,-0.203672754,0.439099,0.360547838,-0.212454519,0.424616,0.355610763,-0.229339084,0.430258,0.402463723,-0.257517954,0.473442,0.385503612,-0.249984084,0.446682,0.359588028,-0.258504109,0.43299,0.354763147,-0.266930583,0.438556,0.430680224,-0.286343055,0.487623,0.428839914,-0.244386285,0.464425,0.420979368,-0.243688047,0.453766,0.406673603,-0.250541485,0.444362
0.372400486,-0.333609453,0.495142,0.3755036,-0.286522245,0.4785,0.347635188,-0.313822859,0.485489,0.332255428,-0.272169862,0.468294,0.316410894,-0.235659948,0.450418,0.311814119,-0.211329791,0.441665,0.355080753,-0.233054179,0.455714,0.362021348,-0.198034602,0.457709,0.365604825,-0.179770316,0.458707,0.36915814,-0.163472773,0.459614,0.382566197,-0.247639892,0.463412,0.380667953,-0.20584953,0.439896,0.362712307,-0.213403097,0.426179,0.358856873,-0.231205538,0.432911,0.405412174,-0.264343983,0.471335,0.390588187,-0.246774424,0.446346,0.365895787,-0.255905475,0.43356,0.359453177,-0.268555599,0.440475,0.432341923,-0.292675229,0.483412,0.434119772,-0.252512101,0.46152,0.42613463,-0.248370397,0.451462,0.407924074,-0.251692636,0.442587
0.371191219,-0.332778561,0.493002,0.384208419,-0.282772947,0.476646,0.347281498,-0.311542451,0.481906,0.361059448,-0.274424849,0.470082,0.349357442,-0.23489306,0.451786,0.346112439,-0.212348373,0.44683,0.359575102,-0.224894842,0.45219,0.371070585,-0.191878925,0.46113,0.377092077,-0.174665421,0.4656,0.382623844,-0.158565706,0.469664,0.388642671,-0.24027525,0.461817,0.390047716,-0.202315775,0.438514,0.37239539,-0.210093933,0.424921,0.368091209,-0.227664672,0.431233,0.412797355,-0.257644184,0.4713,0.399405435,-0.244485321,0.445945,0.374871864,-0.254142597,0.432973,0.369998889,-0.266149076,0.439247,0.441220691,-0.286717333,0.485153,0.445643319,-0.249429321,0.463116,0.437058229,-0.247656824,0.45299,0.421021297,-0.252858801,0.444056
0.365254012,-0.327447556,0.485135,0.385974606,-0.282840196,0.480196,0.349544152,-0.312162667,0.48396,0.365356131,-0.278271516,0.484492,0.366372035,-0.247531423,0.480567,0.369541438,-0.225991602,0.477129,0.37908199,-0.233491259,0.475599,0.387270368,-0.196806718,0.477541,0.391031553,-0.178092154,0.478518,0.392544739,-0.161352033,0.479407,0.400316749,-0.246047656,0.475718,0.376605383,-0.242065837,0.463743,0.358969839,-0.259216602,0.456757,0.362418405,-0.278861249,0.468629,0.416896423,-0.259099145,0.476287,0.400128461,-0.247667345,0.464563,0.388158164,-0.268448884,0.458565,0.398921701,-0.285888598,0.471717,0.433372795,-0.280665052,0.477787,0.458241568,-0.259768444,0.468027,0.450022219,-0.254945137,0.463543,0.436248196,-0.26046978,0.459587
0.372592887,-0.333667179,0.49481,0.378555043,-0.280387968,0.476369,0.350945878,-0.313325071,0.486912,0.357761973,-0.280985613,0.48023,0.345499713,-0.243492193,0.463752,0.343330843,-0.219430857,0.456281,0.356309079,-0.223283402,0.454705,0.36887658,-0.191675223,0.465986,0.375238114,-0.17510021,0.471627,0.384686823,-0.160262329,0.476754,0.380924867,-0.235922669,0.459651,0.352132487,-0.224567213,0.434703,0.356310187,-0.25627215,0.45468,0.361715551,-0.278947988,0.469975,0.401473483,-0.252117864,0.465478,0.373293287,-0.236782076,0.43994,0.359936577,-0.24976314,0.426875,0.361445449,-0.265509675,0.433864,0.428686489,-0.27867798,0.475409,0.444993963,-0.253665041,0.456656,0.434418895,-0.247317578,0.44804,0.414738249,-0.250331117,0.440438
0.371502028,-0.333345269,0.495411,0.369307742,-0.279220393,0.476042,0.348732291,-0.310829754,0.48514,0.353463745,-0.27740909,0.477058,0.341263249,-0.239060747,0.459904,0.339829935,-0.21513318,0.452347,0.34533969,-0.221361277,0.450757,0.357344107,-0.188885887,0.464797,0.364042407,-0.173020708,0.471816,0.370162073,-0.158174232,0.478198,0.37160334,-0.232290137,0.458483,0.34734505,-0.221020121,0.432557,0.350811038,-0.252731854,0.451315,0.357335664,-0.276787066,0.466581,0.394996922,-0.248025196,0.466688,0.372356369,-0.229689133,0.439394,0.357437169,-0.241721628,0.42543,0.360624667,-0.262791148,0.431093,0.420340664,-0.274414061,0.479555,0.43708783,-0.248799383,0.459237,0.425759095,-0.245253087,0.449902,0.405803248,-0.246597535,0.441665
0.366028717,-0.331655433,0.494671,0.361456266,-0.278921224,0.475382,0.340144775,-0.308632081,0.484599,0.33659074,-0.27526095,0.473561,0.323236552,-0.237761303,0.454801,0.320767871,-0.213308385,0.445738,0.33412584,-0.221736332,0.450401,0.344744229,-0.191609364,0.464584,0.353628959,-0.174537789,0.471675,0.359674868,-0.159736728,0.478122,0.361868805,-0.233655779,0.457894,0.334307608,-0.222249409,0.432046,0.337869286,-0.254289433,0.450925,0.342469163,-0.277938252,0.466201,0.385434996,-0.248347482,0.4659,0.361102868,-0.230982653,0.43875,0.346341965,-0.243796896,0.424859,0.350728286,-0.261885552,0.430644,0.411595894,-0.276704209,0.478522,0.425680134,-0.248674461,0.457938,0.415502323,-0.242314977,0.44848,0.395514367,-0.244868035,0.440135
0.361096602,-0.329096713,0.489457,0.351685229,-0.286446915,0.478388,0.336651855,-0.313460333,0.485669,0.333118142,-0.288792094,0.485805,0.332061237,-0.261552059,0.485225,0.335650261,-0.24019448,0.485011,0.326593884,-0.240287089,0.466607,0.317620232,-0.208342237,0.471255,0.312804533,-0.191447701,0.473578,0.307785341,-0.176319611,0.475691,0.350530769,-0.243872951,0.468354,0.325177983,-0.227761236,0.450413,0.335963718,-0.264714148,0.472943,0.343431175,-0.29055181,0.486505,0.371090544,-0.251312302,0.470846,0.348341344,-0.239588242,0.452942,0.342907378,-0.25504434,0.443781,0.356290019,-0.276039441,0.454539,0.396558393,-0.268438614,0.475631,0.361338683,-0.256362253,0.459179,0.358918464,-0.275183209,0.473587,0.355209998,-0.291452703,0.484964
0.35690236,-0.326090252,0.484357,0.347840771,-0.283133411,0.474959,0.332969326,-0.312825164,0.482317,0.331618648,-0.288443806,0.483666,0.310836704,-0.260344025,0.478516,0.303932479,-0.24343274,0.479726,0.320617432,-0.237313895,0.466461,0.312998007,-0.203786087,0.472202,0.309032492,-0.186532014,0.475072,0.305280051,-0.170550381,0.477681,0.344154133,-0.239341607,0.466438,0.324218152,-0.226263983,0.450294,0.335863204,-0.263708539,0.473239,0.347151226,-0.280145667,0.486281,0.364237815,-0.24545011,0.467314,0.346727294,-0.238111733,0.451653,0.343562394,-0.254767187,0.443641,0.357310314,-0.273562506,0.455288,0.390402014,-0.263009526,0.469927,0.357933891,-0.253735607,0.455234,0.356140743,-0.273094574,0.469967,0.352430936,-0.289421941,0.48085
0.363588782,-0.330366319,0.488261,0.3577892,-0.285899235,0.473482,0.346195707,-0.319080639,0.481066,0.333689397,-0.29314423,0.473884,0.313904143,-0.263554931,0.467904,0.304268502,-0.242025006,0.464681,0.317828796,-0.238325664,0.455013,0.313820011,-0.199693336,0.446994,0.307013373,-0.203558354,0.442984,0.313127881,-0.227229867,0.455721,0.345493287,-0.240174835,0.460085,0.323937391,-0.227715021,0.438402,0.338811822,-0.264830435,0.459488,0.352979001,-0.28156189,0.47395,0.368630123,-0.247497943,0.465667,0.350121333,-0.243310855,0.443203,0.343900658,-0.257824422,0.43171,0.355405279,-0.267916291,0.440254,0.402779507,-0.262564169,0.474692,0.369996919,-0.258401934,0.454686,0.370269396,-0.278589454,0.468045,0.371951578,-0.296383424,0.480266
0.355132982,-0.322229981,0.475301,0.3532279,-0.273177722,0.463137,0.342227353,-0.304645018,0.471105,0.338313547,-0.284475939,0.475908,0.322943972,-0.248373067,0.45796,0.325649178,-0.228160173,0.453566,0.322356034,-0.229732688,0.450146,0.328841739,-0.194384994,0.451798,0.329290087,-0.17810253,0.452624,0.335122369,-0.182677994,0.468022,0.346746431,-0.231091279,0.452109,0.324717376,-0.186484817,0.433132,0.337048881,-0.205489933,0.455397,0.348618416,-0.230458464,0.46925,0.368303108,-0.236707418,0.454883,0.341163436,-0.19003003,0.435926,0.330514812,-0.186582583,0.426227,0.341552942,-0.20723133,0.436527,0.396087903,-0.251682166,0.460184,0.362649083,-0.245691482,0.442874,0.365443465,-0.267116682,0.457088,0.365575142,-0.287434319,0.468692
0.365023424,-0.328691868,0.485058,0.357148555,-0.280409464,0.46815,0.347795414,-0.316727898,0.47896,0.339644649,-0.291563612,0.480179,0.328356414,-0.255628947,0.467258,0.328189141,-0.233231448,0.45929,0.322706765,-0.231374137,0.449751,0.304490363,-0.226880729,0.429537,0.303589487,-0.238840489,0.41943,0.31549907,-0.25877937,0.427336,0.348031264,-0.23347095,0.452821,0.323755132,-0.223205306,0.429416,0.335393921,-0.257515542,0.450258,0.349103964,-0.276556692,0.465267,0.370741625,-0.239932244,0.456958,0.341923969,-0.196451374,0.433488,0.330427009,-0.189944695,0.42148,0.338170824,-0.20670133,0.429624,0.400634392,-0.256376962,0.464654,0.370034275,-0.245926123,0.443665,0.366592257,-0.265463254,0.456861,0.368475644,-0.284075422,0.469364
0.370502428,-0.330016687,0.484964,0.372688092,-0.276255483,0.469153,0.349303864,-0.320159335,0.479496,0.343346975,-0.286894581,0.479032,0.328060255,-0.25428242,0.465464,0.326355191,-0.231352684,0.457055,0.335262078,-0.232900178,0.45225,0.317315391,-0.226349495,0.432782,0.316236079,-0.238652693,0.423047,0.328465033,-0.259517432,0.431384,0.359548808,-0.233424602,0.45482,0.335909575,-0.220232522,0.432455,0.351966311,-0.253953641,0.453697,0.359783591,-0.277032665,0.468455,0.385528974,-0.242400724,0.45844,0.354067584,-0.193731038,0.436087,0.342438178,-0.184052028,0.42465,0.352412917,-0.201432028,0.433363,0.412495748,-0.257206051,0.465347,0.385386722,-0.242236947,0.445265,0.384094603,-0.259611444,0.458746,0.383733511,-0.277673147,0.471041
0.373322117,-0.333080668,0.482726,0.368971917,-0.277630678,0.467033,0.350398554,-0.319637485,0.478204,0.345612044,-0.293270357,0.478539,0.328621887,-0.262787948,0.465688,0.324473101,-0.237368843,0.457341,0.333637805,-0.23381933,0.451415,0.308208,-0.229713349,0.431688,0.310111559,-0.243292035,0.421825,0.322781699,-0.261022167,0.430166,0.357463097,-0.233469714,0.452805,0.328735023,-0.222567529,0.430695,0.33973422,-0.25795575,0.45208,0.35613203,-0.27674751,0.466791,0.377969742,-0.241302169,0.455444,0.344000656,-0.195685544,0.43367,0.329364752,-0.184554755,0.422529,0.338031654,-0.202142732,0.431506,0.407779308,-0.255169659,0.461183,0.375695252,-0.243727099,0.441523,0.374190074,-0.262264803,0.455117,0.372221327,-0.280430509,0.467307
0.366389231,-0.327871268,0.477473,0.360130065,-0.282992779,0.471564,0.349568916,-0.319640996,0.477656,0.336804152,-0.293439099,0.478804,0.322873828,-0.269614526,0.477412,0.324028395,-0.25011579,0.474193,0.335589641,-0.243706987,0.468099,0.316868041,-0.245181482,0.455756,0.319774066,-0.260166965,0.449584,0.337926127,-0.281391809,0.46104,0.357758504,-0.241398372,0.466207,0.334935326,-0.235316481,0.453641,0.350745872,-0.274480165,0.477101,0.364956723,-0.291649481,0.489648,0.375120982,-0.245357382,0.465211,0.351056197,-0.204505216,0.4533,0.339585972,-0.195768712,0.447206,0.349385705,-0.213553663,0.460192,0.399001941,-0.257211374,0.465047,0.374837275,-0.25143444,0.453562,0.375345359,-0.271917595,0.468716,0.373553974,-0.290777625,0.478633
0.358718854,-0.328665815,0.475947,0.352650298,-0.285658534,0.472811,0.339940093,-0.320120968,0.478858,0.328303411,-0.299994593,0.482283,0.316045374,-0.274091329,0.478417,0.315464467,-0.252962003,0.479729,0.33359586,-0.253003798,0.474578,0.308827802,-0.240060165,0.467958,0.295562575,-0.233176121,0.464649,0.302239066,-0.251825407,0.477666,0.351751241,-0.247035935,0.469968,0.325229038,-0.240071199,0.460565,0.340580428,-0.277046247,0.484002,0.356272741,-0.296161345,0.49476,0.368618449,-0.24875083,0.466471,0.340475302,-0.223361995,0.458625,0.337910381,-0.238053626,0.454611,0.357783406,-0.263317824,0.468681,0.385235717,-0.259083765,0.462913,0.359799979,-0.247497911,0.454505,0.360855435,-0.269224579,0.469731,0.361263893,-0.288453692,0.478594
0.352425885,-0.322087406,0.465523,0.351216926,-0.284814411,0.468175,0.336008469,-0.316084867,0.470485,0.323621438,-0.29595069,0.475577,0.309242616,-0.268643572,0.469813,0.310427249,-0.250081323,0.4738,0.333620551,-0.254442178,0.476192,0.317228376,-0.220133451,0.475024,0.309414872,-0.202279081,0.47444,0.310431394,-0.19085772,0.486805,0.351739287,-0.248338135,0.470579,0.332824426,-0.215261602,0.466995,0.343732695,-0.239990209,0.490597,0.350771578,-0.262717767,0.499302,0.367518789,-0.248794548,0.465705,0.348331022,-0.232889227,0.463723,0.347842466,-0.25221379,0.462709,0.366483086,-0.27932369,0.478426,0.382877798,-0.257091394,0.459559,0.358873037,-0.255557341,0.456023,0.36184179,-0.28041146,0.471468,0.362122827,-0.299461255,0.478701
0.357911537,-0.326594953,0.471021,0.352877978,-0.286839371,0.470764,0.34272647,-0.322129533,0.477325,0.331111251,-0.302895913,0.486571,0.315442134,-0.274085646,0.479187,0.31652909,-0.255450782,0.483234,0.335662154,-0.256135693,0.478681,0.318366292,-0.222521097,0.47631,0.309676601,-0.204947676,0.475124,0.308988454,-0.193253271,0.485615,0.351576684,-0.250245217,0.470531,0.326727138,-0.233246457,0.464735,0.344524227,-0.270166088,0.487438,0.356628766,-0.287367363,0.49666,0.365857897,-0.24832741,0.463846,0.343680568,-0.231591085,0.460209,0.343423477,-0.250307428,0.458348,0.362424647,-0.276330611,0.473041,0.380036509,-0.254630631,0.456073,0.352239622,-0.252492079,0.451312,0.346587113,-0.270470273,0.466163,0.345097023,-0.28602018,0.473597
0.36668993,-0.333181242,0.479268,0.362713582,-0.286896104,0.474287,0.348752351,-0.324098968,0.480592,0.336972774,-0.297787284,0.481131,0.323578554,-0.271254666,0.478755,0.314804254,-0.251261427,0.475583,0.340253353,-0.253860692,0.472866,0.318971717,-0.247234191,0.463832,0.307649264,-0.24383858,0.459314,0.307662034,-0.249423821,0.471712,0.359740495,-0.247755129,0.469772,0.3339286,-0.228136451,0.458307,0.35201053,-0.264543071,0.481771,0.366881682,-0.288725338,0.493283,0.378449829,-0.248996071,0.467698,0.352315763,-0.228764138,0.457426,0.349841445,-0.245103792,0.452171,0.368061285,-0.270134127,0.465611,0.399847491,-0.25823882,0.466116,0.368558812,-0.257245445,0.455751,0.36294213,-0.270896801,0.470941,0.362104683,-0.289507366,0.480478
0.410552634,-0.358642256,0.496521,0.391877883,-0.310230675,0.485408,0.394484875,-0.352821502,0.500384,0.390945311,-0.33892486,0.510226,0.398199011,-0.332310946,0.509538,0.418109512,-0.335047376,0.508484,0.360704893,-0.274404325,0.483401,0.329328259,-0.265371488,0.472502,0.313115859,-0.262542353,0.467053,0.30807388,-0.269861379,0.477608,0.375222308,-0.267508272,0.475334,0.347617069,-0.226757765,0.459282,0.327153376,-0.216831688,0.449918,0.326955924,-0.233461443,0.459261,0.389255475,-0.266258552,0.46975,0.360020276,-0.236340066,0.456603,0.348605488,-0.249819769,0.449876,0.363079315,-0.271276469,0.461028,0.409384553,-0.272893202,0.465101,0.373665776,-0.277955131,0.452176,0.371889138,-0.295388858,0.465813,0.372089041,-0.313040684,0.47565
0.406629508,-0.355973928,0.493781,0.393541109,-0.308745949,0.485759,0.39109012,-0.349579913,0.497887,0.385687391,-0.329552847,0.505376,0.370797989,-0.302720704,0.497217,0.383181652,-0.295966001,0.498508,0.369968183,-0.269781083,0.485998,0.343500041,-0.261726509,0.477203,0.334626923,-0.274021343,0.472806,0.349999496,-0.298181059,0.484408,0.385951682,-0.264680478,0.478487,0.361857029,-0.220634935,0.465148,0.344243682,-0.216818133,0.457367,0.349153649,-0.236132252,0.467868,0.400364409,-0.264881445,0.473066,0.38127986,-0.235607331,0.462339,0.367978899,-0.250359003,0.456851,0.374673261,-0.273723134,0.469201,0.419473054,-0.273155397,0.468085,0.384301268,-0.274748152,0.457177,0.383389164,-0.287332254,0.471405,0.380366238,-0.304152887,0.480761
0.40680401,-0.352607688,0.490665,0.403642247,-0.303566675,0.484456,0.391201591,-0.34582026,0.494489,0.394897609,-0.325683934,0.503766,0.379639805,-0.298009053,0.490679,0.39187544,-0.291836178,0.48884,0.379110549,-0.266911312,0.485471,0.353828175,-0.259223385,0.477588,0.345465808,-0.271742444,0.473647,0.359213608,-0.297722042,0.485826,0.395866956,-0.262265764,0.478828,0.375357156,-0.217080346,0.466972,0.358342096,-0.209746649,0.460056,0.363012399,-0.227016415,0.471265,0.410850387,-0.262746704,0.47395,0.393171619,-0.233887646,0.464376,0.380414137,-0.24901113,0.459477,0.39146474,-0.274332107,0.472513,0.430442756,-0.271193615,0.469297,0.396274716,-0.273332932,0.459373,0.396176015,-0.286027496,0.473996,0.393073685,-0.302750695,0.483159
0.37268354,-0.329709427,0.475814,0.391987021,-0.284751838,0.477802,0.368581849,-0.321915491,0.484426,0.383671495,-0.296023567,0.501847,0.39174672,-0.273618797,0.512124,0.403010568,-0.256421549,0.518042,0.388137164,-0.2537278,0.490082,0.368493385,-0.25183914,0.491507,0.359602954,-0.26394023,0.492219,0.37014841,-0.290861396,0.506368,0.400797173,-0.249655515,0.479604,0.388239395,-0.210457735,0.476645,0.374525306,-0.208539621,0.474919,0.377366255,-0.22464802,0.487761,0.410502477,-0.24996637,0.470788,0.389925389,-0.238912572,0.470878,0.380836234,-0.25671119,0.470923,0.396700789,-0.283705295,0.486024,0.420598317,-0.256996515,0.460145,0.394167268,-0.253880458,0.458187,0.395027195,-0.271821746,0.47254,0.399442212,-0.290555562,0.478795
0.379735186,-0.331665541,0.470845,0.390031498,-0.286424454,0.477131,0.373165102,-0.325402654,0.480588,0.381965476,-0.308546497,0.4998,0.378543707,-0.285175061,0.508346,0.391589332,-0.271780953,0.518624,0.379799366,-0.26142557,0.493551,0.368258513,-0.262622409,0.496469,0.361591987,-0.263198676,0.497929,0.375115821,-0.287140208,0.512284,0.394116409,-0.254510137,0.48283,0.382821635,-0.216856845,0.484187,0.375885232,-0.193817678,0.484978,0.378755701,-0.195313578,0.498758,0.405318607,-0.2523553,0.473405,0.394580256,-0.240880516,0.476842,0.387439339,-0.260715912,0.478601,0.40334887,-0.288338095,0.494459,0.419572459,-0.256899028,0.461323,0.397552169,-0.256292167,0.462897,0.398268709,-0.274367426,0.477254,0.40082974,-0.292187428,0.482266
0.36450287,-0.333369873,0.476927,0.367716268,-0.291880875,0.475761,0.347275943,-0.328527205,0.482217,0.359441524,-0.309529581,0.495863,0.353890716,-0.284039456,0.493051,0.361447095,-0.268296771,0.498336,0.358251535,-0.256550281,0.48181,0.335399814,-0.259553307,0.478368,0.32296982,-0.2612941,0.476647,0.330848581,-0.285524881,0.490232,0.373132486,-0.254615882,0.474704,0.361165376,-0.21423223,0.467764,0.344073366,-0.207113119,0.463716,0.342399929,-0.22141418,0.47635,0.385413041,-0.257085227,0.468964,0.360284744,-0.232469866,0.464226,0.356569859,-0.25271908,0.461801,0.370374214,-0.278736289,0.476403,0.399655148,-0.267434242,0.462451,0.365474692,-0.266217043,0.456545,0.370102442,-0.288058221,0.471551,0.370942606,-0.304222644,0.479448
0.36668295,-0.329604253,0.47293,0.353787531,-0.285311814,0.468141,0.345821208,-0.324421175,0.476679,0.339162003,-0.304129155,0.484934,0.311806863,-0.282659336,0.481216,0.303042522,-0.262685505,0.47502,0.328808611,-0.251546193,0.469947,0.303008041,-0.24657977,0.462911,0.296513832,-0.262425776,0.459393,0.310853834,-0.284129994,0.471989,0.3456126,-0.245718241,0.4638,0.320169425,-0.201478417,0.453167,0.306248598,-0.177509851,0.446965,0.30451044,-0.166051409,0.456143,0.359079946,-0.241038719,0.459196,0.335714289,-0.225945109,0.450639,0.330943676,-0.243706593,0.446261,0.349708655,-0.267772805,0.459788,0.378869126,-0.245782326,0.454622,0.347913082,-0.250876923,0.445562,0.352801372,-0.27335521,0.460424,0.3546733,-0.292476243,0.469375
0.365745271,-0.326510691,0.469642,0.354010388,-0.285216442,0.470422,0.347654738,-0.323469018,0.476221,0.339029083,-0.305198513,0.485025,0.315851758,-0.287246102,0.487566,0.309330919,-0.269315606,0.485023,0.33207453,-0.256149654,0.47934,0.31148453,-0.271404241,0.478235,0.319040764,-0.289554271,0.477682,0.336795671,-0.314079507,0.491724,0.347145278,-0.24739627,0.471129,0.322156614,-0.208457707,0.466353,0.309159655,-0.185713326,0.464146,0.302580226,-0.171012658,0.467067,0.360583717,-0.243985725,0.464294,0.339517917,-0.230502521,0.461958,0.336737937,-0.251955872,0.460763,0.354942736,-0.275021036,0.475835,0.378077541,-0.246862955,0.456172,0.349146558,-0.256089269,0.452242,0.348488242,-0.279967373,0.467138,0.345826714,-0.29661658,0.474296
0.378787217,-0.335531059,0.483372,0.363623037,-0.289436891,0.475822,0.360614262,-0.329153453,0.485721,0.34233761,-0.308858146,0.488028,0.323590275,-0.286364424,0.487294,0.311670889,-0.268523919,0.484938,0.332141644,-0.253259095,0.474105,0.310716445,-0.262597727,0.464196,0.32873079,-0.291002395,0.482284,0.341202788,-0.315953147,0.495436,0.34991851,-0.246810941,0.468977,0.321847325,-0.211670514,0.45551,0.309875956,-0.220866845,0.447655,0.322366028,-0.244268694,0.458597,0.366241505,-0.245732507,0.465474,0.345032552,-0.22587051,0.453904,0.337074068,-0.243942684,0.447984,0.351954159,-0.26664504,0.460604,0.39116544,-0.254395142,0.462655,0.359963928,-0.260759634,0.451126,0.358396374,-0.279610824,0.465819,0.357692389,-0.29636228,0.475574
0.382280244,-0.336172123,0.480261,0.361920183,-0.285762067,0.467105,0.361285651,-0.324744699,0.478844,0.360486367,-0.307318757,0.483878,0.340273874,-0.275825361,0.47517,0.32675975,-0.256372618,0.470875,0.327594366,-0.247496946,0.457054,0.302317462,-0.246926519,0.440756,0.320585406,-0.275085894,0.458255,0.337724428,-0.294380521,0.471677,0.34802383,-0.242555617,0.455178,0.3223065,-0.196056435,0.435879,0.306030586,-0.194836529,0.424621,0.310784181,-0.217685889,0.433782,0.367215191,-0.242902967,0.454886,0.347966967,-0.207858992,0.456078,0.337247281,-0.19026766,0.456688,0.328125991,-0.185302067,0.457242,0.393922157,-0.251505187,0.45677,0.363968476,-0.246537128,0.43996,0.366238274,-0.268394195,0.454071,0.380749436,-0.281436289,0.465459
0.380589195,-0.334649989,0.479807,0.362233938,-0.285357322,0.466298,0.361226824,-0.324814176,0.478352,0.360293838,-0.307252832,0.483592,0.340167027,-0.276699763,0.475396,0.326941301,-0.256564534,0.47118,0.326815726,-0.246934269,0.455977,0.301820286,-0.247595359,0.439431,0.320297035,-0.275453,0.456858,0.336888905,-0.298205211,0.470349,0.347198476,-0.241968119,0.454051,0.321255132,-0.195348095,0.434439,0.304858362,-0.194038434,0.422999,0.311484466,-0.213970795,0.432028,0.366374836,-0.242311158,0.453751,0.347075402,-0.207247879,0.454863,0.336332867,-0.189650518,0.455432,0.327191727,-0.184669746,0.455949,0.39311657,-0.250938466,0.455686,0.36297641,-0.245838368,0.438641,0.365202356,-0.267647249,0.452686,0.378188108,-0.280652872,0.46413
0.380771017,-0.334342281,0.481744,0.367587472,-0.28512119,0.468716,0.361040416,-0.324255756,0.479946,0.359404819,-0.299431682,0.483778,0.339470091,-0.270397532,0.473088,0.331146326,-0.247086269,0.471068,0.336071337,-0.23928857,0.458257,0.307492877,-0.242265915,0.441761,0.322138171,-0.273499418,0.459303,0.338619846,-0.29839838,0.47282,0.356168434,-0.237407171,0.456905,0.363626268,-0.200519656,0.464694,0.366571584,-0.178164452,0.469237,0.367074779,-0.161894337,0.472482,0.374790855,-0.240413932,0.457033,0.347125636,-0.197255362,0.443885,0.332463079,-0.194462542,0.437159,0.326672362,-0.205281506,0.431044,0.397580839,-0.252813549,0.459385,0.364031681,-0.220254411,0.442489,0.34744882,-0.207828084,0.434726,0.345610569,-0.210708057,0.441725
0.383052,-0.335908703,0.484308,0.367965909,-0.284213413,0.468702,0.363373334,-0.325815461,0.482724,0.36013307,-0.300169344,0.484667,0.33934382,-0.269720363,0.472886,0.331987566,-0.247402336,0.471461,0.335164502,-0.238488981,0.456904,0.30559595,-0.240888094,0.438968,0.320357535,-0.270812701,0.455922,0.336920063,-0.295477819,0.469773,0.354491241,-0.23618843,0.454553,0.362311311,-0.199523891,0.462729,0.365473724,-0.177257753,0.467498,0.366133042,-0.161042619,0.470904,0.372602438,-0.238970274,0.454104,0.345176229,-0.19600216,0.441116,0.330871474,-0.194042208,0.434471,0.325773632,-0.205577169,0.42843,0.395606507,-0.251105456,0.456218,0.359947134,-0.219993236,0.437834,0.34278002,-0.213094554,0.429387,0.342801105,-0.22097356,0.435639
0.373863088,-0.328848776,0.473154,0.366401907,-0.28415022,0.466995,0.371863785,-0.328346117,0.486278,0.363328954,-0.313918575,0.499894,0.343124312,-0.303006031,0.500751,0.33416057,-0.287166842,0.502714,0.368709155,-0.252978444,0.479955,0.332294591,-0.259010356,0.480933,0.345767999,-0.284287549,0.492611,0.354981889,-0.304127897,0.496891,0.361666831,-0.241999316,0.46141,0.31977138,-0.226287496,0.453915,0.323140506,-0.25751307,0.468162,0.336335953,-0.277564716,0.475345,0.36017594,-0.24237056,0.44673,0.356750439,-0.202593434,0.448542,0.340475229,-0.201162336,0.449469,0.327004702,-0.219088767,0.450312,0.357780291,-0.247915571,0.430607,0.319506075,-0.244042165,0.427111,0.301862121,-0.242259564,0.425505,0.29875226,-0.257375332,0.431929
0.375582328,-0.332208495,0.477448,0.366519464,-0.288103994,0.470522,0.367369801,-0.33019749,0.488563,0.354247629,-0.318530953,0.499387,0.328793187,-0.301702806,0.495437,0.31929596,-0.286113162,0.496959,0.359140374,-0.254816784,0.480428,0.323082951,-0.258432843,0.478757,0.332887449,-0.285793533,0.492391,0.338211925,-0.307924479,0.498497,0.356394766,-0.247971647,0.464243,0.31248123,-0.250805671,0.454869,0.329053294,-0.284605907,0.471651,0.353658242,-0.296090668,0.482728,0.3584599,-0.249667958,0.451577,0.339870591,-0.208877097,0.447289,0.317693526,-0.207742521,0.445095,0.307302386,-0.223721279,0.4431,0.358852431,-0.25825984,0.43794,0.318421958,-0.260854869,0.432287,0.311324715,-0.267770878,0.429815,0.314921224,-0.279500701,0.437048
0.368078725,-0.329985542,0.476764,0.351962408,-0.281787265,0.470825,0.357975389,-0.328233493,0.487993,0.345514078,-0.304480202,0.499776,0.328662234,-0.279128561,0.496367,0.324975755,-0.259882508,0.498197,0.338650704,-0.24729431,0.481495,0.318876457,-0.212724189,0.476635,0.315729404,-0.200384137,0.486178,0.314424542,-0.189387741,0.498315,0.342642783,-0.238357803,0.46544,0.313329718,-0.203735339,0.456925,0.304039447,-0.189745003,0.470314,0.297523616,-0.182310747,0.482082,0.348006607,-0.236752042,0.452789,0.323880134,-0.200292835,0.449279,0.309331344,-0.213598098,0.447483,0.312143831,-0.231063123,0.45005,0.353221042,-0.23935108,0.439001,0.316392212,-0.246276841,0.433991,0.313616226,-0.258577825,0.43237,0.319545034,-0.275019886,0.440234
0.373370659,-0.335686484,0.486814,0.351780959,-0.280836257,0.471145,0.359990166,-0.32900966,0.493246,0.340133297,-0.30861661,0.497891,0.316260023,-0.285755493,0.490291,0.307828022,-0.268787183,0.485793,0.330606513,-0.240272603,0.469577,0.302639154,-0.202903048,0.454429,0.291881296,-0.187358296,0.452932,0.289532477,-0.177956617,0.464255,0.337386442,-0.23380826,0.456939,0.294314969,-0.232526526,0.438222,0.296990338,-0.265012693,0.455555,0.311126118,-0.287275108,0.467767,0.344918801,-0.234021491,0.448026,0.305263009,-0.2113892,0.433735,0.296951165,-0.227286171,0.426424,0.314165537,-0.24589606,0.434752,0.356087102,-0.241032445,0.440255,0.315241819,-0.242672797,0.426346,0.317102207,-0.261694056,0.437523,0.323314006,-0.278829224,0.446752
0.384962502,-0.337163473,0.485016,0.37314234,-0.287716484,0.474837,0.370793806,-0.329115015,0.487845,0.348660683,-0.31794691,0.486524,0.321127181,-0.295601566,0.483474,0.306426449,-0.278715775,0.478074,0.346229909,-0.247315144,0.472091,0.312234076,-0.250762666,0.460915,0.313942484,-0.271855908,0.478362,0.313699024,-0.291148641,0.489743,0.361586629,-0.242116323,0.46561,0.319167881,-0.211132389,0.450013,0.319379775,-0.236690199,0.471874,0.327978011,-0.262316461,0.484378,0.371858186,-0.244959714,0.461243,0.330363843,-0.220144794,0.448049,0.320826569,-0.235986518,0.441298,0.342742229,-0.259985223,0.452928,0.387788542,-0.251006363,0.457858,0.346107764,-0.254159382,0.444937,0.3460773,-0.274624183,0.459051,0.350252946,-0.29273672,0.469071
0.384944747,-0.334963258,0.482586,0.374771758,-0.284828664,0.47305,0.372542776,-0.327590429,0.486852,0.359397502,-0.315849138,0.489366,0.337426519,-0.29545212,0.490818,0.320912101,-0.276981799,0.483411,0.358439788,-0.247660396,0.472547,0.321493668,-0.246165186,0.462949,0.319153702,-0.266464437,0.480092,0.325938646,-0.291116097,0.490728,0.36843407,-0.240210855,0.464405,0.330319044,-0.211537395,0.449826,0.330012325,-0.237511231,0.471259,0.339378635,-0.262873489,0.48326,0.377195106,-0.240996409,0.45861,0.34056081,-0.216652143,0.44689,0.329808048,-0.233290874,0.440894,0.343640246,-0.257384642,0.452636,0.394973937,-0.249210521,0.453447,0.35156447,-0.251970831,0.441699,0.34931769,-0.270436815,0.455571,0.346662088,-0.287964454,0.465085
0.390714481,-0.338100366,0.489254,0.380185727,-0.27886485,0.469505,0.380790937,-0.328463886,0.494324,0.360933919,-0.312734406,0.488754,0.333217797,-0.283548364,0.481164,0.312090398,-0.267634413,0.468537,0.362417367,-0.232418922,0.463641,0.338397894,-0.191572507,0.440325,0.330828739,-0.17352294,0.434486,0.335122383,-0.1622094,0.444077,0.371275157,-0.230370311,0.451602,0.328314872,-0.204940319,0.429122,0.330002229,-0.233774873,0.445264,0.342282244,-0.258451209,0.458462,0.380080026,-0.233578851,0.44357,0.339548893,-0.205614609,0.425514,0.327189824,-0.219565883,0.416275,0.338959082,-0.240511047,0.422804,0.393136311,-0.246287998,0.43752,0.347111958,-0.243129119,0.42055,0.341658171,-0.257015548,0.430876,0.339399657,-0.270599788,0.440853
0.393747611,-0.33612865,0.490235,0.387371642,-0.277289589,0.471298,0.387492748,-0.327669441,0.497536,0.368213778,-0.308215642,0.495745,0.343968418,-0.280530187,0.488736,0.325807229,-0.261028993,0.47655,0.375933405,-0.233350494,0.468798,0.362230237,-0.189584008,0.451836,0.365845778,-0.173009432,0.456412,0.369130587,-0.157219608,0.460572,0.381784315,-0.230081119,0.454129,0.338484755,-0.207564481,0.433419,0.334742021,-0.234743139,0.447671,0.346091521,-0.258778344,0.459635,0.387630871,-0.232207909,0.443855,0.350535247,-0.215141318,0.428297,0.331098677,-0.228038656,0.420338,0.338797904,-0.24457714,0.426255,0.393684211,-0.244199539,0.435046,0.352142002,-0.23913924,0.42015,0.348666973,-0.255319376,0.429304,0.347035255,-0.27060149,0.438095
0.392773721,-0.336070893,0.489973,0.387769261,-0.277023938,0.471156,0.388240304,-0.326779196,0.497916,0.36831647,-0.310326796,0.497266,0.344285301,-0.281437946,0.49069,0.326052681,-0.261907384,0.478801,0.376630539,-0.233917846,0.469555,0.363275767,-0.190778876,0.453758,0.366052489,-0.173945661,0.457674,0.368564029,-0.157944007,0.461235,0.381556917,-0.23015682,0.454098,0.338703111,-0.205920333,0.433862,0.334640085,-0.22746677,0.447335,0.345031305,-0.256115661,0.458884,0.38656652,-0.231861061,0.443163,0.345570323,-0.219898531,0.428302,0.327493721,-0.23349748,0.420699,0.335973298,-0.248238918,0.426275,0.392722034,-0.243103272,0.433561,0.351209286,-0.236511428,0.419257,0.347087054,-0.252504311,0.427919,0.341739605,-0.26770198,0.436312
0.395207315,-0.336496956,0.491994,0.388495245,-0.277412097,0.472091,0.389818014,-0.327064914,0.4996,0.367573105,-0.313725768,0.498346,0.344529883,-0.282550439,0.492103,0.326246133,-0.263152304,0.48044,0.375813087,-0.233929153,0.469377,0.360515174,-0.191796095,0.454055,0.358363012,-0.175664602,0.457325,0.358590059,-0.159822746,0.460297,0.380748994,-0.230075283,0.454046,0.335315927,-0.206406246,0.432844,0.331168712,-0.230434556,0.445896,0.340554931,-0.254654098,0.457662,0.384389598,-0.23218032,0.443321,0.343916253,-0.21955896,0.427501,0.325742127,-0.232942397,0.419408,0.334148239,-0.247751693,0.424444,0.393018078,-0.243063073,0.434146,0.348939954,-0.238070598,0.41907,0.346078519,-0.25276675,0.427438,0.342060981,-0.268056752,0.435989
0.399088702,-0.33958394,0.496341,0.389390797,-0.29127738,0.476275,0.391640846,-0.330813606,0.503615,0.368262487,-0.322576145,0.501769,0.343660913,-0.295478466,0.497042,0.3261745,-0.274324508,0.486162,0.377144287,-0.248048416,0.473035,0.346907763,-0.211737132,0.460394,0.339706579,-0.198325075,0.464717,0.332818847,-0.185629879,0.468647,0.381336776,-0.243761208,0.458083,0.334821249,-0.220840138,0.436562,0.32888354,-0.24258755,0.449947,0.334719032,-0.267321815,0.461933,0.385861055,-0.245158732,0.447684,0.341039744,-0.235814907,0.431443,0.322577667,-0.248510905,0.423135,0.330881051,-0.265172881,0.428285,0.393204814,-0.255875069,0.438918,0.348699526,-0.246996209,0.423488,0.348041903,-0.267799222,0.432064,0.349030475,-0.285233821,0.44082
0.392375304,-0.332911291,0.486409,0.386688929,-0.291347134,0.474669,0.389071712,-0.327510598,0.498276,0.368225184,-0.325524981,0.50505,0.351188994,-0.308307884,0.513228,0.33635583,-0.294249505,0.510382,0.386050744,-0.254461779,0.482526,0.35300053,-0.23059944,0.474735,0.344742907,-0.223716236,0.483842,0.336310946,-0.216762847,0.492121,0.384418788,-0.247756757,0.464026,0.335264073,-0.230020554,0.45148,0.321330342,-0.228978839,0.464129,0.313031906,-0.245561564,0.472684,0.378980132,-0.247170345,0.449913,0.334326718,-0.239139469,0.443325,0.319384259,-0.254991699,0.439954,0.332430082,-0.275618819,0.447177,0.375586946,-0.253891816,0.435398,0.333163097,-0.245704539,0.427939,0.323114366,-0.253293529,0.436165,0.322238529,-0.265371707,0.442169
0.383655874,-0.337027245,0.485995,0.372990445,-0.288442585,0.474197,0.385908626,-0.334073905,0.497998,0.355895271,-0.325600426,0.505042,0.337741531,-0.307451727,0.512674,0.32388136,-0.2976955,0.50946,0.376882649,-0.255733127,0.482193,0.341978184,-0.230189193,0.47397,0.332389282,-0.222661501,0.481709,0.322811158,-0.215177741,0.488745,0.371829729,-0.248334784,0.463502,0.32449241,-0.229775653,0.45102,0.31157404,-0.230385375,0.463183,0.301132706,-0.245082428,0.471759,0.368068157,-0.246835648,0.449237,0.322732997,-0.24268006,0.44277,0.309571951,-0.259449612,0.439461,0.32405909,-0.279018701,0.44651,0.364390952,-0.253478021,0.434555,0.322184676,-0.248660616,0.427206,0.313735453,-0.258146899,0.435328,0.315117318,-0.271352859,0.441063
0.385239894,-0.338594479,0.485497,0.372756916,-0.289078165,0.47391,0.384958857,-0.332189712,0.497528,0.354160604,-0.325810839,0.50463,0.335358838,-0.30855514,0.512429,0.319023617,-0.296579796,0.50932,0.375926126,-0.254987138,0.482074,0.340603714,-0.229373179,0.473429,0.331106266,-0.222020877,0.481407,0.321593684,-0.214690128,0.488661,0.370889118,-0.247597435,0.463407,0.323607105,-0.229302846,0.451095,0.308608457,-0.228013986,0.463099,0.300193368,-0.244760656,0.471852,0.36713942,-0.246094943,0.449141,0.321891842,-0.242204941,0.442829,0.307499038,-0.258280083,0.4396,0.315398197,-0.278923872,0.446766,0.363472138,-0.25271196,0.434421,0.321377835,-0.248126189,0.427197,0.311453957,-0.255434386,0.435396,0.312217199,-0.267505814,0.441117
0.376165075,-0.338002568,0.481393,0.368300175,-0.288893544,0.469794,0.379735707,-0.330883656,0.492935,0.354811897,-0.309666826,0.501601,0.333325726,-0.304323973,0.502238,0.325519975,-0.308904635,0.494646,0.371759913,-0.251828622,0.477323,0.329557075,-0.252610577,0.473617,0.318938585,-0.265697364,0.484615,0.31515075,-0.286551754,0.494613,0.36623203,-0.245544574,0.459279,0.318119335,-0.224433347,0.446596,0.296955438,-0.227679978,0.454825,0.295636888,-0.243859214,0.465422,0.357645703,-0.246615843,0.445528,0.310990445,-0.236960161,0.438665,0.304862265,-0.255811207,0.435154,0.317111669,-0.277292079,0.442772,0.351143776,-0.255887646,0.431412,0.309119186,-0.249247074,0.423703,0.291178808,-0.247804053,0.420161,0.281803509,-0.252195372,0.42512
0.378978013,-0.341406353,0.487149,0.366699271,-0.28759921,0.467722,0.383894028,-0.327743486,0.496541,0.359779683,-0.306571475,0.499893,0.344217068,-0.286135859,0.501592,0.33804754,-0.271569185,0.498072,0.3705931,-0.242792172,0.467595,0.325151932,-0.241734339,0.457707,0.311519343,-0.248462411,0.466383,0.308840697,-0.269073664,0.47375,0.36302547,-0.242507003,0.45011,0.328355883,-0.198538907,0.430495,0.314967194,-0.217188348,0.440787,0.321343931,-0.239619432,0.451186,0.357287643,-0.247117746,0.437565,0.305433704,-0.235745937,0.423934,0.298205856,-0.251105347,0.416961,0.304090135,-0.265853182,0.420797,0.351390767,-0.261314034,0.426182,0.305408585,-0.247903292,0.412995,0.293396474,-0.248321105,0.406937,0.289786984,-0.249936616,0.409077
0.383540189,-0.336167153,0.486387,0.381028307,-0.285464344,0.467613,0.386522456,-0.324669137,0.495576,0.364843511,-0.303114585,0.497822,0.3413401,-0.283224479,0.494842,0.329359908,-0.266567667,0.489582,0.389006355,-0.238813555,0.467636,0.348439906,-0.21596681,0.45777,0.335845919,-0.209340905,0.463536,0.325867211,-0.221567093,0.472994,0.3798538,-0.237425358,0.450592,0.332716512,-0.202836118,0.431236,0.316895016,-0.217522962,0.442727,0.322506408,-0.240111405,0.453336,0.372567708,-0.241123055,0.438349,0.319027715,-0.233976161,0.424822,0.30293961,-0.244723136,0.417902,0.305521271,-0.267106525,0.422488,0.364386101,-0.254300917,0.427208,0.32053882,-0.238940753,0.414066,0.315656451,-0.243386576,0.408027,0.325689002,-0.252123689,0.41071
0.380285608,-0.335683717,0.484075,0.380153769,-0.288069294,0.465149,0.388763046,-0.325699639,0.495122,0.374876707,-0.306625751,0.500857,0.351635231,-0.288540817,0.502521,0.336120817,-0.271847207,0.498477,0.402469969,-0.2494972,0.467457,0.365285688,-0.222714622,0.460085,0.353371679,-0.213369697,0.465053,0.340889204,-0.221207209,0.470862,0.385473332,-0.247212276,0.447992,0.342137223,-0.207898317,0.430262,0.322765153,-0.214922909,0.437061,0.318770196,-0.235543846,0.445608,0.371203991,-0.24985925,0.433768,0.318494324,-0.23466517,0.42257,0.300669329,-0.248550843,0.41684,0.301497689,-0.264478232,0.41885,0.353960748,-0.261133509,0.420339,0.314364167,-0.238538237,0.409322,0.320066989,-0.249218816,0.413712,0.334452515,-0.259323257,0.419291
0.387355634,-0.321309286,0.504664,0.388984464,-0.277449763,0.473644,0.398612667,-0.305342491,0.509338,0.38586499,-0.269560231,0.502921,0.387674202,-0.236333582,0.497489,0.382228968,-0.213649801,0.488258,0.40225314,-0.230305173,0.460215,0.349364691,-0.210735968,0.440776,0.335132405,-0.203486451,0.444018,0.327450535,-0.213588062,0.452984,0.388577793,-0.237517319,0.445522,0.327000604,-0.204103104,0.41608,0.308393534,-0.208446904,0.419665,0.309258708,-0.228239231,0.43144,0.375355815,-0.249594178,0.436379,0.31696957,-0.223040924,0.412582,0.300194529,-0.232025837,0.400408,0.295913663,-0.244509952,0.396888,0.36339396,-0.267707156,0.430934,0.315497099,-0.236256297,0.40979,0.311916729,-0.243646907,0.41182,0.327940296,-0.25895784,0.420048
0.384117923,-0.34058543,0.48936,0.381927334,-0.283836401,0.473639,0.3807281,-0.328529147,0.493526,0.345662534,-0.30781637,0.488015,0.3290764,-0.288269817,0.491084,0.316030775,-0.269998747,0.489055,0.352290215,-0.239561847,0.469136,0.316593468,-0.240498423,0.451717,0.326169689,-0.268252557,0.466842,0.344982796,-0.289225207,0.479758,0.365046659,-0.235947055,0.459387,0.324503717,-0.225640552,0.439651,0.339285769,-0.26135045,0.458737,0.359258238,-0.27628265,0.471867,0.377220863,-0.237768704,0.452858,0.337459039,-0.237577399,0.436711,0.328940469,-0.252603496,0.428449,0.347625539,-0.261691008,0.437457,0.394460057,-0.248682192,0.447883,0.352578266,-0.248350149,0.432463,0.357808799,-0.264920298,0.444733,0.36682364,-0.27685264,0.454917
0.382730089,-0.335862381,0.48943,0.368290963,-0.277551608,0.47455,0.377425101,-0.327474284,0.494541,0.339807544,-0.30950458,0.489503,0.32532449,-0.298303709,0.497727,0.313264928,-0.281689665,0.501387,0.340074509,-0.239560145,0.471784,0.305906813,-0.243070459,0.459461,0.315337265,-0.269828502,0.474603,0.335162865,-0.289610723,0.485516,0.350815566,-0.232737649,0.46106,0.30722641,-0.214591172,0.44238,0.31944367,-0.248822963,0.461211,0.339977366,-0.26787105,0.473879,0.361815839,-0.231763861,0.453649,0.326754305,-0.241451281,0.438805,0.320902538,-0.255693783,0.431211,0.337572608,-0.267663033,0.440396,0.378581014,-0.239141677,0.447499,0.338363712,-0.24117783,0.433138,0.344516971,-0.258802199,0.445271,0.356923426,-0.26908785,0.45503
