sluyters/QuantumLeap/backend/src/datasets/gesture/HandGestureDataset_SHREC2017_csv/Gesture14/finger_1/subject_10_essai_3_skeletons_world.csv
Wrist_x,Wrist_y,Wrist_z,Palm_x,Palm_y,Palm_z,thumb_base_x,thumb_base_y,thumb_base_z,thumb_first_joint_x,thumb_first_joint_y,thumb_first_joint_z,thumb_second_joint_x,thumb_second_joint_y,thumb_second_joint_z,thumb_tip_x,thumb_tip_y,thumb_tip_z,index_base_x,index_base_y,index_base_z,index_first_joint_x,index_first_joint_y,index_first_joint_z,index_second_joint_x,index_second_joint_y,index_second_joint_z,index_tip_x,index_tip_y,index_tip_z,middle_base_x,middle_base_y,middle_base_z,middle_first_joint_x,middle_first_joint_y,middle_first_joint_z,middle_second_joint_x,middle_second_joint_y,middle_second_joint_z,middle_tip_x,middle_tip_y,middle_tip_z,ring_base_x,ring_base_y,ring_base_z,ring_first_joint_x,ring_first_joint_y,ring_first_joint_z,ring_second_joint_x,ring_second_joint_y,ring_second_joint_z,ring_tip_x,ring_tip_y,ring_tip_z,pinky_base_x,pinky_base_y,pinky_base_z,pinky_first_joint_x,pinky_first_joint_y,pinky_first_joint_z,pinky_second_joint_x,pinky_second_joint_y,pinky_second_joint_z,pinky_tip_x,pinky_tip_y,pinky_tip_z,
0.4041433,-0.38438763,0.472119,0.39497559,-0.32510395,0.448612,0.37726057,-0.35623511,0.462208,0.33883674,-0.31931488,0.436884,0.30630408,-0.28516759,0.413405,0.29142028,-0.25873366,0.400933,0.36541683,-0.25804228,0.420496,0.37469561,-0.22274379,0.4244,0.38028212,-0.206435,0.426353,0.38452306,-0.18990857,0.428128,0.39259778,-0.27230565,0.425177,0.38239836,-0.22723168,0.394797,0.36256631,-0.23232611,0.377076,0.36037924,-0.24943632,0.381591,0.41371764,-0.28625978,0.430854,0.39197228,-0.26055163,0.401606,0.37492762,-0.27137084,0.386641,0.37507355,-0.28481595,0.391234,0.43824041,-0.31151265,0.441005,0.42466723,-0.2756373,0.414665,0.41164771,-0.28208858,0.402562,0.39337217,-0.28511026,0.391884
0.40100166,-0.38251957,0.472305,0.39506341,-0.32448771,0.448705,0.37670946,-0.35525185,0.462208,0.33926998,-0.31814644,0.436652,0.30695737,-0.28390398,0.413207,0.29233793,-0.25753799,0.400869,0.36621712,-0.25736723,0.420295,0.37648995,-0.22254534,0.424935,0.38215041,-0.20550083,0.427256,0.38692627,-0.18996844,0.429365,0.39430226,-0.27264289,0.425178,0.38440968,-0.22876687,0.394699,0.3631621,-0.2319053,0.376919,0.36013781,-0.2492043,0.381351,0.41693602,-0.28650198,0.431028,0.39288047,-0.26025071,0.401628,0.37555668,-0.270982,0.386586,0.37820533,-0.28439527,0.391074,0.44145154,-0.31212015,0.441397,0.42843552,-0.27413067,0.414944,0.41293642,-0.27888201,0.40279,0.39633493,-0.28502732,0.392065
0.40034232,-0.38203293,0.472451,0.39522019,-0.3242035,0.448879,0.37642774,-0.35467718,0.462313,0.33962219,-0.31769034,0.436711,0.30734135,-0.28332664,0.413186,0.29284212,-0.25698128,0.4009,0.36682627,-0.2571773,0.420435,0.37733219,-0.22241322,0.42514,0.38311563,-0.2053848,0.427492,0.38793993,-0.18979333,0.429631,0.3943544,-0.27244131,0.425378,0.38493964,-0.22861368,0.394918,0.36383168,-0.23185239,0.377149,0.36034798,-0.24930642,0.381584,0.41647077,-0.28658865,0.431275,0.39356432,-0.26025258,0.401874,0.37613581,-0.27097864,0.386831,0.37811666,-0.28442688,0.391316,0.44159165,-0.31221278,0.441697,0.42934956,-0.27416925,0.415246,0.41387715,-0.27878245,0.403093,0.3967804,-0.28465725,0.39237
0.40801819,-0.38598107,0.478191,0.40714971,-0.31423894,0.455317,0.38101265,-0.35622176,0.466243,0.34979731,-0.31014321,0.43864,0.31518336,-0.27745381,0.414494,0.29445111,-0.25508714,0.400629,0.37005856,-0.24941357,0.425102,0.38224321,-0.21420171,0.428597,0.389639,-0.19676944,0.430345,0.39651686,-0.18043395,0.431933,0.39825418,-0.25974299,0.432512,0.38576641,-0.2220474,0.402515,0.37217845,-0.23352329,0.385017,0.36855727,-0.25304884,0.389225,0.42255393,-0.27250249,0.440385,0.41192383,-0.25733003,0.410645,0.39022086,-0.26623392,0.395429,0.38221231,-0.27911042,0.399439,0.45341236,-0.29585671,0.453051,0.42966228,-0.29547057,0.426495,0.41430016,-0.30018612,0.414294,0.41422791,-0.30450968,0.416718
0.40659869,-0.38254791,0.479117,0.40660226,-0.31279155,0.455256,0.38212346,-0.35311458,0.466466,0.34899893,-0.30824161,0.437978,0.31414461,-0.27498949,0.41326,0.29528902,-0.25235086,0.400176,0.36856321,-0.24696044,0.423507,0.38191751,-0.21229769,0.428023,0.38942125,-0.19484109,0.430281,0.39635905,-0.17857909,0.432334,0.39708116,-0.25765865,0.431468,0.38582279,-0.22518737,0.400589,0.36898555,-0.23574281,0.382577,0.36547153,-0.25379687,0.386128,0.42170896,-0.27076894,0.439871,0.41026688,-0.25622454,0.409167,0.38805703,-0.26478695,0.393458,0.37914564,-0.27699296,0.396737,0.4530796,-0.29464323,0.45331,0.42924684,-0.29371075,0.425997,0.41336219,-0.2984966,0.413447,0.41240047,-0.30311544,0.415325
0.40563542,-0.37908923,0.478392,0.40576794,-0.31142939,0.455371,0.38314816,-0.34811609,0.465632,0.34572505,-0.30446981,0.437178,0.30735702,-0.26939858,0.412743,0.29271672,-0.24606084,0.400708,0.36861417,-0.24408495,0.424054,0.38052991,-0.20925224,0.428561,0.3883135,-0.19206704,0.430814,0.39616374,-0.17761741,0.432863,0.3969649,-0.25535215,0.43242,0.38815024,-0.22863895,0.40227,0.37087595,-0.2401911,0.384683,0.36793613,-0.25648813,0.388533,0.42129009,-0.26887642,0.441093,0.41183219,-0.25621861,0.410922,0.39023754,-0.26507075,0.395486,0.38138329,-0.27758232,0.399032,0.45304914,-0.29440517,0.454728,0.43105789,-0.29179334,0.427891,0.41546784,-0.29847549,0.41556,0.41442522,-0.30360279,0.417654
0.40127375,-0.37121474,0.471064,0.40452305,-0.31075017,0.45719,0.377223,-0.34700154,0.460382,0.33816206,-0.30811504,0.436133,0.30167519,-0.27892297,0.414264,0.28322955,-0.25692561,0.404277,0.36249798,-0.25101275,0.43461,0.3606914,-0.21049089,0.429516,0.3611343,-0.19133314,0.426968,0.36160405,-0.17345416,0.424652,0.39265733,-0.25887208,0.443359,0.38818603,-0.23963945,0.421527,0.38130422,-0.25600287,0.408792,0.39060048,-0.27508271,0.416564,0.41847524,-0.26930522,0.451635,0.4112489,-0.26728302,0.428866,0.39282301,-0.28042587,0.417217,0.38987917,-0.29195911,0.424762,0.45087632,-0.28930777,0.463472,0.4374457,-0.29176755,0.442893,0.42840383,-0.30028226,0.433438,0.43337531,-0.31301567,0.438629
0.39772611,-0.36953722,0.467582,0.3903584,-0.31882917,0.45736,0.37482417,-0.34567112,0.457672,0.33091139,-0.32364751,0.435152,0.29219621,-0.2984317,0.416407,0.27244759,-0.27926331,0.40833,0.35008489,-0.26368627,0.438198,0.35279517,-0.22729674,0.442848,0.35469152,-0.20930827,0.445857,0.35650664,-0.19288886,0.448711,0.37989708,-0.26926657,0.44717,0.38225349,-0.25660009,0.428795,0.37152084,-0.27641175,0.418076,0.37239465,-0.29051197,0.427141,0.40551508,-0.27765595,0.455345,0.40619733,-0.27645563,0.43565,0.39657799,-0.29170725,0.425573,0.39780326,-0.30174648,0.434422,0.43797106,-0.29488898,0.466533,0.43381439,-0.29528072,0.448582,0.43339334,-0.30434828,0.440334,0.43875197,-0.31408063,0.446548
0.39581703,-0.36693315,0.464979,0.38607235,-0.31796049,0.455273,0.37085724,-0.34590592,0.45495,0.32415598,-0.32675087,0.432682,0.28556601,-0.30548194,0.415768,0.26415115,-0.28871973,0.409817,0.3414161,-0.26433786,0.436312,0.3334674,-0.22324793,0.428457,0.33020512,-0.20298015,0.42453,0.32782655,-0.18477676,0.42096,0.37117573,-0.26936176,0.445597,0.37414344,-0.25666358,0.427712,0.36841008,-0.27622477,0.417278,0.36969661,-0.29066371,0.426427,0.39689127,-0.27724245,0.453992,0.40221857,-0.27539411,0.434633,0.39368102,-0.29064563,0.424728,0.3955401,-0.30209201,0.433627,0.42976706,-0.29378016,0.465365,0.42209939,-0.27315088,0.447738,0.42306476,-0.28020087,0.43964,0.43244291,-0.29808885,0.445907
0.39294203,-0.36306497,0.460042,0.38369416,-0.31866032,0.453877,0.36623381,-0.34720924,0.451295,0.32510833,-0.32753858,0.430635,0.28747572,-0.3070788,0.415074,0.26607512,-0.29107734,0.409839,0.33732282,-0.2728937,0.438889,0.32875101,-0.23486024,0.437061,0.32444236,-0.21552289,0.436208,0.32054518,-0.19776706,0.435516,0.36640233,-0.27610817,0.447731,0.36915007,-0.25199667,0.433283,0.36841693,-0.27208059,0.424855,0.37627858,-0.29541518,0.435324,0.39169645,-0.28221156,0.455485,0.40050907,-0.27656653,0.439579,0.39687682,-0.29298199,0.431441,0.40178665,-0.31062033,0.441794,0.42718421,-0.29500606,0.465584,0.42193544,-0.27650892,0.450704,0.42490095,-0.28414775,0.443868,0.43601163,-0.30248791,0.451218
0.39658759,-0.36450609,0.461926,0.38933393,-0.31923445,0.454258,0.37034084,-0.34773915,0.452301,0.33568073,-0.3275537,0.43008,0.2985368,-0.3045456,0.412673,0.27863227,-0.28928324,0.408849,0.34565654,-0.27151102,0.437171,0.33798994,-0.23258866,0.433746,0.33411411,-0.21280922,0.432034,0.33286278,-0.19184187,0.430477,0.37500132,-0.27477755,0.446614,0.37777947,-0.24932985,0.430693,0.37623838,-0.26878308,0.421405,0.3784853,-0.29119084,0.431199,0.40117666,-0.2787746,0.45498,0.40678809,-0.27499267,0.437353,0.4035364,-0.28789429,0.428335,0.40438358,-0.3078141,0.437876,0.43388568,-0.29466418,0.466023,0.42617827,-0.27569599,0.449894,0.43163945,-0.28293422,0.442483,0.43967018,-0.30050153,0.449262
0.40678701,-0.36997729,0.468702,0.4027987,-0.32494673,0.457135,0.38247859,-0.35464259,0.458517,0.34709693,-0.32690128,0.435052,0.30647154,-0.2989563,0.411617,0.28975855,-0.28248234,0.406546,0.36040322,-0.2695397,0.436725,0.35921007,-0.23268063,0.439905,0.35877688,-0.21408533,0.44173,0.35842989,-0.19703539,0.443469,0.38952689,-0.27271363,0.445602,0.39215488,-0.2441592,0.426642,0.38682054,-0.26421737,0.415582,0.38938141,-0.28289558,0.424379,0.4147072,-0.27907204,0.453806,0.42297019,-0.27575003,0.440049,0.4278433,-0.29277239,0.43301,0.43721319,-0.31263995,0.443546,0.44686912,-0.29372197,0.465222,0.43736163,-0.27813151,0.446296,0.44000374,-0.28412291,0.4376,0.45376938,-0.30062084,0.443452
0.40118505,-0.35268121,0.46201,0.42158362,-0.30224562,0.460859,0.39485312,-0.32684849,0.463162,0.39682303,-0.29253289,0.46483,0.39813734,-0.26213519,0.467035,0.40443126,-0.24131623,0.468247,0.41204066,-0.26003859,0.461509,0.40170329,-0.23872635,0.45485,0.39283782,-0.23423419,0.45152,0.38444463,-0.22999934,0.448523,0.43268275,-0.26492111,0.45971,0.42122983,-0.24569741,0.451394,0.41267704,-0.24141171,0.446543,0.42026684,-0.26506095,0.460014,0.44938535,-0.27191902,0.45832,0.44122181,-0.25380218,0.451054,0.43560099,-0.27285605,0.447337,0.44923659,-0.29659218,0.46172,0.46859046,-0.28608176,0.456837,0.45229992,-0.26576823,0.448818,0.44531911,-0.27964914,0.445134,0.45746174,-0.29810362,0.455478
0.38582212,-0.33537531,0.441824,0.41961137,-0.29901471,0.451969,0.38490901,-0.31624761,0.448598,0.36932367,-0.29809201,0.450951,0.35049227,-0.27892988,0.452338,0.34361491,-0.26136889,0.455609,0.42749803,-0.26708563,0.467194,0.43093503,-0.23931959,0.472298,0.43233909,-0.24029614,0.47485,0.43363753,-0.24758958,0.47717,0.44412267,-0.27154394,0.462082,0.4542576,-0.2354995,0.466002,0.45827416,-0.21717746,0.468288,0.47461526,-0.21114287,0.4843,0.45619867,-0.27743225,0.457088,0.45552305,-0.26794833,0.461969,0.44713175,-0.27531439,0.464466,0.4515591,-0.30395965,0.481707,0.46742588,-0.28868812,0.449687,0.47895762,-0.26853812,0.452058,0.46867329,-0.26702637,0.453147,0.46684918,-0.2784424,0.465789
0.4117283,-0.34120266,0.462868,0.4265528,-0.30030354,0.458483,0.39947092,-0.32445737,0.464522,0.38202928,-0.29191808,0.456772,0.35012205,-0.25630651,0.433146,0.33639525,-0.23230077,0.417929,0.42451883,-0.25254638,0.457576,0.43187119,-0.21779592,0.447099,0.43581195,-0.19997064,0.44186,0.44927467,-0.18753698,0.446756,0.44157747,-0.26077628,0.454112,0.44427316,-0.21922635,0.442936,0.44608286,-0.19437551,0.436417,0.46523738,-0.18331491,0.448882,0.45276885,-0.27227455,0.451601,0.45163173,-0.2500981,0.442261,0.45031895,-0.23893591,0.437483,0.45373725,-0.25448602,0.450995,0.46803676,-0.28799023,0.449258,0.46524205,-0.26334872,0.439366,0.46328049,-0.25516417,0.434821,0.46178285,-0.26075014,0.444451
0.41365427,-0.34084232,0.465758,0.42769916,-0.29533581,0.458093,0.39891902,-0.31886423,0.464011,0.38052518,-0.2795634,0.451123,0.3515413,-0.24259352,0.427343,0.33925232,-0.21660323,0.413002,0.42423232,-0.24433494,0.450764,0.43242398,-0.20784328,0.437346,0.43657768,-0.18951806,0.430638,0.45569609,-0.17881584,0.439296,0.4403691,-0.25787353,0.450452,0.44595362,-0.22376986,0.435465,0.42993846,-0.2345049,0.426723,0.43161114,-0.25670325,0.438168,0.45560963,-0.27022956,0.45079,0.45402089,-0.25181001,0.437013,0.45203053,-0.2424637,0.429964,0.45424262,-0.25767857,0.442148,0.47180252,-0.29072401,0.452304,0.46137045,-0.27263005,0.438764,0.44375546,-0.28098979,0.432543,0.447642,-0.29507419,0.441161
0.42041474,-0.34445062,0.471789,0.43223961,-0.29668185,0.461,0.40559029,-0.32356046,0.469444,0.38776807,-0.28718652,0.455264,0.35348531,-0.25117754,0.431133,0.33817524,-0.22494749,0.415776,0.42449968,-0.2433287,0.450825,0.43045177,-0.206028,0.434772,0.43343354,-0.18737079,0.426746,0.45151571,-0.17700581,0.434478,0.4433909,-0.25506284,0.450244,0.44413405,-0.22146335,0.4323,0.42555858,-0.23232873,0.421833,0.42598252,-0.25355523,0.432201,0.4598942,-0.2654472,0.450605,0.4522964,-0.25070797,0.434231,0.44917491,-0.24192628,0.425854,0.45117308,-0.25805235,0.436962,0.47779177,-0.28646685,0.452599,0.4597895,-0.27217384,0.436823,0.44118924,-0.27909328,0.429574,0.44425428,-0.29424068,0.437343
0.42205037,-0.34508037,0.47304,0.43294949,-0.29757534,0.462864,0.40654261,-0.32392739,0.470315,0.38012036,-0.29194641,0.455732,0.34261369,-0.25743374,0.430236,0.33027608,-0.23179615,0.414906,0.41240517,-0.24483041,0.452631,0.41591469,-0.20629601,0.437023,0.41767427,-0.18702063,0.429219,0.43559559,-0.17608933,0.438554,0.43357741,-0.25377459,0.452719,0.42927967,-0.22371421,0.435246,0.41635871,-0.23679539,0.425054,0.42047398,-0.25963847,0.435621,0.45101067,-0.26446244,0.453582,0.44497463,-0.24767251,0.437427,0.44070213,-0.23680379,0.429163,0.44768127,-0.25724299,0.440412,0.47187034,-0.28366918,0.456082,0.45445766,-0.27013071,0.44053,0.44353087,-0.28111782,0.433385,0.44700403,-0.29719163,0.441274
0.42583721,-0.35895347,0.477351,0.42840259,-0.30848113,0.466513,0.40655686,-0.33062036,0.472052,0.37154719,-0.30962261,0.454086,0.33423713,-0.27682604,0.428053,0.31296527,-0.25138127,0.413981,0.39818984,-0.25665565,0.452646,0.39040409,-0.21539875,0.435275,0.38651573,-0.19475331,0.42659,0.39912483,-0.18339057,0.436341,0.425566,-0.26383924,0.455708,0.42146937,-0.23734753,0.437174,0.40983327,-0.24923043,0.426362,0.41271585,-0.27245609,0.436454,0.44258181,-0.27542581,0.459069,0.43692004,-0.26251336,0.441032,0.43431656,-0.25617424,0.431804,0.44021097,-0.27702562,0.442285,0.46778712,-0.29456266,0.464632,0.47360806,-0.26944745,0.447653,0.46637694,-0.26404934,0.439851,0.46574734,-0.27364514,0.447191
0.41888627,-0.35938034,0.47107,0.41122462,-0.31433532,0.46191,0.39646497,-0.34721503,0.465332,0.35794744,-0.3173092,0.447135,0.32321602,-0.28744664,0.420811,0.30110028,-0.26273489,0.405824,0.37833801,-0.26267726,0.448629,0.36723654,-0.22087951,0.432027,0.36168445,-0.1999958,0.423726,0.3716842,-0.18865804,0.43374,0.40382789,-0.26883182,0.452777,0.40457627,-0.2384675,0.43573,0.39514168,-0.25208625,0.425786,0.40081234,-0.27655947,0.436317,0.42561223,-0.2773369,0.456901,0.42144035,-0.26335671,0.439877,0.41735994,-0.25599831,0.431167,0.42809943,-0.27808927,0.441992,0.45324279,-0.29412137,0.463127,0.45804641,-0.26658631,0.447086,0.45317989,-0.26025048,0.439716,0.45028983,-0.26981926,0.447351
0.42059398,-0.35342633,0.471591,0.40714972,-0.30743844,0.462416,0.39809553,-0.33645565,0.46672,0.35776062,-0.31751959,0.449582,0.31612742,-0.28773265,0.426303,0.29377885,-0.26567638,0.414479,0.37238951,-0.25737572,0.450201,0.3634605,-0.21419873,0.4345,0.35897602,-0.19277491,0.426649,0.36813675,-0.17987365,0.435174,0.39748488,-0.26060311,0.45327,0.39437384,-0.23467975,0.43633,0.38629767,-0.25194572,0.426449,0.3973979,-0.27679641,0.437125,0.41901166,-0.26679915,0.456507,0.41365693,-0.2603877,0.439914,0.40288939,-0.27436074,0.431424,0.4058633,-0.296067,0.4425,0.44644602,-0.28093807,0.461682,0.45240978,-0.25518698,0.445936,0.44293239,-0.25553219,0.438702,0.44551759,-0.2677433,0.44651
0.41773038,-0.3480288,0.46902,0.4055263,-0.30491136,0.460569,0.39543822,-0.33543166,0.464645,0.35706022,-0.31688954,0.448256,0.3173873,-0.29042223,0.422218,0.29283105,-0.26598686,0.410237,0.3714466,-0.25583795,0.449456,0.36131853,-0.21311012,0.434495,0.35343741,-0.19121092,0.427014,0.36438718,-0.17924552,0.435073,0.39634611,-0.25858573,0.452145,0.38820658,-0.21239787,0.435951,0.38358214,-0.21885571,0.426505,0.39253769,-0.24300305,0.437472,0.41769109,-0.26435593,0.455013,0.41192896,-0.25826223,0.439212,0.40317474,-0.26613995,0.431128,0.40798541,-0.29232036,0.44254,0.44484171,-0.27792643,0.459644,0.45082371,-0.25254344,0.444552,0.4394735,-0.25477232,0.437618,0.43968536,-0.26834507,0.445682
0.41355436,-0.34484603,0.46436,0.40494249,-0.30243513,0.45866,0.39352982,-0.33539735,0.463198,0.35832832,-0.31692606,0.451538,0.31599353,-0.28685613,0.426685,0.29301866,-0.26456404,0.414382,0.38026112,-0.25345257,0.45338,0.37203008,-0.21053528,0.441788,0.36790223,-0.18935673,0.435991,0.37679964,-0.17618932,0.445692,0.4029651,-0.25537785,0.452978,0.39795301,-0.20884447,0.43992,0.39321655,-0.21146392,0.432302,0.40262314,-0.23502296,0.44439,0.42206039,-0.26035735,0.45309,0.4168446,-0.25212359,0.441088,0.40707697,-0.26703254,0.434948,0.41271397,-0.29328552,0.447796,0.44273027,-0.27276112,0.45405,0.45825812,-0.24743426,0.442028,0.44304433,-0.25271099,0.436505,0.44630503,-0.26756924,0.445647
0.42268081,-0.35143132,0.474189,0.43209906,-0.29814322,0.466046,0.40275298,-0.32397913,0.466803,0.36635675,-0.30316083,0.448355,0.32992683,-0.27523569,0.42643,0.31288678,-0.25521412,0.41889,0.40015535,-0.24219284,0.451409,0.40564372,-0.20629168,0.456411,0.40882416,-0.18853594,0.459402,0.41529199,-0.1731607,0.462122,0.42828765,-0.25059392,0.457927,0.43255392,-0.23380208,0.44166,0.41819266,-0.25418954,0.432171,0.41890778,-0.27344246,0.442602,0.45163245,-0.26114581,0.463922,0.45318826,-0.25322285,0.446877,0.43797131,-0.26879527,0.438156,0.43733106,-0.28414147,0.448644,0.47963359,-0.28058846,0.472221,0.47498014,-0.27232683,0.45634,0.46034183,-0.28240931,0.449043,0.45907007,-0.2956708,0.456474
0.42197527,-0.34869661,0.473218,0.43137238,-0.29757062,0.466173,0.40117094,-0.31974489,0.463226,0.36631734,-0.28494092,0.442009,0.33117276,-0.25861293,0.430031,0.32452547,-0.24631939,0.437124,0.40833354,-0.23816657,0.449052,0.41738355,-0.20158898,0.451414,0.42508246,-0.18343783,0.452594,0.43672476,-0.17015875,0.453668,0.4361122,-0.25113671,0.459151,0.45174555,-0.24308889,0.443831,0.43374579,-0.26267886,0.434894,0.42931853,-0.27544041,0.444674,0.45706177,-0.26436007,0.468008,0.46869259,-0.26189904,0.450727,0.44738478,-0.27875501,0.441885,0.44036944,-0.28783136,0.451344,0.48561784,-0.2867794,0.479543,0.48424714,-0.28623326,0.463772,0.4683619,-0.29597164,0.456525,0.4665065,-0.30805658,0.463263
0.42237199,-0.34874666,0.473168,0.43275823,-0.29811253,0.468634,0.40274528,-0.31827825,0.463704,0.36843783,-0.28185768,0.44313,0.33960995,-0.24862584,0.426301,0.32718134,-0.22755729,0.421672,0.41876895,-0.23925076,0.453857,0.43227063,-0.20372473,0.455816,0.44413783,-0.18750225,0.456795,0.45524115,-0.17227683,0.457686,0.44627656,-0.25417924,0.464113,0.46121294,-0.24837073,0.45125,0.44318226,-0.26855632,0.443747,0.43909612,-0.28149826,0.454264,0.46814219,-0.26976979,0.472905,0.47481648,-0.27146361,0.457804,0.45500854,-0.28519893,0.450077,0.44873647,-0.29475245,0.460271,0.49262449,-0.29455218,0.483998,0.48987006,-0.29256856,0.470116,0.47417417,-0.30182575,0.463737,0.47082774,-0.31481288,0.471064
0.41987137,-0.34454213,0.469852,0.43249123,-0.29552187,0.466306,0.39998856,-0.31584703,0.460349,0.36792831,-0.27619774,0.440073,0.33705,-0.24390674,0.420917,0.32586435,-0.22380154,0.417715,0.41838314,-0.23725882,0.452147,0.44163754,-0.2036481,0.453628,0.45387061,-0.18775977,0.454939,0.46587924,-0.17341094,0.456131,0.44582623,-0.25216983,0.462772,0.46747533,-0.2234842,0.450888,0.46691369,-0.24102611,0.443956,0.46794986,-0.26356504,0.454637,0.4676041,-0.26769809,0.471789,0.47547301,-0.2714048,0.457464,0.45640582,-0.28531979,0.450135,0.44995014,-0.29691315,0.460457,0.49052835,-0.29176689,0.483007,0.49062035,-0.29226223,0.46983,0.47720367,-0.30115217,0.463775,0.47192341,-0.31531737,0.471219
0.4204568,-0.34415083,0.470323,0.43176764,-0.29439409,0.466108,0.40096299,-0.31521568,0.460605,0.36863556,-0.27638562,0.439806,0.33954733,-0.24377187,0.419434,0.32640925,-0.22364797,0.415613,0.41720983,-0.23622423,0.451232,0.4399795,-0.20282699,0.451993,0.45199631,-0.18676702,0.452874,0.46339425,-0.17217344,0.453676,0.44510569,-0.2510106,0.461906,0.46513598,-0.22254532,0.449362,0.46046455,-0.23863435,0.442044,0.46305434,-0.2615701,0.452507,0.46735581,-0.26649287,0.471017,0.47379765,-0.2704111,0.456078,0.45413998,-0.28401987,0.448434,0.44754214,-0.29462972,0.458529,0.49240545,-0.29116459,0.482443,0.48993682,-0.29151024,0.468741,0.47504644,-0.30146871,0.462445,0.47121036,-0.31427737,0.46971
0.41330255,-0.34102194,0.463194,0.42253938,-0.29182944,0.458907,0.39614894,-0.31249453,0.455574,0.36125426,-0.27932796,0.436825,0.33300888,-0.24764389,0.420576,0.31984881,-0.22639054,0.416299,0.40108319,-0.23807259,0.44658,0.4235899,-0.20588369,0.451649,0.43527141,-0.19013108,0.454737,0.45046656,-0.17400203,0.457545,0.42822306,-0.24944436,0.454633,0.44071735,-0.21242525,0.442054,0.44470215,-0.22155447,0.434716,0.45135902,-0.24612678,0.445994,0.45015239,-0.26214845,0.461592,0.46828236,-0.25952767,0.452787,0.46752036,-0.27828786,0.448282,0.47054209,-0.30097566,0.461108,0.47342117,-0.28804943,0.470475,0.47357666,-0.28484927,0.457191,0.46135857,-0.29469541,0.451088,0.46124871,-0.3098342,0.459129
0.41920742,-0.34394416,0.468943,0.42168685,-0.29435214,0.459482,0.39405307,-0.32477043,0.459507,0.35995885,-0.29572852,0.437699,0.32224253,-0.26389568,0.413406,0.30580096,-0.2488234,0.411154,0.38834815,-0.24268019,0.441419,0.40246469,-0.20651994,0.443233,0.40992779,-0.18853105,0.444549,0.41956844,-0.1728253,0.445745,0.41645767,-0.25107753,0.45005,0.42017989,-0.21048195,0.432917,0.42228744,-0.22053855,0.422923,0.42942766,-0.24458371,0.432495,0.43998526,-0.26166759,0.457887,0.45438159,-0.25560027,0.446634,0.45753722,-0.27502877,0.440877,0.46040141,-0.29633008,0.452466,0.46876987,-0.28123064,0.468561,0.465547,-0.28117924,0.45124,0.45238437,-0.29151237,0.443282,0.45192246,-0.30454562,0.449809
0.41821233,-0.34269363,0.468033,0.40723142,-0.30122622,0.460019,0.3920347,-0.32432461,0.457935,0.34823014,-0.30178054,0.436278,0.30951034,-0.27580524,0.416637,0.2950936,-0.2637259,0.417936,0.37451762,-0.24286446,0.442111,0.39101723,-0.20988028,0.44978,0.39955115,-0.19319907,0.453615,0.40905037,-0.1746228,0.457101,0.40457603,-0.25211825,0.452029,0.41060022,-0.21296322,0.435767,0.41022342,-0.22139246,0.426281,0.41517895,-0.24533195,0.435802,0.42957338,-0.26410728,0.460812,0.43089461,-0.26188402,0.442732,0.41825969,-0.27640754,0.433482,0.41161946,-0.29376037,0.442696,0.46076239,-0.28380962,0.4724,0.45549395,-0.2821733,0.455927,0.44550917,-0.29406408,0.448358,0.4525701,-0.30904077,0.454896
0.42099705,-0.34490557,0.471018,0.40989622,-0.30220765,0.461884,0.39367382,-0.32955686,0.461049,0.34987166,-0.30647405,0.439142,0.30837663,-0.28564584,0.421702,0.29419407,-0.26974915,0.421289,0.37138892,-0.24785312,0.443381,0.3802137,-0.21354752,0.449705,0.38976124,-0.19562415,0.452867,0.39840612,-0.17989069,0.457097,0.40337435,-0.25402718,0.452778,0.40528841,-0.24374112,0.435439,0.39350326,-0.26402081,0.425325,0.39424349,-0.28130738,0.434637,0.42906125,-0.26473445,0.461219,0.42845088,-0.25558461,0.442322,0.41809253,-0.26963458,0.432654,0.41556363,-0.29237177,0.441708,0.4615855,-0.28413264,0.472564,0.45376935,-0.27596592,0.455344,0.44509122,-0.29078638,0.447431,0.45214345,-0.30664647,0.453824
0.41828053,-0.34288544,0.467888,0.40811533,-0.30153452,0.459994,0.39157252,-0.32819743,0.458257,0.34806126,-0.30597508,0.437138,0.30752836,-0.2848601,0.420542,0.28887498,-0.2695151,0.418026,0.37085703,-0.24749815,0.442746,0.37927892,-0.21138446,0.446777,0.38625494,-0.19386431,0.448793,0.392766,-0.17734402,0.450626,0.40217079,-0.25415615,0.452125,0.4057966,-0.24404675,0.435985,0.39465418,-0.26479302,0.426569,0.39575919,-0.28238889,0.436308,0.42755808,-0.26446072,0.460455,0.42876859,-0.25577414,0.44265,0.41894871,-0.27018674,0.43354,0.41728719,-0.29255995,0.443032,0.45914077,-0.28372342,0.471489,0.45362685,-0.27587925,0.455201,0.44554414,-0.29007873,0.447717,0.45241775,-0.30691528,0.454454
0.40967252,-0.34181144,0.460074,0.40590072,-0.30271142,0.456277,0.38417398,-0.32705781,0.451317,0.34474667,-0.30255336,0.431795,0.30972278,-0.27566351,0.415102,0.29188459,-0.25780113,0.411082,0.37882255,-0.25300031,0.442873,0.3952826,-0.22298427,0.454608,0.40746124,-0.20744204,0.460475,0.41877155,-0.1926922,0.465809,0.40812881,-0.26383663,0.452491,0.42076963,-0.24808211,0.440358,0.41095991,-0.26911995,0.43328,0.40575499,-0.28823005,0.444236,0.43254105,-0.27617533,0.460701,0.43947274,-0.27000352,0.446455,0.42896425,-0.28485381,0.439167,0.42433958,-0.30282757,0.449873,0.46209891,-0.29742047,0.470996,0.46294588,-0.28741834,0.45779,0.45777857,-0.2994252,0.451723,0.45918827,-0.31598241,0.459432
0.41213572,-0.34147529,0.460925,0.4183405,-0.29898137,0.454973,0.39029582,-0.32039421,0.453072,0.35899305,-0.29150875,0.434283,0.32929211,-0.2718537,0.431374,0.32676901,-0.26671656,0.444374,0.39448596,-0.24570372,0.441236,0.41417666,-0.22054096,0.456698,0.43070224,-0.20875502,0.464429,0.4467448,-0.19937519,0.471457,0.42253904,-0.25790983,0.449039,0.43286063,-0.22377222,0.434836,0.42643487,-0.23659505,0.42655,0.42841426,-0.25991511,0.43738,0.44581384,-0.2714027,0.455922,0.44909703,-0.26424786,0.440353,0.43758944,-0.27878457,0.432388,0.43679885,-0.2998686,0.443154,0.47382288,-0.29412904,0.464956,0.46664696,-0.28194769,0.450449,0.46194224,-0.29742094,0.443783,0.46663237,-0.31590918,0.451473
0.41008667,-0.3404429,0.457868,0.42588878,-0.29654216,0.451654,0.39617816,-0.31695651,0.453922,0.37509976,-0.28907723,0.438664,0.34551497,-0.25434269,0.417786,0.33696874,-0.23242384,0.413378,0.41152626,-0.24268987,0.442579,0.43686735,-0.21295111,0.448454,0.45066604,-0.19759548,0.451392,0.46417087,-0.18493315,0.454062,0.43592881,-0.25349592,0.445459,0.44600625,-0.2132352,0.431414,0.43523541,-0.21711556,0.423221,0.44052625,-0.24101132,0.434903,0.45548958,-0.26583063,0.44831,0.45993614,-0.25130911,0.434398,0.44123935,-0.26472438,0.427281,0.44067795,-0.28271619,0.439402,0.47761042,-0.28700302,0.452597,0.46664936,-0.2833023,0.439138,0.45911219,-0.29632945,0.432954,0.46694477,-0.31558754,0.441583
0.41523125,-0.34523782,0.463392,0.42795521,-0.2943608,0.45216,0.4003011,-0.3208045,0.458407,0.37426693,-0.27787074,0.440807,0.34857271,-0.24223837,0.418704,0.33814439,-0.21852239,0.411217,0.41612803,-0.23557062,0.438416,0.44490601,-0.20751433,0.44309,0.45948,-0.19325385,0.445427,0.47512191,-0.18229947,0.447551,0.43788756,-0.24794964,0.440962,0.4462942,-0.20572378,0.422117,0.43878543,-0.20961409,0.411123,0.44125861,-0.23012137,0.421133,0.45521926,-0.26149917,0.443929,0.46127985,-0.24588946,0.42577,0.43763048,-0.25732437,0.416479,0.43595295,-0.27577259,0.426925,0.47438062,-0.28440718,0.449081,0.46406675,-0.27887456,0.431964,0.45056987,-0.28971105,0.424099,0.45184257,-0.30581446,0.431401
0.4171098,-0.34485791,0.463942,0.43760478,-0.29443655,0.456786,0.40226077,-0.31659028,0.457125,0.379004,-0.2778837,0.439655,0.35043102,-0.24346431,0.419051,0.34138637,-0.22103838,0.413781,0.43066929,-0.23785425,0.443521,0.45582539,-0.20707592,0.441703,0.46914532,-0.19181284,0.441382,0.48193176,-0.17797773,0.441091,0.45597975,-0.25284081,0.449653,0.46835281,-0.23337633,0.434371,0.44865789,-0.25028955,0.425457,0.4461745,-0.26775474,0.436299,0.4758815,-0.26849072,0.455254,0.48317409,-0.26010019,0.43922,0.46219955,-0.27164064,0.431016,0.45196033,-0.28726764,0.441962,0.49764165,-0.29333675,0.462941,0.48561845,-0.29514107,0.447897,0.47070739,-0.30316403,0.440985,0.47299925,-0.32143842,0.448766
0.42720176,-0.34599951,0.468714,0.44465504,-0.29612899,0.459363,0.41028367,-0.31891675,0.461485,0.38562442,-0.28152227,0.442688,0.35593552,-0.24785891,0.421819,0.34415453,-0.22352154,0.415327,0.43102431,-0.23868182,0.444108,0.45604113,-0.20768873,0.443287,0.46908162,-0.19219966,0.443116,0.48165216,-0.17815456,0.442959,0.45644467,-0.25313846,0.45004,0.46736958,-0.22665134,0.432649,0.44985871,-0.24215457,0.422505,0.44499581,-0.26333934,0.43265,0.47667347,-0.26847639,0.455649,0.48154926,-0.25904376,0.437763,0.45898941,-0.2702008,0.428613,0.4520196,-0.28312881,0.438868,0.49928461,-0.29320985,0.463662,0.48490171,-0.29433512,0.447017,0.46903298,-0.30274029,0.439369,0.47026546,-0.31964818,0.4466
0.42858998,-0.3500684,0.471978,0.44402382,-0.29774466,0.458791,0.41139795,-0.32014201,0.461559,0.38116518,-0.28947716,0.438682,0.34651037,-0.25498726,0.417191,0.33570251,-0.23255904,0.411029,0.42162161,-0.24099585,0.437,0.43898415,-0.20592534,0.436979,0.45038208,-0.18942246,0.436969,0.46258869,-0.17746776,0.436959,0.44998107,-0.25529461,0.445645,0.45686621,-0.23036346,0.424461,0.43632149,-0.24928348,0.412104,0.43105116,-0.26162433,0.420174,0.47420203,-0.26850578,0.453782,0.4739053,-0.26245178,0.431632,0.44952158,-0.27351171,0.420299,0.4428013,-0.27962171,0.428159,0.50080485,-0.29494114,0.465355,0.48326745,-0.29511789,0.445292,0.46699133,-0.30832905,0.436074,0.46522651,-0.31760459,0.441507
0.43256718,-0.3486364,0.470928,0.44113024,-0.30272435,0.457492,0.41381102,-0.32569823,0.461713,0.37885491,-0.30077964,0.439417,0.34281508,-0.26967881,0.416329,0.32692195,-0.24779354,0.406843,0.40744346,-0.24566744,0.437024,0.42392334,-0.21180818,0.441744,0.43519351,-0.19513033,0.444104,0.44567672,-0.17949768,0.446249,0.43528183,-0.25372321,0.444097,0.4326803,-0.21598118,0.422742,0.42522186,-0.2306253,0.410284,0.42994651,-0.25391489,0.418685,0.46021525,-0.26637056,0.45096,0.46082017,-0.25311747,0.429912,0.44422343,-0.26762889,0.419144,0.44219259,-0.28002733,0.427736,0.48850034,-0.28930801,0.461057,0.47189255,-0.28477399,0.44114,0.45122416,-0.29058966,0.431989,0.45048444,-0.30395723,0.437765
0.43244251,-0.34935653,0.469535,0.42744342,-0.30194346,0.453598,0.41497888,-0.33350142,0.460567,0.37003577,-0.31039008,0.437334,0.33462622,-0.28389684,0.418285,0.31509686,-0.26167791,0.406814,0.38492095,-0.24849036,0.43175,0.39593961,-0.21219052,0.435276,0.40161673,-0.19392675,0.437182,0.4068661,-0.17723864,0.438985,0.41358072,-0.25348687,0.43771,0.40408517,-0.25268234,0.414086,0.38535968,-0.26751064,0.400305,0.38657899,-0.27401515,0.40797,0.43858192,-0.26164673,0.443852,0.43081372,-0.24396556,0.420393,0.4196645,-0.25845324,0.40839,0.41941113,-0.27120281,0.416126,0.47092017,-0.27912029,0.453455,0.45235294,-0.27432445,0.432001,0.43427235,-0.2828683,0.422143,0.43521876,-0.2942074,0.427389
0.43160401,-0.34954477,0.466498,0.42073122,-0.30333664,0.451477,0.41264329,-0.33953614,0.459008,0.3664593,-0.32051432,0.437854,0.32695362,-0.29880428,0.419056,0.30404398,-0.27947779,0.409203,0.37439081,-0.2529752,0.432076,0.38022369,-0.21707072,0.437054,0.38400761,-0.19875922,0.439543,0.38770377,-0.18181316,0.441806,0.40182905,-0.25411278,0.436501,0.39296131,-0.25308088,0.413968,0.37943966,-0.2687304,0.400824,0.38518413,-0.27545532,0.409172,0.42610996,-0.25898683,0.441308,0.41686372,-0.24028719,0.419773,0.4102588,-0.25526226,0.408755,0.41918594,-0.27230344,0.417482,0.45816936,-0.2723143,0.449195,0.44132758,-0.26777893,0.428787,0.42549841,-0.27743367,0.41941,0.4279087,-0.29085966,0.425258
0.44008512,-0.35660639,0.47602,0.41906784,-0.3026662,0.450202,0.4167078,-0.34433261,0.464459,0.36533517,-0.3182165,0.437,0.32151889,-0.29180504,0.412368,0.29723543,-0.27055806,0.399217,0.36210003,-0.24429063,0.418484,0.37219623,-0.21212412,0.428427,0.37810687,-0.19534655,0.433399,0.38374805,-0.17960376,0.437919,0.39018265,-0.2463722,0.424462,0.37148134,-0.23886098,0.391972,0.3867032,-0.27346546,0.409145,0.40001017,-0.28663513,0.426288,0.41592085,-0.2524183,0.431386,0.39663204,-0.22824845,0.400049,0.38479268,-0.23904203,0.384015,0.3860828,-0.25105265,0.387046,0.45154108,-0.267993,0.443353,0.42543429,-0.25999085,0.41519,0.40600553,-0.26672832,0.40225,0.4044104,-0.27572216,0.403844
0.44002123,-0.35600242,0.474564,0.42047949,-0.30420093,0.450815,0.41640479,-0.34478388,0.464974,0.36850178,-0.31961911,0.440011,0.32656692,-0.29201004,0.415364,0.30212201,-0.26943789,0.401034,0.37009565,-0.24396633,0.422931,0.38557837,-0.21358419,0.434613,0.39399449,-0.19750119,0.440454,0.40203402,-0.18241571,0.445763,0.39788234,-0.247695,0.427137,0.37591699,-0.24017216,0.396589,0.39515563,-0.27658487,0.415313,0.4065255,-0.29024464,0.43224,0.42199881,-0.25420458,0.432442,0.40156497,-0.23851513,0.403188,0.38200223,-0.24942571,0.388221,0.38046579,-0.26380737,0.392819,0.45485527,-0.27020455,0.442186,0.42670382,-0.26011045,0.415811,0.41020039,-0.26830476,0.403693,0.40779471,-0.27745507,0.4065
0.43061723,-0.35327619,0.460698,0.41444414,-0.30555117,0.446054,0.40351268,-0.33897752,0.45273,0.36372955,-0.30898725,0.431649,0.32592887,-0.2832877,0.419802,0.31781743,-0.27481045,0.426364,0.37392012,-0.25212142,0.426317,0.38864023,-0.21820547,0.430312,0.39671824,-0.20102534,0.43231,0.40454188,-0.18520234,0.434126,0.40053885,-0.25779528,0.431456,0.39568838,-0.23875671,0.409104,0.41441135,-0.27833816,0.430981,0.41979333,-0.29913548,0.445934,0.42372508,-0.26633063,0.436821,0.39988463,-0.21650683,0.414688,0.39768949,-0.20940667,0.403364,0.41356382,-0.2295386,0.411854,0.45389264,-0.28394593,0.445314,0.4430986,-0.27011295,0.42499,0.42948038,-0.27933453,0.415652,0.43296177,-0.29237907,0.421483
0.43231034,-0.35654081,0.462733,0.4177905,-0.31109937,0.44721,0.40329516,-0.33728388,0.451295,0.36087106,-0.30243586,0.426802,0.33882401,-0.26701631,0.412053,0.32532356,-0.24543058,0.405302,0.38074689,-0.25080138,0.422581,0.40044009,-0.22326813,0.434285,0.41579647,-0.21677256,0.440136,0.42454543,-0.22705238,0.445456,0.40994583,-0.26103323,0.431734,0.40747467,-0.22614243,0.408355,0.43064706,-0.2605131,0.42843,0.43795721,-0.28546809,0.443188,0.43523153,-0.27341268,0.440471,0.42692923,-0.22978299,0.432557,0.42743568,-0.21029798,0.428508,0.4517657,-0.21568315,0.442096,0.46767842,-0.29583329,0.453094,0.45978306,-0.28021679,0.431259,0.44923458,-0.2917047,0.421227,0.44805104,-0.30640055,0.425772
0.43227261,-0.3555558,0.464308,0.43053252,-0.30788196,0.451041,0.40698419,-0.33697932,0.455428,0.37540132,-0.28807402,0.434601,0.3505434,-0.25749198,0.422753,0.33919699,-0.23470092,0.409927,0.41142512,-0.24774621,0.431102,0.44189238,-0.221003,0.43711,0.45766029,-0.20697913,0.440114,0.47231304,-0.1938417,0.442845,0.43672109,-0.26256462,0.437815,0.43997815,-0.23554699,0.41664,0.4574467,-0.27120416,0.438406,0.46070548,-0.2941987,0.452898,0.45739024,-0.27838626,0.444369,0.45502084,-0.23312554,0.429702,0.45735536,-0.22804475,0.422198,0.47295185,-0.24956302,0.433764,0.4815742,-0.30415974,0.454073,0.47087616,-0.29356267,0.434361,0.45419077,-0.30237883,0.425303,0.45351486,-0.31059353,0.431217
0.42982899,-0.3546971,0.462325,0.44015116,-0.30213132,0.455526,0.40848239,-0.3245971,0.455293,0.38501155,-0.28167971,0.437164,0.36238202,-0.24797502,0.419245,0.35558802,-0.22468064,0.412012,0.43675292,-0.2476013,0.442234,0.46250793,-0.21748302,0.440859,0.47592899,-0.20231795,0.440172,0.48919349,-0.18917976,0.439547,0.46098103,-0.26519959,0.448747,0.47079465,-0.24895965,0.433786,0.48366839,-0.28605912,0.456957,0.48022116,-0.30597267,0.469642,0.47972125,-0.28286602,0.454634,0.48339681,-0.26655169,0.438774,0.4705728,-0.28194675,0.430659,0.47114412,-0.30165843,0.4416,0.49952152,-0.30984606,0.462609,0.48481481,-0.30707371,0.447745,0.46796471,-0.31601436,0.440915,0.47115714,-0.32514233,0.448703
0.43423745,-0.35698334,0.4673,0.43789864,-0.29873441,0.449499,0.41307125,-0.32706878,0.459933,0.38625213,-0.28306344,0.438472,0.35891226,-0.24819864,0.416169,0.34785691,-0.22305367,0.405266,0.42412951,-0.2388649,0.428379,0.45508324,-0.21256807,0.4319,0.47128698,-0.19896981,0.433661,0.48681968,-0.18666908,0.435262,0.44481924,-0.25395595,0.431753,0.44242314,-0.2334297,0.406651,0.45343213,-0.26800843,0.42793,0.4546827,-0.28939168,0.443689,0.46148783,-0.26985951,0.435912,0.44661528,-0.26640455,0.411835,0.44690983,-0.29038719,0.429444,0.44823831,-0.30700985,0.4462,0.48067454,-0.29550319,0.443432,0.45813816,-0.28923977,0.421344,0.46523063,-0.31153928,0.434579,0.47109833,-0.32454138,0.447484
0.42892938,-0.35500533,0.463088,0.42939767,-0.30066,0.4461,0.40600033,-0.32844798,0.454424,0.37701805,-0.28673867,0.432071,0.34783593,-0.25075065,0.410071,0.33989971,-0.2278257,0.402626,0.41418062,-0.23974646,0.42392,0.44063018,-0.21049035,0.426047,0.45432345,-0.19527584,0.42711,0.46760599,-0.18146047,0.428076,0.43640092,-0.25499024,0.429164,0.43683909,-0.23916548,0.404622,0.44727307,-0.27469652,0.425759,0.44913399,-0.29591565,0.441271,0.45089365,-0.27171597,0.434797,0.44063637,-0.27170726,0.410651,0.44086346,-0.29604945,0.42811,0.44419327,-0.30898024,0.444835,0.47503181,-0.29719042,0.44395,0.45925531,-0.29019105,0.421929,0.4663837,-0.31309425,0.435057,0.47225392,-0.32606534,0.447898
0.42644021,-0.35343472,0.461251,0.42766664,-0.2998859,0.443876,0.40474546,-0.32777899,0.452865,0.37681602,-0.28927083,0.431065,0.34147944,-0.25358105,0.407262,0.33440505,-0.23208857,0.403505,0.41026235,-0.23943825,0.42178,0.4356994,-0.20971553,0.423958,0.44721042,-0.19589503,0.425047,0.46326214,-0.18196875,0.426037,0.43002522,-0.25451449,0.426553,0.43595137,-0.22965787,0.401697,0.446891,-0.26342706,0.422829,0.45049607,-0.2862166,0.438453,0.44835653,-0.26970231,0.43183,0.44265142,-0.26277843,0.407544,0.44812904,-0.28948849,0.425007,0.44861614,-0.31250797,0.44179,0.47006821,-0.29473664,0.440616,0.45354364,-0.28651223,0.418443,0.45577381,-0.30538538,0.431569,0.46317718,-0.31839375,0.444462
0.42519601,-0.35270335,0.460382,0.42704766,-0.29984924,0.443169,0.40568904,-0.33125049,0.454064,0.37489625,-0.2994753,0.43452,0.33727784,-0.26548771,0.409242,0.3223295,-0.24208337,0.40083,0.40310185,-0.24241248,0.423744,0.42345913,-0.20998351,0.427292,0.43597003,-0.19469411,0.429066,0.44825148,-0.18096208,0.430678,0.42499034,-0.25375676,0.426009,0.42529771,-0.22514358,0.401857,0.44332924,-0.26012302,0.4235,0.45087452,-0.28601231,0.43903,0.44499036,-0.26566784,0.429209,0.43774333,-0.25647543,0.40605,0.44636109,-0.28745629,0.423963,0.44772209,-0.31134992,0.44047,0.46550554,-0.2845312,0.435507,0.45297956,-0.27505585,0.414161,0.45597904,-0.29586267,0.427646,0.45786117,-0.31252316,0.440387
0.42385004,-0.35188403,0.459188,0.42460212,-0.29995625,0.441813,0.40547553,-0.33028692,0.453449,0.37183602,-0.30230526,0.434329,0.3347418,-0.26793929,0.4099,0.3144807,-0.24708553,0.400194,0.39515363,-0.24159036,0.422995,0.41114032,-0.2077399,0.426019,0.42293014,-0.19417716,0.42753,0.43420424,-0.18108019,0.428905,0.41714804,-0.2487757,0.424491,0.41671574,-0.21804567,0.400365,0.43682541,-0.25327224,0.422025,0.44579707,-0.28081517,0.437551,0.43562696,-0.25847306,0.427071,0.4369026,-0.22572374,0.404145,0.45606351,-0.25281596,0.422083,0.46196758,-0.27887046,0.438506,0.45862834,-0.27722868,0.432656,0.446403,-0.26808608,0.411436,0.45301946,-0.29260723,0.424938,0.45452996,-0.30720252,0.437642
0.42541006,-0.35345049,0.460999,0.42381843,-0.2997678,0.441469,0.40527319,-0.33160448,0.453352,0.36871602,-0.30296617,0.432618,0.32984077,-0.27026493,0.407237,0.31219454,-0.24813751,0.398485,0.39024091,-0.23953641,0.418836,0.40734333,-0.20645824,0.423106,0.41897808,-0.19236552,0.425241,0.43006003,-0.17875636,0.427182,0.41388063,-0.24754505,0.421998,0.40368789,-0.20679642,0.395341,0.43552433,-0.22392978,0.416038,0.45214852,-0.25208854,0.432177,0.43405343,-0.25807233,0.426117,0.43197926,-0.23113002,0.40115,0.44523248,-0.25965904,0.418309,0.44995845,-0.28288805,0.435245,0.45960948,-0.27814496,0.433841,0.44515601,-0.26710984,0.410611,0.45126447,-0.29096376,0.423449,0.45329609,-0.30782618,0.436602
0.42687154,-0.35351587,0.462612,0.42186444,-0.29833842,0.441488,0.4073963,-0.32982819,0.454904,0.36807428,-0.30469028,0.434512,0.3245391,-0.27380352,0.410309,0.3081388,-0.25106213,0.399677,0.3826771,-0.23686724,0.417706,0.40214119,-0.20492095,0.421858,0.41310031,-0.19155372,0.423934,0.4235687,-0.17909087,0.425821,0.40659272,-0.24369805,0.420429,0.39966498,-0.2044012,0.392626,0.4301579,-0.21999754,0.41278,0.44615331,-0.24740786,0.429163,0.427309,-0.2533639,0.42431,0.42258684,-0.22037907,0.397972,0.43990625,-0.24527063,0.414665,0.4474206,-0.27270698,0.431969,0.45409219,-0.27263321,0.431984,0.45385004,-0.24736895,0.408751,0.46347875,-0.2657112,0.421541,0.4657448,-0.28374125,0.434676
0.42836381,-0.35350576,0.464273,0.4236863,-0.30009814,0.442799,0.40791362,-0.33071183,0.455966,0.3687057,-0.30440444,0.434635,0.32740221,-0.27393012,0.410229,0.30816255,-0.25158583,0.40002,0.38250919,-0.23774377,0.418038,0.3992269,-0.20508917,0.423397,0.41028972,-0.19277305,0.426076,0.42089074,-0.18120182,0.428512,0.40712348,-0.2446958,0.421391,0.39886314,-0.20437948,0.392956,0.42701685,-0.21743339,0.412856,0.44246026,-0.24402023,0.429388,0.42854415,-0.25450512,0.425817,0.42140118,-0.22179368,0.398941,0.43915545,-0.24718941,0.415427,0.44788067,-0.27723418,0.432865,0.45636584,-0.2740417,0.434189,0.44640666,-0.25071765,0.409573,0.45328516,-0.27255908,0.421866,0.46264873,-0.28690001,0.435296
0.42898634,-0.35336844,0.46395,0.42296079,-0.29944867,0.442444,0.40797047,-0.33105813,0.455658,0.36712085,-0.30485804,0.434451,0.32709325,-0.27418467,0.410387,0.30792338,-0.25200455,0.400183,0.38184395,-0.23780989,0.417679,0.3983952,-0.20517965,0.423307,0.40930648,-0.19262986,0.426121,0.41975287,-0.18065724,0.428679,0.40649215,-0.24460629,0.421002,0.39661816,-0.20356362,0.392541,0.42578947,-0.21696483,0.412432,0.44130581,-0.24351483,0.428971,0.42797562,-0.25429425,0.425407,0.41832086,-0.222211,0.398405,0.43784671,-0.24726133,0.414878,0.44722718,-0.27681864,0.432362,0.45593029,-0.27369812,0.433757,0.44580462,-0.25026584,0.409128,0.45269461,-0.27214318,0.421415,0.46091426,-0.28745418,0.434848
0.42446331,-0.35085333,0.458656,0.41762932,-0.29871285,0.442256,0.40461041,-0.33107483,0.45259,0.3650879,-0.305194,0.433457,0.32457098,-0.27573797,0.408807,0.30696167,-0.2523651,0.399062,0.38089178,-0.24314327,0.423691,0.39639035,-0.20756891,0.425985,0.40308406,-0.19756826,0.427133,0.4124802,-0.18696126,0.428175,0.4043307,-0.24900428,0.425906,0.39302505,-0.19995183,0.402243,0.41357158,-0.2013591,0.412229,0.43486932,-0.22517048,0.43005,0.42435996,-0.25767509,0.429002,0.41123008,-0.2135175,0.406553,0.43903873,-0.22909173,0.424685,0.45844639,-0.25825029,0.440994,0.44984917,-0.27534661,0.435058,0.45177349,-0.25414736,0.414302,0.45978263,-0.27518922,0.427971,0.46282468,-0.29150667,0.440576
0.41986079,-0.34854356,0.453497,0.4125939,-0.3006308,0.442934,0.40280407,-0.33064102,0.451069,0.3659211,-0.31275873,0.436815,0.32374974,-0.28553676,0.411127,0.30015119,-0.26243407,0.398081,0.37960797,-0.25078305,0.432808,0.3881418,-0.21378231,0.430798,0.3935784,-0.19860442,0.429792,0.39882136,-0.18411207,0.428878,0.40161729,-0.25280309,0.432403,0.39551889,-0.20711717,0.414452,0.39332926,-0.19760604,0.40398,0.40978618,-0.19921552,0.414373,0.42036813,-0.25805053,0.432889,0.41759931,-0.21781857,0.415947,0.44098476,-0.2312964,0.435435,0.45624177,-0.25899286,0.450062,0.44420435,-0.27109046,0.435001,0.45693887,-0.24697905,0.421595,0.47195833,-0.26138169,0.436917,0.47140492,-0.27782662,0.447576
0.41459223,-0.34658322,0.447725,0.4101453,-0.31498171,0.442411,0.3914022,-0.33527184,0.444938,0.35678199,-0.3224255,0.433884,0.31715594,-0.29233862,0.410725,0.29976968,-0.26694871,0.399854,0.38772499,-0.26392068,0.435379,0.38899966,-0.22420255,0.432104,0.39015747,-0.20657108,0.430466,0.39129909,-0.18997526,0.428977,0.41247602,-0.27004274,0.437114,0.4041931,-0.22071579,0.4241,0.40099597,-0.19880093,0.416509,0.41592734,-0.19221202,0.428594,0.43297572,-0.27862632,0.438954,0.42340331,-0.23133287,0.426492,0.42122074,-0.21867202,0.420116,0.43801848,-0.22276814,0.432808,0.45744104,-0.29557677,0.441909,0.4507845,-0.25356158,0.430249,0.44900039,-0.25120573,0.424891,0.4624938,-0.25745716,0.434152
