sluyters/QuantumLeap/backend/src/datasets/gesture/HandGestureDataset_SHREC2017_csv/Gesture14/finger_1/subject_28_essai_1_skeletons_world.csv
Wrist_x,Wrist_y,Wrist_z,Palm_x,Palm_y,Palm_z,thumb_base_x,thumb_base_y,thumb_base_z,thumb_first_joint_x,thumb_first_joint_y,thumb_first_joint_z,thumb_second_joint_x,thumb_second_joint_y,thumb_second_joint_z,thumb_tip_x,thumb_tip_y,thumb_tip_z,index_base_x,index_base_y,index_base_z,index_first_joint_x,index_first_joint_y,index_first_joint_z,index_second_joint_x,index_second_joint_y,index_second_joint_z,index_tip_x,index_tip_y,index_tip_z,middle_base_x,middle_base_y,middle_base_z,middle_first_joint_x,middle_first_joint_y,middle_first_joint_z,middle_second_joint_x,middle_second_joint_y,middle_second_joint_z,middle_tip_x,middle_tip_y,middle_tip_z,ring_base_x,ring_base_y,ring_base_z,ring_first_joint_x,ring_first_joint_y,ring_first_joint_z,ring_second_joint_x,ring_second_joint_y,ring_second_joint_z,ring_tip_x,ring_tip_y,ring_tip_z,pinky_base_x,pinky_base_y,pinky_base_z,pinky_first_joint_x,pinky_first_joint_y,pinky_first_joint_z,pinky_second_joint_x,pinky_second_joint_y,pinky_second_joint_z,pinky_tip_x,pinky_tip_y,pinky_tip_z,
0.388252445,-0.343651655,0.487029,0.381956303,-0.292612157,0.474958,0.364566269,-0.32783872,0.481248,0.333741735,-0.293413246,0.466139,0.307366187,-0.263491753,0.443494,0.295213044,-0.240822108,0.430548,0.349361037,-0.24274153,0.45985,0.354721124,-0.209012126,0.465744,0.355917381,-0.192385996,0.468692,0.358536691,-0.175362534,0.471371,0.376626796,-0.247327118,0.463781,0.364637498,-0.208801996,0.444931,0.356469538,-0.194931159,0.433935,0.350979349,-0.183337353,0.426081,0.400123734,-0.255680104,0.468155,0.390464073,-0.209157707,0.449406,0.383440783,-0.199862572,0.439813,0.378013481,-0.191283763,0.431093,0.429487706,-0.273915048,0.475303,0.423202795,-0.235320558,0.458747,0.417450644,-0.223175171,0.45114,0.413913421,-0.21118351,0.444429
0.393654236,-0.348532448,0.494289,0.384834615,-0.294334112,0.478203,0.3672953,-0.329952568,0.48515,0.337829462,-0.289315101,0.461393,0.312277852,-0.25503503,0.442235,0.304321121,-0.232090898,0.429243,0.347354786,-0.240913047,0.456238,0.355203171,-0.208688579,0.466891,0.358026401,-0.192787722,0.472217,0.359983929,-0.177039306,0.477059,0.376393763,-0.247103362,0.463309,0.360720974,-0.224353451,0.440633,0.350857541,-0.210544706,0.427405,0.339825171,-0.217293943,0.417957,0.402330842,-0.257171456,0.470645,0.380804729,-0.214422631,0.446702,0.372570179,-0.213670574,0.434453,0.365618735,-0.225121898,0.423316,0.43545209,-0.277981343,0.481937,0.410917846,-0.23696091,0.460818,0.40182554,-0.222973605,0.451115,0.395092702,-0.215520609,0.442553
0.39195475,-0.348003114,0.493549,0.393479377,-0.301479401,0.489507,0.369718932,-0.332661987,0.489531,0.343808418,-0.299107993,0.474595,0.32449463,-0.265581967,0.458994,0.317893192,-0.242538663,0.447607,0.366816487,-0.257220808,0.481787,0.364547382,-0.216267979,0.479411,0.363485333,-0.19781407,0.478223,0.362433386,-0.179493111,0.47802,0.393702375,-0.264605257,0.485764,0.383059081,-0.256389831,0.474319,0.373980825,-0.260727437,0.467643,0.365567712,-0.276339948,0.464136,0.415868743,-0.274720186,0.489418,0.404635271,-0.266172153,0.477083,0.398848667,-0.261715355,0.470771,0.38674784,-0.274933968,0.465034,0.44182002,-0.29409299,0.494376,0.42777198,-0.269717735,0.482676,0.423484677,-0.265130479,0.477301,0.423340726,-0.274347316,0.472558
0.37203397,-0.331590248,0.469899,0.378537824,-0.296238935,0.476387,0.354583913,-0.319991742,0.470727,0.336830521,-0.293400806,0.464733,0.324003972,-0.266345234,0.455875,0.320285546,-0.244652467,0.449469,0.36539122,-0.257034605,0.481597,0.362883664,-0.218618346,0.480013,0.361859612,-0.201582288,0.481084,0.36348185,-0.18233384,0.482057,0.389551629,-0.262604756,0.482395,0.38249666,-0.256958579,0.481447,0.378251778,-0.257942136,0.480895,0.380988051,-0.279677273,0.488603,0.408443441,-0.270638896,0.48244,0.397878796,-0.27053659,0.481061,0.393320735,-0.271047283,0.481104,0.38502744,-0.289853362,0.484008,0.428615737,-0.286338588,0.481403,0.418405669,-0.262673071,0.478726,0.416262481,-0.266400443,0.477497,0.41668806,-0.278687051,0.476787
0.382688624,-0.343053418,0.485336,0.384681827,-0.302399347,0.485392,0.365300929,-0.331176677,0.486685,0.347346834,-0.304653673,0.479475,0.332011858,-0.274875738,0.465594,0.326533879,-0.2502541,0.457704,0.369318495,-0.260871653,0.48715,0.362626854,-0.221563837,0.481354,0.359259249,-0.201566893,0.478456,0.365628572,-0.186265357,0.487283,0.391649432,-0.265109794,0.485443,0.380417729,-0.254698927,0.478647,0.373464584,-0.252433622,0.474682,0.380329651,-0.276437667,0.487822,0.409381066,-0.272378997,0.484033,0.395004415,-0.269955773,0.477804,0.38765681,-0.268584637,0.474617,0.388761774,-0.29420078,0.489271,0.429004014,-0.287809402,0.482372,0.415454914,-0.26216337,0.475461,0.411491866,-0.264732881,0.472285,0.410076774,-0.275684292,0.469565
0.384231967,-0.348069941,0.489331,0.392087237,-0.31917451,0.489241,0.370048425,-0.339959663,0.492993,0.361952129,-0.323770836,0.488801,0.344789635,-0.290383839,0.475142,0.343552526,-0.269570072,0.472132,0.380846784,-0.280267775,0.493861,0.372738757,-0.241834237,0.489799,0.367716356,-0.223998803,0.487768,0.373921292,-0.215428731,0.501121,0.400404836,-0.281764182,0.489158,0.386882591,-0.267762134,0.48279,0.3775771,-0.258439583,0.479076,0.383794602,-0.279244708,0.492073,0.415915526,-0.286795265,0.485294,0.40007934,-0.283362919,0.480361,0.391298967,-0.281576545,0.477837,0.392411808,-0.307511538,0.492597,0.433063,-0.299653938,0.480785,0.418889727,-0.270981845,0.474822,0.412392524,-0.268185733,0.472082,0.410578861,-0.276865774,0.469664
0.385596393,-0.350030787,0.491973,0.386772138,-0.306175336,0.490168,0.367750804,-0.336792835,0.492229,0.358118372,-0.318021753,0.483125,0.336391102,-0.280820861,0.467167,0.332268399,-0.257249137,0.460832,0.371618273,-0.262791657,0.48934,0.362587556,-0.225107356,0.481594,0.357861242,-0.205098377,0.477721,0.362082883,-0.189649194,0.485739,0.395211674,-0.268484124,0.488496,0.387549872,-0.260032538,0.479785,0.382439735,-0.254435203,0.474704,0.381721923,-0.275938552,0.487338,0.413162446,-0.277957686,0.487972,0.400830216,-0.280755338,0.479661,0.395592416,-0.278254376,0.475409,0.393166082,-0.304690403,0.489447,0.434408106,-0.296941136,0.487661,0.421328092,-0.280769033,0.479046,0.415059761,-0.270924242,0.475088,0.412547551,-0.27861194,0.471596
0.386182848,-0.351315737,0.493272,0.398719568,-0.309888658,0.491571,0.368658673,-0.337837849,0.493613,0.370466891,-0.317092469,0.484644,0.347809781,-0.280118305,0.467257,0.347354836,-0.260265181,0.465873,0.384482833,-0.265881085,0.490919,0.374361614,-0.227328481,0.483304,0.369246942,-0.207601651,0.479497,0.377478656,-0.191689909,0.492631,0.407392212,-0.271558206,0.489996,0.401208338,-0.256617668,0.481397,0.397110297,-0.248714748,0.476381,0.402174034,-0.267812607,0.489046,0.425606076,-0.280155117,0.489397,0.414125738,-0.279268257,0.481216,0.408006542,-0.279028918,0.477031,0.409457186,-0.304757812,0.491109,0.445770513,-0.297374056,0.488982,0.433150533,-0.281281523,0.480472,0.427192661,-0.273529483,0.476562,0.424787486,-0.277854348,0.473112
0.386686498,-0.352213229,0.494401,0.399077178,-0.310210532,0.49202,0.369309885,-0.338345408,0.494603,0.371151094,-0.317632209,0.485281,0.349003827,-0.280984084,0.468509,0.348469565,-0.260963617,0.466943,0.384281657,-0.265780818,0.490756,0.37383484,-0.226957093,0.482584,0.36856142,-0.207119969,0.478498,0.373911612,-0.194105884,0.488065,0.407203391,-0.271453716,0.489816,0.401198288,-0.255062148,0.480576,0.396920368,-0.247146166,0.475185,0.401854307,-0.266516134,0.487663,0.425475256,-0.280082577,0.489267,0.413755226,-0.278914238,0.480479,0.407532823,-0.278530946,0.475983,0.408907226,-0.304137165,0.489862,0.445810668,-0.297407147,0.489023,0.432953621,-0.281067086,0.480004,0.426895996,-0.273209175,0.475859,0.42456687,-0.278451184,0.472203
0.389446177,-0.356681118,0.498913,0.395816973,-0.314105622,0.493114,0.372489939,-0.3427041,0.498597,0.3654558,-0.330528906,0.487757,0.337158684,-0.295276765,0.469733,0.332125466,-0.27552746,0.465693,0.37192961,-0.271555023,0.488999,0.358989345,-0.232852374,0.478178,0.352354899,-0.213534413,0.472767,0.357003038,-0.204335533,0.482886,0.395391514,-0.272297148,0.487744,0.381809142,-0.256468503,0.475344,0.371765472,-0.249153245,0.468111,0.376155473,-0.270838607,0.479598,0.414074664,-0.279873322,0.487257,0.4040992,-0.263896191,0.475547,0.391728856,-0.27311076,0.469557,0.397963313,-0.299127462,0.482405,0.435847834,-0.296419846,0.487661,0.418672711,-0.285587471,0.476181,0.409855991,-0.280749249,0.470906,0.408279565,-0.289463284,0.466252
0.388170856,-0.357353261,0.49857,0.388638495,-0.311582179,0.491217,0.370945424,-0.343243398,0.498801,0.363005226,-0.330562677,0.488307,0.331189617,-0.295477535,0.472496,0.325765498,-0.275810689,0.469617,0.36456993,-0.269118654,0.486808,0.344942043,-0.229216021,0.475372,0.335006694,-0.209592627,0.469653,0.335228833,-0.197078588,0.477712,0.386796902,-0.270997542,0.484409,0.373121471,-0.251204704,0.470765,0.363176871,-0.245380995,0.462806,0.369775203,-0.267177186,0.473806,0.40659079,-0.275222543,0.483127,0.394482338,-0.258857228,0.470569,0.382438857,-0.271913639,0.464144,0.385376986,-0.295901343,0.47657,0.428664222,-0.290715711,0.482861,0.40773995,-0.281949139,0.470619,0.398485779,-0.277533391,0.465233,0.399451535,-0.286292147,0.460481
0.388471529,-0.359525909,0.499654,0.391010536,-0.315961575,0.492627,0.371390371,-0.345578596,0.500063,0.363311785,-0.331944783,0.489874,0.332182089,-0.296561859,0.473512,0.328926276,-0.276587684,0.469437,0.368019376,-0.271381111,0.488651,0.347040253,-0.230986743,0.477556,0.33736152,-0.211131588,0.472009,0.337603577,-0.198312568,0.479863,0.390146154,-0.273219581,0.486119,0.373739081,-0.254555262,0.4728,0.365096145,-0.248074357,0.465031,0.372070067,-0.268346043,0.47613,0.408603331,-0.279048934,0.484697,0.398912937,-0.261389788,0.472488,0.38393268,-0.27299601,0.466242,0.388742939,-0.297061426,0.478786,0.430643428,-0.293370991,0.484212,0.409925641,-0.290222719,0.472255,0.400980257,-0.288208436,0.466873,0.398828148,-0.298419968,0.462125
0.377537259,-0.350456665,0.485415,0.383696704,-0.310562968,0.483903,0.361703813,-0.33780495,0.486897,0.35515796,-0.32503586,0.479446,0.330151176,-0.294814407,0.470485,0.32997535,-0.277939311,0.471843,0.36474367,-0.26956929,0.484827,0.347653438,-0.231519256,0.478166,0.339604921,-0.212557319,0.474835,0.337630375,-0.198275193,0.479497,0.386836814,-0.271491622,0.482502,0.37473803,-0.256140775,0.474319,0.368362932,-0.250526908,0.469545,0.376453353,-0.271786045,0.482264,0.404845696,-0.277063929,0.480731,0.398594682,-0.261276988,0.47336,0.386548062,-0.274867881,0.46959,0.392389769,-0.30047334,0.483848,0.425662917,-0.290416097,0.478911,0.408844959,-0.289457608,0.47101,0.402031506,-0.288964031,0.468097,0.402321697,-0.301033988,0.466173
0.399938548,-0.372108295,0.510083,0.407762016,-0.332842054,0.499098,0.379264645,-0.358886352,0.507641,0.370279909,-0.33999722,0.492912,0.352500835,-0.310866499,0.487,0.344516838,-0.286434141,0.481318,0.387177963,-0.281808462,0.48895,0.369418541,-0.279211432,0.473244,0.360337951,-0.278154999,0.46539,0.368639929,-0.302375274,0.475612,0.41047896,-0.288595812,0.488927,0.39348342,-0.26383975,0.471555,0.382926654,-0.251088698,0.461422,0.387864934,-0.2599298,0.471201,0.429875792,-0.298765735,0.489942,0.411917253,-0.285630786,0.47313,0.393362851,-0.295989849,0.464528,0.39429705,-0.318388551,0.475434,0.452896726,-0.319153934,0.492976,0.429780682,-0.306745586,0.477313,0.419023562,-0.303526711,0.470116,0.423707234,-0.321253583,0.477532
0.389269019,-0.362177492,0.497713,0.392320681,-0.311324522,0.48631,0.372561417,-0.348134732,0.498111,0.368408654,-0.320825535,0.494724,0.354197432,-0.289961892,0.479896,0.351061251,-0.267780118,0.473698,0.379109897,-0.265177167,0.479523,0.362117566,-0.225473053,0.465632,0.353568906,-0.205339533,0.458687,0.35404629,-0.191335454,0.463209,0.398501016,-0.271799645,0.475752,0.38689961,-0.241788132,0.458659,0.373414102,-0.235784678,0.448688,0.37351933,-0.254139639,0.458286,0.41427268,-0.281670713,0.473722,0.394542906,-0.268627396,0.458282,0.381446356,-0.285849464,0.450383,0.38509047,-0.308715049,0.461423,0.43230766,-0.301236943,0.473261,0.398128512,-0.297024282,0.458567,0.39660257,-0.314057593,0.472686,0.394308915,-0.327911496,0.483331
0.392784833,-0.364440205,0.499817,0.406521224,-0.321960729,0.487365,0.381192106,-0.350792989,0.502658,0.379700382,-0.328656872,0.499631,0.360972533,-0.297853763,0.484263,0.354921477,-0.274466699,0.475493,0.397255664,-0.273306565,0.483026,0.381033012,-0.232641615,0.470427,0.372890579,-0.212133145,0.464127,0.375403599,-0.198637029,0.47086,0.412081567,-0.279221345,0.475835,0.392235814,-0.252063753,0.458567,0.372820948,-0.24782899,0.448494,0.368834614,-0.266772557,0.45737,0.423990009,-0.288544036,0.471089,0.399335529,-0.27244012,0.456499,0.382534364,-0.287124355,0.449035,0.388205254,-0.309601441,0.459588,0.437312985,-0.307557338,0.467623,0.399186492,-0.299717425,0.453523,0.39757188,-0.315681292,0.466961,0.392413172,-0.326242634,0.477134
0.394580726,-0.365530561,0.501584,0.397851428,-0.314504787,0.482685,0.379717711,-0.351776001,0.503506,0.379423733,-0.321156835,0.498196,0.35968131,-0.287894153,0.481614,0.353728354,-0.263551609,0.471514,0.386253785,-0.26121972,0.473047,0.371060484,-0.215977938,0.455909,0.363481742,-0.193891122,0.44734,0.369044642,-0.180207621,0.454886,0.400416046,-0.266887206,0.465184,0.375557274,-0.233999795,0.44241,0.356078907,-0.235298898,0.429126,0.351315253,-0.253088951,0.435326,0.412205226,-0.276214702,0.460492,0.383114887,-0.260240301,0.440864,0.366699826,-0.274018789,0.430821,0.368691806,-0.294705697,0.438543,0.426311606,-0.295680036,0.458174,0.38501563,-0.287416458,0.439922,0.382335746,-0.302582594,0.451807,0.381147669,-0.316439796,0.462838
0.396843642,-0.368483181,0.504337,0.396285788,-0.314040764,0.483869,0.381661458,-0.354018456,0.505643,0.376289726,-0.327171283,0.500275,0.358981589,-0.294181318,0.483792,0.353869971,-0.273804421,0.473797,0.375372366,-0.262517235,0.47244,0.358345307,-0.217885544,0.453901,0.348966949,-0.19556144,0.444632,0.34929879,-0.180688498,0.451603,0.391075076,-0.266817585,0.464916,0.370053832,-0.233904329,0.440706,0.346250044,-0.234634345,0.426583,0.346897834,-0.25208523,0.432154,0.404424116,-0.275141524,0.460651,0.376356934,-0.257610442,0.43789,0.361455403,-0.270622053,0.426245,0.363581191,-0.291146812,0.432753,0.423044168,-0.294523198,0.459096,0.383148313,-0.286164359,0.439655,0.38128173,-0.302554217,0.4512,0.380459396,-0.316914704,0.462518
0.394531818,-0.366476073,0.504459,0.381830917,-0.30073448,0.480826,0.37269023,-0.349350827,0.501022,0.364634219,-0.309739482,0.493368,0.353297358,-0.276619097,0.475167,0.354196215,-0.254854928,0.46782,0.353962634,-0.24515774,0.461312,0.329652582,-0.201636293,0.437215,0.317546821,-0.180133821,0.425167,0.318714781,-0.167115573,0.43062,0.375051986,-0.250711834,0.458942,0.35039642,-0.22904804,0.430868,0.330073149,-0.232179443,0.414492,0.33008734,-0.248587344,0.419163,0.393372129,-0.26031343,0.459217,0.36428329,-0.252890797,0.432914,0.342961737,-0.261383824,0.419457,0.33859168,-0.279507484,0.425055,0.41676152,-0.280866689,0.463509,0.384815108,-0.268500613,0.439966,0.381334539,-0.28313959,0.451383,0.391361424,-0.293130192,0.464096
0.390972161,-0.363314494,0.499938,0.378280143,-0.305211174,0.479297,0.37253412,-0.348358869,0.500721,0.366919806,-0.314885698,0.499849,0.35457074,-0.284140583,0.486245,0.358611748,-0.261357873,0.478556,0.351215047,-0.252069981,0.467089,0.328788335,-0.206569551,0.448015,0.317753227,-0.18459827,0.438477,0.319000975,-0.171079384,0.445407,0.368899301,-0.253326141,0.460184,0.343195262,-0.229657959,0.435661,0.323139804,-0.235702257,0.421357,0.323036206,-0.255504426,0.426957,0.384325797,-0.259253789,0.456444,0.355789064,-0.253364638,0.434866,0.338744396,-0.264476819,0.423826,0.340316807,-0.283807467,0.43082,0.404266491,-0.275163467,0.455532,0.37260511,-0.265054021,0.43571,0.370565217,-0.280873052,0.44735,0.383962958,-0.290192964,0.458839
0.394730656,-0.367842415,0.504356,0.381498505,-0.310423004,0.485279,0.372418849,-0.348751082,0.501092,0.358710952,-0.319291924,0.494649,0.351506719,-0.291073397,0.48938,0.35749428,-0.26869782,0.487693,0.345650556,-0.258600329,0.468904,0.338272115,-0.224532512,0.474007,0.333965563,-0.207272781,0.476558,0.329941174,-0.19125091,0.478878,0.368441336,-0.260601107,0.467615,0.342448728,-0.237473294,0.443242,0.324329025,-0.243742318,0.429024,0.328054474,-0.262974952,0.435748,0.391536206,-0.266642384,0.468351,0.362383934,-0.259982243,0.445246,0.345468835,-0.271493624,0.433424,0.347400496,-0.291748332,0.441148,0.417265963,-0.284866974,0.472418,0.384800958,-0.274574997,0.451513,0.383627871,-0.292058736,0.464236,0.394485841,-0.302611784,0.476526
0.395400298,-0.36904075,0.505038,0.383547637,-0.316798462,0.487064,0.376211417,-0.354864271,0.502314,0.365893111,-0.33466979,0.496812,0.353166914,-0.302275359,0.490354,0.352856205,-0.281431445,0.489232,0.350116489,-0.269401318,0.472083,0.336988188,-0.235684674,0.473361,0.330176375,-0.218295607,0.474,0.323831651,-0.202162492,0.474581,0.372291777,-0.270808587,0.470421,0.343949944,-0.246189531,0.447073,0.328913212,-0.243264345,0.433454,0.331063724,-0.26198793,0.440633,0.392102764,-0.276942635,0.470745,0.365329403,-0.262654215,0.448726,0.348928514,-0.275037,0.437461,0.353533785,-0.29262142,0.445709,0.418147173,-0.293350009,0.474144,0.395488062,-0.278321992,0.454114,0.393215871,-0.295712878,0.467087,0.397483685,-0.306588353,0.479166
0.398400854,-0.372149903,0.508442,0.384739729,-0.319813664,0.486828,0.37944098,-0.354319652,0.503734,0.366259939,-0.332259472,0.495031,0.353653717,-0.30305958,0.489149,0.34915005,-0.279494586,0.483438,0.352193099,-0.265014627,0.466985,0.358362517,-0.225664673,0.462331,0.350065642,-0.226506348,0.460005,0.342886718,-0.240854636,0.460121,0.372455926,-0.268710926,0.466815,0.346870175,-0.245581948,0.440073,0.326846238,-0.238398122,0.424473,0.323132974,-0.25755382,0.430082,0.393409404,-0.27632716,0.468711,0.367284414,-0.263387659,0.443022,0.349236223,-0.275217981,0.429879,0.350279834,-0.28620754,0.4363,0.42128359,-0.294909087,0.474562,0.385104793,-0.288125287,0.451598,0.380883092,-0.305132342,0.463674,0.387188771,-0.321593163,0.476439
0.393730544,-0.366402016,0.502181,0.392012838,-0.312136597,0.481689,0.374276921,-0.348017113,0.497923,0.378965371,-0.329631211,0.491307,0.354609798,-0.293248382,0.47942,0.348148284,-0.272902412,0.472291,0.35933342,-0.256333844,0.463137,0.346892941,-0.21688679,0.4511,0.340479748,-0.197157121,0.445081,0.33463984,-0.178947805,0.439636,0.382921751,-0.261327856,0.462714,0.35671636,-0.242182287,0.436973,0.338131379,-0.238202473,0.421957,0.338271957,-0.258791483,0.428067,0.403614912,-0.270461745,0.464296,0.37734807,-0.262170656,0.439634,0.35968604,-0.273935896,0.427016,0.364188206,-0.290442729,0.434,0.430107092,-0.290378174,0.469591,0.396794512,-0.285071398,0.447453,0.394112486,-0.302968867,0.45983,0.396674628,-0.317882363,0.472421
0.394437874,-0.366442025,0.5021,0.393991301,-0.311681727,0.48142,0.374420035,-0.348049291,0.497508,0.378396811,-0.328780995,0.490203,0.354257539,-0.293749446,0.477393,0.348299094,-0.272671576,0.47089,0.359385316,-0.255807938,0.462321,0.347775884,-0.216725812,0.450982,0.341777324,-0.197138637,0.445313,0.336305544,-0.179029732,0.440174,0.383203816,-0.261181148,0.462271,0.356898503,-0.241853304,0.43631,0.33867034,-0.238372304,0.421166,0.342302553,-0.260708437,0.427184,0.404100097,-0.270641116,0.464178,0.377387548,-0.262895307,0.439197,0.359145324,-0.27424874,0.426415,0.36314511,-0.289267302,0.433268,0.430834257,-0.29097365,0.469884,0.397260772,-0.285381207,0.447502,0.394468951,-0.303148105,0.459828,0.397021238,-0.318054719,0.472485
0.392447981,-0.36412917,0.500281,0.390671015,-0.308605441,0.480467,0.373085496,-0.345373591,0.49643,0.377101715,-0.327357319,0.489589,0.352399731,-0.291712993,0.474878,0.348043675,-0.27008209,0.46862,0.360822047,-0.254728417,0.46287,0.370694703,-0.214740184,0.463819,0.374794173,-0.195855488,0.464433,0.379556367,-0.182169091,0.467035,0.383942085,-0.260312857,0.462119,0.360982996,-0.237088777,0.437016,0.344798863,-0.231936184,0.422373,0.345460678,-0.252222332,0.428781,0.404035676,-0.269863932,0.463368,0.377749282,-0.265568804,0.439409,0.359020575,-0.276623905,0.427152,0.363701698,-0.289943796,0.434487,0.42943245,-0.290123677,0.468159,0.395941104,-0.28522449,0.44658,0.393435765,-0.303242674,0.45913,0.394284478,-0.319304919,0.471591
0.391577409,-0.363464051,0.499372,0.389791079,-0.308314439,0.480252,0.371219247,-0.346217168,0.495423,0.375505634,-0.327115382,0.488861,0.348776479,-0.29244367,0.474486,0.344307954,-0.270448083,0.468482,0.358964619,-0.255552793,0.462972,0.35812717,-0.215695958,0.46099,0.357804259,-0.196743303,0.46,0.357520557,-0.179071703,0.459099,0.383356625,-0.260287565,0.462546,0.356204125,-0.237718391,0.437993,0.33804414,-0.234763678,0.42367,0.343678962,-0.252899926,0.430365,0.403686293,-0.269851805,0.463998,0.377391349,-0.266265659,0.440465,0.359222513,-0.277685239,0.428425,0.36205927,-0.290076599,0.436043,0.427773332,-0.288897812,0.468909,0.393140318,-0.28651732,0.447692,0.39237761,-0.304804218,0.460416,0.394388762,-0.321110216,0.472817
0.391442799,-0.363223993,0.499806,0.386026982,-0.305954226,0.480015,0.369995511,-0.345406434,0.494811,0.357344846,-0.306576319,0.48545,0.35191313,-0.278825328,0.477744,0.351729598,-0.256412136,0.470228,0.356842699,-0.25086879,0.460971,0.344482356,-0.210227946,0.455207,0.339217741,-0.191047769,0.452325,0.334376134,-0.173289654,0.449705,0.381346251,-0.258046226,0.461689,0.356438122,-0.234877104,0.436382,0.341009423,-0.230287642,0.42162,0.342273667,-0.250493298,0.427989,0.402334509,-0.268383216,0.464145,0.375979431,-0.266057464,0.439559,0.357551379,-0.27715042,0.42698,0.361189263,-0.288927812,0.434144,0.42882704,-0.289685084,0.470346,0.394301198,-0.286018391,0.44832,0.393096159,-0.30488817,0.460858,0.396431043,-0.320829171,0.473472
0.38994962,-0.362745947,0.498272,0.3741683,-0.304655918,0.47938,0.366408364,-0.345225813,0.493189,0.350749994,-0.312925178,0.485857,0.341539333,-0.283668715,0.478888,0.34026838,-0.261038651,0.47301,0.337718417,-0.251390973,0.460799,0.329612428,-0.214707816,0.462214,0.325507584,-0.196227242,0.463112,0.32269214,-0.183441963,0.46686,0.363432963,-0.256558701,0.461887,0.344648837,-0.230170999,0.437309,0.332145201,-0.223270275,0.422972,0.333277921,-0.243045332,0.429699,0.385248029,-0.264657999,0.464563,0.361412688,-0.266803317,0.440562,0.347281806,-0.276730813,0.428282,0.351072129,-0.287677852,0.435799,0.414902614,-0.283723167,0.470869,0.382246971,-0.284275015,0.449339,0.381028906,-0.304022901,0.462084,0.388552466,-0.321775729,0.474602
0.390375365,-0.363300124,0.498515,0.371684855,-0.305334644,0.478732,0.368744543,-0.346408466,0.493934,0.350099632,-0.314295706,0.486046,0.333243307,-0.287406863,0.477614,0.328622233,-0.264390738,0.470454,0.331628002,-0.254583003,0.460222,0.324797585,-0.222293574,0.467642,0.320388463,-0.205848274,0.471351,0.316259884,-0.190582829,0.474724,0.358923243,-0.255329431,0.460414,0.334181299,-0.232480474,0.435191,0.316920951,-0.225726743,0.420477,0.318602895,-0.245682318,0.426874,0.380616395,-0.262386413,0.462436,0.352816769,-0.265372935,0.438085,0.342931258,-0.277512597,0.425626,0.348613168,-0.286311581,0.432866,0.408876548,-0.27983748,0.468126,0.376440408,-0.279281187,0.446268,0.378009171,-0.301831908,0.458822,0.382995698,-0.320000376,0.471383
0.393329767,-0.366471859,0.501922,0.377254149,-0.314491233,0.478672,0.371431974,-0.34944176,0.497213,0.351648306,-0.325345562,0.487076,0.33453288,-0.295496073,0.477019,0.328978333,-0.272648234,0.46896,0.33688436,-0.260854264,0.457779,0.332644177,-0.230273681,0.466336,0.328924135,-0.214370133,0.470614,0.325235135,-0.199437418,0.474503,0.360386663,-0.263370299,0.457143,0.333501979,-0.237665023,0.429086,0.316054807,-0.230507514,0.412719,0.316133341,-0.24935508,0.417589,0.381686409,-0.270631962,0.458809,0.351459887,-0.274789387,0.432009,0.337909412,-0.284613453,0.418297,0.343907804,-0.292678157,0.423959,0.410156308,-0.288698996,0.464666,0.373005596,-0.28881038,0.440781,0.374546498,-0.310825992,0.452384,0.380612728,-0.33081179,0.465289
0.391237572,-0.364506769,0.499605,0.375455226,-0.313034399,0.477332,0.370770838,-0.348670972,0.496599,0.357722244,-0.329743726,0.493679,0.336454068,-0.29556633,0.476631,0.335133445,-0.271825801,0.467839,0.3393096,-0.259730994,0.459242,0.329733467,-0.22578452,0.46072,0.323809605,-0.209025161,0.461458,0.317807931,-0.194141491,0.46213,0.359713838,-0.261505797,0.456708,0.330081265,-0.217452152,0.429815,0.311980755,-0.225516499,0.414127,0.317355271,-0.244247137,0.419426,0.379159364,-0.268740118,0.456722,0.346749922,-0.263800763,0.431588,0.336247966,-0.278674857,0.418728,0.345701224,-0.292806741,0.425021,0.40503995,-0.285707614,0.460478,0.361356054,-0.279325608,0.437876,0.357203158,-0.296093204,0.449689,0.363527363,-0.310200114,0.462224
0.392402877,-0.364671345,0.500771,0.378671938,-0.311156979,0.478096,0.372592712,-0.349241239,0.498482,0.369886358,-0.334661764,0.495288,0.350111602,-0.308008156,0.478871,0.341277852,-0.285480596,0.469935,0.348236981,-0.259565886,0.460664,0.346844483,-0.223984405,0.460885,0.345452629,-0.205852294,0.460996,0.343947972,-0.188990194,0.461097,0.366824226,-0.263073272,0.4571,0.342470909,-0.220187378,0.430072,0.318811577,-0.227929811,0.414305,0.318850566,-0.245029623,0.419364,0.381838616,-0.270085038,0.456303,0.346239879,-0.263348802,0.431347,0.336523072,-0.274740405,0.418579,0.349707814,-0.28298532,0.424701,0.406421295,-0.287435897,0.459178,0.361807424,-0.28686142,0.436689,0.360612052,-0.301752253,0.448291,0.361173828,-0.316447159,0.460705
0.394309687,-0.366365633,0.503553,0.387021582,-0.308362523,0.479559,0.380794033,-0.349077434,0.50303,0.375794963,-0.328523313,0.49843,0.358544418,-0.305034525,0.483109,0.347857246,-0.285735805,0.473484,0.364851794,-0.255765204,0.463537,0.368660556,-0.21681644,0.46247,0.368340398,-0.200927004,0.461937,0.368672843,-0.183670807,0.461452,0.378149155,-0.258819028,0.457341,0.35444961,-0.217601435,0.429815,0.325474839,-0.222777506,0.413759,0.321900888,-0.24224653,0.417894,0.391107204,-0.271126314,0.454501,0.345672845,-0.260324699,0.429858,0.334979427,-0.272053622,0.41725,0.347090254,-0.281692853,0.422596,0.406211386,-0.289504153,0.455206,0.358382053,-0.283922401,0.432915,0.356677096,-0.297194101,0.443687,0.357541596,-0.309051289,0.45571
0.394566528,-0.366700832,0.504326,0.387894471,-0.309922507,0.480363,0.377907264,-0.351541275,0.503344,0.373519953,-0.332463639,0.497614,0.352418678,-0.309442974,0.48062,0.345325367,-0.285162358,0.470403,0.366290947,-0.256857953,0.463775,0.374574557,-0.222530323,0.46435,0.378220157,-0.204192473,0.464638,0.38161229,-0.187100453,0.4649,0.380691727,-0.263168684,0.458173,0.350985487,-0.224599942,0.430525,0.324426202,-0.231069875,0.414396,0.322618734,-0.247029751,0.418633,0.393942979,-0.273466688,0.45582,0.355568391,-0.249923296,0.430882,0.339956403,-0.262274185,0.418124,0.349545461,-0.281607217,0.42353,0.413381824,-0.296574313,0.457091,0.36404313,-0.286225091,0.434571,0.358841844,-0.299463291,0.445472,0.359442798,-0.312885269,0.457625
0.397842908,-0.369475902,0.507841,0.391177433,-0.31134414,0.482044,0.385122924,-0.350981698,0.50676,0.373001727,-0.334885878,0.498158,0.350845188,-0.310292441,0.480181,0.339923934,-0.287179725,0.468558,0.366644706,-0.257156563,0.464158,0.369593579,-0.220800195,0.462532,0.368337023,-0.201643462,0.461718,0.368507125,-0.184289202,0.460979,0.381074967,-0.26288294,0.458158,0.347403008,-0.225074597,0.429101,0.320970825,-0.231838642,0.412151,0.321821814,-0.248847545,0.415404,0.394521583,-0.272789139,0.455649,0.354591642,-0.246626296,0.429494,0.338870452,-0.2586325,0.416112,0.34831291,-0.273267243,0.420485,0.412945179,-0.293940214,0.457044,0.365491465,-0.285797538,0.433542,0.359186348,-0.299705195,0.443732,0.359213102,-0.312519123,0.455955
0.40914933,-0.373341477,0.512735,0.395833972,-0.316358443,0.484881,0.392642342,-0.357065455,0.510665,0.376852059,-0.343542094,0.499579,0.352493176,-0.321894719,0.481019,0.337796512,-0.298954732,0.468227,0.3590388,-0.267066226,0.464414,0.356017238,-0.231655248,0.46365,0.354435457,-0.213251966,0.463268,0.352749024,-0.196205197,0.46292,0.376356705,-0.26717737,0.459089,0.337829729,-0.231392862,0.428204,0.314647027,-0.239130449,0.410188,0.317814877,-0.252394362,0.412439,0.395302154,-0.27351157,0.45733,0.3530639,-0.243115589,0.429239,0.338179312,-0.254510954,0.414867,0.346594913,-0.270709888,0.418096,0.418004626,-0.29153136,0.459949,0.368569534,-0.285687726,0.43491,0.364999437,-0.301330312,0.444454,0.368719896,-0.319957702,0.456967
0.415265449,-0.381092085,0.506159,0.395109866,-0.327831723,0.481262,0.397162767,-0.367448068,0.505888,0.37503416,-0.351551701,0.496289,0.350659016,-0.330083979,0.477778,0.338208643,-0.30919224,0.467836,0.360643121,-0.27651037,0.464985,0.356432898,-0.240660163,0.462482,0.353250712,-0.222824067,0.461231,0.34960772,-0.206696575,0.460093,0.376402277,-0.276181453,0.458208,0.336159929,-0.242798565,0.430091,0.312134665,-0.2242847,0.413689,0.307194949,-0.234646756,0.417273,0.391714957,-0.281168441,0.454975,0.353570414,-0.250978057,0.429944,0.339108201,-0.26317706,0.417138,0.347079855,-0.279645594,0.421937,0.412864445,-0.296092543,0.455372,0.368017641,-0.294109933,0.432763,0.366717119,-0.311331289,0.443097,0.370111086,-0.326130306,0.455062
0.40522821,-0.375043177,0.51018,0.39075018,-0.314150593,0.482185,0.387204714,-0.35840321,0.506895,0.372321911,-0.33236587,0.497183,0.353670549,-0.307262058,0.480026,0.345984971,-0.285392331,0.470647,0.351620966,-0.261668246,0.460076,0.334824925,-0.230780497,0.460972,0.325083365,-0.212564025,0.46142,0.31766298,-0.198373002,0.461827,0.370103156,-0.263258255,0.456262,0.328802068,-0.235165795,0.424907,0.305961039,-0.219559055,0.406617,0.302390689,-0.232852279,0.408973,0.390723127,-0.27035192,0.45576,0.350065589,-0.249653175,0.426773,0.334599878,-0.260446575,0.411942,0.340281947,-0.275560417,0.415154,0.415864364,-0.286763978,0.459875,0.378278233,-0.269675667,0.434143,0.375131961,-0.285828897,0.443886,0.375691737,-0.30302292,0.45672
0.405538215,-0.375204099,0.509103,0.387968051,-0.314021846,0.481687,0.386557453,-0.358432573,0.506177,0.361976892,-0.33257058,0.495635,0.346977447,-0.310063446,0.477624,0.338750707,-0.290167084,0.468246,0.349715656,-0.261225326,0.460406,0.334666604,-0.232079519,0.462193,0.32633803,-0.216358045,0.463086,0.318563408,-0.200281162,0.463898,0.368016033,-0.262568663,0.4563,0.327703541,-0.236218157,0.425475,0.303554349,-0.220805029,0.407494,0.300550122,-0.233279474,0.410136,0.385476251,-0.269046875,0.455503,0.346887526,-0.248844681,0.427105,0.329763772,-0.256911683,0.412576,0.340972232,-0.274933318,0.416124,0.40904584,-0.286303028,0.459176,0.376182971,-0.270535829,0.433907,0.373176845,-0.286753254,0.443835,0.373629914,-0.30384484,0.456577
0.404008945,-0.373650878,0.506222,0.398156051,-0.327435535,0.487681,0.390145676,-0.362078983,0.509254,0.380420808,-0.350086396,0.50597,0.358410834,-0.3217719,0.499923,0.351827426,-0.299856452,0.498069,0.372063221,-0.277237663,0.479689,0.339455279,-0.268671331,0.463709,0.324800329,-0.280739014,0.45572,0.332022008,-0.30099156,0.46338,0.386522693,-0.281827815,0.470511,0.357085625,-0.24805763,0.44842,0.337148692,-0.233217865,0.435533,0.326911854,-0.248807658,0.441612,0.399305583,-0.286684115,0.464704,0.364304614,-0.260379343,0.446118,0.35254103,-0.27496239,0.436609,0.364102489,-0.294627156,0.44431,0.416803553,-0.300628405,0.461018,0.371376739,-0.296722787,0.443602,0.375590282,-0.317366886,0.455218,0.37706167,-0.330473633,0.465851
0.408259465,-0.3770256,0.510545,0.392071288,-0.321060295,0.484465,0.391999075,-0.360889249,0.511601,0.378721827,-0.349030852,0.503285,0.353204912,-0.315218766,0.48802,0.339483373,-0.2889926,0.479347,0.364035002,-0.270065714,0.469125,0.343495815,-0.226578906,0.447412,0.332278935,-0.205178299,0.436556,0.33077698,-0.190797213,0.43819,0.378861481,-0.274912437,0.460315,0.350542829,-0.234737107,0.431834,0.328906138,-0.223323719,0.41522,0.32377197,-0.238564566,0.417722,0.392214037,-0.280919141,0.45552,0.357359305,-0.252135379,0.430756,0.342683575,-0.266169043,0.418086,0.348339086,-0.2804865,0.42188,0.41105538,-0.296836957,0.454286,0.367705272,-0.294485063,0.43189,0.366726159,-0.309400178,0.44119,0.368214537,-0.323221029,0.452678
0.404484449,-0.373898502,0.505383,0.392715863,-0.322284572,0.481124,0.390631245,-0.359936685,0.507588,0.381001717,-0.343839057,0.50146,0.362149039,-0.307344109,0.48746,0.354820491,-0.281308329,0.479934,0.377683245,-0.267961102,0.468417,0.360300452,-0.223647773,0.448659,0.351261035,-0.201944409,0.43878,0.353000234,-0.187596768,0.442266,0.389749956,-0.272462074,0.458661,0.362175736,-0.231661359,0.431956,0.34009063,-0.217909783,0.416378,0.333159941,-0.2315515,0.419585,0.40049181,-0.281121792,0.452914,0.366805202,-0.251196517,0.430121,0.350581831,-0.263482095,0.41846,0.35125783,-0.281708427,0.423098,0.41461683,-0.300332369,0.450262,0.366736988,-0.292814949,0.429446,0.367847746,-0.306833334,0.439094,0.368616165,-0.319750012,0.450161
0.411340553,-0.381293164,0.513773,0.395236741,-0.324008281,0.483525,0.393972599,-0.363911505,0.511681,0.380464139,-0.343150994,0.499993,0.358373872,-0.307688728,0.484254,0.3506589,-0.278995971,0.474944,0.372766941,-0.264801535,0.461499,0.369079564,-0.227781876,0.458306,0.366076513,-0.209293034,0.45671,0.362799812,-0.192398258,0.455259,0.387522876,-0.271901826,0.455516,0.350742046,-0.236720891,0.422935,0.323930257,-0.22550597,0.403929,0.314197899,-0.234841241,0.404675,0.401174159,-0.283155063,0.453441,0.360060602,-0.255940391,0.423942,0.341221415,-0.266175312,0.408849,0.342907756,-0.279656125,0.410497,0.419821918,-0.306337337,0.456093,0.368124864,-0.295039033,0.429942,0.367272649,-0.307836723,0.438293,0.36860717,-0.322393317,0.450735
0.40944145,-0.380942295,0.51135,0.394594708,-0.323976099,0.482858,0.392615928,-0.364072466,0.509915,0.377761167,-0.346212715,0.499934,0.355806165,-0.311252321,0.484935,0.350557292,-0.281965899,0.476753,0.368987484,-0.269061763,0.462795,0.366275919,-0.232176841,0.46257,0.363059787,-0.214173013,0.462457,0.355723904,-0.197015137,0.462355,0.386259024,-0.274514332,0.456476,0.351652851,-0.236124456,0.425347,0.324350212,-0.21944995,0.407188,0.31750857,-0.232673713,0.408913,0.400199714,-0.284199477,0.453958,0.359546599,-0.257262282,0.425934,0.341926675,-0.268104919,0.411596,0.345603931,-0.28329844,0.414338,0.418313167,-0.306646142,0.455796,0.367716224,-0.297254243,0.430806,0.366646154,-0.310493249,0.439862,0.37048869,-0.325234206,0.452168
0.412677091,-0.383952377,0.514419,0.396278429,-0.325250546,0.484848,0.397870336,-0.368847798,0.515617,0.38257875,-0.350878361,0.506958,0.359711871,-0.325782883,0.495998,0.344830829,-0.295621446,0.486013,0.363973232,-0.270274966,0.467456,0.348183691,-0.235249665,0.461443,0.338787982,-0.216834899,0.458437,0.330154125,-0.199876031,0.455704,0.37660876,-0.274251948,0.457466,0.334762292,-0.240810783,0.4267,0.305565076,-0.233086307,0.408753,0.294814501,-0.246573054,0.408782,0.3877265,-0.281632931,0.452027,0.338419866,-0.254177658,0.42546,0.320924248,-0.265197459,0.411867,0.328128243,-0.280001172,0.41307,0.402430895,-0.303422032,0.450628,0.351496598,-0.300082397,0.426844,0.353654609,-0.314166577,0.43407,0.359477159,-0.330041989,0.445243
0.412960437,-0.384013862,0.514816,0.393103521,-0.320500498,0.485031,0.397024267,-0.367875467,0.514515,0.376252917,-0.348561612,0.504189,0.342880752,-0.319738718,0.49081,0.3254435,-0.295192056,0.480562,0.354261034,-0.265579648,0.465588,0.338154587,-0.234055476,0.466481,0.329755711,-0.217707063,0.466927,0.32192713,-0.202477272,0.467333,0.368980333,-0.263506502,0.45745,0.320609332,-0.238538681,0.425867,0.292291763,-0.23321645,0.407444,0.290784064,-0.247745652,0.407963,0.383718387,-0.267277956,0.453558,0.337276346,-0.254561444,0.425653,0.318869077,-0.264837976,0.411377,0.32507779,-0.279989813,0.412959,0.404643401,-0.282363871,0.454004,0.361597641,-0.273336321,0.429125,0.359873358,-0.287829763,0.437033,0.363854367,-0.301726539,0.448855
0.410392863,-0.380329579,0.511447,0.389915193,-0.317837306,0.482581,0.394344488,-0.364306055,0.510917,0.375794748,-0.346945201,0.501066,0.34501526,-0.322883603,0.486361,0.328915944,-0.301415627,0.476988,0.352120884,-0.264896351,0.463435,0.341170006,-0.237350505,0.472314,0.33327017,-0.223357891,0.476753,0.327714844,-0.209718457,0.480789,0.365812702,-0.263167134,0.455853,0.318407569,-0.23764151,0.424798,0.290289069,-0.232777901,0.406683,0.286360206,-0.249495235,0.407913,0.380472644,-0.266660807,0.45233,0.335620351,-0.252766808,0.424758,0.315352504,-0.262061522,0.410651,0.320235823,-0.278277187,0.412961,0.402166477,-0.27997345,0.453055,0.359205992,-0.27239039,0.428427,0.358490593,-0.287551458,0.436959,0.362798996,-0.302491583,0.448935
0.406970023,-0.376102033,0.50645,0.388743755,-0.315283875,0.481512,0.393269325,-0.362124652,0.50855,0.37538412,-0.344740785,0.503172,0.352387238,-0.321747725,0.491136,0.334817771,-0.303483564,0.481618,0.355017986,-0.267224641,0.468237,0.341357999,-0.232788666,0.467896,0.334053098,-0.215612197,0.467725,0.327257391,-0.199627982,0.46757,0.366450341,-0.263421558,0.45842,0.323635173,-0.223231885,0.431185,0.300274934,-0.23270537,0.415298,0.304548941,-0.249724954,0.418128,0.378708411,-0.265497153,0.452688,0.330864262,-0.26765051,0.429411,0.317829796,-0.278623161,0.417501,0.321846475,-0.29575979,0.421734,0.396971614,-0.276625352,0.450166,0.351575457,-0.269623307,0.428964,0.356443142,-0.287818031,0.438335,0.36227577,-0.303381922,0.449431
0.412220014,-0.379476551,0.511835,0.393273973,-0.319308608,0.486434,0.398762195,-0.365395289,0.514113,0.380324132,-0.348082708,0.509482,0.357431693,-0.328799303,0.498392,0.34156635,-0.309312124,0.488994,0.358879695,-0.269677134,0.47309,0.350405723,-0.231851104,0.469968,0.343406258,-0.21398678,0.468408,0.334677504,-0.20021236,0.466989,0.369762251,-0.266343032,0.462913,0.318270469,-0.241606924,0.435432,0.30204752,-0.255027802,0.4194,0.313031402,-0.266631707,0.421864,0.381491779,-0.268827347,0.456929,0.331553444,-0.27902479,0.433527,0.326836092,-0.285055675,0.421553,0.333703062,-0.299642208,0.425419,0.396225194,-0.28570703,0.45419,0.346597677,-0.285319877,0.432894,0.347253236,-0.300099723,0.44194,0.351050656,-0.314992557,0.452943
0.41359329,-0.374589092,0.508286,0.402151391,-0.314848922,0.485012,0.401444753,-0.361362532,0.510946,0.386247453,-0.339959039,0.506156,0.367962627,-0.334405966,0.491199,0.357332367,-0.321651613,0.481492,0.373516889,-0.266140168,0.473517,0.35941195,-0.232103812,0.47063,0.352131376,-0.214459681,0.469187,0.340341891,-0.198653164,0.467875,0.383252046,-0.265054509,0.463461,0.335504762,-0.239429314,0.43766,0.314442472,-0.251243458,0.42261,0.319464512,-0.268283092,0.426236,0.393608644,-0.269292452,0.457376,0.354256368,-0.236853715,0.435531,0.336447461,-0.248829139,0.424355,0.345813207,-0.266824085,0.429472,0.409925948,-0.283743352,0.454161,0.361453391,-0.28278281,0.434108,0.360880715,-0.299594842,0.443994,0.365796486,-0.31542888,0.454886
0.416127843,-0.373847891,0.508166,0.402313254,-0.318812019,0.485564,0.404415925,-0.361456572,0.511325,0.386675162,-0.340303149,0.505464,0.366479036,-0.333027818,0.488559,0.355188828,-0.319682483,0.478278,0.376027351,-0.268003497,0.475137,0.361883004,-0.233767038,0.4723,0.35459199,-0.216047794,0.470882,0.346818839,-0.200270403,0.469592,0.385174478,-0.266580155,0.464636,0.338172395,-0.239079404,0.439539,0.316484116,-0.250468731,0.4249,0.324362065,-0.26707158,0.428728,0.394982393,-0.270517863,0.458121,0.355919945,-0.238100938,0.437079,0.338259461,-0.250242619,0.426314,0.347916427,-0.268573851,0.431686,0.410545513,-0.284573106,0.45429,0.362352859,-0.283724095,0.434885,0.361888181,-0.300638787,0.444829,0.366739524,-0.316441644,0.455515
0.419809008,-0.374330827,0.509062,0.408342821,-0.319478099,0.487044,0.406727957,-0.362473548,0.512401,0.387226789,-0.340763955,0.505522,0.364104451,-0.331487887,0.487106,0.351401773,-0.317246889,0.476319,0.385227004,-0.272317694,0.47722,0.373666739,-0.237307108,0.473714,0.368049913,-0.218592484,0.471961,0.361874851,-0.201917407,0.470368,0.394321867,-0.27093396,0.466656,0.349171871,-0.23979428,0.442063,0.326161329,-0.249993621,0.427717,0.328803841,-0.268535338,0.431816,0.403904179,-0.274926392,0.460033,0.366391405,-0.240873188,0.43949,0.348123886,-0.252572441,0.428979,0.352636346,-0.270842462,0.434649,0.418880688,-0.289102629,0.455979,0.370554101,-0.28679354,0.436975,0.366902916,-0.303257862,0.447089,0.370360372,-0.318615163,0.457699
0.420782452,-0.374598481,0.509037,0.409313526,-0.320017217,0.487192,0.408043088,-0.362833245,0.512628,0.387599393,-0.34107966,0.505679,0.363455094,-0.331204358,0.48709,0.350210986,-0.316656685,0.47627,0.385695198,-0.272648661,0.4778,0.37373019,-0.237494906,0.474394,0.367804082,-0.218936997,0.472692,0.361331935,-0.202391739,0.471144,0.394582125,-0.27111278,0.466964,0.34960235,-0.240089912,0.442608,0.32668216,-0.250392824,0.4284,0.330375756,-0.268728776,0.432497,0.403963883,-0.27496703,0.460101,0.3667032,-0.241078168,0.439864,0.348555613,-0.252885669,0.429511,0.354250173,-0.271399508,0.435202,0.418657459,-0.288948561,0.455736,0.370560037,-0.286798134,0.436982,0.36781407,-0.303430366,0.447044,0.371167104,-0.31883654,0.457546
0.41924553,-0.373002987,0.506463,0.406895989,-0.318552078,0.485661,0.407788108,-0.362242186,0.511445,0.387688324,-0.341672297,0.506133,0.362583366,-0.331231981,0.488316,0.347219069,-0.315546611,0.478306,0.384297432,-0.272800551,0.478714,0.373440072,-0.238293685,0.47615,0.367144254,-0.220178467,0.474868,0.357997719,-0.203699831,0.473702,0.391971163,-0.270321229,0.466399,0.349696479,-0.240658443,0.443446,0.327456593,-0.251453062,0.430057,0.331972358,-0.269674806,0.434143,0.401682128,-0.273937474,0.45822,0.370375961,-0.233993228,0.439765,0.350807558,-0.243212392,0.430322,0.35689596,-0.264341716,0.436121,0.414781006,-0.286686141,0.45214,0.371003611,-0.280522249,0.434841,0.366614767,-0.295057892,0.444587,0.365760324,-0.311515642,0.454454
0.420134097,-0.372905128,0.506044,0.406869038,-0.31874206,0.485469,0.408766083,-0.362540008,0.511257,0.387692787,-0.342018955,0.506364,0.362336143,-0.331309209,0.488779,0.347180862,-0.315588475,0.47898,0.384480157,-0.273157719,0.478962,0.373283494,-0.238539213,0.476417,0.366994957,-0.220417737,0.475145,0.358389303,-0.203969493,0.473988,0.392006392,-0.27051996,0.466417,0.349645233,-0.240875509,0.443741,0.327559843,-0.251766178,0.430514,0.332564205,-0.269920542,0.434621,0.401199155,-0.273869927,0.458028,0.370493871,-0.23406772,0.439905,0.351061092,-0.243388165,0.430633,0.357184017,-0.264555071,0.436473,0.414057508,-0.286392452,0.451663,0.370829559,-0.280390645,0.434637,0.366586736,-0.295641881,0.444344,0.365710763,-0.31157411,0.4541
0.422160808,-0.374122248,0.507565,0.407193565,-0.319218853,0.486045,0.41106058,-0.363475863,0.512738,0.38885872,-0.343164153,0.50825,0.361789117,-0.331029119,0.49244,0.346292129,-0.313347976,0.483744,0.384155899,-0.273116183,0.478882,0.371738501,-0.238206107,0.476543,0.365349959,-0.220179103,0.475373,0.358415671,-0.204075421,0.47431,0.391461744,-0.270329881,0.466118,0.34717329,-0.240064026,0.442747,0.324874791,-0.250782183,0.429115,0.330881699,-0.268522517,0.432661,0.399425198,-0.273081235,0.457637,0.367265932,-0.23661536,0.438922,0.348694577,-0.243510665,0.429347,0.354176452,-0.268052882,0.434596,0.411606158,-0.2850715,0.451323,0.369193972,-0.279537218,0.433826,0.364058845,-0.294689832,0.443103,0.363770748,-0.309981996,0.452858
0.422952382,-0.374309021,0.507823,0.407300315,-0.319469465,0.486314,0.412317524,-0.363453012,0.51311,0.389174297,-0.343530173,0.508935,0.362180718,-0.330889381,0.493579,0.347249486,-0.313607054,0.485178,0.384308646,-0.273359777,0.479304,0.371758361,-0.238314908,0.476788,0.365307987,-0.220233328,0.47553,0.358318253,-0.204084838,0.474386,0.391486552,-0.270479803,0.466397,0.347234144,-0.240183983,0.443093,0.32493925,-0.250908458,0.429499,0.33099629,-0.268591137,0.43299,0.399335477,-0.273154297,0.457799,0.367132952,-0.236480703,0.43919,0.348296779,-0.244118121,0.429669,0.354241166,-0.267894319,0.434869,0.411487151,-0.285119067,0.451345,0.368815927,-0.27944305,0.433936,0.364092116,-0.295561326,0.443142,0.363134967,-0.310826188,0.452838
0.423510099,-0.374699179,0.507351,0.407970446,-0.320458077,0.486511,0.413206957,-0.363704014,0.512685,0.390858366,-0.344954026,0.510378,0.371532158,-0.328684587,0.496864,0.360726675,-0.309499878,0.489292,0.385517977,-0.274383066,0.479988,0.373515839,-0.239308716,0.477754,0.367344738,-0.221208653,0.476637,0.360609132,-0.20502702,0.475622,0.392783169,-0.271596332,0.467213,0.350506075,-0.24033573,0.444407,0.326162948,-0.24231046,0.431103,0.328124249,-0.261146741,0.434986,0.400626462,-0.274323872,0.45866,0.369196416,-0.235029304,0.440483,0.349655421,-0.244328012,0.431184,0.355528293,-0.265295107,0.436799,0.41320546,-0.286754628,0.452147,0.369416588,-0.281927135,0.435082,0.36401951,-0.297786036,0.444586,0.364504337,-0.313602938,0.454277
0.424535545,-0.375395683,0.507404,0.407996344,-0.320773674,0.486611,0.414457056,-0.364393348,0.512837,0.391689651,-0.345529243,0.510989,0.372551347,-0.329586237,0.498227,0.361979249,-0.310574575,0.490991,0.385752508,-0.274748784,0.480244,0.37394552,-0.239717364,0.478174,0.367872808,-0.221634867,0.47714,0.36122194,-0.205462197,0.476199,0.39287622,-0.271908169,0.467356,0.350907434,-0.239859602,0.444633,0.326371007,-0.242465029,0.431378,0.328314341,-0.261298031,0.435238,0.400585881,-0.274588645,0.458706,0.369656415,-0.235082664,0.440643,0.349918285,-0.244017722,0.431401,0.355326245,-0.265099024,0.437,0.412978919,-0.286957163,0.452071,0.369364371,-0.281891451,0.4351,0.363966081,-0.297712114,0.444561,0.364121674,-0.31350333,0.454202
