sluyters/QuantumLeap/backend/src/datasets/gesture/HandGestureDataset_SHREC2017_csv/Gesture14/finger_1/subject_23_essai_1_skeletons_world.csv
Wrist_x,Wrist_y,Wrist_z,Palm_x,Palm_y,Palm_z,thumb_base_x,thumb_base_y,thumb_base_z,thumb_first_joint_x,thumb_first_joint_y,thumb_first_joint_z,thumb_second_joint_x,thumb_second_joint_y,thumb_second_joint_z,thumb_tip_x,thumb_tip_y,thumb_tip_z,index_base_x,index_base_y,index_base_z,index_first_joint_x,index_first_joint_y,index_first_joint_z,index_second_joint_x,index_second_joint_y,index_second_joint_z,index_tip_x,index_tip_y,index_tip_z,middle_base_x,middle_base_y,middle_base_z,middle_first_joint_x,middle_first_joint_y,middle_first_joint_z,middle_second_joint_x,middle_second_joint_y,middle_second_joint_z,middle_tip_x,middle_tip_y,middle_tip_z,ring_base_x,ring_base_y,ring_base_z,ring_first_joint_x,ring_first_joint_y,ring_first_joint_z,ring_second_joint_x,ring_second_joint_y,ring_second_joint_z,ring_tip_x,ring_tip_y,ring_tip_z,pinky_base_x,pinky_base_y,pinky_base_z,pinky_first_joint_x,pinky_first_joint_y,pinky_first_joint_z,pinky_second_joint_x,pinky_second_joint_y,pinky_second_joint_z,pinky_tip_x,pinky_tip_y,pinky_tip_z,
0.33880131,-0.303280805,0.418452,0.345062064,-0.254400665,0.39037,0.33118515,-0.281389615,0.414329,0.321778397,-0.259328304,0.401209,0.30508337,-0.238358395,0.382707,0.302257184,-0.218967525,0.370912,0.327904554,-0.206766734,0.372993,0.349720514,-0.179387188,0.370083,0.357770399,-0.165593202,0.368628,0.362135785,-0.154264292,0.367305,0.342405145,-0.217730414,0.371092,0.319018864,-0.178651572,0.340996,0.289657515,-0.182929439,0.323441,0.28587919,-0.196654982,0.32573,0.354991888,-0.231113073,0.371765,0.333245976,-0.189398797,0.344769,0.313902411,-0.18952808,0.330957,0.293285376,-0.196352197,0.318401,0.370722554,-0.254917241,0.376572,0.326584395,-0.241363106,0.353514,0.303261506,-0.234784103,0.342919,0.294669629,-0.236684508,0.344297
0.345770487,-0.307911353,0.423788,0.348816931,-0.255861381,0.39582,0.334495811,-0.285235283,0.417708,0.32153716,-0.264163846,0.401735,0.303544428,-0.238432161,0.381381,0.298507907,-0.21772791,0.368438,0.321671127,-0.205276763,0.376005,0.34163938,-0.176974626,0.383779,0.351806237,-0.162377027,0.387666,0.35930514,-0.14859253,0.391199,0.340946651,-0.214019936,0.376619,0.311367171,-0.182669502,0.346144,0.287133212,-0.191381901,0.328367,0.288551751,-0.202224707,0.330706,0.35811894,-0.225816547,0.379355,0.331041351,-0.185587841,0.351235,0.313302769,-0.185515883,0.336848,0.298249104,-0.197891304,0.323769,0.380465244,-0.24831142,0.386565,0.34021245,-0.236769147,0.362722,0.317465465,-0.236054112,0.351767,0.307150217,-0.243049479,0.353041
0.349280473,-0.307929844,0.421758,0.3447364,-0.24931633,0.395184,0.332914132,-0.284443541,0.415288,0.319255802,-0.262676314,0.398927,0.300484952,-0.236361085,0.378,0.294944438,-0.215849827,0.365529,0.313948124,-0.202265875,0.375478,0.326989344,-0.172860582,0.384911,0.333534921,-0.157678101,0.389628,0.338497005,-0.143147169,0.393916,0.335086292,-0.209031469,0.376942,0.306529717,-0.180966134,0.347413,0.287412975,-0.192039831,0.330188,0.289665124,-0.204171895,0.333163,0.354072451,-0.219164445,0.380265,0.326653151,-0.179738904,0.352739,0.311485014,-0.180223319,0.338656,0.299566343,-0.192747655,0.325854,0.379127861,-0.239652539,0.387966,0.341815029,-0.230715556,0.364618,0.320132412,-0.231886992,0.35389,0.312549866,-0.241922552,0.35559
0.349947579,-0.307501402,0.41939,0.344768409,-0.251537576,0.394919,0.333735676,-0.287516652,0.41339,0.319625056,-0.271329987,0.396578,0.29695507,-0.243673329,0.375023,0.291449703,-0.220871217,0.366616,0.307608749,-0.210720069,0.376718,0.31509166,-0.181360802,0.38657,0.318516231,-0.166056796,0.391496,0.320299368,-0.152051099,0.395974,0.329314656,-0.213571491,0.37812,0.298602918,-0.185969142,0.350246,0.283432008,-0.197356457,0.333986,0.291240951,-0.20976289,0.337959,0.352156273,-0.220067845,0.381224,0.316739648,-0.176565679,0.355216,0.304798434,-0.180168815,0.34191,0.300015259,-0.190772419,0.329813,0.378146837,-0.238433611,0.388367,0.34245175,-0.231176485,0.366196,0.321954632,-0.235581353,0.356009,0.314156441,-0.245121603,0.358453
0.350562787,-0.307504277,0.418301,0.344147098,-0.251779446,0.395125,0.333908529,-0.288686937,0.412915,0.317263599,-0.269735186,0.394473,0.294605944,-0.242156802,0.372877,0.284202976,-0.221159422,0.360998,0.308258593,-0.211549648,0.378263,0.315518102,-0.182005492,0.387854,0.318828613,-0.166627698,0.392649,0.3204997,-0.152568116,0.397009,0.329598064,-0.214149448,0.379214,0.299752118,-0.188478756,0.352435,0.285280609,-0.200601571,0.336815,0.293345622,-0.213046533,0.341404,0.349198274,-0.220724631,0.381845,0.317617417,-0.177454826,0.356968,0.306037383,-0.180917919,0.344241,0.30115389,-0.191708172,0.332671,0.377040814,-0.237813213,0.388246,0.342352222,-0.231396161,0.366937,0.322892314,-0.236057992,0.357147,0.317776975,-0.245476588,0.360074
0.35394898,-0.31009197,0.421033,0.344313216,-0.252451222,0.396067,0.335882984,-0.291186416,0.414893,0.318450845,-0.270749296,0.39534,0.29640905,-0.243439412,0.37373,0.288345898,-0.221415269,0.362144,0.30702475,-0.211184611,0.377473,0.314204793,-0.181813919,0.387219,0.317350983,-0.166484127,0.392091,0.318813049,-0.15272972,0.396521,0.328741777,-0.213963784,0.378928,0.297547717,-0.188017432,0.350656,0.282521942,-0.199592808,0.334163,0.287844977,-0.213536968,0.337904,0.348838819,-0.220768777,0.382116,0.314429038,-0.182663206,0.355731,0.303655453,-0.189444822,0.342231,0.301143793,-0.196024311,0.329959,0.376427101,-0.237301869,0.389427,0.341768043,-0.231211357,0.366964,0.322251443,-0.235524019,0.356643,0.31698076,-0.244672006,0.358912
0.356901181,-0.30898831,0.417515,0.348204272,-0.25427074,0.394406,0.338686331,-0.295761502,0.411784,0.3239527,-0.268932917,0.392927,0.297173171,-0.242235497,0.371891,0.287499803,-0.219214111,0.360415,0.315588943,-0.211570442,0.377134,0.316325887,-0.182344708,0.387433,0.318316621,-0.167277546,0.392583,0.319319935,-0.154196122,0.397264,0.338859104,-0.213082893,0.378542,0.309121499,-0.181897213,0.35175,0.292639305,-0.193815466,0.336122,0.296710955,-0.208543299,0.340707,0.356377533,-0.220351706,0.381542,0.325952749,-0.186914992,0.356514,0.316265214,-0.195469448,0.343708,0.307812338,-0.20135114,0.332067,0.384912999,-0.236889227,0.388369,0.350643856,-0.231391085,0.366962,0.332399319,-0.235882865,0.357127,0.329317906,-0.24630008,0.360026
0.374759601,-0.3118922,0.418197,0.363190977,-0.255273694,0.396002,0.356567814,-0.298826496,0.416416,0.34342043,-0.278570209,0.402713,0.317527753,-0.253235029,0.383729,0.306585514,-0.234332239,0.374728,0.334406705,-0.216785706,0.384145,0.336571854,-0.187306899,0.393233,0.337600903,-0.172249792,0.397776,0.33413548,-0.161448649,0.401907,0.351283634,-0.220776039,0.380765,0.317040165,-0.186211527,0.355605,0.29736247,-0.196424928,0.340928,0.301994672,-0.212064586,0.345906,0.367010738,-0.223746411,0.379752,0.336661132,-0.178844797,0.357686,0.321303625,-0.18015187,0.346397,0.313432244,-0.1908235,0.336134,0.388919956,-0.238386323,0.381737,0.354961859,-0.232479339,0.36247,0.336845674,-0.236584076,0.353617,0.330689559,-0.245210123,0.357076
0.387975854,-0.314486102,0.420044,0.375087448,-0.258828872,0.397363,0.370208896,-0.30107562,0.418405,0.356277776,-0.282063232,0.404852,0.330390391,-0.256566212,0.385795,0.319449269,-0.237565361,0.376708,0.345100755,-0.220415204,0.385477,0.348630103,-0.190178748,0.394216,0.35034382,-0.174645673,0.398585,0.351873009,-0.160287958,0.402557,0.362092906,-0.221445361,0.381792,0.330997493,-0.187154622,0.356315,0.310539866,-0.198057186,0.341454,0.316454355,-0.215391738,0.34619,0.378079739,-0.226673209,0.380567,0.34722248,-0.181179388,0.358309,0.332139426,-0.182196328,0.346922,0.324085857,-0.192763987,0.336569,0.400417489,-0.240971187,0.382374,0.365358335,-0.236775764,0.362948,0.346591368,-0.239988229,0.354022,0.344309698,-0.248382907,0.357319
0.389365458,-0.313112505,0.41767,0.383676389,-0.25669075,0.39484,0.378371206,-0.300538658,0.41735,0.364609243,-0.276816288,0.405611,0.34171494,-0.249915981,0.388844,0.33274229,-0.22997068,0.380216,0.359965331,-0.216895779,0.384565,0.370712214,-0.187301918,0.39451,0.376102077,-0.172114409,0.399483,0.381011124,-0.158086044,0.404004,0.374367766,-0.219338353,0.379167,0.342187682,-0.182398585,0.354017,0.320797702,-0.192721687,0.339346,0.325658653,-0.209055735,0.343786,0.387784649,-0.225772941,0.376544,0.357322821,-0.185361867,0.355118,0.341911463,-0.19196095,0.344155,0.33361073,-0.202496483,0.33419,0.406313205,-0.241593233,0.37673,0.369052154,-0.233026141,0.357919,0.349046831,-0.235230718,0.349276,0.342822266,-0.244193148,0.352455
0.398897962,-0.314178174,0.417964,0.39502932,-0.256940624,0.395352,0.387494922,-0.29941763,0.417518,0.376015095,-0.276428625,0.405617,0.352848013,-0.248370396,0.38941,0.344422351,-0.228348537,0.381853,0.370951552,-0.217081295,0.385012,0.382346703,-0.187763485,0.395298,0.388059579,-0.172718859,0.40044,0.393263762,-0.158824551,0.405116,0.385694273,-0.219642709,0.379829,0.353134123,-0.184179787,0.354793,0.331887925,-0.19509259,0.340189,0.337091226,-0.211133536,0.344763,0.399419412,-0.226174082,0.377366,0.369073149,-0.185483521,0.355976,0.353704496,-0.19190082,0.345032,0.344970233,-0.202514791,0.335083,0.418350859,-0.242113973,0.377709,0.379402405,-0.23408243,0.358929,0.359423531,-0.23623757,0.350301,0.357023619,-0.244298619,0.353566
0.391032301,-0.31020232,0.415573,0.393093307,-0.258498414,0.399963,0.385003209,-0.299408213,0.420346,0.389643986,-0.275394324,0.424413,0.390086774,-0.257119629,0.420345,0.399069487,-0.249215798,0.418367,0.38584802,-0.219697966,0.399281,0.404315975,-0.189445569,0.404337,0.41421323,-0.174376849,0.407441,0.423399967,-0.160577928,0.410387,0.394139029,-0.224110871,0.389247,0.355977668,-0.209042418,0.371457,0.338042392,-0.224258227,0.361079,0.348530059,-0.236199974,0.367385,0.401749427,-0.229473838,0.382231,0.378775781,-0.200682513,0.368942,0.359812787,-0.2029178,0.362143,0.347024096,-0.216851137,0.356465,0.405807789,-0.243061838,0.376231,0.383448104,-0.230492965,0.363779,0.364323973,-0.228941543,0.358058,0.358904427,-0.237617928,0.362924
0.392764625,-0.309532628,0.416435,0.400680552,-0.25748569,0.400879,0.389116453,-0.2962387,0.42108,0.400301775,-0.274353541,0.4256,0.402787083,-0.256994311,0.423239,0.412191664,-0.248973809,0.421255,0.395300466,-0.218479228,0.400059,0.412948405,-0.187735347,0.404221,0.422512698,-0.172508773,0.406962,0.431398292,-0.158594774,0.409587,0.402770038,-0.222032321,0.390201,0.365906944,-0.207858077,0.372391,0.347622123,-0.223181829,0.362002,0.358085314,-0.235217162,0.368389,0.407344003,-0.229290138,0.383326,0.388979242,-0.199504999,0.369963,0.371177182,-0.202304099,0.363126,0.356910619,-0.216145529,0.35742,0.417129972,-0.242965035,0.377483,0.39182662,-0.22996929,0.364973,0.372205555,-0.228691027,0.359225,0.363729646,-0.237951988,0.364139
0.40129214,-0.312016636,0.421621,0.407477308,-0.260355619,0.40637,0.392046011,-0.296194318,0.42305,0.398107922,-0.272908444,0.421693,0.392098064,-0.25120537,0.410415,0.397159055,-0.241478476,0.404303,0.398701602,-0.219875534,0.401594,0.41681613,-0.189006051,0.405327,0.429788168,-0.174410932,0.407792,0.435807694,-0.159617143,0.410312,0.413021187,-0.227269288,0.3959,0.379502829,-0.215357997,0.377027,0.357037918,-0.228899947,0.366018,0.364285969,-0.239722165,0.373509,0.423303377,-0.236810915,0.392428,0.402210603,-0.208135712,0.376791,0.38554827,-0.208588395,0.368791,0.373267381,-0.220696432,0.363039,0.435209924,-0.255168012,0.390535,0.416084753,-0.24369533,0.37628,0.393846975,-0.24303739,0.369731,0.395182579,-0.248765478,0.375207
0.405034982,-0.313679103,0.425157,0.404136385,-0.257642629,0.402747,0.392836931,-0.29541911,0.423424,0.395079084,-0.272569899,0.417322,0.383433383,-0.248998894,0.400005,0.38530982,-0.238580313,0.390656,0.388076525,-0.214154536,0.390859,0.410474615,-0.186252303,0.399174,0.421885877,-0.17180224,0.403332,0.432383251,-0.158377865,0.407111,0.402243615,-0.221721128,0.387363,0.381090026,-0.186246792,0.362059,0.353276677,-0.193102118,0.347298,0.352559214,-0.208622929,0.352171,0.416077429,-0.233071896,0.386271,0.392545755,-0.192703259,0.364111,0.374152839,-0.194936282,0.352773,0.37611363,-0.214823025,0.358438,0.432091567,-0.253499263,0.388195,0.406622864,-0.239367863,0.36885,0.382574451,-0.237490048,0.359962,0.382175575,-0.241728764,0.36335
0.403274068,-0.311451339,0.423301,0.403354043,-0.256832095,0.402213,0.391333103,-0.293380338,0.421793,0.391668885,-0.27026486,0.415103,0.378460299,-0.244889941,0.396627,0.377644421,-0.232999365,0.387045,0.387912018,-0.214132196,0.391183,0.410179531,-0.186137026,0.399412,0.420143594,-0.171198458,0.403527,0.429404784,-0.158206252,0.407267,0.402245869,-0.221808335,0.387737,0.381396239,-0.186364444,0.363485,0.354274159,-0.19364817,0.349338,0.354174167,-0.209635977,0.354787,0.414761865,-0.232347768,0.386581,0.417583079,-0.192976627,0.373231,0.407151257,-0.186829311,0.3664,0.4090164,-0.204158948,0.376369,0.431265539,-0.253074994,0.388241,0.406285286,-0.239619224,0.369634,0.382703527,-0.238104223,0.361084,0.382842409,-0.242634222,0.364898
0.405947799,-0.312351865,0.425049,0.405008058,-0.256157232,0.403305,0.39230613,-0.293423977,0.422055,0.390994087,-0.270780432,0.413441,0.376305818,-0.245120921,0.394168,0.378023193,-0.233095191,0.385344,0.382338415,-0.213523973,0.390102,0.396639399,-0.184356792,0.396621,0.405301918,-0.169019227,0.399881,0.410634911,-0.15181021,0.402844,0.401546458,-0.221303905,0.388378,0.380179946,-0.185119616,0.363221,0.353714354,-0.19262489,0.348546,0.353746042,-0.208770235,0.353812,0.416005765,-0.231025674,0.388692,0.410442137,-0.186350623,0.369682,0.395568868,-0.185845785,0.359955,0.397915595,-0.20232018,0.367812,0.437180268,-0.247600756,0.39217,0.414684869,-0.234815036,0.372553,0.389430393,-0.237506033,0.36354,0.386187164,-0.243565273,0.367119
0.415598819,-0.313587979,0.430104,0.4074129,-0.256842771,0.405078,0.399417363,-0.294771114,0.425885,0.396186386,-0.273536818,0.414553,0.378741935,-0.246149454,0.395047,0.379363462,-0.234552917,0.385597,0.381055048,-0.212722763,0.388899,0.39155757,-0.180565,0.392985,0.394048218,-0.163479247,0.395028,0.397255472,-0.148311072,0.396886,0.400221612,-0.219703388,0.387897,0.375158863,-0.181469356,0.359983,0.349027901,-0.189282573,0.3437,0.348064963,-0.204646196,0.347511,0.417096207,-0.227553463,0.389068,0.398253498,-0.18725265,0.363767,0.378526731,-0.190491969,0.350822,0.374610914,-0.21087518,0.355161,0.44055452,-0.246797242,0.394021,0.420299519,-0.230372648,0.372301,0.396883215,-0.232291959,0.362322,0.389596233,-0.239344633,0.364777
0.415820745,-0.312309217,0.428533,0.407721523,-0.255855526,0.40417,0.399193853,-0.293881424,0.424304,0.400071134,-0.274209332,0.413632,0.379728999,-0.245951766,0.394291,0.379421236,-0.234251428,0.3834,0.380321611,-0.21239338,0.388266,0.38640467,-0.179459286,0.3917,0.385214562,-0.163281947,0.393417,0.386012963,-0.148268605,0.394978,0.399763466,-0.218888287,0.387445,0.373629863,-0.180193378,0.36002,0.349563671,-0.18952473,0.344023,0.349472435,-0.20527523,0.348141,0.417231357,-0.226410265,0.388712,0.398066573,-0.185192699,0.363798,0.379592433,-0.188050509,0.351051,0.380268803,-0.203970009,0.355691,0.4424305,-0.243360707,0.393682,0.421719822,-0.228803591,0.37227,0.39888932,-0.231421833,0.362432,0.394949974,-0.237825193,0.365106
0.417511906,-0.312388606,0.428679,0.407563635,-0.255661294,0.404102,0.399969618,-0.294011406,0.423995,0.400524048,-0.274581687,0.413013,0.379584707,-0.245776149,0.393323,0.381668022,-0.235240505,0.38266,0.377568455,-0.212326702,0.387527,0.381307312,-0.179982038,0.391685,0.37920881,-0.164303847,0.393765,0.383081729,-0.148999041,0.395655,0.398805104,-0.21773277,0.38723,0.371208648,-0.179261598,0.359541,0.348944609,-0.189090433,0.343389,0.349261055,-0.204918221,0.347403,0.41748323,-0.224586092,0.388945,0.396617126,-0.184262802,0.363629,0.378771803,-0.186905658,0.350677,0.378614064,-0.2057137,0.355161,0.443168213,-0.242419506,0.394472,0.421436286,-0.228231868,0.372767,0.3988883,-0.231213969,0.362794,0.395337712,-0.237536797,0.365361
0.423001925,-0.314445578,0.432994,0.409459844,-0.25650221,0.405725,0.404424877,-0.295758584,0.427616,0.402742399,-0.276399513,0.414938,0.380439809,-0.247077389,0.395846,0.379196365,-0.233259165,0.38361,0.376728711,-0.212234765,0.387105,0.377643236,-0.180439816,0.391488,0.378167733,-0.164432135,0.393679,0.37838922,-0.149674806,0.395671,0.398089994,-0.217333278,0.387006,0.363720803,-0.183735975,0.357185,0.342962389,-0.193252738,0.339789,0.344301271,-0.203490326,0.342509,0.41711476,-0.224264035,0.389097,0.390938298,-0.183563733,0.36179,0.37206349,-0.190317433,0.347819,0.37253289,-0.205725788,0.350945,0.444198746,-0.241092323,0.395452,0.418377632,-0.228082745,0.372209,0.396539636,-0.230591642,0.36153,0.390961229,-0.236740909,0.363125
0.42352054,-0.312976032,0.430987,0.409575913,-0.255802226,0.405055,0.4037377,-0.294951339,0.425949,0.401801385,-0.275864287,0.413747,0.381003107,-0.247528663,0.394185,0.380249444,-0.234460391,0.382813,0.377342496,-0.212438601,0.387445,0.380039856,-0.180396619,0.391763,0.381004091,-0.164295826,0.393921,0.38162593,-0.149430858,0.395884,0.398172932,-0.217303113,0.387253,0.370785967,-0.179296289,0.358483,0.347342967,-0.188351672,0.341701,0.34723318,-0.204562835,0.345077,0.417116221,-0.224092534,0.389162,0.397572735,-0.185362584,0.362835,0.377619031,-0.19154081,0.349365,0.375085693,-0.207514108,0.353179,0.443741959,-0.241604478,0.395112,0.417520546,-0.22990628,0.372624,0.395694651,-0.232118909,0.362292,0.392265872,-0.237733639,0.364378
0.425554832,-0.312514953,0.430188,0.411923587,-0.254268038,0.404516,0.40661396,-0.295548502,0.425798,0.40282833,-0.276323597,0.413159,0.382896585,-0.248584421,0.393452,0.38043067,-0.234736317,0.382646,0.382492766,-0.212227512,0.387841,0.382480072,-0.180474376,0.392628,0.383566675,-0.16427966,0.395022,0.384352662,-0.149303802,0.397198,0.400118642,-0.217879103,0.386892,0.372246387,-0.1790603,0.358462,0.348533049,-0.186914317,0.341878,0.348107549,-0.203541807,0.345386,0.41765296,-0.223977666,0.388157,0.399162844,-0.186917064,0.362373,0.378689718,-0.192437753,0.349181,0.376143826,-0.209699576,0.3532,0.443178853,-0.241353584,0.393314,0.414461541,-0.232420368,0.37122,0.391794755,-0.234693683,0.361069,0.391369125,-0.237674752,0.363295
0.4234427,-0.310821997,0.427891,0.41073089,-0.25325345,0.402446,0.405394711,-0.294391796,0.424322,0.403698331,-0.275900463,0.413454,0.391787633,-0.244722512,0.395202,0.392605892,-0.229017048,0.386861,0.385117801,-0.211700795,0.386913,0.39709666,-0.182117953,0.395913,0.4037158,-0.166758753,0.400413,0.409628754,-0.152393041,0.404504,0.404590697,-0.216508125,0.384979,0.378063079,-0.181598013,0.356922,0.354118,-0.187899178,0.340556,0.348252286,-0.202900436,0.344149,0.421736967,-0.225033265,0.385415,0.394613624,-0.18746265,0.360274,0.377279014,-0.194221246,0.347412,0.377407469,-0.21143221,0.35161,0.445107633,-0.243441763,0.389566,0.412867213,-0.23021159,0.367941,0.390051081,-0.231733335,0.358005,0.38844388,-0.236284311,0.36035
0.426962266,-0.311837164,0.429531,0.417640528,-0.253824046,0.40263,0.411477257,-0.296750071,0.427227,0.410143587,-0.267936197,0.41801,0.396295782,-0.239931473,0.403072,0.393098226,-0.221967839,0.392373,0.399714816,-0.209545683,0.388076,0.417175795,-0.180000746,0.396382,0.42601769,-0.164802514,0.400535,0.43391584,-0.150515984,0.404311,0.414552418,-0.216499056,0.384163,0.386546552,-0.179568886,0.355439,0.354444254,-0.186614004,0.338683,0.352557883,-0.201398888,0.3414,0.428103868,-0.226691411,0.383086,0.398238598,-0.187482614,0.357959,0.375631731,-0.1935151,0.345103,0.375323684,-0.210580921,0.348573,0.444040411,-0.245431028,0.38567,0.411173113,-0.229026041,0.36401,0.387185118,-0.229482542,0.354058,0.383975829,-0.233826916,0.355868
0.430769005,-0.312668711,0.431419,0.423754204,-0.253057959,0.402726,0.415038321,-0.296875162,0.429153,0.414807113,-0.263861081,0.419202,0.404296755,-0.237167357,0.404948,0.397378636,-0.221091447,0.392833,0.409562586,-0.208313988,0.387446,0.427150178,-0.177590624,0.390773,0.434855713,-0.161278433,0.392437,0.440374058,-0.146262106,0.39395,0.4218674,-0.217806915,0.383029,0.394875612,-0.181177844,0.353085,0.360700297,-0.18552924,0.335617,0.352577823,-0.198364607,0.337326,0.432920204,-0.229950096,0.381681,0.402662345,-0.196621044,0.355608,0.37843595,-0.202712121,0.342268,0.376242114,-0.218775672,0.344738,0.447369893,-0.252253767,0.384203,0.41282569,-0.232272937,0.361811,0.386009209,-0.230912117,0.351523,0.38125575,-0.233243709,0.352617
0.433199171,-0.312726578,0.432754,0.42680033,-0.253959396,0.404028,0.419238612,-0.295543526,0.431194,0.418657376,-0.264609485,0.421667,0.408875058,-0.237814703,0.407839,0.407218522,-0.221324148,0.396984,0.417109081,-0.210289961,0.38963,0.439203124,-0.181810243,0.396909,0.450431918,-0.167157042,0.400548,0.460746037,-0.153597909,0.403857,0.425339847,-0.219285771,0.384308,0.398687453,-0.182239721,0.354598,0.364101574,-0.185575211,0.337267,0.355466206,-0.198653436,0.338791,0.435060983,-0.231278806,0.382217,0.409637305,-0.194570468,0.35664,0.384549346,-0.198408154,0.343554,0.376992359,-0.214417535,0.345913,0.447747195,-0.253275378,0.383872,0.414332825,-0.235259647,0.361855,0.386748748,-0.231423789,0.35174,0.38246078,-0.2351382,0.352753
0.434421111,-0.312617745,0.433464,0.427338714,-0.25418585,0.4038,0.418459549,-0.29573401,0.430734,0.417962787,-0.265007183,0.420079,0.410067331,-0.243239526,0.40478,0.409441189,-0.228756449,0.39388,0.412712519,-0.209205282,0.387509,0.434083343,-0.180195455,0.394118,0.44663879,-0.16585326,0.397422,0.456681077,-0.152072824,0.400426,0.424866035,-0.219401363,0.383436,0.394265641,-0.188744147,0.352677,0.358539207,-0.192830788,0.334735,0.352856126,-0.200952743,0.335963,0.435805624,-0.2321419,0.382447,0.409567133,-0.193737404,0.355531,0.384209307,-0.197080816,0.341759,0.380021177,-0.213085417,0.3437,0.450112546,-0.25518012,0.38553,0.413881371,-0.237196794,0.362498,0.387708182,-0.234543211,0.351916,0.383126542,-0.237086809,0.352635
0.435200448,-0.312037273,0.434192,0.427868651,-0.253764578,0.404029,0.421778897,-0.291601546,0.431611,0.418847704,-0.26526996,0.420782,0.408774174,-0.239506236,0.406013,0.407223551,-0.223840704,0.394827,0.412780174,-0.208599852,0.387711,0.428785617,-0.176533262,0.391522,0.437194353,-0.16033354,0.393428,0.446308204,-0.14687098,0.39516,0.42464814,-0.218641534,0.383322,0.39322323,-0.184754969,0.352286,0.357085953,-0.191002731,0.334181,0.349977067,-0.198753602,0.335076,0.435380625,-0.231253055,0.382114,0.409919627,-0.187500618,0.355045,0.385305239,-0.189920882,0.341196,0.379646897,-0.21037121,0.342819,0.449517336,-0.254136239,0.38501,0.412533325,-0.236548763,0.361861,0.385809543,-0.23227343,0.351225,0.381428699,-0.235455893,0.351717
0.434047143,-0.310614585,0.433084,0.426855727,-0.253502496,0.403293,0.418628037,-0.292071147,0.429357,0.417853765,-0.268465508,0.419125,0.408404493,-0.245117426,0.404052,0.40751608,-0.229007736,0.393209,0.40604685,-0.208142353,0.38568,0.39960324,-0.175145883,0.380133,0.397225673,-0.157596189,0.377359,0.395077869,-0.141224903,0.374837,0.422427414,-0.218201939,0.38284,0.390431482,-0.186812105,0.351675,0.354959468,-0.191231002,0.333495,0.347640128,-0.200730726,0.334804,0.435479477,-0.231559304,0.382878,0.408827691,-0.191227301,0.355207,0.383498314,-0.194063854,0.341049,0.376813991,-0.210023108,0.342964,0.451684413,-0.255216676,0.387183,0.413664495,-0.237966592,0.36359,0.386827552,-0.23588053,0.352749,0.383525882,-0.237802942,0.353456
0.436857615,-0.31253718,0.43547,0.422952556,-0.255809408,0.404969,0.421184972,-0.293214177,0.431203,0.412777267,-0.280407405,0.421064,0.398858412,-0.255020091,0.405292,0.395949763,-0.240562453,0.394004,0.389677096,-0.212684351,0.386363,0.379730148,-0.182421159,0.383377,0.373952764,-0.165972474,0.381884,0.368594804,-0.15063095,0.380527,0.407020703,-0.218477615,0.384031,0.369677494,-0.188800423,0.352225,0.339072041,-0.196186563,0.333672,0.336736048,-0.208684338,0.334628,0.423524357,-0.228012575,0.384542,0.390305371,-0.186134883,0.356134,0.37004377,-0.191383549,0.3416,0.368966132,-0.207668009,0.343102,0.448086885,-0.248602192,0.389504,0.401705656,-0.239885301,0.365359,0.379071449,-0.240493709,0.354265,0.384137941,-0.240599489,0.354681
0.438277309,-0.313811559,0.43664,0.420941938,-0.257400906,0.405511,0.422655122,-0.295149446,0.432348,0.412854927,-0.280044866,0.420326,0.396399237,-0.256686155,0.404137,0.392697435,-0.24112786,0.392415,0.389235435,-0.213720922,0.386601,0.377416673,-0.183112948,0.383198,0.371184681,-0.166636571,0.381496,0.36541127,-0.151286078,0.379949,0.406509218,-0.219236149,0.384141,0.36827527,-0.188956119,0.351907,0.337937182,-0.196090483,0.333105,0.334956009,-0.208885988,0.333689,0.423071282,-0.228577807,0.384596,0.388654715,-0.187655184,0.355843,0.367232122,-0.192784036,0.341132,0.368289696,-0.208330157,0.34226,0.447659991,-0.248814684,0.389584,0.399758463,-0.240749406,0.365174,0.377720017,-0.24128765,0.353959,0.381037363,-0.242726928,0.354109
0.439458616,-0.315093439,0.437577,0.421833252,-0.258858176,0.405873,0.423842804,-0.297504141,0.43341,0.413217672,-0.282444805,0.421314,0.396258589,-0.260158616,0.405393,0.392623865,-0.242785954,0.394014,0.387424366,-0.216211402,0.386874,0.374355442,-0.18444491,0.383319,0.367606095,-0.168035723,0.381541,0.361353022,-0.152766198,0.379925,0.40581011,-0.219690865,0.384108,0.367188814,-0.188083972,0.351534,0.337109358,-0.195496645,0.332533,0.334547378,-0.207502271,0.332749,0.422257239,-0.228714692,0.384358,0.379657277,-0.193318426,0.355393,0.359687246,-0.200197357,0.340573,0.361675667,-0.216360802,0.341347,0.445872962,-0.248382791,0.389186,0.398247358,-0.240898273,0.364614,0.376347171,-0.241381334,0.353324,0.379304119,-0.242545528,0.353221
0.43995212,-0.315825676,0.437709,0.42050043,-0.261213841,0.405517,0.424090108,-0.301375009,0.433412,0.411474585,-0.284509467,0.420702,0.393696559,-0.262859535,0.40459,0.389358255,-0.244504548,0.392864,0.386058528,-0.216688455,0.386141,0.372896082,-0.185036626,0.38257,0.366099853,-0.16867748,0.380785,0.359800869,-0.153450509,0.379162,0.403197054,-0.221369481,0.383416,0.365704522,-0.187792925,0.350485,0.335569046,-0.194973518,0.331275,0.332710031,-0.206878372,0.331201,0.419951012,-0.230084621,0.383739,0.385808624,-0.203873199,0.354439,0.359989606,-0.210991848,0.339448,0.358850485,-0.218286517,0.339915,0.44481774,-0.249489662,0.388723,0.395854854,-0.24209551,0.3639,0.374043587,-0.242530534,0.352495,0.374242874,-0.24474884,0.352174
0.443544213,-0.326480852,0.439098,0.42152261,-0.275057621,0.407912,0.427035819,-0.309394947,0.436684,0.41256692,-0.296145426,0.426084,0.398947455,-0.271400879,0.412187,0.393569486,-0.252793662,0.400463,0.396225472,-0.229525027,0.391364,0.386750649,-0.196995039,0.388776,0.381852489,-0.180202177,0.387482,0.377316103,-0.164594942,0.386305,0.40899661,-0.235649427,0.386502,0.373381146,-0.196367645,0.354866,0.340601331,-0.198045158,0.336412,0.336614802,-0.211077931,0.336615,0.421587132,-0.245540586,0.384986,0.385683343,-0.217986284,0.357525,0.358212384,-0.223508544,0.343476,0.357227097,-0.233164741,0.344422,0.439930927,-0.266235154,0.387668,0.389299268,-0.254404222,0.364225,0.368458752,-0.25336439,0.353454,0.370713971,-0.255951924,0.353464
0.435810247,-0.318825998,0.432439,0.417586375,-0.268017107,0.403697,0.421292961,-0.306025848,0.430726,0.409959287,-0.291010614,0.421396,0.393840158,-0.268246558,0.407175,0.389426403,-0.250836579,0.397031,0.393186298,-0.226953626,0.389097,0.386318334,-0.193737858,0.387769,0.384079849,-0.173286843,0.387105,0.381500635,-0.157003994,0.386502,0.406217217,-0.232507414,0.383965,0.38424265,-0.182923937,0.354187,0.354145323,-0.182583351,0.336816,0.348756283,-0.197328971,0.33837,0.418886068,-0.241758709,0.382032,0.39090312,-0.212234338,0.356333,0.364040303,-0.216006566,0.343185,0.361302027,-0.229692404,0.345558,0.437081528,-0.261337858,0.383874,0.388386094,-0.252516753,0.361765,0.36794129,-0.252386642,0.351607,0.37056237,-0.25576958,0.35263
0.434025755,-0.319673183,0.427899,0.426102905,-0.267647961,0.399061,0.423732272,-0.303783918,0.428207,0.419254882,-0.289767527,0.420113,0.396739795,-0.267831103,0.408056,0.390046386,-0.251426613,0.397793,0.405189847,-0.224737433,0.386986,0.398792956,-0.188986365,0.383779,0.395569721,-0.170829256,0.382176,0.39262358,-0.154153156,0.380718,0.412813905,-0.230641043,0.379263,0.388788451,-0.185682862,0.350277,0.351736054,-0.182269236,0.333369,0.346318287,-0.199071109,0.334171,0.421119883,-0.240120536,0.375204,0.385011632,-0.211655147,0.351042,0.358104443,-0.217654635,0.33868,0.355575886,-0.22903112,0.3405,0.434310835,-0.259767824,0.374566,0.380126178,-0.248099905,0.353651,0.360698755,-0.247823908,0.344041,0.363533427,-0.250843492,0.344671
0.434278477,-0.318335275,0.427641,0.424532864,-0.267143701,0.39812,0.42267278,-0.30471706,0.428129,0.418410617,-0.289832108,0.419969,0.396863775,-0.268114196,0.40862,0.390591407,-0.252181179,0.398744,0.403507987,-0.224147437,0.38598,0.399403372,-0.188134538,0.38312,0.397344492,-0.169925595,0.38169,0.397248808,-0.15001396,0.38039,0.410635803,-0.229744712,0.377853,0.385689734,-0.183900968,0.348536,0.34949525,-0.181552753,0.331434,0.342468682,-0.194841962,0.33168,0.418589544,-0.239000649,0.373517,0.381955233,-0.212893381,0.349185,0.353886474,-0.218044098,0.336735,0.352900394,-0.227462614,0.338012,0.431492018,-0.258451015,0.372652,0.377787016,-0.247290941,0.351621,0.358500352,-0.246784064,0.341958,0.361292462,-0.249527368,0.342202
0.433694036,-0.318070489,0.426392,0.423487852,-0.266896447,0.396497,0.427591939,-0.304983606,0.428446,0.419268115,-0.290595543,0.421214,0.399936047,-0.270086887,0.411772,0.394095429,-0.2548595,0.402856,0.41229251,-0.225716744,0.386186,0.422661796,-0.191525045,0.386316,0.427900396,-0.174248499,0.386381,0.432694243,-0.158436629,0.38644,0.411611985,-0.230083109,0.375974,0.384827777,-0.184180478,0.347351,0.348899009,-0.181805157,0.330654,0.340117422,-0.194000242,0.329626,0.415403789,-0.238116555,0.36995,0.378762942,-0.21228879,0.346916,0.350854321,-0.216942069,0.335131,0.349282759,-0.225689769,0.33526,0.423314341,-0.260490403,0.367158,0.371070226,-0.246382483,0.347205,0.35439527,-0.245080312,0.338037,0.356008623,-0.247149617,0.337483
0.435087237,-0.320214162,0.426751,0.423066145,-0.267347375,0.396151,0.425248162,-0.305270481,0.428457,0.418674315,-0.290130319,0.420658,0.400507272,-0.269976468,0.411383,0.393820227,-0.254777721,0.402324,0.410602885,-0.225717548,0.385093,0.42041581,-0.191319536,0.384464,0.425385486,-0.173913314,0.384149,0.429941381,-0.157967609,0.383863,0.411214756,-0.230828175,0.375145,0.386833883,-0.187439542,0.345923,0.347708832,-0.182770509,0.328877,0.337569421,-0.193422711,0.327512,0.415985603,-0.242080562,0.369394,0.38240764,-0.212422098,0.345737,0.352319658,-0.214705666,0.333632,0.34725489,-0.223971666,0.333388,0.422600807,-0.262090952,0.367024,0.369989245,-0.247124219,0.346595,0.351890901,-0.246443675,0.337209,0.353884079,-0.249840818,0.33639
0.440968027,-0.297212101,0.439696,0.434235083,-0.256039847,0.401199,0.441502056,-0.276013052,0.436418,0.430877365,-0.238676969,0.420977,0.423801155,-0.20713443,0.40815,0.423413264,-0.187809659,0.396895,0.430752404,-0.212502183,0.380393,0.392814624,-0.175079139,0.352049,0.379051891,-0.185338407,0.355329,0.384445072,-0.204306538,0.367825,0.428963377,-0.228082939,0.37477,0.380811811,-0.189843765,0.339023,0.335895996,-0.181611414,0.318171,0.319972442,-0.185518938,0.312215,0.424441791,-0.243806442,0.37321,0.373378478,-0.210422379,0.342319,0.339705395,-0.211268473,0.326514,0.330433634,-0.216340599,0.321105,0.432076905,-0.269554311,0.376887,0.372382125,-0.247552084,0.351102,0.353716168,-0.247527087,0.339255,0.349959941,-0.250398854,0.334809
0.442003012,-0.29790968,0.440728,0.43497836,-0.256449419,0.401989,0.442373198,-0.276600784,0.437383,0.431530569,-0.239162857,0.421874,0.423472755,-0.207530831,0.408804,0.422292471,-0.187786323,0.397126,0.431150294,-0.212674856,0.380994,0.392993144,-0.175276383,0.35257,0.378867674,-0.185445366,0.355491,0.384204865,-0.204374226,0.367874,0.429494106,-0.228304975,0.375395,0.37387971,-0.192502444,0.339558,0.330869138,-0.189173689,0.318653,0.318152355,-0.191112606,0.312393,0.426384823,-0.244388627,0.373874,0.370625595,-0.215199794,0.342897,0.336744714,-0.213690904,0.327048,0.328685782,-0.218353344,0.32132,0.432006794,-0.270232945,0.37763,0.372932786,-0.245128304,0.351804,0.353087202,-0.245491728,0.339939,0.345929246,-0.249820337,0.335271
0.443777214,-0.300599088,0.443043,0.434928442,-0.257154285,0.404204,0.442765361,-0.279205898,0.439918,0.421157905,-0.244187696,0.425039,0.407030971,-0.212882165,0.412479,0.402213578,-0.191294427,0.400886,0.418282546,-0.209471085,0.383445,0.371368887,-0.179543864,0.355305,0.360876608,-0.193917331,0.357708,0.371203041,-0.212971117,0.369771,0.420790647,-0.223914891,0.377541,0.363015164,-0.193719448,0.341862,0.324268597,-0.190923789,0.321049,0.313507079,-0.197572674,0.314412,0.422487505,-0.241372834,0.375776,0.36755503,-0.217773202,0.345044,0.335803399,-0.218205768,0.329321,0.328322483,-0.221822067,0.323224,0.432365609,-0.269739974,0.379261,0.375051238,-0.247595628,0.353658,0.355974258,-0.248528749,0.341894,0.350028489,-0.251630603,0.336972
0.441317589,-0.297920639,0.443194,0.431556626,-0.252741822,0.404514,0.428475413,-0.265467359,0.436386,0.408129864,-0.225683346,0.419027,0.391765428,-0.192834511,0.404639,0.380372304,-0.171789034,0.391644,0.424457342,-0.203471853,0.379144,0.374319586,-0.182792755,0.347322,0.366827033,-0.197973141,0.352522,0.38336257,-0.212287612,0.367157,0.431134556,-0.222529662,0.37796,0.36250115,-0.20395254,0.34054,0.319447303,-0.197969393,0.318711,0.311596505,-0.197733277,0.313957,0.437019464,-0.241803213,0.380069,0.37315575,-0.225953404,0.346258,0.335950007,-0.219346869,0.32896,0.328873289,-0.222920308,0.324411,0.445771771,-0.270334585,0.388076,0.38795221,-0.25327838,0.360012,0.36312734,-0.251998239,0.347118,0.356748629,-0.256221288,0.343281
0.439711362,-0.29622109,0.443165,0.432105607,-0.251757166,0.404665,0.428345806,-0.265387059,0.436254,0.407840588,-0.225523385,0.41873,0.39146045,-0.192684394,0.404324,0.380074139,-0.171654373,0.391337,0.424567054,-0.203524446,0.379242,0.374392872,-0.182828542,0.34739,0.367122557,-0.198132633,0.352806,0.383761431,-0.212508482,0.367539,0.431448245,-0.222691572,0.378235,0.362851367,-0.204149581,0.340869,0.319662715,-0.198178804,0.319072,0.31151499,-0.198495888,0.314503,0.4374863,-0.242061514,0.380475,0.373584667,-0.226213122,0.346656,0.336610524,-0.220301833,0.329354,0.329061036,-0.223483195,0.324983,0.446091827,-0.270814943,0.38861,0.388797755,-0.253341366,0.360534,0.364331555,-0.251980432,0.347634,0.359863914,-0.25537688,0.343921
0.43736292,-0.293882321,0.443764,0.43158261,-0.249846421,0.405127,0.42707942,-0.265654684,0.436731,0.406145944,-0.225554712,0.418778,0.383451483,-0.193061447,0.403174,0.370365369,-0.172648997,0.389508,0.420743783,-0.204576872,0.37949,0.37182393,-0.182523519,0.346741,0.364452597,-0.197706831,0.35199,0.378153734,-0.212004891,0.36701,0.428013103,-0.223308413,0.378603,0.361314905,-0.20433792,0.341138,0.31820721,-0.198328964,0.319283,0.308618988,-0.198942808,0.314593,0.432040203,-0.242959625,0.380953,0.372112856,-0.226458198,0.347009,0.335551736,-0.221796701,0.329642,0.327563555,-0.22441448,0.325133,0.44319861,-0.271978357,0.389237,0.385634477,-0.253060533,0.361074,0.36407054,-0.252717058,0.348135,0.359967989,-0.256324012,0.344327
0.422053935,-0.284165168,0.436928,0.422994223,-0.247620509,0.400946,0.418972676,-0.260941347,0.430863,0.399322395,-0.217216101,0.414409,0.381574761,-0.188718782,0.399836,0.37369809,-0.16991814,0.387586,0.423333916,-0.204004764,0.377688,0.373010983,-0.183144074,0.347343,0.365646099,-0.190765311,0.354912,0.384690061,-0.204416813,0.369909,0.428455769,-0.224717282,0.376244,0.370656873,-0.201554214,0.340457,0.324445426,-0.193951536,0.319581,0.312528816,-0.199665123,0.317073,0.428320869,-0.244860643,0.377925,0.373516206,-0.223280606,0.345653,0.340991038,-0.214696812,0.329142,0.331217659,-0.22331142,0.326961,0.435897471,-0.27382855,0.385043,0.384678577,-0.249573858,0.35804,0.361018096,-0.246339337,0.345634,0.353516711,-0.252510416,0.343452
0.411122305,-0.280064541,0.433758,0.421679912,-0.247550342,0.400712,0.410129889,-0.25716866,0.427946,0.396790918,-0.218172589,0.412262,0.383268101,-0.185119266,0.399081,0.37550676,-0.168055681,0.387181,0.424446382,-0.20538703,0.379043,0.375767827,-0.184767137,0.350079,0.36663538,-0.193678074,0.359638,0.377819065,-0.204523254,0.374886,0.427218365,-0.226151646,0.378026,0.369784969,-0.204888398,0.344114,0.327471304,-0.198842057,0.324332,0.317980777,-0.203477707,0.323842,0.431035262,-0.246498249,0.379823,0.377587278,-0.225505657,0.349104,0.341857956,-0.220902365,0.333388,0.335688861,-0.22764803,0.333269,0.432046198,-0.274070248,0.386658,0.386129666,-0.250693211,0.360795,0.362790105,-0.249232393,0.348912,0.358135808,-0.255162361,0.348189
0.403085108,-0.26883262,0.428341,0.422004643,-0.246990998,0.398147,0.408144428,-0.245169063,0.42189,0.410180936,-0.204155236,0.415306,0.407089891,-0.176089915,0.409215,0.406383624,-0.156862082,0.40214,0.436061733,-0.221133744,0.3769,0.391326307,-0.193149203,0.348747,0.383976886,-0.189503302,0.359834,0.391767883,-0.206283058,0.375373,0.431297409,-0.241602922,0.37742,0.380113666,-0.212529411,0.345287,0.333786734,-0.198863868,0.326543,0.325258293,-0.200635003,0.327707,0.426166929,-0.25954182,0.380254,0.378876827,-0.230512195,0.350665,0.343249656,-0.224076205,0.335526,0.338658889,-0.228557111,0.336982,0.417747493,-0.282451458,0.387899,0.386884377,-0.252668352,0.362928,0.366173988,-0.233686097,0.351455,0.359006341,-0.226051968,0.351864
0.40224223,-0.264748382,0.426041,0.419804857,-0.246017501,0.395781,0.411914296,-0.237495645,0.418698,0.412222688,-0.231982463,0.397292,0.428598184,-0.213585566,0.38766,0.440439039,-0.204500644,0.382159,0.433834569,-0.221141555,0.373371,0.389124184,-0.192749555,0.344537,0.382830801,-0.192445854,0.355512,0.39393192,-0.202185035,0.371275,0.430016188,-0.242120132,0.375008,0.379222476,-0.212674305,0.342662,0.335450017,-0.198126874,0.323794,0.32324496,-0.199824267,0.32484,0.425659066,-0.260508204,0.378767,0.380211931,-0.234348445,0.34864,0.342660471,-0.223047776,0.333227,0.336316394,-0.227840349,0.334456,0.41810902,-0.283936773,0.387507,0.387473597,-0.252271386,0.362169,0.365921272,-0.23352701,0.350527,0.359284953,-0.226754379,0.350789
0.392854552,-0.215663318,0.402568,0.400381112,-0.236268238,0.379249,0.402956968,-0.227943556,0.406988,0.423600296,-0.19411798,0.402537,0.436061337,-0.173608714,0.393329,0.439918329,-0.157351839,0.383785,0.418995925,-0.251914209,0.374788,0.424962689,-0.217464948,0.359687,0.419371937,-0.215153921,0.369696,0.413935635,-0.227625665,0.379653,0.402477954,-0.250117596,0.363241,0.401224171,-0.207077391,0.339963,0.364860158,-0.187210572,0.326384,0.35202953,-0.193211109,0.328561,0.388451455,-0.247333523,0.355595,0.393429156,-0.209052908,0.337814,0.365937143,-0.192336076,0.328716,0.352723762,-0.198506777,0.332287,0.370932434,-0.24142729,0.349959,0.375967385,-0.208566569,0.334027,0.358256851,-0.195823304,0.326706,0.348629023,-0.200441456,0.328604
0.385067458,-0.212569428,0.394072,0.397624164,-0.235284602,0.376652,0.399718715,-0.224354777,0.401837,0.429653964,-0.201608166,0.406018,0.443567996,-0.177268681,0.403435,0.450848381,-0.161948653,0.396801,0.425107055,-0.256526993,0.378989,0.438540011,-0.225587352,0.370269,0.431981109,-0.222881997,0.380127,0.424818734,-0.234966155,0.388702,0.404567314,-0.252812076,0.364693,0.410154246,-0.213188227,0.347388,0.377823693,-0.193934305,0.337294,0.365514809,-0.199818512,0.340711,0.386747712,-0.248025651,0.354313,0.398681899,-0.213724653,0.342828,0.374364794,-0.198742459,0.336951,0.362504562,-0.205875773,0.342027,0.364045071,-0.239157481,0.344624,0.376165781,-0.21143584,0.333688,0.3719568,-0.199132594,0.328663,0.369576684,-0.193288288,0.331678
0.384324846,-0.213985445,0.395093,0.390077633,-0.233439477,0.37173,0.398760479,-0.223441359,0.400815,0.418145133,-0.19490583,0.398686,0.418980925,-0.169319363,0.389081,0.417310605,-0.150705993,0.37833,0.412781719,-0.250226829,0.368903,0.420486413,-0.21770241,0.35532,0.413360872,-0.214065105,0.363735,0.406637996,-0.225263964,0.372456,0.392702305,-0.248540741,0.355691,0.391137924,-0.206584966,0.333267,0.379871451,-0.199611137,0.343475,0.379056176,-0.208827078,0.35479,0.375634359,-0.244883387,0.346677,0.381054581,-0.208462891,0.330209,0.373435939,-0.202492059,0.338919,0.368260657,-0.211418465,0.349048,0.35468427,-0.238046494,0.339442,0.357254341,-0.207062929,0.32461,0.352445537,-0.202591411,0.330596,0.346879404,-0.21460281,0.338137
0.370793793,-0.217605884,0.385298,0.384632761,-0.231253857,0.366934,0.390359292,-0.219013269,0.392517,0.414412206,-0.197358112,0.397994,0.410691493,-0.168881211,0.389979,0.41805673,-0.151903478,0.382511,0.41243089,-0.249496143,0.36817,0.421479432,-0.2196927,0.357889,0.416132246,-0.216608249,0.367835,0.410020703,-0.226688246,0.37738,0.391686703,-0.246609062,0.354327,0.391044069,-0.208065005,0.33603,0.383305322,-0.203104782,0.348214,0.38161874,-0.213664492,0.359365,0.372947638,-0.243742606,0.344396,0.379251036,-0.210469626,0.331864,0.372947641,-0.206019875,0.342213,0.369662163,-0.216519811,0.352626,0.347877054,-0.237663458,0.335368,0.354718306,-0.207141977,0.323595,0.35124825,-0.203898041,0.330848,0.347495138,-0.216305782,0.338532
0.376120802,-0.22159136,0.39187,0.392419629,-0.236672258,0.374735,0.394455268,-0.225198267,0.399353,0.412749823,-0.202205643,0.407423,0.403790173,-0.172329087,0.39743,0.401263245,-0.152496016,0.387909,0.423096278,-0.251084005,0.376838,0.415035736,-0.209848222,0.35497,0.408999605,-0.211977638,0.364675,0.408748922,-0.226111338,0.377355,0.402564814,-0.251520298,0.362972,0.399823214,-0.210854597,0.345653,0.390394317,-0.208874983,0.358372,0.389665719,-0.221710798,0.369567,0.384195034,-0.248452855,0.352925,0.389072473,-0.21556602,0.341286,0.382589769,-0.211332572,0.352077,0.378567656,-0.222178979,0.362281,0.357904233,-0.245575715,0.343585,0.364760725,-0.214009283,0.332507,0.36143111,-0.210636408,0.340099,0.357302162,-0.222105138,0.347556
0.372317721,-0.22613944,0.39252,0.393405486,-0.238915392,0.376666,0.390396153,-0.229227492,0.40057,0.400521935,-0.202357905,0.408846,0.391570516,-0.172968006,0.400093,0.384444505,-0.153890689,0.390046,0.422617869,-0.244035868,0.380044,0.41252634,-0.205731128,0.359066,0.404648733,-0.209609465,0.368792,0.407866501,-0.226460992,0.381174,0.40537521,-0.249827295,0.365783,0.400269376,-0.208506829,0.349699,0.389628445,-0.209373374,0.36246,0.391872823,-0.22414692,0.373361,0.387459486,-0.248834619,0.355307,0.396332296,-0.216595786,0.344916,0.388715694,-0.212950244,0.355746,0.381860596,-0.222336459,0.364479,0.362315257,-0.247333191,0.345282,0.367851522,-0.216013608,0.335197,0.364223058,-0.212803678,0.342839,0.359581352,-0.223493885,0.349553
0.366397734,-0.225997022,0.390968,0.39043941,-0.239851778,0.377079,0.384465136,-0.229244996,0.399831,0.39283818,-0.203483294,0.409841,0.384241172,-0.174223353,0.401806,0.383725563,-0.15539763,0.393664,0.422772796,-0.244150196,0.382337,0.410829231,-0.205291135,0.362703,0.405743417,-0.210982609,0.372464,0.403851144,-0.226690316,0.384557,0.404204563,-0.246403697,0.367543,0.399276672,-0.207422762,0.353339,0.387976165,-0.210334994,0.366171,0.387588127,-0.226597715,0.37673,0.387437661,-0.24951164,0.356473,0.394032432,-0.217056121,0.34533,0.387156167,-0.213290462,0.356082,0.379743193,-0.223968948,0.365187,0.361329526,-0.247155928,0.345468,0.369131759,-0.217205721,0.336881,0.364753373,-0.21499013,0.344602,0.36048401,-0.224427865,0.350752
0.360928485,-0.226941224,0.38909,0.386727616,-0.238952995,0.376615,0.380206157,-0.226638116,0.398313,0.392200964,-0.203517956,0.409396,0.383627363,-0.174125312,0.401054,0.381235031,-0.155051155,0.39234,0.422089369,-0.244523808,0.382942,0.412284836,-0.206911153,0.364372,0.404570637,-0.211894759,0.374422,0.404516528,-0.227899398,0.386364,0.403632081,-0.24677295,0.36805,0.400140909,-0.208511457,0.355057,0.389111724,-0.211709449,0.368259,0.388578313,-0.228019657,0.378772,0.387207754,-0.249431378,0.356786,0.393542097,-0.217266598,0.346198,0.385656042,-0.21387724,0.357225,0.380331582,-0.224915085,0.366683,0.361062705,-0.247232281,0.345353,0.369029797,-0.217578596,0.33766,0.362577781,-0.215541651,0.345625,0.36099375,-0.226268469,0.352158
0.361694683,-0.224252565,0.390258,0.383516262,-0.237164265,0.374282,0.379424375,-0.226342216,0.39852,0.386640295,-0.198385326,0.400675,0.375307742,-0.168316719,0.389211,0.365795791,-0.148663569,0.376338,0.414138402,-0.24088059,0.377877,0.405335414,-0.203256046,0.356693,0.397338332,-0.207344862,0.36605,0.395547176,-0.222802837,0.378147,0.397658154,-0.243525179,0.363315,0.391860465,-0.204126086,0.347303,0.380625754,-0.206368063,0.359615,0.379816323,-0.22144007,0.368409,0.382134391,-0.246164458,0.352601,0.384608938,-0.211745295,0.338112,0.377395011,-0.208346942,0.348343,0.371113945,-0.219478201,0.358281,0.357663792,-0.244852601,0.342314,0.362717528,-0.213872914,0.332372,0.357638183,-0.211828031,0.339748,0.354679512,-0.221030998,0.346107
0.36268729,-0.225341505,0.392243,0.383921535,-0.237451693,0.375243,0.380088038,-0.226877432,0.399998,0.387165852,-0.1983982,0.401243,0.378600959,-0.167379323,0.389447,0.369323769,-0.14890675,0.377995,0.41363786,-0.240683286,0.37775,0.403960574,-0.202578226,0.355795,0.3961549,-0.206619843,0.365213,0.394691709,-0.222201008,0.377639,0.397444336,-0.24343878,0.363572,0.395152909,-0.205368206,0.346531,0.386770745,-0.201073755,0.358909,0.378992492,-0.215258248,0.36775,0.381953159,-0.245538814,0.353256,0.383583965,-0.210932612,0.337517,0.376429099,-0.207696237,0.347789,0.370669554,-0.219141105,0.358247,0.358877758,-0.245465983,0.343583,0.362763149,-0.213777468,0.332796,0.358222987,-0.211381898,0.34019,0.354999971,-0.221421765,0.346854
0.368318094,-0.223821051,0.394138,0.385271068,-0.237987514,0.37494,0.387156263,-0.225722086,0.400743,0.40237037,-0.19797912,0.399966,0.394749611,-0.168006894,0.3886,0.390054121,-0.148423063,0.377061,0.413236501,-0.246777721,0.375034,0.409425236,-0.210527467,0.351458,0.402479131,-0.210328338,0.360989,0.394501509,-0.221372203,0.374101,0.398062368,-0.248768585,0.36176,0.397376395,-0.212335259,0.342506,0.388758785,-0.20674829,0.355,0.381309186,-0.215932405,0.363924,0.380136249,-0.247676358,0.352363,0.385428072,-0.215858035,0.338055,0.37926117,-0.209345279,0.348613,0.372007816,-0.218865191,0.358609,0.358222128,-0.246526044,0.344083,0.361097558,-0.215026602,0.331465,0.356470187,-0.211774946,0.338884,0.353702964,-0.22190444,0.346201
0.368459287,-0.226014331,0.396297,0.386745437,-0.239274567,0.376595,0.386704799,-0.226875883,0.402121,0.402617313,-0.198429865,0.39999,0.400952875,-0.170067003,0.38853,0.391815749,-0.149274388,0.376244,0.413317957,-0.247937032,0.375479,0.407406831,-0.212097442,0.351528,0.402208455,-0.21116155,0.361665,0.395716503,-0.222217221,0.375166,0.394692223,-0.250545307,0.363069,0.397163771,-0.213338688,0.342984,0.390084222,-0.207839632,0.356221,0.381960218,-0.217353809,0.365676,0.378237794,-0.251759401,0.354424,0.385090785,-0.220926709,0.33981,0.381626033,-0.213796529,0.35101,0.374016952,-0.220851248,0.361385,0.356670768,-0.251459265,0.347097,0.360317874,-0.220197575,0.333644,0.356991889,-0.215290009,0.341488,0.356517253,-0.224231741,0.349264
0.370950943,-0.225402601,0.397503,0.386775722,-0.239344147,0.376979,0.39255005,-0.226071023,0.403014,0.41499255,-0.196748943,0.400355,0.418676301,-0.167500376,0.390592,0.419995215,-0.150292782,0.380137,0.416028563,-0.247985794,0.37511,0.406663747,-0.212043224,0.350574,0.401417397,-0.210662221,0.360563,0.398831451,-0.222469969,0.374236,0.396777009,-0.250151651,0.362889,0.394891409,-0.21441036,0.342072,0.389993464,-0.20781506,0.355115,0.38340883,-0.216934647,0.364432,0.377842753,-0.251256799,0.354465,0.384489063,-0.220766109,0.339128,0.381648711,-0.212587579,0.350165,0.373286887,-0.220176404,0.360767,0.358815984,-0.249577542,0.347515,0.362554604,-0.216927176,0.333494,0.358267846,-0.213461885,0.341207,0.356298522,-0.22398691,0.349132
0.371569111,-0.225437749,0.398416,0.387369872,-0.239720326,0.378003,0.39300308,-0.225721545,0.403892,0.415625974,-0.195502391,0.401225,0.41969086,-0.168265587,0.391476,0.421105329,-0.151092869,0.381007,0.415123345,-0.249069653,0.37614,0.407559752,-0.213893345,0.351684,0.402203123,-0.211561041,0.361778,0.399505938,-0.222658156,0.375461,0.395692965,-0.251208807,0.363991,0.396596032,-0.21561067,0.343227,0.395822208,-0.207924915,0.3564,0.388818864,-0.212141868,0.36581,0.378807987,-0.251877761,0.355616,0.386570435,-0.222326671,0.340304,0.386294438,-0.215518991,0.351449,0.376614352,-0.220362454,0.362084,0.359284438,-0.250209994,0.348709,0.362879039,-0.218353664,0.334704,0.359442276,-0.214552761,0.342497,0.357418723,-0.224906826,0.350447
0.370005222,-0.224807416,0.397527,0.386572322,-0.239231145,0.377669,0.39235179,-0.224045756,0.402991,0.413843469,-0.194783545,0.400248,0.40748652,-0.164604778,0.387282,0.397652209,-0.148587058,0.37434,0.415153042,-0.248988098,0.376028,0.40827549,-0.214096506,0.35197,0.402911413,-0.21257443,0.362402,0.399855539,-0.2226042,0.376063,0.395697214,-0.251114055,0.364036,0.396708885,-0.215596904,0.34363,0.393796085,-0.208277705,0.357228,0.385759196,-0.213547373,0.366941,0.379512539,-0.250975025,0.355747,0.385825679,-0.221720324,0.340709,0.380637872,-0.218139662,0.352201,0.37439206,-0.226984092,0.362865,0.358067254,-0.249994819,0.348861,0.363103488,-0.21869824,0.335064,0.359610431,-0.214995534,0.343116,0.357541411,-0.225234623,0.351094
0.372448768,-0.222505275,0.39787,0.386845559,-0.239217271,0.377969,0.394227604,-0.222634795,0.403115,0.413207001,-0.194336601,0.400006,0.406678453,-0.163864308,0.386514,0.397147703,-0.147240522,0.373324,0.41525954,-0.24885519,0.376032,0.407971837,-0.21335727,0.351949,0.403432387,-0.212559245,0.36258,0.400846308,-0.222474105,0.37633,0.395962024,-0.251085647,0.364307,0.396605605,-0.215357591,0.343744,0.394040982,-0.208047002,0.357586,0.38658031,-0.212513759,0.367474,0.380209313,-0.2506113,0.356241,0.38696996,-0.222572884,0.340975,0.38323474,-0.217287105,0.352665,0.375848862,-0.228335215,0.363499,0.358532816,-0.250201713,0.349623,0.363275965,-0.220094946,0.33564,0.361093407,-0.216431809,0.343834,0.358123835,-0.225563094,0.351932
0.376272784,-0.225992438,0.403595,0.38677431,-0.239418194,0.381582,0.395288871,-0.227608665,0.40939,0.410318852,-0.200435226,0.411693,0.396110095,-0.168328408,0.402456,0.385433723,-0.150534406,0.391328,0.416481192,-0.247951777,0.379431,0.406059051,-0.205201061,0.359048,0.411141049,-0.196574708,0.367989,0.406183034,-0.196894613,0.379604,0.391386521,-0.245745657,0.366469,0.392065176,-0.206005443,0.344898,0.391249323,-0.19651141,0.356283,0.38680976,-0.208076931,0.36766,0.370443998,-0.242418821,0.357554,0.367774217,-0.201807472,0.341774,0.38487553,-0.190128128,0.351453,0.39896004,-0.177507201,0.361692,0.344259857,-0.236314463,0.350241,0.347951294,-0.204052746,0.335914,0.363394513,-0.19703788,0.342471,0.372277229,-0.190982458,0.350172
0.376734358,-0.224457204,0.403661,0.385151088,-0.237656707,0.381218,0.394492375,-0.225757053,0.407716,0.407478719,-0.198936645,0.409404,0.386580251,-0.168524039,0.396436,0.377062156,-0.149139432,0.38444,0.411990249,-0.246662585,0.376671,0.40476549,-0.208376472,0.359462,0.413331255,-0.198431231,0.370247,0.40782463,-0.198108797,0.381346,0.389987284,-0.245833355,0.365811,0.391165705,-0.209089426,0.342883,0.392708278,-0.19722062,0.356312,0.389250123,-0.202285437,0.36882,0.370953127,-0.244021756,0.358661,0.38074442,-0.223300687,0.340976,0.383065728,-0.211541837,0.352313,0.385066693,-0.212071884,0.363983,0.346855047,-0.23975018,0.35348,0.349366331,-0.207306582,0.337598,0.359301841,-0.201557264,0.345494,0.363040027,-0.201168896,0.354145
0.375632005,-0.222608973,0.402438,0.382617404,-0.236158282,0.380438,0.393907127,-0.224495107,0.406643,0.404598733,-0.19676127,0.408627,0.384918157,-0.168018142,0.395614,0.371948525,-0.147850738,0.382865,0.410505221,-0.246356643,0.376272,0.406192532,-0.209931585,0.361501,0.415461545,-0.200139292,0.372518,0.409068051,-0.198973337,0.382747,0.388573424,-0.245828768,0.365335,0.389143408,-0.208864356,0.342782,0.382751656,-0.200217157,0.356364,0.379912922,-0.211237911,0.368785,0.36957064,-0.244246064,0.358086,0.379790916,-0.224158824,0.340765,0.384106677,-0.213032212,0.35223,0.381675704,-0.217174197,0.363804,0.345456109,-0.24021356,0.352726,0.356601032,-0.222343706,0.337127,0.357283446,-0.216549916,0.345123,0.352363393,-0.220874576,0.353713
0.366198162,-0.215797851,0.392154,0.374781197,-0.231599257,0.374204,0.386083635,-0.21909072,0.397968,0.4016296,-0.195477569,0.405949,0.383616598,-0.166627418,0.394189,0.372009743,-0.147916168,0.383324,0.407327518,-0.244987635,0.373833,0.407199734,-0.211112135,0.362638,0.417584343,-0.201728873,0.374363,0.410020618,-0.199700279,0.383465,0.384448009,-0.243879216,0.361881,0.383939812,-0.207902633,0.34297,0.380415334,-0.201383428,0.357435,0.37825673,-0.211638594,0.369885,0.364425051,-0.241586924,0.353474,0.377711145,-0.222443776,0.339777,0.384879585,-0.211787934,0.351983,0.379304614,-0.21468868,0.362391,0.338747639,-0.236355441,0.346176,0.354889233,-0.225217948,0.333423,0.358806522,-0.21944759,0.342023,0.350999163,-0.219868305,0.349845
0.377419153,-0.221551049,0.404442,0.383318215,-0.236618447,0.382309,0.396769932,-0.224351848,0.408897,0.408894233,-0.194553269,0.404473,0.399290928,-0.164900677,0.39218,0.387068989,-0.146597213,0.37923,0.412844012,-0.247738751,0.378404,0.408944264,-0.212044205,0.363846,0.418476439,-0.202268247,0.374557,0.411945843,-0.200523078,0.384581,0.390373397,-0.247480003,0.367115,0.385892509,-0.208848586,0.344618,0.380914196,-0.201682053,0.357801,0.383399107,-0.211988874,0.370303,0.370969715,-0.246090844,0.359587,0.388410206,-0.224705795,0.34243,0.385760822,-0.218743417,0.35357,0.380578454,-0.224430913,0.364948,0.34609817,-0.243118999,0.353919,0.360580688,-0.225453556,0.338457,0.361702658,-0.219780429,0.346217,0.356914091,-0.222198918,0.354667
0.40436756,-0.266984585,0.424831,0.403614478,-0.258297301,0.387973,0.420683124,-0.259111036,0.422337,0.408834898,-0.223617429,0.408077,0.399078976,-0.193167711,0.395241,0.391875462,-0.173791787,0.382728,0.42294084,-0.244402877,0.368873,0.37752128,-0.199558022,0.340498,0.376014231,-0.188507041,0.345335,0.372899152,-0.19105014,0.358465,0.402623365,-0.25213356,0.36267,0.363637823,-0.202332605,0.327921,0.351506707,-0.194037333,0.333821,0.356883752,-0.200726261,0.348242,0.38373056,-0.255143637,0.360501,0.376028266,-0.223129104,0.330679,0.367209526,-0.216409228,0.335728,0.363262517,-0.220140376,0.349787,0.366200272,-0.269185977,0.363228,0.348526927,-0.229731757,0.33816,0.343445197,-0.219822728,0.339829,0.339995566,-0.223559671,0.34945
0.405640248,-0.260282994,0.425234,0.401680976,-0.249661054,0.387745,0.420217182,-0.251295009,0.420704,0.419908892,-0.20922978,0.406164,0.418793394,-0.179826296,0.393683,0.418056091,-0.161861573,0.381544,0.419935628,-0.240277084,0.365786,0.3744706,-0.196280057,0.336306,0.374499675,-0.186277529,0.341971,0.37293521,-0.187622951,0.355868,0.401850649,-0.250164971,0.36201,0.359774023,-0.20113134,0.325964,0.348996027,-0.193704316,0.332909,0.356529607,-0.201399265,0.348127,0.385559245,-0.256566038,0.361889,0.368069224,-0.220904817,0.330126,0.357441303,-0.216697276,0.336001,0.361170848,-0.222817092,0.351174,0.369559548,-0.270440761,0.36711,0.350931385,-0.23272253,0.340536,0.34654043,-0.223196948,0.342173,0.343797062,-0.226206062,0.352392
0.39863001,-0.237038257,0.417228,0.400066886,-0.24580909,0.384462,0.412007181,-0.23299451,0.412038,0.419100343,-0.200749779,0.400285,0.418922887,-0.17212878,0.388175,0.4165474,-0.157713841,0.37715,0.418599545,-0.238517218,0.363705,0.377430355,-0.195841935,0.335361,0.383134656,-0.188726178,0.345014,0.385443181,-0.188125745,0.360056,0.402217607,-0.249774291,0.361969,0.359075577,-0.202219989,0.328404,0.35573596,-0.198395931,0.340489,0.364600444,-0.207709991,0.356441,0.387380261,-0.257770747,0.363151,0.369274037,-0.225440908,0.33297,0.3620683,-0.221027292,0.343062,0.366058019,-0.229340616,0.35928,0.371469644,-0.270786052,0.369225,0.363638934,-0.244158721,0.343753,0.359167761,-0.240438764,0.350557,0.359054991,-0.247017122,0.36216
0.412486058,-0.247939281,0.426492,0.406914572,-0.248756096,0.390534,0.424909965,-0.238572067,0.419162,0.416678842,-0.1982214,0.402069,0.405600793,-0.165532903,0.385127,0.401536556,-0.151146483,0.371589,0.420600937,-0.239248159,0.365677,0.377000455,-0.195960755,0.334344,0.370067025,-0.195264048,0.34203,0.380660474,-0.208911829,0.356785,0.405434495,-0.251599653,0.365848,0.368592381,-0.214129392,0.329756,0.361551513,-0.203126331,0.339387,0.364853255,-0.206880507,0.355466,0.392211893,-0.260559905,0.368856,0.367575376,-0.228087335,0.335806,0.361357554,-0.221355103,0.343839,0.367129763,-0.229285696,0.360393,0.376259831,-0.271615916,0.377528,0.34645391,-0.226065324,0.349973,0.352372912,-0.221350394,0.355229,0.362867247,-0.231674992,0.365608
0.416169065,-0.248256144,0.429252,0.410728296,-0.250690697,0.39288,0.428043425,-0.238794468,0.421253,0.418086497,-0.200467759,0.403321,0.404346085,-0.168462091,0.385558,0.397776718,-0.1507052,0.371055,0.421710494,-0.239976065,0.366994,0.377941724,-0.197176724,0.335007,0.370113854,-0.195672497,0.342352,0.379394821,-0.208278845,0.357757,0.406827395,-0.252682842,0.36791,0.370070732,-0.216234861,0.331435,0.362664377,-0.20487968,0.340655,0.366821789,-0.208538132,0.356742,0.392896744,-0.261779435,0.371563,0.368955592,-0.230471483,0.33794,0.362321494,-0.222901937,0.34562,0.365963264,-0.231048882,0.362265,0.376279969,-0.271619134,0.381052,0.349287079,-0.228665519,0.353096,0.354966219,-0.223066244,0.358089,0.365987519,-0.2325711,0.368992
0.414173478,-0.261798118,0.432413,0.410905375,-0.253860883,0.393846,0.426774269,-0.2508355,0.426092,0.406096758,-0.216413066,0.411057,0.392637774,-0.184987455,0.396803,0.38116141,-0.164692558,0.383546,0.418958022,-0.232186104,0.369143,0.373725536,-0.194584138,0.334887,0.364609495,-0.193510327,0.339943,0.37529236,-0.20598819,0.35548,0.405698556,-0.250780061,0.36737,0.360436619,-0.210469706,0.330153,0.34740778,-0.20316538,0.336573,0.360410523,-0.208596948,0.35205,0.392289272,-0.261572832,0.368984,0.36237404,-0.228992008,0.334508,0.347204905,-0.222284062,0.339861,0.358000423,-0.227503293,0.355921,0.381772129,-0.279638088,0.376395,0.343466072,-0.237485563,0.348598,0.343700676,-0.227639497,0.35192,0.356849541,-0.227669799,0.362991
0.415245346,-0.256029793,0.431427,0.410173618,-0.251764597,0.393305,0.423942146,-0.240123368,0.422929,0.398014149,-0.203720783,0.405326,0.378863655,-0.171765579,0.388687,0.363407262,-0.147839659,0.374221,0.416185788,-0.23008369,0.366028,0.362091767,-0.193572603,0.331543,0.356786728,-0.191863296,0.337291,0.370182436,-0.20370403,0.351712,0.405501401,-0.25011275,0.367134,0.359057546,-0.211691127,0.329589,0.346679115,-0.204034846,0.336883,0.351173191,-0.20887982,0.352754,0.395551774,-0.263530662,0.371082,0.352688896,-0.229546318,0.335964,0.341393586,-0.22439414,0.342023,0.352166095,-0.231999036,0.358625,0.386542968,-0.282338451,0.381169,0.348058856,-0.2406535,0.352511,0.348312511,-0.231560539,0.356321,0.360794775,-0.23307505,0.367884
0.413048153,-0.255047268,0.429915,0.409159967,-0.251152349,0.39262,0.416021131,-0.238871938,0.421317,0.397576727,-0.202103724,0.404525,0.377370449,-0.168218214,0.387982,0.361743837,-0.148264469,0.373511,0.415851469,-0.229199148,0.365575,0.360050381,-0.1938471,0.331484,0.353502935,-0.193586737,0.337958,0.369026963,-0.203652116,0.351436,0.404980078,-0.249076022,0.367018,0.350639449,-0.211763457,0.329905,0.343410914,-0.205330373,0.338121,0.350534291,-0.210146294,0.354124,0.397083402,-0.263938464,0.371178,0.352313428,-0.231017485,0.336388,0.341731564,-0.226573506,0.343207,0.352642329,-0.233998173,0.359979,0.3874173,-0.282444683,0.381395,0.348766218,-0.241805406,0.352931,0.34925047,-0.233355086,0.3573,0.359595086,-0.235379284,0.369012
0.413390381,-0.255401364,0.430738,0.407935772,-0.250460285,0.39179,0.421140509,-0.2390629,0.421388,0.396143493,-0.20048618,0.402639,0.374916281,-0.168688896,0.385632,0.35863989,-0.148685997,0.371002,0.412629642,-0.22653337,0.363075,0.353133288,-0.191835218,0.328589,0.345325469,-0.190520038,0.333412,0.360319622,-0.199969486,0.346849,0.402664013,-0.246370777,0.365053,0.345593633,-0.209478894,0.326964,0.333657885,-0.201690081,0.333049,0.344517347,-0.207141038,0.348737,0.394578547,-0.262289606,0.369786,0.343198094,-0.228826925,0.333847,0.334191287,-0.224142057,0.338889,0.346889555,-0.23117244,0.355415,0.386449441,-0.281950165,0.38091,0.34670876,-0.241041635,0.351761,0.34603237,-0.231942299,0.35482,0.356341456,-0.234130008,0.366266
0.412676321,-0.254726482,0.429826,0.407742188,-0.250417967,0.391472,0.42235026,-0.239880045,0.42075,0.398222475,-0.20077685,0.40238,0.37942235,-0.169513599,0.38531,0.360181323,-0.148688982,0.370738,0.414817873,-0.2291652,0.36336,0.359121087,-0.192942939,0.329919,0.355309309,-0.189685397,0.335436,0.367635458,-0.197588311,0.349952,0.403957267,-0.248674325,0.365141,0.347083708,-0.210245265,0.327383,0.337866835,-0.202767116,0.3343,0.348222984,-0.208790424,0.350129,0.394506066,-0.262482829,0.369665,0.347664776,-0.229511069,0.334154,0.336537227,-0.224169281,0.33989,0.347826886,-0.232089341,0.356521,0.385655944,-0.28177314,0.38046,0.346446848,-0.24164134,0.351538,0.346209134,-0.232635749,0.355108,0.356492854,-0.234528894,0.366671
0.412100416,-0.251924964,0.428393,0.407743155,-0.250317729,0.391199,0.421274107,-0.23877985,0.419245,0.403427689,-0.199282606,0.400236,0.387313762,-0.166159981,0.3824,0.366141572,-0.147072482,0.367388,0.416697941,-0.233783435,0.363499,0.363631989,-0.193234521,0.330399,0.361357663,-0.190632295,0.336922,0.373354246,-0.195597397,0.352179,0.404358213,-0.24915328,0.365666,0.35234498,-0.212183916,0.328529,0.343404684,-0.20427627,0.336738,0.352763799,-0.209899413,0.352749,0.395115577,-0.262970208,0.370414,0.350642697,-0.231062972,0.335812,0.340692548,-0.225953941,0.342636,0.350794899,-0.233856917,0.359335,0.386215876,-0.282262593,0.381306,0.347726392,-0.242793385,0.352684,0.348313686,-0.23405689,0.35704,0.358745623,-0.235741811,0.368803
0.411269783,-0.2480931,0.426488,0.406218946,-0.249322867,0.38992,0.41920833,-0.23628871,0.416487,0.423521892,-0.199980027,0.403441,0.418309184,-0.166438734,0.389936,0.414146584,-0.146605679,0.37741,0.411661641,-0.240625334,0.361407,0.361925635,-0.196059171,0.32798,0.360127546,-0.190306232,0.334729,0.371454608,-0.19700495,0.350049,0.397211573,-0.25511132,0.364817,0.35007937,-0.218337,0.327953,0.343452425,-0.204565475,0.336489,0.353837904,-0.210121445,0.352503,0.386099309,-0.266585262,0.370539,0.345840139,-0.231375284,0.335798,0.339395202,-0.225695168,0.342873,0.350805401,-0.233655557,0.359726,0.374325798,-0.279213795,0.382484,0.344242563,-0.242736056,0.353803,0.34855556,-0.234418456,0.358345,0.359649328,-0.235649003,0.370201
0.410578082,-0.246717888,0.425404,0.405613418,-0.249055961,0.389583,0.419063708,-0.233834636,0.415384,0.424143729,-0.195766759,0.401805,0.416548229,-0.164205819,0.387375,0.41381955,-0.145068362,0.374901,0.412934886,-0.240426884,0.361367,0.364380107,-0.19903391,0.32822,0.362585497,-0.190957537,0.335496,0.374150236,-0.194958278,0.351285,0.399144191,-0.253074876,0.364991,0.352765506,-0.216995538,0.328577,0.347437163,-0.205859182,0.33779,0.360015634,-0.21112791,0.353854,0.388176332,-0.264415645,0.37083,0.348293862,-0.23219381,0.336427,0.340744533,-0.226156034,0.344057,0.352163894,-0.234013598,0.360996,0.376814227,-0.275867846,0.382805,0.347407347,-0.243791631,0.354372,0.349916434,-0.234659168,0.359327,0.360799918,-0.235863712,0.371256
0.40911637,-0.245308247,0.423954,0.404574048,-0.248520643,0.388604,0.417687295,-0.232520943,0.414023,0.424533233,-0.194470594,0.401371,0.423535581,-0.162170219,0.388597,0.416677574,-0.144542477,0.375863,0.41357734,-0.237741986,0.360703,0.36486339,-0.198614348,0.327805,0.363177126,-0.190809371,0.335428,0.374729404,-0.194410875,0.351244,0.400588218,-0.251764752,0.364335,0.353052692,-0.217055894,0.328222,0.348135216,-0.206051364,0.337878,0.359342144,-0.211382549,0.353972,0.39092034,-0.263965897,0.370143,0.348515549,-0.231657856,0.336008,0.341500115,-0.225699024,0.344004,0.35341556,-0.233249115,0.360981,0.375862074,-0.276289766,0.382014,0.34756037,-0.243112892,0.353773,0.349737349,-0.234121045,0.359001,0.360699982,-0.23526472,0.370968
0.407727154,-0.243917688,0.422509,0.403672585,-0.247965486,0.387673,0.416380172,-0.231194445,0.412657,0.424439911,-0.193691181,0.400882,0.423446208,-0.162135999,0.388515,0.417923272,-0.144213467,0.376176,0.413034632,-0.237419566,0.360096,0.364955872,-0.198323767,0.327464,0.363982786,-0.190619167,0.335444,0.375207057,-0.19409129,0.351301,0.400071986,-0.251990095,0.363758,0.353192453,-0.217072156,0.327979,0.348788504,-0.206279836,0.33809,0.35884433,-0.211487986,0.354206,0.390342211,-0.264113348,0.369549,0.348165426,-0.231517553,0.335705,0.341689935,-0.225481201,0.344076,0.352593277,-0.233263255,0.361086,0.375222706,-0.27667955,0.381327,0.347020319,-0.242634805,0.353297,0.349654279,-0.233739782,0.358805,0.360682748,-0.234837692,0.370806
0.407968198,-0.242921386,0.422238,0.403796939,-0.247262143,0.387506,0.416748194,-0.230512928,0.412358,0.424534486,-0.193292607,0.400731,0.423222777,-0.162050448,0.38831,0.418373479,-0.143913233,0.376096,0.412957827,-0.237368413,0.35994,0.365095427,-0.198195241,0.327335,0.36428554,-0.190633179,0.335369,0.375466003,-0.193819431,0.351264,0.399879285,-0.251954711,0.363663,0.353426679,-0.217169708,0.327948,0.349176699,-0.20670705,0.33813,0.35946043,-0.21116538,0.354245,0.390037731,-0.26399573,0.369495,0.348122227,-0.231562783,0.335691,0.341825738,-0.225303661,0.34412,0.35234656,-0.233018354,0.361137,0.375416481,-0.276439841,0.381308,0.346858617,-0.242705217,0.35331,0.349718001,-0.233736165,0.358861,0.360781626,-0.23483164,0.370868
0.408928873,-0.241431786,0.422026,0.404160434,-0.247111306,0.387355,0.41762795,-0.229351258,0.411799,0.424394788,-0.193052433,0.400618,0.420089321,-0.162604554,0.387844,0.41825836,-0.143686013,0.376358,0.412714656,-0.237014002,0.359373,0.364537476,-0.198240034,0.326577,0.364479792,-0.191145324,0.334513,0.374920645,-0.193512821,0.35051,0.400686583,-0.25169876,0.363553,0.352050763,-0.215561758,0.327852,0.348224453,-0.206428342,0.337924,0.359140363,-0.210699566,0.353999,0.391802747,-0.263835399,0.369758,0.346296535,-0.231540024,0.335825,0.339482225,-0.225785383,0.344155,0.352532661,-0.232785403,0.361185,0.381336947,-0.279263385,0.381998,0.347872246,-0.243572402,0.353929,0.350669656,-0.236068431,0.359408,0.361600628,-0.238860613,0.371412
0.409894523,-0.239954556,0.421695,0.404500553,-0.24701568,0.387172,0.41876974,-0.228399372,0.41133,0.424360366,-0.192910838,0.400599,0.419694348,-0.162358634,0.387717,0.418058086,-0.143483599,0.376438,0.412681444,-0.236834084,0.359078,0.364390438,-0.198408636,0.326261,0.364349359,-0.19133121,0.334227,0.374843571,-0.193453503,0.350248,0.400802135,-0.251801956,0.363472,0.352282125,-0.216136207,0.327858,0.348180457,-0.206357302,0.337975,0.359120203,-0.210472122,0.354033,0.391402236,-0.264308275,0.36984,0.345868594,-0.231309366,0.335921,0.338791948,-0.224634981,0.344285,0.352825304,-0.232353045,0.361323,0.381583409,-0.279401099,0.382252,0.34799347,-0.243952592,0.354203,0.351182937,-0.236260741,0.359708,0.362436826,-0.239097207,0.371715
0.409996889,-0.238406766,0.420827,0.405044336,-0.24716128,0.387075,0.418949661,-0.227275595,0.410241,0.423395319,-0.192637255,0.400019,0.415701446,-0.162095651,0.386527,0.417303361,-0.143337145,0.376251,0.413399416,-0.237339013,0.359033,0.366786432,-0.201669186,0.326422,0.366582076,-0.194627096,0.334734,0.375774539,-0.194115122,0.350917,0.403371548,-0.252789288,0.363903,0.353510366,-0.217278348,0.328785,0.349496021,-0.207321449,0.339358,0.363524735,-0.212152868,0.35538,0.39465411,-0.266106455,0.370603,0.34862135,-0.233046645,0.336984,0.341135166,-0.22590918,0.345716,0.355259205,-0.23328855,0.362779,0.384667199,-0.281856896,0.383292,0.351609833,-0.247903785,0.35549,0.354837439,-0.239034114,0.361272,0.366062464,-0.241439595,0.373299
0.410036132,-0.23715279,0.420429,0.40558406,-0.247275819,0.387334,0.419089134,-0.226343773,0.409747,0.422779513,-0.192485671,0.399695,0.414424015,-0.161623805,0.385686,0.416179146,-0.143038673,0.375621,0.414134852,-0.237672035,0.359455,0.368016862,-0.202569409,0.327085,0.3679385,-0.195638307,0.335706,0.377610563,-0.194858696,0.351913,0.404290755,-0.253621758,0.364614,0.354671225,-0.218002107,0.329933,0.351420932,-0.208732766,0.340909,0.365153857,-0.213569164,0.3569,0.395395605,-0.267205035,0.371498,0.349441411,-0.234083611,0.338185,0.34260695,-0.226821434,0.347246,0.357123648,-0.234169877,0.364317,0.385136545,-0.282141432,0.384311,0.353341977,-0.249394606,0.356751,0.356735066,-0.240616562,0.36278,0.367872858,-0.243077239,0.374818
0.41012389,-0.236698714,0.42069,0.405872163,-0.24750368,0.38769,0.41914728,-0.22597339,0.409837,0.420256314,-0.19352584,0.39979,0.409312724,-0.160707906,0.384726,0.410169081,-0.143226722,0.37503,0.414352419,-0.237661293,0.359634,0.367644017,-0.202111309,0.327207,0.366703912,-0.193606575,0.335793,0.377749783,-0.194923889,0.351948,0.403177126,-0.254021571,0.365035,0.355002392,-0.218617069,0.330414,0.351683897,-0.209251203,0.341353,0.364845172,-0.21416266,0.35731,0.395708302,-0.268043228,0.372112,0.348355186,-0.233863613,0.338779,0.343826455,-0.226735649,0.347804,0.356786732,-0.234184961,0.364869,0.385459842,-0.282701573,0.385136,0.354509078,-0.250548444,0.357576,0.357927074,-0.241801684,0.36358,0.369114665,-0.244922596,0.375609
0.409590948,-0.23643332,0.420355,0.40614478,-0.247349115,0.387623,0.418624955,-0.225555509,0.409549,0.41866306,-0.192740219,0.400164,0.409123871,-0.160933164,0.385612,0.409033919,-0.142392185,0.375856,0.414473353,-0.237540811,0.359745,0.367429949,-0.201022469,0.32747,0.367576787,-0.194160476,0.336218,0.378178957,-0.194917966,0.352399,0.403078938,-0.254120871,0.365153,0.355270633,-0.218440291,0.330716,0.351994384,-0.209538557,0.341862,0.365103943,-0.213916959,0.357814,0.39582363,-0.268050499,0.372214,0.348634859,-0.233916015,0.339045,0.344172582,-0.227013525,0.348241,0.356573877,-0.233521514,0.365308,0.385562794,-0.282840134,0.385181,0.354673803,-0.250531759,0.357743,0.358127959,-0.241917395,0.363876,0.369274291,-0.2451335,0.37591
0.408852615,-0.236829495,0.420467,0.406099527,-0.247488509,0.387805,0.417942253,-0.2257287,0.409802,0.415852031,-0.193892857,0.402922,0.408084963,-0.162523161,0.38932,0.409433408,-0.144361036,0.381518,0.41430522,-0.23701987,0.360136,0.36793102,-0.201757383,0.327976,0.367272248,-0.195863624,0.336828,0.378364349,-0.195576045,0.353026,0.403477437,-0.254072403,0.365383,0.35486042,-0.218283907,0.330999,0.351808597,-0.209858305,0.342273,0.365128331,-0.214499344,0.358218,0.394314343,-0.267266604,0.372307,0.348233353,-0.233973005,0.339234,0.342457938,-0.227737151,0.348539,0.356790864,-0.234752086,0.365578,0.38526462,-0.282961965,0.385102,0.354305504,-0.250568633,0.357726,0.357712913,-0.242045185,0.363939,0.368814452,-0.245308877,0.375983
0.408187168,-0.237544376,0.420775,0.406217736,-0.247988652,0.388305,0.417342207,-0.226234053,0.410254,0.41689036,-0.194611414,0.403939,0.408468471,-0.163153603,0.390539,0.409212841,-0.144759896,0.382516,0.414773733,-0.237113872,0.3609,0.367415546,-0.201387237,0.328915,0.367909055,-0.19522661,0.337931,0.378773942,-0.196373247,0.354087,0.404122348,-0.254434792,0.366013,0.355118473,-0.218746392,0.331767,0.353324289,-0.210522067,0.343245,0.36613028,-0.217973489,0.359101,0.394987755,-0.26779365,0.372811,0.348214148,-0.234385462,0.339903,0.342972585,-0.228419862,0.349378,0.357271682,-0.235795791,0.366398,0.385299899,-0.283257788,0.385432,0.354381267,-0.250865336,0.35817,0.357866785,-0.242421732,0.36451,0.36896927,-0.245721195,0.376563
0.40747297,-0.238231173,0.421033,0.406256255,-0.248440278,0.388729,0.416641777,-0.226685557,0.410608,0.41681571,-0.194919032,0.404515,0.408888735,-0.163607705,0.391452,0.409251912,-0.145059831,0.383275,0.415075432,-0.237112429,0.361519,0.367531777,-0.20203325,0.329671,0.36810145,-0.196012724,0.338813,0.378993809,-0.197074124,0.354973,0.404667853,-0.254734569,0.366553,0.35525991,-0.219136975,0.332426,0.353521115,-0.211215215,0.344063,0.366982303,-0.218914202,0.359899,0.395614522,-0.268289098,0.373271,0.348117453,-0.234744912,0.340495,0.343443288,-0.22899854,0.350103,0.357636428,-0.23676077,0.367098,0.385413494,-0.283551332,0.385775,0.354529669,-0.251159581,0.358606,0.358075209,-0.242775051,0.365045,0.369177347,-0.246100552,0.377104
0.407996794,-0.239447512,0.422671,0.407045546,-0.249117194,0.389935,0.417246318,-0.227641143,0.412344,0.415720717,-0.19521659,0.40628,0.408911762,-0.164273421,0.394132,0.407776523,-0.145188101,0.385328,0.41430079,-0.235907446,0.362663,0.364803325,-0.200280193,0.330672,0.364473085,-0.194405557,0.339642,0.37627033,-0.196482172,0.355647,0.404683127,-0.254292742,0.367461,0.354509018,-0.218084203,0.333042,0.352093011,-0.210742709,0.344452,0.367236452,-0.219057928,0.36023,0.39599962,-0.268353531,0.37402,0.347236785,-0.234356579,0.341053,0.342732188,-0.228625606,0.350478,0.35736919,-0.237032806,0.367457,0.385809105,-0.28377638,0.3864,0.353671675,-0.250055677,0.359075,0.357094639,-0.241678952,0.365375,0.369184664,-0.245819013,0.377435
0.407509117,-0.240016216,0.423486,0.406837991,-0.249316073,0.390554,0.416690544,-0.227997112,0.413099,0.415257258,-0.194849218,0.406162,0.402561415,-0.161912056,0.392191,0.397219006,-0.141821736,0.381091,0.413506317,-0.235432556,0.363121,0.364775434,-0.200057419,0.331002,0.364226043,-0.194013991,0.339846,0.375176031,-0.195708069,0.355929,0.403890808,-0.253803627,0.367947,0.353521252,-0.217347171,0.333392,0.351059824,-0.210614134,0.34464,0.366995544,-0.21846522,0.360411,0.395601489,-0.268139555,0.374545,0.345393704,-0.231888548,0.341446,0.339274858,-0.225902546,0.350737,0.353646422,-0.234984864,0.367726,0.385144377,-0.283792378,0.386997,0.353673199,-0.250204991,0.359576,0.356849756,-0.241849017,0.365776,0.369071616,-0.246209977,0.377831
