sluyters/QuantumLeap/backend/src/datasets/dynamic/HandGestureDataset_SHREC2017_csv/Gesture6/finger_1/subject_13_essai_1_skeletons_world.csv
Wrist_x,Wrist_y,Wrist_z,Palm_x,Palm_y,Palm_z,thumb_base_x,thumb_base_y,thumb_base_z,thumb_first_joint_x,thumb_first_joint_y,thumb_first_joint_z,thumb_second_joint_x,thumb_second_joint_y,thumb_second_joint_z,thumb_tip_x,thumb_tip_y,thumb_tip_z,index_base_x,index_base_y,index_base_z,index_first_joint_x,index_first_joint_y,index_first_joint_z,index_second_joint_x,index_second_joint_y,index_second_joint_z,index_tip_x,index_tip_y,index_tip_z,middle_base_x,middle_base_y,middle_base_z,middle_first_joint_x,middle_first_joint_y,middle_first_joint_z,middle_second_joint_x,middle_second_joint_y,middle_second_joint_z,middle_tip_x,middle_tip_y,middle_tip_z,ring_base_x,ring_base_y,ring_base_z,ring_first_joint_x,ring_first_joint_y,ring_first_joint_z,ring_second_joint_x,ring_second_joint_y,ring_second_joint_z,ring_tip_x,ring_tip_y,ring_tip_z,pinky_base_x,pinky_base_y,pinky_base_z,pinky_first_joint_x,pinky_first_joint_y,pinky_first_joint_z,pinky_second_joint_x,pinky_second_joint_y,pinky_second_joint_z,pinky_tip_x,pinky_tip_y,pinky_tip_z,
0.48859603,-0.34559261,0.545029,0.48543057,-0.30307941,0.542241,0.46760987,-0.32921852,0.545293,0.43549812,-0.29885569,0.539193,0.40762187,-0.26738176,0.52833,0.39628823,-0.24912235,0.528178,0.45871147,-0.24601064,0.540012,0.46479991,-0.212844,0.555488,0.46792123,-0.19598891,0.563226,0.47054294,-0.1797501,0.57026,0.48311901,-0.24675408,0.538576,0.46971167,-0.19653584,0.52753,0.46716746,-0.19658019,0.521086,0.46527572,-0.21322204,0.516483,0.50303259,-0.25067157,0.537589,0.48093697,-0.20200938,0.527125,0.48014632,-0.1978437,0.521771,0.48263514,-0.21378063,0.516904,0.52766458,-0.26126128,0.536789,0.50547123,-0.22017894,0.525511,0.49929037,-0.20511488,0.520329,0.50030276,-0.20620306,0.515757
0.48899873,-0.34756743,0.545761,0.48553134,-0.3036037,0.542246,0.46685584,-0.3305674,0.544968,0.43792798,-0.29936849,0.539806,0.4121794,-0.26684875,0.528528,0.40255005,-0.24719611,0.528094,0.4562488,-0.24745162,0.538077,0.46355615,-0.21460394,0.553989,0.46685072,-0.1970464,0.561945,0.46953393,-0.18004238,0.569177,0.48065828,-0.24875309,0.537624,0.46773829,-0.19713429,0.525605,0.46457037,-0.19673292,0.518593,0.46231192,-0.21313096,0.513585,0.50244712,-0.25240559,0.537496,0.47999554,-0.20302476,0.525762,0.47966043,-0.20497898,0.519758,0.48143546,-0.22284017,0.5143,0.5282985,-0.26293388,0.537828,0.50491442,-0.221738,0.525495,0.49816712,-0.2070732,0.519828,0.49907345,-0.2068236,0.514828
0.48903301,-0.34928911,0.546116,0.48578683,-0.30415492,0.54248,0.46631032,-0.33207504,0.544915,0.43870371,-0.29998447,0.540255,0.4130579,-0.26735191,0.529067,0.4033673,-0.24762244,0.528472,0.45588838,-0.24840173,0.537708,0.46367025,-0.21603966,0.55414,0.4671469,-0.19866572,0.562356,0.46996528,-0.18084875,0.569825,0.48166132,-0.2500985,0.5377,0.46760385,-0.19822622,0.52547,0.46337217,-0.20145269,0.518337,0.46199281,-0.21630417,0.513241,0.50270157,-0.25326795,0.537945,0.47996761,-0.20374113,0.525857,0.47935882,-0.20509625,0.519673,0.48096968,-0.22278673,0.514051,0.52911226,-0.26409013,0.538743,0.50526555,-0.22269109,0.526128,0.49833838,-0.2079562,0.520332,0.49913387,-0.20764975,0.515218
0.48718994,-0.34733874,0.544337,0.48927728,-0.30531819,0.547814,0.46286318,-0.32875883,0.541125,0.43278588,-0.28612012,0.537516,0.41278053,-0.25501686,0.53302,0.40727345,-0.23156295,0.529475,0.46363146,-0.24905666,0.547119,0.46793783,-0.21506195,0.558704,0.46993211,-0.19597823,0.564497,0.48027152,-0.17703801,0.569763,0.49108863,-0.25506557,0.552384,0.49988992,-0.23252039,0.547313,0.49923295,-0.2566291,0.544354,0.50892246,-0.28268116,0.559878,0.51468996,-0.26386838,0.556474,0.52490486,-0.2343934,0.54945,0.51428388,-0.25337194,0.545857,0.51989659,-0.28072378,0.562653,0.54287861,-0.2796682,0.560906,0.54392933,-0.26800512,0.553185,0.54933844,-0.28501305,0.549637,0.56370302,-0.30463734,0.562146
0.48540545,-0.34591605,0.542857,0.48790318,-0.3044715,0.547069,0.46157226,-0.32755298,0.540112,0.43239377,-0.28586089,0.537029,0.41257143,-0.25488768,0.53275,0.40719115,-0.23151616,0.529368,0.4637259,-0.24888071,0.547611,0.46830752,-0.21474725,0.559273,0.47107494,-0.19588579,0.565103,0.48081184,-0.17723719,0.570404,0.49128777,-0.255169,0.552608,0.50087269,-0.23297752,0.548389,0.50067557,-0.25737067,0.545927,0.51057319,-0.28359806,0.561694,0.51464464,-0.26384514,0.556425,0.52572739,-0.2347607,0.550311,0.51553318,-0.25398743,0.547183,0.52138794,-0.28152905,0.564267,0.54241597,-0.27942987,0.560428,0.54423119,-0.26815386,0.553492,0.55000508,-0.28535892,0.550304,0.5646025,-0.30512344,0.563043
0.49113202,-0.34870944,0.545454,0.4931006,-0.30619893,0.548157,0.46548733,-0.33025977,0.541453,0.45075858,-0.30009908,0.540295,0.42451326,-0.27055717,0.533268,0.41461813,-0.24821406,0.530135,0.4620845,-0.25312101,0.545805,0.46529516,-0.21524303,0.555815,0.4691184,-0.19518449,0.560821,0.47252366,-0.17774346,0.565371,0.49179468,-0.25521838,0.55171,0.49208052,-0.23280876,0.545716,0.49587169,-0.25607549,0.542219,0.50618813,-0.28189639,0.557409,0.51450652,-0.26234599,0.55638,0.51616892,-0.25045378,0.548254,0.5098459,-0.27403511,0.544097,0.51984742,-0.29850507,0.560465,0.54613575,-0.2692703,0.561616,0.53987643,-0.2627885,0.552974,0.54041607,-0.28097393,0.549004,0.55379827,-0.2981425,0.561181
0.49349507,-0.34864432,0.545683,0.49333083,-0.30759353,0.548451,0.46765676,-0.33091578,0.541967,0.45157919,-0.30026674,0.541386,0.42688806,-0.27114312,0.535972,0.41762717,-0.24890145,0.533337,0.46143939,-0.25468011,0.546502,0.46572431,-0.2156068,0.556216,0.4687175,-0.19676967,0.561391,0.47103903,-0.17902492,0.566095,0.49160397,-0.25551742,0.552091,0.49194481,-0.2329111,0.546196,0.49539031,-0.25644269,0.542758,0.50625818,-0.2823727,0.558031,0.51434103,-0.2617745,0.556495,0.51592542,-0.25044418,0.548573,0.50974693,-0.27405543,0.544519,0.51991147,-0.29875019,0.561012,0.54549844,-0.26936858,0.561403,0.53930719,-0.2626273,0.552913,0.53996331,-0.28081914,0.549012,0.55348121,-0.29814912,0.56128
0.49499863,-0.34836953,0.5455,0.49382018,-0.30764086,0.548434,0.46896124,-0.33124925,0.541973,0.45177123,-0.30026827,0.541652,0.42773537,-0.27137287,0.536943,0.41869455,-0.249168,0.534486,0.46122949,-0.25490365,0.546864,0.46612428,-0.21645798,0.556565,0.46893633,-0.19688118,0.561416,0.47115456,-0.17898814,0.565826,0.49138577,-0.2557024,0.552292,0.49211729,-0.23304837,0.546598,0.49527737,-0.25675512,0.543276,0.50649961,-0.28277055,0.558625,0.51423144,-0.26142605,0.556553,0.51602992,-0.25053117,0.548877,0.50998446,-0.27420769,0.544949,0.52025372,-0.29901647,0.561541,0.5452219,-0.26936965,0.561266,0.53920161,-0.26261456,0.552979,0.53996703,-0.28084799,0.549172,0.5535755,-0.29825915,0.561516
0.49127121,-0.34643701,0.544893,0.4917782,-0.30523588,0.548288,0.46642457,-0.32906321,0.542031,0.44330179,-0.2900487,0.54031,0.42169136,-0.26117093,0.537376,0.41116127,-0.23501999,0.533562,0.4645516,-0.24905632,0.547943,0.46981392,-0.21233791,0.559403,0.47551642,-0.19327514,0.565132,0.48080469,-0.17675543,0.570341,0.49221959,-0.25475108,0.552753,0.49641371,-0.2331654,0.547634,0.49656484,-0.25750363,0.544647,0.50784312,-0.28367631,0.560235,0.5147513,-0.2610384,0.556474,0.5177304,-0.25040101,0.549559,0.51162238,-0.27412444,0.546021,0.52187234,-0.29974268,0.562936,0.54507315,-0.26989381,0.560473,0.54115974,-0.26451526,0.552808,0.54375834,-0.28241758,0.549286,0.55776997,-0.30072679,0.561877
0.49187918,-0.3462531,0.54545,0.49248304,-0.30514112,0.549038,0.46733858,-0.32909715,0.542953,0.4444867,-0.29073689,0.541117,0.42348592,-0.26110887,0.537696,0.4129018,-0.23601141,0.534298,0.46570593,-0.24917084,0.549309,0.47059502,-0.21200515,0.559381,0.47537766,-0.19261091,0.564416,0.47984858,-0.17561708,0.568994,0.49297329,-0.25483702,0.553757,0.50008786,-0.24033629,0.54889,0.49757864,-0.2670089,0.54605,0.50906043,-0.28545505,0.561753,0.51607909,-0.25982809,0.557166,0.51942076,-0.25057226,0.550616,0.51329998,-0.27433018,0.547265,0.52355827,-0.30043833,0.564343,0.54581961,-0.27046358,0.560764,0.54201702,-0.2646269,0.553392,0.54467254,-0.28258002,0.550005,0.5589136,-0.30128684,0.562717
0.49241604,-0.34597638,0.546045,0.49284036,-0.3048199,0.549608,0.46812998,-0.3290353,0.543865,0.44513243,-0.29113024,0.541691,0.4242701,-0.26120118,0.538036,0.41398926,-0.23663095,0.534794,0.46609605,-0.24897406,0.550238,0.47114952,-0.21184285,0.559468,0.47537493,-0.19224609,0.564083,0.47936463,-0.17491805,0.568279,0.49376669,-0.25480078,0.554293,0.50058805,-0.24057667,0.549439,0.49808711,-0.26728175,0.546608,0.50949882,-0.28652433,0.562368,0.51671712,-0.25985272,0.557382,0.52022549,-0.25053,0.550978,0.51405163,-0.27426969,0.547702,0.52431526,-0.30069054,0.564884,0.54596695,-0.27066991,0.560598,0.54216266,-0.26446754,0.553322,0.54479788,-0.28241052,0.549978,0.55919319,-0.30139507,0.562764
0.49342542,-0.34557118,0.547028,0.49341579,-0.30495774,0.550196,0.46900425,-0.32854163,0.544714,0.44552439,-0.29137211,0.542062,0.424583,-0.26119824,0.538105,0.41453909,-0.23694384,0.534898,0.46629165,-0.2490335,0.550302,0.47144234,-0.21169955,0.559434,0.47548998,-0.19205052,0.564,0.4793415,-0.17453785,0.568151,0.49405405,-0.25463044,0.554362,0.50024639,-0.24041248,0.549064,0.49750848,-0.26697125,0.545973,0.50873617,-0.28673417,0.561628,0.5171208,-0.25984406,0.55748,0.5202464,-0.25023315,0.55065,0.51378221,-0.27379618,0.547155,0.52388576,-0.30031418,0.564225,0.54637374,-0.27096683,0.560789,0.54214407,-0.26427931,0.553133,0.54455663,-0.28210303,0.549615,0.55892045,-0.30121497,0.562307
0.49376338,-0.34495992,0.547384,0.4935659,-0.305149,0.550414,0.46954965,-0.32807389,0.545295,0.44537246,-0.29201831,0.542232,0.42400968,-0.26177616,0.537913,0.41420321,-0.23759502,0.534744,0.46668677,-0.24967243,0.550665,0.47182285,-0.2120421,0.559514,0.4754951,-0.19297447,0.563939,0.47879411,-0.17571668,0.567961,0.49348562,-0.25536867,0.554397,0.49766756,-0.23377753,0.54898,0.49748058,-0.25801943,0.54582,0.50860411,-0.28644278,0.561488,0.51678112,-0.26090934,0.557256,0.52000588,-0.25023169,0.550423,0.51355482,-0.27370288,0.546926,0.52380253,-0.30033904,0.564046,0.54706838,-0.27262691,0.560272,0.54153369,-0.26409926,0.552586,0.54269339,-0.2810725,0.549054,0.5584202,-0.30106644,0.561777
0.49559606,-0.34599986,0.548455,0.49474456,-0.30573514,0.550992,0.47105488,-0.32907282,0.546148,0.44517508,-0.29247448,0.542193,0.42333311,-0.26197308,0.537318,0.41465448,-0.23979638,0.534754,0.46706246,-0.24997303,0.550532,0.47186283,-0.21102903,0.557613,0.47410244,-0.19110822,0.561153,0.47713604,-0.17433146,0.564372,0.49466987,-0.25494047,0.554329,0.49989666,-0.23343816,0.548355,0.4963509,-0.25769299,0.54487,0.50743686,-0.28600295,0.560395,0.5184247,-0.26117058,0.557276,0.52074861,-0.25035979,0.549885,0.51290663,-0.27369009,0.546104,0.52285294,-0.30015877,0.563065,0.54669383,-0.27434278,0.560465,0.54197234,-0.26627104,0.55229,0.5407922,-0.28180133,0.548534,0.55592864,-0.30490234,0.561126
0.49717156,-0.34685988,0.54924,0.49574428,-0.30621057,0.55137,0.47240997,-0.32996681,0.546826,0.44503217,-0.29279965,0.542163,0.42297424,-0.26219105,0.537051,0.41394077,-0.24018384,0.534478,0.46744595,-0.25027778,0.550408,0.47160381,-0.21099685,0.557157,0.47428382,-0.19067344,0.560531,0.47726683,-0.17360815,0.563599,0.49502515,-0.25495684,0.55417,0.49959439,-0.23331922,0.547745,0.49529202,-0.2574027,0.543997,0.5063725,-0.28562049,0.559415,0.51893703,-0.26100017,0.557117,0.52041841,-0.25060041,0.549306,0.51225887,-0.27361045,0.545309,0.52198169,-0.29994984,0.56216,0.54740623,-0.27398891,0.560362,0.54124768,-0.26645358,0.551811,0.54012009,-0.28208068,0.547882,0.55449379,-0.30548891,0.560382
0.49574443,-0.34697668,0.549357,0.49512898,-0.30621819,0.551364,0.47124212,-0.32961453,0.546882,0.44472588,-0.29291273,0.541898,0.42235951,-0.26214033,0.536412,0.41319134,-0.24034956,0.533994,0.46742138,-0.25034157,0.550216,0.47126727,-0.21090906,0.556647,0.47385695,-0.1905164,0.559863,0.47769802,-0.17230488,0.562786,0.49555705,-0.25486428,0.554002,0.49965504,-0.23317741,0.547437,0.49527958,-0.2571459,0.543608,0.5059569,-0.28538043,0.558988,0.51892803,-0.26124862,0.556978,0.52074925,-0.2508713,0.549024,0.51214266,-0.27361556,0.544954,0.52164089,-0.30003837,0.561762,0.54739849,-0.27435812,0.560274,0.5411027,-0.26685994,0.551599,0.53994609,-0.28271228,0.547613,0.55384357,-0.30581936,0.560078
0.4945657,-0.34720626,0.549679,0.49469336,-0.3062655,0.551473,0.47027938,-0.3293361,0.547091,0.44455833,-0.29304727,0.541778,0.4219106,-0.26211884,0.535952,0.41263858,-0.24049537,0.533656,0.46733972,-0.25035767,0.549993,0.47114323,-0.21090238,0.556413,0.4737616,-0.19048941,0.559623,0.47759752,-0.17225099,0.562542,0.49550919,-0.25497071,0.553831,0.49950489,-0.23299396,0.547023,0.49526943,-0.25687568,0.543052,0.50546361,-0.28506809,0.558365,0.51891558,-0.26143911,0.556864,0.52050638,-0.25105233,0.548659,0.51199593,-0.27359008,0.544461,0.52122965,-0.30004432,0.561192,0.54744467,-0.27467152,0.560259,0.54091509,-0.26708592,0.551365,0.53984064,-0.28335793,0.547279,0.55324229,-0.30590095,0.559682
0.49342973,-0.34740218,0.550137,0.49410648,-0.30614974,0.551529,0.46923464,-0.32897717,0.547342,0.44455526,-0.29310775,0.541984,0.42202128,-0.26218944,0.5363,0.41268123,-0.24078573,0.534135,0.46678569,-0.2501012,0.549431,0.46974617,-0.21032408,0.55496,0.4726083,-0.19021969,0.557725,0.47585612,-0.17213644,0.560238,0.49503397,-0.2547708,0.553358,0.49717,-0.23904277,0.546092,0.49290359,-0.2649607,0.541853,0.50389593,-0.28507034,0.55704,0.51853603,-0.26129946,0.556491,0.51952079,-0.25065544,0.547817,0.51103884,-0.27298703,0.543379,0.5200245,-0.29947385,0.559965,0.54724205,-0.2746381,0.560063,0.54038436,-0.26533637,0.550761,0.53817181,-0.28447352,0.546487,0.55197887,-0.30515605,0.558772
0.49288591,-0.34745105,0.549798,0.49365897,-0.30617921,0.55116,0.46878321,-0.32902387,0.547067,0.4441397,-0.29311429,0.541681,0.42174233,-0.26209966,0.535982,0.41228429,-0.2410381,0.534054,0.46653011,-0.25012199,0.549111,0.46915747,-0.21023675,0.554417,0.47177681,-0.18995374,0.55707,0.47499873,-0.17222984,0.559481,0.49470436,-0.25478372,0.552949,0.49655497,-0.23881254,0.54566,0.49198631,-0.26474506,0.541407,0.5030801,-0.28550692,0.556599,0.51814044,-0.26130742,0.556012,0.51893066,-0.25066593,0.547345,0.51037091,-0.27292887,0.542911,0.51937554,-0.29931906,0.559511,0.54675457,-0.27464182,0.559503,0.53960702,-0.26533107,0.5502,0.53735373,-0.28377951,0.545925,0.551173,-0.30467733,0.55822
0.49211636,-0.34735218,0.549498,0.49283841,-0.30587503,0.550542,0.46801807,-0.32878179,0.54669,0.44367622,-0.29279635,0.541415,0.42133506,-0.26198108,0.53599,0.41193732,-0.24127323,0.534397,0.46574651,-0.24934733,0.548109,0.46872433,-0.20993616,0.554,0.47153218,-0.18976524,0.556946,0.47495822,-0.17218416,0.559624,0.4938861,-0.25415475,0.551913,0.49499384,-0.23841069,0.544274,0.48971578,-0.26438392,0.539818,0.49956554,-0.28819708,0.554924,0.5172902,-0.26081632,0.55497,0.51770191,-0.25024247,0.545979,0.50867742,-0.27231216,0.54138,0.51752811,-0.29838136,0.557893,0.5458016,-0.2743072,0.558497,0.53808573,-0.26486053,0.548904,0.53575283,-0.28254076,0.544497,0.54886512,-0.30411572,0.556719
0.49134082,-0.34724959,0.549192,0.49213946,-0.30564646,0.55006,0.46730989,-0.32857998,0.54638,0.44321418,-0.29247934,0.541151,0.42092867,-0.261863,0.535999,0.4116095,-0.24151911,0.534764,0.46519496,-0.24892213,0.547465,0.46818207,-0.20958665,0.553454,0.47100001,-0.1893156,0.556448,0.47449758,-0.17189473,0.55917,0.49327624,-0.25379524,0.551202,0.49387702,-0.23822335,0.543377,0.48797515,-0.26430781,0.538812,0.49770383,-0.28787497,0.553878,0.51662894,-0.26051868,0.554216,0.51668081,-0.2499015,0.54507,0.50741713,-0.27184546,0.54039,0.51623051,-0.29776043,0.556867,0.54506849,-0.27408306,0.557716,0.53692934,-0.2645693,0.54798,0.53463212,-0.28165441,0.543507,0.54773636,-0.30320806,0.555697
0.49054593,-0.34713388,0.548865,0.49143228,-0.30541288,0.549569,0.46658337,-0.32836553,0.546049,0.44273138,-0.29214865,0.540862,0.4205019,-0.26173224,0.535982,0.41126851,-0.24175678,0.535113,0.46464169,-0.24849599,0.546819,0.46765586,-0.20924436,0.552927,0.47051625,-0.18893264,0.555981,0.47408764,-0.17164811,0.558758,0.49267001,-0.25343758,0.550495,0.49277315,-0.23804304,0.542495,0.48625445,-0.26424247,0.537828,0.49586381,-0.28756462,0.552855,0.51597607,-0.26022529,0.553471,0.51567486,-0.24956785,0.544177,0.5061784,-0.27139034,0.539423,0.51495545,-0.29715237,0.555865,0.54434711,-0.27386484,0.556947,0.53579263,-0.2642877,0.547076,0.53356686,-0.28086339,0.54254,0.54665937,-0.30239228,0.5547
0.48949803,-0.34657966,0.548072,0.4904284,-0.30476747,0.548709,0.46584669,-0.32793308,0.545569,0.44243862,-0.29165214,0.540647,0.42049759,-0.26145004,0.536232,0.41146424,-0.24165413,0.535639,0.46396298,-0.24806283,0.546273,0.46749738,-0.20895667,0.552782,0.47067351,-0.18871511,0.556036,0.4747244,-0.17082816,0.558994,0.49162555,-0.25279103,0.549546,0.49184386,-0.23678067,0.541519,0.4858261,-0.26105213,0.536836,0.49701499,-0.28372293,0.5519,0.51460877,-0.25939555,0.552193,0.51336136,-0.24708826,0.543012,0.50394832,-0.26897488,0.538315,0.51367388,-0.29640796,0.55484,0.54264373,-0.27287926,0.555286,0.53330927,-0.26181918,0.54548,0.53109988,-0.27814323,0.540975,0.5450773,-0.30130707,0.553191
0.48857125,-0.34574858,0.547198,0.48955368,-0.30402701,0.547953,0.46495315,-0.32717896,0.544759,0.44198612,-0.29099592,0.540257,0.42029214,-0.26104541,0.53628,0.41158501,-0.24125804,0.535839,0.4631775,-0.24748279,0.545703,0.46742004,-0.20885304,0.55281,0.47099391,-0.18872955,0.556363,0.47535042,-0.1708079,0.559593,0.49082387,-0.25215732,0.548946,0.49139104,-0.23598162,0.541054,0.48549403,-0.26012847,0.53645,0.49625424,-0.28382395,0.551552,0.51379101,-0.25871244,0.551561,0.51283867,-0.24674165,0.542519,0.50353146,-0.26865955,0.537893,0.51308559,-0.29578544,0.554463,0.54179676,-0.27212419,0.554597,0.53269799,-0.26141618,0.544912,0.53057554,-0.27775736,0.540463,0.54442914,-0.30058606,0.552714
0.48759358,-0.34488158,0.546267,0.4886584,-0.30327377,0.547174,0.46402634,-0.32640152,0.54391,0.44151318,-0.29032625,0.539842,0.42008139,-0.26063768,0.536321,0.41170503,-0.24086156,0.536038,0.46241651,-0.24691583,0.545162,0.46733851,-0.20874764,0.552833,0.47129654,-0.18873683,0.556669,0.47594502,-0.17077637,0.560155,0.49004089,-0.25153317,0.548367,0.49099943,-0.23535787,0.540648,0.48522837,-0.25953837,0.536145,0.49557625,-0.28397231,0.551296,0.51298347,-0.25803438,0.55094,0.51237842,-0.24644893,0.542077,0.50318746,-0.26840641,0.537543,0.5125737,-0.29520652,0.554169,0.54094779,-0.27136807,0.553906,0.53213307,-0.26106177,0.544377,0.5301038,-0.27742694,0.539999,0.54383785,-0.29989594,0.552295
0.48658925,-0.34399573,0.545306,0.48775244,-0.30251394,0.546383,0.46308173,-0.32561156,0.54304,0.44103128,-0.28965073,0.539416,0.41986848,-0.26022883,0.536359,0.41182276,-0.2404638,0.536234,0.46166818,-0.24635554,0.544636,0.46725372,-0.20864077,0.552852,0.47158737,-0.18873929,0.556961,0.47652095,-0.17073817,0.560695,0.48926858,-0.2509144,0.5478,0.49064199,-0.23484773,0.540274,0.48499906,-0.25911698,0.535884,0.4949431,-0.28414651,0.55109,0.51218326,-0.25735998,0.550327,0.51195501,-0.24618987,0.541664,0.50288362,-0.26819019,0.537232,0.51210394,-0.2946513,0.553921,0.5400978,-0.27061137,0.553214,0.53159412,-0.26073737,0.543859,0.5296602,-0.27712991,0.53956,0.54327679,-0.29922192,0.551907
0.4855665,-0.34312041,0.544341,0.48683481,-0.30174909,0.545556,0.46210701,-0.32481808,0.542145,0.44069824,-0.2888875,0.538904,0.41980363,-0.25981608,0.536396,0.41205287,-0.24010045,0.536444,0.4609005,-0.24577912,0.544019,0.467016,-0.2084701,0.552603,0.47165778,-0.1887326,0.556896,0.47649533,-0.17151002,0.560798,0.48848917,-0.25027693,0.547153,0.49010919,-0.23435539,0.539784,0.48450338,-0.25870821,0.535485,0.49411799,-0.28424195,0.550734,0.5113919,-0.25666642,0.549646,0.51136757,-0.24588915,0.541143,0.50236999,-0.26791782,0.536793,0.5114575,-0.29401926,0.553531,0.53928354,-0.26983966,0.552474,0.53093513,-0.26038118,0.543258,0.52905351,-0.27679369,0.539023,0.54257222,-0.29848908,0.551411
0.48524605,-0.34291473,0.544058,0.48648916,-0.30153591,0.545248,0.46174308,-0.32459225,0.541817,0.44072898,-0.28860389,0.53869,0.41988984,-0.25981356,0.536506,0.41224343,-0.23994508,0.536482,0.46048581,-0.24556011,0.543634,0.46719284,-0.20867047,0.552594,0.47278601,-0.18989864,0.557074,0.47670917,-0.17290908,0.561147,0.4881104,-0.25006727,0.546812,0.48962824,-0.23424109,0.539409,0.48379185,-0.26017436,0.535091,0.4936104,-0.2840897,0.550327,0.5110494,-0.25646477,0.549343,0.51092746,-0.24560178,0.540793,0.50190509,-0.2676113,0.536419,0.51099716,-0.29371205,0.553138,0.53899498,-0.26964929,0.55222,0.5305608,-0.26012017,0.542966,0.52865951,-0.276518,0.538714,0.54217838,-0.29821309,0.551087
0.48489624,-0.34268823,0.543742,0.48614085,-0.30132106,0.544937,0.4614056,-0.32438501,0.54152,0.44077216,-0.28832816,0.538491,0.41995096,-0.25979556,0.536584,0.41244642,-0.23979679,0.536536,0.46015755,-0.24538718,0.543351,0.46770249,-0.20901931,0.552979,0.47387547,-0.19060188,0.557793,0.47823372,-0.17362602,0.562169,0.48776555,-0.24987501,0.546509,0.4892208,-0.23416196,0.539115,0.48337368,-0.26012576,0.534803,0.49321325,-0.28400091,0.550043,0.51069106,-0.25625515,0.549023,0.51053078,-0.24533529,0.540489,0.50151227,-0.2673432,0.536122,0.51063293,-0.2934601,0.552849,0.53862051,-0.26941594,0.551878,0.53014932,-0.25984094,0.542636,0.52825084,-0.27623462,0.53839,0.54178941,-0.29793977,0.550768
0.48470233,-0.34269249,0.543495,0.48593155,-0.30136667,0.544732,0.46119226,-0.32442036,0.541275,0.44072882,-0.28830838,0.538219,0.41986448,-0.2598703,0.53638,0.41235888,-0.2397744,0.536269,0.45991765,-0.24551762,0.543186,0.4681133,-0.20954794,0.553274,0.47438396,-0.19110596,0.558318,0.47947425,-0.17477209,0.562903,0.4875395,-0.24997972,0.546359,0.48898749,-0.23403623,0.53901,0.48321597,-0.25997248,0.534723,0.49310119,-0.28392541,0.549972,0.51047978,-0.25633536,0.548882,0.51029663,-0.24534219,0.540385,0.5013239,-0.26735367,0.536038,0.5104938,-0.29350514,0.552774,0.53843356,-0.26946166,0.551743,0.52994399,-0.25983344,0.542535,0.52808165,-0.27622177,0.538305,0.54166139,-0.29794581,0.550691
0.484248,-0.34248963,0.542954,0.4855643,-0.30122053,0.54424,0.46064638,-0.3241386,0.540604,0.44017532,-0.2879469,0.537343,0.41924292,-0.2596677,0.535598,0.41176167,-0.23950257,0.535486,0.45951855,-0.24536323,0.542584,0.46455063,-0.20464261,0.546571,0.47177126,-0.18500369,0.548565,0.47517676,-0.1726729,0.55596,0.48728416,-0.24990702,0.545932,0.48869954,-0.23333015,0.538616,0.48298451,-0.25866341,0.534349,0.49287759,-0.28327582,0.549589,0.51035375,-0.25632923,0.548596,0.51002017,-0.24526447,0.540072,0.50100122,-0.26725494,0.535711,0.51017811,-0.29341508,0.552417,0.53847059,-0.2695369,0.551619,0.52986068,-0.25984634,0.542402,0.52796381,-0.27622561,0.538167,0.54154965,-0.297966,0.550534
0.47668062,-0.33725416,0.534438,0.48122801,-0.29861144,0.5393,0.45722453,-0.32183231,0.536558,0.43968667,-0.28784156,0.536701,0.41878188,-0.2598942,0.53533,0.41164542,-0.23966077,0.535535,0.46277709,-0.24716225,0.5463,0.46536482,-0.20346078,0.543759,0.46654584,-0.18295455,0.542489,0.47606608,-0.17202205,0.554874,0.48719659,-0.24992032,0.545693,0.49269475,-0.23466459,0.542942,0.48937547,-0.26185797,0.541337,0.50043856,-0.28709143,0.557884,0.50701269,-0.25470796,0.544855,0.51194796,-0.24624693,0.542093,0.50563126,-0.26979891,0.54068,0.51646404,-0.29712297,0.559208,0.53038566,-0.26554579,0.543177,0.52635028,-0.25817823,0.538761,0.52657352,-0.27556362,0.536732,0.54156392,-0.29805559,0.550505
0.47640219,-0.33716555,0.534125,0.48111431,-0.29857662,0.539037,0.45704389,-0.32175514,0.536312,0.43921126,-0.28765725,0.536023,0.41784525,-0.25971402,0.534357,0.41055784,-0.23931714,0.534342,0.46292523,-0.247196,0.546164,0.46531775,-0.2034402,0.543704,0.46653294,-0.18294949,0.542474,0.47585657,-0.17104262,0.553992,0.48729357,-0.249954,0.545496,0.49266903,-0.23462296,0.542809,0.4892966,-0.26180197,0.541241,0.50040524,-0.28708185,0.557802,0.50706027,-0.25473894,0.544605,0.51186699,-0.24626512,0.541925,0.50551388,-0.26982064,0.540555,0.51641021,-0.29718305,0.559104,0.53035428,-0.26556772,0.542855,0.52620516,-0.25817854,0.53851,0.5263934,-0.27557006,0.536514,0.54142978,-0.29809848,0.550305
0.48090914,-0.34067943,0.538614,0.48200457,-0.29948738,0.53951,0.45625601,-0.32151235,0.534825,0.43575489,-0.28798792,0.525343,0.41165276,-0.25956758,0.521347,0.4018406,-0.23567317,0.522411,0.45504463,-0.24366437,0.535762,0.46325625,-0.20359277,0.540878,0.46959382,-0.1881554,0.543435,0.47310887,-0.16649042,0.546734,0.48505527,-0.24933384,0.540688,0.48963217,-0.23840938,0.532767,0.51197357,-0.28067524,0.559746,0.51407112,-0.29880144,0.57252,0.50921065,-0.25655815,0.544678,0.51263302,-0.24475447,0.535036,0.5040871,-0.26537888,0.530103,0.5052612,-0.29064055,0.54625,0.53877149,-0.27078857,0.549346,0.53290381,-0.2645281,0.539272,0.53102491,-0.28062368,0.534643,0.53848787,-0.29693543,0.546601
0.5089321,-0.34351478,0.539992,0.49906417,-0.30155699,0.539982,0.47926227,-0.32771548,0.534552,0.45024273,-0.29558435,0.529129,0.4231683,-0.26726286,0.52258,0.41114584,-0.24513896,0.518861,0.45581518,-0.24722452,0.533415,0.46323455,-0.20817327,0.540532,0.46815524,-0.18565032,0.544091,0.47235632,-0.16989843,0.549453,0.48331927,-0.24830694,0.539969,0.48835529,-0.23750823,0.530906,0.51306254,-0.27968862,0.557362,0.52036635,-0.30040057,0.569726,0.50856743,-0.25505442,0.545361,0.51203915,-0.24382035,0.534071,0.50470223,-0.26388849,0.528295,0.51335412,-0.29223745,0.543628,0.54615548,-0.26279577,0.55184,0.53581129,-0.25582047,0.540453,0.53194797,-0.2710341,0.535221,0.53845202,-0.29589023,0.546567
0.51122638,-0.34262683,0.540114,0.499132,-0.30062186,0.539553,0.48027704,-0.32682049,0.533529,0.44957363,-0.29423621,0.526272,0.42130269,-0.26574828,0.518455,0.40846833,-0.24356846,0.514196,0.45310331,-0.24642821,0.531103,0.45599184,-0.20870416,0.539415,0.46067288,-0.18887275,0.543571,0.46971528,-0.16935768,0.547735,0.48248955,-0.2479542,0.538816,0.48747454,-0.23614097,0.529071,0.51629258,-0.27786534,0.555071,0.52351203,-0.29814459,0.566772,0.50866702,-0.25464724,0.5452,0.51155549,-0.2423113,0.532863,0.50760709,-0.26118122,0.526552,0.51738845,-0.29082686,0.541279,0.5450709,-0.26189447,0.552946,0.53654264,-0.25440479,0.540743,0.53341845,-0.26934113,0.535137,0.54484837,-0.29094358,0.54603
0.51278665,-0.34286174,0.540993,0.49929372,-0.30042202,0.539598,0.4807408,-0.32660687,0.533316,0.44914717,-0.29362495,0.525031,0.42062301,-0.26457931,0.516236,0.40762639,-0.24209751,0.511446,0.45095502,-0.24562852,0.529068,0.45541634,-0.2085057,0.538871,0.4609345,-0.18910228,0.543773,0.46936334,-0.17228637,0.549542,0.48166184,-0.24763388,0.537763,0.48100599,-0.22630756,0.527052,0.51742754,-0.2637085,0.552579,0.52480109,-0.29285189,0.564466,0.5086287,-0.25421973,0.545012,0.51054205,-0.24117006,0.531418,0.50642505,-0.25971093,0.524463,0.51557948,-0.28894376,0.538522,0.54517416,-0.26190197,0.553914,0.53665564,-0.25386381,0.540696,0.53346976,-0.26852101,0.534623,0.54431778,-0.28981901,0.545009
0.51514499,-0.34181132,0.542681,0.49989531,-0.29749535,0.53964,0.48060897,-0.32419095,0.532348,0.44593766,-0.29039124,0.520513,0.41527644,-0.25950261,0.506374,0.40035414,-0.23805754,0.501512,0.44585523,-0.23710125,0.524403,0.44540808,-0.19797643,0.53119,0.4494472,-0.17954687,0.534584,0.45675013,-0.16539795,0.5391,0.47911799,-0.23898829,0.535642,0.48258927,-0.2146359,0.523087,0.51358541,-0.25125106,0.54713,0.52310032,-0.27656064,0.559218,0.50807645,-0.24324826,0.545098,0.51033916,-0.23157708,0.528881,0.50565221,-0.25075358,0.520584,0.51280797,-0.28354531,0.532896,0.54590005,-0.2539931,0.556877,0.53823064,-0.24568431,0.541612,0.53475204,-0.2590084,0.534599,0.54388115,-0.28537582,0.543673
0.51578152,-0.34066214,0.542873,0.50012172,-0.296307,0.539739,0.48115981,-0.32316927,0.532466,0.44567167,-0.28953557,0.519742,0.41433736,-0.25883308,0.505041,0.39861009,-0.23739766,0.499664,0.44579146,-0.23706733,0.524328,0.44516994,-0.19787058,0.530906,0.44912015,-0.17941622,0.534195,0.45506812,-0.1640065,0.538035,0.47909742,-0.23897803,0.535619,0.48247487,-0.21458502,0.522963,0.51343146,-0.25117575,0.546966,0.52296936,-0.27649141,0.559078,0.50809976,-0.24325942,0.545123,0.51025425,-0.23153855,0.528793,0.50550942,-0.25068277,0.520437,0.51315249,-0.28263079,0.532691,0.54599513,-0.25403734,0.556974,0.53823362,-0.24568567,0.541615,0.53471103,-0.25898854,0.534558,0.54377174,-0.28403245,0.543586
0.51363969,-0.33723745,0.539626,0.49993481,-0.29110905,0.538503,0.4812799,-0.32178742,0.531725,0.45266511,-0.28807145,0.518928,0.42062382,-0.25980203,0.502586,0.40331139,-0.23792691,0.498928,0.44873561,-0.23895964,0.527952,0.44430052,-0.19763497,0.529898,0.44546443,-0.17802831,0.53087,0.44691019,-0.15997126,0.531755,0.47994847,-0.23896897,0.537026,0.47747388,-0.2140812,0.526602,0.51063374,-0.25114986,0.551972,0.52559575,-0.27746,0.563706,0.50734262,-0.24169097,0.544568,0.50641293,-0.22564936,0.531121,0.50322517,-0.24733929,0.524242,0.5131777,-0.27128569,0.538224,0.54327572,-0.24607544,0.553783,0.536659,-0.24446649,0.540734,0.53522043,-0.25848353,0.534739,0.54688794,-0.27975858,0.545079
0.52192655,-0.3323033,0.542597,0.50404465,-0.28742921,0.538652,0.48847333,-0.31857555,0.534303,0.4583066,-0.28478987,0.514074,0.42558093,-0.25830351,0.497168,0.40442196,-0.23830644,0.492419,0.44569817,-0.23774985,0.525048,0.43336566,-0.19709323,0.524721,0.43214432,-0.18196942,0.524557,0.43096896,-0.16731718,0.524408,0.47641336,-0.23644712,0.533466,0.47128347,-0.21318374,0.519974,0.50897106,-0.25029009,0.545385,0.52082366,-0.27481118,0.558242,0.50283275,-0.2347949,0.540663,0.49952719,-0.22101482,0.524498,0.49565625,-0.24228828,0.516227,0.50509656,-0.26285883,0.529545,0.53909547,-0.23588624,0.549855,0.52991924,-0.2335192,0.534341,0.53223495,-0.24645116,0.527213,0.54869243,-0.26520939,0.536981
0.52375092,-0.33101075,0.542074,0.5050841,-0.28677273,0.538107,0.48996735,-0.31787108,0.533691,0.45865369,-0.28623559,0.513359,0.42514173,-0.26248798,0.494038,0.40539455,-0.24085063,0.488172,0.44547658,-0.23947643,0.524374,0.43433012,-0.19592473,0.521637,0.43020772,-0.17981974,0.520269,0.42780383,-0.16384835,0.519082,0.47606153,-0.23581104,0.53289,0.47126107,-0.21348534,0.51937,0.50842055,-0.25029654,0.544735,0.52077276,-0.27451388,0.557588,0.50289272,-0.23408166,0.540171,0.49944943,-0.22011252,0.523944,0.49577736,-0.24154821,0.515642,0.50521108,-0.26134352,0.528911,0.53972528,-0.23632775,0.549465,0.53034834,-0.23324363,0.533907,0.53254977,-0.24614529,0.526759,0.54886979,-0.26500476,0.53649
0.51941005,-0.32658084,0.535872,0.49773599,-0.28188382,0.529279,0.48800565,-0.31541354,0.529947,0.4579747,-0.28606834,0.511963,0.42067676,-0.25813125,0.486071,0.40209741,-0.23439716,0.470869,0.43895598,-0.23609295,0.51611,0.41785272,-0.18929912,0.5006,0.40810265,-0.16979159,0.492845,0.40089332,-0.1526182,0.485795,0.4653135,-0.23012507,0.520612,0.46391768,-0.21597067,0.504558,0.49805128,-0.2540308,0.530858,0.5102323,-0.27179259,0.544921,0.48898208,-0.22716031,0.524772,0.48415917,-0.21286936,0.507478,0.47993407,-0.23335432,0.498631,0.49036928,-0.25069624,0.512334,0.5218356,-0.22844131,0.530682,0.51092486,-0.22444201,0.513826,0.51213919,-0.23645281,0.506081,0.52839963,-0.25491078,0.516029
0.52817376,-0.32554255,0.538547,0.50136206,-0.28153007,0.530071,0.49424974,-0.31509491,0.530818,0.4643088,-0.28807042,0.510453,0.42837488,-0.2587478,0.483254,0.40492787,-0.23483944,0.469314,0.43622743,-0.23438379,0.513005,0.41389423,-0.18929207,0.495168,0.40343158,-0.16892537,0.48625,0.39572599,-0.15504681,0.478142,0.4640358,-0.22934525,0.518926,0.45973414,-0.21513946,0.50072,0.49512497,-0.25252127,0.526323,0.50893339,-0.27510342,0.540945,0.4889439,-0.22682781,0.524385,0.48177838,-0.21155953,0.504548,0.47664418,-0.23132315,0.494399,0.48617281,-0.24810629,0.506938,0.52362689,-0.22877381,0.532115,0.51086712,-0.22401802,0.513148,0.51137174,-0.23556267,0.504433,0.52683448,-0.2533753,0.513484
0.52619586,-0.32339291,0.535463,0.4996486,-0.28031749,0.527873,0.49217247,-0.31308515,0.527545,0.46419847,-0.28652985,0.507096,0.42745936,-0.25736351,0.47873,0.406188,-0.23392802,0.462467,0.43508374,-0.23391377,0.511389,0.41279398,-0.18933152,0.494412,0.40281662,-0.16822895,0.485923,0.39531683,-0.15149188,0.478207,0.46310719,-0.22880503,0.517893,0.46040156,-0.21509038,0.500585,0.49603114,-0.25259489,0.526176,0.50951903,-0.2746867,0.54047,0.4883084,-0.22645705,0.52377,0.4821976,-0.21110997,0.504595,0.47842576,-0.23040895,0.494785,0.48795175,-0.24895793,0.507478,0.5232046,-0.22862578,0.53188,0.51162322,-0.22387024,0.513543,0.51261117,-0.23543335,0.505118,0.52820532,-0.25340091,0.514311
0.53547653,-0.32581045,0.54169,0.5032994,-0.28204369,0.53119,0.49886081,-0.31500646,0.531297,0.47130809,-0.29001168,0.507634,0.43877208,-0.26228889,0.476971,0.41938497,-0.23945843,0.459037,0.43410359,-0.23322645,0.509064,0.40772951,-0.18908127,0.488693,0.39670202,-0.16915026,0.478508,0.38761783,-0.15163812,0.469248,0.46289265,-0.22776169,0.517386,0.45812327,-0.21328159,0.496876,0.49542212,-0.25053865,0.5212,0.50867263,-0.27145374,0.536255,0.48946901,-0.22618742,0.52496,0.48163241,-0.20879735,0.502105,0.4809655,-0.22508504,0.490412,0.49138687,-0.24867499,0.501246,0.52641072,-0.22976961,0.53551,0.51269775,-0.2272097,0.514121,0.51334736,-0.24182794,0.504293,0.52363819,-0.25359235,0.512051
0.54291596,-0.32895201,0.54757,0.51728512,-0.28756935,0.540087,0.50941761,-0.31870993,0.536421,0.48198889,-0.29691849,0.512465,0.45074044,-0.27175793,0.483653,0.43311729,-0.25194062,0.469543,0.44905989,-0.24662799,0.519806,0.42350852,-0.20278556,0.501725,0.4197291,-0.18259623,0.505008,0.41992132,-0.16557126,0.507993,0.47697966,-0.23652622,0.530249,0.48060307,-0.22417156,0.512885,0.52023216,-0.26070991,0.536789,0.52982233,-0.27888097,0.550573,0.50305097,-0.23326853,0.539357,0.50619637,-0.21839921,0.5188,0.50806219,-0.23650009,0.508283,0.51705578,-0.25952994,0.519387,0.54198032,-0.23638948,0.551335,0.53591235,-0.23760691,0.532166,0.53427944,-0.25275605,0.523359,0.54246752,-0.26685793,0.531416
0.54579814,-0.32971381,0.549377,0.51786759,-0.28815926,0.540947,0.51179897,-0.31957594,0.537504,0.48172186,-0.29603695,0.512619,0.45296017,-0.26993918,0.484054,0.43594989,-0.24911153,0.469273,0.44798371,-0.24623951,0.518926,0.42166286,-0.20287535,0.499341,0.42056416,-0.18644841,0.503306,0.42122289,-0.17177895,0.50691,0.47621298,-0.23640312,0.529863,0.47963006,-0.22337308,0.511486,0.51874765,-0.25963435,0.534934,0.52936686,-0.27836675,0.548942,0.50336252,-0.23306379,0.539443,0.50533216,-0.21772299,0.51775,0.50668713,-0.23551811,0.506652,0.51602386,-0.25878149,0.517139,0.54255505,-0.23657297,0.552118,0.53628283,-0.23795668,0.532007,0.53418422,-0.25287474,0.522767,0.54162771,-0.26677553,0.530346
0.54877154,-0.32982139,0.550015,0.51949536,-0.28849721,0.540567,0.51403439,-0.31967566,0.53665,0.4904138,-0.29497686,0.510071,0.46303538,-0.2699784,0.483871,0.44266843,-0.25271536,0.475246,0.44611363,-0.24536893,0.515818,0.41711717,-0.20266085,0.493611,0.41494084,-0.18669795,0.495211,0.4149538,-0.1725628,0.496665,0.47640536,-0.2384105,0.528146,0.47812922,-0.22040358,0.508712,0.52086363,-0.251214,0.531069,0.53012984,-0.27587599,0.545116,0.50301889,-0.23317368,0.53894,0.50546172,-0.21743545,0.515771,0.51091471,-0.23571086,0.503917,0.51638163,-0.25829141,0.513243,0.54339673,-0.23701052,0.553215,0.5385736,-0.23840164,0.531966,0.53622614,-0.25292325,0.522203,0.54130852,-0.2659025,0.528911
0.54890514,-0.3300992,0.550652,0.51280372,-0.28560726,0.535948,0.50786492,-0.31754393,0.533663,0.48335323,-0.29139791,0.502688,0.45572012,-0.26627356,0.474621,0.43451225,-0.2479051,0.461444,0.43613378,-0.23833616,0.502025,0.40426517,-0.19423677,0.474154,0.39997358,-0.17746632,0.470907,0.39915138,-0.16346529,0.467955,0.46718064,-0.23216007,0.516615,0.46936123,-0.2105201,0.491855,0.50763052,-0.24264012,0.510979,0.52044221,-0.26521777,0.525937,0.49565191,-0.22968667,0.529636,0.50125035,-0.22042925,0.500621,0.49573226,-0.23685934,0.485776,0.49753836,-0.25185428,0.491311,0.53690136,-0.23391184,0.547312,0.52894247,-0.23353521,0.521252,0.52418299,-0.24668625,0.509279,0.52657431,-0.25567507,0.513068
0.55080634,-0.32991693,0.550596,0.51628279,-0.28615799,0.534727,0.51334085,-0.31873632,0.534182,0.48512619,-0.29329121,0.503528,0.45869555,-0.27085173,0.475369,0.43639425,-0.25222556,0.460509,0.43670098,-0.23875688,0.500431,0.40376823,-0.19527428,0.472006,0.39943113,-0.17917917,0.469095,0.39849366,-0.1658593,0.466448,0.46706044,-0.23187812,0.513861,0.46697384,-0.21112334,0.487816,0.50561612,-0.24368095,0.507531,0.52372838,-0.26763913,0.523141,0.49503737,-0.22884764,0.526009,0.49869419,-0.22055183,0.49615,0.49250823,-0.23655616,0.480873,0.49414097,-0.25455266,0.486619,0.53450485,-0.23074622,0.542797,0.52960725,-0.23263166,0.515865,0.52418705,-0.2457542,0.50349,0.52210703,-0.25620342,0.507393
0.55212449,-0.32960251,0.550142,0.51617073,-0.28630188,0.533946,0.51356324,-0.31891223,0.533573,0.49577468,-0.29595556,0.502722,0.47485423,-0.27090901,0.473131,0.45678388,-0.2511517,0.457717,0.43754868,-0.24043493,0.499166,0.40376932,-0.19765612,0.470445,0.39917904,-0.18216298,0.467625,0.39793927,-0.16948112,0.465061,0.46834042,-0.2334119,0.512653,0.46697881,-0.21396979,0.486281,0.50475761,-0.24705161,0.505832,0.52147235,-0.26809659,0.521508,0.49676082,-0.23022352,0.524869,0.49735413,-0.21960143,0.49468,0.49151574,-0.2354309,0.479234,0.4936023,-0.25369487,0.484779,0.53690772,-0.23190505,0.541786,0.53075864,-0.234947,0.514575,0.52499117,-0.24802598,0.502073,0.52140605,-0.25612805,0.505819
0.55556948,-0.33095102,0.552687,0.5146681,-0.28630819,0.535239,0.51334305,-0.31937561,0.534351,0.49489772,-0.29532449,0.501724,0.47408093,-0.27076471,0.471836,0.45513093,-0.25097077,0.455384,0.43458798,-0.23834309,0.497184,0.40261431,-0.19622106,0.466833,0.40176572,-0.17949141,0.458977,0.3986087,-0.16417875,0.451836,0.46594965,-0.23229195,0.5123,0.46805407,-0.21116312,0.48483,0.50380843,-0.24297428,0.502409,0.51829658,-0.26598367,0.517863,0.49487241,-0.22995243,0.525943,0.49861313,-0.22084332,0.494167,0.493008,-0.23689634,0.47791,0.49098592,-0.25265641,0.481651,0.53215004,-0.23260816,0.544746,0.52967138,-0.23312933,0.516377,0.53108793,-0.23320777,0.503343,0.54171378,-0.25065292,0.50574
0.55640658,-0.33132389,0.553279,0.51521029,-0.28686441,0.535361,0.51514226,-0.32044828,0.535229,0.48784396,-0.29647948,0.502771,0.46461005,-0.27398107,0.473559,0.43946699,-0.25514686,0.458675,0.43448347,-0.23859103,0.49722,0.40015221,-0.19694293,0.466661,0.39632783,-0.18451019,0.459661,0.39857763,-0.17405601,0.453297,0.46503521,-0.23232718,0.511802,0.46680342,-0.21160663,0.483799,0.50256758,-0.2436833,0.5017,0.51797933,-0.26587034,0.517448,0.49079575,-0.22958321,0.525039,0.49749266,-0.22086961,0.49293,0.49140995,-0.23572903,0.476502,0.48987773,-0.25256894,0.480389,0.52958144,-0.23257049,0.543419,0.52794351,-0.23252157,0.514694,0.52869311,-0.23295866,0.501497,0.53940166,-0.25038152,0.503983
0.55668979,-0.33127057,0.553085,0.51582241,-0.2873797,0.535275,0.51600004,-0.32086979,0.53487,0.49128372,-0.29618755,0.502287,0.46587778,-0.27419882,0.473641,0.44461187,-0.25519933,0.457174,0.43449371,-0.23870056,0.497034,0.40149987,-0.19715892,0.466482,0.39698981,-0.18443204,0.459048,0.39906095,-0.17385136,0.45229,0.46501165,-0.23255594,0.511858,0.46971208,-0.21071189,0.483992,0.50272119,-0.24375019,0.501706,0.51381313,-0.26448942,0.517346,0.4931549,-0.23020166,0.525287,0.49873871,-0.22212859,0.493228,0.49275364,-0.23681745,0.476826,0.49045576,-0.25307672,0.480592,0.53041044,-0.23308643,0.543882,0.52952976,-0.23343078,0.515232,0.52973706,-0.23347022,0.502069,0.54037268,-0.25086205,0.504472
0.55577188,-0.33197127,0.552266,0.51021193,-0.29680645,0.531996,0.51370745,-0.32053812,0.531774,0.48699111,-0.3032695,0.496977,0.4623005,-0.2803231,0.46724,0.43975078,-0.26158547,0.450097,0.43088282,-0.24329332,0.488762,0.40557958,-0.20327052,0.455687,0.40062518,-0.18663546,0.44631,0.39866795,-0.17220695,0.437786,0.4602126,-0.23838464,0.505345,0.46897575,-0.21606614,0.47536,0.49565047,-0.24760846,0.489906,0.5053046,-0.26279335,0.505319,0.48713998,-0.23726128,0.520391,0.49626714,-0.22859121,0.485737,0.48764946,-0.24207789,0.468007,0.48122176,-0.25812011,0.468877,0.52501922,-0.24191252,0.54127,0.52576205,-0.24091381,0.510657,0.52272906,-0.24254779,0.496591,0.53306089,-0.25772011,0.496807
0.55323619,-0.3323403,0.550978,0.50860931,-0.29254094,0.530574,0.51181088,-0.32077644,0.530114,0.48480017,-0.29802825,0.495031,0.45979381,-0.27424525,0.464796,0.43709373,-0.25402795,0.448014,0.43072747,-0.24107597,0.486771,0.40423897,-0.20111782,0.453494,0.39750773,-0.18392856,0.4431,0.39448657,-0.1691231,0.43365,0.45978466,-0.23650988,0.503749,0.47518681,-0.21847549,0.473726,0.49498178,-0.24824929,0.487671,0.50118911,-0.2655356,0.502908,0.4863836,-0.23570795,0.519129,0.49645272,-0.22754433,0.484312,0.48690346,-0.2410701,0.466498,0.47948612,-0.25694429,0.466901,0.5236647,-0.24080865,0.540429,0.52534213,-0.23798122,0.50974,0.52315603,-0.24195222,0.495639,0.53029636,-0.25803769,0.495511
0.54416365,-0.33710131,0.547747,0.50487627,-0.30328124,0.527745,0.50457952,-0.32999843,0.526345,0.4816713,-0.30690568,0.490979,0.45732595,-0.28267293,0.460919,0.43608721,-0.26106774,0.444703,0.42958539,-0.24840027,0.483661,0.40221086,-0.20880465,0.450528,0.3950538,-0.1919222,0.44063,0.39223161,-0.17748438,0.431632,0.45871585,-0.24447569,0.501449,0.47347555,-0.22798668,0.47202,0.49386653,-0.25898542,0.485022,0.4976866,-0.27742113,0.499749,0.48525285,-0.24420712,0.517467,0.49669763,-0.23670101,0.482954,0.48647086,-0.24994555,0.465296,0.47793978,-0.26531539,0.465112,0.52220292,-0.24996852,0.539477,0.52486601,-0.24962015,0.509181,0.52563233,-0.25188782,0.495261,0.52808445,-0.26896312,0.494718
0.559072,-0.34075682,0.558138,0.51908725,-0.30305874,0.530502,0.51987674,-0.33237235,0.539353,0.50183458,-0.3157189,0.505281,0.47652266,-0.29432304,0.478244,0.45600431,-0.27501421,0.461641,0.42967035,-0.24773121,0.482592,0.39908159,-0.20855431,0.445836,0.40377131,-0.20311387,0.444539,0.41075254,-0.19986195,0.44336,0.46088418,-0.24062986,0.494167,0.45546318,-0.23348598,0.456633,0.48143589,-0.26062051,0.471659,0.4910628,-0.27321829,0.489952,0.48916928,-0.23788893,0.505606,0.48183718,-0.23907617,0.465418,0.47791513,-0.23957481,0.444857,0.49486186,-0.25039153,0.444704,0.52990781,-0.24087575,0.52317,0.5143107,-0.23300889,0.48725,0.51011838,-0.24045282,0.470747,0.5136361,-0.25127748,0.469969
0.55808976,-0.34210554,0.557489,0.51249354,-0.29733243,0.529826,0.51924692,-0.33131005,0.538435,0.48485549,-0.29981617,0.510851,0.4590986,-0.27062004,0.489776,0.43545994,-0.24693,0.476015,0.43226747,-0.23363411,0.481566,0.40615603,-0.19544193,0.444967,0.41942133,-0.19890793,0.445184,0.43324644,-0.20445249,0.44538,0.46396479,-0.22959779,0.493454,0.46119704,-0.22977933,0.455919,0.48044636,-0.25870939,0.470664,0.49095156,-0.27285603,0.48887,0.4931523,-0.22960682,0.505152,0.48461364,-0.23034418,0.464859,0.47982971,-0.23246868,0.444244,0.49390405,-0.24949653,0.443865,0.5320565,-0.23865163,0.523032,0.51700939,-0.2325044,0.487061,0.51153914,-0.2403691,0.470533,0.51368073,-0.25018994,0.46959
0.54800263,-0.34007338,0.549746,0.5105652,-0.29296848,0.524068,0.50898986,-0.32718151,0.530277,0.47527643,-0.29022778,0.502664,0.44970059,-0.25696277,0.479542,0.43079646,-0.23163384,0.466788,0.43051458,-0.22307935,0.477125,0.40437977,-0.1936666,0.440904,0.41937892,-0.19755227,0.442929,0.43456565,-0.2024319,0.44477,0.46266823,-0.22532169,0.490309,0.46212313,-0.22278216,0.454705,0.48073456,-0.25696766,0.4697,0.49442196,-0.27472815,0.487286,0.49297358,-0.22704021,0.502934,0.48603756,-0.22754631,0.464047,0.48220321,-0.23003052,0.444152,0.49500065,-0.24923368,0.44429,0.53509298,-0.23605799,0.521653,0.52228747,-0.23409538,0.487006,0.51360318,-0.24197598,0.471088,0.5137442,-0.25035335,0.47059
0.54519172,-0.33900472,0.546959,0.50833861,-0.29086097,0.52123,0.50632585,-0.32623381,0.527201,0.47321402,-0.28790052,0.499371,0.44848417,-0.25521189,0.477122,0.42935533,-0.22982532,0.464102,0.42856254,-0.22110353,0.473892,0.40422606,-0.19170321,0.43752,0.41948446,-0.19566306,0.439291,0.43280058,-0.2007637,0.440901,0.46260169,-0.22067742,0.487404,0.46001204,-0.21962692,0.451792,0.48110762,-0.25154555,0.466433,0.49796567,-0.27499739,0.483911,0.49174509,-0.22500876,0.500302,0.48756319,-0.21793773,0.4613,0.48417827,-0.21807655,0.441346,0.49688806,-0.23760539,0.441203,0.53417443,-0.23475754,0.519357,0.52104788,-0.23179945,0.484655,0.51184345,-0.2397272,0.468711,0.51133777,-0.24813783,0.468008
0.5293295,-0.33610102,0.534024,0.49862282,-0.28412104,0.51194,0.48946595,-0.31793045,0.513176,0.45796877,-0.27473092,0.486492,0.42973482,-0.23943603,0.463266,0.41955679,-0.2134131,0.45072,0.42204898,-0.21001205,0.46662,0.40574371,-0.18374381,0.432204,0.43198359,-0.19524361,0.442678,0.45289694,-0.20630548,0.4522,0.45909978,-0.2155887,0.482905,0.46006839,-0.21521907,0.451139,0.47678102,-0.2452804,0.465006,0.49094262,-0.27114284,0.48085,0.49124444,-0.22144053,0.497833,0.48828299,-0.2175624,0.46158,0.48669758,-0.2186521,0.443031,0.497072,-0.24198792,0.443021,0.53567242,-0.23408582,0.51882,0.52582859,-0.23259417,0.486812,0.51592648,-0.24097286,0.472105,0.51534053,-0.24942247,0.471621
0.52965125,-0.33574388,0.53308,0.49785148,-0.28314306,0.511015,0.48799377,-0.31684265,0.512053,0.457703,-0.27407991,0.48516,0.42986521,-0.23907714,0.462267,0.41953169,-0.21302006,0.449504,0.42205123,-0.20952496,0.465496,0.40575847,-0.1834104,0.43104,0.43181781,-0.19488693,0.441287,0.45738528,-0.20613403,0.450603,0.45886545,-0.21433569,0.482006,0.45990069,-0.2141637,0.450307,0.47893447,-0.24662785,0.463889,0.49495837,-0.27129011,0.479619,0.49119296,-0.22050144,0.497116,0.48838779,-0.21718121,0.460855,0.48685418,-0.21839661,0.442303,0.49665657,-0.24108424,0.442089,0.53581292,-0.23366971,0.51832,0.52616111,-0.23212045,0.48634,0.516054,-0.24050698,0.471647,0.51502837,-0.24871869,0.471015
0.52970025,-0.33601729,0.533339,0.49792168,-0.28294637,0.511125,0.48743089,-0.31642456,0.511756,0.45759845,-0.27394986,0.484681,0.42938987,-0.23878776,0.461367,0.41967944,-0.21282921,0.44857,0.42142988,-0.20940217,0.464799,0.40999559,-0.18918872,0.430093,0.43658522,-0.20326366,0.439577,0.46250107,-0.21704292,0.448199,0.45829265,-0.21489012,0.481918,0.46005165,-0.21373463,0.450235,0.47814985,-0.24584458,0.462853,0.49419073,-0.27067306,0.478274,0.49170094,-0.22031994,0.497541,0.48890193,-0.21714568,0.461098,0.48736523,-0.21879814,0.442452,0.49509851,-0.24195563,0.441513,0.53694623,-0.23397001,0.519381,0.52756034,-0.23231013,0.487349,0.51757299,-0.24081579,0.472632,0.51600591,-0.24888423,0.471466
0.52872406,-0.33559324,0.532525,0.49734752,-0.282462,0.510561,0.48641792,-0.31572727,0.510914,0.45699399,-0.27355433,0.483857,0.42895629,-0.23853416,0.460707,0.42005187,-0.21267807,0.447719,0.42109969,-0.20933092,0.464429,0.40979922,-0.18909811,0.429887,0.43634984,-0.20315407,0.43934,0.46222658,-0.21691411,0.447933,0.45814254,-0.2144471,0.481683,0.46022024,-0.21351305,0.450268,0.4783192,-0.24570372,0.462851,0.49445065,-0.27069737,0.478164,0.4916194,-0.22001005,0.497399,0.48912914,-0.21708808,0.461167,0.48687001,-0.22082175,0.44263,0.49432921,-0.2430348,0.441719,0.53690442,-0.23382232,0.519317,0.527913,-0.23218,0.487485,0.51813755,-0.24079292,0.472859,0.51665003,-0.24896483,0.471722
0.52597086,-0.33385227,0.529043,0.49515705,-0.28096924,0.508272,0.48267942,-0.31327668,0.507512,0.45421613,-0.27206811,0.480564,0.42654023,-0.23764583,0.457621,0.4188263,-0.21228926,0.443993,0.42015928,-0.20872155,0.463327,0.40966692,-0.18868859,0.429624,0.4363647,-0.20279432,0.439207,0.46238907,-0.21660605,0.447919,0.45790712,-0.21300558,0.480962,0.46089601,-0.21344869,0.450764,0.47900495,-0.24577406,0.463533,0.49461016,-0.27056493,0.478464,0.49123656,-0.21948937,0.496909,0.48990073,-0.2171418,0.461713,0.48898522,-0.2204814,0.443706,0.4956839,-0.24377271,0.443185,0.53660233,-0.23343869,0.518939,0.52874752,-0.23218092,0.488042,0.51952958,-0.24109365,0.473846,0.51843167,-0.24953254,0.473032
0.52307018,-0.33265037,0.527317,0.49382571,-0.2799373,0.506921,0.48105196,-0.31202283,0.505878,0.45260077,-0.2713662,0.478708,0.42485986,-0.23736398,0.455654,0.41707902,-0.21224852,0.441618,0.41914831,-0.20816918,0.462432,0.4079003,-0.18707191,0.429014,0.43543073,-0.20228669,0.438727,0.46155366,-0.2161176,0.447557,0.45699683,-0.21152582,0.480107,0.46046551,-0.21215023,0.450274,0.4782352,-0.24466838,0.463213,0.4940065,-0.26998001,0.478066,0.49033851,-0.21874212,0.49606,0.48931045,-0.21657935,0.461198,0.48854811,-0.22037577,0.443362,0.49522386,-0.24351598,0.443046,0.53565644,-0.23267952,0.518045,0.52856757,-0.23080179,0.487436,0.5197428,-0.24009223,0.473373,0.51915868,-0.24916401,0.47272
0.52142728,-0.33172415,0.525846,0.49269205,-0.27936705,0.506023,0.47966396,-0.31123022,0.504679,0.45053668,-0.27079658,0.476828,0.42097165,-0.23907368,0.451539,0.4133626,-0.21422981,0.436539,0.41823555,-0.20832792,0.462385,0.4030559,-0.18825446,0.429433,0.43286464,-0.20327533,0.439523,0.46162911,-0.21738902,0.448696,0.45629677,-0.21150931,0.479961,0.46024467,-0.2123456,0.450643,0.47577324,-0.24410801,0.464068,0.49066551,-0.26797168,0.478887,0.48967135,-0.21811636,0.495794,0.48914014,-0.21661098,0.461453,0.48819254,-0.2215787,0.443884,0.49599379,-0.24341947,0.444042,0.53484353,-0.23227997,0.517555,0.52810588,-0.23064191,0.487369,0.51981813,-0.24006083,0.4735,0.52022844,-0.24907963,0.473211
0.51832489,-0.33044867,0.523461,0.48961712,-0.27790807,0.503599,0.47662216,-0.30958644,0.502292,0.44526718,-0.27341086,0.473423,0.4155903,-0.2415714,0.448776,0.40879252,-0.2156096,0.433676,0.41104761,-0.20983423,0.459923,0.40049122,-0.19032292,0.426944,0.42787094,-0.20545139,0.437033,0.4559456,-0.21872395,0.446205,0.44845853,-0.21186122,0.477486,0.45300321,-0.21239883,0.448127,0.47084033,-0.24343045,0.46155,0.48555481,-0.26609143,0.476383,0.48191297,-0.21681779,0.49331,0.48200243,-0.2154066,0.458935,0.48311828,-0.22137989,0.441348,0.49270603,-0.24150689,0.441495,0.5271021,-0.22971883,0.515066,0.52091223,-0.22868899,0.484848,0.51617759,-0.238107,0.470964,0.5175278,-0.2474824,0.470667
0.51700853,-0.32973411,0.52263,0.4880808,-0.27702211,0.502721,0.47521947,-0.30879748,0.501372,0.44407209,-0.27307412,0.4729,0.41644223,-0.24054792,0.448583,0.40961093,-0.21503026,0.433596,0.40752017,-0.21029747,0.458895,0.39855674,-0.18993533,0.42586,0.42588732,-0.20493134,0.435824,0.45372666,-0.21859004,0.444882,0.44458839,-0.21179086,0.476546,0.45108424,-0.21176033,0.447166,0.46762866,-0.24254966,0.46043,0.48155667,-0.26480456,0.475221,0.47778255,-0.21627299,0.492446,0.47999508,-0.21462011,0.458023,0.48001144,-0.22054365,0.440412,0.48956229,-0.24053223,0.440435,0.52271499,-0.22853238,0.5143,0.51887765,-0.22778941,0.484057,0.51356578,-0.23698435,0.470162,0.51736245,-0.24734851,0.469772
0.51533168,-0.32913006,0.521851,0.48444148,-0.27693493,0.502169,0.47363032,-0.30823802,0.500694,0.44246398,-0.27271106,0.472221,0.41398991,-0.24119098,0.447535,0.40704246,-0.21580744,0.432181,0.40629496,-0.20998227,0.458672,0.39633905,-0.1907668,0.425822,0.42397479,-0.20578598,0.435922,0.45156554,-0.22038189,0.445105,0.44335309,-0.21144158,0.476292,0.44886473,-0.21202098,0.44712,0.46672136,-0.24253812,0.46056,0.47941973,-0.26426858,0.475331,0.47653126,-0.21588467,0.492151,0.4775828,-0.2144991,0.457935,0.47895871,-0.22043527,0.44043,0.48571594,-0.24111629,0.44063,0.52142125,-0.22807756,0.513924,0.51634251,-0.22808568,0.483851,0.51287636,-0.23737004,0.470033,0.51799011,-0.24818257,0.46978
0.5146422,-0.3285972,0.521606,0.48293594,-0.27661398,0.502346,0.47307726,-0.30812265,0.500661,0.44169897,-0.27250392,0.47234,0.4132474,-0.24108742,0.447584,0.40530642,-0.21656954,0.431959,0.40504471,-0.20957734,0.45949,0.39503532,-0.19058465,0.426991,0.42279547,-0.2056805,0.437374,0.45197581,-0.22103428,0.446812,0.44205878,-0.21083334,0.477024,0.44769644,-0.2115961,0.448232,0.46524808,-0.24241084,0.462035,0.47997586,-0.26461371,0.476782,0.47519948,-0.21508383,0.492783,0.47642872,-0.21389485,0.458957,0.477103,-0.21993102,0.441651,0.48541642,-0.24158629,0.442205,0.52003108,-0.22699999,0.514377,0.5161707,-0.22819405,0.48462,0.5123304,-0.23754601,0.470947,0.51897268,-0.2487652,0.470965
0.51457272,-0.32835475,0.522309,0.48280285,-0.27613264,0.502823,0.47285578,-0.30810411,0.501296,0.44004692,-0.27224352,0.473038,0.41287292,-0.24121378,0.447768,0.4044246,-0.21675725,0.432003,0.40492481,-0.20887717,0.459677,0.39597629,-0.19126369,0.427,0.42363227,-0.20673073,0.437295,0.45130649,-0.22184987,0.446654,0.44203361,-0.21009218,0.477203,0.44712526,-0.21123896,0.448191,0.46451137,-0.24184653,0.46188,0.47917473,-0.26401279,0.476671,0.47527176,-0.214308,0.49297,0.47596705,-0.21352908,0.458938,0.47634349,-0.21972382,0.441527,0.48435088,-0.2411831,0.441948,0.52024964,-0.22619022,0.514607,0.51580012,-0.22797749,0.484673,0.51196253,-0.23734398,0.47092,0.51874892,-0.2487614,0.470834
0.51440588,-0.32804371,0.523065,0.48092094,-0.27485263,0.503331,0.47255801,-0.30803817,0.502022,0.4391596,-0.27197014,0.473792,0.4107178,-0.24146122,0.448305,0.40378277,-0.2168994,0.432083,0.40369881,-0.20808435,0.459923,0.39468937,-0.19120695,0.427065,0.42216394,-0.20697975,0.437327,0.44984747,-0.22287237,0.446656,0.44082499,-0.20911897,0.477385,0.44527522,-0.21057456,0.448121,0.46271656,-0.24095393,0.461763,0.47667934,-0.26266551,0.476631,0.47411506,-0.21317714,0.493117,0.47421208,-0.21274437,0.458865,0.47431307,-0.21905513,0.44134,0.48145944,-0.23992872,0.441674,0.51881254,-0.22386095,0.514746,0.51424819,-0.22732899,0.484615,0.51078531,-0.23677073,0.470771,0.51828399,-0.24861359,0.470613
0.51407753,-0.32762709,0.523648,0.48090788,-0.27458563,0.503799,0.47208309,-0.30784406,0.502549,0.43904075,-0.27173549,0.474065,0.40937369,-0.24119928,0.448779,0.39963249,-0.21712734,0.432758,0.40351685,-0.20780446,0.460219,0.39454847,-0.19120569,0.427265,0.42275945,-0.20711271,0.437452,0.45015675,-0.2225223,0.446712,0.44015005,-0.20811541,0.477703,0.44499711,-0.21018514,0.448335,0.4623808,-0.24050218,0.461881,0.47630851,-0.26222245,0.476756,0.47348702,-0.2120711,0.493461,0.47330304,-0.21175986,0.459104,0.47401445,-0.21860862,0.441525,0.48100923,-0.23947121,0.441763,0.51868566,-0.22361925,0.515137,0.51368084,-0.22647426,0.484921,0.51010922,-0.23585405,0.471037,0.51767393,-0.24855955,0.470806
0.51395119,-0.32730079,0.52455,0.48146761,-0.27448629,0.504735,0.47192097,-0.30776829,0.503501,0.4392339,-0.27118893,0.475155,0.40957372,-0.24106438,0.449757,0.39958472,-0.21695316,0.433771,0.40379775,-0.20706593,0.461245,0.39533814,-0.19134885,0.428328,0.4235178,-0.20740801,0.438582,0.45090503,-0.22301126,0.447904,0.44093715,-0.20801811,0.478683,0.4450511,-0.2095577,0.449335,0.46254496,-0.23986211,0.462967,0.47700641,-0.26224842,0.477861,0.47425308,-0.2120033,0.494401,0.47403721,-0.21168106,0.460077,0.4740102,-0.21804276,0.442516,0.48166512,-0.23952531,0.442823,0.51940808,-0.22359325,0.516024,0.51424528,-0.2264646,0.485828,0.51062198,-0.23587107,0.471954,0.51814242,-0.2488344,0.471775
0.51390409,-0.32686315,0.525603,0.48138671,-0.27289968,0.505898,0.47191508,-0.30758899,0.504673,0.43963376,-0.27025762,0.476867,0.40853357,-0.23985233,0.452144,0.39857958,-0.21652672,0.435936,0.40433832,-0.20573978,0.462654,0.39555575,-0.19119585,0.429846,0.42378631,-0.20733862,0.440262,0.45216177,-0.22374368,0.449731,0.44201154,-0.20710458,0.479992,0.44580795,-0.20910059,0.450724,0.46343689,-0.23948069,0.464561,0.4770942,-0.26123592,0.479492,0.4753692,-0.21108163,0.49562,0.47514501,-0.21169004,0.461405,0.47508428,-0.21819212,0.443899,0.48205899,-0.23947381,0.444379,0.52053767,-0.22266457,0.51712,0.51446276,-0.22618825,0.486999,0.50962112,-0.23442957,0.47316,0.51649318,-0.24678737,0.47311
0.51249535,-0.32548023,0.525812,0.48088058,-0.26897505,0.507217,0.46931287,-0.30409091,0.505401,0.43684842,-0.2633616,0.47863,0.40747142,-0.2356535,0.452935,0.39718702,-0.21305978,0.436504,0.40894338,-0.19674586,0.465612,0.40002966,-0.18353505,0.43373,0.42634698,-0.20647006,0.444798,0.45407915,-0.22652638,0.454861,0.4468272,-0.19967152,0.482769,0.44894489,-0.20730128,0.454527,0.46660357,-0.23848272,0.469204,0.48003501,-0.26143674,0.484027,0.47923215,-0.20725584,0.498171,0.47803581,-0.21081212,0.464991,0.47824472,-0.21864515,0.448016,0.48616622,-0.24112547,0.449349,0.5234071,-0.22110127,0.519245,0.51732724,-0.22655948,0.489974,0.51278994,-0.2357114,0.476525,0.51923894,-0.24782761,0.477133
0.51013413,-0.32330283,0.525007,0.47934708,-0.26596839,0.506898,0.4674502,-0.30164028,0.505048,0.43542386,-0.26182382,0.478356,0.40559515,-0.23145954,0.45334,0.3960616,-0.20795379,0.437491,0.40899657,-0.1957958,0.466281,0.39971728,-0.18233756,0.434879,0.42631565,-0.20184772,0.446493,0.45354917,-0.22372758,0.457052,0.44678023,-0.19879552,0.483088,0.44882734,-0.20305538,0.455244,0.46575135,-0.23522415,0.470616,0.47908604,-0.25818512,0.485513,0.47951683,-0.20609423,0.498169,0.47808892,-0.20828668,0.465482,0.47719094,-0.21621569,0.448759,0.48523454,-0.23957242,0.450706,0.52342628,-0.22017836,0.518791,0.51650679,-0.22471101,0.489885,0.51198428,-0.23471091,0.476604,0.51902626,-0.24758576,0.477674
0.50904798,-0.32100986,0.527235,0.47827117,-0.2635996,0.507969,0.4646588,-0.29639839,0.507384,0.43297558,-0.25688908,0.481103,0.40361057,-0.22503613,0.456451,0.39668333,-0.20446107,0.439708,0.40857119,-0.19244795,0.466425,0.39740036,-0.17877683,0.434251,0.42331436,-0.19809601,0.446011,0.44812442,-0.21796482,0.456703,0.44637264,-0.19714133,0.482638,0.44534997,-0.19994489,0.453548,0.46198365,-0.23235798,0.469085,0.47554062,-0.25531994,0.484484,0.47955919,-0.2031109,0.497311,0.47555084,-0.20560618,0.46363,0.47179082,-0.21284193,0.446398,0.47830839,-0.23625142,0.448212,0.52320195,-0.21802313,0.517602,0.51397292,-0.22321768,0.487759,0.50748238,-0.23207203,0.474047,0.51206717,-0.24357004,0.474983
0.5085516,-0.32066086,0.527999,0.47756903,-0.2630332,0.508111,0.46187252,-0.29404796,0.507885,0.43162562,-0.2566296,0.480539,0.40200103,-0.22468941,0.455697,0.39556365,-0.20329841,0.439033,0.4073893,-0.19136947,0.465681,0.39686953,-0.17980038,0.43299,0.4225168,-0.19973927,0.444439,0.44888406,-0.22184581,0.454847,0.44515746,-0.19500467,0.481962,0.44335938,-0.19905406,0.452282,0.45942292,-0.23124084,0.467416,0.47298056,-0.25401066,0.482902,0.47873876,-0.20226497,0.496733,0.47287392,-0.20393604,0.462468,0.46938153,-0.21212384,0.444937,0.47389753,-0.23455686,0.44632,0.52279136,-0.21743054,0.517228,0.51236869,-0.22131867,0.486899,0.50417944,-0.23077174,0.472964,0.50867096,-0.24258174,0.473566
0.48351288,-0.30470469,0.503016,0.460733,-0.25339217,0.490781,0.44227669,-0.28129509,0.48715,0.41457136,-0.24620802,0.461947,0.3867222,-0.21588259,0.438808,0.37973934,-0.19341754,0.423071,0.40222552,-0.18730676,0.460468,0.39756942,-0.17928996,0.434845,0.42654136,-0.20142663,0.450255,0.45626074,-0.22570827,0.464264,0.43816424,-0.19142578,0.474695,0.44304824,-0.19860225,0.452445,0.46400844,-0.23330324,0.472654,0.47613909,-0.25521832,0.487815,0.46924562,-0.1969911,0.487245,0.47067116,-0.20272511,0.46075,0.47120085,-0.21281393,0.447194,0.48154645,-0.2382958,0.45414,0.50934293,-0.21136193,0.504014,0.50390808,-0.21682552,0.480093,0.49954413,-0.22849586,0.469102,0.50847327,-0.24234533,0.473995
0.50387494,-0.31657473,0.528177,0.47421543,-0.2599462,0.507799,0.46067362,-0.29293826,0.508368,0.43052404,-0.25523905,0.481522,0.40125399,-0.22233718,0.458196,0.39274846,-0.19822322,0.443132,0.40449002,-0.1887589,0.465289,0.38918922,-0.17459653,0.432367,0.41761973,-0.19526151,0.44415,0.44357737,-0.21767963,0.454862,0.44182131,-0.1922564,0.481006,0.43884683,-0.1964117,0.450751,0.45588723,-0.22905009,0.466295,0.46865534,-0.25107179,0.482118,0.474939,-0.19857217,0.495348,0.46817615,-0.20130562,0.460719,0.46415632,-0.2095714,0.443001,0.46941091,-0.23246508,0.444583,0.51909601,-0.21336387,0.515396,0.50629993,-0.21747268,0.484674,0.49863216,-0.22780161,0.470559,0.5027544,-0.23931398,0.471289
0.47976281,-0.30137212,0.503735,0.45781403,-0.25098523,0.490837,0.44161588,-0.28078796,0.48802,0.41377339,-0.24505688,0.463373,0.38414268,-0.21299674,0.443172,0.37488899,-0.18927686,0.429475,0.39926265,-0.18656152,0.460102,0.39064225,-0.17534224,0.434076,0.42168661,-0.1974566,0.449646,0.45123995,-0.22145726,0.463799,0.43451127,-0.18922037,0.473879,0.43827577,-0.19620528,0.450907,0.46033071,-0.23132118,0.471304,0.47368862,-0.2539504,0.486568,0.46528901,-0.19459608,0.486107,0.46575638,-0.20022601,0.459069,0.46581362,-0.21021778,0.445236,0.47681803,-0.23599796,0.452179,0.50539076,-0.20767405,0.50258,0.49872076,-0.2141013,0.478132,0.49410045,-0.22556074,0.466899,0.50266516,-0.2390736,0.471768
0.47383474,-0.29758925,0.501597,0.4589784,-0.25142867,0.492884,0.44012345,-0.27948605,0.488671,0.4123181,-0.24349944,0.465354,0.382386,-0.21321706,0.446364,0.37247809,-0.18979591,0.433184,0.40652289,-0.1889758,0.469338,0.39757222,-0.17468524,0.447657,0.42564557,-0.19729275,0.465014,0.45281364,-0.22124873,0.480869,0.44146525,-0.19161969,0.48143,0.44678794,-0.20114303,0.46277,0.4701966,-0.23740592,0.485438,0.48625563,-0.26115473,0.502508,0.47168631,-0.19690345,0.49198,0.47366988,-0.20482712,0.469629,0.47224578,-0.22061094,0.458194,0.48383197,-0.24800207,0.467952,0.51006354,-0.21022693,0.505859,0.50366009,-0.21731022,0.485299,0.50093366,-0.22989064,0.475853,0.51370589,-0.24506744,0.482897
0.50398588,-0.31692102,0.535458,0.46916049,-0.25867737,0.506515,0.46364194,-0.29522842,0.516429,0.43046467,-0.2671683,0.48991,0.39301188,-0.23909386,0.465264,0.37416543,-0.21569536,0.449341,0.39689892,-0.19826824,0.457117,0.37324529,-0.16266936,0.419151,0.39193191,-0.18407893,0.428901,0.41796906,-0.21385584,0.448214,0.4300055,-0.1982043,0.468462,0.4184683,-0.21379383,0.429743,0.43839858,-0.24617436,0.443958,0.44464084,-0.26078755,0.454111,0.45939781,-0.20144942,0.479803,0.44273128,-0.21562756,0.438566,0.42335521,-0.22836855,0.417469,0.41215445,-0.23666636,0.416486,0.4987326,-0.21209699,0.49743,0.47972134,-0.22665968,0.460618,0.49348403,-0.23918893,0.469676,0.51228659,-0.24264506,0.486113
0.50099141,-0.31593042,0.533577,0.45867178,-0.26203315,0.501269,0.45986307,-0.29414301,0.512086,0.44124645,-0.28043576,0.48099,0.43034613,-0.2628967,0.453029,0.43019945,-0.24639161,0.432666,0.38325924,-0.19845143,0.445827,0.3418085,-0.15165216,0.405048,0.35120783,-0.16165427,0.401633,0.37653038,-0.17895005,0.416516,0.4185809,-0.19594414,0.458792,0.4053764,-0.20768237,0.417486,0.43021767,-0.2306682,0.426782,0.45043945,-0.25968272,0.444641,0.44863038,-0.19931451,0.471698,0.43297592,-0.20899675,0.427488,0.44244493,-0.22409264,0.435516,0.45112337,-0.22876043,0.456574,0.48957994,-0.21027633,0.491671,0.47037721,-0.2215701,0.452671,0.48113223,-0.23299336,0.458229,0.49785673,-0.23650409,0.474109
0.49592251,-0.31367184,0.5303,0.45877675,-0.26383019,0.501689,0.45668185,-0.29340531,0.510398,0.43950349,-0.2802647,0.479866,0.42829017,-0.26216316,0.451301,0.42720058,-0.24500362,0.430733,0.38745465,-0.2031466,0.451541,0.34569986,-0.15366049,0.413383,0.35139293,-0.15834118,0.406368,0.37383735,-0.17055542,0.41882,0.41987277,-0.20169813,0.464073,0.41277038,-0.2127309,0.425757,0.43297504,-0.24554734,0.439182,0.44509795,-0.26422835,0.457256,0.44892764,-0.20376935,0.476365,0.44079846,-0.21291745,0.43512,0.45348892,-0.23039688,0.44678,0.46191252,-0.23489101,0.468092,0.48836787,-0.21297339,0.49509,0.4750939,-0.22451632,0.45841,0.4882814,-0.23756793,0.466906,0.5008545,-0.24132993,0.48311
0.49464162,-0.31385151,0.530951,0.45931498,-0.26500707,0.50243,0.45617961,-0.29447433,0.511545,0.43809574,-0.280789,0.480202,0.41503638,-0.26147758,0.448992,0.40965002,-0.2433136,0.427536,0.38843693,-0.20450362,0.452964,0.34711064,-0.15428757,0.41507,0.35115773,-0.1582352,0.406096,0.37230476,-0.16985621,0.417103,0.42032839,-0.20262356,0.464932,0.4133066,-0.21363717,0.426638,0.43419115,-0.24704889,0.440656,0.44582722,-0.26573078,0.458908,0.44892026,-0.2043399,0.476756,0.4414483,-0.21330335,0.435716,0.45450113,-0.23114763,0.447908,0.4629561,-0.23564147,0.469349,0.48777128,-0.21309357,0.494905,0.47434281,-0.22380269,0.458326,0.48790509,-0.23746369,0.467245,0.50342134,-0.24391625,0.483577
0.49601085,-0.31676566,0.535565,0.4656713,-0.27175902,0.511469,0.45606237,-0.30085355,0.518685,0.43105176,-0.28568535,0.48826,0.40739355,-0.26520208,0.456744,0.39645647,-0.24682886,0.436718,0.40699023,-0.20878359,0.469091,0.36383107,-0.16092332,0.435067,0.36097316,-0.16185424,0.418055,0.37408979,-0.16983204,0.420261,0.43806646,-0.21009968,0.479788,0.43103315,-0.22459104,0.445508,0.45530483,-0.2615698,0.463448,0.46436956,-0.280675,0.481479,0.46492705,-0.21447008,0.490258,0.4597502,-0.22332047,0.4539,0.47182527,-0.2491797,0.469578,0.47605716,-0.25309773,0.487196,0.49970682,-0.22631871,0.50617,0.48624841,-0.24039632,0.472996,0.50022539,-0.25557849,0.48474,0.51850226,-0.2719875,0.500868
0.50050857,-0.31710751,0.539749,0.4711607,-0.25716813,0.506114,0.47988404,-0.27990442,0.535118,0.45747065,-0.25646042,0.520663,0.43587675,-0.22638558,0.508446,0.42483708,-0.20504852,0.495295,0.43614256,-0.18273861,0.469784,0.38121928,-0.17670873,0.440137,0.3641341,-0.18949981,0.425314,0.35962123,-0.20526997,0.424332,0.44790752,-0.19356162,0.461893,0.37742309,-0.20265394,0.422403,0.3875408,-0.2227437,0.432703,0.41117812,-0.22833457,0.447345,0.45925131,-0.20593808,0.457736,0.38902721,-0.21450539,0.422409,0.39336529,-0.22829001,0.431704,0.4045867,-0.23475963,0.440154,0.47608495,-0.22775105,0.457397,0.40516905,-0.22730711,0.424736,0.40664762,-0.23982793,0.431341,0.42070859,-0.25300494,0.445379
0.49721416,-0.31658977,0.539455,0.47191625,-0.25730703,0.505217,0.48159584,-0.28281189,0.536489,0.45838333,-0.257552,0.522061,0.43647084,-0.22833257,0.509606,0.42435035,-0.20431779,0.495914,0.43594809,-0.18318057,0.470344,0.387906,-0.14629548,0.441317,0.3648321,-0.15890136,0.426804,0.35268188,-0.17365057,0.42363,0.44526463,-0.19241851,0.460203,0.37579747,-0.182864,0.420344,0.36617353,-0.2092261,0.426745,0.38149345,-0.23121452,0.443173,0.45460676,-0.20349469,0.454238,0.38310939,-0.19682797,0.414722,0.37552396,-0.22021013,0.42038,0.38746594,-0.2513918,0.438597,0.46916291,-0.22380554,0.45181,0.40020632,-0.22347111,0.420712,0.39991656,-0.2353049,0.4247,0.41256392,-0.24836881,0.437038
0.49817466,-0.31694288,0.541718,0.4736932,-0.25786089,0.507249,0.48406734,-0.28413582,0.539088,0.45915226,-0.2529362,0.525334,0.43743386,-0.22174831,0.513557,0.42594133,-0.19480154,0.500185,0.43843583,-0.18373148,0.472567,0.38922503,-0.14769642,0.44324,0.36593181,-0.16059705,0.428577,0.35292603,-0.17519112,0.424423,0.44670426,-0.1929591,0.461929,0.37558054,-0.18227594,0.421367,0.36392555,-0.20738211,0.426271,0.3789558,-0.22918852,0.442483,0.45519106,-0.20405385,0.455571,0.38202917,-0.19654991,0.415627,0.36839702,-0.21624194,0.419983,0.37562322,-0.24660804,0.437852,0.46873716,-0.22444835,0.452703,0.39804292,-0.22208233,0.422054,0.39860815,-0.23486934,0.425052,0.41102581,-0.24804892,0.436984
0.49659418,-0.31600193,0.540874,0.47732811,-0.25976563,0.508131,0.48445436,-0.28959802,0.540501,0.46264743,-0.25815282,0.528729,0.44189209,-0.22487149,0.519376,0.43106558,-0.19753141,0.506965,0.44265575,-0.18656189,0.477747,0.40449702,-0.140904,0.450593,0.37839468,-0.1483524,0.437016,0.36168511,-0.15776414,0.432676,0.44936684,-0.19455994,0.465081,0.37796829,-0.20235931,0.424552,0.35956753,-0.2176528,0.428104,0.36797476,-0.24349971,0.443879,0.45620289,-0.20469926,0.456934,0.37949564,-0.1952431,0.412647,0.36537978,-0.21398243,0.415575,0.37286408,-0.24442053,0.434628,0.46745738,-0.22376492,0.451679,0.40103919,-0.22382622,0.423856,0.39740883,-0.2346566,0.426101,0.40556733,-0.2477437,0.436633
0.51734169,-0.32163353,0.534672,0.489236,-0.26906635,0.506973,0.50391308,-0.30324792,0.538905,0.47667492,-0.27430932,0.534035,0.45438143,-0.24526251,0.530809,0.44056109,-0.21959294,0.521907,0.44797689,-0.20090849,0.486753,0.41512702,-0.15240515,0.465969,0.39087262,-0.15699462,0.455577,0.37639585,-0.16431902,0.452795,0.45366716,-0.19794738,0.470555,0.38717867,-0.20782187,0.435224,0.36892915,-0.22355687,0.438556,0.37630231,-0.2495833,0.452382,0.45831913,-0.2056702,0.459153,0.38553442,-0.21078456,0.4188,0.38583208,-0.22430297,0.421465,0.41177924,-0.22917314,0.433535,0.46615253,-0.22035324,0.449289,0.4064759,-0.22569723,0.427693,0.40066314,-0.23659709,0.429999,0.40636976,-0.24848491,0.438493
0.52199413,-0.32302408,0.537668,0.49482788,-0.27051203,0.511203,0.5081688,-0.30491233,0.541929,0.48169791,-0.27637321,0.537801,0.45931428,-0.24664499,0.534427,0.44536503,-0.22160611,0.525882,0.45393715,-0.20269754,0.492146,0.4170035,-0.15400471,0.467436,0.39346516,-0.16263686,0.455082,0.37935534,-0.16919399,0.453388,0.45917123,-0.20297015,0.476408,0.39366165,-0.20827664,0.441454,0.38350306,-0.22188887,0.448485,0.38672059,-0.25410701,0.463335,0.46680536,-0.2051845,0.465299,0.39597487,-0.21278982,0.425456,0.403136,-0.23035246,0.431382,0.42104236,-0.22869711,0.436769,0.47855806,-0.21628244,0.455617,0.41863768,-0.22306033,0.43379,0.40761928,-0.24013605,0.438663,0.41456173,-0.25333181,0.448235
0.52235597,-0.32209583,0.537441,0.49567717,-0.26973315,0.511579,0.5089225,-0.30438552,0.542187,0.48310631,-0.27613717,0.538735,0.46130912,-0.24648192,0.53598,0.44753047,-0.2217306,0.5278,0.455689,-0.20245249,0.493657,0.42006827,-0.15469869,0.470627,0.39592376,-0.16132647,0.459112,0.3817976,-0.17071755,0.457894,0.46143582,-0.20128661,0.477576,0.39711097,-0.2070443,0.443248,0.38393566,-0.22118114,0.450281,0.38870284,-0.251946,0.464905,0.46753253,-0.20439362,0.466143,0.39698875,-0.21218066,0.426801,0.40420731,-0.22989547,0.432722,0.42222392,-0.22834322,0.438105,0.47875759,-0.21526165,0.455987,0.41941835,-0.22232933,0.434865,0.40888861,-0.23656567,0.439763,0.4136171,-0.25257087,0.449096
0.52243915,-0.32167251,0.536809,0.49728564,-0.26990518,0.512597,0.51114255,-0.30487196,0.543347,0.48802406,-0.27669001,0.541824,0.47294575,-0.24479691,0.541195,0.46084488,-0.21997437,0.534113,0.46262594,-0.2024547,0.498344,0.42653603,-0.15507901,0.475268,0.40190727,-0.1623469,0.46373,0.38512042,-0.17154884,0.461257,0.46495881,-0.20216822,0.480763,0.40035691,-0.20675926,0.448619,0.38325895,-0.21885891,0.453763,0.38898149,-0.24721344,0.467004,0.46917635,-0.20478506,0.467982,0.39783192,-0.2113091,0.430297,0.40483692,-0.22981234,0.434527,0.42212954,-0.22793831,0.438372,0.4778402,-0.214963,0.455979,0.41939826,-0.22144072,0.437633,0.40774357,-0.23478295,0.441303,0.41146207,-0.24938501,0.449184
0.52268703,-0.32154089,0.536634,0.4977648,-0.26974474,0.512707,0.51205052,-0.30491069,0.543592,0.48891098,-0.27699963,0.541906,0.4736449,-0.24634152,0.541811,0.46180013,-0.22125906,0.534801,0.46406793,-0.2027498,0.499221,0.43431639,-0.15551423,0.480215,0.41006964,-0.16217089,0.470713,0.39378048,-0.17062976,0.468828,0.46564905,-0.20214207,0.481248,0.40082426,-0.20674626,0.449654,0.38258614,-0.21882138,0.453819,0.38767349,-0.24606173,0.466555,0.46921963,-0.20464061,0.468125,0.39762866,-0.21114576,0.430854,0.40360201,-0.22941291,0.434216,0.4192479,-0.2286636,0.437273,0.47706317,-0.21467044,0.455671,0.41901289,-0.221327,0.438073,0.40677082,-0.23422867,0.441085,0.41016863,-0.24836968,0.448447
0.52495564,-0.32257341,0.538387,0.49765346,-0.26921891,0.511997,0.51149238,-0.30404592,0.542197,0.48784846,-0.27471975,0.53772,0.4675382,-0.24302342,0.53389,0.45445498,-0.21747417,0.525214,0.45981376,-0.19982078,0.492465,0.44708028,-0.15390857,0.483942,0.42610458,-0.15811778,0.479681,0.41708318,-0.16618886,0.487951,0.46242833,-0.20032783,0.4773,0.3993543,-0.20548942,0.447661,0.38496385,-0.21990236,0.456433,0.39049621,-0.24721209,0.469908,0.46814496,-0.20387347,0.466658,0.40826404,-0.21499145,0.443299,0.41708413,-0.23645274,0.451364,0.43929985,-0.24002213,0.458695,0.47916462,-0.21547552,0.457526,0.41697013,-0.22042195,0.435087,0.40668865,-0.23384334,0.44091,0.41254459,-0.24939438,0.451065
0.52415345,-0.32303589,0.537958,0.49584598,-0.26841453,0.510059,0.50879208,-0.30327601,0.539558,0.47555103,-0.28431871,0.532362,0.44832247,-0.26424227,0.527559,0.42962229,-0.2429205,0.517226,0.4548817,-0.19777624,0.486483,0.45675093,-0.15595637,0.484243,0.43974183,-0.1546717,0.483123,0.43399493,-0.15721508,0.493878,0.46024693,-0.19810328,0.473379,0.3968158,-0.20143236,0.441132,0.41352962,-0.23119313,0.451763,0.44119451,-0.24146837,0.466764,0.468532,-0.20175223,0.464536,0.40616039,-0.20794159,0.437944,0.41458347,-0.23276419,0.44761,0.43676299,-0.23936827,0.456397,0.48082681,-0.21422867,0.457773,0.41707998,-0.21181255,0.43248,0.40771153,-0.22680564,0.439523,0.41047097,-0.24721045,0.451155
0.52421182,-0.3240012,0.538446,0.49640909,-0.26888628,0.51068,0.50805451,-0.30387833,0.539259,0.47524829,-0.28398426,0.532739,0.44552876,-0.26027799,0.524716,0.42697126,-0.23769554,0.514102,0.45569645,-0.19917994,0.486278,0.45700754,-0.15686999,0.484825,0.44125459,-0.15496273,0.484099,0.43781179,-0.15730214,0.496529,0.46312591,-0.19799186,0.474176,0.4006757,-0.19978605,0.441452,0.41319327,-0.23134063,0.4536,0.43537538,-0.24872426,0.469249,0.47139405,-0.20078226,0.466147,0.41344843,-0.19555911,0.438735,0.42065576,-0.22253081,0.449717,0.43976556,-0.24063359,0.4597,0.48563087,-0.21192001,0.460345,0.42322686,-0.2083159,0.43429,0.41474259,-0.22363966,0.442366,0.41223324,-0.24461784,0.454668
0.52322003,-0.32425579,0.537859,0.49697627,-0.2694636,0.511476,0.50805679,-0.30486812,0.539672,0.47631569,-0.28498722,0.534756,0.44731674,-0.26090401,0.527866,0.4289753,-0.23562915,0.518247,0.4571793,-0.20170547,0.489542,0.4618158,-0.16100115,0.49104,0.44667517,-0.1596269,0.491789,0.44428918,-0.16013935,0.504415,0.46422264,-0.19900604,0.476788,0.40356793,-0.20066587,0.445581,0.4135986,-0.23216306,0.458223,0.43791409,-0.25053889,0.473479,0.47240275,-0.20118981,0.468129,0.4144272,-0.19614397,0.442389,0.42242689,-0.22364009,0.453813,0.44325452,-0.24181392,0.4642,0.48565802,-0.21130801,0.461377,0.42319683,-0.20832869,0.436727,0.41500929,-0.22380968,0.445185,0.41344568,-0.2443441,0.45714
0.52024866,-0.32318041,0.535496,0.49655747,-0.269393,0.511422,0.50633773,-0.30464515,0.538423,0.47699293,-0.28508112,0.535872,0.44892834,-0.2589958,0.530331,0.43244084,-0.2358554,0.521645,0.45994644,-0.2033933,0.492942,0.46728138,-0.16415757,0.496579,0.45356249,-0.16111652,0.498397,0.4507905,-0.16193188,0.511947,0.46662143,-0.19983605,0.47977,0.40577315,-0.1988637,0.450794,0.41657178,-0.23249742,0.464886,0.44240273,-0.25251243,0.47979,0.47368098,-0.20084501,0.470606,0.4149995,-0.19726135,0.447132,0.4253703,-0.22555134,0.459834,0.4505523,-0.24473097,0.471381,0.48420599,-0.20865867,0.462929,0.42276217,-0.20655913,0.440164,0.41365604,-0.21955199,0.449678,0.41342197,-0.2405244,0.461379
0.51834453,-0.32266218,0.533942,0.49585363,-0.26878914,0.510728,0.50501341,-0.30456949,0.53723,0.47650828,-0.28460464,0.535541,0.44906057,-0.2583346,0.530397,0.43311559,-0.23538559,0.522065,0.46051812,-0.20343183,0.49347,0.46835414,-0.16440319,0.497364,0.45468758,-0.16119498,0.499311,0.45206194,-0.16187243,0.513087,0.46679548,-0.19981183,0.480207,0.40663154,-0.1986915,0.452048,0.41775735,-0.23262756,0.46669,0.44327948,-0.25271469,0.481472,0.47354811,-0.20062566,0.470909,0.41556038,-0.19776923,0.448243,0.42664589,-0.22628755,0.461428,0.45210243,-0.24539991,0.473415,0.48390162,-0.20826672,0.462951,0.42297379,-0.20613378,0.440859,0.41466333,-0.22008662,0.450773,0.41373363,-0.24009922,0.462392
0.51410169,-0.32157234,0.530521,0.49562494,-0.26928977,0.510923,0.50120668,-0.30475805,0.534582,0.47633007,-0.28477819,0.535617,0.45026215,-0.25796074,0.531816,0.43566733,-0.23531465,0.524336,0.46517731,-0.21102506,0.497902,0.47769942,-0.17487529,0.505363,0.46595691,-0.17071708,0.509093,0.46288151,-0.16641695,0.523815,0.47091381,-0.20305704,0.485155,0.41419107,-0.2023825,0.460108,0.43730738,-0.23738161,0.477623,0.46514895,-0.25219249,0.49218,0.47737086,-0.20332783,0.47603,0.42221272,-0.20162103,0.456136,0.43544479,-0.23182029,0.47183,0.46301657,-0.25233884,0.486098,0.48868934,-0.21116926,0.467781,0.42901554,-0.20696045,0.447991,0.43425927,-0.22459464,0.459955,0.4553928,-0.23663525,0.471559
