sluyters/QuantumLeap/backend/src/datasets/dynamic/HandGestureDataset_SHREC2017_csv/Gesture6/finger_1/subject_28_essai_3_skeletons_world.csv
Wrist_x,Wrist_y,Wrist_z,Palm_x,Palm_y,Palm_z,thumb_base_x,thumb_base_y,thumb_base_z,thumb_first_joint_x,thumb_first_joint_y,thumb_first_joint_z,thumb_second_joint_x,thumb_second_joint_y,thumb_second_joint_z,thumb_tip_x,thumb_tip_y,thumb_tip_z,index_base_x,index_base_y,index_base_z,index_first_joint_x,index_first_joint_y,index_first_joint_z,index_second_joint_x,index_second_joint_y,index_second_joint_z,index_tip_x,index_tip_y,index_tip_z,middle_base_x,middle_base_y,middle_base_z,middle_first_joint_x,middle_first_joint_y,middle_first_joint_z,middle_second_joint_x,middle_second_joint_y,middle_second_joint_z,middle_tip_x,middle_tip_y,middle_tip_z,ring_base_x,ring_base_y,ring_base_z,ring_first_joint_x,ring_first_joint_y,ring_first_joint_z,ring_second_joint_x,ring_second_joint_y,ring_second_joint_z,ring_tip_x,ring_tip_y,ring_tip_z,pinky_base_x,pinky_base_y,pinky_base_z,pinky_first_joint_x,pinky_first_joint_y,pinky_first_joint_z,pinky_second_joint_x,pinky_second_joint_y,pinky_second_joint_z,pinky_tip_x,pinky_tip_y,pinky_tip_z,
0.3455382,-0.352470666,0.472796,0.330837657,-0.292407673,0.447718,0.323423859,-0.339197062,0.468129,0.285040484,-0.303858064,0.446738,0.252309781,-0.273275051,0.426223,0.236124559,-0.249456341,0.413646,0.300947104,-0.245999263,0.42808,0.293375974,-0.203086885,0.400128,0.288098818,-0.181935315,0.386152,0.295645486,-0.170927182,0.390182,0.324686707,-0.250631029,0.428298,0.306726277,-0.227245749,0.398337,0.29487172,-0.212510077,0.380859,0.283177496,-0.218303232,0.368375,0.346080693,-0.260848815,0.431137,0.322451998,-0.257043997,0.402235,0.301640173,-0.265139385,0.387447,0.297115286,-0.279720303,0.392036,0.372761625,-0.282908159,0.43899,0.347827154,-0.258265388,0.413354,0.336275329,-0.245338155,0.401575,0.326067885,-0.23387926,0.391183
0.335609856,-0.344044287,0.461645,0.328612877,-0.290703141,0.444403,0.316217862,-0.332068979,0.459433,0.277174221,-0.293862875,0.442846,0.251693478,-0.26812055,0.426721,0.239073954,-0.244241876,0.417112,0.313748558,-0.246525294,0.432219,0.310412107,-0.209697588,0.410807,0.307669548,-0.192908683,0.400102,0.309543081,-0.179867133,0.395804,0.331935192,-0.255528889,0.431051,0.325406302,-0.224015713,0.408076,0.30533324,-0.235938938,0.394674,0.304746327,-0.254362141,0.402197,0.351246395,-0.271089116,0.431918,0.321801296,-0.275745954,0.410088,0.299074076,-0.280838934,0.398919,0.297544114,-0.29215396,0.40746,0.369258385,-0.295731278,0.436065,0.350109651,-0.27395522,0.416139,0.340576306,-0.267113532,0.406984,0.331910175,-0.262115295,0.398906
0.335825527,-0.345267441,0.463273,0.329375997,-0.291233917,0.444587,0.315480535,-0.33134063,0.459179,0.278338555,-0.295049769,0.439893,0.25016527,-0.265818812,0.422648,0.237141888,-0.241687157,0.41227,0.311370632,-0.244986855,0.42914,0.308615246,-0.207515723,0.406326,0.315826558,-0.192437984,0.402659,0.321269379,-0.17810444,0.399325,0.334458818,-0.255787003,0.430117,0.323753319,-0.222151156,0.405541,0.304199498,-0.233510977,0.391206,0.303197851,-0.252472674,0.398053,0.353259708,-0.269888356,0.432903,0.323652299,-0.274258676,0.408908,0.303959434,-0.27904907,0.396632,0.300736572,-0.290153541,0.404251,0.375133787,-0.289532594,0.439527,0.352702447,-0.275391921,0.417924,0.342245263,-0.267969497,0.407998,0.332869691,-0.262555059,0.39924
0.332569584,-0.341856713,0.45966,0.329538712,-0.288435723,0.440567,0.31231352,-0.327004993,0.454884,0.281050294,-0.286458342,0.434838,0.251952929,-0.258049035,0.415356,0.234802918,-0.235254169,0.403937,0.312261711,-0.237282322,0.423999,0.312079853,-0.201833492,0.400859,0.318283984,-0.187599028,0.396998,0.322039591,-0.175709538,0.395497,0.33648369,-0.247666272,0.425781,0.326665867,-0.217372643,0.400743,0.304853849,-0.229919525,0.386137,0.301548422,-0.249053433,0.39275,0.35628726,-0.261341817,0.429273,0.330740599,-0.266661477,0.404598,0.306011743,-0.270140729,0.391974,0.300637625,-0.286082293,0.399268,0.378887176,-0.286078487,0.436787,0.353695776,-0.272544192,0.414667,0.343027181,-0.265556643,0.404504,0.332071273,-0.260384004,0.395537
0.330749797,-0.339073704,0.457086,0.335194918,-0.282367025,0.43811,0.311216725,-0.323053287,0.451362,0.284920601,-0.284667389,0.429924,0.255804587,-0.256858392,0.409658,0.241261831,-0.23454976,0.395251,0.311286006,-0.234485582,0.420352,0.311688904,-0.198498669,0.397347,0.317578193,-0.184535401,0.393119,0.323226436,-0.171598878,0.389274,0.336693302,-0.244858487,0.423414,0.326240757,-0.215361083,0.398331,0.308200859,-0.228903004,0.383699,0.307408633,-0.24820544,0.390226,0.360118211,-0.256641505,0.427949,0.332059209,-0.265025856,0.402852,0.311375595,-0.269253199,0.390012,0.302927398,-0.282665106,0.397096,0.384882021,-0.281081512,0.436643,0.362772032,-0.272229943,0.414249,0.352560892,-0.26828389,0.403959,0.340249358,-0.263011787,0.395392
0.331193879,-0.334716977,0.45351,0.337663112,-0.27768143,0.434535,0.313635045,-0.31168311,0.446822,0.286915501,-0.280149925,0.424228,0.257326566,-0.251364567,0.403723,0.240477106,-0.230180626,0.389811,0.310483184,-0.229723679,0.415504,0.311192905,-0.186736353,0.392299,0.316257156,-0.173496268,0.388069,0.321340111,-0.164810094,0.384224,0.337302232,-0.239138433,0.41984,0.327090782,-0.210741162,0.394678,0.314100799,-0.224254918,0.38,0.310974225,-0.245217926,0.38636,0.361389178,-0.249269013,0.425424,0.340785204,-0.256102383,0.399835,0.317360849,-0.262038291,0.386743,0.312512267,-0.275920644,0.393517,0.388303022,-0.272974211,0.435327,0.369089499,-0.265840935,0.412606,0.360285127,-0.262719899,0.402167,0.352564735,-0.260086994,0.392994
0.333974891,-0.325121543,0.44952,0.339697864,-0.272316301,0.432225,0.31670762,-0.308346951,0.443129,0.287395485,-0.276941591,0.421302,0.261967358,-0.248954217,0.40089,0.244555006,-0.226934275,0.387749,0.311285769,-0.225388,0.414489,0.311353518,-0.184398174,0.392754,0.317342187,-0.172443131,0.390555,0.323264872,-0.160900797,0.388557,0.338466388,-0.23354211,0.418831,0.328965382,-0.208223553,0.395105,0.313958307,-0.224222628,0.381265,0.313026913,-0.245133862,0.38831,0.362162554,-0.242593575,0.424241,0.344783537,-0.242817102,0.400061,0.322769339,-0.251758534,0.38769,0.320971264,-0.262822312,0.395217,0.389864806,-0.265763479,0.433639,0.370022534,-0.258549775,0.412074,0.360895237,-0.255378084,0.402166,0.35289309,-0.256526687,0.393424
0.34303544,-0.318557848,0.446096,0.346377722,-0.261770455,0.431243,0.321714383,-0.303909359,0.440376,0.296735691,-0.272561566,0.419984,0.263206565,-0.247414862,0.398562,0.2476067,-0.225159891,0.385549,0.313190829,-0.221110733,0.415707,0.310245059,-0.176904294,0.395805,0.313009037,-0.164082294,0.392476,0.31584387,-0.151745206,0.389449,0.341391949,-0.223216413,0.419741,0.330387907,-0.200659539,0.398222,0.319125233,-0.218181089,0.385669,0.323323192,-0.238245898,0.393725,0.365174527,-0.23228354,0.424638,0.350989091,-0.234027154,0.402656,0.332113267,-0.245294553,0.391409,0.332368976,-0.257821269,0.400054,0.394282979,-0.252038466,0.432999,0.376254684,-0.246684979,0.413225,0.367971157,-0.244389616,0.40414,0.360712921,-0.242499385,0.39618
0.349811836,-0.313292214,0.445255,0.347721189,-0.259378271,0.431095,0.327436873,-0.299589153,0.439343,0.298381957,-0.270287284,0.418908,0.270525442,-0.2435626,0.398017,0.249364828,-0.223805792,0.385049,0.31422424,-0.21678189,0.415677,0.306280279,-0.172776269,0.395908,0.308377515,-0.156501934,0.393912,0.310470868,-0.140918952,0.392098,0.342221725,-0.220946549,0.420129,0.333071934,-0.194066474,0.399197,0.323943251,-0.211470142,0.386986,0.32679589,-0.235635158,0.395242,0.366930627,-0.226634615,0.425299,0.35559597,-0.226401995,0.403752,0.337739641,-0.238994884,0.392727,0.335834549,-0.255778684,0.401551,0.396871104,-0.245302268,0.433846,0.380998232,-0.23858845,0.414459,0.373805238,-0.235745715,0.405552,0.367540045,-0.23334462,0.397745
0.344931773,-0.307193672,0.439742,0.340757106,-0.251021216,0.43076,0.320288679,-0.291369616,0.430305,0.284305517,-0.257994656,0.407775,0.252414207,-0.233706383,0.388174,0.233226521,-0.212780083,0.377866,0.308172467,-0.206307714,0.413466,0.297049675,-0.166771122,0.394355,0.296992447,-0.150657282,0.389931,0.297102889,-0.135304997,0.38591,0.338672019,-0.21434479,0.423804,0.346158094,-0.199308733,0.407334,0.335726809,-0.217394032,0.397726,0.338662555,-0.238577742,0.406447,0.364282407,-0.225949863,0.433272,0.365245127,-0.229318381,0.414258,0.349348781,-0.244008988,0.40453,0.347617249,-0.259185566,0.413297,0.394763895,-0.248130655,0.445832,0.392467243,-0.238660866,0.428995,0.382795444,-0.250711712,0.421259,0.382720684,-0.260120305,0.427305
0.347250365,-0.302426233,0.439569,0.338292611,-0.249411561,0.430707,0.319714735,-0.289548843,0.429514,0.284685735,-0.256571065,0.406098,0.25651137,-0.230494737,0.382956,0.241657856,-0.214874212,0.374023,0.297576469,-0.206959755,0.41266,0.281822955,-0.163226084,0.393309,0.279766378,-0.144430003,0.39171,0.278081869,-0.126794664,0.390562,0.328523706,-0.211182603,0.423844,0.337941624,-0.198063864,0.407493,0.332274894,-0.217458668,0.397955,0.336296862,-0.240359504,0.406432,0.355209909,-0.219631268,0.433996,0.358211061,-0.220439699,0.414849,0.345043083,-0.236360201,0.405053,0.346295352,-0.258283563,0.413476,0.38810508,-0.238091713,0.447322,0.382418357,-0.23880998,0.43045,0.372679755,-0.250805063,0.422698,0.372479681,-0.261096957,0.42851
0.34168077,-0.296726726,0.433706,0.332016606,-0.244130655,0.427143,0.317002066,-0.282978407,0.424477,0.284695562,-0.252390324,0.402674,0.255975971,-0.227229231,0.381545,0.238362536,-0.206295512,0.370388,0.295941471,-0.204098374,0.411423,0.2748227,-0.158594227,0.394158,0.268134896,-0.139054352,0.385526,0.272837716,-0.125759849,0.386463,0.326373483,-0.208537687,0.422061,0.337396571,-0.197581492,0.408045,0.333491097,-0.217860702,0.399869,0.338840175,-0.239687922,0.409344,0.352339295,-0.217027557,0.431519,0.358844491,-0.210138323,0.414565,0.348625407,-0.2273096,0.40589,0.350018387,-0.250433905,0.415377,0.383908687,-0.235262217,0.443627,0.380399397,-0.236121989,0.428533,0.371787885,-0.248614958,0.421598,0.37260177,-0.259773508,0.428207
0.354356955,-0.273626658,0.43352,0.330347217,-0.229132425,0.424289,0.321516427,-0.27793056,0.428217,0.296112687,-0.252281753,0.409923,0.259280207,-0.232237505,0.386889,0.239240869,-0.217521054,0.377761,0.285796143,-0.202038585,0.412324,0.263317584,-0.160868293,0.396,0.252615149,-0.141168708,0.387838,0.247696082,-0.125675653,0.387862,0.311997795,-0.195247802,0.417141,0.305812916,-0.187154421,0.400937,0.3070781,-0.206284946,0.391485,0.314938164,-0.218060988,0.401505,0.336349083,-0.194184596,0.422087,0.33029696,-0.181320098,0.404774,0.326100002,-0.199094507,0.395916,0.333769329,-0.218164624,0.406551,0.369217711,-0.20093326,0.429476,0.357947343,-0.196907125,0.413569,0.352911021,-0.209995663,0.406261,0.359033859,-0.221222203,0.413567
0.357302495,-0.275280195,0.437079,0.326805854,-0.227606034,0.421976,0.326654651,-0.274847457,0.429995,0.29558292,-0.250524707,0.407933,0.256687287,-0.227315404,0.381436,0.236229535,-0.207454919,0.366939,0.278122966,-0.198916786,0.404503,0.2410538,-0.158783101,0.382532,0.22653369,-0.139889575,0.371546,0.22190801,-0.127631762,0.375901,0.300993253,-0.192418908,0.41028,0.294059298,-0.172167037,0.388397,0.294147354,-0.188595355,0.375631,0.300579573,-0.206123841,0.383296,0.325001799,-0.191140834,0.416641,0.320730683,-0.176226778,0.393795,0.314818831,-0.191702719,0.382107,0.320095236,-0.209424242,0.39017,0.358741983,-0.197712834,0.426734,0.347963904,-0.186250242,0.406363,0.343963071,-0.196491082,0.397004,0.349108979,-0.212666001,0.402389
0.354626426,-0.271785796,0.43465,0.320220628,-0.225051497,0.420196,0.328001201,-0.268403941,0.426132,0.29253954,-0.245630165,0.402634,0.254481802,-0.222060028,0.375632,0.231484417,-0.203709728,0.361737,0.265071136,-0.199373632,0.401177,0.227415447,-0.1601529,0.378777,0.212065012,-0.141431986,0.367577,0.206325609,-0.129524939,0.371948,0.289578074,-0.191156265,0.409002,0.28146315,-0.162833644,0.387594,0.286060361,-0.176969312,0.375107,0.294344674,-0.194243493,0.382567,0.313462127,-0.188742605,0.416981,0.308989049,-0.164817676,0.393988,0.307824104,-0.178874821,0.382224,0.314730396,-0.198944343,0.389874,0.347712279,-0.193428842,0.428822,0.339534906,-0.179532209,0.408478,0.338127241,-0.18896823,0.399131,0.343582897,-0.202732253,0.404253
0.354398177,-0.267937719,0.431711,0.321577222,-0.224694865,0.419405,0.328111788,-0.265548952,0.423107,0.299845412,-0.241034358,0.400138,0.261739282,-0.218814495,0.373104,0.232175124,-0.202324218,0.360133,0.266473252,-0.201787548,0.401426,0.223889477,-0.172355049,0.380449,0.204908138,-0.1561384,0.36996,0.196145428,-0.147798983,0.37669,0.290410415,-0.193029671,0.409875,0.278347995,-0.16125691,0.390387,0.28698764,-0.171920919,0.379019,0.298447062,-0.193363647,0.387123,0.313932796,-0.189838243,0.41814,0.309362336,-0.164255859,0.396796,0.310452636,-0.177857085,0.385876,0.319336316,-0.198539249,0.394162,0.347930379,-0.193046331,0.429918,0.3389391,-0.174968221,0.410988,0.340247383,-0.18316172,0.40229,0.347411104,-0.200998726,0.407912
0.353104815,-0.25560465,0.423064,0.319128677,-0.222113896,0.415826,0.334242315,-0.25588861,0.415871,0.304524743,-0.235955261,0.39603,0.262144626,-0.216705404,0.3695,0.235391338,-0.201998599,0.355514,0.268937361,-0.206808781,0.402432,0.223259308,-0.18596506,0.385831,0.201773384,-0.173450049,0.377531,0.190740627,-0.169560694,0.38686,0.290306643,-0.194568213,0.41022,0.275465776,-0.164108935,0.395419,0.290773005,-0.173999532,0.386785,0.305923817,-0.193065295,0.396794,0.312328269,-0.189891696,0.417403,0.303608375,-0.161498639,0.400894,0.311320862,-0.172739116,0.392448,0.327335448,-0.197315734,0.402894,0.343117028,-0.18944951,0.427008,0.333550697,-0.169880286,0.411912,0.338520703,-0.176518091,0.404976,0.350494259,-0.191190562,0.412193
0.358284097,-0.250591357,0.421689,0.32147519,-0.223170178,0.418708,0.331956796,-0.251675855,0.410703,0.29781278,-0.231331653,0.388455,0.262819062,-0.217398712,0.370646,0.237344953,-0.207434111,0.365188,0.268992626,-0.207914356,0.402591,0.233118087,-0.19707411,0.404784,0.215972836,-0.188429655,0.40588,0.199759324,-0.18024749,0.406877,0.293958066,-0.199569587,0.4164,0.27173158,-0.164049957,0.405664,0.286554815,-0.168042336,0.399402,0.306026579,-0.185945223,0.408689,0.319346176,-0.195024072,0.42809,0.313008667,-0.166763848,0.413547,0.322398873,-0.178764621,0.406107,0.337425159,-0.202252365,0.415137,0.352327758,-0.194564346,0.442118,0.34736894,-0.177333202,0.429352,0.354172466,-0.184598629,0.423486,0.365957139,-0.199251041,0.429873
0.362585062,-0.243507767,0.419856,0.323067335,-0.218985148,0.417567,0.336757327,-0.245979843,0.408257,0.302166056,-0.21985229,0.385716,0.266114328,-0.204779508,0.368298,0.238166272,-0.201732879,0.361263,0.269814649,-0.209561901,0.40101,0.239064283,-0.211711652,0.409052,0.223440506,-0.206089253,0.413073,0.208267821,-0.200562728,0.416729,0.293768717,-0.199759903,0.415794,0.270742106,-0.165087474,0.405796,0.286451938,-0.167488435,0.399963,0.306811336,-0.184196147,0.408992,0.318870191,-0.195018343,0.428213,0.313282227,-0.166526149,0.414093,0.32352109,-0.178233532,0.406869,0.33820214,-0.199073022,0.415522,0.350964326,-0.192721136,0.442956,0.348416108,-0.177656894,0.43065,0.355231779,-0.183772937,0.424996,0.367900233,-0.198371076,0.431139
0.367853712,-0.230485719,0.416432,0.325901733,-0.21331609,0.415613,0.34402424,-0.235207151,0.404864,0.301374372,-0.218017453,0.38293,0.262639247,-0.211405843,0.364436,0.235774624,-0.204259561,0.35644,0.273616255,-0.210449016,0.399887,0.238593775,-0.212789334,0.406452,0.222485115,-0.211598071,0.409735,0.20596892,-0.208039349,0.412719,0.293479696,-0.199478228,0.414978,0.270175431,-0.165572623,0.406416,0.286754514,-0.166652453,0.401422,0.308361521,-0.180582163,0.410704,0.317147601,-0.19453843,0.427495,0.31198554,-0.163869964,0.41466,0.324165755,-0.171075358,0.408093,0.340546199,-0.193982157,0.416985,0.348309579,-0.188546009,0.442081,0.345928844,-0.171540044,0.430891,0.354168991,-0.174610708,0.425749,0.370088811,-0.192089896,0.432095
0.372082136,-0.227487839,0.418521,0.33001975,-0.209605201,0.416842,0.351355343,-0.228835985,0.40633,0.309766954,-0.21228961,0.383515,0.272806386,-0.198587571,0.363879,0.248364868,-0.193213843,0.35678,0.277511806,-0.209638143,0.399831,0.242195323,-0.215948222,0.406389,0.226325069,-0.21710629,0.409669,0.208850587,-0.217428898,0.41265,0.294952,-0.198505758,0.415542,0.269770189,-0.165631682,0.406226,0.285898937,-0.164193065,0.400793,0.308451673,-0.175877981,0.409513,0.318090087,-0.194155319,0.42866,0.311090658,-0.16053813,0.414925,0.324965739,-0.168407426,0.407898,0.341752615,-0.187272226,0.416124,0.34870222,-0.185656887,0.444098,0.347345008,-0.169914924,0.432222,0.355112465,-0.167417856,0.426765,0.372456793,-0.179318725,0.432627
0.374962947,-0.219582803,0.417176,0.332915046,-0.206486857,0.416717,0.352303835,-0.225422271,0.404994,0.309948078,-0.209729439,0.382681,0.272620217,-0.196267597,0.363358,0.248033595,-0.191278772,0.356276,0.281695663,-0.209379063,0.400372,0.247265424,-0.218760319,0.407817,0.229038936,-0.219890462,0.41154,0.211781916,-0.220888483,0.414924,0.29753995,-0.199137971,0.416361,0.270780618,-0.166751134,0.408249,0.287101784,-0.163189379,0.403517,0.310523072,-0.175698522,0.412419,0.319309027,-0.194379034,0.429578,0.311996914,-0.160429415,0.416915,0.326996993,-0.165353901,0.410436,0.3455146,-0.183654226,0.418826,0.34954207,-0.185487405,0.444907,0.348258454,-0.167456937,0.433966,0.355791128,-0.166431247,0.428938,0.373652168,-0.177927559,0.434944
0.375455273,-0.217469065,0.416509,0.333392776,-0.20647029,0.416663,0.355180706,-0.220848467,0.404063,0.312718683,-0.210555213,0.385489,0.275443164,-0.197597241,0.367063,0.250323275,-0.192558995,0.359611,0.282449521,-0.210194529,0.4003,0.251288826,-0.22385587,0.410208,0.23499664,-0.231836392,0.415162,0.218666927,-0.236375329,0.419666,0.299245152,-0.200454735,0.416782,0.270784344,-0.168370263,0.40933,0.288322578,-0.164890681,0.404983,0.311635409,-0.175901951,0.413763,0.319865138,-0.194710809,0.430341,0.312655089,-0.161105709,0.418166,0.32813625,-0.165651145,0.411937,0.346974996,-0.183599991,0.420145,0.350116764,-0.186073726,0.445951,0.348799423,-0.168085727,0.435482,0.357231613,-0.167279871,0.430671,0.375108533,-0.178481389,0.436565
0.374978449,-0.215477164,0.415581,0.33201911,-0.2075381,0.416509,0.354699784,-0.219381407,0.403102,0.312290574,-0.209722119,0.384935,0.275064857,-0.1971256,0.366921,0.25006395,-0.192370353,0.359698,0.283476716,-0.212014416,0.400519,0.252424272,-0.229173894,0.41079,0.235249406,-0.235087275,0.415926,0.21901967,-0.240295939,0.420594,0.298764738,-0.202060019,0.417228,0.269908868,-0.173615916,0.41056,0.288396571,-0.165018876,0.40667,0.312322096,-0.17658837,0.415514,0.319394119,-0.195532184,0.430892,0.312030427,-0.162421039,0.419402,0.328442132,-0.166192212,0.413523,0.347762908,-0.183871712,0.421774,0.349206134,-0.187111801,0.446483,0.345821123,-0.168918694,0.436619,0.357609664,-0.168486857,0.432087,0.374958336,-0.179688009,0.438029
0.376697735,-0.215214014,0.416478,0.334498702,-0.20760649,0.417403,0.35649594,-0.219544218,0.403855,0.314434528,-0.209284981,0.385564,0.277867978,-0.202102696,0.368285,0.25316265,-0.198985258,0.361382,0.288507617,-0.218197505,0.40122,0.258234405,-0.236615426,0.412067,0.241349421,-0.243535919,0.41749,0.222615316,-0.247354081,0.422421,0.302138009,-0.207271772,0.418119,0.271104571,-0.177704696,0.411478,0.289992621,-0.167901621,0.407604,0.313189441,-0.178565484,0.41633,0.320550132,-0.197894183,0.43194,0.313558291,-0.166126011,0.420421,0.329312056,-0.166646434,0.414527,0.349439166,-0.183650913,0.422632,0.350579143,-0.190175129,0.447712,0.34876064,-0.169974681,0.437847,0.35843865,-0.171153239,0.433315,0.374796512,-0.1820018,0.439157
0.376290498,-0.213972837,0.415115,0.334783555,-0.208186906,0.416946,0.356515937,-0.218775802,0.402645,0.31540686,-0.209556829,0.385105,0.278154264,-0.202573109,0.36827,0.254057653,-0.20072562,0.362346,0.289647168,-0.220386856,0.401452,0.260934836,-0.242903971,0.412309,0.244502432,-0.251647688,0.417738,0.229033108,-0.259744322,0.422673,0.304872963,-0.211271018,0.418364,0.274866877,-0.182410263,0.412605,0.291962316,-0.17084892,0.409246,0.314879334,-0.179727589,0.41819,0.321889393,-0.203569348,0.432098,0.280801555,-0.211807801,0.432584,0.277055915,-0.197689358,0.432832,0.300248528,-0.193648217,0.444584,0.350787733,-0.193807755,0.447606,0.344829341,-0.172285075,0.438454,0.357476927,-0.169438311,0.434249,0.375976652,-0.181181902,0.440272
0.377540281,-0.213987837,0.415447,0.338474132,-0.212383488,0.416924,0.35743589,-0.218734238,0.402347,0.318638153,-0.210716471,0.385518,0.280503421,-0.205229684,0.369915,0.257488099,-0.206344973,0.365746,0.291087138,-0.223156239,0.400407,0.260193198,-0.242781309,0.409332,0.243262938,-0.25101792,0.413795,0.227404749,-0.258637608,0.417852,0.306289443,-0.214934461,0.418067,0.276510307,-0.185571348,0.412097,0.292078143,-0.172099055,0.408615,0.315044196,-0.180674148,0.416988,0.323323909,-0.207819388,0.432456,0.280955683,-0.213565262,0.431173,0.276634028,-0.198658071,0.430517,0.29914707,-0.194001055,0.441363,0.350890224,-0.199036439,0.448784,0.345180609,-0.17494428,0.439377,0.358010661,-0.172047931,0.435055,0.375446924,-0.181242795,0.440588
0.384156573,-0.214478526,0.420126,0.344918229,-0.216544764,0.419298,0.366011331,-0.220053659,0.406101,0.332222787,-0.205101783,0.384934,0.293680741,-0.201014905,0.364544,0.273183393,-0.206682331,0.360921,0.300856167,-0.226999202,0.40032,0.267738816,-0.244814597,0.406083,0.250466494,-0.253280577,0.408964,0.2344861,-0.261075374,0.411584,0.313019712,-0.219937284,0.418656,0.280994877,-0.191252381,0.410601,0.293154625,-0.174376925,0.405903,0.314529858,-0.179385603,0.413204,0.326602829,-0.212098969,0.433847,0.283957912,-0.222150332,0.429923,0.279067124,-0.206329578,0.427916,0.298641574,-0.196447922,0.437802,0.353462903,-0.204057713,0.451519,0.350039352,-0.181795538,0.440359,0.358207491,-0.172639408,0.435232,0.375644171,-0.181091255,0.439859
0.389041878,-0.216045883,0.424491,0.346839406,-0.217442968,0.42016,0.372558019,-0.220874465,0.40929,0.338019594,-0.214670703,0.391825,0.298439061,-0.205872926,0.371696,0.276389143,-0.210608514,0.366586,0.30406152,-0.230235345,0.397747,0.271501099,-0.248852715,0.403588,0.254189704,-0.257030015,0.406509,0.235619794,-0.262046433,0.409164,0.312552203,-0.221482942,0.416805,0.280619123,-0.195422175,0.405614,0.291344071,-0.174857256,0.399086,0.31238881,-0.178624701,0.404796,0.32657198,-0.215531817,0.432962,0.282406716,-0.23089735,0.425288,0.26875889,-0.218402198,0.421362,0.283184419,-0.206858609,0.429888,0.34911281,-0.209347978,0.452387,0.34719357,-0.182545368,0.438646,0.355896382,-0.173361913,0.432332,0.372206614,-0.179078413,0.435628
0.389364908,-0.215455396,0.424011,0.347388155,-0.217966231,0.420156,0.37364497,-0.22053584,0.409171,0.337269038,-0.214303934,0.391111,0.298297972,-0.207389212,0.371813,0.276529776,-0.212763234,0.366847,0.303801163,-0.231201078,0.398477,0.271197351,-0.250348995,0.403663,0.253882173,-0.258828046,0.406256,0.237573801,-0.266057859,0.408614,0.313522261,-0.224574981,0.417171,0.281949328,-0.195808532,0.40633,0.294294424,-0.177604197,0.400007,0.316329266,-0.180352855,0.406158,0.326598714,-0.216497741,0.432977,0.281439726,-0.228803988,0.42445,0.268754249,-0.215113553,0.420088,0.284102834,-0.203865536,0.42854,0.350817562,-0.207982072,0.451911,0.346743174,-0.183040227,0.438482,0.355962382,-0.1738783,0.432312,0.37275681,-0.178957741,0.435978
0.39131774,-0.214789027,0.424357,0.349469269,-0.219171563,0.420258,0.376679529,-0.220625671,0.409554,0.338581771,-0.215799171,0.392089,0.300356418,-0.21362424,0.374264,0.278326839,-0.217253514,0.369621,0.304449243,-0.232198791,0.398496,0.272384336,-0.253323014,0.403781,0.255327433,-0.262457415,0.406424,0.238617544,-0.267922998,0.408826,0.314109621,-0.225377183,0.417084,0.282819113,-0.196661247,0.405988,0.295146701,-0.178437779,0.399516,0.318378696,-0.182055575,0.405674,0.326914609,-0.218828711,0.432828,0.281126775,-0.228438882,0.423176,0.268559118,-0.214296567,0.418238,0.284017256,-0.203082642,0.426382,0.350181197,-0.209691584,0.451735,0.346714046,-0.183669141,0.438112,0.356549324,-0.175541021,0.431853,0.372533069,-0.178555961,0.435526
0.392873552,-0.214573924,0.424623,0.350484669,-0.220129699,0.421075,0.377798604,-0.220889503,0.409948,0.339181361,-0.216276607,0.392201,0.301659839,-0.214426958,0.374814,0.27897568,-0.217866461,0.369583,0.305777224,-0.233598793,0.399779,0.273588708,-0.254582715,0.404562,0.256423242,-0.263648724,0.406954,0.239967461,-0.270843874,0.409129,0.315409702,-0.226658062,0.418327,0.292730392,-0.197832649,0.407739,0.308414094,-0.181572075,0.401563,0.330925411,-0.187134628,0.40792,0.328153224,-0.219964375,0.433981,0.281465734,-0.227917534,0.423275,0.270355604,-0.211849929,0.417797,0.287948269,-0.198845884,0.425491,0.35127869,-0.210583102,0.452684,0.347463139,-0.185755122,0.43947,0.358815517,-0.179297506,0.433399,0.375270048,-0.180576282,0.437238
0.394315009,-0.214657756,0.424802,0.350767872,-0.220859072,0.421082,0.378814705,-0.221434541,0.410355,0.339516717,-0.218482656,0.3908,0.303730934,-0.221615301,0.373074,0.280903767,-0.226436564,0.366725,0.306983032,-0.236260708,0.399994,0.274705875,-0.256678363,0.404562,0.257520556,-0.265816578,0.406846,0.240160912,-0.271838243,0.408923,0.316385471,-0.228925477,0.418201,0.292457171,-0.198752249,0.407372,0.30809182,-0.182399302,0.401055,0.330812367,-0.188063711,0.407614,0.32848412,-0.22109996,0.433591,0.280468874,-0.227112965,0.421582,0.269359767,-0.210721855,0.415437,0.286016309,-0.199720285,0.422884,0.351012537,-0.210958497,0.452022,0.346969028,-0.186155827,0.438648,0.358997808,-0.181057339,0.432504,0.375055724,-0.182269483,0.436516
0.396824234,-0.215305521,0.425816,0.351647523,-0.22121894,0.421679,0.380395651,-0.222156395,0.411433,0.3423911,-0.222843699,0.391714,0.305841059,-0.22366004,0.374008,0.282972543,-0.227900507,0.367791,0.306724938,-0.234646851,0.400452,0.271263194,-0.249404131,0.403309,0.253099762,-0.254922947,0.404737,0.234405951,-0.259480327,0.40611,0.316093779,-0.22724302,0.418475,0.29398855,-0.195923469,0.407214,0.309183738,-0.181177781,0.400645,0.331792061,-0.187129967,0.407208,0.328679372,-0.22024885,0.433758,0.28142296,-0.227233367,0.422438,0.270384391,-0.211252633,0.416646,0.287250826,-0.200495013,0.424567,0.352297639,-0.208392001,0.452141,0.348255581,-0.184637414,0.438441,0.359886115,-0.180584046,0.432146,0.378073884,-0.183224,0.436165
