sluyters/QuantumLeap/backend/src/datasets/dynamic/HandGestureDataset_SHREC2017_csv/Gesture6/finger_1/subject_7_essai_2_skeletons_world.csv
Wrist_x,Wrist_y,Wrist_z,Palm_x,Palm_y,Palm_z,thumb_base_x,thumb_base_y,thumb_base_z,thumb_first_joint_x,thumb_first_joint_y,thumb_first_joint_z,thumb_second_joint_x,thumb_second_joint_y,thumb_second_joint_z,thumb_tip_x,thumb_tip_y,thumb_tip_z,index_base_x,index_base_y,index_base_z,index_first_joint_x,index_first_joint_y,index_first_joint_z,index_second_joint_x,index_second_joint_y,index_second_joint_z,index_tip_x,index_tip_y,index_tip_z,middle_base_x,middle_base_y,middle_base_z,middle_first_joint_x,middle_first_joint_y,middle_first_joint_z,middle_second_joint_x,middle_second_joint_y,middle_second_joint_z,middle_tip_x,middle_tip_y,middle_tip_z,ring_base_x,ring_base_y,ring_base_z,ring_first_joint_x,ring_first_joint_y,ring_first_joint_z,ring_second_joint_x,ring_second_joint_y,ring_second_joint_z,ring_tip_x,ring_tip_y,ring_tip_z,pinky_base_x,pinky_base_y,pinky_base_z,pinky_first_joint_x,pinky_first_joint_y,pinky_first_joint_z,pinky_second_joint_x,pinky_second_joint_y,pinky_second_joint_z,pinky_tip_x,pinky_tip_y,pinky_tip_z,
0.68893431,-0.45303328,0.662555,0.69238338,-0.42176856,0.660298,0.66789825,-0.43311058,0.659523,0.63602581,-0.40207059,0.647571,0.6058724,-0.36796912,0.633534,0.60270889,-0.34539272,0.635824,0.68611151,-0.36031307,0.654669,0.69811076,-0.32730849,0.667684,0.70410643,-0.31069753,0.674192,0.70955423,-0.29553542,0.680108,0.70666258,-0.37381611,0.657567,0.71960285,-0.32911923,0.647502,0.72988175,-0.33371402,0.641632,0.72205122,-0.34881852,0.637438,0.72247225,-0.38787583,0.660131,0.74560219,-0.39530228,0.651524,0.76194812,-0.43115979,0.673877,0.75834373,-0.44184067,0.686283,0.73948607,-0.41036935,0.663528,0.74756032,-0.37802443,0.652319,0.75153404,-0.36283728,0.647169,0.75518793,-0.34925467,0.642625
0.69004467,-0.45840889,0.668148,0.69233593,-0.42102272,0.662416,0.67221166,-0.43614879,0.6642,0.63661037,-0.3939002,0.650485,0.6126785,-0.3631517,0.643206,0.60780458,-0.34640199,0.642942,0.68304932,-0.35743875,0.652724,0.69817847,-0.32630405,0.667994,0.70592796,-0.31050568,0.675629,0.71503889,-0.29558726,0.68257,0.70331046,-0.37164575,0.655477,0.71556904,-0.32759672,0.641708,0.72130844,-0.33648509,0.633676,0.73076675,-0.3572667,0.646388,0.71914345,-0.38637532,0.658199,0.73727424,-0.39056719,0.646028,0.75367604,-0.4262692,0.668032,0.75180888,-0.43913878,0.681737,0.7366878,-0.40989546,0.662312,0.74292822,-0.38435207,0.648252,0.74685709,-0.37219489,0.641792,0.75055262,-0.36130133,0.636093
0.69576,-0.45924838,0.670862,0.70878533,-0.41666806,0.67227,0.67396929,-0.43672042,0.665439,0.64475335,-0.39883609,0.653059,0.61500063,-0.36554059,0.639653,0.60732029,-0.34697626,0.640983,0.69601816,-0.36074773,0.666801,0.70563158,-0.32263577,0.675769,0.71431735,-0.30439957,0.680253,0.72317328,-0.29198127,0.684637,0.72076597,-0.37311502,0.673975,0.75460185,-0.34935723,0.669074,0.75796641,-0.36621886,0.666215,0.76643791,-0.39246244,0.68083,0.7407112,-0.38834067,0.679765,0.77090861,-0.39599292,0.677169,0.79744948,-0.43115359,0.698993,0.78784542,-0.45485527,0.708759,0.76267667,-0.41220643,0.68645,0.76990405,-0.40854544,0.67723,0.77349638,-0.4071791,0.672994,0.76344401,-0.41595994,0.669865
0.6935933,-0.45853748,0.669342,0.70695757,-0.41640715,0.670503,0.67249386,-0.43556734,0.663741,0.64147572,-0.39656118,0.649448,0.61084296,-0.3621325,0.632918,0.6060091,-0.34651465,0.637753,0.69363754,-0.3581566,0.664606,0.70376656,-0.32134358,0.673383,0.71236881,-0.30306317,0.677771,0.72163514,-0.28940665,0.68176,0.71915948,-0.37198544,0.671908,0.75289765,-0.34818022,0.666774,0.75472461,-0.36592456,0.663779,0.76155758,-0.39179721,0.678308,0.73916962,-0.38726218,0.677823,0.76938848,-0.39491242,0.675045,0.79597771,-0.43008325,0.696828,0.78766395,-0.45320857,0.706652,0.76126285,-0.41121669,0.684694,0.76844991,-0.4075108,0.675233,0.77202699,-0.40612586,0.670885,0.76191298,-0.41486199,0.667644
0.69204378,-0.4580946,0.668375,0.7061721,-0.4166057,0.669751,0.67193177,-0.43490477,0.662926,0.64102945,-0.39606573,0.648456,0.60948436,-0.3615277,0.631359,0.60367245,-0.34545923,0.635416,0.69336816,-0.35772598,0.664223,0.70312216,-0.32090251,0.672566,0.711503,-0.30252576,0.676738,0.72108732,-0.28820734,0.68053,0.71883598,-0.37171852,0.671417,0.75287133,-0.34803833,0.666487,0.75437647,-0.3661809,0.663611,0.76077281,-0.39200531,0.678214,0.73870955,-0.38693088,0.677225,0.76919073,-0.39471081,0.674608,0.79585243,-0.42992379,0.696426,0.78824618,-0.45276986,0.706199,0.76060071,-0.41078365,0.683937,0.76809917,-0.40723692,0.674685,0.77182837,-0.40592796,0.670435,0.76186297,-0.41474667,0.667307
0.6913464,-0.45796905,0.667653,0.7053137,-0.41636905,0.669016,0.67202432,-0.43460967,0.662289,0.64192754,-0.39567695,0.64791,0.61041431,-0.36200498,0.632154,0.60343227,-0.34553256,0.6355,0.69300465,-0.35725284,0.663582,0.70281458,-0.3205338,0.671787,0.7111517,-0.30213403,0.675889,0.72093169,-0.28743001,0.679619,0.7185104,-0.37139069,0.670667,0.75249375,-0.34769335,0.665695,0.75365952,-0.36595015,0.662794,0.75978937,-0.39171629,0.67741,0.7383036,-0.3865874,0.676387,0.76863325,-0.39431026,0.673696,0.79529255,-0.42953212,0.695542,0.79040687,-0.45175637,0.705355,0.76008733,-0.41041594,0.682996,0.76753014,-0.4068434,0.673759,0.77123022,-0.4055202,0.669514,0.76123243,-0.41431874,0.666393
0.68656269,-0.45531442,0.663964,0.70249997,-0.41505193,0.666633,0.66863475,-0.43181006,0.659041,0.64036375,-0.38966938,0.645466,0.61144397,-0.36012272,0.632438,0.59806741,-0.33410239,0.624911,0.69300697,-0.3554396,0.662845,0.70411944,-0.3180275,0.669324,0.71986441,-0.29949657,0.672564,0.73225003,-0.2834648,0.67551,0.7180141,-0.37065809,0.669865,0.75534447,-0.35809098,0.666291,0.74940841,-0.38068149,0.664206,0.75129469,-0.40461006,0.67918,0.73742944,-0.386051,0.675428,0.76940171,-0.39448225,0.67405,0.79608482,-0.42977154,0.695937,0.79052395,-0.45164182,0.705237,0.75846782,-0.40993945,0.681651,0.76772757,-0.40665523,0.673557,0.7720122,-0.40573116,0.669838,0.76244773,-0.41481933,0.66719
0.68560568,-0.45459194,0.663344,0.70195501,-0.41468771,0.666116,0.66845974,-0.43085181,0.658513,0.64008767,-0.39264815,0.645114,0.60893999,-0.3564734,0.628488,0.59593144,-0.33304168,0.621561,0.69331205,-0.35501312,0.662525,0.70391096,-0.31973238,0.67121,0.72103979,-0.3016771,0.675552,0.73375621,-0.28582543,0.679533,0.7180863,-0.37044061,0.669471,0.75591697,-0.35862002,0.665988,0.75009839,-0.38126877,0.663957,0.7520309,-0.40521333,0.678968,0.73727436,-0.38598131,0.674964,0.76947949,-0.39445222,0.673651,0.7961927,-0.42977911,0.695558,0.79054954,-0.45159833,0.70484,0.75797897,-0.41000429,0.681089,0.7677644,-0.40655194,0.673101,0.77211386,-0.40572813,0.669431,0.76258716,-0.41485902,0.66686
0.68753461,-0.4559179,0.665186,0.7027799,-0.41527411,0.66672,0.6713773,-0.43138549,0.659721,0.64139917,-0.3950581,0.645441,0.60657605,-0.36041676,0.625262,0.59709462,-0.34249469,0.627705,0.69340389,-0.35407391,0.661306,0.70700478,-0.31790576,0.669258,0.72044714,-0.30074431,0.673233,0.7330712,-0.28484031,0.676848,0.71888513,-0.36910507,0.668577,0.754737,-0.35893915,0.663838,0.74765942,-0.38290164,0.661074,0.74836059,-0.4049344,0.67571,0.73747651,-0.38532287,0.674438,0.76855273,-0.39333839,0.672027,0.79505577,-0.42856824,0.693828,0.78973346,-0.45051078,0.703511,0.7591516,-0.4088225,0.681187,0.76744354,-0.40573049,0.672054,0.77088662,-0.4050135,0.667857,0.76089291,-0.41374524,0.664699
0.68690868,-0.45405926,0.663188,0.70145473,-0.41431053,0.664845,0.6707692,-0.43016597,0.658333,0.64654167,-0.39628905,0.644613,0.61095448,-0.36291886,0.63015,0.60129991,-0.34348451,0.630264,0.6930356,-0.35336842,0.660283,0.70594957,-0.31753591,0.66801,0.72185585,-0.30083195,0.671874,0.73618966,-0.28569052,0.675628,0.71726509,-0.36829577,0.666851,0.75373228,-0.35781324,0.662063,0.74608398,-0.38061351,0.659271,0.74768953,-0.40415078,0.674034,0.74004945,-0.38105675,0.672122,0.7691471,-0.39111814,0.669445,0.79572893,-0.42646019,0.691426,0.78796363,-0.44868647,0.701288,0.76068204,-0.40395131,0.678151,0.76850348,-0.40149013,0.669288,0.76842407,-0.40348715,0.665216,0.75872405,-0.41217921,0.662043
0.68557279,-0.45260069,0.662084,0.70019134,-0.41318764,0.663619,0.66902826,-0.42822876,0.656631,0.64305167,-0.3923903,0.642151,0.60938105,-0.35607024,0.625251,0.59976748,-0.34047516,0.627375,0.69284638,-0.35164024,0.658221,0.70646472,-0.31771281,0.667811,0.7247214,-0.30235393,0.672606,0.74064734,-0.28786413,0.677328,0.71627493,-0.36743792,0.665478,0.75409126,-0.35805268,0.660736,0.74603533,-0.38118857,0.65797,0.74675974,-0.40380348,0.672608,0.73556259,-0.3829414,0.671326,0.76925898,-0.39077831,0.668908,0.79298863,-0.4262573,0.690713,0.78745879,-0.44800682,0.7004,0.75626539,-0.40706316,0.67806,0.76917452,-0.40286051,0.668931,0.76835364,-0.40350119,0.664737,0.77446959,-0.42067187,0.67523
0.68481024,-0.45026539,0.65999,0.69897302,-0.41162968,0.661935,0.66810628,-0.42582883,0.654249,0.64270952,-0.38337477,0.639535,0.60743592,-0.35395576,0.626201,0.60320339,-0.34122566,0.632474,0.6923238,-0.34972995,0.656529,0.70673196,-0.31548661,0.66573,0.72405143,-0.29952226,0.670331,0.73903398,-0.28555438,0.674513,0.71528387,-0.36646811,0.664289,0.75296322,-0.35705413,0.660125,0.74544309,-0.38021005,0.657695,0.74688503,-0.40362597,0.672368,0.73474055,-0.38229879,0.670518,0.77052646,-0.39014767,0.668809,0.79664468,-0.42533003,0.690484,0.78717306,-0.44731737,0.699833,0.75451764,-0.40754744,0.677646,0.77172261,-0.40072552,0.668757,0.77660171,-0.4011198,0.664673,0.78033209,-0.42078805,0.675134
0.6823977,-0.44796464,0.657375,0.69736486,-0.41027702,0.660352,0.6663412,-0.42369004,0.651983,0.64250107,-0.38224507,0.637759,0.60933802,-0.35035689,0.624776,0.60290049,-0.34003259,0.631487,0.69220676,-0.34912516,0.656247,0.70574724,-0.31191595,0.662021,0.72310918,-0.29452032,0.664908,0.73695892,-0.28220125,0.668465,0.71508049,-0.3659984,0.663955,0.75408474,-0.35730879,0.660898,0.74724947,-0.38092902,0.659114,0.74896092,-0.40454875,0.674066,0.73424527,-0.38185089,0.67006,0.77209102,-0.389463,0.66939,0.79744012,-0.42527551,0.691092,0.78814357,-0.44704667,0.700032,0.75381752,-0.40696209,0.676882,0.76633855,-0.40312778,0.668899,0.76940904,-0.404131,0.665231,0.77568311,-0.42146878,0.67593
0.68099699,-0.44621777,0.655673,0.69663729,-0.4090086,0.659158,0.66597643,-0.42234244,0.651028,0.6439357,-0.38236477,0.637995,0.61052703,-0.35018622,0.624681,0.60403316,-0.33708605,0.630325,0.69274652,-0.34886571,0.656401,0.70552214,-0.30921597,0.659593,0.72025275,-0.2929042,0.661189,0.73443998,-0.27811911,0.66264,0.71613808,-0.36471194,0.663379,0.75799279,-0.35117131,0.660682,0.75442726,-0.37461767,0.65911,0.75271773,-0.4033152,0.6743,0.73340703,-0.38088751,0.668842,0.77110115,-0.38855669,0.668289,0.79744647,-0.42387046,0.69019,0.78794233,-0.44603581,0.699163,0.7522874,-0.40529259,0.674822,0.76836905,-0.40086321,0.667448,0.76855194,-0.40369922,0.66406,0.77508267,-0.42121305,0.675045
0.68308628,-0.44629287,0.656273,0.69942687,-0.40775398,0.658805,0.66726829,-0.42189183,0.650827,0.64322042,-0.38527466,0.636687,0.60307128,-0.35543293,0.619267,0.59635831,-0.33828442,0.62293,0.69199175,-0.34718499,0.654258,0.70716754,-0.30940988,0.659684,0.72257105,-0.29322774,0.662397,0.73650568,-0.27985132,0.665509,0.71586749,-0.36289122,0.661872,0.75318728,-0.35454639,0.658306,0.74656311,-0.37804039,0.656225,0.74726902,-0.4020305,0.671076,0.73435903,-0.37864661,0.667934,0.77031813,-0.38614016,0.666749,0.79624686,-0.42131931,0.688474,0.78877197,-0.44324655,0.697632,0.75728389,-0.40088141,0.674772,0.76889192,-0.39833826,0.666425,0.76748864,-0.40292289,0.662589,0.77467172,-0.41987274,0.673216
0.68262894,-0.44461686,0.654485,0.6988103,-0.40673572,0.657581,0.66689424,-0.4203227,0.649065,0.64183667,-0.38359102,0.635007,0.60404419,-0.35298456,0.618841,0.59650117,-0.33729178,0.623337,0.69142537,-0.34653456,0.653542,0.70721189,-0.30899526,0.658993,0.7222629,-0.29261372,0.661718,0.73602175,-0.27893699,0.664574,0.71551039,-0.36218098,0.66133,0.75365519,-0.35429032,0.658424,0.74756164,-0.37754565,0.656729,0.74837269,-0.40220534,0.671699,0.7352289,-0.3769897,0.66749,0.77131863,-0.3852257,0.66699,0.79673493,-0.42077719,0.688669,0.78902458,-0.44273431,0.697532,0.7569086,-0.39986623,0.67436,0.76991913,-0.39738919,0.666464,0.76824508,-0.40299337,0.662836,0.77570699,-0.42005868,0.673541
0.68180397,-0.44245873,0.651299,0.69809344,-0.40518768,0.655053,0.66636376,-0.41811787,0.645231,0.65098709,-0.3811972,0.629863,0.61650797,-0.34851673,0.613788,0.60710059,-0.33432476,0.618819,0.68840242,-0.34479693,0.650775,0.70548169,-0.30797639,0.657334,0.72107455,-0.29180601,0.660614,0.73679076,-0.27744171,0.663596,0.71344499,-0.35967459,0.659598,0.75483526,-0.35046929,0.657701,0.7526861,-0.37247701,0.656594,0.75464717,-0.39944763,0.671548,0.73382318,-0.37332227,0.666559,0.77354303,-0.38137852,0.667345,0.7991356,-0.41506219,0.688694,0.79123891,-0.43921661,0.696905,0.75560746,-0.39686732,0.674282,0.77105068,-0.39383515,0.666742,0.77189356,-0.39950575,0.663278,0.77889269,-0.41919311,0.673847
0.68331832,-0.44161128,0.650528,0.69915113,-0.40319773,0.65451,0.66780319,-0.41853496,0.645936,0.64215076,-0.38425548,0.632399,0.61137716,-0.35252021,0.612075,0.59949907,-0.33195474,0.611042,0.68606259,-0.34281094,0.652237,0.70509793,-0.30716355,0.655816,0.71894436,-0.29026419,0.657606,0.73211231,-0.27538901,0.659232,0.71056951,-0.35515472,0.659332,0.74349941,-0.34897913,0.657208,0.73540597,-0.3749469,0.655969,0.73652423,-0.39323979,0.671268,0.73002603,-0.36819933,0.664851,0.7683576,-0.36430413,0.66488,0.79981666,-0.3998928,0.686749,0.80336759,-0.42664336,0.695474,0.75575692,-0.38595592,0.670823,0.76813636,-0.38641181,0.663855,0.76751732,-0.3997879,0.660654,0.77574248,-0.41672171,0.671715
0.68007181,-0.43763831,0.646068,0.69608087,-0.39600597,0.649441,0.66580995,-0.41597061,0.643056,0.64096402,-0.38232171,0.631093,0.60698767,-0.34990923,0.608189,0.59427148,-0.32974711,0.606177,0.67801372,-0.33563359,0.648592,0.69413884,-0.2966389,0.644872,0.70793313,-0.27930882,0.647327,0.72706752,-0.26988692,0.65418,0.70270656,-0.34481247,0.653524,0.73577113,-0.33742556,0.650204,0.72879412,-0.36332046,0.648268,0.72927177,-0.38565144,0.663655,0.72237294,-0.35537153,0.657312,0.75740062,-0.35406187,0.655525,0.78950696,-0.39232562,0.677864,0.79424201,-0.41933736,0.68751,0.74477995,-0.37369055,0.661314,0.75847519,-0.37308581,0.654349,0.75687642,-0.3881876,0.651149,0.76471771,-0.41165345,0.662547
0.67684695,-0.42940032,0.638094,0.68385998,-0.37823606,0.640381,0.66175043,-0.41048597,0.637991,0.64351276,-0.37518297,0.628883,0.60308314,-0.34145988,0.601142,0.57954171,-0.316787,0.587232,0.66690294,-0.32447793,0.642186,0.67531708,-0.28371828,0.636869,0.67943722,-0.26357772,0.634211,0.69051115,-0.25220307,0.631794,0.68755664,-0.33229895,0.643149,0.71663884,-0.32006822,0.637853,0.71186531,-0.34472406,0.634763,0.71501747,-0.36527559,0.649989,0.70400368,-0.34155499,0.643759,0.73422475,-0.33496715,0.63885,0.76843216,-0.36926504,0.661537,0.77587326,-0.39659546,0.672583,0.72291653,-0.35800198,0.64414,0.73689605,-0.35242267,0.637398,0.73593259,-0.36635,0.6343,0.74299167,-0.38647022,0.646065
0.68996674,-0.42663074,0.643703,0.69140029,-0.38003502,0.64513,0.67143953,-0.41105077,0.64165,0.65135465,-0.38072835,0.630012,0.61041804,-0.34791465,0.601626,0.5896162,-0.32504484,0.588705,0.66756239,-0.32599392,0.643815,0.66615728,-0.28364699,0.636906,0.67365569,-0.26499534,0.633452,0.68063392,-0.24779048,0.630312,0.68974567,-0.33265194,0.646857,0.71962954,-0.31943046,0.641024,0.71716273,-0.34199767,0.637621,0.71911655,-0.36488371,0.652596,0.70567013,-0.33775101,0.649247,0.73951188,-0.33589782,0.644472,0.77409187,-0.36989434,0.667023,0.78155216,-0.39735331,0.67796,0.72714766,-0.35137194,0.651877,0.74135721,-0.34743013,0.643757,0.74005907,-0.36059929,0.640025,0.74890494,-0.38591088,0.651318
0.70264481,-0.42099153,0.644986,0.69430823,-0.37946932,0.645058,0.67434019,-0.41079684,0.640756,0.65867253,-0.38547118,0.626285,0.6181044,-0.35526432,0.596302,0.59527967,-0.33264724,0.581175,0.65912244,-0.32879322,0.639925,0.65253555,-0.28378308,0.630722,0.65614339,-0.26351986,0.626121,0.66006482,-0.24525416,0.621938,0.68449148,-0.33055938,0.645146,0.71532643,-0.32072114,0.638327,0.71240219,-0.34528425,0.634349,0.71545909,-0.36323808,0.648813,0.70434978,-0.33683367,0.649435,0.73584575,-0.32862662,0.644399,0.77227903,-0.36468443,0.666601,0.78173616,-0.39136801,0.677504,0.72787237,-0.34760246,0.654535,0.7413022,-0.34626398,0.644651,0.74020043,-0.35862225,0.640109,0.74739912,-0.37927149,0.650708
0.70114011,-0.41838732,0.641885,0.69034632,-0.37799492,0.642424,0.67571443,-0.40547006,0.636682,0.6593558,-0.37670885,0.621234,0.62017147,-0.34517453,0.592165,0.59701308,-0.32192503,0.57739,0.65473045,-0.32611585,0.636492,0.64810205,-0.28191801,0.627948,0.65746838,-0.26585049,0.63784,0.6732876,-0.25165447,0.646832,0.6791618,-0.32962796,0.643076,0.71325535,-0.31777506,0.637088,0.712001,-0.3425412,0.633595,0.71484414,-0.36233343,0.648048,0.69988482,-0.33560488,0.648451,0.73473834,-0.32654128,0.644633,0.77074505,-0.35959182,0.666575,0.78193318,-0.38569796,0.676881,0.72598318,-0.34853117,0.654773,0.73462804,-0.33931153,0.644945,0.7402137,-0.33457022,0.64043,0.75146717,-0.35094775,0.650852
0.70562213,-0.41962097,0.644281,0.69296,-0.37783802,0.643147,0.68147374,-0.40447445,0.638513,0.66032084,-0.3774964,0.622033,0.62037531,-0.34578215,0.593344,0.59641189,-0.32295832,0.579178,0.65211137,-0.32612584,0.635105,0.63958903,-0.28259221,0.625122,0.64982091,-0.26695865,0.635083,0.6673732,-0.25154677,0.644139,0.67661519,-0.32915313,0.641774,0.70530502,-0.31448547,0.634012,0.70852841,-0.33791743,0.629485,0.71215887,-0.3595498,0.643445,0.69764359,-0.33477578,0.64735,0.72476915,-0.3161982,0.641868,0.76877813,-0.34174318,0.663704,0.7807919,-0.36909373,0.674642,0.72459412,-0.34737211,0.654167,0.73202222,-0.33702494,0.642893,0.73668214,-0.33215887,0.637713,0.74818626,-0.34887123,0.647719
0.66193565,-0.38367845,0.616891,0.67217246,-0.3554585,0.633485,0.64497232,-0.36492425,0.614896,0.63503606,-0.33204767,0.617716,0.63759071,-0.29887839,0.611432,0.63854498,-0.27847041,0.612766,0.66018409,-0.3088219,0.645061,0.66363313,-0.26981342,0.649617,0.67220924,-0.25267947,0.658614,0.69611428,-0.24402345,0.666792,0.68467946,-0.32186591,0.653576,0.74159671,-0.32030453,0.666054,0.75910347,-0.34843779,0.673333,0.76630046,-0.38083577,0.690759,0.70386152,-0.33469709,0.659259,0.76157263,-0.33256322,0.673678,0.80400473,-0.35641607,0.693788,0.80453248,-0.38008239,0.695999,0.72499429,-0.35400167,0.663512,0.75931445,-0.34911667,0.667719,0.77327601,-0.34577791,0.669652,0.78948566,-0.36543394,0.682356
0.66165344,-0.38351487,0.616628,0.6717369,-0.35539866,0.633367,0.64465152,-0.36495697,0.614735,0.63447129,-0.33222238,0.617602,0.63661185,-0.29893887,0.611169,0.63741465,-0.27855015,0.612529,0.65955753,-0.30905094,0.645189,0.66074286,-0.27036152,0.649734,0.66547947,-0.25477786,0.66021,0.69417718,-0.24507917,0.669734,0.68405739,-0.32190798,0.653633,0.74103089,-0.32016944,0.666258,0.75882499,-0.34831464,0.673622,0.76765759,-0.37970648,0.691081,0.70325053,-0.33457839,0.659245,0.76150439,-0.33260208,0.673782,0.80381437,-0.35588016,0.693888,0.80396089,-0.3795838,0.696051,0.72441522,-0.35367736,0.663393,0.75858475,-0.34847755,0.667751,0.77301972,-0.34487371,0.669753,0.79001553,-0.36423226,0.682493
0.68644959,-0.37854922,0.619376,0.68014801,-0.35112601,0.634041,0.66186115,-0.36452917,0.613614,0.66320791,-0.33014461,0.616764,0.65430516,-0.29836869,0.61447,0.64262306,-0.28094137,0.61683,0.64479408,-0.31084503,0.639359,0.64037295,-0.27421845,0.644671,0.64653993,-0.25934236,0.655803,0.6685005,-0.248467,0.665922,0.67274053,-0.31828362,0.651795,0.72583826,-0.30755369,0.663368,0.74841039,-0.33330996,0.670119,0.76818448,-0.36238316,0.686177,0.6961201,-0.32653802,0.660857,0.75213618,-0.3180423,0.675641,0.7942393,-0.33535927,0.694226,0.79763284,-0.35887444,0.695681,0.72478065,-0.34040893,0.66943,0.75385376,-0.32868027,0.671238,0.76821933,-0.32282171,0.672069,0.7902054,-0.33849647,0.683181
0.70049997,-0.40562411,0.63569,0.6816136,-0.3609607,0.64096,0.6710576,-0.38867283,0.625872,0.67481155,-0.34785475,0.626845,0.66874139,-0.31657072,0.626086,0.65856849,-0.29954344,0.62855,0.63597594,-0.31838433,0.633359,0.6123107,-0.2779163,0.625254,0.61088753,-0.25958082,0.627656,0.61211684,-0.24232121,0.62984,0.66388256,-0.32333451,0.647341,0.70826971,-0.31099626,0.648853,0.72624536,-0.33456014,0.649735,0.74118575,-0.36219857,0.663591,0.68815551,-0.33002828,0.658424,0.7363687,-0.32018417,0.664086,0.78001074,-0.34068885,0.682909,0.79208872,-0.37003967,0.688143,0.71966294,-0.34295938,0.67083,0.74288986,-0.33071421,0.66386,0.75440287,-0.32485054,0.660658,0.77698651,-0.34088719,0.669731
0.69619929,-0.39784042,0.630082,0.68128204,-0.35882207,0.639114,0.66591476,-0.38228385,0.620472,0.6667982,-0.34363247,0.620228,0.66029392,-0.31321778,0.619894,0.65239476,-0.2979857,0.624964,0.63561541,-0.31959041,0.634946,0.60980933,-0.28178063,0.629055,0.599563,-0.2622768,0.626532,0.59229247,-0.24471705,0.625634,0.6645522,-0.32429114,0.650049,0.71380371,-0.31344868,0.656239,0.735736,-0.33830264,0.65985,0.75334054,-0.36481076,0.673981,0.68949367,-0.33060208,0.661754,0.74026301,-0.32049113,0.672236,0.78348457,-0.3396308,0.689948,0.79433506,-0.36305076,0.692792,0.71938672,-0.34073599,0.67433,0.74599689,-0.32948401,0.670682,0.7591693,-0.32402242,0.669006,0.78465136,-0.34032562,0.678201
0.70113306,-0.39198825,0.63383,0.67769833,-0.35851083,0.636974,0.6698555,-0.38036343,0.62186,0.68466657,-0.35156729,0.635641,0.67316083,-0.31851576,0.630787,0.66617967,-0.30391685,0.63713,0.62395508,-0.31409365,0.624933,0.59544868,-0.27352083,0.613331,0.58970136,-0.256502,0.615349,0.5849413,-0.24081872,0.617897,0.65180403,-0.31785988,0.640781,0.69238808,-0.29648194,0.640725,0.71632252,-0.31585525,0.640693,0.74505967,-0.33542074,0.653258,0.67392137,-0.32175587,0.653569,0.72200306,-0.30824033,0.658322,0.76584941,-0.32652294,0.675906,0.78047069,-0.35276543,0.681012,0.70488233,-0.33316842,0.668328,0.7315109,-0.32250673,0.659355,0.7426458,-0.31636261,0.655232,0.76640384,-0.33198498,0.663034
0.70251574,-0.39286816,0.635545,0.6782688,-0.35867297,0.637653,0.67135839,-0.3808434,0.623116,0.67991993,-0.34849894,0.630636,0.67074317,-0.31697023,0.62793,0.65984097,-0.3008435,0.630551,0.62329418,-0.31342234,0.624173,0.59373902,-0.2727355,0.61157,0.58809042,-0.2558013,0.613668,0.58312465,-0.24007081,0.615978,0.65081792,-0.3170983,0.640205,0.69062773,-0.29572815,0.639096,0.71407371,-0.31380445,0.638449,0.7421114,-0.33409345,0.650673,0.67356769,-0.32158701,0.653226,0.7191517,-0.30507899,0.657033,0.76229601,-0.31769074,0.67449,0.78091692,-0.3399221,0.679927,0.70498148,-0.33321528,0.668422,0.72791005,-0.31863538,0.658533,0.7379639,-0.30868561,0.65399,0.762941,-0.32610738,0.661488
0.71231925,-0.40425485,0.645292,0.67862607,-0.35902783,0.637857,0.68199404,-0.38964916,0.633437,0.70468822,-0.36814638,0.650445,0.70244493,-0.33908403,0.650081,0.69464653,-0.32119846,0.652738,0.61599787,-0.31665525,0.617016,0.57364693,-0.27885161,0.597513,0.56807262,-0.26443225,0.599222,0.56272143,-0.25072655,0.600775,0.64174068,-0.31283712,0.628854,0.67008961,-0.30302374,0.615967,0.68834446,-0.31036648,0.60845,0.72000599,-0.32626434,0.619348,0.66530902,-0.31284614,0.639187,0.69145833,-0.29273888,0.630437,0.732987,-0.31652198,0.649797,0.75847832,-0.33731719,0.661065,0.69802325,-0.31876104,0.652626,0.71030151,-0.30574398,0.63509,0.71648542,-0.29968477,0.627032,0.74029254,-0.30986614,0.633907
0.71569491,-0.39978757,0.647114,0.68019294,-0.3584571,0.638135,0.6840807,-0.39037002,0.634022,0.71123155,-0.36572951,0.649582,0.70544592,-0.3364636,0.646556,0.70357916,-0.3180042,0.651239,0.61584954,-0.31664522,0.614471,0.57163797,-0.28271547,0.593269,0.56701845,-0.27007109,0.596089,0.56439573,-0.25778346,0.598652,0.64123042,-0.31236447,0.627264,0.66864226,-0.29967173,0.613116,0.68965711,-0.3015136,0.604863,0.72204867,-0.31442378,0.614916,0.66473758,-0.31195763,0.638505,0.69051389,-0.29087817,0.628852,0.73139134,-0.31335459,0.647474,0.75629329,-0.3352242,0.658811,0.69781698,-0.31732112,0.653261,0.70951974,-0.30316436,0.634342,0.71540625,-0.29660551,0.625649,0.73826905,-0.30571019,0.631724
0.71478288,-0.39853424,0.645997,0.67934276,-0.35773349,0.637093,0.68363034,-0.38619478,0.632835,0.7066984,-0.36532145,0.648425,0.70054383,-0.33551696,0.644908,0.69746973,-0.3176943,0.649625,0.61484151,-0.31614147,0.613407,0.56913892,-0.27993533,0.592225,0.56432411,-0.2689728,0.594629,0.56050124,-0.25407385,0.596815,0.63997499,-0.31155754,0.626313,0.66507511,-0.29227041,0.612283,0.68464257,-0.29385409,0.604099,0.71738203,-0.30499468,0.614143,0.66330389,-0.31086562,0.637641,0.68930939,-0.28977859,0.628137,0.73019463,-0.31190067,0.64671,0.75544868,-0.33285536,0.657967,0.69537683,-0.31438347,0.652489,0.70790229,-0.29992956,0.633617,0.71418397,-0.29325293,0.624946,0.73699981,-0.30392808,0.631
0.72308123,-0.39326582,0.644617,0.68451436,-0.35484906,0.634667,0.69196001,-0.38650346,0.630543,0.7176524,-0.35848071,0.645063,0.70348016,-0.33185212,0.642676,0.69874152,-0.31464657,0.6477,0.61737414,-0.32153461,0.608975,0.56709057,-0.2881171,0.586626,0.55971704,-0.27507441,0.587909,0.55457348,-0.26219794,0.589074,0.6389155,-0.31645356,0.622619,0.66025426,-0.28863175,0.60779,0.68010302,-0.2815445,0.599139,0.71318195,-0.28698139,0.608539,0.66029241,-0.31278591,0.634639,0.68283952,-0.28542682,0.624605,0.72377042,-0.30125523,0.642561,0.7515834,-0.32289762,0.653785,0.69376171,-0.31669502,0.650469,0.7087132,-0.29889483,0.63621,0.71540208,-0.28752992,0.629659,0.74047588,-0.29321276,0.636762
0.72230666,-0.38999575,0.640811,0.68576181,-0.35468859,0.632178,0.69518708,-0.38328675,0.626715,0.71490974,-0.35610115,0.642136,0.70330696,-0.32698367,0.639869,0.69739576,-0.31282215,0.646009,0.61640924,-0.31992746,0.607574,0.56735636,-0.2870462,0.586376,0.5598332,-0.27384843,0.587437,0.5539538,-0.25690346,0.588402,0.63700969,-0.31235042,0.621727,0.66141823,-0.28788832,0.608445,0.68259939,-0.2815051,0.600698,0.71615613,-0.28712034,0.6104,0.65969393,-0.31098364,0.634059,0.68103704,-0.28286331,0.625661,0.72486898,-0.29443662,0.643542,0.75762985,-0.30818921,0.654077,0.69282949,-0.31562314,0.650062,0.70429095,-0.29446761,0.634198,0.70902112,-0.28143521,0.626909,0.73527066,-0.28875673,0.633419
0.72566204,-0.38698874,0.638045,0.68841893,-0.35323906,0.630049,0.69955427,-0.3799107,0.623193,0.71207761,-0.35457195,0.638667,0.70214156,-0.3255262,0.637158,0.69827936,-0.31085303,0.644538,0.61491,-0.31943194,0.605056,0.56581862,-0.28714923,0.583857,0.56637126,-0.27593978,0.584359,0.56692413,-0.2625524,0.584815,0.63790482,-0.31492504,0.620369,0.66156269,-0.28752704,0.608217,0.68360496,-0.28152699,0.601128,0.71699065,-0.28693703,0.610588,0.65990409,-0.31207119,0.633606,0.67548994,-0.28057698,0.626651,0.71981384,-0.29294691,0.643854,0.75325368,-0.30771673,0.653534,0.69347207,-0.31599949,0.65059,0.70246978,-0.29312494,0.63254,0.70750278,-0.28195834,0.624247,0.73084765,-0.28602861,0.629644
0.73443306,-0.38525992,0.637948,0.7003451,-0.35236009,0.628538,0.70249531,-0.37950903,0.622583,0.72391239,-0.35441707,0.636865,0.71481611,-0.32402347,0.634521,0.71557047,-0.30651457,0.642487,0.62450532,-0.31934437,0.601719,0.57382091,-0.28749702,0.579206,0.57448251,-0.27445477,0.581351,0.57679222,-0.26177288,0.583301,0.64712777,-0.31426269,0.617146,0.66899346,-0.28451395,0.603587,0.68995265,-0.27854475,0.595678,0.72308779,-0.28349434,0.604566,0.6691805,-0.3125972,0.630588,0.6789964,-0.28042361,0.622329,0.72348226,-0.29089092,0.639199,0.75569306,-0.30406693,0.649273,0.70205166,-0.31531391,0.648031,0.71187926,-0.29171006,0.628525,0.717076,-0.28083913,0.619562,0.73945938,-0.28487856,0.624387
0.74943925,-0.39131925,0.648605,0.70791078,-0.35229208,0.632509,0.71021849,-0.38189735,0.627206,0.69910153,-0.33917915,0.611914,0.68165379,-0.30118056,0.595683,0.68313101,-0.27997296,0.596782,0.622558,-0.30610078,0.592631,0.63072263,-0.27967323,0.563606,0.66025753,-0.27722055,0.571203,0.69028627,-0.27756883,0.578108,0.6528987,-0.30337409,0.613022,0.65540436,-0.26524714,0.58923,0.66726204,-0.268533,0.575351,0.68942055,-0.27260227,0.576197,0.68176418,-0.30399231,0.631082,0.6753601,-0.26404104,0.602319,0.70648242,-0.27799513,0.610833,0.73489512,-0.2944884,0.625849,0.7236711,-0.3103284,0.655042,0.72570196,-0.29573491,0.630816,0.72703755,-0.28898617,0.619685,0.73921465,-0.28759852,0.61887
0.7456619,-0.38641964,0.643761,0.70964051,-0.33962437,0.631805,0.71194065,-0.37619182,0.623162,0.6950521,-0.32467981,0.606266,0.67390095,-0.2886924,0.590498,0.67444375,-0.26741839,0.591003,0.62496971,-0.29895399,0.596408,0.63640079,-0.27368085,0.570598,0.66657961,-0.2709129,0.578839,0.69738963,-0.27096776,0.58633,0.65611972,-0.29620332,0.61733,0.67453785,-0.26880919,0.59766,0.68105411,-0.28142721,0.586186,0.67473671,-0.29924751,0.588532,0.68537622,-0.29659513,0.635497,0.68900767,-0.26090516,0.61041,0.72001693,-0.27619554,0.619646,0.73345376,-0.29724501,0.633466,0.72719464,-0.30230222,0.658955,0.73233745,-0.28871742,0.637881,0.73521062,-0.2824121,0.628199,0.74869031,-0.28121498,0.628586
0.76311123,-0.3696284,0.646656,0.71826377,-0.32992587,0.634311,0.72916951,-0.35746537,0.627182,0.70888388,-0.31997539,0.614416,0.6839213,-0.28699333,0.598895,0.67898191,-0.26685581,0.595934,0.62978985,-0.3002812,0.599968,0.63807218,-0.2732699,0.573999,0.66520708,-0.2674124,0.584212,0.69642868,-0.26536006,0.593497,0.65882759,-0.29504988,0.619367,0.67457472,-0.26707539,0.598777,0.68178338,-0.27370974,0.586767,0.6827275,-0.28775571,0.59045,0.6867923,-0.2894281,0.636311,0.68579435,-0.25470196,0.610814,0.72098764,-0.26726677,0.622214,0.73733103,-0.28695381,0.637063,0.72711684,-0.28960572,0.658372,0.72987352,-0.27720246,0.636685,0.73162025,-0.27145813,0.62672,0.7457359,-0.27121764,0.628234
0.76457414,-0.35428683,0.642203,0.71612564,-0.32661799,0.632687,0.72700046,-0.35201702,0.623872,0.70500441,-0.31483967,0.614181,0.67686272,-0.28128715,0.598286,0.6808763,-0.26358697,0.600925,0.6310505,-0.30138411,0.602137,0.63246014,-0.2702127,0.578567,0.66036122,-0.26472146,0.589853,0.69079566,-0.26059214,0.600113,0.65914348,-0.29521648,0.621166,0.67038911,-0.26427491,0.603274,0.68005391,-0.27358337,0.592838,0.68043304,-0.28798477,0.598011,0.68514829,-0.28968394,0.637581,0.67830222,-0.25281178,0.614706,0.71628273,-0.26318282,0.62729,0.73498633,-0.28261152,0.641554,0.72420285,-0.28860271,0.658582,0.72336202,-0.27280279,0.639045,0.72490693,-0.26592091,0.630068,0.73913172,-0.26462964,0.632809
0.77149904,-0.35336001,0.64819,0.72011986,-0.32437435,0.637281,0.73313225,-0.35104399,0.628289,0.70968443,-0.31111945,0.617114,0.67845356,-0.27969469,0.599183,0.67778292,-0.25923068,0.601105,0.63271317,-0.30219959,0.603625,0.6342922,-0.26916505,0.578693,0.66209409,-0.2603462,0.587917,0.68839513,-0.25641934,0.596303,0.66104213,-0.29624198,0.624074,0.67235817,-0.26373407,0.605233,0.68106685,-0.27195884,0.594243,0.67906752,-0.28568115,0.597565,0.68418848,-0.29102345,0.641767,0.67973732,-0.25295434,0.61759,0.71461069,-0.26146348,0.62791,0.73232196,-0.28056589,0.641795,0.71852776,-0.28866328,0.664503,0.72615844,-0.27320426,0.644103,0.72808454,-0.26564057,0.63473,0.74123255,-0.26319351,0.635922
0.76823564,-0.35085633,0.64688,0.72017795,-0.32421129,0.639437,0.73085213,-0.34877378,0.627603,0.70292528,-0.30876124,0.617721,0.67545545,-0.27494592,0.602122,0.67095582,-0.25534966,0.596248,0.63177284,-0.29918426,0.609477,0.6379684,-0.26602791,0.587383,0.66397628,-0.25798498,0.59663,0.69229357,-0.25167102,0.605035,0.65862346,-0.29334202,0.630425,0.67725172,-0.26191646,0.615226,0.691388,-0.27374979,0.606359,0.69161979,-0.29040857,0.610569,0.68657601,-0.29194924,0.648254,0.68645232,-0.25375615,0.627323,0.72116686,-0.26220166,0.637677,0.73962053,-0.28300815,0.650265,0.72391083,-0.29053491,0.670625,0.73133545,-0.27408296,0.653056,0.73556822,-0.26713749,0.644984,0.75207986,-0.26715489,0.646891
0.77408931,-0.34750691,0.653367,0.71494408,-0.31557565,0.642422,0.73339937,-0.34214407,0.631508,0.69343523,-0.29041668,0.602969,0.65752709,-0.256803,0.578227,0.63671934,-0.23175894,0.56518,0.62688823,-0.29620358,0.606333,0.63105621,-0.26117036,0.581547,0.65235362,-0.25088476,0.586295,0.67686274,-0.24478772,0.590611,0.65155137,-0.28966905,0.629172,0.66025507,-0.25180567,0.611612,0.67721082,-0.23902055,0.601369,0.69614922,-0.2476842,0.601448,0.67737706,-0.28691826,0.648835,0.67124732,-0.24428925,0.625171,0.70057753,-0.25291213,0.630573,0.7175609,-0.2735093,0.642287,0.71626942,-0.28657679,0.673923,0.72089451,-0.26623229,0.654489,0.72509266,-0.26075876,0.64556,0.73647037,-0.25863036,0.644083
0.77047533,-0.3415713,0.652679,0.71486291,-0.31380918,0.642486,0.73015597,-0.33709672,0.631176,0.69441298,-0.28984408,0.60556,0.65736329,-0.2563372,0.584219,0.63675171,-0.23353992,0.573937,0.62613034,-0.29376383,0.607468,0.63177593,-0.25803666,0.583217,0.65481638,-0.24777813,0.588648,0.68126567,-0.24443951,0.593584,0.6522608,-0.28855608,0.630146,0.6613319,-0.2507416,0.61316,0.67863669,-0.23793326,0.603252,0.69848354,-0.24681282,0.604011,0.67790283,-0.28567778,0.649617,0.67514142,-0.2439996,0.62653,0.70454993,-0.2539282,0.632685,0.72290793,-0.27584939,0.644466,0.71647439,-0.28511531,0.674362,0.72137989,-0.26479095,0.655359,0.72573976,-0.25931353,0.646627,0.73769322,-0.25730896,0.645701
0.77246219,-0.34087779,0.655118,0.71683611,-0.31398208,0.644565,0.73230008,-0.33603274,0.633005,0.69438126,-0.28684842,0.606268,0.65861741,-0.2518225,0.581838,0.63946187,-0.2266785,0.569517,0.62768696,-0.29328361,0.608494,0.63327467,-0.25515069,0.584222,0.65436386,-0.24104868,0.587758,0.67777396,-0.24270846,0.590973,0.65381542,-0.28875497,0.63179,0.6579725,-0.24530337,0.615042,0.67867094,-0.23633416,0.605273,0.69748667,-0.24334984,0.604581,0.67947291,-0.28643846,0.651797,0.67858054,-0.24322543,0.628767,0.70453521,-0.2538776,0.632837,0.72104752,-0.27574834,0.643762,0.71810236,-0.28655067,0.677235,0.72374976,-0.26536491,0.658479,0.72858319,-0.25971192,0.649862,0.7394805,-0.25697338,0.647763
0.77242389,-0.33972628,0.655902,0.7178927,-0.31408711,0.64615,0.73273127,-0.33212369,0.633915,0.69558124,-0.28702771,0.608305,0.65867889,-0.2529633,0.584667,0.63967295,-0.22827234,0.572985,0.62993081,-0.29382728,0.610912,0.63606896,-0.25577891,0.587328,0.65616423,-0.24201167,0.590743,0.68716277,-0.24534475,0.601413,0.65587739,-0.28954205,0.634344,0.66026042,-0.24654609,0.618483,0.68001154,-0.23710126,0.609231,0.70076245,-0.2441684,0.608654,0.68131894,-0.28739412,0.6544,0.67945679,-0.24360106,0.632158,0.70757008,-0.25495552,0.636096,0.7211917,-0.27647105,0.646651,0.71692614,-0.28787832,0.679775,0.72384829,-0.26508081,0.661717,0.72978264,-0.26006926,0.653421,0.74283987,-0.25894258,0.651415
0.77344115,-0.33942743,0.657472,0.71896573,-0.31489918,0.647869,0.73424168,-0.33249263,0.635623,0.6999421,-0.29012352,0.616597,0.66126343,-0.26145273,0.597976,0.64522691,-0.2398833,0.591792,0.63134094,-0.29521653,0.612927,0.63657591,-0.25626074,0.589386,0.65663068,-0.24360359,0.593253,0.68783972,-0.24668914,0.604087,0.65636022,-0.29053845,0.636244,0.66114288,-0.24875696,0.620389,0.68093872,-0.23938081,0.61114,0.70082924,-0.24536887,0.610925,0.68009536,-0.28912015,0.656194,0.67052875,-0.24623955,0.633987,0.70027234,-0.25254985,0.638423,0.72348887,-0.27675331,0.649162,0.71700059,-0.28979768,0.681419,0.71696239,-0.26405963,0.663347,0.72234025,-0.25704504,0.655043,0.73935382,-0.25548715,0.653329
0.77363028,-0.33895123,0.658162,0.71920164,-0.31523058,0.648583,0.7347543,-0.33251461,0.636334,0.69952708,-0.29059556,0.617068,0.66140498,-0.2615087,0.598104,0.64505574,-0.23981966,0.591635,0.63167865,-0.29586154,0.613686,0.63645709,-0.25698064,0.590154,0.6563927,-0.24422593,0.594084,0.68762339,-0.24716352,0.604939,0.65644378,-0.29145281,0.636986,0.66136459,-0.2497799,0.621136,0.68117364,-0.24043979,0.611889,0.70107948,-0.24647211,0.611725,0.68008611,-0.29009983,0.656921,0.67130612,-0.24652502,0.634722,0.70115423,-0.2528679,0.639227,0.72407712,-0.27657892,0.649991,0.71691467,-0.29070758,0.682124,0.71772437,-0.26434027,0.664052,0.72311878,-0.25732208,0.655749,0.73843089,-0.25531875,0.654076
0.72809365,-0.30642526,0.688314,0.67600601,-0.29631458,0.653134,0.71872101,-0.30791593,0.666049,0.69571726,-0.271378,0.63039,0.67849128,-0.24817397,0.599927,0.65937573,-0.22829923,0.580196,0.62057625,-0.28947742,0.596064,0.60006775,-0.23498044,0.556267,0.60935454,-0.22827159,0.555069,0.624217,-0.24082092,0.570294,0.61301038,-0.28404983,0.610543,0.59725051,-0.22660989,0.570599,0.6035664,-0.23026514,0.569306,0.60762522,-0.24920174,0.578863,0.61079333,-0.2803126,0.62526,0.59267564,-0.22329864,0.583387,0.60192572,-0.22375637,0.582121,0.61579345,-0.24459642,0.597738,0.61590265,-0.27729398,0.648131,0.60880341,-0.23437118,0.612967,0.60886756,-0.2316373,0.596811,0.60106589,-0.23999648,0.587505
0.72679919,-0.30607126,0.686141,0.67435254,-0.29574268,0.65083,0.71753932,-0.30754328,0.664119,0.69450428,-0.27102702,0.628694,0.67679452,-0.24763494,0.598029,0.65656655,-0.22739794,0.577465,0.61874298,-0.28868619,0.593947,0.59761319,-0.23410581,0.553756,0.60775019,-0.22793498,0.553921,0.62288773,-0.24258286,0.56966,0.6109483,-0.28320517,0.60808,0.59432904,-0.22565145,0.567527,0.60261738,-0.23005909,0.567984,0.60638949,-0.24883854,0.577169,0.60859279,-0.27945635,0.622523,0.58787437,-0.22216128,0.580169,0.59998041,-0.22079768,0.580403,0.61722687,-0.24040652,0.597212,0.61360246,-0.276472,0.645086,0.60982029,-0.2366382,0.609372,0.62464598,-0.24174253,0.608801,0.63590759,-0.25647375,0.620752
0.72702625,-0.30362908,0.683893,0.67415931,-0.2945629,0.649444,0.71697293,-0.30536125,0.661696,0.6924788,-0.26819893,0.625884,0.67423427,-0.23996823,0.595131,0.65267148,-0.2237635,0.574379,0.61725153,-0.28886359,0.593076,0.59309869,-0.23594984,0.55309,0.60622851,-0.22751028,0.554022,0.62336349,-0.24252793,0.570086,0.61026711,-0.28354408,0.607738,0.59392743,-0.22620651,0.567727,0.60414005,-0.23047435,0.569193,0.59970262,-0.24562611,0.570241,0.60859821,-0.27981992,0.622548,0.58552618,-0.22308164,0.580522,0.60073626,-0.21889597,0.581608,0.62163927,-0.23651406,0.599011,0.61447599,-0.27666218,0.645418,0.60876791,-0.2356492,0.609954,0.62620994,-0.24187362,0.610051,0.63776404,-0.25742275,0.62178
0.72776212,-0.30312162,0.683355,0.67452953,-0.29491449,0.649251,0.71738602,-0.30505421,0.661115,0.69172386,-0.26785022,0.625175,0.67198331,-0.2438713,0.594257,0.65053868,-0.22354519,0.57373,0.61673723,-0.29085887,0.593121,0.59272082,-0.23787846,0.553231,0.60500984,-0.22950069,0.554485,0.62387628,-0.24339325,0.570727,0.61015086,-0.28561185,0.607962,0.59254871,-0.22920879,0.568166,0.60530843,-0.23088813,0.570056,0.60198164,-0.24569182,0.571405,0.6087961,-0.28119906,0.622891,0.58415505,-0.22602682,0.581006,0.60127426,-0.21959365,0.58245,0.62360206,-0.2358441,0.599939,0.61501754,-0.27790914,0.645852,0.61033016,-0.23834611,0.610494,0.62679667,-0.2432043,0.610869,0.63908732,-0.25892766,0.622856
0.72356497,-0.30076232,0.67903,0.67161387,-0.29351839,0.646571,0.71296344,-0.30282589,0.656898,0.68630866,-0.26549287,0.620564,0.66804884,-0.24083136,0.592168,0.64689236,-0.22096561,0.573048,0.61483149,-0.28980004,0.591963,0.55340499,-0.28750285,0.558027,0.54773341,-0.26776173,0.547971,0.56598332,-0.25531908,0.554309,0.60877134,-0.28472579,0.607273,0.5927947,-0.22826067,0.568428,0.6081633,-0.23155094,0.572817,0.60709628,-0.24693951,0.575952,0.60777742,-0.28104269,0.622457,0.58754224,-0.22358281,0.581285,0.60432363,-0.22164197,0.584851,0.62717904,-0.2374117,0.602901,0.61432983,-0.27764359,0.645472,0.60920663,-0.23734582,0.610595,0.62819236,-0.2437361,0.612627,0.64185606,-0.26022028,0.625689
0.72384332,-0.30035443,0.678773,0.67192764,-0.29337507,0.646658,0.71292506,-0.30243438,0.656502,0.6857334,-0.26507205,0.620108,0.66679931,-0.24067536,0.591481,0.64539054,-0.22089115,0.572279,0.61479979,-0.2899025,0.592171,0.55458193,-0.2849366,0.557375,0.55082198,-0.26121297,0.545955,0.56560498,-0.2514371,0.551231,0.60912055,-0.28490726,0.607778,0.59414207,-0.2282065,0.569286,0.60925109,-0.23146167,0.573577,0.60834727,-0.24668862,0.576641,0.60842822,-0.28126063,0.623179,0.58952206,-0.22400723,0.582244,0.60650054,-0.22235154,0.585721,0.62863559,-0.23785621,0.603639,0.61532854,-0.27785573,0.646399,0.61056444,-0.23780246,0.611753,0.62948464,-0.24395108,0.613722,0.64310953,-0.26062299,0.626678
0.72435694,-0.30035974,0.678859,0.6723116,-0.29355631,0.646863,0.7132527,-0.30248579,0.656532,0.68549257,-0.26522844,0.620119,0.66437616,-0.24185,0.590958,0.64214066,-0.2219521,0.571716,0.61485421,-0.29028144,0.592409,0.55521514,-0.28491236,0.557452,0.55174625,-0.26236813,0.546606,0.56814073,-0.2521133,0.552586,0.60935314,-0.28529906,0.608127,0.59327365,-0.22948231,0.569764,0.60976541,-0.23123916,0.573991,0.60916843,-0.24621645,0.577011,0.60881373,-0.28164646,0.623609,0.59013557,-0.22472236,0.582762,0.60735745,-0.22272311,0.586182,0.62950293,-0.23838587,0.604042,0.61591399,-0.27820531,0.646909,0.61180491,-0.23900177,0.612349,0.63015068,-0.24431957,0.614277,0.64379975,-0.26106843,0.627187
0.72525381,-0.3005789,0.679402,0.67296435,-0.29377581,0.647274,0.71402141,-0.30273568,0.657002,0.68598237,-0.26554216,0.620603,0.66537044,-0.24274264,0.591291,0.64224758,-0.22225015,0.572041,0.61514778,-0.29052287,0.592617,0.55589171,-0.28455276,0.557647,0.55450152,-0.26251732,0.548192,0.57442041,-0.25298505,0.555556,0.60972375,-0.28551236,0.608377,0.59469669,-0.22887407,0.569979,0.60993602,-0.23115015,0.573824,0.60911799,-0.24593351,0.576571,0.60926429,-0.28183568,0.623905,0.5907932,-0.22505979,0.583015,0.60824295,-0.22317907,0.586109,0.62981164,-0.2385327,0.603856,0.61649047,-0.27836299,0.64728,0.61245494,-0.23918844,0.612711,0.6306343,-0.24427949,0.614386,0.64476532,-0.26173745,0.627201
0.73013399,-0.30301798,0.683675,0.67638793,-0.29548179,0.64984,0.72036145,-0.30655918,0.662965,0.689208,-0.27908518,0.627331,0.667958,-0.24803665,0.59693,0.64465802,-0.22661373,0.576286,0.61679643,-0.30121155,0.595817,0.56370636,-0.28017121,0.560026,0.56645367,-0.26229622,0.550188,0.59088059,-0.25774883,0.557872,0.6109836,-0.28734827,0.608877,0.6078804,-0.24042071,0.568275,0.63680529,-0.22498528,0.574804,0.65386752,-0.22232023,0.579467,0.61467682,-0.27949606,0.62232,0.60346942,-0.23022817,0.580186,0.61257453,-0.22416173,0.58562,0.63031279,-0.23861197,0.604455,0.62420132,-0.26907232,0.643468,0.62243838,-0.23628369,0.60748,0.63539666,-0.24696617,0.610921,0.64098769,-0.26032638,0.623112
0.73217604,-0.30415206,0.685321,0.67567401,-0.29551731,0.649448,0.72085716,-0.30778018,0.663653,0.69041753,-0.27995037,0.628349,0.67222317,-0.2473659,0.59966,0.64919251,-0.22722752,0.579874,0.6109062,-0.29935871,0.592527,0.55911244,-0.27784083,0.557445,0.56378072,-0.26197036,0.550512,0.5927782,-0.25869399,0.560049,0.60763158,-0.2849183,0.606018,0.60337775,-0.23926918,0.5648,0.62664603,-0.22236086,0.565806,0.63952538,-0.21846601,0.566524,0.60746924,-0.27860461,0.619978,0.60045769,-0.22834426,0.577197,0.60532174,-0.22146634,0.577912,0.62079838,-0.23486567,0.595472,0.62257686,-0.26677568,0.642051,0.62147904,-0.235373,0.605891,0.62995442,-0.24398341,0.605679,0.63587677,-0.25763505,0.618324
0.72003831,-0.29906041,0.673248,0.66578467,-0.2914262,0.639709,0.708871,-0.30354046,0.652582,0.67724239,-0.27500376,0.616941,0.65504984,-0.24407752,0.586846,0.6330999,-0.22221507,0.566152,0.60072872,-0.29585547,0.58599,0.54916666,-0.27334559,0.550489,0.55463862,-0.25754219,0.541681,0.57902719,-0.25359905,0.550244,0.5999917,-0.28182493,0.599104,0.59597702,-0.23678378,0.558706,0.62416368,-0.22810632,0.56559,0.64240031,-0.22294893,0.570508,0.60020709,-0.27535477,0.612568,0.59177549,-0.22664867,0.570603,0.6023663,-0.22101237,0.57634,0.61883824,-0.23434187,0.595318,0.61372045,-0.26273812,0.633696,0.61318737,-0.23261694,0.597835,0.62502138,-0.2426005,0.601513,0.63125143,-0.25627471,0.613609
0.73189185,-0.3041738,0.683987,0.67634043,-0.2962725,0.649724,0.72115107,-0.31004078,0.664285,0.68945596,-0.2907865,0.629335,0.66783128,-0.26234711,0.599215,0.64579996,-0.24414702,0.578446,0.611662,-0.30111202,0.596576,0.55920881,-0.28095052,0.560381,0.56173148,-0.26125167,0.548621,0.58617943,-0.25706794,0.554769,0.60936887,-0.28659693,0.608243,0.60685871,-0.2409634,0.567011,0.64164979,-0.23483296,0.574862,0.66519781,-0.22923333,0.58047,0.61127264,-0.27626874,0.620574,0.60294953,-0.22948268,0.578273,0.61545427,-0.22579168,0.584861,0.62942915,-0.23860293,0.604171,0.62121484,-0.26317819,0.640462,0.62336155,-0.23463007,0.604155,0.63332384,-0.24546674,0.608475,0.63874469,-0.25912206,0.620722
0.73234949,-0.30540563,0.684714,0.67663084,-0.29703653,0.650119,0.72117531,-0.31195191,0.66517,0.69088268,-0.29166674,0.630369,0.66969959,-0.26334534,0.600512,0.64752847,-0.24506287,0.579528,0.61342776,-0.30154519,0.596885,0.55998999,-0.2815453,0.560445,0.56158171,-0.26153564,0.548216,0.58550306,-0.25741564,0.553947,0.60946671,-0.286794,0.608236,0.60825719,-0.24180259,0.56672,0.641665,-0.23511118,0.574497,0.66508344,-0.22946631,0.580052,0.61152533,-0.27587235,0.620334,0.60671074,-0.23008519,0.577867,0.61513522,-0.22647112,0.584398,0.62324802,-0.24128255,0.602501,0.62147818,-0.26364239,0.639995,0.62607662,-0.23509334,0.603529,0.63731694,-0.24547943,0.6078,0.63894811,-0.25899424,0.619985
0.73250022,-0.3063279,0.685154,0.67679639,-0.2974513,0.650374,0.72075794,-0.31347515,0.665652,0.69156604,-0.2920481,0.630903,0.67047855,-0.26373975,0.601084,0.64834636,-0.24458003,0.580161,0.61355847,-0.30172507,0.597035,0.55996262,-0.2814381,0.560406,0.56144934,-0.26172658,0.547902,0.58504248,-0.25764257,0.55339,0.60964438,-0.28660134,0.608267,0.60851217,-0.24212667,0.566604,0.64154781,-0.23515905,0.574266,0.66484489,-0.22947466,0.579738,0.61180062,-0.27565592,0.620282,0.60701506,-0.22979973,0.577716,0.61557159,-0.22645529,0.584151,0.62857422,-0.23883784,0.603224,0.62182435,-0.26325202,0.639871,0.62598342,-0.2351729,0.603321,0.63751569,-0.24540105,0.607515,0.63968508,-0.25875638,0.619961
0.73720139,-0.31018058,0.689505,0.6798104,-0.3104709,0.652121,0.72202102,-0.32159322,0.669184,0.69959281,-0.30327205,0.634623,0.68114706,-0.27132982,0.605856,0.65779921,-0.24757576,0.586593,0.61327332,-0.31082086,0.595576,0.55805863,-0.28577395,0.558295,0.56464409,-0.27313997,0.548949,0.59096318,-0.27094647,0.557416,0.61106137,-0.29559488,0.606861,0.60783326,-0.25097702,0.563874,0.63433048,-0.24120772,0.566543,0.65328247,-0.23421837,0.56845,0.61360274,-0.28380071,0.619127,0.60654559,-0.23750336,0.575365,0.61566632,-0.23101081,0.577541,0.62593094,-0.23811665,0.596081,0.62265544,-0.26930754,0.639411,0.62619784,-0.24447675,0.602157,0.63507034,-0.25303062,0.60304,0.64140152,-0.26687255,0.616494
0.73542759,-0.31780234,0.689001,0.67992236,-0.31167281,0.651436,0.72102043,-0.3343719,0.667942,0.70102174,-0.30359519,0.633858,0.68920757,-0.26976052,0.606913,0.67549078,-0.24598873,0.591355,0.61151665,-0.30426542,0.59383,0.55998279,-0.2802292,0.56019,0.56580848,-0.26309281,0.550623,0.589943,-0.25965283,0.557278,0.61109046,-0.291473,0.605957,0.60915281,-0.24884873,0.563839,0.63097407,-0.23807808,0.56249,0.6463364,-0.2304833,0.561527,0.61347534,-0.28092496,0.618929,0.60820877,-0.23587232,0.575763,0.61281136,-0.22986902,0.574493,0.6241934,-0.24063679,0.591416,0.6267296,-0.27132141,0.640082,0.62886981,-0.24420007,0.603657,0.63482194,-0.25256792,0.601898,0.63968874,-0.26656225,0.614036
0.73763387,-0.31652716,0.690149,0.68113552,-0.31277773,0.652113,0.72189618,-0.32853174,0.669764,0.70390935,-0.30487148,0.635619,0.69181053,-0.27222112,0.609035,0.67796893,-0.24923472,0.59337,0.6152897,-0.3122023,0.594937,0.56425417,-0.2912877,0.556925,0.5696106,-0.27501349,0.547236,0.59228824,-0.27125574,0.555713,0.61245481,-0.29714754,0.606064,0.60862899,-0.25172499,0.562936,0.63297444,-0.23969344,0.56381,0.65003507,-0.23243318,0.564435,0.61446648,-0.28553018,0.61825,0.60699067,-0.2382889,0.574427,0.61306575,-0.23145875,0.575075,0.62477847,-0.24287749,0.593029,0.6255858,-0.27232219,0.638539,0.62681263,-0.24466135,0.601339,0.63422317,-0.25327105,0.60104,0.63995536,-0.26749907,0.614017
0.74594038,-0.32127309,0.697721,0.69009781,-0.31769415,0.657082,0.73519356,-0.34173493,0.680591,0.72280079,-0.32065846,0.649709,0.71210375,-0.29454725,0.623159,0.69640797,-0.27202225,0.604062,0.6314343,-0.32099207,0.601705,0.62606235,-0.27910968,0.560959,0.63421772,-0.26895373,0.562099,0.64171589,-0.27630166,0.578633,0.62647653,-0.30163791,0.607882,0.62232339,-0.25966407,0.562579,0.64845114,-0.24799342,0.564038,0.66688491,-0.23967832,0.56508,0.62668392,-0.28668206,0.616205,0.6225722,-0.2449418,0.571894,0.62144364,-0.24127025,0.57313,0.6256035,-0.25433,0.591516,0.63513395,-0.27074291,0.632284,0.63733619,-0.25182285,0.594312,0.65519017,-0.25002499,0.593057,0.6866198,-0.25708903,0.605827
0.74713146,-0.3237249,0.698882,0.69199528,-0.31857945,0.658208,0.73628877,-0.34284579,0.681659,0.7222676,-0.32143768,0.650754,0.71031919,-0.29543653,0.624096,0.69320939,-0.27193387,0.604673,0.63217258,-0.32150289,0.602688,0.62680813,-0.27961023,0.561929,0.63472337,-0.26934624,0.562849,0.64213166,-0.27665459,0.5793,0.62731612,-0.30219589,0.608966,0.62322391,-0.26022763,0.563693,0.64903774,-0.24842834,0.564871,0.6672337,-0.24002915,0.565713,0.62760749,-0.28727476,0.617375,0.62353011,-0.24552169,0.573065,0.62214718,-0.24174281,0.574058,0.62620133,-0.25476185,0.592347,0.63616118,-0.27137272,0.633562,0.63842628,-0.25245854,0.595615,0.65588306,-0.250505,0.593991,0.68709355,-0.25749243,0.606575
0.74824929,-0.32623973,0.700089,0.69338938,-0.31931246,0.659414,0.73723122,-0.34377951,0.68274,0.72306242,-0.32195313,0.651766,0.71117205,-0.29590284,0.625011,0.69414324,-0.27206592,0.605618,0.63279288,-0.32194264,0.603736,0.62747555,-0.28012798,0.562955,0.63602449,-0.26958848,0.563678,0.64449634,-0.27604415,0.580059,0.62815735,-0.30269257,0.61017,0.6241894,-0.2608357,0.564944,0.64950668,-0.24904032,0.565872,0.66713079,-0.24072222,0.566535,0.62862677,-0.28781357,0.618706,0.62462974,-0.24614311,0.574394,0.62304022,-0.24228191,0.575172,0.62699234,-0.25524065,0.593375,0.63739311,-0.27196073,0.635045,0.63972011,-0.25314475,0.597123,0.65670338,-0.25104665,0.595061,0.68763869,-0.25797882,0.607418
0.74913084,-0.32874231,0.700904,0.69415296,-0.31995362,0.660162,0.73770413,-0.3446672,0.683461,0.72354482,-0.32282499,0.652525,0.71178909,-0.29680713,0.625723,0.69495213,-0.27279947,0.606366,0.63277527,-0.3222629,0.604311,0.62768836,-0.28076847,0.563546,0.63693266,-0.26996596,0.563897,0.65063872,-0.27370805,0.580124,0.62846114,-0.30297755,0.610836,0.62459332,-0.26163563,0.565666,0.64962235,-0.24980925,0.566116,0.66698101,-0.24148318,0.566438,0.62920429,-0.28808368,0.619452,0.62543944,-0.24676031,0.575169,0.6234665,-0.2427616,0.575538,0.62720901,-0.25555333,0.593566,0.638318,-0.27224431,0.635898,0.64071876,-0.25378468,0.598037,0.65673789,-0.25146849,0.595095,0.68707943,-0.2583485,0.606967
0.74984458,-0.33088653,0.701369,0.69462984,-0.32036609,0.66063,0.73789111,-0.3452537,0.683846,0.72371852,-0.32329637,0.652876,0.7120033,-0.29728444,0.626013,0.69527961,-0.27317743,0.606677,0.6327942,-0.32246997,0.604684,0.6278311,-0.28115934,0.563914,0.63758724,-0.27023895,0.564125,0.65184574,-0.27364759,0.580297,0.62871798,-0.30318446,0.611308,0.62492316,-0.2621532,0.566179,0.64990797,-0.2503547,0.566451,0.66720331,-0.24205353,0.566645,0.62965885,-0.28829524,0.620006,0.62603186,-0.24717271,0.575732,0.62392745,-0.24312916,0.575947,0.6275814,-0.25583956,0.59391,0.6390107,-0.27247318,0.636547,0.64145461,-0.25422289,0.598713,0.65711902,-0.25185926,0.595442,0.687228,-0.25875146,0.607124
0.74314979,-0.32955898,0.694759,0.68652551,-0.31605089,0.654088,0.73029809,-0.34215207,0.677128,0.71623263,-0.31975664,0.646025,0.70940223,-0.29597751,0.623176,0.69975193,-0.27354444,0.609021,0.61824445,-0.31407066,0.598069,0.56692616,-0.29811821,0.557252,0.58233463,-0.28887394,0.551577,0.6093608,-0.29067977,0.56446,0.61536272,-0.29635529,0.60485,0.61769836,-0.25920023,0.559757,0.64308179,-0.25007372,0.560069,0.65986924,-0.24379804,0.560291,0.62148669,-0.27870055,0.613671,0.61934095,-0.24418254,0.569382,0.61781958,-0.2404187,0.569628,0.6303459,-0.24982605,0.587609,0.6351059,-0.26254937,0.63035,0.63524461,-0.25082984,0.59251,0.65362573,-0.24993251,0.591866,0.68438234,-0.25788203,0.604935
0.73067504,-0.32578628,0.682816,0.67617749,-0.31136602,0.644266,0.71801815,-0.33691295,0.666055,0.70328845,-0.31407156,0.634374,0.69333215,-0.28935652,0.608773,0.68061155,-0.26556456,0.591989,0.61076248,-0.31083159,0.591106,0.55996819,-0.2951992,0.550678,0.57137099,-0.28419369,0.541481,0.59529094,-0.28474079,0.55173,0.60843455,-0.29252747,0.597594,0.61010684,-0.25629307,0.553052,0.64248196,-0.25055768,0.559327,0.66406717,-0.25109321,0.563809,0.61345286,-0.27590312,0.606005,0.61164507,-0.24113082,0.562253,0.61604767,-0.23971758,0.567592,0.6278786,-0.24962744,0.585591,0.62502575,-0.26355848,0.621874,0.62643498,-0.24692622,0.58409,0.64881475,-0.24811411,0.587386,0.67923941,-0.2578219,0.601962
0.74404934,-0.33251664,0.695383,0.68812038,-0.31708927,0.655377,0.72935426,-0.34330558,0.67705,0.71477731,-0.31914175,0.644927,0.70811223,-0.29543424,0.621675,0.69879657,-0.27211364,0.607685,0.61908805,-0.31544067,0.599057,0.56801788,-0.29839392,0.55798,0.58335459,-0.28913085,0.552251,0.61063383,-0.29091588,0.565181,0.61878636,-0.29548573,0.606943,0.61987814,-0.26043787,0.562141,0.64680154,-0.25075767,0.563275,0.66395325,-0.24770979,0.564085,0.62382142,-0.28035663,0.616622,0.62244992,-0.24521201,0.572247,0.62229935,-0.24200402,0.573175,0.63364591,-0.25185631,0.591464,0.63831087,-0.26455995,0.63422,0.63959451,-0.25162972,0.596322,0.65765425,-0.2525953,0.59621,0.67605502,-0.26417967,0.609505
0.74218382,-0.33162567,0.693782,0.6868178,-0.31653883,0.654103,0.72691404,-0.3426696,0.675416,0.71239146,-0.31808715,0.642997,0.70605848,-0.29459219,0.619924,0.69703195,-0.27111973,0.606194,0.61730114,-0.31476247,0.598019,0.56671049,-0.29759618,0.556899,0.58321219,-0.28892312,0.552306,0.6110497,-0.29116074,0.565996,0.61676005,-0.29579063,0.606065,0.61372349,-0.25969125,0.561315,0.64326875,-0.25426116,0.563367,0.6818615,-0.25830085,0.580199,0.62245493,-0.27992688,0.615848,0.62136937,-0.24476816,0.571462,0.6223348,-0.24197828,0.573171,0.63355052,-0.25189808,0.591776,0.63707117,-0.26420141,0.633523,0.63866182,-0.2509894,0.595565,0.65696227,-0.25258813,0.596056,0.66957177,-0.26474988,0.609606
0.74144497,-0.33160466,0.693343,0.68631947,-0.31622615,0.653844,0.72546309,-0.34275074,0.674915,0.71078969,-0.31713029,0.642335,0.70521092,-0.29422654,0.619421,0.69586294,-0.27076346,0.60591,0.61520479,-0.31402732,0.597836,0.56570918,-0.29696165,0.556694,0.58289127,-0.28866469,0.552748,0.61106449,-0.29117542,0.566851,0.61636896,-0.29450156,0.606024,0.61176472,-0.2589081,0.561342,0.64211917,-0.25351374,0.56374,0.67862393,-0.25811797,0.580656,0.62172058,-0.27950833,0.61591,0.6210707,-0.2445701,0.571539,0.62206576,-0.24193046,0.57354,0.62855201,-0.25369186,0.592256,0.6365453,-0.26381907,0.633679,0.63884959,-0.24832511,0.59572,0.656756,-0.25259322,0.596439,0.66939256,-0.26452367,0.610077
0.7410798,-0.33160856,0.693403,0.68564243,-0.31589182,0.653932,0.72459219,-0.34274121,0.674929,0.71035426,-0.31692464,0.642305,0.70490354,-0.29434098,0.619598,0.69588353,-0.27041212,0.606301,0.61463153,-0.31376137,0.597892,0.56523115,-0.29663822,0.556743,0.58274206,-0.2885245,0.553104,0.61104704,-0.2911722,0.567396,0.61591331,-0.29426449,0.606147,0.61126073,-0.25871013,0.56149,0.64173738,-0.25326442,0.563869,0.67846039,-0.25779728,0.580769,0.62136646,-0.27929023,0.616085,0.62080933,-0.24441656,0.571717,0.62193311,-0.24198846,0.573701,0.62869562,-0.25350047,0.592409,0.63632553,-0.26361848,0.633913,0.6386382,-0.24819406,0.595962,0.65653654,-0.25257207,0.596667,0.66928547,-0.26440359,0.610297
0.7412028,-0.33193451,0.693915,0.68545347,-0.31594451,0.654468,0.72430433,-0.34310847,0.67545,0.71095558,-0.31758878,0.642815,0.70749951,-0.29537731,0.620873,0.69978183,-0.26952897,0.608246,0.61478866,-0.31418929,0.598459,0.56548491,-0.2971071,0.557316,0.58298936,-0.2889695,0.553669,0.61122264,-0.2915984,0.567954,0.61604723,-0.29469022,0.606712,0.6118438,-0.25940796,0.562058,0.64226677,-0.25401799,0.564514,0.67991225,-0.25880728,0.581437,0.62148423,-0.27970569,0.616647,0.62095092,-0.24461214,0.572281,0.62173534,-0.24244375,0.57433,0.62765763,-0.25415756,0.593064,0.63642779,-0.2640047,0.634466,0.63871872,-0.24910275,0.596512,0.65673112,-0.25292628,0.597268,0.66958712,-0.26484947,0.610919
0.74129638,-0.33255179,0.694315,0.68524584,-0.31628301,0.654905,0.72397433,-0.34376261,0.675854,0.71183143,-0.31863229,0.643198,0.70886329,-0.2960155,0.621714,0.70132622,-0.27004746,0.609486,0.61491128,-0.31490394,0.598932,0.56578803,-0.29896595,0.557781,0.58323179,-0.29077562,0.554083,0.61128726,-0.29229654,0.568343,0.61619308,-0.29540059,0.607192,0.61321601,-0.26176839,0.562546,0.64333646,-0.25661292,0.565101,0.67924166,-0.25992479,0.582052,0.62165053,-0.28040769,0.61713,0.62110904,-0.24508306,0.572769,0.62112211,-0.24352955,0.574902,0.6273774,-0.25511932,0.593667,0.63681256,-0.26607636,0.634948,0.63910875,-0.25021313,0.596992,0.65676655,-0.25370393,0.597813,0.67000416,-0.26578161,0.61149
0.74166088,-0.33315334,0.695018,0.68530994,-0.31672177,0.655646,0.72409807,-0.34447772,0.676677,0.71248827,-0.31930932,0.644066,0.71065682,-0.29690322,0.623239,0.70331476,-0.27101624,0.611518,0.61488203,-0.31714608,0.599851,0.56580925,-0.30045171,0.558727,0.58322647,-0.29230844,0.555007,0.61182993,-0.2932909,0.569249,0.61603317,-0.29761068,0.607979,0.61350828,-0.2630026,0.563303,0.64318566,-0.25886465,0.566168,0.68022653,-0.2613486,0.583227,0.62209943,-0.282243,0.617805,0.62093768,-0.24682029,0.573453,0.62147722,-0.245762,0.575854,0.62832596,-0.2559089,0.594721,0.63730054,-0.2668476,0.635485,0.6393942,-0.25137625,0.597508,0.65498926,-0.25608022,0.598535,0.67059997,-0.26673103,0.612298
0.74212647,-0.33373215,0.695677,0.68536761,-0.31708858,0.656242,0.7245593,-0.34528435,0.677679,0.71376743,-0.32018031,0.645327,0.71045337,-0.30653787,0.622946,0.70454112,-0.28260756,0.60972,0.61669061,-0.31744437,0.600816,0.56159303,-0.30422686,0.559699,0.57456539,-0.2983869,0.556158,0.60956276,-0.29838032,0.570516,0.6173664,-0.29763121,0.6085,0.6141072,-0.26374436,0.5637,0.64505963,-0.25972833,0.566995,0.68203931,-0.26361764,0.584234,0.62233705,-0.28239796,0.617966,0.62112536,-0.24695678,0.573633,0.6248119,-0.24510761,0.576408,0.63291803,-0.25511726,0.595417,0.63674138,-0.26639822,0.635226,0.63899661,-0.2508723,0.59721,0.65645505,-0.2556738,0.598523,0.67068842,-0.26722308,0.612412
0.74414384,-0.3363993,0.698907,0.68496292,-0.32227176,0.658729,0.72715372,-0.34875925,0.681948,0.71128527,-0.3334877,0.650825,0.71083866,-0.31737677,0.628109,0.70678936,-0.29359101,0.613843,0.61578975,-0.32200833,0.603951,0.56166297,-0.30551916,0.562823,0.57378626,-0.29764812,0.554967,0.60433413,-0.29829793,0.566375,0.61657959,-0.30031604,0.610087,0.61821704,-0.27449753,0.564823,0.65028699,-0.27282368,0.567836,0.68497499,-0.28102879,0.585155,0.62199544,-0.28358176,0.618339,0.62447154,-0.25600236,0.57406,0.62781363,-0.25306428,0.576622,0.63787422,-0.2570701,0.595525,0.63614211,-0.26684328,0.634264,0.6411853,-0.25793139,0.596215,0.65504853,-0.26479001,0.597356,0.66793688,-0.2711658,0.61119
0.74602668,-0.33915719,0.702767,0.67386034,-0.32751671,0.662043,0.71516658,-0.36015397,0.687295,0.70347086,-0.34188494,0.657892,0.71049868,-0.32093402,0.63975,0.71140247,-0.30096103,0.628543,0.60044051,-0.32657927,0.608629,0.56455545,-0.30510274,0.567487,0.57086029,-0.29686409,0.553392,0.59415724,-0.2992288,0.558804,0.60599233,-0.30407256,0.612739,0.60797799,-0.28393705,0.567207,0.63990799,-0.28695885,0.570247,0.66933058,-0.29706097,0.587671,0.61504132,-0.28681759,0.619367,0.61780358,-0.26458622,0.575474,0.62551308,-0.26042183,0.578094,0.64092586,-0.26240559,0.596864,0.63457941,-0.26668175,0.633441,0.6343942,-0.26041291,0.595596,0.64969164,-0.2654034,0.596777,0.6665839,-0.27131552,0.610555
0.73792015,-0.34377966,0.70256,0.67133423,-0.32545063,0.661464,0.70496886,-0.35874791,0.687569,0.69686291,-0.34434022,0.658951,0.70502887,-0.32747366,0.639986,0.70691255,-0.31161693,0.627741,0.59163412,-0.3195418,0.608327,0.55489904,-0.29745677,0.567158,0.56029661,-0.29461049,0.553788,0.58432767,-0.30253769,0.560036,0.60126662,-0.29722394,0.61171,0.60213024,-0.28537245,0.566123,0.63233105,-0.2927858,0.568406,0.6609203,-0.30462583,0.585612,0.61360577,-0.28319519,0.617771,0.61628258,-0.26514799,0.574063,0.62384141,-0.26116269,0.576049,0.63793332,-0.26489787,0.594492,0.63244414,-0.26484151,0.631225,0.63359406,-0.26039884,0.593543,0.64778476,-0.26632632,0.594235,0.66198465,-0.27404982,0.607765
0.73108009,-0.34743779,0.703669,0.67129343,-0.32581434,0.662217,0.7043596,-0.35945932,0.688518,0.69769426,-0.34596815,0.660123,0.70059496,-0.33580969,0.639918,0.69497386,-0.32146623,0.622726,0.59154807,-0.3203189,0.608582,0.55490756,-0.29824666,0.567508,0.56058552,-0.2956481,0.554456,0.58491109,-0.30385061,0.56102,0.60138152,-0.29809446,0.612032,0.60217891,-0.2864389,0.566469,0.63075441,-0.29327514,0.56735,0.65878717,-0.30495814,0.584108,0.61399513,-0.28293542,0.618175,0.61660453,-0.26639363,0.574485,0.62338106,-0.26349255,0.575274,0.63685433,-0.26542245,0.593231,0.63379744,-0.26624951,0.631781,0.63469856,-0.26166076,0.594211,0.64894822,-0.26955271,0.593979,0.66332285,-0.27647033,0.607112
0.72982439,-0.34734118,0.70321,0.67043028,-0.32565326,0.661655,0.70319199,-0.35935102,0.688036,0.6973202,-0.34634061,0.659767,0.70325451,-0.33754367,0.642161,0.6952847,-0.32221827,0.622819,0.59081298,-0.32055104,0.607904,0.55427877,-0.29874934,0.566987,0.56008027,-0.29633399,0.554094,0.58450995,-0.30461535,0.56077,0.60070969,-0.29836156,0.611345,0.60147826,-0.28683066,0.565822,0.62945854,-0.29350075,0.566205,0.65729222,-0.30506086,0.582792,0.61338775,-0.28265068,0.617489,0.61592684,-0.26794734,0.573845,0.62323975,-0.26381202,0.574209,0.63862198,-0.26684758,0.591977,0.63363864,-0.26591911,0.631112,0.63438248,-0.26215973,0.593613,0.64831508,-0.26991431,0.593054,0.66305124,-0.27699809,0.606035
0.73469297,-0.33876949,0.693013,0.67432109,-0.32409307,0.656841,0.70241152,-0.35700745,0.681836,0.69695845,-0.35305941,0.655926,0.70071404,-0.3373061,0.636978,0.69175268,-0.32168842,0.618712,0.58191279,-0.3092101,0.612548,0.51618553,-0.27199831,0.573979,0.52811124,-0.27942199,0.57597,0.56048694,-0.29802976,0.593009,0.5949222,-0.28817004,0.61305,0.5896961,-0.28580847,0.570626,0.62710958,-0.30037199,0.581668,0.66401918,-0.31481836,0.600479,0.61105893,-0.27277096,0.616346,0.60822445,-0.26982417,0.576398,0.63133406,-0.27270744,0.585903,0.6589618,-0.27676898,0.60583,0.64074105,-0.25815283,0.625759,0.63167196,-0.26356386,0.590572,0.65320771,-0.27380314,0.597123,0.67173844,-0.28133666,0.612047
0.74020181,-0.34349404,0.688077,0.68047893,-0.32013953,0.653884,0.71566083,-0.35327752,0.678451,0.68818013,-0.36693536,0.654213,0.68234343,-0.36386488,0.63139,0.6650584,-0.35728924,0.612134,0.59099475,-0.30821687,0.613166,0.5285293,-0.27225726,0.577856,0.54128493,-0.28032802,0.580317,0.57335308,-0.29904744,0.596891,0.6033349,-0.28680212,0.612487,0.59839916,-0.28555535,0.571806,0.6374855,-0.30103499,0.5848,0.67700105,-0.31610838,0.603593,0.61882407,-0.27117018,0.614654,0.61813684,-0.26991156,0.576684,0.64059307,-0.27271754,0.58787,0.66544794,-0.2781673,0.60767,0.64755418,-0.25637994,0.622422,0.63820075,-0.26454375,0.588741,0.66054718,-0.27444548,0.596622,0.6845495,-0.28250939,0.611532
0.74189022,-0.34479329,0.68747,0.68018064,-0.32049176,0.653401,0.71482859,-0.35484961,0.678379,0.68845999,-0.36741823,0.654826,0.68243797,-0.36560377,0.632904,0.66449528,-0.3595252,0.61383,0.59088438,-0.30853424,0.613446,0.52984586,-0.27343706,0.579793,0.54203568,-0.28140858,0.581769,0.57057878,-0.29999545,0.597641,0.60264652,-0.28687174,0.612154,0.59771256,-0.2859168,0.571701,0.63683694,-0.30141826,0.584718,0.67542167,-0.31664956,0.603438,0.61764681,-0.27104494,0.613808,0.61391769,-0.26901055,0.57471,0.6382765,-0.27234055,0.585844,0.66378234,-0.27856858,0.606079,0.64577085,-0.25601871,0.620946,0.63651073,-0.26441691,0.587573,0.65891906,-0.27429316,0.595483,0.68289197,-0.28225292,0.610295
0.74686348,-0.34953039,0.688053,0.68409521,-0.3227632,0.656685,0.71501746,-0.35683221,0.678983,0.68884031,-0.36797984,0.655183,0.68002177,-0.36528145,0.631235,0.66278721,-0.35990077,0.613132,0.59640137,-0.31208255,0.619041,0.57939486,-0.31291836,0.58653,0.61358701,-0.32234734,0.598627,0.64385449,-0.32837434,0.616289,0.60902714,-0.29059919,0.61871,0.60643839,-0.29069732,0.580281,0.64855264,-0.3076252,0.595752,0.68749798,-0.32273772,0.614508,0.62459217,-0.27475803,0.620938,0.62248554,-0.27333377,0.583114,0.64949922,-0.27770774,0.596304,0.67792179,-0.28525318,0.616938,0.65307857,-0.25947919,0.628351,0.6454953,-0.26854708,0.596229,0.67001425,-0.27941668,0.605774,0.6920627,-0.28732998,0.620781
0.73459276,-0.34393729,0.675837,0.67823861,-0.32081258,0.653091,0.70597314,-0.35439205,0.671429,0.68170413,-0.36989943,0.653579,0.67342463,-0.37138929,0.631261,0.65617405,-0.36891424,0.614085,0.59295598,-0.30515335,0.628455,0.5900553,-0.31121819,0.603982,0.6230491,-0.32897733,0.619938,0.66214496,-0.34010291,0.63597,0.60497819,-0.28429309,0.625553,0.59702763,-0.29316288,0.595368,0.63584886,-0.31151402,0.615782,0.65205708,-0.31452932,0.634397,0.61981487,-0.26901897,0.624978,0.61626798,-0.27542514,0.597433,0.65650487,-0.28739472,0.614967,0.69045351,-0.29382047,0.633094,0.64703952,-0.25454856,0.627743,0.63642291,-0.26786771,0.602441,0.66719147,-0.28011347,0.615414,0.69570338,-0.29038907,0.629349
0.74212943,-0.35009997,0.675611,0.69586526,-0.33278031,0.659876,0.71309924,-0.36050367,0.666997,0.67776441,-0.37334941,0.644582,0.65716703,-0.36467667,0.617521,0.63584829,-0.35935798,0.599521,0.61236385,-0.31855378,0.636001,0.61079453,-0.31733965,0.612767,0.64022878,-0.33241558,0.630526,0.67435829,-0.34763103,0.646789,0.63071202,-0.30022402,0.640826,0.63137722,-0.29789916,0.616172,0.68157508,-0.31973572,0.639171,0.70345501,-0.33011377,0.65656,0.65032358,-0.28688555,0.64605,0.58257182,-0.26668027,0.62122,0.5910124,-0.26878278,0.621507,0.63034115,-0.28142392,0.639472,0.68238085,-0.27454821,0.654661,0.67264432,-0.28257475,0.632023,0.69913664,-0.30279127,0.646687,0.72357543,-0.32132905,0.66034
0.74654645,-0.36254711,0.66641,0.69807544,-0.33602514,0.650752,0.71327184,-0.36765555,0.65835,0.66486406,-0.37739555,0.636552,0.64067118,-0.37912332,0.62053,0.61424231,-0.37511627,0.60821,0.61424279,-0.31305462,0.627621,0.60285748,-0.31369004,0.604787,0.62899714,-0.33021939,0.622681,0.66498092,-0.35022551,0.638841,0.63502133,-0.29701036,0.631794,0.62348256,-0.2955302,0.607283,0.67306232,-0.32357423,0.630438,0.69557628,-0.33366866,0.646572,0.65664923,-0.28587805,0.636477,0.58962865,-0.25951877,0.611982,0.57199029,-0.25355154,0.599449,0.59716529,-0.26558767,0.608643,0.69117585,-0.27685986,0.64443,0.6709631,-0.28578164,0.62203,0.69631046,-0.30684055,0.636808,0.7195484,-0.32605883,0.650422
0.74259793,-0.36442423,0.66193,0.7008895,-0.33803233,0.653446,0.71658877,-0.37192828,0.661274,0.66947666,-0.38318418,0.649732,0.63697666,-0.38169977,0.632544,0.60942603,-0.3763878,0.622454,0.63346033,-0.31625442,0.645471,0.6224592,-0.32199658,0.632276,0.64492591,-0.34061148,0.651889,0.67267559,-0.36271223,0.664931,0.6498217,-0.29871924,0.643175,0.63996155,-0.30295038,0.626846,0.68712116,-0.33320451,0.652066,0.7143123,-0.34404932,0.666574,0.66460655,-0.28747121,0.641962,0.63631981,-0.27037522,0.651417,0.63100843,-0.2701225,0.656254,0.66013427,-0.28882932,0.675706,0.69130708,-0.27623681,0.641804,0.67477874,-0.28804238,0.6272,0.70159136,-0.31062426,0.643562,0.72228432,-0.32952384,0.655046
0.74077151,-0.36571441,0.660112,0.70258077,-0.34161047,0.656559,0.70922864,-0.37300588,0.65307,0.66542324,-0.38223555,0.644778,0.63197927,-0.38011257,0.627773,0.60521385,-0.3748358,0.618349,0.62632922,-0.32886008,0.644909,0.61596328,-0.32660135,0.630769,0.64138194,-0.34083376,0.649867,0.6698588,-0.36246877,0.663076,0.64990803,-0.31374598,0.652257,0.64468834,-0.31248279,0.639781,0.69808544,-0.34027393,0.66464,0.72172865,-0.35193437,0.678093,0.67302098,-0.3028614,0.658586,0.62159297,-0.27531784,0.646675,0.61851915,-0.27537818,0.640581,0.63751653,-0.28298483,0.654323,0.7076585,-0.29327929,0.666666,0.6559368,-0.27714222,0.653195,0.63744103,-0.27079859,0.647005,0.62631046,-0.26640557,0.641544
0.73303847,-0.40067802,0.663918,0.69736091,-0.36589317,0.660335,0.69499056,-0.39645693,0.653228,0.65883039,-0.37601919,0.64787,0.62706673,-0.35727231,0.641985,0.61002799,-0.33961629,0.638799,0.62490521,-0.33105462,0.64418,0.62292028,-0.3258402,0.62803,0.6511307,-0.34143441,0.645397,0.66740704,-0.36158832,0.658708,0.65587835,-0.32554056,0.655996,0.6573078,-0.31617844,0.643388,0.70015201,-0.34919925,0.666142,0.7175047,-0.36911158,0.677844,0.68517933,-0.32115786,0.666004,0.66121664,-0.28882015,0.668711,0.66459159,-0.28045796,0.670097,0.68280712,-0.2784336,0.686462,0.72621067,-0.32061825,0.678471,0.72127459,-0.31614047,0.664123,0.72926387,-0.32384139,0.65753,0.74913885,-0.33632676,0.665461
0.78820022,-0.41473778,0.682963,0.74076543,-0.38517997,0.674906,0.76795521,-0.42312571,0.688211,0.75414212,-0.45341088,0.684605,0.76155782,-0.48540283,0.699767,0.76479295,-0.50602595,0.714148,0.67902479,-0.3715879,0.67454,0.63482216,-0.3538729,0.659178,0.61252202,-0.34495143,0.651497,0.62024755,-0.36099098,0.661726,0.68524403,-0.35062827,0.665151,0.67408107,-0.36845052,0.651009,0.72461995,-0.39115539,0.674327,0.74429587,-0.3911848,0.686762,0.69414861,-0.33544803,0.658068,0.67338669,-0.30422111,0.666076,0.66264448,-0.28809978,0.670173,0.65280888,-0.27335994,0.673897,0.71210771,-0.32138097,0.650852,0.6986469,-0.34244496,0.639632,0.71029504,-0.34529728,0.634477,0.7273791,-0.34271058,0.643603
0.78082244,-0.41490426,0.678108,0.73504947,-0.38540873,0.670919,0.75685573,-0.42170433,0.68004,0.75699664,-0.46779288,0.691661,0.77330533,-0.49660731,0.718336,0.7793468,-0.5193844,0.737418,0.66865428,-0.37249511,0.667217,0.62996575,-0.3511976,0.653345,0.61147651,-0.34107763,0.646408,0.59377883,-0.3313549,0.640102,0.68136987,-0.35086156,0.662216,0.63099479,-0.33318755,0.647789,0.601836,-0.32174441,0.639373,0.61286417,-0.33396932,0.651513,0.69436213,-0.33708738,0.658675,0.67487756,-0.30618527,0.667679,0.66479792,-0.29023963,0.672285,0.65557167,-0.27566593,0.676473,0.71712085,-0.3246321,0.655546,0.70248531,-0.33847527,0.643055,0.71274708,-0.34583387,0.637317,0.73038716,-0.34571892,0.646959
0.72195508,-0.43674809,0.685953,0.70816286,-0.39377514,0.684043,0.70407048,-0.43198439,0.692155,0.68036814,-0.40371385,0.690585,0.65952193,-0.3793121,0.689749,0.65024489,-0.3601706,0.690832,0.67639271,-0.35440739,0.690044,0.65741413,-0.35738452,0.686362,0.64685937,-0.36129121,0.685273,0.63786271,-0.35829987,0.685197,0.69210207,-0.34400837,0.68173,0.66688706,-0.33512471,0.673612,0.6514471,-0.32973623,0.668876,0.66386841,-0.35280729,0.682341,0.70634553,-0.33860385,0.675043,0.70823733,-0.30916612,0.690963,0.70456698,-0.29350788,0.699109,0.70089762,-0.27873948,0.706514,0.72587651,-0.33831145,0.667365,0.70447961,-0.34010611,0.660675,0.7159667,-0.35104774,0.657601,0.73956163,-0.36082141,0.668556
0.70748429,-0.42980605,0.675255,0.70263635,-0.39064376,0.678145,0.69119534,-0.42439043,0.681533,0.66453425,-0.39408266,0.680805,0.64715148,-0.36987152,0.682048,0.64008228,-0.35211197,0.684719,0.68501136,-0.35349455,0.688295,0.66617601,-0.34977121,0.687771,0.65723253,-0.3571506,0.687509,0.66422055,-0.3743199,0.703174,0.70213996,-0.34610664,0.681643,0.68480284,-0.30239851,0.678165,0.67487693,-0.27747393,0.676136,0.6806124,-0.27315281,0.69033,0.71670963,-0.34286791,0.67594,0.71482844,-0.31298494,0.690983,0.71076958,-0.29738734,0.698679,0.70677074,-0.28272984,0.705676,0.7349159,-0.34462087,0.668707,0.71364328,-0.33997036,0.66535,0.72243429,-0.35337814,0.663808,0.74794021,-0.36627103,0.676016
0.70226079,-0.43318809,0.682108,0.70981536,-0.39620117,0.686681,0.6833021,-0.42188685,0.691069,0.66540103,-0.39168365,0.694388,0.6477708,-0.36397487,0.694245,0.64113619,-0.34178747,0.692096,0.70631467,-0.35774545,0.701547,0.70690034,-0.31865528,0.704332,0.70716878,-0.29867341,0.705724,0.71840598,-0.28504435,0.718082,0.72226982,-0.35732121,0.692217,0.72038489,-0.32965055,0.691272,0.71924217,-0.31216487,0.690722,0.72942728,-0.3264918,0.705838,0.73445607,-0.35956849,0.684176,0.73517158,-0.33799099,0.685934,0.72883492,-0.35349887,0.686833,0.74233139,-0.3839482,0.704077,0.74731057,-0.36728277,0.673901,0.73797805,-0.35347481,0.673218,0.73356326,-0.35842732,0.672904,0.75252436,-0.38169792,0.685307
0.68777051,-0.43251336,0.681504,0.70472718,-0.39975245,0.687208,0.67936293,-0.42147264,0.690774,0.66612277,-0.38979042,0.694729,0.65702095,-0.36320488,0.700972,0.65752757,-0.34654492,0.706036,0.70903765,-0.36095453,0.703412,0.71842625,-0.32465438,0.706991,0.72276623,-0.30483043,0.708781,0.73952438,-0.2915187,0.722894,0.72508823,-0.36568399,0.694114,0.72682283,-0.34166937,0.694382,0.7279135,-0.32634622,0.694538,0.73731619,-0.34125977,0.709944,0.73619867,-0.37005694,0.686009,0.74772423,-0.32957428,0.688044,0.75128281,-0.31536603,0.689086,0.76849079,-0.3240324,0.70637,0.7468941,-0.37981846,0.675488,0.74195192,-0.36515577,0.675776,0.7412064,-0.37084208,0.675908,0.75697198,-0.39427159,0.688553
0.68254636,-0.43231766,0.679363,0.70355358,-0.40526222,0.689129,0.67506696,-0.42046116,0.688525,0.66406137,-0.38957909,0.69315,0.64622786,-0.36196137,0.69191,0.64165058,-0.34210814,0.692874,0.71803928,-0.37012759,0.708631,0.73034158,-0.33316922,0.715057,0.73659197,-0.31399963,0.71827,0.74879486,-0.29696821,0.729698,0.73389239,-0.37626527,0.700952,0.7448891,-0.35958463,0.705047,0.75173456,-0.34864317,0.707436,0.76898798,-0.37093169,0.723999,0.74496725,-0.38337222,0.693855,0.76972442,-0.34524843,0.698189,0.77900659,-0.33048148,0.700407,0.79580692,-0.34270744,0.718516,0.75447827,-0.39583766,0.683918,0.75946887,-0.37409807,0.687057,0.76181446,-0.36350381,0.6885,0.77705127,-0.37551419,0.702046
0.68134899,-0.43310307,0.679688,0.7034055,-0.40604074,0.689225,0.67421217,-0.42073279,0.688706,0.66364649,-0.38986487,0.693026,0.64682337,-0.36197625,0.692376,0.64303092,-0.34290006,0.6945,0.71784852,-0.36970257,0.708359,0.72983661,-0.33263423,0.714512,0.73592832,-0.31341281,0.717588,0.75004954,-0.29784964,0.73016,0.73380124,-0.3758954,0.700772,0.74458262,-0.35934528,0.704752,0.7512964,-0.34849246,0.707074,0.76474923,-0.36810951,0.723648,0.744979,-0.3830708,0.69377,0.76934817,-0.3447617,0.697753,0.77839629,-0.32997787,0.699791,0.79508345,-0.34227501,0.717839,0.75464629,-0.39566062,0.68398,0.7597544,-0.37227255,0.686873,0.76216299,-0.36090148,0.688202,0.777967,-0.36854772,0.701714
0.68338741,-0.43542731,0.680494,0.70507526,-0.40894597,0.689147,0.67451067,-0.42119496,0.687528,0.6612367,-0.39203931,0.689784,0.63844589,-0.36104374,0.683626,0.63392498,-0.34011125,0.685288,0.71487963,-0.36530932,0.705097,0.72606587,-0.32918331,0.708924,0.73591685,-0.30762306,0.710837,0.74865825,-0.29632285,0.724727,0.73340532,-0.37543179,0.699622,0.7630074,-0.34937908,0.700444,0.77981065,-0.33514655,0.700923,0.80105414,-0.34764965,0.717104,0.74613022,-0.38412325,0.694428,0.76682189,-0.34438068,0.696434,0.77652071,-0.32923945,0.697461,0.80700933,-0.34459953,0.715416,0.757921,-0.39951409,0.686928,0.78624471,-0.3787831,0.688025,0.79746799,-0.36998488,0.688529,0.80984608,-0.37989399,0.701711
0.69292404,-0.44197976,0.689161,0.70513999,-0.40924471,0.688657,0.68167407,-0.42575333,0.693964,0.6608479,-0.39250976,0.690812,0.63184587,-0.36054014,0.677972,0.62583996,-0.33715288,0.677506,0.70317477,-0.36035393,0.694129,0.70552814,-0.31964839,0.690214,0.70787424,-0.29949278,0.688256,0.72357496,-0.2862446,0.700515,0.72039494,-0.36952766,0.688047,0.73752889,-0.33783959,0.678867,0.74790788,-0.31999512,0.673511,0.76773873,-0.329155,0.687189,0.73290261,-0.37838393,0.683083,0.74101263,-0.33558691,0.676438,0.74886009,-0.31757499,0.673038,0.77746308,-0.31311986,0.688602,0.74614435,-0.39388784,0.677245,0.76392828,-0.36835429,0.669935,0.77120483,-0.35688744,0.666576,0.78324919,-0.36378209,0.677794
0.69481988,-0.44401552,0.690817,0.70488852,-0.40947262,0.688147,0.68460344,-0.42804939,0.696637,0.66327175,-0.39797368,0.694429,0.63162997,-0.36433669,0.681889,0.62573879,-0.34248015,0.678962,0.70318455,-0.36078037,0.693038,0.70227081,-0.31917583,0.688565,0.70332363,-0.29925607,0.686328,0.7196398,-0.28692236,0.70047,0.71694191,-0.36832351,0.684916,0.73151572,-0.33358093,0.673317,0.73943684,-0.31271237,0.666552,0.75802871,-0.32378389,0.679093,0.72781064,-0.37607964,0.678446,0.73946027,-0.34477375,0.665194,0.74628675,-0.32761742,0.658414,0.7742803,-0.32264032,0.671452,0.73925653,-0.39081651,0.671142,0.75430388,-0.36277748,0.661268,0.75990922,-0.35089585,0.656732,0.77063673,-0.35784871,0.666921
0.68671503,-0.44242326,0.684887,0.69736618,-0.41021978,0.682694,0.68099477,-0.42725361,0.693839,0.66215795,-0.39959752,0.696247,0.63464684,-0.36485026,0.683885,0.62767302,-0.34486929,0.682288,0.69995872,-0.36146955,0.691833,0.70349935,-0.32103748,0.69035,0.7060358,-0.30111669,0.689609,0.71865633,-0.28659771,0.700047,0.71056295,-0.36748572,0.680038,0.72461999,-0.32966407,0.668894,0.73031735,-0.304023,0.662392,0.74726048,-0.30731789,0.673933,0.71792622,-0.37455563,0.67051,0.72882249,-0.34012641,0.656077,0.73491864,-0.32198869,0.648692,0.76138066,-0.31469632,0.660149,0.72401424,-0.38989913,0.659489,0.73545897,-0.36545847,0.648443,0.74118753,-0.35387205,0.643368,0.74632167,-0.35654814,0.652365
0.68287259,-0.44147154,0.681825,0.69115396,-0.41091429,0.679888,0.67589188,-0.42642679,0.690158,0.65414163,-0.39853917,0.691669,0.6314665,-0.36478794,0.682739,0.6267297,-0.34552804,0.682403,0.69461118,-0.36271442,0.688484,0.69761137,-0.3216848,0.686608,0.69942299,-0.30133062,0.68567,0.70624401,-0.29150225,0.686595,0.70639403,-0.36846486,0.677544,0.71892686,-0.32724632,0.66666,0.7265835,-0.30276367,0.66031,0.74344461,-0.30581951,0.672241,0.71482881,-0.37573036,0.668697,0.72675171,-0.33893914,0.654775,0.73298533,-0.32028792,0.647652,0.75962116,-0.30999713,0.659611,0.72294905,-0.38940486,0.65845,0.73513623,-0.36423156,0.647031,0.74119346,-0.35232523,0.641785,0.7653461,-0.34812407,0.650965
0.67662665,-0.44127928,0.678157,0.68670901,-0.41014849,0.67715,0.66851221,-0.42631743,0.686551,0.64988736,-0.39715381,0.688257,0.6248594,-0.36259792,0.677657,0.62242321,-0.34353996,0.679028,0.68999595,-0.36373845,0.686606,0.69379212,-0.32255099,0.685001,0.69631177,-0.30197896,0.684199,0.70115929,-0.2916454,0.683469,0.70228644,-0.36929439,0.675932,0.71653529,-0.32727955,0.666031,0.72459663,-0.30281088,0.660255,0.74168624,-0.30545374,0.672569,0.71110072,-0.37637902,0.66723,0.72273802,-0.33863254,0.654327,0.7291103,-0.31881934,0.647726,0.75798584,-0.31012551,0.66012,0.71955076,-0.38978389,0.657014,0.73342946,-0.36440089,0.64647,0.73859704,-0.35310243,0.641625,0.76290363,-0.34900901,0.651109
0.62896107,-0.44760513,0.647325,0.65501348,-0.41463385,0.652131,0.62573581,-0.4316908,0.656445,0.61883901,-0.3979722,0.660228,0.6142205,-0.37004613,0.66468,0.62089068,-0.35587596,0.672906,0.67304847,-0.36781719,0.667391,0.68854211,-0.3379495,0.677842,0.69732217,-0.32019505,0.683068,0.7054491,-0.30388132,0.687818,0.68622521,-0.37527429,0.657949,0.70694618,-0.33424029,0.654313,0.72248695,-0.30989083,0.652192,0.72337779,-0.29603444,0.650677,0.69494717,-0.38393407,0.649797,0.71776978,-0.34503175,0.645206,0.72908736,-0.32244759,0.642858,0.73853053,-0.30669335,0.640722,0.70141853,-0.39909927,0.639356,0.72357677,-0.3675982,0.63598,0.73145642,-0.3504253,0.63443,0.7421351,-0.3395569,0.633061
0.63756237,-0.45162598,0.651869,0.66082289,-0.41655998,0.655184,0.6333454,-0.43579898,0.66076,0.6254721,-0.4042302,0.663782,0.61677556,-0.37786809,0.668608,0.62087606,-0.35906893,0.674593,0.67536003,-0.36785627,0.668904,0.68587439,-0.33464684,0.675636,0.69076746,-0.31359421,0.679002,0.69770055,-0.3000877,0.682063,0.68873279,-0.37457653,0.659198,0.70742244,-0.33241929,0.653937,0.7201839,-0.30648446,0.650868,0.72206319,-0.29442427,0.648676,0.69778694,-0.38278175,0.650948,0.71837792,-0.34275799,0.644426,0.72760946,-0.32024199,0.641089,0.73580795,-0.30556919,0.638055,0.70720841,-0.3954931,0.640616,0.72418254,-0.36602331,0.635652,0.73315955,-0.35123223,0.633372,0.74049641,-0.33821202,0.63136
0.63963884,-0.45240752,0.652578,0.66166066,-0.41648429,0.655118,0.63596771,-0.43722688,0.662294,0.62896379,-0.40576891,0.666407,0.615732,-0.37414661,0.665904,0.61910275,-0.35774733,0.671844,0.6759083,-0.36763493,0.669195,0.68103088,-0.32991579,0.671323,0.68408941,-0.31039756,0.672387,0.687031,-0.29624621,0.673354,0.68808961,-0.37344086,0.658193,0.70609778,-0.33094846,0.652399,0.71797933,-0.30540126,0.649019,0.72032338,-0.29307839,0.646605,0.69617628,-0.38091534,0.648939,0.71579769,-0.34056776,0.641617,0.7245514,-0.31861307,0.63787,0.73197633,-0.30394038,0.634465,0.70380193,-0.39350406,0.637528,0.71963668,-0.36379163,0.631866,0.7262652,-0.3500378,0.629264,0.7325388,-0.33802114,0.626968
0.63844779,-0.45185205,0.64964,0.66314746,-0.41715432,0.653587,0.63349189,-0.43602453,0.658186,0.62469023,-0.40384005,0.660812,0.61564528,-0.37556269,0.662375,0.61885954,-0.35992575,0.670358,0.67504641,-0.36847387,0.667417,0.68765521,-0.33805621,0.676493,0.69481886,-0.31989701,0.681031,0.70063863,-0.30218319,0.685156,0.68921893,-0.37457647,0.658366,0.70821746,-0.33344025,0.653808,0.72067358,-0.30841662,0.651149,0.72535861,-0.29374041,0.64925,0.69903581,-0.38282979,0.650605,0.72097386,-0.34301074,0.643685,0.73349677,-0.32501042,0.640145,0.74287996,-0.30678512,0.636926,0.70858178,-0.39710948,0.640759,0.73182941,-0.36781781,0.636309,0.73700915,-0.35369194,0.634264,0.74313809,-0.34001585,0.632459
0.64056152,-0.45294983,0.65015,0.66437394,-0.41777042,0.653659,0.63481105,-0.43678497,0.658068,0.62666412,-0.40659532,0.659728,0.61497039,-0.37706177,0.659876,0.61742857,-0.35898998,0.666489,0.67460807,-0.36763502,0.666346,0.68916471,-0.33620494,0.678107,0.69799097,-0.32107305,0.683987,0.70533735,-0.3053647,0.689333,0.69044583,-0.37438065,0.657907,0.70777505,-0.33244739,0.652896,0.71880578,-0.30780114,0.649973,0.72242339,-0.29804561,0.647885,0.70111741,-0.38263978,0.650684,0.72206106,-0.34313954,0.643618,0.73245718,-0.32259469,0.640003,0.74358725,-0.30577913,0.636716,0.71048159,-0.39780123,0.641546,0.73314574,-0.36703305,0.636817,0.74154145,-0.35398623,0.634645,0.74470546,-0.34049187,0.632728
0.64364355,-0.45486383,0.652185,0.66574308,-0.4185198,0.654303,0.63702401,-0.43820403,0.659366,0.62663055,-0.40682676,0.659766,0.61414329,-0.37706454,0.661179,0.61609097,-0.35920387,0.666695,0.67369398,-0.36708235,0.664912,0.68752545,-0.33452239,0.675838,0.69478074,-0.31760901,0.681301,0.70229211,-0.30160589,0.686268,0.68992464,-0.37398755,0.656869,0.70555424,-0.33117322,0.650375,0.71618638,-0.30871127,0.646587,0.71607922,-0.29712604,0.643881,0.7010879,-0.38243612,0.650082,0.7201567,-0.34169144,0.641953,0.72990527,-0.32091496,0.637794,0.7386415,-0.30421956,0.634014,0.71131697,-0.39799114,0.641675,0.73249861,-0.36613158,0.635929,0.73829007,-0.35283317,0.633289,0.74314417,-0.33932038,0.630959
0.64236269,-0.45373599,0.650743,0.6651674,-0.41794253,0.653611,0.63647011,-0.43747428,0.658545,0.62548515,-0.4044107,0.65994,0.61505337,-0.37397133,0.660888,0.61694431,-0.35808068,0.66727,0.67561267,-0.36746564,0.665616,0.69074284,-0.33590383,0.677166,0.69855751,-0.31895327,0.682941,0.70521487,-0.30377789,0.688191,0.69062308,-0.37414941,0.657084,0.70926254,-0.3328838,0.651376,0.72022246,-0.30997065,0.648047,0.7231663,-0.29262944,0.645669,0.70118606,-0.38245673,0.649835,0.72286876,-0.34351606,0.64193,0.73318676,-0.32319313,0.637886,0.74243797,-0.30514244,0.63421,0.71049747,-0.39771554,0.640764,0.73225501,-0.36638975,0.635297,0.7405738,-0.35391794,0.632785,0.74803214,-0.34183758,0.630568
0.64277409,-0.45109767,0.651274,0.66571967,-0.41781874,0.65405,0.63732554,-0.43744835,0.659278,0.62567283,-0.40172092,0.660955,0.61650034,-0.37027808,0.660035,0.61752527,-0.35355632,0.666104,0.67877345,-0.3675748,0.666214,0.68742056,-0.33026316,0.669917,0.69064873,-0.31189541,0.671769,0.69985991,-0.29441143,0.673452,0.6920631,-0.37451639,0.657413,0.71159002,-0.33280262,0.651593,0.72435567,-0.31010155,0.648198,0.72887795,-0.29469098,0.645772,0.70170491,-0.38246864,0.649953,0.72387833,-0.3436357,0.642311,0.73454417,-0.32348109,0.638401,0.74415375,-0.30551011,0.634846,0.71054401,-0.3977162,0.640642,0.73221364,-0.36657357,0.634718,0.74374066,-0.35527197,0.631996,0.75268047,-0.34358451,0.629594
0.64349997,-0.45140228,0.65231,0.66644301,-0.41767808,0.654748,0.63811104,-0.43517127,0.660338,0.62840758,-0.39876409,0.662871,0.61535502,-0.36800749,0.66135,0.61827272,-0.35266365,0.666429,0.68292114,-0.3645487,0.666656,0.69892376,-0.33042611,0.673073,0.70592544,-0.31191029,0.676281,0.71236915,-0.29464532,0.679197,0.69441382,-0.37415794,0.657703,0.71658467,-0.33287972,0.651512,0.72743746,-0.309988,0.647901,0.730017,-0.29484557,0.645322,0.70376406,-0.38322536,0.650144,0.72518956,-0.34328786,0.642036,0.73811566,-0.32419594,0.637888,0.74853731,-0.30629686,0.634117,0.71094065,-0.39789958,0.640766,0.73442012,-0.36856171,0.63459,0.74388372,-0.35553587,0.631752,0.75247619,-0.34382648,0.629248
0.64511317,-0.45384793,0.651775,0.66873456,-0.41850563,0.654402,0.63969725,-0.43760332,0.659788,0.63075316,-0.40822515,0.662086,0.61702239,-0.37767683,0.66092,0.61706226,-0.35739729,0.665685,0.68127094,-0.36673889,0.666453,0.68726075,-0.32993312,0.66882,0.68985528,-0.31097232,0.670003,0.69018987,-0.29546237,0.671079,0.69500944,-0.37418854,0.657586,0.71521222,-0.33305248,0.651604,0.72574202,-0.30992141,0.648114,0.7302793,-0.29477351,0.645621,0.70491059,-0.38276769,0.650084,0.72728432,-0.34355577,0.641615,0.73924385,-0.32334653,0.637282,0.74683585,-0.3052673,0.633343,0.71328255,-0.39829053,0.640745,0.73738223,-0.36786797,0.634696,0.744461,-0.35563202,0.631916,0.75005323,-0.34318459,0.629464
