sluyters/QuantumLeap/backend/src/datasets/dynamic/HandGestureDataset_SHREC2017_csv/Gesture6/finger_1/subject_1_essai_3_skeletons_world.csv
Wrist_x,Wrist_y,Wrist_z,Palm_x,Palm_y,Palm_z,thumb_base_x,thumb_base_y,thumb_base_z,thumb_first_joint_x,thumb_first_joint_y,thumb_first_joint_z,thumb_second_joint_x,thumb_second_joint_y,thumb_second_joint_z,thumb_tip_x,thumb_tip_y,thumb_tip_z,index_base_x,index_base_y,index_base_z,index_first_joint_x,index_first_joint_y,index_first_joint_z,index_second_joint_x,index_second_joint_y,index_second_joint_z,index_tip_x,index_tip_y,index_tip_z,middle_base_x,middle_base_y,middle_base_z,middle_first_joint_x,middle_first_joint_y,middle_first_joint_z,middle_second_joint_x,middle_second_joint_y,middle_second_joint_z,middle_tip_x,middle_tip_y,middle_tip_z,ring_base_x,ring_base_y,ring_base_z,ring_first_joint_x,ring_first_joint_y,ring_first_joint_z,ring_second_joint_x,ring_second_joint_y,ring_second_joint_z,ring_tip_x,ring_tip_y,ring_tip_z,pinky_base_x,pinky_base_y,pinky_base_z,pinky_first_joint_x,pinky_first_joint_y,pinky_first_joint_z,pinky_second_joint_x,pinky_second_joint_y,pinky_second_joint_z,pinky_tip_x,pinky_tip_y,pinky_tip_z,
0.47389108,-0.4364493,0.58608,0.45394693,-0.3828994,0.568895,0.45023612,-0.42250588,0.583488,0.42885659,-0.39903762,0.58013,0.40340347,-0.37026356,0.567931,0.38845428,-0.35010787,0.55999,0.41422199,-0.32700412,0.552636,0.40142295,-0.27422589,0.530161,0.40474207,-0.27288871,0.534086,0.40778553,-0.27141142,0.537653,0.43306843,-0.32402813,0.549245,0.41404527,-0.3016313,0.524108,0.43230972,-0.34207313,0.545679,0.44523121,-0.3632152,0.561543,0.44919489,-0.32424441,0.547465,0.43770671,-0.29651619,0.522394,0.44850809,-0.32841263,0.54057,0.46285875,-0.35115017,0.557955,0.47220002,-0.33036994,0.547383,0.45236653,-0.32345113,0.527785,0.46094064,-0.34855214,0.541471,0.47047794,-0.36418843,0.553676
0.47467346,-0.43664484,0.586429,0.45423872,-0.38286924,0.569173,0.45050863,-0.42211465,0.583125,0.42845067,-0.3951183,0.578688,0.4024201,-0.36639969,0.565243,0.38860935,-0.34636347,0.558017,0.41580186,-0.32333338,0.552008,0.40236966,-0.27329255,0.52983,0.40558373,-0.27335,0.533152,0.40855908,-0.27327648,0.536173,0.43444742,-0.32325572,0.549441,0.41956858,-0.29525883,0.524324,0.43756189,-0.33379806,0.546068,0.44680197,-0.36138362,0.561978,0.45040845,-0.32455291,0.548343,0.43924599,-0.29699996,0.523565,0.45073301,-0.32904757,0.541902,0.46384674,-0.35215075,0.559232,0.47405649,-0.33147445,0.549093,0.45739365,-0.33297944,0.529088,0.47322526,-0.35728603,0.542858,0.4869972,-0.3711509,0.555238
0.4744628,-0.43620084,0.585898,0.4545163,-0.38233036,0.568641,0.45001771,-0.42102424,0.582027,0.42745688,-0.3931829,0.576743,0.40251541,-0.36344085,0.562859,0.38875407,-0.3412158,0.55511,0.41604451,-0.32213685,0.550796,0.40456221,-0.27168496,0.52851,0.40830864,-0.27345355,0.531849,0.41180587,-0.27506515,0.534884,0.43670904,-0.32123949,0.548907,0.42125642,-0.29496014,0.52387,0.4392951,-0.33355173,0.545744,0.44970744,-0.35788156,0.561666,0.45461204,-0.32347585,0.548367,0.44104258,-0.29719563,0.52389,0.45415904,-0.32925874,0.542348,0.46591792,-0.35452308,0.559606,0.4769829,-0.33226781,0.549789,0.45945396,-0.33343564,0.529502,0.47523341,-0.35782496,0.543334,0.48900449,-0.37180996,0.555837
0.47292999,-0.43451492,0.58408,0.46219644,-0.38205162,0.572163,0.44650934,-0.41634107,0.576952,0.41574824,-0.38024608,0.561734,0.38764464,-0.35253117,0.546589,0.37870968,-0.33261001,0.542107,0.43892167,-0.31575189,0.554511,0.42871079,-0.31059489,0.53805,0.44688485,-0.34134534,0.556214,0.46358582,-0.37028367,0.572726,0.4638623,-0.32351094,0.558536,0.45195426,-0.30809417,0.538509,0.46583789,-0.34621946,0.561779,0.46843088,-0.36804809,0.576327,0.48484232,-0.33280102,0.562545,0.47513591,-0.31464596,0.542461,0.48558659,-0.34578391,0.562075,0.4863262,-0.37141723,0.578021,0.51097447,-0.35006721,0.56881,0.49013417,-0.34787655,0.550334,0.49926911,-0.37360675,0.565014,0.51017377,-0.38721721,0.577209
0.47131272,-0.43241753,0.581766,0.46649291,-0.37723721,0.568138,0.44422669,-0.41245469,0.573053,0.41620051,-0.37320855,0.553235,0.38926682,-0.34700827,0.535275,0.37532402,-0.32555393,0.525781,0.43956013,-0.31133638,0.54728,0.42713413,-0.30025826,0.529038,0.44496551,-0.3309285,0.546619,0.45834749,-0.36187593,0.562602,0.46220256,-0.32007029,0.552555,0.45268043,-0.30533602,0.530755,0.4668255,-0.3420655,0.553286,0.46968626,-0.36715518,0.568244,0.48406781,-0.33011021,0.557693,0.47660404,-0.31257066,0.535564,0.4865747,-0.34374969,0.554536,0.48872325,-0.36869638,0.571051,0.51149874,-0.34843836,0.565525,0.48928725,-0.345829,0.545423,0.50133994,-0.37244395,0.559578,0.51380256,-0.38700054,0.572142
0.47038169,-0.43048906,0.579647,0.47109326,-0.37575468,0.565506,0.44580592,-0.40649592,0.571028,0.4222923,-0.37206228,0.551276,0.39611069,-0.34669532,0.534294,0.38308521,-0.3260554,0.523987,0.44448357,-0.309693,0.544367,0.42911532,-0.29077565,0.523822,0.44725357,-0.32091135,0.541262,0.46400182,-0.34968457,0.557116,0.47020764,-0.31824935,0.549335,0.45714818,-0.30356315,0.527073,0.47177811,-0.34025271,0.549552,0.47455193,-0.36676359,0.56466,0.4919658,-0.32828176,0.554251,0.47978803,-0.31355502,0.531801,0.48960023,-0.34535501,0.550736,0.49244222,-0.36892017,0.567365,0.51927093,-0.34662455,0.561876,0.49724129,-0.3437942,0.541482,0.50934525,-0.37041122,0.5556,0.517688,-0.38518959,0.568251
0.46884183,-0.42742081,0.575911,0.47390466,-0.37368792,0.562411,0.45222534,-0.40231111,0.56838,0.42286903,-0.37231822,0.549899,0.39669659,-0.34791643,0.534082,0.383586,-0.32778962,0.524103,0.44043073,-0.30921893,0.543067,0.42511844,-0.29321947,0.523208,0.44567876,-0.32162032,0.540976,0.46124974,-0.35252916,0.557129,0.46539502,-0.31655883,0.546975,0.4520815,-0.30248951,0.525441,0.46731291,-0.33965611,0.548341,0.47470507,-0.36638606,0.563318,0.48897025,-0.32516426,0.550982,0.47478498,-0.31063896,0.529554,0.48542368,-0.34264955,0.548862,0.49192901,-0.36789981,0.565227,0.51582755,-0.34189669,0.557433,0.49404679,-0.34025583,0.537819,0.50712882,-0.36709606,0.552236,0.51994866,-0.382407,0.56473
0.481019,-0.42280042,0.571785,0.47667796,-0.37105889,0.559094,0.45717477,-0.40071317,0.564641,0.43412506,-0.37726571,0.546654,0.40582663,-0.35598169,0.534347,0.38900371,-0.33517238,0.529073,0.44124818,-0.30867533,0.540829,0.42097616,-0.27619128,0.521319,0.44141826,-0.30228074,0.539252,0.46059207,-0.32764019,0.555555,0.46633047,-0.31457669,0.544581,0.45363025,-0.30197464,0.52384,0.47245281,-0.34015171,0.546977,0.48077618,-0.36603334,0.561742,0.48810907,-0.32109042,0.548411,0.47595153,-0.31058943,0.527763,0.48905771,-0.34364114,0.547273,0.49491623,-0.36835771,0.563404,0.51782297,-0.33306149,0.554554,0.49446083,-0.33598976,0.535583,0.50717232,-0.36249361,0.55017,0.51827401,-0.38084734,0.562503
0.48708328,-0.41884505,0.567901,0.4794876,-0.36606072,0.553938,0.46640972,-0.39810507,0.560324,0.43823179,-0.37309895,0.541759,0.40988135,-0.35171702,0.524729,0.39484844,-0.33310957,0.513675,0.43900938,-0.30533586,0.534182,0.4238185,-0.26491517,0.513846,0.43660143,-0.27766774,0.527028,0.45319982,-0.30641733,0.544677,0.46449814,-0.30872691,0.537971,0.45112818,-0.2980673,0.516006,0.47130423,-0.33690549,0.538806,0.4820396,-0.36227279,0.553907,0.48650736,-0.31443367,0.541906,0.47379759,-0.30652151,0.520125,0.48789174,-0.33945991,0.539351,0.49639589,-0.36542799,0.555827,0.51822026,-0.32544039,0.548328,0.49292639,-0.32953879,0.528408,0.50403113,-0.3549938,0.542755,0.51478165,-0.3756082,0.555329
0.49563222,-0.41688985,0.56762,0.48167883,-0.36226943,0.550943,0.4668677,-0.39584036,0.557422,0.44016185,-0.37093923,0.535762,0.41246901,-0.35008299,0.517432,0.39450781,-0.33134309,0.508841,0.43451374,-0.30017312,0.525975,0.41717953,-0.26418268,0.502637,0.43585122,-0.28208511,0.51898,0.45273569,-0.31048531,0.535029,0.461658,-0.30349048,0.531874,0.44839937,-0.29236532,0.507128,0.47441013,-0.32979478,0.528578,0.48159722,-0.35589552,0.544263,0.48534938,-0.30919541,0.537704,0.47233073,-0.30082057,0.512668,0.49166796,-0.3319462,0.530723,0.49718365,-0.35983356,0.548046,0.51657096,-0.32230347,0.546736,0.49674855,-0.32287509,0.524247,0.50916184,-0.34757958,0.537646,0.51659611,-0.37039776,0.550756
0.50054618,-0.41263766,0.564583,0.48027069,-0.35981395,0.547866,0.46936288,-0.39243355,0.552541,0.44168815,-0.37036476,0.528925,0.41337073,-0.3511084,0.509802,0.39443646,-0.33166026,0.501969,0.42821108,-0.29920453,0.520661,0.41170394,-0.26663467,0.496863,0.43068578,-0.27801193,0.512244,0.44887239,-0.30567559,0.528324,0.45657687,-0.30128649,0.528751,0.44933972,-0.30278863,0.503842,0.47440162,-0.34199638,0.524399,0.48517759,-0.3624756,0.539861,0.47898517,-0.30463995,0.536386,0.47244303,-0.29621399,0.51047,0.49067787,-0.32792948,0.527731,0.50127495,-0.35506821,0.545091,0.51230856,-0.31447066,0.547597,0.49730595,-0.3169492,0.524559,0.51223377,-0.34088801,0.537344,0.52222729,-0.36513953,0.55041
0.50183906,-0.41170695,0.563842,0.48041717,-0.35922464,0.547299,0.47028884,-0.39216295,0.551692,0.44089818,-0.36970235,0.527979,0.41225582,-0.35016141,0.508427,0.39319877,-0.33123619,0.499596,0.42708588,-0.29948814,0.520096,0.41139239,-0.2664329,0.496487,0.42913158,-0.2767636,0.510199,0.4483309,-0.30457717,0.526964,0.45547479,-0.30112899,0.528381,0.44914887,-0.30266002,0.503628,0.47417274,-0.34183138,0.524146,0.48488911,-0.36226007,0.53954,0.47878872,-0.304515,0.536166,0.47217386,-0.29546443,0.510329,0.49110775,-0.32710199,0.527553,0.50197729,-0.35432864,0.544867,0.51225336,-0.31443678,0.547538,0.49732776,-0.3169631,0.524582,0.51223186,-0.34088674,0.537342,0.5229526,-0.36404714,0.550369
0.50305015,-0.41123268,0.563569,0.48129111,-0.35919494,0.547504,0.47104411,-0.39186861,0.551033,0.44822134,-0.36820966,0.526972,0.42135388,-0.34725274,0.507912,0.40368476,-0.32921204,0.498346,0.42731141,-0.29982495,0.520207,0.41237165,-0.26503545,0.496628,0.42278277,-0.27127184,0.501674,0.44368385,-0.29721404,0.518408,0.45678822,-0.30174566,0.529134,0.45114427,-0.30321795,0.504817,0.47609503,-0.34229722,0.525155,0.48648299,-0.36263516,0.540335,0.48154764,-0.30582698,0.537418,0.47408403,-0.29584841,0.511767,0.49483956,-0.32586198,0.528827,0.50665906,-0.35412972,0.546,0.51432387,-0.31542763,0.549335,0.49994978,-0.31803756,0.526595,0.51486293,-0.34190259,0.539236,0.52693806,-0.36289715,0.552141
0.49878875,-0.40629418,0.557423,0.4800362,-0.3560137,0.544177,0.46854677,-0.38856675,0.546773,0.44494137,-0.36151895,0.524911,0.41870918,-0.33994129,0.507607,0.40122893,-0.32114012,0.498,0.42989504,-0.29867977,0.521296,0.41950107,-0.26884207,0.500704,0.41702537,-0.25513535,0.490407,0.43364907,-0.26934655,0.498439,0.45637459,-0.30073604,0.529032,0.459044,-0.29837316,0.507685,0.48417303,-0.33835613,0.529432,0.49093296,-0.36428709,0.54398,0.47983128,-0.30361733,0.536171,0.47897341,-0.29336327,0.513541,0.50452074,-0.32063655,0.531799,0.51453746,-0.35361558,0.548231,0.51194157,-0.31300655,0.546368,0.50308206,-0.31171941,0.525936,0.51756231,-0.33943585,0.539541,0.52737498,-0.36149589,0.552007
0.49801997,-0.40086545,0.552651,0.4794077,-0.34672915,0.539064,0.46682596,-0.38345955,0.541098,0.44264103,-0.35121256,0.518273,0.41531147,-0.32934848,0.499601,0.39692362,-0.3134448,0.489759,0.42627623,-0.28730972,0.514842,0.41674361,-0.25939694,0.49356,0.41216549,-0.24506973,0.48292,0.42774908,-0.26185322,0.490425,0.45413572,-0.28788265,0.523528,0.45588903,-0.2880362,0.50157,0.48129911,-0.32717813,0.522753,0.49013265,-0.35403279,0.537345,0.47858573,-0.29111954,0.53147,0.47752963,-0.28073003,0.508059,0.50190678,-0.30945273,0.525831,0.51293162,-0.34360921,0.542384,0.51118551,-0.30077776,0.542676,0.50154296,-0.30152097,0.52179,0.51699204,-0.32650001,0.535021,0.52798416,-0.34676798,0.547502
0.504044,-0.39197568,0.551269,0.48148159,-0.34016842,0.538691,0.47299593,-0.37662303,0.54057,0.44512402,-0.34964302,0.518724,0.41733626,-0.3283672,0.499344,0.40059706,-0.30992604,0.488154,0.42629165,-0.28780434,0.516262,0.41636243,-0.25924022,0.49632,0.40807645,-0.2423061,0.48635,0.42271428,-0.25510356,0.494566,0.4535719,-0.2867925,0.524309,0.45110575,-0.28069477,0.503337,0.48192868,-0.31822833,0.525094,0.49646055,-0.34248281,0.539509,0.47763269,-0.28861834,0.531666,0.47319399,-0.27648749,0.50937,0.49952561,-0.30272674,0.527636,0.51610301,-0.33707303,0.543935,0.50922379,-0.292308,0.542044,0.49862775,-0.29557073,0.522038,0.51604848,-0.31874184,0.535666,0.52921917,-0.34413076,0.54799
0.5156908,-0.39113603,0.560049,0.48584738,-0.34162728,0.542652,0.48431162,-0.37796235,0.548924,0.47012863,-0.35722097,0.535838,0.44266508,-0.33376068,0.513063,0.42851709,-0.3161778,0.503057,0.42724176,-0.29394951,0.516022,0.41070525,-0.25591263,0.492952,0.40274737,-0.23825806,0.481416,0.41764083,-0.24781912,0.488361,0.45234801,-0.28670823,0.522758,0.44780729,-0.26438744,0.498441,0.48359829,-0.29735205,0.519429,0.50262517,-0.32354065,0.534813,0.4750794,-0.286973,0.529319,0.47475531,-0.26633759,0.505824,0.50602799,-0.2891284,0.52355,0.52604747,-0.31939213,0.540119,0.50528818,-0.28999312,0.539318,0.49909513,-0.28619295,0.516101,0.51770701,-0.30614771,0.52913,0.52949775,-0.32966243,0.542353
0.52092675,-0.39292445,0.564456,0.48901718,-0.34330565,0.545671,0.48900882,-0.38026416,0.552739,0.47279192,-0.35926096,0.539365,0.44688963,-0.33640984,0.518903,0.43244767,-0.31825265,0.508874,0.42605905,-0.29711339,0.517272,0.41158003,-0.26496587,0.493321,0.40813721,-0.2502286,0.481346,0.41658006,-0.24645043,0.487737,0.45324013,-0.289581,0.524191,0.4458249,-0.26500818,0.498317,0.48122827,-0.29689724,0.518733,0.50100861,-0.32329006,0.5345,0.47593073,-0.28797779,0.530984,0.47320699,-0.26691969,0.506123,0.50382412,-0.28807841,0.523373,0.52544792,-0.3185871,0.540302,0.50640528,-0.29113162,0.541429,0.49489046,-0.29228319,0.517183,0.51151495,-0.31417495,0.529827,0.52603565,-0.33726295,0.543263
0.52408791,-0.38724932,0.564626,0.491382,-0.33142322,0.546249,0.49109472,-0.37552922,0.551792,0.46653359,-0.34630853,0.535932,0.4432709,-0.32414652,0.517214,0.42751837,-0.30498227,0.505942,0.42623891,-0.28675552,0.516826,0.40056676,-0.25055378,0.491611,0.39550078,-0.24070783,0.479004,0.41289415,-0.24510915,0.484684,0.45077659,-0.2789599,0.525235,0.44324368,-0.25591678,0.499079,0.47822943,-0.28577396,0.518928,0.49853104,-0.31190884,0.53462,0.47402806,-0.2773783,0.53323,0.47286046,-0.26701822,0.506218,0.50258297,-0.28879703,0.522887,0.52435778,-0.31946161,0.540453,0.50658899,-0.28085279,0.545075,0.49617451,-0.28324073,0.520787,0.51324391,-0.30394415,0.533072,0.5303574,-0.32952546,0.546383
0.52485598,-0.38556849,0.564702,0.49145307,-0.33147115,0.546328,0.49164279,-0.37395358,0.55174,0.46622195,-0.3460772,0.535574,0.44276353,-0.3237755,0.516622,0.42828299,-0.304363,0.504982,0.4259194,-0.28603326,0.516753,0.40038261,-0.2504386,0.491385,0.39524978,-0.24055506,0.4787,0.41190712,-0.24502889,0.484286,0.45084697,-0.27900345,0.525317,0.44316731,-0.25587268,0.498993,0.47806815,-0.28567759,0.518753,0.4983977,-0.31182541,0.534477,0.47421474,-0.27748754,0.53344,0.47263296,-0.26703659,0.506207,0.50211141,-0.28923833,0.522797,0.52371244,-0.31983271,0.540421,0.50692543,-0.28103931,0.545437,0.49649177,-0.28342184,0.52112,0.51329978,-0.30464991,0.533351,0.52907138,-0.32885058,0.546653
0.52541256,-0.38447887,0.5648,0.49150075,-0.33150331,0.546381,0.4920054,-0.37290028,0.551702,0.4660287,-0.34593375,0.535352,0.44247728,-0.32356614,0.516288,0.42840486,-0.30406258,0.504506,0.425646,-0.28554511,0.51661,0.40018706,-0.25031628,0.491145,0.39501199,-0.24041034,0.478412,0.41115841,-0.24492143,0.483914,0.45084869,-0.27900451,0.525319,0.44300123,-0.25577679,0.498806,0.47780182,-0.28551843,0.518464,0.49816271,-0.31167839,0.534225,0.47432409,-0.27755153,0.533563,0.47238049,-0.26698196,0.506076,0.50166875,-0.2894099,0.522576,0.52319608,-0.31997467,0.540267,0.50718194,-0.28118152,0.545713,0.49669661,-0.28353877,0.521335,0.51337624,-0.30491921,0.533504,0.52844705,-0.32852434,0.546802
0.53273838,-0.38542227,0.57179,0.49115029,-0.33111264,0.546607,0.49531688,-0.37378261,0.55487,0.47436022,-0.34607505,0.537173,0.44435149,-0.32202816,0.511725,0.42311624,-0.30028935,0.497078,0.41789569,-0.28484809,0.507085,0.38047077,-0.24495281,0.474819,0.37092836,-0.23082184,0.458686,0.38641737,-0.23249312,0.459699,0.44335125,-0.2758748,0.517811,0.41396445,-0.23958393,0.485251,0.44200964,-0.24745797,0.500503,0.47205912,-0.26263516,0.517068,0.46319616,-0.27543921,0.528111,0.45532402,-0.25267318,0.494334,0.48341588,-0.2707792,0.507087,0.50864889,-0.29975736,0.525821,0.49643089,-0.27697313,0.543552,0.48959541,-0.27939559,0.514274,0.50083812,-0.29666017,0.523462,0.51399992,-0.31273679,0.537329
0.52938869,-0.38148486,0.568059,0.4936419,-0.33250632,0.550036,0.49520584,-0.37247817,0.554519,0.46925954,-0.34590783,0.536395,0.44325368,-0.32303248,0.51511,0.42806854,-0.30376866,0.502788,0.42646255,-0.28758392,0.520039,0.39507837,-0.2539185,0.494269,0.38888862,-0.2421852,0.481385,0.40211359,-0.24495106,0.486637,0.44875475,-0.28294432,0.529427,0.42826442,-0.24946922,0.503275,0.42950327,-0.24263848,0.48802,0.44938468,-0.25215481,0.493955,0.47114291,-0.27926159,0.538206,0.46936356,-0.26206856,0.510998,0.50135859,-0.28248798,0.527295,0.52735706,-0.3140443,0.544791,0.50288526,-0.27973174,0.550954,0.50073262,-0.28526207,0.526728,0.51473379,-0.30323682,0.538739,0.52911399,-0.32007921,0.552563
0.53117591,-0.38451647,0.571658,0.47815858,-0.32794087,0.546723,0.49484782,-0.3710687,0.555278,0.4659829,-0.34519472,0.535748,0.43775513,-0.31890936,0.510025,0.42157785,-0.29857876,0.49524,0.40308729,-0.28163379,0.508036,0.37056146,-0.24408701,0.476868,0.36264003,-0.23222614,0.461284,0.37233178,-0.23390212,0.462958,0.42812832,-0.27529806,0.51821,0.4051151,-0.2439397,0.485837,0.40345333,-0.23712576,0.466953,0.42246971,-0.24309496,0.469197,0.45148202,-0.27260181,0.528042,0.44328061,-0.2547405,0.494617,0.47135847,-0.27331412,0.507852,0.49799484,-0.30141854,0.526636,0.48526694,-0.27464463,0.542889,0.47582758,-0.27499178,0.513839,0.4894416,-0.29278588,0.523401,0.50499436,-0.30996787,0.537333
0.52330389,-0.38189482,0.580033,0.47199083,-0.33640573,0.553971,0.48941609,-0.37573667,0.561148,0.46084432,-0.34874275,0.539109,0.43898258,-0.3212658,0.512132,0.4219382,-0.3006395,0.496119,0.39762304,-0.29064537,0.511424,0.3683639,-0.25284311,0.478724,0.3607511,-0.23867721,0.462374,0.36999537,-0.2346695,0.46178,0.42246481,-0.28469544,0.524168,0.40517699,-0.25314644,0.49107,0.40694272,-0.24558814,0.471763,0.42268082,-0.24965238,0.471974,0.44560295,-0.28227402,0.53618,0.442352,-0.26293315,0.501257,0.47011467,-0.27949576,0.511911,0.49849777,-0.30501084,0.530269,0.47900003,-0.28457008,0.55379,0.47449745,-0.28384791,0.52382,0.48516811,-0.3000367,0.531388,0.49876661,-0.316557,0.54487
0.49136587,-0.3734772,0.558349,0.45014334,-0.33042157,0.541401,0.45045853,-0.36402056,0.541851,0.43413453,-0.33134345,0.525527,0.40146506,-0.3026247,0.50435,0.38429003,-0.2809738,0.493334,0.38347495,-0.27825315,0.508688,0.36653289,-0.24543107,0.481171,0.36709159,-0.23818414,0.467413,0.38506388,-0.23760342,0.470478,0.41092637,-0.27750291,0.522021,0.37603119,-0.22847367,0.497074,0.38079013,-0.22184865,0.482522,0.39660862,-0.22400091,0.487096,0.43565942,-0.27946958,0.533981,0.44452364,-0.26591558,0.506307,0.47581268,-0.28318453,0.520278,0.50340173,-0.30865433,0.537034,0.4699121,-0.28723339,0.550433,0.47029248,-0.27910305,0.526481,0.48876703,-0.29547097,0.536741,0.50669316,-0.31135775,0.549149
0.48421021,-0.3728084,0.552667,0.44485192,-0.33151308,0.538321,0.44533217,-0.3632472,0.536412,0.43085502,-0.33102788,0.522973,0.39856366,-0.30224602,0.502446,0.38167363,-0.28112259,0.492438,0.37416356,-0.28670543,0.50789,0.35740808,-0.25171713,0.482146,0.36361032,-0.24214526,0.469274,0.37816652,-0.24055525,0.472879,0.40069189,-0.28550531,0.521915,0.36596167,-0.23809074,0.499488,0.3732089,-0.23015051,0.486405,0.39025747,-0.23132981,0.491679,0.42473003,-0.28690981,0.534292,0.43396392,-0.26915709,0.508699,0.46647326,-0.28237485,0.522802,0.49813618,-0.30799174,0.538771,0.45830297,-0.29357378,0.550934,0.45863852,-0.27818095,0.528806,0.47964972,-0.2941917,0.539213,0.49927398,-0.30993552,0.551036
0.47055995,-0.36366545,0.538626,0.43198259,-0.32223506,0.529429,0.43358091,-0.34922001,0.519946,0.41789962,-0.307142,0.499847,0.39205316,-0.2720722,0.47422,0.37899035,-0.24907806,0.463139,0.35743482,-0.28437822,0.500041,0.35341747,-0.24721922,0.477285,0.35716321,-0.23412911,0.465907,0.37256987,-0.2325598,0.466664,0.38491381,-0.2865966,0.518912,0.36823428,-0.2401689,0.502669,0.38395008,-0.23743068,0.493194,0.40352141,-0.23988727,0.496373,0.41005834,-0.29008351,0.534973,0.41576811,-0.25885916,0.513504,0.43584492,-0.25231855,0.522686,0.4624164,-0.26846667,0.535023,0.44564873,-0.29780078,0.555437,0.44920117,-0.27356648,0.537548,0.46967198,-0.28654524,0.54429,0.4889214,-0.30097609,0.5532
0.45410893,-0.33928101,0.516189,0.41790916,-0.3138751,0.515559,0.41815525,-0.32994193,0.500645,0.39913793,-0.29496848,0.488521,0.37508084,-0.25697817,0.463852,0.36713482,-0.23308906,0.45344,0.34732875,-0.28758375,0.496482,0.3499814,-0.25637531,0.480915,0.35443985,-0.2422713,0.473131,0.36710098,-0.23457893,0.476941,0.37581025,-0.28856594,0.514839,0.38406673,-0.26044891,0.506959,0.39797898,-0.27754708,0.502363,0.41585797,-0.29541788,0.508747,0.40386743,-0.28891148,0.529972,0.40703325,-0.25865182,0.516345,0.43001909,-0.25503523,0.527221,0.46102504,-0.2689635,0.537069,0.43852972,-0.29454186,0.54829,0.43882624,-0.27091329,0.536978,0.46187881,-0.28212869,0.545171,0.48041498,-0.29374497,0.552329
0.45311811,-0.33839401,0.515503,0.41663814,-0.31340607,0.514787,0.41650906,-0.32909975,0.499639,0.39596421,-0.29361607,0.485163,0.37089688,-0.25699485,0.461253,0.36310215,-0.23325536,0.450972,0.3468573,-0.28665995,0.495262,0.34959349,-0.25541337,0.479588,0.35407936,-0.24130498,0.471751,0.36646931,-0.23340856,0.475109,0.37557948,-0.28792278,0.513968,0.38408189,-0.25982239,0.506143,0.39794765,-0.27697417,0.501578,0.41544976,-0.29463075,0.50755,0.40292342,-0.28904653,0.529395,0.3978844,-0.25212208,0.515707,0.41547188,-0.24365926,0.525999,0.44284942,-0.25195347,0.535637,0.43818531,-0.29461408,0.548075,0.43928146,-0.27076117,0.536779,0.46193396,-0.28180831,0.544525,0.48026557,-0.29337997,0.551504
0.44695428,-0.33422469,0.509341,0.41307285,-0.31157862,0.511288,0.41161353,-0.32602337,0.495167,0.38560771,-0.285846,0.473394,0.36291754,-0.25088216,0.452202,0.3538758,-0.22736255,0.441635,0.34696213,-0.2874276,0.495823,0.34027772,-0.25220524,0.482599,0.3446909,-0.24155748,0.475987,0.36104657,-0.24546405,0.48108,0.37525466,-0.28846554,0.513514,0.38475246,-0.26073769,0.50809,0.39965572,-0.27857492,0.504926,0.41852941,-0.2972173,0.512572,0.40062891,-0.29031753,0.527949,0.39936037,-0.25401235,0.516791,0.42142999,-0.24955058,0.528611,0.44654154,-0.25688447,0.537838,0.43599118,-0.29412262,0.545115,0.43834467,-0.27068625,0.53581,0.46235123,-0.28175874,0.544771,0.48056355,-0.29325761,0.551521
0.43509781,-0.3260541,0.497652,0.40572899,-0.30789748,0.505412,0.40166572,-0.32015763,0.4878,0.3642338,-0.28095684,0.470847,0.33741274,-0.25130573,0.456871,0.31993486,-0.2377582,0.453014,0.34879087,-0.28937779,0.499569,0.34731353,-0.25855381,0.49225,0.35537415,-0.26040557,0.48859,0.37016361,-0.28197816,0.497436,0.37545347,-0.28910392,0.514285,0.35904633,-0.25074771,0.514333,0.37212533,-0.24043063,0.514361,0.39446771,-0.24631028,0.52552,0.39905839,-0.28973345,0.525932,0.40223616,-0.25605264,0.520768,0.43331137,-0.27428479,0.53567,0.45464056,-0.29403767,0.54371,0.43097431,-0.29231467,0.53904,0.43657902,-0.26994168,0.534454,0.46271917,-0.28221234,0.54588,0.480594,-0.29339285,0.551925
0.42868322,-0.32091018,0.491391,0.40230239,-0.30544911,0.501971,0.39516677,-0.31477227,0.481292,0.36980771,-0.27135193,0.465195,0.34835764,-0.23701602,0.447775,0.33717662,-0.21605504,0.440677,0.34727446,-0.28882465,0.497991,0.34726345,-0.25936052,0.492919,0.34666309,-0.24436342,0.490383,0.36232818,-0.25136119,0.498288,0.37512192,-0.28963755,0.514069,0.36257506,-0.2534672,0.51752,0.37665165,-0.24301118,0.519533,0.39856986,-0.24828538,0.52999,0.39976352,-0.29260219,0.526671,0.40709309,-0.2593638,0.524207,0.43610489,-0.27605765,0.537041,0.45663993,-0.29409985,0.543163,0.43307892,-0.2962038,0.540591,0.43569077,-0.2714196,0.538573,0.46098422,-0.28147829,0.548473,0.48067889,-0.29305317,0.553023
0.42675275,-0.31909828,0.489763,0.40136249,-0.30473419,0.50113,0.39350546,-0.31318663,0.479963,0.36923808,-0.27078816,0.464373,0.3477706,-0.23668713,0.447412,0.33667265,-0.2160789,0.440713,0.34724676,-0.28922242,0.49811,0.3478064,-0.26018308,0.493791,0.34786104,-0.24526071,0.491631,0.36365007,-0.25230554,0.499651,0.37520936,-0.29017425,0.514128,0.36387199,-0.25448284,0.518442,0.37812852,-0.24388965,0.520958,0.4001703,-0.24910541,0.531541,0.39994522,-0.29308738,0.526634,0.40846205,-0.26074653,0.524986,0.43759888,-0.27618102,0.537715,0.4586906,-0.29301339,0.543466,0.43315074,-0.29652303,0.540344,0.43678644,-0.27165602,0.539031,0.46083984,-0.28112019,0.548867,0.48033783,-0.2924863,0.553143
0.42518147,-0.31796652,0.488682,0.40043343,-0.304351,0.500532,0.39228754,-0.31238293,0.479316,0.36777161,-0.27129374,0.464194,0.34234978,-0.23968713,0.448235,0.3335171,-0.21810809,0.441761,0.34674694,-0.28993942,0.498402,0.34802907,-0.26094697,0.494609,0.34823884,-0.24609254,0.492712,0.36428993,-0.25335687,0.5011,0.3746959,-0.29164021,0.514083,0.36412877,-0.25510458,0.518845,0.37882855,-0.24495758,0.521623,0.40128078,-0.25100977,0.532541,0.39947827,-0.29334595,0.526284,0.4073163,-0.26073911,0.525157,0.43807511,-0.27657504,0.538205,0.45951108,-0.29289246,0.543873,0.43236425,-0.29655239,0.539567,0.43461516,-0.27156312,0.538655,0.46010583,-0.28105251,0.548745,0.47964164,-0.29211841,0.552977
0.42392288,-0.31705906,0.4878,0.39967639,-0.30401768,0.500008,0.39122676,-0.31166285,0.478651,0.36680825,-0.27137577,0.463813,0.34217487,-0.23956467,0.448006,0.33240899,-0.21863727,0.441811,0.34653384,-0.29017444,0.498411,0.34805735,-0.26136665,0.494984,0.34843948,-0.24651768,0.49327,0.36459187,-0.25387134,0.501801,0.37445361,-0.29185071,0.513968,0.36429139,-0.25548389,0.519099,0.37930038,-0.24563254,0.522093,0.40195124,-0.25215652,0.533146,0.39916287,-0.29351463,0.526045,0.40746312,-0.26111682,0.525299,0.43829333,-0.27676893,0.538416,0.45986887,-0.29273302,0.543957,0.43191072,-0.29661958,0.539137,0.43414319,-0.27162086,0.538539,0.4596784,-0.2810197,0.548687,0.47910204,-0.29183191,0.552833
0.42294917,-0.3163579,0.487133,0.39909617,-0.30376485,0.499611,0.39039864,-0.31110036,0.47813,0.3661609,-0.27137301,0.463496,0.34201448,-0.23945238,0.447796,0.3318032,-0.21886846,0.441768,0.34635904,-0.29033788,0.498396,0.34806981,-0.26166076,0.495241,0.34860076,-0.24680201,0.493663,0.3648152,-0.25420979,0.50228,0.37427637,-0.29199756,0.51388,0.36441921,-0.25575048,0.519296,0.37965115,-0.24610632,0.522456,0.40243062,-0.252942,0.533592,0.39894285,-0.29363859,0.525881,0.4075847,-0.2613973,0.525422,0.43844238,-0.27690047,0.538561,0.46009332,-0.29261737,0.543996,0.43160219,-0.29667776,0.538849,0.43385242,-0.27167409,0.538491,0.45940495,-0.2810048,0.548662,0.47869163,-0.29161474,0.552732
0.40100509,-0.28694484,0.478664,0.3840763,-0.29023873,0.498208,0.38490189,-0.30653025,0.476132,0.34857891,-0.27676571,0.469163,0.3174296,-0.2743358,0.466867,0.30057357,-0.27555381,0.470609,0.34646678,-0.30520209,0.510143,0.33558594,-0.28661067,0.515338,0.33978115,-0.27841201,0.517936,0.35715511,-0.27853951,0.530839,0.36630266,-0.29440575,0.520556,0.35844165,-0.27808761,0.533176,0.37504141,-0.27782559,0.540537,0.40234284,-0.28912856,0.555462,0.38369727,-0.28505058,0.527972,0.37289626,-0.2675618,0.53581,0.39839698,-0.28062353,0.551892,0.41793198,-0.29097713,0.555152,0.40687207,-0.27295226,0.534563,0.38982041,-0.26334864,0.540776,0.40472828,-0.27674076,0.553337,0.41362219,-0.28584933,0.55602
0.39683259,-0.28480332,0.474885,0.38079249,-0.28880025,0.495428,0.38135558,-0.30304941,0.473471,0.34646597,-0.27607918,0.467852,0.31642539,-0.27461747,0.467219,0.29991089,-0.27624394,0.471643,0.34470451,-0.30508099,0.509465,0.33463812,-0.28712998,0.516009,0.34007012,-0.27949754,0.51928,0.35903777,-0.28054112,0.5328,0.36386871,-0.29372581,0.518918,0.35667747,-0.27789115,0.532617,0.37545029,-0.27920075,0.540609,0.40419696,-0.29233345,0.556047,0.38063045,-0.28392355,0.525486,0.37072878,-0.2670455,0.534636,0.39645617,-0.280252,0.551089,0.41571676,-0.29038388,0.553967,0.40288657,-0.2712733,0.530935,0.38559914,-0.2602897,0.538184,0.39388755,-0.26826916,0.551126,0.39728459,-0.27303916,0.553785
0.3926248,-0.27889591,0.467658,0.37886591,-0.28576254,0.49124,0.37863615,-0.30015343,0.469632,0.34810361,-0.27691049,0.468283,0.32022074,-0.27656358,0.470428,0.3044491,-0.27931386,0.47621,0.34924399,-0.30785211,0.511659,0.34032559,-0.30175713,0.522438,0.36212217,-0.31174762,0.527828,0.38750293,-0.32962274,0.542932,0.36398697,-0.2937982,0.518207,0.35851327,-0.2812189,0.535348,0.37727088,-0.28226086,0.545347,0.40789074,-0.2956377,0.562052,0.37809947,-0.28207317,0.522207,0.3705301,-0.2689486,0.535496,0.3995722,-0.28762165,0.552625,0.41709065,-0.29232238,0.554102,0.39676018,-0.26696307,0.524197,0.38241142,-0.25977965,0.534758,0.39870793,-0.27341212,0.548204,0.40600145,-0.27987048,0.549701
0.39625192,-0.28064793,0.473575,0.37737499,-0.28667417,0.493697,0.37642449,-0.29384227,0.472953,0.34741635,-0.27673096,0.467929,0.31617154,-0.273603,0.464707,0.29963271,-0.27567004,0.469283,0.33953872,-0.30968281,0.50836,0.32548918,-0.30186702,0.514969,0.35389143,-0.31339685,0.530757,0.38152281,-0.32650642,0.539884,0.35256481,-0.29492568,0.516707,0.3414327,-0.28669503,0.529881,0.3604425,-0.28602145,0.537566,0.39638327,-0.29411266,0.553473,0.36441042,-0.282019,0.52239,0.35146734,-0.27231837,0.531418,0.38341662,-0.28487162,0.548699,0.40908115,-0.28972953,0.551956,0.38103398,-0.26501907,0.526823,0.36762049,-0.26592275,0.533831,0.36737521,-0.2712901,0.547321,0.3770783,-0.27690994,0.550085
0.39570588,-0.27976621,0.473881,0.37649497,-0.28623937,0.493908,0.37621555,-0.29336664,0.473123,0.34716928,-0.27675478,0.467939,0.31588914,-0.27368187,0.464429,0.29889875,-0.27546295,0.4685,0.33952202,-0.30966758,0.508335,0.32537984,-0.30176561,0.514796,0.35374807,-0.3132699,0.530542,0.3799278,-0.3258083,0.539431,0.35263372,-0.29498333,0.516808,0.34142947,-0.28669233,0.529876,0.36039758,-0.2859858,0.537499,0.39497574,-0.29494482,0.553349,0.36455691,-0.28213237,0.5226,0.3515143,-0.27235475,0.531489,0.38343409,-0.2848846,0.548724,0.40786814,-0.28988587,0.552019,0.38128929,-0.26519665,0.527176,0.3677892,-0.26604479,0.534076,0.36751482,-0.2713932,0.547529,0.37723733,-0.27702673,0.550317
0.39531739,-0.27916149,0.474055,0.37596304,-0.28597545,0.494029,0.37606918,-0.29304432,0.473227,0.34701445,-0.27677849,0.467959,0.31572477,-0.27375553,0.464279,0.29844552,-0.27535873,0.468035,0.33952135,-0.30966697,0.508334,0.32533054,-0.30171988,0.514718,0.3536814,-0.31321085,0.530442,0.37913912,-0.32546721,0.539218,0.35267671,-0.29501929,0.516871,0.34143334,-0.28669557,0.529882,0.3603788,-0.2859709,0.537471,0.39427675,-0.29536374,0.553293,0.36463922,-0.28219607,0.522718,0.35154406,-0.27237781,0.531534,0.38344877,-0.2848955,0.548745,0.40727131,-0.28996997,0.552062,0.38142816,-0.26529323,0.527368,0.36788217,-0.26611204,0.534211,0.36759269,-0.2714507,0.547645,0.37732576,-0.27709167,0.550446
0.39435483,-0.27843905,0.473659,0.37372092,-0.28513188,0.49358,0.37551004,-0.29269352,0.473065,0.3460264,-0.27662326,0.468002,0.31539904,-0.28259162,0.467876,0.29939805,-0.28890466,0.473246,0.33873363,-0.30964885,0.508122,0.32463009,-0.30167225,0.514587,0.3531176,-0.31325716,0.530488,0.37646328,-0.32474633,0.538999,0.35168693,-0.29482688,0.51636,0.34044891,-0.28638723,0.529302,0.35980585,-0.2857596,0.536853,0.39191277,-0.29676511,0.552793,0.36348081,-0.28188001,0.521964,0.35047295,-0.2720095,0.530815,0.38250552,-0.28461227,0.548217,0.40611797,-0.28974663,0.551595,0.38006231,-0.26485097,0.526327,0.36657888,-0.26560046,0.533166,0.36640749,-0.27097562,0.546745,0.37619342,-0.27662,0.549604
0.39467499,-0.27894722,0.474737,0.37196368,-0.2850461,0.493502,0.37474759,-0.29251089,0.472615,0.34404637,-0.27560802,0.465741,0.3128285,-0.28165139,0.464403,0.29643213,-0.28766519,0.469011,0.33408995,-0.31042871,0.505331,0.32114941,-0.29978596,0.510092,0.34921478,-0.31100618,0.525496,0.37258571,-0.32265919,0.534296,0.34783599,-0.29648257,0.51496,0.33803432,-0.28568144,0.526638,0.35716352,-0.28463628,0.533451,0.38875242,-0.29536304,0.548723,0.36037847,-0.28420569,0.521776,0.34855248,-0.27181033,0.529002,0.38019333,-0.28405761,0.545873,0.40249418,-0.28947072,0.549695,0.37806343,-0.26791873,0.52774,0.35925703,-0.27108678,0.533314,0.3632787,-0.28277822,0.546463,0.36793883,-0.29369625,0.549599
0.39426011,-0.27896788,0.474778,0.37143551,-0.28573669,0.493329,0.37504181,-0.29382761,0.472278,0.34288687,-0.27578024,0.46499,0.31217993,-0.28234047,0.463685,0.29594105,-0.28870305,0.468378,0.33292944,-0.31395754,0.504543,0.317881,-0.30407656,0.508948,0.34609531,-0.31472084,0.524173,0.37110283,-0.3226685,0.532647,0.34649924,-0.3002076,0.514542,0.33450837,-0.29022285,0.526,0.35670473,-0.28941022,0.532683,0.38847224,-0.30115235,0.547767,0.35891629,-0.28803862,0.521677,0.3448423,-0.27636137,0.528576,0.37655821,-0.28794277,0.545255,0.40152012,-0.28996989,0.549132,0.37648759,-0.27176102,0.528048,0.35867637,-0.27286503,0.533382,0.36386989,-0.28534393,0.546379,0.37047974,-0.29690546,0.549541
0.39224069,-0.27805684,0.472819,0.36923058,-0.28972967,0.492903,0.37267431,-0.29190475,0.470569,0.34023341,-0.27836062,0.464041,0.3101861,-0.28282206,0.461783,0.29391239,-0.28768808,0.465752,0.33446189,-0.31822574,0.50559,0.31984807,-0.30949977,0.51136,0.34764685,-0.31945113,0.525964,0.37042656,-0.32871496,0.533963,0.34778579,-0.30459663,0.51587,0.33638621,-0.29602404,0.5291,0.36188167,-0.2966232,0.536818,0.39333355,-0.30942701,0.551831,0.35992465,-0.29241388,0.523145,0.34633886,-0.28193643,0.53159,0.37759365,-0.29279989,0.5476,0.399905,-0.29520019,0.550585,0.37700097,-0.27590936,0.529501,0.35996117,-0.27816879,0.536233,0.36477324,-0.29049559,0.548748,0.37031459,-0.29923358,0.551232
0.3915466,-0.27776783,0.472871,0.36950828,-0.29059335,0.493223,0.37252352,-0.29218808,0.470721,0.34022764,-0.27909475,0.46438,0.3100619,-0.28319195,0.46198,0.29376393,-0.28811868,0.465866,0.33509909,-0.31921357,0.506236,0.32055693,-0.31072268,0.512273,0.34829819,-0.32061139,0.526809,0.37116777,-0.33010973,0.534836,0.34836514,-0.30556491,0.516496,0.33704922,-0.29725918,0.530034,0.36292917,-0.29807707,0.537931,0.39430274,-0.31101365,0.552961,0.36044168,-0.29335354,0.52374,0.34693592,-0.28311934,0.532476,0.37812289,-0.29391761,0.548411,0.4002355,-0.29640386,0.551249,0.37740979,-0.27678805,0.530026,0.36048312,-0.27926773,0.537012,0.36481778,-0.29131122,0.549476,0.37007847,-0.30027491,0.55185
0.39082998,-0.27762909,0.472895,0.37005528,-0.29322159,0.494099,0.37242555,-0.29265765,0.470862,0.33903219,-0.2817443,0.464941,0.30863535,-0.28412088,0.461446,0.29261189,-0.29047017,0.465567,0.33703716,-0.32301398,0.507903,0.32216492,-0.31493495,0.514703,0.34936481,-0.32437127,0.528835,0.37217658,-0.33359656,0.536267,0.35031324,-0.30950319,0.518345,0.33870477,-0.30177455,0.532886,0.36461572,-0.30265108,0.541368,0.39599448,-0.31388533,0.556316,0.36232514,-0.29733457,0.525688,0.34846862,-0.28756892,0.535292,0.37905746,-0.2978762,0.55079,0.40056103,-0.29979387,0.553104,0.37906551,-0.28068118,0.531992,0.36202705,-0.28363913,0.539768,0.36561548,-0.29532882,0.551916,0.37173407,-0.30482183,0.553889
0.38932327,-0.27787192,0.472753,0.37007033,-0.29394443,0.494228,0.37134629,-0.29327575,0.470842,0.33851716,-0.28213079,0.465129,0.30822346,-0.28547369,0.462646,0.2928575,-0.29164221,0.466535,0.33756508,-0.3241143,0.508386,0.32255041,-0.31610105,0.515469,0.3496016,-0.32541966,0.52954,0.37252217,-0.33474362,0.536922,0.35080428,-0.31058916,0.518786,0.33903488,-0.30294337,0.533638,0.36463144,-0.30366855,0.542302,0.39625663,-0.31501736,0.557275,0.36275673,-0.29839122,0.526077,0.34874869,-0.28870109,0.535984,0.37916669,-0.29887163,0.551417,0.400476,-0.300732,0.553582,0.37936847,-0.28166339,0.532287,0.36224964,-0.28470393,0.540326,0.3659836,-0.29653227,0.552429,0.37205195,-0.30603195,0.554293
0.38812206,-0.27816715,0.472041,0.37008541,-0.29467959,0.494463,0.37054257,-0.29385686,0.470326,0.33791519,-0.28255686,0.465154,0.30747318,-0.28835334,0.464492,0.29366106,-0.29711206,0.4703,0.33918632,-0.32797953,0.50958,0.32346494,-0.32040525,0.517553,0.34979808,-0.32907476,0.531195,0.37307654,-0.33719962,0.537912,0.35230023,-0.31453951,0.520103,0.33978682,-0.30749979,0.536077,0.3650507,-0.3080074,0.545395,0.39795791,-0.31907683,0.560293,0.36405097,-0.30232263,0.52744,0.3492695,-0.29313628,0.538344,0.37900399,-0.30265266,0.553312,0.40053308,-0.30328737,0.554889,0.38021551,-0.28538438,0.533591,0.36272404,-0.28897104,0.54253,0.36725637,-0.30147348,0.554297,0.37393989,-0.3120444,0.555713
0.38730551,-0.27880758,0.471795,0.3698768,-0.29608753,0.494411,0.37002743,-0.29474198,0.47015,0.33628289,-0.28393459,0.465115,0.30682769,-0.28855361,0.463756,0.29307268,-0.29741391,0.46949,0.33944871,-0.32899146,0.509761,0.32366356,-0.32161795,0.51793,0.3499256,-0.33011508,0.531508,0.37320981,-0.33818196,0.538223,0.35241642,-0.3155234,0.520273,0.33982067,-0.30872037,0.536475,0.36545415,-0.30929743,0.545926,0.39809123,-0.3203177,0.560825,0.3640308,-0.30326199,0.52759,0.34917263,-0.29428928,0.538708,0.37888001,-0.30365107,0.553606,0.40026652,-0.30413446,0.555069,0.37999789,-0.28622338,0.533694,0.36254334,-0.29002789,0.542821,0.36800099,-0.30529837,0.554538,0.37532249,-0.3135071,0.555869
0.38578293,-0.27912456,0.470641,0.36974013,-0.29829872,0.494434,0.36921767,-0.29554997,0.469487,0.3365174,-0.28547527,0.465351,0.3075445,-0.29208598,0.465033,0.29413386,-0.3002947,0.470952,0.34208764,-0.33412252,0.511273,0.32615805,-0.3281822,0.520673,0.35171246,-0.33479305,0.5339,0.37448717,-0.34220548,0.54014,0.35438331,-0.32047582,0.521642,0.34156791,-0.31529894,0.539225,0.36828373,-0.31503178,0.549481,0.39973547,-0.32771043,0.564423,0.36513255,-0.30677816,0.528773,0.35029196,-0.30049927,0.541214,0.37967514,-0.30801005,0.555732,0.40006139,-0.30763651,0.556508,0.38027261,-0.2892861,0.53451,0.36316327,-0.29436033,0.544794,0.37165764,-0.31021026,0.556245,0.38325506,-0.3206665,0.557065
0.38812536,-0.28199707,0.473793,0.37442259,-0.30253244,0.500669,0.37342835,-0.30005684,0.474715,0.34444157,-0.29481507,0.473664,0.31781415,-0.30381126,0.476197,0.30500081,-0.3147112,0.484298,0.34891537,-0.34063259,0.522351,0.33668855,-0.34025077,0.535371,0.36201546,-0.34582361,0.54824,0.38728092,-0.35405504,0.558002,0.36015691,-0.32567111,0.531401,0.35053382,-0.32611232,0.552556,0.37883623,-0.32640135,0.564897,0.41114515,-0.33784712,0.580372,0.37017918,-0.31206143,0.537266,0.35797661,-0.30833316,0.553447,0.38778429,-0.31538493,0.56757,0.40965294,-0.315619,0.56986,0.38385733,-0.2931212,0.541107,0.37063162,-0.29779999,0.554547,0.39485483,-0.30331736,0.56576,0.41336777,-0.30542807,0.569512
0.38755604,-0.28258044,0.473309,0.37175597,-0.30082673,0.497071,0.37266127,-0.30034733,0.473504,0.34415054,-0.29470672,0.470524,0.31590498,-0.30231525,0.469482,0.29893442,-0.30848006,0.47365,0.34460515,-0.33756971,0.515498,0.33077508,-0.33489043,0.525487,0.35743669,-0.34255646,0.539885,0.38414033,-0.35145966,0.552974,0.35503131,-0.32262112,0.524242,0.34359482,-0.32066412,0.541643,0.37029592,-0.32136819,0.551794,0.40214331,-0.33125355,0.567598,0.36450453,-0.30911884,0.530038,0.35099215,-0.30474981,0.542844,0.3816235,-0.31228242,0.558622,0.40232939,-0.31068003,0.559754,0.37778435,-0.29048599,0.53417,0.36336645,-0.29417345,0.544564,0.38655543,-0.29920498,0.556978,0.40328357,-0.29988997,0.558282
0.38888658,-0.28456151,0.47531,0.37270419,-0.30209255,0.498531,0.37401915,-0.30235662,0.47521,0.34386746,-0.29500147,0.471759,0.3170559,-0.30423918,0.471792,0.30044811,-0.31058857,0.476208,0.34486021,-0.33839746,0.516192,0.33067461,-0.33559532,0.525585,0.35737964,-0.34318122,0.540085,0.38443817,-0.35215286,0.553267,0.35516294,-0.32348093,0.525084,0.34335302,-0.32147197,0.541859,0.36978437,-0.32190177,0.551644,0.40175148,-0.33176697,0.567385,0.36377088,-0.30981811,0.531033,0.35069615,-0.3055446,0.543211,0.38155245,-0.3141092,0.559101,0.40262295,-0.31165782,0.560531,0.37578687,-0.29173333,0.535415,0.36377756,-0.29480569,0.545271,0.38689496,-0.30013061,0.557759,0.40378469,-0.30086968,0.559341
0.38954723,-0.28579397,0.476455,0.37322055,-0.30289853,0.499371,0.37489962,-0.30374303,0.476326,0.34454696,-0.29589054,0.472735,0.3174804,-0.30505853,0.472724,0.30099515,-0.31148248,0.477171,0.34510391,-0.33902167,0.516765,0.33076991,-0.33617606,0.525891,0.35757234,-0.34377408,0.540548,0.38493256,-0.35293263,0.553873,0.35520427,-0.32401217,0.525577,0.34320946,-0.3219582,0.541991,0.36948641,-0.3222291,0.551567,0.40155204,-0.33219892,0.567346,0.36374355,-0.31035911,0.531478,0.35046528,-0.30597542,0.543349,0.3814647,-0.31455073,0.559408,0.40277622,-0.31236055,0.561031,0.37579453,-0.29213135,0.535838,0.36382832,-0.29506072,0.545412,0.38697755,-0.30052626,0.558024,0.40387516,-0.30124072,0.559649
0.38936294,-0.2869008,0.476115,0.3732309,-0.30475654,0.499062,0.37535484,-0.30521794,0.476597,0.34800568,-0.30348129,0.473583,0.31628344,-0.30380418,0.470464,0.29857211,-0.30816192,0.473784,0.3454913,-0.33924014,0.517209,0.3316099,-0.33696066,0.526669,0.35877463,-0.34483779,0.541744,0.38672652,-0.35546997,0.555448,0.35523739,-0.32317043,0.525302,0.34343024,-0.32297982,0.541721,0.36983731,-0.32450581,0.551299,0.40216142,-0.33492338,0.567399,0.36428473,-0.30931605,0.53061,0.35061649,-0.30586913,0.542722,0.3821288,-0.31468843,0.559229,0.40303542,-0.31400555,0.560933,0.37715956,-0.29039079,0.534252,0.36426196,-0.29556207,0.543951,0.39364581,-0.304734,0.556907,0.40569719,-0.30266659,0.560504
0.39061469,-0.28872743,0.477284,0.37401546,-0.30564092,0.499791,0.37667901,-0.30704715,0.477782,0.34877358,-0.30415095,0.474628,0.31735541,-0.30476414,0.471739,0.29968263,-0.30909783,0.475222,0.34583395,-0.33945514,0.51762,0.33189878,-0.33720488,0.52673,0.35927237,-0.34525042,0.542052,0.38739883,-0.35599085,0.555981,0.35546592,-0.32331183,0.525528,0.34363741,-0.32309014,0.541432,0.37002787,-0.32484964,0.550709,0.40220582,-0.3353331,0.56688,0.36444308,-0.30937116,0.530709,0.35080925,-0.30586709,0.542405,0.38265698,-0.31483077,0.559179,0.40375,-0.31438713,0.561157,0.37729179,-0.29041335,0.534252,0.36462878,-0.29559462,0.543561,0.39350797,-0.3046273,0.556712,0.40641537,-0.30324681,0.560386
0.38968768,-0.28869571,0.475502,0.37494737,-0.30644146,0.499938,0.37758227,-0.30822478,0.478078,0.35150375,-0.30564592,0.477619,0.32092349,-0.30770839,0.4765,0.3037538,-0.31268596,0.481032,0.3553343,-0.34075598,0.52173,0.3386157,-0.3422904,0.533534,0.36580268,-0.34994433,0.549087,0.39388644,-0.36154929,0.563225,0.36187022,-0.32489421,0.52788,0.35013414,-0.32697982,0.546018,0.37751515,-0.33085112,0.556599,0.40777438,-0.34019441,0.573448,0.36885698,-0.30945011,0.531503,0.35704416,-0.30868864,0.545846,0.38989283,-0.31772732,0.562858,0.40811437,-0.31695627,0.563863,0.38024471,-0.28869893,0.532936,0.36990513,-0.29712776,0.544385,0.39560121,-0.30502945,0.55776,0.41280173,-0.30696168,0.561602
0.39213558,-0.29107361,0.477681,0.37641121,-0.30737376,0.501145,0.37930942,-0.30999054,0.479337,0.35178316,-0.30547632,0.477635,0.3208808,-0.30732961,0.476041,0.30357375,-0.31203754,0.480248,0.35323557,-0.34093612,0.521094,0.33815983,-0.34095226,0.531602,0.36514449,-0.34872278,0.54714,0.39309766,-0.36024593,0.561265,0.36265314,-0.32468855,0.527977,0.35024437,-0.32624156,0.54498,0.37691697,-0.32972182,0.554898,0.40702101,-0.33935644,0.571482,0.37018254,-0.30985111,0.53226,0.3574664,-0.30830306,0.545311,0.39015458,-0.31732746,0.562311,0.40882236,-0.31699743,0.563834,0.38255435,-0.29044592,0.534605,0.37107844,-0.29739209,0.544993,0.39668083,-0.30526801,0.558338,0.41366925,-0.30697991,0.56178
0.39397449,-0.29292786,0.479125,0.37943048,-0.30928379,0.502835,0.38135661,-0.31193638,0.481026,0.35350129,-0.30662831,0.479648,0.32299858,-0.3090154,0.4788,0.30643986,-0.31460543,0.483639,0.35682972,-0.34199872,0.523263,0.34040826,-0.34242041,0.534103,0.3673446,-0.35026038,0.549655,0.39538778,-0.36180923,0.563794,0.36478283,-0.32592096,0.529946,0.35236746,-0.32745601,0.547234,0.37897802,-0.33096847,0.557318,0.40934595,-0.34105547,0.573976,0.37329799,-0.31137686,0.534051,0.35955862,-0.30942673,0.54743,0.39217309,-0.31843,0.564446,0.41087035,-0.31812615,0.565841,0.38535135,-0.29183711,0.53615,0.37301501,-0.29835809,0.546807,0.39856436,-0.30622144,0.560169,0.41521082,-0.30764838,0.562995
0.39631817,-0.29770626,0.477437,0.39216194,-0.32395069,0.505312,0.37745171,-0.30927316,0.475359,0.34748432,-0.3002974,0.4729,0.31929065,-0.30513823,0.473055,0.30407727,-0.3116635,0.479051,0.35276785,-0.34371836,0.52417,0.35654958,-0.32023429,0.537323,0.37635276,-0.33308747,0.545119,0.38806025,-0.35437466,0.552205,0.37914516,-0.34219374,0.537187,0.38730016,-0.31845105,0.56059,0.41284505,-0.31984507,0.574241,0.43729995,-0.34005629,0.586272,0.39975728,-0.33929398,0.546255,0.40244907,-0.31309028,0.563245,0.4143255,-0.306754,0.571887,0.42257455,-0.3021894,0.568479,0.42597699,-0.3338799,0.553838,0.43060452,-0.31356028,0.568651,0.45412005,-0.31703035,0.575699,0.46262455,-0.32706544,0.57474
0.39763958,-0.29916562,0.477585,0.3928978,-0.32389724,0.505726,0.37819922,-0.31031769,0.475691,0.34811892,-0.30061166,0.473506,0.32029652,-0.30570868,0.473997,0.30509802,-0.31226715,0.480184,0.35483845,-0.34383001,0.525006,0.35858556,-0.31910905,0.538477,0.37830156,-0.33182992,0.546234,0.39079003,-0.35465117,0.553286,0.37986269,-0.34241932,0.537904,0.39002447,-0.31815943,0.561619,0.41602206,-0.31905141,0.575452,0.44032579,-0.33924338,0.587523,0.40052346,-0.34005631,0.546859,0.40564635,-0.31370134,0.564177,0.42193154,-0.30762526,0.572776,0.43208965,-0.30612372,0.569219,0.42676946,-0.33527697,0.554273,0.43261009,-0.31445113,0.569364,0.45597618,-0.31734179,0.576385,0.46480143,-0.3265616,0.574635
0.4085066,-0.31133064,0.481331,0.39595796,-0.325373,0.508318,0.38115927,-0.31306605,0.478544,0.35456336,-0.31372615,0.481546,0.32691025,-0.3105386,0.48284,0.31604345,-0.30027726,0.486721,0.35792177,-0.33673646,0.525647,0.36654778,-0.30987066,0.537745,0.38546911,-0.32409671,0.545434,0.39579835,-0.34889341,0.552424,0.38225232,-0.34042959,0.539177,0.40136043,-0.31234516,0.561605,0.43156192,-0.32764199,0.574689,0.45641569,-0.34147221,0.586415,0.40303549,-0.34018642,0.548719,0.41634607,-0.3098367,0.564641,0.43146325,-0.303563,0.57317,0.44207849,-0.3028294,0.570148,0.43027924,-0.33698626,0.556981,0.44389541,-0.31482357,0.570919,0.46733525,-0.3200168,0.577863,0.47064501,-0.32864545,0.575649
0.41087659,-0.31332305,0.483466,0.39745375,-0.32608036,0.509567,0.38333532,-0.31506652,0.480256,0.35452515,-0.31595632,0.481684,0.32576751,-0.31805733,0.482127,0.3092739,-0.31297002,0.484087,0.35796535,-0.33677746,0.525711,0.36588795,-0.30931286,0.536777,0.38513115,-0.32233492,0.54492,0.39904941,-0.34450144,0.552322,0.38284444,-0.3397234,0.539412,0.4007258,-0.31185128,0.560717,0.43036541,-0.32580883,0.573145,0.45525581,-0.33846966,0.584971,0.40392438,-0.33994009,0.549148,0.41392235,-0.30855167,0.563971,0.42934611,-0.30269624,0.572993,0.43810646,-0.30464828,0.570612,0.43158365,-0.33748643,0.557749,0.44373757,-0.31471163,0.570716,0.4674606,-0.32010264,0.578018,0.47208382,-0.32965689,0.576285
0.41278569,-0.31516583,0.484935,0.40060767,-0.32814128,0.512269,0.38565778,-0.31719822,0.482014,0.37422015,-0.30207941,0.489438,0.35082393,-0.31031663,0.495857,0.34099117,-0.32383888,0.506401,0.36239124,-0.33915142,0.529704,0.37806207,-0.31068217,0.542237,0.39885848,-0.31798491,0.549017,0.41185411,-0.3394241,0.555181,0.39291123,-0.3418054,0.543525,0.40391698,-0.31265405,0.56661,0.43199614,-0.32439922,0.580076,0.45733434,-0.33691199,0.591236,0.41587705,-0.34363798,0.553287,0.42295176,-0.31279626,0.569728,0.43662725,-0.30479082,0.577272,0.44448151,-0.30476667,0.573647,0.44488704,-0.34452759,0.56177,0.45278959,-0.32101175,0.576249,0.47230718,-0.3232511,0.582449,0.47860931,-0.33366108,0.579756
0.41190432,-0.31522812,0.483647,0.40361438,-0.3292521,0.512807,0.38582413,-0.31719947,0.48159,0.37341097,-0.30123651,0.488697,0.35062718,-0.30954047,0.495904,0.34155771,-0.32434464,0.507108,0.36922858,-0.33992453,0.532674,0.38407866,-0.31269016,0.547515,0.40195697,-0.31972419,0.552826,0.40983822,-0.34231155,0.557654,0.39674123,-0.344181,0.546151,0.41605855,-0.31628201,0.571755,0.44377105,-0.32674371,0.58669,0.46207696,-0.33677122,0.597264,0.42218929,-0.3489104,0.555522,0.43174211,-0.3181101,0.574422,0.44603394,-0.31630431,0.580368,0.45011384,-0.30667316,0.575112,0.45146503,-0.35231605,0.563316,0.45614866,-0.32548514,0.580005,0.47429954,-0.32481163,0.585025,0.48051797,-0.33398171,0.581098
0.4121509,-0.31594232,0.483756,0.4043029,-0.32983873,0.513038,0.38650559,-0.31762424,0.481809,0.37346089,-0.30121358,0.488868,0.35071685,-0.3094193,0.496139,0.34178653,-0.32455116,0.507403,0.37000745,-0.33996229,0.533129,0.38526981,-0.31269346,0.54811,0.40253673,-0.31994264,0.553472,0.41075401,-0.34227013,0.558347,0.39765194,-0.34465481,0.546521,0.41641584,-0.31655362,0.572246,0.4441969,-0.32705726,0.587253,0.46349659,-0.33692173,0.597895,0.42241196,-0.34909443,0.555815,0.43206756,-0.31834989,0.574855,0.44640899,-0.31657027,0.580856,0.45091789,-0.30754151,0.575566,0.45161409,-0.35243238,0.563502,0.45651661,-0.32643653,0.580302,0.47451837,-0.32507915,0.585366,0.48126314,-0.33389357,0.581417
0.41230816,-0.31660783,0.483718,0.40695116,-0.33192044,0.513607,0.38716241,-0.31844375,0.482265,0.37371645,-0.30187893,0.489342,0.35121696,-0.31049874,0.496885,0.34261055,-0.32606976,0.508366,0.37203412,-0.34118766,0.534756,0.38875971,-0.31359215,0.55047,0.40441433,-0.3210901,0.555892,0.41451774,-0.34217552,0.56082,0.40082273,-0.34636864,0.547786,0.41942599,-0.31830004,0.574185,0.44742699,-0.32976194,0.589584,0.46832945,-0.34229487,0.600426,0.42414417,-0.35012866,0.556746,0.43355079,-0.32017889,0.576528,0.44760523,-0.31788474,0.582591,0.45251601,-0.30970054,0.577026,0.45304474,-0.35318866,0.563957,0.45867793,-0.32912922,0.581366,0.47587661,-0.32604394,0.58649,0.48281257,-0.33453395,0.58235
0.44149032,-0.34145551,0.514453,0.42544067,-0.34810501,0.534335,0.41912759,-0.34259337,0.506186,0.39022761,-0.32309897,0.503664,0.36134111,-0.31758752,0.501969,0.34341035,-0.3257575,0.508379,0.37517262,-0.34431157,0.539669,0.38377837,-0.31012555,0.544063,0.40036436,-0.31666441,0.549239,0.4104476,-0.33749303,0.553945,0.39983821,-0.34969073,0.55707,0.41579699,-0.31678617,0.572393,0.44187351,-0.32460455,0.581331,0.46784591,-0.32948294,0.589445,0.42237557,-0.3540586,0.570212,0.42606049,-0.31746197,0.57833,0.4481791,-0.31851261,0.584146,0.45825169,-0.3134261,0.583192,0.45227329,-0.35915258,0.583667,0.46634205,-0.33521875,0.591361,0.48324358,-0.33223129,0.596094,0.49349531,-0.34181834,0.595221
0.44402357,-0.34361464,0.515943,0.42635424,-0.34949057,0.53517,0.4206335,-0.34410458,0.507345,0.39054112,-0.32490164,0.503903,0.36113166,-0.31994308,0.501616,0.343178,-0.32557565,0.507302,0.37499075,-0.34457162,0.539606,0.3836682,-0.31041269,0.543281,0.4058292,-0.32028575,0.548625,0.4140285,-0.3381672,0.553482,0.39987802,-0.35070419,0.557155,0.41499327,-0.31693177,0.571708,0.44155752,-0.32399901,0.580198,0.4655197,-0.33205171,0.588266,0.42241204,-0.35520342,0.570459,0.42619598,-0.31820155,0.577815,0.44788243,-0.31876863,0.583814,0.45926634,-0.31441802,0.58324,0.4523962,-0.3604925,0.584187,0.46607451,-0.33578326,0.591222,0.48282782,-0.33277581,0.596081,0.49375441,-0.34211994,0.595489
0.44941092,-0.34807461,0.517003,0.42941435,-0.35142979,0.537585,0.42320098,-0.34551823,0.508931,0.39169473,-0.32494156,0.503366,0.36237539,-0.32070831,0.499776,0.34509961,-0.32387833,0.504058,0.37815552,-0.3474249,0.543688,0.39206959,-0.31730595,0.548984,0.4119342,-0.3243525,0.553252,0.42238553,-0.34471181,0.557132,0.40598248,-0.35372483,0.561121,0.42056176,-0.32065075,0.577512,0.44954592,-0.32832266,0.587074,0.47381947,-0.33359805,0.594715,0.42619149,-0.35795871,0.574249,0.43427685,-0.32219078,0.583353,0.45176051,-0.32145681,0.588184,0.46609281,-0.31881443,0.586437,0.45598935,-0.36300113,0.587602,0.47046319,-0.33906933,0.59622,0.48688131,-0.33533676,0.600216,0.49686298,-0.34411065,0.598732
0.45543573,-0.35183169,0.520223,0.4299281,-0.35145501,0.537175,0.42532983,-0.34673321,0.510371,0.39310514,-0.32563498,0.502674,0.36349163,-0.31788239,0.496977,0.34371873,-0.32118113,0.500484,0.37525751,-0.34435048,0.538369,0.38454383,-0.3109178,0.53967,0.40592239,-0.31908778,0.545026,0.41586356,-0.33799504,0.549896,0.40358512,-0.3512927,0.556559,0.41428612,-0.31602066,0.568634,0.44251681,-0.32446862,0.575677,0.4673046,-0.33862146,0.583183,0.4241426,-0.35603477,0.570524,0.43360996,-0.31940547,0.575383,0.45804096,-0.32735726,0.581397,0.47521755,-0.33053271,0.581838,0.45491811,-0.36193451,0.585321,0.46676052,-0.33703868,0.590252,0.4829133,-0.33277005,0.595078,0.49433661,-0.34221502,0.595214
0.45588463,-0.35182905,0.520188,0.43059108,-0.35179722,0.537439,0.42594216,-0.34691923,0.5105,0.39370571,-0.32581995,0.502837,0.36380362,-0.31802705,0.497229,0.34429243,-0.32099346,0.500416,0.37600092,-0.34513129,0.53906,0.38674074,-0.31299168,0.540667,0.40721952,-0.32027886,0.546039,0.4186401,-0.34088572,0.550922,0.40335148,-0.35186275,0.557165,0.41503188,-0.31683101,0.56956,0.44459269,-0.32899429,0.57679,0.46737554,-0.34192603,0.584381,0.42491208,-0.35665621,0.571043,0.43466221,-0.32036459,0.576224,0.4583526,-0.32798559,0.582255,0.47541311,-0.33102631,0.582572,0.45556415,-0.36240249,0.585699,0.46745763,-0.33767333,0.5909,0.48325596,-0.33356364,0.595744,0.49557875,-0.34270276,0.595792
0.45821055,-0.35339065,0.522476,0.43436913,-0.35474989,0.541776,0.42890622,-0.34912376,0.513647,0.39616675,-0.32766847,0.505616,0.36566457,-0.31958961,0.499685,0.34611584,-0.32220939,0.502462,0.38104279,-0.34983688,0.545993,0.39323247,-0.31839735,0.549938,0.41311522,-0.32484218,0.554143,0.42290935,-0.34379558,0.557966,0.4082293,-0.35625252,0.563846,0.42186269,-0.32223635,0.578857,0.45161604,-0.33190134,0.587613,0.47611751,-0.34340434,0.594886,0.42989699,-0.36082386,0.577395,0.44160377,-0.32559295,0.585088,0.46421033,-0.33231392,0.589852,0.48023668,-0.33450506,0.588649,0.4602424,-0.36609317,0.591409,0.47387882,-0.34240665,0.598848,0.48904328,-0.33770667,0.602768,0.5012371,-0.3462407,0.60167
0.46870369,-0.36127077,0.533844,0.44124863,-0.35860598,0.546729,0.43778573,-0.35545617,0.521818,0.41481491,-0.34161765,0.51376,0.38471403,-0.32784005,0.502779,0.36608451,-0.32391271,0.502115,0.38049013,-0.34877188,0.542209,0.38572532,-0.31229319,0.539459,0.40704848,-0.31943631,0.544432,0.4176277,-0.3393107,0.548953,0.40638207,-0.35466404,0.561463,0.41548731,-0.31726627,0.56928,0.44352397,-0.32672904,0.573839,0.46690286,-0.33586833,0.580052,0.42718965,-0.35891643,0.576542,0.43789733,-0.32253117,0.57713,0.46590975,-0.33451621,0.582729,0.48634209,-0.34455268,0.584729,0.45260063,-0.36225788,0.593169,0.47008937,-0.34008397,0.594532,0.48965137,-0.34428408,0.598962,0.49764448,-0.3568709,0.6002
0.47056883,-0.36255537,0.535505,0.44155809,-0.35940909,0.547935,0.43986502,-0.35673114,0.523162,0.41608607,-0.33970342,0.51445,0.38716451,-0.31878461,0.502765,0.36869651,-0.3119139,0.501433,0.3812892,-0.34927746,0.542687,0.38282506,-0.31028225,0.539555,0.40581677,-0.31858629,0.544121,0.4162182,-0.33754613,0.548271,0.40639074,-0.35504576,0.562149,0.41609464,-0.31786748,0.569613,0.44439301,-0.32688474,0.573967,0.46784386,-0.33582606,0.579774,0.42742472,-0.3592023,0.577424,0.4389266,-0.32300895,0.577625,0.46598896,-0.33457388,0.582782,0.48642222,-0.34460683,0.584761,0.4535151,-0.36301812,0.594344,0.4707595,-0.34017918,0.595422,0.49015134,-0.34401096,0.599506,0.49910964,-0.35628341,0.60071
0.4718222,-0.36343708,0.536496,0.4411845,-0.35969015,0.548361,0.44125086,-0.35762183,0.523904,0.41550486,-0.33897888,0.51391,0.38572365,-0.31938517,0.502418,0.36661256,-0.31708837,0.501508,0.38158104,-0.34982031,0.542383,0.38222013,-0.31046151,0.538679,0.4049424,-0.3179633,0.543331,0.41571271,-0.3369445,0.54756,0.40572212,-0.35501605,0.561928,0.41575863,-0.31793076,0.568758,0.44387332,-0.32639647,0.572743,0.46741877,-0.33529927,0.578471,0.42703649,-0.35918397,0.577306,0.44173818,-0.32431407,0.576894,0.46620647,-0.33562693,0.582144,0.48676781,-0.34625861,0.584408,0.45356772,-0.36349092,0.594417,0.47023114,-0.33992248,0.594966,0.48978543,-0.3438502,0.599111,0.49930777,-0.35613504,0.600524
0.47140921,-0.3631688,0.535853,0.44028642,-0.3592287,0.547793,0.44043469,-0.35727357,0.523379,0.41456421,-0.3387457,0.513486,0.38426444,-0.31991087,0.502084,0.36540989,-0.31653162,0.501017,0.38135396,-0.34996335,0.542013,0.37360574,-0.31300816,0.538327,0.39854189,-0.31510839,0.543318,0.41342823,-0.33478704,0.546767,0.4051989,-0.35486796,0.561446,0.41452012,-0.31774515,0.568244,0.44342575,-0.32606734,0.57221,0.46726742,-0.33464548,0.578199,0.42555846,-0.35869117,0.576726,0.44113327,-0.32460275,0.576317,0.46584333,-0.33634763,0.581936,0.4864751,-0.34726407,0.584346,0.45271842,-0.36326461,0.593711,0.46917179,-0.33972237,0.594228,0.48890285,-0.34382806,0.598654,0.49848362,-0.35618651,0.600189
0.47360148,-0.36472579,0.537634,0.44154744,-0.36022799,0.54877,0.44272135,-0.35883229,0.524791,0.41452866,-0.33922537,0.514151,0.38291777,-0.3217524,0.503221,0.36413234,-0.3182714,0.501866,0.38134288,-0.35011825,0.541934,0.37533046,-0.31185952,0.537457,0.39750469,-0.31551723,0.542477,0.41324462,-0.33464067,0.546249,0.40532277,-0.35520828,0.561504,0.41422974,-0.31776003,0.567434,0.44246509,-0.32523282,0.570893,0.46620807,-0.33337731,0.576703,0.42516068,-0.35893038,0.576945,0.44067537,-0.32449645,0.57569,0.4653614,-0.33642464,0.58134,0.48623041,-0.34769793,0.584104,0.45295104,-0.36356142,0.59422,0.46888266,-0.33970619,0.594016,0.48853478,-0.34377856,0.59845,0.49827614,-0.35630485,0.600242
0.48081969,-0.37114022,0.54548,0.44619046,-0.36446619,0.553876,0.45253819,-0.36714855,0.532707,0.41981929,-0.35769707,0.525932,0.38858615,-0.34068537,0.513833,0.3684835,-0.33046498,0.508451,0.38365241,-0.35224114,0.545024,0.35401655,-0.32735635,0.545417,0.36877383,-0.3188259,0.553515,0.39111317,-0.32325377,0.560473,0.40683621,-0.35629135,0.563476,0.41485854,-0.31803606,0.567085,0.44399375,-0.32828462,0.56919,0.4554413,-0.35305213,0.577394,0.42541288,-0.35871479,0.578158,0.43989313,-0.32368493,0.574166,0.4684043,-0.3359446,0.583789,0.49112941,-0.35037085,0.589245,0.45088294,-0.35791928,0.594847,0.46696556,-0.33805893,0.591362,0.48849808,-0.34620606,0.598743,0.50121232,-0.35821905,0.602832
0.48215309,-0.37311353,0.547468,0.44688509,-0.36545182,0.555072,0.45363901,-0.36916773,0.534488,0.42043348,-0.35824208,0.526774,0.3891305,-0.34115762,0.514614,0.36880093,-0.332162,0.509927,0.38429355,-0.35275227,0.545369,0.35413262,-0.32673807,0.545243,0.36992059,-0.3191624,0.553638,0.39250434,-0.32524018,0.560734,0.40687099,-0.35620287,0.563768,0.41457453,-0.31799594,0.566552,0.44154621,-0.32537531,0.568177,0.45416127,-0.35095724,0.576406,0.42547044,-0.35740608,0.578454,0.43991812,-0.32338618,0.573701,0.46895714,-0.33445554,0.583623,0.49187085,-0.35025843,0.589506,0.45155645,-0.35762971,0.595242,0.46662891,-0.33766556,0.591019,0.48845629,-0.34637149,0.598611,0.50205154,-0.35856091,0.603041
0.48332045,-0.37477064,0.549173,0.44735918,-0.36607609,0.555877,0.45452454,-0.3707294,0.535896,0.42119383,-0.35881185,0.52767,0.38953217,-0.34313843,0.515768,0.36918304,-0.33800501,0.5134,0.38445299,-0.35269027,0.545127,0.35549275,-0.32393941,0.544498,0.37383306,-0.31866144,0.553931,0.39368591,-0.32511428,0.55929,0.40602297,-0.35518207,0.563543,0.41376646,-0.31730065,0.565212,0.44011857,-0.32445995,0.566185,0.45254241,-0.34905338,0.574269,0.42474295,-0.35425636,0.578295,0.43934413,-0.32256953,0.572426,0.46878054,-0.33363017,0.582503,0.49186486,-0.34970212,0.588898,0.45188765,-0.35710438,0.595272,0.46598583,-0.33691293,0.590245,0.48825962,-0.34595659,0.597945,0.50235516,-0.35847661,0.602701
0.48573208,-0.37751425,0.552087,0.44859737,-0.36713489,0.557382,0.45644457,-0.37286729,0.538281,0.4220491,-0.35942554,0.528379,0.38947446,-0.34750822,0.51672,0.36892811,-0.34483557,0.5148,0.38477316,-0.35262902,0.544919,0.35702856,-0.32158534,0.543388,0.37644596,-0.31747155,0.552988,0.39559616,-0.32580357,0.557786,0.40647882,-0.35473429,0.563436,0.41229804,-0.31604546,0.563172,0.43820599,-0.32278915,0.563019,0.44990198,-0.34634954,0.570688,0.42533131,-0.35393681,0.578353,0.43864322,-0.3212321,0.570543,0.46987119,-0.33250361,0.580665,0.49137017,-0.34939718,0.587863,0.45283726,-0.35690225,0.595698,0.46571151,-0.33585429,0.589453,0.48790428,-0.34516856,0.597184,0.5026549,-0.35808365,0.602379
0.48751585,-0.37976133,0.554307,0.44967734,-0.36810831,0.558737,0.45788474,-0.37454682,0.540121,0.42280591,-0.36025867,0.529301,0.39002315,-0.34903232,0.517813,0.3693384,-0.34615812,0.51573,0.38535545,-0.35296178,0.545158,0.35788297,-0.32104633,0.542941,0.37777873,-0.31768329,0.55246,0.39879902,-0.32697571,0.557287,0.40649279,-0.35481194,0.563801,0.41160776,-0.31563761,0.562388,0.43698923,-0.32197729,0.561563,0.44887845,-0.34467635,0.56888,0.42622349,-0.35555168,0.578874,0.43838297,-0.32128966,0.57021,0.46772674,-0.33336081,0.580232,0.49143688,-0.3496128,0.587734,0.45380462,-0.35716748,0.596511,0.46553621,-0.33568031,0.589548,0.48807533,-0.34540314,0.597185,0.50329326,-0.35823381,0.602597
0.50101931,-0.42413348,0.576635,0.46551113,-0.39105928,0.570474,0.47246305,-0.41545617,0.56208,0.44691703,-0.38794928,0.548603,0.41148191,-0.36212308,0.526911,0.39018561,-0.34997406,0.52033,0.40423753,-0.35533587,0.548344,0.3678765,-0.31547344,0.533406,0.3592833,-0.29888619,0.534115,0.37512125,-0.29357763,0.546292,0.42510437,-0.35342529,0.563428,0.41482876,-0.30811895,0.549094,0.43304437,-0.31088441,0.540732,0.44642195,-0.33125716,0.548311,0.4442885,-0.3538295,0.576196,0.44260161,-0.31003025,0.559849,0.47354871,-0.32932711,0.574596,0.49408755,-0.34946057,0.587088,0.471579,-0.35828206,0.592326,0.48499188,-0.3450793,0.576311,0.50168282,-0.36543961,0.587267,0.5167244,-0.38377697,0.597152
0.50082413,-0.4231344,0.576353,0.46541176,-0.38997697,0.5702,0.47233288,-0.41445858,0.561872,0.44692026,-0.38695116,0.548479,0.41145974,-0.36102294,0.526711,0.39047468,-0.34804073,0.519894,0.40427965,-0.354184,0.548166,0.36798996,-0.31426211,0.533213,0.35940463,-0.29760041,0.533855,0.37531377,-0.29227804,0.546058,0.42511352,-0.35224801,0.563164,0.41495687,-0.30691999,0.548824,0.43315171,-0.3097527,0.540459,0.44652894,-0.3301803,0.548097,0.44426102,-0.35263735,0.575859,0.4415144,-0.30839114,0.560093,0.4727494,-0.32691887,0.574955,0.4947557,-0.34897958,0.587259,0.47149345,-0.3570845,0.591902,0.48493261,-0.34393796,0.575895,0.50163767,-0.36435131,0.586917,0.51666117,-0.3827151,0.596824
0.49866753,-0.42039629,0.575445,0.45860223,-0.37801381,0.570482,0.46821435,-0.41075379,0.560084,0.4590376,-0.37759286,0.562669,0.43053654,-0.33899228,0.539725,0.41826024,-0.32174574,0.537211,0.39385984,-0.34637561,0.548308,0.3737148,-0.30346092,0.536203,0.37046535,-0.28369497,0.530151,0.37981332,-0.27397488,0.536852,0.41891885,-0.34614836,0.564808,0.41640998,-0.30808966,0.551951,0.43527054,-0.31119612,0.544451,0.4486549,-0.3309903,0.551366,0.44165708,-0.34778003,0.578669,0.43392028,-0.3048601,0.561055,0.46366721,-0.31936843,0.574283,0.49226835,-0.34497455,0.586679,0.47421729,-0.35604847,0.595973,0.48170626,-0.33920049,0.580934,0.4993271,-0.35883415,0.590841,0.51539516,-0.37667333,0.599976
0.49498572,-0.41804052,0.572694,0.46030625,-0.37979954,0.572547,0.46528894,-0.40926462,0.55954,0.43523937,-0.38182334,0.556405,0.40436598,-0.3575063,0.544206,0.38814776,-0.34975131,0.546152,0.40025043,-0.34916983,0.556698,0.38419616,-0.30656688,0.551124,0.38468155,-0.29237546,0.548337,0.39551507,-0.28380443,0.557633,0.42641693,-0.34898331,0.572378,0.43666746,-0.31885729,0.564246,0.45511196,-0.33087446,0.559503,0.46667915,-0.35190621,0.568368,0.45287316,-0.34938404,0.585281,0.44286632,-0.31045725,0.572275,0.47380107,-0.32617162,0.586658,0.50129034,-0.35013717,0.597656,0.48622931,-0.35577727,0.600854,0.4902733,-0.34481581,0.589631,0.51097505,-0.35859557,0.600511,0.52775717,-0.3716151,0.608679
0.48961742,-0.41527653,0.56864,0.45398037,-0.37457471,0.564278,0.45856127,-0.40654098,0.56068,0.43946669,-0.38211942,0.55906,0.40624078,-0.3598107,0.54651,0.38672288,-0.34835763,0.5434,0.40331292,-0.33543195,0.551416,0.38669669,-0.29227618,0.540698,0.38435676,-0.27446304,0.535339,0.39412359,-0.26594467,0.546927,0.42731082,-0.33221191,0.559291,0.4383982,-0.31983452,0.546402,0.46692414,-0.3587498,0.569694,0.47114485,-0.37538857,0.581667,0.44844709,-0.33182264,0.566023,0.42887255,-0.2971625,0.551203,0.46231883,-0.31680014,0.570748,0.49181091,-0.34045712,0.584541,0.47691389,-0.33592014,0.574662,0.47786704,-0.32853551,0.560972,0.49915587,-0.34670018,0.575727,0.51339101,-0.36767017,0.586267
0.49187796,-0.41847865,0.572698,0.45575002,-0.37595437,0.565747,0.45944436,-0.40841859,0.563304,0.44175985,-0.38295081,0.560984,0.40827566,-0.35997837,0.547944,0.39285005,-0.34227638,0.543554,0.40248242,-0.33349671,0.549187,0.38559405,-0.28940559,0.536346,0.38822202,-0.27587842,0.529926,0.4011638,-0.27203477,0.540557,0.42715463,-0.33099046,0.557798,0.43571242,-0.31685425,0.542304,0.46346609,-0.35526832,0.5649,0.46842246,-0.37244027,0.577598,0.44898281,-0.33127056,0.565288,0.42938584,-0.2936423,0.548141,0.46035057,-0.31413038,0.567109,0.48979906,-0.33686918,0.58161,0.47856063,-0.33637394,0.575152,0.4772229,-0.32696183,0.559289,0.4977456,-0.34492376,0.573541,0.51205854,-0.36635214,0.58465
0.49222466,-0.41971737,0.574101,0.45648133,-0.37652032,0.565894,0.45970821,-0.40932487,0.564501,0.44229132,-0.38286995,0.560894,0.40839118,-0.35927249,0.547093,0.38925973,-0.34531881,0.542747,0.40214233,-0.33260716,0.548124,0.38493019,-0.28795286,0.534127,0.38667626,-0.2743815,0.527129,0.3994505,-0.27048693,0.537408,0.42669103,-0.33005288,0.556508,0.43215664,-0.30823605,0.539779,0.46168075,-0.34599212,0.562287,0.46734492,-0.3693482,0.575403,0.44845262,-0.33034551,0.563885,0.42815514,-0.29221694,0.545785,0.46134607,-0.31144038,0.564691,0.48855129,-0.33537933,0.579552,0.47803901,-0.33556451,0.573763,0.47584055,-0.32552033,0.556981,0.49619321,-0.34352542,0.571159,0.51057584,-0.36514936,0.582563
0.48850026,-0.42010334,0.57544,0.45624524,-0.37642883,0.565679,0.45608268,-0.40873236,0.564813,0.42385581,-0.37790182,0.558231,0.3967101,-0.35092451,0.546412,0.38055224,-0.33362102,0.541936,0.40097029,-0.3215791,0.545493,0.3952889,-0.28087305,0.530332,0.39488878,-0.26388833,0.522752,0.40726139,-0.25611617,0.532366,0.42699084,-0.32228262,0.554518,0.43137335,-0.30679401,0.536251,0.45922449,-0.34446585,0.558142,0.4648551,-0.36672531,0.571621,0.44872776,-0.32809746,0.562514,0.43912221,-0.28997108,0.54346,0.4705908,-0.3140818,0.561873,0.49194502,-0.34158404,0.576923,0.47828675,-0.3351039,0.573324,0.47503118,-0.32441522,0.555229,0.49493054,-0.34166469,0.568973,0.50970907,-0.36349922,0.580671
0.48014378,-0.42048561,0.573046,0.45282052,-0.37573062,0.564358,0.44203451,-0.40549028,0.563488,0.41267463,-0.37869056,0.556063,0.39127749,-0.34891788,0.5425,0.37797033,-0.329621,0.536894,0.40130417,-0.3217389,0.546272,0.39550286,-0.28018134,0.531123,0.39469518,-0.26274731,0.523548,0.40703342,-0.25500666,0.53352,0.42692768,-0.3248103,0.554424,0.43178006,-0.31038584,0.537231,0.46016444,-0.34753963,0.559766,0.46647586,-0.36784759,0.573059,0.44796337,-0.32804751,0.561638,0.43695998,-0.28923442,0.542774,0.46126225,-0.30963356,0.561686,0.48988792,-0.33447942,0.576858,0.47831648,-0.33583206,0.571378,0.47447029,-0.32467171,0.554278,0.49494931,-0.35195716,0.56847,0.50774948,-0.36766829,0.579991
0.47518944,-0.41875912,0.569718,0.45190565,-0.37484281,0.561918,0.43989735,-0.40524357,0.562604,0.41378419,-0.3789917,0.556927,0.39110734,-0.34912025,0.542997,0.378251,-0.32897878,0.536815,0.40294281,-0.32214763,0.547435,0.39711854,-0.28010126,0.532829,0.39632177,-0.26318376,0.525526,0.40913621,-0.25629639,0.536334,0.42737272,-0.32242121,0.552998,0.43161529,-0.31271896,0.536836,0.45990398,-0.35314442,0.560535,0.46718315,-0.36911195,0.57382,0.44960595,-0.32639068,0.558031,0.43629078,-0.28874967,0.541092,0.46705774,-0.31223677,0.561038,0.48926031,-0.33487167,0.575846,0.47758499,-0.33585589,0.565035,0.47181198,-0.33192067,0.54924,0.48843008,-0.35588113,0.564239,0.49933055,-0.37633722,0.575614
0.46530137,-0.42090367,0.569366,0.44950668,-0.37445499,0.561098,0.43854981,-0.40563462,0.562745,0.41362334,-0.37855091,0.557639,0.38926581,-0.34828975,0.54396,0.37882067,-0.32852359,0.538558,0.40321224,-0.32163888,0.546848,0.39721489,-0.27947851,0.531727,0.39603366,-0.26250272,0.524167,0.408615,-0.25554669,0.534922,0.42811765,-0.32253159,0.551644,0.42618581,-0.29496786,0.535092,0.45211876,-0.33159007,0.55893,0.46188017,-0.35611168,0.572399,0.45059819,-0.32659704,0.556074,0.44189946,-0.29522517,0.539197,0.4704091,-0.3198497,0.559284,0.49295399,-0.34741479,0.574123,0.47818225,-0.33659273,0.562408,0.46936291,-0.32711173,0.546464,0.48737856,-0.35127888,0.561558,0.49904671,-0.37118981,0.573022
0.4636459,-0.42103873,0.568429,0.4486334,-0.37427654,0.560484,0.43738365,-0.40573053,0.562341,0.41355356,-0.37858047,0.557939,0.38939027,-0.34824465,0.544707,0.37917757,-0.32843469,0.539539,0.40389853,-0.32181601,0.547118,0.39828948,-0.27967238,0.532437,0.39727356,-0.26200856,0.525097,0.40978411,-0.25550303,0.53608,0.42854079,-0.32272723,0.551399,0.42661917,-0.29562715,0.535218,0.45269218,-0.33257438,0.559239,0.46233701,-0.35700758,0.572633,0.4504872,-0.32675026,0.555386,0.4380162,-0.29068705,0.53886,0.46640283,-0.31311103,0.559101,0.48990777,-0.34012437,0.573861,0.47758535,-0.33662375,0.561146,0.46891068,-0.32707833,0.545598,0.48682332,-0.35138681,0.560824,0.4983346,-0.37119169,0.5722
0.46254724,-0.42113412,0.567811,0.44757757,-0.3739114,0.560024,0.43661223,-0.40580068,0.56208,0.41350708,-0.37859405,0.558113,0.38949335,-0.34824303,0.545195,0.37939006,-0.32835322,0.540157,0.40428664,-0.32187876,0.547204,0.39883718,-0.27968328,0.532685,0.39782872,-0.26201085,0.525425,0.4103058,-0.25531351,0.536515,0.42869044,-0.32276615,0.551118,0.42666201,-0.29577692,0.535132,0.45281899,-0.33285589,0.559262,0.46241449,-0.35724904,0.572618,0.45023125,-0.3266814,0.554795,0.43801193,-0.29075722,0.538563,0.4665988,-0.31334497,0.558902,0.48980147,-0.34004832,0.573581,0.47698604,-0.33642684,0.560162,0.46843525,-0.32691593,0.544841,0.48628399,-0.35130298,0.560146,0.49770287,-0.37104055,0.571472
0.46282552,-0.42143851,0.56903,0.44636909,-0.37360332,0.560826,0.43689575,-0.40595867,0.563279,0.41371918,-0.37786485,0.559838,0.39009872,-0.34762952,0.548036,0.37993113,-0.32716342,0.543611,0.40445132,-0.31907763,0.547665,0.398209,-0.27597616,0.532877,0.39770308,-0.2622346,0.525483,0.41029576,-0.25540655,0.536482,0.42670258,-0.32050458,0.551444,0.42670155,-0.29627805,0.535064,0.45248143,-0.33379078,0.55915,0.46193423,-0.35803184,0.572635,0.44675382,-0.32283153,0.555035,0.43748715,-0.28956911,0.53869,0.46757601,-0.3145841,0.559006,0.49077995,-0.34120852,0.573721,0.47423079,-0.3322247,0.560348,0.46818399,-0.32648691,0.544749,0.48613265,-0.35003825,0.56002,0.49747244,-0.37059233,0.571431
