sluyters/QuantumLeap/backend/src/datasets/dynamic/HandGestureDataset_SHREC2017_csv/Gesture6/finger_1/subject_23_essai_3_skeletons_world.csv
Wrist_x,Wrist_y,Wrist_z,Palm_x,Palm_y,Palm_z,thumb_base_x,thumb_base_y,thumb_base_z,thumb_first_joint_x,thumb_first_joint_y,thumb_first_joint_z,thumb_second_joint_x,thumb_second_joint_y,thumb_second_joint_z,thumb_tip_x,thumb_tip_y,thumb_tip_z,index_base_x,index_base_y,index_base_z,index_first_joint_x,index_first_joint_y,index_first_joint_z,index_second_joint_x,index_second_joint_y,index_second_joint_z,index_tip_x,index_tip_y,index_tip_z,middle_base_x,middle_base_y,middle_base_z,middle_first_joint_x,middle_first_joint_y,middle_first_joint_z,middle_second_joint_x,middle_second_joint_y,middle_second_joint_z,middle_tip_x,middle_tip_y,middle_tip_z,ring_base_x,ring_base_y,ring_base_z,ring_first_joint_x,ring_first_joint_y,ring_first_joint_z,ring_second_joint_x,ring_second_joint_y,ring_second_joint_z,ring_tip_x,ring_tip_y,ring_tip_z,pinky_base_x,pinky_base_y,pinky_base_z,pinky_first_joint_x,pinky_first_joint_y,pinky_first_joint_z,pinky_second_joint_x,pinky_second_joint_y,pinky_second_joint_z,pinky_tip_x,pinky_tip_y,pinky_tip_z,
0.361172028,-0.234183426,0.413981,0.340943723,-0.182174399,0.382084,0.330174656,-0.219857608,0.401099,0.28765405,-0.182366469,0.367492,0.257013483,-0.161670002,0.336966,0.239508491,-0.146259872,0.315365,0.295358434,-0.124003583,0.343647,0.290479415,-0.0763718763,0.324382,0.287714385,-0.0526127954,0.314749,0.286316474,-0.0453285107,0.305993,0.326774271,-0.13240158,0.351706,0.312712652,-0.087289905,0.309899,0.290452679,-0.100208861,0.285512,0.265385667,-0.110725832,0.268093,0.354465306,-0.144737929,0.36178,0.350345183,-0.109906514,0.325054,0.331820306,-0.118617069,0.306264,0.306197659,-0.12908016,0.289182,0.389759583,-0.168774432,0.379469,0.363644994,-0.147114011,0.345591,0.351003253,-0.1386045,0.330025,0.339626759,-0.145133978,0.31629
0.362291268,-0.234915086,0.417029,0.341724486,-0.182232278,0.383017,0.329819648,-0.21806678,0.403528,0.289102899,-0.181562088,0.369159,0.259240013,-0.16036039,0.338917,0.244150964,-0.141652985,0.317876,0.297066153,-0.124427799,0.342337,0.291642727,-0.0765633721,0.32257,0.292924198,-0.0537530764,0.312686,0.287660133,-0.0461224837,0.303701,0.328746844,-0.13378235,0.350623,0.31523064,-0.0934311651,0.307073,0.287220749,-0.106801611,0.281669,0.266685187,-0.114786943,0.269982,0.356748929,-0.146773295,0.361113,0.349761191,-0.119241615,0.322123,0.323380321,-0.129791439,0.302175,0.291945891,-0.136362999,0.284041,0.392430377,-0.171300825,0.379681,0.363508558,-0.152458502,0.34461,0.350063528,-0.144126124,0.328497,0.337168136,-0.147398696,0.314279
0.355134762,-0.232079946,0.414669,0.343701645,-0.183118131,0.385702,0.32443213,-0.213835416,0.400829,0.284599433,-0.18192121,0.366599,0.256331325,-0.159699194,0.335952,0.241059257,-0.139792871,0.315786,0.301204949,-0.125980683,0.348006,0.299642696,-0.0779709854,0.327383,0.298002778,-0.053981447,0.317072,0.296889771,-0.0463076234,0.307699,0.335830839,-0.137087242,0.358113,0.324635477,-0.113244673,0.318949,0.294561398,-0.130888033,0.296103,0.283343926,-0.141704287,0.296122,0.364630616,-0.151121665,0.369559,0.343723527,-0.122921369,0.332484,0.325389853,-0.135701585,0.313516,0.304714986,-0.143507811,0.297976,0.39954216,-0.178504969,0.388289,0.375148445,-0.154985811,0.355912,0.361502907,-0.165156043,0.341036,0.345155407,-0.171033442,0.328664
0.354234596,-0.2324875,0.416987,0.34397681,-0.18327347,0.387624,0.322839087,-0.21260412,0.401823,0.284159874,-0.181697942,0.366282,0.25529343,-0.159173403,0.334842,0.239487819,-0.138317194,0.314374,0.300116713,-0.125281637,0.347936,0.299803069,-0.0775234852,0.329559,0.301132797,-0.053584433,0.32037,0.302049982,-0.0459690834,0.312017,0.334753261,-0.135961245,0.359659,0.32584333,-0.114265199,0.320277,0.29695504,-0.132024411,0.297305,0.284377663,-0.14257682,0.296229,0.362810153,-0.14892802,0.372477,0.342506152,-0.160725099,0.337079,0.319567039,-0.171710218,0.318969,0.309924819,-0.173302015,0.317857,0.400958884,-0.174070004,0.392875,0.375898784,-0.178969114,0.360134,0.351191346,-0.184574033,0.34509,0.335376221,-0.188092421,0.343161
0.354337051,-0.231819661,0.418095,0.341539794,-0.180473748,0.38821,0.322711579,-0.211553643,0.402322,0.285978794,-0.181602741,0.366807,0.255928576,-0.161944706,0.334904,0.239376609,-0.141854243,0.313915,0.298965915,-0.124336746,0.347374,0.297937447,-0.0765364172,0.328926,0.297118961,-0.0526880783,0.319701,0.29870091,-0.0456832478,0.311316,0.333283582,-0.134190615,0.359748,0.324385902,-0.114570386,0.320006,0.295847443,-0.132413654,0.296823,0.28276513,-0.142234453,0.294952,0.361776695,-0.147275631,0.373159,0.342428051,-0.153640409,0.336865,0.320852121,-0.165435618,0.318296,0.309694555,-0.170211218,0.316215,0.400787568,-0.168499352,0.394342,0.376619023,-0.177544855,0.361281,0.351699795,-0.18345802,0.346091,0.335535179,-0.186406271,0.343543
0.351173501,-0.229228604,0.416458,0.339821809,-0.173499153,0.387704,0.320517206,-0.209233257,0.400036,0.286186061,-0.17924975,0.3645,0.26488837,-0.157535835,0.332788,0.251226037,-0.137115974,0.312059,0.297484302,-0.119809383,0.34679,0.29072435,-0.0688231131,0.327606,0.288805265,-0.0448594233,0.318015,0.292025238,-0.0430996778,0.309295,0.333104991,-0.129612792,0.360318,0.32303094,-0.113339337,0.321731,0.298054741,-0.132654676,0.299221,0.285349392,-0.142610708,0.297501,0.362849697,-0.139770596,0.374558,0.343623154,-0.147816492,0.337016,0.322156872,-0.159781327,0.317809,0.310664252,-0.165015962,0.315186,0.402522056,-0.166138892,0.39649,0.37928186,-0.169472007,0.364083,0.355471172,-0.177045678,0.349194,0.339295009,-0.183624366,0.346708
0.352004128,-0.229375041,0.417954,0.340237338,-0.175722841,0.388566,0.320965324,-0.209312868,0.400922,0.287379635,-0.179975482,0.365025,0.264020484,-0.157889439,0.333195,0.246917217,-0.136822849,0.312692,0.296504665,-0.121934746,0.346429,0.283908409,-0.0739411213,0.326852,0.278671184,-0.0495419145,0.317064,0.278549365,-0.0425045845,0.308165,0.331905682,-0.130452024,0.360578,0.32460761,-0.114222536,0.321599,0.297834637,-0.132791291,0.298861,0.284220868,-0.142032298,0.296151,0.362358867,-0.140572853,0.375397,0.344376181,-0.147782299,0.337333,0.322934807,-0.15950797,0.317858,0.310112066,-0.163477663,0.314194,0.401866092,-0.16513346,0.398121,0.380802418,-0.169662694,0.365397,0.357210337,-0.177268579,0.350361,0.340249104,-0.182724403,0.347119
0.350848783,-0.22828572,0.417428,0.341447455,-0.176475008,0.388262,0.320745771,-0.208855192,0.400157,0.291505701,-0.182203872,0.363784,0.263418673,-0.157985429,0.332129,0.24910905,-0.137178453,0.311618,0.295769208,-0.121727646,0.345964,0.28150578,-0.0719144942,0.326577,0.277999442,-0.0526915101,0.316883,0.278750346,-0.0440283321,0.308071,0.330821903,-0.129325891,0.360485,0.322712014,-0.113302061,0.321781,0.298438004,-0.13256795,0.299203,0.284929879,-0.141789214,0.296382,0.362355545,-0.139958174,0.375586,0.345412136,-0.146456173,0.337654,0.325841525,-0.157520995,0.318247,0.312413491,-0.160824887,0.314437,0.401229027,-0.16317024,0.398597,0.383331782,-0.167069562,0.366025,0.360673971,-0.175187739,0.35106,0.343332677,-0.180056953,0.347721
0.35089887,-0.227276263,0.41714,0.341901458,-0.17835621,0.387795,0.321155821,-0.208519604,0.400308,0.293461761,-0.184088205,0.363404,0.265203166,-0.159369098,0.331923,0.252984412,-0.140732601,0.311113,0.292525657,-0.121610121,0.345947,0.273561962,-0.0734225569,0.329365,0.271550713,-0.0539405649,0.321075,0.277459318,-0.0447922137,0.313537,0.328085049,-0.128048205,0.359848,0.315930916,-0.105512455,0.320844,0.296767261,-0.127121724,0.298092,0.284824856,-0.139666193,0.295613,0.359260049,-0.138689067,0.374457,0.344839958,-0.14045586,0.336656,0.326929699,-0.152826859,0.317315,0.31395659,-0.158531817,0.313968,0.398473588,-0.160596654,0.396931,0.385544333,-0.15559741,0.364211,0.368344247,-0.16669581,0.349178,0.348401483,-0.174618167,0.346116
0.352300803,-0.227135603,0.418315,0.339360221,-0.176465155,0.385197,0.322144919,-0.208669872,0.401092,0.293845929,-0.184842421,0.363761,0.266299632,-0.161030194,0.33181,0.253853802,-0.141225502,0.310645,0.285742793,-0.12047056,0.340276,0.26390825,-0.0726096083,0.319054,0.257415505,-0.0558291018,0.308443,0.258185355,-0.0437405035,0.298797,0.321455018,-0.125876139,0.353655,0.306481043,-0.102599497,0.311685,0.285991765,-0.121599109,0.287202,0.271368457,-0.132975353,0.281435,0.35245947,-0.136116982,0.368242,0.319602026,-0.0849763117,0.336375,0.31559886,-0.0868803782,0.320071,0.323736475,-0.107168475,0.323041,0.392499494,-0.157831212,0.391398,0.377382342,-0.152389179,0.356838,0.359066251,-0.161900126,0.340959,0.338752566,-0.16849377,0.335498
0.353389301,-0.22728139,0.418852,0.339007599,-0.174760282,0.386435,0.322670961,-0.209096963,0.401269,0.292869465,-0.184008886,0.363738,0.265877472,-0.160173243,0.331633,0.253441002,-0.140319455,0.310497,0.278222891,-0.118583926,0.341523,0.255498239,-0.0736898552,0.320233,0.247110545,-0.0535636166,0.309588,0.240819875,-0.0361565017,0.299911,0.313717556,-0.121552553,0.355562,0.300806053,-0.103314621,0.3143,0.287549159,-0.120685755,0.29023,0.273975268,-0.134489941,0.284592,0.346473502,-0.129650727,0.370616,0.319177472,-0.0835243977,0.334728,0.312740203,-0.088134102,0.316366,0.315831702,-0.10716717,0.31546,0.390532481,-0.149413291,0.394184,0.375378619,-0.144668005,0.360031,0.34737129,-0.151409464,0.344339,0.330262494,-0.151894122,0.338945
0.354414557,-0.226754281,0.4189,0.338410931,-0.172336187,0.386459,0.323160078,-0.209154564,0.40115,0.29206842,-0.182538879,0.363551,0.265230879,-0.159507586,0.331385,0.25219949,-0.139269907,0.310221,0.273503323,-0.114673327,0.341311,0.251598806,-0.0727650615,0.318517,0.238503264,-0.0519035371,0.30712,0.234817513,-0.035659498,0.296759,0.308964735,-0.116357096,0.355562,0.298229598,-0.102559411,0.314377,0.28306824,-0.118588912,0.290351,0.273870497,-0.132459791,0.284442,0.342062227,-0.123352782,0.370794,0.317679001,-0.0813242155,0.333129,0.309961798,-0.0872951206,0.313858,0.30970881,-0.10539535,0.310257,0.387196664,-0.141809459,0.394572,0.371582945,-0.136032301,0.360466,0.344206875,-0.143740357,0.344796,0.327680901,-0.144840303,0.339195
0.355007473,-0.223687997,0.415753,0.334782481,-0.165434695,0.386413,0.321109919,-0.20687383,0.396749,0.295752798,-0.177428259,0.358762,0.275513742,-0.15491589,0.326289,0.265206875,-0.134412477,0.305396,0.265939565,-0.113950293,0.341739,0.240685317,-0.0756756738,0.31755,0.229186642,-0.056527486,0.305455,0.220498035,-0.03982647,0.29446,0.301692359,-0.11339075,0.35847,0.29305618,-0.0887850968,0.320529,0.288370845,-0.0975670929,0.298398,0.284236873,-0.114917657,0.292996,0.335545415,-0.118244834,0.375409,0.33295647,-0.117959671,0.340601,0.317770851,-0.12865851,0.322792,0.302203953,-0.127832789,0.317142,0.382494736,-0.133782337,0.400586,0.364766359,-0.131475941,0.368459,0.340464638,-0.141279543,0.353698,0.326255543,-0.14392806,0.348375
0.366498554,-0.208321194,0.412239,0.337052049,-0.150533686,0.387665,0.332221601,-0.198953952,0.395193,0.299789849,-0.167391011,0.358932,0.272029423,-0.146180578,0.327016,0.258086135,-0.126648095,0.306719,0.272279607,-0.109515038,0.348775,0.23775173,-0.0687820425,0.323169,0.223344361,-0.0495747872,0.310365,0.210954748,-0.0320540017,0.298726,0.306852003,-0.104633796,0.36426,0.299774434,-0.0788099294,0.329741,0.299698102,-0.088112616,0.309604,0.303987179,-0.108296724,0.309611,0.339517266,-0.105501748,0.37966,0.337176844,-0.110917368,0.345051,0.322404677,-0.123924069,0.327343,0.31121385,-0.129128385,0.326231,0.384453333,-0.115618484,0.402154,0.368281066,-0.122875707,0.372333,0.34706385,-0.134696478,0.358632,0.33564011,-0.14453108,0.357348
0.372392706,-0.197280774,0.413646,0.335629842,-0.148299672,0.386902,0.338560369,-0.191505666,0.396975,0.302635001,-0.16762187,0.360579,0.27447573,-0.147114558,0.328818,0.259441883,-0.127520994,0.308144,0.268360101,-0.109748703,0.34703,0.226041539,-0.0725531411,0.320213,0.20923289,-0.0544894223,0.306805,0.194666333,-0.0379931846,0.294616,0.297623323,-0.102021878,0.361432,0.287025446,-0.074264556,0.324753,0.288243044,-0.0813392848,0.303357,0.295851872,-0.103005922,0.302579,0.328741416,-0.0996042179,0.376174,0.32780889,-0.101821665,0.340013,0.316498041,-0.114332992,0.321512,0.306213567,-0.122045467,0.319731,0.373260606,-0.105394202,0.398313,0.35872442,-0.112012294,0.367113,0.338620778,-0.124215982,0.352778,0.328674721,-0.129184863,0.350955
0.366105584,-0.201089761,0.410145,0.325282984,-0.150161609,0.385364,0.328372001,-0.197925902,0.392913,0.296738381,-0.167221209,0.356474,0.270097414,-0.145634666,0.32455,0.255288732,-0.125958775,0.304247,0.257586323,-0.114303206,0.346094,0.218411167,-0.0753081315,0.319386,0.202088374,-0.0564600832,0.306032,0.191113131,-0.0385324549,0.293892,0.289103532,-0.106249494,0.361763,0.281946286,-0.0758610435,0.327098,0.288826025,-0.0818618328,0.306877,0.296119984,-0.100968105,0.306599,0.319745385,-0.104200211,0.377336,0.322614297,-0.103793249,0.34255,0.31298006,-0.11665167,0.324753,0.307663429,-0.123420187,0.323341,0.363370867,-0.110352743,0.400071,0.352834429,-0.114811212,0.370133,0.33439015,-0.127532167,0.356378,0.324592805,-0.133526045,0.354875
0.338968771,-0.215135811,0.408939,0.307535777,-0.164959249,0.383994,0.315791436,-0.205976559,0.389096,0.286547578,-0.178369581,0.354901,0.267064287,-0.14702084,0.322811,0.253693475,-0.126208446,0.303506,0.258911921,-0.127067823,0.341211,0.221706795,-0.0882558323,0.316742,0.202709844,-0.0682210017,0.304508,0.185159884,-0.0495614274,0.293386,0.285873251,-0.121378968,0.360237,0.266877007,-0.0726535146,0.32677,0.276808879,-0.0786655617,0.307247,0.27804063,-0.0944822442,0.30322,0.310660804,-0.121536705,0.378594,0.294167238,-0.0840524192,0.343914,0.298525461,-0.0906335957,0.326171,0.295213344,-0.103295647,0.320718,0.343814291,-0.130369324,0.40459,0.350197022,-0.137501819,0.375335,0.350729284,-0.147469094,0.378282,0.359461163,-0.159435536,0.38972
0.36203126,-0.159178497,0.392774,0.307487029,-0.122980338,0.366371,0.335696727,-0.166264928,0.387911,0.298647263,-0.160877258,0.367121,0.276093963,-0.152070199,0.34281,0.271728308,-0.135356186,0.322042,0.239415953,-0.108857436,0.34211,0.193360838,-0.0759463227,0.309992,0.171323605,-0.0612546203,0.293933,0.160592256,-0.0603063452,0.279334,0.256810164,-0.0895779994,0.341225,0.243698004,-0.0990609738,0.304978,0.244376896,-0.104776841,0.283834,0.247066694,-0.10272806,0.287635,0.277439756,-0.0768599301,0.343342,0.267827449,-0.0866571999,0.312282,0.268116847,-0.0939875475,0.29639,0.271083519,-0.0931684775,0.30062,0.312623992,-0.0680555139,0.350763,0.28979852,-0.086641717,0.322637,0.299647271,-0.108338977,0.334124,0.311276992,-0.12270593,0.348476
0.351754722,-0.150742209,0.379647,0.295670715,-0.116819951,0.352117,0.328508934,-0.159477537,0.377157,0.294109344,-0.15687486,0.359668,0.270894024,-0.14880044,0.335351,0.266740119,-0.131360562,0.316057,0.230792196,-0.106031047,0.330181,0.182202884,-0.0780810824,0.297819,0.159223472,-0.0654147606,0.281639,0.148195138,-0.0649875533,0.266929,0.243994009,-0.0858191472,0.325897,0.22921816,-0.0939201658,0.288182,0.2639285,-0.112369701,0.306672,0.28023371,-0.115243754,0.326119,0.260981358,-0.0722576672,0.325337,0.251330371,-0.0813274523,0.294979,0.279315571,-0.0967640429,0.309693,0.295050352,-0.0997307738,0.32783,0.291730277,-0.0620374733,0.329862,0.269918878,-0.0798302961,0.302218,0.280003902,-0.10009695,0.312998,0.291970159,-0.113482762,0.326907
0.35643989,-0.154001521,0.388218,0.300588916,-0.120154494,0.359668,0.330932238,-0.161987212,0.382459,0.303441436,-0.157270371,0.361212,0.276909771,-0.151147346,0.334661,0.262476224,-0.132515621,0.313952,0.23282829,-0.109881479,0.332781,0.184763956,-0.0864021793,0.298984,0.160393891,-0.0735974291,0.282085,0.144921184,-0.0647118795,0.266723,0.248833539,-0.0890109107,0.332476,0.234037783,-0.0895346511,0.294277,0.269567482,-0.112977305,0.312706,0.28604376,-0.117239021,0.332309,0.268999682,-0.0767584313,0.335303,0.253563125,-0.0753406701,0.302227,0.284396322,-0.0918563013,0.31677,0.302889091,-0.101800188,0.335935,0.298799017,-0.068277813,0.34395,0.284765188,-0.083957809,0.314198,0.292874732,-0.0989283396,0.324813,0.304743281,-0.113690403,0.339401
0.35857911,-0.155282498,0.393619,0.29679538,-0.123692458,0.362883,0.332011357,-0.163402958,0.385634,0.303403074,-0.157586423,0.361729,0.274755451,-0.150361726,0.334422,0.261766672,-0.132678085,0.313626,0.226478498,-0.119703868,0.331614,0.175519806,-0.0965274413,0.295355,0.155827993,-0.0881928734,0.287687,0.141161241,-0.0822298555,0.280715,0.239702443,-0.0983039467,0.333612,0.226784836,-0.0918695286,0.293801,0.266001741,-0.108497823,0.310557,0.283042936,-0.116210561,0.330216,0.256908571,-0.0830832784,0.338569,0.243684458,-0.0763433753,0.302783,0.274740298,-0.0892944872,0.315941,0.298020946,-0.0992022922,0.335648,0.28813924,-0.0698832474,0.350101,0.277880574,-0.0826228957,0.318243,0.286707938,-0.0974469134,0.327746,0.303919163,-0.113590649,0.342643
0.357917018,-0.15297357,0.393011,0.29488351,-0.122906541,0.36175,0.332263342,-0.162174437,0.384807,0.303660459,-0.156631279,0.360871,0.275938566,-0.1494808,0.333606,0.260252367,-0.13180896,0.313205,0.22541681,-0.121724313,0.329839,0.173705811,-0.104912582,0.293179,0.155796734,-0.0996275535,0.286601,0.138417342,-0.0945929665,0.28062,0.233999235,-0.101393851,0.331978,0.223156926,-0.0902714476,0.29172,0.260474904,-0.105098174,0.30804,0.280228106,-0.114700575,0.327725,0.247692939,-0.0841655614,0.337108,0.234525391,-0.0724362312,0.300857,0.266891456,-0.0827748528,0.31367,0.290942713,-0.0953880555,0.333426,0.275819264,-0.0671927542,0.34894,0.266363389,-0.0721335195,0.316715,0.27895989,-0.0881257074,0.325941,0.297284171,-0.108035784,0.34086
0.355282965,-0.150392336,0.391037,0.289280793,-0.122753078,0.359641,0.331111266,-0.160750225,0.383264,0.301659688,-0.156421053,0.360698,0.272943945,-0.149303315,0.333968,0.253496569,-0.133995646,0.313998,0.221509771,-0.13055746,0.328198,0.170316584,-0.115346513,0.291899,0.1525936,-0.112602738,0.285383,0.135379502,-0.110094897,0.279459,0.226950829,-0.106900246,0.329739,0.215177502,-0.09546712,0.289242,0.255733769,-0.104227209,0.305512,0.274044212,-0.112977031,0.325267,0.238173838,-0.0885889099,0.334393,0.230426519,-0.0788182929,0.298279,0.263478243,-0.0846153973,0.311071,0.28452623,-0.0938971835,0.330764,0.26343308,-0.0694130526,0.345695,0.256453132,-0.0745941687,0.313557,0.269984591,-0.0894038646,0.322767,0.290353271,-0.10375064,0.337649
0.353212617,-0.146551379,0.390594,0.287632934,-0.122488613,0.359137,0.331150924,-0.159544408,0.383024,0.303056208,-0.156027527,0.361052,0.273368446,-0.149596582,0.334673,0.252866321,-0.134970444,0.315001,0.221250236,-0.131911094,0.327919,0.169580659,-0.12096896,0.291735,0.152095614,-0.120125017,0.286093,0.135035695,-0.119479952,0.280963,0.225258524,-0.108044957,0.329178,0.213163423,-0.0960608516,0.288574,0.252131878,-0.105513615,0.304814,0.272332547,-0.112611215,0.324599,0.235295557,-0.0893561405,0.333605,0.227405704,-0.0790019341,0.297563,0.259431206,-0.0862029572,0.31034,0.279465762,-0.0940277145,0.329999,0.255708708,-0.0694644401,0.344656,0.252816044,-0.073908122,0.312564,0.266990772,-0.0882760614,0.321763,0.285105639,-0.102823604,0.336625
0.347223421,-0.140444796,0.38837,0.278850733,-0.12236369,0.356807,0.328807814,-0.15758389,0.380705,0.299791626,-0.1542154,0.358962,0.271588048,-0.148371375,0.332629,0.25290618,-0.134685187,0.313624,0.217046295,-0.13841819,0.32539,0.166639208,-0.128752353,0.28907,0.148199928,-0.129628625,0.283487,0.130255595,-0.130685935,0.278411,0.216587881,-0.114381239,0.326746,0.208448271,-0.0970336033,0.286063,0.248640115,-0.104156417,0.302209,0.266181199,-0.111654053,0.321992,0.222764389,-0.0949693664,0.331264,0.217156734,-0.080267626,0.295025,0.249067137,-0.0838381031,0.307722,0.272003106,-0.0917503441,0.327427,0.241810307,-0.0729924544,0.342441,0.239482834,-0.0745618086,0.310254,0.254956883,-0.0882849878,0.319391,0.27779583,-0.101598051,0.334262
0.33933398,-0.138590182,0.384404,0.263607207,-0.125968602,0.35364,0.321719842,-0.156978772,0.377023,0.280503208,-0.166005355,0.354726,0.261885217,-0.156711085,0.327987,0.249430561,-0.132119923,0.307495,0.203486183,-0.137726401,0.323139,0.154764573,-0.132921961,0.287518,0.134321006,-0.134090668,0.277229,0.133339443,-0.131583985,0.267875,0.205105307,-0.113295633,0.324341,0.204618663,-0.0974837451,0.284352,0.238557078,-0.104913328,0.301151,0.250268558,-0.112948217,0.320889,0.212984047,-0.0941056771,0.328647,0.215910166,-0.0801229752,0.293165,0.245086543,-0.0849473897,0.306383,0.251914979,-0.0942476843,0.32599,0.233925155,-0.0733578057,0.339427,0.231161938,-0.0742531046,0.307783,0.247592581,-0.0888541417,0.317333,0.262279973,-0.100681409,0.332173
0.335140955,-0.137699742,0.38178,0.261609151,-0.126147995,0.351558,0.318836577,-0.156151027,0.375098,0.279721088,-0.166556735,0.353471,0.261099171,-0.15822513,0.327195,0.249171132,-0.132427922,0.306895,0.202762915,-0.139411064,0.322335,0.154102425,-0.139274331,0.287573,0.133526629,-0.141658794,0.277156,0.132028767,-0.139842085,0.267687,0.20333862,-0.114710745,0.322775,0.201966248,-0.0993437424,0.283146,0.237427774,-0.106118626,0.300386,0.249082053,-0.113805844,0.320132,0.210316379,-0.0951897276,0.326395,0.213502697,-0.0818821854,0.291662,0.24023589,-0.0872301334,0.305249,0.249958691,-0.0947480701,0.324702,0.23012954,-0.0738318552,0.336278,0.227692734,-0.0750706337,0.305208,0.24527609,-0.0895950133,0.315055,0.261418628,-0.101888974,0.329808
0.332136191,-0.137171264,0.379939,0.259253806,-0.126231185,0.348585,0.316561423,-0.155462242,0.374709,0.280157566,-0.169624416,0.353352,0.263980678,-0.168027919,0.328662,0.254984815,-0.146300152,0.308957,0.201586142,-0.142769774,0.320484,0.154986435,-0.146122207,0.286182,0.135056644,-0.150120967,0.275475,0.134310496,-0.150044363,0.265741,0.200073919,-0.117314329,0.318724,0.199466057,-0.107237722,0.277744,0.233325321,-0.111210689,0.293951,0.244274139,-0.113326064,0.313862,0.205367758,-0.0970695868,0.320654,0.209590746,-0.0887230395,0.28603,0.235444223,-0.09178085,0.298878,0.244678302,-0.0942113302,0.317991,0.223280137,-0.0745782138,0.328788,0.221943746,-0.0801796145,0.297744,0.239707951,-0.0936677391,0.307008,0.256300178,-0.103268371,0.321525
0.318635116,-0.13289241,0.371977,0.253181633,-0.126018514,0.342107,0.308152314,-0.151017789,0.366839,0.287002116,-0.154357498,0.345055,0.26395503,-0.156931276,0.319673,0.247300602,-0.137495541,0.299378,0.197584577,-0.145039565,0.315134,0.157510753,-0.147246564,0.28161,0.140784699,-0.150424283,0.270655,0.139601266,-0.150366097,0.260696,0.193002905,-0.123113032,0.31366,0.191757819,-0.11056734,0.274065,0.229761978,-0.110422683,0.291466,0.242089067,-0.11292989,0.31125,0.196300382,-0.102861007,0.315665,0.183944036,-0.0936418148,0.282066,0.216322528,-0.101538597,0.295839,0.235840997,-0.108632166,0.314909,0.211810094,-0.0789007406,0.323607,0.210207305,-0.0820254425,0.293394,0.230111082,-0.0900627627,0.303397,0.242969383,-0.0942431374,0.317909
0.315688509,-0.132805874,0.369281,0.24965941,-0.136083495,0.340662,0.301491208,-0.152434817,0.363373,0.282616234,-0.152936621,0.338545,0.259445902,-0.151286179,0.311084,0.244837538,-0.129860545,0.290309,0.198805559,-0.157681701,0.313535,0.157904916,-0.156856302,0.280372,0.140365734,-0.160016861,0.269635,0.137584955,-0.15866564,0.259874,0.193082667,-0.134132265,0.313407,0.19222815,-0.113386556,0.275171,0.229151914,-0.112995889,0.293561,0.242934625,-0.117413907,0.313163,0.194506593,-0.114366657,0.316385,0.18167868,-0.100544331,0.283177,0.216239278,-0.104409522,0.297682,0.23608205,-0.112048617,0.316886,0.207319275,-0.0904954662,0.325222,0.206759271,-0.0885020275,0.295368,0.227785557,-0.0960717431,0.305953,0.242928426,-0.0981593664,0.320564
0.313324717,-0.132619359,0.366389,0.249222194,-0.137380146,0.337267,0.301995067,-0.151560647,0.360396,0.287140174,-0.156255959,0.335395,0.265824208,-0.152490044,0.308065,0.244594638,-0.128768375,0.287377,0.202883344,-0.163648547,0.309688,0.162511144,-0.164227262,0.275957,0.146453274,-0.169382848,0.266686,0.144415289,-0.169058216,0.258258,0.195065413,-0.140877049,0.309532,0.188034218,-0.122885819,0.270822,0.225462227,-0.119428709,0.288859,0.239658947,-0.121268108,0.308523,0.194644872,-0.121444884,0.312542,0.173965893,-0.107664047,0.278942,0.207285414,-0.111784046,0.293173,0.231234899,-0.115989431,0.312425,0.205102932,-0.097322813,0.32151,0.204671623,-0.0938029596,0.291337,0.225933506,-0.0999660155,0.301701,0.238437597,-0.102321007,0.316339
0.311891349,-0.135087928,0.366268,0.251324255,-0.142913381,0.337694,0.300094053,-0.153173697,0.359255,0.28509409,-0.155909693,0.332981,0.262956289,-0.15034374,0.304637,0.242335186,-0.126694709,0.283718,0.20407119,-0.169060843,0.309157,0.16271609,-0.16548816,0.27472,0.147042979,-0.170547955,0.26591,0.145173878,-0.169682187,0.257901,0.195956421,-0.147318505,0.31048,0.188998624,-0.12451791,0.272536,0.226471421,-0.120927624,0.290932,0.242009879,-0.126216485,0.310432,0.195156908,-0.128686125,0.314649,0.177403986,-0.109657691,0.280855,0.210754223,-0.113457043,0.29532,0.233247523,-0.121294049,0.314744,0.20488789,-0.105441557,0.32486,0.205670042,-0.0965486203,0.294585,0.227234667,-0.102790704,0.305135,0.240622508,-0.108098906,0.319881
0.310203247,-0.135263037,0.364488,0.250099002,-0.143674637,0.336485,0.299275032,-0.153498638,0.357691,0.284299485,-0.156116527,0.331776,0.262607673,-0.150608093,0.303301,0.243881527,-0.125887374,0.282431,0.204081705,-0.169971835,0.308618,0.165108293,-0.169878401,0.274892,0.151465091,-0.177529194,0.265161,0.147674196,-0.172869208,0.256314,0.19556799,-0.148372162,0.309815,0.189640247,-0.127393384,0.272385,0.226893516,-0.122283628,0.291173,0.242067983,-0.127458156,0.31061,0.194327628,-0.129688051,0.313819,0.178714297,-0.113179093,0.280539,0.21208289,-0.116346722,0.295315,0.23314712,-0.122697603,0.314656,0.20338351,-0.106129234,0.32373,0.204032909,-0.0995669115,0.293869,0.225618353,-0.105488805,0.30467,0.239597746,-0.109184244,0.319367
0.309730669,-0.135551426,0.363777,0.249525472,-0.143936742,0.334909,0.299985046,-0.154216376,0.357744,0.285705169,-0.156810354,0.33272,0.265010881,-0.151944032,0.305247,0.24740875,-0.128312553,0.28451,0.20567918,-0.171668549,0.30745,0.171776456,-0.176807022,0.274032,0.159317815,-0.185235671,0.266532,0.160204291,-0.187009119,0.259715,0.195896789,-0.150081134,0.307415,0.19340299,-0.13389984,0.269027,0.22896223,-0.127947587,0.28725,0.240162102,-0.128579176,0.306856,0.193532318,-0.131231204,0.310498,0.180667495,-0.120811723,0.277048,0.214164093,-0.123146318,0.291416,0.238861991,-0.127977787,0.310663,0.201170687,-0.107121507,0.319502,0.205128389,-0.104498797,0.289455,0.223962512,-0.106864487,0.29993,0.236026582,-0.11027791,0.314567
0.308598961,-0.136466076,0.363257,0.247383275,-0.154692271,0.333625,0.301196764,-0.159028272,0.356151,0.283307202,-0.155801435,0.329626,0.264420404,-0.15168395,0.301639,0.245451305,-0.128758926,0.280851,0.208801043,-0.180929477,0.304249,0.177158288,-0.181807198,0.269535,0.165114281,-0.186743379,0.258175,0.165791051,-0.182971591,0.247848,0.197043662,-0.161149579,0.305403,0.193045798,-0.133797001,0.26612,0.226391753,-0.127112942,0.283757,0.238385426,-0.130224563,0.303503,0.192590196,-0.143486929,0.309548,0.180036482,-0.122360178,0.274976,0.212628322,-0.123308659,0.288868,0.23643852,-0.128767278,0.308377,0.196986339,-0.120343011,0.319928,0.203474373,-0.106932109,0.289016,0.221415768,-0.113432535,0.299106,0.234782297,-0.115536333,0.313897
0.307828696,-0.137847801,0.362947,0.249702975,-0.155612924,0.334029,0.301626939,-0.159937195,0.356337,0.286774353,-0.157169012,0.330545,0.269992488,-0.151808761,0.302576,0.248549617,-0.130804867,0.281851,0.216531552,-0.183826899,0.305785,0.181980146,-0.188176465,0.271895,0.169885299,-0.196398562,0.262996,0.169948138,-0.196223637,0.254907,0.203313205,-0.164526009,0.306489,0.198816855,-0.136475506,0.267936,0.229722816,-0.128411391,0.286109,0.242133627,-0.133699172,0.305759,0.195225492,-0.145471964,0.310185,0.184105689,-0.126528802,0.276375,0.215546072,-0.124833369,0.290693,0.23880436,-0.130304161,0.310065,0.198391491,-0.122260691,0.31991,0.204105183,-0.110668956,0.289599,0.223487921,-0.1144542,0.300032,0.235365296,-0.117484651,0.314745
0.307584714,-0.13956149,0.362596,0.254220197,-0.158363871,0.333937,0.303413747,-0.161993206,0.356407,0.295377865,-0.161506881,0.331201,0.278201168,-0.15666952,0.30356,0.257815469,-0.14233417,0.282498,0.222261352,-0.188687607,0.306416,0.187328105,-0.194050816,0.272648,0.175638225,-0.203398305,0.264452,0.173611151,-0.201135738,0.257001,0.208331838,-0.169527861,0.306642,0.205670067,-0.142676134,0.268406,0.237198314,-0.134171146,0.286771,0.246749141,-0.1377907,0.306367,0.201888305,-0.152213454,0.309917,0.190247745,-0.133830306,0.27652,0.222692831,-0.132366762,0.290997,0.243204713,-0.134665339,0.310266,0.203525359,-0.129135368,0.319105,0.208918583,-0.116829911,0.289111,0.228523939,-0.119814298,0.299673,0.237076163,-0.122771035,0.314324
0.308014282,-0.143138715,0.363259,0.257681666,-0.162623367,0.335091,0.304739975,-0.163320097,0.35721,0.296147599,-0.162868916,0.332251,0.279182673,-0.158026273,0.304547,0.258745893,-0.143885504,0.283466,0.224619601,-0.191350559,0.308086,0.192634725,-0.199225643,0.274979,0.182150078,-0.209356811,0.267348,0.180656004,-0.208942653,0.260411,0.210201404,-0.172554787,0.308264,0.20776555,-0.145499394,0.270497,0.239108115,-0.136737808,0.289196,0.250695152,-0.142585653,0.308727,0.20323814,-0.155457503,0.311447,0.191932599,-0.137157974,0.278469,0.22436137,-0.135394462,0.293208,0.246795192,-0.140057072,0.312412,0.204061919,-0.132496018,0.320437,0.209775721,-0.119759025,0.290781,0.229442982,-0.122511448,0.301553,0.240018687,-0.127637577,0.316168
0.313764516,-0.159618719,0.370531,0.259266468,-0.176133049,0.337433,0.311548367,-0.180158262,0.362182,0.30019885,-0.171917408,0.333758,0.289926809,-0.160032224,0.306486,0.275106867,-0.142031932,0.287199,0.224868128,-0.198866907,0.304085,0.193558753,-0.195661441,0.266067,0.181436449,-0.198050717,0.251988,0.1815996,-0.19053656,0.239188,0.211593155,-0.179949675,0.305912,0.214174792,-0.138000836,0.263431,0.235315811,-0.132579505,0.278164,0.242249935,-0.141862516,0.298155,0.205665124,-0.163431362,0.310983,0.197914778,-0.13433322,0.273465,0.226816254,-0.132190694,0.28507,0.24265282,-0.138192578,0.304855,0.207846731,-0.142538561,0.323091,0.215280468,-0.122888094,0.289846,0.230660865,-0.127312887,0.29811,0.238090411,-0.131941991,0.313014
0.315365309,-0.175873129,0.375142,0.262805285,-0.179562038,0.340207,0.314062241,-0.19246076,0.366236,0.306143076,-0.178745793,0.337055,0.297520291,-0.16753367,0.310517,0.281975955,-0.147126117,0.291933,0.226610514,-0.201105017,0.304887,0.194654678,-0.196868485,0.265493,0.183083703,-0.199577822,0.251862,0.183864588,-0.192493944,0.23947,0.213808111,-0.18215743,0.306935,0.217657186,-0.141533973,0.262877,0.236803565,-0.135510963,0.275755,0.242170816,-0.145361097,0.295734,0.208387047,-0.16570671,0.312387,0.202789298,-0.137856746,0.273451,0.230440945,-0.135618719,0.283597,0.247207532,-0.142666769,0.303373,0.211377905,-0.145017533,0.325282,0.217519836,-0.124836004,0.290935,0.232420918,-0.128795676,0.298043,0.241245266,-0.137125012,0.312888
0.318739888,-0.180770791,0.378845,0.267187477,-0.18593161,0.34294,0.317439287,-0.197169692,0.369677,0.309105528,-0.182717932,0.34018,0.301214583,-0.171101553,0.314215,0.287598253,-0.152869618,0.295331,0.232900309,-0.208578394,0.30662,0.202884722,-0.202173408,0.26666,0.192540207,-0.203947507,0.252802,0.190345631,-0.195197778,0.240205,0.220076854,-0.189834947,0.308745,0.219206761,-0.148690894,0.263897,0.239745963,-0.140766031,0.275675,0.245893575,-0.149446121,0.295595,0.214549832,-0.173764569,0.314364,0.205688123,-0.14010463,0.274729,0.232273008,-0.137434908,0.284013,0.25068903,-0.14699716,0.303726,0.217233947,-0.153928921,0.327636,0.221572361,-0.129315155,0.292756,0.23600516,-0.133150921,0.299182,0.244918237,-0.141840061,0.31395
0.320770383,-0.18317573,0.38,0.270245231,-0.190217911,0.343984,0.319466531,-0.199414042,0.370666,0.311258486,-0.186002926,0.340964,0.302388545,-0.172353652,0.31481,0.288597149,-0.153404408,0.296249,0.234677089,-0.209946865,0.307371,0.203786597,-0.203416662,0.267069,0.193230617,-0.205361779,0.253328,0.192106637,-0.196524137,0.240836,0.221777139,-0.19138555,0.309682,0.220222338,-0.1499832,0.264725,0.240899033,-0.141768758,0.276338,0.249626298,-0.152665215,0.296245,0.216235112,-0.175450096,0.315467,0.210424823,-0.142451815,0.275684,0.235930516,-0.139906256,0.284835,0.252246856,-0.148671718,0.304555,0.218983491,-0.155723708,0.328952,0.224078266,-0.132972535,0.293965,0.238333582,-0.136769363,0.300286,0.246567766,-0.143767174,0.315051
0.321161981,-0.184528234,0.380338,0.270770971,-0.191129217,0.344499,0.320001515,-0.200675486,0.370995,0.310973342,-0.184547566,0.341277,0.302408365,-0.171915421,0.314971,0.287820769,-0.151893626,0.296659,0.235714444,-0.211105284,0.307996,0.205356341,-0.20496345,0.267879,0.195743701,-0.208064694,0.254122,0.196571576,-0.198845241,0.241616,0.222735179,-0.192717892,0.310368,0.221736273,-0.150775031,0.265544,0.241922398,-0.142665555,0.277355,0.250288067,-0.153752854,0.297276,0.217060028,-0.1768522,0.316183,0.21372054,-0.144190005,0.276496,0.236989897,-0.141323518,0.285801,0.252725568,-0.152210865,0.305544,0.21955685,-0.157091873,0.329669,0.224911677,-0.134274039,0.294757,0.239180078,-0.137965273,0.3012,0.248029869,-0.146937486,0.315986
0.31891585,-0.18398195,0.377595,0.271414812,-0.191854466,0.345241,0.319612727,-0.201046171,0.370351,0.312873911,-0.185747586,0.343398,0.303879883,-0.172481785,0.316588,0.287231079,-0.151562411,0.296043,0.240469435,-0.215480713,0.313837,0.212658571,-0.212241395,0.276765,0.203532023,-0.21611914,0.26351,0.205241487,-0.207510028,0.25146,0.225885017,-0.195698498,0.314428,0.228197112,-0.155046497,0.272772,0.251516192,-0.148475071,0.288273,0.258064168,-0.158880165,0.306638,0.218750907,-0.178598167,0.318401,0.218144344,-0.147392493,0.281955,0.244070969,-0.145948298,0.294181,0.258918998,-0.157069181,0.313831,0.219222547,-0.157332205,0.329095,0.226477799,-0.135614676,0.296658,0.242590901,-0.140292481,0.305418,0.250698387,-0.148866581,0.319368
0.322033828,-0.186316018,0.381227,0.271452749,-0.19209108,0.345106,0.321280698,-0.202507164,0.372106,0.312281778,-0.185443859,0.342675,0.304243326,-0.172536402,0.316881,0.29079664,-0.154029715,0.298931,0.237556266,-0.212934347,0.308701,0.207747653,-0.207292588,0.268681,0.198738029,-0.210360397,0.255009,0.199492239,-0.20165649,0.24258,0.224077229,-0.194598064,0.310705,0.222731391,-0.151345832,0.265701,0.242062636,-0.14305217,0.277245,0.250115632,-0.154248497,0.297147,0.217958826,-0.178743418,0.316249,0.214277999,-0.145077881,0.276516,0.237192809,-0.142190556,0.285617,0.251610922,-0.153390076,0.305297,0.219870972,-0.15891301,0.329473,0.224151375,-0.134942409,0.294515,0.238988364,-0.138190185,0.300798,0.2488015,-0.146947732,0.315537
0.319555701,-0.185279819,0.378249,0.271989395,-0.192610793,0.345666,0.320735652,-0.202471025,0.371342,0.314286159,-0.186668418,0.344822,0.305723176,-0.173267037,0.318361,0.289284899,-0.152375261,0.298023,0.242262758,-0.217167654,0.314547,0.214951214,-0.214386267,0.277494,0.20635434,-0.218300756,0.264319,0.208066759,-0.21013877,0.252342,0.227087544,-0.197325967,0.314635,0.229039906,-0.155641327,0.27286,0.251717582,-0.148866917,0.28817,0.257945203,-0.159256724,0.306417,0.219443381,-0.180155123,0.31822,0.219035674,-0.147979757,0.281819,0.24488168,-0.147105037,0.293904,0.258015577,-0.157877868,0.313368,0.219258674,-0.158742166,0.328505,0.221500441,-0.136729552,0.296089,0.241839706,-0.139271593,0.304737,0.252497708,-0.148487763,0.319291
0.32260314,-0.186908762,0.381444,0.27219866,-0.192303916,0.345326,0.322213163,-0.203124345,0.372521,0.313285667,-0.185545232,0.343339,0.305513083,-0.171639864,0.317905,0.29147439,-0.152420688,0.300254,0.238831244,-0.213290249,0.30918,0.210031259,-0.20830867,0.269327,0.200379173,-0.210874968,0.255654,0.202259963,-0.202833055,0.243224,0.225010612,-0.194936548,0.310928,0.224145067,-0.151836562,0.265957,0.242735219,-0.143179494,0.277543,0.250688402,-0.154437166,0.297447,0.218589114,-0.179054544,0.31626,0.216129594,-0.145404559,0.27663,0.238506494,-0.142811605,0.285769,0.251561341,-0.15389267,0.305422,0.219840773,-0.15852063,0.329237,0.222804666,-0.134914009,0.294352,0.238483019,-0.136948862,0.300664,0.250136995,-0.146267438,0.31539
0.322980553,-0.187011614,0.381614,0.272688687,-0.192248706,0.345485,0.322740813,-0.203168873,0.372691,0.313731494,-0.184570028,0.343509,0.306560854,-0.170171133,0.31837,0.291681947,-0.14853831,0.301081,0.241014243,-0.21328617,0.309333,0.212035038,-0.207956682,0.269422,0.204274026,-0.208924378,0.255671,0.202931944,-0.202165097,0.24317,0.225611445,-0.194912243,0.311077,0.225032966,-0.151451927,0.266098,0.24302059,-0.142883937,0.277673,0.250975907,-0.154241733,0.297576,0.21904273,-0.179098751,0.316408,0.216146129,-0.144720527,0.276772,0.240064281,-0.141368284,0.285902,0.254672417,-0.151246904,0.305554,0.2201097,-0.158712986,0.329386,0.22156131,-0.134321269,0.294496,0.238554544,-0.13674564,0.300801,0.250677242,-0.145890089,0.315525
0.324444005,-0.188597843,0.382695,0.273365187,-0.192354601,0.345953,0.324299704,-0.204602105,0.373636,0.314769432,-0.184607827,0.344317,0.309914775,-0.168529431,0.320292,0.295599791,-0.14633755,0.304096,0.241454019,-0.212823529,0.309207,0.213797244,-0.205668709,0.268809,0.204558374,-0.208087509,0.255376,0.203593366,-0.201566613,0.243163,0.225940073,-0.194667049,0.310961,0.224835242,-0.150629734,0.265507,0.242042969,-0.141850916,0.276323,0.249969042,-0.153257864,0.296159,0.219331685,-0.178944659,0.316365,0.218253091,-0.143182181,0.276321,0.241349342,-0.138919278,0.284856,0.25987336,-0.147386438,0.304435,0.220407769,-0.15878518,0.329544,0.221304204,-0.133185866,0.294347,0.238155282,-0.136159935,0.300183,0.252628322,-0.144236862,0.314833
0.324623058,-0.189177205,0.38278,0.273610063,-0.192335707,0.34611,0.324743036,-0.204994254,0.373665,0.31534872,-0.183561158,0.34427,0.309664172,-0.167935907,0.320427,0.294675227,-0.14363875,0.304485,0.241910107,-0.212690926,0.309339,0.214207655,-0.205559947,0.268978,0.204566367,-0.207411657,0.254929,0.205908268,-0.198218696,0.242157,0.226355502,-0.194746108,0.311186,0.224636891,-0.150310947,0.265775,0.242334223,-0.141707433,0.276668,0.25025612,-0.153215222,0.296513,0.219650797,-0.179123195,0.316658,0.216696173,-0.143590893,0.276625,0.240829178,-0.138958961,0.285218,0.260315227,-0.14699128,0.304817,0.220602618,-0.15909427,0.329903,0.219921618,-0.134194731,0.294716,0.238550554,-0.13658849,0.300598,0.251221181,-0.1449642,0.315263
0.325127177,-0.188826938,0.383189,0.274067148,-0.192045254,0.3462,0.325345711,-0.204520207,0.373939,0.315498959,-0.180717112,0.344397,0.307346672,-0.164203089,0.321215,0.29155936,-0.139690686,0.305906,0.242993045,-0.210775124,0.309037,0.214000926,-0.203533293,0.268364,0.2045853,-0.205304316,0.254469,0.20604283,-0.195940987,0.241838,0.227487323,-0.193214881,0.310973,0.225514591,-0.146719641,0.265311,0.242144178,-0.13789641,0.275778,0.249731377,-0.151704968,0.295581,0.219844258,-0.178171254,0.316553,0.217828099,-0.140504432,0.276279,0.24136379,-0.136137245,0.284537,0.25976619,-0.145405232,0.304099,0.220801803,-0.15918323,0.329983,0.219009436,-0.131709845,0.294619,0.237552254,-0.132711403,0.300237,0.253491216,-0.141973594,0.314861
0.324872411,-0.188209555,0.383287,0.274034741,-0.191531462,0.346179,0.325302912,-0.203849777,0.374056,0.31362602,-0.179014904,0.344548,0.306218747,-0.164305232,0.321061,0.291805241,-0.141112249,0.305397,0.242668468,-0.210139723,0.308959,0.213641797,-0.202863642,0.268335,0.204240214,-0.204616321,0.254456,0.205702788,-0.195230211,0.241838,0.226877613,-0.19312822,0.310837,0.224966822,-0.145974868,0.265094,0.241454898,-0.137117774,0.275412,0.249186497,-0.1507764,0.295198,0.219854568,-0.177757474,0.316383,0.217266438,-0.139750505,0.276056,0.240767462,-0.134599684,0.284199,0.25926126,-0.144487751,0.303735,0.220523687,-0.15890897,0.329796,0.215027763,-0.128099323,0.294391,0.234295682,-0.128662748,0.299919,0.252667043,-0.139587374,0.314522
0.324554793,-0.187266156,0.383,0.273893847,-0.190662885,0.345909,0.325080283,-0.202814052,0.37372,0.313349797,-0.178112594,0.34415,0.306007115,-0.163408295,0.320417,0.292132057,-0.141415251,0.304541,0.241804096,-0.207714727,0.308637,0.211461566,-0.200425399,0.268101,0.20029117,-0.20577707,0.25533,0.204929896,-0.199472316,0.24372,0.226966017,-0.190139941,0.310583,0.223897524,-0.144033804,0.264844,0.240325415,-0.135273445,0.275173,0.249087943,-0.149123078,0.29496,0.219632244,-0.174944978,0.316184,0.215729949,-0.13803041,0.27584,0.2395419,-0.133314593,0.28399,0.259441994,-0.142766609,0.303536,0.219880419,-0.156550211,0.329656,0.211964967,-0.127121106,0.294241,0.233462905,-0.127992978,0.299774,0.25218315,-0.13867582,0.314383
0.324382183,-0.186267138,0.38287,0.274094299,-0.188762233,0.345735,0.325081543,-0.201797988,0.373641,0.312856777,-0.176718985,0.344138,0.306111335,-0.163000223,0.320472,0.291496296,-0.140060849,0.304615,0.240833106,-0.206179619,0.3085,0.209399408,-0.200527027,0.267989,0.199720277,-0.203129856,0.254745,0.204412371,-0.195755343,0.242705,0.225890532,-0.188584368,0.310368,0.223012916,-0.144011298,0.264605,0.240292627,-0.13476805,0.274889,0.248985768,-0.145195707,0.294671,0.218483963,-0.173375667,0.315908,0.214425979,-0.136689404,0.275568,0.238474004,-0.131926253,0.283684,0.258871141,-0.142081262,0.303215,0.218698767,-0.154316149,0.329319,0.211326367,-0.126578972,0.293905,0.231185541,-0.126894235,0.299411,0.249858779,-0.135220695,0.31401
0.324035363,-0.183650634,0.383127,0.267996817,-0.178730312,0.347984,0.324822196,-0.196604253,0.37546,0.31554272,-0.170245441,0.347875,0.310487739,-0.161805894,0.323611,0.296305453,-0.140879231,0.306806,0.237717985,-0.203303505,0.314136,0.212101205,-0.206595538,0.275778,0.20415029,-0.213072479,0.262897,0.209574556,-0.204976222,0.251186,0.221400161,-0.185555084,0.314514,0.223061482,-0.145756431,0.270519,0.247478586,-0.137623202,0.283325,0.256833295,-0.148510756,0.303259,0.212768266,-0.169739399,0.318613,0.211289848,-0.131727345,0.279412,0.222784906,-0.122740145,0.289485,0.228496617,-0.133996524,0.309339,0.211387195,-0.149018985,0.329977,0.211912195,-0.127036434,0.296008,0.233568356,-0.128128707,0.303095,0.252300037,-0.136533806,0.317798
