sluyters/QuantumLeap/backend/src/datasets/dynamic/HandGestureDataset_SHREC2017_csv/Gesture6/finger_1/subject_23_essai_1_skeletons_world.csv
Wrist_x,Wrist_y,Wrist_z,Palm_x,Palm_y,Palm_z,thumb_base_x,thumb_base_y,thumb_base_z,thumb_first_joint_x,thumb_first_joint_y,thumb_first_joint_z,thumb_second_joint_x,thumb_second_joint_y,thumb_second_joint_z,thumb_tip_x,thumb_tip_y,thumb_tip_z,index_base_x,index_base_y,index_base_z,index_first_joint_x,index_first_joint_y,index_first_joint_z,index_second_joint_x,index_second_joint_y,index_second_joint_z,index_tip_x,index_tip_y,index_tip_z,middle_base_x,middle_base_y,middle_base_z,middle_first_joint_x,middle_first_joint_y,middle_first_joint_z,middle_second_joint_x,middle_second_joint_y,middle_second_joint_z,middle_tip_x,middle_tip_y,middle_tip_z,ring_base_x,ring_base_y,ring_base_z,ring_first_joint_x,ring_first_joint_y,ring_first_joint_z,ring_second_joint_x,ring_second_joint_y,ring_second_joint_z,ring_tip_x,ring_tip_y,ring_tip_z,pinky_base_x,pinky_base_y,pinky_base_z,pinky_first_joint_x,pinky_first_joint_y,pinky_first_joint_z,pinky_second_joint_x,pinky_second_joint_y,pinky_second_joint_z,pinky_tip_x,pinky_tip_y,pinky_tip_z,
0.440545963,-0.301963302,0.472549,0.447233933,-0.254899382,0.452055,0.431358802,-0.283097163,0.471674,0.420047088,-0.246804741,0.460294,0.404226473,-0.217390017,0.445743,0.396994169,-0.197395588,0.436105,0.446731255,-0.211888583,0.44129,0.458727474,-0.17972949,0.433805,0.466381882,-0.165358828,0.430062,0.470478897,-0.151902435,0.42666,0.454273799,-0.222387002,0.436733,0.460095727,-0.184960455,0.413763,0.439034563,-0.182070451,0.400365,0.417318862,-0.189041468,0.390794,0.46236501,-0.234127714,0.434484,0.470598148,-0.202710308,0.411846,0.450186071,-0.20302251,0.400264,0.423850574,-0.207690773,0.389735,0.473085634,-0.254648648,0.434589,0.469091862,-0.239620696,0.415473,0.464904331,-0.231916606,0.406689,0.458146573,-0.226278884,0.398939
0.441199167,-0.302072206,0.473798,0.451035193,-0.25710528,0.455398,0.430424419,-0.281611547,0.470553,0.417896615,-0.244602682,0.457308,0.404755822,-0.213701131,0.443708,0.400491187,-0.193882031,0.434035,0.449759147,-0.213809209,0.442659,0.470287896,-0.187049859,0.433581,0.478413886,-0.172974246,0.429042,0.486091967,-0.159907266,0.424915,0.466201625,-0.231775999,0.441642,0.468369106,-0.197871776,0.419575,0.444809545,-0.201971753,0.406702,0.424474732,-0.209820887,0.399244,0.475928664,-0.24728587,0.442154,0.467617083,-0.220620511,0.421512,0.446185099,-0.229308122,0.41095,0.428985279,-0.239034718,0.404582,0.485395684,-0.270847779,0.44524,0.47684692,-0.246585385,0.426951,0.461589662,-0.24547554,0.418549,0.44738599,-0.252218364,0.411191
0.450165782,-0.307428014,0.484178,0.455599565,-0.259689174,0.45938,0.437076112,-0.284479663,0.477621,0.428184713,-0.241459044,0.463004,0.416418234,-0.211050705,0.447541,0.407491188,-0.19237367,0.434922,0.452859774,-0.215910084,0.439481,0.477838688,-0.193188962,0.429738,0.487591698,-0.182378092,0.424866,0.496939428,-0.172276576,0.420437,0.467206235,-0.233292522,0.440841,0.452713879,-0.214069721,0.413319,0.416970881,-0.219345057,0.397264,0.409785217,-0.228681941,0.401024,0.478395251,-0.250632484,0.443778,0.451575283,-0.244672842,0.417836,0.419209085,-0.243436237,0.404563,0.409205131,-0.248220819,0.408692,0.490318106,-0.276748566,0.450591,0.4586838,-0.267636993,0.427761,0.433166208,-0.265226401,0.417272,0.426685898,-0.26909901,0.419683
0.453958896,-0.295505383,0.493753,0.461229476,-0.260865432,0.462184,0.446996846,-0.261444386,0.483092,0.428205168,-0.227007357,0.459714,0.413615862,-0.195503077,0.440017,0.410365089,-0.175378245,0.427414,0.461997268,-0.212300453,0.43396,0.476261247,-0.189650616,0.415341,0.475638836,-0.182265111,0.406032,0.475438931,-0.175437486,0.39757,0.470070355,-0.234197922,0.438583,0.424834282,-0.225014888,0.405701,0.382465444,-0.219050776,0.386521,0.376416628,-0.218221179,0.386364,0.481222803,-0.25429736,0.444701,0.440958231,-0.244926305,0.412862,0.405800603,-0.241991613,0.396573,0.394313296,-0.242575923,0.396287,0.493415818,-0.283387659,0.456189,0.458086516,-0.268684318,0.428852,0.430194133,-0.264634714,0.416292,0.420775115,-0.266118935,0.415499
0.450013502,-0.281989737,0.491,0.462168023,-0.255521805,0.460198,0.444027427,-0.256864968,0.479516,0.427154521,-0.217899007,0.455546,0.410098498,-0.190142876,0.434514,0.407047632,-0.170388192,0.421987,0.461256687,-0.210735435,0.431307,0.480915235,-0.193026329,0.413446,0.482775145,-0.187924695,0.404515,0.484920353,-0.183252324,0.396396,0.473249107,-0.233514193,0.437171,0.42445734,-0.225373199,0.404775,0.382289893,-0.21923354,0.385877,0.376255187,-0.21802491,0.385842,0.481426447,-0.254186252,0.444254,0.441137716,-0.245601363,0.412479,0.405985923,-0.242544501,0.396222,0.393362885,-0.243142285,0.395945,0.492980571,-0.283625941,0.456779,0.458527156,-0.269382394,0.42957,0.430666293,-0.265413748,0.417068,0.421261678,-0.266739023,0.416305
0.447154693,-0.27509346,0.487628,0.463916324,-0.247850189,0.458561,0.442277581,-0.246499785,0.475716,0.426321652,-0.207687183,0.451141,0.407631613,-0.182792478,0.428719,0.403392541,-0.163645506,0.414653,0.466301034,-0.204273706,0.429953,0.48098648,-0.190871465,0.411332,0.481234112,-0.186335557,0.402022,0.481348212,-0.182327172,0.393558,0.475386947,-0.230624757,0.436829,0.426067033,-0.222779465,0.405654,0.385341619,-0.213183663,0.387469,0.380155627,-0.211550021,0.388089,0.481615489,-0.25224696,0.444619,0.439922747,-0.243764764,0.413678,0.402249385,-0.237631624,0.397848,0.39415069,-0.241721754,0.398169,0.490640253,-0.27802282,0.457745,0.454913647,-0.264689959,0.43124,0.426945539,-0.260023841,0.419062,0.421540269,-0.26568936,0.418752
0.444122619,-0.264964607,0.48446,0.462588267,-0.238801647,0.456339,0.439410057,-0.23516619,0.471554,0.420963442,-0.202238874,0.445688,0.403207912,-0.175885061,0.422585,0.398510794,-0.15768126,0.407864,0.462914162,-0.195363062,0.426934,0.481511177,-0.18122718,0.409418,0.482048953,-0.178534112,0.40066,0.480846548,-0.180102032,0.392698,0.475122011,-0.219363751,0.435315,0.427560841,-0.217685462,0.404938,0.385936119,-0.21088808,0.387219,0.380375973,-0.208924756,0.387826,0.480361967,-0.241346461,0.444273,0.446146848,-0.235739587,0.413633,0.411398352,-0.232936065,0.397957,0.393306558,-0.235692818,0.398123,0.492166879,-0.269789418,0.458653,0.458193775,-0.259047213,0.432419,0.430439944,-0.255155867,0.420365,0.421230093,-0.258415529,0.419953
0.441233186,-0.254246158,0.480617,0.460007776,-0.222368752,0.45339,0.435325372,-0.229715342,0.467654,0.414176725,-0.191092116,0.442028,0.395131536,-0.16600759,0.41894,0.388929459,-0.147379458,0.403882,0.457541255,-0.180790039,0.424338,0.474980114,-0.16317608,0.406515,0.475703126,-0.160115217,0.397604,0.475828938,-0.1577691,0.389503,0.472469814,-0.203983412,0.433035,0.428482916,-0.203711033,0.40323,0.387476345,-0.200367005,0.385844,0.381374517,-0.198504911,0.386771,0.483634201,-0.225154458,0.442189,0.448019272,-0.222777827,0.41192,0.414327451,-0.222732624,0.396434,0.399838492,-0.224910925,0.396888,0.494571687,-0.25396462,0.456678,0.461874772,-0.245984146,0.430875,0.434738944,-0.244280334,0.41902,0.426616479,-0.245215903,0.418859
0.442139929,-0.258026063,0.480835,0.461701386,-0.219651142,0.455949,0.435233189,-0.229613968,0.468346,0.413890559,-0.192639296,0.4443,0.392000032,-0.16429037,0.422097,0.388552937,-0.146903024,0.407706,0.449506354,-0.168246986,0.428594,0.463961597,-0.144655032,0.410574,0.460254323,-0.143653612,0.401564,0.457115317,-0.142820823,0.393373,0.470367488,-0.188224037,0.437344,0.43832494,-0.19128843,0.409284,0.400150695,-0.194669927,0.392916,0.393477233,-0.195204667,0.394995,0.486822724,-0.207618013,0.44637,0.456554731,-0.209326663,0.417679,0.426545217,-0.213881752,0.403,0.413417427,-0.219663007,0.404657,0.504743393,-0.236030918,0.460392,0.472487227,-0.232039706,0.435848,0.447189339,-0.233738347,0.424571,0.439774356,-0.236888269,0.425298
0.441169386,-0.246323831,0.476135,0.456031694,-0.194813388,0.450738,0.432125544,-0.222914053,0.465325,0.408930499,-0.189207842,0.441737,0.386686141,-0.161126148,0.418498,0.377981379,-0.142573854,0.403893,0.439218528,-0.147940287,0.42524,0.439679808,-0.117832582,0.398192,0.437255403,-0.108630816,0.384667,0.435187884,-0.100209958,0.372373,0.460745866,-0.163748812,0.431751,0.437570223,-0.165140081,0.403308,0.401694134,-0.172977742,0.386716,0.395397767,-0.175001542,0.389302,0.478158344,-0.179900427,0.438971,0.449778681,-0.185350291,0.410608,0.423439801,-0.193429906,0.396097,0.413050392,-0.202287853,0.398505,0.498100841,-0.204868844,0.450929,0.466726545,-0.205010879,0.426465,0.443601781,-0.209570517,0.415225,0.436912977,-0.215195065,0.416454
0.452427961,-0.23168309,0.473781,0.456732797,-0.17884037,0.448202,0.43143428,-0.2130739,0.461327,0.405292295,-0.183195228,0.436104,0.379694172,-0.158623415,0.413242,0.368229672,-0.141293506,0.398333,0.428072555,-0.132192091,0.420563,0.439724114,-0.099121453,0.410315,0.448137625,-0.0879932226,0.405191,0.45632649,-0.0776848079,0.400533,0.454833696,-0.14362108,0.429079,0.439127385,-0.14914269,0.403061,0.408976548,-0.162180587,0.387885,0.40247131,-0.164873352,0.390417,0.477292051,-0.156585026,0.437962,0.459427042,-0.167643277,0.413628,0.4394314,-0.180389699,0.401177,0.431584844,-0.191203574,0.404048,0.504477158,-0.178538756,0.45191,0.476755544,-0.183687352,0.427016,0.455822717,-0.191010507,0.415579,0.449651129,-0.196820257,0.416127
0.458282905,-0.217632894,0.466585,0.451558568,-0.160924551,0.438452,0.436292065,-0.199626291,0.455982,0.409634255,-0.174959053,0.432395,0.377493015,-0.156793347,0.409769,0.365411129,-0.140047364,0.396143,0.415219047,-0.117524921,0.411923,0.41198068,-0.0787045827,0.397148,0.412936766,-0.0647168325,0.389761,0.413994843,-0.0550010272,0.383045,0.441229676,-0.123729292,0.417421,0.423842998,-0.124295145,0.388553,0.397046702,-0.139631909,0.371713,0.391918693,-0.143362764,0.373653,0.463882165,-0.132520805,0.424007,0.44784799,-0.139338047,0.398617,0.431292962,-0.153614966,0.385627,0.427273927,-0.165550823,0.388373,0.492842487,-0.149792917,0.435584,0.467815516,-0.152507063,0.409832,0.449089026,-0.161506262,0.398,0.444761378,-0.167731975,0.398447
0.462003152,-0.215669839,0.468805,0.454058757,-0.161094961,0.443922,0.438377928,-0.198327787,0.457405,0.410243972,-0.176435028,0.433271,0.378247002,-0.157533023,0.410514,0.363184962,-0.141679995,0.395346,0.412857311,-0.117659409,0.417929,0.408732785,-0.0788985089,0.406367,0.407278432,-0.0595690218,0.400655,0.409314847,-0.0459388567,0.395462,0.440301446,-0.122174954,0.425319,0.430909562,-0.122880602,0.399463,0.408991113,-0.140005779,0.38438,0.405382531,-0.146961775,0.387546,0.464180622,-0.129556046,0.433226,0.457340483,-0.13627626,0.411225,0.446044593,-0.151567608,0.399969,0.444313881,-0.164873997,0.404177,0.494645788,-0.145125106,0.445925,0.474548238,-0.150440321,0.421588,0.458106819,-0.159807077,0.410406,0.454868674,-0.165686628,0.411574
0.462482578,-0.214115566,0.468479,0.452841896,-0.160134128,0.443639,0.438249333,-0.197024305,0.456884,0.40958542,-0.176450965,0.432562,0.378236918,-0.157986029,0.410305,0.363044687,-0.142099178,0.395652,0.412508046,-0.116575505,0.417422,0.39628836,-0.0771981263,0.400426,0.388976456,-0.0585231668,0.391927,0.383213744,-0.0422573248,0.384202,0.440208516,-0.121468008,0.425069,0.430368328,-0.122719894,0.399326,0.408789827,-0.139923465,0.38431,0.404944932,-0.146427164,0.387434,0.464322531,-0.129185337,0.433183,0.457716998,-0.134731108,0.411367,0.446975571,-0.149988364,0.400206,0.445557297,-0.163919474,0.404393,0.495104432,-0.145216446,0.446121,0.474510544,-0.150634733,0.421766,0.45808506,-0.159672899,0.410575,0.45506819,-0.164903334,0.411682
0.45875577,-0.210230151,0.463929,0.446140119,-0.155154083,0.439966,0.434822312,-0.193961947,0.453021,0.406820312,-0.173326784,0.429476,0.37626288,-0.154554813,0.408006,0.361103181,-0.140386894,0.393838,0.403805956,-0.109126319,0.415022,0.38159773,-0.0717540451,0.39592,0.371445448,-0.0530915191,0.387375,0.362533619,-0.0361369921,0.379606,0.430752732,-0.112321509,0.422051,0.423600926,-0.113418563,0.396795,0.404551065,-0.131419605,0.382063,0.401842119,-0.142341565,0.385735,0.454452903,-0.118669237,0.429592,0.451330231,-0.119936321,0.408038,0.443860748,-0.134889602,0.397011,0.4444647,-0.150727015,0.401721,0.485237479,-0.133139419,0.441736,0.468007996,-0.137495503,0.417981,0.453398098,-0.147305148,0.407066,0.451258238,-0.153135091,0.408668
0.457269078,-0.202874829,0.460045,0.435081901,-0.141066495,0.437048,0.431617283,-0.187934871,0.448538,0.402089818,-0.166750528,0.424507,0.371215073,-0.149640645,0.40275,0.355885857,-0.137644883,0.388569,0.391477683,-0.103027153,0.411811,0.365384328,-0.067139036,0.391221,0.353360653,-0.0493141965,0.381735,0.343077802,-0.0332645253,0.373111,0.41869169,-0.103552911,0.419855,0.416397407,-0.105620107,0.395667,0.400789,-0.123939674,0.381558,0.398590175,-0.134102832,0.385431,0.442895986,-0.10763102,0.428161,0.444674865,-0.109806765,0.407916,0.440723763,-0.124665276,0.397559,0.44292362,-0.140675015,0.402571,0.47477854,-0.119276935,0.441078,0.461586633,-0.125745825,0.417698,0.449517518,-0.136023907,0.406956,0.447812876,-0.142149451,0.408595
0.457489216,-0.192736626,0.460897,0.426609336,-0.135922893,0.43112,0.431942868,-0.185077654,0.450096,0.403882628,-0.166712491,0.426215,0.37112357,-0.152662799,0.403213,0.3545929,-0.137859838,0.387351,0.376852159,-0.0983518606,0.403565,0.341016671,-0.0641949748,0.374163,0.332356825,-0.048926629,0.369127,0.324978504,-0.0348419194,0.364548,0.400382992,-0.0955704521,0.408857,0.396000267,-0.100577209,0.378722,0.409848821,-0.126043918,0.391849,0.417421073,-0.136291106,0.40687,0.422095121,-0.0968660091,0.415396,0.41826401,-0.100944427,0.388764,0.413893382,-0.115598917,0.375138,0.413315678,-0.129132533,0.376979,0.452201471,-0.105026634,0.427138,0.43757225,-0.112273535,0.400564,0.447343615,-0.127099382,0.40822,0.458560926,-0.137315872,0.420541
0.446924974,-0.180808937,0.452488,0.408964599,-0.123100812,0.425547,0.422552912,-0.172219336,0.444351,0.402344883,-0.163844567,0.423539,0.369052759,-0.149884094,0.401409,0.353047783,-0.13731499,0.386107,0.361075376,-0.0923393254,0.402663,0.32837833,-0.0644079761,0.376294,0.316747033,-0.0511310825,0.368637,0.306013644,-0.0386738262,0.361677,0.383188214,-0.0874526108,0.405407,0.364933523,-0.0589192022,0.376778,0.387733766,-0.0815087984,0.392093,0.401290471,-0.0998211234,0.407256,0.404012826,-0.0868485995,0.409639,0.387083499,-0.0711679051,0.383621,0.383961291,-0.0841068565,0.37031,0.390301407,-0.0970867779,0.373724,0.433573802,-0.0924942829,0.418273,0.415316882,-0.099123528,0.393841,0.426204895,-0.115898945,0.402982,0.437030146,-0.126281663,0.415125
0.445129961,-0.178752104,0.45748,0.400783049,-0.12853788,0.426601,0.414573222,-0.168887993,0.44703,0.40132358,-0.164526309,0.423482,0.367776357,-0.149205897,0.402216,0.3521374,-0.136205833,0.386255,0.353956341,-0.0959930075,0.398965,0.320139027,-0.0630341201,0.369262,0.311548127,-0.0493283254,0.365205,0.30350469,-0.0362712188,0.361516,0.375871808,-0.0919808738,0.403515,0.361365467,-0.0657675732,0.372388,0.386119231,-0.0864804841,0.385078,0.401241876,-0.105661648,0.400321,0.396280183,-0.0922231642,0.409524,0.388885771,-0.0825541197,0.38174,0.387932384,-0.0889014856,0.367525,0.394342214,-0.103705354,0.368767,0.424956834,-0.0989981471,0.420787,0.41309098,-0.101210249,0.393812,0.420144509,-0.117018766,0.401199,0.426648794,-0.13401919,0.413558
0.440682844,-0.176932195,0.455087,0.398204652,-0.126854368,0.42533,0.414112408,-0.169227539,0.444059,0.398592367,-0.161545762,0.419944,0.366504427,-0.147661073,0.398237,0.351162252,-0.134436317,0.382945,0.350507994,-0.0960346619,0.397503,0.31104119,-0.0647986691,0.36798,0.300177961,-0.050494477,0.362497,0.290073672,-0.037001839,0.357512,0.369043628,-0.0902087601,0.403084,0.356193589,-0.0621360422,0.373044,0.383279846,-0.0804282084,0.386074,0.399397125,-0.101158934,0.40103,0.388711369,-0.0885366227,0.409858,0.386305364,-0.0736812436,0.383404,0.385804091,-0.0823747107,0.369869,0.392393164,-0.0956661247,0.371696,0.416970589,-0.0928286656,0.421876,0.408015664,-0.095190347,0.395253,0.415026971,-0.110630808,0.402841,0.431988785,-0.126129764,0.415153
0.429505313,-0.175395957,0.454809,0.387966428,-0.127304988,0.425524,0.403868606,-0.169157898,0.44263,0.395741067,-0.160182848,0.417381,0.364606048,-0.147859161,0.395767,0.348117982,-0.134219741,0.380095,0.342115131,-0.0999732273,0.396481,0.301059542,-0.0685771203,0.366542,0.289549353,-0.0547753129,0.361452,0.279491212,-0.041813125,0.356824,0.362050597,-0.0929468594,0.403631,0.350458955,-0.0627783642,0.374407,0.382550901,-0.0808803462,0.387,0.397537917,-0.0992051411,0.401523,0.380909268,-0.0905531462,0.411662,0.373838549,-0.0692421966,0.386455,0.376183662,-0.0786157377,0.373559,0.378049775,-0.0907552077,0.375441,0.407819955,-0.0938638227,0.425102,0.403255188,-0.096483289,0.398441,0.414636322,-0.111341665,0.405717,0.426363469,-0.126106135,0.417922
0.429437535,-0.175385586,0.458273,0.385125159,-0.126327335,0.426695,0.401549092,-0.16873646,0.443077,0.38961429,-0.156288928,0.415113,0.359493436,-0.145381927,0.392386,0.345303015,-0.13315515,0.377216,0.331062497,-0.098295227,0.392796,0.300194356,-0.0710346221,0.376332,0.284486278,-0.0570311872,0.3681,0.270026887,-0.0440559619,0.360617,0.352775273,-0.0909951691,0.403087,0.343336385,-0.0607064733,0.373528,0.367267847,-0.0790427182,0.381992,0.385308535,-0.0976586051,0.395341,0.373502763,-0.0882440798,0.413871,0.369127983,-0.0686224451,0.38934,0.371914757,-0.0781879011,0.376789,0.375328791,-0.0901593594,0.376156,0.403280861,-0.0910465943,0.430874,0.398267007,-0.09734672,0.402853,0.402754973,-0.110517474,0.407418,0.414232064,-0.124154952,0.41905
0.420382785,-0.173510137,0.459062,0.377648451,-0.126297441,0.42661,0.396801583,-0.169106999,0.443264,0.385728744,-0.155926011,0.414895,0.358096944,-0.145593809,0.392542,0.344123878,-0.133106239,0.377114,0.323847676,-0.102278049,0.391548,0.291753868,-0.0761288979,0.373729,0.275434227,-0.0627169427,0.364819,0.260419029,-0.0503016222,0.35672,0.344414637,-0.0941519287,0.402349,0.335183033,-0.0633153945,0.372523,0.358710321,-0.0804232221,0.379507,0.375667287,-0.0972461099,0.392488,0.364315884,-0.0906648538,0.413617,0.3610284,-0.0705752517,0.389001,0.364589156,-0.0791038892,0.376407,0.367112667,-0.0893694742,0.37478,0.393333461,-0.0924905339,0.43131,0.390342671,-0.0977013568,0.402962,0.394241531,-0.110378539,0.406572,0.409379769,-0.123766559,0.417949
0.416609348,-0.170622107,0.456255,0.365600061,-0.124145524,0.420792,0.391301901,-0.167508869,0.441987,0.385277386,-0.155581661,0.41485,0.36078002,-0.1468724,0.39514,0.345737347,-0.133819228,0.378869,0.306629406,-0.102840078,0.38622,0.272996587,-0.0814960216,0.367836,0.255832169,-0.0705237166,0.358643,0.239997196,-0.0603488111,0.350287,0.32471337,-0.0914664877,0.394279,0.312689464,-0.0653375001,0.361303,0.335252128,-0.0827462653,0.368164,0.3516209,-0.099342459,0.382247,0.34332149,-0.0850109406,0.403512,0.339931891,-0.0706908558,0.375112,0.339839918,-0.077975334,0.360582,0.33904319,-0.0857906424,0.357855,0.37225244,-0.0827637491,0.419204,0.366360127,-0.0719545448,0.389661,0.380807463,-0.0748803241,0.393228,0.399338965,-0.088310512,0.405009
0.415076588,-0.169144625,0.456089,0.35915019,-0.122290943,0.419907,0.389420924,-0.166706032,0.441387,0.384067854,-0.155055929,0.414009,0.359466587,-0.147160899,0.39439,0.343823962,-0.136553401,0.378083,0.303367514,-0.103679577,0.384456,0.266156005,-0.0855536327,0.366348,0.248531659,-0.0755557108,0.357294,0.232254259,-0.066284505,0.349063,0.318324883,-0.0927450436,0.392858,0.309671155,-0.0662346735,0.359665,0.331299201,-0.0829235897,0.365257,0.347544287,-0.0990796478,0.379019,0.336021174,-0.0854344431,0.402425,0.339169349,-0.0724753546,0.373937,0.33834803,-0.0794220345,0.359361,0.335790386,-0.0866669433,0.355776,0.364086627,-0.0819432277,0.41861,0.346903227,-0.058487806,0.389183,0.362736712,-0.0616664813,0.392082,0.381069239,-0.073573719,0.403563
0.4103003,-0.166929724,0.455088,0.352808745,-0.124142195,0.418621,0.385074127,-0.166044967,0.440484,0.381559142,-0.155185841,0.413213,0.359043618,-0.149327182,0.394402,0.344174377,-0.139179399,0.377939,0.294982517,-0.111273457,0.383156,0.259027799,-0.0939837731,0.364501,0.24109277,-0.0850927437,0.355174,0.224526288,-0.0768597164,0.346695,0.310064542,-0.0980530693,0.391358,0.29952978,-0.0722943174,0.357919,0.322233615,-0.0871868768,0.363354,0.341961006,-0.10080105,0.377156,0.326410632,-0.0897944048,0.400782,0.327582787,-0.075549494,0.372004,0.328359054,-0.0805033841,0.35728,0.329609285,-0.087319116,0.353512,0.353041723,-0.0848916489,0.416835,0.338876325,-0.0645002342,0.386977,0.354928742,-0.0686777504,0.38963,0.372308283,-0.080096083,0.401168
0.404170969,-0.163942519,0.44562,0.343665441,-0.125075576,0.410805,0.380546444,-0.163082308,0.43039,0.360987177,-0.151238951,0.402503,0.344580211,-0.140426376,0.379071,0.329871178,-0.128338974,0.362362,0.28597853,-0.116029483,0.375337,0.249235137,-0.103000628,0.3598,0.230373369,-0.0963243058,0.352031,0.212902874,-0.0901481327,0.344969,0.299093006,-0.102386767,0.384776,0.292039231,-0.0765650532,0.352848,0.315544819,-0.090104601,0.358928,0.333909147,-0.102788514,0.372386,0.314323329,-0.093295473,0.395097,0.323162574,-0.0761734748,0.368106,0.324662502,-0.0812434418,0.354297,0.323489342,-0.0887088935,0.351436,0.340622229,-0.0865185128,0.411989,0.329848888,-0.0672496888,0.382695,0.346601984,-0.0707372538,0.385743,0.366654912,-0.0805010014,0.397234
0.402256722,-0.160478598,0.437084,0.339527717,-0.125341215,0.402761,0.373761795,-0.158980044,0.422248,0.359417407,-0.151537267,0.394599,0.339151781,-0.142378771,0.370914,0.322885336,-0.127751579,0.354183,0.281533948,-0.121538461,0.368018,0.243710249,-0.113865294,0.355611,0.225206162,-0.109423062,0.349407,0.2079813,-0.105315448,0.343768,0.292961439,-0.107079786,0.377101,0.281537699,-0.0802402375,0.345262,0.307915679,-0.0912960572,0.352344,0.327542846,-0.103599755,0.366084,0.307139379,-0.0968478888,0.387092,0.312641854,-0.0783597185,0.360068,0.316434262,-0.0811087782,0.346243,0.316517553,-0.088881827,0.344032,0.332882048,-0.0878185292,0.403527,0.319332309,-0.0691506344,0.374389,0.337243796,-0.0729394915,0.378082,0.355697415,-0.0812929857,0.389769
0.396907535,-0.156327828,0.432343,0.336949824,-0.127571145,0.398342,0.373284365,-0.158482191,0.419275,0.357669009,-0.153332041,0.393092,0.337225401,-0.148823344,0.369856,0.322699158,-0.132874216,0.353168,0.278987222,-0.129241877,0.365962,0.240794562,-0.12670246,0.354098,0.222983498,-0.124456762,0.348165,0.206362208,-0.122411639,0.342772,0.286904951,-0.113276287,0.372923,0.273625118,-0.0875531275,0.340391,0.302268493,-0.0969715944,0.349613,0.324817545,-0.10647638,0.364275,0.29818247,-0.101528187,0.381145,0.274815531,-0.0718146861,0.352809,0.281596586,-0.0734145656,0.338311,0.287599972,-0.0839000443,0.337148,0.320448915,-0.0901245981,0.395445,0.307506775,-0.073176645,0.366563,0.326653742,-0.0763522514,0.371662,0.346039168,-0.0829750827,0.383804
0.391942394,-0.153036497,0.428657,0.331925809,-0.130525466,0.395307,0.373927656,-0.158673496,0.416763,0.356948154,-0.153865099,0.391698,0.335246396,-0.154912307,0.368847,0.32171994,-0.139207908,0.352226,0.27595823,-0.13608777,0.3647,0.237813976,-0.138082512,0.353708,0.221438887,-0.137513781,0.348211,0.206076149,-0.137056593,0.343215,0.281417066,-0.11906028,0.370373,0.268654351,-0.0953184705,0.337841,0.298398959,-0.10349376,0.348332,0.321293072,-0.111429341,0.363393,0.290660986,-0.106129811,0.377487,0.2672684,-0.0791342732,0.348748,0.274342763,-0.079750163,0.334045,0.282803883,-0.0859068116,0.333599,0.310502467,-0.0927415896,0.390391,0.299005016,-0.0780480814,0.361991,0.318952255,-0.0807997642,0.367932,0.338516259,-0.085998128,0.380231
0.39127178,-0.151096985,0.424237,0.328322228,-0.133830089,0.392313,0.373925996,-0.158897308,0.412405,0.354065857,-0.154667666,0.387404,0.330107864,-0.155647691,0.364386,0.315774849,-0.143008285,0.347758,0.275385643,-0.141514303,0.362456,0.238093461,-0.145095753,0.352121,0.221489414,-0.145379475,0.346953,0.205919371,-0.145725571,0.342256,0.279914093,-0.124821227,0.368445,0.267578653,-0.0975202163,0.336982,0.29828206,-0.105415327,0.348403,0.319919731,-0.115976536,0.363369,0.288346397,-0.112009377,0.375715,0.264956573,-0.0849290142,0.348066,0.273520003,-0.0819835222,0.333921,0.281300999,-0.0910923258,0.334378,0.307130815,-0.0984531801,0.38861,0.292872637,-0.0805857214,0.360825,0.312675696,-0.0858079631,0.367361,0.330160929,-0.0946486694,0.379674
0.390732761,-0.152185066,0.422828,0.328226926,-0.146433828,0.391778,0.374565866,-0.162660534,0.410223,0.353263439,-0.165995407,0.384485,0.327019335,-0.168397606,0.362225,0.312211686,-0.155335089,0.345503,0.274564331,-0.151191382,0.361367,0.238167654,-0.155606967,0.352185,0.221947666,-0.156497375,0.347593,0.206689956,-0.157421206,0.343419,0.280016809,-0.134978547,0.368564,0.266428855,-0.110255538,0.335986,0.297162266,-0.117641878,0.347261,0.319271204,-0.128161273,0.362584,0.289168775,-0.12245097,0.376762,0.2626932,-0.0947348803,0.345046,0.268679765,-0.0931081293,0.32882,0.275599281,-0.101020811,0.327991,0.308770045,-0.109121167,0.390639,0.294766924,-0.0916332781,0.363085,0.314647075,-0.0970440467,0.36959,0.332091076,-0.105881819,0.381809
0.394842868,-0.155872889,0.421955,0.328320783,-0.1577527,0.392261,0.375283739,-0.175591142,0.408649,0.357315345,-0.172367591,0.382316,0.332946287,-0.176634693,0.35944,0.318416472,-0.164990724,0.342732,0.276674359,-0.164622115,0.361613,0.242458598,-0.174023548,0.355095,0.225375411,-0.178439224,0.351836,0.21248476,-0.180291346,0.348873,0.280656296,-0.149504163,0.37006,0.273146536,-0.123033429,0.338471,0.30324237,-0.129159298,0.349848,0.32276549,-0.139733074,0.364845,0.288507855,-0.13755449,0.379189,0.26399375,-0.1091229,0.347369,0.270179325,-0.104173821,0.331088,0.278727249,-0.11096701,0.330254,0.306407236,-0.124313791,0.393982,0.282178032,-0.0993698522,0.366939,0.301860129,-0.104273833,0.373508,0.318206655,-0.115207151,0.385573
0.392072515,-0.167591135,0.418992,0.328509771,-0.166246721,0.391016,0.373921668,-0.178317943,0.406272,0.35626264,-0.172863071,0.38059,0.331416921,-0.176734862,0.357824,0.316111837,-0.164801597,0.341143,0.279618785,-0.1749609,0.361914,0.246363998,-0.185923522,0.355004,0.229762257,-0.191254496,0.351549,0.218178654,-0.193632764,0.348409,0.282405772,-0.159820619,0.370102,0.274351446,-0.133994037,0.339732,0.305386221,-0.139597292,0.352359,0.324774157,-0.149505315,0.367308,0.289115906,-0.147657762,0.378891,0.253471583,-0.121168156,0.34826,0.260099485,-0.114104977,0.332589,0.271876706,-0.119673698,0.332894,0.305374348,-0.13384645,0.393051,0.28211968,-0.101747057,0.366918,0.300775678,-0.110047368,0.3743,0.317781298,-0.123645639,0.38636
0.391662014,-0.169398653,0.417111,0.329320767,-0.168652814,0.389345,0.375598393,-0.183862759,0.404661,0.361026843,-0.180607579,0.379249,0.338140506,-0.182346977,0.356006,0.322786093,-0.168685075,0.339312,0.283971541,-0.182498403,0.360678,0.25073167,-0.196497261,0.353856,0.23834339,-0.200277736,0.350445,0.22713599,-0.203608069,0.347345,0.285348455,-0.167495742,0.368587,0.275162875,-0.14148092,0.338364,0.306626691,-0.145800327,0.351286,0.325160444,-0.152043083,0.366274,0.290879096,-0.155245143,0.377131,0.253750893,-0.130444276,0.346883,0.260259153,-0.121970877,0.331407,0.272016161,-0.122861215,0.332018,0.305710627,-0.140922652,0.390973,0.280769959,-0.112011997,0.364988,0.299917437,-0.117920159,0.372563,0.317040592,-0.127046966,0.384646
0.391641595,-0.173503707,0.414648,0.33098076,-0.172977953,0.386808,0.37680919,-0.187496192,0.401866,0.360104916,-0.180736136,0.376137,0.337193101,-0.182299632,0.352729,0.321624158,-0.168608611,0.336058,0.285277483,-0.186401105,0.357693,0.25266464,-0.20143752,0.350949,0.240417991,-0.205611409,0.347577,0.227291542,-0.205605903,0.344511,0.286255207,-0.171864174,0.365995,0.274092158,-0.142654786,0.335729,0.305294009,-0.146528639,0.348361,0.325196534,-0.155644918,0.363275,0.291452877,-0.159911776,0.374869,0.253334348,-0.135199048,0.344431,0.258918854,-0.123381927,0.328859,0.271405252,-0.127440613,0.329222,0.305884982,-0.145772662,0.38911,0.279837734,-0.116706203,0.363033,0.298596037,-0.119678206,0.370419,0.316569697,-0.132651038,0.382461
0.393024427,-0.175123525,0.415369,0.332584652,-0.176957436,0.386884,0.378379677,-0.188835004,0.402327,0.362866335,-0.18288524,0.37631,0.341205257,-0.184699978,0.353156,0.323670462,-0.169769661,0.336467,0.286036752,-0.188374576,0.35714,0.255287845,-0.204366463,0.346962,0.244426842,-0.207004269,0.341873,0.234791614,-0.209196715,0.337247,0.286409278,-0.174180412,0.365589,0.27507942,-0.146768452,0.334861,0.305622024,-0.149454546,0.34701,0.324510438,-0.156545737,0.361939,0.291075543,-0.162430832,0.374631,0.256414022,-0.140204125,0.343595,0.262694159,-0.13001695,0.327715,0.272083598,-0.131113922,0.327596,0.304827269,-0.148389287,0.389158,0.277183742,-0.122251761,0.362728,0.297465727,-0.124444366,0.369799,0.315809309,-0.137087821,0.381843
0.396378311,-0.177805508,0.418397,0.334370248,-0.179158461,0.388062,0.382030238,-0.19142139,0.405195,0.366436037,-0.184251853,0.378927,0.346267328,-0.189189533,0.356606,0.330023125,-0.18164663,0.339913,0.289548856,-0.19240926,0.357242,0.26097227,-0.211616599,0.349434,0.250157826,-0.216898448,0.34553,0.239902895,-0.222110317,0.341981,0.288531214,-0.178414153,0.365382,0.276391606,-0.149778615,0.33333,0.305368902,-0.151139373,0.344489,0.324109717,-0.158523818,0.359585,0.292039358,-0.166810379,0.374305,0.257191655,-0.141408488,0.342155,0.262584079,-0.130155322,0.325706,0.27353006,-0.132114625,0.324647,0.304380983,-0.152894485,0.388941,0.277678596,-0.123528648,0.361615,0.296674462,-0.127983247,0.368043,0.315195084,-0.138319064,0.380153
0.398357536,-0.180382394,0.417839,0.338615849,-0.182964696,0.387596,0.385241253,-0.193260137,0.404524,0.370323151,-0.184032252,0.378156,0.348267574,-0.191760083,0.356331,0.330819575,-0.182696373,0.339724,0.297326326,-0.196185272,0.356678,0.267643413,-0.215171061,0.349758,0.257507662,-0.220427603,0.346299,0.244305338,-0.224251711,0.343153,0.295494018,-0.182813114,0.364986,0.279254691,-0.152389364,0.333006,0.308206747,-0.152924027,0.344109,0.325897108,-0.160371025,0.359163,0.298317054,-0.171600721,0.37404,0.259967294,-0.14502473,0.341905,0.264634193,-0.132441813,0.325464,0.27491677,-0.132680583,0.32437,0.307459246,-0.156370474,0.388818,0.28000015,-0.126963964,0.361519,0.299209947,-0.13108813,0.367911,0.316498719,-0.141677737,0.379997
0.398789623,-0.181215189,0.41476,0.341840006,-0.185219414,0.38524,0.385923859,-0.193729036,0.401227,0.371574898,-0.183967808,0.374701,0.34896546,-0.192387455,0.353003,0.32887828,-0.182588579,0.33648,0.299879518,-0.201131692,0.354392,0.271670995,-0.221865004,0.348494,0.261375523,-0.227890624,0.345545,0.251559564,-0.233819386,0.342864,0.297743446,-0.188563269,0.36317,0.279881006,-0.158884276,0.331722,0.309219769,-0.155493591,0.342972,0.327613656,-0.162477101,0.357879,0.30030943,-0.177896129,0.372559,0.260475575,-0.15386185,0.340767,0.264101141,-0.139648258,0.324502,0.277636364,-0.136336306,0.323587,0.311463817,-0.164565448,0.387634,0.280184955,-0.135857338,0.360644,0.299163903,-0.13903466,0.367131,0.319025734,-0.147240366,0.379146
0.406216972,-0.184746941,0.421417,0.348742764,-0.190594379,0.38921,0.394355573,-0.197627066,0.408265,0.387222755,-0.188980902,0.381991,0.368278766,-0.200128522,0.360622,0.352104994,-0.194836826,0.344018,0.309704018,-0.205045818,0.357571,0.285130132,-0.227903551,0.352038,0.274360588,-0.238232073,0.349271,0.264988415,-0.247385611,0.346755,0.304755263,-0.192623962,0.365132,0.285987364,-0.16240937,0.331777,0.311197467,-0.158225074,0.341962,0.32982186,-0.16454133,0.357224,0.303069178,-0.180253559,0.373716,0.272501071,-0.155961444,0.340555,0.275812696,-0.140798915,0.323589,0.284975809,-0.140144942,0.321632,0.312417627,-0.166801929,0.388202,0.281405749,-0.137785072,0.36005,0.299946886,-0.139857643,0.365849,0.32085651,-0.150462997,0.378005
0.40847707,-0.187544633,0.422009,0.353273223,-0.200641202,0.390961,0.401533333,-0.201489567,0.408336,0.387333061,-0.190333283,0.381619,0.369353952,-0.200382634,0.360088,0.353383431,-0.194210247,0.343533,0.31589999,-0.213625312,0.359217,0.291701569,-0.235864164,0.351259,0.281665828,-0.245018138,0.347281,0.273378236,-0.252524576,0.343663,0.310425602,-0.202846039,0.367749,0.292041795,-0.17034866,0.335229,0.318735676,-0.166403731,0.345587,0.335762184,-0.171862348,0.360602,0.309900149,-0.193544812,0.377047,0.277947618,-0.165899803,0.344354,0.280807035,-0.149262055,0.327627,0.289260959,-0.145231941,0.325892,0.316741401,-0.181691446,0.392222,0.286715918,-0.151912121,0.364512,0.305512662,-0.152246643,0.370421,0.327219386,-0.157271599,0.382464
0.409510543,-0.187398338,0.425406,0.354666734,-0.198348482,0.393329,0.403427342,-0.203147539,0.412695,0.38983877,-0.194830013,0.386835,0.374087564,-0.203738424,0.366081,0.357740573,-0.198037354,0.349587,0.320059911,-0.215540461,0.362302,0.305256113,-0.243790815,0.360615,0.296843615,-0.258469142,0.359771,0.289011185,-0.272177259,0.359003,0.313005517,-0.204011594,0.369348,0.299248889,-0.175426401,0.336064,0.324359394,-0.169929928,0.346684,0.339070133,-0.17622456,0.362057,0.311098613,-0.193983779,0.377497,0.282646226,-0.17172639,0.344556,0.284964349,-0.154293737,0.327703,0.291407115,-0.149807823,0.326098,0.316161774,-0.18105792,0.391454,0.285794155,-0.152667746,0.363429,0.304942153,-0.153119338,0.36951,0.326810155,-0.162072842,0.381731
0.414099352,-0.190799895,0.428605,0.358463079,-0.203339942,0.395793,0.410104336,-0.206739743,0.417096,0.395249854,-0.20363617,0.392415,0.383076758,-0.215129978,0.37459,0.366773656,-0.213502187,0.35889,0.328825266,-0.222646406,0.365922,0.311086089,-0.249651189,0.361513,0.3032597,-0.263250779,0.359308,0.296267074,-0.275958637,0.357304,0.319774735,-0.210609885,0.371263,0.304774389,-0.181588012,0.337492,0.32976231,-0.175874508,0.348456,0.343903057,-0.180211413,0.364114,0.316058042,-0.199999637,0.378064,0.287503252,-0.178066137,0.345197,0.289508128,-0.160138658,0.328381,0.295446886,-0.154042205,0.327045,0.31867476,-0.186067805,0.390525,0.288541538,-0.159662945,0.362438,0.308237072,-0.160295676,0.368751,0.328322755,-0.165519605,0.381084
0.416965346,-0.193696365,0.430687,0.360378053,-0.205417542,0.39744,0.412395288,-0.208849582,0.419381,0.399685629,-0.210074301,0.394914,0.388556454,-0.222696257,0.377463,0.37198704,-0.217899419,0.361872,0.330391509,-0.224577482,0.367618,0.311943002,-0.250970992,0.362254,0.303804709,-0.264205844,0.359572,0.296543554,-0.276554038,0.357133,0.320960818,-0.212301377,0.372585,0.30601041,-0.182729362,0.338534,0.330701984,-0.177042103,0.349325,0.345323734,-0.182084275,0.36503,0.316965774,-0.201555608,0.379109,0.288612518,-0.179155655,0.346101,0.290547727,-0.161139013,0.329214,0.297932956,-0.157573105,0.327733,0.319293214,-0.187570017,0.391302,0.289296887,-0.160813691,0.363084,0.308918486,-0.161395372,0.369288,0.33078458,-0.169735682,0.381625
0.419571197,-0.196334024,0.433018,0.362794784,-0.208360671,0.399515,0.414183384,-0.210488841,0.421298,0.40008475,-0.207452669,0.39641,0.387127453,-0.216043341,0.377394,0.371244806,-0.212700718,0.36129,0.331566358,-0.225819824,0.369054,0.312944403,-0.252037126,0.363306,0.305124182,-0.264941346,0.360432,0.298424697,-0.276801073,0.35782,0.322438343,-0.213860154,0.374468,0.30733455,-0.184114507,0.340232,0.331590031,-0.178140583,0.350626,0.346502929,-0.18351284,0.366273,0.31867561,-0.203346342,0.381379,0.298710456,-0.177130494,0.348067,0.299747068,-0.159854038,0.331023,0.30047564,-0.158316452,0.329195,0.321270246,-0.189590343,0.394063,0.28939467,-0.16274259,0.365641,0.303877983,-0.163591347,0.371585,0.330243108,-0.16906668,0.383894
0.421420845,-0.198731779,0.434507,0.363794861,-0.209980727,0.400955,0.414669639,-0.212189026,0.422265,0.400046271,-0.207896883,0.396857,0.386197567,-0.215234953,0.376401,0.369248576,-0.207187391,0.359931,0.331802409,-0.2270485,0.369819,0.313333619,-0.253388321,0.364184,0.305774971,-0.266268334,0.361366,0.299444164,-0.278027251,0.358805,0.323197338,-0.215507143,0.375872,0.308014519,-0.185826794,0.341595,0.331935328,-0.179582055,0.351629,0.347522611,-0.186386168,0.367177,0.319831844,-0.205287256,0.383313,0.299314823,-0.179498738,0.34977,0.300362108,-0.162037289,0.332608,0.301866729,-0.159586929,0.330473,0.322614772,-0.192730897,0.396631,0.286720586,-0.166837129,0.368075,0.30485287,-0.166079284,0.373782,0.331092461,-0.172622345,0.386045
0.422480446,-0.20050826,0.435278,0.365055962,-0.212352531,0.402505,0.415414815,-0.213357008,0.42332,0.400803987,-0.208792046,0.398187,0.387533765,-0.216175289,0.378089,0.370584096,-0.20977992,0.361707,0.333090401,-0.229518902,0.372091,0.313591847,-0.253905544,0.364542,0.305850373,-0.265619566,0.360767,0.303043673,-0.273951521,0.357335,0.324314331,-0.217973346,0.378004,0.309491386,-0.18867479,0.344247,0.334582921,-0.181875884,0.354971,0.350603793,-0.188346728,0.370548,0.320758733,-0.207721668,0.385273,0.300695234,-0.181538263,0.352244,0.302087713,-0.164122847,0.335345,0.305658159,-0.162507965,0.333802,0.323479032,-0.194149377,0.398281,0.287764266,-0.168537978,0.370107,0.306230781,-0.168029179,0.376262,0.329045359,-0.175498169,0.388564
0.424377046,-0.203031107,0.437561,0.366154832,-0.21339806,0.403823,0.417461046,-0.21570829,0.425057,0.401884301,-0.209559031,0.399398,0.387770209,-0.215357278,0.378106,0.371736656,-0.205430602,0.36149,0.333188571,-0.229869279,0.372271,0.313890218,-0.254159597,0.364651,0.306542888,-0.265535042,0.36084,0.304381274,-0.27334429,0.357376,0.32479162,-0.218608032,0.378601,0.309284017,-0.189086878,0.344204,0.333501185,-0.18172932,0.353927,0.349703395,-0.187938991,0.369421,0.321585743,-0.208596276,0.386283,0.297974157,-0.1835079,0.352547,0.2993151,-0.165492373,0.335287,0.304228685,-0.161389813,0.332892,0.324809374,-0.195312712,0.39991,0.28872895,-0.169436977,0.371228,0.306666584,-0.168661343,0.376733,0.331972904,-0.17507015,0.388963
0.423844192,-0.204307763,0.437921,0.366538537,-0.21391119,0.404322,0.41773501,-0.216265182,0.425454,0.402218187,-0.209878694,0.399828,0.38818401,-0.214953658,0.378367,0.372077999,-0.204877662,0.36173,0.333693545,-0.230405711,0.372882,0.314222908,-0.254437836,0.364868,0.307012042,-0.265452436,0.360862,0.304901122,-0.272904998,0.35722,0.325284834,-0.219148734,0.379203,0.30979359,-0.189756769,0.344896,0.3341985,-0.18242441,0.354741,0.350597149,-0.188473542,0.37024,0.322064402,-0.209132197,0.386869,0.298374365,-0.184206318,0.353217,0.299771689,-0.166125002,0.336,0.305162187,-0.161863814,0.333707,0.325259318,-0.195825906,0.400458,0.289259893,-0.169948546,0.371839,0.307258874,-0.169222518,0.377422,0.332216308,-0.175708768,0.38966
0.425739077,-0.20667168,0.440497,0.367880303,-0.214911622,0.405859,0.419715652,-0.218496782,0.427752,0.404220231,-0.211032844,0.401892,0.39019715,-0.21561391,0.380227,0.374367207,-0.205360835,0.36359,0.334290133,-0.230951774,0.373582,0.314681003,-0.254815427,0.365273,0.30756878,-0.265567361,0.361119,0.305397521,-0.272805897,0.357342,0.325921043,-0.219726334,0.379964,0.309801681,-0.190017083,0.344994,0.333344747,-0.182193654,0.35389,0.349825814,-0.188099353,0.369332,0.322795406,-0.209767831,0.387755,0.298489423,-0.184578188,0.353484,0.299607247,-0.166287278,0.33595,0.304536997,-0.161516351,0.332869,0.326217126,-0.196575951,0.401633,0.289853276,-0.170430427,0.372554,0.307365281,-0.169437766,0.377527,0.331978976,-0.175965349,0.38969
0.398336435,-0.181531986,0.43567,0.350794603,-0.204632807,0.40185,0.401436365,-0.194426056,0.426195,0.398385556,-0.206692384,0.40373,0.397392518,-0.220177502,0.387936,0.389741242,-0.226200033,0.3753,0.333860097,-0.229993199,0.374046,0.327993016,-0.259912355,0.373802,0.328068012,-0.276228395,0.37368,0.328143569,-0.29173144,0.373569,0.320189237,-0.218618687,0.376565,0.307121862,-0.187956839,0.342317,0.322783255,-0.17522399,0.353381,0.337959442,-0.17605842,0.369242,0.306633138,-0.211040862,0.381118,0.294564903,-0.182144298,0.34868,0.294440868,-0.163712038,0.332083,0.298877286,-0.151844877,0.330964,0.300213605,-0.198682962,0.391057,0.288500928,-0.182716395,0.363155,0.306979732,-0.181223276,0.36956,0.327224317,-0.183519767,0.381863
0.397586702,-0.181190314,0.43485,0.350649694,-0.204548275,0.401684,0.401218785,-0.194320676,0.425964,0.40069754,-0.207891899,0.406073,0.398368138,-0.22003141,0.388577,0.390156706,-0.22531092,0.375157,0.334326214,-0.229838271,0.374924,0.32864233,-0.260426893,0.374542,0.328657109,-0.276724406,0.374351,0.328677637,-0.292206246,0.374177,0.319567883,-0.218867953,0.376888,0.307476448,-0.188371869,0.343148,0.324067516,-0.175921155,0.354787,0.339243578,-0.176727385,0.370645,0.306486708,-0.210940081,0.380936,0.295045138,-0.182435935,0.349131,0.295022724,-0.163735213,0.332859,0.30170019,-0.150947218,0.332292,0.299548011,-0.198242469,0.39019,0.288180773,-0.182513631,0.362752,0.306959796,-0.181211507,0.369536,0.327190897,-0.183501024,0.381824
0.396468643,-0.181734067,0.433742,0.350070243,-0.205148338,0.401085,0.399849709,-0.194762263,0.424701,0.399334283,-0.20812721,0.405113,0.396748512,-0.218402462,0.386528,0.38539409,-0.219546224,0.372383,0.333985966,-0.230357378,0.374372,0.327771707,-0.260708798,0.373696,0.328220025,-0.276368788,0.373358,0.328958063,-0.290883891,0.373051,0.316664786,-0.219777301,0.37667,0.306711235,-0.189367802,0.343239,0.325156411,-0.176911553,0.355199,0.340831177,-0.17695485,0.371046,0.306519851,-0.211783462,0.380956,0.295894935,-0.183053615,0.349329,0.296438567,-0.164090842,0.333147,0.301988797,-0.154600681,0.332834,0.299788698,-0.199162655,0.390423,0.288922037,-0.183568017,0.363135,0.307718003,-0.182419091,0.370123,0.327578756,-0.184830976,0.382436
0.396507564,-0.182278581,0.433842,0.350114389,-0.205643509,0.401168,0.399835348,-0.195307432,0.424781,0.399172172,-0.208515599,0.40516,0.396605207,-0.218303928,0.3865,0.385328292,-0.218316311,0.372183,0.333856027,-0.230287023,0.374422,0.32746729,-0.26095231,0.373422,0.328055518,-0.276236496,0.372923,0.3290839,-0.290205976,0.372468,0.316707685,-0.220243881,0.37674,0.30661148,-0.189539,0.343294,0.325550521,-0.177325872,0.355239,0.341482585,-0.17699263,0.371087,0.306598406,-0.212248581,0.381043,0.296097934,-0.183371569,0.349397,0.296669485,-0.164148719,0.333206,0.301567358,-0.153263361,0.332878,0.299904913,-0.199621065,0.390534,0.289218123,-0.184048742,0.363232,0.307925645,-0.182921901,0.37021,0.327585938,-0.18539054,0.382524
0.396555569,-0.1826167,0.433929,0.350171585,-0.20595878,0.401253,0.399932188,-0.195686049,0.424941,0.399239981,-0.208835365,0.405356,0.396637902,-0.218139351,0.386735,0.385853189,-0.218803891,0.372516,0.333630697,-0.23034927,0.374599,0.327332364,-0.26113614,0.373312,0.32796214,-0.2761616,0.372668,0.329130184,-0.289772234,0.372084,0.316768717,-0.220548557,0.376824,0.30625898,-0.18999688,0.343388,0.325863499,-0.177616405,0.355346,0.341950509,-0.177054647,0.371194,0.306609965,-0.212503275,0.381051,0.296253354,-0.183621815,0.349443,0.29666367,-0.164161879,0.333271,0.301511725,-0.153708078,0.332962,0.299860555,-0.199820417,0.390452,0.289304194,-0.18427907,0.363175,0.307966897,-0.183174104,0.370162,0.327499712,-0.185674723,0.382471
0.396622309,-0.182858151,0.434025,0.350239683,-0.206186672,0.401344,0.400055366,-0.195967252,0.42511,0.39934349,-0.209079366,0.405546,0.396809959,-0.21800537,0.387016,0.38666978,-0.219707512,0.372977,0.333561934,-0.230183285,0.374777,0.327270809,-0.261281233,0.373271,0.327917505,-0.276126491,0.372518,0.32916676,-0.289487602,0.371834,0.316835454,-0.220769929,0.376911,0.306082533,-0.190164001,0.343483,0.326102356,-0.177826688,0.35545,0.342293112,-0.17711159,0.371298,0.306623053,-0.212676849,0.381063,0.296206193,-0.184128254,0.34949,0.296313787,-0.164215718,0.333336,0.301498406,-0.154015966,0.333044,0.299813808,-0.199941932,0.390375,0.289349657,-0.184425058,0.363122,0.307982736,-0.183335258,0.370116,0.327428803,-0.185856373,0.38242
0.396671268,-0.183031257,0.434095,0.35024468,-0.206323802,0.401359,0.400108813,-0.196151245,0.425194,0.399310305,-0.209197718,0.405573,0.39692199,-0.217699179,0.387065,0.387476033,-0.220367917,0.373149,0.333450606,-0.229911146,0.374784,0.327175347,-0.261343739,0.373183,0.327861083,-0.276080774,0.372383,0.329192706,-0.289283887,0.371655,0.316809054,-0.220876468,0.376885,0.305916395,-0.190180942,0.343423,0.326117776,-0.177892291,0.355355,0.342383868,-0.177072462,0.371205,0.30658525,-0.212768186,0.381013,0.296190348,-0.184499156,0.34942,0.295970006,-0.164115724,0.333255,0.301337306,-0.154158006,0.332935,0.299769686,-0.20002156,0.390306,0.289343763,-0.184504885,0.363036,0.307931502,-0.183413087,0.370008,0.327314348,-0.18594976,0.382309
