sluyters/QuantumLeap/backend/src/datasets/gesture/HandGestureDataset_SHREC2017_csv/Gesture5/finger_2/subject_7_essai_1_skeletons_world.csv
Wrist_x,Wrist_y,Wrist_z,Palm_x,Palm_y,Palm_z,thumb_base_x,thumb_base_y,thumb_base_z,thumb_first_joint_x,thumb_first_joint_y,thumb_first_joint_z,thumb_second_joint_x,thumb_second_joint_y,thumb_second_joint_z,thumb_tip_x,thumb_tip_y,thumb_tip_z,index_base_x,index_base_y,index_base_z,index_first_joint_x,index_first_joint_y,index_first_joint_z,index_second_joint_x,index_second_joint_y,index_second_joint_z,index_tip_x,index_tip_y,index_tip_z,middle_base_x,middle_base_y,middle_base_z,middle_first_joint_x,middle_first_joint_y,middle_first_joint_z,middle_second_joint_x,middle_second_joint_y,middle_second_joint_z,middle_tip_x,middle_tip_y,middle_tip_z,ring_base_x,ring_base_y,ring_base_z,ring_first_joint_x,ring_first_joint_y,ring_first_joint_z,ring_second_joint_x,ring_second_joint_y,ring_second_joint_z,ring_tip_x,ring_tip_y,ring_tip_z,pinky_base_x,pinky_base_y,pinky_base_z,pinky_first_joint_x,pinky_first_joint_y,pinky_first_joint_z,pinky_second_joint_x,pinky_second_joint_y,pinky_second_joint_z,pinky_tip_x,pinky_tip_y,pinky_tip_z,
0.63302964,-0.40385437,0.630241,0.6411983,-0.36549371,0.637342,0.61988018,-0.3928981,0.63795,0.61517083,-0.36134528,0.651225,0.59716116,-0.33260806,0.652118,0.60192359,-0.32092575,0.663499,0.63388326,-0.31918631,0.65326,0.65074526,-0.29594715,0.679606,0.66027679,-0.28487796,0.692779,0.66892682,-0.27473538,0.704754,0.65366722,-0.31691204,0.646636,0.65647022,-0.27365497,0.647687,0.65489693,-0.24899233,0.6483,0.6544256,-0.23192312,0.648738,0.66944286,-0.31684429,0.640639,0.67562468,-0.27385082,0.643725,0.67860793,-0.24988807,0.645303,0.68242674,-0.23147048,0.646739,0.68691632,-0.32130391,0.632406,0.6873612,-0.28266568,0.632542,0.68868172,-0.26558555,0.632605,0.68520643,-0.26264074,0.63266
0.63298757,-0.40466456,0.63328,0.64189851,-0.36687733,0.64022,0.62041334,-0.39334998,0.642444,0.61787026,-0.35927397,0.655033,0.617986,-0.32965958,0.667509,0.62287311,-0.31345944,0.676054,0.64061717,-0.31990198,0.657762,0.63847736,-0.28381544,0.659716,0.64238235,-0.26339223,0.660693,0.64424731,-0.24564359,0.662972,0.65706776,-0.31973035,0.649303,0.66137116,-0.27590429,0.650658,0.6619214,-0.25406851,0.651448,0.66096558,-0.23960726,0.652657,0.67131472,-0.32168786,0.641809,0.65934377,-0.31485093,0.645486,0.67202436,-0.34980139,0.667891,0.67515834,-0.37838261,0.680324,0.68759644,-0.32953279,0.63181,0.69260495,-0.29165665,0.632032,0.69709774,-0.27486774,0.632133,0.6931145,-0.27033136,0.632223
0.62164482,-0.39722617,0.638676,0.64269211,-0.36478142,0.647247,0.61839794,-0.38807465,0.652001,0.61711163,-0.34973475,0.66242,0.61567161,-0.32089672,0.671793,0.621417,-0.30197773,0.679245,0.662351,-0.32367986,0.671358,0.65140229,-0.30730008,0.669925,0.65047756,-0.32437782,0.669208,0.66729368,-0.35087816,0.682876,0.67343771,-0.32240834,0.658466,0.6730621,-0.28817471,0.663048,0.67122225,-0.26842684,0.66572,0.66847982,-0.25561523,0.667629,0.68087111,-0.32363966,0.647199,0.68694294,-0.28079292,0.652739,0.68760961,-0.26083232,0.655573,0.68788578,-0.24137913,0.658149,0.6879188,-0.32875157,0.632445,0.69654418,-0.29349849,0.635418,0.70240551,-0.27643386,0.636783,0.69818687,-0.27236082,0.637989
0.62354745,-0.39921841,0.635594,0.64418164,-0.36348798,0.645371,0.61668898,-0.38476704,0.649424,0.61740729,-0.3489006,0.66083,0.61678234,-0.32051935,0.671051,0.62282759,-0.30117642,0.678382,0.66393744,-0.32358768,0.671207,0.65425908,-0.30775452,0.670989,0.65395734,-0.32516845,0.670879,0.6710028,-0.35183377,0.684741,0.67489256,-0.32224752,0.658169,0.6772231,-0.28247119,0.663578,0.67997713,-0.26030096,0.666734,0.67977529,-0.24530621,0.668987,0.68211456,-0.32337528,0.64669,0.69499704,-0.28024465,0.652696,0.69385106,-0.25959014,0.655768,0.69525127,-0.2400081,0.658562,0.68798291,-0.32842093,0.631501,0.6990423,-0.29400848,0.636439,0.70405969,-0.27750316,0.638708,0.6998785,-0.2744004,0.640709
0.61886327,-0.38906083,0.639448,0.64058817,-0.3517925,0.645605,0.61641231,-0.37821942,0.651089,0.61383401,-0.33561044,0.658503,0.61243023,-0.30428719,0.664425,0.61806405,-0.28261931,0.668225,0.66438828,-0.30986891,0.665445,0.65085232,-0.29343428,0.661706,0.64588811,-0.31052958,0.659836,0.66050772,-0.33670376,0.673408,0.67524211,-0.31226465,0.653664,0.67948036,-0.27279739,0.655162,0.68034268,-0.24954213,0.656035,0.67558297,-0.23758763,0.657857,0.68141443,-0.31920441,0.643497,0.69550181,-0.27202531,0.645704,0.69664518,-0.25202378,0.646833,0.69393683,-0.23632646,0.649823,0.68566918,-0.32751336,0.63042,0.69650898,-0.2918315,0.632308,0.70191714,-0.27496549,0.633176,0.69386413,-0.27266831,0.635511
0.61798803,-0.38751207,0.639456,0.64092476,-0.35154189,0.645097,0.61548399,-0.37595505,0.650521,0.61525488,-0.33522859,0.656968,0.61841116,-0.30304467,0.661089,0.62219552,-0.28186269,0.666681,0.66353962,-0.309034,0.663762,0.64961194,-0.29241199,0.659573,0.64444448,-0.30937102,0.657479,0.65913827,-0.33553952,0.671118,0.67489012,-0.31165979,0.652481,0.67840109,-0.27189347,0.653241,0.67884402,-0.248503,0.653684,0.67458813,-0.23519894,0.654673,0.68153838,-0.31796631,0.642766,0.6943306,-0.27110836,0.643756,0.69482449,-0.25089146,0.644262,0.6952724,-0.23167896,0.644723,0.68579382,-0.32714136,0.630305,0.69815232,-0.29089904,0.631456,0.70160425,-0.27436057,0.631985,0.69169631,-0.27208716,0.632452
0.62250855,-0.38882528,0.649675,0.63920349,-0.35371603,0.641919,0.62706853,-0.37367696,0.662719,0.64380108,-0.33533284,0.672005,0.65318766,-0.30354451,0.676536,0.66316676,-0.28181065,0.675653,0.6924219,-0.31254568,0.650678,0.66540889,-0.29273488,0.650022,0.64941492,-0.30759825,0.649694,0.65699772,-0.33127306,0.65969,0.68126937,-0.31695643,0.631767,0.66966312,-0.27321906,0.621482,0.6596866,-0.24756703,0.615482,0.64957789,-0.22988397,0.611197,0.6697888,-0.32272391,0.616808,0.68601231,-0.27926841,0.609616,0.67999001,-0.25721733,0.605937,0.67446511,-0.23663411,0.602592,0.65155235,-0.33373805,0.600082,0.65350291,-0.29846136,0.594413,0.65218401,-0.28160335,0.591808,0.6344617,-0.27441425,0.58951
0.62292219,-0.38897562,0.652523,0.64113308,-0.35470691,0.643533,0.62991497,-0.37370082,0.664919,0.64439225,-0.3367727,0.673089,0.65388278,-0.30497013,0.677687,0.66391191,-0.28320745,0.676804,0.69171958,-0.31325825,0.650367,0.6633791,-0.29293925,0.648392,0.6467382,-0.30747693,0.647404,0.65397348,-0.33092268,0.65707,0.68090397,-0.31790182,0.631765,0.66783216,-0.27361103,0.620061,0.65829154,-0.24735978,0.613233,0.64912193,-0.22895983,0.608356,0.66980492,-0.32392005,0.617156,0.68542801,-0.2801986,0.609348,0.6790848,-0.2580523,0.605352,0.67327279,-0.23739867,0.601721,0.6522157,-0.3353578,0.601033,0.66015491,-0.30221776,0.594127,0.66200988,-0.28555741,0.590954,0.64575647,-0.27623988,0.588154
0.6241171,-0.38998377,0.652987,0.64164959,-0.35481228,0.643576,0.63106709,-0.37321496,0.665312,0.64422257,-0.33717317,0.673395,0.65341321,-0.30547085,0.67843,0.66339186,-0.2835809,0.677764,0.69174867,-0.31331545,0.649938,0.6631388,-0.2928897,0.647688,0.64635336,-0.3073696,0.646563,0.65336085,-0.3306988,0.656006,0.68085616,-0.31795269,0.631258,0.66741535,-0.27350905,0.619178,0.65809286,-0.24707152,0.612135,0.64928515,-0.2284394,0.607104,0.6697262,-0.32398036,0.616618,0.6848556,-0.28004464,0.608334,0.67826264,-0.25781602,0.604096,0.6722231,-0.2370999,0.600243,0.65216306,-0.3354616,0.60052,0.66026797,-0.30180298,0.593331,0.66294706,-0.28517754,0.590028,0.64768849,-0.27497,0.587114
0.62892247,-0.39415239,0.65343,0.65767832,-0.35911536,0.640793,0.6501138,-0.37791199,0.664604,0.64780114,-0.3458297,0.670915,0.65001953,-0.31410679,0.677008,0.6578063,-0.28697572,0.67691,0.69582441,-0.31012343,0.642788,0.66064316,-0.29247309,0.637783,0.6419074,-0.30681358,0.635281,0.64098275,-0.32526387,0.643343,0.68662579,-0.3150497,0.624254,0.65712132,-0.26974261,0.608921,0.64340822,-0.2464077,0.599977,0.63290626,-0.22611214,0.595096,0.67739356,-0.32174255,0.609982,0.66478536,-0.27774468,0.590689,0.65848967,-0.25463867,0.580818,0.65292803,-0.23326491,0.571897,0.66308379,-0.33487497,0.594807,0.65310672,-0.29799496,0.585003,0.65310361,-0.28095877,0.580499,0.63590937,-0.27139947,0.576524
0.64443075,-0.3718697,0.670213,0.66677925,-0.34406607,0.649881,0.65961438,-0.35385231,0.675796,0.67468689,-0.31562308,0.674106,0.67910206,-0.28230843,0.669831,0.68756493,-0.26024144,0.663162,0.70410092,-0.29770045,0.637991,0.66615786,-0.27132699,0.623528,0.64086113,-0.2822114,0.616297,0.63204555,-0.29825517,0.622303,0.69461942,-0.30823111,0.623269,0.65068358,-0.26767872,0.598605,0.62848291,-0.24234667,0.584992,0.61280142,-0.22759547,0.575269,0.68525758,-0.31910381,0.612727,0.66686423,-0.27701573,0.592009,0.65904507,-0.25398367,0.581623,0.65210452,-0.23270669,0.572259,0.67166866,-0.33799937,0.603162,0.65383396,-0.29791481,0.584802,0.64879258,-0.27921146,0.576366,0.62728883,-0.26838274,0.568922
0.65497166,-0.36628513,0.678057,0.66839809,-0.33048984,0.646056,0.67169198,-0.3344748,0.675946,0.67721322,-0.2917214,0.662574,0.67869882,-0.25463475,0.650498,0.68380437,-0.23296895,0.637981,0.69288676,-0.28085976,0.614064,0.63596617,-0.25102016,0.587361,0.60512694,-0.25755131,0.57401,0.58678985,-0.27167473,0.573935,0.68071533,-0.29689878,0.604169,0.63786958,-0.2524644,0.567242,0.60979858,-0.22664653,0.5457,0.58129485,-0.20991366,0.530314,0.67000361,-0.31220572,0.598498,0.61575296,-0.27160937,0.566629,0.58809423,-0.25096476,0.550324,0.56299796,-0.23230163,0.535547,0.65574459,-0.3346146,0.596504,0.61367924,-0.2904057,0.567373,0.59443575,-0.27032496,0.553989,0.57751633,-0.2527425,0.542192
0.67915118,-0.33858502,0.684455,0.67403384,-0.32048697,0.64412,0.69033438,-0.31670856,0.673297,0.6877112,-0.27246493,0.648691,0.6816338,-0.23420827,0.627672,0.67029816,-0.21112401,0.609066,0.68156124,-0.27743621,0.593448,0.60337331,-0.236246,0.551485,0.56588787,-0.23623175,0.530503,0.54087672,-0.24201335,0.522012,0.66662335,-0.29676035,0.591325,0.6035737,-0.24826668,0.545974,0.56574658,-0.22029805,0.519519,0.53044424,-0.200912,0.500623,0.65465963,-0.31425677,0.592692,0.58176468,-0.26481698,0.54952,0.54518612,-0.24042649,0.52744,0.51205608,-0.21892455,0.507368,0.64094263,-0.33817468,0.600359,0.57488811,-0.29054008,0.563155,0.54367941,-0.27067636,0.546061,0.51676825,-0.25365143,0.53098
0.67691685,-0.33987253,0.67821,0.66018773,-0.32918721,0.636497,0.68296587,-0.31775089,0.661431,0.69275717,-0.28688653,0.633457,0.68510091,-0.24881104,0.610979,0.67046446,-0.22508495,0.592578,0.65244282,-0.29818597,0.577711,0.59198404,-0.25553158,0.535983,0.55978937,-0.2328502,0.515119,0.53565909,-0.21391945,0.503674,0.63695082,-0.31789375,0.581899,0.56407317,-0.26382855,0.535492,0.52252449,-0.23355049,0.508413,0.48965969,-0.21374711,0.48907,0.62551127,-0.33512676,0.588563,0.55119076,-0.27862037,0.543366,0.5135504,-0.25008089,0.520242,0.47992723,-0.22476498,0.49922,0.61443322,-0.35759109,0.602771,0.5566224,-0.30014257,0.563734,0.53036056,-0.2750926,0.545799,0.51145323,-0.2534247,0.529759
0.65580807,-0.32504224,0.657065,0.64243855,-0.31104784,0.618073,0.65116078,-0.29086768,0.635995,0.60975675,-0.27225311,0.598801,0.5797544,-0.25311765,0.56696,0.55967486,-0.24733113,0.544481,0.62421443,-0.27530505,0.556562,0.53996549,-0.24513723,0.516005,0.49893746,-0.22851409,0.495726,0.47054763,-0.21593934,0.482143,0.62489347,-0.30423213,0.567037,0.53412717,-0.26961243,0.523769,0.48394424,-0.25014924,0.498529,0.45834316,-0.23593734,0.485182,0.62641719,-0.32856541,0.578663,0.5367458,-0.29068891,0.534466,0.49305744,-0.26777871,0.511854,0.45521685,-0.24789931,0.491273,0.63012516,-0.35857377,0.598396,0.56008483,-0.31598474,0.560899,0.53113146,-0.29240592,0.543671,0.50639867,-0.27256242,0.52847
0.65793626,-0.34648274,0.666402,0.62630057,-0.33598877,0.625419,0.65337046,-0.32667868,0.64849,0.61650095,-0.29985493,0.618772,0.58313314,-0.27538422,0.600682,0.55242415,-0.26241497,0.581376,0.60284904,-0.29988798,0.565923,0.54271971,-0.24449557,0.526524,0.50752662,-0.22476935,0.506825,0.48123925,-0.21203023,0.49284,0.58472971,-0.3164012,0.571777,0.52749112,-0.27162419,0.527454,0.49426428,-0.24578011,0.501599,0.46475823,-0.22020715,0.482449,0.57221665,-0.33116668,0.579755,0.50215056,-0.26972314,0.536057,0.46827812,-0.24096218,0.5137,0.43858559,-0.21839254,0.493376,0.56196595,-0.35106917,0.595425,0.51347173,-0.29209113,0.558148,0.49181443,-0.26689079,0.541021,0.47303025,-0.24581994,0.525909
0.64153187,-0.33613475,0.653129,0.60750711,-0.32255243,0.613342,0.64522134,-0.32089307,0.634147,0.59496559,-0.28559576,0.603994,0.55896319,-0.2620949,0.583859,0.52607708,-0.24967887,0.562594,0.58231351,-0.29002473,0.553644,0.52295354,-0.23622576,0.514839,0.48877587,-0.21622534,0.495436,0.46216401,-0.2025728,0.480431,0.5660552,-0.30738551,0.561266,0.50951329,-0.26631121,0.518534,0.47665765,-0.24251828,0.493607,0.4490761,-0.21759447,0.476108,0.55503842,-0.32260125,0.570607,0.48661094,-0.26202823,0.527869,0.45349811,-0.23360879,0.506003,0.42468279,-0.21099663,0.486125,0.54653615,-0.34254189,0.587726,0.49946253,-0.28453489,0.551525,0.4784448,-0.25962391,0.534892,0.46024864,-0.23869716,0.520217
0.65191089,-0.3259979,0.660881,0.61477789,-0.32412129,0.622644,0.64738216,-0.31419318,0.639226,0.59766329,-0.28432508,0.60479,0.55561417,-0.26045781,0.579071,0.52186695,-0.24905602,0.5568,0.58504783,-0.30713063,0.561112,0.52727149,-0.25021744,0.520709,0.49606472,-0.22381653,0.500508,0.47221325,-0.20716352,0.486863,0.57019485,-0.32098757,0.572595,0.51311467,-0.26949201,0.530035,0.48014111,-0.24006108,0.505208,0.46239033,-0.21626452,0.491945,0.56029944,-0.33242551,0.584992,0.49881456,-0.26830064,0.541143,0.46641708,-0.23831327,0.518709,0.43794223,-0.21454223,0.498314,0.55312137,-0.34610184,0.605534,0.50935058,-0.28775989,0.568415,0.48907237,-0.26225129,0.551361,0.47191295,-0.24384471,0.536251
0.64106948,-0.32590466,0.659628,0.60133441,-0.32048149,0.621949,0.64215713,-0.31186546,0.637652,0.5870967,-0.28186138,0.603051,0.54380063,-0.25988125,0.576651,0.50992205,-0.24979239,0.554095,0.57366344,-0.30681754,0.56054,0.51673069,-0.25006847,0.520399,0.486133,-0.22373604,0.500328,0.46560952,-0.20584741,0.486522,0.5593782,-0.32100775,0.572631,0.50311897,-0.26982707,0.530694,0.47061932,-0.24054718,0.506231,0.45316688,-0.21668171,0.492894,0.54986939,-0.33270623,0.585486,0.48940744,-0.26842718,0.542035,0.45915877,-0.23765152,0.519805,0.43444566,-0.21509375,0.499595,0.54303648,-0.34664882,0.606491,0.50015576,-0.28845244,0.569783,0.47949279,-0.26312686,0.552917,0.45976736,-0.24404152,0.538035
0.55170539,-0.26475037,0.618152,0.53913662,-0.27793141,0.582539,0.56968962,-0.27546232,0.611464,0.59394243,-0.27372756,0.591486,0.60875002,-0.25267159,0.572617,0.61216066,-0.24056472,0.554965,0.54767307,-0.3011169,0.541653,0.52772156,-0.24544256,0.50175,0.49022823,-0.22537059,0.481799,0.47172092,-0.23170412,0.477454,0.52196661,-0.29411978,0.535926,0.50571473,-0.23412844,0.494576,0.46762184,-0.2043306,0.470455,0.44978099,-0.20730512,0.466844,0.50144058,-0.28734451,0.533962,0.48873582,-0.2290143,0.496587,0.4579747,-0.20271587,0.477465,0.43847263,-0.20114306,0.474523,0.47817478,-0.27714274,0.536941,0.47304195,-0.22668151,0.503339,0.45308197,-0.20650482,0.4879,0.4296296,-0.20376114,0.476356
0.54465128,-0.26405088,0.620623,0.52099013,-0.27348357,0.583482,0.56180468,-0.27284059,0.612029,0.57428499,-0.27161517,0.589644,0.58798475,-0.25255056,0.569135,0.59201032,-0.24549594,0.550897,0.52782874,-0.29134791,0.538868,0.51150895,-0.23976123,0.502254,0.48159999,-0.21937206,0.483946,0.46612832,-0.22497112,0.480008,0.50137201,-0.2870875,0.534868,0.48257009,-0.22946928,0.491855,0.44859186,-0.20083085,0.466763,0.43403285,-0.20385902,0.462121,0.48038771,-0.28276017,0.534443,0.46577164,-0.2276593,0.494955,0.44078281,-0.20050779,0.474751,0.42562842,-0.19944133,0.470529,0.45688636,-0.27587355,0.53949,0.44728142,-0.22315933,0.504227,0.42613268,-0.20524039,0.488026,0.41598129,-0.19585031,0.483982
0.53109334,-0.26301214,0.623171,0.50832503,-0.27326851,0.585473,0.54804788,-0.26942024,0.613073,0.56083629,-0.26906137,0.588667,0.5718935,-0.24962572,0.566511,0.57484826,-0.24441688,0.547597,0.51268127,-0.28839866,0.538514,0.49583509,-0.24027208,0.502774,0.47127182,-0.21905566,0.484904,0.45880109,-0.22348942,0.481234,0.4864308,-0.28614338,0.536129,0.45670012,-0.22187945,0.492245,0.44962213,-0.21664502,0.50092,0.45655062,-0.23496742,0.518647,0.46576331,-0.28353189,0.537076,0.44558791,-0.22682235,0.496248,0.42280021,-0.19736894,0.475359,0.40951786,-0.19443622,0.47074,0.4429293,-0.27882765,0.543847,0.4313595,-0.22550433,0.507524,0.41872285,-0.20194896,0.490835,0.41025575,-0.19296828,0.486502
0.52522416,-0.26118217,0.62127,0.50568517,-0.27128804,0.584222,0.53852393,-0.26633403,0.612555,0.55967416,-0.2691227,0.590858,0.57393567,-0.25142964,0.570696,0.57872237,-0.24730298,0.552949,0.51377636,-0.28680978,0.539546,0.4982524,-0.23917547,0.505152,0.47361962,-0.2183481,0.487955,0.46136281,-0.22319332,0.48482,0.48648741,-0.28442673,0.535729,0.4570204,-0.22054746,0.492717,0.44938082,-0.21558798,0.501669,0.45592276,-0.23390209,0.519148,0.4648688,-0.28170695,0.535448,0.44563879,-0.22551507,0.495899,0.42266337,-0.19637968,0.475665,0.40931296,-0.19376864,0.471587,0.44067154,-0.27687767,0.540653,0.42929503,-0.22379023,0.505334,0.41648083,-0.2003992,0.489106,0.40785675,-0.19161679,0.48517
0.5229135,-0.26145574,0.621714,0.50527222,-0.27182156,0.584989,0.53773039,-0.26674687,0.613528,0.55838322,-0.27007557,0.593974,0.57533503,-0.25365008,0.575398,0.58192263,-0.25037405,0.558767,0.51506301,-0.28727359,0.541256,0.49820855,-0.2363791,0.507411,0.47266776,-0.2172896,0.490488,0.46220059,-0.22455681,0.487605,0.48737859,-0.28499284,0.536921,0.45782081,-0.22121144,0.494301,0.44999228,-0.21643827,0.503423,0.45653117,-0.23484121,0.520899,0.46538067,-0.28235983,0.536188,0.44725424,-0.22914775,0.497174,0.42455482,-0.19808277,0.477213,0.41120996,-0.19466241,0.473397,0.44061554,-0.27764579,0.540805,0.42914563,-0.22453255,0.505907,0.41403114,-0.20199094,0.489873,0.40048339,-0.20120439,0.486131
0.56246796,-0.3115942,0.611654,0.51444535,-0.2918651,0.58062,0.55379361,-0.3014319,0.58815,0.55409337,-0.26390436,0.553999,0.55688078,-0.22829974,0.541105,0.55456033,-0.20325218,0.530552,0.45961299,-0.26131245,0.523461,0.43495556,-0.20303126,0.48795,0.43247183,-0.20131599,0.480285,0.44151332,-0.22185736,0.491235,0.45117368,-0.26595872,0.540001,0.43145584,-0.20431447,0.505847,0.43742138,-0.20697863,0.496236,0.42983624,-0.22071328,0.489372,0.44797917,-0.27131164,0.556002,0.43206046,-0.21128585,0.518532,0.43982085,-0.21599652,0.510014,0.44617525,-0.238226,0.51614,0.45146873,-0.28068613,0.579777,0.44102225,-0.22852346,0.54883,0.43592895,-0.20876922,0.534612,0.43096828,-0.19221995,0.522003
0.56285648,-0.31238059,0.61222,0.51524034,-0.2927752,0.581338,0.55434225,-0.30225433,0.588723,0.55478641,-0.26477738,0.554622,0.55798773,-0.22924522,0.540761,0.55550709,-0.20411648,0.530412,0.46098254,-0.26238062,0.524326,0.43698429,-0.20424517,0.488955,0.43399252,-0.20358169,0.481202,0.44157382,-0.22393305,0.490909,0.45247073,-0.26702515,0.540918,0.43290124,-0.20536493,0.506956,0.43861587,-0.20794562,0.497233,0.43130579,-0.22138797,0.490289,0.44917902,-0.27236622,0.55695,0.43335505,-0.2123015,0.519646,0.44128147,-0.215778,0.51103,0.45031168,-0.23825416,0.518728,0.45249318,-0.2817081,0.580738,0.44314343,-0.23001821,0.549948,0.43800705,-0.21125649,0.535801,0.43292459,-0.1955277,0.523172
0.56757784,-0.31320645,0.613513,0.52670595,-0.2944494,0.582602,0.55911229,-0.30318279,0.590097,0.56628296,-0.26617665,0.55618,0.5673287,-0.2295677,0.539175,0.56366163,-0.20405511,0.528302,0.47208231,-0.26480484,0.525661,0.44782392,-0.20663616,0.490385,0.44411179,-0.20672563,0.482466,0.45046683,-0.22683761,0.490931,0.46354989,-0.26939095,0.542143,0.44311203,-0.20751606,0.508232,0.4483386,-0.20960995,0.49829,0.44317237,-0.22341559,0.491189,0.46027564,-0.27464424,0.558086,0.4435255,-0.21428286,0.520868,0.45140255,-0.21626916,0.512065,0.46321457,-0.23890829,0.521242,0.46366345,-0.28380326,0.581773,0.45453245,-0.23239183,0.551065,0.44897836,-0.21441404,0.536956,0.44341497,-0.19930355,0.524235
0.57448955,-0.31874771,0.623856,0.52126712,-0.29742148,0.587752,0.56896961,-0.30979355,0.602216,0.55726439,-0.26538992,0.570303,0.56524038,-0.23611538,0.54761,0.55793365,-0.21607734,0.525828,0.47796253,-0.2720581,0.528201,0.45037249,-0.21032322,0.492842,0.4487604,-0.20977516,0.485356,0.45662831,-0.22993217,0.494151,0.46327076,-0.27497691,0.540497,0.43952404,-0.2132445,0.502703,0.4349691,-0.21909889,0.493089,0.42724721,-0.2328753,0.486223,0.45466014,-0.27886828,0.553397,0.43238587,-0.2160604,0.512671,0.43621029,-0.21241295,0.504168,0.45413154,-0.23527576,0.516367,0.45114262,-0.28641717,0.574223,0.44364198,-0.23474253,0.540167,0.44407528,-0.21615533,0.52452,0.4469383,-0.20770116,0.511144
0.57637721,-0.32061459,0.626109,0.52962654,-0.30173135,0.590237,0.57199753,-0.31148035,0.604941,0.57017643,-0.26637654,0.574995,0.57670599,-0.23677739,0.553671,0.57098613,-0.21606773,0.532665,0.48800431,-0.2755206,0.531475,0.45590936,-0.21620133,0.496958,0.44867717,-0.21000778,0.488553,0.4542026,-0.22979143,0.498816,0.47266624,-0.28167018,0.543286,0.44245121,-0.21651063,0.504945,0.4424073,-0.22333789,0.494049,0.43724684,-0.23626295,0.486265,0.4635529,-0.28812427,0.55577,0.43669585,-0.22503525,0.515873,0.4406871,-0.21776847,0.506335,0.45758776,-0.2363937,0.517821,0.4594509,-0.29854674,0.576063,0.44643913,-0.24438928,0.542778,0.44474679,-0.22374157,0.527486,0.44730261,-0.20940104,0.513678
0.57355579,-0.3184952,0.621312,0.53941998,-0.30383908,0.587729,0.57703131,-0.31071427,0.602459,0.57760242,-0.26437664,0.57672,0.6039038,-0.24187221,0.576361,0.60004175,-0.22401264,0.559172,0.50131526,-0.27750495,0.53389,0.47488314,-0.22155487,0.504373,0.45917789,-0.21333213,0.492332,0.46855093,-0.23002647,0.499169,0.48412079,-0.28250814,0.543771,0.44418179,-0.2429334,0.509713,0.43348712,-0.21179376,0.494022,0.44435737,-0.21567324,0.501417,0.47343222,-0.28788217,0.554492,0.44046124,-0.23420766,0.519319,0.42955529,-0.20667174,0.505662,0.43874535,-0.20384108,0.514409,0.46725729,-0.29674764,0.572334,0.45744767,-0.24490623,0.543361,0.4566924,-0.22485341,0.53005,0.45274232,-0.20967429,0.514828
0.57291495,-0.31796753,0.619562,0.53927715,-0.30222088,0.58621,0.57734791,-0.31009213,0.601419,0.57705356,-0.26427806,0.576947,0.60494987,-0.2424416,0.578109,0.60244376,-0.2238429,0.561592,0.5088978,-0.27146503,0.533449,0.48247253,-0.21536023,0.502755,0.46572652,-0.20656897,0.49004,0.46834743,-0.22671649,0.497072,0.49029962,-0.27675244,0.542556,0.45471639,-0.23935899,0.509108,0.44113517,-0.20799355,0.492661,0.44615179,-0.21340621,0.499598,0.4780912,-0.28255369,0.552622,0.45039717,-0.24695896,0.518283,0.43148664,-0.21397571,0.497115,0.43004035,-0.20472507,0.495474,0.46726647,-0.29383486,0.569646,0.45451619,-0.24253059,0.5414,0.44546366,-0.21918205,0.528422,0.43379015,-0.1981713,0.512992
0.5737519,-0.31845477,0.61933,0.53855398,-0.30063772,0.583283,0.57748293,-0.30950216,0.600029,0.57384819,-0.26288146,0.572961,0.60428134,-0.24178262,0.578091,0.60413701,-0.2206139,0.563537,0.51014205,-0.26455369,0.526633,0.46978192,-0.24859946,0.493946,0.45489952,-0.22026044,0.479919,0.46236585,-0.21463748,0.484672,0.4919274,-0.27137018,0.536101,0.45478645,-0.2302353,0.498673,0.44163014,-0.20163598,0.485366,0.44804696,-0.20869339,0.494728,0.47991878,-0.27869851,0.546671,0.45203524,-0.26255661,0.508417,0.43262134,-0.22808248,0.487841,0.42951545,-0.21821111,0.487402,0.46840938,-0.29027327,0.564702,0.44812413,-0.2386373,0.532857,0.4381496,-0.21568052,0.518226,0.42716558,-0.19746616,0.50354
0.58169668,-0.32221073,0.625428,0.54789567,-0.3031028,0.590174,0.58758479,-0.31225699,0.607733,0.58082558,-0.26302784,0.585259,0.61175003,-0.24116466,0.592819,0.61355984,-0.21973548,0.579959,0.52237949,-0.25918021,0.53621,0.49412131,-0.24346888,0.503759,0.47147161,-0.21533291,0.487628,0.4706515,-0.20949016,0.490673,0.50369197,-0.27113778,0.54403,0.46857489,-0.23692718,0.508377,0.44448744,-0.20606288,0.492022,0.45157555,-0.21002997,0.499311,0.49104158,-0.28280557,0.553183,0.46907817,-0.26280741,0.517161,0.44017624,-0.22987064,0.494598,0.4312517,-0.21915493,0.489708,0.48133046,-0.30026175,0.569401,0.45130975,-0.24959841,0.539534,0.43777898,-0.22823712,0.525812,0.4210039,-0.2178459,0.510535
0.59023922,-0.3259273,0.628353,0.57098804,-0.30870904,0.593571,0.60116367,-0.315321,0.617749,0.60582923,-0.27295984,0.61092,0.63073159,-0.24633873,0.618927,0.63389371,-0.22329021,0.6084,0.55577667,-0.26160809,0.548679,0.49783126,-0.21609247,0.518374,0.48031167,-0.20967259,0.50495,0.4826273,-0.21170672,0.511546,0.53417627,-0.27847831,0.548046,0.50439858,-0.24514582,0.514443,0.46483085,-0.2176834,0.494831,0.4626747,-0.22073622,0.499458,0.51873086,-0.29401195,0.550208,0.50765824,-0.26773038,0.519284,0.47103663,-0.23918563,0.499225,0.45649945,-0.23562554,0.498225,0.50476506,-0.3157982,0.557996,0.46436534,-0.26805663,0.532154,0.44722922,-0.24851368,0.520281,0.4296949,-0.231701,0.505027
0.59292324,-0.32751714,0.629817,0.57163255,-0.3090575,0.594241,0.60367452,-0.31507352,0.619021,0.60703875,-0.27332316,0.613254,0.62802793,-0.24539655,0.61888,0.63216765,-0.2225287,0.610172,0.55547785,-0.26146744,0.548384,0.49776212,-0.21606246,0.518302,0.48086242,-0.20991301,0.505529,0.48333584,-0.21201753,0.512297,0.53381564,-0.2782903,0.547676,0.50340732,-0.24466405,0.513432,0.46363221,-0.21712207,0.493555,0.46103413,-0.21995352,0.497687,0.51838297,-0.29381477,0.549839,0.50630034,-0.26701425,0.517895,0.46929769,-0.23830262,0.497382,0.45383224,-0.23424884,0.495314,0.50453891,-0.31565671,0.557746,0.46332344,-0.26745518,0.53096,0.44582894,-0.24773558,0.518652,0.42844842,-0.23102888,0.503562
0.61527422,-0.34349071,0.663444,0.58196222,-0.3233715,0.627184,0.61187465,-0.32620977,0.653198,0.61032169,-0.28823435,0.630108,0.62154797,-0.27693225,0.604143,0.61777718,-0.26030454,0.583481,0.58563671,-0.28480507,0.581367,0.54347491,-0.23959988,0.550118,0.51954133,-0.22345349,0.538038,0.52521263,-0.23295389,0.545543,0.56187552,-0.29778886,0.579723,0.50046878,-0.24174606,0.5446,0.47926494,-0.24141929,0.528912,0.493211,-0.25978072,0.536693,0.54342241,-0.31002049,0.581168,0.4862338,-0.25471609,0.548682,0.46824584,-0.25391842,0.53523,0.48264539,-0.27407103,0.542974,0.52362467,-0.32756349,0.58832,0.48190375,-0.27735203,0.560938,0.47174143,-0.26206703,0.548357,0.46190728,-0.24996429,0.533607
0.62461096,-0.34395899,0.658471,0.59837869,-0.31961995,0.619991,0.63076681,-0.32065666,0.643076,0.57923487,-0.2839825,0.605607,0.54542853,-0.25983663,0.579902,0.50737806,-0.25628093,0.557632,0.5773315,-0.27316989,0.565864,0.51688091,-0.23362154,0.531775,0.49623462,-0.22346326,0.52165,0.50922472,-0.22921488,0.531057,0.56354707,-0.29482917,0.569626,0.49030932,-0.24621235,0.530419,0.47055268,-0.23853328,0.517208,0.48670784,-0.25374803,0.527244,0.55418368,-0.31418481,0.575691,0.4869435,-0.26496735,0.537581,0.46511696,-0.25721926,0.526185,0.47936293,-0.27180136,0.537021,0.54691634,-0.34019017,0.588697,0.4912185,-0.29178024,0.556601,0.47494983,-0.2860307,0.541854,0.45946479,-0.27990065,0.527198
0.68473408,-0.34213681,0.669778,0.64827458,-0.32774031,0.634162,0.67231122,-0.31436093,0.651344,0.61735592,-0.28747974,0.615436,0.58881124,-0.25862598,0.587925,0.57557218,-0.24133573,0.565778,0.59974664,-0.28036673,0.578964,0.56540795,-0.25112267,0.54511,0.52643966,-0.23895662,0.528672,0.52122367,-0.24366906,0.531519,0.6005512,-0.30899837,0.587544,0.52660854,-0.28007993,0.551103,0.4981437,-0.26839911,0.536578,0.51469262,-0.27486299,0.5452,0.60397645,-0.33380521,0.597351,0.53263068,-0.2993066,0.560329,0.50639359,-0.29105762,0.547707,0.50407678,-0.29532709,0.557613,0.61349542,-0.365686,0.614404,0.54668005,-0.32990593,0.583657,0.53639569,-0.32824763,0.56953,0.52464652,-0.3247676,0.554488
0.62566249,-0.38321563,0.680889,0.62752552,-0.35333173,0.645739,0.64395374,-0.36492606,0.679016,0.63319736,-0.32155199,0.672225,0.6348187,-0.28678589,0.666664,0.63539,-0.2620618,0.65693,0.65047098,-0.30404454,0.611143,0.59116938,-0.26252498,0.583545,0.57865896,-0.27337609,0.586029,0.59209388,-0.29227606,0.594419,0.62941781,-0.31437804,0.599731,0.55524465,-0.26494421,0.561915,0.54164728,-0.27826427,0.564694,0.55906922,-0.29806356,0.575694,0.61192244,-0.32530287,0.593056,0.58657408,-0.26947916,0.560928,0.56323372,-0.26839487,0.563423,0.55358458,-0.27317191,0.577406,0.59061158,-0.34303027,0.590331,0.53694159,-0.29437244,0.561397,0.51640362,-0.29401005,0.548102,0.51593385,-0.30382942,0.542585
0.62518231,-0.38252732,0.679119,0.63166951,-0.35399266,0.648381,0.64491857,-0.36508974,0.680331,0.62756898,-0.32523825,0.676932,0.63133215,-0.29182405,0.67594,0.63495247,-0.26818545,0.669676,0.66129341,-0.30405214,0.621598,0.60298735,-0.26533939,0.594015,0.59234445,-0.27960076,0.59981,0.60795925,-0.30004079,0.61104,0.64192119,-0.31458345,0.608147,0.5735412,-0.26950931,0.574187,0.55960041,-0.28667523,0.581497,0.57843189,-0.30763049,0.594478,0.62545355,-0.32560036,0.599454,0.60747454,-0.27328602,0.571569,0.58849296,-0.27069106,0.577149,0.57909159,-0.27327803,0.590938,0.60469654,-0.34331832,0.593657,0.60260829,-0.30117887,0.567987,0.57510034,-0.28560337,0.556193,0.55630154,-0.28931247,0.553825
0.64641974,-0.40061673,0.701995,0.66128777,-0.38011963,0.674072,0.66220132,-0.38037145,0.700789,0.63897968,-0.34692112,0.691733,0.61900869,-0.30788116,0.678355,0.61624464,-0.28190518,0.669631,0.68598746,-0.3265415,0.646932,0.65525557,-0.28354866,0.622552,0.64872503,-0.26562621,0.618797,0.65764346,-0.25468378,0.629672,0.67870998,-0.34059684,0.637523,0.65423176,-0.29322896,0.603735,0.64004175,-0.29958665,0.618649,0.6441792,-0.31900036,0.635552,0.67176521,-0.35478942,0.631937,0.63487432,-0.31220728,0.602828,0.63370156,-0.30443539,0.614222,0.63207604,-0.30255508,0.631568,0.66140162,-0.37681255,0.629435,0.60593845,-0.33594167,0.602455,0.57985785,-0.33720705,0.590058,0.58521632,-0.34932473,0.591271
0.62251246,-0.38916091,0.677908,0.64079857,-0.37099201,0.65495,0.63722915,-0.37256185,0.678677,0.61872756,-0.33529208,0.671892,0.60071518,-0.2982652,0.659913,0.60013456,-0.27353498,0.653374,0.67285779,-0.32831778,0.634781,0.64615089,-0.29197862,0.614427,0.64519119,-0.27890528,0.61614,0.65718087,-0.27172476,0.630158,0.66560868,-0.34251242,0.6249,0.64602798,-0.29941432,0.595763,0.63543147,-0.30794111,0.613736,0.63873746,-0.32660462,0.629918,0.65816084,-0.35621261,0.618543,0.61899369,-0.31735062,0.593944,0.62207115,-0.31277732,0.609714,0.62035942,-0.31051004,0.625946,0.6461983,-0.37649318,0.614375,0.60809302,-0.33574928,0.591093,0.57936009,-0.33422282,0.580396,0.57834607,-0.34592148,0.584091
0.63814738,-0.4241994,0.683316,0.6510457,-0.3784078,0.665387,0.63361711,-0.40000614,0.684473,0.61231939,-0.35771537,0.674136,0.58791456,-0.32062493,0.657878,0.57988148,-0.29358328,0.64861,0.65590829,-0.3160067,0.650313,0.64185327,-0.27676307,0.632849,0.63487461,-0.2567194,0.624117,0.64520629,-0.24516216,0.632834,0.66603946,-0.32758745,0.641919,0.65631058,-0.28623055,0.617101,0.65941721,-0.30901387,0.6384,0.66266843,-0.33310843,0.654063,0.67369111,-0.34034339,0.636397,0.66756352,-0.28890911,0.615365,0.66125136,-0.26553919,0.604604,0.66356495,-0.24702842,0.602064,0.68149481,-0.36201152,0.632476,0.64215943,-0.34527836,0.612178,0.64857878,-0.37012359,0.626201,0.66188193,-0.38905494,0.638782
0.65955373,-0.43334131,0.665856,0.65575749,-0.38442395,0.654314,0.6395103,-0.41306524,0.664987,0.60872779,-0.3720424,0.652005,0.57955993,-0.33655844,0.639633,0.56881661,-0.31207229,0.634744,0.62871434,-0.31942589,0.642644,0.61667421,-0.27561747,0.62724,0.61084194,-0.25381589,0.619538,0.62395356,-0.24128699,0.630915,0.65005357,-0.32437737,0.639206,0.64043141,-0.30233736,0.618276,0.67245967,-0.31233537,0.643181,0.6850094,-0.33726771,0.65857,0.66795734,-0.33186292,0.637269,0.65187014,-0.28042651,0.61899,0.64872557,-0.28386618,0.609639,0.66724113,-0.30413214,0.621974,0.69032966,-0.34758528,0.636679,0.66871468,-0.33525488,0.619274,0.67658876,-0.36041875,0.635794,0.68568616,-0.37723482,0.648325
0.61524595,-0.42638053,0.645504,0.6293178,-0.38563927,0.642777,0.60449271,-0.40735329,0.64972,0.58851522,-0.36675542,0.644861,0.57450574,-0.33346282,0.642824,0.57726454,-0.31631294,0.649376,0.62893506,-0.32774424,0.645404,0.62661017,-0.2826441,0.639424,0.62481789,-0.26211274,0.636434,0.62332385,-0.24328359,0.633716,0.64692083,-0.3342165,0.639207,0.65043472,-0.28539252,0.629414,0.64849399,-0.26351374,0.623701,0.66596786,-0.25448975,0.637566,0.66087277,-0.34259327,0.634319,0.6685638,-0.29545835,0.624135,0.67082961,-0.27313555,0.618924,0.67500509,-0.25217816,0.614187,0.67676904,-0.35929836,0.628882,0.68692636,-0.3190327,0.619447,0.69202556,-0.30078063,0.615112,0.70716358,-0.29927106,0.626345
0.62796592,-0.42597956,0.645088,0.63871911,-0.38945455,0.643062,0.61415431,-0.40782024,0.648483,0.61163484,-0.37644035,0.642559,0.59502995,-0.35176534,0.646556,0.59978515,-0.34595981,0.661782,0.6290977,-0.32895218,0.645335,0.62249202,-0.28507118,0.639167,0.61905397,-0.26356788,0.636083,0.61596338,-0.24412972,0.633279,0.64904923,-0.33490492,0.64041,0.65206319,-0.28611725,0.631066,0.65062535,-0.26490817,0.625615,0.66865034,-0.25644089,0.639829,0.66478934,-0.34294057,0.636516,0.67178444,-0.29510324,0.626444,0.67575999,-0.27307252,0.621292,0.6771986,-0.25281424,0.616607,0.68310131,-0.35939899,0.632161,0.69241902,-0.31589218,0.623349,0.6960595,-0.30076442,0.6193,0.71441729,-0.29251793,0.630886
0.63510589,-0.42673173,0.64165,0.64687077,-0.39007324,0.640972,0.62013671,-0.41046478,0.645803,0.6188095,-0.37932697,0.641141,0.59892298,-0.35618284,0.644734,0.60026686,-0.34679954,0.659931,0.62983561,-0.33247818,0.645409,0.62147818,-0.28921946,0.640701,0.61604824,-0.27017808,0.638347,0.61349399,-0.24788109,0.636208,0.64958876,-0.33507091,0.640086,0.65198587,-0.28670785,0.632258,0.65088788,-0.26522709,0.627691,0.66876398,-0.2567283,0.642285,0.66707433,-0.34072785,0.635759,0.67194821,-0.29240172,0.627231,0.67057162,-0.26926869,0.622868,0.67575169,-0.25279897,0.618902,0.68888124,-0.35081113,0.630687,0.69677634,-0.30990548,0.623091,0.69743417,-0.29646873,0.619602,0.71663292,-0.2899239,0.631482
0.63565805,-0.42700537,0.639524,0.64702443,-0.38975482,0.640234,0.62045617,-0.41486537,0.643464,0.6107873,-0.38575068,0.648552,0.58731838,-0.3487708,0.638102,0.58339296,-0.32974271,0.640292,0.63048729,-0.33320791,0.645687,0.62229305,-0.28982237,0.641196,0.61978291,-0.26718158,0.638951,0.61660145,-0.24768565,0.63691,0.65135293,-0.33565174,0.641162,0.65407658,-0.28735232,0.634146,0.65375131,-0.2651339,0.630054,0.67388755,-0.25394266,0.644959,0.66963928,-0.34106146,0.637384,0.67859076,-0.29429034,0.629299,0.6804518,-0.27045832,0.625162,0.68323266,-0.25297743,0.621401,0.69179294,-0.3516538,0.632761,0.70769363,-0.3152887,0.632436,0.71627003,-0.29921757,0.632286,0.72353172,-0.28419583,0.632155
0.64211067,-0.42817637,0.634363,0.64915346,-0.38769302,0.637561,0.62441794,-0.41406614,0.638253,0.61088311,-0.38865644,0.64451,0.58195537,-0.35300371,0.627254,0.57524348,-0.3315427,0.627012,0.63077328,-0.33502826,0.645233,0.62328094,-0.29241094,0.642339,0.61952462,-0.27101237,0.640892,0.61671258,-0.25029847,0.639577,0.65249211,-0.33585812,0.641733,0.65633805,-0.28857297,0.637228,0.6554869,-0.26469798,0.634601,0.67407443,-0.25433317,0.650237,0.67270086,-0.33991991,0.638607,0.67923585,-0.29299777,0.633194,0.6840302,-0.27134446,0.630425,0.68753853,-0.25129654,0.627907,0.69696239,-0.34659355,0.63439,0.70995749,-0.31085937,0.632598,0.71599329,-0.29759838,0.631775,0.72218465,-0.28329105,0.631049
