sluyters/QuantumLeap/backend/src/datasets/gesture/HandGestureDataset_SHREC2017_csv/Gesture5/finger_2/subject_14_essai_1_skeletons_world.csv
Wrist_x,Wrist_y,Wrist_z,Palm_x,Palm_y,Palm_z,thumb_base_x,thumb_base_y,thumb_base_z,thumb_first_joint_x,thumb_first_joint_y,thumb_first_joint_z,thumb_second_joint_x,thumb_second_joint_y,thumb_second_joint_z,thumb_tip_x,thumb_tip_y,thumb_tip_z,index_base_x,index_base_y,index_base_z,index_first_joint_x,index_first_joint_y,index_first_joint_z,index_second_joint_x,index_second_joint_y,index_second_joint_z,index_tip_x,index_tip_y,index_tip_z,middle_base_x,middle_base_y,middle_base_z,middle_first_joint_x,middle_first_joint_y,middle_first_joint_z,middle_second_joint_x,middle_second_joint_y,middle_second_joint_z,middle_tip_x,middle_tip_y,middle_tip_z,ring_base_x,ring_base_y,ring_base_z,ring_first_joint_x,ring_first_joint_y,ring_first_joint_z,ring_second_joint_x,ring_second_joint_y,ring_second_joint_z,ring_tip_x,ring_tip_y,ring_tip_z,pinky_base_x,pinky_base_y,pinky_base_z,pinky_first_joint_x,pinky_first_joint_y,pinky_first_joint_z,pinky_second_joint_x,pinky_second_joint_y,pinky_second_joint_z,pinky_tip_x,pinky_tip_y,pinky_tip_z,
0.39306039,-0.30914297,0.453776,0.3738194,-0.25704874,0.438395,0.37047069,-0.2983279,0.453825,0.33203689,-0.27129979,0.439639,0.29071807,-0.24423034,0.418049,0.27161323,-0.22329448,0.400603,0.33368404,-0.20645817,0.428017,0.30497522,-0.16489869,0.406143,0.28964813,-0.15221513,0.395206,0.27770994,-0.13921375,0.385263,0.3522748,-0.20124939,0.423747,0.32253391,-0.15799324,0.399596,0.30569934,-0.14172993,0.385508,0.29379232,-0.13180324,0.375445,0.37142607,-0.20043342,0.421889,0.34590521,-0.15664211,0.400474,0.3332032,-0.1435301,0.389518,0.321685,-0.13296111,0.379557,0.39881147,-0.20682065,0.422623,0.38331248,-0.17538122,0.403311,0.37587068,-0.16295354,0.394438,0.36932951,-0.15177172,0.386609
0.39292998,-0.30754411,0.452888,0.36788979,-0.25152967,0.432448,0.36779216,-0.29499701,0.449948,0.32577964,-0.26582998,0.430497,0.28612732,-0.24224372,0.408447,0.2658664,-0.22216142,0.391212,0.32003143,-0.19628296,0.414739,0.28817247,-0.16100747,0.387655,0.2735163,-0.14977918,0.374112,0.26008523,-0.13944021,0.361801,0.34319673,-0.19183581,0.41298,0.3087785,-0.14861107,0.383114,0.29032889,-0.13081002,0.365692,0.27898416,-0.12298738,0.355883,0.36504072,-0.19216343,0.413734,0.3347798,-0.14839999,0.387222,0.32103698,-0.13483925,0.373657,0.30762021,-0.12583537,0.361326,0.3956484,-0.20130913,0.418452,0.37797351,-0.174745,0.394821,0.36953589,-0.16379408,0.383963,0.36212938,-0.1540695,0.374383
0.39198285,-0.30515711,0.451115,0.36307453,-0.24742079,0.42635,0.366597,-0.29282161,0.447952,0.32490519,-0.26495194,0.427414,0.28260246,-0.24771648,0.402617,0.26170916,-0.2272932,0.386204,0.3102731,-0.19333679,0.405415,0.27696268,-0.1550367,0.374513,0.26123465,-0.14433138,0.359061,0.2471529,-0.1413891,0.345015,0.33264921,-0.18779177,0.402764,0.29529664,-0.14058652,0.368787,0.27572517,-0.12595408,0.348967,0.27722695,-0.12112507,0.353797,0.35427844,-0.18728151,0.40325,0.32390311,-0.15282087,0.372874,0.30881841,-0.13797704,0.357333,0.29507085,-0.12430324,0.343204,0.3865204,-0.19488045,0.408469,0.36539253,-0.17138142,0.381741,0.35584759,-0.16198038,0.369461,0.34717024,-0.15056202,0.358625
0.39472745,-0.30540058,0.452793,0.36208105,-0.24549583,0.424166,0.36741454,-0.29204738,0.447709,0.32339085,-0.26665048,0.423991,0.28176417,-0.24858605,0.399528,0.25787078,-0.23077954,0.381801,0.30572281,-0.19148496,0.398107,0.27079385,-0.15395506,0.363256,0.25523431,-0.14569218,0.34583,0.24279124,-0.14424159,0.329989,0.32916307,-0.18681133,0.396903,0.2897825,-0.1460258,0.358948,0.26882096,-0.13204518,0.336807,0.26834618,-0.1290349,0.339319,0.35206053,-0.18717486,0.398996,0.3179774,-0.14960343,0.365103,0.30170908,-0.13580537,0.347763,0.2896951,-0.13188429,0.331998,0.38612065,-0.19557689,0.406807,0.3641536,-0.16997651,0.377151,0.35802798,-0.15947447,0.363525,0.34518144,-0.15011065,0.351502
0.39341174,-0.30262716,0.449919,0.36106132,-0.24320076,0.420685,0.36599082,-0.28964388,0.44486,0.32144911,-0.26774076,0.42111,0.28015528,-0.25029325,0.396041,0.25596754,-0.23081516,0.379213,0.30339285,-0.19170305,0.394246,0.26721238,-0.1527149,0.35901,0.2516514,-0.14462413,0.341392,0.23922957,-0.14328503,0.325376,0.32693874,-0.18703376,0.392842,0.28590244,-0.14469384,0.35436,0.26484674,-0.13086042,0.331912,0.26417289,-0.12796177,0.334026,0.34984173,-0.1874297,0.394837,0.31490008,-0.14833894,0.360558,0.29892946,-0.13627816,0.34302,0.28571932,-0.13096029,0.327076,0.38271982,-0.19442879,0.402648,0.36429751,-0.16807406,0.372576,0.35668063,-0.16252964,0.358759,0.34713038,-0.16454073,0.346568
0.39187649,-0.29978706,0.446742,0.35701979,-0.2422878,0.415474,0.36380264,-0.28679948,0.441042,0.31759022,-0.26734495,0.416231,0.27663657,-0.2512427,0.391147,0.25249232,-0.2321082,0.373584,0.29732202,-0.19017174,0.386818,0.25879685,-0.15360496,0.349983,0.24245206,-0.14535274,0.331565,0.23061146,-0.14204286,0.314822,0.321123,-0.18549935,0.385694,0.27831902,-0.14039193,0.345301,0.25702075,-0.12761324,0.321739,0.25919836,-0.13499533,0.32246,0.3444165,-0.18594385,0.388139,0.30858154,-0.14532943,0.352037,0.29473167,-0.13760699,0.333567,0.28284659,-0.13997548,0.316775,0.37913746,-0.19451998,0.396853,0.3599337,-0.16627976,0.365367,0.35039651,-0.16135311,0.350901,0.34038234,-0.16332588,0.338136
0.38757607,-0.29554969,0.441065,0.35248552,-0.24119425,0.409045,0.358917,-0.28267769,0.43449,0.31372716,-0.26717915,0.408446,0.27573615,-0.25406614,0.382303,0.24914622,-0.23423764,0.363884,0.29536328,-0.19198038,0.378741,0.25824886,-0.15294058,0.34104,0.24282709,-0.14420531,0.322189,0.2309276,-0.1428638,0.305052,0.3200996,-0.18771365,0.378551,0.27574846,-0.13919121,0.338475,0.25940588,-0.12781877,0.315097,0.26275778,-0.13523132,0.316176,0.34406936,-0.18856129,0.381845,0.30868496,-0.14868914,0.345175,0.29092378,-0.13629411,0.326413,0.27859232,-0.13514048,0.309358,0.37940298,-0.19769255,0.391688,0.36222058,-0.16954798,0.359683,0.35387483,-0.16377571,0.344978,0.34043839,-0.16388001,0.332003
0.38317703,-0.2913027,0.435074,0.34824626,-0.24026215,0.401889,0.35376045,-0.27784028,0.427188,0.30915767,-0.26579035,0.399355,0.26949577,-0.24970721,0.37284,0.2454107,-0.23206049,0.353552,0.28989557,-0.19100132,0.369085,0.25183971,-0.14833873,0.33236,0.23767998,-0.14107847,0.313997,0.22672219,-0.14010646,0.297304,0.31565369,-0.18655631,0.370283,0.27555688,-0.14826643,0.327813,0.25225701,-0.12632363,0.303038,0.25106825,-0.12108528,0.302245,0.33914658,-0.18617319,0.374847,0.30213854,-0.1444875,0.336939,0.28711091,-0.13460452,0.317544,0.27466071,-0.13008384,0.299913,0.37568407,-0.19560413,0.386381,0.35796971,-0.16676666,0.3536,0.34958604,-0.16146423,0.338538,0.34074402,-0.16248779,0.325248
0.37966472,-0.28748917,0.430241,0.34620664,-0.23885941,0.395715,0.35174502,-0.27704569,0.422671,0.31398541,-0.26553862,0.395211,0.26811572,-0.24787184,0.369663,0.24290107,-0.22950048,0.352411,0.28624267,-0.1936372,0.362412,0.24495666,-0.15094243,0.325022,0.2315998,-0.14018478,0.306327,0.22130209,-0.13917907,0.289332,0.30998522,-0.18442029,0.362833,0.26912662,-0.1439438,0.31934,0.24573753,-0.12159854,0.293969,0.24438509,-0.11635405,0.292154,0.33406279,-0.18365917,0.3669,0.3006412,-0.15238365,0.328065,0.28384576,-0.13761791,0.308196,0.2735182,-0.13692336,0.290133,0.37000831,-0.19062299,0.378112,0.35220036,-0.16265841,0.344519,0.3453777,-0.16410194,0.329084,0.33658749,-0.16797094,0.315465
0.3765525,-0.2836887,0.424911,0.34486363,-0.23703199,0.390249,0.34939307,-0.27561969,0.41739,0.31053148,-0.26275415,0.389996,0.26583819,-0.24555948,0.364607,0.24095427,-0.2278194,0.347201,0.28377409,-0.19117904,0.356919,0.24279242,-0.1481778,0.319572,0.22770529,-0.1387899,0.300899,0.216982,-0.13667045,0.283923,0.3081528,-0.18408326,0.357238,0.26733076,-0.14178185,0.313648,0.24715881,-0.12135741,0.288221,0.24146101,-0.11406293,0.286298,0.33218583,-0.18242791,0.361236,0.29629675,-0.14846406,0.322381,0.28005642,-0.13588206,0.302501,0.26939366,-0.13541614,0.284429,0.36821134,-0.18809356,0.372392,0.34794677,-0.1621338,0.338564,0.33902939,-0.16202963,0.323022,0.33038138,-0.16437345,0.309308
0.37355655,-0.28145801,0.419816,0.34660199,-0.24439627,0.385703,0.3501009,-0.27832284,0.410979,0.30845242,-0.26664226,0.381897,0.26477675,-0.24590131,0.356399,0.2385198,-0.22557314,0.343065,0.28253886,-0.19541537,0.35103,0.24864618,-0.15427005,0.316577,0.22993255,-0.13555213,0.299351,0.21965084,-0.1334458,0.28369,0.30791726,-0.18878436,0.353215,0.27013978,-0.14862736,0.309824,0.24810095,-0.12570145,0.284512,0.24466636,-0.11458214,0.282877,0.33260712,-0.18503756,0.35869,0.29433762,-0.14749636,0.319943,0.27857011,-0.13504056,0.300119,0.26824195,-0.13404169,0.282097,0.36997727,-0.19181961,0.371457,0.34543193,-0.16560508,0.337545,0.33624376,-0.16296411,0.321964,0.32849966,-0.16375037,0.308216
0.37395421,-0.28207204,0.418619,0.34453229,-0.23868178,0.385915,0.34900291,-0.27819007,0.410874,0.30759093,-0.26356612,0.383249,0.2626306,-0.24296187,0.358232,0.23809766,-0.2251451,0.342712,0.28234392,-0.19236526,0.353622,0.24841628,-0.15422389,0.317297,0.22993148,-0.1349966,0.299135,0.2203072,-0.1322567,0.282623,0.30711955,-0.18543676,0.354769,0.26680834,-0.1416241,0.312724,0.24325813,-0.119194,0.288197,0.24217348,-0.10584481,0.287778,0.33131074,-0.1838903,0.359237,0.29545592,-0.14764566,0.321748,0.28046459,-0.13556853,0.302568,0.27089259,-0.13472624,0.285131,0.36718134,-0.18964016,0.370572,0.34217602,-0.16620169,0.337712,0.33075574,-0.15947727,0.322614,0.32755693,-0.16322288,0.309292
0.37472622,-0.28333872,0.417363,0.34474017,-0.24243896,0.384189,0.35171114,-0.28064933,0.40843,0.30850625,-0.26502254,0.379268,0.26375193,-0.24358768,0.355253,0.23797774,-0.22473617,0.342372,0.28044352,-0.19664082,0.350029,0.24673658,-0.15476915,0.316144,0.2286822,-0.13622875,0.299201,0.21982805,-0.134309,0.283799,0.30553745,-0.18794938,0.352595,0.26788024,-0.14796273,0.309966,0.24682181,-0.12597252,0.285099,0.24578593,-0.11659077,0.284164,0.33042107,-0.18632856,0.358283,0.29244779,-0.14628159,0.32012,0.27793433,-0.13448797,0.300595,0.26832187,-0.13326917,0.282845,0.36804359,-0.19139257,0.371121,0.34194834,-0.16697425,0.337631,0.33058943,-0.1586694,0.322244,0.32619207,-0.16252717,0.308667
0.37591803,-0.2848425,0.416806,0.34403647,-0.24263186,0.383902,0.35000129,-0.28034284,0.407994,0.30706591,-0.26406875,0.378999,0.2630867,-0.24291971,0.355473,0.23802227,-0.22492049,0.34283,0.27784741,-0.1984856,0.350083,0.24489701,-0.155792,0.316269,0.22766318,-0.13691512,0.299362,0.21981636,-0.13438079,0.283992,0.30260693,-0.18998385,0.352565,0.26442836,-0.14731358,0.31019,0.24410291,-0.1261015,0.285472,0.24564529,-0.11754528,0.28476,0.32813978,-0.18618944,0.358155,0.28935995,-0.14524804,0.320191,0.27568929,-0.13370884,0.300768,0.2678937,-0.13313349,0.283111,0.36495647,-0.19112008,0.370828,0.34063888,-0.170201,0.337517,0.33013663,-0.16005996,0.322211,0.32548281,-0.16345873,0.308707
0.37698796,-0.28628504,0.416226,0.34280744,-0.24249078,0.383307,0.35003492,-0.28114889,0.407878,0.30709145,-0.2643613,0.379467,0.26257863,-0.24274955,0.356753,0.23825509,-0.22508189,0.344715,0.27657193,-0.19860343,0.350082,0.24290414,-0.15709144,0.31599,0.22631698,-0.13734444,0.298943,0.21936183,-0.13406841,0.283446,0.30084695,-0.18976517,0.351955,0.26258011,-0.1471155,0.309631,0.24090327,-0.12603625,0.284943,0.24325501,-0.11813566,0.284291,0.32486687,-0.18668037,0.357046,0.28557828,-0.14501085,0.319192,0.27043928,-0.13352,0.299825,0.26540002,-0.13247875,0.282218,0.3610178,-0.1905868,0.369142,0.33748967,-0.17333239,0.335989,0.32673963,-0.16863099,0.320756,0.32024248,-0.1699631,0.307316
0.37920181,-0.28911641,0.417666,0.34193069,-0.24294312,0.383324,0.35008851,-0.28193492,0.409954,0.30572199,-0.2648134,0.382312,0.26253685,-0.24303264,0.359817,0.23668194,-0.22365526,0.347287,0.27597992,-0.1985058,0.349963,0.24310159,-0.15738316,0.315854,0.22711533,-0.13699907,0.2988,0.2193828,-0.13438885,0.283296,0.29952569,-0.18965129,0.350618,0.26076847,-0.14693085,0.307218,0.24111698,-0.12976693,0.281901,0.24000251,-0.11961657,0.280219,0.32292416,-0.18665495,0.354859,0.28722471,-0.15319223,0.316342,0.27376225,-0.14572281,0.296636,0.26416756,-0.14745006,0.278721,0.35905389,-0.19605911,0.366236,0.33550734,-0.18331715,0.332623,0.32471707,-0.17747862,0.317179,0.31528426,-0.18277551,0.303552
0.3844921,-0.29385779,0.422622,0.34335286,-0.24474566,0.38562,0.35375084,-0.2860366,0.413411,0.30734017,-0.2668904,0.385301,0.26296369,-0.24361576,0.360948,0.23508903,-0.22181193,0.345818,0.27451674,-0.19765974,0.3485,0.24469817,-0.15853644,0.317672,0.22997316,-0.13881933,0.302258,0.22332612,-0.13704539,0.288246,0.29921834,-0.18989954,0.350381,0.25628673,-0.14457486,0.304717,0.23771366,-0.13955352,0.278079,0.23988763,-0.15146167,0.2739,0.3239333,-0.18790814,0.355918,0.28701007,-0.16946601,0.315657,0.27641626,-0.17218685,0.295059,0.26827271,-0.17680343,0.276333,0.36215756,-0.19779614,0.369299,0.33697059,-0.18404556,0.333944,0.32540822,-0.17778971,0.3177,0.31520187,-0.18269874,0.303367
0.38615113,-0.29446477,0.422342,0.34654202,-0.24435813,0.385674,0.35944158,-0.28995947,0.418065,0.31741519,-0.25904249,0.401631,0.2797676,-0.23760128,0.391185,0.26121259,-0.21617019,0.384686,0.28382733,-0.20005898,0.355207,0.25428063,-0.15718648,0.323881,0.23972591,-0.13672334,0.308217,0.22801961,-0.137471,0.293978,0.30656921,-0.19469991,0.350753,0.2609311,-0.14638916,0.305755,0.23755053,-0.14036272,0.279506,0.2372856,-0.15270171,0.2752,0.32848817,-0.1947976,0.351037,0.2846211,-0.18809568,0.313993,0.2622187,-0.1846042,0.29504,0.25128472,-0.19139581,0.27781,0.36327788,-0.20280458,0.358259,0.32944529,-0.17642494,0.323871,0.31619579,-0.17277759,0.308072,0.30482035,-0.17793775,0.294131
0.37204144,-0.28747696,0.410304,0.33440036,-0.23930437,0.376972,0.34752326,-0.27258651,0.41052,0.32012814,-0.24840287,0.396061,0.2991005,-0.23021138,0.382646,0.2892515,-0.21224023,0.370035,0.30092128,-0.17271674,0.354622,0.25732329,-0.13865809,0.32105,0.23374335,-0.13520432,0.304264,0.21184652,-0.14120864,0.289004,0.31339757,-0.17972788,0.345228,0.27225938,-0.13384147,0.305475,0.23947086,-0.14061059,0.282285,0.2294452,-0.15113264,0.279813,0.32673233,-0.19012852,0.341084,0.27248646,-0.18737646,0.309261,0.25030152,-0.19626106,0.292979,0.2400485,-0.20085257,0.279076,0.34828789,-0.21153997,0.34254,0.28944953,-0.20869075,0.313789,0.26373504,-0.20671725,0.300579,0.24163257,-0.20474435,0.288923
0.3512516,-0.28735766,0.407015,0.32724308,-0.2339266,0.37139,0.33793709,-0.26595778,0.407371,0.30905696,-0.24977335,0.390698,0.28825924,-0.23802379,0.380729,0.27345673,-0.2161707,0.365641,0.29608767,-0.16848783,0.347666,0.25036734,-0.13681249,0.315572,0.22375709,-0.13986558,0.299525,0.2100325,-0.15043059,0.284937,0.30598061,-0.17631309,0.337462,0.26494594,-0.12965426,0.296471,0.22944936,-0.13251499,0.272559,0.21760147,-0.14297942,0.267223,0.31724289,-0.18745088,0.332899,0.25638879,-0.18122883,0.300274,0.23927798,-0.18949487,0.283583,0.23777344,-0.19989418,0.27949,0.33292454,-0.21350101,0.334299,0.27095571,-0.20329248,0.305059,0.24413623,-0.19818359,0.291625,0.22163861,-0.1934413,0.279771
0.3522257,-0.26747603,0.410039,0.32977724,-0.2214043,0.373506,0.34422494,-0.24358076,0.409732,0.31258191,-0.23231614,0.392997,0.28383431,-0.21985089,0.378825,0.26812069,-0.20031238,0.364982,0.30626588,-0.1570149,0.3483,0.2519428,-0.1296654,0.316346,0.22638572,-0.13543158,0.300369,0.21967743,-0.14769664,0.296209,0.31095572,-0.17115917,0.338713,0.26878794,-0.12779068,0.296835,0.23148805,-0.12572328,0.272407,0.21967689,-0.13443327,0.266338,0.318598,-0.18805261,0.334755,0.24936197,-0.18354097,0.301187,0.21772887,-0.18127711,0.284013,0.20891346,-0.18332102,0.279143,0.33334666,-0.2149268,0.337028,0.26623441,-0.19977258,0.30706,0.2388871,-0.19264784,0.293291,0.21714965,-0.18606499,0.281169
0.36303033,-0.28139649,0.407618,0.3394581,-0.22073182,0.374563,0.3516766,-0.24619845,0.409777,0.32403435,-0.22733262,0.397551,0.29060461,-0.21332266,0.384854,0.27251383,-0.19394,0.373462,0.31715906,-0.1551542,0.35493,0.29509226,-0.11437188,0.323973,0.26287599,-0.11239611,0.308494,0.25126525,-0.12382767,0.306151,0.31707518,-0.16494374,0.343081,0.28503875,-0.11819735,0.30475,0.24322969,-0.11567107,0.282389,0.23329329,-0.12588873,0.278806,0.3201342,-0.1777159,0.336887,0.29408368,-0.12648795,0.307037,0.26031095,-0.12476701,0.291766,0.25036035,-0.13977851,0.289545,0.32940455,-0.20219784,0.33591,0.2671652,-0.19035938,0.308864,0.24108088,-0.1846117,0.296443,0.2282437,-0.18311607,0.286415
0.37208931,-0.27148047,0.411889,0.35040007,-0.22279105,0.378287,0.36973337,-0.24985753,0.416066,0.34152514,-0.23371849,0.40616,0.31681796,-0.22366803,0.404731,0.29858461,-0.20680784,0.393784,0.33281039,-0.16085726,0.360912,0.29915555,-0.12486446,0.327574,0.26574158,-0.11537442,0.310904,0.24735522,-0.12306004,0.302981,0.32750053,-0.17212572,0.346286,0.27697706,-0.13621217,0.310107,0.23639837,-0.13541591,0.289003,0.22573052,-0.14119459,0.281132,0.32487752,-0.18691338,0.337863,0.31006207,-0.13687871,0.31147,0.27793624,-0.12803251,0.297967,0.25742749,-0.14051847,0.294307,0.33046561,-0.21198813,0.334401,0.27085966,-0.19529056,0.310039,0.24618787,-0.18868231,0.298846,0.23575006,-0.18780613,0.293447
0.3874726,-0.28364205,0.40631,0.37407083,-0.23095316,0.390194,0.3740088,-0.27159823,0.407668,0.33826296,-0.25699361,0.395209,0.30631292,-0.23920886,0.396464,0.28995529,-0.22190142,0.397298,0.33119869,-0.17791892,0.381019,0.30634625,-0.18295473,0.360759,0.29727374,-0.19731306,0.350629,0.3082653,-0.20947538,0.360256,0.35095548,-0.17295945,0.374845,0.31856613,-0.14862332,0.350391,0.29935711,-0.13399399,0.336126,0.30630531,-0.14604482,0.345114,0.36960905,-0.17283019,0.371497,0.33349213,-0.13887282,0.350764,0.32740091,-0.14865528,0.340156,0.34523612,-0.17057321,0.3495,0.39657246,-0.18035948,0.370641,0.36158125,-0.1846526,0.35188,0.34532634,-0.18678502,0.34326,0.34184348,-0.20201726,0.349803
0.38048526,-0.2844445,0.410385,0.37463027,-0.23253362,0.39307,0.36954614,-0.27637479,0.412803,0.34427958,-0.23675311,0.407379,0.32203445,-0.2080532,0.401984,0.31037923,-0.18272712,0.397548,0.34161866,-0.17412421,0.384462,0.31033132,-0.15570677,0.362737,0.29433643,-0.14624655,0.351875,0.29320382,-0.16341776,0.360448,0.35840615,-0.17296666,0.376579,0.32195439,-0.14429992,0.351355,0.30044173,-0.12723572,0.336641,0.30426356,-0.14279744,0.3448,0.37218705,-0.17459437,0.371953,0.33713034,-0.14114105,0.352193,0.32974948,-0.15591539,0.342083,0.3456221,-0.1749192,0.351103,0.39728149,-0.18808657,0.369838,0.35671017,-0.18937106,0.350905,0.33737119,-0.19261532,0.342205,0.33871044,-0.20506056,0.348229
0.38443657,-0.28713331,0.409607,0.37466761,-0.23386611,0.393567,0.369691,-0.27544808,0.41284,0.34594285,-0.24074982,0.407817,0.32258808,-0.21096471,0.402979,0.31120876,-0.18565331,0.398637,0.34587125,-0.17661096,0.386888,0.31501692,-0.15863443,0.367148,0.29916991,-0.14936115,0.357278,0.2977545,-0.16666437,0.366498,0.36154569,-0.17560541,0.378291,0.3254787,-0.14712679,0.354586,0.30414756,-0.130133,0.340759,0.30581646,-0.142793,0.349388,0.37632346,-0.17885057,0.372941,0.34223472,-0.14571266,0.354707,0.33235561,-0.15906769,0.345378,0.34730847,-0.18207662,0.354918,0.39758596,-0.19079574,0.369745,0.35686829,-0.19197618,0.352079,0.33746643,-0.19516223,0.343961,0.33741938,-0.21159743,0.350384
0.38451096,-0.28231309,0.411412,0.38133842,-0.23714767,0.401596,0.3719491,-0.27197264,0.413246,0.34219958,-0.23570355,0.406063,0.3183253,-0.20655992,0.400651,0.30767097,-0.183837,0.396985,0.34989924,-0.17915184,0.397321,0.32479439,-0.1652383,0.383564,0.31166941,-0.15795208,0.376686,0.31510247,-0.17625289,0.389325,0.36932409,-0.17701289,0.392248,0.34009774,-0.15499841,0.374159,0.32353335,-0.14092074,0.363607,0.32820984,-0.15169592,0.375408,0.38692602,-0.17892463,0.389129,0.36164794,-0.15691683,0.374706,0.35304363,-0.16878256,0.367328,0.37041543,-0.19460829,0.379669,0.41099086,-0.18857612,0.387353,0.38616514,-0.17475489,0.373009,0.3673183,-0.1843069,0.366419,0.37526216,-0.19555104,0.375028
0.38302879,-0.27986676,0.409306,0.37907027,-0.23426307,0.402566,0.37070209,-0.27093332,0.412901,0.34130428,-0.23351813,0.406006,0.32239138,-0.2014411,0.402645,0.31240581,-0.1807883,0.40027,0.35251787,-0.18198405,0.402672,0.32945984,-0.16872954,0.392734,0.31367974,-0.160773,0.387765,0.32034227,-0.17894364,0.401558,0.37048441,-0.1784155,0.396147,0.33967549,-0.15588802,0.381731,0.32258107,-0.14450068,0.373322,0.33231564,-0.15317528,0.386143,0.38652273,-0.17895685,0.391499,0.36327431,-0.16070575,0.380689,0.35193758,-0.17111775,0.375158,0.37676971,-0.19891298,0.388618,0.40532581,-0.18462462,0.387372,0.38137658,-0.17046239,0.376051,0.36424405,-0.18101357,0.37085,0.37621416,-0.19673594,0.380327
0.38186972,-0.27948544,0.408458,0.37786797,-0.23449873,0.4033,0.37004831,-0.27119181,0.413665,0.34206436,-0.23697612,0.409595,0.31847443,-0.20920442,0.406589,0.30916009,-0.18684142,0.407008,0.35170784,-0.18523867,0.40658,0.32930978,-0.16956883,0.399267,0.31458935,-0.15824184,0.39561,0.3162102,-0.17234381,0.40992,0.3676378,-0.18008954,0.398387,0.33654169,-0.16088735,0.386141,0.31906932,-0.15068923,0.378998,0.3232437,-0.16088157,0.392147,0.38181515,-0.17920732,0.392196,0.35460742,-0.1654191,0.383761,0.34624481,-0.1748287,0.379445,0.36308351,-0.20232452,0.393363,0.39809415,-0.18585546,0.38598,0.37404637,-0.17363091,0.376633,0.35815981,-0.18466816,0.372339,0.37027666,-0.19743925,0.382173
0.37923625,-0.27919725,0.409032,0.36799434,-0.2337271,0.403638,0.36767646,-0.27118139,0.415277,0.33778161,-0.24568735,0.418184,0.31492981,-0.22131906,0.421067,0.30448738,-0.20131809,0.42266,0.33776029,-0.18721588,0.40811,0.3130184,-0.16261336,0.396324,0.30007834,-0.14958255,0.390432,0.30113017,-0.16362878,0.403021,0.35234963,-0.18069724,0.398501,0.32523668,-0.16475994,0.386409,0.30848665,-0.1548685,0.379355,0.31012361,-0.15450984,0.392153,0.36551009,-0.17870681,0.391169,0.337838,-0.15853264,0.383289,0.32270899,-0.14741849,0.379257,0.33173639,-0.16316368,0.39295,0.38367918,-0.18304642,0.383673,0.35707366,-0.17904799,0.374762,0.36282424,-0.20026207,0.390013,0.378944,-0.20863677,0.399062
0.37925587,-0.28016052,0.410478,0.36222564,-0.23439247,0.405615,0.36533794,-0.2712834,0.416492,0.33649247,-0.24639164,0.419883,0.31491861,-0.22251538,0.424205,0.30455065,-0.20211464,0.425819,0.33682333,-0.18842552,0.410147,0.30933674,-0.17157784,0.400869,0.29609161,-0.16242565,0.396231,0.29819109,-0.18050096,0.409722,0.3517387,-0.18199803,0.400984,0.32157445,-0.17027904,0.389339,0.30458983,-0.16361158,0.382546,0.30576928,-0.16624142,0.395623,0.36514598,-0.18005161,0.393962,0.33404599,-0.15765956,0.386336,0.31884973,-0.1460743,0.382434,0.33064874,-0.16230066,0.396363,0.38353988,-0.18440248,0.386726,0.35754289,-0.17919293,0.378044,0.35923743,-0.19920475,0.393468,0.36883969,-0.21145981,0.402504
0.38244945,-0.28465596,0.419134,0.36078386,-0.23840433,0.410751,0.36082068,-0.27739006,0.425616,0.33276754,-0.25242619,0.427201,0.311305,-0.22801603,0.431683,0.30429532,-0.2057431,0.432995,0.33475614,-0.19091867,0.413503,0.30253443,-0.17330378,0.399741,0.28684152,-0.16372545,0.39286,0.29032377,-0.17966526,0.404272,0.34810397,-0.18396165,0.402768,0.31367289,-0.17778947,0.387792,0.29410494,-0.17426102,0.379057,0.29288195,-0.17993423,0.39048,0.35782408,-0.18301556,0.394831,0.32670182,-0.16385103,0.384789,0.30998864,-0.15423994,0.379651,0.31647144,-0.17073985,0.392098,0.37515735,-0.18776672,0.387194,0.34593845,-0.18098054,0.376415,0.34858364,-0.20165963,0.390947,0.35765895,-0.21478628,0.400375
0.37788361,-0.28842005,0.420266,0.35724711,-0.24083651,0.411547,0.3593703,-0.27863201,0.426613,0.33275382,-0.25399563,0.428427,0.31153494,-0.2294351,0.43308,0.30354242,-0.20673032,0.433907,0.33234364,-0.19238997,0.413894,0.30196628,-0.17429731,0.40016,0.28608242,-0.16483033,0.393292,0.28518924,-0.18195886,0.404709,0.34542446,-0.185972,0.403244,0.31188643,-0.18606753,0.38788,0.29184775,-0.18593278,0.378918,0.29024774,-0.19483088,0.390231,0.35753932,-0.18426127,0.395413,0.32575775,-0.16479007,0.385009,0.30864526,-0.15462903,0.379687,0.31466403,-0.17115043,0.39202,0.37486849,-0.18933632,0.387962,0.34530681,-0.18179818,0.376877,0.34826705,-0.20263629,0.391383,0.3575581,-0.21596658,0.400909
0.37415336,-0.28972159,0.421676,0.35698526,-0.24168218,0.41251,0.35602952,-0.28015302,0.427847,0.33157998,-0.25453723,0.429079,0.30956828,-0.22950027,0.432709,0.29857839,-0.2070766,0.432469,0.33182203,-0.19279654,0.414325,0.30115832,-0.17379547,0.400109,0.28515984,-0.16386662,0.393001,0.28388111,-0.18040565,0.404264,0.34498669,-0.18649074,0.403781,0.31096359,-0.18606744,0.387904,0.29082497,-0.18649884,0.378643,0.28924822,-0.196272,0.389806,0.35721424,-0.18490129,0.396086,0.32492682,-0.16514746,0.385207,0.30754795,-0.15471854,0.37964,0.31331002,-0.17118939,0.391818,0.3747527,-0.19018141,0.388878,0.33866554,-0.18711435,0.37739,0.34584616,-0.20586494,0.391857,0.35724377,-0.21757429,0.401509
0.37294921,-0.29012604,0.421804,0.35654974,-0.24190001,0.412641,0.35517121,-0.28042247,0.427929,0.33074503,-0.25461694,0.429083,0.30858513,-0.22953059,0.43252,0.29754919,-0.20709133,0.432204,0.33144675,-0.19293359,0.414398,0.30081685,-0.17358061,0.400166,0.28484037,-0.16346671,0.39305,0.2834289,-0.17975779,0.404328,0.34465145,-0.18668771,0.403914,0.31074318,-0.18611969,0.388021,0.2906368,-0.18678524,0.37875,0.28911104,-0.19688433,0.389928,0.35691232,-0.18514995,0.396269,0.32455412,-0.1653481,0.385357,0.30712718,-0.15482745,0.379774,0.31282953,-0.17131584,0.391962,0.37448227,-0.19049744,0.389117,0.33885579,-0.18721947,0.377602,0.34534338,-0.20672265,0.392087,0.35704164,-0.21834613,0.401756
0.37207397,-0.29040291,0.421878,0.35628865,-0.24203096,0.41272,0.35459199,-0.28059636,0.427975,0.33024595,-0.25466563,0.429087,0.3079829,-0.22953876,0.432388,0.29691903,-0.2070904,0.432025,0.33122252,-0.19301638,0.414443,0.30062088,-0.17345687,0.400212,0.28466085,-0.16323381,0.393096,0.28317266,-0.17937862,0.404388,0.34445378,-0.18680786,0.403998,0.31064689,-0.18615421,0.388097,0.29055608,-0.18693714,0.378821,0.28905948,-0.1972022,0.390012,0.35673477,-0.18530116,0.396383,0.32433543,-0.16547108,0.385453,0.30687998,-0.1548955,0.379861,0.31254887,-0.17139593,0.392058,0.37432512,-0.1906899,0.389266,0.33897783,-0.1872869,0.377738,0.34512198,-0.20716792,0.392235,0.35692978,-0.21881346,0.401914
0.37135186,-0.29083617,0.42197,0.35615053,-0.24245589,0.412878,0.35420221,-0.2809789,0.428103,0.32949063,-0.25556411,0.429593,0.3073421,-0.23047718,0.433084,0.29744231,-0.20802103,0.433084,0.33132471,-0.19341499,0.414694,0.30043221,-0.17357291,0.400162,0.28434044,-0.1632146,0.392895,0.28268503,-0.17921726,0.404096,0.34449162,-0.18724294,0.40422,0.31071929,-0.1856984,0.3884,0.29091373,-0.18379401,0.379172,0.28909666,-0.19585417,0.390381,0.35670863,-0.18576615,0.396574,0.32365684,-0.16659807,0.385723,0.30610181,-0.15600783,0.380171,0.31247278,-0.1724401,0.392389,0.37357638,-0.19166325,0.389408,0.3384401,-0.18853125,0.377946,0.3382631,-0.21256796,0.392445,0.34248864,-0.22917417,0.402101
0.37083149,-0.29120497,0.422088,0.35604598,-0.24275534,0.412984,0.35398033,-0.28132152,0.428284,0.32959605,-0.2559345,0.42986,0.30741809,-0.23081065,0.433359,0.29755104,-0.20849942,0.433454,0.33139746,-0.19369963,0.414873,0.30047298,-0.17375707,0.40036,0.28436695,-0.16334727,0.393104,0.2826117,-0.17927617,0.40428,0.34446278,-0.18752338,0.404313,0.31069145,-0.18534878,0.388507,0.29062518,-0.18309484,0.379287,0.28900489,-0.19487492,0.39047,0.35658881,-0.18604566,0.396598,0.32359293,-0.16707624,0.385785,0.30602735,-0.15660413,0.380253,0.3122802,-0.17311,0.392452,0.3734091,-0.19191959,0.389355,0.33798618,-0.18920243,0.377923,0.33822,-0.21254088,0.392395,0.34242817,-0.2291337,0.40203
0.37041497,-0.29149965,0.422182,0.35597143,-0.24298258,0.413068,0.35380554,-0.28158611,0.428422,0.32967616,-0.25620289,0.430057,0.3074743,-0.23105005,0.433558,0.29762703,-0.20885353,0.433723,0.33145102,-0.19391255,0.415006,0.30050396,-0.17389541,0.400509,0.28438703,-0.16344686,0.393261,0.28255886,-0.17932168,0.404421,0.34444474,-0.18773568,0.404387,0.31067601,-0.1851016,0.388589,0.2905034,-0.18275923,0.379374,0.28894254,-0.19417707,0.390538,0.35650703,-0.1862595,0.396625,0.32355289,-0.16742078,0.385836,0.30597766,-0.15703204,0.380316,0.31213799,-0.17361357,0.392502,0.37330004,-0.19210799,0.389328,0.33769159,-0.18965316,0.377916,0.33819759,-0.21252679,0.392369,0.34239325,-0.22911033,0.401989
0.36580486,-0.29242424,0.421511,0.35392833,-0.24370958,0.412438,0.35197096,-0.2824415,0.428612,0.32981644,-0.25761448,0.431274,0.30699372,-0.23107337,0.432935,0.29738462,-0.20891779,0.43327,0.3314473,-0.1947388,0.415527,0.3015912,-0.17525298,0.403756,0.27941718,-0.16501764,0.39787,0.28489788,-0.18105819,0.409444,0.34319277,-0.18852915,0.403798,0.3097025,-0.16754729,0.388417,0.28952076,-0.153759,0.379444,0.28730822,-0.15097295,0.390327,0.35414582,-0.18826935,0.395117,0.32251426,-0.1801212,0.385021,0.30598106,-0.17519606,0.379855,0.31311793,-0.19748191,0.391856,0.368448,-0.19920833,0.386746,0.33063434,-0.19857599,0.375905,0.33311008,-0.21797076,0.390006,0.33956533,-0.22882207,0.399289
0.36509805,-0.2929228,0.421605,0.35349434,-0.24424941,0.412489,0.3513399,-0.28275096,0.428638,0.32958203,-0.25803438,0.431196,0.30681681,-0.23123937,0.432728,0.29736661,-0.20909253,0.433164,0.33132289,-0.19498098,0.41546,0.30104407,-0.17536994,0.403796,0.2794839,-0.16505704,0.397965,0.28453953,-0.18096434,0.409595,0.34312599,-0.18902541,0.403807,0.30965147,-0.16751969,0.388353,0.28943912,-0.15371565,0.379337,0.28723315,-0.1509335,0.390225,0.35405462,-0.18909643,0.395194,0.32250673,-0.18011699,0.385012,0.30593836,-0.17517162,0.379802,0.31307398,-0.19745419,0.391801,0.36860519,-0.19929332,0.386911,0.33071526,-0.19862459,0.375997,0.33320574,-0.21803336,0.390118,0.33937393,-0.22965026,0.399434
0.36380979,-0.29368791,0.421701,0.35319586,-0.24469589,0.412574,0.35020185,-0.28326292,0.428662,0.32942159,-0.25837829,0.431164,0.30657714,-0.23129812,0.432424,0.29678927,-0.20936033,0.432819,0.33125417,-0.19519278,0.415445,0.3006737,-0.17549243,0.4039,0.27959767,-0.16512423,0.398127,0.28432911,-0.18093765,0.409825,0.34313267,-0.18944382,0.403883,0.30967779,-0.16753394,0.388386,0.28944599,-0.15371929,0.379346,0.28725523,-0.1509451,0.390255,0.35408299,-0.18969604,0.395345,0.3225796,-0.18015769,0.385099,0.30598267,-0.17519699,0.379857,0.31312911,-0.19748897,0.39187,0.36883288,-0.19941644,0.38715,0.33087973,-0.19872337,0.376184,0.33339023,-0.21815408,0.390334,0.33937397,-0.23028646,0.39968
0.36442935,-0.29582163,0.423631,0.35312845,-0.24727131,0.413766,0.351001,-0.28522595,0.430703,0.32585424,-0.26003285,0.428367,0.30608748,-0.23187142,0.432388,0.29832554,-0.21121452,0.435501,0.33182877,-0.19706592,0.416277,0.30083042,-0.17603341,0.404439,0.28019213,-0.16588071,0.39852,0.28389659,-0.18072299,0.409914,0.34328635,-0.19342689,0.404369,0.30967517,-0.16874737,0.388204,0.28916034,-0.15487083,0.378773,0.28673012,-0.15194635,0.389284,0.35398242,-0.19320059,0.395627,0.32264216,-0.18077656,0.384905,0.30587675,-0.1756962,0.37942,0.31271018,-0.19781036,0.391072,0.36914693,-0.20028947,0.387334,0.33083182,-0.19931863,0.37596,0.33294821,-0.21857338,0.389865,0.33759747,-0.23325877,0.399261
0.36391338,-0.2968674,0.424,0.3531842,-0.24794651,0.414063,0.35061362,-0.28605215,0.431028,0.32583046,-0.26044018,0.428608,0.30594069,-0.23237073,0.432232,0.29839638,-0.21166977,0.435388,0.33204057,-0.19753703,0.41647,0.30065124,-0.17658242,0.404765,0.28065879,-0.16639991,0.398912,0.28385194,-0.18112545,0.410353,0.34360451,-0.19394864,0.404599,0.30987317,-0.16958392,0.388345,0.28931998,-0.15573796,0.378863,0.28689622,-0.15280014,0.389355,0.35433068,-0.19376761,0.395894,0.32292462,-0.18128468,0.385081,0.30612747,-0.17617554,0.379548,0.31292605,-0.19829765,0.391178,0.36953991,-0.20092436,0.387659,0.33114122,-0.19987909,0.37621,0.33313854,-0.21912357,0.390117,0.33759846,-0.23388271,0.399538
0.36355157,-0.29814413,0.424569,0.35227905,-0.25065767,0.414745,0.35043243,-0.28713482,0.431601,0.32580797,-0.26089332,0.42921,0.30564178,-0.23327301,0.432183,0.29810082,-0.21202295,0.435032,0.33277054,-0.19949259,0.417233,0.30025888,-0.18047502,0.405991,0.28297262,-0.16977293,0.40037,0.28486101,-0.18255291,0.411972,0.3444895,-0.19480787,0.405388,0.31131239,-0.17329101,0.389245,0.29034685,-0.15673757,0.379828,0.28799575,-0.15375715,0.390374,0.35522402,-0.19465247,0.396693,0.3238366,-0.18202597,0.385881,0.30704921,-0.17683899,0.38035,0.31383357,-0.19895057,0.392004,0.37040956,-0.20183573,0.388447,0.33205074,-0.20070197,0.377074,0.33396535,-0.2199673,0.391009,0.33825077,-0.23478847,0.400415
0.36893934,-0.30262792,0.430402,0.35981299,-0.25636582,0.424232,0.34896294,-0.28714917,0.429939,0.31713717,-0.2653848,0.421524,0.28384146,-0.24192583,0.415764,0.26667657,-0.22327188,0.4142,0.31117188,-0.21264343,0.419441,0.29096833,-0.19025372,0.405843,0.28044121,-0.1784073,0.399044,0.28820362,-0.19147545,0.412389,0.33393458,-0.20531044,0.418357,0.31516212,-0.18706545,0.403386,0.30381273,-0.17578471,0.394654,0.3103559,-0.17579962,0.407962,0.35458043,-0.20248849,0.418129,0.32802812,-0.1750446,0.40523,0.3138549,-0.16020452,0.398631,0.328255,-0.1706293,0.412094,0.38298474,-0.20539011,0.419024,0.38093918,-0.17740846,0.406156,0.38923283,-0.19681215,0.422414,0.39270252,-0.21518855,0.433246
0.37512397,-0.30749628,0.437239,0.35380399,-0.25725532,0.424709,0.34647783,-0.2865,0.427061,0.31010203,-0.25997775,0.403465,0.27218763,-0.23322593,0.386194,0.24885618,-0.21279309,0.37765,0.28735332,-0.21040949,0.402943,0.27610263,-0.18303137,0.381088,0.27060024,-0.16888783,0.37016,0.28641105,-0.18197365,0.379012,0.31637946,-0.20615865,0.412775,0.30883541,-0.18285441,0.389858,0.30587048,-0.17196941,0.37649,0.32052845,-0.17427589,0.385594,0.34314761,-0.20605522,0.422222,0.32278928,-0.17306741,0.399253,0.31170449,-0.15653777,0.387502,0.33195301,-0.16354761,0.395865,0.38033945,-0.2123456,0.435542,0.38008648,-0.17892308,0.414835,0.39269738,-0.1967573,0.428525,0.39844966,-0.21778463,0.441122
0.36832224,-0.30173647,0.429588,0.33378059,-0.24845305,0.415962,0.3416304,-0.28406184,0.42212,0.29221774,-0.25148069,0.398556,0.24785012,-0.22902464,0.382278,0.22553904,-0.21827004,0.379974,0.27032227,-0.20564132,0.396984,0.25257775,-0.16748659,0.376098,0.24858185,-0.15763274,0.365656,0.26276403,-0.17215398,0.375571,0.2958148,-0.1989787,0.402985,0.2643287,-0.15371421,0.379413,0.26009927,-0.14351209,0.365663,0.27425722,-0.15057651,0.375365,0.31963923,-0.19679214,0.409396,0.28930191,-0.15581944,0.387331,0.28081996,-0.13931474,0.376042,0.29974117,-0.14713579,0.385455,0.3536739,-0.20024454,0.419398,0.33832252,-0.17550921,0.398632,0.35667812,-0.1853942,0.413081,0.37471186,-0.20542928,0.425992
0.34829523,-0.2702553,0.402805,0.32170803,-0.22913517,0.402473,0.31931265,-0.26713969,0.399036,0.28900994,-0.22706802,0.384288,0.25379848,-0.22235238,0.38801,0.23913158,-0.22710345,0.400185,0.26887374,-0.2041465,0.397339,0.25946803,-0.18822559,0.39056,0.26367614,-0.18625053,0.38717,0.28831369,-0.19998336,0.40242,0.29136416,-0.19208251,0.402157,0.28029458,-0.17863452,0.392816,0.27349142,-0.17006734,0.387367,0.29191076,-0.18821769,0.402088,0.31351594,-0.18554345,0.406161,0.28700162,-0.15632756,0.397503,0.29864661,-0.16175262,0.393074,0.32540416,-0.1729519,0.407707,0.3443939,-0.18167344,0.41087,0.32244465,-0.17452629,0.401064,0.31179505,-0.17112667,0.396558,0.3130454,-0.17417195,0.406868
0.34503396,-0.26236982,0.394255,0.32809292,-0.22582343,0.397017,0.31813617,-0.25634431,0.390634,0.29529814,-0.22314099,0.377218,0.26097693,-0.21875139,0.381386,0.24741725,-0.21991211,0.392434,0.27488947,-0.20034186,0.394175,0.27078466,-0.1882587,0.390899,0.27691791,-0.18735902,0.389261,0.30486376,-0.19819033,0.405413,0.29958251,-0.19034551,0.399647,0.29224066,-0.17890826,0.393729,0.2876967,-0.17146311,0.390276,0.3077795,-0.1902948,0.405791,0.32197212,-0.18394808,0.403856,0.29837352,-0.15612521,0.397944,0.311601,-0.16235935,0.394919,0.34227759,-0.1738771,0.410249,0.35271626,-0.18000626,0.408222,0.33376999,-0.1742676,0.400857,0.32448977,-0.1715173,0.397474,0.32706669,-0.17496827,0.40837
0.35049783,-0.28445063,0.407648,0.33268837,-0.2456127,0.409984,0.32077435,-0.2658874,0.397471,0.30477386,-0.21965102,0.376622,0.2922233,-0.17502168,0.351998,0.29426048,-0.15284527,0.351651,0.28570265,-0.19885753,0.398316,0.28611098,-0.17598597,0.386033,0.28675048,-0.16375881,0.379891,0.30035869,-0.15882418,0.390867,0.31768969,-0.20400798,0.412209,0.32938709,-0.18896055,0.405622,0.33640031,-0.18047616,0.401779,0.35542567,-0.18076581,0.414607,0.34645125,-0.20701273,0.423399,0.32475041,-0.16537856,0.413405,0.3324107,-0.16248664,0.408293,0.35377166,-0.16623223,0.419879,0.38653659,-0.21875969,0.435948,0.38393391,-0.2081581,0.426713,0.38299935,-0.20300815,0.42247,0.39387578,-0.20677899,0.43095
0.3173354,-0.3060328,0.408026,0.32045645,-0.26022593,0.403179,0.29955134,-0.28866637,0.40862,0.2871599,-0.25124869,0.405148,0.27228565,-0.221785,0.407304,0.27166211,-0.20147459,0.4116,0.30229046,-0.20341928,0.400662,0.29580054,-0.16386318,0.388254,0.2900529,-0.15134111,0.382051,0.29891427,-0.14869113,0.395776,0.32493339,-0.20739388,0.398563,0.31890765,-0.16454094,0.385095,0.31345346,-0.14585206,0.377238,0.32516213,-0.14118399,0.390982,0.34365767,-0.21412167,0.397357,0.336648,-0.16931644,0.385603,0.3322623,-0.152228,0.379588,0.34526165,-0.14297961,0.393426,0.36617862,-0.22890575,0.396869,0.36416757,-0.19497822,0.385634,0.36226352,-0.18256859,0.380471,0.37421648,-0.17944279,0.390502
0.31434024,-0.30776603,0.404594,0.31421947,-0.25908412,0.394649,0.29699864,-0.28977777,0.404994,0.28030258,-0.2563753,0.403381,0.26529559,-0.21987977,0.399227,0.26219641,-0.1972701,0.398887,0.296263,-0.20383435,0.388417,0.28888937,-0.15862494,0.371038,0.27730869,-0.1450547,0.362349,0.28424175,-0.14165565,0.374124,0.31734306,-0.20840493,0.385177,0.30490741,-0.15876179,0.366836,0.29633983,-0.13761507,0.356137,0.3061418,-0.13058626,0.368107,0.33521788,-0.21595413,0.383581,0.327082,-0.16858152,0.368326,0.32048784,-0.14920796,0.360522,0.32956777,-0.13695733,0.372929,0.35746534,-0.23237248,0.383597,0.35226756,-0.19054766,0.368546,0.34657794,-0.17370715,0.36163,0.35739865,-0.16824315,0.370291
0.31318997,-0.30818976,0.403254,0.31409247,-0.26030322,0.394259,0.29574542,-0.28974852,0.403237,0.27963897,-0.25576833,0.402426,0.26399712,-0.22008058,0.398075,0.26085956,-0.19721816,0.397405,0.29604332,-0.20368321,0.388129,0.2892849,-0.15884212,0.371546,0.27873999,-0.1459235,0.363255,0.28579103,-0.14251494,0.375426,0.31776736,-0.20868357,0.385692,0.30617887,-0.15990601,0.367914,0.29765013,-0.13813257,0.357544,0.30755186,-0.13041457,0.369801,0.33615647,-0.21655878,0.384655,0.32757485,-0.16883554,0.368881,0.32074475,-0.14932757,0.360811,0.33049421,-0.13750002,0.373113,0.35890509,-0.2333084,0.385142,0.35443825,-0.19172183,0.370817,0.34982818,-0.17501844,0.364235,0.34676195,-0.16224215,0.358427
0.31351467,-0.30869769,0.402927,0.31442693,-0.26093372,0.394165,0.29589082,-0.29028302,0.40271,0.27911611,-0.25605312,0.402038,0.25656837,-0.22413528,0.391528,0.25489169,-0.19791008,0.391102,0.29568834,-0.20428658,0.387934,0.28686279,-0.15870291,0.371595,0.27837678,-0.14572532,0.363426,0.2854269,-0.14139524,0.375713,0.31769413,-0.20919045,0.385821,0.30654996,-0.15981567,0.368231,0.2980537,-0.13705549,0.357971,0.30801258,-0.12661535,0.370321,0.33635576,-0.21702417,0.385025,0.32826513,-0.16910678,0.369627,0.32178106,-0.14895709,0.361748,0.33216174,-0.13708484,0.374231,0.35945762,-0.23376604,0.385748,0.35572078,-0.19289079,0.371722,0.35304293,-0.17628812,0.365277,0.35043812,-0.16220716,0.359591
0.31381247,-0.30922119,0.402732,0.31490068,-0.26324523,0.394011,0.29583069,-0.29055856,0.402122,0.27848211,-0.25605816,0.401482,0.25800294,-0.22129772,0.392432,0.25263164,-0.19730635,0.388824,0.29499209,-0.20420483,0.387296,0.28589779,-0.15864776,0.371052,0.27562489,-0.14391334,0.362929,0.28274963,-0.1379023,0.375276,0.31741071,-0.20919726,0.385706,0.30614981,-0.15977084,0.368062,0.29757972,-0.1363736,0.35777,0.30749993,-0.12534977,0.370137,0.33648783,-0.21711349,0.385337,0.32800191,-0.16935751,0.3702,0.32077958,-0.14794083,0.362456,0.33251202,-0.13653434,0.375075,0.36018294,-0.23397881,0.386547,0.35669044,-0.19351993,0.372632,0.35419475,-0.17687711,0.366239,0.35175764,-0.16273063,0.360598
0.31396841,-0.30952833,0.402547,0.31493778,-0.26328457,0.3939,0.29585732,-0.29080757,0.401821,0.27808309,-0.25604317,0.401121,0.25714379,-0.22124051,0.391602,0.25128974,-0.19695521,0.387479,0.29470404,-0.20424486,0.387083,0.28542011,-0.15870361,0.370906,0.27534385,-0.14370475,0.362818,0.28237246,-0.1371931,0.375198,0.31726298,-0.20921595,0.385664,0.3059807,-0.15979205,0.368067,0.29740208,-0.13598283,0.357802,0.30733464,-0.12465056,0.370197,0.33648302,-0.21711284,0.385428,0.32782117,-0.16949748,0.370521,0.32093788,-0.14789688,0.362894,0.33272283,-0.13615962,0.375611,0.36038759,-0.23395632,0.386779,0.35738423,-0.19395822,0.373295,0.35516004,-0.17736743,0.3671,0.35296975,-0.16323942,0.361634
0.31287569,-0.30618887,0.399135,0.31811667,-0.25615551,0.395722,0.29561174,-0.28904773,0.399853,0.27823918,-0.25570899,0.400639,0.25706483,-0.22445254,0.393266,0.25065229,-0.20091459,0.390422,0.29946135,-0.20579547,0.394339,0.29300833,-0.16344387,0.383161,0.28937137,-0.14084339,0.377571,0.30024037,-0.1318181,0.391734,0.32082526,-0.20466425,0.392471,0.315576,-0.16373594,0.380415,0.31019949,-0.13864389,0.373383,0.32215994,-0.12651716,0.387584,0.33979063,-0.210383,0.3913,0.33833903,-0.16039056,0.38053,0.33683808,-0.13616441,0.37502,0.34612431,-0.13566167,0.389231,0.36263425,-0.22377445,0.390582,0.36724928,-0.18574607,0.381436,0.36861871,-0.16896739,0.377496,0.36990984,-0.15409852,0.374073
0.31366674,-0.3066624,0.399391,0.31395592,-0.26015108,0.390785,0.29472463,-0.28808499,0.397986,0.27489699,-0.25260157,0.395741,0.25026802,-0.21792494,0.383286,0.24287631,-0.19386396,0.378656,0.29468552,-0.20275692,0.38311,0.28138048,-0.15695294,0.366804,0.27645087,-0.135166,0.358651,0.28616013,-0.12490973,0.371023,0.31544658,-0.20756561,0.382588,0.30585453,-0.15892955,0.367488,0.30050321,-0.13178807,0.358679,0.31387495,-0.11862984,0.371961,0.33528625,-0.21573772,0.383085,0.3313732,-0.17041806,0.373923,0.33157243,-0.14322161,0.369236,0.32948274,-0.12179328,0.364974,0.35993216,-0.2328676,0.38528,0.36819751,-0.19114304,0.376948,0.37053524,-0.17354553,0.37312,0.37265936,-0.15785905,0.369742
0.31346465,-0.30623145,0.398549,0.31390645,-0.25987838,0.390143,0.29449663,-0.28778795,0.397159,0.27423585,-0.25196838,0.394728,0.24968178,-0.21707961,0.382445,0.24217218,-0.1927542,0.37779,0.294314,-0.2025013,0.382627,0.28157399,-0.15687501,0.366517,0.27683363,-0.13555644,0.358462,0.28666745,-0.12489187,0.37091,0.31558837,-0.20733463,0.382138,0.30608784,-0.15878595,0.367292,0.30128342,-0.13163343,0.358631,0.31473164,-0.11861157,0.371998,0.33550555,-0.21544806,0.382641,0.33161089,-0.1698837,0.373752,0.33154279,-0.14320881,0.369203,0.32949125,-0.12164669,0.365069,0.36016105,-0.23245125,0.384806,0.36800802,-0.19104467,0.376754,0.37047069,-0.17351529,0.373055,0.37270774,-0.15787954,0.36979
0.31361597,-0.3058392,0.397988,0.31383344,-0.25934655,0.389431,0.29451636,-0.28747022,0.396518,0.27379254,-0.25105013,0.392986,0.24908136,-0.21687877,0.381369,0.24170937,-0.19280877,0.377246,0.29359497,-0.20166658,0.381705,0.28200896,-0.15517984,0.365432,0.27645538,-0.13401898,0.357295,0.28741132,-0.1220021,0.369683,0.31526714,-0.20668246,0.381281,0.30679265,-0.15681566,0.366845,0.3039034,-0.12955528,0.358425,0.31541909,-0.11701324,0.371927,0.33528751,-0.21471983,0.381854,0.33310699,-0.16851215,0.373362,0.33211644,-0.14332377,0.369017,0.33015989,-0.12189748,0.365067,0.3637007,-0.23039493,0.384127,0.36787681,-0.19067622,0.376638,0.37034446,-0.17329212,0.373197,0.37093119,-0.15649578,0.370161
0.31379296,-0.30586609,0.397009,0.31366707,-0.2588323,0.388728,0.29462302,-0.28763781,0.395535,0.27334973,-0.25083285,0.392048,0.24873761,-0.21680895,0.380731,0.24134187,-0.19283304,0.376806,0.29318933,-0.2012182,0.381184,0.28206399,-0.15479472,0.365176,0.27667376,-0.13331363,0.357171,0.28765112,-0.12073605,0.369662,0.31520471,-0.20629799,0.380841,0.30728508,-0.15609735,0.366268,0.30351279,-0.12851981,0.357767,0.3152758,-0.1158458,0.371228,0.33530035,-0.21427065,0.38145,0.33319671,-0.16810226,0.37307,0.33227535,-0.14332607,0.368782,0.33039547,-0.12198681,0.364884,0.36338405,-0.22971371,0.383714,0.36757091,-0.19036695,0.376334,0.36995883,-0.1730296,0.372943,0.37084383,-0.15659547,0.369952
0.31258427,-0.3036272,0.394211,0.31367161,-0.25812104,0.387837,0.29392996,-0.2863155,0.393516,0.27311871,-0.25090105,0.391265,0.24859116,-0.21685354,0.380423,0.24113949,-0.19291847,0.376594,0.29427932,-0.20186407,0.382605,0.28482287,-0.15602852,0.368527,0.28023019,-0.13447985,0.361488,0.27645809,-0.11525008,0.355088,0.31640236,-0.20669595,0.381767,0.30770375,-0.15582959,0.366456,0.30340716,-0.12795326,0.357524,0.31515545,-0.11505887,0.370733,0.33612184,-0.21419491,0.381764,0.33336599,-0.16719298,0.372569,0.33167002,-0.14302532,0.367864,0.32948619,-0.12165264,0.363586,0.36271358,-0.22900209,0.382959,0.36715044,-0.19005865,0.375909,0.36960789,-0.17281624,0.37267,0.37078371,-0.15666096,0.369811
0.31305061,-0.30302251,0.393534,0.31398558,-0.25766475,0.387329,0.29431265,-0.28604271,0.39294,0.27279357,-0.25088356,0.390346,0.24848284,-0.21689307,0.380192,0.24111368,-0.19309576,0.376637,0.29407585,-0.20165639,0.382343,0.28487152,-0.15585469,0.368432,0.28037349,-0.13415757,0.361477,0.27660876,-0.11478767,0.355155,0.31654771,-0.20640401,0.38142,0.30776346,-0.15549976,0.366294,0.30342844,-0.12761407,0.35747,0.31537439,-0.11460786,0.370738,0.3362853,-0.21369828,0.381329,0.33371228,-0.16636548,0.372261,0.33159965,-0.14296856,0.367622,0.32951098,-0.12166293,0.363404,0.36220336,-0.22848839,0.382389,0.3669769,-0.18990841,0.375735,0.3695624,-0.17276214,0.372678,0.37101117,-0.15682194,0.36998
0.31913035,-0.301238,0.393941,0.32792574,-0.25261948,0.387882,0.29894018,-0.28485705,0.392601,0.28372605,-0.25166546,0.39024,0.24930808,-0.21797182,0.379259,0.24072568,-0.19385448,0.375782,0.29433048,-0.20131463,0.382022,0.28492826,-0.15545689,0.368212,0.28114673,-0.13172415,0.361307,0.27684155,-0.11158441,0.35503,0.32255304,-0.20130146,0.382111,0.30980035,-0.15325561,0.367043,0.30411946,-0.1254326,0.358254,0.31677463,-0.1111874,0.37156,0.34403632,-0.20573847,0.382838,0.33401414,-0.16578599,0.372072,0.33103353,-0.1423849,0.366564,0.32815685,-0.12118097,0.361557,0.37084596,-0.21786876,0.38482,0.37235037,-0.18061472,0.377196,0.37301812,-0.16358491,0.373693,0.37401097,-0.14877102,0.371015
