sluyters/QuantumLeap/backend/src/datasets/gesture/HandGestureDataset_SHREC2017_csv/Gesture5/finger_2/subject_19_essai_3_skeletons_world.csv
Wrist_x,Wrist_y,Wrist_z,Palm_x,Palm_y,Palm_z,thumb_base_x,thumb_base_y,thumb_base_z,thumb_first_joint_x,thumb_first_joint_y,thumb_first_joint_z,thumb_second_joint_x,thumb_second_joint_y,thumb_second_joint_z,thumb_tip_x,thumb_tip_y,thumb_tip_z,index_base_x,index_base_y,index_base_z,index_first_joint_x,index_first_joint_y,index_first_joint_z,index_second_joint_x,index_second_joint_y,index_second_joint_z,index_tip_x,index_tip_y,index_tip_z,middle_base_x,middle_base_y,middle_base_z,middle_first_joint_x,middle_first_joint_y,middle_first_joint_z,middle_second_joint_x,middle_second_joint_y,middle_second_joint_z,middle_tip_x,middle_tip_y,middle_tip_z,ring_base_x,ring_base_y,ring_base_z,ring_first_joint_x,ring_first_joint_y,ring_first_joint_z,ring_second_joint_x,ring_second_joint_y,ring_second_joint_z,ring_tip_x,ring_tip_y,ring_tip_z,pinky_base_x,pinky_base_y,pinky_base_z,pinky_first_joint_x,pinky_first_joint_y,pinky_first_joint_z,pinky_second_joint_x,pinky_second_joint_y,pinky_second_joint_z,pinky_tip_x,pinky_tip_y,pinky_tip_z,
0.51575728,-0.44825313,0.649343,0.51613469,-0.40718628,0.651674,0.50275838,-0.44038245,0.65939,0.47336107,-0.42464638,0.663656,0.43452049,-0.39827562,0.646173,0.42090756,-0.37943765,0.642833,0.50104928,-0.36144978,0.665942,0.48939165,-0.3243752,0.666645,0.48338819,-0.30667316,0.666996,0.4761266,-0.29293398,0.667316,0.51664649,-0.35538438,0.654662,0.50848725,-0.31035833,0.651891,0.50242448,-0.28435693,0.650274,0.49782035,-0.26562877,0.649119,0.52925365,-0.35331525,0.645214,0.52434964,-0.30981133,0.639765,0.52019252,-0.2879638,0.636977,0.51597447,-0.26813857,0.634442,0.54297485,-0.3578113,0.63356,0.53998128,-0.32462332,0.627541,0.53841532,-0.30901299,0.624775,0.53875581,-0.29845199,0.622334
0.51532478,-0.44825588,0.648995,0.51451986,-0.40617068,0.649795,0.50186555,-0.43997363,0.658441,0.47277803,-0.42274232,0.661717,0.43541048,-0.39441227,0.644973,0.41915634,-0.37648835,0.640618,0.49796373,-0.35943345,0.661965,0.48523278,-0.32186604,0.661256,0.47774419,-0.30458128,0.660901,0.46927759,-0.29428263,0.660579,0.51352668,-0.35341425,0.650819,0.50240833,-0.30850637,0.646515,0.49306136,-0.28254217,0.644005,0.48915196,-0.26356979,0.642211,0.5260381,-0.35241875,0.641592,0.51675524,-0.30744276,0.636015,0.5075368,-0.28626268,0.633161,0.5041716,-0.26933996,0.630567,0.5397416,-0.35464066,0.630424,0.53532603,-0.32304062,0.623529,0.53276713,-0.30804358,0.620361,0.52982969,-0.29534612,0.617565
0.51547396,-0.44935372,0.650294,0.5125951,-0.40641266,0.648636,0.49915687,-0.43844518,0.655951,0.46688374,-0.41739863,0.653765,0.42626661,-0.38568628,0.633194,0.41333048,-0.36968121,0.631536,0.49179704,-0.35531425,0.654018,0.46884854,-0.32106062,0.65024,0.45954502,-0.30383555,0.650021,0.45097203,-0.28795982,0.649823,0.50991527,-0.35129326,0.646511,0.49183086,-0.30612434,0.638603,0.47914303,-0.28284115,0.63399,0.47060858,-0.2675257,0.630695,0.52502812,-0.35103196,0.640456,0.50664894,-0.30919349,0.633523,0.49829969,-0.2871373,0.629976,0.49404757,-0.26763271,0.626751,0.5421137,-0.35640443,0.633441,0.53400885,-0.32414701,0.625972,0.52976056,-0.30955864,0.62254,0.51943101,-0.30182888,0.619512
0.48827064,-0.43021945,0.619262,0.48684931,-0.39434196,0.623334,0.4733723,-0.42368848,0.627124,0.44446082,-0.40763755,0.628548,0.41031368,-0.37977464,0.614762,0.39992236,-0.36096565,0.615461,0.46540474,-0.35785884,0.636506,0.44808126,-0.32381093,0.63773,0.43931517,-0.30658881,0.638341,0.43025192,-0.29432502,0.638898,0.48242205,-0.34816749,0.628553,0.46941349,-0.30451837,0.626726,0.45857693,-0.28273645,0.62566,0.44983964,-0.27086171,0.624898,0.49670912,-0.34273634,0.621714,0.48727952,-0.29995374,0.620135,0.47886836,-0.2824208,0.619327,0.47097277,-0.26593192,0.618593,0.5145611,-0.341241,0.612937,0.50721606,-0.30667008,0.610687,0.50059071,-0.29579838,0.609653,0.49455872,-0.28587127,0.608741
0.4978905,-0.43844343,0.63133,0.47862639,-0.40274895,0.628302,0.47591796,-0.4278707,0.6333,0.43760609,-0.40979985,0.626166,0.40407686,-0.37836157,0.606331,0.38838683,-0.3562304,0.598801,0.44814965,-0.35011767,0.627989,0.43315601,-0.31780829,0.631612,0.42336636,-0.3058395,0.633423,0.41406781,-0.2944928,0.63507,0.4694914,-0.346593,0.624421,0.45294827,-0.3005529,0.618266,0.44100987,-0.2768638,0.614675,0.43232839,-0.25957982,0.61211,0.48780837,-0.34683998,0.621708,0.46758911,-0.30176721,0.612508,0.45724854,-0.27871977,0.607801,0.44662544,-0.26135325,0.603522,0.51120508,-0.35342696,0.618891,0.50175715,-0.31164472,0.609622,0.49427882,-0.30272641,0.605364,0.48755758,-0.29464998,0.601606
0.49576617,-0.43701362,0.628369,0.47456199,-0.39505302,0.621217,0.46676422,-0.42473672,0.623845,0.42957113,-0.39840679,0.60836,0.39202237,-0.36971773,0.58805,0.37368757,-0.34840244,0.578435,0.42476542,-0.33968027,0.609344,0.40101177,-0.31057855,0.610975,0.39186889,-0.29950995,0.611791,0.38330642,-0.28915626,0.612532,0.45099147,-0.33512754,0.61205,0.42626308,-0.29031814,0.603393,0.41360742,-0.26812848,0.598343,0.40558507,-0.25452603,0.594736,0.47419254,-0.33449391,0.614798,0.44697626,-0.28985631,0.599595,0.4330284,-0.26696359,0.591817,0.42386012,-0.25338532,0.584746,0.50523006,-0.33995469,0.619114,0.47847594,-0.30348936,0.604283,0.47071643,-0.29462942,0.597468,0.46380655,-0.28666468,0.591456
0.48886737,-0.43303315,0.621177,0.47122763,-0.39090015,0.616238,0.46086626,-0.42256895,0.616976,0.42728717,-0.39384534,0.602184,0.39367039,-0.36209192,0.579686,0.37712527,-0.33977475,0.569392,0.42292265,-0.33825885,0.606734,0.39871111,-0.308833,0.607558,0.39055093,-0.29907944,0.60797,0.38697781,-0.29496841,0.608344,0.44942404,-0.3339799,0.609908,0.42505385,-0.28947304,0.601703,0.41285639,-0.26801046,0.596916,0.4053929,-0.25543484,0.593497,0.4727549,-0.33347326,0.612881,0.44702759,-0.28984701,0.599639,0.43380099,-0.26737689,0.592864,0.42528065,-0.25415812,0.586705,0.50370638,-0.33890215,0.617148,0.47827369,-0.30330879,0.603952,0.47110465,-0.29481375,0.597888,0.46470988,-0.28715824,0.592538
0.5115307,-0.43960759,0.637888,0.48698415,-0.38574755,0.625408,0.47976486,-0.42388932,0.629635,0.4502545,-0.39564231,0.609265,0.41163161,-0.36729345,0.583931,0.39161958,-0.34595534,0.571422,0.42036527,-0.33779086,0.604255,0.38453705,-0.31460256,0.601347,0.37323016,-0.3061978,0.599892,0.36307381,-0.29863929,0.59857,0.4474905,-0.33280034,0.609411,0.40567939,-0.28899934,0.588351,0.38335439,-0.2647348,0.576066,0.37316898,-0.25125284,0.576257,0.46808218,-0.32681827,0.614563,0.44302994,-0.28573816,0.594181,0.43551856,-0.27218262,0.583753,0.43278433,-0.27476166,0.574273,0.50172081,-0.32773131,0.622523,0.48440643,-0.33004943,0.60284,0.48149413,-0.34058003,0.593796,0.49095257,-0.35814999,0.600749
0.52239699,-0.42466869,0.636916,0.48385788,-0.38044551,0.621567,0.48712983,-0.42079432,0.63025,0.45128143,-0.39770734,0.611371,0.41076026,-0.37728455,0.586955,0.38803249,-0.35882299,0.573055,0.41348403,-0.33732962,0.599779,0.37037546,-0.31432796,0.589679,0.35181439,-0.30483664,0.584629,0.3354062,-0.29674495,0.580038,0.43333365,-0.32496254,0.601893,0.38631775,-0.28471477,0.578387,0.36148529,-0.26456064,0.564675,0.34920434,-0.25411987,0.563891,0.45444069,-0.3174339,0.604754,0.42406774,-0.27763029,0.582076,0.41667514,-0.27465525,0.570474,0.4140651,-0.28062851,0.559926,0.48572061,-0.31405093,0.610378,0.46772047,-0.32107357,0.589383,0.4660029,-0.32945594,0.579736,0.47771633,-0.34656831,0.586228
0.51760881,-0.4158152,0.629135,0.47781305,-0.37070203,0.614752,0.48364373,-0.41066948,0.619895,0.44415636,-0.38236947,0.598219,0.40330728,-0.35828064,0.573116,0.38458932,-0.3420189,0.564685,0.40317046,-0.33192733,0.590704,0.36500956,-0.31195182,0.584902,0.34885112,-0.30387181,0.582002,0.33409934,-0.29665892,0.579364,0.42402204,-0.31913312,0.596315,0.38075789,-0.28228999,0.573354,0.35698739,-0.26295948,0.55996,0.34629445,-0.25373784,0.560835,0.44602327,-0.31152711,0.601982,0.41927518,-0.27673028,0.579226,0.40859683,-0.27148608,0.567584,0.40503334,-0.27252182,0.557,0.47886157,-0.30744647,0.61083,0.46096101,-0.27875307,0.589577,0.45291595,-0.28828034,0.579812,0.45805491,-0.30532321,0.586068
0.51814838,-0.40520937,0.625015,0.47534162,-0.36343555,0.611049,0.48312628,-0.40175987,0.614374,0.44453776,-0.37427869,0.591253,0.40104668,-0.35410246,0.567468,0.37670888,-0.33671835,0.555474,0.39890761,-0.32910265,0.585673,0.35903152,-0.3113089,0.580929,0.3454621,-0.30427019,0.578557,0.33331305,-0.2968464,0.576401,0.42080729,-0.31686353,0.593147,0.37554144,-0.28107475,0.570458,0.3526739,-0.26245412,0.557223,0.3405875,-0.25226454,0.554914,0.44331765,-0.30933061,0.600315,0.4140872,-0.27503199,0.576928,0.40655674,-0.2683586,0.564963,0.40374329,-0.26853925,0.554085,0.47499666,-0.30260962,0.610902,0.45880458,-0.28026019,0.58952,0.45092505,-0.29402021,0.579695,0.45731554,-0.30604643,0.585684
0.51531436,-0.39482573,0.617979,0.47226073,-0.35598817,0.605425,0.48048424,-0.39303923,0.607437,0.43973243,-0.36834686,0.584614,0.39811155,-0.34742156,0.560689,0.37361495,-0.33243057,0.55039,0.39444662,-0.3248493,0.58143,0.35333591,-0.30626525,0.572754,0.34040641,-0.29881319,0.568417,0.32975588,-0.29230381,0.564473,0.41791381,-0.31336427,0.589332,0.3676164,-0.27380832,0.568002,0.35066857,-0.26029677,0.55556,0.34656818,-0.25457569,0.557336,0.43950505,-0.30422156,0.59675,0.41203675,-0.27089081,0.574708,0.40414978,-0.25901716,0.56343,0.40022996,-0.25495221,0.553178,0.47271043,-0.29893905,0.607433,0.45634385,-0.27915959,0.587035,0.45014732,-0.29075096,0.577662,0.4560652,-0.30489682,0.583999
0.51363242,-0.39196795,0.615195,0.47029702,-0.35388028,0.602708,0.47861056,-0.39015994,0.604319,0.43722807,-0.36571959,0.58116,0.39680229,-0.34200314,0.556056,0.37226835,-0.32426579,0.543165,0.39235197,-0.32255619,0.578368,0.3513781,-0.30232688,0.569047,0.33873601,-0.29477694,0.564387,0.32757247,-0.28945672,0.56015,0.41552282,-0.31031612,0.586703,0.36689313,-0.27280813,0.565419,0.34967222,-0.25912969,0.553003,0.35010038,-0.2554134,0.554511,0.43793679,-0.30240227,0.594471,0.40939888,-0.26596844,0.572859,0.39757773,-0.25146747,0.561801,0.39184858,-0.24473318,0.551749,0.47145315,-0.29733713,0.605564,0.45367855,-0.27879926,0.585125,0.4486207,-0.29009082,0.575734,0.45457084,-0.3037131,0.581983
0.51238789,-0.38966955,0.613244,0.46896054,-0.35205522,0.600889,0.47761592,-0.38813854,0.602611,0.43635127,-0.36314472,0.579722,0.39640918,-0.34021139,0.554526,0.37187092,-0.32258585,0.541723,0.39140486,-0.31990242,0.576961,0.34966832,-0.30025797,0.566366,0.33711987,-0.29253336,0.561069,0.3272932,-0.28594198,0.556253,0.41446793,-0.30750301,0.585051,0.3669064,-0.27133841,0.563908,0.34907805,-0.25731293,0.551574,0.34831063,-0.25319609,0.550564,0.4367781,-0.29946724,0.592609,0.40672458,-0.2622411,0.571306,0.39674705,-0.24987397,0.560407,0.39117716,-0.24323535,0.550499,0.47014127,-0.29426341,0.603432,0.45227767,-0.27723401,0.583146,0.44716554,-0.28893327,0.573825,0.45323998,-0.30230443,0.580177
0.5094257,-0.38650801,0.609363,0.46726638,-0.35016799,0.598539,0.47574866,-0.38577218,0.59993,0.43621342,-0.36164805,0.578517,0.40055242,-0.33310247,0.5509,0.37334636,-0.31793454,0.538383,0.39182525,-0.31963253,0.577433,0.34938341,-0.29897047,0.565717,0.33705465,-0.2911102,0.559858,0.3271078,-0.2843032,0.554533,0.41435758,-0.30676935,0.584665,0.36806917,-0.27128246,0.565081,0.35071161,-0.25595632,0.553656,0.34456807,-0.24973597,0.545496,0.43610703,-0.29833712,0.591405,0.40665224,-0.25965364,0.572536,0.39452815,-0.24300479,0.562883,0.38777173,-0.23406527,0.554107,0.4685471,-0.29260006,0.601028,0.45297681,-0.27236677,0.582115,0.44793925,-0.28525509,0.573426,0.45374601,-0.30151968,0.580455
0.50798146,-0.38477185,0.607362,0.46625427,-0.34889986,0.59702,0.47543136,-0.38488946,0.599271,0.4381966,-0.35990859,0.579363,0.40079775,-0.33155187,0.551237,0.37637618,-0.31170219,0.53676,0.39232734,-0.31941499,0.577973,0.34597791,-0.29326354,0.559593,0.33310005,-0.28405427,0.550403,0.3223747,-0.2759681,0.542049,0.41395024,-0.30579632,0.583764,0.36839424,-0.27046144,0.564762,0.35092976,-0.2539401,0.553678,0.34450139,-0.24669204,0.54576,0.434847,-0.29679641,0.589282,0.40605421,-0.25797131,0.571232,0.39471312,-0.2412914,0.561997,0.3876386,-0.23122961,0.553601,0.46608098,-0.2904213,0.597374,0.45297508,-0.26825251,0.579183,0.44799462,-0.28123576,0.570825,0.45275623,-0.29912135,0.578309
0.50721319,-0.38341223,0.605943,0.46551757,-0.34772053,0.595622,0.47525139,-0.38400091,0.59855,0.43968614,-0.3585952,0.579407,0.40129408,-0.3310319,0.551375,0.37676414,-0.31175101,0.537553,0.39235311,-0.31835308,0.577441,0.35045849,-0.28415325,0.559849,0.34280142,-0.27694824,0.551053,0.33576878,-0.2703068,0.543057,0.41346656,-0.30426681,0.582393,0.36927631,-0.26817832,0.563487,0.35054387,-0.25272592,0.552459,0.34367891,-0.24523399,0.544581,0.43390606,-0.29492425,0.587221,0.40483584,-0.25646675,0.569163,0.39345089,-0.23995991,0.559924,0.38604097,-0.22957216,0.551525,0.4645231,-0.28818408,0.594482,0.45165452,-0.26560894,0.576524,0.44774623,-0.277076,0.568273,0.45338438,-0.29359896,0.575922
0.50578034,-0.38239794,0.603664,0.4644489,-0.34565532,0.592878,0.47292392,-0.38196555,0.595177,0.43650861,-0.35539852,0.574778,0.3996337,-0.32651748,0.548218,0.37650178,-0.30770445,0.536432,0.39708353,-0.31134362,0.572955,0.37589104,-0.28433933,0.576149,0.37332319,-0.27881965,0.577746,0.37076375,-0.27340847,0.579198,0.42100947,-0.29996032,0.579053,0.3792601,-0.25984686,0.559586,0.36049085,-0.24033825,0.54823,0.35168789,-0.23026095,0.540119,0.44363816,-0.29306063,0.584858,0.41509914,-0.25090038,0.566168,0.40344993,-0.23335293,0.556606,0.39496797,-0.22059431,0.547913,0.47663564,-0.28973412,0.593355,0.46410398,-0.25806768,0.574742,0.45705023,-0.26728591,0.56619,0.46201704,-0.28599114,0.573478
0.50262798,-0.38103562,0.600056,0.46415569,-0.34471735,0.591009,0.47087872,-0.38073805,0.592929,0.43297738,-0.35409019,0.574258,0.39508076,-0.32337302,0.5509,0.37603099,-0.30311971,0.538597,0.40474222,-0.30349419,0.574289,0.39026831,-0.27236481,0.577744,0.38734068,-0.26698375,0.579472,0.38442168,-0.2617022,0.581043,0.43051101,-0.29490459,0.579413,0.39695375,-0.24795836,0.561762,0.39186494,-0.24722955,0.551466,0.39505553,-0.25947885,0.544111,0.45424179,-0.2905642,0.58429,0.4277994,-0.24231215,0.566556,0.42140518,-0.23880287,0.557483,0.42083531,-0.25229032,0.549234,0.4876745,-0.29089978,0.591427,0.46591832,-0.24977044,0.574421,0.45950237,-0.24365139,0.566608,0.46889972,-0.25691689,0.5746
0.50170432,-0.37932673,0.597794,0.47520287,-0.3406781,0.587143,0.47204817,-0.37991048,0.593276,0.43924772,-0.35550437,0.587243,0.40946585,-0.3287917,0.56751,0.39168472,-0.30788154,0.558572,0.41475637,-0.29398903,0.572154,0.40109459,-0.25749506,0.570665,0.39644054,-0.2532671,0.569921,0.39197167,-0.24919919,0.569245,0.43866875,-0.28531765,0.57349,0.41421336,-0.24022223,0.563494,0.40698732,-0.2366639,0.557663,0.4091975,-0.24947583,0.553498,0.4606875,-0.28117686,0.575367,0.44460794,-0.23610909,0.566245,0.43909975,-0.23091427,0.561578,0.43854529,-0.24433911,0.557335,0.49167396,-0.28224317,0.579141,0.47199635,-0.24391282,0.56198,0.46511884,-0.24132018,0.554096,0.47345506,-0.25642527,0.562174
0.49995496,-0.38017744,0.594301,0.4853644,-0.34686577,0.583764,0.47234099,-0.37945948,0.59232,0.45149565,-0.35852772,0.590144,0.42307987,-0.33004154,0.574285,0.40937082,-0.3089312,0.568794,0.43572319,-0.29420816,0.571955,0.43418918,-0.25937627,0.576072,0.4296425,-0.25506775,0.578131,0.42512733,-0.25082332,0.580002,0.45796374,-0.28784528,0.570258,0.44619921,-0.24374655,0.566272,0.43782792,-0.2402122,0.563947,0.43746812,-0.25437799,0.562287,0.47815248,-0.28582521,0.569632,0.47441356,-0.2425098,0.565407,0.46810683,-0.23722934,0.563246,0.46451387,-0.25137765,0.561281,0.50606273,-0.28989442,0.570391,0.48885938,-0.25054747,0.554351,0.47920533,-0.24725875,0.546981,0.48424888,-0.26220627,0.555338
0.49992257,-0.38902335,0.590237,0.49039862,-0.34824731,0.577392,0.47074543,-0.3769099,0.587712,0.46055748,-0.35413806,0.586571,0.43593602,-0.32415492,0.575629,0.42553416,-0.30193218,0.571181,0.45191635,-0.28652599,0.562862,0.41865709,-0.27280663,0.54658,0.40157763,-0.26582591,0.538439,0.38575961,-0.25940172,0.531039,0.47271633,-0.28518408,0.560927,0.47213685,-0.24015928,0.557354,0.45881157,-0.23618104,0.55527,0.45232233,-0.25002437,0.553781,0.49150246,-0.28761153,0.560274,0.48967498,-0.23968558,0.547414,0.47634734,-0.22914568,0.540835,0.46252863,-0.23931457,0.534853,0.51707328,-0.29776936,0.561331,0.48269814,-0.25643954,0.543602,0.4676165,-0.24228122,0.535456,0.45180744,-0.23323533,0.528269
0.46268547,-0.39370919,0.573435,0.47674125,-0.35113914,0.568242,0.46306712,-0.37207833,0.578808,0.45791885,-0.35116979,0.584755,0.44419126,-0.3172857,0.578643,0.44325901,-0.29482001,0.575577,0.48591914,-0.29736157,0.570125,0.45394532,-0.27652498,0.564092,0.43742923,-0.26575777,0.561076,0.42208536,-0.25575236,0.558334,0.49390639,-0.29839662,0.561587,0.51554713,-0.25969845,0.560157,0.49994183,-0.24419933,0.559323,0.48418102,-0.25138366,0.558727,0.49999284,-0.30242342,0.554943,0.51609519,-0.26133301,0.543104,0.50053999,-0.24413809,0.537047,0.4775513,-0.24683505,0.531541,0.50597731,-0.31368779,0.547727,0.51267501,-0.27791979,0.538702,0.49856952,-0.26678914,0.534555,0.48578214,-0.27199261,0.530896
0.43852735,-0.36387175,0.559778,0.46959108,-0.3337532,0.555592,0.45109938,-0.35069247,0.571971,0.45947063,-0.32279413,0.579244,0.46511828,-0.29514013,0.582916,0.47261798,-0.27646183,0.582189,0.50752148,-0.28896703,0.566643,0.47878067,-0.2734413,0.56717,0.46401298,-0.26547734,0.567966,0.45015275,-0.25800564,0.568826,0.5037817,-0.29224935,0.550225,0.54069289,-0.26556009,0.547949,0.52784794,-0.24796768,0.546621,0.51059245,-0.24397249,0.545673,0.49872605,-0.29735342,0.537026,0.52943786,-0.27215645,0.525707,0.52035414,-0.25288121,0.519916,0.50980662,-0.23574832,0.514651,0.48866147,-0.30818434,0.521814,0.50074348,-0.27202753,0.517405,0.50639667,-0.25520321,0.515379,0.51038418,-0.23998413,0.513592
0.44532817,-0.36857302,0.564693,0.47221015,-0.33506766,0.557415,0.45768532,-0.36139031,0.57514,0.46804074,-0.32245156,0.579692,0.47621951,-0.294313,0.583509,0.48592823,-0.27588155,0.58351,0.51058773,-0.2900124,0.563588,0.48251773,-0.27264244,0.560889,0.46796695,-0.26362182,0.559816,0.45435482,-0.25517562,0.558961,0.50952166,-0.29489965,0.548085,0.54713996,-0.26885377,0.547907,0.53831995,-0.25257575,0.547803,0.52257516,-0.25635404,0.549004,0.50685233,-0.30138741,0.535864,0.53824818,-0.27552076,0.526202,0.52557174,-0.26037259,0.521259,0.51379571,-0.24618655,0.516765,0.50004874,-0.31405962,0.522266,0.50094368,-0.27307834,0.515348,0.50392943,-0.25539082,0.51217,0.50606854,-0.23957615,0.509366
0.44014986,-0.36875479,0.56066,0.46545582,-0.34870293,0.545974,0.45447172,-0.36258016,0.569719,0.47400323,-0.3310732,0.572635,0.49060184,-0.30555046,0.576276,0.50343576,-0.2897885,0.574813,0.51252011,-0.31026868,0.543853,0.4821028,-0.28207807,0.536448,0.46692436,-0.26784722,0.533169,0.45299639,-0.25473262,0.530303,0.50158252,-0.31624793,0.527151,0.53672737,-0.29552268,0.516535,0.52224801,-0.27381727,0.510342,0.51089182,-0.27653217,0.518246,0.49060403,-0.32314338,0.514485,0.52059489,-0.30659986,0.498311,0.50582694,-0.28646746,0.490036,0.49231439,-0.26795182,0.482513,0.4734507,-0.33530978,0.501413,0.4815555,-0.29752388,0.489843,0.48532711,-0.28008726,0.484527,0.48868088,-0.26466024,0.479836
0.43575152,-0.36129428,0.554082,0.46705299,-0.34097915,0.536155,0.45491528,-0.34436832,0.561081,0.48492285,-0.31484854,0.560999,0.49790745,-0.28861526,0.558237,0.50211003,-0.27282718,0.550501,0.52163014,-0.32051449,0.52864,0.49732955,-0.28358621,0.517796,0.48541853,-0.26505927,0.512748,0.47462165,-0.24809642,0.508278,0.5031366,-0.32712948,0.513175,0.51678882,-0.29393256,0.492273,0.51704967,-0.2692829,0.480079,0.50992837,-0.25813083,0.48437,0.48586163,-0.33349165,0.501764,0.51012419,-0.30673009,0.485338,0.49709342,-0.28483191,0.476934,0.48519783,-0.26472916,0.469294,0.46102792,-0.34288132,0.49066,0.46749988,-0.30953214,0.475976,0.47070338,-0.29394717,0.469229,0.47366373,-0.28004737,0.463278
0.45786904,-0.35663983,0.572231,0.47118682,-0.34737161,0.537865,0.47640139,-0.34409726,0.56653,0.49439435,-0.31225711,0.549903,0.50096896,-0.28557218,0.534826,0.50793069,-0.2732322,0.521242,0.5014086,-0.33467026,0.500269,0.46543635,-0.28586697,0.471495,0.45307186,-0.28432393,0.479435,0.45376714,-0.30081137,0.493961,0.47939443,-0.34314616,0.493814,0.43570405,-0.28070551,0.455438,0.41049396,-0.2458205,0.433051,0.39424027,-0.23350347,0.430395,0.46052303,-0.35064465,0.491016,0.42001009,-0.29390972,0.457399,0.38609277,-0.26981673,0.4402,0.35660898,-0.24888524,0.424581,0.43632957,-0.36044543,0.492583,0.40728516,-0.30470715,0.462407,0.3913363,-0.27983391,0.448543,0.3697697,-0.26219401,0.436309
0.43856664,-0.36443856,0.559864,0.43867659,-0.35430027,0.527535,0.45350923,-0.36309727,0.560837,0.48332224,-0.36804959,0.549476,0.49153946,-0.38198076,0.538781,0.49003489,-0.39378167,0.529655,0.4766043,-0.35072919,0.499854,0.46789319,-0.30169669,0.479106,0.4752769,-0.28482495,0.480773,0.48948122,-0.27309214,0.489626,0.4472629,-0.34433202,0.486096,0.45250611,-0.31995236,0.452229,0.45492857,-0.30223131,0.432473,0.44394252,-0.27498903,0.418361,0.42253978,-0.33966232,0.477141,0.42325325,-0.33045764,0.442068,0.42232439,-0.31143576,0.424124,0.4169885,-0.28648853,0.407811,0.39175042,-0.33519538,0.471041,0.40008086,-0.31046528,0.447715,0.39225353,-0.2861229,0.436998,0.37432757,-0.2699053,0.427541
0.43521953,-0.35124083,0.550041,0.4433339,-0.34401073,0.515845,0.45781024,-0.34097395,0.547515,0.48001297,-0.32913746,0.533704,0.49125796,-0.31107346,0.523049,0.49575662,-0.30254139,0.510412,0.47394278,-0.33985525,0.482253,0.45361563,-0.28796341,0.45672,0.46122354,-0.2733717,0.461856,0.47477721,-0.26393135,0.473984,0.447025,-0.33861284,0.472013,0.44446238,-0.29703412,0.435573,0.41753009,-0.25865848,0.414317,0.39559852,-0.23322365,0.399133,0.4244662,-0.3379848,0.466087,0.42253625,-0.34108149,0.432399,0.41503626,-0.31414163,0.415164,0.40744533,-0.28924467,0.399495,0.3965945,-0.33790868,0.463884,0.39232189,-0.31211362,0.436322,0.38896743,-0.29513507,0.423659,0.37741175,-0.27205869,0.412485
0.42288782,-0.30659035,0.524684,0.4277166,-0.32102656,0.493897,0.44355162,-0.30789519,0.520446,0.46932762,-0.29997976,0.507914,0.48825802,-0.29042553,0.496419,0.49131828,-0.2853389,0.483108,0.45098737,-0.3309498,0.461272,0.44055989,-0.28697616,0.434928,0.45956033,-0.28004489,0.445351,0.4829006,-0.27559688,0.45991,0.43044287,-0.33574218,0.454435,0.42318566,-0.29213818,0.418922,0.39619283,-0.25484613,0.398206,0.3751082,-0.2297777,0.383409,0.41302813,-0.33923354,0.45106,0.42094792,-0.33335548,0.421151,0.40589848,-0.30025074,0.405849,0.39712404,-0.27486202,0.391938,0.39094484,-0.34218697,0.451424,0.38862577,-0.31416406,0.423373,0.3827,-0.28836444,0.410484,0.37158366,-0.26703095,0.399112
0.41119061,-0.30549096,0.521283,0.41355999,-0.32436855,0.49873,0.42788773,-0.31410709,0.524249,0.46101273,-0.31274039,0.520448,0.48606152,-0.30738246,0.514223,0.49164988,-0.30140583,0.50472,0.4516907,-0.34781403,0.482193,0.45005108,-0.30810336,0.46552,0.46921406,-0.30079672,0.477414,0.46750156,-0.29363197,0.488744,0.42639659,-0.34597936,0.469822,0.42516214,-0.29833857,0.443371,0.42415203,-0.27151244,0.428055,0.41635635,-0.24567394,0.417116,0.40464838,-0.34338611,0.461293,0.42292207,-0.3314105,0.440466,0.43176498,-0.32316693,0.42981,0.42700221,-0.29787567,0.420123,0.3766758,-0.33796906,0.454304,0.38930143,-0.31267551,0.434505,0.3903449,-0.29625762,0.425409,0.38103478,-0.27542974,0.417382
0.39974022,-0.30511938,0.521252,0.41024388,-0.32342789,0.498437,0.42530074,-0.31344455,0.524571,0.45716315,-0.31166916,0.519258,0.48281775,-0.30709371,0.513659,0.49007625,-0.30213782,0.504416,0.44450094,-0.34778774,0.482094,0.44433561,-0.30852824,0.465665,0.46614693,-0.30082532,0.477066,0.46435552,-0.29330701,0.488104,0.4187856,-0.34511114,0.469193,0.42176064,-0.29798274,0.442751,0.41934293,-0.26884008,0.427327,0.41343141,-0.24815421,0.41631,0.39677508,-0.34176951,0.460247,0.41661186,-0.33303914,0.4396,0.42780062,-0.32425405,0.429037,0.42481452,-0.29602147,0.419433,0.36864734,-0.33535843,0.452797,0.38066127,-0.31277975,0.433164,0.38728012,-0.29515925,0.424144,0.37801519,-0.27448083,0.416184
0.40203725,-0.30742498,0.525605,0.41190594,-0.32493265,0.501664,0.42718236,-0.31467218,0.52773,0.45780763,-0.31170574,0.520711,0.48287167,-0.3063357,0.514292,0.48958382,-0.30165722,0.503992,0.44645007,-0.3465039,0.482867,0.4428944,-0.30622872,0.464853,0.46108584,-0.29881709,0.476397,0.45944525,-0.29185531,0.488117,0.42085988,-0.34512783,0.470976,0.41771851,-0.29697366,0.443115,0.40966488,-0.26493854,0.426863,0.40335707,-0.24226128,0.415369,0.39896459,-0.34295877,0.462942,0.4148402,-0.33168997,0.439335,0.42258745,-0.32123791,0.427256,0.41631411,-0.29364526,0.416276,0.3710035,-0.33814741,0.456747,0.38030885,-0.31437364,0.435755,0.37848232,-0.29545497,0.42611,0.37195815,-0.27482687,0.417599
0.40385062,-0.30933178,0.529398,0.41262658,-0.32543684,0.503626,0.42840477,-0.31547504,0.530204,0.45617878,-0.31026686,0.521445,0.47973294,-0.30216148,0.513656,0.48875973,-0.30043853,0.503812,0.44648493,-0.34213233,0.481595,0.43821371,-0.30030047,0.461639,0.45293365,-0.2899771,0.472805,0.45237382,-0.28629589,0.485141,0.42074572,-0.34205039,0.470591,0.41273944,-0.29203277,0.440793,0.4027396,-0.25813679,0.423411,0.39795609,-0.23789028,0.41209,0.39902268,-0.34211937,0.463422,0.40966138,-0.32163638,0.438205,0.4143791,-0.30765728,0.425303,0.40321848,-0.28006534,0.413575,0.37164682,-0.33862383,0.458523,0.37633004,-0.31232962,0.435835,0.37606094,-0.29291462,0.42541,0.36531438,-0.27169601,0.416212
0.40501945,-0.31054046,0.531787,0.41289501,-0.32558567,0.504583,0.42903134,-0.31588697,0.531573,0.45595442,-0.30965328,0.521507,0.47875919,-0.30110795,0.513062,0.48745093,-0.29912586,0.502887,0.44505735,-0.34044852,0.480037,0.43506988,-0.29759312,0.458601,0.44977855,-0.28780204,0.46939,0.44905302,-0.28373393,0.48216,0.41994133,-0.34086882,0.469713,0.4102259,-0.2897224,0.438436,0.39984951,-0.25608056,0.420191,0.40639993,-0.24241053,0.421487,0.39873081,-0.34133175,0.463207,0.40615054,-0.31174719,0.437304,0.40811891,-0.29300527,0.424051,0.39311579,-0.26499829,0.412003,0.37197728,-0.33875356,0.459308,0.37455071,-0.30808936,0.435333,0.37303524,-0.2874599,0.424317,0.36119533,-0.26647068,0.414597
0.40488049,-0.31057376,0.532348,0.41146708,-0.32451669,0.504772,0.42889455,-0.31565258,0.531954,0.45562438,-0.30809062,0.521686,0.47746584,-0.29884433,0.512871,0.48568277,-0.29520859,0.502608,0.44476626,-0.33839893,0.479676,0.43377331,-0.29492985,0.457937,0.44885692,-0.28633911,0.468555,0.44788572,-0.28219406,0.481375,0.41965603,-0.338935,0.469425,0.40887822,-0.28700554,0.43781,0.39898566,-0.25461532,0.419368,0.40379515,-0.23907579,0.420445,0.3984026,-0.33955653,0.463007,0.40577105,-0.30994936,0.436771,0.40750286,-0.2909055,0.423349,0.39221649,-0.26286399,0.411146,0.37181826,-0.3380674,0.459266,0.3744641,-0.30453185,0.435022,0.37239926,-0.28315453,0.423883,0.36040539,-0.26452255,0.414054
0.40446744,-0.31035682,0.532336,0.41131122,-0.32413914,0.50475,0.42859196,-0.31533434,0.531972,0.45546294,-0.30772355,0.52175,0.47746575,-0.29853037,0.513005,0.48546633,-0.29468012,0.502651,0.44479279,-0.33805622,0.47968,0.43376969,-0.29452769,0.457965,0.44879334,-0.285862,0.468552,0.44760168,-0.28153335,0.481351,0.41967847,-0.33856117,0.46939,0.40885361,-0.28654154,0.437783,0.3989244,-0.25412039,0.419346,0.40367587,-0.23853749,0.420399,0.39837079,-0.33905527,0.462941,0.40576684,-0.30944383,0.436725,0.40748713,-0.29034172,0.423312,0.39216356,-0.26231912,0.411119,0.37165237,-0.33755562,0.459164,0.37441942,-0.30403883,0.434937,0.37233214,-0.28263895,0.423806,0.36018647,-0.26368071,0.413984
0.4831573,-0.30711723,0.510401,0.43513145,-0.31944816,0.486025,0.46978151,-0.30899246,0.485776,0.42197465,-0.29128643,0.452904,0.40444209,-0.29767072,0.426774,0.38455584,-0.3021091,0.412391,0.37665855,-0.3316036,0.434394,0.34769255,-0.27562459,0.401596,0.35132927,-0.25764465,0.40277,0.37081529,-0.25464841,0.416181,0.37398398,-0.33480664,0.454779,0.350415,-0.27723854,0.425076,0.34352592,-0.24206546,0.407748,0.35040533,-0.23007777,0.402065,0.37499112,-0.33639605,0.473329,0.34498846,-0.27892321,0.439552,0.33440326,-0.24747082,0.422271,0.3389483,-0.23003642,0.414598,0.38277448,-0.33629645,0.499041,0.36235772,-0.29085156,0.470926,0.35629707,-0.2691734,0.458009,0.35457421,-0.25935918,0.452049
0.48351296,-0.30646938,0.510336,0.43576593,-0.31917241,0.485988,0.47026389,-0.30833373,0.485701,0.42286394,-0.28953289,0.452497,0.40521542,-0.2953603,0.426054,0.38449507,-0.29853227,0.411185,0.37769393,-0.33161565,0.43437,0.34830929,-0.2757705,0.401603,0.3516846,-0.25775613,0.40272,0.37103976,-0.25461606,0.416096,0.37498411,-0.33499025,0.454779,0.35096051,-0.27755649,0.425123,0.34380142,-0.24234373,0.407824,0.35056728,-0.23016743,0.402106,0.37593666,-0.33669501,0.473346,0.34549219,-0.27937924,0.439607,0.33466566,-0.24792308,0.422346,0.33904186,-0.23030649,0.414632,0.38360754,-0.33668099,0.499074,0.36158206,-0.29349907,0.470999,0.35533202,-0.27087938,0.4581,0.35370928,-0.25992473,0.452112
0.48443575,-0.30609075,0.51088,0.43695286,-0.31916552,0.486699,0.47125411,-0.30802038,0.486264,0.42401078,-0.28907796,0.453029,0.40641066,-0.29484558,0.426562,0.38547199,-0.29771823,0.411596,0.37919697,-0.3320073,0.435253,0.3496078,-0.27636302,0.402573,0.35294498,-0.25841648,0.403786,0.37227124,-0.25516302,0.417167,0.37650683,-0.33545644,0.455704,0.35227645,-0.27825062,0.42618,0.34500798,-0.24305609,0.408958,0.35184544,-0.23080742,0.403351,0.37745361,-0.337195,0.474294,0.34678154,-0.28010787,0.440662,0.33612252,-0.24859633,0.423456,0.34064239,-0.23145049,0.415856,0.38507624,-0.33716543,0.500025,0.36294465,-0.29401544,0.472037,0.35664377,-0.27138432,0.459178,0.35505275,-0.26045474,0.453276
0.48525019,-0.30544005,0.51112,0.43788416,-0.31869036,0.487006,0.47209778,-0.30740472,0.486513,0.42557225,-0.28719906,0.453016,0.40786204,-0.29262467,0.426306,0.38645158,-0.29477236,0.411098,0.38026872,-0.33172308,0.435632,0.3505552,-0.2761922,0.402985,0.35351791,-0.25852348,0.404244,0.37263063,-0.25438665,0.417629,0.37759002,-0.33520246,0.456098,0.35323667,-0.27811349,0.426624,0.34589326,-0.24293993,0.409431,0.35274541,-0.23066955,0.403874,0.37853547,-0.33695298,0.474695,0.34686206,-0.28092263,0.441105,0.33586265,-0.24948848,0.423919,0.34039449,-0.23203789,0.416371,0.38613838,-0.3369131,0.500426,0.36462967,-0.29269754,0.472471,0.35761312,-0.27136816,0.459626,0.35598905,-0.26092557,0.453763
0.48549667,-0.30487708,0.510932,0.43820166,-0.31824213,0.486821,0.47237534,-0.30685194,0.486325,0.42568935,-0.28713578,0.452901,0.40821393,-0.29281485,0.426401,0.38699034,-0.29706622,0.411715,0.38068794,-0.33137314,0.435449,0.35083499,-0.2759062,0.402804,0.35352552,-0.25839361,0.404063,0.37248695,-0.25371754,0.417448,0.37800443,-0.33489005,0.455916,0.3535005,-0.2778621,0.426444,0.3460623,-0.24268881,0.409252,0.35288113,-0.23037401,0.403696,0.37893832,-0.33666363,0.474513,0.34659997,-0.28126923,0.440924,0.33535801,-0.24987848,0.42374,0.33984922,-0.23221404,0.416192,0.38651429,-0.3366362,0.500244,0.36423192,-0.29350501,0.47229,0.35785683,-0.27121666,0.459446,0.35618767,-0.26104618,0.453584
0.48567265,-0.30450913,0.510819,0.43843069,-0.31795599,0.486717,0.47257524,-0.30649312,0.486215,0.42576427,-0.28710099,0.452837,0.40836189,-0.29288369,0.426392,0.38752053,-0.29726292,0.411757,0.38099254,-0.33116197,0.435356,0.35104811,-0.27573659,0.402714,0.35356901,-0.25833492,0.403986,0.37243283,-0.25329854,0.417374,0.37830481,-0.33470337,0.455824,0.35370362,-0.27771603,0.426357,0.34620482,-0.24254236,0.409168,0.3530115,-0.23020307,0.403623,0.37923016,-0.33649162,0.474421,0.34645159,-0.28152235,0.440837,0.33504727,-0.2501591,0.423654,0.33952187,-0.23235738,0.416118,0.38678666,-0.33647072,0.500151,0.36444619,-0.29334168,0.472199,0.35804322,-0.271134,0.459357,0.35634987,-0.26114842,0.453503
0.48626093,-0.30412732,0.511006,0.43898041,-0.31774495,0.486787,0.47320796,-0.30616125,0.486411,0.42641182,-0.28733831,0.452962,0.40965396,-0.29327392,0.426535,0.39195706,-0.2994648,0.412237,0.38278241,-0.33060307,0.435333,0.35126024,-0.27573767,0.402604,0.35359391,-0.25848064,0.40393,0.37239393,-0.25317121,0.417375,0.37952193,-0.33451446,0.455744,0.35380113,-0.27771663,0.426142,0.34605233,-0.24249944,0.408874,0.35283889,-0.23006199,0.403341,0.38040454,-0.33634843,0.474303,0.34631697,-0.28186486,0.44061,0.3329685,-0.25240199,0.423372,0.33790771,-0.23232185,0.415856,0.38788487,-0.33634197,0.500003,0.36437085,-0.29376428,0.47195,0.35787738,-0.27151866,0.45906,0.35620502,-0.26173652,0.453217
0.48749348,-0.30418616,0.51174,0.44067741,-0.31755453,0.487245,0.47465181,-0.30635248,0.487225,0.43196109,-0.28825541,0.453448,0.41632778,-0.29551869,0.427111,0.39874343,-0.30161067,0.412775,0.38781312,-0.33155328,0.435641,0.35592427,-0.27690023,0.402653,0.36046259,-0.26134166,0.404367,0.3736981,-0.25366177,0.418069,0.38466346,-0.33526619,0.455848,0.35781925,-0.27900564,0.425835,0.34745082,-0.24228072,0.408327,0.35319903,-0.23001478,0.403012,0.38513067,-0.33709816,0.474259,0.34869856,-0.28518327,0.440243,0.33322422,-0.25291223,0.422839,0.33773729,-0.23242182,0.415581,0.38967646,-0.33604913,0.499822,0.36669905,-0.29740415,0.471443,0.35858948,-0.27182336,0.458404,0.35663271,-0.26224809,0.452738
0.48871252,-0.30417049,0.512592,0.44195883,-0.31697881,0.487339,0.47615966,-0.30648915,0.488206,0.43542807,-0.28764285,0.454037,0.42032975,-0.29477432,0.427502,0.40297881,-0.30062481,0.412814,0.39080231,-0.33115614,0.435214,0.35866303,-0.27645412,0.401651,0.36079536,-0.26060423,0.403859,0.3742938,-0.2535571,0.417985,0.38518603,-0.33448814,0.45497,0.35964546,-0.2781461,0.424035,0.35011816,-0.24248382,0.40599,0.35189645,-0.22879294,0.400856,0.38521985,-0.33615159,0.473065,0.34848928,-0.28719953,0.438329,0.32909065,-0.26312273,0.420557,0.33027945,-0.23534948,0.413544,0.38978894,-0.3353939,0.498359,0.36601111,-0.29607224,0.469287,0.35709367,-0.27075795,0.455929,0.35472267,-0.26113712,0.450418
0.49157424,-0.30481293,0.515301,0.45111064,-0.31516527,0.488922,0.48065051,-0.30477728,0.49045,0.43980581,-0.27958206,0.455773,0.42809724,-0.28171649,0.427677,0.41347333,-0.28680383,0.412239,0.40914142,-0.32641623,0.435229,0.36650889,-0.27197798,0.401711,0.35978864,-0.25621297,0.400813,0.37125708,-0.24981108,0.413681,0.40454123,-0.33607659,0.455109,0.36573273,-0.27909627,0.424196,0.34846314,-0.24237822,0.406163,0.34985501,-0.22736327,0.398481,0.40332753,-0.34270256,0.47339,0.3551624,-0.29726512,0.438685,0.33206894,-0.27079685,0.420928,0.32583551,-0.24123098,0.411173,0.40716204,-0.34800301,0.499067,0.37482722,-0.30730285,0.470295,0.36336562,-0.28479817,0.457076,0.35868449,-0.27523457,0.449569
0.50081838,-0.30883138,0.525779,0.45940582,-0.30722691,0.493487,0.49296373,-0.29497761,0.502032,0.44192971,-0.26704492,0.467017,0.4365729,-0.26162849,0.44134,0.4359124,-0.26609379,0.427565,0.42999803,-0.30969102,0.435854,0.3795793,-0.25313725,0.398473,0.37260477,-0.23725652,0.399875,0.38460748,-0.24324945,0.415186,0.41952609,-0.32287583,0.452095,0.37326412,-0.26021887,0.414639,0.35896148,-0.23497046,0.39279,0.3573624,-0.23898819,0.385386,0.4127241,-0.33283589,0.467814,0.36335286,-0.28282289,0.428146,0.34438104,-0.24960968,0.407851,0.34130229,-0.24180473,0.398807,0.40853149,-0.34289119,0.491267,0.3742668,-0.29239678,0.457782,0.35384678,-0.27440081,0.442397,0.34712154,-0.26597622,0.435234
0.47044118,-0.27541891,0.526164,0.45602706,-0.29793991,0.497738,0.47971448,-0.27394179,0.50817,0.44859726,-0.26613317,0.476519,0.45922004,-0.26941583,0.458626,0.46768798,-0.27824581,0.449674,0.45293226,-0.31384095,0.450535,0.41160267,-0.26944148,0.416344,0.41060744,-0.25899392,0.426904,0.41503186,-0.26101334,0.444615,0.43715297,-0.32545289,0.461302,0.39818034,-0.27459986,0.425232,0.37212128,-0.24221195,0.404191,0.37551743,-0.24874951,0.404552,0.4246531,-0.3335387,0.472235,0.38913044,-0.29976659,0.435391,0.36535823,-0.26510134,0.416541,0.35928714,-0.25433751,0.416314,0.40895444,-0.34083974,0.489402,0.38438861,-0.30041122,0.457246,0.36065259,-0.27882925,0.442472,0.35138356,-0.27187527,0.441697
0.48744,-0.29295641,0.55553,0.47809028,-0.30079694,0.521659,0.49035036,-0.28055283,0.538976,0.46657975,-0.26775781,0.508847,0.48453399,-0.25687048,0.495047,0.49919668,-0.25599769,0.487035,0.48917002,-0.28735093,0.471341,0.43434402,-0.24572797,0.435104,0.42478752,-0.24117897,0.44407,0.42994783,-0.25090236,0.461951,0.47626738,-0.30745399,0.478244,0.41828972,-0.2560192,0.437707,0.41641212,-0.25150024,0.449629,0.43487551,-0.26720013,0.466453,0.46531021,-0.32397234,0.486396,0.42092902,-0.28426104,0.446642,0.38490183,-0.25651256,0.426302,0.37608545,-0.25228168,0.423876,0.45162889,-0.34337162,0.501012,0.41175797,-0.29855244,0.466239,0.38214579,-0.2847065,0.450262,0.36949503,-0.28338839,0.447749
0.45795855,-0.31407702,0.552825,0.46849751,-0.3111396,0.520287,0.47879367,-0.30400592,0.546856,0.48034606,-0.28547789,0.529352,0.51049058,-0.27585336,0.525657,0.5280404,-0.27473662,0.520166,0.49949728,-0.29553403,0.483998,0.46138139,-0.25040758,0.455564,0.45314039,-0.2464275,0.465382,0.44917914,-0.26024567,0.480524,0.47835147,-0.3071198,0.47858,0.43389559,-0.24867727,0.441215,0.4248608,-0.25221688,0.453913,0.43827538,-0.27147151,0.470731,0.46316226,-0.31625839,0.4765,0.43839808,-0.26771798,0.443468,0.40236674,-0.24520377,0.426568,0.38863763,-0.24905858,0.426571,0.44093137,-0.32880213,0.478667,0.41371529,-0.27838304,0.448899,0.38333801,-0.26938,0.435222,0.36872682,-0.27283035,0.4344
0.44699393,-0.33431853,0.570913,0.46272424,-0.31746415,0.539158,0.46897396,-0.32226122,0.569698,0.48202134,-0.29599241,0.559344,0.49845229,-0.27364848,0.552457,0.51144594,-0.26275145,0.5443,0.49958672,-0.2882009,0.509333,0.48010104,-0.24208367,0.485577,0.4691232,-0.23666497,0.492668,0.46385995,-0.23412352,0.504875,0.48059857,-0.29576125,0.498453,0.4443812,-0.2394718,0.463927,0.42620617,-0.24447962,0.472858,0.43255182,-0.26577844,0.488151,0.46383876,-0.30349276,0.491824,0.41841975,-0.25173439,0.463147,0.38488205,-0.23546314,0.448476,0.36574533,-0.22772078,0.447166,0.44133461,-0.31562857,0.488427,0.40545274,-0.26471144,0.462335,0.3839884,-0.24507899,0.450346,0.37246111,-0.23355016,0.448564
0.45465099,-0.37606624,0.554258,0.46784606,-0.33500665,0.533182,0.4730954,-0.36195104,0.563069,0.47960176,-0.33133962,0.564418,0.48719889,-0.30263203,0.565463,0.49368344,-0.28223209,0.559962,0.50044686,-0.28289256,0.525054,0.45568242,-0.26019548,0.515622,0.44215901,-0.25389963,0.520848,0.43037071,-0.24849865,0.526657,0.48365077,-0.28335005,0.506167,0.4438905,-0.23494523,0.485033,0.42378539,-0.20875504,0.475744,0.40693832,-0.20934587,0.478463,0.46897116,-0.2867508,0.492172,0.42113792,-0.25445257,0.478379,0.39311427,-0.25699926,0.471323,0.37413884,-0.26317479,0.472207,0.44959705,-0.29681842,0.478422,0.40545125,-0.26797664,0.464893,0.38226872,-0.25877222,0.458677,0.36863936,-0.25233025,0.458673
0.47160764,-0.38455033,0.543156,0.47408585,-0.3406932,0.542187,0.46028604,-0.37410712,0.550881,0.43980223,-0.35387546,0.551585,0.43122118,-0.34232188,0.567361,0.43636994,-0.33575867,0.581647,0.46023545,-0.29241873,0.550693,0.43465024,-0.26723062,0.548962,0.43910438,-0.27715008,0.567119,0.44692713,-0.29663114,0.575054,0.47346486,-0.28699534,0.540946,0.44786337,-0.2519787,0.534379,0.43045452,-0.23618773,0.530548,0.43241782,-0.25152683,0.54376,0.48461877,-0.28554396,0.532999,0.45966331,-0.24873079,0.529644,0.45375708,-0.25962929,0.527928,0.46628018,-0.28349991,0.543069,0.49844482,-0.28988313,0.523617,0.47645498,-0.26506144,0.518567,0.46751588,-0.27900801,0.516246,0.4811126,-0.29881332,0.52703
0.45850553,-0.38216592,0.546073,0.46292373,-0.34603462,0.543463,0.45486403,-0.37587204,0.553197,0.43404368,-0.3514446,0.552934,0.42926947,-0.33123727,0.566046,0.43523142,-0.31888206,0.577193,0.46147513,-0.29334481,0.549773,0.43318511,-0.28706069,0.546614,0.43216963,-0.29321381,0.564667,0.42382686,-0.29438808,0.573125,0.47409828,-0.29262685,0.540117,0.44109051,-0.26590436,0.53184,0.42095781,-0.24955756,0.527012,0.41749498,-0.24900902,0.539736,0.48265676,-0.2939581,0.532364,0.4710252,-0.25493969,0.527403,0.45202619,-0.26583074,0.524864,0.45365682,-0.29209997,0.539493,0.49234571,-0.30181826,0.52345,0.47268941,-0.26287901,0.517023,0.46106814,-0.26275538,0.51407,0.47063317,-0.28185297,0.524447
0.47597163,-0.38557566,0.539631,0.47046816,-0.35438953,0.546138,0.46209409,-0.38684968,0.544117,0.43390574,-0.36546538,0.541543,0.40896766,-0.34224643,0.532434,0.39528621,-0.32352451,0.529299,0.43515066,-0.3230812,0.557389,0.41214098,-0.29604464,0.557707,0.40457189,-0.29389342,0.557865,0.40944189,-0.30203467,0.573425,0.45480691,-0.31185013,0.554479,0.44098007,-0.31173747,0.554071,0.44535349,-0.3337911,0.553833,0.46839746,-0.36053362,0.569827,0.47213473,-0.3048742,0.55161,0.44345195,-0.27922751,0.551814,0.43085262,-0.26927223,0.551919,0.42078598,-0.26217058,0.552014,0.49515776,-0.30111401,0.547241,0.47535707,-0.29337235,0.545559,0.47966515,-0.31003343,0.544786,0.4984955,-0.33148044,0.557432
0.47951751,-0.38761169,0.541037,0.47074465,-0.35525298,0.547363,0.46288706,-0.38784923,0.545452,0.43458261,-0.36676633,0.542758,0.40884605,-0.34312895,0.532567,0.39494264,-0.32447412,0.52925,0.4345783,-0.32419522,0.558366,0.41130136,-0.29735342,0.558478,0.40348464,-0.29469008,0.558534,0.40786476,-0.3019423,0.574044,0.45420224,-0.31277375,0.555471,0.43499353,-0.30180337,0.554866,0.43613449,-0.31867338,0.554514,0.45841882,-0.34678568,0.570467,0.47153856,-0.30564185,0.552628,0.44270247,-0.28028875,0.552646,0.4301241,-0.27048741,0.552655,0.42013367,-0.26352715,0.552663,0.49464762,-0.30168739,0.548317,0.47490057,-0.29126885,0.546474,0.47702734,-0.30465209,0.545627,0.49712376,-0.32930586,0.558236
0.48125072,-0.38859721,0.541694,0.47095367,-0.35562883,0.547907,0.46324393,-0.38825989,0.546006,0.43480904,-0.36720064,0.543164,0.40899806,-0.34358422,0.532862,0.3949763,-0.32491172,0.529432,0.4343823,-0.32456271,0.558685,0.41095873,-0.2977445,0.55865,0.4030328,-0.29489018,0.558633,0.40724069,-0.30183834,0.574111,0.45405747,-0.31312063,0.555871,0.43520128,-0.30194751,0.555131,0.43627999,-0.3187797,0.554699,0.4585482,-0.34688355,0.570628,0.47145674,-0.30597326,0.553104,0.44249096,-0.28066661,0.552971,0.42988342,-0.2708937,0.552903,0.41988716,-0.26396101,0.552841,0.4946787,-0.30200086,0.548898,0.47488019,-0.29065057,0.546929,0.47737443,-0.30487376,0.546024,0.49675861,-0.32864168,0.558608
0.48149718,-0.38977065,0.542244,0.4710919,-0.35669286,0.548811,0.46299604,-0.38923629,0.546906,0.43495062,-0.36815607,0.54456,0.40937681,-0.34451727,0.534656,0.3956043,-0.32583674,0.531451,0.43581609,-0.3257749,0.560328,0.41278534,-0.2989256,0.560751,0.40475936,-0.29593108,0.560963,0.40871201,-0.30259999,0.576537,0.4552692,-0.31434067,0.557229,0.43645232,-0.30293832,0.556922,0.43696434,-0.31972877,0.556742,0.45899032,-0.34801436,0.572746,0.47241972,-0.30719361,0.5542,0.44380221,-0.28181163,0.554556,0.43170843,-0.27258354,0.554739,0.4225759,-0.26665516,0.554904,0.49521868,-0.30320935,0.549631,0.47544361,-0.29129632,0.548071,0.47885225,-0.30751056,0.547353,0.49696805,-0.32952299,0.560018
0.47315635,-0.38218176,0.532289,0.46657705,-0.35242404,0.543407,0.45722194,-0.38332357,0.539923,0.43190481,-0.36495801,0.54237,0.40144045,-0.34488717,0.533886,0.38602826,-0.33058881,0.533772,0.43755374,-0.32557548,0.562594,0.41694314,-0.29450973,0.568106,0.41402525,-0.29758879,0.570863,0.41841062,-0.30731702,0.587405,0.45566758,-0.31311914,0.557659,0.43650075,-0.29197211,0.562639,0.44247473,-0.3092929,0.565545,0.46771167,-0.33624601,0.582424,0.471349,-0.30501213,0.552787,0.44903264,-0.28036974,0.558606,0.43896876,-0.27213346,0.561583,0.43047819,-0.27048588,0.56429,0.49151648,-0.30030886,0.545359,0.47826751,-0.28419813,0.548453,0.47978837,-0.29841355,0.549874,0.49852745,-0.32700253,0.563391
0.49183808,-0.396944,0.552803,0.47589256,-0.35905109,0.553874,0.46868666,-0.39254546,0.553289,0.43361964,-0.36708982,0.544916,0.40339157,-0.3434907,0.533946,0.38614983,-0.32390257,0.52754,0.43250826,-0.32149742,0.555421,0.40484405,-0.2855954,0.549587,0.39786838,-0.28423815,0.54667,0.40112957,-0.29205276,0.560685,0.45428528,-0.31210478,0.555248,0.43111217,-0.26907439,0.548617,0.42096344,-0.26345211,0.54475,0.42908313,-0.27266632,0.559344,0.47384613,-0.30681415,0.555027,0.4434153,-0.27740125,0.548633,0.4323192,-0.26532616,0.545362,0.42006966,-0.2581593,0.542388,0.50112901,-0.30586206,0.554609,0.47031742,-0.27559726,0.547378,0.46747787,-0.27435321,0.544055,0.48628364,-0.28926645,0.555375
0.49415502,-0.39912976,0.555265,0.47885209,-0.36102877,0.556739,0.47149378,-0.39467143,0.55642,0.43759586,-0.36967178,0.548915,0.40647394,-0.34668655,0.537804,0.39007889,-0.32962487,0.5348,0.44613045,-0.32028417,0.559456,0.41593513,-0.29193529,0.554321,0.4017546,-0.2857766,0.551754,0.40086119,-0.28400776,0.565964,0.46726918,-0.31301173,0.558629,0.44029024,-0.27215369,0.552527,0.42541716,-0.26688777,0.548967,0.43301108,-0.27830219,0.563693,0.48609049,-0.30961232,0.557841,0.45058644,-0.27869631,0.552137,0.4356214,-0.2664131,0.549219,0.42312033,-0.25953355,0.546566,0.51128528,-0.31093071,0.556685,0.49128501,-0.2775999,0.551998,0.48185004,-0.2712553,0.549844,0.49257881,-0.28383826,0.56182
0.49290872,-0.39839664,0.553788,0.47959943,-0.36139346,0.557067,0.47086082,-0.39406193,0.555625,0.43791643,-0.36998663,0.549245,0.40625343,-0.34634064,0.537374,0.39076051,-0.32970375,0.535266,0.44784703,-0.32199821,0.562222,0.41994758,-0.29366062,0.5587,0.40705094,-0.27970029,0.556939,0.40618636,-0.27680643,0.571589,0.46915307,-0.31460388,0.56127,0.44432185,-0.27394703,0.557083,0.42942195,-0.25951874,0.55464,0.43083689,-0.2567136,0.569846,0.48798096,-0.31104596,0.560246,0.4546881,-0.28014482,0.556352,0.44018409,-0.2667148,0.554359,0.42775018,-0.25911803,0.552547,0.51292085,-0.31204433,0.558551,0.49400342,-0.27974922,0.554713,0.48535748,-0.27386136,0.55295,0.49061694,-0.27653633,0.565135
0.4948587,-0.40005819,0.554976,0.48128894,-0.3622249,0.558634,0.47112227,-0.39437313,0.556452,0.43768521,-0.36998769,0.549704,0.40657354,-0.34775247,0.539552,0.3907864,-0.32941661,0.535534,0.44800331,-0.32200939,0.56369,0.41862972,-0.29309306,0.560169,0.40621398,-0.2794067,0.558408,0.40635417,-0.28205503,0.573055,0.46844198,-0.31525411,0.563323,0.44684504,-0.27361156,0.559439,0.43278074,-0.26165781,0.557173,0.43509805,-0.2603795,0.572457,0.48796196,-0.31172033,0.562754,0.45807427,-0.28030565,0.558958,0.44272763,-0.26521799,0.557016,0.43016793,-0.25564127,0.555251,0.51375141,-0.31268371,0.561548,0.49518576,-0.28047662,0.55655,0.48656987,-0.27459774,0.554253,0.49170905,-0.2768948,0.566156
0.49398173,-0.39974859,0.554647,0.48149982,-0.36244065,0.559223,0.47036317,-0.39387654,0.556128,0.43670347,-0.36901211,0.549553,0.40514946,-0.3462307,0.540428,0.39058906,-0.32868492,0.535797,0.44711354,-0.32304626,0.565105,0.41995336,-0.29375675,0.562183,0.40720531,-0.27979978,0.560722,0.40821036,-0.28027232,0.575512,0.46967212,-0.31602286,0.565089,0.44880255,-0.27432317,0.56212,0.43653314,-0.26377584,0.560388,0.43853908,-0.26214218,0.575886,0.48947252,-0.31271508,0.564741,0.46018941,-0.28100989,0.561684,0.44525186,-0.26553772,0.560119,0.4330482,-0.25292244,0.558697,0.51545425,-0.31389055,0.56367,0.49686465,-0.28217864,0.559332,0.48927878,-0.27645115,0.557339,0.49436646,-0.27796715,0.569401
0.49209404,-0.39971944,0.554574,0.48095565,-0.36238014,0.560866,0.46934464,-0.39378216,0.556751,0.43580435,-0.36962837,0.560883,0.40933585,-0.34704261,0.557279,0.39767934,-0.32881976,0.556215,0.44920234,-0.32244808,0.569124,0.42496566,-0.2896295,0.567787,0.41301446,-0.27405682,0.567118,0.41511778,-0.27166443,0.582294,0.47273286,-0.31782441,0.568931,0.45467363,-0.27614329,0.567815,0.44886048,-0.2632422,0.567164,0.45522274,-0.26224821,0.583078,0.49252309,-0.31482725,0.568313,0.47521375,-0.2803143,0.572227,0.4657785,-0.26277207,0.574229,0.46252965,-0.25866826,0.57605,0.51778,-0.31734382,0.566672,0.50089344,-0.28448538,0.563856,0.49377709,-0.27842351,0.562562,0.49970598,-0.27984081,0.574982
0.49072224,-0.40002602,0.555281,0.47652459,-0.36373747,0.561846,0.46785239,-0.3939597,0.558393,0.43481966,-0.37061583,0.563083,0.40798583,-0.34682744,0.557982,0.39619711,-0.32788777,0.555971,0.44990059,-0.32358647,0.571473,0.42684186,-0.29087805,0.570971,0.41586769,-0.2748661,0.570719,0.41792764,-0.27340011,0.586112,0.47210931,-0.31733231,0.570251,0.45412738,-0.27740555,0.569597,0.44095522,-0.25405971,0.569216,0.44436343,-0.24968409,0.585182,0.4891263,-0.31407763,0.568767,0.46458122,-0.27620557,0.568223,0.45283428,-0.25744748,0.567944,0.44200874,-0.24015731,0.567691,0.51208851,-0.31378398,0.56605,0.50091713,-0.28434185,0.56382,0.49436225,-0.27813734,0.562796,0.50008976,-0.27908552,0.575328
0.48341815,-0.39986855,0.55517,0.47402448,-0.36291352,0.562969,0.46494495,-0.39501111,0.561223,0.43366591,-0.37264093,0.567035,0.40607083,-0.34718332,0.560089,0.3960609,-0.32861865,0.558025,0.44988514,-0.32606816,0.577209,0.43230051,-0.29467625,0.579291,0.4223281,-0.27797916,0.580332,0.41243852,-0.26364157,0.581278,0.47001916,-0.31908099,0.572873,0.45704556,-0.27866469,0.574136,0.44525266,-0.25586891,0.574872,0.44890589,-0.25030675,0.591045,0.48669494,-0.31410015,0.568734,0.47260219,-0.27755252,0.570615,0.4630357,-0.25955573,0.571578,0.45410915,-0.24064176,0.572453,0.50640985,-0.31378134,0.56266,0.50179271,-0.28274274,0.563002,0.50012142,-0.26854392,0.563159,0.50703203,-0.26390327,0.576084
0.47423421,-0.40102118,0.557325,0.46887686,-0.36449877,0.564997,0.45700109,-0.39440731,0.563603,0.42533544,-0.37021701,0.567959,0.39954417,-0.34342464,0.561465,0.39300672,-0.32789906,0.56216,0.44971988,-0.32519787,0.579397,0.43312877,-0.28930121,0.581586,0.42514914,-0.27213984,0.58268,0.41552992,-0.26319269,0.583675,0.47089015,-0.31978671,0.574739,0.45792705,-0.27833988,0.575936,0.44800467,-0.25414848,0.576634,0.4523254,-0.24699299,0.592758,0.48741683,-0.31567729,0.570346,0.47530706,-0.27926687,0.573668,0.46694903,-0.26100749,0.575367,0.45951732,-0.24406808,0.576913,0.50527105,-0.32176553,0.563984,0.50172689,-0.28478861,0.564263,0.50048593,-0.270202,0.564391,0.50792455,-0.26372595,0.577271
0.47018965,-0.40249124,0.55955,0.46603328,-0.36635565,0.567198,0.45422107,-0.39533721,0.566408,0.42723495,-0.37218133,0.571761,0.40086983,-0.34491593,0.563792,0.39322466,-0.32805388,0.563767,0.45170021,-0.32339968,0.582252,0.43645114,-0.28959557,0.585077,0.42871671,-0.2724711,0.586489,0.42037203,-0.26105694,0.587773,0.47242493,-0.32062425,0.576849,0.46202767,-0.27889188,0.578182,0.4588323,-0.25144907,0.578959,0.45322863,-0.23534564,0.579515,0.48844648,-0.31718156,0.571837,0.4779448,-0.28048933,0.575893,0.47318891,-0.26129109,0.577968,0.46642066,-0.24635379,0.579854,0.50595178,-0.32416833,0.564736,0.50280388,-0.28621071,0.565084,0.50154629,-0.2713786,0.565244,0.50901187,-0.2647867,0.578026
