sluyters/QuantumLeap/src/datasets/gesture/HandGestureDataset_SHREC2017_csv/Gesture7/finger_1/subject_9_essai_2_skeletons_world.csv
Wrist_x,Wrist_y,Wrist_z,Palm_x,Palm_y,Palm_z,thumb_base_x,thumb_base_y,thumb_base_z,thumb_first_joint_x,thumb_first_joint_y,thumb_first_joint_z,thumb_second_joint_x,thumb_second_joint_y,thumb_second_joint_z,thumb_tip_x,thumb_tip_y,thumb_tip_z,index_base_x,index_base_y,index_base_z,index_first_joint_x,index_first_joint_y,index_first_joint_z,index_second_joint_x,index_second_joint_y,index_second_joint_z,index_tip_x,index_tip_y,index_tip_z,middle_base_x,middle_base_y,middle_base_z,middle_first_joint_x,middle_first_joint_y,middle_first_joint_z,middle_second_joint_x,middle_second_joint_y,middle_second_joint_z,middle_tip_x,middle_tip_y,middle_tip_z,ring_base_x,ring_base_y,ring_base_z,ring_first_joint_x,ring_first_joint_y,ring_first_joint_z,ring_second_joint_x,ring_second_joint_y,ring_second_joint_z,ring_tip_x,ring_tip_y,ring_tip_z,pinky_base_x,pinky_base_y,pinky_base_z,pinky_first_joint_x,pinky_first_joint_y,pinky_first_joint_z,pinky_second_joint_x,pinky_second_joint_y,pinky_second_joint_z,pinky_tip_x,pinky_tip_y,pinky_tip_z,
0.60711327,-0.47957436,0.623034,0.58217611,-0.42974522,0.597839,0.58777374,-0.46137758,0.622413,0.55489772,-0.44721908,0.606504,0.52055728,-0.42162489,0.587133,0.50682996,-0.39878766,0.581308,0.53824175,-0.36126968,0.575358,0.5227981,-0.32578383,0.576632,0.51475931,-0.30734957,0.577269,0.50595764,-0.28878004,0.577848,0.5539756,-0.36364117,0.567707,0.50286998,-0.31894149,0.534116,0.50483597,-0.35086749,0.553265,0.51577588,-0.38122338,0.571427,0.5699663,-0.37133711,0.563952,0.53258409,-0.31205891,0.534234,0.50457541,-0.31737748,0.519029,0.50823729,-0.34078957,0.524475,0.59412821,-0.39110378,0.564125,0.54767476,-0.33948263,0.537107,0.52199933,-0.32695167,0.524694,0.50217469,-0.32691939,0.51374
0.60646162,-0.48043501,0.621683,0.57954312,-0.4280714,0.593932,0.58608373,-0.46402839,0.621037,0.55461196,-0.44727344,0.605057,0.5215837,-0.42322015,0.5873,0.50825341,-0.40285771,0.581128,0.53461225,-0.35869335,0.569221,0.5191473,-0.32278981,0.569669,0.51036155,-0.30491369,0.569893,0.50171841,-0.28874377,0.570096,0.54906458,-0.36040079,0.560744,0.49710121,-0.31423522,0.524977,0.49755786,-0.34514709,0.541983,0.51788858,-0.37692904,0.560259,0.56437301,-0.36771096,0.556567,0.50504118,-0.32551163,0.525062,0.47981317,-0.3336327,0.508943,0.48871093,-0.35684125,0.512478,0.58846916,-0.38735519,0.556709,0.55046655,-0.33274304,0.53188,0.52689562,-0.32444719,0.520472,0.50310022,-0.32431945,0.510407
0.60534528,-0.47931259,0.618474,0.58973157,-0.42828334,0.591038,0.58523909,-0.46465991,0.617186,0.56317726,-0.44596036,0.600226,0.52849378,-0.42143742,0.580711,0.51459654,-0.40152726,0.573688,0.54084809,-0.35807692,0.565784,0.52591453,-0.32130719,0.564956,0.51671184,-0.30377285,0.564543,0.50725583,-0.28842271,0.564167,0.55641862,-0.36004697,0.558225,0.50692769,-0.31168862,0.522467,0.5094875,-0.34586835,0.540161,0.5272969,-0.37584587,0.558649,0.57277988,-0.36758911,0.554772,0.5133692,-0.32422214,0.522982,0.48796204,-0.33217347,0.506717,0.49724054,-0.35555657,0.510633,0.59832374,-0.38755856,0.555709,0.55688509,-0.33268169,0.52986,0.53279532,-0.32535812,0.517983,0.51263458,-0.32523882,0.507504
0.6120699,-0.49089615,0.622238,0.59560403,-0.44080554,0.594548,0.58955866,-0.46950506,0.616256,0.56362322,-0.44953595,0.592616,0.53230853,-0.41820014,0.568783,0.52283222,-0.39644389,0.561566,0.54334939,-0.3657628,0.563134,0.52820756,-0.3302738,0.559186,0.52037916,-0.31178123,0.557212,0.51310289,-0.29450505,0.555418,0.56739213,-0.37163173,0.561432,0.52264802,-0.31644499,0.523998,0.53219243,-0.35036287,0.543162,0.55118275,-0.38265219,0.562719,0.59046853,-0.38248896,0.562825,0.53829893,-0.33103735,0.527599,0.51343336,-0.33479429,0.509576,0.51981732,-0.35937924,0.513522,0.62331089,-0.40655804,0.569505,0.5946438,-0.34735363,0.545045,0.57646461,-0.34308451,0.533807,0.56034163,-0.33935663,0.52389
0.61140577,-0.48970878,0.621925,0.59319551,-0.43796753,0.591298,0.58326929,-0.46603986,0.611692,0.55601778,-0.44346106,0.582404,0.52683211,-0.41497245,0.555885,0.51360907,-0.39031858,0.547324,0.53698753,-0.35916117,0.551978,0.52003038,-0.3229411,0.541794,0.51139291,-0.30416396,0.536702,0.50343974,-0.28666992,0.532073,0.56338591,-0.3680702,0.554672,0.52096374,-0.32351479,0.513783,0.5308375,-0.35551228,0.530796,0.54740385,-0.39060628,0.550927,0.59056471,-0.3818407,0.559979,0.55491663,-0.31902085,0.523741,0.53080819,-0.31312487,0.5052,0.53167424,-0.33627517,0.509211,0.63155204,-0.4110311,0.571796,0.59796173,-0.34828143,0.541014,0.5793956,-0.34443021,0.526871,0.56298999,-0.34107467,0.514392
0.61939484,-0.49602563,0.620478,0.60380528,-0.44092171,0.591537,0.59006248,-0.47114875,0.610946,0.56678388,-0.44656612,0.582629,0.53489726,-0.41517188,0.554569,0.52501513,-0.39360012,0.544189,0.54834904,-0.36358521,0.554552,0.54067562,-0.32614439,0.554643,0.53667289,-0.30662449,0.554688,0.53293316,-0.28839097,0.554729,0.57755675,-0.37292165,0.556924,0.5336198,-0.32976665,0.517643,0.54601757,-0.3659634,0.535956,0.56465472,-0.39849394,0.555913,0.60476638,-0.38658327,0.561797,0.56097791,-0.32690373,0.523553,0.5364564,-0.33190447,0.503986,0.53885695,-0.35428599,0.506514,0.64211994,-0.41378614,0.572795,0.60721763,-0.35221529,0.542877,0.58951244,-0.34985064,0.52913,0.57386955,-0.34782506,0.517001
0.62043536,-0.49614395,0.620191,0.60375031,-0.43959309,0.589528,0.58954809,-0.46993172,0.608898,0.56542518,-0.44420959,0.578324,0.53791242,-0.41498354,0.549544,0.52428382,-0.39178319,0.538551,0.55039062,-0.36089934,0.548834,0.53669382,-0.32285727,0.538413,0.52961232,-0.30381515,0.533202,0.52280359,-0.28739775,0.528465,0.58122281,-0.37265131,0.552857,0.53968847,-0.33111692,0.511791,0.55088159,-0.36770062,0.528542,0.5681399,-0.39950239,0.548655,0.60960018,-0.38827318,0.559263,0.5672371,-0.32917649,0.518824,0.54158473,-0.33426116,0.498134,0.54064919,-0.3548185,0.499006,0.64795786,-0.41766694,0.572377,0.61356494,-0.35528891,0.540076,0.59556178,-0.35328013,0.525235,0.57966975,-0.35155478,0.51214
0.61801189,-0.49480068,0.615602,0.60343235,-0.43838815,0.586145,0.58843822,-0.46924634,0.605554,0.5715542,-0.44424959,0.576563,0.54297697,-0.4094972,0.549224,0.52934604,-0.38056814,0.534618,0.55604683,-0.35770968,0.548064,0.54753026,-0.32401423,0.541368,0.54260428,-0.30788274,0.53802,0.53806576,-0.2926674,0.534976,0.58526155,-0.36748358,0.550917,0.53771885,-0.33084865,0.511093,0.54972122,-0.36712828,0.528974,0.56796164,-0.39950116,0.548992,0.61260394,-0.38196424,0.556237,0.57388277,-0.3280571,0.517332,0.54242189,-0.33385328,0.497427,0.5410701,-0.35489747,0.499483,0.65045819,-0.41126731,0.567856,0.5976806,-0.36577432,0.532425,0.58065118,-0.37256201,0.516147,0.56923552,-0.37570814,0.501783
0.62118132,-0.49683019,0.608743,0.61419072,-0.44364588,0.58139,0.59084394,-0.47196582,0.59631,0.57120034,-0.43985177,0.564713,0.5445374,-0.40385808,0.537923,0.53415389,-0.37729685,0.525546,0.55387941,-0.36109602,0.542103,0.54884292,-0.32751082,0.536185,0.54635527,-0.3098214,0.533226,0.54411323,-0.29316765,0.530536,0.58797584,-0.37124229,0.548678,0.55058743,-0.33528277,0.510515,0.57128758,-0.36152805,0.528959,0.59106896,-0.39759558,0.548553,0.61938532,-0.3858178,0.55685,0.58533668,-0.33033537,0.518354,0.56190001,-0.33662244,0.498659,0.56070627,-0.3587101,0.501153,0.66212769,-0.41477193,0.571437,0.61559395,-0.36716532,0.53657,0.59427169,-0.34550689,0.520549,0.57675223,-0.34558588,0.506414
0.63655618,-0.50022074,0.599537,0.62810908,-0.43882727,0.575166,0.61341016,-0.47393762,0.587764,0.58506281,-0.4341513,0.55733,0.55939671,-0.39885396,0.531365,0.5501136,-0.37326335,0.520108,0.56982071,-0.35965993,0.539281,0.56936801,-0.32508088,0.537133,0.56919502,-0.30679717,0.536058,0.5690734,-0.28955109,0.535082,0.60449031,-0.36958356,0.546019,0.57202038,-0.33430286,0.510741,0.5975619,-0.36332998,0.530962,0.61810212,-0.39924958,0.55007,0.63608246,-0.38371078,0.554025,0.60564619,-0.32998148,0.5182,0.58456298,-0.33730092,0.499871,0.58553103,-0.36058355,0.504265,0.67846711,-0.41158432,0.567873,0.63537345,-0.36598635,0.535257,0.61559848,-0.34516956,0.520271,0.60341592,-0.34388786,0.507048
0.67360873,-0.49937057,0.608023,0.65089605,-0.43998761,0.582061,0.64457917,-0.47886462,0.601598,0.61505418,-0.4642621,0.57751,0.57245573,-0.43521476,0.549375,0.54853207,-0.40829904,0.53324,0.59558077,-0.36707196,0.551573,0.58016017,-0.32942631,0.535029,0.5724982,-0.31007646,0.526757,0.56556296,-0.29214458,0.519236,0.62330071,-0.37168101,0.551011,0.58574372,-0.33244594,0.515034,0.5638646,-0.30941749,0.494047,0.56930948,-0.32549117,0.49826,0.64906079,-0.38126565,0.553168,0.62773802,-0.32851003,0.51747,0.60248602,-0.33431144,0.499205,0.59805361,-0.3559851,0.503752,0.68459989,-0.40330646,0.560431,0.63932186,-0.37220354,0.528765,0.61850579,-0.35789602,0.514217,0.60573323,-0.36179752,0.501379
0.67206748,-0.49344669,0.600829,0.66110386,-0.43981759,0.58088,0.64608021,-0.47576966,0.597262,0.6267727,-0.46401779,0.577719,0.59355545,-0.44262823,0.558805,0.57848009,-0.42276114,0.551789,0.61343331,-0.37407779,0.55919,0.59454797,-0.3305278,0.538747,0.58509005,-0.31002282,0.528525,0.57652561,-0.29112562,0.519233,0.64011373,-0.37705527,0.557022,0.61077646,-0.338024,0.527359,0.59370021,-0.3185407,0.510055,0.60321322,-0.33812884,0.517584,0.66431812,-0.38484529,0.557251,0.63091493,-0.35892705,0.529509,0.61864384,-0.37445972,0.515315,0.63095625,-0.39290841,0.524034,0.69669052,-0.40383934,0.561153,0.65680162,-0.3643348,0.534902,0.63877202,-0.34726776,0.522841,0.62287894,-0.33227568,0.512199
0.64070308,-0.50119062,0.598792,0.64356855,-0.44501523,0.575025,0.62313782,-0.47288554,0.589003,0.61901505,-0.43363436,0.560975,0.61499865,-0.40551379,0.529186,0.61917993,-0.38314557,0.515291,0.60219452,-0.36331296,0.54217,0.57482621,-0.31482596,0.510255,0.57934003,-0.30064799,0.510289,0.58368326,-0.28699865,0.51032,0.6329417,-0.37807114,0.5466,0.61101325,-0.34061028,0.512104,0.58345251,-0.35086541,0.491982,0.58138317,-0.37196072,0.497056,0.65992479,-0.39607186,0.552644,0.62392411,-0.38788963,0.518274,0.58774054,-0.39379333,0.500689,0.58025804,-0.40522001,0.506142,0.69450598,-0.42824985,0.564078,0.6634314,-0.37758537,0.532535,0.64910396,-0.3544776,0.518042,0.64136381,-0.3367751,0.509168
0.67731977,-0.49919907,0.606793,0.66083943,-0.44309494,0.581313,0.64506758,-0.47591351,0.596541,0.63386412,-0.44482809,0.567717,0.61927524,-0.41350985,0.535881,0.62160985,-0.38942931,0.519733,0.60833716,-0.36891938,0.5464,0.58016552,-0.31680382,0.512985,0.58909883,-0.30071745,0.514171,0.59541135,-0.28503999,0.51525,0.64003669,-0.38146273,0.550842,0.62175666,-0.33461869,0.514656,0.5965321,-0.34411099,0.493548,0.5945104,-0.36557529,0.49763,0.67101561,-0.39585569,0.557069,0.63732191,-0.34621795,0.5211,0.61874487,-0.35586014,0.502697,0.62153884,-0.37745846,0.507079,0.70836071,-0.42242149,0.569029,0.67648951,-0.37134264,0.536139,0.66199449,-0.34883959,0.521027,0.65336082,-0.33290181,0.510584
0.63852877,-0.48929794,0.582473,0.64921853,-0.43555109,0.565351,0.61356987,-0.4607074,0.570907,0.63011314,-0.42014412,0.554631,0.62847372,-0.39305124,0.521686,0.63368457,-0.37199779,0.506946,0.60529383,-0.3568693,0.53597,0.58523145,-0.3121463,0.508069,0.59515718,-0.2997735,0.511242,0.6045803,-0.28761073,0.514126,0.64144328,-0.37342972,0.544874,0.62629599,-0.33659292,0.516843,0.60705203,-0.34824139,0.500491,0.60918469,-0.37258091,0.508087,0.67295498,-0.39261205,0.553931,0.65541771,-0.35156422,0.524287,0.63894493,-0.36434243,0.50912,0.64164647,-0.38708787,0.516848,0.70977029,-0.42356852,0.567696,0.684077,-0.37425758,0.540508,0.67235892,-0.35207121,0.528016,0.66715247,-0.34656572,0.516993
0.63311438,-0.48296322,0.572365,0.64658215,-0.43461054,0.560199,0.61637832,-0.45618742,0.561105,0.63652207,-0.42259824,0.551045,0.63679421,-0.39514233,0.518732,0.64570782,-0.37629017,0.50731,0.61094451,-0.36196255,0.535474,0.59994646,-0.31538182,0.511103,0.61479286,-0.30209019,0.515994,0.62883663,-0.28902606,0.52044,0.64743073,-0.3799156,0.545649,0.64756603,-0.34534782,0.522811,0.63414884,-0.3579074,0.509489,0.63768035,-0.38392135,0.518971,0.67858404,-0.39984221,0.555253,0.6714372,-0.35509658,0.530134,0.66117892,-0.36757925,0.517282,0.66557875,-0.39415328,0.526904,0.71698734,-0.43303318,0.568758,0.6996048,-0.38343648,0.545578,0.69159464,-0.36071345,0.534928,0.68971127,-0.35720171,0.525531
0.64849786,-0.48431369,0.571802,0.65608146,-0.43165512,0.560125,0.61992929,-0.45507174,0.561911,0.64316587,-0.41801163,0.553492,0.64197704,-0.39538245,0.521894,0.65211645,-0.37758615,0.511042,0.62305727,-0.3581471,0.537553,0.61210098,-0.31306773,0.514341,0.62509464,-0.30123971,0.517597,0.63333422,-0.29010574,0.520557,0.65819679,-0.3760956,0.54616,0.65586799,-0.3427886,0.5239,0.63756501,-0.35709451,0.510914,0.64139162,-0.38328729,0.521028,0.68791612,-0.3959317,0.554424,0.67981903,-0.35270237,0.530334,0.66471327,-0.36681426,0.51801,0.67006445,-0.39382975,0.528465,0.72391866,-0.42880458,0.566264,0.70646213,-0.38021024,0.54384,0.69843612,-0.35789785,0.533537,0.69160303,-0.35562409,0.524447
0.64125923,-0.47596723,0.562929,0.66147947,-0.43288143,0.562025,0.62378024,-0.45267047,0.559837,0.67105697,-0.43258809,0.571034,0.68491184,-0.41384228,0.549909,0.70600765,-0.40412467,0.548877,0.64875633,-0.371078,0.557334,0.66288413,-0.33406976,0.547402,0.68707071,-0.32339617,0.556984,0.71003403,-0.31263978,0.565696,0.67897616,-0.38583287,0.560945,0.69230776,-0.35913293,0.55098,0.68771632,-0.37715846,0.545167,0.69418837,-0.40891215,0.560118,0.70609613,-0.40160359,0.564008,0.71045543,-0.39949037,0.553126,0.69856094,-0.41381184,0.547558,0.70206611,-0.44458356,0.563665,0.73262652,-0.42850229,0.567774,0.72756236,-0.38343988,0.556492,0.72529396,-0.36250888,0.551308,0.72807184,-0.35945531,0.546734
0.65495125,-0.47608265,0.566341,0.6773903,-0.43290661,0.563788,0.63821678,-0.4519292,0.563019,0.68674332,-0.43426539,0.574778,0.70252736,-0.41645506,0.554931,0.72793769,-0.40684535,0.553958,0.66187761,-0.36980623,0.557384,0.67152205,-0.33200512,0.545799,0.69620728,-0.32136518,0.555439,0.71964937,-0.31063415,0.564202,0.69210992,-0.38417286,0.560734,0.70326821,-0.35530625,0.548941,0.69505921,-0.37385325,0.542061,0.70460853,-0.40427481,0.556512,0.71633007,-0.40033493,0.563749,0.71926475,-0.39695094,0.551212,0.70653861,-0.41054608,0.544799,0.70966864,-0.44081006,0.5604,0.74335914,-0.42738598,0.567758,0.73643885,-0.38130417,0.555005,0.7333026,-0.35997282,0.549146,0.73550037,-0.35650208,0.543976
0.66021318,-0.47508228,0.568865,0.68347838,-0.43461974,0.565777,0.65068311,-0.45376949,0.565604,0.69723277,-0.43599397,0.575897,0.71143196,-0.41579482,0.554923,0.73585836,-0.40567431,0.553147,0.67049872,-0.37144684,0.55899,0.68042362,-0.33334702,0.54691,0.7055869,-0.3226841,0.556396,0.72951936,-0.31198819,0.56502,0.70002463,-0.38553441,0.562083,0.71344291,-0.35714465,0.549721,0.70665774,-0.37391503,0.54251,0.71557525,-0.40401369,0.556813,0.72372388,-0.40144725,0.564941,0.73643033,-0.36680667,0.551945,0.73273336,-0.37972126,0.545296,0.74322429,-0.41285349,0.560764,0.75035121,-0.42818103,0.568863,0.74732678,-0.39216069,0.555689,0.74621994,-0.37509621,0.549636,0.74876389,-0.37819622,0.544295
0.67551922,-0.47756818,0.570224,0.68980571,-0.4338774,0.567045,0.6530106,-0.45285861,0.5654,0.70430303,-0.43841118,0.579553,0.72873145,-0.41865123,0.565281,0.75534804,-0.40597233,0.567956,0.67086414,-0.36921962,0.558202,0.67884608,-0.33108199,0.544889,0.70296454,-0.3203502,0.553691,0.72275255,-0.30941721,0.561693,0.70230073,-0.38416402,0.563243,0.71723075,-0.35718523,0.550567,0.71609136,-0.37453651,0.543173,0.72142246,-0.40481167,0.557186,0.72761909,-0.40083567,0.567713,0.74597193,-0.38361478,0.553814,0.72389476,-0.39946111,0.546704,0.73177466,-0.43024006,0.561673,0.75585205,-0.42541768,0.573546,0.75420933,-0.3935389,0.559723,0.7562863,-0.37640959,0.553606,0.75712847,-0.38093574,0.548208
0.68373369,-0.47587611,0.57098,0.70194603,-0.42861964,0.567398,0.66113652,-0.45143004,0.56594,0.72222108,-0.43657291,0.582746,0.74887246,-0.41958425,0.571907,0.78032856,-0.41111294,0.575674,0.68215822,-0.36380365,0.557934,0.68922585,-0.32585597,0.543968,0.71420032,-0.31681332,0.552758,0.73111223,-0.30904133,0.560748,0.713366,-0.37835033,0.563113,0.7301126,-0.35253365,0.549973,0.72620475,-0.37008413,0.542308,0.73703443,-0.40064077,0.556162,0.73848773,-0.39469156,0.567738,0.75899344,-0.37412258,0.553355,0.73933691,-0.38939382,0.545997,0.74666998,-0.416169,0.560785,0.76686364,-0.42197887,0.573826,0.76644514,-0.38822892,0.559589,0.76665876,-0.37221507,0.553048,0.77017228,-0.37641148,0.547276
0.69373793,-0.47503678,0.573072,0.71302981,-0.42979887,0.569224,0.67624813,-0.44963241,0.568072,0.72680048,-0.4342665,0.579315,0.74212444,-0.41184026,0.560128,0.76197,-0.39859689,0.559789,0.69262053,-0.36478239,0.559581,0.69901154,-0.32645997,0.545432,0.72218877,-0.31648558,0.552861,0.74075494,-0.30756461,0.559614,0.72403964,-0.37931967,0.564621,0.73956457,-0.34633357,0.551197,0.73824849,-0.36019835,0.543367,0.75151208,-0.39068471,0.557153,0.74940281,-0.39568531,0.569158,0.76924748,-0.37456931,0.55455,0.74916235,-0.38966841,0.547076,0.75572099,-0.41993746,0.561805,0.77817072,-0.42306949,0.575193,0.77694199,-0.38879528,0.560747,0.7767661,-0.37254669,0.55411,0.77578272,-0.37681138,0.548254
0.69795505,-0.47149389,0.571388,0.71090421,-0.4275963,0.567883,0.67606185,-0.44822969,0.567039,0.72252025,-0.43158685,0.576821,0.73474794,-0.40829114,0.555217,0.75412403,-0.39435832,0.553235,0.69171267,-0.36362844,0.559362,0.701479,-0.32690006,0.546392,0.72088979,-0.31457032,0.550322,0.73962756,-0.30290629,0.553894,0.72250573,-0.37724372,0.563692,0.73583944,-0.34049056,0.550724,0.73373854,-0.3603336,0.543159,0.73745309,-0.38799418,0.557167,0.74725063,-0.39281928,0.567609,0.75263775,-0.35035795,0.553654,0.75346415,-0.36500834,0.546514,0.76921978,-0.39836652,0.561549,0.7751157,-0.41918739,0.572853,0.77368355,-0.38582688,0.558926,0.77091963,-0.37061048,0.552528,0.77439335,-0.37493546,0.546882
0.69544757,-0.47278122,0.573246,0.70511763,-0.42415946,0.563215,0.67767851,-0.44783304,0.569303,0.69698454,-0.41831592,0.566959,0.69332764,-0.39275305,0.539237,0.70603114,-0.37883941,0.530618,0.69168596,-0.35800304,0.54959,0.68890748,-0.32120054,0.531449,0.68597852,-0.30003234,0.522742,0.68772467,-0.28273357,0.514827,0.71913571,-0.37436485,0.55122,0.72725143,-0.32682779,0.531399,0.70971163,-0.32876856,0.519836,0.71208122,-0.35255,0.531734,0.74129889,-0.39249018,0.553574,0.73139622,-0.33521328,0.53396,0.72287085,-0.33311913,0.523925,0.73620306,-0.36218404,0.536971,0.7660791,-0.42235589,0.558168,0.73009602,-0.40838678,0.539121,0.69720909,-0.40885256,0.530369,0.69113519,-0.42249508,0.539689
0.69391622,-0.47397939,0.574199,0.70562355,-0.42475674,0.563962,0.67833407,-0.44763438,0.570709,0.69505685,-0.41772932,0.566324,0.68993057,-0.39135307,0.537621,0.7020445,-0.37724358,0.528018,0.69218889,-0.3587402,0.550731,0.6901135,-0.31991774,0.532756,0.69235108,-0.29839832,0.526225,0.69615439,-0.28180558,0.520288,0.71887484,-0.37468716,0.55172,0.72669657,-0.32695465,0.531767,0.70885318,-0.32875781,0.520128,0.71113595,-0.35251612,0.531987,0.74040323,-0.3924664,0.553566,0.73052361,-0.33519177,0.534028,0.72194335,-0.33282497,0.524032,0.73535318,-0.36176609,0.537098,0.76446007,-0.42192315,0.5576,0.72818722,-0.40780762,0.53858,0.69535571,-0.40828437,0.529841,0.68932161,-0.42194157,0.539166
0.69499641,-0.47405571,0.5755,0.70492082,-0.42539134,0.5649,0.6785618,-0.44729146,0.571759,0.69503654,-0.41858824,0.564977,0.6879515,-0.3921402,0.535114,0.69799054,-0.37786756,0.524425,0.69162611,-0.35836125,0.551038,0.68923182,-0.31861016,0.532617,0.69165543,-0.29858633,0.526342,0.69583022,-0.28097997,0.520638,0.71593378,-0.37357142,0.552222,0.72585572,-0.32642817,0.531847,0.70768325,-0.32807929,0.519961,0.7097393,-0.35171603,0.531662,0.74034769,-0.39236643,0.554267,0.72989665,-0.33476633,0.534267,0.72102348,-0.33218358,0.524035,0.73418559,-0.3609433,0.536912,0.76480576,-0.42206722,0.5586,0.72801417,-0.40766962,0.539191,0.69495252,-0.40803228,0.530274,0.6887084,-0.42157428,0.539451
0.69598732,-0.47421557,0.576602,0.70561928,-0.42569933,0.56558,0.67903193,-0.44724386,0.572719,0.69375353,-0.4178408,0.5641,0.68623936,-0.39129678,0.53352,0.69557246,-0.37787837,0.521987,0.69145186,-0.35818859,0.551176,0.68876842,-0.31790175,0.532346,0.69188601,-0.29828289,0.526409,0.6962896,-0.28077099,0.521011,0.71639588,-0.37365986,0.552399,0.7251664,-0.32626304,0.531563,0.70544093,-0.32801485,0.519409,0.70808065,-0.35167239,0.530936,0.74029659,-0.3922893,0.554518,0.72930927,-0.3344036,0.53407,0.7202111,-0.33168263,0.523608,0.73314632,-0.36029511,0.536296,0.76495268,-0.42212177,0.559016,0.72778283,-0.40751301,0.53922,0.6944919,-0.40774361,0.530124,0.68804537,-0.42116017,0.539152
0.69786151,-0.4750793,0.57838,0.70653982,-0.42617215,0.56637,0.68002058,-0.44758926,0.573949,0.69480176,-0.41769248,0.565675,0.69012345,-0.39220751,0.535468,0.70080493,-0.37919503,0.523997,0.69049223,-0.35761447,0.550422,0.68658568,-0.31652281,0.530485,0.68999401,-0.29747115,0.524719,0.69392577,-0.28220029,0.519478,0.71785091,-0.37400362,0.552007,0.72237317,-0.32713608,0.530055,0.69876753,-0.33429501,0.51725,0.70062878,-0.354299,0.528342,0.74018662,-0.39229129,0.554523,0.72796194,-0.33391747,0.532905,0.71791138,-0.33129339,0.521845,0.72997027,-0.35966548,0.534034,0.76564693,-0.42263967,0.559668,0.72728622,-0.40720679,0.53888,0.69338645,-0.40707394,0.529329,0.68654861,-0.42014271,0.537965
0.70077761,-0.44468611,0.581284,0.72342055,-0.41019397,0.574296,0.69095852,-0.41939068,0.580706,0.70610103,-0.38176343,0.573432,0.72176318,-0.35201139,0.565588,0.73418016,-0.33115359,0.560147,0.72879073,-0.3519982,0.567548,0.73344552,-0.32610924,0.554083,0.73745582,-0.31286449,0.547985,0.74194259,-0.30046713,0.542633,0.74865013,-0.37067956,0.565939,0.75451764,-0.34050893,0.549958,0.73224605,-0.35336412,0.540635,0.73380046,-0.37265449,0.553832,0.7633527,-0.38974002,0.56532,0.75861093,-0.37584009,0.550358,0.74284857,-0.39495764,0.542703,0.7503801,-0.41896436,0.557442,0.77741649,-0.41898332,0.565865,0.75846671,-0.39974183,0.55068,0.73005287,-0.40539201,0.543703,0.72741765,-0.42305372,0.554326
0.7007318,-0.44465704,0.581246,0.7230547,-0.40985969,0.573881,0.69144711,-0.41966568,0.581097,0.70901433,-0.3831914,0.575558,0.72663913,-0.35417053,0.568997,0.73919168,-0.33309433,0.56444,0.72886633,-0.35173658,0.567351,0.73400245,-0.32373883,0.553929,0.74513222,-0.30846834,0.552263,0.75529001,-0.29595753,0.550749,0.7478866,-0.36998756,0.565073,0.75461306,-0.33952171,0.5488,0.7302965,-0.35228313,0.539308,0.73149836,-0.3723206,0.552361,0.76189902,-0.38868889,0.56394,0.758576,-0.37782835,0.547596,0.73792417,-0.39257225,0.539234,0.7437831,-0.41691105,0.553482,0.77518936,-0.41751147,0.56395,0.75570082,-0.39836688,0.548672,0.72721678,-0.40395916,0.541653,0.72447543,-0.42152797,0.552193
0.70416894,-0.44733033,0.584488,0.7247244,-0.41118822,0.575746,0.69342351,-0.42162685,0.583408,0.70986923,-0.3843976,0.577096,0.72806255,-0.35545092,0.571275,0.74063212,-0.33421551,0.566903,0.72695418,-0.35147624,0.566851,0.72302629,-0.32365742,0.551719,0.75419107,-0.3241043,0.572257,0.79012221,-0.32148919,0.590928,0.74723682,-0.369924,0.56529,0.74551999,-0.33961907,0.547379,0.71847018,-0.35471299,0.536931,0.72456123,-0.37542883,0.549462,0.76257727,-0.38896918,0.564888,0.75512277,-0.37610841,0.546966,0.73347075,-0.39039006,0.537797,0.73970651,-0.41546223,0.551481,0.77789148,-0.41854314,0.566008,0.75541798,-0.39768763,0.549219,0.72621845,-0.40320633,0.541505,0.72305351,-0.42070578,0.551555
0.70485925,-0.4478498,0.58536,0.72435208,-0.41109369,0.5758,0.69251875,-0.42127327,0.583078,0.70826332,-0.3834167,0.576064,0.7264958,-0.35427292,0.570277,0.73865242,-0.332974,0.565706,0.72342129,-0.35016764,0.56468,0.71887066,-0.31909301,0.548067,0.75833178,-0.31551699,0.569129,0.78800285,-0.31694809,0.588463,0.74543307,-0.36925465,0.564367,0.73792461,-0.34292825,0.545352,0.70525099,-0.35693171,0.534259,0.71084979,-0.37534276,0.546448,0.76242045,-0.38895896,0.565073,0.7521468,-0.37364982,0.546571,0.73044187,-0.38756815,0.537105,0.73596446,-0.41530192,0.550567,0.78000212,-0.41955905,0.567645,0.75409014,-0.39511587,0.549675,0.72461268,-0.40108374,0.541418,0.72221128,-0.41978793,0.5511
0.70399945,-0.44719516,0.584826,0.72348951,-0.41048025,0.575374,0.69211554,-0.42105931,0.583056,0.7093144,-0.38375321,0.57711,0.72922098,-0.3551227,0.572559,0.74209883,-0.33417018,0.568586,0.72317742,-0.35013978,0.564995,0.71950167,-0.31629921,0.548834,0.75803439,-0.31497623,0.569917,0.78968253,-0.31465795,0.589084,0.74455865,-0.36870907,0.564069,0.73190192,-0.34590377,0.545274,0.69841289,-0.36109986,0.53431,0.70531644,-0.37901894,0.546556,0.76079105,-0.38769808,0.564262,0.75130216,-0.37238347,0.546211,0.73000391,-0.38641755,0.536976,0.73509873,-0.41409879,0.550573,0.77776433,-0.41718371,0.566209,0.752335,-0.39333998,0.548552,0.72314582,-0.39947677,0.54044,0.72080612,-0.41843014,0.550208
0.70439113,-0.44812778,0.585242,0.72224344,-0.41035402,0.574849,0.69183275,-0.42178869,0.583188,0.7098892,-0.38494363,0.578353,0.73288595,-0.3572917,0.575827,0.74626769,-0.33645466,0.57236,0.71274529,-0.3495638,0.563302,0.71314726,-0.31493218,0.546247,0.74833886,-0.31687553,0.567161,0.78562838,-0.31380281,0.586174,0.73787762,-0.36662087,0.562421,0.72737522,-0.34521387,0.542599,0.69400163,-0.36033687,0.531036,0.69941744,-0.37788162,0.542906,0.75632436,-0.38587507,0.562744,0.74676329,-0.37025703,0.543223,0.72503266,-0.38382419,0.533235,0.72975863,-0.41124596,0.546279,0.7752817,-0.41600408,0.565016,0.74930884,-0.39181235,0.546505,0.7199294,-0.39783563,0.537999,0.71724961,-0.41640283,0.547445
0.70706401,-0.45101953,0.587928,0.71692344,-0.41229272,0.574357,0.69243859,-0.4234437,0.584373,0.70466607,-0.38705624,0.576792,0.72995296,-0.35888873,0.575904,0.74504333,-0.3374049,0.572629,0.70270079,-0.3474605,0.558173,0.69908098,-0.31188106,0.53773,0.73708557,-0.31082758,0.557974,0.77325627,-0.31178067,0.576378,0.72604487,-0.36552761,0.558127,0.71502847,-0.34253279,0.534753,0.68085987,-0.35615305,0.521118,0.68046144,-0.37752514,0.531635,0.74503716,-0.38480681,0.559458,0.73508801,-0.36679036,0.536361,0.71304931,-0.37903824,0.524544,0.71480389,-0.40336104,0.536076,0.76872181,-0.41490216,0.563495,0.74120571,-0.38983366,0.541888,0.71128232,-0.39470683,0.531961,0.70697382,-0.41101976,0.540204
0.70266761,-0.44950031,0.584942,0.70988518,-0.41184942,0.572716,0.68557261,-0.42314207,0.581278,0.69109525,-0.38518735,0.57211,0.71535444,-0.35674443,0.571706,0.7329656,-0.33677105,0.570124,0.69105685,-0.34593467,0.557552,0.68862301,-0.31106324,0.537999,0.72738383,-0.30990329,0.558524,0.76908626,-0.3086467,0.577182,0.71563594,-0.36327071,0.558095,0.70840803,-0.34185805,0.536065,0.68116044,-0.35770859,0.523214,0.68152155,-0.37870547,0.534281,0.73578252,-0.38191944,0.559775,0.73165839,-0.36133024,0.538098,0.71574549,-0.37334818,0.527007,0.71862708,-0.40469601,0.539173,0.75919663,-0.41217516,0.563976,0.7393109,-0.39052199,0.543344,0.71034828,-0.39698055,0.533865,0.70924451,-0.41302809,0.542541
0.69952351,-0.44907248,0.583418,0.70321058,-0.41138663,0.572026,0.6782418,-0.42483178,0.578953,0.68619734,-0.38516291,0.570353,0.70251595,-0.35568553,0.567224,0.71918,-0.33396689,0.564732,0.68803237,-0.34514534,0.556565,0.6831356,-0.31266869,0.537056,0.72143573,-0.3130285,0.557671,0.75784971,-0.3118196,0.576413,0.71416404,-0.36329421,0.558401,0.70464013,-0.34568126,0.537078,0.67471475,-0.3614972,0.52464,0.67841571,-0.38063988,0.53597,0.7354673,-0.38265528,0.561062,0.72880255,-0.36584355,0.539957,0.71228187,-0.3792631,0.529159,0.71980398,-0.40751982,0.541576,0.75992791,-0.41378034,0.566264,0.73417854,-0.39351966,0.54594,0.70576422,-0.40060652,0.536602,0.70854355,-0.41822162,0.545426
0.67307408,-0.43978576,0.570764,0.68642533,-0.39610525,0.565154,0.65075292,-0.40259505,0.567044,0.67476415,-0.36889573,0.561575,0.69612855,-0.33864102,0.559527,0.71287722,-0.32048161,0.558338,0.68437256,-0.33705489,0.555616,0.68866133,-0.31494332,0.540956,0.72871891,-0.31769218,0.562394,0.76689614,-0.3188498,0.581884,0.70949699,-0.35793144,0.558446,0.71015358,-0.34410141,0.54331,0.68089305,-0.36062133,0.534481,0.68170081,-0.38469439,0.54794,0.72891868,-0.37884018,0.561341,0.73442684,-0.36852166,0.545795,0.71550926,-0.38212786,0.537842,0.71936345,-0.41231821,0.552439,0.74913881,-0.41039287,0.565766,0.73692846,-0.38974171,0.550342,0.71179709,-0.39914544,0.543255,0.71282056,-0.42297153,0.553843
0.66029003,-0.43049372,0.571328,0.67576521,-0.39620267,0.565293,0.64536403,-0.40264262,0.567111,0.66643405,-0.37156998,0.561362,0.69275114,-0.34434181,0.561011,0.71496164,-0.32819695,0.561952,0.67309211,-0.336535,0.554759,0.67657702,-0.31406306,0.539437,0.71619284,-0.31879659,0.560762,0.75402888,-0.32201198,0.580148,0.69861129,-0.35769365,0.558075,0.6979305,-0.3435314,0.54241,0.66838091,-0.35980493,0.533271,0.66886766,-0.38370025,0.546524,0.71840478,-0.37888944,0.561414,0.72014023,-0.36685229,0.545215,0.7029298,-0.38147777,0.536927,0.70628543,-0.41143602,0.551257,0.7391185,-0.4108796,0.566437,0.72575008,-0.38983661,0.550476,0.70044712,-0.39906242,0.543142,0.69979145,-0.41964813,0.553526
0.65568511,-0.43096767,0.571957,0.66650545,-0.39688283,0.565632,0.63569072,-0.40304627,0.567735,0.6569195,-0.3718666,0.561393,0.68197043,-0.34417419,0.559808,0.70049216,-0.32715808,0.55848,0.66477084,-0.33726954,0.554842,0.66781939,-0.31471891,0.539295,0.70683044,-0.31951159,0.560594,0.74893346,-0.32234754,0.579958,0.68975591,-0.3586232,0.558068,0.688291,-0.34422588,0.542092,0.65828508,-0.36008132,0.532773,0.65835166,-0.38374646,0.545932,0.70906148,-0.3799603,0.561361,0.71001751,-0.36774037,0.544896,0.69227854,-0.3820754,0.536472,0.69507249,-0.41180367,0.55071,0.72912127,-0.41208555,0.566384,0.71528884,-0.39072391,0.550184,0.68978652,-0.39964062,0.542741,0.68866803,-0.41998957,0.553048
0.65921721,-0.44042156,0.568329,0.66599483,-0.40723014,0.56279,0.63393297,-0.4244204,0.564564,0.64532633,-0.38369216,0.559958,0.6612512,-0.35171408,0.557517,0.67603959,-0.33148808,0.555399,0.64816741,-0.34457342,0.553255,0.65127542,-0.31730215,0.538617,0.68892303,-0.31942289,0.560055,0.72475104,-0.31991414,0.579544,0.67740195,-0.35985734,0.556165,0.67396742,-0.34590818,0.541096,0.64974738,-0.36346184,0.532306,0.65542999,-0.38613929,0.545782,0.70374894,-0.37758177,0.559119,0.6992638,-0.36378697,0.543612,0.68256792,-0.37762261,0.535679,0.68739168,-0.40897734,0.550286,0.72878452,-0.4046531,0.5636,0.7118092,-0.38712937,0.548216,0.68662634,-0.39303766,0.541147,0.68656519,-0.41607374,0.551745
0.64531518,-0.44164561,0.567173,0.65436892,-0.40674317,0.562117,0.62748054,-0.42377313,0.563703,0.63418255,-0.38364694,0.559892,0.65034271,-0.35189639,0.557806,0.66540716,-0.33181157,0.555941,0.63808269,-0.34464629,0.553372,0.64142114,-0.31770805,0.539306,0.67833647,-0.31986205,0.560825,0.71344455,-0.32037949,0.580387,0.66689915,-0.35979587,0.55607,0.66351681,-0.34620736,0.541564,0.6396522,-0.36400535,0.533102,0.64269254,-0.38936044,0.546771,0.69030544,-0.37650622,0.558801,0.68841163,-0.36397502,0.543893,0.67195488,-0.37803641,0.536266,0.67678761,-0.40958231,0.5511,0.71707619,-0.40417349,0.562932,0.69939677,-0.38482489,0.548057,0.67550767,-0.39309214,0.541222,0.67492573,-0.41331378,0.551998
0.6438951,-0.44338928,0.567719,0.65220369,-0.40560374,0.561976,0.6242449,-0.4232083,0.563876,0.63155382,-0.38280341,0.559455,0.64692464,-0.35093695,0.556511,0.66157075,-0.33066827,0.554091,0.63561796,-0.34244562,0.552166,0.63772538,-0.31612209,0.537318,0.67427369,-0.31879017,0.558728,0.70903756,-0.3198417,0.57819,0.66463133,-0.35786368,0.555107,0.65964242,-0.3450978,0.539809,0.63474457,-0.36273713,0.530885,0.63737921,-0.38749535,0.544285,0.68821722,-0.37487511,0.558108,0.68464306,-0.36314034,0.542374,0.66713608,-0.37720926,0.534324,0.67126954,-0.40826328,0.548847,0.71520273,-0.40303334,0.562681,0.69614297,-0.38427253,0.5471,0.67155946,-0.39230131,0.539941,0.67039709,-0.41226708,0.550472
0.63074782,-0.43423477,0.564892,0.63915697,-0.39601523,0.560395,0.60486594,-0.4074333,0.562954,0.61990507,-0.36839689,0.559262,0.63416234,-0.33521725,0.555524,0.64937512,-0.3155396,0.553638,0.63537921,-0.34093561,0.55407,0.6328471,-0.31356752,0.541494,0.66587317,-0.31548022,0.563225,0.6969385,-0.31576085,0.58298,0.66134132,-0.35626683,0.555017,0.65469151,-0.33657049,0.541372,0.63035996,-0.35403911,0.533412,0.63409312,-0.38153833,0.54742,0.68194326,-0.37287259,0.55625,0.67678623,-0.35530714,0.542705,0.65845165,-0.37071892,0.535775,0.6649537,-0.40277311,0.551137,0.70072798,-0.4007529,0.558518,0.68310822,-0.37619027,0.54472,0.66070914,-0.38657457,0.538381,0.66396944,-0.40982382,0.549548
0.61322031,-0.43082616,0.563384,0.62804347,-0.39582513,0.560126,0.59883987,-0.40705478,0.562431,0.60924037,-0.36862415,0.559607,0.62313726,-0.33511389,0.557204,0.63801382,-0.31518563,0.556068,0.62619569,-0.34097861,0.556115,0.62644601,-0.31570606,0.545187,0.6588645,-0.31763897,0.567079,0.68932755,-0.31792738,0.58698,0.65036006,-0.35682418,0.55623,0.64695357,-0.33826213,0.544093,0.62353813,-0.35642985,0.537014,0.62746107,-0.38437502,0.55149,0.66912871,-0.3735542,0.556653,0.6681556,-0.35667807,0.544799,0.65073095,-0.37276635,0.538734,0.65747307,-0.40535796,0.554674,0.68889697,-0.40019753,0.557744,0.67262225,-0.37664262,0.545375,0.65109297,-0.38751663,0.539693,0.65193903,-0.40927953,0.551311
0.60832861,-0.43132552,0.564037,0.61758171,-0.39604632,0.560439,0.58855449,-0.40749988,0.563046,0.59862836,-0.36889225,0.560014,0.61236565,-0.33532198,0.55755,0.62723628,-0.31538231,0.556415,0.61596897,-0.34096144,0.556087,0.615372,-0.31552307,0.544871,0.64690457,-0.31744516,0.566733,0.67650454,-0.31772535,0.586607,0.63987784,-0.35676388,0.556136,0.63538384,-0.33797429,0.54363,0.61168523,-0.35597918,0.536335,0.61523097,-0.38382372,0.550699,0.65843303,-0.37347837,0.55654,0.65637947,-0.35638804,0.544356,0.63864749,-0.37234288,0.538122,0.64487984,-0.4048274,0.553948,0.67794578,-0.40014371,0.557669,0.66086987,-0.37638917,0.545008,0.63927032,-0.38715546,0.53919,0.63974655,-0.40883782,0.550716
0.61450193,-0.43762915,0.572468,0.62720361,-0.3988557,0.566657,0.59842063,-0.41281049,0.570166,0.59633573,-0.37612718,0.567934,0.60242224,-0.34459231,0.560957,0.6087813,-0.32026499,0.555925,0.61357106,-0.33367077,0.55874,0.60651474,-0.31461348,0.544908,0.63527421,-0.32077486,0.566485,0.66209271,-0.32548303,0.586101,0.63968681,-0.3482012,0.559707,0.62565379,-0.34024455,0.544602,0.60066023,-0.35613792,0.53579,0.60238753,-0.38297131,0.549332,0.66033796,-0.36448901,0.56109,0.64779184,-0.35843182,0.546153,0.62977772,-0.37056329,0.538511,0.63411463,-0.40137032,0.553375,0.68276828,-0.39168055,0.563773,0.66176748,-0.37919077,0.54876,0.66638872,-0.40898625,0.567268,0.67357891,-0.42970409,0.579727
0.60715867,-0.43706117,0.574477,0.61144596,-0.3926143,0.567634,0.59008065,-0.41387614,0.574845,0.59413452,-0.37123334,0.574865,0.60586324,-0.33828372,0.572874,0.61865242,-0.31679658,0.571758,0.61385766,-0.33637375,0.562207,0.59494627,-0.3145773,0.549559,0.61716189,-0.31829937,0.570989,0.63722794,-0.32055313,0.590471,0.63136977,-0.34958392,0.559449,0.61378334,-0.32923227,0.543841,0.59005302,-0.34429218,0.534737,0.59377798,-0.37083471,0.547976,0.64772033,-0.36392601,0.557871,0.63455378,-0.34596601,0.543623,0.61843947,-0.36109256,0.536333,0.62748147,-0.39223507,0.551224,0.6649893,-0.38830799,0.557261,0.65152202,-0.35688844,0.542638,0.65028207,-0.37134063,0.560618,0.65247963,-0.3894025,0.573563
0.63474552,-0.48273057,0.606328,0.62364368,-0.42953421,0.588126,0.61198241,-0.46430954,0.604334,0.60487654,-0.43892815,0.596478,0.5832742,-0.40426841,0.583943,0.58436714,-0.38650786,0.573319,0.58565892,-0.36297181,0.56993,0.57041344,-0.31244795,0.544877,0.57805956,-0.29567699,0.546997,0.58485572,-0.28068517,0.548925,0.61005978,-0.36740999,0.566358,0.57305943,-0.37530692,0.538777,0.59023452,-0.41790229,0.562629,0.61039172,-0.43346306,0.582426,0.63173453,-0.37637535,0.565254,0.60290311,-0.36900401,0.539923,0.58301204,-0.38466554,0.526963,0.5900786,-0.40522048,0.536692,0.65996788,-0.39670665,0.56727,0.63563956,-0.34926327,0.543025,0.62129012,-0.3564317,0.531886,0.62716191,-0.37850828,0.53851
0.62164494,-0.47421595,0.596906,0.60774344,-0.41903656,0.581289,0.59646474,-0.45441706,0.592758,0.59151837,-0.42748092,0.584479,0.57371828,-0.39202903,0.561165,0.58964865,-0.38575793,0.555485,0.56685931,-0.35171021,0.562594,0.5523689,-0.30350035,0.539131,0.56536293,-0.28974416,0.546975,0.5775009,-0.27604683,0.554106,0.594753,-0.35675123,0.562612,0.56356213,-0.34247004,0.537061,0.58692158,-0.38262989,0.562171,0.60445852,-0.41595522,0.579295,0.61959717,-0.36625195,0.564203,0.59731796,-0.34154753,0.539666,0.57631236,-0.34982142,0.527112,0.57838243,-0.37800319,0.537854,0.65198226,-0.38745049,0.568917,0.63088411,-0.33850747,0.545519,0.61607798,-0.34472612,0.534768,0.61915898,-0.36772285,0.542233
0.60712615,-0.46479579,0.589664,0.59468789,-0.41005861,0.575195,0.58282204,-0.44565249,0.586387,0.57849489,-0.42036587,0.580766,0.55728461,-0.38527843,0.555907,0.5700955,-0.37895371,0.548726,0.55730449,-0.34438674,0.558588,0.54155673,-0.29952688,0.536155,0.55211418,-0.28640377,0.543018,0.56196227,-0.27329632,0.549256,0.58396186,-0.34959629,0.55789,0.55468046,-0.32349162,0.53367,0.5720482,-0.36350549,0.559144,0.58461036,-0.39566157,0.575901,0.60763458,-0.35914145,0.558776,0.58301204,-0.33707682,0.535723,0.56091675,-0.34625637,0.523928,0.56355966,-0.37439872,0.535313,0.63826688,-0.3801949,0.562452,0.60141052,-0.33215282,0.540295,0.58517934,-0.31789988,0.530115,0.57160447,-0.3099581,0.521133
0.61137378,-0.46786306,0.592503,0.59604753,-0.41160414,0.574843,0.58292398,-0.44627855,0.587976,0.57221732,-0.41832212,0.577769,0.54186027,-0.38236999,0.550112,0.54743875,-0.37297572,0.53912,0.55486516,-0.34444668,0.553907,0.52943949,-0.29231223,0.52849,0.54019376,-0.27872725,0.537569,0.55007618,-0.26519546,0.545823,0.57875065,-0.34740842,0.553722,0.54363284,-0.31577644,0.526065,0.55889045,-0.35266928,0.550436,0.57473013,-0.38739192,0.56809,0.60280652,-0.35723605,0.555352,0.5766355,-0.32021164,0.528886,0.55114448,-0.32984421,0.515345,0.55414873,-0.35462661,0.525086,0.63471203,-0.37903064,0.560485,0.59385153,-0.33011509,0.535417,0.57558332,-0.31380438,0.5239,0.56013519,-0.30395194,0.513738
0.6125835,-0.47314783,0.605378,0.58861597,-0.41204647,0.585339,0.5831493,-0.44999552,0.599418,0.55872102,-0.41215611,0.584667,0.53509481,-0.37407251,0.559873,0.53187733,-0.35528504,0.540222,0.54639122,-0.34099562,0.560541,0.52130664,-0.288861,0.532941,0.5323004,-0.27543849,0.543182,0.5423578,-0.26200973,0.552492,0.57392414,-0.34746022,0.561374,0.54865817,-0.30443659,0.5311,0.57139702,-0.31905795,0.554492,0.58423789,-0.3491287,0.572786,0.59856828,-0.35828077,0.564081,0.57872665,-0.32341412,0.534821,0.55379249,-0.33229579,0.519851,0.55517999,-0.35661399,0.528188,0.63105133,-0.38136576,0.570912,0.60196297,-0.34243637,0.543507,0.58860517,-0.32441745,0.530915,0.57407473,-0.32574938,0.519805
0.60127117,-0.46951354,0.609144,0.58787774,-0.41116823,0.587389,0.57505167,-0.44761026,0.603152,0.55426813,-0.41077351,0.587298,0.52962164,-0.37456205,0.562955,0.5239194,-0.35555887,0.541588,0.54132903,-0.33717305,0.561074,0.51377816,-0.28543421,0.532161,0.52282568,-0.27185392,0.54134,0.53106117,-0.25831378,0.549683,0.56825186,-0.34324115,0.561372,0.53923015,-0.3013318,0.529434,0.55903957,-0.31697886,0.552054,0.57143153,-0.34775096,0.570706,0.5925835,-0.35383,0.563812,0.56472336,-0.32002641,0.533147,0.54056001,-0.32922732,0.517458,0.54548827,-0.35349351,0.524912,0.62502398,-0.37681001,0.570642,0.59280576,-0.33905406,0.542012,0.57815602,-0.3189872,0.528858,0.56217004,-0.32343874,0.517251
0.59538808,-0.46675463,0.605591,0.58148834,-0.40888485,0.586465,0.57097678,-0.44643574,0.601471,0.54882512,-0.41052362,0.588325,0.52533769,-0.37284683,0.566551,0.51969975,-0.35200815,0.545916,0.5386707,-0.34106,0.564784,0.51242635,-0.28867663,0.538606,0.52147027,-0.27466778,0.548827,0.53437497,-0.2615156,0.558119,0.56403089,-0.34533923,0.563593,0.5360044,-0.30084228,0.534593,0.55532039,-0.31366009,0.558342,0.56677929,-0.34277276,0.576286,0.586874,-0.35429292,0.564542,0.56034623,-0.317631,0.537121,0.53804063,-0.3265301,0.523091,0.5413993,-0.35240568,0.532176,0.61727147,-0.37507603,0.569141,0.58600623,-0.33517351,0.543207,0.57162518,-0.31671949,0.531292,0.55675997,-0.3176863,0.520778
0.59083859,-0.46366768,0.603687,0.57811516,-0.40829342,0.588745,0.56852579,-0.44508069,0.601661,0.54118083,-0.40871279,0.590158,0.51228842,-0.37163046,0.568611,0.50532502,-0.35306592,0.548133,0.54146969,-0.34145209,0.573316,0.52034469,-0.28992667,0.551278,0.53005527,-0.27513982,0.56174,0.54047527,-0.26371397,0.571251,0.5655339,-0.34488945,0.570875,0.53593402,-0.30738363,0.546473,0.55525219,-0.33678001,0.571671,0.57026212,-0.3691661,0.588407,0.58678193,-0.35285299,0.570374,0.57292277,-0.30834203,0.547695,0.55264792,-0.31275752,0.536092,0.55468941,-0.3403455,0.547409,0.61431518,-0.3718559,0.572506,0.58544941,-0.3334237,0.550587,0.57214201,-0.31556351,0.540516,0.55929657,-0.31605829,0.53163
0.58964952,-0.46279874,0.604961,0.57536554,-0.40513841,0.5907,0.5658274,-0.44353196,0.603904,0.54109395,-0.40895255,0.591774,0.51086772,-0.37164396,0.568859,0.50331796,-0.35327423,0.547864,0.54365894,-0.34206088,0.577083,0.52295243,-0.29127495,0.556237,0.52902235,-0.27490101,0.56597,0.53931399,-0.26114746,0.574818,0.56686621,-0.34518088,0.573645,0.53979001,-0.29637205,0.550163,0.55925014,-0.32678753,0.575452,0.57365815,-0.35826808,0.591884,0.58721835,-0.35282869,0.572255,0.5748188,-0.30995546,0.55076,0.55507614,-0.31561933,0.539762,0.5573824,-0.34349808,0.551463,0.61336653,-0.37131017,0.573217,0.57644146,-0.33524264,0.552275,0.56033288,-0.32003536,0.542653,0.54710415,-0.31159611,0.534163
0.59171432,-0.46556937,0.612721,0.57703807,-0.40706946,0.594913,0.56691933,-0.44594201,0.610655,0.54136767,-0.41008389,0.593472,0.51133111,-0.37275193,0.570554,0.50336566,-0.35364127,0.549542,0.54048625,-0.33966658,0.576965,0.51620792,-0.28793751,0.553993,0.52089953,-0.27189629,0.563917,0.53099939,-0.25814526,0.572939,0.56373204,-0.34357249,0.573616,0.53532625,-0.3061278,0.546396,0.55407427,-0.33577213,0.570441,0.56874002,-0.36821096,0.587834,0.58589002,-0.35277724,0.572656,0.56080663,-0.31685639,0.547597,0.54215428,-0.32863621,0.534775,0.55072301,-0.35751528,0.544703,0.61291081,-0.3722924,0.574771,0.57611811,-0.33675199,0.550767,0.56290035,-0.32379833,0.539738,0.55015792,-0.31145255,0.530007
0.58943973,-0.46419263,0.612439,0.57614899,-0.40674571,0.595306,0.56534226,-0.4448412,0.610808,0.54157601,-0.41065005,0.59433,0.51200285,-0.37348834,0.572336,0.50054489,-0.35143171,0.551687,0.54130588,-0.34018597,0.578491,0.51794808,-0.28859001,0.556482,0.52506389,-0.27319851,0.565754,0.53145327,-0.2581578,0.574182,0.56431182,-0.34409133,0.574816,0.53739083,-0.30580455,0.548367,0.55650301,-0.3382762,0.572618,0.57182638,-0.37118106,0.589797,0.5845054,-0.35249946,0.57352,0.56273091,-0.31780761,0.549292,0.54457269,-0.33000425,0.536896,0.55224988,-0.35812499,0.547184,0.61218244,-0.3724194,0.575117,0.57769706,-0.33818836,0.551813,0.56451399,-0.32466605,0.541106,0.55198861,-0.31214086,0.531658
0.58910292,-0.4640767,0.613299,0.57574367,-0.40660424,0.595455,0.56506204,-0.44463418,0.61147,0.54160614,-0.41129368,0.594605,0.51061977,-0.37409427,0.572635,0.49934544,-0.35153852,0.551978,0.54032844,-0.33973941,0.577775,0.51536404,-0.28751771,0.555586,0.52171993,-0.27206264,0.564482,0.52739984,-0.25697645,0.572569,0.56338768,-0.34367483,0.574114,0.53586421,-0.304796,0.546923,0.55513363,-0.34124708,0.570902,0.57019384,-0.37085318,0.588264,0.58368583,-0.35214462,0.572902,0.56133271,-0.31769026,0.547967,0.54474297,-0.33095636,0.535209,0.54971957,-0.35692108,0.545129,0.61130771,-0.37211809,0.574725,0.57761044,-0.33975133,0.550816,0.56317446,-0.32474066,0.539831,0.55036787,-0.3117098,0.530138
0.58889714,-0.46403902,0.613934,0.57540673,-0.40648981,0.59542,0.56467614,-0.44436315,0.611688,0.54107226,-0.41143813,0.594149,0.50937865,-0.37399062,0.571542,0.50094835,-0.35325977,0.550633,0.53911578,-0.3391082,0.576635,0.51345845,-0.28665205,0.553616,0.51871794,-0.27151757,0.561898,0.5242731,-0.25581307,0.569428,0.56249325,-0.34323777,0.573278,0.53427161,-0.30394629,0.545329,0.55331306,-0.34110756,0.569089,0.56866461,-0.3707451,0.586657,0.58313383,-0.35190975,0.572382,0.56003337,-0.31747177,0.546635,0.54115342,-0.32964107,0.533462,0.54737994,-0.35585879,0.543019,0.60996856,-0.37191447,0.5747,0.57702546,-0.33982783,0.550108,0.5621973,-0.32483387,0.538808,0.54758078,-0.31089467,0.528838
0.58903503,-0.46321605,0.611492,0.5735697,-0.40481351,0.59099,0.56806149,-0.44545992,0.610643,0.54654758,-0.41489714,0.594783,0.51049013,-0.37828041,0.572843,0.50262505,-0.35920223,0.552148,0.5378161,-0.33758244,0.572262,0.51167655,-0.28525889,0.549177,0.51790376,-0.26982173,0.55836,0.52341054,-0.25491255,0.566709,0.55908335,-0.34029207,0.56647,0.52724557,-0.30108042,0.53704,0.5442777,-0.33821857,0.559391,0.5601683,-0.36705541,0.577053,0.5780615,-0.34774982,0.563772,0.5522054,-0.31531645,0.537392,0.53263614,-0.32808005,0.523896,0.53706656,-0.34971672,0.532362,0.60658967,-0.36687576,0.564332,0.56809417,-0.33604509,0.53912,0.55300604,-0.32686971,0.527536,0.5377844,-0.31926781,0.517315
