sluyters/QuantumLeap/src/datasets/gesture/HandGestureDataset_SHREC2017_csv/Gesture7/finger_1/subject_23_essai_3_skeletons_world.csv
Wrist_x,Wrist_y,Wrist_z,Palm_x,Palm_y,Palm_z,thumb_base_x,thumb_base_y,thumb_base_z,thumb_first_joint_x,thumb_first_joint_y,thumb_first_joint_z,thumb_second_joint_x,thumb_second_joint_y,thumb_second_joint_z,thumb_tip_x,thumb_tip_y,thumb_tip_z,index_base_x,index_base_y,index_base_z,index_first_joint_x,index_first_joint_y,index_first_joint_z,index_second_joint_x,index_second_joint_y,index_second_joint_z,index_tip_x,index_tip_y,index_tip_z,middle_base_x,middle_base_y,middle_base_z,middle_first_joint_x,middle_first_joint_y,middle_first_joint_z,middle_second_joint_x,middle_second_joint_y,middle_second_joint_z,middle_tip_x,middle_tip_y,middle_tip_z,ring_base_x,ring_base_y,ring_base_z,ring_first_joint_x,ring_first_joint_y,ring_first_joint_z,ring_second_joint_x,ring_second_joint_y,ring_second_joint_z,ring_tip_x,ring_tip_y,ring_tip_z,pinky_base_x,pinky_base_y,pinky_base_z,pinky_first_joint_x,pinky_first_joint_y,pinky_first_joint_z,pinky_second_joint_x,pinky_second_joint_y,pinky_second_joint_z,pinky_tip_x,pinky_tip_y,pinky_tip_z,
0.257194274,-0.285404483,0.504752,0.215906163,-0.23975648,0.481238,0.239108534,-0.285140008,0.503206,0.203437319,-0.281563249,0.492217,0.17001147,-0.27114193,0.474697,0.159158846,-0.263421077,0.464575,0.174174059,-0.222608681,0.469992,0.141222108,-0.195444039,0.460808,0.124279952,-0.181696232,0.456216,0.115379621,-0.169679804,0.454471,0.188594566,-0.212491191,0.46679,0.154550309,-0.205528356,0.440608,0.171360326,-0.234921547,0.45758,0.18949253,-0.246971918,0.472377,0.204099352,-0.208106232,0.466314,0.187178234,-0.218593527,0.443261,0.209836603,-0.235598064,0.457237,0.227979983,-0.239994026,0.473245,0.228483606,-0.210058991,0.469511,0.204828217,-0.219497566,0.450171,0.214313094,-0.233671256,0.459687,0.224898887,-0.245253105,0.470277
0.258314665,-0.290950194,0.513494,0.208577748,-0.241243903,0.48102,0.236452949,-0.290629926,0.511755,0.203874547,-0.285514212,0.49591,0.17038194,-0.275899265,0.479978,0.157292682,-0.266144379,0.465341,0.170299113,-0.221445722,0.466007,0.1378488,-0.195918012,0.459259,0.120981416,-0.182886338,0.455885,0.105291685,-0.17077934,0.452818,0.183604121,-0.211455878,0.461066,0.145509926,-0.212351715,0.428593,0.162012732,-0.237117795,0.439997,0.180191428,-0.245542786,0.455323,0.195584656,-0.209828567,0.459981,0.174818905,-0.221317194,0.431951,0.195308913,-0.235429653,0.441416,0.21052099,-0.234562381,0.450021,0.219764847,-0.213745249,0.463902,0.193186439,-0.223170483,0.440715,0.201492023,-0.234467379,0.446916,0.212356897,-0.244884965,0.457481
0.254990708,-0.290992433,0.511904,0.201912545,-0.243002498,0.477813,0.232901531,-0.290402802,0.509098,0.199978987,-0.287303699,0.491727,0.165942421,-0.277891097,0.475456,0.152206556,-0.268164226,0.460507,0.159338107,-0.225945354,0.460768,0.125835587,-0.200538119,0.452472,0.10851215,-0.187435928,0.448324,0.0961509345,-0.172186247,0.444553,0.172408926,-0.215356917,0.456865,0.141673118,-0.217462973,0.423004,0.160598962,-0.239560591,0.433522,0.177807338,-0.244232085,0.449072,0.187423681,-0.210853024,0.456784,0.170271659,-0.21888866,0.425891,0.190568442,-0.232115287,0.434545,0.205053743,-0.2310174,0.442413,0.21572052,-0.213033994,0.462125,0.189753181,-0.221944106,0.437811,0.198091334,-0.233076422,0.443463,0.209166435,-0.243690765,0.454212
0.252712562,-0.291074135,0.510499,0.200901699,-0.243599019,0.476805,0.230961109,-0.290648612,0.507689,0.199438318,-0.28751824,0.490307,0.165308287,-0.277951988,0.473947,0.151587402,-0.267894179,0.458908,0.159404178,-0.226150324,0.459912,0.125093476,-0.201039007,0.449716,0.107382729,-0.188120671,0.444618,0.0909303032,-0.176146923,0.439983,0.172639115,-0.215691286,0.456102,0.142619759,-0.218439937,0.422483,0.161722228,-0.240509884,0.433362,0.178467392,-0.245452274,0.448938,0.187762955,-0.211280789,0.45606,0.169729677,-0.219195768,0.424936,0.190192778,-0.232464515,0.43386,0.204666452,-0.231548171,0.441974,0.214802302,-0.213297382,0.461384,0.189339163,-0.22232919,0.437204,0.197813968,-0.23362107,0.443069,0.20891333,-0.244293642,0.453853
0.251250337,-0.291324438,0.509831,0.200426168,-0.243933564,0.476372,0.229797377,-0.290976734,0.507036,0.199199312,-0.28767065,0.489674,0.164986533,-0.277974068,0.473179,0.151269813,-0.267744397,0.458084,0.159412996,-0.226199886,0.459589,0.124904674,-0.201299087,0.449008,0.107087154,-0.188488786,0.443717,0.0905322362,-0.176615255,0.438908,0.172702118,-0.215785592,0.455812,0.142946237,-0.218782508,0.422343,0.162138118,-0.240888281,0.433421,0.178850635,-0.246135581,0.449005,0.187858169,-0.211403246,0.455776,0.16940501,-0.219279792,0.424324,0.189947711,-0.232569342,0.433387,0.20441275,-0.231746045,0.441625,0.214368638,-0.213454189,0.461068,0.189165656,-0.222561407,0.436978,0.197714954,-0.23394096,0.442961,0.208826044,-0.244641832,0.453759
0.249153025,-0.290711514,0.507794,0.198404359,-0.242684913,0.47324,0.227969309,-0.290255702,0.504804,0.197435354,-0.286552335,0.487182,0.163477696,-0.278790516,0.471336,0.150831247,-0.267495057,0.456468,0.157709538,-0.224391339,0.455772,0.123530471,-0.201516327,0.445245,0.105739941,-0.189526367,0.439981,0.0891280602,-0.17836844,0.435196,0.17062303,-0.214081625,0.452008,0.142647817,-0.218996755,0.417803,0.162546429,-0.239450679,0.427973,0.178711703,-0.244756072,0.443538,0.185504771,-0.209809043,0.452084,0.14814354,-0.203162419,0.42215,0.154742577,-0.225799416,0.430588,0.172575966,-0.242537546,0.446046,0.21042497,-0.212378409,0.457679,0.185905643,-0.221592716,0.433116,0.195709978,-0.231937599,0.43856,0.207321625,-0.242437112,0.449315
0.252189568,-0.290241156,0.508144,0.198787741,-0.240059707,0.469127,0.230150319,-0.289088759,0.50372,0.20129689,-0.283541767,0.484568,0.169870028,-0.276656457,0.468406,0.161330093,-0.267688538,0.453855,0.16112524,-0.218744336,0.448031,0.126560784,-0.199628794,0.437696,0.108397568,-0.189669049,0.432528,0.0891644748,-0.179296554,0.42783,0.172350893,-0.209293158,0.445153,0.144731532,-0.216878876,0.408096,0.151512757,-0.239841889,0.413607,0.172081812,-0.255831284,0.42874,0.185016581,-0.206955808,0.446367,0.163393314,-0.214917887,0.413633,0.159375395,-0.236009024,0.418247,0.175174353,-0.25739899,0.433308,0.211000435,-0.209399853,0.453994,0.18517373,-0.219183192,0.427526,0.197204713,-0.227998189,0.430203,0.208374542,-0.238154364,0.440557
0.247984991,-0.288126774,0.503316,0.202946141,-0.236466673,0.464724,0.233911294,-0.284167387,0.499262,0.207673305,-0.280810202,0.480551,0.175555147,-0.274518505,0.464418,0.163009774,-0.265957326,0.450032,0.165778076,-0.214743169,0.444279,0.129855212,-0.197639201,0.432195,0.1110384,-0.188780542,0.426153,0.0915639459,-0.178916851,0.42066,0.177659456,-0.205218457,0.44101,0.138510076,-0.201630385,0.404274,0.147451433,-0.225157025,0.41023,0.167375926,-0.240587919,0.425388,0.192104661,-0.201620433,0.441864,0.167271161,-0.212864171,0.409531,0.169011794,-0.233166287,0.414516,0.18538938,-0.253097157,0.429563,0.217323659,-0.205110882,0.449006,0.192720364,-0.215928268,0.422809,0.203587235,-0.224442346,0.425756,0.217232939,-0.235049239,0.436118
0.254133211,-0.285401905,0.501929,0.209405622,-0.234642585,0.462897,0.236369819,-0.284013767,0.497194,0.215629818,-0.280161444,0.477596,0.183051559,-0.273925825,0.46088,0.168804774,-0.265242209,0.446185,0.170621749,-0.214070351,0.441388,0.135908349,-0.195319255,0.425723,0.117838682,-0.185666384,0.417891,0.100939748,-0.176707356,0.410771,0.183886909,-0.205010579,0.438913,0.148599261,-0.204151232,0.401736,0.160969079,-0.227026932,0.407385,0.180228997,-0.241199807,0.422606,0.199558484,-0.20175257,0.440461,0.176552113,-0.213488874,0.407498,0.179193238,-0.233745584,0.41222,0.195388739,-0.253189609,0.427416,0.226304017,-0.205552503,0.448477,0.202862162,-0.216733272,0.421841,0.21342355,-0.224253352,0.424593,0.227114818,-0.233514327,0.435035
0.254483935,-0.28265124,0.495516,0.211917741,-0.231719947,0.458341,0.238863096,-0.280304414,0.491838,0.213946565,-0.278354314,0.473428,0.18065119,-0.272502213,0.45773,0.167028796,-0.264438055,0.443116,0.170976891,-0.21152529,0.438946,0.13627454,-0.192577605,0.423628,0.118202752,-0.182813739,0.415969,0.101297486,-0.173745977,0.409007,0.183228051,-0.202263793,0.435499,0.151505308,-0.207187487,0.399579,0.168338963,-0.228498056,0.40726,0.184069389,-0.239980381,0.422664,0.197958643,-0.198801565,0.436077,0.173998414,-0.211152963,0.404519,0.178054651,-0.232508235,0.410917,0.194558541,-0.252106636,0.426216,0.223422921,-0.202295648,0.442672,0.198453172,-0.213567879,0.416981,0.205985169,-0.221947435,0.420946,0.219477832,-0.230343773,0.431525
0.256019439,-0.276843709,0.486485,0.216348722,-0.225729822,0.450621,0.240759753,-0.275355136,0.483583,0.218079123,-0.277513068,0.466163,0.182711104,-0.272332556,0.450264,0.167017075,-0.263750802,0.436935,0.177241596,-0.205862852,0.432755,0.140936545,-0.189804418,0.418941,0.121981492,-0.181526775,0.412034,0.101724738,-0.172871104,0.405755,0.187817379,-0.195877336,0.428584,0.158649862,-0.20546824,0.393656,0.176892019,-0.226603656,0.402437,0.196913375,-0.236602703,0.417828,0.201143476,-0.191830069,0.428445,0.173958437,-0.203565181,0.397989,0.181327869,-0.225364674,0.405298,0.194402831,-0.247906845,0.420516,0.225004421,-0.19471046,0.434002,0.197233821,-0.205596617,0.409083,0.206861555,-0.215629484,0.413711,0.218697974,-0.225129047,0.424276
0.269883537,-0.2733712,0.481512,0.229634507,-0.222448521,0.445554,0.251101209,-0.271625215,0.478209,0.232892655,-0.275103865,0.460214,0.197234253,-0.268453576,0.443536,0.182126663,-0.263948963,0.428801,0.188271738,-0.201965282,0.427126,0.153762733,-0.18301035,0.41023,0.135864376,-0.173271989,0.401782,0.119164306,-0.164244848,0.394101,0.201545882,-0.192834093,0.42346,0.161255502,-0.186408968,0.388329,0.175486148,-0.210862047,0.397225,0.195888579,-0.223674473,0.412725,0.217024143,-0.18952645,0.423745,0.192686057,-0.201708579,0.392956,0.200514806,-0.223335258,0.400351,0.215802241,-0.245231533,0.415737,0.243157109,-0.193264577,0.429807,0.216754748,-0.203677665,0.404645,0.225532981,-0.213533535,0.409331,0.238053444,-0.222337307,0.420004
0.28602357,-0.274000171,0.483493,0.246278192,-0.222693878,0.445764,0.26529283,-0.271424367,0.478983,0.250076596,-0.277093292,0.45946,0.213464183,-0.268293418,0.44197,0.197592243,-0.264192087,0.427302,0.202702115,-0.200679656,0.42506,0.165926321,-0.181651649,0.410552,0.1469062,-0.171879777,0.403298,0.124595173,-0.164073264,0.396703,0.218149052,-0.192300662,0.42258,0.179996215,-0.185949259,0.386086,0.195567906,-0.208856426,0.393459,0.215324881,-0.22174934,0.408975,0.235443454,-0.189742585,0.424005,0.211879319,-0.201112856,0.391645,0.219681702,-0.22187361,0.397778,0.234865347,-0.243916731,0.413294,0.263700025,-0.19456437,0.431669,0.237691756,-0.204313735,0.405412,0.245810151,-0.213471556,0.409178,0.258223802,-0.222155934,0.41988
0.298695321,-0.273716768,0.482663,0.256604745,-0.222469567,0.445315,0.27757595,-0.271199433,0.478333,0.260806659,-0.276822507,0.459011,0.224121973,-0.268060315,0.441586,0.208277755,-0.26390706,0.426841,0.212848799,-0.200648968,0.424995,0.176456902,-0.1817366,0.410744,0.157627153,-0.172016583,0.403619,0.140094341,-0.163007215,0.397141,0.228346187,-0.192202824,0.422365,0.190257078,-0.185968524,0.386126,0.206147063,-0.209089457,0.393898,0.226015436,-0.222005262,0.409447,0.245696145,-0.189575219,0.423631,0.222033075,-0.201060478,0.391543,0.230119301,-0.221999669,0.398004,0.245505068,-0.244063095,0.413542,0.274034202,-0.194286272,0.431052,0.247881319,-0.204095518,0.404979,0.25598805,-0.213369823,0.408983,0.268435647,-0.222066517,0.419711
0.298199496,-0.271058069,0.476945,0.262325513,-0.218014565,0.440482,0.278067023,-0.267293518,0.473189,0.255628678,-0.260506999,0.454588,0.224512893,-0.252104243,0.438036,0.215919665,-0.246845355,0.423165,0.223042369,-0.190058222,0.421262,0.189602803,-0.171782153,0.401953,0.172364189,-0.162430501,0.392299,0.15634359,-0.153784998,0.383522,0.237249788,-0.18605342,0.418076,0.196915191,-0.189668598,0.382506,0.214185683,-0.210690751,0.39106,0.234750671,-0.222979563,0.406612,0.25321873,-0.187431749,0.418803,0.219424626,-0.199120713,0.387477,0.218418649,-0.220481751,0.394587,0.230645909,-0.243994902,0.410075,0.279329443,-0.197534365,0.425459,0.2437974,-0.203079161,0.399916,0.244407339,-0.211579097,0.404391,0.257341791,-0.216666691,0.415116
0.306134096,-0.271099515,0.475982,0.27244624,-0.217787348,0.439977,0.286504301,-0.265859546,0.472418,0.266143677,-0.260207836,0.454054,0.237149431,-0.253713071,0.437033,0.230974156,-0.249328548,0.422217,0.2330284,-0.190067566,0.421189,0.199629172,-0.171863601,0.401914,0.182428514,-0.162552222,0.392277,0.166454461,-0.153946161,0.383515,0.247187734,-0.185999417,0.417853,0.206592941,-0.189783748,0.382604,0.22415327,-0.211010704,0.391574,0.244935411,-0.223299648,0.407139,0.263149139,-0.187301503,0.418415,0.228786746,-0.19930171,0.387421,0.228661836,-0.220666736,0.394871,0.238467322,-0.243511167,0.410362,0.28929681,-0.197270666,0.424805,0.252473253,-0.204480331,0.399493,0.25432972,-0.211509115,0.404216,0.267347075,-0.2166008,0.414957
0.314088274,-0.271115534,0.474968,0.282500524,-0.21737155,0.439137,0.300371329,-0.264419059,0.471648,0.276863694,-0.259958548,0.453619,0.24816328,-0.253606252,0.436849,0.242096106,-0.249263591,0.422107,0.242902858,-0.189863144,0.420736,0.209909073,-0.171757553,0.401666,0.192919215,-0.162491722,0.392131,0.177142964,-0.153925288,0.383463,0.257068418,-0.185673581,0.417121,0.216390422,-0.189511923,0.382056,0.233965771,-0.210753659,0.391097,0.254809937,-0.223014448,0.406619,0.273050565,-0.186863258,0.417436,0.238564279,-0.19892566,0.38669,0.239112636,-0.220717928,0.394203,0.245999355,-0.24374286,0.409619,0.299247409,-0.196670223,0.423512,0.262208077,-0.203909618,0.398378,0.265254317,-0.211582764,0.40315,0.278908571,-0.213039081,0.413845
0.321804062,-0.270098697,0.473008,0.284434981,-0.216798827,0.436182,0.303925493,-0.263658541,0.4714,0.2812423,-0.260112623,0.456113,0.261759426,-0.257346532,0.442232,0.260910002,-0.256939498,0.429948,0.251120586,-0.188641823,0.419633,0.219361704,-0.167766507,0.399137,0.203075889,-0.157085758,0.388889,0.187996438,-0.147211898,0.379572,0.263843701,-0.186404357,0.413554,0.216894029,-0.1825187,0.378721,0.228897171,-0.206815739,0.385253,0.245901679,-0.219796202,0.399903,0.278354418,-0.189233407,0.411932,0.240874861,-0.199024649,0.382144,0.243567783,-0.220001274,0.387642,0.255383201,-0.243465006,0.401866,0.302307398,-0.200893526,0.415924,0.263932625,-0.207392286,0.391563,0.256357874,-0.217848277,0.394906,0.256214013,-0.230889127,0.404776
0.324434024,-0.269265233,0.472714,0.302837782,-0.214065119,0.439607,0.312524863,-0.262130686,0.473265,0.299228266,-0.242448769,0.461974,0.273282108,-0.218584187,0.451433,0.264456016,-0.204620608,0.440715,0.272678047,-0.182049776,0.427344,0.235281089,-0.15840515,0.40124,0.216419844,-0.146484547,0.388188,0.199164456,-0.13558196,0.376323,0.284508596,-0.182193938,0.419263,0.23893986,-0.185126475,0.387454,0.244903402,-0.211492587,0.396379,0.26011666,-0.225909317,0.410687,0.297225097,-0.18710818,0.415651,0.256738101,-0.193784391,0.389169,0.256057212,-0.215360762,0.396653,0.269735197,-0.232808276,0.410337,0.317189752,-0.201320528,0.416746,0.278056213,-0.206632842,0.394762,0.27070077,-0.216786406,0.399567,0.271624115,-0.230698273,0.409168
0.335925245,-0.267374959,0.471769,0.315069572,-0.210822575,0.437422,0.325124078,-0.257354878,0.472697,0.311795469,-0.238965327,0.459427,0.286081837,-0.215456599,0.450497,0.275272221,-0.198771034,0.438552,0.28367654,-0.180100442,0.425167,0.248386516,-0.153460816,0.39489,0.230714854,-0.140116535,0.379752,0.219548127,-0.130900096,0.374374,0.295341643,-0.178224865,0.416318,0.250857791,-0.174048099,0.384112,0.256362644,-0.197773603,0.39097,0.274086827,-0.207166659,0.404773,0.308075454,-0.181528696,0.412186,0.26904613,-0.187369492,0.385589,0.265360595,-0.207186862,0.391395,0.275839087,-0.225350766,0.404454,0.328435737,-0.193980959,0.412878,0.289435709,-0.198583982,0.390881,0.281769933,-0.207596536,0.394487,0.282869568,-0.220088132,0.403626
0.358850241,-0.265871248,0.472653,0.335625489,-0.21049314,0.4374,0.353872733,-0.257172938,0.473543,0.33371301,-0.238854654,0.459059,0.307489981,-0.2156342,0.450183,0.296169134,-0.198551273,0.437764,0.303097131,-0.179797095,0.424739,0.266467635,-0.154657676,0.395138,0.248111894,-0.142054712,0.380337,0.23589031,-0.133110473,0.374005,0.315032852,-0.177885784,0.415739,0.270875194,-0.174176832,0.383132,0.275660515,-0.19683367,0.388624,0.292861644,-0.205860277,0.402143,0.328092155,-0.18115475,0.411566,0.289400594,-0.187306991,0.384663,0.285552012,-0.206661078,0.389354,0.295740496,-0.224313527,0.402091,0.349025133,-0.193540565,0.412354,0.309534466,-0.198298239,0.390186,0.301813819,-0.207000441,0.392992,0.302545496,-0.218992546,0.401882
0.375702829,-0.266007458,0.473616,0.346286632,-0.210844986,0.437981,0.359737187,-0.257615512,0.474195,0.3445647,-0.239051415,0.458944,0.318765367,-0.216485853,0.451016,0.307176866,-0.199261206,0.438282,0.312811216,-0.180103221,0.424762,0.275474499,-0.156558583,0.395842,0.256747426,-0.144744964,0.381382,0.239321622,-0.134400643,0.373467,0.325061543,-0.178141272,0.416085,0.280834353,-0.178634927,0.383106,0.287015994,-0.199884721,0.388493,0.304654651,-0.207054461,0.402113,0.338501504,-0.18138428,0.412213,0.299281372,-0.18733142,0.384506,0.295669716,-0.206691873,0.389085,0.306206647,-0.224503477,0.402102,0.360084219,-0.193778782,0.41341,0.320155883,-0.198628337,0.390923,0.312633001,-0.207409253,0.393659,0.313562454,-0.219538436,0.402633
0.384405004,-0.263290255,0.470091,0.356594614,-0.205549916,0.437975,0.368463026,-0.256440198,0.471469,0.35883126,-0.236409391,0.460755,0.331168241,-0.215281957,0.453662,0.319141354,-0.19570942,0.442804,0.323242834,-0.177582261,0.427183,0.288537398,-0.153672089,0.39775,0.271124174,-0.141660038,0.383034,0.257048219,-0.13381966,0.372847,0.33603845,-0.172268909,0.418241,0.296462148,-0.176935878,0.384588,0.307975009,-0.198804531,0.393476,0.325871735,-0.204589026,0.408439,0.349736019,-0.172777351,0.413828,0.313362187,-0.179001143,0.385281,0.315174946,-0.200431016,0.392717,0.327894909,-0.219992752,0.407215,0.371432373,-0.18201151,0.413837,0.336440064,-0.18680353,0.392724,0.33274993,-0.19607079,0.397636,0.336485936,-0.211537855,0.406971
0.402383389,-0.264836502,0.473035,0.380871225,-0.21358984,0.444429,0.401892157,-0.258217163,0.478743,0.380424928,-0.241136361,0.46702,0.360011283,-0.220931205,0.463734,0.345546145,-0.20156394,0.453149,0.35683056,-0.184753256,0.440685,0.317672803,-0.159308257,0.413369,0.298040439,-0.146541839,0.399711,0.283108667,-0.138294388,0.392522,0.362140821,-0.182397128,0.426852,0.314569208,-0.193339054,0.396719,0.30928322,-0.215701936,0.402015,0.324135622,-0.235660932,0.414578,0.369372617,-0.185102724,0.418088,0.316040761,-0.18114363,0.386644,0.327058096,-0.201180436,0.390802,0.348463399,-0.219916301,0.40516,0.382829527,-0.196416232,0.4125,0.343289758,-0.202259152,0.396129,0.334445331,-0.210212644,0.39914,0.33390533,-0.221036653,0.406069
0.422955596,-0.265573899,0.474043,0.401683829,-0.213525577,0.444714,0.422733525,-0.257848287,0.479239,0.401723803,-0.241068261,0.466242,0.380765082,-0.220834395,0.46262,0.365892424,-0.201503085,0.451755,0.37574072,-0.184740133,0.440016,0.338358685,-0.157456717,0.411811,0.319625924,-0.143766826,0.397708,0.306769569,-0.133112363,0.390231,0.382239711,-0.182483471,0.426693,0.334221317,-0.193426158,0.395907,0.329850763,-0.216218221,0.401436,0.344458798,-0.235753672,0.414308,0.390549583,-0.185246432,0.418416,0.339098719,-0.182725153,0.386528,0.348163324,-0.201365391,0.390886,0.36953346,-0.220103753,0.405503,0.405430391,-0.196570977,0.413507,0.365047254,-0.202367161,0.396445,0.356731761,-0.210588709,0.399568,0.355430038,-0.220923411,0.406783
0.437776052,-0.2617539,0.477278,0.411988916,-0.207556884,0.442139,0.432244818,-0.242460001,0.479908,0.405858981,-0.217788573,0.465837,0.385601016,-0.199065822,0.457147,0.371327096,-0.186948508,0.444605,0.392491009,-0.170636119,0.431801,0.348793122,-0.145961483,0.401577,0.327001224,-0.133668938,0.386465,0.308919041,-0.123197898,0.374778,0.39526349,-0.177766777,0.420548,0.332143429,-0.182039706,0.386405,0.320549551,-0.19947201,0.386395,0.335938924,-0.214472325,0.398742,0.40016555,-0.188191914,0.414509,0.337811303,-0.186235182,0.380231,0.341029587,-0.200062963,0.380093,0.360373618,-0.212618806,0.392676,0.410372627,-0.208270882,0.413118,0.361780184,-0.202279283,0.39317,0.349484414,-0.206831667,0.39296,0.346019726,-0.214936811,0.399899
0.450010038,-0.264153893,0.48715,0.426145142,-0.207500823,0.447871,0.439724358,-0.24465387,0.485731,0.41213305,-0.217948442,0.465694,0.39386584,-0.198542376,0.457175,0.380455844,-0.185474007,0.442706,0.393670396,-0.170199576,0.430609,0.360055796,-0.143925413,0.399358,0.342113658,-0.130746337,0.383733,0.32906537,-0.119940784,0.373239,0.407508492,-0.17694467,0.423736,0.348413536,-0.184193142,0.386341,0.339014573,-0.203214734,0.386821,0.353778027,-0.21714549,0.400498,0.420094655,-0.187158724,0.421685,0.363463067,-0.189140827,0.385744,0.365752415,-0.202383373,0.386081,0.38694846,-0.213445152,0.400729,0.439921156,-0.207289108,0.425572,0.389402401,-0.205639462,0.401482,0.376624189,-0.210211862,0.401386,0.37313727,-0.218789393,0.409828
0.468924695,-0.266589992,0.478152,0.442270086,-0.217432478,0.445074,0.466040151,-0.252592537,0.482317,0.440377666,-0.224578701,0.469845,0.421473904,-0.20369593,0.463458,0.405470973,-0.191611636,0.451893,0.428082555,-0.180626602,0.437556,0.383434788,-0.152830579,0.411224,0.361219332,-0.139029274,0.398059,0.341880212,-0.126836943,0.386982,0.425835284,-0.187528305,0.424749,0.359151441,-0.187481493,0.39323,0.342937702,-0.201469471,0.389957,0.355357691,-0.216373663,0.40033,0.426539927,-0.197797582,0.417242,0.361623766,-0.190285189,0.384912,0.356262964,-0.204913037,0.382074,0.378366781,-0.212582563,0.392704,0.43176004,-0.217737703,0.413821,0.383465398,-0.210253371,0.396599,0.369136219,-0.208303733,0.394573,0.36259549,-0.213453317,0.399849
0.472891645,-0.270410141,0.479008,0.452433681,-0.217910373,0.44554,0.468656683,-0.256966495,0.482953,0.447623251,-0.225874814,0.470045,0.430845046,-0.205968663,0.466402,0.413923891,-0.195744037,0.457241,0.436242724,-0.18146204,0.43758,0.397349451,-0.151999051,0.412751,0.377894563,-0.137256821,0.400336,0.361592361,-0.124325572,0.39055,0.43761513,-0.184632107,0.424975,0.372365158,-0.182661621,0.392843,0.359566128,-0.199516928,0.390527,0.369847868,-0.216587279,0.401422,0.441194178,-0.192325945,0.417669,0.376567029,-0.188735049,0.384835,0.372145775,-0.201908512,0.382784,0.391151363,-0.215769649,0.395223,0.449590628,-0.210344153,0.414544,0.400871159,-0.205207615,0.396737,0.386539612,-0.209171285,0.395254,0.380883172,-0.216320713,0.400946
0.474277377,-0.270988416,0.477001,0.456153503,-0.219166775,0.445128,0.471999367,-0.257972068,0.481799,0.460616758,-0.224698474,0.468669,0.445577238,-0.203985153,0.467011,0.431031651,-0.195755412,0.459936,0.451888234,-0.183971827,0.438911,0.411260541,-0.153177645,0.416241,0.39099969,-0.137845867,0.404906,0.372270481,-0.123835094,0.394237,0.447310813,-0.188302889,0.425543,0.376587219,-0.183174745,0.395445,0.361140804,-0.198123462,0.39083,0.370304367,-0.214352021,0.40027,0.443299514,-0.194536634,0.417463,0.377633569,-0.189357808,0.386268,0.37146809,-0.201396858,0.382321,0.389769122,-0.215047878,0.39334,0.447313275,-0.215690868,0.413188,0.400163879,-0.206216256,0.397299,0.384706655,-0.208583147,0.39453,0.378129703,-0.214270476,0.399049
0.476129949,-0.270976968,0.475035,0.463442804,-0.221443821,0.444416,0.484142079,-0.260624791,0.480153,0.469011797,-0.225351413,0.468253,0.453917863,-0.205736816,0.467644,0.437020318,-0.198124274,0.462894,0.460905447,-0.18600262,0.439111,0.419390186,-0.156184021,0.417147,0.398685313,-0.141333391,0.406165,0.375655457,-0.125707077,0.394769,0.454687186,-0.191291645,0.425602,0.385997042,-0.185798159,0.397316,0.363830025,-0.196798029,0.390428,0.369346804,-0.213116882,0.398498,0.451572698,-0.200497392,0.417291,0.380594863,-0.190068512,0.387716,0.372432263,-0.200969121,0.381903,0.389730881,-0.213972043,0.391523,0.451375332,-0.219725744,0.412548,0.403285284,-0.208375657,0.398165,0.386674631,-0.209750181,0.394105,0.378141056,-0.213909461,0.397592
0.485622289,-0.274644307,0.478338,0.470507493,-0.223708926,0.446637,0.489308058,-0.261152074,0.482736,0.471691869,-0.225731663,0.470337,0.456524576,-0.206718238,0.469903,0.439963865,-0.199394802,0.464611,0.462766699,-0.186349801,0.439963,0.426845736,-0.153610863,0.418517,0.408402834,-0.13724768,0.407794,0.390568046,-0.12203791,0.39696,0.457014954,-0.19263647,0.427158,0.387338914,-0.186666139,0.398058,0.366830848,-0.197588201,0.390937,0.371968698,-0.212513868,0.399228,0.454414857,-0.202648421,0.419525,0.385803935,-0.192050776,0.389422,0.377218581,-0.202048208,0.38343,0.393885502,-0.215037599,0.393192,0.455036726,-0.222773291,0.415741,0.406976987,-0.213192504,0.400505,0.390582399,-0.213064642,0.396276,0.383890921,-0.21688492,0.399999
0.494596122,-0.276874631,0.482315,0.474611628,-0.225446619,0.449732,0.494330798,-0.262387064,0.486042,0.475977386,-0.225974198,0.472648,0.459875222,-0.207512427,0.47205,0.444043819,-0.199445972,0.464935,0.465632475,-0.187408334,0.441835,0.42998588,-0.154828059,0.419606,0.411689081,-0.138459238,0.408491,0.393974512,-0.123231901,0.397302,0.460553961,-0.19438638,0.429711,0.390100419,-0.1879587,0.400013,0.369348032,-0.198536658,0.392548,0.374549494,-0.213351866,0.400947,0.459175066,-0.205925112,0.422721,0.390088256,-0.19511037,0.392278,0.382057001,-0.204169888,0.386016,0.401656821,-0.215865344,0.395808,0.460525012,-0.226955562,0.419821,0.411759788,-0.216599083,0.403901,0.395183264,-0.215832733,0.399445,0.387956592,-0.218836558,0.40332
0.504971473,-0.278568338,0.486596,0.48913353,-0.226062721,0.452862,0.506202725,-0.262687698,0.489935,0.490041767,-0.227428727,0.477324,0.470188609,-0.211220349,0.477594,0.45418958,-0.202937038,0.47058,0.477437254,-0.18767249,0.444005,0.443462287,-0.1527837,0.421848,0.426469936,-0.135325919,0.41077,0.410389959,-0.119263711,0.400086,0.473273324,-0.195209769,0.432135,0.401023773,-0.188883312,0.400966,0.382540019,-0.200400149,0.39501,0.390009625,-0.215379332,0.404415,0.472352312,-0.206238611,0.425458,0.401519527,-0.196020327,0.393744,0.395448564,-0.205199978,0.388725,0.417078672,-0.216177126,0.399525,0.475562778,-0.227509943,0.423106,0.424738108,-0.217303913,0.405929,0.408650852,-0.216764179,0.402322,0.402865687,-0.220489573,0.406969
0.506597363,-0.278243104,0.48663,0.485338194,-0.226697341,0.453234,0.505937321,-0.26333738,0.490113,0.490055019,-0.227155281,0.477838,0.470881981,-0.210803245,0.477834,0.455257463,-0.202740006,0.471755,0.474212515,-0.188434469,0.444699,0.441449993,-0.153387478,0.422291,0.424129063,-0.136042189,0.411088,0.404810651,-0.121684024,0.399904,0.469817706,-0.195986709,0.432714,0.400476134,-0.189974169,0.401955,0.382660632,-0.201557306,0.395611,0.391078569,-0.216150077,0.404746,0.471209103,-0.206436672,0.425913,0.400955859,-0.196959698,0.394539,0.394818902,-0.205906485,0.3892,0.413526643,-0.216795529,0.399735,0.474565089,-0.227539421,0.423361,0.424359029,-0.217847413,0.40655,0.407735203,-0.217286379,0.402727,0.398737716,-0.221063278,0.407161
0.5073593,-0.278337748,0.486662,0.484029803,-0.227072017,0.453595,0.506480344,-0.263509505,0.490149,0.487143203,-0.228126311,0.477704,0.470815769,-0.211706008,0.477887,0.453984696,-0.203614939,0.471495,0.472910938,-0.188868203,0.445192,0.446920114,-0.153821132,0.424588,0.434639639,-0.135328767,0.413295,0.422950362,-0.118396243,0.40303,0.469731437,-0.196318917,0.433276,0.398946123,-0.190529415,0.403077,0.382989165,-0.202153559,0.395904,0.392340506,-0.216188103,0.404577,0.468837571,-0.207192165,0.426501,0.399365345,-0.197575839,0.395662,0.394174495,-0.206375381,0.389644,0.413442456,-0.216759086,0.399693,0.474043619,-0.227712887,0.423927,0.424483602,-0.218458581,0.407545,0.405418234,-0.217738572,0.403245,0.397358867,-0.221327343,0.407344
0.508948361,-0.278741506,0.487665,0.484953942,-0.227293606,0.454504,0.507802319,-0.263928842,0.4911,0.487464718,-0.22860987,0.478343,0.471800321,-0.211804554,0.478773,0.455606868,-0.203064639,0.471548,0.472019352,-0.189205719,0.445996,0.448003286,-0.153625344,0.424695,0.436606661,-0.135124537,0.413237,0.4255464,-0.118289543,0.402821,0.470069585,-0.196347509,0.434128,0.399361254,-0.190619369,0.403838,0.383774734,-0.202419642,0.396706,0.393890041,-0.216353968,0.405424,0.470506372,-0.206687369,0.427401,0.401148016,-0.198604446,0.396494,0.395027863,-0.20719565,0.39051,0.416610111,-0.216911706,0.400599,0.47451902,-0.227546652,0.424898,0.424853558,-0.2184849,0.408428,0.407697007,-0.217725612,0.40415,0.39971739,-0.221409516,0.408287
0.506348078,-0.278567346,0.486982,0.482826813,-0.227015453,0.453765,0.506736863,-0.263545667,0.490267,0.479879328,-0.229476054,0.477308,0.466554653,-0.212769298,0.478222,0.451681867,-0.202536274,0.46957,0.468996278,-0.188957864,0.445039,0.445560533,-0.15384145,0.423951,0.433549755,-0.135594803,0.412534,0.424538767,-0.118780741,0.402155,0.465689526,-0.196151196,0.433354,0.395655921,-0.191847722,0.403151,0.382539501,-0.203195818,0.395655,0.394280741,-0.216474253,0.404227,0.466087482,-0.206857111,0.426783,0.396815636,-0.197225349,0.396011,0.386342236,-0.205759027,0.389732,0.409445314,-0.216964581,0.399649,0.470892374,-0.227685275,0.424469,0.421427769,-0.218591696,0.408012,0.404303555,-0.217687632,0.403518,0.39772062,-0.22123399,0.407567
0.507501014,-0.279063058,0.48794,0.483421957,-0.22740285,0.454517,0.507571395,-0.264039704,0.491208,0.480603387,-0.23009075,0.47787,0.46917885,-0.21237129,0.478269,0.452649859,-0.20234046,0.469648,0.47013605,-0.189194553,0.445688,0.445487522,-0.153920521,0.423647,0.434924538,-0.135745439,0.412006,0.42413545,-0.119089075,0.401423,0.466907468,-0.196403873,0.433979,0.396865443,-0.191779269,0.403458,0.38337512,-0.203524742,0.396379,0.395643255,-0.217240377,0.405198,0.466558002,-0.207154355,0.427408,0.397345981,-0.197883665,0.396337,0.390773388,-0.206625474,0.3904,0.413578949,-0.216861326,0.400574,0.472292383,-0.228102021,0.425127,0.42242449,-0.218842357,0.408423,0.406648149,-0.21801139,0.404168,0.400698617,-0.221686285,0.408397
0.509955792,-0.279351621,0.488975,0.482612812,-0.227645835,0.454962,0.507833152,-0.26426601,0.491823,0.480500613,-0.230300712,0.478076,0.466510098,-0.212338202,0.478544,0.450579336,-0.203031012,0.469092,0.468209875,-0.189012834,0.445351,0.446641157,-0.153686589,0.423249,0.439334015,-0.135045108,0.411987,0.430657014,-0.118434546,0.40175,0.465742016,-0.1964783,0.434062,0.394550089,-0.192019159,0.403065,0.382758572,-0.203540882,0.395988,0.394725328,-0.216928479,0.404979,0.465919606,-0.2073815,0.427891,0.397140983,-0.199270115,0.396513,0.391944794,-0.207630494,0.390584,0.413847469,-0.216998618,0.400886,0.472036142,-0.228566463,0.426168,0.420981611,-0.219131073,0.408952,0.406030467,-0.21831052,0.404679,0.400499373,-0.222008644,0.409081
0.511288071,-0.279392126,0.489748,0.483449097,-0.227903701,0.455608,0.508787614,-0.264195747,0.492407,0.481012659,-0.230668088,0.478572,0.467717241,-0.213486445,0.479683,0.451314634,-0.20362468,0.469502,0.468255125,-0.189219808,0.445701,0.447320359,-0.153777986,0.423518,0.440088502,-0.135241857,0.412061,0.431690017,-0.118573189,0.401646,0.465987733,-0.196728809,0.434631,0.394871888,-0.192477379,0.403643,0.382844814,-0.203844215,0.396262,0.394972311,-0.217055258,0.405154,0.466452918,-0.207742178,0.42865,0.39756333,-0.200115928,0.397347,0.392290395,-0.208184123,0.391174,0.414281661,-0.217223583,0.401347,0.472773325,-0.229093744,0.427168,0.421722162,-0.21964418,0.409891,0.406556952,-0.218685829,0.405435,0.401191471,-0.222331029,0.409787
0.512325678,-0.279651971,0.490468,0.484132283,-0.228180451,0.456287,0.509528581,-0.264444933,0.493052,0.481423472,-0.231289531,0.479163,0.468763727,-0.214631118,0.480799,0.451895411,-0.204128392,0.469845,0.468252126,-0.189521433,0.446265,0.448042997,-0.1539196,0.423921,0.440719723,-0.135418253,0.412335,0.432431446,-0.118704126,0.401802,0.46640651,-0.197026669,0.435284,0.39552495,-0.193328343,0.404312,0.383222802,-0.204245817,0.396797,0.395506518,-0.217341858,0.405641,0.467203758,-0.208040347,0.429381,0.398041782,-0.200809967,0.39812,0.392770505,-0.208716848,0.391837,0.41487073,-0.217530299,0.40195,0.473400251,-0.229530231,0.427995,0.422887298,-0.22011772,0.410702,0.407103428,-0.219053556,0.406165,0.401882394,-0.222664987,0.410492
0.513300676,-0.280115646,0.491375,0.484514626,-0.228462323,0.456917,0.510150435,-0.264865367,0.493834,0.479731919,-0.23162516,0.478345,0.46837261,-0.216625328,0.481771,0.452902439,-0.20674504,0.471513,0.467726962,-0.189749389,0.446623,0.449184017,-0.153909513,0.423733,0.442619692,-0.135871935,0.412309,0.435515434,-0.119193527,0.401924,0.466363732,-0.197221139,0.435744,0.395372537,-0.193799701,0.404459,0.382888118,-0.205183941,0.397197,0.394786153,-0.217474421,0.406234,0.467533211,-0.20822973,0.429951,0.398253791,-0.201544911,0.398433,0.392564671,-0.208951266,0.39236,0.415954838,-0.21770388,0.402661,0.474269346,-0.229764629,0.428735,0.423471412,-0.22038852,0.411159,0.408100554,-0.219337661,0.406762,0.403566605,-0.222993301,0.411244
0.512580268,-0.280395556,0.491736,0.484525639,-0.228699376,0.457175,0.509341347,-0.265171778,0.494211,0.48103809,-0.232529385,0.479834,0.467905828,-0.216671779,0.481285,0.451079682,-0.206726512,0.470281,0.46845358,-0.190050175,0.446862,0.450687176,-0.153991737,0.423672,0.443513681,-0.136119738,0.412326,0.436717014,-0.11947313,0.402012,0.466449014,-0.197476607,0.435939,0.395675023,-0.193349249,0.404463,0.383033238,-0.205040906,0.397501,0.395042115,-0.21804282,0.406701,0.468242936,-0.208509767,0.43012,0.398099499,-0.201715973,0.398413,0.39265157,-0.209218147,0.392586,0.415824326,-0.217841272,0.40306,0.474230945,-0.230046594,0.42889,0.423310031,-0.220517695,0.411175,0.40776072,-0.219500306,0.406951,0.404034654,-0.223097148,0.411548
0.512598649,-0.28098408,0.492626,0.484223159,-0.229101001,0.457692,0.509098498,-0.265641811,0.494903,0.480077842,-0.232270194,0.479016,0.468253086,-0.217020312,0.481638,0.451801034,-0.207378541,0.471022,0.468463252,-0.190186129,0.446973,0.450837421,-0.154068375,0.423428,0.443847621,-0.136204511,0.412094,0.437211837,-0.11957578,0.401789,0.466658394,-0.197740876,0.436227,0.39547489,-0.193326388,0.404346,0.382838441,-0.205323358,0.397683,0.395070361,-0.218440296,0.407124,0.467990512,-0.208906012,0.430587,0.398145937,-0.201933346,0.398564,0.392432512,-0.209677231,0.392984,0.416135927,-0.218052466,0.403686,0.474336539,-0.230585066,0.429626,0.423037384,-0.220813774,0.411529,0.408019119,-0.219778988,0.407468,0.405117145,-0.223399043,0.412263
0.512336455,-0.281128997,0.493059,0.483917001,-0.22926716,0.457957,0.508719941,-0.265700989,0.495234,0.479900643,-0.232343967,0.478948,0.467851715,-0.216975063,0.481222,0.450770214,-0.207489706,0.470388,0.467983381,-0.190251341,0.447037,0.451091559,-0.154174178,0.423378,0.444296729,-0.136329698,0.412124,0.437851613,-0.119727402,0.401893,0.46632274,-0.197919609,0.436388,0.3950319,-0.193527504,0.404336,0.382497986,-0.205512201,0.397776,0.394430255,-0.218737367,0.407311,0.467779109,-0.209178913,0.430843,0.397787331,-0.202402069,0.398692,0.392269416,-0.210011861,0.393199,0.416296539,-0.218091347,0.403987,0.474276818,-0.23096744,0.430018,0.422799704,-0.221037904,0.411753,0.408201677,-0.21993127,0.407747,0.405778207,-0.223590069,0.412622
0.504159646,-0.27720024,0.486198,0.479846513,-0.227936317,0.454852,0.503861121,-0.26362497,0.491467,0.480913089,-0.233139401,0.480312,0.460908414,-0.214225945,0.474356,0.444154621,-0.205542003,0.463777,0.469902026,-0.191506081,0.449457,0.450803123,-0.154247076,0.422537,0.443454875,-0.136092525,0.409142,0.435627706,-0.119069176,0.396965,0.464841472,-0.197911872,0.43559,0.395523009,-0.194406734,0.405417,0.385643436,-0.207875831,0.402401,0.395620784,-0.222090153,0.412368,0.462993265,-0.207774399,0.427051,0.394322413,-0.200166729,0.395628,0.390589213,-0.208268195,0.392981,0.413764945,-0.217130278,0.40259,0.464845782,-0.227231038,0.42216,0.416625004,-0.218495755,0.406316,0.404474076,-0.218423797,0.404489,0.40239681,-0.221973101,0.409357
0.503074384,-0.276854102,0.48582,0.478427192,-0.227538237,0.453916,0.502531704,-0.26309601,0.490779,0.480276934,-0.233202348,0.480213,0.45977278,-0.214215071,0.4736,0.443966602,-0.205977476,0.463704,0.468029919,-0.190919376,0.447898,0.450868088,-0.15433313,0.422421,0.444242818,-0.136414658,0.409683,0.437200433,-0.119585284,0.398103,0.463207507,-0.197512913,0.434312,0.397482842,-0.195342833,0.407687,0.388751488,-0.209635911,0.405945,0.397898235,-0.22342286,0.41503,0.461591987,-0.207536651,0.426055,0.404363949,-0.205648545,0.405979,0.401536821,-0.214754643,0.404813,0.422864396,-0.221825947,0.411606,0.463778149,-0.227200865,0.42158,0.415018697,-0.21795367,0.405005,0.403524732,-0.218068038,0.403746,0.402165937,-0.221782977,0.409092
0.502752029,-0.276969869,0.486175,0.478292423,-0.227796677,0.454255,0.502244674,-0.263176846,0.491125,0.479904697,-0.233481187,0.480437,0.45975571,-0.214532592,0.473762,0.443937137,-0.206382268,0.463772,0.468010551,-0.191161093,0.448217,0.45145563,-0.154585306,0.42283,0.444878053,-0.136667086,0.410136,0.437974361,-0.119858527,0.398597,0.463188968,-0.197848361,0.434641,0.397434198,-0.195377343,0.407975,0.38887409,-0.209769893,0.406314,0.398091985,-0.223570408,0.415438,0.4615543,-0.207935326,0.426394,0.404365523,-0.205826659,0.406277,0.40067701,-0.214753898,0.405176,0.422843195,-0.221802159,0.412001,0.463682361,-0.227644137,0.421932,0.415028826,-0.218297218,0.40532,0.403503279,-0.218303744,0.404107,0.402195197,-0.221915128,0.409484
0.50249925,-0.277163998,0.486536,0.4782618,-0.228141177,0.454631,0.502057875,-0.263347918,0.491495,0.479743683,-0.233892842,0.48079,0.459678398,-0.2147086,0.473913,0.444346855,-0.20463299,0.463765,0.468151491,-0.191505356,0.448611,0.452424053,-0.155045486,0.423371,0.445630758,-0.13704796,0.410751,0.438764329,-0.120285326,0.399278,0.463296084,-0.198273619,0.435026,0.397580252,-0.195556007,0.408396,0.388633798,-0.209867327,0.406666,0.398084727,-0.223677351,0.415756,0.46160936,-0.208411759,0.42677,0.404313789,-0.204859323,0.406689,0.399464353,-0.213889338,0.405532,0.419078079,-0.220920295,0.413175,0.463637273,-0.228149716,0.422296,0.415106561,-0.218728644,0.405716,0.403664441,-0.218627667,0.404464,0.402665304,-0.222154582,0.409814
0.50251749,-0.277507389,0.487159,0.478329228,-0.228532288,0.4551,0.502031748,-0.263603127,0.492022,0.479554472,-0.234291007,0.481115,0.459569015,-0.21486967,0.474031,0.444345154,-0.204305801,0.463709,0.468176656,-0.191802234,0.448894,0.453119025,-0.155411992,0.423656,0.446007601,-0.137280199,0.411037,0.439112158,-0.120544417,0.399565,0.463392685,-0.198694237,0.435401,0.397551844,-0.195648962,0.408638,0.388210783,-0.209866165,0.406827,0.398018474,-0.223726468,0.41594,0.461759857,-0.208931038,0.427234,0.404440253,-0.204340521,0.407007,0.399385619,-0.213830841,0.405783,0.418931091,-0.220959556,0.413462,0.463843882,-0.228778805,0.422889,0.415276997,-0.219209391,0.406203,0.403904374,-0.218994374,0.4049,0.403257243,-0.222461249,0.410268
0.502470982,-0.277814929,0.487719,0.478348419,-0.228900228,0.455523,0.501951761,-0.263829935,0.492496,0.479362975,-0.234688315,0.481438,0.459501289,-0.21505028,0.474192,0.44441915,-0.204013549,0.463732,0.468175857,-0.192088331,0.449152,0.45382137,-0.155781003,0.423948,0.446396161,-0.137492818,0.411346,0.439494161,-0.120780298,0.399889,0.463451078,-0.199098346,0.43574,0.397487406,-0.19572419,0.408843,0.387815564,-0.209879985,0.407017,0.398048555,-0.223812456,0.416174,0.461862843,-0.209428696,0.427654,0.404522323,-0.203797119,0.407281,0.399423959,-0.213840438,0.406043,0.418955914,-0.221050631,0.413775,0.463985943,-0.229375874,0.423423,0.415381607,-0.2196559,0.406626,0.404120181,-0.219348202,0.405312,0.403841325,-0.22276359,0.410714
0.502382275,-0.277986926,0.488134,0.47832888,-0.229138638,0.455853,0.501866291,-0.263943558,0.492857,0.47930285,-0.234895125,0.481755,0.459553179,-0.215018926,0.474406,0.444617976,-0.203274912,0.463907,0.468185034,-0.192271069,0.449378,0.454183375,-0.156027703,0.424132,0.446829092,-0.137778636,0.411508,0.439929101,-0.12110797,0.400033,0.463473831,-0.199374758,0.436018,0.397435875,-0.195831503,0.409047,0.38769996,-0.209906769,0.407182,0.397906144,-0.223814672,0.416352,0.461889194,-0.209776568,0.427982,0.40458227,-0.203242099,0.407527,0.399478891,-0.213862045,0.406257,0.418982912,-0.221120639,0.414008,0.464003527,-0.229795848,0.423822,0.415403466,-0.219983322,0.406966,0.404103287,-0.219615509,0.405627,0.403888971,-0.223000673,0.41104
0.502397386,-0.278194219,0.488648,0.478314556,-0.22936387,0.456241,0.501838463,-0.264084358,0.493291,0.479248344,-0.235126259,0.482134,0.459554694,-0.215004644,0.474655,0.444724294,-0.202567822,0.46413,0.468099839,-0.192422901,0.449611,0.454402887,-0.156222432,0.424317,0.447096731,-0.138003841,0.41167,0.44017302,-0.121366678,0.400172,0.463440595,-0.199612956,0.436329,0.397306513,-0.195932739,0.409247,0.38751105,-0.209929422,0.407321,0.397714648,-0.223821058,0.416513,0.461900412,-0.210085134,0.428367,0.40461563,-0.203202492,0.407594,0.399366118,-0.213795804,0.406261,0.41893748,-0.221138532,0.414118,0.464074099,-0.230187549,0.424315,0.415441396,-0.220302364,0.40737,0.404095237,-0.219883058,0.405993,0.403956777,-0.223251993,0.411423
