sluyters/QuantumLeap/src/datasets/gesture/HandGestureDataset_SHREC2017_csv/Gesture7/finger_1/subject_16_essai_1_skeletons_world.csv
Wrist_x,Wrist_y,Wrist_z,Palm_x,Palm_y,Palm_z,thumb_base_x,thumb_base_y,thumb_base_z,thumb_first_joint_x,thumb_first_joint_y,thumb_first_joint_z,thumb_second_joint_x,thumb_second_joint_y,thumb_second_joint_z,thumb_tip_x,thumb_tip_y,thumb_tip_z,index_base_x,index_base_y,index_base_z,index_first_joint_x,index_first_joint_y,index_first_joint_z,index_second_joint_x,index_second_joint_y,index_second_joint_z,index_tip_x,index_tip_y,index_tip_z,middle_base_x,middle_base_y,middle_base_z,middle_first_joint_x,middle_first_joint_y,middle_first_joint_z,middle_second_joint_x,middle_second_joint_y,middle_second_joint_z,middle_tip_x,middle_tip_y,middle_tip_z,ring_base_x,ring_base_y,ring_base_z,ring_first_joint_x,ring_first_joint_y,ring_first_joint_z,ring_second_joint_x,ring_second_joint_y,ring_second_joint_z,ring_tip_x,ring_tip_y,ring_tip_z,pinky_base_x,pinky_base_y,pinky_base_z,pinky_first_joint_x,pinky_first_joint_y,pinky_first_joint_z,pinky_second_joint_x,pinky_second_joint_y,pinky_second_joint_z,pinky_tip_x,pinky_tip_y,pinky_tip_z,
0.55942578,-0.38202835,0.551878,0.54017916,-0.32721766,0.532581,0.54142311,-0.36969176,0.55233,0.51094936,-0.33717344,0.540682,0.48230607,-0.30936992,0.52547,0.46790599,-0.28677155,0.516873,0.51043149,-0.27285523,0.520067,0.49760415,-0.22243979,0.505767,0.49035768,-0.20537251,0.498616,0.48473323,-0.19122836,0.492116,0.52898569,-0.27254079,0.514202,0.50459375,-0.23568051,0.484854,0.4856351,-0.25216268,0.467734,0.49019724,-0.27212976,0.474804,0.54534876,-0.27798549,0.511453,0.52206511,-0.28494746,0.483664,0.54209246,-0.32128236,0.501227,0.56161264,-0.33196869,0.521084,0.56852438,-0.29173206,0.511888,0.53111995,-0.29409588,0.490641,0.53043162,-0.3128435,0.50399,0.53680843,-0.3258087,0.517487
0.55867952,-0.38253856,0.554078,0.53817365,-0.32351111,0.531238,0.53586511,-0.36688106,0.552768,0.50205336,-0.33337213,0.54087,0.47336157,-0.30570802,0.527138,0.45780917,-0.28226597,0.517214,0.50143059,-0.27037001,0.514025,0.49678906,-0.22187763,0.505062,0.49357776,-0.20516958,0.500581,0.4897886,-0.19223355,0.496507,0.52123514,-0.27198207,0.509486,0.48889086,-0.23790385,0.477323,0.46721347,-0.25392658,0.45856,0.47103725,-0.27224956,0.464207,0.53713853,-0.27804864,0.50821,0.50487219,-0.29215531,0.481892,0.51050085,-0.32122157,0.4987,0.52392305,-0.32528968,0.513981,0.56256483,-0.29367043,0.511022,0.51935919,-0.29757611,0.486696,0.5159776,-0.3146623,0.499176,0.5278587,-0.32475704,0.513042
0.55885925,-0.38499529,0.556855,0.5366699,-0.32561574,0.532484,0.53653984,-0.36788255,0.554862,0.50152106,-0.33497067,0.541734,0.47230888,-0.30653803,0.527549,0.45657703,-0.28277432,0.517394,0.49786394,-0.27081089,0.513341,0.4963665,-0.22222379,0.505053,0.49289323,-0.20660523,0.500908,0.49036784,-0.19282862,0.497141,0.51807276,-0.27323016,0.509274,0.48575834,-0.24576159,0.475393,0.46374995,-0.26144086,0.455629,0.46688224,-0.27922267,0.460433,0.53688568,-0.27979594,0.508552,0.50344356,-0.29281643,0.4807,0.5082144,-0.32147723,0.49695,0.5208424,-0.32528553,0.511723,0.56316739,-0.2960943,0.512295,0.51905022,-0.29898576,0.486713,0.51505331,-0.31578487,0.498733,0.52245859,-0.32572333,0.512397
0.55389056,-0.38242995,0.557318,0.53362755,-0.32552969,0.533146,0.53336046,-0.36633867,0.554911,0.49986246,-0.3339459,0.541027,0.47056648,-0.30455917,0.526326,0.45493438,-0.2803819,0.516015,0.49834055,-0.27002333,0.513598,0.4947955,-0.22102605,0.504228,0.49145839,-0.20683361,0.499543,0.48916037,-0.19329134,0.495961,0.51900234,-0.2733488,0.510124,0.48880687,-0.26101675,0.476366,0.46085235,-0.27596478,0.456674,0.46209702,-0.28439036,0.461652,0.53807233,-0.28065873,0.509869,0.50466659,-0.2932801,0.481634,0.50944985,-0.3223216,0.498041,0.52192729,-0.32648588,0.512957,0.56441766,-0.29784031,0.514117,0.52049337,-0.30022855,0.488447,0.51647159,-0.3176989,0.5006,0.52205463,-0.33034924,0.514347
0.55190498,-0.38220877,0.557081,0.53060169,-0.32606606,0.532678,0.5297603,-0.36595534,0.554239,0.49474434,-0.33218897,0.539238,0.46857929,-0.30358315,0.524719,0.45352865,-0.27951913,0.514647,0.49633974,-0.26943512,0.512408,0.49128247,-0.22055125,0.503135,0.48864878,-0.20688678,0.498498,0.48677045,-0.19291945,0.49454,0.51741458,-0.27318154,0.509437,0.48653236,-0.26050639,0.475428,0.45855632,-0.27537468,0.455589,0.45966288,-0.28371662,0.460488,0.53683254,-0.28086068,0.50962,0.50350942,-0.29293627,0.480993,0.50811006,-0.32253548,0.497365,0.51570629,-0.33353343,0.512249,0.56268099,-0.29949173,0.51442,0.51966388,-0.30039729,0.488403,0.51485527,-0.31893476,0.500521,0.51879082,-0.33241448,0.514376
0.550558,-0.38395528,0.558914,0.52765617,-0.32622337,0.532241,0.52702312,-0.36533929,0.55639,0.49510963,-0.33367629,0.541284,0.46793841,-0.30373423,0.526864,0.45460264,-0.28046384,0.516748,0.49365678,-0.26937664,0.510843,0.49039042,-0.22052466,0.502259,0.48351549,-0.20864613,0.497967,0.47858416,-0.2034366,0.494065,0.51281651,-0.27336477,0.506839,0.47800803,-0.25879709,0.470689,0.44604948,-0.2733535,0.449602,0.45044844,-0.2796468,0.453041,0.53011362,-0.28146085,0.506416,0.49153606,-0.29263882,0.476314,0.49409592,-0.32436883,0.491494,0.50247039,-0.33684949,0.505295,0.55586351,-0.29988446,0.510939,0.50767106,-0.30099181,0.483759,0.50223116,-0.31811558,0.494925,0.51142816,-0.32952082,0.508821
0.54279648,-0.38322065,0.558382,0.52469169,-0.32751659,0.531692,0.52375027,-0.36611029,0.556482,0.48692137,-0.33018371,0.54183,0.46095187,-0.29846436,0.528762,0.44890664,-0.27601522,0.516981,0.49263718,-0.26995483,0.511094,0.49002981,-0.22020432,0.501489,0.48303929,-0.2123943,0.496687,0.47854968,-0.20562574,0.492479,0.51068992,-0.27371185,0.506272,0.47382953,-0.25990531,0.469458,0.44381104,-0.27320683,0.447984,0.44590003,-0.27946618,0.451098,0.52827259,-0.28178447,0.505178,0.48904492,-0.29177208,0.474361,0.49137114,-0.32402374,0.489319,0.4984957,-0.3390114,0.502918,0.55226088,-0.30183334,0.508925,0.50501365,-0.30053465,0.482056,0.49971874,-0.31764985,0.493101,0.50699675,-0.32948432,0.50684
0.53709035,-0.3837245,0.557448,0.51882415,-0.32980425,0.530668,0.52043612,-0.3671184,0.557422,0.487131,-0.3320462,0.544761,0.46278602,-0.30021583,0.532743,0.45045317,-0.2748373,0.522976,0.49248801,-0.27098404,0.512451,0.48863806,-0.22044378,0.500242,0.48234695,-0.21442802,0.494137,0.47647682,-0.20585113,0.489526,0.50825992,-0.27527818,0.505163,0.47005162,-0.26118359,0.46799,0.43900873,-0.27394055,0.446305,0.44008922,-0.2796581,0.448704,0.52106991,-0.28676922,0.502048,0.47803678,-0.29218702,0.469433,0.47786207,-0.32381983,0.483512,0.48661436,-0.33959763,0.49631,0.54144062,-0.30591008,0.503466,0.49390665,-0.30225994,0.477592,0.48775796,-0.31827094,0.488094,0.49654568,-0.32918219,0.501273
0.53538901,-0.38466718,0.557583,0.51793353,-0.33081254,0.530785,0.51704905,-0.36833629,0.55719,0.48603423,-0.33243666,0.544607,0.46163542,-0.30030279,0.532239,0.44931513,-0.27484706,0.52217,0.49120551,-0.27199,0.512077,0.48837937,-0.22142289,0.499885,0.48194844,-0.21522473,0.493789,0.47641599,-0.20851627,0.488416,0.50629671,-0.27874988,0.505262,0.46798126,-0.26343929,0.468086,0.43622076,-0.27580984,0.4464,0.43800858,-0.28146745,0.448924,0.52126983,-0.28774787,0.502539,0.47741418,-0.2930145,0.469235,0.47739502,-0.32464222,0.483436,0.48259113,-0.34163488,0.496345,0.54213179,-0.30715341,0.504415,0.49425238,-0.30359136,0.478317,0.48905882,-0.31909142,0.488928,0.50022828,-0.32799882,0.502228
0.5320007,-0.38673735,0.557433,0.51541573,-0.33340229,0.530227,0.51682296,-0.36994161,0.558293,0.48774954,-0.33427241,0.547115,0.46451494,-0.30203127,0.535756,0.4525733,-0.27638557,0.525636,0.49117313,-0.27538806,0.512873,0.4832171,-0.22353004,0.493535,0.47255302,-0.21955956,0.483865,0.46228692,-0.21418278,0.475727,0.50554018,-0.28135429,0.504316,0.46506562,-0.26608895,0.46673,0.43269913,-0.27779568,0.444804,0.43301112,-0.28245538,0.446514,0.5188617,-0.2899514,0.500202,0.46896295,-0.2965736,0.464841,0.46724597,-0.32667681,0.47804,0.47515226,-0.3389846,0.490039,0.53774842,-0.31225101,0.50054,0.48734459,-0.30814155,0.47498,0.48264568,-0.32184054,0.484933,0.49386584,-0.32794571,0.497975
0.52562916,-0.38970605,0.556981,0.51093966,-0.33718633,0.527531,0.51239301,-0.37234879,0.558712,0.4865263,-0.33517399,0.547702,0.46522386,-0.30262864,0.536746,0.45463693,-0.27749462,0.525805,0.48915679,-0.27841071,0.50979,0.48095765,-0.22525778,0.488475,0.46687189,-0.2185408,0.477818,0.45392566,-0.21236369,0.46813,0.5009311,-0.28364195,0.499484,0.44745655,-0.27492075,0.459926,0.41291315,-0.28350629,0.43685,0.41204159,-0.28833465,0.436268,0.51154885,-0.29597838,0.494171,0.45185237,-0.29632797,0.456604,0.44781686,-0.32231306,0.467457,0.46707402,-0.33994323,0.486963,0.52754119,-0.31638006,0.49354,0.47158619,-0.30920986,0.467474,0.46603971,-0.32045034,0.475652,0.48067183,-0.32540114,0.488037
0.51971161,-0.39009771,0.555903,0.50464095,-0.33747901,0.524615,0.50717834,-0.37175221,0.557109,0.48365331,-0.33241398,0.544548,0.47032045,-0.29307479,0.533872,0.46526135,-0.26731784,0.523337,0.48575942,-0.27825385,0.504942,0.47690527,-0.22388298,0.479309,0.46556568,-0.21701091,0.466493,0.45195676,-0.20976818,0.454842,0.49652629,-0.28557651,0.494816,0.44388957,-0.27376717,0.45366,0.40746004,-0.28088765,0.429652,0.40432161,-0.28413752,0.427716,0.50690159,-0.2961589,0.48985,0.45531681,-0.29407841,0.450956,0.44347635,-0.31889457,0.460573,0.44886756,-0.34039705,0.48012,0.52066034,-0.32062936,0.489967,0.46579641,-0.31748155,0.462732,0.46075211,-0.32932642,0.469918,0.4646855,-0.34260668,0.482289
0.51744111,-0.38937029,0.555046,0.50375638,-0.33510088,0.522395,0.50584828,-0.36946678,0.554921,0.48087106,-0.32923727,0.540211,0.46554531,-0.28966412,0.527356,0.45985527,-0.26381334,0.51619,0.48308853,-0.27683361,0.500063,0.47710756,-0.22329695,0.474912,0.46220013,-0.21597513,0.462337,0.44856799,-0.20926956,0.450904,0.49456977,-0.28611619,0.491298,0.44218944,-0.27496594,0.448901,0.40397744,-0.28055366,0.424169,0.39915915,-0.28118996,0.421758,0.50547188,-0.29819445,0.4876,0.44772699,-0.29917976,0.448027,0.43856607,-0.31754394,0.457434,0.45050695,-0.33513817,0.47717,0.52120538,-0.3209262,0.489445,0.46429257,-0.31727084,0.460701,0.45916663,-0.32856455,0.467645,0.46369753,-0.34180799,0.480454
0.51467211,-0.38894884,0.552542,0.50179173,-0.33623366,0.520161,0.50411661,-0.36916234,0.553173,0.48951689,-0.33152076,0.539718,0.47569222,-0.29406287,0.527633,0.47085977,-0.26841953,0.516542,0.49031173,-0.27864281,0.498997,0.48845784,-0.22973535,0.473497,0.46915496,-0.22284758,0.460748,0.44940599,-0.21318926,0.449157,0.49985021,-0.287641,0.489322,0.43938644,-0.27480094,0.447218,0.40092597,-0.28204152,0.422657,0.39724191,-0.28543102,0.420032,0.50650919,-0.29849075,0.484845,0.4454524,-0.29237021,0.449407,0.43269267,-0.3158664,0.458665,0.44436024,-0.33648755,0.476672,0.52096145,-0.32132175,0.485735,0.46445318,-0.3120614,0.457643,0.45919078,-0.32858581,0.464341,0.47641197,-0.34026144,0.476825
0.51600485,-0.39078023,0.554311,0.50624779,-0.33681387,0.520737,0.50574768,-0.36908935,0.553361,0.48876606,-0.32951386,0.537485,0.48005721,-0.28976926,0.524845,0.4771182,-0.26453559,0.514132,0.49502238,-0.27818724,0.496703,0.49577803,-0.22920342,0.474144,0.48002264,-0.22294343,0.462865,0.46555394,-0.21722276,0.452611,0.50541011,-0.28959837,0.488761,0.44161287,-0.27864832,0.445564,0.39858354,-0.27967584,0.420366,0.38335639,-0.28945439,0.417522,0.51547733,-0.30366218,0.48584,0.45238261,-0.29739136,0.449829,0.43978087,-0.31984531,0.459155,0.44670662,-0.33647437,0.477422,0.53013672,-0.32925106,0.48876,0.47096603,-0.3173332,0.459083,0.46149487,-0.32955309,0.465748,0.4647918,-0.34271067,0.478777
0.5130289,-0.38688576,0.549367,0.50956647,-0.33936831,0.517337,0.50071883,-0.36656403,0.548712,0.49551137,-0.32393054,0.534391,0.48617742,-0.28667278,0.52188,0.47717198,-0.26183453,0.509123,0.50424404,-0.2792994,0.494735,0.4867778,-0.23209996,0.460959,0.46152268,-0.22501315,0.44407,0.43851136,-0.2185817,0.428718,0.51275005,-0.29226658,0.486832,0.4480533,-0.27876911,0.444916,0.4015383,-0.27930217,0.420465,0.39457305,-0.28933426,0.418936,0.52092632,-0.3074075,0.483775,0.4567381,-0.2996355,0.450369,0.44353031,-0.32131868,0.461061,0.45058258,-0.3389729,0.478822,0.5326179,-0.33388219,0.486249,0.47167484,-0.31466523,0.457403,0.46121645,-0.31879131,0.465083,0.47166233,-0.32838295,0.478213
0.51013836,-0.38595985,0.546618,0.52443809,-0.34087818,0.519162,0.50344086,-0.3652908,0.54674,0.50472286,-0.32525193,0.535453,0.49048575,-0.28825731,0.520087,0.48293929,-0.26197585,0.507605,0.51882593,-0.28313086,0.500679,0.49505619,-0.24737463,0.467658,0.48406374,-0.23066545,0.452541,0.47465876,-0.21545671,0.439222,0.52807266,-0.29602424,0.493014,0.4706182,-0.28692686,0.455198,0.42824746,-0.29161308,0.433139,0.42005411,-0.30345858,0.434987,0.53633383,-0.31070202,0.489661,0.48043816,-0.30780516,0.45436,0.48333247,-0.33663965,0.467816,0.50708045,-0.34908641,0.48736,0.5472392,-0.33580856,0.49093,0.49254782,-0.32754461,0.464785,0.49212244,-0.34659082,0.474895,0.49973142,-0.36465496,0.488034
0.51206529,-0.38713066,0.546641,0.52511456,-0.34069841,0.518583,0.50746017,-0.36547898,0.546674,0.50765444,-0.32515408,0.535509,0.50009397,-0.29064199,0.521362,0.49887329,-0.2664169,0.511062,0.51910227,-0.2826721,0.499574,0.49450336,-0.2469376,0.466175,0.48327605,-0.23015938,0.45092,0.47365866,-0.21489607,0.43748,0.52823657,-0.2955787,0.491861,0.46996743,-0.28668204,0.453485,0.42763339,-0.29165996,0.431099,0.4201007,-0.30267435,0.432534,0.53646724,-0.31029396,0.488532,0.47995102,-0.30722205,0.452734,0.4817436,-0.33649127,0.465832,0.50414914,-0.35134491,0.485583,0.54745543,-0.33550567,0.489943,0.49243506,-0.32703709,0.463431,0.49180396,-0.34591314,0.473257,0.49943623,-0.36402889,0.486398
0.52513143,-0.38762658,0.549454,0.53558958,-0.33919337,0.518779,0.52175454,-0.36505029,0.548741,0.51697612,-0.32118218,0.534589,0.50221438,-0.28385066,0.517846,0.49388034,-0.26150264,0.504012,0.52950843,-0.28199707,0.497022,0.50325502,-0.24371713,0.461875,0.48997784,-0.22611508,0.445255,0.47872168,-0.21025816,0.430794,0.5373169,-0.29637991,0.489564,0.47563827,-0.28488713,0.44882,0.43021709,-0.28770814,0.425053,0.41814704,-0.29683252,0.424733,0.54464228,-0.31215171,0.486729,0.47580532,-0.30577595,0.448958,0.46334261,-0.3302919,0.460543,0.47444591,-0.34751391,0.480422,0.55484155,-0.33828649,0.489204,0.49377134,-0.32944549,0.459658,0.49351004,-0.34692535,0.468445,0.50445344,-0.36405248,0.482151
0.5657898,-0.40132755,0.555278,0.55570654,-0.34997057,0.522093,0.55897962,-0.38102363,0.55716,0.5440059,-0.34284916,0.544237,0.53001223,-0.30838496,0.531884,0.52324024,-0.28283166,0.519377,0.54026183,-0.29134204,0.502013,0.51471486,-0.24805426,0.464897,0.49943029,-0.22840164,0.446339,0.4823552,-0.21324303,0.429469,0.54634405,-0.30078127,0.490488,0.48351052,-0.28285327,0.448042,0.43728593,-0.28573793,0.423281,0.42509854,-0.29175368,0.418742,0.55320486,-0.31302102,0.484575,0.47631225,-0.30824662,0.444175,0.46367134,-0.32722651,0.450856,0.47345771,-0.3447272,0.469838,0.56478881,-0.33602004,0.483948,0.49931404,-0.32857069,0.455454,0.49075747,-0.34345307,0.46048,0.49671657,-0.35799242,0.472458
0.56739942,-0.39837613,0.554934,0.56488831,-0.3471686,0.522668,0.56140488,-0.37734878,0.556274,0.54928179,-0.33621173,0.543171,0.53380645,-0.30040457,0.529354,0.52756417,-0.27499023,0.517313,0.55570598,-0.28905545,0.502505,0.52920757,-0.24680856,0.466521,0.51320033,-0.22781808,0.448528,0.50056683,-0.21124376,0.433793,0.56095022,-0.30068973,0.491939,0.49573361,-0.28390058,0.45003,0.44840898,-0.28639967,0.425583,0.43753843,-0.2933596,0.422564,0.56670347,-0.31450878,0.486715,0.49145924,-0.30759059,0.447048,0.47774368,-0.32888982,0.45551,0.49152847,-0.34758231,0.474908,0.57613325,-0.33896503,0.486717,0.51177981,-0.32882717,0.458128,0.50577721,-0.34567813,0.464509,0.51495378,-0.3631861,0.477045
0.57200692,-0.39861474,0.553584,0.57878677,-0.3505325,0.523615,0.57119273,-0.37708113,0.555653,0.56441593,-0.34348081,0.545098,0.54842939,-0.30893642,0.53209,0.54140121,-0.28422079,0.520376,0.56776612,-0.29216801,0.505961,0.54067329,-0.24989072,0.471941,0.531087,-0.23027051,0.458279,0.52312527,-0.21240236,0.446384,0.57406952,-0.30214031,0.495074,0.51167069,-0.28447898,0.455115,0.46406163,-0.28724665,0.431805,0.45514333,-0.29481657,0.430528,0.58075055,-0.31476774,0.489337,0.50726379,-0.3081314,0.451258,0.49562385,-0.3315648,0.461342,0.50833816,-0.35276493,0.480746,0.59138903,-0.33812538,0.488313,0.52787886,-0.32833681,0.459023,0.53073818,-0.34895171,0.466917,0.55244001,-0.35950629,0.478936
0.59008205,-0.40121202,0.554328,0.59015961,-0.35100948,0.524697,0.58383935,-0.38031392,0.55601,0.57506521,-0.34360449,0.54518,0.5591066,-0.30909115,0.532096,0.55214101,-0.28447756,0.520446,0.5784645,-0.2928636,0.506769,0.55207074,-0.25031586,0.472921,0.54222691,-0.23052816,0.45893,0.53415244,-0.21257954,0.446834,0.58559716,-0.30315677,0.496477,0.5248212,-0.28650288,0.456759,0.47684829,-0.28952289,0.433589,0.46785408,-0.29721802,0.432878,0.59295235,-0.31600315,0.491196,0.52195499,-0.31025884,0.453494,0.51772501,-0.33034357,0.464231,0.54142136,-0.33935061,0.481296,0.604346,-0.33950718,0.490635,0.54210549,-0.33140458,0.464452,0.53712541,-0.35111854,0.472537,0.55648252,-0.36281092,0.484887
0.59804675,-0.40379037,0.558715,0.59735129,-0.35338636,0.529035,0.59718016,-0.38294208,0.561287,0.58708303,-0.34560207,0.551326,0.57284575,-0.31137299,0.539582,0.56220734,-0.2871268,0.52709,0.59005052,-0.29525617,0.512232,0.56321112,-0.25181549,0.478434,0.55242954,-0.23127955,0.463864,0.54071798,-0.21337975,0.450618,0.5953058,-0.30512437,0.500768,0.53309996,-0.28671125,0.461123,0.48309688,-0.29087341,0.437996,0.4733743,-0.29833605,0.436628,0.60108459,-0.31758558,0.494527,0.52678034,-0.31097027,0.456553,0.52156866,-0.3305687,0.466418,0.53646354,-0.33433129,0.475387,0.60885016,-0.34082097,0.492861,0.54671998,-0.33228199,0.467323,0.54093661,-0.3495266,0.474783,0.55846714,-0.36308638,0.48661
0.6039082,-0.40116144,0.558194,0.60938764,-0.34919937,0.532326,0.59874286,-0.38059292,0.560563,0.59225331,-0.3407145,0.551771,0.57804008,-0.3072892,0.539825,0.5688408,-0.28501112,0.528144,0.60371545,-0.29240522,0.517848,0.57702152,-0.25749486,0.485392,0.56662511,-0.24097686,0.471481,0.55659769,-0.22636408,0.4589,0.61077493,-0.30281203,0.50769,0.55223237,-0.28870587,0.47139,0.50703327,-0.29347252,0.450215,0.50003337,-0.30517957,0.452175,0.61749931,-0.31556338,0.502113,0.55360227,-0.30845957,0.467404,0.55047796,-0.33422733,0.480512,0.56116788,-0.34462937,0.492428,0.62711824,-0.33863422,0.500502,0.5734787,-0.3308451,0.476616,0.57810108,-0.35430307,0.486588,0.59917654,-0.36631426,0.499152
0.60781612,-0.40025778,0.559547,0.62040161,-0.3491635,0.534762,0.60557942,-0.37790668,0.561732,0.60124165,-0.33659832,0.552459,0.58697917,-0.301485,0.539809,0.58177482,-0.27661346,0.529296,0.61941256,-0.29359722,0.520779,0.59558186,-0.25778363,0.490106,0.58601101,-0.24044256,0.476504,0.57805892,-0.22461339,0.464586,0.62585386,-0.30547904,0.511157,0.56883957,-0.29234689,0.475869,0.52346549,-0.29647969,0.455284,0.51591416,-0.3086356,0.458135,0.63169592,-0.31919121,0.505905,0.57096,-0.31165008,0.472225,0.56666478,-0.33847255,0.486169,0.57488045,-0.34982857,0.498845,0.63956633,-0.34292372,0.504467,0.58662315,-0.33213572,0.481031,0.5871997,-0.35316827,0.491645,0.60172673,-0.37072695,0.504406
0.61214101,-0.39703894,0.558735,0.62548111,-0.34965021,0.535624,0.61211504,-0.37466109,0.561795,0.60898702,-0.33646021,0.552538,0.59342554,-0.3003954,0.538972,0.58339819,-0.27524625,0.527539,0.63318387,-0.2957185,0.523918,0.6120674,-0.25753304,0.496718,0.60387128,-0.23887826,0.484844,0.59702604,-0.22171401,0.474383,0.63809241,-0.30751164,0.513613,0.58183526,-0.29383421,0.479952,0.53843384,-0.29824798,0.460316,0.53161353,-0.31281716,0.463904,0.64238849,-0.32099919,0.507618,0.58453368,-0.31010315,0.475151,0.58145804,-0.33860512,0.489533,0.59207746,-0.3545349,0.502608,0.64792662,-0.344211,0.505004,0.59847006,-0.33172657,0.482489,0.60196564,-0.35612869,0.493534,0.62169281,-0.37041408,0.50641
0.64157691,-0.39786906,0.571628,0.64784617,-0.34724017,0.540608,0.64654679,-0.37120481,0.573147,0.629358,-0.33326842,0.559373,0.61284798,-0.29799134,0.54568,0.60670552,-0.27311289,0.534464,0.64544047,-0.29028711,0.521526,0.61118223,-0.25191262,0.488544,0.59386854,-0.23368458,0.474336,0.58314258,-0.21652168,0.46199,0.64818323,-0.3031988,0.511066,0.57193214,-0.28714435,0.470169,0.52238053,-0.28804348,0.446312,0.51025762,-0.2978076,0.444421,0.651713,-0.31793937,0.505796,0.57521218,-0.30439516,0.467029,0.56686055,-0.32820341,0.476621,0.58938872,-0.34531272,0.495928,0.65805001,-0.34323983,0.505508,0.5925235,-0.32739798,0.477034,0.59163601,-0.34821243,0.484349,0.6046874,-0.35746627,0.490804
0.65130731,-0.39376981,0.572329,0.66083768,-0.35131116,0.544839,0.65110302,-0.37188686,0.574167,0.63362593,-0.33498213,0.56088,0.61565465,-0.29859843,0.546347,0.61064619,-0.2738911,0.536307,0.66497977,-0.29703071,0.528568,0.63615036,-0.25750189,0.499539,0.62473306,-0.23855289,0.487287,0.6144899,-0.22103412,0.476176,0.66761073,-0.31069185,0.518658,0.60059884,-0.2935007,0.480841,0.55202398,-0.29244372,0.458782,0.53980564,-0.30441473,0.459776,0.67040848,-0.32571366,0.51346,0.60232031,-0.30863337,0.477511,0.59097391,-0.33028666,0.48985,0.60438964,-0.35300184,0.509295,0.67471868,-0.35072836,0.512594,0.61739534,-0.3310876,0.48753,0.61340368,-0.34902521,0.496871,0.6212105,-0.36622779,0.505113
0.60734497,-0.39514649,0.555636,0.63535759,-0.35398186,0.542058,0.60983404,-0.37182552,0.558891,0.61751658,-0.33317369,0.555886,0.6165228,-0.29915497,0.547482,0.6188,-0.27688549,0.541466,0.64759378,-0.30623242,0.53708,0.64611484,-0.26989007,0.518016,0.6465223,-0.25122974,0.508919,0.64751566,-0.23384978,0.50081,0.65412585,-0.32017967,0.529128,0.62930961,-0.30755897,0.505164,0.58586657,-0.31544166,0.491185,0.58522679,-0.32824545,0.500335,0.65839458,-0.33456044,0.524042,0.63109237,-0.32406076,0.500667,0.62838718,-0.35391755,0.519249,0.63792587,-0.37316922,0.537969,0.66150428,-0.35723991,0.520692,0.6357587,-0.33953324,0.504605,0.62627827,-0.34794306,0.51893,0.62498344,-0.35944702,0.530146
0.65365127,-0.39787932,0.574235,0.6662906,-0.35804167,0.552136,0.65181875,-0.37591286,0.575603,0.64426186,-0.34536608,0.566964,0.62848793,-0.3073847,0.550592,0.62774214,-0.28428293,0.543228,0.66360046,-0.3054212,0.538914,0.65045133,-0.26546351,0.512966,0.64501588,-0.24534929,0.50062,0.63652936,-0.22762992,0.489396,0.67197276,-0.31835476,0.53109,0.63151398,-0.30469048,0.49843,0.58365616,-0.30990445,0.479379,0.57767121,-0.31934993,0.484381,0.67899774,-0.33266936,0.527029,0.63492696,-0.33048831,0.496147,0.63822966,-0.36377048,0.512062,0.64910196,-0.37840792,0.52653,0.68755114,-0.35661433,0.526469,0.64329983,-0.34052449,0.504043,0.63515387,-0.34830217,0.51615,0.63414259,-0.35678838,0.528738
0.65885251,-0.40064109,0.577512,0.67100453,-0.36172986,0.557083,0.65529016,-0.37825899,0.577937,0.65248417,-0.3462367,0.570638,0.63248778,-0.30889235,0.552436,0.62926919,-0.28496846,0.542942,0.6727028,-0.30602423,0.543765,0.65887387,-0.26860873,0.518918,0.65473096,-0.24948428,0.507749,0.6486249,-0.23191827,0.497595,0.68343538,-0.31964152,0.537627,0.64301632,-0.30990409,0.506715,0.59736385,-0.31635351,0.488684,0.59186724,-0.3261069,0.495008,0.69225597,-0.33446303,0.534773,0.64960178,-0.33674904,0.505897,0.65477672,-0.37059666,0.522993,0.66764124,-0.38456323,0.538536,0.70256878,-0.35881351,0.535302,0.65775565,-0.34575814,0.513344,0.65056654,-0.35461341,0.526325,0.64831719,-0.36318913,0.539086
0.66223409,-0.40255332,0.579847,0.67251866,-0.36180906,0.557978,0.65810158,-0.3801776,0.58012,0.65325778,-0.34685559,0.571658,0.63468228,-0.30994269,0.55403,0.6312372,-0.28597502,0.544329,0.67106526,-0.30657624,0.543484,0.65673663,-0.26774714,0.517212,0.65081847,-0.24823884,0.504784,0.64377664,-0.23023811,0.493486,0.68244902,-0.31935793,0.53715,0.64063859,-0.30877273,0.504785,0.59294104,-0.31441299,0.485906,0.58783728,-0.32366359,0.491423,0.69125175,-0.33416157,0.534291,0.64690246,-0.33555154,0.504098,0.65138891,-0.36890238,0.520602,0.66252328,-0.38327985,0.535605,0.70190079,-0.35866739,0.535084,0.65586913,-0.3449701,0.512174,0.64833829,-0.35353357,0.52468,0.64650289,-0.36203037,0.537592
0.66419827,-0.40365183,0.58115,0.67366196,-0.36205671,0.558746,0.65996524,-0.38145044,0.581566,0.65558726,-0.34771015,0.57327,0.63985694,-0.31152428,0.556677,0.63700314,-0.28776176,0.547497,0.67192762,-0.30673143,0.544075,0.65682342,-0.26778736,0.517269,0.65042847,-0.24821249,0.504516,0.64334629,-0.23011609,0.492923,0.68265132,-0.31951191,0.537409,0.64030605,-0.30861975,0.504495,0.59226917,-0.31405394,0.485296,0.58679019,-0.32297626,0.490441,0.69118062,-0.33418846,0.534334,0.64609272,-0.33519875,0.503568,0.65020283,-0.36830502,0.519759,0.66130669,-0.38227043,0.534478,0.70163307,-0.35859567,0.534977,0.65529832,-0.34473772,0.511829,0.64755295,-0.35315021,0.524097,0.64578331,-0.36155651,0.537001
0.66824775,-0.4061409,0.583215,0.67701155,-0.36257855,0.560533,0.66388963,-0.38438957,0.584038,0.65858733,-0.34911216,0.575372,0.64536024,-0.31395532,0.559724,0.64162844,-0.28986802,0.550374,0.67514483,-0.30741197,0.546205,0.65941589,-0.26834802,0.519084,0.65251669,-0.24866074,0.506036,0.64648687,-0.23016547,0.494174,0.68459288,-0.32030706,0.538932,0.64269434,-0.3087974,0.505716,0.5946781,-0.31431533,0.48634,0.58889448,-0.32305836,0.491174,0.69264034,-0.33465535,0.535387,0.64757377,-0.33489693,0.504183,0.65146139,-0.36796688,0.520059,0.66284382,-0.3814325,0.534492,0.70262766,-0.35872846,0.535536,0.65673899,-0.34458124,0.512455,0.64882889,-0.35292192,0.5245,0.6473073,-0.36122049,0.537294
0.66978784,-0.40704176,0.584192,0.6781195,-0.36314798,0.561308,0.66510435,-0.38521777,0.584887,0.65964283,-0.34955841,0.575982,0.64705281,-0.31488117,0.560629,0.64347328,-0.29071156,0.551298,0.67568732,-0.3076857,0.546676,0.65963506,-0.26819558,0.519264,0.65352657,-0.24867794,0.50682,0.64847612,-0.23052747,0.495696,0.6853363,-0.32058693,0.539514,0.64347091,-0.30864986,0.506104,0.59541572,-0.31418041,0.486614,0.58948681,-0.32301645,0.491365,0.69359917,-0.33497564,0.536083,0.64870645,-0.33484205,0.504742,0.65263512,-0.36800021,0.520573,0.66387002,-0.38162429,0.534965,0.70392063,-0.35916355,0.536402,0.65798717,-0.34468857,0.51313,0.65007745,-0.35304733,0.525132,0.6484909,-0.36151814,0.537976
0.67065212,-0.40754061,0.584671,0.67881158,-0.36348937,0.561796,0.66591354,-0.38577897,0.585438,0.66059742,-0.34996341,0.576618,0.64840436,-0.31554043,0.561479,0.6450527,-0.29146496,0.552106,0.67635271,-0.30799565,0.547263,0.66036477,-0.26826623,0.519877,0.65448127,-0.24870539,0.507599,0.6496733,-0.23060829,0.496649,0.68593725,-0.32080429,0.540009,0.64427848,-0.3085832,0.506603,0.59629714,-0.3141859,0.487116,0.5903073,-0.32314083,0.491847,0.69415497,-0.33512477,0.536502,0.64948876,-0.3347,0.505138,0.65345944,-0.36793234,0.520941,0.66459471,-0.38170728,0.535307,0.70444121,-0.35925058,0.53673,0.65871922,-0.34460815,0.513504,0.65083254,-0.35298187,0.525489,0.64913678,-0.36155309,0.53831
0.6712651,-0.40789265,0.584992,0.67928476,-0.36372184,0.562127,0.66648309,-0.38618076,0.585814,0.66125264,-0.3502386,0.577049,0.64930744,-0.31598089,0.562047,0.64616814,-0.29199742,0.552671,0.6768153,-0.30821126,0.547672,0.66088878,-0.26831796,0.520317,0.65512141,-0.24870927,0.508123,0.65045248,-0.23062691,0.497273,0.68635175,-0.32095266,0.540351,0.64484583,-0.30853109,0.506952,0.59692138,-0.31418674,0.48747,0.59088954,-0.32322745,0.492188,0.69453216,-0.33522176,0.536786,0.65003232,-0.33459065,0.505409,0.65403359,-0.36787534,0.521192,0.6650997,-0.38175914,0.535541,0.70478768,-0.35929984,0.536945,0.65922403,-0.3445412,0.513757,0.65135343,-0.35292499,0.525729,0.64957934,-0.36156756,0.538533
0.67262486,-0.40883139,0.585841,0.68024107,-0.3638933,0.562975,0.66753761,-0.38737841,0.586854,0.6627168,-0.35061626,0.578103,0.65286466,-0.31695191,0.564052,0.65179569,-0.29368639,0.555424,0.67804277,-0.30844186,0.548769,0.66248651,-0.26747031,0.521584,0.65792633,-0.24779856,0.5102,0.65467457,-0.22977587,0.500336,0.68729403,-0.3210388,0.541198,0.6468461,-0.30702637,0.507789,0.59948923,-0.3129041,0.488301,0.59141732,-0.32363448,0.492949,0.69522986,-0.33518165,0.537427,0.65207846,-0.3327973,0.505969,0.6562828,-0.36632861,0.521662,0.66571681,-0.3815233,0.535929,0.70520168,-0.35910818,0.537348,0.66103417,-0.34300589,0.51427,0.65318847,-0.35146643,0.526183,0.65130071,-0.36085548,0.538924
0.67287857,-0.40871401,0.586027,0.68046809,-0.36374997,0.563207,0.66775221,-0.38724381,0.587023,0.66314316,-0.35053243,0.578301,0.65352137,-0.31682334,0.564336,0.65258621,-0.2936591,0.555638,0.67824349,-0.30827808,0.549012,0.66289239,-0.26714884,0.521867,0.65859744,-0.24750702,0.510621,0.65561614,-0.22951237,0.5009,0.68754203,-0.32087928,0.541475,0.64735988,-0.30670696,0.508114,0.60019095,-0.31260405,0.488653,0.59195792,-0.32368892,0.493336,0.69551693,-0.33502729,0.537728,0.65263124,-0.33249839,0.506321,0.65685517,-0.36606697,0.522046,0.66633507,-0.38141869,0.536342,0.7055323,-0.35896365,0.537668,0.66150877,-0.34272129,0.514606,0.65359429,-0.35119288,0.526543,0.65206839,-0.36063003,0.539288
0.67304553,-0.40785614,0.585375,0.6805818,-0.36351939,0.563106,0.66791807,-0.3865471,0.586466,0.66497434,-0.35052335,0.578567,0.65734035,-0.31506087,0.565408,0.65742258,-0.2924387,0.557223,0.67883896,-0.30831466,0.549406,0.66552441,-0.26482758,0.52312,0.66156295,-0.24454434,0.511737,0.65896832,-0.22601209,0.501962,0.68824173,-0.32058145,0.541897,0.65732216,-0.30080908,0.509079,0.61109912,-0.30750805,0.489935,0.60368246,-0.31860035,0.494931,0.69622772,-0.33434586,0.538113,0.65415614,-0.33280813,0.507185,0.65871415,-0.36659937,0.523146,0.66836772,-0.38210764,0.537656,0.706317,-0.35809393,0.537908,0.66269566,-0.34286806,0.515221,0.65489592,-0.35151965,0.527348,0.65632622,-0.35868331,0.540035
0.67374962,-0.40801154,0.585659,0.68128739,-0.36356111,0.563495,0.6687232,-0.38680377,0.586914,0.66620865,-0.35088278,0.57923,0.65877549,-0.31529103,0.566384,0.65906408,-0.29263361,0.558735,0.67968715,-0.3084397,0.550081,0.66690188,-0.26489842,0.523885,0.6630735,-0.24442534,0.512563,0.66071418,-0.22575976,0.502932,0.68893382,-0.32045416,0.542386,0.6580788,-0.30115534,0.509665,0.61190239,-0.30791226,0.490579,0.60447528,-0.31901877,0.495581,0.69682774,-0.33433369,0.538438,0.65492378,-0.33284849,0.507541,0.65948726,-0.36665215,0.523477,0.66929321,-0.38192399,0.537965,0.70668127,-0.35793164,0.538022,0.66334147,-0.34285128,0.515492,0.65544773,-0.35153693,0.52761,0.65727232,-0.35899271,0.540238
0.67455521,-0.40818078,0.585963,0.68195255,-0.36354029,0.563787,0.66956475,-0.38703602,0.587325,0.66709735,-0.35112435,0.579683,0.6596882,-0.31545393,0.567014,0.66009486,-0.29277162,0.559681,0.68030037,-0.30842369,0.550504,0.6676778,-0.26492045,0.524304,0.66392111,-0.24433193,0.513013,0.66169496,-0.22558513,0.503463,0.6894143,-0.32047194,0.542667,0.65842104,-0.30131196,0.50993,0.61221921,-0.30807168,0.490833,0.60472776,-0.31915202,0.495788,0.69718215,-0.33427028,0.538604,0.65530554,-0.33277039,0.507651,0.65982976,-0.36654921,0.523529,0.66991168,-0.38152121,0.537965,0.7068914,-0.35776846,0.538055,0.66368584,-0.34275654,0.51558,0.65568445,-0.3514474,0.527659,0.65770968,-0.35910732,0.540253
0.67501665,-0.40816626,0.586081,0.68275753,-0.3636181,0.564325,0.67021837,-0.38718655,0.587686,0.66788019,-0.35135117,0.580218,0.66087218,-0.31586105,0.568023,0.66402712,-0.29329692,0.563371,0.68161322,-0.30877195,0.551644,0.66945516,-0.26541641,0.525815,0.66709022,-0.24411093,0.515101,0.66384663,-0.22642547,0.50536,0.69050757,-0.32085265,0.543605,0.65978947,-0.30168755,0.511279,0.61394513,-0.30859855,0.492421,0.60662442,-0.31989563,0.497548,0.69803291,-0.3345198,0.539331,0.65753665,-0.33162777,0.508675,0.66231518,-0.3655564,0.524646,0.67189936,-0.38182724,0.539165,0.70735577,-0.3578052,0.538459,0.66546908,-0.34153433,0.516371,0.65721516,-0.35040654,0.528537,0.65873128,-0.35947033,0.541028
0.67568318,-0.40824945,0.586574,0.68350245,-0.36369239,0.564929,0.67088626,-0.38728783,0.588213,0.66906511,-0.35159672,0.580947,0.66171813,-0.31615201,0.568744,0.66469003,-0.29362154,0.563975,0.68241165,-0.30887945,0.552367,0.67036786,-0.26562904,0.526614,0.66777211,-0.24450172,0.515903,0.66466179,-0.22677973,0.506166,0.69131808,-0.32092735,0.544316,0.66062419,-0.30191907,0.512099,0.61489596,-0.30887171,0.493306,0.60762181,-0.32026732,0.498489,0.69884064,-0.33456283,0.540018,0.65850352,-0.33194244,0.509454,0.66335508,-0.36593777,0.525463,0.67313575,-0.38198356,0.540018,0.70814634,-0.35780664,0.539098,0.66636,-0.34184165,0.517095,0.65812933,-0.35075663,0.529294,0.65968677,-0.35985278,0.541767
0.67641649,-0.40837287,0.587125,0.68424741,-0.36376668,0.565533,0.67159522,-0.38741272,0.588776,0.67021237,-0.3518221,0.581643,0.66245066,-0.31641705,0.569369,0.66523374,-0.29388291,0.564464,0.68312621,-0.30894898,0.553022,0.67114108,-0.26582368,0.527283,0.66840312,-0.24482686,0.516574,0.66536305,-0.22707613,0.506839,0.692055,-0.32096793,0.544969,0.66138607,-0.30216725,0.512805,0.6157117,-0.30914502,0.494042,0.60845324,-0.32060264,0.499253,0.69959657,-0.33458124,0.540665,0.65936793,-0.33224853,0.510146,0.66426153,-0.36629338,0.526176,0.67421902,-0.38205236,0.540748,0.70892528,-0.35780219,0.539728,0.66718932,-0.34215463,0.517763,0.6589594,-0.35109618,0.529978,0.66055414,-0.3602218,0.542445
0.67715568,-0.40849966,0.587681,0.68495477,-0.36382883,0.5661,0.67229297,-0.3875317,0.589326,0.67129276,-0.35202693,0.582274,0.66306677,-0.31664534,0.569895,0.66566886,-0.29409026,0.564853,0.68375212,-0.30898491,0.553589,0.67177263,-0.26598697,0.527827,0.668944,-0.24509216,0.517123,0.66594857,-0.22732033,0.507393,0.69271499,-0.32098382,0.545547,0.66203952,-0.30239432,0.513394,0.6163819,-0.30938406,0.494638,0.60911922,-0.32088012,0.499858,0.70028738,-0.33458279,0.54125,0.66011741,-0.33252534,0.510744,0.66503153,-0.36660569,0.526782,0.67515469,-0.38207811,0.541363,0.70966265,-0.35779401,0.54032,0.66793148,-0.3424478,0.518358,0.65969079,-0.35140582,0.530579,0.66131972,-0.36055831,0.543047
0.67829838,-0.40877423,0.58845,0.68603913,-0.36399353,0.566887,0.67346122,-0.38785282,0.590175,0.67316692,-0.35258962,0.583509,0.66541487,-0.31713055,0.571604,0.66654158,-0.29444116,0.56557,0.68483654,-0.30915844,0.554493,0.67312038,-0.26576733,0.528706,0.66904239,-0.24507121,0.517289,0.66520321,-0.22700909,0.506911,0.69372143,-0.32106024,0.54635,0.66111609,-0.3041071,0.514212,0.61676202,-0.3102385,0.495465,0.60964516,-0.32159288,0.500666,0.70123313,-0.33458091,0.54197,0.66114793,-0.33279752,0.511447,0.66606227,-0.36690639,0.527454,0.67629752,-0.38205777,0.542006,0.71054578,-0.35770334,0.540938,0.66892373,-0.34272271,0.519034,0.66064415,-0.35170245,0.531235,0.66225507,-0.36087515,0.543675
0.6790722,-0.40907042,0.588798,0.68676726,-0.3642286,0.567298,0.67417404,-0.38816907,0.590534,0.67395538,-0.35286004,0.583898,0.66581565,-0.31728432,0.571919,0.66684324,-0.29454754,0.565808,0.68546133,-0.30938905,0.554963,0.67376524,-0.26594012,0.529259,0.66988259,-0.24533457,0.518009,0.66657272,-0.22714203,0.50798,0.69440333,-0.32124118,0.546823,0.66320019,-0.30335,0.514748,0.61754912,-0.31045702,0.496037,0.61046313,-0.3218742,0.501273,0.70196222,-0.33472422,0.542437,0.6620736,-0.33293138,0.51197,0.66711383,-0.36711067,0.528003,0.67737298,-0.3823289,0.542578,0.71133707,-0.35781007,0.541387,0.669818,-0.34285491,0.519527,0.66155041,-0.35191504,0.53175,0.66331531,-0.36113405,0.544182
0.68004927,-0.40948855,0.58932,0.68761683,-0.36452728,0.567807,0.67505261,-0.38858016,0.591036,0.67482483,-0.3531721,0.584355,0.66631937,-0.31749354,0.572326,0.66717407,-0.29467095,0.566072,0.68609026,-0.30962041,0.555434,0.67432192,-0.26609306,0.529731,0.67062916,-0.24557095,0.51864,0.66796539,-0.22728104,0.509064,0.69511492,-0.32143488,0.547317,0.66345278,-0.30382179,0.515229,0.61774642,-0.31095706,0.49651,0.61076298,-0.32229629,0.501746,0.70275666,-0.33489771,0.542952,0.66298717,-0.33305818,0.512481,0.66812455,-0.36729162,0.528517,0.67838422,-0.38256303,0.543096,0.7122554,-0.35797975,0.54193,0.67075304,-0.34300707,0.520049,0.66252119,-0.35212357,0.532273,0.66420548,-0.36140746,0.544714
0.68050233,-0.40969079,0.589687,0.68811266,-0.36472048,0.568252,0.67552994,-0.3888146,0.591454,0.67521193,-0.35330019,0.584858,0.66672076,-0.31764324,0.572928,0.66757306,-0.29482892,0.5666,0.6866538,-0.30985348,0.556,0.67494748,-0.26627111,0.530357,0.67110463,-0.24578415,0.519194,0.66822107,-0.2275841,0.509515,0.69565208,-0.3216229,0.547839,0.66369085,-0.30431729,0.515827,0.61801237,-0.31151327,0.497154,0.61119002,-0.32279355,0.502419,0.70326266,-0.33504552,0.543428,0.66365966,-0.33314966,0.51301,0.66885505,-0.36742909,0.52906,0.67911033,-0.38276965,0.543651,0.71271359,-0.35807618,0.542337,0.67136323,-0.34309517,0.520533,0.66320469,-0.35223801,0.532771,0.66458909,-0.36156276,0.54519
0.68109855,-0.40996927,0.590367,0.68858165,-0.36488609,0.568851,0.67608625,-0.38908299,0.592132,0.67550858,-0.35338483,0.585488,0.66715929,-0.31790063,0.573652,0.66787137,-0.29505289,0.567047,0.6869822,-0.30995029,0.556542,0.67510028,-0.26626514,0.530803,0.67112552,-0.24584909,0.519602,0.66806959,-0.22778081,0.509875,0.6959854,-0.32169029,0.548359,0.66173874,-0.30601481,0.516267,0.61571593,-0.31331986,0.497546,0.61095673,-0.32300119,0.502761,0.70361612,-0.33509853,0.54394,0.66392685,-0.3331188,0.513446,0.66910711,-0.367393,0.529456,0.67933627,-0.38274087,0.544011,0.71311756,-0.35813008,0.542855,0.67218045,-0.34315572,0.521003,0.6640876,-0.35230989,0.533209,0.66508125,-0.36166927,0.545633
0.68150306,-0.41014832,0.590953,0.68900036,-0.36505059,0.569485,0.67651705,-0.38929876,0.592771,0.67583191,-0.35351073,0.586214,0.66763133,-0.31820794,0.574479,0.66829644,-0.29537168,0.567677,0.68745275,-0.31014723,0.557277,0.67553373,-0.26641433,0.531552,0.67132601,-0.24602877,0.520234,0.66799434,-0.22805681,0.510381,0.69641973,-0.32183869,0.549039,0.66084699,-0.30656637,0.516993,0.61484384,-0.31393211,0.498299,0.61114608,-0.32345631,0.503523,0.70401442,-0.3352053,0.544569,0.664364,-0.3332029,0.514098,0.66957455,-0.36749879,0.530106,0.67981952,-0.38287827,0.544658,0.71346744,-0.35818572,0.543416,0.67308171,-0.34328716,0.521622,0.66509798,-0.35247438,0.53383,0.66566923,-0.36185142,0.546233
0.67061931,-0.4030939,0.58158,0.68147689,-0.36051925,0.563318,0.66776612,-0.38372511,0.585169,0.65396622,-0.34364276,0.575687,0.63604911,-0.30962032,0.561568,0.63069398,-0.28648137,0.552192,0.68516928,-0.30812829,0.555594,0.67632813,-0.26533451,0.534461,0.67211309,-0.24114013,0.524975,0.66951718,-0.22168161,0.516351,0.69232705,-0.31889,0.545926,0.68024215,-0.27725398,0.517079,0.64182784,-0.28558844,0.500251,0.63581977,-0.30232845,0.506693,0.6979483,-0.33120778,0.539933,0.6593741,-0.32416524,0.511823,0.66557759,-0.35870957,0.528399,0.67830778,-0.38127901,0.543468,0.7031029,-0.35109407,0.53641,0.6872304,-0.32994684,0.517591,0.6839019,-0.34955027,0.530353,0.68852849,-0.36378193,0.541925
0.66920737,-0.40168695,0.580703,0.67861259,-0.35674553,0.562304,0.66676585,-0.38248507,0.584586,0.6493175,-0.34092973,0.575543,0.63045982,-0.30803148,0.561659,0.63053636,-0.286424,0.555438,0.68370073,-0.30260033,0.554868,0.67325183,-0.26095223,0.533003,0.66902266,-0.23983519,0.522613,0.66556278,-0.22030782,0.513299,0.68964444,-0.31584131,0.544781,0.67792559,-0.27801541,0.515794,0.63776299,-0.28600409,0.498885,0.63111676,-0.30175089,0.505113,0.69467484,-0.32810581,0.538457,0.65668197,-0.32226438,0.510104,0.66219266,-0.35610314,0.526445,0.67420555,-0.3715034,0.541299,0.70029271,-0.3474375,0.534576,0.68354341,-0.32833881,0.515857,0.68089763,-0.3474836,0.528452,0.67950226,-0.36432488,0.539924
0.66915094,-0.40097316,0.58077,0.6782361,-0.35578475,0.56206,0.66669129,-0.38178462,0.584685,0.64775551,-0.34324537,0.575645,0.61827672,-0.31150227,0.558138,0.60620787,-0.28738708,0.546449,0.68251123,-0.3017366,0.554456,0.67114375,-0.25977813,0.531815,0.6662899,-0.23853224,0.520935,0.66223516,-0.2189085,0.511165,0.68882848,-0.31246155,0.544242,0.6757672,-0.27893867,0.514941,0.63382171,-0.28695922,0.497849,0.62845559,-0.30127688,0.503874,0.69380192,-0.32475275,0.537847,0.65505591,-0.32138197,0.509185,0.66010763,-0.35491058,0.525359,0.67185833,-0.36988951,0.540063,0.69947961,-0.34597402,0.53394,0.68164111,-0.3280357,0.515051,0.67873035,-0.34638761,0.527518,0.6776139,-0.36366326,0.539
0.66724256,-0.39931033,0.579599,0.67434394,-0.35115117,0.560586,0.66410585,-0.37979149,0.582989,0.63789573,-0.34355388,0.573072,0.61193887,-0.31288791,0.557078,0.59996569,-0.28800753,0.546465,0.67545855,-0.29800246,0.552091,0.66388592,-0.25562369,0.529338,0.65383407,-0.23661532,0.517962,0.64763196,-0.22059335,0.507687,0.68300308,-0.30853859,0.542478,0.67274093,-0.26971304,0.51287,0.64257624,-0.26991962,0.495599,0.63398929,-0.28739534,0.501678,0.68913096,-0.32076414,0.536611,0.65252298,-0.31850815,0.507856,0.65804566,-0.35219003,0.5242,0.67036686,-0.36823249,0.539058,0.69642649,-0.34206942,0.533374,0.67074083,-0.32392524,0.513982,0.67520276,-0.34574433,0.526549,0.67536225,-0.36380589,0.538247
0.66956486,-0.40156127,0.582972,0.65943075,-0.35498539,0.560359,0.66057046,-0.37976953,0.586971,0.63091318,-0.35705069,0.577574,0.59843872,-0.32367012,0.557265,0.58120192,-0.29721672,0.542492,0.65353854,-0.30207212,0.550215,0.63348908,-0.26287109,0.528501,0.62356007,-0.24281592,0.517644,0.61459629,-0.22428669,0.507774,0.66027759,-0.30910835,0.538823,0.64357382,-0.25854429,0.509463,0.62744255,-0.23756924,0.492336,0.63421491,-0.23484632,0.496789,0.66668915,-0.31889134,0.53188,0.62432124,-0.302914,0.499554,0.63147997,-0.3369441,0.513559,0.64285113,-0.35639353,0.526291,0.67609204,-0.33822975,0.528071,0.64335971,-0.31450306,0.507018,0.64551192,-0.33718946,0.51779,0.64930901,-0.35532296,0.529377
0.65495367,-0.40004748,0.581285,0.64754696,-0.35320968,0.559218,0.64567921,-0.38408135,0.585726,0.61934959,-0.35566092,0.577113,0.58748525,-0.32258264,0.557279,0.57079515,-0.2963575,0.542901,0.64310212,-0.30094572,0.55002,0.62323934,-0.26190163,0.528645,0.61339545,-0.24190975,0.517957,0.60450449,-0.22342846,0.508241,0.64934447,-0.30773601,0.538202,0.63348406,-0.25756351,0.509534,0.61773659,-0.23676847,0.492811,0.62425014,-0.23407222,0.49743,0.65521042,-0.31725618,0.53085,0.61303437,-0.30146249,0.498881,0.61993203,-0.33542638,0.512876,0.63143709,-0.35486921,0.525599,0.66374627,-0.33617225,0.526463,0.63153585,-0.31282549,0.506012,0.63342942,-0.33546325,0.516804,0.64067184,-0.35842271,0.528186
0.63274074,-0.39714851,0.577185,0.62936594,-0.34735852,0.556332,0.62030911,-0.37676178,0.581537,0.59737714,-0.34617373,0.572907,0.56500179,-0.31183718,0.553759,0.54878132,-0.28584247,0.540623,0.62561496,-0.29597581,0.547841,0.6082519,-0.25307748,0.526175,0.59966206,-0.23124051,0.515342,0.59132403,-0.21286394,0.505493,0.63252063,-0.30293692,0.536472,0.62811782,-0.25481639,0.507274,0.59881711,-0.24633502,0.490242,0.59193712,-0.26147444,0.495282,0.63875434,-0.31247776,0.529357,0.62601445,-0.263569,0.507025,0.64924862,-0.26036463,0.522259,0.67098686,-0.25590189,0.536108,0.64742235,-0.33120662,0.525018,0.61644979,-0.3098233,0.505178,0.62154922,-0.33497154,0.516573,0.63038603,-0.35857896,0.527974
0.62724417,-0.39379084,0.57436,0.62620846,-0.34427547,0.554878,0.61818576,-0.37523426,0.580282,0.59657376,-0.34666778,0.574428,0.56046673,-0.31329578,0.556541,0.54831495,-0.28808299,0.544762,0.61990369,-0.29245813,0.549363,0.60201115,-0.25010595,0.530984,0.59310556,-0.22845825,0.521794,0.58455836,-0.21019495,0.51344,0.6261083,-0.29673487,0.536323,0.62100446,-0.24527609,0.51046,0.5985982,-0.23597292,0.495373,0.59407413,-0.250398,0.500915,0.63179209,-0.30408115,0.527685,0.61216054,-0.26301885,0.506339,0.63002414,-0.26547514,0.521114,0.64626289,-0.26697415,0.534545,0.63999262,-0.32023019,0.521321,0.60886133,-0.29977965,0.503345,0.61534507,-0.32509452,0.514471,0.62526922,-0.34861803,0.525112
0.61954581,-0.39177758,0.575507,0.61434646,-0.34115329,0.559178,0.61475024,-0.37535634,0.581493,0.58131983,-0.34702959,0.576173,0.54733804,-0.31601417,0.558346,0.53067931,-0.29266851,0.546774,0.60842829,-0.29161009,0.555887,0.58825758,-0.25163292,0.536267,0.57819516,-0.23112216,0.526457,0.56906256,-0.21213685,0.517539,0.61663568,-0.29524818,0.543626,0.60554897,-0.24126832,0.520846,0.59125199,-0.22210927,0.507557,0.59751069,-0.22288538,0.515069,0.62375358,-0.30209681,0.535289,0.61233796,-0.24498952,0.518952,0.60189219,-0.23049201,0.510594,0.61161617,-0.22382927,0.519341,0.6331921,-0.31761115,0.528682,0.60280926,-0.3002174,0.512571,0.61264455,-0.32694662,0.524951,0.62438966,-0.35078658,0.535422
0.60637368,-0.38734298,0.576177,0.60388534,-0.33628188,0.559322,0.60088729,-0.3718891,0.582629,0.56923784,-0.34191262,0.578005,0.53470418,-0.31199685,0.5611,0.51780224,-0.28800803,0.550669,0.60018808,-0.28703853,0.556281,0.57746303,-0.24568325,0.538046,0.56605462,-0.22451969,0.528929,0.55447795,-0.20844219,0.52064,0.60717129,-0.29064839,0.543269,0.59579623,-0.23647247,0.520242,0.58022484,-0.21631454,0.506809,0.58420641,-0.21640643,0.513791,0.61323411,-0.29746329,0.53437,0.60895436,-0.24125726,0.521478,0.59697882,-0.23702586,0.514882,0.60397293,-0.24032301,0.524624,0.62132861,-0.31293861,0.52721,0.59183248,-0.28662924,0.511112,0.60086445,-0.31169089,0.523035,0.61208126,-0.33622841,0.533323
0.59673674,-0.38432287,0.578262,0.59276935,-0.33346266,0.561011,0.59197354,-0.36928783,0.585308,0.55888292,-0.34268976,0.581639,0.52380422,-0.31462081,0.56593,0.50652394,-0.29149576,0.556232,0.58794836,-0.28443479,0.558475,0.56154857,-0.24404643,0.540378,0.54824216,-0.22339834,0.53133,0.53484391,-0.20793233,0.523104,0.59421606,-0.28682553,0.544581,0.57991124,-0.23241085,0.521513,0.56192124,-0.21287355,0.508056,0.56313114,-0.21332289,0.514484,0.59982551,-0.29272116,0.534999,0.59321062,-0.23610265,0.522035,0.5791661,-0.23265177,0.515402,0.58294095,-0.23633674,0.524567,0.60764394,-0.3072484,0.527119,0.57471828,-0.28240103,0.511223,0.58292622,-0.3073631,0.522622,0.59474607,-0.3315134,0.532636
0.59361881,-0.38452096,0.580646,0.583592,-0.33211362,0.563093,0.58053598,-0.36682711,0.585575,0.54901089,-0.33390182,0.578338,0.52054188,-0.30292462,0.565179,0.50947475,-0.28047666,0.558839,0.57474935,-0.28097357,0.557595,0.55143192,-0.23280739,0.537874,0.53883313,-0.2107387,0.528014,0.52633626,-0.1937218,0.51905,0.5845452,-0.28497784,0.546377,0.56362785,-0.23561047,0.520784,0.55147519,-0.20653421,0.505854,0.55657248,-0.20244137,0.512773,0.59314558,-0.29227537,0.539031,0.58096526,-0.23297941,0.520884,0.56590477,-0.22928953,0.511599,0.57438166,-0.23398399,0.520185,0.60455576,-0.30856679,0.533803,0.58340065,-0.26602367,0.516259,0.57263422,-0.24895942,0.508198,0.57515134,-0.24878692,0.513746
0.58010705,-0.38413483,0.585737,0.57474383,-0.33376128,0.568317,0.57301451,-0.36836499,0.591393,0.54073983,-0.33714483,0.585365,0.5096741,-0.30514623,0.569591,0.49539529,-0.28208406,0.559543,0.56771773,-0.28383404,0.563857,0.54682635,-0.23898834,0.546745,0.53634364,-0.21619908,0.538189,0.52679072,-0.19525047,0.530411,0.57649356,-0.28720305,0.551728,0.55754977,-0.23863767,0.527791,0.54655873,-0.20995511,0.513828,0.54251081,-0.19061527,0.507383,0.58413004,-0.29388889,0.543616,0.57054192,-0.23650247,0.52624,0.55702008,-0.2272284,0.517351,0.56199014,-0.22553467,0.525601,0.59426078,-0.30932309,0.537475,0.58677646,-0.2797659,0.518379,0.57606636,-0.26970672,0.509604,0.57639601,-0.27020133,0.514615
0.57668433,-0.38172912,0.584265,0.57373343,-0.33118262,0.567321,0.57008211,-0.36652589,0.590413,0.5404574,-0.33599871,0.585268,0.51052049,-0.30586662,0.571365,0.49698058,-0.28354384,0.562836,0.56703431,-0.2820183,0.563824,0.54166529,-0.23437613,0.54671,0.53387252,-0.21310429,0.542835,0.52670289,-0.19334475,0.539312,0.57519463,-0.28461152,0.551184,0.55079098,-0.23406358,0.527922,0.53698857,-0.20558287,0.514353,0.52786173,-0.18532237,0.505359,0.58165985,-0.28797598,0.542601,0.5608005,-0.23388793,0.525296,0.54350661,-0.22967294,0.516442,0.5442126,-0.23302242,0.524589,0.59146913,-0.3023166,0.535823,0.56786868,-0.26189583,0.519461,0.55438828,-0.24887523,0.511943,0.55533068,-0.24308888,0.517462
0.56756265,-0.3781582,0.583669,0.56126219,-0.32451587,0.566178,0.56239092,-0.36400447,0.591131,0.5291567,-0.33275933,0.588153,0.49787275,-0.30326898,0.575209,0.483144,-0.28067746,0.567061,0.55634024,-0.27644283,0.56402,0.53245155,-0.23214824,0.54835,0.52042824,-0.20966191,0.540514,0.50872535,-0.19030821,0.533391,0.56234816,-0.27774497,0.549519,0.53703833,-0.23166178,0.52647,0.5222503,-0.20431565,0.513024,0.51167594,-0.18454779,0.50342,0.56773677,-0.28273339,0.539463,0.54591126,-0.23298675,0.52357,0.53464987,-0.20676978,0.515438,0.52435143,-0.18243697,0.508046,0.57531576,-0.29617266,0.531078,0.55527188,-0.27237563,0.515358,0.54491454,-0.261417,0.508135,0.54486212,-0.25839514,0.513002
0.56434708,-0.37746057,0.583936,0.55889212,-0.32521783,0.567277,0.55229472,-0.36101103,0.591866,0.5235187,-0.33469633,0.589805,0.49164492,-0.30515367,0.576574,0.48179094,-0.28275662,0.569984,0.5508086,-0.2781578,0.566294,0.52707098,-0.2339845,0.551708,0.51511405,-0.21155628,0.544415,0.5034687,-0.19221632,0.537785,0.55665454,-0.27866146,0.55141,0.53144504,-0.2323739,0.529365,0.51670052,-0.20490263,0.516506,0.50614779,-0.18504268,0.50732,0.56185693,-0.28296441,0.540949,0.53987234,-0.23314171,0.52604,0.52850744,-0.20689576,0.518412,0.51809942,-0.18254498,0.511477,0.56914539,-0.29553798,0.531938,0.54759641,-0.27044252,0.515489,0.53654648,-0.25890831,0.507932,0.54020032,-0.25683738,0.512666
0.55255213,-0.37337656,0.584571,0.54506999,-0.32105178,0.568034,0.54342521,-0.35925324,0.59223,0.51260143,-0.32846378,0.589711,0.48257106,-0.29926399,0.577149,0.46788217,-0.2766286,0.56848,0.54104897,-0.27483039,0.566783,0.51642187,-0.23183005,0.551917,0.50399541,-0.20993996,0.544485,0.49262669,-0.18979491,0.537728,0.54721177,-0.2751999,0.552285,0.52153942,-0.2285912,0.530193,0.50651955,-0.20097664,0.517307,0.49576755,-0.18103712,0.508102,0.55263344,-0.27933347,0.542128,0.52658733,-0.2353922,0.526552,0.51299122,-0.21195898,0.518582,0.50045246,-0.19002369,0.511337,0.56008798,-0.29161477,0.533448,0.53982634,-0.26490865,0.517721,0.52891904,-0.2526647,0.510495,0.52815215,-0.24826511,0.515576
0.54255684,-0.37082606,0.582498,0.54000449,-0.32046575,0.567128,0.53255945,-0.35649314,0.590594,0.50481725,-0.33015252,0.588986,0.4742331,-0.30069134,0.576102,0.46556985,-0.27845324,0.570346,0.53020974,-0.27426919,0.567238,0.50761889,-0.22983971,0.54962,0.49843748,-0.20788812,0.540811,0.48701058,-0.18726751,0.532804,0.53671177,-0.2738786,0.55249,0.51111358,-0.22777638,0.53169,0.49610514,-0.20038175,0.519556,0.48534699,-0.18056229,0.510889,0.54242142,-0.27741948,0.542003,0.51910971,-0.22803682,0.528127,0.50701222,-0.20200474,0.521028,0.49590449,-0.17784317,0.514575,0.55024786,-0.28902112,0.532719,0.52960938,-0.26483982,0.518686,0.51950155,-0.25343891,0.512239,0.51905433,-0.25005425,0.51785
0.53537858,-0.37115805,0.585888,0.52909792,-0.32278079,0.57191,0.52494888,-0.35814522,0.593201,0.49391851,-0.32802534,0.590467,0.46507815,-0.29797515,0.578147,0.45458308,-0.2768574,0.573765,0.52453989,-0.27763151,0.571944,0.50309618,-0.23232923,0.55286,0.49543278,-0.20878574,0.543318,0.48663417,-0.18803371,0.534643,0.53285665,-0.27809777,0.558597,0.51352874,-0.2318014,0.53632,0.49937578,-0.20460352,0.523325,0.48924514,-0.18490458,0.514043,0.53981036,-0.28217251,0.549113,0.52255457,-0.23047514,0.534236,0.51114188,-0.20363329,0.526624,0.50069441,-0.17879673,0.519705,0.54864948,-0.29410959,0.540731,0.52886518,-0.26516065,0.526949,0.51869062,-0.25191694,0.520617,0.51951746,-0.24704365,0.527066
0.52766502,-0.3706936,0.586385,0.5264703,-0.32172431,0.57146,0.51619497,-0.3566987,0.593525,0.49141634,-0.3266346,0.590346,0.46245565,-0.2964929,0.577558,0.45145425,-0.27499387,0.57247,0.52187404,-0.2762945,0.570627,0.50019467,-0.23155969,0.551392,0.48931549,-0.20884635,0.541775,0.48162292,-0.18750357,0.533032,0.52993427,-0.27682104,0.557247,0.5076731,-0.2321196,0.53438,0.49467938,-0.20545631,0.521042,0.48557573,-0.18433177,0.511514,0.53674785,-0.28098011,0.547837,0.5125257,-0.2333453,0.533267,0.50086425,-0.20829283,0.525813,0.49013227,-0.18488766,0.519036,0.54553871,-0.29309252,0.53972,0.52459026,-0.26412014,0.525247,0.50991208,-0.25133544,0.518598,0.50809913,-0.24724196,0.524704
0.52514747,-0.36749212,0.580726,0.52101303,-0.31868153,0.565423,0.51835742,-0.3559403,0.59061,0.49461485,-0.33077023,0.592233,0.4630507,-0.30514851,0.580583,0.44810295,-0.28399972,0.573079,0.51965923,-0.27472048,0.567906,0.49596668,-0.23011765,0.550591,0.48085358,-0.20637602,0.541934,0.46883491,-0.18549967,0.534064,0.52306572,-0.27284814,0.550848,0.49555201,-0.22593076,0.528804,0.47942686,-0.19814932,0.515945,0.46787191,-0.17809837,0.506761,0.52567387,-0.27560776,0.538451,0.49972825,-0.22683413,0.526285,0.48621077,-0.2011443,0.520061,0.47376513,-0.17731696,0.514402,0.52964353,-0.28630684,0.526938,0.49515373,-0.2605551,0.514392,0.47865078,-0.24871966,0.508627,0.47140178,-0.24599433,0.513517
0.51386695,-0.36579662,0.57822,0.5139767,-0.3173451,0.563705,0.51102669,-0.35443663,0.588328,0.48441893,-0.33076353,0.590446,0.45482271,-0.30153583,0.578536,0.44611639,-0.28248182,0.573919,0.50988977,-0.27325628,0.567015,0.48627048,-0.22680117,0.549419,0.47441313,-0.20334121,0.540621,0.46503733,-0.18389906,0.532623,0.51312927,-0.27185068,0.549881,0.49129142,-0.22407604,0.526831,0.47587689,-0.19571699,0.513386,0.46484443,-0.17528995,0.503782,0.51595455,-0.27452113,0.537336,0.49226437,-0.2237057,0.52452,0.48211215,-0.19869618,0.517963,0.47012672,-0.17445605,0.512002,0.52001714,-0.28502209,0.525503,0.484732,-0.26074083,0.51358,0.46804601,-0.24922532,0.508101,0.46109485,-0.24634504,0.513265
0.51432881,-0.3685402,0.581028,0.51028486,-0.32122111,0.565891,0.51043357,-0.35648546,0.590168,0.48240317,-0.33210019,0.590441,0.45322325,-0.30242785,0.578148,0.44459261,-0.28249558,0.573834,0.50381882,-0.27703728,0.567519,0.48063274,-0.23061127,0.55003,0.4694233,-0.20735002,0.541784,0.46134953,-0.18490899,0.534288,0.5092582,-0.27628591,0.551475,0.49127135,-0.22254499,0.529056,0.47704056,-0.19674708,0.515978,0.46394571,-0.18007758,0.506636,0.51616856,-0.27768432,0.539895,0.49189151,-0.22678342,0.525844,0.47644877,-0.2052992,0.518655,0.46277582,-0.18462022,0.51212,0.52203861,-0.28892494,0.529298,0.48462786,-0.26862973,0.516219,0.46775042,-0.25815502,0.51021,0.46259011,-0.25120717,0.515522
0.51244258,-0.37150607,0.583755,0.50326959,-0.32307358,0.563485,0.50562411,-0.35874573,0.592063,0.47790219,-0.33350954,0.590419,0.45000438,-0.3039292,0.578603,0.44013586,-0.28163905,0.572898,0.49703785,-0.27416398,0.560543,0.47307883,-0.22719479,0.540463,0.46421994,-0.20451656,0.533697,0.45554714,-0.18304075,0.527546,0.5014307,-0.27430748,0.544179,0.4804984,-0.22101959,0.518258,0.4609349,-0.19777264,0.503138,0.44427025,-0.18391704,0.492338,0.50404076,-0.28115956,0.532889,0.47639099,-0.23112887,0.514336,0.46008051,-0.20763335,0.504844,0.44389302,-0.1876758,0.496215,0.50979119,-0.2950462,0.523594,0.46882045,-0.27345965,0.507108,0.4496026,-0.26334738,0.499534,0.44083938,-0.26038399,0.502602
0.50336734,-0.37376432,0.581281,0.49734478,-0.3259537,0.561659,0.49722671,-0.36234131,0.590169,0.47224032,-0.33868086,0.58965,0.44718899,-0.30697179,0.579543,0.43890749,-0.28503979,0.574955,0.49118598,-0.27968796,0.559912,0.46651167,-0.232309,0.54131,0.45604781,-0.20936572,0.534236,0.44592535,-0.18869335,0.527806,0.49409972,-0.27967256,0.542971,0.47295759,-0.22630858,0.519038,0.4529517,-0.2014378,0.505077,0.43564372,-0.18756981,0.495104,0.49710156,-0.28377631,0.531136,0.46850434,-0.23424215,0.515183,0.45153647,-0.21096649,0.507021,0.43465207,-0.19119101,0.499601,0.50212783,-0.2965269,0.521086,0.45924519,-0.27476295,0.505438,0.43916854,-0.26459034,0.498248,0.42921699,-0.26145829,0.50137
0.50158631,-0.37448197,0.581047,0.49616867,-0.32614353,0.561559,0.4959818,-0.36292041,0.590084,0.47277032,-0.33637992,0.589858,0.44644085,-0.30735152,0.579817,0.43581548,-0.28598943,0.574577,0.49070204,-0.27891856,0.560099,0.46603927,-0.2315622,0.541648,0.45556218,-0.20861833,0.534632,0.44542361,-0.18794399,0.528255,0.49342533,-0.27879385,0.543,0.47236417,-0.22549028,0.519284,0.45236391,-0.20062746,0.50545,0.43504812,-0.18675893,0.495568,0.49625294,-0.28279565,0.531019,0.46747829,-0.23319803,0.515049,0.4496851,-0.21107,0.506878,0.43170615,-0.19329707,0.49945,0.50104984,-0.29540493,0.520776,0.45819781,-0.27367682,0.505331,0.43813173,-0.26351876,0.498234,0.42808802,-0.26032903,0.501348
0.4998485,-0.37479895,0.580491,0.49290883,-0.32672889,0.560735,0.49398738,-0.3628944,0.589169,0.46902321,-0.3372682,0.588244,0.44196456,-0.30788903,0.577493,0.43125992,-0.2865841,0.572345,0.48637302,-0.27713261,0.558624,0.46101826,-0.22975015,0.539504,0.45058357,-0.20698389,0.532627,0.44190934,-0.18703384,0.526376,0.48996691,-0.27698333,0.54192,0.46831219,-0.22361361,0.517727,0.44940463,-0.1995385,0.503615,0.43214051,-0.18576189,0.493534,0.49449085,-0.28177337,0.530293,0.46496561,-0.23208574,0.513435,0.44528306,-0.21055853,0.50481,0.42626517,-0.19497231,0.496969,0.50014729,-0.29451326,0.520511,0.45734366,-0.27306486,0.504607,0.43729751,-0.26303852,0.4973,0.42749135,-0.26009585,0.500462
0.49600725,-0.37584585,0.580257,0.48884439,-0.32467148,0.559197,0.49223621,-0.36251458,0.588861,0.46394589,-0.33600198,0.587783,0.43659486,-0.30728245,0.577191,0.42797081,-0.28603389,0.572427,0.48046834,-0.27471696,0.556103,0.45366114,-0.22753053,0.535601,0.44197643,-0.20463393,0.527434,0.43076379,-0.18405973,0.520009,0.48392853,-0.2747659,0.539139,0.46094964,-0.2216325,0.513701,0.44016914,-0.19734015,0.498862,0.4224542,-0.18403728,0.488263,0.48753647,-0.2789818,0.527439,0.45627698,-0.22981817,0.508995,0.43365977,-0.2102529,0.499558,0.41700043,-0.19432372,0.490979,0.49092416,-0.29242589,0.517817,0.4467225,-0.27262335,0.501232,0.42603926,-0.26338749,0.493611,0.4151246,-0.26100562,0.496047
0.49458724,-0.37552867,0.579893,0.48797768,-0.3244389,0.559266,0.49072693,-0.36205205,0.58833,0.46261723,-0.33500251,0.586926,0.43547811,-0.30647813,0.576556,0.42656756,-0.28555147,0.571901,0.48015663,-0.2744645,0.55625,0.4524371,-0.2270012,0.534787,0.44087702,-0.20427124,0.526825,0.42976327,-0.18383367,0.519587,0.483778,-0.27486766,0.539622,0.45993792,-0.22146415,0.513283,0.43594446,-0.19874471,0.497919,0.41651496,-0.1876121,0.486944,0.4874828,-0.27935683,0.528152,0.45563298,-0.23009607,0.509239,0.43366324,-0.21025458,0.499562,0.41560013,-0.19465084,0.490766,0.49177553,-0.29293301,0.518715,0.44947017,-0.26749759,0.502175,0.42970885,-0.25561534,0.494575,0.42174635,-0.2539792,0.497368
0.49139558,-0.37629459,0.580318,0.48545369,-0.32417884,0.55918,0.48756522,-0.36218182,0.588136,0.45391454,-0.33352618,0.585545,0.42524111,-0.30669384,0.57468,0.4108441,-0.28444798,0.566001,0.48076441,-0.27435423,0.555011,0.44769144,-0.23113314,0.533191,0.43191082,-0.2096374,0.523377,0.41748978,-0.1899246,0.514455,0.48327304,-0.27499513,0.539049,0.45084197,-0.22776683,0.512641,0.43418991,-0.1987715,0.497237,0.41160704,-0.1922292,0.486233,0.48708044,-0.27994971,0.528183,0.45323615,-0.2313014,0.5089,0.43272282,-0.21099666,0.499035,0.41188994,-0.19613681,0.490067,0.49168958,-0.29428328,0.519543,0.44819758,-0.26983721,0.502204,0.42838634,-0.25620628,0.494238,0.42006742,-0.25340896,0.497067
0.49052491,-0.37704752,0.581016,0.48316793,-0.32463356,0.558934,0.48546055,-0.36311285,0.588463,0.45303857,-0.33491167,0.585159,0.42437743,-0.30807926,0.574336,0.4105246,-0.28551754,0.565971,0.47844976,-0.27408465,0.553641,0.44549616,-0.23165544,0.53116,0.43032588,-0.21049642,0.52207,0.41644014,-0.19104757,0.513805,0.48207734,-0.2752469,0.537904,0.44629805,-0.23177322,0.51099,0.42576895,-0.20430032,0.49529,0.40262427,-0.19996807,0.484075,0.4849378,-0.280811,0.527325,0.450777,-0.23412863,0.50746,0.42977436,-0.2136158,0.497297,0.40960879,-0.19651659,0.488057,0.48921668,-0.29738912,0.519196,0.44679834,-0.26974911,0.501082,0.4261579,-0.2582635,0.492759,0.4169277,-0.25454242,0.49523
0.49042508,-0.37808927,0.582226,0.48244952,-0.32504281,0.558737,0.48525625,-0.36381117,0.58933,0.45278117,-0.33577653,0.585388,0.4246762,-0.30888986,0.575339,0.41092787,-0.28627151,0.567144,0.47692112,-0.27369308,0.552042,0.44247412,-0.23097733,0.528612,0.42846409,-0.21057943,0.521092,0.41559126,-0.19173271,0.514256,0.47983922,-0.27515668,0.536367,0.44272404,-0.2303444,0.508119,0.42127519,-0.20274566,0.491641,0.39767224,-0.19834843,0.479871,0.483352,-0.2806526,0.525989,0.44155553,-0.23920197,0.504423,0.41751914,-0.22199129,0.49339,0.39368477,-0.21052598,0.483359,0.48803528,-0.29721278,0.51836,0.44409054,-0.26986631,0.499296,0.42300071,-0.25829438,0.490537,0.41260982,-0.25288921,0.492337
0.48384571,-0.37883085,0.58323,0.47918201,-0.32643945,0.558371,0.48040078,-0.36342482,0.590002,0.44711605,-0.33270189,0.585477,0.42314847,-0.3051003,0.575055,0.40945666,-0.28426378,0.565978,0.47425252,-0.27342182,0.550313,0.44391983,-0.22812732,0.528574,0.43545682,-0.20556174,0.523926,0.42756186,-0.18607242,0.519701,0.47708895,-0.27734576,0.534696,0.4410698,-0.22981005,0.505182,0.42168835,-0.20246634,0.487966,0.39799337,-0.19874511,0.475669,0.48021253,-0.28350179,0.524515,0.43862911,-0.23910529,0.49931,0.41597052,-0.22651283,0.486414,0.3923964,-0.21602153,0.474691,0.48568621,-0.29911745,0.517371,0.43939955,-0.27697756,0.497415,0.42011055,-0.26286914,0.488247,0.40871121,-0.25904751,0.48935
0.48831485,-0.38154191,0.58613,0.47851557,-0.32867087,0.558825,0.48234391,-0.36548219,0.591912,0.450425,-0.3361502,0.585668,0.42343626,-0.30751364,0.575098,0.40903578,-0.2840294,0.56538,0.47202387,-0.27484303,0.547815,0.44142414,-0.2299985,0.526739,0.42913512,-0.21081454,0.521079,0.41908225,-0.19095624,0.515934,0.47455339,-0.27945644,0.53282,0.44177495,-0.22948442,0.50083,0.41747207,-0.20936958,0.48217,0.39292008,-0.21015409,0.468841,0.47850723,-0.28677271,0.523414,0.43682971,-0.24729785,0.496098,0.411414,-0.23305311,0.482123,0.3871151,-0.22260054,0.469418,0.48514258,-0.30392373,0.517628,0.43872306,-0.28434265,0.495789,0.41658429,-0.2745569,0.485755,0.40426985,-0.27080863,0.48574
0.48343883,-0.38127942,0.585279,0.47720267,-0.32850251,0.55827,0.47925406,-0.36498332,0.591062,0.44997196,-0.33474495,0.584786,0.42270058,-0.30485952,0.574462,0.41260847,-0.28257718,0.566172,0.46950144,-0.27544264,0.547464,0.44013706,-0.22895243,0.525319,0.43162887,-0.206703,0.521431,0.42443943,-0.18705516,0.517897,0.47395742,-0.27806908,0.532548,0.43875257,-0.22809313,0.500268,0.41113209,-0.2117287,0.481438,0.38958072,-0.21244682,0.467988,0.47804532,-0.28506685,0.523175,0.43480955,-0.24620783,0.495169,0.40924757,-0.2325285,0.48084,0.38496036,-0.22225989,0.467814,0.4844638,-0.30340812,0.517373,0.43834364,-0.27721756,0.495644,0.41730727,-0.26550849,0.48566,0.40621073,-0.2588261,0.485861
0.48272798,-0.38183994,0.585476,0.47647704,-0.32878292,0.558075,0.47831306,-0.36528891,0.590974,0.44853564,-0.33465213,0.584184,0.42223495,-0.30566596,0.573538,0.4114841,-0.28243612,0.565185,0.46824615,-0.27530183,0.546632,0.43930781,-0.22849344,0.524412,0.43075222,-0.20822131,0.520846,0.42354289,-0.18788298,0.517604,0.47251639,-0.27896057,0.531979,0.43830305,-0.22813631,0.499616,0.41053431,-0.21226679,0.480738,0.38633807,-0.2156353,0.467254,0.47699459,-0.28638374,0.522865,0.43418342,-0.24644459,0.494913,0.4086954,-0.23303168,0.480612,0.38451507,-0.22289349,0.467611,0.48430475,-0.30368904,0.517438,0.43822518,-0.27952031,0.495295,0.41708789,-0.26635239,0.485121,0.40546528,-0.26188922,0.485209
0.47903549,-0.38380356,0.586048,0.47406097,-0.33084933,0.558538,0.47409613,-0.36750663,0.591501,0.44703915,-0.33441621,0.584633,0.4225018,-0.30494298,0.573818,0.41270668,-0.28121334,0.565427,0.46598094,-0.27681928,0.54696,0.44024525,-0.22902224,0.525375,0.4321856,-0.20692373,0.521161,0.4258807,-0.18532777,0.517331,0.47023528,-0.28170805,0.532337,0.44401963,-0.22924512,0.499958,0.41554686,-0.21593709,0.481069,0.39237477,-0.22322195,0.467578,0.47501122,-0.28922264,0.52326,0.43035998,-0.25418504,0.493658,0.40487625,-0.24289234,0.478512,0.38118425,-0.23322541,0.464744,0.48258708,-0.30662342,0.517896,0.43877098,-0.28319127,0.495669,0.41699538,-0.27498913,0.485456,0.40470023,-0.27203443,0.485492
0.47798516,-0.38429094,0.585998,0.47279268,-0.33196805,0.558375,0.47293144,-0.3678784,0.591367,0.44644645,-0.33450002,0.584349,0.42234746,-0.30524571,0.573448,0.41094613,-0.28171592,0.564656,0.46450802,-0.27820568,0.546612,0.43978815,-0.22887386,0.524871,0.43204651,-0.20756387,0.520889,0.42606191,-0.18599646,0.51727,0.46933168,-0.28204828,0.532067,0.44098597,-0.22897321,0.499547,0.41314105,-0.21483472,0.480577,0.39134821,-0.22304415,0.467028,0.47419669,-0.28961281,0.523067,0.42957127,-0.25401217,0.493308,0.40396248,-0.24280314,0.478083,0.38016133,-0.23321614,0.464241,0.48187293,-0.30708023,0.517813,0.4384321,-0.28354802,0.495466,0.41616981,-0.27574335,0.485198,0.40275031,-0.27588579,0.485202
0.47702204,-0.38458273,0.585808,0.47209528,-0.33220822,0.558246,0.47191889,-0.36808515,0.59113,0.44592195,-0.33448443,0.584014,0.42204149,-0.30497654,0.573024,0.4099137,-0.28128952,0.563954,0.46402285,-0.27836023,0.546464,0.43961036,-0.22885283,0.524692,0.43219388,-0.20753203,0.520851,0.42636586,-0.18671887,0.517358,0.46893756,-0.28225263,0.531997,0.44120195,-0.22893868,0.499485,0.4132757,-0.21503282,0.48052,0.39111367,-0.22304614,0.466973,0.4738663,-0.28985445,0.523055,0.42951792,-0.25407849,0.493432,0.40394181,-0.24294403,0.478276,0.38016723,-0.23342587,0.464497,0.48159382,-0.30735798,0.517855,0.43835595,-0.28384443,0.495488,0.41587885,-0.27620116,0.485211,0.40204022,-0.27681127,0.485286
0.47884006,-0.38737542,0.588513,0.47601822,-0.33180246,0.560037,0.47338078,-0.36941202,0.592574,0.45043532,-0.33702978,0.583565,0.42998953,-0.30440388,0.571473,0.41727343,-0.27842035,0.562774,0.4656657,-0.2767688,0.545991,0.4376279,-0.22795754,0.522267,0.4312548,-0.20668037,0.519059,0.42558202,-0.18638845,0.516143,0.47173903,-0.28116011,0.532917,0.440661,-0.22895634,0.498883,0.40769642,-0.23479372,0.479029,0.38810753,-0.24496457,0.464849,0.47996752,-0.28694959,0.52522,0.43696495,-0.2490322,0.49666,0.41461682,-0.23938915,0.482048,0.38849563,-0.22732245,0.468764,0.48940509,-0.30504889,0.521638,0.44094968,-0.29377977,0.4978,0.41671572,-0.29033625,0.486847,0.40298845,-0.29630998,0.486939
0.47708528,-0.3868516,0.586694,0.47473271,-0.3316813,0.558882,0.47128644,-0.36884967,0.590625,0.45272256,-0.33852635,0.581868,0.42963045,-0.30428819,0.568924,0.4216796,-0.27968908,0.561178,0.46497115,-0.27641585,0.545118,0.43719215,-0.22753851,0.521572,0.4307426,-0.20658601,0.51841,0.42442148,-0.18726311,0.515535,0.47148038,-0.28083824,0.532394,0.44055046,-0.22913111,0.498766,0.40782431,-0.23578331,0.479149,0.38903897,-0.24609151,0.465137,0.47947933,-0.28759988,0.524914,0.43790877,-0.24993984,0.497251,0.41551994,-0.23991059,0.483098,0.3909168,-0.22884301,0.470232,0.48944566,-0.3057787,0.521459,0.44093993,-0.29377328,0.497789,0.41677307,-0.29037621,0.486914,0.40345687,-0.2966544,0.487505
0.47705306,-0.38771321,0.58701,0.47418749,-0.33205112,0.558533,0.47061893,-0.36937174,0.590451,0.45241217,-0.33835368,0.581023,0.42931424,-0.30411062,0.567811,0.42109085,-0.27926135,0.559607,0.46378527,-0.27575863,0.543681,0.43560171,-0.22641811,0.519245,0.42999229,-0.20634687,0.517481,0.42459055,-0.18768502,0.515878,0.47077386,-0.28028356,0.531412,0.43897427,-0.22849656,0.496988,0.40592458,-0.2349882,0.476907,0.39928816,-0.25275772,0.47711,0.47916507,-0.28733295,0.524378,0.43723442,-0.24977618,0.496197,0.41438545,-0.23925556,0.481779,0.39022089,-0.22848725,0.468672,0.48993971,-0.30576497,0.521567,0.44043591,-0.29343748,0.49722,0.41601984,-0.28985141,0.486034,0.40253907,-0.29597955,0.486396
0.4790622,-0.38993429,0.589001,0.47511227,-0.33332757,0.559574,0.47188741,-0.37127323,0.591943,0.45298791,-0.33949968,0.581806,0.43026971,-0.30517465,0.568815,0.42147162,-0.27974897,0.559619,0.46233429,-0.2767069,0.543425,0.43468606,-0.22630128,0.517957,0.43036552,-0.20712696,0.516919,0.42551572,-0.18861781,0.515975,0.47060556,-0.28079965,0.531548,0.42861442,-0.24398489,0.496121,0.39474474,-0.25492254,0.475455,0.39244958,-0.26831467,0.475119,0.47814243,-0.28922447,0.524939,0.43508129,-0.25340564,0.496205,0.41040058,-0.24196002,0.481503,0.38737449,-0.23248627,0.468139,0.49142353,-0.30683695,0.522799,0.44002376,-0.29453747,0.497657,0.41522615,-0.29078503,0.486105,0.40131182,-0.29668435,0.486041
0.48009075,-0.39113269,0.589991,0.47543898,-0.33395604,0.560007,0.47231205,-0.37222112,0.592513,0.45315845,-0.33998665,0.581636,0.43084694,-0.30587902,0.568006,0.42157589,-0.27983889,0.558929,0.46198581,-0.27667695,0.542932,0.43447098,-0.22625466,0.516723,0.43247013,-0.20879743,0.515053,0.42523799,-0.18871304,0.513536,0.47023083,-0.2809697,0.53145,0.42893535,-0.24417587,0.495366,0.39464264,-0.25478697,0.474318,0.3920647,-0.26799131,0.473735,0.47829078,-0.28953492,0.525226,0.43555982,-0.25372543,0.496494,0.4108857,-0.24232421,0.481793,0.38787304,-0.2328581,0.468429,0.49239508,-0.30744171,0.523638,0.44009214,-0.29544769,0.497936,0.41315187,-0.29564896,0.486127,0.39975386,-0.30789847,0.485854
0.48065978,-0.39196166,0.590034,0.47568522,-0.33455874,0.559957,0.47255592,-0.372998,0.592402,0.45309476,-0.34017817,0.581295,0.4307009,-0.30583654,0.567483,0.4215745,-0.27985176,0.558376,0.46177539,-0.2766938,0.542618,0.4343927,-0.22624661,0.516191,0.43240863,-0.20875061,0.514509,0.42541723,-0.18887629,0.51298,0.47016517,-0.28138592,0.531311,0.42900155,-0.24421629,0.495068,0.39459773,-0.25473481,0.473927,0.39200275,-0.26792897,0.473355,0.47849793,-0.28996204,0.525242,0.43618875,-0.25412377,0.497011,0.41173215,-0.2428843,0.482568,0.38891022,-0.23353735,0.469438,0.493149,-0.308062,0.523851,0.44002093,-0.29597659,0.49799,0.41329261,-0.29636091,0.486108,0.39973494,-0.3078839,0.485831
0.48109226,-0.39249699,0.589909,0.47589751,-0.33496259,0.559867,0.47278407,-0.37358219,0.592271,0.45315022,-0.34039076,0.581181,0.43078897,-0.30593982,0.567379,0.42182921,-0.28003068,0.55832,0.46162374,-0.27707469,0.542546,0.43463782,-0.22640044,0.516131,0.43255583,-0.20881311,0.514449,0.42584764,-0.18913025,0.512919,0.47017292,-0.28167801,0.531255,0.42913588,-0.24429415,0.495036,0.39472208,-0.25480354,0.473908,0.39214311,-0.26801492,0.473372,0.47864766,-0.29018535,0.525195,0.4363019,-0.25421529,0.49698,0.41186012,-0.24300854,0.482544,0.38905757,-0.23367112,0.469421,0.49366157,-0.30828619,0.523808,0.43990771,-0.29631254,0.497958,0.41334803,-0.29670587,0.486081,0.39973411,-0.30788326,0.48583
0.48298275,-0.39302137,0.590452,0.47870092,-0.33627798,0.562245,0.47423377,-0.37404897,0.592517,0.45451574,-0.34115536,0.582783,0.43169288,-0.30676079,0.569434,0.422829,-0.28129799,0.560031,0.46451417,-0.27866034,0.545782,0.43497324,-0.22717316,0.513891,0.4311196,-0.20843988,0.512331,0.42750913,-0.19064504,0.510913,0.47398869,-0.28351543,0.53538,0.42981475,-0.2360917,0.500398,0.39424087,-0.23453046,0.479991,0.3878347,-0.2529197,0.481211,0.4841622,-0.29165636,0.529855,0.43602436,-0.26002174,0.502432,0.40404967,-0.25579405,0.488401,0.37646297,-0.24959442,0.475646,0.49789135,-0.30943465,0.528743,0.43497014,-0.28911881,0.503488,0.41142984,-0.29105851,0.491884,0.40448225,-0.29936913,0.492875
0.47632287,-0.38660458,0.580571,0.47885405,-0.33571944,0.561465,0.46931738,-0.3694867,0.58481,0.45221115,-0.33922434,0.579713,0.43147282,-0.30685165,0.569239,0.42590023,-0.2838148,0.564403,0.47173969,-0.28281993,0.554015,0.44951565,-0.23500441,0.530994,0.44904407,-0.21732785,0.533348,0.44847821,-0.2002103,0.535489,0.48121069,-0.28737107,0.543269,0.44419007,-0.24398787,0.517134,0.4122268,-0.24523013,0.501889,0.4098123,-0.26725202,0.50848,0.4899851,-0.29502128,0.536479,0.44745668,-0.26879068,0.516788,0.41919985,-0.26538526,0.506714,0.39401636,-0.26123229,0.497824,0.50076399,-0.31109745,0.532189,0.44342872,-0.29474112,0.513279,0.42205844,-0.29857752,0.504591,0.41822254,-0.30953872,0.509618
0.47337856,-0.38347734,0.575246,0.4768988,-0.33392096,0.558213,0.46735617,-0.36749948,0.580777,0.45147145,-0.33875181,0.578672,0.43142945,-0.30822282,0.568737,0.42700104,-0.28639322,0.565646,0.4718374,-0.28292278,0.553851,0.45013931,-0.23582116,0.53176,0.44947178,-0.21818659,0.533312,0.44794712,-0.20046784,0.534723,0.48031246,-0.28659125,0.541991,0.44492364,-0.24515833,0.518346,0.41395977,-0.2470803,0.504553,0.4120856,-0.26959009,0.511852,0.4875741,-0.2936766,0.53406,0.45153957,-0.26678554,0.516855,0.42455077,-0.25965784,0.508053,0.40136884,-0.25320376,0.500405,0.49684046,-0.30983566,0.528056,0.44130518,-0.29416082,0.511219,0.43766871,-0.31045925,0.523569,0.43829599,-0.32522179,0.534283
