sluyters/QuantumLeap/backend/src/datasets/dynamic/HandGestureDataset_SHREC2017_csv/Gesture2/finger_2/subject_1_essai_3_skeletons_world.csv
Wrist_x,Wrist_y,Wrist_z,Palm_x,Palm_y,Palm_z,thumb_base_x,thumb_base_y,thumb_base_z,thumb_first_joint_x,thumb_first_joint_y,thumb_first_joint_z,thumb_second_joint_x,thumb_second_joint_y,thumb_second_joint_z,thumb_tip_x,thumb_tip_y,thumb_tip_z,index_base_x,index_base_y,index_base_z,index_first_joint_x,index_first_joint_y,index_first_joint_z,index_second_joint_x,index_second_joint_y,index_second_joint_z,index_tip_x,index_tip_y,index_tip_z,middle_base_x,middle_base_y,middle_base_z,middle_first_joint_x,middle_first_joint_y,middle_first_joint_z,middle_second_joint_x,middle_second_joint_y,middle_second_joint_z,middle_tip_x,middle_tip_y,middle_tip_z,ring_base_x,ring_base_y,ring_base_z,ring_first_joint_x,ring_first_joint_y,ring_first_joint_z,ring_second_joint_x,ring_second_joint_y,ring_second_joint_z,ring_tip_x,ring_tip_y,ring_tip_z,pinky_base_x,pinky_base_y,pinky_base_z,pinky_first_joint_x,pinky_first_joint_y,pinky_first_joint_z,pinky_second_joint_x,pinky_second_joint_y,pinky_second_joint_z,pinky_tip_x,pinky_tip_y,pinky_tip_z,r
0.42241058,-0.37515389,0.539945,0.42627471,-0.32830789,0.549604,0.4068078,-0.36045588,0.544654,0.38822307,-0.3322374,0.555161,0.36431919,-0.30505031,0.551457,0.35766829,-0.28971632,0.554925,0.40851191,-0.28996563,0.562824,0.39920229,-0.25206902,0.565503,0.39448359,-0.2328988,0.566842,0.39015676,-0.21534224,0.568059,0.42965641,-0.28748764,0.560862,0.43139419,-0.25171767,0.574105,0.43238586,-0.2307374,0.581831,0.43306608,-0.21565451,0.587349,0.44701758,-0.28757444,0.558667,0.44785944,-0.24978773,0.567837,0.44828571,-0.23042913,0.572528,0.4486714,-0.21281602,0.576793,0.46778371,-0.29205054,0.554839,0.46619098,-0.25536948,0.556819,0.46546285,-0.23855615,0.557729,0.46482221,-0.22374161,0.558532
0.41788942,-0.36549048,0.540445,0.41350117,-0.32056204,0.547632,0.39180186,-0.34553187,0.544522,0.37415121,-0.31868823,0.551757,0.3532627,-0.29090518,0.549777,0.35057533,-0.27644767,0.557286,0.39920717,-0.27519763,0.558254,0.39645855,-0.24073607,0.567305,0.39506251,-0.22341496,0.57183,0.39378157,-0.20761778,0.575944,0.42040802,-0.27567527,0.556165,0.42770355,-0.24022106,0.569731,0.43195575,-0.21948396,0.577645,0.4349907,-0.20464741,0.583297,0.4376107,-0.27830546,0.554024,0.44486584,-0.24515469,0.566907,0.44741335,-0.22673011,0.573498,0.44972112,-0.20991366,0.57949,0.45779335,-0.28610776,0.550572,0.46295472,-0.25280447,0.556121,0.46407496,-0.23696731,0.55867,0.46604756,-0.22402112,0.56092
0.41592523,-0.36014206,0.53979,0.41368266,-0.3188505,0.547198,0.39685033,-0.34698383,0.54375,0.37480755,-0.31743984,0.551355,0.35327622,-0.28945854,0.54877,0.34917404,-0.27298645,0.554163,0.39838115,-0.27407367,0.557858,0.39391763,-0.23796608,0.564439,0.39165895,-0.21979541,0.56773,0.38958953,-0.20320958,0.570721,0.4197503,-0.27418625,0.555993,0.42401256,-0.23727897,0.567092,0.42407551,-0.21357224,0.573567,0.42996249,-0.20118618,0.580466,0.43715046,-0.27650439,0.554024,0.43830489,-0.23752126,0.561342,0.43733919,-0.2146667,0.565086,0.44180089,-0.20053646,0.571745,0.45768021,-0.28391207,0.550753,0.45963019,-0.24832347,0.553977,0.46185405,-0.23276518,0.557057,0.4642763,-0.22038182,0.559997
0.41629617,-0.36360325,0.538055,0.4101584,-0.31550331,0.538102,0.3953906,-0.34583987,0.539555,0.36832595,-0.3148061,0.540724,0.34436566,-0.28694543,0.536779,0.33634734,-0.26599403,0.536234,0.38652002,-0.26505269,0.539927,0.38005427,-0.22695014,0.542935,0.37679038,-0.20775666,0.544439,0.37380514,-0.19022577,0.545806,0.40795677,-0.26471551,0.538159,0.40897248,-0.22543336,0.547417,0.40955462,-0.20244568,0.552817,0.40980367,-0.18567155,0.556674,0.42583033,-0.2668096,0.536703,0.42454534,-0.22574524,0.541348,0.42388839,-0.20474287,0.543724,0.42361035,-0.18579392,0.546295,0.44789632,-0.27433678,0.534938,0.44519812,-0.23675586,0.534905,0.44515732,-0.22018688,0.536353,0.44512093,-0.20555763,0.537631
0.40785869,-0.35279578,0.530674,0.40266001,-0.30267081,0.529854,0.38498537,-0.33599377,0.531758,0.35991094,-0.30125176,0.531507,0.33535872,-0.27258442,0.526363,0.32807945,-0.25257982,0.527371,0.37839872,-0.25188718,0.530473,0.37358798,-0.21582636,0.536829,0.37114704,-0.19764707,0.540007,0.36890758,-0.18103543,0.542896,0.39992011,-0.25160359,0.528861,0.39967953,-0.21141027,0.536605,0.39953239,-0.18791721,0.541122,0.39904124,-0.17041772,0.544349,0.41790567,-0.25374434,0.527581,0.41444048,-0.21285501,0.532055,0.41266955,-0.19195147,0.534343,0.41130722,-0.17306159,0.536744,0.44020951,-0.26134746,0.526133,0.43907009,-0.22511312,0.527779,0.4404003,-0.20956296,0.530751,0.44396241,-0.20097443,0.536245
0.39665684,-0.34531462,0.520005,0.39220219,-0.29932526,0.517811,0.37723733,-0.33000704,0.52192,0.35243724,-0.29824451,0.522976,0.32629125,-0.26917807,0.51599,0.32241138,-0.24942877,0.51966,0.37182555,-0.24894863,0.518288,0.35634586,-0.20629007,0.510767,0.34859133,-0.18490277,0.507007,0.34085001,-0.16610097,0.503588,0.39175449,-0.25005447,0.515142,0.38395881,-0.20255734,0.509422,0.37941795,-0.17493962,0.506085,0.3749863,-0.15583479,0.503702,0.40824791,-0.25340592,0.512679,0.40059334,-0.20740815,0.50852,0.39668516,-0.18395715,0.506392,0.39272047,-0.16258423,0.504458,0.42834976,-0.2626215,0.50996,0.42633065,-0.22399456,0.507276,0.42442785,-0.2064363,0.506043,0.42273758,-0.19072278,0.504955
0.39179222,-0.34046541,0.512426,0.3820482,-0.28893023,0.503467,0.36989032,-0.32291454,0.512019,0.34195027,-0.28654089,0.507063,0.31640764,-0.25594994,0.499464,0.31282309,-0.24106297,0.505796,0.35332457,-0.23113,0.495652,0.3342081,-0.18725476,0.481704,0.32479655,-0.16535889,0.474958,0.31623133,-0.14541412,0.468826,0.37352197,-0.23168799,0.492591,0.35884674,-0.18172501,0.479554,0.349537,-0.15342474,0.471949,0.34209017,-0.13451199,0.466517,0.39064937,-0.23478287,0.490579,0.37372803,-0.18525692,0.476401,0.36432607,-0.16140236,0.469147,0.35573862,-0.13949028,0.462552,0.41240889,-0.24409235,0.489201,0.40634624,-0.20223387,0.481194,0.40311078,-0.18347861,0.477515,0.40025555,-0.16685301,0.474269
0.37718765,-0.32612258,0.493561,0.37358754,-0.27794488,0.482045,0.3608395,-0.31014946,0.492882,0.33864493,-0.2814736,0.490864,0.30897236,-0.25060508,0.479975,0.30032371,-0.23080282,0.480773,0.33783335,-0.22135725,0.471788,0.31760565,-0.17765589,0.454775,0.30631615,-0.1573899,0.446269,0.29596661,-0.13869319,0.438536,0.35669317,-0.21944041,0.468033,0.33931159,-0.17037358,0.45266,0.32915415,-0.1416192,0.443692,0.32189068,-0.12101647,0.437287,0.37325035,-0.22053168,0.465592,0.35691773,-0.17140904,0.450494,0.34857004,-0.14635725,0.44277,0.33994089,-0.12451102,0.435748,0.39535958,-0.2275519,0.463998,0.38331025,-0.18343106,0.448814,0.37776926,-0.1633739,0.441838,0.3716768,-0.14721862,0.435682
0.3738582,-0.3230023,0.485766,0.36365583,-0.27160513,0.467786,0.35614964,-0.30535208,0.483745,0.32672518,-0.27580909,0.474779,0.2957205,-0.24559074,0.463443,0.28498069,-0.22492076,0.461957,0.32657902,-0.21221242,0.450629,0.30039901,-0.17018067,0.428663,0.28725348,-0.14899344,0.41768,0.27526675,-0.12962109,0.407695,0.34453032,-0.21228227,0.445907,0.31990174,-0.16219131,0.422261,0.30445705,-0.1345574,0.408468,0.29289234,-0.115514,0.398616,0.36045669,-0.21516584,0.443034,0.33837641,-0.16539944,0.419854,0.32708759,-0.1400382,0.407994,0.31532812,-0.11927069,0.397213,0.38206062,-0.22465586,0.441679,0.36562969,-0.18016569,0.419841,0.35806706,-0.15990036,0.409807,0.3499314,-0.14459259,0.400954
0.37221331,-0.31851974,0.477393,0.35642742,-0.26978535,0.45669,0.35409583,-0.3031723,0.4753,0.32134951,-0.27348677,0.467027,0.29157338,-0.24534547,0.4578,0.28024676,-0.2240028,0.455031,0.31452501,-0.21211867,0.437212,0.28784799,-0.16858493,0.412198,0.2745018,-0.14678815,0.399692,0.26236278,-0.12695274,0.388322,0.33213937,-0.21159771,0.431497,0.30866792,-0.1616277,0.405498,0.2949812,-0.13253147,0.390332,0.2843552,-0.1130966,0.379499,0.34785385,-0.21397189,0.427962,0.32644148,-0.16404656,0.403203,0.3154911,-0.13863262,0.390536,0.30381707,-0.11886339,0.37902,0.36942125,-0.22275371,0.426126,0.35329388,-0.1794352,0.401694,0.34586499,-0.15965006,0.390469,0.33659754,-0.14937948,0.380564
0.37122671,-0.3176324,0.469883,0.3495464,-0.27462658,0.442004,0.34780175,-0.2993595,0.465157,0.31438791,-0.27496978,0.451901,0.28122745,-0.2458043,0.438373,0.26670103,-0.22340635,0.431728,0.29999139,-0.21261576,0.413506,0.27191972,-0.1696945,0.385408,0.25788422,-0.14823514,0.371359,0.24512476,-0.12872741,0.358587,0.31768245,-0.21348012,0.408079,0.29841497,-0.16331872,0.387833,0.28717319,-0.13403735,0.376022,0.28107085,-0.1128323,0.372643,0.33381789,-0.21701314,0.405183,0.31184787,-0.16786911,0.378633,0.30060731,-0.14276851,0.365049,0.29048178,-0.12001722,0.352813,0.35663309,-0.22723778,0.404965,0.33930519,-0.18551907,0.377889,0.33133137,-0.16640259,0.365449,0.32428766,-0.14956541,0.354472
0.35886013,-0.30955829,0.453534,0.33386092,-0.27234921,0.420469,0.33523626,-0.29883097,0.444705,0.29269115,-0.27045686,0.429133,0.26580475,-0.24493732,0.424965,0.25970846,-0.22173343,0.424175,0.27979004,-0.21053553,0.382838,0.2516911,-0.16630856,0.35671,0.23765514,-0.14423805,0.343647,0.22490333,-0.12420197,0.331771,0.30063106,-0.21251351,0.380234,0.27793885,-0.16200775,0.356575,0.26470876,-0.13261118,0.342774,0.25544159,-0.11172548,0.33315,0.31933115,-0.21688661,0.379952,0.29494896,-0.16806633,0.351412,0.28255968,-0.14319292,0.336911,0.2713262,-0.12062585,0.323763,0.34526153,-0.22794994,0.383503,0.32665907,-0.18597781,0.35601,0.31849944,-0.16698199,0.343816,0.31134283,-0.15026067,0.333107
0.35529012,-0.31256711,0.444866,0.32782817,-0.27925431,0.408002,0.32929112,-0.29743619,0.435182,0.28818935,-0.27346705,0.414597,0.25676743,-0.24578369,0.403464,0.23948187,-0.22250755,0.392971,0.26842381,-0.22157321,0.366237,0.23921684,-0.17806142,0.33698,0.22463014,-0.15636033,0.322352,0.21138012,-0.13666889,0.309053,0.28873467,-0.22381366,0.363144,0.26233255,-0.17465517,0.332476,0.24693612,-0.1460438,0.314587,0.2359565,-0.12564994,0.301829,0.30728571,-0.22821311,0.362673,0.27833181,-0.18204232,0.328869,0.26354665,-0.1584749,0.311607,0.25010736,-0.1370752,0.295916,0.33360809,-0.23890479,0.366444,0.31110038,-0.19998618,0.335031,0.30094274,-0.18225385,0.320805,0.29201448,-0.16663778,0.308292
0.34383071,-0.30949258,0.428978,0.31238518,-0.28139493,0.390166,0.31617843,-0.30114959,0.417012,0.27125541,-0.27454363,0.398171,0.23827059,-0.24775486,0.386073,0.21561745,-0.22842978,0.371877,0.25239339,-0.22831435,0.34409,0.22321236,-0.18577649,0.31257,0.20863194,-0.16454353,0.29681,0.19538358,-0.14526572,0.282482,0.27455227,-0.23051293,0.342938,0.24581246,-0.18344195,0.30833,0.22904857,-0.15602517,0.288141,0.21707596,-0.13646574,0.273721,0.29449678,-0.234662,0.344173,0.264923,-0.19070252,0.307636,0.24978638,-0.16828919,0.288943,0.23602359,-0.1479358,0.271949,0.32227637,-0.24458719,0.350234,0.29994388,-0.20793219,0.316906,0.28988518,-0.19125752,0.301819,0.28101509,-0.17655587,0.288516
0.34073187,-0.35211819,0.433468,0.31545038,-0.30833923,0.397384,0.31178391,-0.33343532,0.419922,0.27194026,-0.29879282,0.401115,0.23949601,-0.27002426,0.3868,0.21881665,-0.24888865,0.371726,0.26041796,-0.25049613,0.351666,0.22741677,-0.21176645,0.314103,0.21057867,-0.19639628,0.295321,0.19500698,-0.18717369,0.278247,0.28465144,-0.25522624,0.353474,0.25049006,-0.21269575,0.311863,0.22996738,-0.19631672,0.28759,0.21491262,-0.19142559,0.270253,0.30612429,-0.26158673,0.35699,0.26544791,-0.22258876,0.317341,0.24465801,-0.20266768,0.297056,0.22712805,-0.20456744,0.278615,0.33522323,-0.27445053,0.365487,0.30254708,-0.22590156,0.330322,0.28752686,-0.22883538,0.314165,0.27427959,-0.23106548,0.299909
0.34516717,-0.36218399,0.43854,0.3198287,-0.32538044,0.401137,0.31599375,-0.34316282,0.424649,0.27605488,-0.31280163,0.403677,0.24395231,-0.28374374,0.388882,0.22317034,-0.26263116,0.373166,0.26440879,-0.26802739,0.353927,0.23100409,-0.23057403,0.315635,0.21381276,-0.21583972,0.296489,0.19773699,-0.2071889,0.279084,0.28841191,-0.27357321,0.355622,0.2537991,-0.23251916,0.313108,0.23264905,-0.21699193,0.288308,0.21684768,-0.2125335,0.270594,0.30972093,-0.28054804,0.359119,0.27192582,-0.2294902,0.320865,0.25166377,-0.2154957,0.301292,0.23220655,-0.21039971,0.2835,0.33867995,-0.29403113,0.367749,0.30643948,-0.24601357,0.332052,0.29036645,-0.24873562,0.315651,0.27620999,-0.25076515,0.301179
0.35633067,-0.36905186,0.450383,0.32791343,-0.31600019,0.410951,0.32672411,-0.34279857,0.435897,0.30657932,-0.32919194,0.409376,0.27000565,-0.30255949,0.384907,0.24822342,-0.27654248,0.367536,0.26936959,-0.24555026,0.361369,0.23455557,-0.23194925,0.321664,0.21716026,-0.22511743,0.301811,0.20135533,-0.21888414,0.283763,0.29251295,-0.25314378,0.362968,0.24575223,-0.24321442,0.319232,0.2186301,-0.23714688,0.29372,0.19934632,-0.23265326,0.275497,0.31399076,-0.26537865,0.3665,0.27695313,-0.23062584,0.324903,0.25465135,-0.23452644,0.303621,0.2354709,-0.23110664,0.284273,0.34394818,-0.28064165,0.37541,0.31141591,-0.24996454,0.339014,0.29353828,-0.25366088,0.322291,0.27585371,-0.24951991,0.307536
0.33559555,-0.35434345,0.427398,0.31369643,-0.31442393,0.391577,0.31041862,-0.33345494,0.416106,0.27536436,-0.33671649,0.391736,0.2455648,-0.30356012,0.37501,0.2311407,-0.28528744,0.363281,0.27829543,-0.23769498,0.348754,0.22706823,-0.24032162,0.313934,0.20247733,-0.24096494,0.296828,0.18341138,-0.23789368,0.281527,0.2961465,-0.25113373,0.347987,0.24220798,-0.24566124,0.307121,0.21118438,-0.24197482,0.283315,0.18925694,-0.2390492,0.26631,0.31196152,-0.26531534,0.34937,0.29226951,-0.23301678,0.310351,0.26306394,-0.23286005,0.290388,0.23274975,-0.22966726,0.27224,0.33326393,-0.28900098,0.355259,0.31937061,-0.28152086,0.320919,0.31308293,-0.27819102,0.305141,0.29077763,-0.27671932,0.291219
0.33186977,-0.36824943,0.427386,0.31246516,-0.32700097,0.389582,0.30739885,-0.34276555,0.414441,0.26107136,-0.33510732,0.388342,0.23090389,-0.29609851,0.372657,0.20849363,-0.27992797,0.355902,0.2684939,-0.25329231,0.343168,0.22755025,-0.25014137,0.304549,0.20727353,-0.24832605,0.285325,0.18893466,-0.24646103,0.267852,0.28926925,-0.26464807,0.34358,0.24147317,-0.25933493,0.301065,0.21379228,-0.25577646,0.276264,0.19413721,-0.25296997,0.25855,0.30765837,-0.27696296,0.346044,0.27749662,-0.24461994,0.304131,0.25507224,-0.2406654,0.282688,0.23257525,-0.2398789,0.263194,0.33251908,-0.29809838,0.353472,0.31724908,-0.28858542,0.318161,0.31028816,-0.28427679,0.301937,0.28974595,-0.28451459,0.287622
0.32925887,-0.36644549,0.422438,0.30956577,-0.32400459,0.383243,0.3037165,-0.34314753,0.407371,0.25512226,-0.32901142,0.378887,0.2250864,-0.28982966,0.362795,0.20151264,-0.27274792,0.345127,0.26200703,-0.25910395,0.333164,0.22414694,-0.25666874,0.293401,0.20491364,-0.25602603,0.27352,0.18688703,-0.25638194,0.255446,0.28553779,-0.26890584,0.335547,0.24769893,-0.25628317,0.29176,0.22482646,-0.25092459,0.266217,0.20812922,-0.24786599,0.247972,0.30627034,-0.27966898,0.339711,0.27267413,-0.26331308,0.296779,0.25550343,-0.25501145,0.274814,0.23202945,-0.25697955,0.254845,0.33138532,-0.29647659,0.349358,0.31752578,-0.29006069,0.313403,0.30989482,-0.28626363,0.296883,0.28981583,-0.28730448,0.282306
0.33282462,-0.37056537,0.425733,0.31155048,-0.32543211,0.384711,0.30598389,-0.34658833,0.409534,0.25774478,-0.33378098,0.380746,0.2247227,-0.29161754,0.361193,0.19984824,-0.27186307,0.342154,0.26027566,-0.25773108,0.331787,0.2235097,-0.24845822,0.291268,0.20548704,-0.24376623,0.271008,0.18887659,-0.24090486,0.25259,0.28434507,-0.26710901,0.334793,0.24620971,-0.25299101,0.290206,0.22329624,-0.24679801,0.264197,0.20663778,-0.2431141,0.245619,0.30440879,-0.2756593,0.339571,0.27525601,-0.24899,0.295899,0.25668728,-0.24508182,0.273555,0.23560697,-0.24683512,0.253243,0.33287557,-0.29591435,0.350176,0.31832753,-0.28279245,0.313897,0.31097116,-0.27788096,0.297229,0.29114915,-0.2834093,0.282521
0.33475537,-0.37231453,0.427073,0.31347201,-0.32633216,0.386214,0.30763676,-0.34834181,0.410826,0.26568562,-0.33625063,0.38183,0.22854306,-0.29517076,0.362467,0.20450877,-0.27721497,0.343481,0.26176363,-0.25819968,0.333367,0.22555298,-0.24855582,0.292922,0.20758495,-0.24379822,0.2727,0.19101901,-0.24089291,0.254316,0.28596754,-0.26738246,0.336495,0.24801582,-0.25292008,0.29193,0.2252495,-0.24658844,0.265935,0.20871375,-0.24282823,0.247366,0.30643075,-0.27660199,0.341364,0.27733159,-0.24917615,0.297711,0.25879973,-0.2451665,0.275377,0.23774641,-0.24692847,0.255073,0.3364869,-0.2961382,0.35206,0.32042529,-0.2831006,0.315779,0.31307653,-0.2780982,0.29911,0.29437689,-0.27959947,0.284401
0.33833067,-0.37526453,0.428281,0.3169214,-0.32822871,0.387846,0.30908186,-0.35011606,0.411469,0.26842313,-0.33051731,0.384161,0.23523003,-0.29060196,0.367485,0.20869542,-0.27235988,0.34964,0.26309104,-0.25896643,0.334675,0.22710817,-0.24825419,0.29458,0.20952515,-0.2380843,0.274532,0.19343759,-0.24200201,0.256307,0.28813609,-0.26701351,0.338642,0.25540261,-0.24338677,0.294144,0.23512485,-0.23576661,0.268187,0.22054187,-0.23086944,0.249646,0.31036132,-0.27682062,0.344178,0.27651361,-0.25709178,0.300603,0.26056063,-0.24803865,0.278309,0.24076704,-0.24927483,0.258041,0.34094775,-0.2929871,0.355629,0.31754209,-0.27786788,0.318099,0.30821376,-0.27238246,0.300855,0.28898659,-0.27734586,0.285641
0.34618759,-0.3767982,0.435796,0.32896645,-0.32253847,0.395354,0.31568753,-0.35522841,0.418391,0.27616877,-0.32729384,0.390979,0.24058752,-0.29310738,0.37412,0.21743689,-0.2737173,0.356195,0.27054871,-0.25549315,0.341471,0.23363198,-0.24713121,0.301484,0.21549089,-0.24090706,0.281491,0.2015236,-0.24373867,0.263315,0.2965542,-0.26182399,0.346141,0.26230715,-0.24166955,0.301624,0.24183938,-0.2385726,0.275656,0.2272827,-0.2341354,0.257107,0.31970811,-0.26984825,0.352255,0.28617717,-0.25590759,0.308675,0.26796532,-0.2502149,0.286379,0.24890922,-0.25304244,0.266109,0.35127305,-0.28548393,0.364405,0.32776584,-0.27316851,0.326841,0.31694939,-0.2674892,0.309581,0.29978968,-0.26980557,0.294352
0.34832273,-0.37882096,0.439862,0.32926765,-0.31662262,0.401097,0.31761965,-0.35063157,0.421981,0.27550561,-0.31549455,0.393411,0.24495846,-0.27940369,0.379289,0.22478296,-0.26035132,0.362513,0.27635907,-0.24754944,0.348025,0.24255702,-0.23403131,0.308248,0.22566102,-0.22723573,0.288359,0.211733,-0.23059948,0.270279,0.30285937,-0.25562594,0.353924,0.27232471,-0.23385554,0.310164,0.25389693,-0.2263848,0.284637,0.24062399,-0.22167612,0.266403,0.32613551,-0.26510831,0.360956,0.2941362,-0.24839315,0.317857,0.27776707,-0.239846,0.295807,0.26158781,-0.24003371,0.275761,0.35724348,-0.28255209,0.374018,0.33642129,-0.26892972,0.336843,0.32685017,-0.26266677,0.319762,0.30982465,-0.2654562,0.304692
0.3533554,-0.35893139,0.442977,0.33145621,-0.29816607,0.403763,0.32255296,-0.32858775,0.425539,0.27777248,-0.29736615,0.396648,0.24627015,-0.2608524,0.38132,0.22569384,-0.24135959,0.363982,0.27860155,-0.2296374,0.350849,0.24467061,-0.2161919,0.310934,0.227709,-0.20944461,0.290976,0.21373377,-0.21357269,0.272833,0.30467435,-0.23713734,0.356045,0.27397799,-0.21522866,0.312047,0.25545258,-0.20775268,0.286381,0.24210981,-0.20306182,0.268048,0.32755134,-0.24613123,0.362523,0.29549649,-0.22940216,0.319327,0.27909953,-0.22084952,0.297226,0.26289119,-0.22133541,0.277135,0.35815183,-0.26296288,0.374969,0.3372912,-0.24932282,0.337714,0.32770368,-0.2430533,0.320597,0.31064016,-0.2464212,0.305494
0.36161073,-0.35228262,0.453849,0.33982792,-0.29461362,0.415857,0.32957579,-0.32699801,0.434324,0.2812656,-0.28968424,0.401171,0.24679239,-0.25196895,0.382915,0.22598579,-0.23107627,0.364438,0.28375112,-0.22400493,0.361465,0.25216908,-0.21212494,0.321302,0.23637855,-0.20619046,0.30122,0.22297684,-0.21044639,0.282964,0.31296523,-0.23234311,0.369625,0.2853166,-0.21412901,0.326456,0.26883305,-0.20716646,0.301275,0.25698223,-0.20292029,0.283288,0.33867282,-0.24212303,0.378472,0.30494841,-0.25429473,0.335237,0.2842938,-0.24368464,0.313117,0.27551533,-0.22628956,0.305615,0.37294157,-0.26011758,0.393637,0.32779205,-0.26735157,0.356243,0.30138552,-0.25737149,0.339063,0.29472903,-0.24347265,0.332786
0.39555779,-0.34802576,0.466274,0.36071613,-0.29902456,0.426615,0.36127866,-0.33137907,0.450014,0.30632097,-0.30335514,0.423168,0.26845121,-0.27394851,0.408276,0.2427214,-0.25928531,0.391195,0.2921037,-0.24004294,0.374736,0.26133782,-0.2139039,0.334644,0.24663766,-0.20527741,0.314598,0.23441759,-0.20520447,0.296374,0.31934807,-0.23901116,0.378354,0.28785404,-0.2121008,0.334213,0.27059628,-0.20058885,0.308464,0.25844742,-0.19442842,0.290071,0.34269694,-0.24414885,0.38356,0.31280685,-0.25131532,0.340346,0.28987017,-0.24557813,0.318236,0.28020979,-0.22890814,0.310846,0.37546589,-0.25197975,0.394519,0.33623017,-0.26185208,0.357377,0.30799524,-0.25234522,0.340312,0.2973555,-0.2413091,0.33418
0.38979522,-0.35213079,0.472132,0.3634248,-0.29309053,0.439235,0.36507269,-0.33287377,0.459415,0.30922643,-0.30434524,0.436756,0.27052037,-0.28352243,0.425245,0.25182962,-0.26342257,0.419354,0.30384534,-0.23301957,0.397118,0.26025667,-0.18818888,0.362364,0.25027373,-0.19177858,0.344987,0.24641071,-0.19871011,0.32919,0.32848178,-0.23219443,0.399203,0.29332643,-0.18781828,0.35999,0.27618251,-0.17478339,0.337116,0.26489463,-0.16945442,0.320778,0.3503644,-0.23430412,0.402767,0.33012163,-0.18561143,0.36459,0.31714581,-0.19254288,0.345058,0.31316089,-0.21039237,0.344584,0.38028856,-0.24270167,0.410948,0.34745629,-0.25240956,0.377526,0.32324493,-0.25003652,0.36217,0.31840739,-0.24303843,0.361173
0.38079281,-0.35022869,0.464012,0.36311095,-0.29724296,0.441597,0.36177289,-0.33234808,0.457739,0.31844862,-0.30515206,0.445184,0.28574675,-0.28054209,0.436098,0.26937651,-0.25943617,0.430406,0.3104211,-0.24383351,0.415744,0.2810896,-0.19334206,0.389625,0.2682396,-0.18228057,0.376566,0.26120205,-0.18936462,0.364694,0.33239025,-0.2416425,0.414321,0.30585939,-0.18478756,0.384459,0.29306866,-0.17646357,0.36704,0.28396308,-0.17051932,0.354598,0.35169939,-0.24251949,0.414411,0.32877249,-0.19148209,0.384907,0.3175391,-0.16836163,0.369813,0.30852068,-0.16676457,0.35609,0.37772585,-0.24916846,0.417158,0.37147757,-0.20841046,0.392344,0.36361,-0.21311639,0.380943,0.36355213,-0.2305756,0.385876
0.390949,-0.35128068,0.471517,0.36550392,-0.30928316,0.455979,0.36520219,-0.33940785,0.469247,0.32884431,-0.31500703,0.463434,0.29804273,-0.2877037,0.453337,0.28440148,-0.26610742,0.448977,0.32523421,-0.25329565,0.440529,0.30360883,-0.21015908,0.419601,0.29276696,-0.1884437,0.409137,0.28213402,-0.1725516,0.399624,0.34522091,-0.25232066,0.437071,0.32589393,-0.19924743,0.413419,0.31309666,-0.17619996,0.399623,0.30391581,-0.1594012,0.389768,0.36261164,-0.2541494,0.435101,0.34559075,-0.20433254,0.411544,0.3368729,-0.17898121,0.399492,0.32687768,-0.1725404,0.388535,0.38562502,-0.2618725,0.434549,0.37943907,-0.21961866,0.41494,0.37623406,-0.20346824,0.405931,0.38384914,-0.21119469,0.413178
0.38795338,-0.36156383,0.479413,0.3732092,-0.31671946,0.469428,0.36695776,-0.3479554,0.479131,0.33409049,-0.31663107,0.477719,0.30888005,-0.28773498,0.47159,0.29868565,-0.26569082,0.468673,0.3410837,-0.25703979,0.460899,0.32219873,-0.21726779,0.445286,0.3126513,-0.1969383,0.437479,0.30390484,-0.17817238,0.430382,0.36019557,-0.25769648,0.457278,0.34510787,-0.2101328,0.439172,0.33622249,-0.182171,0.428611,0.32986983,-0.16200778,0.421066,0.37654392,-0.26088881,0.454861,0.36359985,-0.21283549,0.436969,0.35698236,-0.18813154,0.427814,0.34993424,-0.16763805,0.419492,0.39755437,-0.27036058,0.453116,0.39591849,-0.22827944,0.438077,0.3943586,-0.21041121,0.431168,0.40280237,-0.2110052,0.44012
0.389544,-0.35885806,0.480958,0.37479652,-0.3094624,0.475663,0.36832769,-0.34837595,0.483186,0.33932862,-0.3135251,0.485327,0.31758459,-0.28880852,0.485931,0.3121813,-0.27224908,0.489925,0.34922054,-0.25635187,0.473966,0.33280282,-0.21823544,0.462098,0.32444344,-0.19855308,0.456165,0.31654151,-0.18067499,0.45077,0.36727869,-0.25487512,0.469219,0.3528862,-0.20825906,0.455725,0.34441221,-0.18064212,0.447854,0.33833604,-0.16067918,0.442232,0.38261731,-0.2561614,0.465613,0.37289614,-0.20973863,0.45152,0.36793868,-0.18565773,0.44431,0.3634425,-0.16355562,0.437756,0.40214957,-0.26301541,0.461878,0.4025334,-0.22336951,0.450529,0.40275943,-0.20499462,0.445315,0.41072811,-0.20551331,0.455375
0.41469969,-0.36498602,0.522776,0.39819979,-0.31682684,0.503689,0.38996989,-0.34738658,0.516609,0.36035422,-0.31815771,0.506901,0.32840879,-0.28645654,0.491628,0.3155658,-0.26377429,0.486033,0.35477813,-0.25841113,0.480695,0.33834728,-0.21086831,0.465882,0.3291059,-0.19064913,0.458475,0.32050155,-0.17296484,0.451742,0.37710777,-0.25970375,0.480464,0.35900996,-0.20937922,0.462907,0.34834141,-0.18047847,0.452665,0.34071609,-0.15979334,0.445349,0.3967197,-0.2636295,0.481347,0.38299611,-0.21124705,0.463546,0.37524133,-0.18791896,0.454439,0.36929189,-0.1665701,0.446159,0.42382994,-0.2730222,0.484662,0.41190011,-0.22897135,0.462486,0.40771387,-0.20855187,0.452297,0.40055144,-0.19883731,0.443307
0.41686364,-0.36941045,0.526196,0.40500374,-0.32297659,0.511999,0.39335217,-0.35197394,0.521302,0.3658919,-0.32252944,0.514973,0.33668789,-0.29081282,0.501898,0.32074282,-0.26621662,0.491903,0.36873499,-0.26385686,0.49453,0.35185283,-0.2203303,0.483692,0.34335165,-0.19862642,0.478272,0.33548947,-0.17912827,0.473345,0.39174421,-0.26622094,0.494724,0.37682962,-0.21675248,0.480846,0.36809871,-0.18807861,0.472751,0.36184478,-0.16761548,0.466968,0.41139514,-0.27084046,0.495681,0.39647013,-0.22089643,0.479429,0.38885437,-0.19668486,0.471113,0.38192602,-0.17451495,0.463554,0.43659314,-0.28204933,0.498509,0.42369896,-0.23923428,0.479643,0.41777346,-0.21957425,0.470975,0.41260665,-0.20310568,0.463326
0.41646325,-0.36728292,0.52532,0.408381,-0.32152933,0.517407,0.39665998,-0.35297135,0.525562,0.36985114,-0.32042466,0.524301,0.34106492,-0.29087847,0.5147,0.33217399,-0.27159775,0.515557,0.37638267,-0.26237616,0.511169,0.36133933,-0.21857995,0.49882,0.35379873,-0.19656484,0.492645,0.34693273,-0.17647987,0.487032,0.39639288,-0.26150421,0.507731,0.3867064,-0.21191161,0.495128,0.38000341,-0.18491365,0.487777,0.37520257,-0.16531212,0.482526,0.41340727,-0.26333433,0.505345,0.40293795,-0.21501046,0.491271,0.39746329,-0.19049969,0.48407,0.3924595,-0.168171,0.477524,0.43515946,-0.27092073,0.503385,0.43242792,-0.22865299,0.490132,0.42926561,-0.21612869,0.484043,0.42640832,-0.20728713,0.47867
0.41252877,-0.36688824,0.524875,0.40677335,-0.32081603,0.520616,0.39228855,-0.35057695,0.523598,0.36394615,-0.31487245,0.521858,0.3442197,-0.28549203,0.519351,0.34140849,-0.26851622,0.524239,0.38145548,-0.26415354,0.515586,0.36731398,-0.22104348,0.504813,0.36021069,-0.19929239,0.499426,0.35373375,-0.17939903,0.494529,0.40376122,-0.26674981,0.515407,0.39642042,-0.21834792,0.506191,0.39438944,-0.19270041,0.50263,0.39218418,-0.17302479,0.500087,0.42327779,-0.27410118,0.515498,0.41462115,-0.22579305,0.505088,0.40954476,-0.20235775,0.499762,0.40492145,-0.18078066,0.494921,0.44542357,-0.28677402,0.516105,0.44186822,-0.24409634,0.505592,0.43922972,-0.22725511,0.500762,0.43692873,-0.21214451,0.4965
0.41264538,-0.36869415,0.526711,0.40838095,-0.32711848,0.526435,0.39468164,-0.35385078,0.528238,0.37592246,-0.32655515,0.534892,0.35571391,-0.29551402,0.529605,0.34729369,-0.27282722,0.529348,0.39010877,-0.27493787,0.528017,0.38175053,-0.23385442,0.521298,0.37729778,-0.21322538,0.517939,0.37151788,-0.19061197,0.514885,0.41078972,-0.27684951,0.526094,0.40806197,-0.22942798,0.518562,0.40408191,-0.20405977,0.514169,0.40099942,-0.18117412,0.511031,0.42790836,-0.28077328,0.524528,0.42481591,-0.23392016,0.516869,0.42300742,-0.21016292,0.512951,0.42055052,-0.18928203,0.509388,0.44987699,-0.29047131,0.522666,0.45037587,-0.24984216,0.515946,0.45003779,-0.23253664,0.512859,0.45058969,-0.21615522,0.510134
0.41304244,-0.36978066,0.528178,0.4129934,-0.33024384,0.529925,0.39654866,-0.3556672,0.531329,0.3791071,-0.32814488,0.538567,0.35748171,-0.29621838,0.531094,0.34960609,-0.27411319,0.530971,0.39803476,-0.27806377,0.535121,0.39288647,-0.23615967,0.530757,0.38825766,-0.21631804,0.528575,0.38255215,-0.19933994,0.526591,0.41798166,-0.27983393,0.532083,0.41527908,-0.23319793,0.526787,0.41283977,-0.20660741,0.523698,0.41056893,-0.18736268,0.521492,0.43426007,-0.2835701,0.529488,0.43199916,-0.23802015,0.524236,0.43057511,-0.2148735,0.521548,0.42877447,-0.19420136,0.519106,0.45359212,-0.29291459,0.526145,0.45597986,-0.25415799,0.521122,0.45693085,-0.23644911,0.518814,0.45772965,-0.22081001,0.516777
0.41407392,-0.37122613,0.530182,0.41481097,-0.33114001,0.531682,0.39767095,-0.35677517,0.533254,0.38016697,-0.32867245,0.539789,0.35799563,-0.29639045,0.531478,0.35058773,-0.27461894,0.531516,0.40000492,-0.27863112,0.536578,0.39382731,-0.2367252,0.532028,0.38912221,-0.21679973,0.529752,0.3836261,-0.20000531,0.527684,0.41995426,-0.28054227,0.533535,0.41647062,-0.23377203,0.527986,0.41366829,-0.20702204,0.524749,0.41131292,-0.1877022,0.522437,0.43622026,-0.28439939,0.530949,0.43339783,-0.23883875,0.525478,0.43166782,-0.2157362,0.522678,0.42969076,-0.19502345,0.520134,0.4555188,-0.29390177,0.527646,0.45764354,-0.25513653,0.522407,0.45846506,-0.23746135,0.520001,0.45912796,-0.22189321,0.517877
0.41349065,-0.37104292,0.528772,0.41869983,-0.3341769,0.534137,0.39784005,-0.35730515,0.532821,0.39002732,-0.33920854,0.545949,0.36824582,-0.30770787,0.539945,0.36529994,-0.28994825,0.545115,0.40525379,-0.28942171,0.543468,0.39948442,-0.24938779,0.542285,0.39656167,-0.22906679,0.541693,0.39344856,-0.21068888,0.541156,0.42677828,-0.28606208,0.540848,0.42517524,-0.24068509,0.539073,0.4237102,-0.21422768,0.538037,0.42265784,-0.19509306,0.537297,0.44332843,-0.28961671,0.538403,0.44148826,-0.24755083,0.536714,0.44074993,-0.22487835,0.53585,0.44007815,-0.20413543,0.535064,0.4627121,-0.2985167,0.534824,0.46512822,-0.26081538,0.533045,0.46639921,-0.2431705,0.532227,0.46741913,-0.22756994,0.531506
0.41484428,-0.37547498,0.53364,0.41521247,-0.3405867,0.539207,0.39971281,-0.36064593,0.537761,0.38099111,-0.33497562,0.547768,0.36483149,-0.30531606,0.546468,0.36315302,-0.28691018,0.550762,0.40929254,-0.29059694,0.548808,0.40400138,-0.25028743,0.547975,0.40133127,-0.22992034,0.547559,0.39822035,-0.21162027,0.547181,0.42944512,-0.29262752,0.546194,0.42945413,-0.24740775,0.544773,0.42908446,-0.22093998,0.543943,0.42866565,-0.20190946,0.543351,0.44575924,-0.29642284,0.543745,0.44634666,-0.25208256,0.542409,0.44637223,-0.22938452,0.541725,0.4463155,-0.20862648,0.541103,0.4628732,-0.30897829,0.540139,0.46916248,-0.27151275,0.538487,0.47159999,-0.25454442,0.537729,0.47378613,-0.23937661,0.537059
0.41559832,-0.37526049,0.533228,0.42426906,-0.34254132,0.53948,0.39990161,-0.36128791,0.537654,0.39294651,-0.34245103,0.550056,0.36931709,-0.30899074,0.541013,0.36678894,-0.29190003,0.547041,0.41074603,-0.29227012,0.550024,0.40565371,-0.25199265,0.549889,0.40291548,-0.23192398,0.549821,0.39962,-0.2140908,0.54976,0.43096155,-0.29414478,0.547329,0.43036705,-0.24928371,0.546647,0.4297418,-0.22299761,0.54625,0.42918729,-0.20410498,0.545966,0.4472862,-0.29778625,0.544775,0.4474426,-0.2539283,0.54423,0.44769075,-0.23326249,0.544588,0.44801622,-0.21132113,0.544914,0.46569071,-0.30870323,0.540963,0.47120211,-0.27139072,0.53985,0.47310472,-0.25568762,0.539339,0.47473091,-0.24200295,0.538888
0.41775303,-0.37844187,0.535289,0.4262474,-0.34536285,0.541424,0.4035967,-0.36545466,0.539985,0.39470161,-0.34634464,0.551618,0.37154391,-0.31367576,0.543779,0.36805936,-0.29491516,0.548924,0.41336606,-0.29762314,0.552187,0.41282721,-0.26189315,0.559785,0.41509716,-0.24866846,0.567077,0.41717165,-0.23394799,0.573705,0.43359552,-0.2986109,0.549125,0.43039927,-0.25392765,0.548399,0.42822478,-0.22781221,0.547975,0.42773142,-0.20707424,0.547673,0.44896257,-0.30083442,0.546275,0.45165388,-0.25938147,0.549859,0.4514586,-0.23891634,0.551692,0.45369258,-0.21805075,0.553359,0.46760569,-0.30969737,0.54212,0.47286695,-0.27235685,0.541005,0.47459361,-0.2567425,0.540492,0.47606599,-0.24307998,0.54004
0.41912954,-0.38079691,0.537242,0.42760995,-0.34707874,0.542869,0.4048879,-0.36766397,0.541774,0.39548012,-0.34758081,0.552401,0.37198422,-0.31485582,0.544426,0.36866808,-0.29640198,0.549826,0.41395064,-0.29878254,0.553007,0.41395455,-0.26354633,0.561334,0.41586136,-0.24912626,0.568121,0.41759777,-0.23418695,0.574291,0.43422563,-0.29961498,0.549933,0.43054157,-0.25465524,0.548675,0.42800947,-0.2284258,0.547941,0.42700586,-0.20797116,0.547416,0.44991143,-0.3017898,0.547101,0.45251909,-0.26065093,0.551096,0.45256551,-0.24019546,0.553141,0.45444911,-0.21956253,0.554999,0.46884552,-0.31038098,0.543024,0.47361533,-0.2727915,0.541487,0.4750853,-0.25713308,0.540781,0.47632975,-0.24341223,0.540158
0.42438081,-0.38726705,0.542532,0.43008501,-0.35310083,0.545277,0.4100424,-0.37589734,0.545313,0.39563846,-0.35505889,0.552299,0.37333939,-0.31930947,0.546056,0.36978629,-0.30184435,0.551015,0.41255888,-0.3051448,0.550898,0.41496975,-0.2717099,0.561908,0.41582476,-0.25448246,0.567413,0.41628215,-0.23509138,0.572417,0.43347948,-0.30638173,0.548723,0.4325249,-0.26299743,0.550546,0.43160533,-0.23751573,0.551609,0.42979658,-0.21495631,0.552369,0.45064456,-0.30960138,0.546786,0.45475362,-0.27037038,0.553643,0.45651002,-0.24973342,0.557151,0.45741017,-0.22643203,0.56034,0.47125713,-0.31822262,0.544124,0.47269809,-0.27892724,0.539928,0.47248035,-0.26376534,0.538001,0.47200155,-0.24658261,0.5363
0.42509312,-0.38884988,0.543064,0.43016242,-0.35425241,0.545437,0.41027985,-0.37721776,0.545578,0.39559118,-0.35501646,0.552233,0.3731031,-0.31995258,0.545531,0.36958614,-0.30245925,0.550486,0.41221214,-0.30488835,0.550435,0.414633,-0.2714894,0.561452,0.41549278,-0.25427929,0.56696,0.41597921,-0.23574381,0.571968,0.43324881,-0.30621869,0.548431,0.43257439,-0.26302752,0.550609,0.43181738,-0.23763242,0.55188,0.4303763,-0.21617111,0.552788,0.45053659,-0.30952721,0.546655,0.45472158,-0.27035134,0.553604,0.4565174,-0.24973745,0.55716,0.45762432,-0.22753916,0.560392,0.4713498,-0.3182852,0.544231,0.47248009,-0.27879861,0.539679,0.47211677,-0.26356237,0.537587,0.47158522,-0.24762953,0.535742
