sluyters/QuantumLeap/backend/src/datasets/dynamic/HandGestureDataset_SHREC2017_csv/Gesture2/finger_2/subject_21_essai_1_skeletons_world.csv
Wrist_x,Wrist_y,Wrist_z,Palm_x,Palm_y,Palm_z,thumb_base_x,thumb_base_y,thumb_base_z,thumb_first_joint_x,thumb_first_joint_y,thumb_first_joint_z,thumb_second_joint_x,thumb_second_joint_y,thumb_second_joint_z,thumb_tip_x,thumb_tip_y,thumb_tip_z,index_base_x,index_base_y,index_base_z,index_first_joint_x,index_first_joint_y,index_first_joint_z,index_second_joint_x,index_second_joint_y,index_second_joint_z,index_tip_x,index_tip_y,index_tip_z,middle_base_x,middle_base_y,middle_base_z,middle_first_joint_x,middle_first_joint_y,middle_first_joint_z,middle_second_joint_x,middle_second_joint_y,middle_second_joint_z,middle_tip_x,middle_tip_y,middle_tip_z,ring_base_x,ring_base_y,ring_base_z,ring_first_joint_x,ring_first_joint_y,ring_first_joint_z,ring_second_joint_x,ring_second_joint_y,ring_second_joint_z,ring_tip_x,ring_tip_y,ring_tip_z,pinky_base_x,pinky_base_y,pinky_base_z,pinky_first_joint_x,pinky_first_joint_y,pinky_first_joint_z,pinky_second_joint_x,pinky_second_joint_y,pinky_second_joint_z,pinky_tip_x,pinky_tip_y,pinky_tip_z,r
0.482569885,-0.372871113,0.581414,0.490472305,-0.347800436,0.600652,0.46352559,-0.361296745,0.58281,0.457018984,-0.316924315,0.582635,0.453033297,-0.276429577,0.556239,0.461508872,-0.265745074,0.539399,0.476234769,-0.318034142,0.615533,0.46691758,-0.279640571,0.627551,0.468368604,-0.265853319,0.63356,0.488735659,-0.280718125,0.652561,0.499784215,-0.317487694,0.618974,0.499715019,-0.269895826,0.632647,0.498514183,-0.25599319,0.640623,0.511147921,-0.260142335,0.659777,0.51801708,-0.316924444,0.619735,0.513483129,-0.290464602,0.63037,0.512144398,-0.310987364,0.63581,0.52940525,-0.349987123,0.654474,0.538179523,-0.316863873,0.617002,0.552586781,-0.268465045,0.624843,0.545429938,-0.259262578,0.628445,0.53832003,-0.249641423,0.631624
0.47858247,-0.376120962,0.57817,0.474258945,-0.353703254,0.583948,0.455978945,-0.364949581,0.574443,0.435983777,-0.323005133,0.56209,0.426662589,-0.279123052,0.530885,0.430063199,-0.258008232,0.512082,0.444713261,-0.307176732,0.583017,0.42236324,-0.262266474,0.579971,0.417808097,-0.246180307,0.578448,0.436770143,-0.258787164,0.594367,0.470495335,-0.309471411,0.589451,0.45561606,-0.255458178,0.586897,0.451648409,-0.237326971,0.585408,0.465310332,-0.237200771,0.601536,0.491922794,-0.312179046,0.594127,0.486406418,-0.287440039,0.589793,0.510643929,-0.326587744,0.610874,0.525579066,-0.360613428,0.621045,0.518334012,-0.317791304,0.598469,0.505532645,-0.267296011,0.593461,0.499516689,-0.243336835,0.59116,0.494134286,-0.221775638,0.58913
0.446328346,-0.346697873,0.55107,0.452529024,-0.324282288,0.5689,0.420326745,-0.331315774,0.552626,0.412250457,-0.298213179,0.560971,0.406814949,-0.271050766,0.570562,0.409802936,-0.253753626,0.578611,0.443074614,-0.290561742,0.583034,0.447997458,-0.25382084,0.594513,0.452221911,-0.23642191,0.600252,0.471733791,-0.237628623,0.619448,0.46622134,-0.293548045,0.585882,0.473274631,-0.246329536,0.597907,0.478494111,-0.222977048,0.604922,0.495521695,-0.235255082,0.623982,0.484049138,-0.296041057,0.586305,0.492853605,-0.266776459,0.595681,0.511921582,-0.303027722,0.616197,0.517397793,-0.333511654,0.620607,0.503541,-0.299932049,0.583445,0.500857703,-0.257088332,0.590133,0.499306715,-0.235661493,0.593206,0.49778734,-0.215780412,0.595953
0.438240224,-0.343006496,0.54463,0.445995018,-0.319640241,0.560007,0.416660345,-0.329448963,0.547914,0.410419203,-0.297613266,0.558707,0.406254185,-0.271093047,0.570129,0.409556376,-0.2535154,0.578434,0.44014592,-0.28443261,0.574726,0.440757235,-0.247588327,0.583474,0.442458552,-0.230421532,0.587848,0.46107776,-0.232697909,0.606809,0.460892278,-0.285934805,0.574652,0.464042004,-0.238472017,0.584134,0.466150156,-0.21560453,0.589666,0.482380079,-0.229261888,0.608611,0.476799326,-0.287388829,0.572934,0.481300041,-0.259681097,0.580955,0.500079616,-0.297085374,0.602128,0.506061273,-0.327432069,0.607348,0.494176766,-0.29043403,0.568049,0.488462813,-0.248243408,0.573347,0.48543704,-0.22711757,0.575781,0.482561513,-0.207492945,0.577956
0.429054183,-0.33787685,0.538692,0.431968524,-0.306341341,0.54726,0.407392548,-0.321428255,0.536018,0.389842259,-0.278824338,0.53235,0.379133802,-0.246982574,0.534941,0.378040763,-0.226159918,0.538688,0.404923696,-0.262372308,0.549595,0.40463432,-0.224278774,0.551158,0.407132924,-0.206871583,0.551939,0.428341957,-0.209507097,0.569123,0.430510645,-0.265980444,0.55542,0.430928079,-0.218164315,0.556141,0.434487627,-0.19694977,0.556561,0.453899261,-0.213173587,0.573477,0.451397604,-0.269614502,0.559294,0.45721224,-0.240415152,0.557979,0.479916079,-0.278158977,0.579094,0.490627726,-0.314881273,0.588059,0.476554177,-0.276020116,0.562179,0.468666991,-0.231805483,0.559745,0.464823743,-0.209867867,0.558627,0.461315501,-0.189568615,0.557654
0.416440902,-0.321812623,0.521766,0.412527711,-0.282333975,0.524501,0.388885475,-0.299870866,0.513573,0.368312741,-0.251910683,0.508659,0.357798167,-0.218657292,0.509342,0.356511022,-0.197775428,0.511648,0.380076584,-0.226974944,0.515685,0.397167224,-0.201551674,0.512825,0.406923627,-0.187315712,0.511395,0.430152147,-0.18106823,0.526167,0.408696141,-0.237343612,0.527105,0.426483114,-0.205261545,0.520894,0.438702612,-0.184158195,0.517271,0.460049237,-0.201124856,0.531203,0.432607867,-0.246995547,0.536215,0.447304155,-0.217490957,0.527261,0.461285197,-0.253837897,0.546568,0.466822229,-0.28764864,0.557897,0.462098299,-0.261461729,0.546275,0.464537906,-0.218700769,0.537695,0.466054796,-0.197471997,0.533752,0.467656476,-0.177799807,0.530301
0.376143246,-0.325885933,0.510988,0.383705284,-0.28481484,0.511008,0.355609588,-0.29427558,0.499665,0.357804442,-0.25144289,0.49275,0.361125127,-0.215168086,0.487915,0.367790854,-0.192364387,0.486805,0.366085611,-0.214289665,0.496272,0.390988681,-0.19568978,0.488731,0.405087979,-0.185559575,0.48496,0.432420072,-0.181534919,0.496964,0.393630269,-0.230871596,0.511026,0.422515031,-0.212477075,0.501881,0.442103729,-0.200659939,0.496547,0.45914039,-0.222780262,0.508301,0.41636593,-0.246062111,0.523174,0.445595435,-0.218433153,0.510715,0.456893207,-0.247281769,0.528084,0.452440182,-0.278098416,0.540053,0.44341465,-0.268095903,0.53727,0.459890129,-0.259835477,0.526,0.468861506,-0.255896835,0.520822,0.482974269,-0.280060159,0.528442
0.379262976,-0.287136299,0.474573,0.378737242,-0.241239558,0.471172,0.361116109,-0.265475178,0.473755,0.342214291,-0.227716165,0.46952,0.323786297,-0.194583648,0.466981,0.319154734,-0.169178423,0.465082,0.355475107,-0.183131525,0.467798,0.339074305,-0.156624334,0.456734,0.33547065,-0.178461583,0.451202,0.348170783,-0.208960553,0.465449,0.376511099,-0.184719111,0.467933,0.358784189,-0.166706198,0.455793,0.349393906,-0.195647601,0.448711,0.361988382,-0.222995456,0.46294,0.394433783,-0.187566782,0.468411,0.376800619,-0.17140929,0.457606,0.385204066,-0.203911892,0.479231,0.391340833,-0.238785734,0.492232,0.417505366,-0.194918526,0.469605,0.393508567,-0.165268594,0.458595,0.386896686,-0.158560704,0.453536,0.405851559,-0.178130331,0.463705
0.363943448,-0.26987371,0.455262,0.35240196,-0.213520763,0.439949,0.338304274,-0.240642036,0.4492,0.306617084,-0.198921756,0.435406,0.283562168,-0.163267938,0.423155,0.272650502,-0.136138898,0.415106,0.320226149,-0.145725218,0.421656,0.304864184,-0.130172877,0.399473,0.301652503,-0.137445683,0.388381,0.31454298,-0.152106368,0.39798,0.34395174,-0.150355418,0.425366,0.321492761,-0.130085678,0.399936,0.308232776,-0.117315435,0.385102,0.311705896,-0.140487511,0.394366,0.365251457,-0.156261339,0.430071,0.342667129,-0.139801333,0.40671,0.330914808,-0.130805735,0.394758,0.331878192,-0.145109873,0.403847,0.394329193,-0.168387985,0.43841,0.355440194,-0.148904605,0.41693,0.336660051,-0.13942911,0.407061,0.314672447,-0.137563053,0.398353
0.350204992,-0.264211851,0.444546,0.322233471,-0.211390797,0.41484,0.323544496,-0.237801521,0.437414,0.290937908,-0.206123996,0.416361,0.266074693,-0.173604187,0.39978,0.253983244,-0.146830471,0.387896,0.285772003,-0.137534325,0.385379,0.257196478,-0.120272624,0.349294,0.242844625,-0.111486428,0.331252,0.238561754,-0.126132648,0.33296,0.307611758,-0.143559608,0.386548,0.281455521,-0.0995944367,0.347194,0.257319861,-0.115124054,0.324238,0.253935427,-0.138314286,0.325948,0.328161809,-0.151255539,0.390712,0.294002767,-0.166321884,0.356076,0.273923802,-0.185410633,0.338355,0.272951459,-0.197514746,0.340253,0.357870989,-0.166788846,0.401129,0.339456472,-0.126662705,0.370166,0.326205046,-0.126723129,0.35594,0.311953339,-0.135656386,0.343387
0.328768356,-0.252225129,0.425564,0.304223708,-0.198860335,0.394295,0.305804421,-0.227667647,0.417373,0.270179508,-0.19244229,0.393616,0.245081788,-0.160476969,0.374965,0.23323607,-0.13424473,0.36273,0.266693858,-0.124620968,0.362394,0.235525152,-0.115012536,0.324894,0.219838313,-0.110303665,0.306145,0.217994488,-0.112549024,0.306682,0.28905091,-0.130763567,0.364515,0.256388837,-0.109911742,0.323611,0.236890265,-0.105370375,0.29975,0.222728891,-0.106317142,0.282706,0.310139985,-0.138568698,0.369632,0.283326014,-0.116273539,0.333195,0.269814546,-0.10439084,0.314553,0.256531076,-0.103821999,0.297606,0.340704754,-0.154258883,0.381448,0.328435568,-0.108604241,0.349223,0.309767783,-0.118604444,0.334417,0.295725482,-0.126846506,0.321353
0.314038978,-0.24380438,0.406416,0.287172668,-0.196105312,0.372169,0.283979636,-0.222909621,0.395177,0.252262803,-0.193735254,0.365901,0.225311887,-0.163537151,0.342836,0.211244991,-0.13789486,0.328304,0.241119282,-0.123177375,0.334275,0.217645726,-0.116651812,0.294136,0.206020076,-0.113556308,0.274067,0.2076746,-0.117755878,0.271699,0.265963409,-0.127832559,0.339552,0.240681985,-0.110647435,0.295799,0.226718522,-0.108307093,0.270276,0.216946179,-0.110625608,0.252046,0.289443083,-0.134531851,0.347587,0.269176308,-0.115613255,0.30799,0.259431761,-0.105757357,0.287731,0.250904798,-0.107002342,0.269314,0.32353385,-0.148922105,0.363352,0.312472077,-0.104492534,0.328748,0.301446193,-0.115460478,0.312849,0.291723572,-0.125160141,0.298821
0.327036127,-0.28098155,0.400903,0.30039517,-0.224757607,0.373141,0.30102157,-0.260603049,0.395061,0.27104023,-0.228454992,0.376818,0.244231484,-0.199676339,0.360975,0.228791084,-0.174190722,0.3519,0.251972989,-0.15504334,0.346681,0.220251323,-0.148885753,0.312708,0.204116598,-0.146158341,0.295721,0.201764369,-0.153487989,0.298838,0.273361639,-0.155919529,0.346701,0.242281405,-0.139916499,0.309343,0.224101273,-0.137110281,0.28755,0.211122027,-0.139437892,0.271984,0.293718031,-0.159454168,0.349709,0.269958127,-0.148578564,0.316932,0.257681109,-0.145313015,0.300163,0.245109058,-0.150362893,0.284918,0.323971039,-0.169929707,0.358419,0.321518241,-0.140450896,0.32925,0.314142608,-0.138682804,0.315848,0.308034665,-0.137399165,0.304023
0.301576803,-0.262077364,0.37477,0.269432454,-0.207135694,0.341412,0.274371717,-0.242136974,0.365046,0.241142683,-0.213019505,0.338832,0.211498981,-0.184652078,0.317606,0.192225558,-0.159212308,0.305266,0.218808443,-0.140431495,0.306097,0.205103635,-0.129558414,0.268639,0.198713682,-0.124345179,0.24991,0.193321066,-0.119811549,0.232924,0.242366733,-0.141171368,0.309642,0.220827742,-0.124169259,0.266949,0.208938431,-0.1143914,0.242045,0.201763112,-0.127054694,0.224256,0.264636102,-0.14475574,0.316157,0.245787579,-0.137909361,0.277658,0.236854959,-0.134979393,0.257961,0.232182151,-0.141887233,0.240054,0.297348764,-0.155275515,0.329989,0.290192224,-0.142971366,0.296214,0.288024181,-0.137490856,0.280696,0.286928633,-0.132780926,0.267003
0.300653158,-0.265667951,0.375401,0.269115207,-0.216797447,0.34101,0.273547927,-0.246408553,0.365717,0.240919925,-0.223417521,0.338519,0.210786451,-0.194828332,0.316536,0.191927081,-0.169766107,0.304792,0.218056438,-0.149859931,0.305045,0.203634677,-0.138876047,0.266715,0.19683715,-0.133634022,0.24755,0.191028676,-0.129094976,0.230162,0.241281867,-0.150401087,0.308256,0.219003704,-0.133423818,0.264744,0.206622408,-0.123742172,0.239362,0.19904242,-0.13555269,0.221232,0.26333869,-0.153959814,0.314607,0.243782563,-0.147200719,0.275393,0.234439224,-0.144362954,0.25533,0.229317281,-0.15104989,0.237092,0.295955684,-0.164646346,0.328443,0.288203492,-0.152663148,0.294184,0.285712361,-0.147397637,0.278443,0.284296872,-0.142927328,0.264554
0.298507404,-0.264723664,0.374007,0.268781309,-0.211734708,0.339825,0.271936355,-0.245977644,0.36439,0.242561971,-0.222398616,0.337656,0.215398601,-0.195028765,0.312981,0.200758322,-0.172577575,0.300859,0.223255445,-0.148550017,0.30409,0.204185108,-0.138612793,0.265457,0.196494389,-0.133702082,0.246141,0.189836797,-0.129477932,0.228612,0.246485287,-0.150196551,0.307271,0.220588656,-0.133700416,0.263838,0.207832927,-0.124413561,0.238503,0.199315821,-0.13641687,0.220406,0.268469895,-0.154580472,0.313574,0.257219313,-0.138430624,0.275158,0.252639216,-0.130319312,0.255503,0.248864524,-0.128988136,0.237635,0.300706604,-0.166098587,0.327316,0.289721088,-0.152761005,0.293145,0.287078933,-0.147327164,0.277445,0.285537209,-0.142701094,0.263592
0.30032471,-0.267309007,0.377064,0.267843913,-0.21340897,0.337889,0.272636458,-0.247626792,0.36583,0.24176123,-0.221517435,0.335507,0.211744173,-0.192747446,0.307671,0.193168602,-0.167571647,0.291499,0.217798318,-0.145866666,0.296657,0.196970317,-0.134154312,0.255445,0.187720339,-0.128478893,0.234839,0.179481919,-0.123451706,0.216106,0.241117128,-0.147871113,0.300579,0.211057522,-0.119992054,0.25341,0.195549114,-0.106602515,0.225894,0.185566793,-0.116264288,0.20624,0.263724193,-0.152802314,0.308031,0.248884583,-0.134937038,0.266242,0.242116496,-0.125909211,0.244861,0.236077536,-0.123403275,0.225425,0.297701522,-0.165417082,0.324045,0.284858794,-0.150650817,0.287385,0.280714464,-0.144511354,0.270541,0.277703308,-0.139232662,0.255679
0.299714828,-0.267416179,0.376819,0.267749852,-0.213280735,0.337584,0.272193202,-0.247903843,0.365571,0.241955831,-0.221622709,0.335263,0.211562484,-0.192924277,0.307407,0.192584265,-0.167571203,0.291289,0.217531078,-0.146003205,0.296293,0.196910342,-0.134332541,0.255052,0.187518349,-0.128713594,0.234431,0.179147241,-0.123739569,0.215685,0.240826741,-0.148007874,0.300217,0.21120805,-0.120514685,0.253017,0.195379141,-0.106356858,0.225484,0.185190472,-0.115828612,0.205817,0.263421112,-0.152944462,0.307677,0.248513466,-0.135066007,0.265845,0.241702192,-0.126032464,0.244442,0.235616744,-0.123509307,0.224985,0.297394675,-0.165572378,0.323711,0.284931901,-0.150915518,0.28704,0.28074087,-0.144749461,0.270191,0.277686638,-0.139447033,0.255324
