sluyters/QuantumLeap/backend/src/datasets/dynamic/HandGestureDataset_SHREC2017_csv/Gesture2/finger_2/subject_12_essai_1_skeletons_world.csv
Wrist_x,Wrist_y,Wrist_z,Palm_x,Palm_y,Palm_z,thumb_base_x,thumb_base_y,thumb_base_z,thumb_first_joint_x,thumb_first_joint_y,thumb_first_joint_z,thumb_second_joint_x,thumb_second_joint_y,thumb_second_joint_z,thumb_tip_x,thumb_tip_y,thumb_tip_z,index_base_x,index_base_y,index_base_z,index_first_joint_x,index_first_joint_y,index_first_joint_z,index_second_joint_x,index_second_joint_y,index_second_joint_z,index_tip_x,index_tip_y,index_tip_z,middle_base_x,middle_base_y,middle_base_z,middle_first_joint_x,middle_first_joint_y,middle_first_joint_z,middle_second_joint_x,middle_second_joint_y,middle_second_joint_z,middle_tip_x,middle_tip_y,middle_tip_z,ring_base_x,ring_base_y,ring_base_z,ring_first_joint_x,ring_first_joint_y,ring_first_joint_z,ring_second_joint_x,ring_second_joint_y,ring_second_joint_z,ring_tip_x,ring_tip_y,ring_tip_z,pinky_base_x,pinky_base_y,pinky_base_z,pinky_first_joint_x,pinky_first_joint_y,pinky_first_joint_z,pinky_second_joint_x,pinky_second_joint_y,pinky_second_joint_z,pinky_tip_x,pinky_tip_y,pinky_tip_z,r
0.47552138,-0.33477172,0.498174,0.4700396,-0.29161197,0.496542,0.45816565,-0.32538596,0.500949,0.43557905,-0.28335568,0.494383,0.41539226,-0.24641493,0.486651,0.41426813,-0.22489133,0.490576,0.44914951,-0.2499055,0.499049,0.43692704,-0.20478468,0.491196,0.43011536,-0.18255237,0.487269,0.42066517,-0.1629173,0.4837,0.46923397,-0.2481949,0.494988,0.45951425,-0.20311954,0.488448,0.45600873,-0.17775342,0.487548,0.4534973,-0.15956595,0.486905,0.48627749,-0.25017357,0.49182,0.4825745,-0.20987726,0.492098,0.48240483,-0.18875788,0.492241,0.4782679,-0.16988379,0.49237,0.5074664,-0.25905282,0.488449,0.50894004,-0.21939402,0.486529,0.51092806,-0.20232144,0.485646,0.50830842,-0.18877071,0.484868
0.42118864,-0.32306041,0.462507,0.43595431,-0.28657918,0.471219,0.40630485,-0.3013793,0.465239,0.39661538,-0.26839986,0.462247,0.38431259,-0.23833768,0.455844,0.39312538,-0.22686569,0.468164,0.43167505,-0.2230446,0.480692,0.42478459,-0.18248668,0.48239,0.42485142,-0.17246447,0.483238,0.4248572,-0.16250266,0.48401,0.4537949,-0.2282949,0.479516,0.45792092,-0.18564878,0.481103,0.46068803,-0.15858888,0.482028,0.46257374,-0.14494104,0.482689,0.47109656,-0.23397582,0.477608,0.47136904,-0.18809374,0.479219,0.47525631,-0.16630417,0.483848,0.47878907,-0.14639374,0.488058,0.49041899,-0.24449962,0.473757,0.49963465,-0.20515395,0.476347,0.50385175,-0.1872514,0.477538,0.50755546,-0.17155622,0.478588
0.41686424,-0.32190972,0.453716,0.43244014,-0.28794564,0.458868,0.40309187,-0.30092686,0.457447,0.39964995,-0.27362099,0.454501,0.38216907,-0.24101066,0.44368,0.38591744,-0.22870038,0.45265,0.42765887,-0.22161253,0.467225,0.41888251,-0.18211038,0.467496,0.41409618,-0.16592848,0.467631,0.41539955,-0.14827729,0.467755,0.44776187,-0.22636916,0.463774,0.45416426,-0.18051858,0.466623,0.45789988,-0.15376243,0.468285,0.46056837,-0.1346464,0.469472,0.46347679,-0.23180511,0.460377,0.46168995,-0.18384768,0.459886,0.46086993,-0.15933431,0.459729,0.46015887,-0.13704537,0.459621,0.48123613,-0.24237478,0.455466,0.48718338,-0.19999179,0.453522,0.48993255,-0.18043335,0.452629,0.49236707,-0.16313067,0.451841
0.42281335,-0.27639275,0.428778,0.42690976,-0.2380415,0.434957,0.40443055,-0.26722957,0.429906,0.40225151,-0.24788639,0.443333,0.37830614,-0.21720256,0.430152,0.37848665,-0.20264135,0.43557,0.4067997,-0.20507652,0.44062,0.39975936,-0.17127344,0.439301,0.3962155,-0.15423943,0.438641,0.39349365,-0.13911763,0.438041,0.43097958,-0.20510491,0.440841,0.42872385,-0.16903272,0.443037,0.42738789,-0.14782135,0.444318,0.42642458,-0.13259402,0.445233,0.45068217,-0.20836454,0.440357,0.4469123,-0.16921449,0.439077,0.44497377,-0.14903333,0.438422,0.44320519,-0.13059668,0.437826,0.47335479,-0.21816449,0.438633,0.47971066,-0.19431457,0.444495,0.48535913,-0.17904627,0.447188,0.49048405,-0.16528581,0.449564
0.42190925,-0.28341718,0.429486,0.41801605,-0.2451121,0.42569,0.40212436,-0.26976865,0.429298,0.39355783,-0.25097292,0.43562,0.36623592,-0.2184575,0.41676,0.36173849,-0.20138482,0.415845,0.39333804,-0.1882611,0.422868,0.37884482,-0.15083809,0.411527,0.37413393,-0.13303549,0.408625,0.36982744,-0.11665388,0.405987,0.41625839,-0.19043396,0.422076,0.40496006,-0.15303344,0.411794,0.39846594,-0.131438,0.405796,0.39382792,-0.11599213,0.401513,0.43569774,-0.19487154,0.421832,0.42360263,-0.1559539,0.410864,0.41741128,-0.1359242,0.405252,0.41191765,-0.11783598,0.400151,0.46016575,-0.20580275,0.422263,0.45253501,-0.17157062,0.411998,0.45038724,-0.15908721,0.407282,0.44861594,-0.14897944,0.403121
0.4234575,-0.28425306,0.427791,0.41321968,-0.23984849,0.415919,0.40241549,-0.27045538,0.426341,0.38783551,-0.24687667,0.425631,0.36052243,-0.21534373,0.409263,0.35412166,-0.19670836,0.408828,0.38394854,-0.19356863,0.40597,0.36124337,-0.14943345,0.386766,0.34987688,-0.12725862,0.377164,0.3395348,-0.10703082,0.368435,0.40689094,-0.19360025,0.404612,0.38365828,-0.14388521,0.384725,0.37011851,-0.11503241,0.373125,0.36058926,-0.094992016,0.364839,0.42733729,-0.19748926,0.404773,0.40758509,-0.14843716,0.38774,0.39822416,-0.12544021,0.379025,0.3897112,-0.10426275,0.371102,0.45431463,-0.2093875,0.407192,0.44126127,-0.16759614,0.393028,0.43606235,-0.14960613,0.38652,0.43252338,-0.14382658,0.380778
0.42133415,-0.28472007,0.425634,0.40785824,-0.23681292,0.406431,0.39902376,-0.26983038,0.422538,0.37753532,-0.24308724,0.41251,0.34904823,-0.20914479,0.396014,0.34145491,-0.18870302,0.395249,0.37072518,-0.18718927,0.389358,0.34423307,-0.14488271,0.363272,0.33097944,-0.12360967,0.350228,0.31892641,-0.10419039,0.33837,0.39354632,-0.18951582,0.388142,0.36617905,-0.1380623,0.359428,0.35055825,-0.11214683,0.342679,0.33941081,-0.093490745,0.330715,0.41432016,-0.19563839,0.389209,0.39595162,-0.14628605,0.3706,0.38710408,-0.12299191,0.361079,0.37907651,-0.10157553,0.352423,0.44247157,-0.21081697,0.394058,0.43585497,-0.17007716,0.381899,0.43273273,-0.15175635,0.376312,0.42650965,-0.14155831,0.371382
0.42024629,-0.28463392,0.422456,0.40663611,-0.23854705,0.402494,0.39706658,-0.26941791,0.418487,0.37819337,-0.24619397,0.406958,0.34509687,-0.21220368,0.389628,0.33612433,-0.18880213,0.388603,0.36686733,-0.18679524,0.383771,0.34233464,-0.14749446,0.35655,0.32932387,-0.12651944,0.342939,0.31749691,-0.1073445,0.330566,0.39062326,-0.1887425,0.383482,0.36101166,-0.13778441,0.353835,0.34390931,-0.11038056,0.33654,0.33169241,-0.090864279,0.324187,0.41250192,-0.19459961,0.385396,0.38785727,-0.14607189,0.358957,0.37530503,-0.12146922,0.346574,0.36444906,-0.099324326,0.335831,0.44250534,-0.20956923,0.39137,0.42804748,-0.16472621,0.370456,0.42049281,-0.14548008,0.360847,0.41460346,-0.138307,0.352369
0.41675173,-0.28570728,0.416478,0.40091642,-0.23743389,0.392589,0.39725038,-0.27281857,0.413786,0.37460291,-0.24582741,0.402729,0.34248381,-0.21459028,0.382518,0.33063835,-0.19155477,0.375474,0.35913733,-0.18595754,0.372863,0.33283438,-0.14703646,0.342167,0.3190472,-0.1264283,0.326819,0.3065145,-0.1076767,0.312866,0.38147479,-0.18942931,0.369838,0.3504843,-0.14419178,0.336797,0.33240892,-0.11778045,0.317523,0.31949942,-0.098902745,0.303756,0.40159453,-0.19485807,0.369922,0.37487784,-0.14926045,0.34048,0.36121301,-0.12590967,0.325417,0.34879274,-0.10466623,0.311723,0.43045422,-0.20964184,0.374509,0.41331403,-0.16491569,0.352552,0.4055246,-0.15035822,0.342463,0.39871238,-0.13736871,0.333562
0.41309062,-0.28454133,0.412107,0.39669498,-0.23925927,0.387213,0.39438457,-0.272269,0.410305,0.37157555,-0.24746821,0.398888,0.34039116,-0.21446036,0.379989,0.32883886,-0.19130904,0.373259,0.35721932,-0.18763745,0.367964,0.32902382,-0.1459506,0.336649,0.31492376,-0.12514003,0.320992,0.30210323,-0.10624374,0.306758,0.37668625,-0.18868834,0.363504,0.34668235,-0.14635731,0.32981,0.32814185,-0.12013159,0.310154,0.31315435,-0.098856264,0.296115,0.39713886,-0.19699433,0.362515,0.37056845,-0.15182839,0.332463,0.35698369,-0.12867985,0.317088,0.34508603,-0.10563518,0.305974,0.42382335,-0.21201506,0.366046,0.40859167,-0.17016971,0.343341,0.40163322,-0.152293,0.332908,0.39508585,-0.13625839,0.326957
0.41141886,-0.281506,0.411344,0.390872,-0.23550693,0.381642,0.38885819,-0.26787361,0.406492,0.36231791,-0.24232805,0.388929,0.33021147,-0.20909118,0.369641,0.31953594,-0.18606136,0.3637,0.34826655,-0.18407438,0.355157,0.32024615,-0.14116301,0.32237,0.30622323,-0.11979031,0.305977,0.29346564,-0.10041841,0.291074,0.37049292,-0.18779985,0.353356,0.33531428,-0.14154122,0.314521,0.3152908,-0.11504788,0.292386,0.30096278,-0.096245894,0.276576,0.3902681,-0.19402308,0.355073,0.3615532,-0.14918425,0.321486,0.34687434,-0.12606588,0.304935,0.33716464,-0.10574164,0.294822,0.42069496,-0.21086786,0.36265,0.40137621,-0.16714564,0.336345,0.39268814,-0.1506763,0.324259,0.38696973,-0.1402002,0.313594
0.41367345,-0.28300071,0.413319,0.39133234,-0.23569263,0.381627,0.39135836,-0.2693419,0.408713,0.36342976,-0.24222969,0.39042,0.33107312,-0.20957509,0.37081,0.31871001,-0.18625547,0.363207,0.34846279,-0.18479109,0.354109,0.31663355,-0.1381986,0.317609,0.30002518,-0.12444662,0.299359,0.2819655,-0.12629733,0.282768,0.36971527,-0.18837948,0.351444,0.33341472,-0.14706856,0.310899,0.31147692,-0.12221364,0.287249,0.29578011,-0.10456216,0.270355,0.39016991,-0.19562514,0.352665,0.35725541,-0.15443114,0.316834,0.33969093,-0.13379896,0.298501,0.32368137,-0.1158439,0.281836,0.41874433,-0.21093436,0.360039,0.39634264,-0.16633064,0.331628,0.38664782,-0.15707248,0.318574,0.37707102,-0.14610177,0.307056
0.41330766,-0.28259669,0.41275,0.39091826,-0.23526733,0.380899,0.39146727,-0.2690496,0.408515,0.36322887,-0.24185728,0.390301,0.33086781,-0.20957193,0.370777,0.31831476,-0.18619884,0.362821,0.34878593,-0.18493623,0.353757,0.31728745,-0.13793125,0.317493,0.30070953,-0.12376074,0.299362,0.28272671,-0.12443959,0.282878,0.36943115,-0.18852343,0.350565,0.33283523,-0.14711455,0.309996,0.31079029,-0.12321964,0.286331,0.29497191,-0.1065801,0.269427,0.38934835,-0.19572475,0.35137,0.35624096,-0.1544354,0.315567,0.33871697,-0.13400795,0.297249,0.32272932,-0.11623718,0.280597,0.41820558,-0.21212072,0.35829,0.3955162,-0.16904529,0.329476,0.38416272,-0.15785229,0.316238,0.37405761,-0.14859209,0.304556
0.41320792,-0.28319714,0.411503,0.39034387,-0.23417008,0.379704,0.39009909,-0.2674146,0.40655,0.36216967,-0.24070521,0.388041,0.33377575,-0.21061934,0.366997,0.31480041,-0.18465403,0.357819,0.34752533,-0.18360817,0.351662,0.32205256,-0.13243537,0.317527,0.30424195,-0.12175336,0.30046,0.28731013,-0.12222143,0.284944,0.36907875,-0.18771173,0.349419,0.33234727,-0.14569334,0.308778,0.31020389,-0.12202265,0.28507,0.29430586,-0.10565662,0.268136,0.38983964,-0.19533067,0.351,0.3565878,-0.15353316,0.315204,0.33900167,-0.13306307,0.29689,0.32296078,-0.11524356,0.280241,0.41888581,-0.21130922,0.358811,0.39557774,-0.16717995,0.329256,0.38422131,-0.1575261,0.315677,0.37365266,-0.14870259,0.303696
0.41352754,-0.2826518,0.410522,0.38975996,-0.23342237,0.378908,0.39070807,-0.26748653,0.40567,0.36209958,-0.24027963,0.387491,0.32879525,-0.20861051,0.366628,0.31512632,-0.18493199,0.357347,0.34715127,-0.1831863,0.351122,0.32087276,-0.13227438,0.317141,0.30308002,-0.12015762,0.300151,0.28633922,-0.12308505,0.284705,0.36861364,-0.18726178,0.3488,0.3312414,-0.14378485,0.30834,0.30983307,-0.12155283,0.284739,0.29399788,-0.10534853,0.26788,0.38926969,-0.19482484,0.350294,0.35593465,-0.15290188,0.314653,0.33840119,-0.13245926,0.296418,0.3224109,-0.11465511,0.279841,0.41825003,-0.21084796,0.357971,0.39444108,-0.16657676,0.328208,0.38279469,-0.15693213,0.314533,0.37205881,-0.14836575,0.302466
0.41276796,-0.28220949,0.409586,0.3891726,-0.23277257,0.378166,0.39012733,-0.26701746,0.404694,0.36178938,-0.23980322,0.38682,0.32857547,-0.20845746,0.365839,0.31482889,-0.18481541,0.356447,0.34660218,-0.1827471,0.350459,0.32028548,-0.13214049,0.31682,0.30312717,-0.12004027,0.300001,0.28654266,-0.12265729,0.284711,0.36814872,-0.18688333,0.348241,0.33091234,-0.14359571,0.307932,0.3094774,-0.12121872,0.284418,0.29369854,-0.10512252,0.267622,0.38886474,-0.19447529,0.349801,0.35553782,-0.15252119,0.314318,0.33807423,-0.13211017,0.296164,0.32214897,-0.11432625,0.27966,0.41796748,-0.21060505,0.357518,0.39397,-0.16629585,0.327748,0.38221071,-0.15668724,0.31407,0.37143844,-0.14829712,0.302001
0.41261077,-0.28135813,0.408572,0.38854894,-0.23211601,0.377405,0.39014037,-0.26635221,0.403755,0.3616178,-0.23946059,0.386208,0.33116212,-0.20975379,0.365016,0.31457272,-0.18472363,0.355485,0.34616252,-0.18228932,0.34997,0.31708586,-0.13328927,0.314817,0.29879977,-0.12311587,0.297241,0.28119743,-0.12472609,0.281263,0.36767052,-0.18641446,0.347722,0.33059775,-0.1432342,0.307646,0.30916453,-0.12069319,0.284269,0.29344994,-0.10464424,0.26757,0.38833177,-0.19397836,0.34923,0.3548106,-0.15105864,0.314005,0.33772505,-0.13156258,0.295983,0.32188753,-0.11377294,0.2796,0.41801198,-0.21064278,0.35684,0.392868,-0.16561434,0.326787,0.38074773,-0.15635608,0.312979,0.36968046,-0.14979358,0.300795
0.41064837,-0.27940437,0.406262,0.38902313,-0.23198747,0.377447,0.38831103,-0.26457218,0.401385,0.36298972,-0.23947151,0.385504,0.32821633,-0.2080777,0.36477,0.31556741,-0.18495476,0.357051,0.34777833,-0.18300306,0.35153,0.31985094,-0.13447053,0.317583,0.30312321,-0.11610215,0.30061,0.28896743,-0.11945793,0.28518,0.37020724,-0.18722093,0.350004,0.33425893,-0.13931192,0.311935,0.31393607,-0.11289539,0.289728,0.29939129,-0.094162255,0.273866,0.39164427,-0.19391547,0.351852,0.36019816,-0.14722398,0.318352,0.34473872,-0.12450356,0.301212,0.3310058,-0.1039941,0.285917,0.41981217,-0.20646127,0.359415,0.39685204,-0.16171895,0.330048,0.38776876,-0.15164392,0.316555,0.37731995,-0.14793889,0.30465
0.40999535,-0.27872891,0.405749,0.38987538,-0.23244486,0.377954,0.38831434,-0.26436077,0.401408,0.36248461,-0.23988843,0.386442,0.32885541,-0.20819947,0.365978,0.31643568,-0.1853638,0.358558,0.34952168,-0.18373908,0.353428,0.32361603,-0.13706757,0.322628,0.30999629,-0.115266,0.307228,0.29521489,-0.10542299,0.293228,0.37093936,-0.18663019,0.351484,0.33747045,-0.13916466,0.318365,0.32289792,-0.11038484,0.299046,0.30685818,-0.094552038,0.285247,0.39175254,-0.19367674,0.352878,0.36452352,-0.14716467,0.324881,0.35215883,-0.124442,0.310557,0.34093771,-0.10369863,0.297535,0.42108487,-0.20964457,0.359721,0.40287759,-0.1615187,0.332769,0.39271156,-0.1531906,0.320386,0.38519663,-0.14452799,0.309459
0.41079265,-0.27857829,0.406363,0.39142148,-0.23283786,0.379206,0.38970083,-0.26474966,0.402646,0.36318109,-0.2399905,0.386865,0.33143995,-0.20953833,0.368766,0.31972965,-0.1868054,0.364327,0.35104339,-0.18459518,0.355926,0.32728505,-0.13721848,0.325869,0.31193884,-0.11467745,0.311482,0.30019622,-0.10839328,0.298404,0.37212815,-0.1856969,0.353343,0.34213841,-0.13691415,0.320803,0.32496535,-0.11057085,0.301821,0.31270279,-0.091735001,0.288263,0.39297762,-0.19076377,0.354143,0.36760282,-0.14554203,0.325818,0.35522568,-0.12245536,0.311326,0.34400579,-0.10140354,0.298165,0.42171984,-0.2054132,0.360175,0.40731248,-0.16301982,0.33792,0.40184228,-0.15499902,0.327695,0.39590121,-0.14605894,0.318673
0.41144906,-0.27976333,0.406837,0.39370967,-0.23441291,0.381381,0.39131854,-0.2664925,0.404182,0.36478422,-0.24107819,0.388405,0.33496611,-0.21124828,0.373683,0.32617894,-0.19021488,0.371071,0.35445099,-0.18497242,0.360638,0.32808321,-0.1391389,0.330308,0.31526685,-0.11662515,0.31554,0.30273017,-0.11284148,0.302114,0.37490812,-0.18678366,0.357138,0.34527129,-0.13740208,0.32529,0.32852558,-0.11246094,0.306712,0.31749281,-0.09436556,0.293442,0.39404359,-0.1925144,0.356998,0.36896629,-0.14692253,0.327789,0.35614521,-0.12358449,0.31285,0.34454963,-0.10237483,0.299319,0.42096564,-0.20718971,0.361621,0.41117955,-0.16597821,0.341791,0.40728573,-0.15696735,0.33268,0.40408265,-0.14886577,0.324641
0.40994879,-0.27965479,0.405171,0.39607633,-0.23598431,0.383782,0.38988322,-0.26634508,0.402624,0.36828362,-0.24336045,0.391831,0.3342595,-0.20977732,0.372596,0.32425217,-0.1882651,0.368216,0.35808318,-0.18768596,0.365942,0.33292078,-0.14179702,0.337694,0.32032109,-0.11908668,0.32357,0.30771848,-0.11459187,0.310729,0.38023659,-0.1898123,0.363412,0.3510011,-0.13825562,0.332746,0.33445689,-0.11457477,0.314858,0.32266618,-0.097475135,0.302081,0.40071874,-0.19611607,0.363634,0.37561248,-0.1500278,0.336392,0.36357916,-0.1261794,0.322454,0.35264081,-0.10449936,0.309784,0.42770645,-0.21097929,0.367911,0.4118527,-0.16679154,0.343867,0.40532025,-0.15539525,0.33282,0.3996839,-0.14522374,0.323072
0.40825297,-0.27986206,0.403159,0.39843546,-0.23772253,0.386261,0.38940031,-0.26733054,0.401993,0.36963391,-0.24609292,0.395315,0.33867637,-0.21168652,0.37749,0.32938195,-0.18996572,0.37402,0.36376316,-0.19078114,0.373269,0.34133011,-0.14576137,0.349529,0.33011332,-0.12326406,0.337659,0.31653493,-0.10794413,0.326868,0.38475794,-0.19263408,0.370168,0.35740521,-0.13982289,0.344189,0.34221247,-0.11596198,0.329035,0.33428983,-0.099805317,0.31821,0.40442823,-0.19889506,0.369435,0.3810816,-0.14948828,0.346529,0.37020526,-0.12523553,0.334809,0.36338934,-0.10491763,0.324155,0.43064193,-0.21263888,0.371762,0.41674875,-0.16906953,0.351218,0.41127434,-0.15584399,0.341779,0.40656565,-0.14398872,0.33345
0.40819425,-0.28162719,0.402983,0.400085,-0.23930877,0.388326,0.38953092,-0.26911083,0.402238,0.37119284,-0.24690991,0.39739,0.34123269,-0.21191348,0.38085,0.33443391,-0.19150058,0.379475,0.36617092,-0.19173255,0.377405,0.34454605,-0.1481464,0.355777,0.33373091,-0.12621486,0.344963,0.3235194,-0.10955462,0.335133,0.38713583,-0.19301827,0.374367,0.36314112,-0.14208429,0.350703,0.34902169,-0.11740605,0.336899,0.33893941,-0.099446963,0.327039,0.40607027,-0.1981427,0.373446,0.38685877,-0.15082186,0.352516,0.37704049,-0.12657375,0.341808,0.36812085,-0.10447462,0.332074,0.43295961,-0.21402309,0.375131,0.42073728,-0.16895184,0.356585,0.41574599,-0.15516079,0.348064,0.41145531,-0.14277514,0.340546
0.40816515,-0.28271173,0.402932,0.40121853,-0.24234821,0.391986,0.38993263,-0.27040239,0.402772,0.37548319,-0.24644174,0.404513,0.3475261,-0.21361524,0.388905,0.33931811,-0.1928185,0.385881,0.37178335,-0.19331562,0.384345,0.35228335,-0.15067732,0.366257,0.34250686,-0.12907337,0.357213,0.33341519,-0.11033713,0.348991,0.39308215,-0.19465267,0.381561,0.37151813,-0.14248661,0.361763,0.3590977,-0.12034078,0.350214,0.35144851,-0.10342446,0.341965,0.411909,-0.19960892,0.380448,0.39215661,-0.15111871,0.36316,0.38261806,-0.12690776,0.354315,0.37394655,-0.10493887,0.346274,0.43646161,-0.21279398,0.381214,0.42923846,-0.17260613,0.365462,0.42368184,-0.15579549,0.358225,0.41793476,-0.13799824,0.352475
0.4079327,-0.28375482,0.402359,0.40348869,-0.24319671,0.39451,0.39060111,-0.27208299,0.403365,0.37814707,-0.24849241,0.40783,0.35161343,-0.21602503,0.394791,0.34456905,-0.19496848,0.392621,0.37595802,-0.19551242,0.390492,0.35821035,-0.15291938,0.375489,0.34925854,-0.13158987,0.367988,0.34109187,-0.1119073,0.361169,0.39656132,-0.19588041,0.387034,0.37787309,-0.14625046,0.370702,0.36332891,-0.11982725,0.361175,0.35490403,-0.10051629,0.35437,0.41447568,-0.19983947,0.385033,0.39886393,-0.15340881,0.370656,0.39088808,-0.12956132,0.3633,0.38363607,-0.10773085,0.356612,0.43737829,-0.21145117,0.384186,0.43019146,-0.17233335,0.371017,0.42695529,-0.15459964,0.364967,0.42411848,-0.13887475,0.359628
0.40752835,-0.28432961,0.401299,0.40705747,-0.24464008,0.398264,0.39196429,-0.27411864,0.40446,0.38155975,-0.25007594,0.411349,0.35473853,-0.21687911,0.398472,0.35076619,-0.19797073,0.400782,0.38060727,-0.2013689,0.400319,0.36763678,-0.15978707,0.390403,0.36108819,-0.1385579,0.385445,0.35497624,-0.11923663,0.380938,0.40157793,-0.19874052,0.395373,0.38558516,-0.15090018,0.384633,0.37722796,-0.12407857,0.378369,0.37122911,-0.10458351,0.373894,0.4179971,-0.20024169,0.391627,0.40479491,-0.15338041,0.382212,0.39915571,-0.13019107,0.377396,0.39683398,-0.11056425,0.373017,0.43690845,-0.20534586,0.387849,0.43375568,-0.1667358,0.378809,0.433726,-0.15520241,0.374656,0.43466108,-0.14272149,0.370991
0.41099879,-0.28800261,0.405549,0.41079745,-0.24478794,0.40464,0.39239161,-0.27548868,0.405872,0.38225018,-0.24972491,0.413456,0.35732733,-0.21579063,0.402979,0.35298349,-0.1978418,0.404557,0.38349471,-0.20177296,0.404444,0.37144202,-0.16029923,0.395984,0.3653528,-0.13907392,0.391755,0.35972634,-0.11976589,0.387909,0.40671223,-0.20147822,0.403774,0.39281127,-0.15377132,0.394535,0.38571639,-0.12729154,0.389146,0.38156936,-0.1078802,0.385296,0.42501744,-0.20475498,0.40332,0.4149714,-0.1598858,0.395102,0.40989374,-0.13675774,0.390897,0.40704022,-0.11424866,0.387075,0.44878844,-0.21568782,0.402965,0.4478984,-0.17600977,0.395026,0.44129005,-0.16082323,0.391379,0.43928468,-0.14545304,0.388161
0.40879961,-0.28680943,0.40372,0.41187665,-0.245407,0.406833,0.39271013,-0.27612915,0.406758,0.3851512,-0.24965983,0.419225,0.36250684,-0.21795019,0.41109,0.35922849,-0.19966193,0.412657,0.38954367,-0.2045512,0.412903,0.37934705,-0.1642454,0.409172,0.37463255,-0.14348662,0.407306,0.37030283,-0.12431912,0.40561,0.41046541,-0.20367899,0.409797,0.40038328,-0.15826417,0.405544,0.39485709,-0.13304573,0.403064,0.39358552,-0.11346423,0.401292,0.42762257,-0.2060283,0.406904,0.42187262,-0.16249639,0.403299,0.41698099,-0.13919435,0.401455,0.41626653,-0.1188714,0.399778,0.4478276,-0.2146856,0.402961,0.44713722,-0.17839445,0.398955,0.44692685,-0.16175387,0.397115,0.44676662,-0.14684903,0.395491
0.40811677,-0.28663988,0.403298,0.41254181,-0.24586167,0.408137,0.39236441,-0.27633136,0.406875,0.38605591,-0.25056503,0.420517,0.36464443,-0.21963739,0.41405,0.36339256,-0.20231399,0.419133,0.39131243,-0.20759564,0.416082,0.3832602,-0.1675277,0.414128,0.37903731,-0.14722526,0.413151,0.37512604,-0.12833398,0.412263,0.41275245,-0.20560784,0.412746,0.40440109,-0.16129053,0.410507,0.39968142,-0.13634645,0.409202,0.3962151,-0.11785816,0.408269,0.42963238,-0.20738669,0.409478,0.42349347,-0.16408998,0.407643,0.42080104,-0.14173735,0.406704,0.41833756,-0.12121971,0.40585,0.44931132,-0.21517315,0.404774,0.44988438,-0.1793265,0.402395,0.44912174,-0.16175314,0.401301,0.44931377,-0.14700734,0.400337
0.40978014,-0.28760166,0.405247,0.41134775,-0.24580311,0.411109,0.39411709,-0.2776363,0.409259,0.38723544,-0.25159616,0.422959,0.36807642,-0.22227787,0.420219,0.36872503,-0.20887242,0.42928,0.39372447,-0.2116159,0.420314,0.38587667,-0.17208258,0.419471,0.38171654,-0.15217215,0.41905,0.37928321,-0.13186059,0.418666,0.41392239,-0.20932567,0.416692,0.40682874,-0.16570713,0.415685,0.40247497,-0.1413187,0.415097,0.4007677,-0.12155934,0.414678,0.43121417,-0.20966816,0.413076,0.42572493,-0.16771679,0.412294,0.42331939,-0.14566708,0.411894,0.4227858,-0.12429517,0.41153,0.45141145,-0.21691634,0.407778,0.45151393,-0.18072288,0.406346,0.45017719,-0.1645786,0.405688,0.45246349,-0.1496814,0.405107
0.41256953,-0.28906769,0.409545,0.40746005,-0.24020375,0.416755,0.3964951,-0.27879486,0.413733,0.39211523,-0.25811799,0.434011,0.37754359,-0.23330792,0.428074,0.38201503,-0.22167331,0.435531,0.39692095,-0.21428456,0.427104,0.39107267,-0.17623331,0.427613,0.38802741,-0.15672948,0.427868,0.38493096,-0.138973,0.4281,0.41731551,-0.21253171,0.423621,0.41275843,-0.1716514,0.424136,0.4098882,-0.14827645,0.424437,0.40776314,-0.13103044,0.424651,0.43366675,-0.21412262,0.419976,0.43117902,-0.17294011,0.4205,0.42975887,-0.15159498,0.420767,0.42958578,-0.13018316,0.421011,0.45209157,-0.22167306,0.41439,0.45404463,-0.18623679,0.414057,0.45467552,-0.17067789,0.413903,0.45522601,-0.15675627,0.413768
0.41389391,-0.28925724,0.412843,0.41020373,-0.24229662,0.420753,0.39676442,-0.27865656,0.41729,0.39513844,-0.26034271,0.438397,0.37996258,-0.23547716,0.432346,0.38376849,-0.22405258,0.43974,0.39860082,-0.21492977,0.431917,0.39426285,-0.17803001,0.433288,0.39201525,-0.15904982,0.433974,0.38967981,-0.14193032,0.434597,0.42056854,-0.21441683,0.428287,0.41764153,-0.17439277,0.429645,0.41577588,-0.15261708,0.430437,0.41478071,-0.13615371,0.431002,0.43678812,-0.21628405,0.424446,0.43333456,-0.17609651,0.425839,0.433882,-0.15451895,0.426551,0.43418529,-0.13339826,0.427199,0.45229908,-0.22490192,0.4185,0.45565154,-0.1894808,0.418784,0.45682332,-0.17406524,0.418914,0.4597391,-0.15903258,0.419028
