sluyters/QuantumLeap/backend/src/datasets/dynamic/HandGestureDataset_SHREC2017_csv/Gesture8/finger_1/subject_25_essai_2_skeletons_world.csv
Wrist_x,Wrist_y,Wrist_z,Palm_x,Palm_y,Palm_z,thumb_base_x,thumb_base_y,thumb_base_z,thumb_first_joint_x,thumb_first_joint_y,thumb_first_joint_z,thumb_second_joint_x,thumb_second_joint_y,thumb_second_joint_z,thumb_tip_x,thumb_tip_y,thumb_tip_z,index_base_x,index_base_y,index_base_z,index_first_joint_x,index_first_joint_y,index_first_joint_z,index_second_joint_x,index_second_joint_y,index_second_joint_z,index_tip_x,index_tip_y,index_tip_z,middle_base_x,middle_base_y,middle_base_z,middle_first_joint_x,middle_first_joint_y,middle_first_joint_z,middle_second_joint_x,middle_second_joint_y,middle_second_joint_z,middle_tip_x,middle_tip_y,middle_tip_z,ring_base_x,ring_base_y,ring_base_z,ring_first_joint_x,ring_first_joint_y,ring_first_joint_z,ring_second_joint_x,ring_second_joint_y,ring_second_joint_z,ring_tip_x,ring_tip_y,ring_tip_z,pinky_base_x,pinky_base_y,pinky_base_z,pinky_first_joint_x,pinky_first_joint_y,pinky_first_joint_z,pinky_second_joint_x,pinky_second_joint_y,pinky_second_joint_z,pinky_tip_x,pinky_tip_y,pinky_tip_z,
0.437081757,-0.376805318,0.582172,0.411740834,-0.317203666,0.560674,0.406330598,-0.360813965,0.571958,0.379155806,-0.327548721,0.556513,0.354620266,-0.298390429,0.534307,0.342410515,-0.275955015,0.52174,0.366031972,-0.266710725,0.533222,0.342006146,-0.227321111,0.520567,0.333466632,-0.214140739,0.514239,0.326185866,-0.203074804,0.508486,0.395480632,-0.268396923,0.539996,0.373160295,-0.221350702,0.512341,0.367302008,-0.227957051,0.496209,0.362159323,-0.239026025,0.484686,0.42152024,-0.274606325,0.547633,0.394680258,-0.227424238,0.526864,0.390987297,-0.225942717,0.516238,0.389960284,-0.235785399,0.506578,0.455230161,-0.290585318,0.56025,0.433722594,-0.273885814,0.535695,0.423821824,-0.266164774,0.524413,0.415074454,-0.259323526,0.514458
0.430716518,-0.374202163,0.58634,0.399226155,-0.316125577,0.56229,0.399330714,-0.357804811,0.576647,0.371859545,-0.329507079,0.561521,0.345769691,-0.299946758,0.53945,0.333549052,-0.27768033,0.527091,0.348896936,-0.267301202,0.533792,0.324482646,-0.231481287,0.525479,0.312973581,-0.216127966,0.521322,0.302267821,-0.201802919,0.517543,0.37727261,-0.266529439,0.539156,0.355945175,-0.21854171,0.509408,0.347037693,-0.223835851,0.492055,0.339974747,-0.234596788,0.47966,0.403057085,-0.270764452,0.545877,0.370794588,-0.225346246,0.523135,0.361732563,-0.217701745,0.5115,0.360596938,-0.226541513,0.500922,0.437609362,-0.28455512,0.557857,0.416752801,-0.268569667,0.531954,0.407164478,-0.261194852,0.520053,0.398700637,-0.254669701,0.509552
0.428729225,-0.37513156,0.595544,0.393236165,-0.317522479,0.567379,0.395409288,-0.361756118,0.585799,0.36505015,-0.331602286,0.569795,0.334190878,-0.301242813,0.549904,0.327951886,-0.282070587,0.535328,0.341309305,-0.266319487,0.536054,0.316764204,-0.231818403,0.527197,0.304521629,-0.216108416,0.522768,0.293274698,-0.202018299,0.518742,0.368853678,-0.265667936,0.540286,0.34142958,-0.229800665,0.507219,0.331772483,-0.24074229,0.48793,0.336129551,-0.255991904,0.489946,0.394248716,-0.270203104,0.54647,0.365628852,-0.226097815,0.528459,0.358764777,-0.224423887,0.519245,0.359243686,-0.236626213,0.510868,0.428934658,-0.284749813,0.558524,0.404849849,-0.271374291,0.530333,0.39376474,-0.265236299,0.51738,0.383972723,-0.259825044,0.505951
0.419661207,-0.373467787,0.595917,0.389120171,-0.317043678,0.567096,0.387259883,-0.360476945,0.587051,0.364553266,-0.333217988,0.572402,0.33432411,-0.302902662,0.551887,0.329599032,-0.284672223,0.53793,0.334192332,-0.265984606,0.536455,0.31101578,-0.230453372,0.527577,0.299094811,-0.214542801,0.523138,0.290750825,-0.200946595,0.519102,0.360832778,-0.265242919,0.539373,0.331255174,-0.226482186,0.5059,0.320138019,-0.236410601,0.486374,0.324630774,-0.252296479,0.488209,0.385467419,-0.269681893,0.544538,0.356893786,-0.225300494,0.525798,0.348701884,-0.224693516,0.51621,0.348313903,-0.237210128,0.507494,0.41922259,-0.284063381,0.555511,0.393429389,-0.27243072,0.527252,0.381546813,-0.267106788,0.514269,0.371042899,-0.262420962,0.502813
0.416733636,-0.372951925,0.595613,0.383755978,-0.31638698,0.566412,0.384963799,-0.359979746,0.586649,0.360810208,-0.332926466,0.571604,0.332624676,-0.302563171,0.550876,0.32773944,-0.284261642,0.5374,0.332512091,-0.265432265,0.535391,0.309375166,-0.229936953,0.526602,0.297462024,-0.214039161,0.522207,0.288592913,-0.20009915,0.518212,0.359157902,-0.264697629,0.538324,0.329377898,-0.225797376,0.504545,0.318155308,-0.235629704,0.48484,0.32251211,-0.251389859,0.486458,0.38382164,-0.26916037,0.543537,0.355130809,-0.22469166,0.524607,0.346854935,-0.224039651,0.514921,0.346411102,-0.236509963,0.506117,0.417662641,-0.283605969,0.554632,0.391688573,-0.271856801,0.526145,0.379722876,-0.266477887,0.513056,0.369146468,-0.261743386,0.501507
0.415024356,-0.372683505,0.595496,0.383259855,-0.316264151,0.566165,0.383812203,-0.359727536,0.586442,0.360203994,-0.332721901,0.57121,0.331756649,-0.30237732,0.550341,0.326661393,-0.283928775,0.536894,0.331893456,-0.265201395,0.534942,0.308782416,-0.229730736,0.526199,0.296878495,-0.213843128,0.521828,0.287562567,-0.199708855,0.517853,0.358584054,-0.264504394,0.537951,0.328730605,-0.2255542,0.50406,0.317469474,-0.235350625,0.48429,0.321773799,-0.251062145,0.485825,0.383298115,-0.269004206,0.543239,0.354560813,-0.224499845,0.524236,0.346254014,-0.22383114,0.514513,0.345788,-0.23628407,0.505674,0.417222286,-0.283507688,0.554445,0.391171523,-0.271709416,0.525861,0.379171396,-0.266307916,0.512728,0.368564722,-0.261553188,0.50114
0.410347986,-0.37166351,0.595593,0.382163746,-0.315740694,0.565796,0.382531155,-0.359125968,0.586428,0.3594569,-0.332472919,0.570757,0.330569019,-0.302197054,0.5496,0.324897161,-0.283522277,0.53612,0.330641112,-0.26459591,0.53412,0.307006207,-0.229049938,0.524557,0.294852134,-0.213097723,0.519775,0.283603941,-0.198610063,0.515428,0.357358494,-0.263997275,0.537135,0.327163439,-0.225028871,0.502874,0.31583624,-0.234953312,0.482888,0.319999795,-0.250469542,0.484153,0.382106932,-0.268579201,0.542473,0.353403224,-0.223892374,0.523245,0.345015269,-0.223435064,0.513408,0.344378345,-0.235895624,0.504465,0.416088752,-0.283177589,0.553816,0.389769117,-0.272154977,0.524959,0.375341413,-0.271155524,0.5117,0.366933721,-0.262679578,0.500001
0.409659625,-0.371533891,0.595821,0.382454212,-0.315924047,0.565957,0.38254159,-0.359126011,0.587454,0.361193666,-0.332887742,0.571802,0.331416953,-0.302853649,0.551021,0.325331166,-0.284033944,0.537321,0.334557941,-0.265172241,0.535255,0.312706213,-0.229469216,0.524668,0.302210104,-0.213721325,0.519374,0.291957997,-0.19964816,0.514562,0.360582861,-0.264456169,0.537231,0.328975461,-0.225773748,0.503031,0.316291167,-0.235853705,0.483081,0.320274958,-0.251378311,0.484419,0.384586839,-0.270223781,0.54172,0.359305883,-0.226090594,0.520696,0.346323505,-0.223593832,0.50994,0.341844845,-0.234532111,0.500161,0.418023339,-0.288911914,0.55208,0.388189394,-0.275831234,0.523458,0.375647642,-0.27138049,0.510308,0.365890812,-0.263147778,0.498704
0.413260521,-0.372319997,0.596351,0.3960308,-0.317589724,0.566069,0.385660518,-0.359368807,0.58721,0.375944073,-0.334853119,0.571766,0.344931813,-0.304127196,0.550366,0.339105608,-0.28412028,0.536726,0.344849261,-0.265745554,0.534098,0.323276857,-0.229702648,0.523249,0.311375485,-0.213843725,0.517824,0.300312967,-0.199864085,0.512892,0.373917541,-0.266063662,0.536941,0.339971461,-0.227939251,0.502314,0.327562137,-0.238540527,0.482115,0.330708401,-0.253430881,0.483116,0.396591863,-0.273606298,0.542185,0.363920511,-0.228217371,0.513646,0.351752528,-0.230174585,0.499044,0.345710345,-0.241340519,0.485771,0.429747123,-0.290917077,0.5535,0.401377552,-0.278913565,0.524405,0.38830923,-0.273417558,0.511037,0.376757977,-0.268579055,0.499241
0.417953661,-0.372680407,0.595549,0.402662431,-0.317580607,0.565436,0.395541034,-0.360054454,0.586076,0.38262441,-0.334088714,0.569534,0.352226879,-0.30329223,0.547214,0.349339467,-0.283439282,0.534415,0.354926431,-0.263904384,0.533155,0.336797615,-0.226604144,0.523971,0.327362053,-0.208332777,0.519379,0.31833711,-0.198218014,0.515204,0.381990648,-0.266357095,0.536471,0.351920999,-0.228069735,0.50193,0.337274095,-0.23904485,0.481781,0.339780666,-0.25429021,0.482821,0.406830732,-0.273427899,0.542087,0.373803687,-0.227868035,0.513122,0.361626039,-0.229827535,0.498303,0.355228479,-0.240871519,0.484831,0.440450003,-0.29091765,0.55381,0.412246131,-0.279010651,0.524693,0.399258273,-0.273559644,0.511315,0.387780368,-0.268761084,0.49951
0.45704615,-0.388641157,0.604548,0.42742005,-0.33362381,0.572417,0.43139707,-0.377049815,0.598797,0.408122564,-0.353517561,0.582806,0.372808867,-0.324483962,0.565121,0.36115702,-0.305539706,0.556718,0.376020519,-0.283726534,0.543536,0.360047714,-0.244785741,0.530873,0.35178914,-0.225590115,0.524542,0.343380913,-0.211327809,0.518786,0.399137251,-0.28208955,0.541509,0.368849701,-0.241394563,0.506171,0.35109328,-0.249900899,0.485557,0.35168656,-0.265239442,0.485607,0.421177081,-0.285819773,0.542921,0.388150032,-0.24662101,0.520673,0.371218505,-0.226506017,0.509291,0.358997152,-0.225335516,0.498943,0.452476332,-0.299380867,0.550066,0.425731484,-0.288323415,0.521407,0.413422708,-0.283271918,0.508239,0.402550696,-0.278832311,0.496621
0.464048267,-0.395240992,0.607874,0.439526208,-0.344772021,0.57483,0.439534079,-0.383399896,0.603266,0.420659429,-0.364237333,0.587698,0.387612178,-0.333465052,0.570849,0.376367891,-0.314771271,0.562505,0.390385095,-0.293434534,0.546797,0.374357824,-0.254047864,0.532121,0.365655936,-0.235372649,0.524783,0.356198911,-0.22265949,0.518113,0.411788018,-0.293241773,0.543045,0.380178471,-0.253702354,0.507394,0.359216613,-0.262280144,0.486597,0.358388367,-0.276620017,0.485898,0.432374168,-0.298186409,0.543124,0.398646566,-0.258113077,0.519389,0.381390506,-0.2376108,0.507245,0.366702617,-0.236391529,0.496206,0.461871968,-0.313221993,0.548864,0.431924732,-0.303382178,0.520357,0.418133435,-0.298896665,0.50726,0.405944893,-0.294958943,0.495703
0.465241416,-0.39777567,0.60823,0.43957751,-0.346038121,0.575027,0.440805355,-0.385374777,0.603442,0.420235889,-0.364974863,0.587549,0.38734556,-0.333824081,0.570581,0.376218403,-0.314883467,0.562146,0.390803304,-0.294173556,0.546656,0.379430666,-0.252787807,0.527517,0.370788508,-0.238260305,0.517947,0.360739087,-0.234355409,0.509247,0.412415251,-0.294330015,0.543088,0.379935238,-0.254668314,0.507277,0.35912336,-0.2626703,0.486387,0.358458027,-0.277298243,0.485601,0.433109549,-0.29958014,0.543334,0.40720159,-0.260836949,0.514056,0.393648554,-0.240308974,0.499076,0.379035579,-0.239914767,0.485458,0.462623866,-0.315004645,0.549297,0.432552805,-0.303950679,0.520634,0.418599812,-0.299307987,0.507465,0.406240555,-0.295345003,0.495845
0.463072126,-0.395398644,0.604757,0.43753796,-0.343289895,0.570072,0.440695591,-0.382694498,0.601418,0.421980088,-0.357641544,0.586125,0.39592418,-0.323183031,0.570449,0.385080617,-0.303815926,0.559537,0.400536511,-0.289466113,0.542559,0.388196957,-0.251013347,0.521185,0.38098519,-0.232846798,0.510498,0.37443816,-0.216166106,0.500782,0.418409329,-0.295125061,0.536709,0.384388692,-0.259174267,0.50045,0.356965843,-0.266509016,0.479299,0.352327291,-0.274550606,0.477023,0.435530014,-0.304662112,0.535217,0.405733444,-0.265750066,0.500304,0.390485237,-0.245887353,0.482441,0.369620822,-0.245139866,0.466203,0.459903689,-0.324635387,0.539399,0.421532585,-0.317900589,0.510969,0.403564605,-0.315468785,0.497907,0.387630959,-0.313494991,0.486381
0.462151528,-0.394966991,0.603803,0.437922161,-0.343820584,0.567349,0.440076502,-0.38060608,0.599571,0.418583539,-0.35796,0.581974,0.394215439,-0.321067747,0.565303,0.38364043,-0.3022551,0.553738,0.404513418,-0.291004135,0.537511,0.39038285,-0.254195023,0.512231,0.383347751,-0.235647921,0.499591,0.376971649,-0.218694624,0.4881,0.421734004,-0.300320712,0.532284,0.402045322,-0.249690401,0.497655,0.37386258,-0.251255283,0.477454,0.367032436,-0.266169516,0.477018,0.437962361,-0.312661194,0.531476,0.416542941,-0.262845835,0.502413,0.394792794,-0.259284093,0.487544,0.376121576,-0.267980032,0.474026,0.460647891,-0.33552409,0.53676,0.420612464,-0.329193029,0.507261,0.401885696,-0.326689223,0.493708,0.385315371,-0.32454611,0.481749
0.462926481,-0.397605521,0.604968,0.44070324,-0.356628986,0.566526,0.440396485,-0.381577204,0.599336,0.418369845,-0.367090182,0.579427,0.393433959,-0.329970027,0.561541,0.382504959,-0.31120223,0.548445,0.401589383,-0.298872713,0.533566,0.388413422,-0.262915673,0.509572,0.381865514,-0.244756445,0.497576,0.375937904,-0.228130444,0.48667,0.419669127,-0.30886178,0.529548,0.401259965,-0.258379188,0.496074,0.37369021,-0.25987077,0.476548,0.367755805,-0.275519894,0.477448,0.436834856,-0.321924817,0.529926,0.416132418,-0.272130777,0.50151,0.394303564,-0.270906635,0.486972,0.377111196,-0.280429303,0.473756,0.46100181,-0.3459583,0.536938,0.419850131,-0.338777546,0.506154,0.400636384,-0.335850387,0.49201,0.383652328,-0.333317388,0.47953
0.455966552,-0.393575907,0.59245,0.437503183,-0.351952032,0.55452,0.436571565,-0.381499354,0.589015,0.413057004,-0.366643135,0.571554,0.389362875,-0.328766775,0.556236,0.377087292,-0.310342555,0.544486,0.396058518,-0.293669138,0.524709,0.377658099,-0.255953331,0.498791,0.366745566,-0.23881464,0.485832,0.355771167,-0.224351382,0.474051,0.411933106,-0.300456273,0.518034,0.383202199,-0.251373722,0.484178,0.354199591,-0.255832973,0.464428,0.353968295,-0.26928027,0.463934,0.427800232,-0.311263654,0.516175,0.398448565,-0.261893878,0.48721,0.375330487,-0.265603547,0.472391,0.368495908,-0.277419648,0.465397,0.451394216,-0.333394601,0.520481,0.40331517,-0.331100796,0.491244,0.38153752,-0.329820956,0.477811,0.362498301,-0.328564978,0.465959
0.455770542,-0.394589501,0.591056,0.426261153,-0.352001729,0.552888,0.435932064,-0.382799824,0.587367,0.406858859,-0.378125942,0.569428,0.374834679,-0.347284362,0.554264,0.357316919,-0.330174399,0.541071,0.374765643,-0.299184255,0.522594,0.35215344,-0.263124664,0.498888,0.340802261,-0.244914089,0.487035,0.330454057,-0.22824211,0.47626,0.392847,-0.300595998,0.516175,0.355601716,-0.253028301,0.481163,0.331361825,-0.260023726,0.46074,0.331443619,-0.274612245,0.459304,0.411315927,-0.306899677,0.514549,0.372575926,-0.260091161,0.484219,0.353026386,-0.266001614,0.468701,0.354334387,-0.283680625,0.468088,0.439422762,-0.323611609,0.519169,0.396343379,-0.326804376,0.489724,0.3784042,-0.328392877,0.476195,0.360216546,-0.328196348,0.464257
0.438810549,-0.399814816,0.573932,0.404236905,-0.34444908,0.541518,0.410712603,-0.390307004,0.573172,0.379053518,-0.370982963,0.560274,0.352427191,-0.33963758,0.547571,0.335989368,-0.320270614,0.536949,0.364897368,-0.288533872,0.518821,0.337715219,-0.256991665,0.494217,0.32402256,-0.241036152,0.481916,0.311506847,-0.226409459,0.470732,0.380107053,-0.288592824,0.510339,0.338027367,-0.249694359,0.476534,0.316278009,-0.259881079,0.456814,0.317757755,-0.273937402,0.455479,0.395293656,-0.294176263,0.506463,0.354364118,-0.252742213,0.477698,0.337526004,-0.260912673,0.462981,0.341010462,-0.278542507,0.462948,0.418011435,-0.310866858,0.507466,0.374934707,-0.313758073,0.481433,0.356498576,-0.317173897,0.469472,0.340388198,-0.319994857,0.458918
0.409254262,-0.401264161,0.57686,0.383857417,-0.345193179,0.544081,0.390284025,-0.386634015,0.575672,0.36074516,-0.372683516,0.562149,0.332184656,-0.341159139,0.548209,0.316322386,-0.320588557,0.538339,0.343559569,-0.290997257,0.520593,0.316587018,-0.25674791,0.494572,0.301678976,-0.241726648,0.481561,0.287600197,-0.228797467,0.469734,0.359517025,-0.292637356,0.512551,0.320426262,-0.251486359,0.478332,0.297813244,-0.260984469,0.45837,0.298750614,-0.274794182,0.456916,0.375263888,-0.299226814,0.509073,0.336818822,-0.255623198,0.479415,0.317632879,-0.261737706,0.464241,0.319651714,-0.279108186,0.46368,0.398467146,-0.316463499,0.510603,0.355651592,-0.315139145,0.484162,0.337662811,-0.318297106,0.472013,0.322103726,-0.32119376,0.461294
0.418161089,-0.418109554,0.56507,0.389407453,-0.367710382,0.543112,0.409100684,-0.408553673,0.571969,0.385948979,-0.397675324,0.569745,0.364926063,-0.386756972,0.569636,0.350112082,-0.367315759,0.563059,0.359397568,-0.323296874,0.537204,0.314793198,-0.331610328,0.51023,0.331642583,-0.349227116,0.519507,0.346989085,-0.365272452,0.52794,0.362052092,-0.320057856,0.521991,0.315253918,-0.286993963,0.495605,0.288046171,-0.267760702,0.480213,0.274068049,-0.277544857,0.481543,0.367132326,-0.32220562,0.511572,0.317767137,-0.305417793,0.494367,0.292510813,-0.296829019,0.485565,0.276281685,-0.296238535,0.489489,0.378289458,-0.333465715,0.503125,0.333084939,-0.31687919,0.486796,0.319436912,-0.324938302,0.479294,0.307460091,-0.331948615,0.472674
0.381096824,-0.408740284,0.551966,0.355168766,-0.365956908,0.540129,0.380657148,-0.403898398,0.565849,0.357665164,-0.400181269,0.573842,0.336284049,-0.394742314,0.581789,0.322319753,-0.378734849,0.580425,0.337262767,-0.331166495,0.549922,0.307017157,-0.356544567,0.54888,0.325132397,-0.373239006,0.555944,0.341637798,-0.38844743,0.562366,0.330209075,-0.324766798,0.528742,0.286005475,-0.300418338,0.516419,0.259851703,-0.286045925,0.509231,0.244889831,-0.296909798,0.511535,0.326911444,-0.323629833,0.51244,0.282638794,-0.315028446,0.508153,0.259784313,-0.31062504,0.506008,0.238874656,-0.306613362,0.504077,0.32752851,-0.329681461,0.495376,0.289100679,-0.320055953,0.489982,0.278120354,-0.331376274,0.487503,0.268418234,-0.341383762,0.485316
0.294326531,-0.379568755,0.574926,0.286443796,-0.325184687,0.544422,0.293218687,-0.360847374,0.57761,0.267636517,-0.331484572,0.56942,0.242039692,-0.309996417,0.56172,0.229453191,-0.289264033,0.552201,0.279454705,-0.267636995,0.527404,0.230496569,-0.264629001,0.505852,0.220977994,-0.283172953,0.513126,0.213691912,-0.301596192,0.519739,0.278549021,-0.274258312,0.515081,0.220791436,-0.254648132,0.484244,0.188045934,-0.243282507,0.466256,0.169178133,-0.240983261,0.464556,0.278710032,-0.285013367,0.507859,0.223984628,-0.270714296,0.482585,0.200070132,-0.272294485,0.469653,0.186599084,-0.276244319,0.457931,0.280454631,-0.307317578,0.504618,0.23185745,-0.297931619,0.481783,0.229791518,-0.306225752,0.471292,0.227838466,-0.312899334,0.462035
0.282754485,-0.378788393,0.573744,0.264405242,-0.324582606,0.543414,0.271314067,-0.360553754,0.57714,0.245906804,-0.331765165,0.569902,0.22036656,-0.310873338,0.563309,0.207910555,-0.290424335,0.554416,0.258601334,-0.267646129,0.527422,0.21027218,-0.265083066,0.50672,0.200061723,-0.283266217,0.513295,0.192211447,-0.301325779,0.519273,0.257024821,-0.273810516,0.51424,0.200061113,-0.254508251,0.483978,0.167750397,-0.243318509,0.466325,0.148469611,-0.240793403,0.46419,0.256555133,-0.284135608,0.506295,0.20262897,-0.270278424,0.481808,0.179555186,-0.272078228,0.46928,0.167075413,-0.276229238,0.457906,0.257437265,-0.305830375,0.502176,0.209987071,-0.296844451,0.480025,0.208593036,-0.305287502,0.469848,0.210654914,-0.317263309,0.468479
0.26704533,-0.37984274,0.575341,0.254232732,-0.325326845,0.54466,0.266613948,-0.361525201,0.578695,0.235504977,-0.332579003,0.5713,0.209695283,-0.311627745,0.564676,0.197353767,-0.291420676,0.556318,0.248619692,-0.268131262,0.528378,0.200283837,-0.265509421,0.507535,0.18973339,-0.283514553,0.513745,0.181607904,-0.301393673,0.51939,0.246924864,-0.274293454,0.515147,0.190034584,-0.254881091,0.484687,0.157789432,-0.243628446,0.466919,0.138258483,-0.240926719,0.464447,0.246344924,-0.284641816,0.507197,0.192094343,-0.273880699,0.482544,0.17108678,-0.276554646,0.469931,0.161195374,-0.280780871,0.458605,0.247076172,-0.306411979,0.503131,0.199824377,-0.29736452,0.480866,0.198678495,-0.305799511,0.470636,0.200699823,-0.317620204,0.469006
0.275391582,-0.389196412,0.593883,0.250661362,-0.330948861,0.560601,0.26584852,-0.369621851,0.595309,0.233207057,-0.343097676,0.584608,0.206291883,-0.323575654,0.575288,0.191512908,-0.30521143,0.564363,0.220089077,-0.276452134,0.540113,0.172973652,-0.256670867,0.516412,0.150704153,-0.248859167,0.508798,0.130182486,-0.241701047,0.501876,0.227598548,-0.281100929,0.528586,0.173772193,-0.264797743,0.495565,0.142725352,-0.26055134,0.476302,0.123508079,-0.263096839,0.472702,0.236198989,-0.28997974,0.522287,0.186671683,-0.288432177,0.494774,0.175619295,-0.295055725,0.480698,0.172356784,-0.305715465,0.478131,0.250631038,-0.309528948,0.5206,0.206588531,-0.310692168,0.496045,0.207206994,-0.317382623,0.484763,0.211030143,-0.327449573,0.482142
0.26679599,-0.385441764,0.592975,0.232483208,-0.32739902,0.561872,0.254530952,-0.367699612,0.595965,0.21811441,-0.351484606,0.587008,0.192620248,-0.334750837,0.579241,0.179296798,-0.318548531,0.569373,0.203600932,-0.274401561,0.544842,0.156006605,-0.258260542,0.523464,0.132994403,-0.251726442,0.515932,0.11182621,-0.245752363,0.509084,0.209870432,-0.276069822,0.531954,0.156343853,-0.258913499,0.501028,0.14927447,-0.271928324,0.482988,0.147471686,-0.286054485,0.480405,0.217399064,-0.28261355,0.524325,0.168049089,-0.283191213,0.499142,0.1624304,-0.294122199,0.486258,0.160836798,-0.309421706,0.484879,0.230509814,-0.299679723,0.520708,0.189763329,-0.305855775,0.49801,0.192611331,-0.313099392,0.487581,0.197862044,-0.323862257,0.485842
0.252988768,-0.3824067,0.594806,0.220088693,-0.32844634,0.564441,0.241335711,-0.36900205,0.597837,0.204461231,-0.360365607,0.590126,0.173797919,-0.341989304,0.582961,0.15762053,-0.320967839,0.574197,0.185970747,-0.278793611,0.54796,0.139133215,-0.258476956,0.526833,0.116371921,-0.249709573,0.519049,0.0955082102,-0.241697941,0.511972,0.192934687,-0.278334365,0.535234,0.141155665,-0.261339003,0.5047,0.133951184,-0.274375587,0.486888,0.131891241,-0.288878329,0.485042,0.201495969,-0.282992588,0.527668,0.153033912,-0.284324021,0.502793,0.153905227,-0.295352029,0.490066,0.160870325,-0.311403399,0.489459,0.216655823,-0.297600946,0.523999,0.179203938,-0.307408233,0.501505,0.182918373,-0.314659174,0.49117,0.188961997,-0.325793561,0.489996
0.249978867,-0.380653408,0.596312,0.213604829,-0.324272944,0.567091,0.234760419,-0.366859261,0.600549,0.199313197,-0.35548501,0.594531,0.168149157,-0.340136205,0.588278,0.151520469,-0.320178312,0.580074,0.181302808,-0.275522222,0.552916,0.134052656,-0.257846574,0.533506,0.110649295,-0.249428098,0.524667,0.0893834586,-0.241898646,0.516912,0.185939403,-0.275953205,0.538983,0.134891166,-0.248594781,0.509884,0.122828066,-0.26258311,0.492909,0.134935036,-0.272525787,0.491132,0.19260069,-0.281182928,0.530315,0.142543716,-0.280777735,0.507123,0.143827523,-0.293326876,0.495257,0.149395458,-0.309632361,0.494815,0.205540084,-0.296129223,0.525159,0.168765474,-0.306238985,0.504062,0.174457324,-0.313035011,0.494368,0.181889837,-0.323446794,0.493328
0.247848572,-0.377194838,0.59447,0.212952964,-0.321520369,0.5656,0.233924569,-0.363563868,0.599157,0.198134488,-0.357107044,0.593751,0.162714664,-0.349663458,0.587373,0.141382839,-0.335262323,0.579328,0.180409454,-0.273639055,0.552235,0.132811646,-0.259834863,0.533462,0.107551665,-0.256724498,0.524076,0.0860369826,-0.252949756,0.517344,0.184560327,-0.273473973,0.53783,0.129542637,-0.261666928,0.509247,0.12054788,-0.275676615,0.492574,0.125681904,-0.289343507,0.49071,0.190884743,-0.278176343,0.528738,0.142030447,-0.280679935,0.506165,0.144460811,-0.292982262,0.494616,0.15014255,-0.309080132,0.494118,0.203548467,-0.292441376,0.523028,0.161186686,-0.294605056,0.502453,0.163388626,-0.303440627,0.493,0.168208035,-0.315114001,0.491925
0.247510246,-0.376350163,0.595359,0.213305912,-0.321273688,0.566292,0.234223673,-0.362829948,0.599988,0.197587107,-0.36071686,0.594526,0.16303455,-0.352477269,0.588827,0.141430759,-0.338981711,0.581328,0.18040914,-0.273452672,0.552722,0.132598622,-0.260841324,0.533827,0.107808619,-0.257158788,0.52438,0.0862364216,-0.253202146,0.517181,0.184475191,-0.273149755,0.538333,0.129828686,-0.262026313,0.509612,0.121142908,-0.27600129,0.492858,0.126560431,-0.289439572,0.490843,0.190775663,-0.277747156,0.529274,0.141683587,-0.279857609,0.506569,0.144692797,-0.291962553,0.494952,0.151106353,-0.307624418,0.494292,0.203496834,-0.291908519,0.523635,0.16160238,-0.294908073,0.502961,0.163825425,-0.303694053,0.493462,0.168637873,-0.315270503,0.492268
0.246589768,-0.374626494,0.594307,0.213149324,-0.320644494,0.566215,0.233847022,-0.361563705,0.599202,0.197348852,-0.360627592,0.593994,0.162812569,-0.352980171,0.588629,0.141193481,-0.33979644,0.581532,0.18031786,-0.273562798,0.553638,0.1322544,-0.263429138,0.535335,0.108336042,-0.258748282,0.526184,0.0868020875,-0.255275398,0.519458,0.183776523,-0.271949941,0.539195,0.130528044,-0.268667171,0.511159,0.123976617,-0.282981762,0.494805,0.130614193,-0.292747043,0.493537,0.189966278,-0.276059284,0.529997,0.138929989,-0.27298007,0.507936,0.143566107,-0.288255592,0.496649,0.150535346,-0.304489335,0.496787,0.202653622,-0.289566018,0.524028,0.162065448,-0.29477953,0.50384,0.157600622,-0.294794589,0.494565,0.16808031,-0.293624412,0.493958
0.246739228,-0.37476395,0.595399,0.213366077,-0.321024203,0.566972,0.234200569,-0.361824017,0.600084,0.197589359,-0.361490553,0.594566,0.162952968,-0.353966064,0.589109,0.141231932,-0.340731574,0.581882,0.180159446,-0.273827529,0.553901,0.132249607,-0.26426417,0.53525,0.108598784,-0.261615885,0.525925,0.0869919592,-0.256899007,0.519959,0.184185717,-0.273151621,0.539627,0.130490139,-0.269462808,0.511262,0.124015247,-0.283620218,0.494716,0.13122216,-0.293332743,0.493315,0.189942944,-0.276440616,0.530602,0.139664597,-0.275445924,0.508187,0.142925967,-0.287979951,0.496719,0.150024268,-0.306885623,0.496703,0.202769687,-0.289952533,0.524893,0.162558669,-0.295187381,0.504418,0.157618826,-0.295919902,0.495011,0.167294468,-0.295309012,0.494288
0.246669476,-0.374590703,0.59578,0.213438745,-0.321169361,0.567286,0.234343104,-0.361839653,0.600432,0.197719331,-0.361982211,0.594866,0.163041888,-0.354567841,0.589414,0.14127831,-0.341348655,0.582188,0.180070373,-0.274029029,0.554127,0.132300572,-0.264873295,0.535417,0.108626763,-0.262205666,0.526062,0.0870621792,-0.257746867,0.519997,0.184072528,-0.273247631,0.539877,0.130517556,-0.269810363,0.511453,0.124074635,-0.283939118,0.494872,0.131696996,-0.293880972,0.493436,0.18989738,-0.27662358,0.530877,0.139502348,-0.275341691,0.508401,0.142647967,-0.28792726,0.496901,0.149604219,-0.306520014,0.496847,0.202761139,-0.290072785,0.52521,0.162828467,-0.295385808,0.504686,0.157655692,-0.296351804,0.495256,0.167069855,-0.295932631,0.494505
0.246601338,-0.374434865,0.596043,0.213486783,-0.32126719,0.5675,0.23444064,-0.361836874,0.600669,0.197806322,-0.362310648,0.595067,0.163099978,-0.35496641,0.589613,0.14130822,-0.341757629,0.582388,0.180002083,-0.274165802,0.554274,0.132332268,-0.265275097,0.535519,0.108642966,-0.262505671,0.526141,0.0871014708,-0.258290741,0.519977,0.183987402,-0.27330986,0.540043,0.130537747,-0.269997591,0.511574,0.124108588,-0.284108298,0.494967,0.132030985,-0.294261908,0.493506,0.189868323,-0.276747473,0.531064,0.139407843,-0.275284847,0.50854,0.142483011,-0.287899528,0.497017,0.149299113,-0.306248795,0.496934,0.202758348,-0.290157184,0.525429,0.163008756,-0.295519382,0.504867,0.157687354,-0.296592491,0.49542,0.166969353,-0.296264858,0.494648
0.245602281,-0.372872812,0.593989,0.212990358,-0.320621988,0.566804,0.235282287,-0.361834228,0.599285,0.197540818,-0.361886042,0.594624,0.163083267,-0.35487991,0.590071,0.141292968,-0.342100395,0.583372,0.180141527,-0.274620329,0.555346,0.132806737,-0.266613954,0.537796,0.109106635,-0.26337396,0.529021,0.0876436234,-0.260437497,0.523351,0.183126144,-0.272664981,0.540655,0.131041408,-0.272441878,0.513394,0.126552288,-0.28678358,0.497492,0.136964684,-0.297932516,0.496725,0.187372829,-0.273883165,0.531167,0.138766559,-0.275432107,0.509892,0.143078062,-0.288954671,0.499007,0.149994401,-0.30577292,0.499696,0.196210346,-0.28337778,0.524703,0.16270503,-0.294661142,0.505139,0.158084022,-0.296554205,0.496151,0.167510343,-0.297182084,0.495952
0.244532298,-0.371924686,0.594409,0.213024964,-0.320724105,0.567351,0.234274137,-0.361258866,0.599768,0.197644818,-0.36210893,0.595197,0.163117939,-0.354887698,0.590568,0.141237745,-0.342202273,0.583893,0.180232162,-0.274903548,0.556058,0.132973287,-0.26715331,0.538623,0.109204469,-0.263421365,0.529905,0.0874300106,-0.260066746,0.521991,0.182999403,-0.272661843,0.541324,0.131321608,-0.273464243,0.514178,0.133796766,-0.289291043,0.498343,0.148736182,-0.296525474,0.497637,0.186890475,-0.273602858,0.531788,0.138646107,-0.275974932,0.510632,0.143345529,-0.289302009,0.499808,0.150660548,-0.306029712,0.500566,0.196520805,-0.28350996,0.525247,0.160910892,-0.292732024,0.505778,0.158595517,-0.296544965,0.496833,0.168172539,-0.297490332,0.496686
