sluyters/QuantumLeap/backend/src/datasets/dynamic/HandGestureDataset_SHREC2017_csv/Gesture8/finger_1/subject_17_essai_2_skeletons_world.csv
Wrist_x,Wrist_y,Wrist_z,Palm_x,Palm_y,Palm_z,thumb_base_x,thumb_base_y,thumb_base_z,thumb_first_joint_x,thumb_first_joint_y,thumb_first_joint_z,thumb_second_joint_x,thumb_second_joint_y,thumb_second_joint_z,thumb_tip_x,thumb_tip_y,thumb_tip_z,index_base_x,index_base_y,index_base_z,index_first_joint_x,index_first_joint_y,index_first_joint_z,index_second_joint_x,index_second_joint_y,index_second_joint_z,index_tip_x,index_tip_y,index_tip_z,middle_base_x,middle_base_y,middle_base_z,middle_first_joint_x,middle_first_joint_y,middle_first_joint_z,middle_second_joint_x,middle_second_joint_y,middle_second_joint_z,middle_tip_x,middle_tip_y,middle_tip_z,ring_base_x,ring_base_y,ring_base_z,ring_first_joint_x,ring_first_joint_y,ring_first_joint_z,ring_second_joint_x,ring_second_joint_y,ring_second_joint_z,ring_tip_x,ring_tip_y,ring_tip_z,pinky_base_x,pinky_base_y,pinky_base_z,pinky_first_joint_x,pinky_first_joint_y,pinky_first_joint_z,pinky_second_joint_x,pinky_second_joint_y,pinky_second_joint_z,pinky_tip_x,pinky_tip_y,pinky_tip_z,
0.66200238,-0.51468122,0.706157,0.63383453,-0.45683935,0.679155,0.63142921,-0.49835172,0.69601,0.58150406,-0.47964553,0.676019,0.54047721,-0.46114935,0.660314,0.51903101,-0.4445193,0.653751,0.58181039,-0.39803305,0.647147,0.57159011,-0.35950176,0.639591,0.5668238,-0.33940662,0.635813,0.56252001,-0.32102529,0.632423,0.60776821,-0.40035695,0.65076,0.58924312,-0.38726124,0.617908,0.61022671,-0.42389529,0.63487,0.62610813,-0.44968362,0.652077,0.63165422,-0.40566,0.655889,0.62044838,-0.38710783,0.62423,0.60616391,-0.39679611,0.608032,0.60565404,-0.41403277,0.611117,0.66593478,-0.42379432,0.666009,0.64000107,-0.40913678,0.63805,0.6283896,-0.40300493,0.625204,0.63637666,-0.41666473,0.626774
0.6560773,-0.51315857,0.703526,0.63065084,-0.45737488,0.67783,0.62358621,-0.49422004,0.690987,0.57301891,-0.47465716,0.668277,0.532811,-0.45480428,0.654005,0.51658526,-0.44062704,0.651718,0.57643924,-0.39388402,0.643799,0.56940729,-0.3572075,0.638037,0.56554738,-0.33781543,0.635156,0.56202724,-0.3199876,0.632537,0.6069551,-0.39695044,0.650807,0.58735385,-0.37756411,0.618806,0.60834696,-0.41342901,0.635499,0.62392263,-0.44015882,0.652314,0.63246779,-0.40447206,0.658627,0.61958667,-0.38876533,0.626595,0.60574524,-0.39655873,0.610206,0.60258288,-0.41557422,0.612964,0.6676042,-0.4213217,0.671744,0.64503252,-0.40903555,0.643803,0.63383313,-0.40538619,0.630966,0.64279497,-0.4164252,0.632384
0.65321725,-0.51203551,0.701414,0.62905713,-0.4564981,0.676881,0.62157545,-0.49348738,0.689664,0.57047869,-0.47332886,0.667651,0.52910106,-0.45353975,0.652122,0.51135524,-0.43805665,0.648773,0.57558354,-0.39185196,0.644665,0.56446796,-0.35399852,0.635794,0.5588769,-0.33472969,0.631359,0.55549249,-0.31823809,0.628353,0.60584466,-0.39702283,0.651082,0.58951187,-0.38347388,0.620103,0.61058026,-0.42299649,0.637614,0.6253004,-0.4454493,0.654317,0.63183722,-0.40432296,0.658322,0.61578008,-0.39461555,0.627409,0.60054967,-0.40438079,0.611594,0.59727098,-0.42179704,0.615196,0.66733979,-0.42263638,0.670577,0.6436511,-0.40657714,0.643503,0.63156643,-0.39854839,0.631063,0.64262776,-0.41393588,0.633101
0.65440584,-0.51399888,0.702655,0.6293084,-0.45786729,0.677624,0.62307976,-0.49594293,0.691372,0.57107098,-0.48221065,0.67041,0.52942853,-0.46566654,0.655483,0.50686616,-0.45039345,0.649428,0.57030873,-0.39889657,0.645626,0.55868713,-0.36129073,0.637378,0.55283064,-0.342145,0.633254,0.55034297,-0.32227049,0.629505,0.59927733,-0.40071224,0.6513,0.58236106,-0.38970757,0.61994,0.60097796,-0.42671747,0.637443,0.61458472,-0.45124529,0.654281,0.6281701,-0.405449,0.657969,0.60752101,-0.40241832,0.626929,0.59179044,-0.41274141,0.611048,0.58917074,-0.42870781,0.614622,0.66403483,-0.42186334,0.669622,0.63890569,-0.40615582,0.642394,0.62791534,-0.3990264,0.629884,0.63847006,-0.41390102,0.631886
0.65052591,-0.51610206,0.702737,0.620254,-0.46931906,0.677345,0.61792619,-0.49902384,0.689268,0.56435339,-0.47902163,0.663612,0.52218414,-0.45803536,0.64492,0.50564977,-0.43989001,0.643701,0.56643493,-0.4060794,0.642381,0.55571143,-0.36680779,0.636065,0.55142138,-0.34445831,0.632906,0.54666419,-0.32679815,0.630035,0.59729006,-0.41043722,0.650643,0.58287616,-0.39174355,0.618865,0.59881339,-0.42792337,0.63517,0.61060408,-0.45131293,0.651783,0.62469425,-0.41844227,0.65947,0.61124789,-0.41119238,0.627268,0.59140243,-0.42114356,0.610792,0.58647697,-0.43076644,0.61323,0.66095571,-0.43634749,0.673738,0.63905007,-0.44079043,0.645752,0.62582789,-0.44421521,0.632894,0.62659198,-0.45559194,0.634101
0.64700203,-0.51519849,0.700437,0.61781428,-0.46604293,0.67547,0.61386533,-0.49770114,0.686515,0.56074097,-0.47714845,0.660076,0.51871429,-0.45536741,0.640815,0.50083349,-0.43679045,0.637744,0.56452806,-0.40283484,0.64025,0.54937136,-0.36296032,0.630406,0.53962084,-0.34283882,0.625484,0.53329816,-0.32638286,0.621355,0.59592286,-0.4077256,0.649214,0.58264424,-0.39213882,0.61779,0.59765698,-0.42806236,0.633965,0.60867718,-0.45101852,0.650408,0.6237084,-0.41613245,0.658584,0.61039477,-0.41070371,0.626498,0.59061275,-0.42066956,0.610082,0.58519609,-0.43123542,0.612454,0.660277,-0.4344502,0.673433,0.63889141,-0.4393732,0.645598,0.62586782,-0.44319587,0.632808,0.6266741,-0.45470037,0.633983
0.64645497,-0.51600992,0.701004,0.61691135,-0.46459292,0.674782,0.61403599,-0.49745173,0.687155,0.55861744,-0.47888225,0.662013,0.51431672,-0.45674431,0.645672,0.49957761,-0.44270529,0.641523,0.56289093,-0.40118787,0.638748,0.54378222,-0.35989444,0.627125,0.53468326,-0.34038741,0.621314,0.52759502,-0.32445911,0.616031,0.59395513,-0.40580333,0.647205,0.58021046,-0.39286761,0.614725,0.59342086,-0.42819873,0.630475,0.60475452,-0.4493952,0.647168,0.62154322,-0.41401856,0.656259,0.60394744,-0.41432376,0.623351,0.58259976,-0.42293988,0.606515,0.57893017,-0.43108058,0.608396,0.65802712,-0.4321699,0.67092,0.63539679,-0.43716098,0.64238,0.62217849,-0.44067681,0.629268,0.62270687,-0.45177902,0.630064
0.64029773,-0.51200169,0.695092,0.60774543,-0.45706429,0.666327,0.60816864,-0.4966393,0.68376,0.55141589,-0.47838258,0.665131,0.50977943,-0.46163758,0.65095,0.48813763,-0.44673551,0.645419,0.54812585,-0.39560335,0.631583,0.53378018,-0.35494273,0.623272,0.52677783,-0.33462813,0.619342,0.52047103,-0.31613024,0.615857,0.57649139,-0.3966682,0.636078,0.55585563,-0.38901648,0.601675,0.56946364,-0.42309983,0.617412,0.58221572,-0.44419728,0.634797,0.60229535,-0.4020288,0.642076,0.57998862,-0.40659948,0.608588,0.5593259,-0.41426786,0.591455,0.5545295,-0.42252171,0.593232,0.63755232,-0.41689912,0.653488,0.61076787,-0.42252073,0.624216,0.59816963,-0.42536281,0.610767,0.59926615,-0.43592331,0.611406
0.63104944,-0.51157322,0.690742,0.5938688,-0.45514105,0.663688,0.59880955,-0.49703945,0.6804,0.54041423,-0.47581524,0.662483,0.49969365,-0.45959207,0.648627,0.47660554,-0.44378945,0.641063,0.53716487,-0.39545933,0.631401,0.52229982,-0.35470637,0.622747,0.51515439,-0.33443134,0.61879,0.50872572,-0.31597353,0.615294,0.56496319,-0.39579819,0.635237,0.54463066,-0.38963462,0.602317,0.55970413,-0.42458691,0.619206,0.57277315,-0.44556372,0.636416,0.59025757,-0.40051523,0.640555,0.56829237,-0.40677699,0.608633,0.54910317,-0.41509699,0.5923,0.5461241,-0.42423903,0.595261,0.62484175,-0.41453565,0.650906,0.59865245,-0.42014107,0.622855,0.58697506,-0.42279886,0.609967,0.58901617,-0.43295864,0.611477
0.61706832,-0.50626115,0.682575,0.57528929,-0.44777027,0.654071,0.58111302,-0.49122824,0.674186,0.5277874,-0.4720521,0.658446,0.4879335,-0.45755188,0.64634,0.46433836,-0.44271192,0.638613,0.51727753,-0.38969573,0.623157,0.49507032,-0.35059279,0.608244,0.48391086,-0.33087102,0.600788,0.47378714,-0.31287404,0.59408,0.54272071,-0.38891856,0.624095,0.51282229,-0.38394586,0.590334,0.52831447,-0.41864388,0.606697,0.54431123,-0.44119348,0.624045,0.56645723,-0.39268971,0.627143,0.53938879,-0.40184636,0.595329,0.52593133,-0.40882229,0.579052,0.53131981,-0.41546231,0.581728,0.59985448,-0.40557186,0.635017,0.56902427,-0.41308097,0.606917,0.56211438,-0.41563864,0.594006,0.56804359,-0.42419152,0.595263
0.58171514,-0.49615184,0.663893,0.54760864,-0.44289305,0.64092,0.54476633,-0.48514759,0.656695,0.49903528,-0.46527333,0.644287,0.46300795,-0.45352589,0.636742,0.44138321,-0.44044493,0.631629,0.49548043,-0.38444096,0.615467,0.47429351,-0.34671764,0.602767,0.46361343,-0.32762053,0.596417,0.45388914,-0.3101408,0.590694,0.52096059,-0.38400828,0.616763,0.49452102,-0.38130361,0.587662,0.51206959,-0.41879541,0.606884,0.52734416,-0.44164383,0.623443,0.54430031,-0.38804767,0.619664,0.52015131,-0.39300066,0.592036,0.50908298,-0.40213367,0.5779,0.51516803,-0.41706592,0.583565,0.57645843,-0.40125434,0.626537,0.54769178,-0.40528443,0.601843,0.54213766,-0.41024929,0.590497,0.54970676,-0.4224579,0.593994
0.54864567,-0.49773145,0.660984,0.52464663,-0.4407234,0.639326,0.52067288,-0.48203664,0.653944,0.4761255,-0.46263666,0.642088,0.44156771,-0.45212411,0.636237,0.42021828,-0.43922334,0.631365,0.47423435,-0.38312423,0.615012,0.452971,-0.34550982,0.602481,0.44224564,-0.3264612,0.596216,0.43247802,-0.30902452,0.590576,0.49971297,-0.38283328,0.616549,0.47375444,-0.38082744,0.588569,0.49121519,-0.41870881,0.608341,0.50616193,-0.44141288,0.624668,0.52293126,-0.38692099,0.619544,0.4992463,-0.39248798,0.592876,0.48927714,-0.4031489,0.579232,0.49613251,-0.42144406,0.58551,0.55469475,-0.40005678,0.626333,0.52644291,-0.40460627,0.602436,0.52186075,-0.4098699,0.591457,0.52997459,-0.42243041,0.595419
0.52261574,-0.50699789,0.668746,0.51254647,-0.450868,0.652058,0.50118168,-0.48896285,0.66531,0.46009641,-0.47202329,0.65764,0.42637191,-0.45734227,0.651095,0.4117148,-0.44505133,0.651541,0.47969255,-0.39194249,0.635789,0.45537636,-0.39170102,0.616419,0.44308786,-0.39191153,0.606848,0.4318724,-0.39236049,0.598281,0.50178439,-0.39437745,0.634509,0.47126225,-0.39311428,0.611452,0.4840956,-0.43150378,0.633006,0.49907939,-0.45772374,0.648112,0.52119629,-0.40066876,0.634789,0.49403957,-0.40087615,0.61353,0.48545034,-0.4148357,0.602654,0.49721144,-0.43788725,0.611562,0.54649496,-0.41638545,0.637613,0.51375683,-0.41513093,0.618042,0.51031778,-0.4243515,0.60905,0.52247994,-0.42991983,0.614966
0.49896243,-0.5066377,0.668772,0.49041841,-0.45083,0.652383,0.47848184,-0.48877141,0.665899,0.43872138,-0.46778869,0.657418,0.40672088,-0.45256745,0.652587,0.39106038,-0.43824221,0.651434,0.45974595,-0.39217695,0.637025,0.4351673,-0.39241713,0.618234,0.42290295,-0.39306264,0.609236,0.41169415,-0.3939382,0.601218,0.48122482,-0.39459842,0.635148,0.45054811,-0.39377495,0.612475,0.46190226,-0.43223676,0.634069,0.47622481,-0.45837222,0.649049,0.49996819,-0.40085815,0.634913,0.47282979,-0.40130251,0.614192,0.46446867,-0.41546926,0.603591,0.47615101,-0.43868651,0.612673,0.52418418,-0.41648235,0.637081,0.4917239,-0.41507588,0.61793,0.48833241,-0.42490666,0.609131,0.50064148,-0.43229933,0.615173
0.48651628,-0.49969077,0.66156,0.47674186,-0.44797705,0.653574,0.46999357,-0.48683409,0.664417,0.4271137,-0.46638335,0.66009,0.39774944,-0.45022217,0.656604,0.3814305,-0.43435889,0.653839,0.4549148,-0.39977185,0.651364,0.43576427,-0.3939284,0.636096,0.42622866,-0.39137076,0.628883,0.41750753,-0.38922043,0.622495,0.47376767,-0.39778756,0.645176,0.45126434,-0.3925645,0.62928,0.46409151,-0.42826676,0.651973,0.47545825,-0.4562707,0.664846,0.48956747,-0.39988118,0.640722,0.46811295,-0.39391041,0.623692,0.46272427,-0.40919421,0.614979,0.47338108,-0.43662037,0.625636,0.5090547,-0.40944586,0.636629,0.47850345,-0.40255356,0.625199,0.46408567,-0.39939541,0.619948,0.45901107,-0.40787302,0.628502
0.4885688,-0.5121572,0.687104,0.47151278,-0.4515658,0.668006,0.46212422,-0.49025552,0.686822,0.42578988,-0.47436068,0.683292,0.39469346,-0.4599768,0.678774,0.37792413,-0.44544742,0.676274,0.4445496,-0.39321097,0.653908,0.41320778,-0.38875673,0.630502,0.39746685,-0.38685728,0.619076,0.38307087,-0.38531667,0.608818,0.46274316,-0.39501768,0.647923,0.42763615,-0.38771762,0.622138,0.43367206,-0.42367647,0.641786,0.44506973,-0.45192395,0.657281,0.47851217,-0.40076968,0.644523,0.44388346,-0.39272422,0.617803,0.43443989,-0.40536348,0.604132,0.44103712,-0.4289965,0.610221,0.49880281,-0.41570117,0.64334,0.46003688,-0.41415005,0.623941,0.44319207,-0.42056581,0.615028,0.44308341,-0.43323449,0.620123
0.47848274,-0.51226299,0.695566,0.463063,-0.45537571,0.676582,0.46215834,-0.49635255,0.696781,0.42176244,-0.48109242,0.695651,0.39317467,-0.46849605,0.69373,0.3775129,-0.45453148,0.692026,0.43785641,-0.39821275,0.664421,0.40356289,-0.39279946,0.641337,0.38622947,-0.39031673,0.629954,0.3703499,-0.38821162,0.619716,0.45397662,-0.39864769,0.656619,0.41554869,-0.3902707,0.631192,0.41922641,-0.42517878,0.650148,0.43058694,-0.45330211,0.665296,0.46805903,-0.40328041,0.651716,0.42965436,-0.39367738,0.624544,0.4199876,-0.40605869,0.610642,0.42601378,-0.42926763,0.616115,0.48638895,-0.4169045,0.648731,0.44614534,-0.41507875,0.630225,0.43023028,-0.42188861,0.621722,0.43095127,-0.43478991,0.62671
0.46909955,-0.51027373,0.699376,0.45683813,-0.44805596,0.675622,0.44970534,-0.48900832,0.694147,0.42774084,-0.44733614,0.684264,0.41289847,-0.41620653,0.676155,0.40798073,-0.39309604,0.668082,0.42897892,-0.38271406,0.652043,0.39409971,-0.38295732,0.627469,0.38581179,-0.39085235,0.630801,0.37766515,-0.39837522,0.63383,0.4487153,-0.38901142,0.650641,0.40706908,-0.38507764,0.621314,0.40194778,-0.40721145,0.640101,0.40444984,-0.43612534,0.656606,0.46692487,-0.40093434,0.651386,0.4283113,-0.39367832,0.624123,0.41873294,-0.40608444,0.610175,0.42380699,-0.42923932,0.61567,0.49007202,-0.42031411,0.655816,0.44522106,-0.41420784,0.631511,0.42981562,-0.41918704,0.620344,0.43022198,-0.43081399,0.623739
0.45896495,-0.50202704,0.701372,0.44899471,-0.44036885,0.681836,0.43950643,-0.47910162,0.694356,0.41853591,-0.43759557,0.687829,0.4054369,-0.40653698,0.681423,0.40196515,-0.3838436,0.675007,0.42286109,-0.37671351,0.659081,0.38835895,-0.37279803,0.635594,0.38736569,-0.3874692,0.651613,0.38546542,-0.40129576,0.666177,0.44467247,-0.38414338,0.661291,0.40349875,-0.37941411,0.635108,0.40101958,-0.39859824,0.655657,0.40257666,-0.42654006,0.671578,0.46355729,-0.394672,0.664671,0.42651641,-0.38733401,0.639458,0.41776735,-0.40095986,0.626559,0.42267371,-0.42535383,0.633723,0.48747245,-0.41570146,0.671599,0.44380323,-0.40772545,0.648933,0.43135395,-0.41446347,0.638519,0.43321744,-0.4279322,0.643162
0.45720656,-0.50177005,0.704116,0.44979054,-0.4424558,0.685456,0.43328498,-0.47509385,0.696888,0.40927551,-0.44375776,0.683002,0.38854678,-0.41276093,0.673194,0.38061261,-0.38910876,0.667117,0.42461015,-0.37911049,0.66307,0.39013911,-0.37412256,0.639951,0.38911671,-0.38824438,0.656153,0.38717856,-0.40151347,0.670883,0.44661953,-0.38677755,0.665834,0.40565785,-0.38109527,0.64037,0.4030844,-0.39956186,0.661173,0.40428773,-0.42722501,0.676914,0.46560925,-0.39746986,0.669599,0.42859907,-0.38908286,0.644883,0.42029581,-0.40292132,0.632237,0.4258846,-0.4274285,0.639693,0.4895156,-0.41864624,0.676853,0.4459535,-0.40991054,0.654628,0.43355818,-0.41699922,0.644417,0.43546488,-0.43091231,0.649288
0.45075661,-0.49572182,0.7031,0.45004284,-0.442421,0.686877,0.43471361,-0.47520957,0.699143,0.41218825,-0.44632403,0.689389,0.39127327,-0.41613149,0.683058,0.38454087,-0.39342318,0.676523,0.42954885,-0.38205024,0.670297,0.39310743,-0.3652214,0.650821,0.38766293,-0.38242873,0.667822,0.38334223,-0.40458215,0.683276,0.44881911,-0.3884151,0.669817,0.40240231,-0.38215901,0.647044,0.39618018,-0.40055803,0.66879,0.39596824,-0.42723623,0.683853,0.46514392,-0.3975985,0.670719,0.42116443,-0.38943075,0.649478,0.41405973,-0.40434425,0.63861,0.42104349,-0.42968858,0.647639,0.48347505,-0.41633608,0.674211,0.43537572,-0.40768955,0.654692,0.42515897,-0.41534255,0.645723,0.43219998,-0.43068887,0.65174
0.45421455,-0.49827034,0.702928,0.4508851,-0.44329786,0.687874,0.43976769,-0.47933377,0.701504,0.41098612,-0.45962456,0.688366,0.39632661,-0.43669496,0.692746,0.39691041,-0.42091573,0.699314,0.43337874,-0.38545622,0.675274,0.39762546,-0.37022919,0.658324,0.39213005,-0.38714305,0.675434,0.38679948,-0.40823846,0.688958,0.4495305,-0.38996384,0.672044,0.40463752,-0.38491964,0.650868,0.3981908,-0.40332186,0.672681,0.39818378,-0.42996506,0.687188,0.46438301,-0.39791081,0.670589,0.42160329,-0.39132726,0.651667,0.41568118,-0.40700985,0.641986,0.42337095,-0.43288883,0.651699,0.48033782,-0.41511213,0.671109,0.43435538,-0.40767522,0.653395,0.42489005,-0.41563198,0.645257,0.4312053,-0.43074966,0.651765
0.45329572,-0.49564421,0.700305,0.45181651,-0.44270222,0.687669,0.44040444,-0.47820547,0.700655,0.4142737,-0.45899441,0.690139,0.40127291,-0.43803151,0.697262,0.4028389,-0.42342269,0.705263,0.43835242,-0.38724788,0.679006,0.40299213,-0.37267869,0.664795,0.39738657,-0.38871743,0.682229,0.39098897,-0.4096982,0.6948,0.45197325,-0.39073933,0.674381,0.40853062,-0.38461561,0.655747,0.40181705,-0.39844335,0.677946,0.40117147,-0.42993425,0.691654,0.46442031,-0.39741582,0.671584,0.42370557,-0.38596257,0.655444,0.42146879,-0.40233799,0.647186,0.43357877,-0.42804635,0.657895,0.47897019,-0.41107866,0.670152,0.43530311,-0.40501614,0.6547,0.42742314,-0.41416108,0.6476,0.43366691,-0.43150597,0.654859
0.45514429,-0.49668206,0.702305,0.45322234,-0.4433452,0.68885,0.44279549,-0.47965415,0.703106,0.41663803,-0.46088717,0.693116,0.40323177,-0.43959402,0.699655,0.40474978,-0.42497461,0.70751,0.43977444,-0.38818218,0.680155,0.40367647,-0.37310825,0.66583,0.39820036,-0.3859307,0.682948,0.39130539,-0.40376761,0.695439,0.4525242,-0.39078621,0.6747,0.40792711,-0.38512254,0.655502,0.40070955,-0.40121891,0.677269,0.40055939,-0.42868984,0.691046,0.46489466,-0.39714318,0.671286,0.4224536,-0.38642204,0.65488,0.41988434,-0.40488105,0.646486,0.43050385,-0.43066559,0.656849,0.47815064,-0.41009673,0.669243,0.4340485,-0.40507287,0.653542,0.42583062,-0.4140396,0.646328,0.43068338,-0.42959351,0.653318
0.45599635,-0.4972707,0.703341,0.45385128,-0.44393498,0.689677,0.44386191,-0.48037119,0.704168,0.41696338,-0.46195156,0.694196,0.40121133,-0.44072775,0.699251,0.40313625,-0.42533589,0.707084,0.44003564,-0.38898006,0.680866,0.40319606,-0.37375541,0.666445,0.39698303,-0.38664964,0.683498,0.3897297,-0.40397546,0.696001,0.45261774,-0.39119071,0.675308,0.40741765,-0.38529758,0.655943,0.3977739,-0.40107167,0.677623,0.39987314,-0.42876667,0.691433,0.46408817,-0.39702889,0.671826,0.41995429,-0.38799758,0.655297,0.41916083,-0.40499803,0.64684,0.42944759,-0.43189957,0.657115,0.4775741,-0.41029169,0.669734,0.43246095,-0.40317919,0.653927,0.42449845,-0.41488746,0.646665,0.42878322,-0.43057345,0.653587
0.45680987,-0.49643633,0.699592,0.45863848,-0.44212979,0.687956,0.44812901,-0.48221553,0.702327,0.42897491,-0.46167044,0.695199,0.41460991,-0.44136412,0.702458,0.40956189,-0.42565707,0.709155,0.45110405,-0.3917307,0.682966,0.41618767,-0.37210624,0.671229,0.40989499,-0.3814443,0.687978,0.40133071,-0.3946526,0.700101,0.46196295,-0.391687,0.675719,0.41712828,-0.37984334,0.658672,0.41169328,-0.40869806,0.680333,0.41309641,-0.43488181,0.693299,0.46958637,-0.39692629,0.670684,0.42801691,-0.39160913,0.656822,0.4297691,-0.40941389,0.649729,0.43760238,-0.4332642,0.660705,0.48245096,-0.4107988,0.666447,0.44138393,-0.4054652,0.652812,0.43102045,-0.41393411,0.646547,0.43404224,-0.43121246,0.653999
0.48194719,-0.49936703,0.707764,0.48758109,-0.44603019,0.692432,0.48193834,-0.48386936,0.709413,0.45359441,-0.46590517,0.700443,0.43699157,-0.44389995,0.704861,0.43586374,-0.42803608,0.711013,0.47050588,-0.39189665,0.683436,0.43371068,-0.3714159,0.668753,0.42568049,-0.37891978,0.681334,0.41988719,-0.39427476,0.696564,0.48176845,-0.39193302,0.676308,0.43480933,-0.3790587,0.65582,0.43005612,-0.40776348,0.676476,0.43283477,-0.4345679,0.690371,0.49184707,-0.39613261,0.671668,0.44864575,-0.38895016,0.654585,0.44651392,-0.40489559,0.645844,0.45900678,-0.42956619,0.655313,0.50520479,-0.40915771,0.66845,0.45963474,-0.40383756,0.652142,0.4509878,-0.41305206,0.644649,0.45496203,-0.42884756,0.650953
0.49730251,-0.50090199,0.708654,0.49163144,-0.44928648,0.694572,0.49227861,-0.48911781,0.716615,0.47638311,-0.47371474,0.717348,0.45743841,-0.4522691,0.718583,0.45284466,-0.43401239,0.721421,0.48506626,-0.40115358,0.694294,0.45181519,-0.3795679,0.686025,0.43140316,-0.37507889,0.68189,0.41755841,-0.38717481,0.690093,0.48681646,-0.39886812,0.679762,0.43888541,-0.38122056,0.663021,0.43166129,-0.40765156,0.679321,0.43369305,-0.43370077,0.690493,0.48895123,-0.40101155,0.668929,0.44252208,-0.40607169,0.657627,0.43443919,-0.42076455,0.651844,0.45251116,-0.43366823,0.660001,0.49274413,-0.41119856,0.658175,0.44807132,-0.40774483,0.646625,0.44744458,-0.4222106,0.657042,0.44949648,-0.43448379,0.665147
0.50466715,-0.5037273,0.71222,0.50642277,-0.4526461,0.696864,0.5050651,-0.49155149,0.719692,0.48887694,-0.47523313,0.719638,0.46923296,-0.45293371,0.719637,0.46484016,-0.43476984,0.722681,0.49609316,-0.40160789,0.695065,0.46223184,-0.37944506,0.685693,0.441586,-0.37461399,0.681006,0.42926197,-0.38304869,0.688734,0.49806208,-0.39944836,0.680716,0.45031031,-0.37774717,0.662757,0.43750317,-0.39524377,0.67874,0.42903973,-0.41288956,0.690254,0.50046633,-0.40176441,0.670135,0.45323477,-0.4060714,0.65765,0.44445702,-0.42037918,0.651262,0.46208184,-0.43295281,0.658899,0.50474997,-0.41229885,0.659871,0.45916398,-0.40819697,0.647344,0.45830162,-0.42251652,0.657535,0.46047221,-0.43496404,0.665895
0.52618918,-0.50543413,0.713779,0.52825776,-0.45316249,0.697659,0.53282735,-0.49260462,0.721229,0.51192829,-0.47624483,0.72117,0.4928702,-0.45421264,0.721669,0.48828864,-0.43571256,0.724248,0.51704838,-0.40173443,0.695284,0.48332556,-0.37935873,0.685537,0.4627499,-0.37442531,0.680663,0.4506535,-0.382621,0.687965,0.51899641,-0.39944367,0.680708,0.47101925,-0.37741831,0.66218,0.45873009,-0.39458982,0.677617,0.45088107,-0.41223816,0.689165,0.52145442,-0.40168467,0.670002,0.47404008,-0.40570895,0.657063,0.46465714,-0.41985117,0.650444,0.4817816,-0.43209991,0.657601,0.52593917,-0.41219325,0.659702,0.47981356,-0.40786025,0.64681,0.47868454,-0.4219427,0.656642,0.48078088,-0.43437419,0.664992
0.5413777,-0.50452421,0.712494,0.53830011,-0.45266948,0.6969,0.53700823,-0.49154595,0.719679,0.52147032,-0.47491219,0.719152,0.49905465,-0.45370366,0.714499,0.49309481,-0.43620227,0.716276,0.52690848,-0.40132361,0.694573,0.49339111,-0.37894868,0.684796,0.47291723,-0.37400945,0.679907,0.46136551,-0.3824358,0.687632,0.52930474,-0.39932161,0.6805,0.48158865,-0.37743312,0.662206,0.47022054,-0.39502248,0.67836,0.46273229,-0.41276634,0.690048,0.53212839,-0.40178299,0.670166,0.48480798,-0.40584541,0.657284,0.47521816,-0.4200119,0.650693,0.49263663,-0.43258287,0.658336,0.53702789,-0.41252316,0.66023,0.49102036,-0.40753309,0.64737,0.48937591,-0.42188263,0.657661,0.49072469,-0.43448272,0.666178
0.5451982,-0.50990231,0.715136,0.53885114,-0.46339535,0.697548,0.5404219,-0.49649457,0.721856,0.52254513,-0.48656593,0.720633,0.50061381,-0.46596772,0.716772,0.49432221,-0.44822474,0.718117,0.52590885,-0.41051615,0.693209,0.4913993,-0.38754795,0.682037,0.47048396,-0.38231018,0.676452,0.45836424,-0.39042735,0.683244,0.52823288,-0.40853505,0.679051,0.47929364,-0.38573275,0.659046,0.46779346,-0.4051219,0.67425,0.46194402,-0.4252682,0.686259,0.53112093,-0.41112226,0.668806,0.48267325,-0.41425574,0.654371,0.47251703,-0.42762691,0.646986,0.48911319,-0.4394076,0.653595,0.53634393,-0.42223037,0.659274,0.48936978,-0.41631302,0.645147,0.48726686,-0.43023223,0.654799,0.48877509,-0.44291645,0.663514
0.54772617,-0.50955415,0.7097,0.53880714,-0.46005308,0.692489,0.54376697,-0.49695905,0.717493,0.52964168,-0.48436328,0.718102,0.50905177,-0.46431567,0.716442,0.4984549,-0.44710253,0.717797,0.52988102,-0.40828437,0.689753,0.49591894,-0.38034323,0.67707,0.47350043,-0.37849934,0.670728,0.45736464,-0.38712176,0.67634,0.53079473,-0.40556458,0.67439,0.47811829,-0.39849203,0.655299,0.4648174,-0.4098068,0.669368,0.46293707,-0.43312495,0.68069,0.52958699,-0.40756785,0.663124,0.48698437,-0.39789235,0.649917,0.46326016,-0.39295716,0.64316,0.45379322,-0.41145403,0.649345,0.53365862,-0.41776724,0.652322,0.48750697,-0.41324602,0.639241,0.49185954,-0.42761557,0.648192,0.49355436,-0.4396941,0.656267
0.57588781,-0.51354613,0.707684,0.55298146,-0.46258741,0.684378,0.5720307,-0.49844245,0.714915,0.54267128,-0.4971698,0.715659,0.5134498,-0.49787159,0.710155,0.49524098,-0.48898342,0.705175,0.53194922,-0.4081937,0.676558,0.48980306,-0.38103461,0.655579,0.46397967,-0.37526656,0.645089,0.44645027,-0.38034126,0.644579,0.52895403,-0.40952123,0.65987,0.47042828,-0.39941215,0.636709,0.45164775,-0.4088325,0.644572,0.45030145,-0.43105769,0.655418,0.52838394,-0.41471401,0.648001,0.47751788,-0.42305348,0.631487,0.45207521,-0.42702606,0.623038,0.44884241,-0.44102735,0.624239,0.53124039,-0.42859509,0.637393,0.48321742,-0.42510176,0.621811,0.48468072,-0.43186059,0.626712,0.48838633,-0.43986239,0.634096
0.55448529,-0.51754524,0.717339,0.54742966,-0.47275034,0.69092,0.55244389,-0.50491068,0.722838,0.52337933,-0.4942503,0.722421,0.49335837,-0.48209286,0.720922,0.47259261,-0.46563102,0.714511,0.54214271,-0.4134652,0.678711,0.49072206,-0.41088453,0.660876,0.46531685,-0.40952657,0.651959,0.44790455,-0.41332812,0.651859,0.53705171,-0.41850188,0.663137,0.47407173,-0.40609994,0.636971,0.45390949,-0.41293452,0.643796,0.45106529,-0.43197624,0.655404,0.53371719,-0.42687153,0.652432,0.47644276,-0.41764723,0.632801,0.44771169,-0.41287819,0.622758,0.43625785,-0.42324528,0.622443,0.53132189,-0.44477711,0.643672,0.48018595,-0.43003038,0.625567,0.48338025,-0.44174373,0.629735,0.48950813,-0.45498939,0.637724
0.57340681,-0.5457699,0.721577,0.56674361,-0.49154714,0.693632,0.56698303,-0.52419372,0.72287,0.53315998,-0.50790097,0.722136,0.49973323,-0.49786074,0.718094,0.47894982,-0.48085062,0.711583,0.55363981,-0.42791944,0.675116,0.50298049,-0.42383055,0.648967,0.47779553,-0.42172374,0.635892,0.46423699,-0.42830163,0.636688,0.5591914,-0.43568698,0.664245,0.50197006,-0.42077924,0.634224,0.49124843,-0.43181333,0.646282,0.48867141,-0.45491107,0.660926,0.56450328,-0.44645104,0.657532,0.512853,-0.43417271,0.632832,0.48459225,-0.43040434,0.620196,0.46851445,-0.4372843,0.621999,0.57213614,-0.46751222,0.653737,0.51849214,-0.45178355,0.631262,0.51574376,-0.46075533,0.638679,0.51940202,-0.47174651,0.649465
0.58016449,-0.54868151,0.719849,0.5776302,-0.49885382,0.687152,0.57119712,-0.52455197,0.717902,0.54281359,-0.5091739,0.713766,0.50688571,-0.49694672,0.706407,0.48476861,-0.47908395,0.698237,0.55843331,-0.43173123,0.661202,0.50438787,-0.4280379,0.631607,0.47770998,-0.42600512,0.616809,0.46278566,-0.43256354,0.61548,0.56582534,-0.4429752,0.652767,0.50416891,-0.42850039,0.618191,0.49228816,-0.4411003,0.628174,0.49089042,-0.46448292,0.643814,0.5729998,-0.45666099,0.648438,0.51659638,-0.44455143,0.618791,0.48610357,-0.44022108,0.603623,0.46817525,-0.44643927,0.602725,0.58346452,-0.48127542,0.648183,0.52574939,-0.46351662,0.621771,0.52182206,-0.46922374,0.627744,0.52629789,-0.47885991,0.639355
0.5978265,-0.55158406,0.718106,0.59838513,-0.49818374,0.686229,0.60024072,-0.52783939,0.716937,0.56392861,-0.50895205,0.713455,0.52859401,-0.49747855,0.707163,0.50627509,-0.47963972,0.699047,0.58003063,-0.43214129,0.66183,0.52566083,-0.42847772,0.632256,0.49903672,-0.4280681,0.617469,0.48491801,-0.43710016,0.616244,0.58697319,-0.44293313,0.652705,0.52575605,-0.42906254,0.619002,0.5148779,-0.44181865,0.629197,0.51366682,-0.46504132,0.644588,0.59372909,-0.45617224,0.647744,0.53809737,-0.44478277,0.619113,0.50784928,-0.44083515,0.604465,0.49046984,-0.44737107,0.603983,0.60361627,-0.48011118,0.646615,0.54609873,-0.46295229,0.621014,0.54206873,-0.4687775,0.627147,0.54631943,-0.47824575,0.638535
0.60198174,-0.55363384,0.719311,0.60293269,-0.50043997,0.688987,0.58854179,-0.52631977,0.713,0.55379279,-0.51872569,0.709534,0.5157481,-0.50549933,0.700207,0.49534522,-0.4897093,0.695174,0.58337076,-0.43064013,0.659338,0.53823296,-0.42676868,0.630687,0.51566878,-0.42482873,0.616361,0.50748001,-0.43358962,0.61835,0.60051713,-0.4442223,0.657097,0.55590544,-0.42926702,0.622444,0.55946395,-0.44412451,0.635932,0.56345127,-0.47235667,0.653275,0.61526431,-0.45985242,0.657677,0.56589173,-0.45388184,0.626017,0.53892223,-0.45209907,0.609819,0.52759999,-0.46377214,0.611613,0.63384843,-0.48686717,0.662891,0.58948202,-0.47219039,0.634823,0.58134214,-0.48416641,0.643896,0.58519419,-0.4966713,0.657293
0.61375214,-0.55261816,0.716529,0.62530898,-0.49964744,0.687548,0.60360795,-0.52497092,0.710237,0.57525196,-0.51860945,0.709375,0.53514393,-0.50375371,0.697789,0.51605045,-0.48940357,0.69474,0.60382183,-0.43034883,0.658892,0.56253833,-0.42363081,0.630888,0.54182738,-0.42032312,0.616886,0.5363407,-0.4280313,0.619621,0.62151857,-0.4442054,0.657072,0.57794216,-0.42993874,0.623418,0.58468869,-0.4462881,0.63903,0.58925725,-0.47449548,0.656233,0.63667527,-0.46000136,0.65789,0.58802021,-0.45460832,0.627019,0.56132636,-0.45314069,0.611224,0.55118348,-0.46547599,0.61386,0.65563956,-0.48708531,0.663188,0.61184943,-0.47288363,0.635755,0.60453598,-0.48534243,0.64546,0.60842407,-0.49786898,0.658878
0.62202141,-0.54884411,0.70646,0.61477211,-0.49686036,0.671538,0.60583085,-0.52177494,0.699163,0.56269494,-0.51297884,0.688088,0.52095157,-0.50450153,0.674204,0.4930152,-0.48862913,0.661559,0.58651391,-0.42618801,0.637359,0.53820174,-0.42134701,0.606004,0.51413851,-0.41885024,0.590327,0.50360892,-0.42608193,0.589283,0.60313593,-0.44030958,0.634814,0.55010795,-0.42892246,0.596729,0.54874685,-0.44614532,0.607115,0.55119601,-0.47334219,0.624334,0.6179716,-0.45640443,0.635511,0.56060795,-0.45240136,0.600799,0.52996573,-0.45095727,0.583039,0.51456837,-0.46129906,0.581482,0.63762773,-0.48396988,0.641551,0.5850026,-0.47098194,0.611109,0.57470518,-0.48072,0.617654,0.57705856,-0.49222173,0.630905
0.62593411,-0.54874727,0.704606,0.62606488,-0.49679402,0.670641,0.60944886,-0.52182312,0.697323,0.5729935,-0.51520401,0.683361,0.52932156,-0.50369916,0.666417,0.50155365,-0.48711492,0.652583,0.5963666,-0.42651642,0.637169,0.5486552,-0.42164494,0.606196,0.52487179,-0.4191487,0.59071,0.51509547,-0.42693922,0.590357,0.61367121,-0.44042386,0.634924,0.56093499,-0.42932429,0.597462,0.56149632,-0.44767653,0.609518,0.56453744,-0.4752175,0.626853,0.62915829,-0.45635414,0.63579,0.57191378,-0.45314997,0.601555,0.54255595,-0.45146541,0.58404,0.52950345,-0.46191778,0.583255,0.64972274,-0.48373136,0.641888,0.59632471,-0.47137399,0.611808,0.58673793,-0.48172382,0.61899,0.58918801,-0.49339603,0.632361
0.636353,-0.55091356,0.695692,0.64157682,-0.50425597,0.669272,0.6373563,-0.53459405,0.696242,0.59631425,-0.53078406,0.685634,0.55947095,-0.51600556,0.674297,0.53769338,-0.49791528,0.663034,0.6314016,-0.44023089,0.650932,0.58260584,-0.43287565,0.629819,0.55821531,-0.42919664,0.619263,0.54839035,-0.44315453,0.622924,0.63843717,-0.44965591,0.641488,0.58338264,-0.43235397,0.612095,0.57931872,-0.44715798,0.626423,0.57726027,-0.4661556,0.641552,0.64471038,-0.46174839,0.635827,0.59357238,-0.45529515,0.611251,0.56700324,-0.45527696,0.598678,0.55653165,-0.46710061,0.60201,0.65294221,-0.48432882,0.633055,0.60314323,-0.46559777,0.610626,0.59610571,-0.47886397,0.619497,0.59923861,-0.49509935,0.630831
0.62806498,-0.54526309,0.685039,0.63732901,-0.50083083,0.66451,0.6300855,-0.53009034,0.688884,0.59411101,-0.52354709,0.685464,0.55778682,-0.51613093,0.673905,0.53507188,-0.50008226,0.663091,0.63949056,-0.44337855,0.654494,0.59987162,-0.43425598,0.639119,0.57977923,-0.42970924,0.631431,0.57675949,-0.44955857,0.637667,0.64167644,-0.45029897,0.642922,0.5900329,-0.43524643,0.619274,0.58613362,-0.44417057,0.635376,0.58423797,-0.45354202,0.648984,0.64524055,-0.46028323,0.63504,0.60998821,-0.42846485,0.616426,0.58658367,-0.43534287,0.606902,0.58880106,-0.45797555,0.612992,0.64912037,-0.47968701,0.628751,0.60280386,-0.46312022,0.61116,0.59800461,-0.47894134,0.621298,0.60053614,-0.49606004,0.631419
0.66547097,-0.53383764,0.658725,0.64138254,-0.47847303,0.634174,0.65025229,-0.5204001,0.662787,0.61230836,-0.5166878,0.662156,0.57174121,-0.50377776,0.652314,0.54428657,-0.49207617,0.642451,0.60575658,-0.42339523,0.621531,0.56942696,-0.38847394,0.602858,0.55126949,-0.37100198,0.593561,0.53341239,-0.36453318,0.585109,0.61602993,-0.42134841,0.608357,0.5671554,-0.42419212,0.577728,0.57717952,-0.45549076,0.589676,0.59047336,-0.4830872,0.604506,0.62643208,-0.42396855,0.599477,0.57617391,-0.42740721,0.566482,0.55796274,-0.433075,0.549601,0.56257405,-0.43594757,0.548838,0.64253815,-0.43520449,0.592604,0.60015917,-0.44068746,0.573535,0.60583009,-0.45897011,0.581146,0.62276627,-0.46646626,0.590981
0.66376842,-0.53233405,0.654467,0.66081561,-0.481476,0.638763,0.65161571,-0.51819288,0.659517,0.62189978,-0.51696089,0.661812,0.58646099,-0.51151239,0.657086,0.56253136,-0.49861285,0.651284,0.64432693,-0.42617182,0.633713,0.61129216,-0.42798888,0.621811,0.59449199,-0.42917265,0.615984,0.57986627,-0.44112988,0.610869,0.65461568,-0.42732029,0.622248,0.6144392,-0.42351858,0.602804,0.63120287,-0.46062497,0.621039,0.64285982,-0.48752628,0.633796,0.66376103,-0.43242328,0.614069,0.626384,-0.43355659,0.599302,0.60456688,-0.44459009,0.591746,0.60939746,-0.46336834,0.600257,0.6758658,-0.4463797,0.606706,0.63321898,-0.44297688,0.592264,0.64004444,-0.46252948,0.603845,0.64592816,-0.48171019,0.613418
0.6687102,-0.53189259,0.653991,0.67944209,-0.48053451,0.639691,0.66133695,-0.51538675,0.657326,0.63570425,-0.51474612,0.660387,0.59970887,-0.50740693,0.655589,0.57458579,-0.49788413,0.647945,0.66577988,-0.4240506,0.633528,0.63338679,-0.42425641,0.620827,0.61682635,-0.42452515,0.614476,0.61530424,-0.44613601,0.62386,0.67876417,-0.42808126,0.624653,0.64099286,-0.42643728,0.605615,0.65907942,-0.46412545,0.625834,0.68058839,-0.47764205,0.640851,0.68980733,-0.43548327,0.618492,0.6533862,-0.4346602,0.603292,0.63183813,-0.4389235,0.595515,0.63055956,-0.46186061,0.605203,0.70348999,-0.45204913,0.613316,0.6607359,-0.44182481,0.598535,0.66385322,-0.45750936,0.611368,0.68014975,-0.46718265,0.621546
0.66657277,-0.51897387,0.632881,0.68336624,-0.47665038,0.625706,0.66351804,-0.50765254,0.642487,0.6463396,-0.51436585,0.652923,0.61482653,-0.51166883,0.653063,0.59511361,-0.50108632,0.652778,0.68588572,-0.43334355,0.632441,0.65605011,-0.42685521,0.629309,0.64057334,-0.42351926,0.627743,0.63985061,-0.44478897,0.63861,0.69044877,-0.42951348,0.618162,0.65287177,-0.41840212,0.607668,0.6616229,-0.45259676,0.62621,0.66800657,-0.47863652,0.635827,0.69396294,-0.42997091,0.606986,0.66296855,-0.42260704,0.601382,0.65002388,-0.43712679,0.598515,0.65483354,-0.46351675,0.609642,0.69764852,-0.43745541,0.594793,0.6578811,-0.42347372,0.58797,0.66281483,-0.44278312,0.599933,0.67876913,-0.45523772,0.606973
0.66412737,-0.51342785,0.624323,0.68867929,-0.47296336,0.620866,0.67123896,-0.50716789,0.635038,0.6528286,-0.51091849,0.648547,0.62254505,-0.50905118,0.649722,0.60398538,-0.49943978,0.650633,0.69534376,-0.43280088,0.631649,0.66910686,-0.42841868,0.631614,0.65533668,-0.42611943,0.631597,0.65593179,-0.44825542,0.643587,0.6998013,-0.4288659,0.61723,0.66644106,-0.42023914,0.610336,0.67625218,-0.4549262,0.629433,0.68164712,-0.48021359,0.637922,0.70290126,-0.42901816,0.605641,0.67608,-0.42403709,0.603417,0.66513972,-0.43987584,0.602279,0.6716087,-0.46732742,0.614654,0.70545629,-0.43569762,0.592403,0.66903789,-0.42379567,0.588417,0.67448294,-0.44342154,0.600798,0.68951909,-0.45525947,0.607002
0.68914088,-0.51934502,0.627868,0.69096109,-0.47158711,0.620934,0.68074834,-0.50744894,0.634722,0.65763379,-0.50972357,0.645011,0.62053722,-0.50320516,0.638415,0.60123451,-0.49480156,0.638971,0.67677517,-0.42327932,0.624431,0.65369216,-0.40036208,0.618863,0.64181507,-0.38852714,0.616078,0.64546548,-0.3863064,0.6278,0.68912584,-0.42018857,0.613642,0.66184427,-0.41157392,0.602083,0.6808909,-0.45207707,0.623125,0.68971254,-0.47886017,0.633911,0.69983962,-0.42143723,0.605317,0.67763065,-0.41708874,0.597635,0.66568868,-0.434807,0.593705,0.6723506,-0.46296368,0.605916,0.71360134,-0.43015904,0.596472,0.67861088,-0.42675968,0.58793,0.68353042,-0.44677451,0.601441,0.69448226,-0.45755906,0.609988
0.69153881,-0.51932519,0.628531,0.69125759,-0.47096637,0.621453,0.67717327,-0.50711353,0.634715,0.65346302,-0.5089837,0.64463,0.61669228,-0.5019979,0.638986,0.59754533,-0.49341859,0.639258,0.67419331,-0.42226133,0.624017,0.65253548,-0.3976037,0.617778,0.64250328,-0.38211033,0.614659,0.64620796,-0.38197581,0.62644,0.6878481,-0.41966936,0.614009,0.66359844,-0.41241859,0.602061,0.6895461,-0.45472084,0.623501,0.70210724,-0.48223579,0.634552,0.69962784,-0.42132667,0.606339,0.6800821,-0.41849898,0.598054,0.6741503,-0.43844923,0.593814,0.68525543,-0.46790834,0.606124,0.71466413,-0.4305188,0.598293,0.68287115,-0.42755221,0.589258,0.69345354,-0.45013543,0.603009,0.70370805,-0.46018437,0.612847
0.71150763,-0.55860354,0.684978,0.70311028,-0.5101788,0.658707,0.69150978,-0.5431359,0.677425,0.66372576,-0.53367473,0.655864,0.61761093,-0.49781914,0.632433,0.60425503,-0.4742556,0.624305,0.67251688,-0.45607465,0.630439,0.65005096,-0.41029919,0.605839,0.64027919,-0.38976114,0.593825,0.63209088,-0.37242598,0.582904,0.6940617,-0.45956813,0.631081,0.67976841,-0.41539992,0.599212,0.70574932,-0.45012592,0.615105,0.72763354,-0.48263873,0.632537,0.71222148,-0.46621824,0.633708,0.69557241,-0.43490341,0.603057,0.68878668,-0.43288434,0.587375,0.69748552,-0.4557058,0.591174,0.73487656,-0.48113596,0.640749,0.72702602,-0.50289015,0.628044,0.74440709,-0.53076635,0.641455,0.75731576,-0.55431882,0.651127
0.70855136,-0.55553576,0.682025,0.69408422,-0.50112012,0.654584,0.68305885,-0.53704832,0.66917,0.64195549,-0.51778162,0.647209,0.60028363,-0.49126618,0.62821,0.58273087,-0.47290154,0.62543,0.65222531,-0.44018218,0.618908,0.63856047,-0.40061718,0.60877,0.63031753,-0.38069186,0.603701,0.62278387,-0.36217993,0.599093,0.6784432,-0.44471807,0.625728,0.67146799,-0.4020917,0.594175,0.70077122,-0.43539096,0.610081,0.71496785,-0.46484196,0.626487,0.7011385,-0.45268837,0.633533,0.69461803,-0.41084527,0.605218,0.68877807,-0.41808448,0.590731,0.68980048,-0.43884456,0.594073,0.73033885,-0.47006535,0.646892,0.7175919,-0.432472,0.620921,0.73882191,-0.45292523,0.631212,0.76185113,-0.47565866,0.644342
0.70334495,-0.5540586,0.680569,0.69048087,-0.49828154,0.653759,0.6786714,-0.53088161,0.666547,0.6377188,-0.51405865,0.643442,0.59650609,-0.48718064,0.627363,0.58357297,-0.47147881,0.627619,0.64461051,-0.43310318,0.61709,0.63298288,-0.39461387,0.609544,0.63015815,-0.37586347,0.605771,0.62261215,-0.36058087,0.602341,0.67199444,-0.43884012,0.625565,0.67055956,-0.40186447,0.595023,0.69855337,-0.43545486,0.610575,0.71203184,-0.46450622,0.626504,0.69571099,-0.44785636,0.634682,0.69583192,-0.41160733,0.607565,0.6899511,-0.41993114,0.593692,0.6906956,-0.44078734,0.597119,0.7262015,-0.46660774,0.649504,0.7192381,-0.43355321,0.623757,0.73936681,-0.45440748,0.633721,0.76194812,-0.47706804,0.646646
0.70412767,-0.55468555,0.681878,0.68777241,-0.4969096,0.655057,0.67773494,-0.53122256,0.666662,0.63527719,-0.5126931,0.641972,0.59467044,-0.48552063,0.628153,0.58480487,-0.47305304,0.630468,0.64286524,-0.4329162,0.616902,0.63209731,-0.39516967,0.610387,0.62740084,-0.37648206,0.607129,0.62413493,-0.36138614,0.604168,0.67182393,-0.43957785,0.626853,0.66897378,-0.40200338,0.596786,0.69516956,-0.43552801,0.611504,0.71054458,-0.46455567,0.627,0.69691091,-0.44936576,0.637184,0.69714694,-0.41371541,0.6097,0.68837245,-0.42287543,0.595639,0.68733096,-0.44291616,0.598377,0.72911409,-0.46908071,0.65345,0.7159204,-0.42911479,0.626985,0.73253505,-0.44619433,0.633243,0.75638158,-0.46725525,0.646246
0.70799081,-0.55618369,0.684553,0.68968129,-0.49849749,0.657185,0.67876912,-0.53271323,0.668353,0.63614152,-0.51293815,0.641937,0.59536765,-0.485819,0.626324,0.58337609,-0.47108456,0.627578,0.64314045,-0.4332438,0.617417,0.63222197,-0.39534596,0.610715,0.62947023,-0.37694837,0.607364,0.625763,-0.36214695,0.604318,0.67321893,-0.44065924,0.628405,0.66984451,-0.40269451,0.597782,0.69430907,-0.43570507,0.611412,0.70862645,-0.4642061,0.626768,0.69931128,-0.45110674,0.639633,0.69781928,-0.41476198,0.610584,0.68819054,-0.42370172,0.595721,0.68752127,-0.44237328,0.597281,0.73282763,-0.47169748,0.657045,0.72134648,-0.43322985,0.629912,0.7251995,-0.44179713,0.626576,0.74540488,-0.46307384,0.635979
0.70806371,-0.5565547,0.685763,0.69173386,-0.49956058,0.659144,0.67758746,-0.5337925,0.667885,0.63424787,-0.51061491,0.639348,0.59589881,-0.48329641,0.624564,0.58389998,-0.47033159,0.627075,0.64380395,-0.43308732,0.617835,0.63331155,-0.39529487,0.611373,0.63041871,-0.37705806,0.608143,0.62700759,-0.36211897,0.605205,0.67634741,-0.44220649,0.631151,0.67050887,-0.39662421,0.599859,0.69495764,-0.42678953,0.611815,0.70773985,-0.45518916,0.626887,0.70447897,-0.45402994,0.644235,0.70057151,-0.41925145,0.613212,0.69020256,-0.43190336,0.59734,0.68363366,-0.44522943,0.597208,0.74033978,-0.47624045,0.663738,0.7279727,-0.43656681,0.635694,0.72115412,-0.43913556,0.62281,0.73005875,-0.45370142,0.621936
0.70683187,-0.55544888,0.684969,0.69160639,-0.49902031,0.659018,0.67554931,-0.53194776,0.66624,0.63317772,-0.50737193,0.636457,0.59762977,-0.47978809,0.62391,0.58545075,-0.4672885,0.626253,0.64323813,-0.43199277,0.617136,0.63578046,-0.39390418,0.611787,0.6345504,-0.375937,0.609113,0.63012988,-0.35887474,0.606682,0.67711788,-0.44213438,0.631728,0.67094072,-0.39655262,0.599991,0.69385153,-0.42613786,0.610896,0.70640439,-0.45438662,0.625798,0.70633223,-0.45477119,0.645808,0.7013053,-0.42045988,0.612568,0.68786023,-0.42878461,0.595561,0.67974755,-0.44360965,0.594072,0.74339372,-0.47791524,0.666394,0.72939167,-0.43623328,0.637578,0.72309141,-0.44019177,0.624338,0.73052662,-0.4537289,0.622628
0.73989106,-0.5260308,0.67636,0.7044317,-0.47140993,0.651737,0.71065536,-0.52377827,0.662942,0.6505276,-0.49091253,0.638487,0.61318607,-0.47924951,0.627369,0.59291322,-0.46759181,0.624411,0.63638595,-0.41678101,0.617389,0.62863374,-0.38018824,0.608926,0.6247691,-0.36150877,0.604694,0.62126349,-0.34429265,0.600847,0.66748651,-0.41540337,0.625843,0.65770826,-0.41985714,0.594716,0.67657998,-0.44850034,0.611331,0.68595134,-0.45574537,0.627806,0.69622983,-0.4183826,0.634767,0.68558704,-0.41990193,0.603545,0.66851643,-0.42397383,0.587571,0.66282582,-0.42299407,0.590486,0.73617327,-0.42979886,0.649034,0.71821397,-0.43057437,0.621503,0.70474257,-0.43429651,0.608853,0.70277092,-0.43524556,0.610323
0.72752821,-0.51993316,0.668651,0.70279044,-0.47075354,0.651833,0.69930394,-0.51306126,0.657858,0.64706661,-0.48728164,0.642284,0.61023318,-0.47234849,0.632466,0.58746613,-0.4595544,0.624807,0.64620722,-0.42062302,0.626357,0.63579921,-0.37625764,0.61441,0.6311077,-0.35554848,0.609208,0.62698127,-0.33670152,0.604609,0.67686756,-0.41954403,0.634148,0.67676728,-0.42339073,0.610172,0.70001493,-0.46113612,0.630309,0.70991008,-0.47150911,0.646934,0.70431903,-0.42247402,0.641902,0.7018007,-0.42903345,0.617017,0.6878727,-0.43594151,0.604286,0.68593708,-0.43783753,0.611184,0.74094101,-0.433226,0.653615,0.72982934,-0.43840328,0.631433,0.71893592,-0.4437578,0.621241,0.72411678,-0.44839556,0.625752
0.73954729,-0.52782912,0.679434,0.70100768,-0.46843804,0.649724,0.70695093,-0.5144685,0.668218,0.65238211,-0.48961957,0.646459,0.61130975,-0.47182125,0.632933,0.58710691,-0.45744912,0.62411,0.63494186,-0.40953765,0.614443,0.63003482,-0.37200182,0.609064,0.6275886,-0.35287878,0.606375,0.62536847,-0.335279,0.60393,0.66084281,-0.40810989,0.618481,0.64685323,-0.40383301,0.583346,0.66818065,-0.43638797,0.598588,0.68908673,-0.45442995,0.616081,0.68573235,-0.4099685,0.624177,0.67177659,-0.4096554,0.590155,0.68715967,-0.43445784,0.603059,0.69891041,-0.44499826,0.621951,0.72130768,-0.42061043,0.635373,0.70076991,-0.41960223,0.60565,0.712559,-0.43844283,0.614843,0.72488736,-0.44803265,0.628868
0.71984577,-0.51481238,0.663794,0.69374739,-0.46294154,0.644897,0.69207703,-0.50416896,0.658118,0.64337877,-0.48816571,0.645114,0.60301091,-0.47315184,0.634523,0.58451406,-0.46129072,0.633719,0.64529501,-0.40950253,0.624262,0.63190122,-0.36563241,0.611117,0.6270154,-0.34473893,0.606296,0.62247419,-0.32939909,0.601914,0.66908842,-0.40849413,0.625025,0.66503162,-0.41460847,0.599698,0.69200212,-0.45184757,0.620569,0.70417751,-0.46706382,0.637714,0.68967602,-0.41030844,0.627162,0.68699539,-0.41823318,0.603328,0.70844203,-0.44740059,0.621038,0.72044894,-0.4591976,0.639927,0.71799435,-0.41857741,0.63252,0.70733479,-0.42393312,0.611344,0.72410092,-0.44555538,0.624647,0.73636196,-0.45472441,0.638611
0.71695089,-0.51358729,0.662815,0.69185179,-0.4618259,0.644091,0.69002733,-0.50310353,0.657735,0.64345284,-0.48702269,0.643748,0.59938549,-0.4679607,0.628527,0.58326553,-0.45728032,0.629651,0.64455142,-0.40975543,0.624317,0.63075245,-0.36582306,0.610095,0.62577935,-0.34703146,0.604962,0.62172424,-0.32974469,0.600467,0.66790185,-0.40764723,0.624399,0.66392527,-0.41420665,0.599123,0.69056562,-0.45143175,0.620045,0.70280938,-0.46653731,0.637373,0.68811302,-0.40918842,0.625963,0.68524893,-0.41716443,0.601972,0.70708016,-0.44663577,0.619713,0.71636763,-0.45720685,0.635842,0.71560575,-0.41732036,0.630614,0.70737489,-0.42456764,0.611637,0.72493647,-0.44641077,0.625505,0.735285,-0.45408517,0.637741
0.71567271,-0.51320537,0.662804,0.69137232,-0.46153307,0.644225,0.68939343,-0.50283735,0.658073,0.64398342,-0.48681688,0.643628,0.59997887,-0.46740612,0.628169,0.58472285,-0.45585224,0.627727,0.64512595,-0.41018805,0.624988,0.63100361,-0.36594279,0.610556,0.6258358,-0.3449201,0.605172,0.62128356,-0.32750392,0.600528,0.6680013,-0.40754634,0.624686,0.66420055,-0.4143619,0.599486,0.69062292,-0.45159738,0.620443,0.70193788,-0.46610132,0.637967,0.68768275,-0.40951139,0.625922,0.68509502,-0.41693488,0.601886,0.70716619,-0.44662634,0.619652,0.71667566,-0.45772495,0.635802,0.71488422,-0.41696579,0.630163,0.70744372,-0.4249173,0.611849,0.72524271,-0.44673966,0.625866,0.7357555,-0.45433739,0.638233
