sluyters/QuantumLeap/backend/src/datasets/dynamic/HandGestureDataset_SHREC2017_csv/Gesture8/finger_1/subject_11_essai_3_skeletons_world.csv
Wrist_x,Wrist_y,Wrist_z,Palm_x,Palm_y,Palm_z,thumb_base_x,thumb_base_y,thumb_base_z,thumb_first_joint_x,thumb_first_joint_y,thumb_first_joint_z,thumb_second_joint_x,thumb_second_joint_y,thumb_second_joint_z,thumb_tip_x,thumb_tip_y,thumb_tip_z,index_base_x,index_base_y,index_base_z,index_first_joint_x,index_first_joint_y,index_first_joint_z,index_second_joint_x,index_second_joint_y,index_second_joint_z,index_tip_x,index_tip_y,index_tip_z,middle_base_x,middle_base_y,middle_base_z,middle_first_joint_x,middle_first_joint_y,middle_first_joint_z,middle_second_joint_x,middle_second_joint_y,middle_second_joint_z,middle_tip_x,middle_tip_y,middle_tip_z,ring_base_x,ring_base_y,ring_base_z,ring_first_joint_x,ring_first_joint_y,ring_first_joint_z,ring_second_joint_x,ring_second_joint_y,ring_second_joint_z,ring_tip_x,ring_tip_y,ring_tip_z,pinky_base_x,pinky_base_y,pinky_base_z,pinky_first_joint_x,pinky_first_joint_y,pinky_first_joint_z,pinky_second_joint_x,pinky_second_joint_y,pinky_second_joint_z,pinky_tip_x,pinky_tip_y,pinky_tip_z,
0.4357766,-0.3367169,0.559097,0.43182811,-0.29706465,0.564482,0.40657862,-0.3175771,0.550141,0.41023726,-0.27738091,0.541916,0.41037617,-0.24506187,0.535072,0.41368641,-0.22489002,0.534134,0.39308516,-0.24994661,0.5577,0.39882144,-0.21425744,0.549128,0.41350237,-0.20151479,0.561568,0.4273384,-0.18840405,0.572877,0.42540721,-0.25789419,0.570578,0.44336707,-0.23466824,0.567624,0.45382831,-0.23704189,0.5659,0.45750667,-0.25224394,0.564825,0.4532534,-0.26767369,0.580769,0.4664708,-0.24666809,0.573352,0.47261629,-0.24389536,0.569558,0.47351254,-0.25530749,0.566108,0.48705296,-0.28234575,0.592155,0.48825889,-0.26601027,0.584834,0.48962282,-0.27092294,0.58147,0.49213219,-0.2740218,0.578502
0.43436216,-0.34744557,0.565366,0.42757952,-0.29639025,0.56199,0.40630603,-0.32249991,0.552988,0.40149752,-0.28667538,0.530395,0.38522956,-0.25298524,0.515032,0.37553626,-0.23215874,0.511349,0.38507527,-0.24322237,0.544212,0.38999613,-0.2077788,0.529823,0.40654339,-0.19703087,0.54074,0.42241153,-0.18640859,0.550665,0.41638516,-0.25012462,0.558168,0.42805525,-0.23166056,0.545839,0.43508318,-0.21939917,0.538647,0.44986257,-0.23778058,0.548751,0.44574403,-0.26116479,0.569903,0.45109038,-0.24926887,0.553204,0.45233036,-0.25063172,0.54466,0.457628,-0.27700472,0.554505,0.4809961,-0.27891405,0.584387,0.48165647,-0.26908083,0.568824,0.48251464,-0.26441477,0.561674,0.49108801,-0.26823733,0.569077
0.43135473,-0.34997548,0.56388,0.42380432,-0.31147606,0.560135,0.40070364,-0.33061851,0.550608,0.39522195,-0.29688903,0.527161,0.38799793,-0.2643258,0.507584,0.38310926,-0.24133283,0.500062,0.38900889,-0.25148183,0.540975,0.39676578,-0.2106439,0.527152,0.41318815,-0.19590702,0.536382,0.42930839,-0.18249762,0.544773,0.42173193,-0.26185507,0.555895,0.43595708,-0.24199175,0.543271,0.44546783,-0.22969574,0.535907,0.45943737,-0.24770956,0.545379,0.44926986,-0.2736633,0.56845,0.4571374,-0.26730667,0.551156,0.46177683,-0.26479146,0.542307,0.46828219,-0.28953463,0.55136,0.48320253,-0.29416886,0.583965,0.48362721,-0.28867293,0.567996,0.47595359,-0.30446218,0.560659,0.48046945,-0.32543677,0.567466
0.43331197,-0.35788751,0.564736,0.43800082,-0.31666021,0.558703,0.4067392,-0.3388568,0.552387,0.39866706,-0.30022974,0.529144,0.3922796,-0.270435,0.508595,0.38618427,-0.2448069,0.501336,0.40062202,-0.25597323,0.538894,0.40514895,-0.21446943,0.522727,0.42131711,-0.20023649,0.531997,0.43695936,-0.18713484,0.540424,0.43297501,-0.26569769,0.551872,0.44133197,-0.23505532,0.53669,0.44460331,-0.23730633,0.527834,0.45420842,-0.25967997,0.537556,0.46029055,-0.27706976,0.563001,0.46239335,-0.27034859,0.543907,0.46306523,-0.26976678,0.534138,0.46884747,-0.29494437,0.543693,0.49411993,-0.29726571,0.577143,0.4875551,-0.29084283,0.559314,0.47682809,-0.30597437,0.551123,0.47614508,-0.32359036,0.55823
0.43210966,-0.35710568,0.558864,0.43290571,-0.31628694,0.551815,0.40285261,-0.3362829,0.545625,0.39655426,-0.30059648,0.521349,0.39324015,-0.27092056,0.500113,0.38960589,-0.24693632,0.490367,0.39996383,-0.25581071,0.530127,0.40734981,-0.21493018,0.5127,0.42511695,-0.20107875,0.521201,0.44194324,-0.18741997,0.528929,0.43156635,-0.26834949,0.543834,0.44506096,-0.23811666,0.527648,0.44926162,-0.24175179,0.518206,0.45751936,-0.26396293,0.52723,0.4579633,-0.2820794,0.555639,0.46306255,-0.27610805,0.535351,0.46526313,-0.27550122,0.524972,0.46935958,-0.30011187,0.533694,0.49017565,-0.30516012,0.570732,0.48667981,-0.29854879,0.551929,0.47321546,-0.31269928,0.543289,0.47361859,-0.33316745,0.54975
0.42853907,-0.35800046,0.549788,0.43126761,-0.32011794,0.547083,0.40311051,-0.33772893,0.53691,0.39266628,-0.30178591,0.514079,0.38779375,-0.27395045,0.492618,0.38554485,-0.24775132,0.48455,0.39864407,-0.26252043,0.529213,0.40854653,-0.22443223,0.515533,0.42778406,-0.21202985,0.525995,0.44605811,-0.19954013,0.535507,0.43155146,-0.2745473,0.544021,0.44681322,-0.24944768,0.532483,0.45299826,-0.25526319,0.525753,0.46251548,-0.27885067,0.535607,0.45884932,-0.28507907,0.556405,0.46752126,-0.27979874,0.540182,0.47068058,-0.28205983,0.531881,0.47714615,-0.3071787,0.541355,0.49182935,-0.30767077,0.571568,0.49133058,-0.30195361,0.556544,0.48001675,-0.31744215,0.549641,0.48157233,-0.33874359,0.556791
0.43153981,-0.36413347,0.55002,0.43359982,-0.32298378,0.543624,0.4047495,-0.34027236,0.537719,0.39377778,-0.30714472,0.514435,0.38781157,-0.28076732,0.491138,0.38497188,-0.25801526,0.480391,0.40892199,-0.26072479,0.523594,0.4104528,-0.22240442,0.504116,0.42552027,-0.20985051,0.511319,0.44024049,-0.19846093,0.517867,0.44063238,-0.27393448,0.536384,0.45253047,-0.24729178,0.520815,0.45241896,-0.25533485,0.511733,0.45860897,-0.27905737,0.521419,0.46684294,-0.288245,0.547385,0.46775777,-0.286266,0.527985,0.46429154,-0.29213268,0.518059,0.46668997,-0.31787937,0.527598,0.49818348,-0.31205176,0.561426,0.49032522,-0.3085543,0.543301,0.47506995,-0.32205455,0.534973,0.47447853,-0.34253008,0.542057
0.42797673,-0.37087607,0.54382,0.429125,-0.33259567,0.535834,0.40196995,-0.34592799,0.531463,0.38758805,-0.31715343,0.50776,0.38229752,-0.28919376,0.486352,0.37999119,-0.26632175,0.475914,0.40092385,-0.26688001,0.514499,0.40177319,-0.22799583,0.493836,0.4169877,-0.21584528,0.501076,0.43183376,-0.20482991,0.507658,0.43216942,-0.28038829,0.526793,0.44268154,-0.25313163,0.509557,0.44137417,-0.26065927,0.499502,0.44695354,-0.28437137,0.508854,0.45804026,-0.29501334,0.537506,0.45734972,-0.29229744,0.516683,0.45295116,-0.29770626,0.506029,0.45473121,-0.32346832,0.515268,0.48908938,-0.31934559,0.551432,0.47974412,-0.31501069,0.531979,0.46371115,-0.32779936,0.523041,0.46265784,-0.34815671,0.529854
0.41012482,-0.37497213,0.527777,0.41578429,-0.33482491,0.522988,0.38683693,-0.34906413,0.516501,0.37546773,-0.316148,0.494536,0.37303,-0.28856028,0.474016,0.3741758,-0.26461108,0.467208,0.39511509,-0.27021362,0.505459,0.40149556,-0.23304958,0.487671,0.41843402,-0.22128582,0.49475,0.43490657,-0.21066373,0.501186,0.42523662,-0.28570046,0.517565,0.44136914,-0.26064118,0.50364,0.44180566,-0.26874601,0.495517,0.44743568,-0.29294163,0.506035,0.44971911,-0.30177274,0.527884,0.45288078,-0.30036832,0.510271,0.45219507,-0.30393032,0.50126,0.45453854,-0.32491345,0.511768,0.47822685,-0.327463,0.540881,0.47260512,-0.32369345,0.524273,0.45631182,-0.33663848,0.516642,0.45481823,-0.35755574,0.524491
0.4049538,-0.3775685,0.526678,0.41002646,-0.33529014,0.519335,0.38213207,-0.35079221,0.514973,0.36662015,-0.32053105,0.492021,0.36430522,-0.29480336,0.470851,0.3647842,-0.27288753,0.460239,0.38978826,-0.26918199,0.499298,0.39547182,-0.23609163,0.479432,0.41321897,-0.2259592,0.486427,0.43039834,-0.21696867,0.492785,0.41863677,-0.28802052,0.511022,0.4327482,-0.26566151,0.494428,0.42969298,-0.2748438,0.484749,0.43256971,-0.29905894,0.494567,0.44235168,-0.30503368,0.521217,0.44102669,-0.30595808,0.501192,0.43754475,-0.31053608,0.490947,0.43981947,-0.33553028,0.500752,0.46965773,-0.33198546,0.534431,0.46004289,-0.32970816,0.515625,0.44136754,-0.340793,0.506984,0.43791894,-0.36045047,0.514234
0.38967805,-0.37758291,0.517842,0.39466111,-0.33258221,0.507994,0.36610637,-0.34804714,0.502708,0.35046851,-0.31751009,0.476164,0.34849197,-0.29294195,0.45215,0.34870229,-0.27131721,0.439551,0.37190018,-0.26527663,0.481813,0.3770047,-0.23042117,0.458513,0.39255542,-0.21998982,0.461935,0.40758191,-0.20965707,0.465045,0.40226251,-0.28315656,0.496846,0.4163943,-0.27319297,0.477923,0.41012772,-0.2879674,0.466884,0.41258674,-0.31164853,0.474176,0.42679179,-0.30135222,0.509951,0.4262818,-0.3065443,0.486631,0.42356728,-0.31261596,0.474699,0.42305991,-0.33714701,0.481405,0.45504197,-0.32985161,0.526998,0.44683898,-0.33185023,0.505669,0.42632884,-0.34111113,0.495869,0.42005813,-0.3583368,0.500754
0.38372225,-0.37585883,0.51284,0.3872231,-0.33282681,0.503348,0.35729422,-0.34884718,0.498107,0.33945395,-0.31521313,0.471977,0.33210033,-0.28804087,0.448759,0.32890239,-0.26489654,0.43645,0.36774356,-0.26414739,0.477934,0.37214407,-0.22918445,0.455065,0.38736939,-0.21872186,0.458806,0.40209251,-0.20831556,0.462207,0.3981892,-0.28161653,0.492602,0.41156359,-0.27142537,0.473998,0.40523073,-0.28626614,0.463146,0.40795008,-0.310249,0.470779,0.42281878,-0.29947205,0.50538,0.42186301,-0.30464394,0.482482,0.41896806,-0.31076399,0.470766,0.41871171,-0.33569027,0.477883,0.45123654,-0.32755798,0.521985,0.4424754,-0.32960177,0.500982,0.42236932,-0.33906098,0.491332,0.41660572,-0.35661605,0.496532
0.3776825,-0.37962349,0.512772,0.3718733,-0.33176252,0.496293,0.35066811,-0.35232053,0.496516,0.34660422,-0.32526136,0.467649,0.32627555,-0.2910885,0.449938,0.31531705,-0.27025005,0.445811,0.34002863,-0.26045241,0.463587,0.34711233,-0.22808354,0.438876,0.36043548,-0.21756683,0.438197,0.37334669,-0.20741928,0.437579,0.37173787,-0.27407318,0.477638,0.37737414,-0.25819498,0.452016,0.36261807,-0.27571284,0.437069,0.36366688,-0.29871141,0.442118,0.39815217,-0.28911963,0.490433,0.3897241,-0.29533554,0.461073,0.37587197,-0.30675524,0.446052,0.36536333,-0.32552898,0.450457,0.43016521,-0.31456636,0.508058,0.41522256,-0.31890161,0.481276,0.39663596,-0.32573581,0.468971,0.39476229,-0.3395348,0.471948
0.37080473,-0.3767067,0.50584,0.36351922,-0.32949249,0.489564,0.34071552,-0.3520882,0.48798,0.33840101,-0.31991805,0.4579,0.31707672,-0.28584371,0.439165,0.30471537,-0.26551331,0.434331,0.32402772,-0.26076278,0.455048,0.33363322,-0.22838047,0.431429,0.34625999,-0.21687169,0.429114,0.36141013,-0.20414466,0.42701,0.35591054,-0.27288487,0.471137,0.36696314,-0.25940693,0.446005,0.35272073,-0.27800896,0.431345,0.35613462,-0.29725098,0.435219,0.38264699,-0.28671754,0.485592,0.38383605,-0.29209059,0.456039,0.36948555,-0.30430027,0.440918,0.35849568,-0.32237005,0.443816,0.41546975,-0.31074702,0.50517,0.41010178,-0.31602107,0.478502,0.38810791,-0.3221498,0.466249,0.38559261,-0.33726188,0.468116
0.36338406,-0.3783207,0.503777,0.34691087,-0.32975855,0.487631,0.33093174,-0.35455221,0.485508,0.32721445,-0.32412121,0.462296,0.30661917,-0.29027598,0.444089,0.29116374,-0.26751026,0.435458,0.31069083,-0.2584811,0.452717,0.31837345,-0.23032195,0.427911,0.33194776,-0.22243548,0.427706,0.34519481,-0.21475262,0.42752,0.34361457,-0.27131701,0.469352,0.34803928,-0.27351375,0.444456,0.34190483,-0.28913773,0.429933,0.34855356,-0.31044907,0.433473,0.37127754,-0.28574744,0.484247,0.36936919,-0.29103275,0.454742,0.35482806,-0.30493211,0.439646,0.34586144,-0.32325793,0.442116,0.40522029,-0.3105345,0.504332,0.39483824,-0.31562699,0.477789,0.37749447,-0.32290464,0.465594,0.37251924,-0.33714306,0.467149
0.33409018,-0.37097356,0.492694,0.32426307,-0.3134716,0.472689,0.29960013,-0.33971026,0.477578,0.29624851,-0.3150722,0.453079,0.28519089,-0.28679036,0.43215,0.27980233,-0.26404327,0.423061,0.29006047,-0.24200904,0.438636,0.28328652,-0.21514319,0.409879,0.28870533,-0.207679,0.407614,0.29418416,-0.20039692,0.405555,0.3214178,-0.25481882,0.45004,0.30472213,-0.25628226,0.420833,0.28920788,-0.27317603,0.403795,0.29018991,-0.29648517,0.408446,0.34800333,-0.26937269,0.46092,0.33001974,-0.27825476,0.429029,0.31646681,-0.28662796,0.412712,0.31767679,-0.29824356,0.416988,0.38086743,-0.29458405,0.476768,0.34519556,-0.29366265,0.44746,0.31733829,-0.29523375,0.433994,0.30362787,-0.30620408,0.436759
0.33651309,-0.36656526,0.483364,0.31701038,-0.31778446,0.463725,0.30239372,-0.34370546,0.470845,0.27645368,-0.31600385,0.44499,0.25301314,-0.28707742,0.43115,0.2419032,-0.26615925,0.426971,0.27371616,-0.25011476,0.433138,0.25324823,-0.25337266,0.404477,0.26175679,-0.27509507,0.420309,0.27301843,-0.30854137,0.437944,0.30340054,-0.25708278,0.441492,0.28812816,-0.20828686,0.412627,0.27643655,-0.20319948,0.395789,0.28063344,-0.20902349,0.401721,0.32938237,-0.26684028,0.449835,0.30024891,-0.22466172,0.419274,0.28525015,-0.20275036,0.403638,0.27661679,-0.20418321,0.389424,0.36310106,-0.28645268,0.462604,0.32574444,-0.2850493,0.434147,0.30105449,-0.28965366,0.421073,0.29301896,-0.30109086,0.425114
0.33306145,-0.37737142,0.494712,0.31049199,-0.32351494,0.472744,0.29955543,-0.35702038,0.479274,0.27858186,-0.32759555,0.450298,0.25678978,-0.29774074,0.428817,0.2446005,-0.27424088,0.418407,0.26316928,-0.25268559,0.436774,0.24271108,-0.24317982,0.405032,0.24792386,-0.26817309,0.418741,0.25461895,-0.30107145,0.436743,0.29450636,-0.26047704,0.447875,0.27494123,-0.24124282,0.416803,0.26383172,-0.25223151,0.398678,0.26673222,-0.27455605,0.402453,0.32212958,-0.27103752,0.458653,0.30122455,-0.27328411,0.425095,0.29057827,-0.27484087,0.407926,0.29267441,-0.30005187,0.411288,0.3583095,-0.29191011,0.47466,0.32174668,-0.28919526,0.443873,0.29864175,-0.29339485,0.429728,0.2911294,-0.30832927,0.431754
0.31823273,-0.37187312,0.483256,0.29208602,-0.31852294,0.459443,0.28252565,-0.35280639,0.469656,0.26067097,-0.32109068,0.442274,0.23122704,-0.28878326,0.427736,0.21951276,-0.27005405,0.425179,0.24739094,-0.24711974,0.424289,0.22024517,-0.24020596,0.3924,0.22586582,-0.26999165,0.406795,0.23766305,-0.29548379,0.42513,0.27558531,-0.25355834,0.432485,0.25136322,-0.21358371,0.399675,0.23719058,-0.18999172,0.380537,0.23581727,-0.20108402,0.384391,0.30073042,-0.26308152,0.441011,0.2670337,-0.21943766,0.406767,0.24976092,-0.19703492,0.389247,0.25180945,-0.20736791,0.393012,0.3343105,-0.28296523,0.454596,0.29231009,-0.27308756,0.422929,0.27006819,-0.27825873,0.408379,0.27062714,-0.28567595,0.410635
0.29385355,-0.37946021,0.478905,0.27787739,-0.32633603,0.462142,0.26289615,-0.36038826,0.473744,0.24930357,-0.33405403,0.456423,0.23040653,-0.30676198,0.449928,0.22946164,-0.28851104,0.453368,0.24794754,-0.26234457,0.442798,0.21894237,-0.25849766,0.420841,0.22851135,-0.29145147,0.439073,0.24996729,-0.3164002,0.455021,0.27056529,-0.26693507,0.443165,0.2497098,-0.2232779,0.417942,0.23357744,-0.20585362,0.403229,0.23072245,-0.20885885,0.411775,0.2901311,-0.27466973,0.444722,0.25760641,-0.2584294,0.420287,0.24028344,-0.25007346,0.407786,0.24310338,-0.27658583,0.417442,0.31519421,-0.29170587,0.448983,0.2738959,-0.29183007,0.4253,0.25449198,-0.29215728,0.414419,0.25048675,-0.31322778,0.421219
0.2790558,-0.3819469,0.479691,0.26740447,-0.32664885,0.462585,0.25770781,-0.360707,0.474163,0.23815972,-0.33401597,0.456371,0.21922112,-0.30691197,0.450148,0.21231266,-0.287529,0.450959,0.23754591,-0.26218342,0.442526,0.2078762,-0.25803575,0.420089,0.21603501,-0.29056757,0.438221,0.23246164,-0.31720977,0.454318,0.26021212,-0.2669676,0.443219,0.23892678,-0.22309786,0.417605,0.22240254,-0.20556467,0.402663,0.21868523,-0.20848706,0.411042,0.27983391,-0.27488528,0.445071,0.246512,-0.25834762,0.420154,0.2287536,-0.24984042,0.407406,0.23078194,-0.27619293,0.416849,0.3049807,-0.2921925,0.449732,0.26313403,-0.2920668,0.425645,0.24347875,-0.29226867,0.414577,0.2391713,-0.31322183,0.421211
0.18829016,-0.32578793,0.416666,0.21793692,-0.29137322,0.419722,0.18320936,-0.30736571,0.419926,0.19366609,-0.27666936,0.42724,0.19801596,-0.26971808,0.441405,0.21022178,-0.25857413,0.45027,0.23250944,-0.24748238,0.426089,0.22134633,-0.22008483,0.423412,0.22341754,-0.22035037,0.444151,0.21498151,-0.23700902,0.454876,0.24900899,-0.25565763,0.423183,0.22925568,-0.23634627,0.419046,0.21045604,-0.25826543,0.416633,0.21820942,-0.28450361,0.432144,0.26104158,-0.26493249,0.420563,0.24022552,-0.24807627,0.417282,0.22077109,-0.26583473,0.415603,0.22787676,-0.29498475,0.433045,0.27220795,-0.28110011,0.416999,0.24277567,-0.2588002,0.411979,0.22299449,-0.26739229,0.409672,0.21923309,-0.28838451,0.422811
0.25858833,-0.36342822,0.465871,0.2438253,-0.30301612,0.445994,0.24006743,-0.33776401,0.468245,0.22919668,-0.32175464,0.469605,0.21631613,-0.3021866,0.467525,0.21298258,-0.28468959,0.46326,0.22428372,-0.24247277,0.433458,0.19606002,-0.20447374,0.408271,0.18174659,-0.18515684,0.395678,0.16661907,-0.19251777,0.400788,0.23502025,-0.24488344,0.423492,0.18646479,-0.23001136,0.397995,0.18764208,-0.26712572,0.416837,0.20617474,-0.28490068,0.431974,0.24462622,-0.25076418,0.416781,0.20208533,-0.23042261,0.39453,0.1999805,-0.26263987,0.411105,0.21357712,-0.28723478,0.426711,0.25755099,-0.26538438,0.411625,0.20516664,-0.26291664,0.390477,0.20007031,-0.28254128,0.403411,0.19622974,-0.30085185,0.41587
0.25101399,-0.3570514,0.466831,0.24382649,-0.30478488,0.447888,0.24214304,-0.3404846,0.471812,0.21846716,-0.33244613,0.471934,0.19529219,-0.30390407,0.465538,0.18932118,-0.28222011,0.46375,0.22768626,-0.24610009,0.43927,0.19805926,-0.20938667,0.416553,0.17982172,-0.19161201,0.405195,0.16267215,-0.19905062,0.409819,0.23556954,-0.2471361,0.426444,0.18091871,-0.23870904,0.403007,0.17921056,-0.2757423,0.419997,0.1922973,-0.30136161,0.433808,0.24269038,-0.25180531,0.41731,0.19463294,-0.2357654,0.398407,0.19050275,-0.26524505,0.413439,0.21085246,-0.28584969,0.427078,0.24886867,-0.2658268,0.40913,0.19669515,-0.26354119,0.390572,0.19208674,-0.28312388,0.402286,0.19159957,-0.3000908,0.413359
0.25290746,-0.35839428,0.474819,0.23894033,-0.29931855,0.45366,0.24359162,-0.34072718,0.478826,0.21453643,-0.32636795,0.47723,0.19056345,-0.30032908,0.471405,0.18258349,-0.27771402,0.467263,0.22102783,-0.23990904,0.442126,0.18658315,-0.20649916,0.415551,0.16902665,-0.18949424,0.402263,0.15609726,-0.19744535,0.405314,0.22835673,-0.24357365,0.429706,0.17397874,-0.23805456,0.403631,0.17290386,-0.27376439,0.419764,0.18959335,-0.29958601,0.434259,0.23515695,-0.25031219,0.421072,0.18809778,-0.23791927,0.3995,0.18420817,-0.26549404,0.413783,0.20531996,-0.28336778,0.428199,0.2447412,-0.26553927,0.413805,0.19242909,-0.2629226,0.393303,0.18635817,-0.2805689,0.404386,0.18160703,-0.29751452,0.415899
0.24977529,-0.35663294,0.486882,0.23492623,-0.30237495,0.462909,0.23934339,-0.33746886,0.489176,0.20877178,-0.32887892,0.484206,0.18340791,-0.3011016,0.475491,0.17515382,-0.27852316,0.471404,0.21411447,-0.24038846,0.447091,0.18056582,-0.20545489,0.418268,0.16355617,-0.18775645,0.403856,0.14871715,-0.19703653,0.405911,0.22341031,-0.24394552,0.435769,0.16918074,-0.23624391,0.405538,0.16779408,-0.27157795,0.420879,0.18467278,-0.29769474,0.436629,0.23191045,-0.2507522,0.428249,0.18502735,-0.23565907,0.402339,0.18041884,-0.26317605,0.415921,0.2008365,-0.28236574,0.431809,0.24371781,-0.26641547,0.422716,0.19089866,-0.262946,0.399407,0.18394762,-0.28082895,0.409912,0.18161974,-0.3004531,0.422189
0.25092013,-0.36206312,0.496757,0.23034004,-0.3008993,0.46694,0.23304518,-0.33866038,0.494728,0.20315252,-0.32531296,0.484902,0.17859819,-0.29910161,0.471665,0.167369,-0.27419273,0.462073,0.20414538,-0.23414743,0.441289,0.16871581,-0.19912657,0.411308,0.15086372,-0.1814945,0.396318,0.13416497,-0.18959482,0.397205,0.21565953,-0.23847094,0.433184,0.16198191,-0.23171954,0.398118,0.15953791,-0.26541259,0.411823,0.17497699,-0.2914051,0.428808,0.22633907,-0.24621076,0.428749,0.17982095,-0.22664699,0.397905,0.17502271,-0.25345444,0.410055,0.19407453,-0.27489265,0.427363,0.24142218,-0.26367267,0.427733,0.1888728,-0.2612436,0.398321,0.18532909,-0.27960624,0.407446,0.20606835,-0.29309923,0.421335
0.24665159,-0.36118554,0.501299,0.23079878,-0.30179445,0.471804,0.23265498,-0.33909332,0.498712,0.20138929,-0.32341346,0.48869,0.1746167,-0.30238381,0.474389,0.1614221,-0.27942146,0.464371,0.20182387,-0.2332344,0.445719,0.16529241,-0.19876221,0.414918,0.14691233,-0.18143309,0.399517,0.13279148,-0.19061724,0.400671,0.21355347,-0.2380583,0.438412,0.1597519,-0.2323179,0.403312,0.15801307,-0.26636839,0.417841,0.17234266,-0.29436368,0.435099,0.22448594,-0.24618686,0.434609,0.17712522,-0.22754311,0.403454,0.17304064,-0.25463324,0.416307,0.19313989,-0.27466246,0.434022,0.23997636,-0.26405485,0.434302,0.1859442,-0.26125794,0.404607,0.18696649,-0.28119353,0.414299,0.20760949,-0.29605309,0.428508
0.23766956,-0.34835776,0.48544,0.2232182,-0.29312002,0.462822,0.22558916,-0.32952946,0.486363,0.19687273,-0.31781707,0.480751,0.16882521,-0.29915514,0.468278,0.1559408,-0.28144249,0.462807,0.1999037,-0.23293026,0.446378,0.16143245,-0.20023071,0.421318,0.14294389,-0.18393173,0.408788,0.13063842,-0.1952725,0.413495,0.21052764,-0.23625718,0.437216,0.15635916,-0.23347039,0.408873,0.15898827,-0.27119791,0.426822,0.17157814,-0.29693697,0.442708,0.22028219,-0.24282145,0.431371,0.17183283,-0.22631927,0.407238,0.16983861,-0.25598387,0.423086,0.19080691,-0.27504331,0.439162,0.23136448,-0.25617848,0.427642,0.18314837,-0.25937547,0.403927,0.18579086,-0.28127716,0.41617,0.20478422,-0.29402066,0.430142
0.24138572,-0.35422504,0.494759,0.22744788,-0.29913808,0.472663,0.22871055,-0.3348139,0.495148,0.20030843,-0.32299179,0.489406,0.17323727,-0.30327724,0.476589,0.16045167,-0.28392168,0.46997,0.2034188,-0.23776495,0.455972,0.16541769,-0.20644066,0.43176,0.14670207,-0.19064832,0.419654,0.13016044,-0.19754197,0.425098,0.21480246,-0.24154447,0.447648,0.16264399,-0.24055352,0.419489,0.16237641,-0.27844495,0.438238,0.17528102,-0.30475186,0.454309,0.22523936,-0.24857089,0.442455,0.17413205,-0.24237471,0.418205,0.1750062,-0.27226825,0.434733,0.1959098,-0.28424333,0.4512,0.23967123,-0.26457174,0.439428,0.1879275,-0.266422,0.41561,0.19063459,-0.28928905,0.428407,0.21002886,-0.30245923,0.44258
0.24101155,-0.35395682,0.495147,0.22730142,-0.29917816,0.472896,0.22819579,-0.3345447,0.495407,0.20033182,-0.32284341,0.489596,0.1731021,-0.30303523,0.476761,0.1601944,-0.28389506,0.469895,0.20300725,-0.23765462,0.455925,0.16525346,-0.20665847,0.431345,0.14647887,-0.19098649,0.419055,0.12986009,-0.19640644,0.424383,0.21445562,-0.24140032,0.447705,0.1622738,-0.24046763,0.419366,0.16188954,-0.27834828,0.438091,0.17484929,-0.30470842,0.454219,0.22496565,-0.24841183,0.442608,0.17410998,-0.242344,0.418152,0.17497601,-0.27222128,0.434658,0.19582835,-0.28504077,0.451158,0.23952247,-0.2644254,0.439717,0.18771924,-0.26626645,0.415723,0.19036488,-0.28922091,0.428498,0.20973341,-0.30249037,0.442672
0.24027351,-0.35316913,0.494995,0.22744389,-0.29938771,0.473865,0.22658556,-0.33304483,0.495912,0.20059101,-0.32280701,0.491947,0.17244927,-0.30384145,0.479868,0.15957182,-0.2860243,0.472947,0.20457797,-0.23858925,0.45857,0.16661151,-0.20927386,0.43608,0.14428988,-0.19674294,0.424834,0.12837081,-0.19375109,0.430949,0.21439505,-0.24173492,0.449944,0.16190099,-0.24181175,0.422789,0.16345237,-0.27806525,0.441859,0.18284405,-0.29893406,0.457667,0.224164,-0.24851242,0.44443,0.16932716,-0.24403682,0.421234,0.15799759,-0.27201975,0.438045,0.16883062,-0.29672128,0.454127,0.23777427,-0.26420137,0.440881,0.1814556,-0.26431252,0.417973,0.1885951,-0.28861802,0.431017,0.21018639,-0.30310979,0.444793
0.24036544,-0.35352672,0.496209,0.22771877,-0.29976419,0.474886,0.22716571,-0.33354171,0.497319,0.20104617,-0.32304014,0.493389,0.17293517,-0.30453457,0.481522,0.15999095,-0.28662059,0.474691,0.20533336,-0.23887069,0.459678,0.16671801,-0.20995566,0.43707,0.14460643,-0.19717455,0.425766,0.12858707,-0.1940775,0.431675,0.21482658,-0.2419858,0.450746,0.16182274,-0.24194558,0.423518,0.16361772,-0.27834655,0.442306,0.18299826,-0.29918618,0.458053,0.22414864,-0.24873981,0.444995,0.16956916,-0.24438558,0.421836,0.15812852,-0.27224517,0.438408,0.1689243,-0.29688593,0.454379,0.23720834,-0.26442209,0.441192,0.18160364,-0.26452816,0.418314,0.18809178,-0.28823568,0.431165,0.20985419,-0.30260817,0.444866
0.2404261,-0.35378916,0.497132,0.22792343,-0.30004408,0.475633,0.22760015,-0.33391294,0.498373,0.20138936,-0.32325929,0.494448,0.17329893,-0.30506666,0.482736,0.16030336,-0.28706953,0.475976,0.20586294,-0.23906004,0.460447,0.16679276,-0.21041427,0.437739,0.14481632,-0.19746075,0.426384,0.12872082,-0.19427936,0.432124,0.21512013,-0.24215974,0.451293,0.16178634,-0.2420411,0.423981,0.16370354,-0.27849255,0.442538,0.18307417,-0.29931029,0.458243,0.22413864,-0.24889158,0.445372,0.1697195,-0.24460225,0.42221,0.15819273,-0.27235571,0.438586,0.16896185,-0.29695193,0.45448,0.23682619,-0.26456366,0.44139,0.18168916,-0.26465274,0.418511,0.18782457,-0.28801996,0.431201,0.20958537,-0.30220441,0.44485
0.24045912,-0.35397644,0.497839,0.22807717,-0.30025437,0.476194,0.2279267,-0.33418479,0.499168,0.20164572,-0.32343369,0.495232,0.17356832,-0.30546343,0.48363,0.16053049,-0.28739336,0.476919,0.20625174,-0.23919232,0.461005,0.16684373,-0.21073844,0.43821,0.14496203,-0.19765943,0.426813,0.12880899,-0.19441244,0.43242,0.21533279,-0.24228737,0.45169,0.16176709,-0.24211206,0.424302,0.16375607,-0.27858191,0.44268,0.18311932,-0.2993841,0.458356,0.22413492,-0.24900378,0.445648,0.16982401,-0.24475288,0.42247,0.15823096,-0.27242153,0.438692,0.16898118,-0.2969859,0.454532,0.23655951,-0.26467167,0.441543,0.1817495,-0.26474064,0.41865,0.18766125,-0.28788573,0.431215,0.20937753,-0.30189265,0.444824
0.23965716,-0.35346629,0.498793,0.22830474,-0.30056007,0.476856,0.22832579,-0.33460415,0.500106,0.20191528,-0.32368836,0.49601,0.17379635,-0.30580664,0.484373,0.16070595,-0.28764293,0.477649,0.20654473,-0.23928432,0.461418,0.16684996,-0.21094094,0.438479,0.14502894,-0.19775066,0.42701,0.12881882,-0.19442728,0.432453,0.21550813,-0.24240094,0.452021,0.16170078,-0.24208401,0.424393,0.16371168,-0.27850639,0.44256,0.18307938,-0.29931875,0.458256,0.22417086,-0.24913094,0.445932,0.16985858,-0.24480271,0.422556,0.15819669,-0.27236254,0.438597,0.16894847,-0.2969284,0.454444,0.23644316,-0.26484637,0.441814,0.18179333,-0.26480451,0.418751,0.18752671,-0.28775677,0.431165,0.20919268,-0.30161676,0.444754
0.2403628,-0.35565522,0.503614,0.22909622,-0.30190698,0.480196,0.22970293,-0.33714697,0.505873,0.2083121,-0.31165838,0.502221,0.19641351,-0.29593268,0.499337,0.19275827,-0.27940543,0.491754,0.20938375,-0.23930094,0.464767,0.16718972,-0.21129767,0.438822,0.14500846,-0.19788754,0.425849,0.12933555,-0.19530167,0.429098,0.21672512,-0.24291615,0.453685,0.16215948,-0.24172829,0.425384,0.15881474,-0.27206296,0.441397,0.17073796,-0.29433003,0.45666,0.22470901,-0.2491271,0.446321,0.17066449,-0.24573625,0.422897,0.15862887,-0.27212504,0.437096,0.16852561,-0.29608931,0.452226,0.2360832,-0.26424305,0.440894,0.18443859,-0.25690336,0.417818,0.18223468,-0.27793902,0.428731,0.19859985,-0.29248745,0.441085
0.24022574,-0.3566408,0.505993,0.22957775,-0.30252647,0.481727,0.229978,-0.33804171,0.508466,0.20909833,-0.31227259,0.503011,0.19682777,-0.29587516,0.499174,0.19276277,-0.27875725,0.490506,0.21044284,-0.23943216,0.465902,0.16831276,-0.21015142,0.436887,0.14765495,-0.19626184,0.422379,0.13070935,-0.19533616,0.42407,0.21748206,-0.24301718,0.454256,0.16633884,-0.23828799,0.425456,0.15686745,-0.2694815,0.440386,0.16607452,-0.29286288,0.45549,0.22520881,-0.24917275,0.446492,0.17143832,-0.24558423,0.422796,0.15802043,-0.270468,0.436064,0.16762608,-0.29498036,0.450933,0.23621488,-0.26424516,0.44071,0.18282327,-0.26305617,0.417423,0.17474809,-0.28022587,0.427575,0.1827719,-0.30016466,0.439707
0.24052513,-0.35753566,0.508529,0.23077019,-0.30353233,0.48452,0.23061426,-0.33880723,0.511167,0.21179358,-0.31414495,0.508227,0.19905544,-0.29033534,0.505155,0.19442692,-0.27101011,0.498209,0.21490964,-0.23747896,0.469096,0.17210525,-0.21262919,0.440722,0.1498178,-0.19831887,0.426535,0.13332781,-0.19583472,0.428447,0.22323583,-0.24167589,0.457339,0.16869652,-0.23923279,0.428816,0.15859892,-0.27051258,0.443814,0.1669886,-0.29435317,0.45884,0.23055401,-0.248995,0.449465,0.17914086,-0.24595251,0.426069,0.16474516,-0.27014524,0.439398,0.16899102,-0.2967079,0.454169,0.23730376,-0.26569231,0.443514,0.1876576,-0.26098257,0.420486,0.17967988,-0.28056032,0.430692,0.18607773,-0.30114719,0.442755
0.24051402,-0.35621972,0.508044,0.24116113,-0.29821622,0.485035,0.22990863,-0.33588233,0.508434,0.2228082,-0.31007464,0.507009,0.20897507,-0.28874847,0.503327,0.2050079,-0.27164056,0.497083,0.22449344,-0.23474066,0.467635,0.1836063,-0.21128695,0.441705,0.16263307,-0.19936569,0.42874,0.14881284,-0.19577158,0.433277,0.23486093,-0.24040288,0.458986,0.1806738,-0.23764934,0.430099,0.17109794,-0.27071755,0.448156,0.17603467,-0.29772746,0.464274,0.24401752,-0.24899362,0.453594,0.19139547,-0.2461385,0.428767,0.17979181,-0.27589997,0.444701,0.18971352,-0.29693612,0.461092,0.25608012,-0.26690063,0.450459,0.20258509,-0.26413319,0.426146,0.19315895,-0.28496321,0.438449,0.20886445,-0.30401029,0.451776
0.24089432,-0.35563875,0.508621,0.24356953,-0.29935672,0.486353,0.23140698,-0.33577537,0.510159,0.19869202,-0.31899041,0.501686,0.1715937,-0.29379744,0.493684,0.14781351,-0.28385502,0.480968,0.23650278,-0.23650685,0.470935,0.18937487,-0.21328564,0.447279,0.16780899,-0.20147713,0.435451,0.15297288,-0.1981973,0.440409,0.24447027,-0.24319301,0.461144,0.18869624,-0.23598594,0.433359,0.17647912,-0.26675024,0.451075,0.18071043,-0.29477397,0.466685,0.25125812,-0.25254749,0.454756,0.19509561,-0.24658083,0.431369,0.18312437,-0.27257131,0.447024,0.19129174,-0.2958347,0.462722,0.25787053,-0.26901387,0.450329,0.20422695,-0.26447753,0.427259,0.19395745,-0.28427265,0.439359,0.20813663,-0.30420433,0.452169
0.24247602,-0.35538853,0.510305,0.24503177,-0.29748465,0.485856,0.24020931,-0.32902506,0.511618,0.20415752,-0.3155679,0.502998,0.17640562,-0.28981809,0.494476,0.15343141,-0.28000843,0.481595,0.23574785,-0.23293695,0.468467,0.1915713,-0.20958504,0.44493,0.16894657,-0.19771566,0.433161,0.15198552,-0.195068,0.437177,0.24380914,-0.23960047,0.458177,0.18964221,-0.22877547,0.428619,0.1757814,-0.25791666,0.444637,0.17877854,-0.28574596,0.460357,0.2507755,-0.24893875,0.451542,0.19690514,-0.23519391,0.420467,0.19414116,-0.26585161,0.434323,0.2114445,-0.29304824,0.452406,0.25971063,-0.26759714,0.447133,0.20798893,-0.25697775,0.422789,0.19649081,-0.27506068,0.433672,0.20552343,-0.29928125,0.446459
0.28296061,-0.35147203,0.520591,0.26955752,-0.29792393,0.494223,0.2690148,-0.33188985,0.520453,0.23935707,-0.31186791,0.509842,0.21240573,-0.28963859,0.500251,0.20061708,-0.28153722,0.486839,0.23974358,-0.23521015,0.473566,0.19939366,-0.20430856,0.450689,0.17748302,-0.18892187,0.439251,0.16009882,-0.17785655,0.436337,0.25121836,-0.23978748,0.464371,0.20058296,-0.23883783,0.429271,0.21400119,-0.26948728,0.444632,0.22682792,-0.29567206,0.46215,0.26518978,-0.24617067,0.458781,0.21529228,-0.23417782,0.429384,0.20527369,-0.26080539,0.443057,0.21495443,-0.28898652,0.460389,0.2803567,-0.26261656,0.455892,0.22500869,-0.2587819,0.429488,0.22403218,-0.27086195,0.440002,0.2298946,-0.2828211,0.45352
0.2826499,-0.34738924,0.521816,0.26760423,-0.28560826,0.491271,0.26804834,-0.32663234,0.52001,0.22753546,-0.30546242,0.507521,0.19251419,-0.28459187,0.493508,0.17259125,-0.27746933,0.478619,0.23981172,-0.21990672,0.465328,0.19496653,-0.1933002,0.439081,0.17220585,-0.18154919,0.425958,0.15365898,-0.17033847,0.419309,0.25150241,-0.22396005,0.456691,0.20196016,-0.19914587,0.42125,0.19793493,-0.23003711,0.433876,0.21414558,-0.25011969,0.450659,0.26238057,-0.23138869,0.451874,0.21646247,-0.21184915,0.420305,0.20548562,-0.23585947,0.431496,0.21534792,-0.25978945,0.448714,0.27782669,-0.24829104,0.450506,0.23217098,-0.23600634,0.420981,0.2246974,-0.25010518,0.429349,0.23731387,-0.26032451,0.442985
0.28382375,-0.34374237,0.523115,0.2740247,-0.27700325,0.49311,0.26951747,-0.31766644,0.520755,0.22902549,-0.30581613,0.507318,0.19459308,-0.28204435,0.492097,0.17287896,-0.27344925,0.476523,0.24972063,-0.21097896,0.466909,0.20344204,-0.19149007,0.440315,0.18003177,-0.18168246,0.427018,0.15505756,-0.17102028,0.417176,0.26136554,-0.2151289,0.459142,0.21344049,-0.18611017,0.423789,0.19956358,-0.20927569,0.437581,0.20624363,-0.23570753,0.454698,0.27205969,-0.22266834,0.455,0.22328048,-0.20495507,0.423767,0.2105112,-0.22617,0.435987,0.21629836,-0.25318191,0.45348,0.28697284,-0.23981588,0.454359,0.2400669,-0.22104443,0.424613,0.23517542,-0.23907293,0.433789,0.24989925,-0.25264826,0.447816
0.31846851,-0.33969901,0.528387,0.29697642,-0.28172475,0.500072,0.29919171,-0.32334309,0.526557,0.25914355,-0.30886129,0.513657,0.22178323,-0.29233531,0.497735,0.1993171,-0.27735436,0.483863,0.25852202,-0.22124987,0.475832,0.21800116,-0.19614496,0.44684,0.19747446,-0.18346755,0.432344,0.17850609,-0.17307152,0.419532,0.27304247,-0.21965979,0.468017,0.22866005,-0.18851618,0.434107,0.22928846,-0.22099464,0.44923,0.24605835,-0.24309934,0.466243,0.28677751,-0.22237393,0.463708,0.24364025,-0.20388844,0.432795,0.23644241,-0.22685525,0.446114,0.24444761,-0.25668521,0.463917,0.30673826,-0.23351939,0.462628,0.27090359,-0.21878971,0.434029,0.2637887,-0.23704403,0.444167,0.27312119,-0.24999174,0.458163
0.32937778,-0.33966429,0.528333,0.31812162,-0.28173489,0.50009,0.32054934,-0.32314597,0.526236,0.28057915,-0.30842655,0.512934,0.24304067,-0.2916681,0.496599,0.22033144,-0.27561066,0.483023,0.27850054,-0.22113177,0.475578,0.23819877,-0.19598869,0.446484,0.21780287,-0.18329484,0.431937,0.19881915,-0.17273324,0.418712,0.29334907,-0.21970625,0.468116,0.24911536,-0.18853008,0.434139,0.25079422,-0.22114911,0.449544,0.267806,-0.24332146,0.466669,0.30743812,-0.22255808,0.464092,0.26514337,-0.20439345,0.433867,0.2593226,-0.22754581,0.447472,0.26766411,-0.2573464,0.465112,0.32796781,-0.23387928,0.463341,0.29245134,-0.21906746,0.43458,0.28570919,-0.23744002,0.444909,0.29504127,-0.25046863,0.459037
0.32847643,-0.33550295,0.526093,0.31576523,-0.27440435,0.504365,0.30845223,-0.31854897,0.522943,0.27424876,-0.29693277,0.507898,0.24035359,-0.27982738,0.487154,0.21968578,-0.26112283,0.471928,0.2825297,-0.21639381,0.483627,0.24731238,-0.19406577,0.458513,0.22930737,-0.18268792,0.445957,0.2126391,-0.17230161,0.434541,0.30025956,-0.21559594,0.479766,0.25842529,-0.20466579,0.450636,0.27052472,-0.24101311,0.471398,0.28998874,-0.25664042,0.488452,0.3162607,-0.21873807,0.478217,0.27622038,-0.19910974,0.451514,0.27778328,-0.22157831,0.469715,0.29174351,-0.25341091,0.487768,0.33811522,-0.23003111,0.479485,0.31197788,-0.20492901,0.453627,0.30625914,-0.22432644,0.467753,0.31325829,-0.24108833,0.482331
0.3358847,-0.33241284,0.525519,0.32607266,-0.27424331,0.504069,0.31572704,-0.31550118,0.522161,0.28459183,-0.29631891,0.506848,0.2506083,-0.27898874,0.485694,0.22956047,-0.2591706,0.471179,0.29222831,-0.21624392,0.483292,0.25722781,-0.19390155,0.458125,0.23934768,-0.18251751,0.445541,0.22280571,-0.17212714,0.434101,0.3102813,-0.21560492,0.479786,0.26878178,-0.20475481,0.450832,0.2813677,-0.24122427,0.471811,0.30085041,-0.25685952,0.488869,0.32659213,-0.21887072,0.478507,0.28686394,-0.19925835,0.451851,0.28797143,-0.21840941,0.470233,0.29548332,-0.25207919,0.48834,0.34888347,-0.230306,0.480058,0.3230605,-0.2052109,0.454251,0.31724569,-0.22398374,0.468528,0.3176366,-0.24183495,0.483146
0.37099654,-0.34243137,0.537479,0.35079705,-0.2862378,0.513927,0.34707965,-0.32566613,0.53202,0.3140803,-0.30597116,0.513965,0.28212186,-0.2857581,0.493264,0.26344659,-0.26612008,0.478856,0.30785651,-0.22701987,0.488945,0.2705151,-0.20180882,0.461556,0.25157417,-0.18903523,0.447861,0.23417374,-0.17731011,0.435411,0.32827975,-0.22627498,0.487265,0.28850335,-0.20803399,0.455918,0.30379607,-0.24470272,0.476227,0.32350545,-0.26304118,0.493941,0.34700567,-0.22953765,0.487647,0.30866592,-0.2053195,0.458102,0.31169969,-0.22149239,0.475873,0.32339102,-0.253595,0.494903,0.3730492,-0.24111458,0.491479,0.32745502,-0.20740831,0.463237,0.30720023,-0.19546641,0.450262,0.29951048,-0.19144364,0.454365
0.36435462,-0.33767724,0.525656,0.36219183,-0.29211375,0.517156,0.34658708,-0.32503851,0.52695,0.31935651,-0.31457829,0.518547,0.2917436,-0.29757052,0.513731,0.27385539,-0.28030979,0.510808,0.3402525,-0.24333284,0.512136,0.3081342,-0.21716381,0.500324,0.30627601,-0.21389389,0.519689,0.302901,-0.2094935,0.537293,0.35778881,-0.24071045,0.507532,0.32422076,-0.20895898,0.491635,0.30930537,-0.19533751,0.491626,0.31154993,-0.21229855,0.50774,0.37292739,-0.24186609,0.504382,0.34128214,-0.22673198,0.490487,0.34622889,-0.2402955,0.512304,0.35584856,-0.2669279,0.526631,0.39232108,-0.24983873,0.501842,0.35695491,-0.22161143,0.487219,0.34011122,-0.21067166,0.480501,0.32492914,-0.2018178,0.474573
0.34284793,-0.35190789,0.507859,0.34744453,-0.3090911,0.508358,0.31975253,-0.33208419,0.501391,0.29227202,-0.29826899,0.485415,0.2726758,-0.27442704,0.476702,0.26200316,-0.25132695,0.471531,0.3231703,-0.25474387,0.500826,0.30332515,-0.2129654,0.48959,0.31457047,-0.21589697,0.508828,0.32274838,-0.21726586,0.526317,0.35249713,-0.26214363,0.508922,0.34534207,-0.21755425,0.500622,0.34052133,-0.20496447,0.495781,0.34857121,-0.20470769,0.509275,0.37696516,-0.27142683,0.515547,0.36753785,-0.2209532,0.504612,0.36281584,-0.2018099,0.499018,0.37313517,-0.212735,0.513157,0.40641694,-0.28883633,0.523377,0.39763643,-0.24462974,0.514787,0.39514002,-0.23785997,0.510841,0.3931552,-0.2358424,0.507358
0.38001186,-0.35772085,0.542268,0.37308977,-0.3125323,0.52489,0.35423443,-0.33695483,0.531702,0.32403792,-0.31064075,0.50816,0.29528037,-0.28147479,0.48714,0.28292767,-0.26030044,0.47581,0.33387988,-0.24991711,0.498452,0.30487524,-0.19946163,0.472415,0.31312495,-0.20173854,0.489461,0.32024214,-0.20312385,0.504958,0.36246475,-0.255996,0.505217,0.34329922,-0.20337805,0.478624,0.33310194,-0.18512247,0.463112,0.33916611,-0.1788059,0.470516,0.38704766,-0.26475154,0.512083,0.3632306,-0.20924436,0.484204,0.35295545,-0.1914776,0.469941,0.35920799,-0.18297599,0.477698,0.41825998,-0.28252712,0.522767,0.39729907,-0.2380481,0.496516,0.38771105,-0.21777987,0.484455,0.37962166,-0.20187311,0.473813
0.39068175,-0.36651447,0.546406,0.38592282,-0.3144061,0.528037,0.364257,-0.34620033,0.536369,0.33797945,-0.31377002,0.513279,0.3082027,-0.28367914,0.490955,0.29517769,-0.26182184,0.478591,0.3462242,-0.25143381,0.501477,0.31646858,-0.20061428,0.475145,0.31861682,-0.19858218,0.481803,0.32033901,-0.19624482,0.487857,0.37431297,-0.25702208,0.507242,0.35440622,-0.20385948,0.479757,0.34402673,-0.18536671,0.463723,0.35051434,-0.17895107,0.470898,0.39848557,-0.26541228,0.513361,0.37422226,-0.20967952,0.485211,0.36397675,-0.19183086,0.470808,0.37078893,-0.18328242,0.478498,0.42926919,-0.28281194,0.523294,0.40789228,-0.2380457,0.496511,0.39811845,-0.21766749,0.484205,0.38990948,-0.20167414,0.473346
0.37922892,-0.35232437,0.531992,0.38222874,-0.30306616,0.524818,0.35673599,-0.33500938,0.526733,0.33532086,-0.30296338,0.510524,0.31082679,-0.27625271,0.494704,0.30046855,-0.25558721,0.485609,0.35162218,-0.24659519,0.512805,0.33891289,-0.21216661,0.497263,0.33250835,-0.19417786,0.489506,0.32669805,-0.1773356,0.48253,0.37850509,-0.25085373,0.516697,0.37062025,-0.20268808,0.50065,0.36436893,-0.18135289,0.49129,0.37379349,-0.17184669,0.503272,0.40127841,-0.2578326,0.520435,0.3957627,-0.20583261,0.504412,0.39092894,-0.18855147,0.496214,0.40298465,-0.17950265,0.509466,0.42951876,-0.27297428,0.525924,0.42975962,-0.22809049,0.516233,0.42856707,-0.21540074,0.51178,0.42761679,-0.20376959,0.507851
0.38919487,-0.35145135,0.530122,0.39095883,-0.30452411,0.52401,0.36607293,-0.33544496,0.525545,0.34510654,-0.30860092,0.510288,0.31857458,-0.28417149,0.49461,0.30284165,-0.26523984,0.486232,0.35481044,-0.25520025,0.513657,0.34418757,-0.20633254,0.500225,0.33995005,-0.19198023,0.49351,0.33611359,-0.17842325,0.487404,0.38026598,-0.2524638,0.517091,0.37236791,-0.20417276,0.502426,0.36751857,-0.18261787,0.493872,0.37806574,-0.17390237,0.506344,0.40285487,-0.25791807,0.520374,0.39986909,-0.21098481,0.505925,0.39542118,-0.18934379,0.498532,0.40939348,-0.18013837,0.512389,0.4329044,-0.26944204,0.525167,0.42847626,-0.22657106,0.512347,0.42753995,-0.21380977,0.506457,0.42666725,-0.20269808,0.5039
0.39859593,-0.3568515,0.539498,0.39466323,-0.30479152,0.526792,0.3725538,-0.33835736,0.531487,0.3470706,-0.3011461,0.511344,0.31702783,-0.26972511,0.490419,0.30540407,-0.24752885,0.478143,0.35713018,-0.2443015,0.507111,0.34027084,-0.1975535,0.486122,0.32996235,-0.18376429,0.475627,0.32323834,-0.16954243,0.466086,0.38508151,-0.24807094,0.512407,0.37290309,-0.19573216,0.49057,0.36575959,-0.17193767,0.477831,0.37513922,-0.16156287,0.487519,0.40919623,-0.25480089,0.517716,0.3974278,-0.20233612,0.495823,0.39166082,-0.17968647,0.484623,0.40145372,-0.17398719,0.495296,0.44002338,-0.26995845,0.52587,0.42822191,-0.21995913,0.505192,0.42348657,-0.20677567,0.495691,0.41487001,-0.19565129,0.487307
0.42113456,-0.34221116,0.531442,0.40689378,-0.29369959,0.521705,0.39488777,-0.328217,0.526466,0.35716818,-0.29842019,0.510183,0.32651659,-0.27139679,0.490652,0.30860142,-0.24937305,0.480122,0.36513231,-0.2416761,0.508047,0.34954018,-0.19471924,0.491011,0.34198915,-0.17995351,0.482493,0.33312025,-0.16882023,0.47475,0.39110615,-0.24094327,0.510682,0.37448522,-0.19486621,0.492157,0.3653644,-0.16500504,0.481351,0.35856132,-0.14447729,0.473632,0.41377637,-0.24375361,0.513578,0.40521792,-0.19431955,0.495712,0.40082757,-0.17022289,0.486572,0.39689213,-0.14793978,0.478262,0.44332561,-0.25378749,0.51843,0.43247912,-0.20636447,0.50112,0.42771938,-0.19744552,0.493167,0.42097147,-0.19192885,0.486149
0.41705086,-0.35236601,0.540106,0.4161459,-0.30389055,0.531013,0.40039793,-0.33406972,0.533189,0.37157547,-0.30690207,0.518925,0.33958435,-0.27646879,0.496795,0.32663931,-0.25607305,0.48899,0.37646463,-0.25000558,0.515479,0.3586425,-0.20246072,0.498027,0.35348938,-0.1863885,0.489301,0.34884242,-0.17135759,0.481368,0.40410518,-0.25161734,0.520718,0.39273993,-0.20108764,0.502574,0.38678658,-0.17240942,0.491989,0.38255437,-0.15171785,0.484429,0.42772395,-0.25637689,0.52571,0.417967,-0.20765806,0.507764,0.41301414,-0.18240764,0.498582,0.40853703,-0.15924428,0.490235,0.45758703,-0.26867527,0.532968,0.44653256,-0.22832851,0.514114,0.44151661,-0.20941537,0.505452,0.43600071,-0.19458044,0.497809
0.41581047,-0.35113563,0.53961,0.41360166,-0.30148323,0.531468,0.38997663,-0.33460124,0.532964,0.36127659,-0.29899667,0.518763,0.3313307,-0.27174365,0.494147,0.32415448,-0.25242442,0.486201,0.37887642,-0.24330462,0.517,0.3658364,-0.20027531,0.500354,0.35898953,-0.18100782,0.49203,0.35184997,-0.16847396,0.484464,0.40603051,-0.25071451,0.522244,0.39719731,-0.19749078,0.505074,0.39018966,-0.17197895,0.495057,0.38597262,-0.1528788,0.487903,0.42964719,-0.25720716,0.527168,0.42090765,-0.20459296,0.510063,0.41556128,-0.18308659,0.501311,0.41121658,-0.16135932,0.493355,0.45910031,-0.27164243,0.534209,0.44941075,-0.22790453,0.516887,0.44540449,-0.20449777,0.508928,0.44138813,-0.19629039,0.501905
0.40794965,-0.35226871,0.539025,0.40846404,-0.30137904,0.531288,0.38631576,-0.33283594,0.532675,0.35923177,-0.29794494,0.517687,0.33076432,-0.26992968,0.492712,0.32231501,-0.24989103,0.484089,0.38055349,-0.2432352,0.517497,0.36653578,-0.19912241,0.501025,0.35956388,-0.17918779,0.492788,0.3530606,-0.16816023,0.485301,0.40722246,-0.25077916,0.522523,0.3996275,-0.19909485,0.50579,0.39743532,-0.17366585,0.49603,0.38945426,-0.15354053,0.489058,0.43039446,-0.25830202,0.527237,0.42049728,-0.2073072,0.510138,0.41558156,-0.18342797,0.50139,0.41115104,-0.16137845,0.493437,0.45911146,-0.27634089,0.53397,0.45008681,-0.22879708,0.517152,0.44695701,-0.21286041,0.509424,0.44277145,-0.19652971,0.502606
0.41520744,-0.35072018,0.539783,0.41320725,-0.30217206,0.532008,0.39185336,-0.33236053,0.5334,0.36111886,-0.29938314,0.515853,0.33380811,-0.269612,0.494176,0.32264196,-0.24963033,0.483377,0.38165262,-0.24451327,0.518152,0.36761266,-0.19989561,0.501934,0.36064621,-0.18023548,0.493825,0.35465794,-0.16565505,0.486453,0.40854654,-0.2510757,0.52321,0.3988503,-0.20014825,0.506438,0.39339329,-0.17316752,0.496654,0.38947581,-0.15457948,0.489666,0.43191709,-0.25853628,0.527954,0.42340441,-0.2052866,0.511237,0.41759836,-0.18369409,0.502684,0.41337483,-0.16194965,0.494908,0.46116676,-0.27247358,0.53473,0.45244399,-0.2262231,0.518564,0.44795658,-0.20455164,0.511137,0.44546958,-0.19352733,0.504583
0.41514755,-0.35124145,0.54015,0.41330017,-0.30309833,0.532391,0.3904692,-0.33378328,0.533873,0.3616315,-0.29996638,0.516448,0.33485742,-0.27024174,0.495211,0.32349281,-0.24967456,0.483846,0.3833576,-0.24618708,0.518679,0.36818824,-0.20065383,0.502302,0.36134251,-0.18258143,0.494113,0.35455118,-0.16778379,0.486669,0.40980131,-0.25257281,0.523612,0.39972275,-0.20166523,0.506859,0.39423661,-0.17507857,0.497087,0.39071556,-0.15658143,0.490107,0.43408026,-0.26102882,0.528251,0.4226009,-0.2100358,0.511335,0.41867093,-0.1842738,0.50268,0.41400845,-0.16247938,0.494812,0.46120606,-0.28021188,0.534899,0.45112401,-0.23188741,0.518251,0.44769564,-0.21282365,0.510602,0.44391461,-0.19417655,0.503853
