sluyters/QuantumLeap/backend/src/datasets/dynamic/HandGestureDataset_SHREC2017_csv/Gesture8/finger_1/subject_19_essai_5_skeletons_world.csv
Wrist_x,Wrist_y,Wrist_z,Palm_x,Palm_y,Palm_z,thumb_base_x,thumb_base_y,thumb_base_z,thumb_first_joint_x,thumb_first_joint_y,thumb_first_joint_z,thumb_second_joint_x,thumb_second_joint_y,thumb_second_joint_z,thumb_tip_x,thumb_tip_y,thumb_tip_z,index_base_x,index_base_y,index_base_z,index_first_joint_x,index_first_joint_y,index_first_joint_z,index_second_joint_x,index_second_joint_y,index_second_joint_z,index_tip_x,index_tip_y,index_tip_z,middle_base_x,middle_base_y,middle_base_z,middle_first_joint_x,middle_first_joint_y,middle_first_joint_z,middle_second_joint_x,middle_second_joint_y,middle_second_joint_z,middle_tip_x,middle_tip_y,middle_tip_z,ring_base_x,ring_base_y,ring_base_z,ring_first_joint_x,ring_first_joint_y,ring_first_joint_z,ring_second_joint_x,ring_second_joint_y,ring_second_joint_z,ring_tip_x,ring_tip_y,ring_tip_z,pinky_base_x,pinky_base_y,pinky_base_z,pinky_first_joint_x,pinky_first_joint_y,pinky_first_joint_z,pinky_second_joint_x,pinky_second_joint_y,pinky_second_joint_z,pinky_tip_x,pinky_tip_y,pinky_tip_z,
0.47432774,-0.39589858,0.565615,0.46678884,-0.35595187,0.558314,0.45625107,-0.3867465,0.569744,0.44504524,-0.36065315,0.575624,0.43222747,-0.32706155,0.568126,0.42770374,-0.30400596,0.563155,0.44738178,-0.30623214,0.557164,0.44074284,-0.26493735,0.547548,0.4374277,-0.24417255,0.542741,0.44416763,-0.22726349,0.55089,0.46495838,-0.30546519,0.549407,0.44435778,-0.28871272,0.533407,0.43535948,-0.30610072,0.524074,0.44639658,-0.32853573,0.534824,0.47944274,-0.30810851,0.543588,0.46347014,-0.3003331,0.533179,0.47453926,-0.33402421,0.553293,0.4794044,-0.35788738,0.565532,0.49711625,-0.31767479,0.537724,0.47379023,-0.30314276,0.526747,0.48228576,-0.32848444,0.541997,0.49132525,-0.34578001,0.551774
0.46000153,-0.39778338,0.559444,0.45206232,-0.35531942,0.554401,0.44488374,-0.38458705,0.564465,0.42947144,-0.35868843,0.571265,0.41624255,-0.32460073,0.55992,0.42414515,-0.30383098,0.56124,0.43642769,-0.30420458,0.556258,0.43411056,-0.26275986,0.547734,0.43597127,-0.24162244,0.543473,0.44495922,-0.226322,0.55356,0.45380412,-0.30325009,0.548248,0.43634428,-0.28897048,0.534519,0.4262914,-0.30566174,0.52651,0.43592503,-0.32983664,0.537973,0.46793374,-0.30562604,0.542046,0.45339787,-0.29885531,0.533871,0.46425782,-0.33266245,0.554239,0.46859927,-0.35977859,0.565677,0.48480391,-0.31463412,0.535391,0.46460522,-0.30319003,0.526306,0.47250406,-0.32834821,0.541794,0.48003825,-0.34779142,0.550997
0.44540352,-0.39747398,0.552241,0.44125955,-0.35503617,0.550315,0.42783542,-0.38549652,0.559248,0.41807197,-0.36031594,0.566143,0.40947533,-0.33332906,0.562393,0.41203099,-0.31463166,0.561949,0.43039431,-0.30487295,0.557249,0.42496462,-0.26449239,0.549736,0.42225311,-0.24394168,0.545979,0.42635886,-0.22871912,0.551227,0.44650117,-0.303077,0.547965,0.42342699,-0.29529542,0.537383,0.41304238,-0.31542177,0.53121,0.42523748,-0.33963023,0.543331,0.45947111,-0.3048256,0.540476,0.4411713,-0.29683584,0.534759,0.45117696,-0.33127812,0.554991,0.45461001,-0.35863099,0.565381,0.47453125,-0.31318628,0.531822,0.45042148,-0.30733851,0.525817,0.45771846,-0.33363275,0.541314,0.46620944,-0.35202721,0.549645
0.42607435,-0.3988728,0.551159,0.42206279,-0.35552212,0.54987,0.4036097,-0.38675661,0.558336,0.39573778,-0.35911093,0.564563,0.38617292,-0.33126001,0.559354,0.38786877,-0.31196928,0.557741,0.41191656,-0.30502871,0.557552,0.40753822,-0.26461305,0.551926,0.40499163,-0.24436685,0.549114,0.40717849,-0.22836683,0.552819,0.4288203,-0.30403152,0.548297,0.40912479,-0.29658415,0.538372,0.3960391,-0.31664601,0.532583,0.40471403,-0.34061156,0.544908,0.44219909,-0.30637816,0.540782,0.42375792,-0.29712976,0.528416,0.43974523,-0.3317176,0.54832,0.45478482,-0.35684602,0.563893,0.45737286,-0.31529848,0.532004,0.43761356,-0.3155031,0.526501,0.45102999,-0.34307016,0.54206,0.46837659,-0.35744254,0.554035
0.40902382,-0.39754762,0.546863,0.40668516,-0.35634358,0.547792,0.39614181,-0.3873739,0.555046,0.37871551,-0.36410429,0.562978,0.36694226,-0.33730443,0.561334,0.36744319,-0.318309,0.561235,0.39197128,-0.31182312,0.558589,0.3884844,-0.2706181,0.552774,0.39281451,-0.25376501,0.558498,0.39696674,-0.23792863,0.563994,0.4087542,-0.30663034,0.548925,0.38825511,-0.29433651,0.541294,0.37812,-0.31329123,0.536842,0.38916151,-0.33954337,0.549701,0.4223381,-0.30541774,0.540903,0.40242319,-0.29854393,0.530591,0.41782256,-0.3329516,0.550483,0.43508807,-0.35740848,0.565541,0.4383627,-0.30986356,0.531191,0.41698622,-0.30967836,0.527691,0.42996225,-0.33707696,0.543298,0.4427168,-0.35625464,0.552988
0.39429671,-0.39891498,0.545797,0.38125219,-0.35287782,0.540373,0.3684596,-0.38920076,0.550889,0.35383917,-0.36508986,0.552329,0.3260444,-0.33168618,0.538811,0.32077771,-0.3107251,0.528438,0.36036098,-0.30448936,0.541996,0.35072465,-0.2632931,0.531759,0.35322624,-0.24781714,0.537899,0.35543774,-0.23298981,0.543482,0.37730283,-0.29951045,0.533756,0.35064117,-0.28284075,0.519633,0.33829225,-0.29831056,0.511394,0.3486389,-0.32290361,0.52267,0.39152061,-0.29867271,0.527396,0.36570892,-0.2878474,0.511351,0.38056791,-0.32128523,0.531182,0.3978994,-0.3448043,0.545583,0.40927535,-0.30401494,0.520607,0.38225788,-0.30007892,0.511324,0.39483637,-0.32676975,0.526713,0.40733707,-0.34524915,0.535947
0.37453888,-0.39949513,0.542487,0.36027377,-0.3555909,0.537721,0.36055105,-0.39163487,0.550359,0.3393434,-0.37442891,0.557289,0.3133763,-0.34338975,0.546786,0.30845097,-0.32381833,0.537298,0.33862104,-0.31002187,0.543302,0.32886875,-0.26741957,0.533636,0.32975245,-0.25184976,0.539969,0.33021009,-0.23709926,0.545726,0.35226338,-0.30177728,0.531906,0.32714441,-0.26005663,0.518414,0.31086692,-0.27011395,0.510544,0.31604615,-0.294414,0.521058,0.36396872,-0.29831267,0.522899,0.32970651,-0.29269152,0.506504,0.34038259,-0.32609322,0.525037,0.34937394,-0.35536456,0.539061,0.3790573,-0.30058235,0.512854,0.34942756,-0.30484727,0.505614,0.36421257,-0.33036044,0.520152,0.38022236,-0.34201131,0.528337
0.36414029,-0.40454016,0.546185,0.35103114,-0.35680915,0.539542,0.34964477,-0.3965742,0.553353,0.32994203,-0.37635403,0.56014,0.30415275,-0.34542898,0.55002,0.30014318,-0.32688914,0.54239,0.32808811,-0.30967256,0.542667,0.3174365,-0.26632735,0.53142,0.31847955,-0.25111774,0.538362,0.31906402,-0.23665915,0.544672,0.34182612,-0.30152582,0.531437,0.31084532,-0.26738919,0.516048,0.29583442,-0.28135443,0.507071,0.30427358,-0.30563209,0.516991,0.3536984,-0.29822065,0.52271,0.31792152,-0.29156937,0.504565,0.32812163,-0.32476354,0.522896,0.33729177,-0.3543659,0.537546,0.36917472,-0.30084749,0.513277,0.33806252,-0.30415884,0.504478,0.35243214,-0.32951545,0.518822,0.36877263,-0.34145776,0.52748
0.34263241,-0.39646341,0.536642,0.3251808,-0.34855828,0.530383,0.31476711,-0.38556422,0.538118,0.29877285,-0.36618346,0.54393,0.27136613,-0.33864005,0.536293,0.26314286,-0.31739382,0.529309,0.2993312,-0.30208092,0.526872,0.27360644,-0.26968355,0.514967,0.27077702,-0.28395903,0.533777,0.27401026,-0.30983301,0.550877,0.31662762,-0.29567278,0.522745,0.28567751,-0.25616269,0.508058,0.2682662,-0.26077196,0.49949,0.27550859,-0.28500404,0.511329,0.33177798,-0.29355963,0.519833,0.29650742,-0.28695616,0.504495,0.30871295,-0.3219075,0.525346,0.31854305,-0.35208106,0.539869,0.35167992,-0.29735361,0.517284,0.31643215,-0.2945699,0.505606,0.32971085,-0.32129871,0.52159,0.34436076,-0.33983679,0.531898
0.30281671,-0.39092258,0.527178,0.29727443,-0.3454748,0.522866,0.28511472,-0.37889173,0.527334,0.27191874,-0.36221255,0.536118,0.24637366,-0.33450768,0.529038,0.23897386,-0.31367226,0.522336,0.272304,-0.29661487,0.519396,0.24241997,-0.28130169,0.509917,0.23740591,-0.28631807,0.529238,0.23215514,-0.30618011,0.540697,0.2907264,-0.29297425,0.517605,0.26711093,-0.24832585,0.505785,0.25339051,-0.22240527,0.498889,0.24624162,-0.21989081,0.509556,0.30681475,-0.29317671,0.516465,0.27319172,-0.29353472,0.505736,0.2785611,-0.32882186,0.527263,0.294137,-0.35181195,0.540196,0.32767701,-0.29987382,0.515742,0.28981054,-0.29924123,0.504742,0.28776357,-0.32341451,0.521109,0.29666129,-0.34234851,0.531326
0.29638351,-0.38772282,0.522973,0.28685228,-0.3471247,0.525052,0.27964492,-0.3788759,0.526347,0.26095211,-0.36192238,0.535926,0.23699554,-0.33831595,0.534205,0.2321874,-0.31953654,0.532264,0.26148801,-0.30515558,0.530944,0.23484601,-0.29380179,0.527772,0.22922334,-0.29926836,0.547389,0.2236844,-0.31878545,0.556477,0.28036374,-0.29912757,0.527589,0.26034402,-0.25631701,0.522628,0.24875188,-0.23154159,0.519735,0.24049927,-0.22367621,0.528357,0.29663819,-0.29711516,0.524668,0.26880463,-0.30227155,0.520788,0.27634265,-0.3390915,0.542644,0.29394666,-0.3644249,0.559007,0.31739365,-0.30057239,0.520875,0.28426784,-0.3051918,0.51566,0.28267337,-0.33054597,0.532406,0.29092519,-0.34903247,0.541833
0.289667,-0.38364911,0.518038,0.27214459,-0.34062834,0.516499,0.26555247,-0.3732571,0.517226,0.25416394,-0.35780484,0.529073,0.22293948,-0.33704165,0.522903,0.21386479,-0.31653293,0.519984,0.24068504,-0.29724653,0.5142,0.20986812,-0.28378692,0.50581,0.20259619,-0.28982321,0.525344,0.21038387,-0.30693228,0.536458,0.26101451,-0.29176909,0.514622,0.23611435,-0.24898808,0.505256,0.21934476,-0.22572733,0.499793,0.21402503,-0.21580121,0.511955,0.27893795,-0.29016438,0.515088,0.24972937,-0.29136285,0.505956,0.25973483,-0.32768616,0.527743,0.27950447,-0.35168983,0.540134,0.30252562,-0.29412915,0.515872,0.26778334,-0.29552375,0.506363,0.2682043,-0.32163669,0.522974,0.27480003,-0.34151466,0.532762
0.27902422,-0.38070337,0.514659,0.2608716,-0.33939971,0.514636,0.25392762,-0.37058082,0.513153,0.23765389,-0.3553878,0.524737,0.21122719,-0.33551336,0.520532,0.20227769,-0.31529841,0.517956,0.23016525,-0.29642332,0.512776,0.19916074,-0.28328366,0.504913,0.1911481,-0.28932063,0.524433,0.19297038,-0.30590156,0.535334,0.25097451,-0.29176172,0.514609,0.22680263,-0.24965089,0.506601,0.21029438,-0.22669248,0.50193,0.2044378,-0.21654775,0.513726,0.26929375,-0.29074461,0.516118,0.23979667,-0.29243338,0.507815,0.2492453,-0.32883921,0.5296,0.26433799,-0.3522465,0.541656,0.29328626,-0.29529855,0.517923,0.25844349,-0.29718765,0.509214,0.26052443,-0.32395893,0.525849,0.27321969,-0.34233378,0.535364
0.24657001,-0.38271323,0.516773,0.24258516,-0.34090434,0.516601,0.23429807,-0.37488701,0.520396,0.21534383,-0.36325654,0.533274,0.19597448,-0.34478242,0.533429,0.18465154,-0.32546204,0.530892,0.22528332,-0.29981941,0.520885,0.19040314,-0.29778061,0.516474,0.17956767,-0.31076645,0.535885,0.17526925,-0.32836061,0.545381,0.23796003,-0.29242267,0.516391,0.21741452,-0.24946491,0.50934,0.20072763,-0.22691359,0.505227,0.1936739,-0.21620025,0.515619,0.24910091,-0.28922861,0.512707,0.21275241,-0.29248351,0.507238,0.23277404,-0.32584542,0.528852,0.25420948,-0.34747782,0.539695,0.26365434,-0.29131616,0.508335,0.22284819,-0.29404179,0.501701,0.22120844,-0.31862711,0.518223,0.21694851,-0.33726448,0.526964
0.21767738,-0.36865419,0.504569,0.2219352,-0.33029514,0.508332,0.20810011,-0.36211534,0.510312,0.19673986,-0.34534069,0.527229,0.17705627,-0.31349621,0.516895,0.17709346,-0.2992441,0.51962,0.21430146,-0.29347508,0.51855,0.18123077,-0.29239457,0.518194,0.17836551,-0.31721282,0.537565,0.18656427,-0.34002612,0.545444,0.22696739,-0.28602395,0.512922,0.2073376,-0.24589823,0.510211,0.19023669,-0.22542324,0.508629,0.18138029,-0.21477075,0.517995,0.23742971,-0.28254851,0.508002,0.20061653,-0.26844394,0.506913,0.19942711,-0.29648045,0.52848,0.20943191,-0.32268019,0.537536,0.24988869,-0.28377582,0.501573,0.21229513,-0.28393768,0.49865,0.20653389,-0.30606685,0.515215,0.21396129,-0.32620278,0.522666
0.21293988,-0.36741536,0.5032,0.2122797,-0.3290639,0.507139,0.20404466,-0.36164238,0.509486,0.18596712,-0.34438687,0.524736,0.16494913,-0.31367688,0.515356,0.1634775,-0.30002285,0.519367,0.20538651,-0.29385662,0.518171,0.17064067,-0.29397519,0.518337,0.16694291,-0.31888791,0.537607,0.17535658,-0.34122988,0.54524,0.21643819,-0.28513535,0.511945,0.19498038,-0.24601128,0.509559,0.17660576,-0.22632041,0.508168,0.16667508,-0.2164776,0.518086,0.22560305,-0.28056672,0.506519,0.18647691,-0.26782426,0.505918,0.18420202,-0.29585483,0.527368,0.19448613,-0.32151855,0.53618,0.23658376,-0.28041118,0.49946,0.19795465,-0.2819913,0.496931,0.19174706,-0.30440066,0.513412,0.19964425,-0.32422151,0.520692
0.19887496,-0.36282085,0.499533,0.19463121,-0.3228981,0.502912,0.17626678,-0.35144887,0.500221,0.16457523,-0.33070361,0.513439,0.14680634,-0.29785946,0.503475,0.14486728,-0.2804481,0.508849,0.18164699,-0.28315281,0.506622,0.15267236,-0.27678847,0.502436,0.14279983,-0.28531938,0.522139,0.14381903,-0.30378637,0.531662,0.19960132,-0.27922003,0.507034,0.18308748,-0.23777147,0.502766,0.1652733,-0.21824351,0.500277,0.16141752,-0.21286231,0.514912,0.21462657,-0.27856955,0.507112,0.18275292,-0.26484373,0.502717,0.17532267,-0.29366119,0.524701,0.18060748,-0.3217945,0.535258,0.23283893,-0.28311754,0.506706,0.19495491,-0.27934935,0.501265,0.18681436,-0.30049247,0.518121,0.19153335,-0.32132293,0.526572
0.18403766,-0.35872165,0.49655,0.18496827,-0.32252031,0.50357,0.17210869,-0.35346234,0.504012,0.15736455,-0.33217551,0.519891,0.14091308,-0.29726192,0.508648,0.14307191,-0.28064072,0.51259,0.17567813,-0.28750314,0.518656,0.16440522,-0.25165716,0.518858,0.15858987,-0.23316653,0.51896,0.15761607,-0.22224828,0.534031,0.19226921,-0.28063304,0.512134,0.17321826,-0.2418123,0.513068,0.16177595,-0.21849918,0.513614,0.15465351,-0.2031171,0.518038,0.20561148,-0.27755258,0.506227,0.17475666,-0.26691256,0.508803,0.16886693,-0.2969734,0.530156,0.17688324,-0.32337033,0.537647,0.2209651,-0.27891658,0.498138,0.18715444,-0.27460056,0.498337,0.17753879,-0.29425999,0.514805,0.179068,-0.31341667,0.52112
0.17373567,-0.35951047,0.497382,0.17505736,-0.32388555,0.504131,0.16201779,-0.35454463,0.505741,0.14692232,-0.33390397,0.521226,0.13092782,-0.29923614,0.510653,0.13026807,-0.28082313,0.514881,0.16719446,-0.28985385,0.520086,0.15494098,-0.25421308,0.520338,0.14861704,-0.23582067,0.520464,0.14440152,-0.22128778,0.526604,0.18303763,-0.28209915,0.512366,0.16284179,-0.24375728,0.513317,0.14778435,-0.22224359,0.513872,0.13664995,-0.20633475,0.514269,0.19567323,-0.27828115,0.505494,0.16379262,-0.26718092,0.508457,0.15684917,-0.29650108,0.529522,0.16049249,-0.32290465,0.536741,0.21005176,-0.27872089,0.496293,0.17581146,-0.27368062,0.496776,0.16564398,-0.2931246,0.513022,0.16717048,-0.31225875,0.519151
0.1678536,-0.35904976,0.496373,0.16370339,-0.32342299,0.503061,0.15092496,-0.35446308,0.504641,0.13465122,-0.33304124,0.519512,0.11866356,-0.2982416,0.508735,0.11785258,-0.27986056,0.51302,0.15606906,-0.28923421,0.518851,0.14354232,-0.25349833,0.518985,0.13707951,-0.23506211,0.519052,0.13252904,-0.22036208,0.524835,0.17193258,-0.28152565,0.511221,0.15147487,-0.24309329,0.512084,0.1361645,-0.22152987,0.512587,0.12484443,-0.20558573,0.512947,0.18457449,-0.27775076,0.504427,0.15174638,-0.26657653,0.507281,0.14396842,-0.29594242,0.528372,0.14749519,-0.32241793,0.535645,0.19893703,-0.27825681,0.495329,0.16400215,-0.27316085,0.495721,0.15322589,-0.29263731,0.511985,0.15469027,-0.31182454,0.518153
0.16552992,-0.35771449,0.496728,0.16269068,-0.32008887,0.502533,0.14803432,-0.35132582,0.502462,0.12929244,-0.32538767,0.515413,0.11122322,-0.29082324,0.503893,0.11312185,-0.27496354,0.508316,0.1480025,-0.28386008,0.514475,0.13191935,-0.24907721,0.513706,0.123581,-0.23104296,0.513321,0.1107688,-0.21892674,0.512971,0.16626648,-0.27614481,0.509616,0.14296404,-0.23811149,0.508877,0.12891634,-0.21518354,0.508446,0.11477121,-0.21050844,0.508139,0.18115306,-0.27227488,0.50517,0.15009682,-0.26634297,0.505676,0.14254986,-0.29511938,0.52737,0.14632139,-0.32240983,0.535832,0.19874365,-0.27250127,0.499005,0.16316915,-0.26854942,0.497494,0.1525681,-0.28808391,0.514193,0.14562768,-0.3063587,0.521199
0.15185522,-0.35346005,0.494416,0.1508646,-0.31727061,0.5024,0.13943105,-0.34882946,0.501353,0.11702697,-0.32431145,0.515536,0.10110033,-0.29365854,0.511116,0.098611399,-0.27332095,0.511828,0.14493956,-0.2869332,0.517664,0.1260057,-0.25474856,0.519014,0.11557101,-0.2381792,0.519688,0.10576869,-0.22261205,0.520302,0.1612397,-0.27892792,0.512142,0.13609797,-0.24342925,0.513866,0.1207219,-0.2217143,0.514871,0.10796325,-0.20663428,0.51559,0.1742046,-0.27464321,0.506983,0.13862299,-0.26833745,0.509982,0.12878175,-0.29619972,0.531501,0.13018299,-0.32305177,0.538886,0.18884081,-0.27407804,0.499643,0.15143126,-0.26919983,0.500256,0.13968868,-0.28849952,0.516864,0.13107343,-0.30550692,0.523089
0.15405789,-0.35276728,0.493726,0.15070662,-0.31604748,0.502228,0.13837417,-0.34840843,0.501582,0.11637656,-0.32631506,0.516281,0.094584599,-0.29896526,0.510666,0.088059727,-0.27848206,0.509916,0.13748681,-0.28858427,0.519056,0.11781872,-0.25609534,0.52102,0.10758302,-0.2391829,0.522003,0.098034795,-0.22340358,0.522896,0.15362192,-0.27748406,0.512602,0.12587226,-0.24352342,0.515099,0.10898279,-0.22284291,0.516555,0.096588477,-0.20766186,0.517596,0.16679743,-0.27061434,0.506637,0.13166709,-0.26784999,0.510643,0.12570515,-0.29558844,0.531952,0.1276043,-0.32212553,0.538846,0.18242383,-0.26680841,0.498258,0.14527041,-0.26585444,0.499698,0.13670734,-0.28686687,0.51616,0.12701633,-0.30312228,0.522035
0.14824568,-0.3505688,0.49334,0.14123898,-0.3146202,0.501611,0.13036053,-0.34650766,0.501144,0.10567456,-0.32733984,0.515356,0.084741946,-0.29856847,0.509907,0.078165627,-0.27801409,0.509023,0.12833649,-0.28812133,0.518179,0.10837288,-0.25548546,0.519816,0.097994847,-0.23851506,0.520635,0.088320597,-0.22269258,0.521379,0.1444363,-0.27701248,0.511703,0.11640791,-0.24295321,0.513958,0.098475925,-0.22269214,0.515274,0.084838403,-0.20798639,0.516213,0.15757068,-0.270144,0.505737,0.12163117,-0.26726848,0.509526,0.11297071,-0.29543024,0.530841,0.12130244,-0.32121249,0.537826,0.17312795,-0.26635657,0.497393,0.13544491,-0.26530272,0.498643,0.12363962,-0.28506801,0.515105,0.1127463,-0.30081818,0.521048
0.14768022,-0.35341707,0.497564,0.1430362,-0.32028553,0.509088,0.13034423,-0.35050623,0.506226,0.10993678,-0.33006883,0.518987,0.089309267,-0.31621621,0.527694,0.086599627,-0.30892954,0.535783,0.1315829,-0.29515335,0.529467,0.11113332,-0.26366226,0.534163,0.10038375,-0.24708867,0.536511,0.091370316,-0.234281,0.545068,0.14776675,-0.28400996,0.523148,0.1089955,-0.27854898,0.528863,0.09876937,-0.3015156,0.532197,0.10836738,-0.33114302,0.548898,0.16090454,-0.27703632,0.517061,0.12428681,-0.27597835,0.524019,0.11485677,-0.30449105,0.545139,0.11963678,-0.33067052,0.550767,0.17627867,-0.2730018,0.50809,0.13819433,-0.27338145,0.512097,0.12582347,-0.29340903,0.528472,0.11438592,-0.30892696,0.533412
0.14611752,-0.35280156,0.496711,0.14265803,-0.32040839,0.508451,0.12928796,-0.3502987,0.505314,0.10527709,-0.32918206,0.515444,0.086258919,-0.31534075,0.523722,0.082459313,-0.30696705,0.531601,0.13138392,-0.29525492,0.528943,0.11070657,-0.2640992,0.533932,0.099819528,-0.24767228,0.536427,0.090655472,-0.23498603,0.545102,0.14748531,-0.28421644,0.522776,0.10860939,-0.2788553,0.52869,0.098485889,-0.30197957,0.53214,0.10816227,-0.33165667,0.548898,0.16056265,-0.27732149,0.516798,0.12378293,-0.2765511,0.523893,0.11427209,-0.30513805,0.545025,0.11912892,-0.33129204,0.550602,0.17586433,-0.27337571,0.507924,0.13770329,-0.27391984,0.512058,0.12571846,-0.2944377,0.528446,0.11512101,-0.31042027,0.533345
0.1449992,-0.3529074,0.496774,0.14213165,-0.32070687,0.508367,0.1286856,-0.3510947,0.505888,0.10356596,-0.32750813,0.510515,0.082763331,-0.31396153,0.51966,0.080666568,-0.3061176,0.530931,0.13099589,-0.29579059,0.529356,0.10997981,-0.26477789,0.534475,0.0989062,-0.24841182,0.537035,0.089379151,-0.23533686,0.544743,0.14681847,-0.28431409,0.52251,0.1074882,-0.27903758,0.52843,0.09739532,-0.30226086,0.531882,0.1071466,-0.33188578,0.548533,0.15964615,-0.27707956,0.515984,0.12267688,-0.27663961,0.523295,0.11365308,-0.30571107,0.54429,0.1196354,-0.33149688,0.549726,0.17463204,-0.27274956,0.506479,0.13642778,-0.27354293,0.510768,0.12455641,-0.29420175,0.527051,0.1142547,-0.31031251,0.531855
0.1439498,-0.3527764,0.49621,0.14167663,-0.32096662,0.50782,0.12799605,-0.35124211,0.505282,0.10318365,-0.32788863,0.509857,0.082527464,-0.31417853,0.51912,0.079675812,-0.30587265,0.530017,0.13055717,-0.29603296,0.528774,0.10888335,-0.26586265,0.533981,0.097504503,-0.24965343,0.536585,0.088580102,-0.23587793,0.544332,0.14631528,-0.2845596,0.521985,0.1056523,-0.28580776,0.52791,0.098088544,-0.31098413,0.531365,0.1076131,-0.33485573,0.548027,0.159099,-0.27732675,0.515505,0.12127268,-0.27775196,0.522802,0.11296909,-0.30869924,0.54381,0.12081699,-0.3320842,0.549256,0.17404452,-0.27300104,0.506052,0.13575289,-0.27391116,0.510332,0.12380261,-0.29692185,0.526624,0.11612259,-0.31420709,0.531435
0.14306432,-0.35255706,0.495598,0.14153996,-0.32114527,0.50745,0.12751958,-0.35135556,0.504871,0.10364788,-0.32783695,0.509761,0.084792749,-0.31376166,0.520116,0.080588793,-0.30567468,0.530296,0.13073476,-0.29644427,0.528853,0.11003813,-0.26542759,0.534216,0.099137637,-0.24906606,0.536897,0.091562581,-0.23556449,0.54478,0.14642244,-0.28490785,0.52191,0.10692532,-0.28559474,0.528135,0.099107151,-0.31074747,0.531766,0.10862026,-0.33630499,0.548452,0.1591269,-0.27761535,0.515284,0.12201964,-0.27747592,0.522908,0.11370571,-0.30932154,0.543856,0.12189587,-0.33250509,0.549146,0.17393812,-0.2732,0.50562,0.13570255,-0.27420819,0.510178,0.12438645,-0.29739356,0.52643,0.11733736,-0.31481226,0.531127
0.1454479,-0.35173815,0.494977,0.16294198,-0.32153054,0.507269,0.13953842,-0.35060312,0.505031,0.12805001,-0.3256388,0.511059,0.10954916,-0.31115092,0.517469,0.10646049,-0.30399673,0.530119,0.15302307,-0.29863629,0.530002,0.13284726,-0.26527758,0.536739,0.12312191,-0.24903505,0.540108,0.11490559,-0.23567312,0.547793,0.1692965,-0.28490602,0.522267,0.13061727,-0.28233107,0.529174,0.12144168,-0.30635951,0.533203,0.13207552,-0.33618845,0.549858,0.18067028,-0.27860061,0.514955,0.14466898,-0.27965318,0.52346,0.13979502,-0.31136279,0.544159,0.14994285,-0.33255841,0.548993,0.19773127,-0.27503041,0.504408,0.15581324,-0.27506906,0.509696,0.14884581,-0.29879925,0.525769,0.1460155,-0.31412172,0.53014
0.14343634,-0.35421252,0.496385,0.16048856,-0.32153362,0.499425,0.13816423,-0.3503963,0.501299,0.12391548,-0.32401928,0.498844,0.10222472,-0.28930487,0.477523,0.096862346,-0.26905983,0.476868,0.1519139,-0.28828427,0.508017,0.1322384,-0.25416143,0.506148,0.12213311,-0.23663727,0.505213,0.11533647,-0.22541351,0.515773,0.16861604,-0.28153922,0.503135,0.13458711,-0.25585194,0.499498,0.11835019,-0.26576904,0.497377,0.11735856,-0.29008185,0.512308,0.18213541,-0.27859982,0.498883,0.14716848,-0.27183841,0.496705,0.14270928,-0.30312759,0.518389,0.15404074,-0.32888176,0.527932,0.19787701,-0.28027376,0.493359,0.15984942,-0.2746153,0.489533,0.15973061,-0.30075226,0.506171,0.15723495,-0.32038749,0.513969
0.17499189,-0.3621806,0.491333,0.18187858,-0.32474552,0.494865,0.16360281,-0.35561964,0.495104,0.14401222,-0.32484331,0.491276,0.1250918,-0.29286073,0.479359,0.1191628,-0.27079524,0.475358,0.17426235,-0.2897099,0.502476,0.14182286,-0.28211103,0.500522,0.12406473,-0.27799812,0.499545,0.11634211,-0.296054,0.514552,0.189766,-0.282733,0.499174,0.16151607,-0.24687911,0.495719,0.14452361,-0.22531832,0.493703,0.13322077,-0.23097573,0.508848,0.20242577,-0.27945215,0.496186,0.16646654,-0.27075829,0.493686,0.16161258,-0.29923313,0.515579,0.16407558,-0.32698576,0.525334,0.21727951,-0.28052498,0.492095,0.18147282,-0.27180297,0.488072,0.19014494,-0.29739338,0.504873,0.19536527,-0.31701485,0.512804
0.18575058,-0.36231844,0.49152,0.20217375,-0.32457626,0.49478,0.18436357,-0.35556196,0.495069,0.16488092,-0.32475045,0.490912,0.14544701,-0.29208011,0.477613,0.13952085,-0.27035556,0.474038,0.19291315,-0.28908221,0.501887,0.16155475,-0.28160081,0.499598,0.14440749,-0.27756304,0.498453,0.13809528,-0.2957168,0.513383,0.20875998,-0.28220285,0.498756,0.18056285,-0.2463486,0.494982,0.16360637,-0.22478983,0.49278,0.15359662,-0.23056985,0.50786,0.2218001,-0.27902223,0.495929,0.18705497,-0.27047732,0.493081,0.18401296,-0.29911283,0.514985,0.18742053,-0.32699338,0.524886,0.23729849,-0.28026199,0.492073,0.20226861,-0.27166066,0.487758,0.21209912,-0.29729354,0.504562,0.21811169,-0.31701045,0.512597
0.2127707,-0.37178623,0.506222,0.23186984,-0.32600505,0.504316,0.21026358,-0.3567188,0.510529,0.19172681,-0.32513737,0.506537,0.17457609,-0.29619808,0.503607,0.17008435,-0.27545269,0.503807,0.2238137,-0.27541904,0.507965,0.1967014,-0.27179448,0.502996,0.18326925,-0.2791882,0.500512,0.17768356,-0.2997762,0.514302,0.24187107,-0.27480103,0.501991,0.21146879,-0.26424222,0.493501,0.19192405,-0.25767603,0.488548,0.18911157,-0.28154078,0.501989,0.25631039,-0.27747437,0.497224,0.22773005,-0.27356505,0.490878,0.22761651,-0.30577582,0.512103,0.22841608,-0.33557032,0.523145,0.27278217,-0.28693018,0.491815,0.24234302,-0.28289149,0.484365,0.25071952,-0.31033478,0.500562,0.25873239,-0.33230008,0.509464
0.2568057,-0.35741973,0.488903,0.25761468,-0.3178144,0.493056,0.23859256,-0.34817768,0.492757,0.23852788,-0.32445999,0.506352,0.23243608,-0.30134942,0.518127,0.22967626,-0.28472869,0.524852,0.23693178,-0.27527574,0.501296,0.21854669,-0.27308182,0.498044,0.22102887,-0.29216927,0.496418,0.23425601,-0.31867476,0.511031,0.25866704,-0.27152325,0.498123,0.24210798,-0.23722157,0.495138,0.23355577,-0.25444027,0.493397,0.24363277,-0.2823715,0.508661,0.27659905,-0.27129532,0.495192,0.25641451,-0.27001414,0.493234,0.25932686,-0.30315334,0.515143,0.25816811,-0.33141992,0.524686,0.29817059,-0.27659437,0.491079,0.27373043,-0.27618111,0.487529,0.27911361,-0.30323911,0.504355,0.2812987,-0.32461388,0.512128
0.28781678,-0.36287807,0.48477,0.29339716,-0.32838635,0.493924,0.27076278,-0.35458109,0.488432,0.25525439,-0.32586718,0.489009,0.24075054,-0.29726795,0.483848,0.23865002,-0.27568112,0.47911,0.27828375,-0.29230833,0.506174,0.25889076,-0.26908089,0.507882,0.25291835,-0.2706583,0.508735,0.2609997,-0.29100887,0.524635,0.30019621,-0.28873188,0.505091,0.28137752,-0.28244588,0.507184,0.26867238,-0.27902204,0.508405,0.2730516,-0.3051413,0.524858,0.31817491,-0.28819734,0.503494,0.2991965,-0.28216177,0.505468,0.30157305,-0.31010141,0.527329,0.29943596,-0.33634522,0.535265,0.33946504,-0.29237836,0.500234,0.31586204,-0.28844569,0.500203,0.32738995,-0.31684683,0.517081,0.33569802,-0.33669479,0.523636
0.29826662,-0.3556431,0.51345,0.31748766,-0.31720151,0.513707,0.28893942,-0.33992136,0.519275,0.29395577,-0.30843495,0.528437,0.29654949,-0.28302271,0.537494,0.30177295,-0.26957559,0.542187,0.32195825,-0.26973827,0.521049,0.30608248,-0.25706588,0.51857,0.29188304,-0.26624892,0.51733,0.28669141,-0.28331627,0.531696,0.33922072,-0.27377792,0.51402,0.32179548,-0.25875394,0.508008,0.30448679,-0.27141612,0.504502,0.30124497,-0.29318077,0.51845,0.35214196,-0.27975495,0.508218,0.33726183,-0.26670998,0.5045,0.34054159,-0.27854194,0.525639,0.3339571,-0.29109227,0.535585,0.36530489,-0.29215741,0.501254,0.34833368,-0.27984464,0.496013,0.35455412,-0.2951475,0.512188,0.35526249,-0.30572763,0.520305
0.3205959,-0.35486565,0.51377,0.33932313,-0.31649998,0.513884,0.31117158,-0.33899329,0.519567,0.31674523,-0.30743966,0.528677,0.31962858,-0.28197984,0.537736,0.32458827,-0.26851428,0.54236,0.34330972,-0.2689455,0.52107,0.32894405,-0.25606965,0.518482,0.31521837,-0.26509174,0.517187,0.31121178,-0.28197507,0.531516,0.36047798,-0.27318123,0.514023,0.34463491,-0.25794393,0.507869,0.32788702,-0.27041014,0.504279,0.3257134,-0.29200404,0.518184,0.37335707,-0.27931247,0.508217,0.36011672,-0.26606668,0.504372,0.36541386,-0.27775292,0.525498,0.36023531,-0.29017923,0.53549,0.38654343,-0.2918886,0.501269,0.37083739,-0.27937559,0.495918,0.37852589,-0.29459825,0.512081,0.38034747,-0.30513279,0.520231
0.32588621,-0.35450947,0.510287,0.35511528,-0.3203369,0.511732,0.32774582,-0.34260809,0.518464,0.34880633,-0.3181804,0.53327,0.36047192,-0.29371907,0.547345,0.36750629,-0.27857288,0.552922,0.36612938,-0.27643074,0.52296,0.35113354,-0.26350234,0.520906,0.34291233,-0.25646781,0.519878,0.34432052,-0.25769521,0.533796,0.3800719,-0.27909626,0.513496,0.36057589,-0.26332884,0.509376,0.34451485,-0.2614584,0.506973,0.34212447,-0.26925077,0.520843,0.39010621,-0.28384478,0.505598,0.37619737,-0.27123062,0.504395,0.38297493,-0.3041263,0.524859,0.38890635,-0.32853876,0.53352,0.39944096,-0.29457976,0.495957,0.38179658,-0.28187102,0.492788,0.38623432,-0.28661022,0.50848,0.38812666,-0.30019328,0.515679
0.40259751,-0.37095615,0.523187,0.39455199,-0.32135002,0.515031,0.38410851,-0.35934054,0.527358,0.3705066,-0.33079344,0.532368,0.35547447,-0.31391274,0.539011,0.34993193,-0.29380167,0.539442,0.36645646,-0.26816531,0.513206,0.34333567,-0.2588621,0.497134,0.3405633,-0.27366718,0.489098,0.3499718,-0.29722052,0.498803,0.38485802,-0.26385313,0.50508,0.35995927,-0.25715923,0.488208,0.35047911,-0.27816339,0.478366,0.36011019,-0.30152005,0.488712,0.40054219,-0.26383511,0.499023,0.37752225,-0.26375902,0.48509,0.38686336,-0.29752282,0.504787,0.3984158,-0.32041455,0.518282,0.42059069,-0.27063672,0.493001,0.39596324,-0.27184921,0.481525,0.40182612,-0.28914153,0.496563,0.41107025,-0.31180074,0.506433
0.41798422,-0.3630158,0.509568,0.40433319,-0.3138929,0.50014,0.39749112,-0.35289599,0.512453,0.40059948,-0.32863361,0.521505,0.37502782,-0.30342771,0.518403,0.36103734,-0.28843711,0.51637,0.36975403,-0.26354018,0.495662,0.34055034,-0.2345158,0.478667,0.34061255,-0.24445608,0.47017,0.35691376,-0.26337264,0.479736,0.38819733,-0.25767691,0.488638,0.38734711,-0.22318279,0.497898,0.38402601,-0.20255576,0.5033,0.39089982,-0.19302545,0.520035,0.40430087,-0.2562857,0.483585,0.38581276,-0.25473679,0.470529,0.39850103,-0.28774391,0.490465,0.41016485,-0.31114179,0.503701,0.42565949,-0.26124522,0.47895,0.40302363,-0.26052437,0.465997,0.41225891,-0.27854964,0.481079,0.42254834,-0.30047879,0.491486
0.42666331,-0.36729849,0.514678,0.41172327,-0.31788814,0.504841,0.40333611,-0.35550627,0.514557,0.41242562,-0.33293235,0.523152,0.38393762,-0.30723382,0.517617,0.36704105,-0.2922535,0.514451,0.37509219,-0.26692127,0.496341,0.35172414,-0.23654436,0.479723,0.35157919,-0.24718985,0.471415,0.36606993,-0.2673266,0.481618,0.39658887,-0.26251621,0.49284,0.39048801,-0.2257572,0.500259,0.38905737,-0.20776884,0.504588,0.39482198,-0.19592932,0.521682,0.41539254,-0.26234694,0.490718,0.4018423,-0.26047414,0.475712,0.41708881,-0.29415212,0.496284,0.42777646,-0.31785315,0.510562,0.44029361,-0.26880896,0.489641,0.421478,-0.26854368,0.474924,0.43403898,-0.28747433,0.490461,0.44593831,-0.30983807,0.501665
0.42974323,-0.36878381,0.515983,0.41667398,-0.31999348,0.505692,0.40592243,-0.35685387,0.515422,0.41341573,-0.33353854,0.523218,0.38551541,-0.30674299,0.517163,0.36870088,-0.29094961,0.513843,0.37568737,-0.26745299,0.496269,0.35234367,-0.23691267,0.479339,0.35216386,-0.24744606,0.470874,0.36651667,-0.2675161,0.480979,0.39746645,-0.26323989,0.493137,0.39023191,-0.22564311,0.499077,0.38814057,-0.20744349,0.502542,0.39670608,-0.19833151,0.519448,0.41655183,-0.26324705,0.491354,0.40285954,-0.26102476,0.475749,0.41819538,-0.29467929,0.49628,0.42897038,-0.31852481,0.510783,0.44188126,-0.26996303,0.490749,0.42292528,-0.26940751,0.475541,0.43562633,-0.28832794,0.491036,0.44774796,-0.31079645,0.502397
0.43569335,-0.37064312,0.519034,0.42119434,-0.32141247,0.508374,0.41476467,-0.360001,0.51865,0.42369782,-0.33606826,0.527109,0.39305408,-0.309785,0.521564,0.3730978,-0.29301276,0.516998,0.37887927,-0.26959863,0.498853,0.35448429,-0.23897071,0.481517,0.35445616,-0.24916585,0.472849,0.36909455,-0.26899153,0.482759,0.40029427,-0.26461219,0.495369,0.3918691,-0.2270429,0.500857,0.38878678,-0.20896375,0.504058,0.39682491,-0.2001077,0.520847,0.41916816,-0.26398316,0.493324,0.40523139,-0.26151158,0.47756,0.42106076,-0.29506189,0.497978,0.43238959,-0.31898795,0.5125,0.4444371,-0.26992886,0.492461,0.42532132,-0.26928821,0.477103,0.43929525,-0.28776136,0.492506,0.45070465,-0.31041871,0.503884
0.43849528,-0.37110162,0.519945,0.42311695,-0.32186246,0.509305,0.41716034,-0.3606548,0.519621,0.42439071,-0.33661784,0.527971,0.39463106,-0.31063943,0.522637,0.37506624,-0.29386099,0.518251,0.3802682,-0.27052413,0.499872,0.35550424,-0.23996543,0.482538,0.35562767,-0.25004352,0.473871,0.37047982,-0.26979974,0.483776,0.40157733,-0.26521181,0.496323,0.39267002,-0.22777799,0.501693,0.3891175,-0.20972815,0.504826,0.39691573,-0.20101196,0.521588,0.4204032,-0.26430522,0.494223,0.40645395,-0.261779,0.478509,0.42257312,-0.29530977,0.498922,0.4341522,-0.31925925,0.513422,0.44569143,-0.26989766,0.493291,0.42659831,-0.26927921,0.477973,0.44049411,-0.28762195,0.493372,0.45227828,-0.31029675,0.504735
0.44049644,-0.37153204,0.52092,0.4253057,-0.32301711,0.511428,0.41836512,-0.36091488,0.520182,0.42467736,-0.33644984,0.52857,0.39505526,-0.31045683,0.522823,0.37818807,-0.29397857,0.519556,0.38363232,-0.27312495,0.502467,0.3593286,-0.24323919,0.486364,0.3609932,-0.25422661,0.478312,0.37501965,-0.27312418,0.488785,0.40544635,-0.26743366,0.499848,0.39581606,-0.23097053,0.50562,0.39148109,-0.2121929,0.508987,0.39910642,-0.20350411,0.525928,0.42479869,-0.26612161,0.498426,0.41164969,-0.26288723,0.483296,0.42904021,-0.29637565,0.504026,0.43889396,-0.32169703,0.518417,0.45088659,-0.27106244,0.498133,0.43263186,-0.27011318,0.48335,0.44629525,-0.28856342,0.499011,0.45969196,-0.31052479,0.510286
0.44399118,-0.37164636,0.52112,0.42798857,-0.32404721,0.512962,0.42012556,-0.3618834,0.521452,0.42731201,-0.3384832,0.531391,0.3994401,-0.3150698,0.527835,0.38225262,-0.30017625,0.524519,0.38662799,-0.27584027,0.506439,0.36302115,-0.25332592,0.491321,0.36479481,-0.26491495,0.483762,0.38108799,-0.27883615,0.494565,0.40781782,-0.26954172,0.503008,0.40640378,-0.24023847,0.520221,0.4049263,-0.22320093,0.530262,0.40322505,-0.20916957,0.537434,0.42655195,-0.2676812,0.500814,0.41399255,-0.26460873,0.487312,0.43144087,-0.29812063,0.508183,0.44178554,-0.32340541,0.521973,0.45170349,-0.271855,0.499402,0.43418014,-0.27113478,0.485963,0.44808633,-0.28960613,0.50176,0.46161076,-0.31118783,0.512616
0.44517431,-0.37470639,0.525634,0.43054731,-0.3260728,0.516367,0.42158953,-0.36438082,0.526056,0.42373574,-0.34036821,0.536166,0.39934558,-0.31604863,0.533919,0.38575143,-0.30452769,0.530901,0.39342253,-0.27465211,0.509012,0.39911569,-0.24322226,0.520849,0.40066572,-0.22711681,0.526767,0.3981399,-0.22102838,0.532147,0.41016578,-0.27073386,0.50506,0.38299246,-0.24077602,0.488713,0.40463197,-0.27603743,0.512888,0.42033451,-0.30335967,0.530155,0.42847499,-0.2687718,0.502523,0.4052404,-0.26570833,0.488266,0.42084119,-0.29997433,0.508881,0.44079285,-0.3223728,0.522874,0.45256648,-0.27388277,0.500866,0.42446259,-0.27093031,0.486764,0.44042998,-0.29707177,0.502346,0.45752942,-0.31008684,0.513351
0.44446423,-0.37424491,0.525098,0.4302959,-0.32594518,0.516306,0.42153283,-0.36411619,0.526011,0.42399654,-0.3405777,0.536496,0.39977341,-0.31638722,0.534491,0.38679504,-0.30406876,0.532358,0.39415294,-0.27516201,0.509957,0.3994245,-0.24341045,0.521252,0.40076612,-0.22717372,0.526899,0.39805461,-0.22098103,0.532033,0.41128062,-0.27081879,0.50558,0.38384275,-0.24131057,0.489798,0.40549979,-0.27662946,0.513988,0.42121696,-0.30399654,0.531268,0.42890034,-0.26896135,0.502657,0.40589523,-0.26613769,0.489055,0.42151023,-0.30045122,0.50969,0.43999568,-0.32306934,0.523425,0.45236519,-0.27387773,0.500469,0.42458468,-0.27100824,0.486904,0.44057552,-0.29716993,0.502512,0.45751784,-0.31007899,0.513338
0.44420299,-0.37438073,0.525051,0.43077914,-0.32613206,0.516481,0.42143222,-0.36410178,0.525913,0.42351022,-0.34188234,0.536456,0.40039334,-0.31868013,0.534431,0.3868687,-0.30398241,0.532824,0.39298486,-0.27696326,0.510257,0.40038478,-0.24470895,0.52233,0.40242834,-0.22851863,0.528367,0.40013312,-0.22121493,0.533854,0.41187313,-0.27139008,0.506024,0.38342872,-0.25304441,0.490429,0.40751453,-0.29128752,0.514694,0.42511793,-0.32061237,0.532026,0.42943975,-0.26964706,0.503203,0.40580722,-0.26757937,0.489729,0.4215385,-0.30200224,0.510424,0.43643934,-0.32557373,0.524132,0.45293805,-0.27462161,0.501103,0.42337348,-0.27719633,0.487653,0.44019708,-0.30335446,0.503311,0.4580567,-0.31197996,0.514115
0.44765416,-0.37672446,0.5283,0.43279832,-0.32828107,0.51978,0.4233697,-0.36512595,0.527256,0.42310669,-0.34207225,0.537255,0.39925241,-0.3187196,0.536034,0.38745038,-0.30425456,0.535363,0.39391038,-0.2768426,0.511267,0.40052128,-0.24539839,0.523283,0.40226344,-0.22957633,0.529291,0.40063013,-0.22061769,0.534753,0.41461312,-0.2734273,0.509385,0.38612311,-0.25697692,0.493361,0.41064261,-0.29572455,0.517972,0.42887089,-0.32549209,0.535552,0.43347771,-0.27311915,0.508493,0.40868037,-0.27040702,0.493896,0.42479448,-0.30493608,0.514846,0.44001651,-0.32856633,0.52911,0.45937472,-0.27951863,0.50869,0.42614234,-0.27949822,0.494393,0.43059973,-0.3019096,0.510239,0.44378785,-0.31493315,0.521415
