sluyters/QuantumLeap/backend/src/datasets/dynamic/HandGestureDataset_SHREC2017_csv/Gesture5/finger_1/subject_6_essai_2_skeletons_world.csv
Wrist_x,Wrist_y,Wrist_z,Palm_x,Palm_y,Palm_z,thumb_base_x,thumb_base_y,thumb_base_z,thumb_first_joint_x,thumb_first_joint_y,thumb_first_joint_z,thumb_second_joint_x,thumb_second_joint_y,thumb_second_joint_z,thumb_tip_x,thumb_tip_y,thumb_tip_z,index_base_x,index_base_y,index_base_z,index_first_joint_x,index_first_joint_y,index_first_joint_z,index_second_joint_x,index_second_joint_y,index_second_joint_z,index_tip_x,index_tip_y,index_tip_z,middle_base_x,middle_base_y,middle_base_z,middle_first_joint_x,middle_first_joint_y,middle_first_joint_z,middle_second_joint_x,middle_second_joint_y,middle_second_joint_z,middle_tip_x,middle_tip_y,middle_tip_z,ring_base_x,ring_base_y,ring_base_z,ring_first_joint_x,ring_first_joint_y,ring_first_joint_z,ring_second_joint_x,ring_second_joint_y,ring_second_joint_z,ring_tip_x,ring_tip_y,ring_tip_z,pinky_base_x,pinky_base_y,pinky_base_z,pinky_first_joint_x,pinky_first_joint_y,pinky_first_joint_z,pinky_second_joint_x,pinky_second_joint_y,pinky_second_joint_z,pinky_tip_x,pinky_tip_y,pinky_tip_z,
0.587558,-0.41097041,0.58458,0.58614194,-0.36296098,0.576666,0.56511827,-0.38952238,0.580562,0.53753288,-0.35172163,0.565499,0.51469525,-0.31911347,0.551686,0.50709587,-0.29805784,0.54835,0.55844233,-0.3015411,0.565192,0.55186834,-0.26341568,0.551456,0.55423306,-0.24595359,0.550644,0.5539061,-0.22982494,0.549906,0.58409876,-0.30901952,0.567074,0.58382082,-0.26625344,0.552441,0.5815435,-0.25877246,0.543906,0.57596092,-0.25274467,0.537809,0.60551221,-0.31809576,0.569178,0.60459397,-0.28035559,0.554848,0.60375643,-0.27016199,0.547516,0.60210032,-0.26695773,0.540851,0.63187868,-0.3354225,0.572793,0.63095994,-0.29692061,0.559879,0.63066231,-0.28036163,0.553945,0.62956165,-0.27456282,0.54871
0.588319,-0.41122453,0.584127,0.58639343,-0.36305464,0.576119,0.56553023,-0.38978192,0.579904,0.53701776,-0.35141858,0.564585,0.51557058,-0.31914506,0.550946,0.50996605,-0.29813418,0.548141,0.55801956,-0.30272231,0.564319,0.5509754,-0.26202763,0.550488,0.55951226,-0.24798837,0.554383,0.56663125,-0.23331658,0.557924,0.58398871,-0.30909475,0.566413,0.58289654,-0.26624457,0.551668,0.58060473,-0.25865344,0.543066,0.57588113,-0.25293002,0.536922,0.60564917,-0.31804922,0.568699,0.60398459,-0.28034069,0.554208,0.60307397,-0.26987415,0.546793,0.60138999,-0.26645072,0.540053,0.63239797,-0.3352494,0.572544,0.63096392,-0.29681011,0.559469,0.63055768,-0.28026194,0.553461,0.62941943,-0.27455283,0.54816
0.58896751,-0.41156058,0.583499,0.58662363,-0.36333243,0.575547,0.56615928,-0.39039588,0.579448,0.53818365,-0.35253255,0.56434,0.51737063,-0.32006303,0.551405,0.51075277,-0.29845249,0.548343,0.55813095,-0.30391573,0.564,0.5525074,-0.26376422,0.550354,0.56439806,-0.2484205,0.556291,0.57456936,-0.23600752,0.561689,0.58390637,-0.31035136,0.565907,0.5820539,-0.26723288,0.551236,0.57999308,-0.25878758,0.542677,0.57610984,-0.25341077,0.536564,0.6055665,-0.31887138,0.568035,0.60341761,-0.28047895,0.553636,0.60253896,-0.2697974,0.54627,0.60090437,-0.26621898,0.539573,0.63227451,-0.33496758,0.571684,0.63086004,-0.29809193,0.55863,0.63043768,-0.28173037,0.552633,0.62884688,-0.27467554,0.54734
0.58582723,-0.41082034,0.580769,0.58583536,-0.36733816,0.574578,0.56433125,-0.39034085,0.577818,0.53805143,-0.35345301,0.564256,0.5180802,-0.32054123,0.551781,0.51125097,-0.29862461,0.548293,0.56024472,-0.3064914,0.565834,0.55945028,-0.26733097,0.553777,0.56621528,-0.25074205,0.554572,0.57284699,-0.23722202,0.555295,0.58561785,-0.31506886,0.567073,0.5797618,-0.27128166,0.554099,0.58042243,-0.26709975,0.546531,0.57560774,-0.27882103,0.541125,0.60622995,-0.32671455,0.568528,0.60397958,-0.29050936,0.555839,0.60527026,-0.27899241,0.549347,0.60535,-0.27055346,0.543446,0.63021965,-0.34418379,0.571126,0.63832936,-0.31126128,0.560543,0.64215452,-0.29600277,0.555681,0.64334818,-0.2927326,0.551391
0.59102437,-0.41482054,0.585485,0.58739858,-0.36444288,0.575686,0.56792315,-0.39309659,0.580962,0.54265207,-0.35505848,0.565068,0.5201695,-0.32057047,0.548121,0.51263012,-0.29826982,0.546272,0.55711115,-0.3028505,0.562028,0.55422038,-0.26291665,0.54687,0.56292235,-0.24840972,0.547082,0.5699565,-0.23612951,0.547274,0.58254139,-0.30926686,0.563809,0.581609,-0.26391566,0.547481,0.58156918,-0.26681249,0.537957,0.57706114,-0.27420785,0.531154,0.60401057,-0.31782625,0.565964,0.59947817,-0.28156195,0.550011,0.59827491,-0.27081658,0.541849,0.59629441,-0.26777764,0.534429,0.63085591,-0.33467379,0.569899,0.62258036,-0.31062753,0.554615,0.61793726,-0.29893771,0.547593,0.61811981,-0.30233131,0.541396
0.59310418,-0.41763045,0.587676,0.58823638,-0.36884475,0.576093,0.567751,-0.3939815,0.580696,0.54261862,-0.35643572,0.567185,0.52109715,-0.32085722,0.55005,0.51357948,-0.29705194,0.54168,0.55683566,-0.30391685,0.557966,0.55819154,-0.26799207,0.540943,0.5666037,-0.25283996,0.540605,0.57452693,-0.23859193,0.540297,0.58295566,-0.31508649,0.562052,0.58089668,-0.27279112,0.543856,0.57934784,-0.27060954,0.533241,0.57268963,-0.27505274,0.525659,0.60531854,-0.32627197,0.566229,0.606574,-0.29675733,0.548113,0.60681966,-0.2808062,0.538845,0.60424329,-0.28457939,0.530419,0.63313725,-0.34639906,0.572833,0.63482924,-0.32196475,0.555634,0.63540584,-0.30998729,0.547732,0.62859913,-0.31141809,0.540759
0.59451351,-0.42033423,0.589491,0.58919727,-0.37426325,0.576167,0.5688922,-0.39576377,0.581705,0.5435481,-0.35587378,0.565408,0.52330915,-0.31984525,0.546738,0.51865858,-0.29586969,0.539718,0.56932693,-0.30686487,0.555611,0.56382479,-0.26703362,0.536442,0.56746925,-0.25033219,0.532573,0.57225385,-0.23926531,0.529055,0.59456099,-0.31940876,0.560016,0.59374641,-0.27757977,0.540238,0.59048851,-0.27829657,0.528701,0.5828676,-0.28690877,0.52046,0.61538304,-0.33304188,0.564577,0.61355239,-0.30505071,0.544672,0.61332435,-0.292502,0.534488,0.60997937,-0.29886242,0.525229,0.64051135,-0.35603751,0.571883,0.62616438,-0.35233,0.553373,0.60926098,-0.36060487,0.544869,0.60960473,-0.37590429,0.551105
0.60060348,-0.42541963,0.594896,0.59864293,-0.37750592,0.578738,0.57354979,-0.39940166,0.585442,0.56237007,-0.36056846,0.572825,0.54319041,-0.32281205,0.557637,0.53149132,-0.29895792,0.548533,0.56842452,-0.30514081,0.553797,0.56698754,-0.26560668,0.532379,0.56856584,-0.25542949,0.524234,0.56946558,-0.24930634,0.51683,0.59501586,-0.31736595,0.559153,0.59674938,-0.28406368,0.536798,0.5866535,-0.29039908,0.523757,0.57203519,-0.3006052,0.514443,0.61915034,-0.32870189,0.564696,0.62263907,-0.29949641,0.54253,0.61963818,-0.29552123,0.53119,0.60514533,-0.29979892,0.52088,0.64752769,-0.35120702,0.57357,0.62984111,-0.34663253,0.552858,0.61186287,-0.35485794,0.543341,0.60885017,-0.37221988,0.548553
0.60053013,-0.42574937,0.594732,0.59888511,-0.37217672,0.577949,0.57394109,-0.39928811,0.585067,0.56114032,-0.35143042,0.570049,0.54361585,-0.31397855,0.556404,0.53933976,-0.2966596,0.554238,0.57580454,-0.299441,0.55223,0.5739937,-0.26305332,0.530261,0.58222291,-0.24869167,0.527513,0.59010415,-0.23545935,0.525015,0.60148568,-0.31330819,0.557606,0.60097619,-0.28059815,0.534704,0.58977751,-0.28923454,0.521345,0.5723775,-0.2993091,0.511803,0.62017834,-0.32798676,0.563209,0.62492734,-0.30370548,0.540514,0.61969647,-0.30331656,0.528902,0.60368424,-0.31214169,0.518346,0.64747168,-0.35159594,0.572241,0.62980172,-0.34684691,0.551097,0.61182149,-0.35499342,0.541382,0.60875886,-0.37126249,0.546392
0.59944034,-0.42497707,0.594264,0.59178436,-0.3677268,0.575774,0.57166083,-0.39671264,0.583221,0.55101708,-0.34285439,0.561969,0.5307454,-0.30486468,0.544896,0.52315055,-0.28078558,0.538254,0.57146098,-0.29460612,0.54696,0.56823733,-0.26015739,0.523312,0.57386063,-0.24594236,0.517961,0.58151854,-0.2379444,0.513097,0.5978411,-0.30993282,0.553362,0.59494823,-0.28484744,0.52891,0.59287123,-0.27185996,0.514646,0.58220641,-0.27767835,0.504458,0.61789119,-0.3259948,0.559929,0.61875159,-0.30208253,0.535128,0.60752092,-0.304267,0.522438,0.58584773,-0.31151024,0.510903,0.64413279,-0.35225832,0.570353,0.62496045,-0.34611962,0.547813,0.6083044,-0.35297383,0.537457,0.60508938,-0.36847577,0.541709
0.60202165,-0.42608659,0.596533,0.60110172,-0.36817058,0.57649,0.57662241,-0.39533159,0.584755,0.56028022,-0.34225996,0.564662,0.54187425,-0.30452158,0.548795,0.53645564,-0.28639293,0.547608,0.57328712,-0.29103036,0.545488,0.57602856,-0.25931003,0.521204,0.58078013,-0.25055199,0.514522,0.58553348,-0.24239611,0.508447,0.59995161,-0.30706105,0.552195,0.59345554,-0.28601107,0.526395,0.59085491,-0.27850163,0.511346,0.57848781,-0.28574099,0.500596,0.62502104,-0.3222494,0.559122,0.6176105,-0.30149634,0.532988,0.60985735,-0.29933582,0.519618,0.59182208,-0.30554958,0.507463,0.64983008,-0.3503381,0.57019,0.62942337,-0.34334899,0.546547,0.61025336,-0.35081246,0.535684,0.60606681,-0.36586571,0.539345
0.6024027,-0.42520616,0.596194,0.60608956,-0.36485813,0.575648,0.57904744,-0.39056157,0.584065,0.55851082,-0.34115337,0.5617,0.53740681,-0.30321607,0.543708,0.52382681,-0.27889738,0.534023,0.57517506,-0.28888454,0.543801,0.57444734,-0.26055348,0.519138,0.57985883,-0.25116574,0.512548,0.58521342,-0.2424224,0.506556,0.60211241,-0.30461671,0.550744,0.59409462,-0.28839117,0.524504,0.58990978,-0.27895077,0.509198,0.57652603,-0.28536049,0.498265,0.62486904,-0.32113486,0.5579,0.61651802,-0.30139426,0.531293,0.60830147,-0.29937211,0.51768,0.59002049,-0.30485677,0.505305,0.65325779,-0.34817507,0.569313,0.63756806,-0.33466563,0.545287,0.61802844,-0.34178308,0.534248,0.6155804,-0.35644264,0.537682
0.59068046,-0.41624109,0.584389,0.60392925,-0.36683444,0.574841,0.57183329,-0.38458557,0.575932,0.5546829,-0.33831456,0.557528,0.53558839,-0.3013063,0.53958,0.52788888,-0.27599267,0.529662,0.59641447,-0.30009042,0.556622,0.60207828,-0.28331499,0.539815,0.61146937,-0.27740051,0.536602,0.62066465,-0.27181014,0.533682,0.6215502,-0.31847578,0.563268,0.62265622,-0.31385775,0.546694,0.62429,-0.3114363,0.537128,0.61338977,-0.31944146,0.530296,0.6416388,-0.33662012,0.569406,0.6400883,-0.33262191,0.551823,0.63372911,-0.33572795,0.542827,0.6176145,-0.34399033,0.534649,0.66446244,-0.36442445,0.57808,0.6571821,-0.35727135,0.561715,0.64160808,-0.36716469,0.554196,0.63496626,-0.38213712,0.56107
0.59105621,-0.41519612,0.584074,0.6034345,-0.36852517,0.574919,0.57198168,-0.38556227,0.575554,0.5556354,-0.33847213,0.55808,0.53899901,-0.30107879,0.542182,0.5346292,-0.2756634,0.531705,0.59705423,-0.30080005,0.556953,0.60415022,-0.28438562,0.540493,0.61427879,-0.27865223,0.53743,0.62347702,-0.27428195,0.534645,0.62227381,-0.31936359,0.563823,0.62430678,-0.31510212,0.547591,0.62554829,-0.31374881,0.538122,0.61314128,-0.32249572,0.531359,0.6423875,-0.33763714,0.570118,0.64152095,-0.33378517,0.552788,0.63521216,-0.33691378,0.543921,0.61879451,-0.34497595,0.53586,0.66515253,-0.36555643,0.578926,0.65857932,-0.35857898,0.562795,0.64292958,-0.36843466,0.555383,0.63785563,-0.38367581,0.562314
0.59086511,-0.41466913,0.583539,0.606141,-0.3667651,0.573748,0.57316403,-0.38431215,0.575136,0.55640274,-0.33823738,0.558088,0.54407336,-0.30072874,0.542527,0.53740312,-0.27587983,0.532697,0.59740124,-0.30043382,0.555392,0.60292111,-0.28378157,0.538429,0.61431349,-0.27887878,0.536929,0.62457644,-0.27546175,0.535566,0.62248374,-0.31884725,0.56188,0.62259651,-0.31428489,0.545096,0.62147666,-0.31537639,0.535306,0.60558655,-0.32493211,0.528313,0.64253104,-0.33703056,0.567906,0.64000594,-0.33276616,0.550174,0.63284461,-0.33563136,0.541101,0.61577397,-0.34347201,0.532854,0.66529592,-0.3649083,0.576479,0.65738147,-0.35743529,0.559974,0.64122703,-0.36717478,0.552391,0.64207244,-0.38453286,0.559233
0.58682889,-0.41058071,0.578399,0.60410267,-0.36614068,0.563737,0.57320866,-0.38373234,0.574033,0.56866232,-0.34329488,0.565383,0.55879138,-0.30861154,0.553852,0.55851478,-0.2858641,0.548378,0.60361987,-0.30131973,0.546211,0.60925706,-0.27755437,0.527327,0.60944198,-0.26866929,0.517886,0.61257651,-0.26614561,0.517688,0.62193466,-0.31724174,0.545965,0.61203134,-0.30807502,0.525505,0.58213375,-0.31880457,0.51357,0.57938885,-0.33075084,0.521924,0.63630683,-0.3333368,0.546794,0.62297364,-0.3278803,0.527354,0.61049203,-0.32867712,0.517408,0.61031149,-0.34276939,0.526571,0.65219605,-0.35866823,0.549813,0.63436142,-0.35011629,0.53173,0.64085333,-0.37293959,0.545428,0.64123533,-0.38514259,0.557104
0.58712486,-0.4087525,0.577812,0.59897992,-0.36283279,0.562061,0.57328514,-0.3809754,0.573017,0.56653146,-0.3318279,0.560706,0.55632753,-0.29528294,0.548976,0.5546464,-0.27137874,0.539976,0.60267186,-0.29817665,0.543108,0.60413491,-0.27755751,0.523443,0.59979618,-0.27325888,0.513611,0.61248328,-0.27304979,0.521656,0.62013228,-0.31500359,0.54297,0.60743383,-0.30608135,0.52159,0.57650841,-0.31585131,0.509118,0.57276853,-0.32819923,0.517073,0.63377225,-0.33178959,0.543964,0.61880081,-0.32564809,0.523776,0.60430556,-0.32645253,0.513446,0.60267836,-0.34277221,0.522221,0.64870627,-0.35784982,0.547332,0.63003557,-0.34938425,0.528463,0.64762508,-0.36209546,0.541945,0.6581005,-0.38394453,0.553814
0.58576833,-0.40617101,0.576741,0.59749441,-0.36053547,0.560997,0.57307095,-0.3781596,0.571587,0.56537082,-0.32828541,0.558368,0.5555404,-0.2918723,0.545638,0.55378788,-0.26783984,0.536266,0.6051562,-0.29491816,0.541613,0.60183562,-0.27891579,0.521903,0.59783912,-0.27276736,0.512048,0.61449342,-0.27620556,0.520087,0.62020708,-0.31385694,0.541913,0.60695784,-0.30519882,0.52051,0.57598604,-0.31463091,0.508025,0.57184682,-0.32731551,0.515982,0.63361579,-0.33126395,0.543268,0.61770033,-0.32541647,0.523012,0.60255838,-0.32633349,0.512648,0.60021255,-0.3426259,0.521411,0.64809875,-0.35794986,0.547066,0.62916379,-0.3496706,0.528061,0.64658628,-0.36214462,0.541543,0.65658557,-0.38395219,0.553459
0.58054219,-0.40093346,0.575429,0.59601548,-0.3587313,0.560406,0.57198344,-0.36674946,0.568916,0.56147809,-0.32055596,0.553535,0.55330935,-0.28527411,0.538255,0.55264434,-0.26210132,0.527696,0.60489615,-0.29423165,0.539976,0.6019751,-0.27819641,0.520496,0.59777636,-0.27319564,0.510757,0.61409639,-0.27806001,0.518929,0.62106765,-0.3145753,0.542197,0.60990641,-0.30675899,0.521161,0.57745159,-0.315061,0.508891,0.57263416,-0.3271707,0.517011,0.63511763,-0.33337076,0.545081,0.62003943,-0.32778497,0.524643,0.60364093,-0.32916029,0.514187,0.60130743,-0.34403535,0.522964,0.64310522,-0.36523185,0.550612,0.62018181,-0.35926896,0.531518,0.62304622,-0.37956299,0.545064,0.6250278,-0.39636302,0.557037
0.57719117,-0.39023328,0.577556,0.59674644,-0.3551394,0.560584,0.56988429,-0.35984506,0.568953,0.56112344,-0.31037735,0.55107,0.55137524,-0.2789766,0.532203,0.55093222,-0.25712696,0.519399,0.6068988,-0.29236681,0.535995,0.60111328,-0.27641843,0.514332,0.59420401,-0.27362098,0.503501,0.60755215,-0.28124375,0.51061,0.619759,-0.31381025,0.540012,0.61221547,-0.30796374,0.51707,0.57498347,-0.31124067,0.503687,0.56668113,-0.32257067,0.510877,0.63407654,-0.33442433,0.54451,0.61745376,-0.3319482,0.521791,0.59834043,-0.3314776,0.510167,0.59230578,-0.34180882,0.517805,0.64457317,-0.36702118,0.552244,0.6181756,-0.36025827,0.531315,0.61951714,-0.37941759,0.544288,0.62154596,-0.39568823,0.556684
0.58018175,-0.39408002,0.579974,0.59532616,-0.35755315,0.559392,0.57321911,-0.36407969,0.572175,0.57128313,-0.31924525,0.558779,0.56976779,-0.29086158,0.542185,0.57381284,-0.27097791,0.530952,0.60455682,-0.29638093,0.532765,0.59861109,-0.27727384,0.509161,0.58880136,-0.27390512,0.497358,0.59876228,-0.27866129,0.503403,0.61681501,-0.31887376,0.534444,0.60275343,-0.30385136,0.50868,0.56269912,-0.30579328,0.493652,0.55415538,-0.31557722,0.499589,0.62566666,-0.33972565,0.537274,0.60050024,-0.33352272,0.512536,0.58496828,-0.32912263,0.49988,0.57599046,-0.34115435,0.506381,0.63375874,-0.36937724,0.543507,0.60144526,-0.3615654,0.520816,0.60379956,-0.38230558,0.533137,0.61109269,-0.39823921,0.545901
0.57577624,-0.37792923,0.586829,0.58674237,-0.34710677,0.558528,0.56876225,-0.34655686,0.571928,0.56659286,-0.3004342,0.54816,0.5583886,-0.27634005,0.524043,0.56000553,-0.26021775,0.508397,0.59394332,-0.29487164,0.516851,0.57263864,-0.2808905,0.485685,0.5621465,-0.27394161,0.470101,0.56750562,-0.27848669,0.471178,0.60519637,-0.32152341,0.524225,0.57701783,-0.31509524,0.491789,0.52930943,-0.30719652,0.472869,0.51522792,-0.30727834,0.47429,0.61343422,-0.34507708,0.532281,0.57715658,-0.34102747,0.499837,0.54838905,-0.33685512,0.483237,0.52914616,-0.33584933,0.484473,0.62121521,-0.37647878,0.545844,0.57318887,-0.36701252,0.516868,0.56896614,-0.37932661,0.525835,0.57657661,-0.39120757,0.53951
0.57493853,-0.37513265,0.587429,0.58998303,-0.34850805,0.558824,0.56913734,-0.34454897,0.572597,0.56792873,-0.30040381,0.548829,0.55940931,-0.27533633,0.52459,0.56106624,-0.2589594,0.509091,0.59473317,-0.29530048,0.516977,0.57273357,-0.28105076,0.485688,0.56188512,-0.27396494,0.470043,0.56711737,-0.27819996,0.471028,0.60563976,-0.32193887,0.524151,0.5798628,-0.3143544,0.491529,0.53214328,-0.30687508,0.472499,0.51731539,-0.30738075,0.473814,0.61361873,-0.34548644,0.532065,0.57684865,-0.34080299,0.49949,0.54790247,-0.33641453,0.482823,0.52854434,-0.33548028,0.48396,0.62113666,-0.37688996,0.5455,0.57273293,-0.36678896,0.516383,0.56799188,-0.37919668,0.52528,0.57408568,-0.39192152,0.538977
0.58380628,-0.4006932,0.569942,0.5912158,-0.35627678,0.537693,0.59844624,-0.37529591,0.569974,0.5962715,-0.33588655,0.560908,0.59676616,-0.30161612,0.553194,0.59611251,-0.27858355,0.542565,0.59341404,-0.29018195,0.510823,0.52389698,-0.26857584,0.477403,0.49149354,-0.27138476,0.460693,0.47293258,-0.27879007,0.454947,0.587149,-0.30332968,0.498603,0.512018,-0.27915956,0.464077,0.50085601,-0.29613327,0.468608,0.52434643,-0.31259142,0.482003,0.58230508,-0.31735635,0.490819,0.50610461,-0.2915663,0.454405,0.47031989,-0.29096358,0.435775,0.46773336,-0.29687838,0.429197,0.57702776,-0.34048204,0.485946,0.52416946,-0.3126879,0.463213,0.50980066,-0.31455898,0.466021,0.51459247,-0.32572466,0.475111
0.5835333,-0.39986342,0.567436,0.5887842,-0.35819717,0.535511,0.59663293,-0.37801043,0.56791,0.59356381,-0.34276354,0.559061,0.59303048,-0.30827602,0.551494,0.59172996,-0.28498272,0.540934,0.5913719,-0.29208222,0.509448,0.52171114,-0.27009465,0.476298,0.4895733,-0.27294456,0.459723,0.47094026,-0.2802712,0.45383,0.58451383,-0.30466774,0.496815,0.50932357,-0.28015781,0.462644,0.49809467,-0.29718434,0.466835,0.51947475,-0.31301102,0.480423,0.57919518,-0.3182695,0.488669,0.50279343,-0.29203715,0.452477,0.46737023,-0.29158227,0.43396,0.4647425,-0.29624839,0.427206,0.57337119,-0.34095883,0.483317,0.51626618,-0.31513341,0.461074,0.50255016,-0.31776692,0.463675,0.51060577,-0.32687713,0.472513
0.59759174,-0.40798429,0.573407,0.58200997,-0.36968847,0.536592,0.5939752,-0.37941063,0.567621,0.57468687,-0.34291364,0.550628,0.57099159,-0.30625183,0.536859,0.57047662,-0.27914422,0.523178,0.56020077,-0.30337696,0.498862,0.4885889,-0.29548721,0.462612,0.49055531,-0.30856716,0.466811,0.50651066,-0.32773914,0.482793,0.56376571,-0.321139,0.491969,0.54957804,-0.2779271,0.453571,0.5232037,-0.26133172,0.432721,0.50589687,-0.26571652,0.430857,0.5677899,-0.33862451,0.488889,0.54705182,-0.29375255,0.455862,0.53630867,-0.27095979,0.438964,0.51487865,-0.26264006,0.427844,0.57472538,-0.36520747,0.490283,0.50985542,-0.34600241,0.462077,0.50390925,-0.34805631,0.46521,0.50795254,-0.35614317,0.476352
0.59933688,-0.40998307,0.575439,0.5823582,-0.37027325,0.537131,0.59373324,-0.38092741,0.568625,0.57480581,-0.34172616,0.550101,0.57177826,-0.30283413,0.535317,0.56829882,-0.27882651,0.521232,0.55808575,-0.30236872,0.496907,0.48583133,-0.29385953,0.460056,0.48610183,-0.30588136,0.4627,0.50159625,-0.32475028,0.478298,0.56227681,-0.3205721,0.490696,0.55019995,-0.2794336,0.455004,0.52054148,-0.26438398,0.434184,0.50319404,-0.26694997,0.430766,0.5669527,-0.33853581,0.488283,0.53948933,-0.29645283,0.455058,0.52546868,-0.27481995,0.43806,0.49743368,-0.26680959,0.423779,0.57491077,-0.36591113,0.490682,0.50914593,-0.34594108,0.46173,0.5017324,-0.34696563,0.463525,0.50550329,-0.35484089,0.474411
0.59689535,-0.40889307,0.573449,0.58066825,-0.36958073,0.53579,0.59095753,-0.38024364,0.56682,0.57516741,-0.34171019,0.550359,0.57170452,-0.3053967,0.536935,0.57089505,-0.28059805,0.523665,0.55744584,-0.302398,0.496332,0.48541596,-0.29397456,0.459702,0.48672013,-0.30662466,0.46339,0.50249957,-0.32568703,0.479317,0.56158816,-0.32064766,0.490143,0.54892728,-0.27964039,0.454217,0.51958783,-0.26466963,0.43326,0.50100666,-0.26719842,0.42955,0.56615766,-0.33859836,0.487701,0.54283353,-0.29511641,0.454789,0.53201304,-0.27386659,0.43795,0.50658891,-0.26164359,0.422642,0.57386408,-0.36585285,0.489977,0.50825876,-0.34588987,0.461103,0.50177361,-0.34749246,0.463774,0.5058409,-0.35554051,0.474972
0.59572218,-0.40859055,0.572655,0.57946798,-0.36915504,0.534917,0.58959197,-0.38019614,0.566175,0.57466013,-0.34141865,0.549973,0.57144942,-0.30526242,0.536781,0.57077152,-0.28089199,0.523679,0.55647617,-0.30215777,0.495574,0.48443723,-0.29368767,0.458924,0.48492558,-0.30628406,0.4623,0.49983713,-0.32555701,0.47811,0.56033681,-0.32027987,0.489174,0.54761111,-0.27947744,0.453336,0.5185197,-0.26448901,0.432431,0.49952796,-0.26720746,0.428701,0.5646707,-0.33810456,0.486565,0.54166087,-0.29470839,0.45374,0.5306155,-0.27331357,0.436946,0.50221767,-0.26274272,0.421679,0.57209552,-0.36517685,0.488651,0.50829183,-0.34622159,0.459906,0.50146415,-0.34965781,0.462324,0.50373519,-0.35519093,0.473379
0.59052655,-0.4044177,0.567992,0.57501341,-0.36340036,0.528763,0.58181651,-0.3745283,0.558719,0.57700942,-0.32840531,0.541911,0.5724152,-0.29054303,0.527836,0.57689363,-0.27203827,0.514845,0.56024809,-0.29926115,0.484792,0.48685598,-0.2882894,0.4476,0.48089429,-0.30016589,0.450973,0.49548468,-0.31708481,0.466997,0.56436021,-0.32042111,0.481214,0.5577906,-0.28650263,0.443972,0.51637935,-0.27692342,0.422247,0.49536046,-0.27988659,0.41965,0.56855354,-0.34038822,0.481031,0.54407234,-0.30075541,0.444752,0.53148711,-0.28052425,0.426191,0.50171233,-0.27114197,0.409317,0.57042522,-0.36455195,0.48623,0.50475205,-0.34372862,0.455457,0.49638464,-0.34483782,0.457755,0.50050439,-0.35269252,0.469477
0.59128483,-0.40407769,0.568805,0.57981149,-0.3653499,0.528018,0.58075445,-0.37261277,0.556783,0.58606379,-0.3271476,0.534082,0.58508694,-0.29278461,0.514836,0.58104943,-0.27268372,0.498261,0.57137282,-0.30753163,0.479414,0.49537714,-0.28840602,0.441989,0.47749318,-0.29628793,0.444068,0.48802348,-0.31294807,0.459667,0.57235618,-0.33145467,0.47858,0.55889913,-0.30066879,0.440941,0.51334509,-0.28716726,0.418985,0.4908991,-0.28730282,0.415844,0.57379563,-0.35339552,0.480764,0.49562535,-0.32647654,0.444023,0.45725514,-0.31269971,0.425225,0.43267741,-0.30312355,0.417517,0.57668426,-0.38407124,0.489014,0.50970841,-0.34961017,0.456702,0.49392466,-0.34891296,0.457813,0.49696936,-0.35495941,0.469616
0.58589027,-0.39985774,0.563604,0.57449997,-0.36330798,0.522471,0.57640453,-0.36898087,0.551753,0.58380903,-0.32595986,0.530151,0.58820169,-0.29441596,0.512097,0.58091206,-0.27272882,0.495664,0.56456416,-0.30618962,0.473785,0.48789026,-0.28594457,0.436328,0.47082933,-0.29411254,0.437425,0.47498831,-0.31028362,0.452644,0.56356896,-0.33229709,0.472614,0.54332121,-0.30165525,0.433552,0.4939923,-0.28636602,0.410767,0.46963372,-0.28381789,0.405191,0.56357442,-0.35400853,0.474545,0.48821082,-0.3240912,0.437998,0.45000476,-0.31196655,0.4193,0.4249183,-0.29964953,0.41082,0.56498491,-0.38416758,0.48254,0.49991301,-0.35194672,0.450458,0.48428473,-0.34793993,0.450759,0.48609581,-0.35112704,0.462166
0.58345063,-0.39705875,0.559524,0.58383132,-0.36766463,0.518538,0.58040726,-0.36457148,0.54737,0.59198007,-0.32782312,0.525615,0.5861299,-0.29240455,0.506635,0.59276911,-0.27567767,0.49138,0.56186854,-0.30623679,0.469607,0.48315906,-0.28370991,0.432225,0.46844111,-0.29124633,0.433908,0.47394504,-0.30775285,0.449332,0.56158504,-0.33030728,0.468859,0.53272104,-0.29765934,0.429018,0.47978043,-0.28155,0.405778,0.4582451,-0.27825454,0.397814,0.56229425,-0.35236837,0.471127,0.4832734,-0.32168015,0.434319,0.44362187,-0.30788402,0.415487,0.42075002,-0.29694577,0.40742,0.56493263,-0.38312005,0.479506,0.49698401,-0.34772869,0.447173,0.48164983,-0.34423232,0.447946,0.48352541,-0.35047499,0.459626
0.59022509,-0.39901401,0.559482,0.58533324,-0.36710776,0.517929,0.5970593,-0.36806978,0.547307,0.58926756,-0.32643996,0.523742,0.58362149,-0.29085022,0.503789,0.58805785,-0.2732037,0.488355,0.56065692,-0.30599443,0.468499,0.48065715,-0.28540767,0.431213,0.46300534,-0.29053399,0.431022,0.46727357,-0.30541092,0.445659,0.56126733,-0.32988311,0.467562,0.53133647,-0.29860695,0.4277,0.48048998,-0.28747717,0.404446,0.45294145,-0.27944986,0.395005,0.56547176,-0.35248532,0.469715,0.48214185,-0.3311802,0.430944,0.44111688,-0.31963227,0.411108,0.41865918,-0.31547027,0.400852,0.57469712,-0.38317231,0.478034,0.5018539,-0.35151103,0.446074,0.48461383,-0.34730657,0.445288,0.48065973,-0.34863116,0.456231
0.59390392,-0.39748654,0.557483,0.58331753,-0.36626219,0.515718,0.5958804,-0.36733624,0.545094,0.58662664,-0.32561875,0.521417,0.58353876,-0.29067052,0.501329,0.58527758,-0.27248139,0.485738,0.55279865,-0.30649971,0.465853,0.47144011,-0.28926855,0.42891,0.45386642,-0.2947414,0.427338,0.45743197,-0.31061156,0.441288,0.55661432,-0.32864055,0.465095,0.5198154,-0.29944234,0.425547,0.46637016,-0.28627239,0.402478,0.44638523,-0.28087703,0.392027,0.55847284,-0.35065614,0.467409,0.47466188,-0.32954736,0.429026,0.4338327,-0.31724623,0.409387,0.41308112,-0.31286314,0.398064,0.56604286,-0.3827437,0.475951,0.49688507,-0.3550865,0.444327,0.48929829,-0.34486123,0.442385,0.50955381,-0.3503736,0.452201
0.59503371,-0.39743267,0.556674,0.5826205,-0.36650664,0.514986,0.59653057,-0.36786637,0.544658,0.58794757,-0.3268893,0.521153,0.59140316,-0.29593124,0.50125,0.59464233,-0.28007403,0.485849,0.55491233,-0.3054787,0.465637,0.47343309,-0.28720763,0.428766,0.45597843,-0.29021179,0.426845,0.46072897,-0.30438125,0.440626,0.55464043,-0.33073481,0.464455,0.52390988,-0.29874987,0.425008,0.47087752,-0.28231512,0.401997,0.44600473,-0.27758936,0.391296,0.55707266,-0.35272131,0.466417,0.47163424,-0.32711309,0.428049,0.42864438,-0.31105731,0.408419,0.40708865,-0.30862511,0.396801,0.56145318,-0.38242092,0.474525,0.4909951,-0.34781891,0.443231,0.47369757,-0.34718619,0.441015,0.48670638,-0.35654806,0.451169
0.59383868,-0.39559402,0.554519,0.57973502,-0.3652726,0.512628,0.59368367,-0.3655447,0.541422,0.5845923,-0.32448968,0.517491,0.58974236,-0.29467713,0.497205,0.59220831,-0.27886821,0.481257,0.55165347,-0.30759524,0.461798,0.47012474,-0.28461918,0.425222,0.45182345,-0.28613217,0.42292,0.45678128,-0.29988532,0.436433,0.55113411,-0.33223547,0.461851,0.51942883,-0.3062696,0.422533,0.46432549,-0.285931,0.399598,0.44173179,-0.27765006,0.388622,0.55234387,-0.35473016,0.464842,0.46715243,-0.32545306,0.42696,0.42644612,-0.31050084,0.407579,0.40248328,-0.30415733,0.395773,0.55401074,-0.38767733,0.474212,0.48691577,-0.35156297,0.442532,0.47055568,-0.34646936,0.439956,0.48274637,-0.35521088,0.450106
0.59603661,-0.39434705,0.552798,0.57794005,-0.36494335,0.51091,0.59253796,-0.36465987,0.539387,0.58399323,-0.32509201,0.512626,0.58662565,-0.29729298,0.489301,0.57885275,-0.27868732,0.470552,0.55272853,-0.3113199,0.459703,0.46908654,-0.28364899,0.423439,0.45065645,-0.28408194,0.42056,0.4536334,-0.29700557,0.433719,0.54992606,-0.33596796,0.460137,0.50853296,-0.30650743,0.42077,0.45505602,-0.28565131,0.397805,0.4347216,-0.27707398,0.386351,0.54921042,-0.35822153,0.463442,0.46540519,-0.32499359,0.42594,0.42494004,-0.30936355,0.406754,0.40064411,-0.30224234,0.39456,0.55146187,-0.38863508,0.473187,0.48356819,-0.35202597,0.441625,0.46647123,-0.3459005,0.438557,0.47603307,-0.35422512,0.448475
0.59538365,-0.39323409,0.551966,0.57637295,-0.3658861,0.510079,0.59193187,-0.36466617,0.538408,0.5851034,-0.32930937,0.512067,0.58564039,-0.29860478,0.488719,0.5789066,-0.28020886,0.470027,0.55320273,-0.31377416,0.458695,0.4685423,-0.28316913,0.422527,0.44941412,-0.28321319,0.419515,0.4512996,-0.29564609,0.432584,0.54848403,-0.33654045,0.459307,0.50608148,-0.30576359,0.419952,0.45284634,-0.28435148,0.396995,0.43107349,-0.2759832,0.385436,0.54662215,-0.36030366,0.462758,0.46273943,-0.32487785,0.425383,0.42237765,-0.30797836,0.406261,0.39923501,-0.30096704,0.393988,0.54712717,-0.39054998,0.472678,0.47980504,-0.35131148,0.441115,0.45733388,-0.34533348,0.437931,0.46058505,-0.35722117,0.447804
0.5977222,-0.39372962,0.551053,0.57532963,-0.36600803,0.509238,0.59128376,-0.36453443,0.53743,0.58518439,-0.32932569,0.511545,0.58707148,-0.30054205,0.488455,0.57972086,-0.28081257,0.469759,0.55244495,-0.3136024,0.457834,0.46917212,-0.28263908,0.421934,0.44829462,-0.28239769,0.418426,0.45030966,-0.29471494,0.431191,0.54769707,-0.33669461,0.458553,0.50203279,-0.30511394,0.419669,0.45089819,-0.28402549,0.396986,0.42693113,-0.27514819,0.385157,0.54570083,-0.36015521,0.462087,0.46239169,-0.32442448,0.425007,0.42223386,-0.30729716,0.406036,0.39753072,-0.29904387,0.393421,0.54605864,-0.39043513,0.472098,0.48074348,-0.35104971,0.440758,0.45829741,-0.34453156,0.437159,0.46047193,-0.35589977,0.446794
0.59717663,-0.39373019,0.550633,0.57484608,-0.36634152,0.508932,0.5914404,-0.36486061,0.537306,0.58543765,-0.32956281,0.511664,0.58667407,-0.29943515,0.488425,0.57943404,-0.28088432,0.469743,0.55241372,-0.31393532,0.457982,0.46892664,-0.28328292,0.422236,0.44748989,-0.28218988,0.418325,0.44792416,-0.2935547,0.430869,0.5474393,-0.3381518,0.458385,0.49244608,-0.30432758,0.419562,0.44371206,-0.28341576,0.396915,0.42486475,-0.27493803,0.38478,0.54487398,-0.36005243,0.46165,0.46166646,-0.32427747,0.424686,0.42156833,-0.307066,0.405774,0.39741162,-0.29925901,0.392845,0.54480133,-0.3900331,0.471323,0.48008316,-0.35077683,0.440331,0.45777871,-0.34408815,0.43641,0.45949466,-0.35514355,0.445797
0.59635952,-0.39356028,0.550033,0.57401861,-0.36791487,0.508405,0.59133792,-0.36500153,0.536891,0.58543415,-0.33005977,0.511513,0.58748495,-0.30127691,0.488298,0.58061882,-0.28299448,0.469643,0.55240891,-0.31433613,0.45774,0.47002032,-0.28236977,0.422077,0.44748119,-0.28119445,0.417959,0.44660286,-0.29120586,0.430387,0.54666015,-0.33825728,0.457946,0.49535904,-0.30403089,0.419216,0.44329975,-0.28215836,0.396623,0.4221605,-0.27348424,0.384347,0.5427425,-0.36026916,0.461045,0.45960504,-0.32264496,0.424138,0.42018725,-0.30228834,0.405256,0.39397661,-0.2879584,0.392166,0.54086117,-0.38981464,0.470507,0.47548734,-0.34939204,0.439717,0.45556143,-0.34260366,0.435632,0.45724079,-0.35354354,0.444884
0.59689109,-0.39391638,0.550088,0.57417698,-0.36844595,0.508785,0.59255357,-0.36571733,0.536977,0.58594706,-0.33066583,0.511814,0.58941768,-0.30360339,0.488121,0.58382402,-0.28616161,0.46931,0.55346498,-0.31534069,0.458431,0.47168511,-0.28371247,0.423432,0.44829415,-0.28019693,0.418311,0.44554085,-0.28795119,0.430075,0.54682735,-0.33962264,0.458722,0.47804132,-0.3001176,0.420612,0.43220169,-0.27966407,0.398381,0.41458458,-0.27180745,0.385461,0.54225467,-0.36117835,0.461868,0.45877771,-0.32025128,0.425668,0.41991829,-0.29998458,0.407147,0.39445029,-0.28824071,0.393391,0.53679174,-0.39043146,0.471342,0.47201662,-0.34800697,0.441183,0.45258878,-0.34192142,0.436267,0.45718059,-0.35368215,0.444975
0.59616105,-0.39401671,0.549626,0.57349014,-0.36833967,0.508363,0.5927735,-0.36608878,0.536462,0.58555922,-0.3306736,0.51137,0.58908721,-0.30384001,0.487627,0.58412761,-0.28677051,0.468823,0.55307445,-0.31540658,0.457976,0.47172441,-0.28341846,0.423076,0.44802153,-0.27940747,0.417838,0.44517846,-0.28683987,0.429518,0.5461446,-0.33958184,0.458348,0.4777049,-0.2999064,0.420316,0.43193047,-0.27948857,0.398131,0.4142361,-0.27157898,0.385137,0.54130843,-0.36105849,0.461556,0.45827883,-0.31990454,0.42547,0.41953081,-0.29959564,0.407007,0.39398943,-0.28788257,0.393183,0.53594268,-0.39011757,0.471101,0.47129701,-0.34754326,0.440994,0.45167583,-0.34152457,0.435979,0.45672533,-0.35345267,0.444631
0.59532915,-0.39395348,0.549344,0.57302255,-0.36830717,0.508098,0.59299775,-0.3663303,0.536133,0.58531075,-0.33070344,0.511074,0.58885436,-0.30396432,0.487302,0.58427991,-0.28712115,0.468507,0.55282173,-0.31547875,0.457668,0.47167156,-0.28315209,0.422818,0.44785643,-0.27886267,0.417528,0.44494239,-0.28616206,0.429166,0.54568217,-0.33956834,0.458102,0.47746737,-0.29975727,0.420107,0.43172545,-0.27935589,0.397942,0.41399733,-0.27142244,0.384915,0.54069293,-0.36098877,0.461361,0.45799281,-0.3197057,0.425337,0.41930413,-0.29937769,0.406905,0.39373308,-0.28768457,0.393053,0.53549845,-0.38994618,0.470963,0.47090823,-0.34728997,0.440872,0.45113457,-0.34129061,0.435811,0.45645668,-0.35333211,0.44444
0.59260711,-0.39290049,0.547626,0.57025347,-0.36829561,0.506377,0.59118657,-0.36565509,0.534338,0.58379193,-0.33066757,0.509841,0.58626082,-0.30272327,0.486407,0.57753601,-0.28318939,0.467841,0.55064964,-0.31439701,0.455852,0.47181093,-0.28061496,0.42103,0.44712577,-0.27550568,0.415726,0.44438253,-0.28369363,0.427349,0.54322957,-0.33824453,0.456378,0.47720989,-0.29878013,0.418558,0.43348011,-0.27232192,0.396496,0.41075781,-0.26080228,0.383505,0.53594305,-0.35963299,0.459714,0.45522942,-0.31722142,0.423732,0.41538633,-0.29298683,0.405322,0.39155342,-0.28587731,0.39147,0.5274749,-0.38625564,0.469407,0.46400217,-0.34098035,0.439291,0.44906634,-0.33991591,0.434216,0.45587622,-0.35283777,0.442848
0.59181094,-0.39343391,0.547464,0.56973314,-0.3682904,0.506243,0.59123945,-0.36645269,0.534243,0.58348666,-0.33080118,0.509687,0.58585514,-0.30282206,0.486261,0.57706771,-0.28371452,0.467677,0.55063179,-0.31451303,0.455823,0.47189136,-0.28013463,0.421025,0.44728696,-0.27513022,0.41567,0.44491404,-0.28360154,0.427262,0.54280021,-0.33813475,0.456278,0.47805516,-0.29881888,0.418504,0.43345059,-0.27230337,0.396469,0.41069783,-0.2607642,0.383449,0.53522226,-0.3592186,0.459553,0.45470519,-0.31652104,0.423584,0.41524286,-0.29288563,0.405182,0.3909762,-0.28531242,0.391289,0.52720858,-0.38606062,0.46917,0.46381838,-0.34084529,0.439117,0.44854904,-0.33965971,0.434003,0.45596327,-0.35287541,0.442597
0.59107274,-0.39380974,0.547508,0.56901563,-0.36865101,0.506253,0.59096021,-0.36694386,0.534194,0.58233469,-0.33044789,0.508794,0.58277878,-0.30212405,0.48516,0.57273474,-0.28531835,0.466379,0.55046715,-0.3150002,0.45569,0.4712347,-0.28052086,0.420868,0.4472585,-0.27496223,0.415574,0.44504721,-0.28520045,0.4272,0.5421388,-0.33830972,0.456246,0.47841381,-0.29906276,0.418414,0.4330337,-0.27270635,0.396345,0.41036715,-0.26110355,0.383358,0.53482808,-0.35924607,0.459606,0.4544044,-0.31634668,0.423627,0.41614035,-0.29550336,0.40522,0.39071048,-0.28520086,0.391377,0.52720756,-0.38651554,0.469331,0.46371303,-0.34125934,0.439196,0.44756446,-0.33930759,0.434128,0.45602566,-0.35311014,0.442769
0.59046254,-0.39383623,0.547359,0.56840283,-0.36871488,0.5061,0.59075142,-0.36712202,0.534014,0.58185355,-0.33054352,0.508309,0.58210332,-0.30276831,0.484532,0.57123883,-0.28492875,0.465839,0.55033785,-0.31527972,0.455498,0.47130395,-0.27995163,0.420683,0.44711651,-0.27476232,0.41539,0.44523968,-0.2843845,0.427014,0.54147922,-0.33844643,0.45609,0.47856233,-0.29916974,0.418255,0.4327172,-0.27283959,0.396184,0.41007824,-0.26119448,0.383197,0.53435468,-0.35913686,0.459479,0.45403428,-0.31611407,0.423513,0.4158171,-0.29521659,0.405111,0.39034038,-0.28499253,0.391272,0.5270133,-0.38660089,0.469239,0.46350782,-0.34135404,0.439091,0.44720088,-0.33920693,0.434023,0.45588839,-0.35310572,0.442668
0.58951916,-0.39372584,0.547056,0.56736915,-0.36875844,0.505829,0.59003251,-0.36710734,0.533526,0.58016749,-0.33070266,0.507177,0.57950674,-0.30244196,0.483218,0.56621876,-0.28472209,0.464653,0.54963494,-0.31589427,0.45503,0.4705517,-0.27981347,0.420348,0.44611556,-0.27502823,0.414943,0.44432382,-0.2839792,0.426469,0.53885678,-0.33863662,0.455858,0.47715345,-0.2997612,0.418074,0.43184546,-0.27329864,0.396033,0.40924225,-0.26147647,0.382966,0.53191987,-0.35902593,0.45944,0.45234129,-0.31516407,0.423646,0.41447272,-0.29390906,0.405333,0.38964509,-0.28480109,0.391446,0.52643363,-0.38716406,0.469426,0.46280906,-0.34191976,0.439274,0.44636041,-0.33953329,0.434106,0.45545217,-0.35354213,0.442714
0.58892042,-0.39384573,0.547073,0.56670505,-0.36899975,0.505839,0.58985138,-0.36740767,0.533492,0.57977643,-0.33078332,0.507014,0.57901455,-0.30251758,0.483005,0.56541975,-0.2849375,0.464435,0.54928438,-0.31612343,0.454972,0.47053878,-0.27947566,0.420297,0.44625232,-0.27459596,0.414901,0.44469183,-0.28350969,0.426428,0.53841841,-0.33901117,0.455859,0.47709266,-0.30020614,0.41806,0.43135021,-0.27365886,0.396011,0.40882833,-0.26175579,0.382946,0.53148752,-0.3594083,0.45949,0.45197459,-0.31547859,0.423713,0.41414028,-0.29419323,0.405408,0.38936103,-0.28487425,0.391533,0.52603083,-0.38752736,0.469536,0.46230426,-0.34226677,0.439358,0.44600802,-0.33975588,0.434194,0.45515813,-0.35394989,0.442813
0.58921796,-0.39448696,0.547877,0.56705707,-0.3698745,0.506765,0.59030994,-0.36811817,0.534192,0.58002993,-0.33128643,0.507756,0.57932249,-0.30259743,0.483727,0.56562623,-0.28456264,0.46523,0.54858257,-0.31847871,0.455872,0.47122178,-0.28076304,0.421453,0.44704507,-0.27512546,0.415773,0.44556403,-0.28399647,0.427086,0.53842301,-0.34101836,0.456932,0.47613323,-0.30074059,0.419247,0.42442537,-0.2760399,0.397264,0.40444671,-0.26705021,0.383998,0.53150791,-0.36147289,0.460697,0.45235436,-0.3175403,0.425211,0.41539233,-0.29568149,0.407055,0.39046157,-0.28600912,0.393016,0.52611044,-0.38954178,0.470886,0.46237571,-0.34437423,0.440863,0.44581143,-0.34104339,0.43546,0.4559901,-0.35505287,0.443932
0.58824433,-0.39440776,0.547418,0.56599636,-0.36984271,0.506371,0.58936697,-0.36807703,0.533672,0.57828589,-0.33134725,0.507456,0.57760163,-0.30190461,0.483436,0.56446643,-0.28361728,0.464911,0.54646955,-0.31932351,0.455458,0.46977069,-0.28118516,0.421173,0.44580729,-0.27537751,0.415353,0.44502864,-0.28393728,0.426557,0.53625936,-0.34191599,0.456616,0.47000833,-0.2991958,0.419107,0.42356895,-0.27600946,0.397227,0.40575617,-0.26548122,0.383894,0.53074449,-0.36151518,0.460457,0.45175852,-0.31772528,0.425124,0.41417606,-0.29651333,0.407047,0.38967007,-0.28592154,0.392931,0.52550852,-0.3896331,0.470729,0.46018024,-0.34526875,0.440782,0.44423712,-0.34146419,0.435261,0.45547665,-0.35527552,0.44366
0.58770516,-0.39461944,0.547363,0.56519002,-0.36989247,0.506177,0.58902684,-0.3683906,0.533701,0.57809003,-0.33119481,0.507627,0.57765209,-0.30167108,0.483863,0.56456321,-0.28324817,0.465453,0.54703142,-0.31816273,0.455251,0.46919799,-0.28018186,0.420694,0.44576832,-0.27483499,0.415177,0.44513335,-0.28418539,0.42661,0.53761642,-0.34005106,0.456255,0.47387358,-0.30017795,0.418556,0.42801072,-0.27502237,0.396565,0.40740792,-0.26348628,0.383428,0.53076351,-0.36050988,0.459978,0.45141605,-0.31661773,0.42434,0.41295072,-0.29587039,0.406106,0.38825547,-0.28526647,0.392166,0.52546463,-0.38863141,0.470128,0.46070239,-0.34402957,0.44,0.44439962,-0.34082138,0.434733,0.45492925,-0.3553664,0.443295
0.58656513,-0.39415323,0.54699,0.56398147,-0.36929044,0.505689,0.5877132,-0.36779713,0.533153,0.56764962,-0.32489575,0.509043,0.56593852,-0.2925162,0.486904,0.55121175,-0.27408197,0.46946,0.54418922,-0.31466663,0.454455,0.46660235,-0.27957063,0.419755,0.44317638,-0.27498141,0.414486,0.44449706,-0.28394675,0.426075,0.53742417,-0.3385827,0.455627,0.47044439,-0.29733991,0.417781,0.4266325,-0.27427614,0.395704,0.4053908,-0.26387979,0.382728,0.53096961,-0.35925767,0.459498,0.45073097,-0.31616782,0.423735,0.41289463,-0.29500847,0.405437,0.38719638,-0.28490604,0.391676,0.52610107,-0.38771205,0.46984,0.46106539,-0.34310702,0.439469,0.44409454,-0.34064423,0.434402,0.45484017,-0.35556649,0.443125
0.58730476,-0.39457518,0.548601,0.56218541,-0.36502741,0.507035,0.58858348,-0.36825571,0.535057,0.56561459,-0.31964161,0.513174,0.56914664,-0.28913693,0.49157,0.55807573,-0.26748651,0.473737,0.54504108,-0.31125622,0.455936,0.46606575,-0.27922983,0.420599,0.4433043,-0.2759141,0.416112,0.44409995,-0.2862876,0.428263,0.53771842,-0.33497712,0.456653,0.4656083,-0.29735883,0.418219,0.42220671,-0.27527038,0.3958,0.41308998,-0.26828952,0.383303,0.53325229,-0.35812428,0.460167,0.45322078,-0.3168166,0.423675,0.41794205,-0.30301872,0.405005,0.40250761,-0.2965425,0.391713,0.52877352,-0.38678426,0.470119,0.46101988,-0.34352631,0.439368,0.44466523,-0.34158234,0.43496,0.45575177,-0.35665062,0.444074
0.58674988,-0.39398546,0.549007,0.56186091,-0.3645566,0.507343,0.58652839,-0.36681047,0.535162,0.5556759,-0.31447758,0.513444,0.55585998,-0.2804566,0.492409,0.54017166,-0.25625233,0.475147,0.54419925,-0.31062062,0.455797,0.46426166,-0.27787787,0.420116,0.4427372,-0.27610966,0.41588,0.44571985,-0.28629402,0.428267,0.53772695,-0.33476348,0.456841,0.46419022,-0.29749497,0.418326,0.42128721,-0.27538858,0.395859,0.4039433,-0.26605956,0.38355,0.53372817,-0.35792574,0.460632,0.45197269,-0.31731713,0.424626,0.42180104,-0.29512041,0.406205,0.41104567,-0.28370133,0.393288,0.53037281,-0.38714923,0.470929,0.46153582,-0.34449888,0.439895,0.4453141,-0.34268253,0.435694,0.45651346,-0.3576928,0.444987
0.58574629,-0.392877,0.549115,0.56175261,-0.36397833,0.50739,0.58604841,-0.36595452,0.535314,0.55460357,-0.31360544,0.513106,0.55456709,-0.27957475,0.491831,0.53881248,-0.25525039,0.47457,0.54736154,-0.31282917,0.455846,0.48367917,-0.27566049,0.422198,0.46391793,-0.27029241,0.418318,0.47826721,-0.28135573,0.430046,0.53875251,-0.3357914,0.456815,0.4574096,-0.29038425,0.418162,0.41418045,-0.26699946,0.395613,0.39430145,-0.25606672,0.383461,0.53371247,-0.357123,0.460548,0.45518772,-0.31568912,0.424432,0.42081685,-0.29358141,0.405954,0.40843174,-0.28329076,0.393214,0.53026731,-0.38624497,0.470784,0.46389407,-0.34232319,0.439629,0.44748414,-0.34088176,0.435629,0.4561116,-0.35654844,0.445043
0.58561223,-0.39192668,0.549747,0.56243619,-0.36357369,0.508193,0.58713771,-0.36584425,0.53645,0.55713298,-0.31519706,0.514851,0.55593606,-0.28091329,0.493887,0.54106463,-0.25712862,0.476702,0.54822342,-0.3120511,0.457403,0.49381196,-0.27179077,0.424637,0.47012249,-0.26083391,0.420326,0.46977431,-0.26751214,0.431534,0.53891223,-0.33488171,0.457826,0.46044766,-0.28552986,0.419592,0.41645108,-0.26655454,0.397288,0.3958745,-0.25659497,0.384877,0.53311611,-0.35570378,0.461098,0.45252986,-0.30402253,0.425536,0.42496583,-0.2863983,0.407342,0.4061226,-0.27430657,0.394367,0.52486129,-0.38100151,0.470757,0.46828577,-0.34090621,0.440092,0.45415055,-0.32884541,0.435724,0.46546259,-0.33685131,0.444823
0.58884138,-0.38991398,0.557001,0.56441747,-0.35256364,0.515885,0.5916451,-0.36420083,0.54474,0.5604808,-0.31467886,0.524872,0.55436927,-0.27967894,0.505463,0.5373841,-0.25872403,0.489348,0.55236384,-0.30137094,0.466717,0.50109296,-0.26840421,0.433652,0.4769354,-0.25540912,0.428506,0.48051241,-0.25953954,0.439499,0.53959848,-0.32187543,0.466048,0.46872032,-0.27606975,0.428692,0.42945628,-0.26117396,0.406901,0.40834867,-0.25386756,0.394087,0.53044714,-0.34066002,0.46839,0.45570948,-0.2960252,0.433974,0.422192,-0.27833952,0.416365,0.3991017,-0.26676995,0.403043,0.52217421,-0.36680547,0.476876,0.46563977,-0.32250728,0.44721,0.45568487,-0.31465076,0.442221,0.46395085,-0.32025169,0.450727
0.58312014,-0.38384029,0.556777,0.56163158,-0.35132329,0.5149,0.58596597,-0.35781248,0.54382,0.53590125,-0.31105482,0.521342,0.52787673,-0.27397617,0.500983,0.50408258,-0.25317227,0.484271,0.55152428,-0.29923585,0.464251,0.49630157,-0.26455441,0.43062,0.47750125,-0.25621187,0.428866,0.49337453,-0.26830663,0.441437,0.54050813,-0.32057486,0.464139,0.46305828,-0.27508835,0.424714,0.41911673,-0.26089025,0.401715,0.40256787,-0.25723174,0.391017,0.5325431,-0.3401487,0.466994,0.45910747,-0.29760733,0.430442,0.424768,-0.28376413,0.411741,0.40151337,-0.27538394,0.400671,0.52517167,-0.36738323,0.476198,0.46567352,-0.32127705,0.444426,0.45718278,-0.31704252,0.442174,0.46551455,-0.32468602,0.452482
0.57741302,-0.37819825,0.555062,0.55829661,-0.34777734,0.514206,0.57466377,-0.34778673,0.543911,0.52420744,-0.3146045,0.522229,0.51191741,-0.27768109,0.504315,0.48569459,-0.25982873,0.48777,0.54749387,-0.28827622,0.466599,0.4737495,-0.25895508,0.433632,0.46792362,-0.25998938,0.43521,0.48827537,-0.26900326,0.444542,0.54156439,-0.31106917,0.464683,0.45964875,-0.27730256,0.425264,0.42271948,-0.26726625,0.402269,0.42409899,-0.26424446,0.394155,0.53757657,-0.33198827,0.465982,0.47073126,-0.30045326,0.429908,0.43455365,-0.28274229,0.411452,0.4289341,-0.27739928,0.403321,0.53450975,-0.3611858,0.473181,0.47111715,-0.31743245,0.441447,0.46866231,-0.3086218,0.441976,0.47814198,-0.30870705,0.45335
0.56119641,-0.367153,0.540772,0.54369279,-0.33714269,0.500983,0.55914361,-0.33766208,0.530205,0.51037832,-0.30515708,0.508495,0.50092529,-0.27049723,0.493571,0.47550121,-0.25305862,0.477602,0.53382749,-0.27941507,0.454975,0.46145532,-0.25063755,0.422377,0.45787662,-0.2530076,0.42588,0.47261151,-0.25906254,0.430311,0.52772826,-0.30137133,0.452754,0.44630574,-0.26877405,0.413678,0.41148686,-0.2575398,0.391045,0.41460948,-0.25711898,0.385287,0.52357868,-0.32155535,0.453727,0.4596437,-0.29083356,0.418031,0.42329867,-0.27346126,0.399768,0.41851513,-0.26924695,0.393366,0.52027609,-0.34979578,0.460388,0.45778436,-0.30678,0.428807,0.45708762,-0.29949618,0.430954,0.46719976,-0.30024637,0.442901
0.57727746,-0.37801526,0.558086,0.56067457,-0.34515906,0.518275,0.57578326,-0.34820572,0.548117,0.527467,-0.31614955,0.527343,0.51611698,-0.28065147,0.514613,0.49571286,-0.26421208,0.4996,0.55069755,-0.28256183,0.472973,0.47981194,-0.25581359,0.440903,0.47434829,-0.25933215,0.443998,0.48932541,-0.26747654,0.446812,0.54604076,-0.30424972,0.47002,0.46373118,-0.27589519,0.431195,0.45739752,-0.28489438,0.434848,0.48013209,-0.29651586,0.446666,0.54290624,-0.32454804,0.470392,0.48357808,-0.29478419,0.435148,0.44499352,-0.27949444,0.417116,0.43702325,-0.27925144,0.410482,0.54043885,-0.35355861,0.476336,0.47752835,-0.31224829,0.445142,0.474424,-0.30728605,0.446947,0.48351788,-0.30945083,0.458626
0.58422635,-0.38414815,0.572966,0.57134868,-0.35147137,0.532884,0.58247594,-0.35397106,0.560591,0.52738194,-0.32348431,0.536496,0.52178256,-0.28635207,0.521945,0.50135796,-0.26863302,0.505847,0.56362753,-0.29033507,0.484439,0.49677002,-0.26616115,0.450394,0.48635484,-0.26698669,0.454079,0.49736871,-0.27156913,0.45743,0.56460375,-0.31412454,0.484299,0.487761,-0.28749028,0.444542,0.47662321,-0.29491416,0.449015,0.49900323,-0.30619768,0.4648,0.56569637,-0.33619713,0.487005,0.5149054,-0.31074997,0.450069,0.47206122,-0.29481613,0.431171,0.45959552,-0.28918259,0.424612,0.56740284,-0.36743078,0.495783,0.50656013,-0.32911683,0.463224,0.50013596,-0.32146588,0.465521,0.50449994,-0.32074743,0.477871
0.5823858,-0.38508962,0.574298,0.56875471,-0.35243015,0.535227,0.57377456,-0.35430068,0.562482,0.52256884,-0.32045462,0.540185,0.518185,-0.28453416,0.528697,0.49870272,-0.26367114,0.514029,0.56140432,-0.2894232,0.488303,0.54187429,-0.25410699,0.454792,0.53020655,-0.25956652,0.459786,0.53233763,-0.27594198,0.475006,0.56623685,-0.31443945,0.487868,0.49096463,-0.28858537,0.44863,0.4812546,-0.29789913,0.454753,0.50399517,-0.31037586,0.470868,0.56768944,-0.33628799,0.490259,0.5235927,-0.30780302,0.453871,0.47848591,-0.29596619,0.435254,0.46189041,-0.29087579,0.429948,0.56965433,-0.36740436,0.49852,0.50926083,-0.32988027,0.466314,0.50426562,-0.32439087,0.469718,0.51092896,-0.3266801,0.482372
0.58205181,-0.38632489,0.576158,0.57222794,-0.35291243,0.540234,0.57281501,-0.35524103,0.564194,0.5207801,-0.32223578,0.539185,0.51277896,-0.28916332,0.528603,0.49412787,-0.27105557,0.51426,0.56759289,-0.28432196,0.495758,0.54806151,-0.24851156,0.462994,0.54157772,-0.25802365,0.471081,0.54586164,-0.2797061,0.487241,0.57517598,-0.30744443,0.496691,0.51465305,-0.28383045,0.459081,0.50479982,-0.29900362,0.46916,0.52261794,-0.31264485,0.485927,0.58147161,-0.32947678,0.499986,0.55280829,-0.30341681,0.464664,0.51142746,-0.29319437,0.446593,0.49182696,-0.29365458,0.444197,0.58881662,-0.36163921,0.508896,0.53088121,-0.3286759,0.477443,0.52638166,-0.32759956,0.483477,0.53241883,-0.33271454,0.496887
0.58297524,-0.41677315,0.5846,0.58197283,-0.36545967,0.558697,0.57186925,-0.39087621,0.58222,0.5480648,-0.35778668,0.568776,0.52194916,-0.32207364,0.552074,0.51060348,-0.29662486,0.540498,0.56672298,-0.29438426,0.534201,0.55507814,-0.25192831,0.51073,0.53739306,-0.24892675,0.498995,0.53499512,-0.25683426,0.502676,0.57920405,-0.30532025,0.527301,0.56503377,-0.26129692,0.498933,0.5450032,-0.25027323,0.482386,0.53950794,-0.26180758,0.485231,0.58978751,-0.31783037,0.523447,0.54236512,-0.31176068,0.492123,0.51514823,-0.31582367,0.476097,0.51807571,-0.31783546,0.478016,0.6031183,-0.33986968,0.522407,0.58568787,-0.31721273,0.499577,0.58427081,-0.33201846,0.509307,0.58746801,-0.34737859,0.521115
0.58046561,-0.41497729,0.581331,0.58221385,-0.36239919,0.55533,0.56920081,-0.38920259,0.578999,0.54517786,-0.35640758,0.565635,0.51885201,-0.32090217,0.549,0.50729321,-0.29549495,0.537405,0.56318414,-0.29243906,0.530809,0.55094272,-0.249898,0.507085,0.53267304,-0.24789583,0.495222,0.52963096,-0.25716437,0.498766,0.57566139,-0.30318515,0.523814,0.56110455,-0.25920152,0.495398,0.54095056,-0.24832997,0.478821,0.53543032,-0.25994936,0.481592,0.58626993,-0.31554483,0.51989,0.5387292,-0.3097079,0.488464,0.51139007,-0.3139414,0.472385,0.51370636,-0.31656642,0.474208,0.5996888,-0.33741387,0.518778,0.58119025,-0.31445788,0.495203,0.57987761,-0.32938321,0.504944,0.58350136,-0.34491545,0.517019
0.5650966,-0.40513502,0.568024,0.57192036,-0.35892942,0.549488,0.55519736,-0.38010538,0.566427,0.52659429,-0.34099708,0.553722,0.50150341,-0.30674849,0.538992,0.49118058,-0.28163414,0.529599,0.56466726,-0.29250191,0.532085,0.55051419,-0.25274318,0.514296,0.53878222,-0.244412,0.505402,0.54475696,-0.24421826,0.513044,0.5788145,-0.30419358,0.527019,0.57352387,-0.26134422,0.504245,0.56215199,-0.24361455,0.49096,0.56418319,-0.24803794,0.497583,0.5907296,-0.31741135,0.524156,0.58970331,-0.27221838,0.510209,0.58502024,-0.25561114,0.503073,0.59284916,-0.26553704,0.513565,0.60432615,-0.33954427,0.523285,0.5993528,-0.29745636,0.504134,0.59714488,-0.2988459,0.504736,0.60251258,-0.31682769,0.516295
0.52342042,-0.40533696,0.535143,0.55821112,-0.37990216,0.536366,0.54163085,-0.401488,0.550099,0.54097553,-0.37934677,0.562631,0.53456484,-0.35012234,0.564027,0.52709648,-0.33106728,0.559178,0.60847379,-0.35478784,0.555516,0.58636477,-0.33666621,0.561745,0.57765347,-0.35356529,0.564859,0.57862627,-0.37471077,0.576563,0.60008295,-0.34930736,0.537849,0.59538168,-0.3099086,0.536994,0.59017983,-0.28707088,0.536495,0.59371764,-0.27688885,0.546041,0.5909039,-0.34666959,0.52323,0.5965486,-0.30983558,0.527371,0.59372412,-0.29158745,0.52949,0.58304078,-0.28135063,0.531416,0.57523947,-0.3472214,0.505544,0.59827995,-0.320861,0.507086,0.59482659,-0.30655186,0.507794,0.5914979,-0.3091917,0.516281
0.51166486,-0.40319076,0.544135,0.55566976,-0.40504973,0.561892,0.5213535,-0.38454944,0.550308,0.53244925,-0.35168583,0.553334,0.532718,-0.33796499,0.568192,0.54481484,-0.32143819,0.574134,0.6027844,-0.38538183,0.58419,0.63864313,-0.38636379,0.592991,0.62598701,-0.39088071,0.597392,0.61947049,-0.40145281,0.613579,0.60784082,-0.40778567,0.583415,0.65147392,-0.41165723,0.593866,0.66187737,-0.41708469,0.599962,0.66453448,-0.43186856,0.616274,0.60904348,-0.42622896,0.581528,0.64808894,-0.42992482,0.591184,0.65435569,-0.43239455,0.59625,0.64507469,-0.43986418,0.605634,0.60461954,-0.44837038,0.576815,0.6341382,-0.47833288,0.586753,0.6523488,-0.49179284,0.591319,0.6793558,-0.50386278,0.603063
0.51370725,-0.40564551,0.546307,0.55615382,-0.40661905,0.562662,0.52112315,-0.38525313,0.550061,0.52969227,-0.35331385,0.549477,0.53806527,-0.33718859,0.565457,0.54788695,-0.32110001,0.572447,0.59882912,-0.38440088,0.580859,0.63420566,-0.3837259,0.587175,0.64008431,-0.39760053,0.604896,0.62350989,-0.40323521,0.610984,0.60624256,-0.40836067,0.582486,0.64813149,-0.41113559,0.591193,0.66413751,-0.4160148,0.596271,0.67423789,-0.42964483,0.612252,0.60954077,-0.42828841,0.582674,0.64634392,-0.43037284,0.590012,0.65137536,-0.43187679,0.593766,0.650362,-0.4447989,0.610727,0.60787908,-0.45253721,0.58064,0.63815481,-0.48343656,0.591438,0.65646128,-0.49742666,0.5964,0.67553729,-0.50385926,0.600777
0.51488569,-0.40576617,0.547328,0.55723837,-0.40700757,0.56374,0.5221378,-0.3851427,0.550722,0.53070869,-0.35152612,0.549601,0.53751066,-0.33566986,0.564476,0.55146778,-0.31989777,0.570759,0.59959431,-0.3847469,0.581548,0.63817941,-0.38483103,0.587682,0.64304793,-0.3972336,0.605338,0.62794215,-0.40239155,0.609972,0.60720596,-0.40906762,0.583633,0.64934737,-0.41219685,0.592345,0.66578241,-0.41671152,0.597427,0.6760597,-0.43022106,0.613367,0.610675,-0.42929604,0.584194,0.64767973,-0.43158214,0.591404,0.65302227,-0.43305423,0.595093,0.65209494,-0.44572461,0.61197,0.60922549,-0.45389826,0.582598,0.63952675,-0.4853085,0.593806,0.6547524,-0.50076027,0.599457,0.6663895,-0.51550354,0.606962
0.50886396,-0.39743216,0.540743,0.54806242,-0.39072239,0.558059,0.51549985,-0.37491042,0.543347,0.53451609,-0.33507329,0.541132,0.53884563,-0.31662555,0.553993,0.55862834,-0.30458432,0.561789,0.58624279,-0.37071376,0.575663,0.62517919,-0.37090581,0.581944,0.66011643,-0.37977229,0.599252,0.67864464,-0.38050065,0.603688,0.5934651,-0.39603057,0.579048,0.64219452,-0.4008008,0.588549,0.65542294,-0.41099475,0.594092,0.66408785,-0.42691381,0.609967,0.59686524,-0.41695628,0.580614,0.64661655,-0.41931057,0.588186,0.65305577,-0.42576939,0.592059,0.64980887,-0.4430597,0.608744,0.59583935,-0.44214813,0.580099,0.62345639,-0.47608703,0.593148,0.63717272,-0.4924806,0.600105,0.6494351,-0.5070884,0.606374
0.50821702,-0.3947375,0.540037,0.54768234,-0.39045343,0.557933,0.51500306,-0.37228236,0.542853,0.53461466,-0.33501934,0.541003,0.54080202,-0.3160942,0.553917,0.56122859,-0.3046076,0.561247,0.58659011,-0.37099109,0.57628,0.62605527,-0.37151581,0.583091,0.6602551,-0.38031799,0.600306,0.67736592,-0.38091056,0.604496,0.59376705,-0.39626594,0.579626,0.64309806,-0.40143341,0.589725,0.65778976,-0.41105115,0.595616,0.67072843,-0.42735273,0.611559,0.59708779,-0.4171239,0.581119,0.64698611,-0.42016465,0.589258,0.65188098,-0.42986513,0.593422,0.65117301,-0.44396867,0.610177,0.5958849,-0.44216305,0.580436,0.62386529,-0.47636481,0.593846,0.63774654,-0.49288288,0.600962,0.6502382,-0.50766842,0.607447
0.50410651,-0.39012851,0.536003,0.54486164,-0.38851544,0.555827,0.51161642,-0.36306138,0.539904,0.53304798,-0.33404254,0.539774,0.54216167,-0.31669783,0.555137,0.56275955,-0.30562849,0.562295,0.58666038,-0.37111806,0.577096,0.62820454,-0.37288565,0.585899,0.66190455,-0.38149039,0.602851,0.67763862,-0.38150859,0.60615,0.59322782,-0.39598412,0.579855,0.6446755,-0.40250895,0.591993,0.66133561,-0.41260561,0.599074,0.67239145,-0.42955403,0.615282,0.59590508,-0.41637161,0.580731,0.63963011,-0.42283826,0.590938,0.63843549,-0.43124799,0.59616,0.63489779,-0.44709777,0.613229,0.59365917,-0.44057982,0.579042,0.62244117,-0.47534253,0.59327,0.63650479,-0.4919871,0.600575,0.64937795,-0.50705966,0.60743
0.50568779,-0.390738,0.538143,0.54576063,-0.38981832,0.557248,0.51323026,-0.36923196,0.541886,0.53428141,-0.33545434,0.541453,0.54262693,-0.31746691,0.555667,0.56242048,-0.3061226,0.561806,0.58711477,-0.3719642,0.577727,0.62828829,-0.37335266,0.585931,0.66221868,-0.38205539,0.603039,0.67828357,-0.38224078,0.606636,0.59358631,-0.39680234,0.580406,0.64136379,-0.40346514,0.59181,0.65317085,-0.41443828,0.598462,0.66391131,-0.43000673,0.614618,0.59621713,-0.41719468,0.581266,0.63954014,-0.42412411,0.590812,0.63769712,-0.43222324,0.595696,0.63404003,-0.44801422,0.612724,0.59398073,-0.44147247,0.579658,0.62227913,-0.47587789,0.593307,0.63615318,-0.49237824,0.600383,0.64891418,-0.50736464,0.60709
0.50419983,-0.38865506,0.536423,0.54530126,-0.38924813,0.556494,0.51373261,-0.36662542,0.540229,0.54205784,-0.34046186,0.540211,0.55881163,-0.31692588,0.545932,0.58177759,-0.31019159,0.548854,0.58764887,-0.37205851,0.577854,0.62962442,-0.37412289,0.586776,0.66319275,-0.38278789,0.603642,0.67852071,-0.38283477,0.606859,0.59428023,-0.39708974,0.580822,0.64450482,-0.40443988,0.593196,0.65926877,-0.41508755,0.600414,0.66736775,-0.42999403,0.616614,0.59696975,-0.41760132,0.58185,0.64146998,-0.42533806,0.592218,0.64025767,-0.43321693,0.597522,0.63657148,-0.44856849,0.614561,0.59466338,-0.441926,0.580311,0.62439964,-0.47670818,0.594923,0.63944082,-0.49299942,0.602655,0.65224895,-0.50851792,0.609477
0.50386362,-0.3877007,0.536022,0.54531471,-0.38918478,0.556405,0.51165673,-0.36663344,0.539858,0.54171727,-0.34048831,0.539971,0.55858125,-0.31731444,0.545737,0.58156039,-0.31085741,0.54882,0.58805954,-0.37228783,0.578062,0.63001718,-0.374627,0.587223,0.66360704,-0.38331276,0.604008,0.67837234,-0.3833346,0.607098,0.59467538,-0.39737272,0.581111,0.64481301,-0.40512955,0.593801,0.65960763,-0.41536655,0.601204,0.66784481,-0.4302427,0.617417,0.59732898,-0.41791177,0.582185,0.64223022,-0.4259299,0.592824,0.64126761,-0.433549,0.598267,0.63757212,-0.44862376,0.615309,0.59493015,-0.44222771,0.580657,0.62530483,-0.47691038,0.595565,0.6406748,-0.4931866,0.603441,0.65373363,-0.508655,0.61039
0.50448189,-0.38761948,0.536645,0.54588737,-0.38954143,0.556916,0.51223921,-0.36657968,0.540378,0.54205333,-0.34077942,0.540339,0.55928652,-0.31788758,0.546436,0.58236392,-0.31154639,0.549635,0.58849971,-0.3725446,0.578355,0.63011823,-0.3748804,0.587375,0.66362539,-0.38362022,0.604169,0.67780918,-0.38372417,0.607318,0.59513116,-0.39769076,0.581487,0.64608242,-0.40618046,0.594053,0.66395689,-0.41398546,0.601384,0.67647425,-0.43024641,0.617576,0.59780281,-0.4182855,0.582636,0.64263048,-0.42624794,0.593136,0.64165274,-0.43359893,0.598508,0.63792827,-0.44848484,0.615522,0.59543924,-0.44267996,0.581215,0.62604419,-0.47712566,0.596112,0.64151127,-0.49332196,0.603978,0.65466219,-0.50865028,0.610919
0.50368,-0.38528774,0.535589,0.54557627,-0.3890542,0.556374,0.51179718,-0.36438761,0.539634,0.54205484,-0.34037867,0.540109,0.56003364,-0.31797531,0.546936,0.58336598,-0.31176899,0.550416,0.58893641,-0.37265329,0.578619,0.6310235,-0.37533878,0.588189,0.66401432,-0.3840246,0.604904,0.66943066,-0.38469545,0.607806,0.59536703,-0.39767103,0.581567,0.64666699,-0.40543444,0.594684,0.66535594,-0.41333249,0.602336,0.67758874,-0.43031851,0.618594,0.59783906,-0.41812138,0.582529,0.64334839,-0.42637851,0.593595,0.64270288,-0.43378598,0.599256,0.63906274,-0.44865405,0.616352,0.59517017,-0.44226625,0.580812,0.62586775,-0.47676422,0.595927,0.64103645,-0.49346196,0.603839,0.65454295,-0.50831735,0.6109
0.50394989,-0.38372237,0.535866,0.54585856,-0.38917231,0.556695,0.5120625,-0.36432554,0.539913,0.54211479,-0.34038626,0.540404,0.56038115,-0.31817141,0.547507,0.5838192,-0.3120205,0.551112,0.58923283,-0.37282305,0.57898,0.63190189,-0.37576591,0.588582,0.66452755,-0.38421984,0.605286,0.67661285,-0.38421024,0.608169,0.59566622,-0.39784959,0.581942,0.64642888,-0.40591734,0.595104,0.66243954,-0.4146463,0.602782,0.67258183,-0.42973253,0.619041,0.59813998,-0.41830486,0.582913,0.64366652,-0.42650496,0.594016,0.64304754,-0.43381582,0.599697,0.63940745,-0.44862557,0.616792,0.59547015,-0.44244867,0.5812,0.62612083,-0.47690835,0.596358,0.64127149,-0.49358993,0.604295,0.65472783,-0.50840391,0.611347
0.55264232,-0.35360297,0.573684,0.58647567,-0.37950643,0.583206,0.56998055,-0.34506098,0.576772,0.5963878,-0.32890214,0.57337,0.63255958,-0.32079275,0.583988,0.65725882,-0.31693864,0.585416,0.63319427,-0.38981881,0.594893,0.66375605,-0.38905028,0.596291,0.68314778,-0.39516191,0.614853,0.68732963,-0.3929744,0.621716,0.62612085,-0.40979586,0.594747,0.66209687,-0.41132571,0.596874,0.66212076,-0.40708982,0.598114,0.67363035,-0.40863366,0.613168,0.61784611,-0.42498479,0.593957,0.64744209,-0.42738441,0.595687,0.64070763,-0.42848948,0.596572,0.63781378,-0.43332217,0.612764,0.60304322,-0.4404267,0.591695,0.6241562,-0.46740427,0.597696,0.63619675,-0.48147407,0.602793,0.64679813,-0.49385475,0.60729
0.5532008,-0.35888472,0.573859,0.58731959,-0.38967831,0.583287,0.57103177,-0.35053798,0.577449,0.59991327,-0.3418266,0.574483,0.63686231,-0.33479821,0.585938,0.6622549,-0.33229655,0.587783,0.63457729,-0.39994259,0.595504,0.6655133,-0.39993091,0.597172,0.68292643,-0.40632665,0.615755,0.68370781,-0.40450605,0.622521,0.6268294,-0.4196374,0.594714,0.66285728,-0.4218107,0.596846,0.66346241,-0.41581404,0.598089,0.67214402,-0.4233172,0.61315,0.61802112,-0.43458515,0.593401,0.65051985,-0.43858134,0.595322,0.63990441,-0.43599868,0.596305,0.63503063,-0.44539236,0.612562,0.60458949,-0.44951057,0.590526,0.62465182,-0.47582192,0.595309,0.63620036,-0.4896023,0.599837,0.64666733,-0.50195663,0.604117
0.55360749,-0.36054416,0.574453,0.58735084,-0.38917881,0.583656,0.57124753,-0.35201201,0.577866,0.59950588,-0.34105917,0.574636,0.63563544,-0.33352331,0.585399,0.66044011,-0.33065102,0.586768,0.63423184,-0.3990492,0.595472,0.66483784,-0.39870676,0.59688,0.68221221,-0.40507831,0.615475,0.68306773,-0.40333168,0.622347,0.62671264,-0.41885854,0.594812,0.66244644,-0.42068174,0.596703,0.66106979,-0.41210784,0.597807,0.67029678,-0.42153318,0.612822,0.61810007,-0.43392538,0.593621,0.65030281,-0.4375632,0.595281,0.63928977,-0.43206143,0.596131,0.63474812,-0.44490359,0.61233,0.60461028,-0.44965693,0.590923,0.62577427,-0.47554752,0.596014,0.63888618,-0.48891533,0.600742,0.649335,-0.50125007,0.605166
0.55288983,-0.36089829,0.573992,0.58687299,-0.38863223,0.583427,0.57062366,-0.35237182,0.57756,0.59886223,-0.3405266,0.57457,0.63520644,-0.33264958,0.58523,0.65981148,-0.32954157,0.586535,0.63419647,-0.39850526,0.595624,0.66641864,-0.39880782,0.597282,0.68950655,-0.40550768,0.615865,0.68863541,-0.404406,0.622634,0.62669755,-0.41829846,0.594863,0.66265924,-0.42010859,0.596997,0.66120099,-0.41234196,0.598241,0.6703166,-0.42007981,0.613303,0.61807859,-0.43334755,0.593572,0.65052501,-0.43700992,0.595487,0.63990219,-0.43252152,0.596467,0.63536726,-0.4446631,0.612722,0.60430693,-0.44943349,0.590723,0.62551845,-0.4756453,0.595967,0.63771868,-0.48948475,0.600819,0.64812264,-0.50075114,0.605158
0.55209868,-0.36085873,0.573254,0.58634923,-0.38631333,0.582896,0.56973262,-0.35222068,0.576783,0.59685935,-0.33857046,0.573947,0.63199716,-0.32832342,0.583564,0.65924973,-0.32462029,0.58714,0.63388143,-0.39778344,0.595219,0.66688711,-0.39833145,0.596983,0.68545178,-0.40494819,0.615551,0.68694011,-0.40331552,0.622273,0.6266358,-0.41771295,0.594584,0.66278688,-0.41949929,0.596902,0.66014051,-0.41139901,0.598254,0.66652479,-0.41896734,0.61335,0.61820182,-0.43288309,0.593383,0.65079543,-0.4365124,0.595432,0.64036204,-0.4324266,0.596481,0.63602419,-0.44281925,0.61276,0.60420799,-0.44896898,0.590611,0.62587167,-0.47522232,0.596277,0.63821347,-0.48903101,0.601258,0.64872941,-0.50035689,0.605701
0.54630061,-0.3568511,0.566993,0.57611778,-0.3796992,0.57248,0.55627432,-0.34364471,0.562601,0.58369515,-0.34197154,0.549584,0.60951423,-0.33618477,0.554878,0.6320591,-0.3436697,0.556721,0.61273278,-0.3850485,0.571733,0.63502396,-0.37951532,0.566062,0.64798041,-0.37919189,0.583539,0.65584746,-0.37481532,0.592758,0.61187783,-0.40957436,0.57913,0.64353282,-0.41072432,0.576599,0.63488713,-0.39770904,0.575123,0.64077641,-0.40231631,0.588354,0.60952739,-0.42730005,0.584828,0.62526796,-0.45547076,0.586581,0.63340305,-0.46854127,0.587477,0.65530928,-0.49114377,0.601763,0.6004347,-0.45001235,0.590899,0.62307942,-0.47110536,0.595884,0.63183291,-0.47944939,0.598174,0.64306227,-0.49403339,0.602762
0.55112992,-0.3598479,0.571831,0.57655299,-0.38003339,0.572655,0.56281645,-0.34748553,0.568785,0.5908409,-0.34525184,0.556244,0.61359958,-0.33717736,0.558093,0.63485155,-0.34288391,0.558661,0.6111555,-0.38372965,0.56965,0.63067446,-0.37655863,0.561744,0.64522143,-0.37563634,0.580019,0.65202367,-0.37312478,0.590439,0.60673975,-0.40580486,0.573653,0.63641882,-0.40700301,0.566896,0.62154197,-0.38962949,0.562954,0.62739092,-0.39276313,0.575754,0.60116092,-0.42324685,0.576888,0.63469386,-0.46187534,0.594561,0.65186568,-0.48166496,0.603603,0.6674839,-0.49966924,0.611822,0.59056878,-0.44232592,0.58065,0.6177661,-0.46726347,0.59156,0.62965307,-0.4787822,0.596573,0.64204861,-0.49313634,0.602225
0.55057758,-0.35949269,0.571324,0.57609991,-0.37980901,0.572149,0.56241467,-0.34717638,0.568256,0.58971394,-0.34410243,0.55569,0.61272533,-0.33586924,0.557567,0.63416691,-0.34107285,0.558201,0.61049886,-0.38305201,0.56912,0.62987397,-0.37573449,0.561202,0.64446959,-0.37530709,0.579473,0.64960548,-0.3721739,0.589896,0.60620429,-0.40518145,0.57315,0.63580484,-0.40619345,0.566393,0.62106433,-0.38880995,0.562451,0.62526914,-0.39088974,0.575248,0.60071411,-0.4226801,0.576408,0.63477106,-0.46079882,0.593209,0.65221889,-0.48033775,0.601805,0.66809292,-0.49812014,0.609619,0.59020208,-0.44184757,0.580197,0.61576877,-0.46536342,0.58999,0.62876324,-0.47832648,0.595908,0.64088062,-0.49024837,0.601772
0.54994899,-0.35907615,0.570667,0.57563421,-0.37946627,0.571541,0.56226861,-0.34699091,0.567959,0.58954798,-0.33607727,0.555815,0.61096386,-0.3258327,0.559463,0.63401822,-0.32761095,0.561621,0.61062373,-0.38255908,0.568988,0.63021159,-0.37532642,0.561316,0.644325,-0.37518968,0.579655,0.6487285,-0.37140825,0.590009,0.60597607,-0.40446846,0.5726,0.63564084,-0.40541573,0.56593,0.62056672,-0.38905711,0.562039,0.62511199,-0.38870812,0.574903,0.60019229,-0.42177572,0.57551,0.63478746,-0.45873986,0.590887,0.65465473,-0.47757981,0.598754,0.66827348,-0.49502893,0.605906,0.5893215,-0.44071672,0.578877,0.61516548,-0.46472424,0.589103,0.62835041,-0.47766626,0.595211,0.64063449,-0.48956921,0.60124
