sluyters/QuantumLeap/backend/src/datasets/dynamic/HandGestureDataset_SHREC2017_csv/Gesture5/finger_1/subject_3_essai_1_skeletons_world.csv
Wrist_x,Wrist_y,Wrist_z,Palm_x,Palm_y,Palm_z,thumb_base_x,thumb_base_y,thumb_base_z,thumb_first_joint_x,thumb_first_joint_y,thumb_first_joint_z,thumb_second_joint_x,thumb_second_joint_y,thumb_second_joint_z,thumb_tip_x,thumb_tip_y,thumb_tip_z,index_base_x,index_base_y,index_base_z,index_first_joint_x,index_first_joint_y,index_first_joint_z,index_second_joint_x,index_second_joint_y,index_second_joint_z,index_tip_x,index_tip_y,index_tip_z,middle_base_x,middle_base_y,middle_base_z,middle_first_joint_x,middle_first_joint_y,middle_first_joint_z,middle_second_joint_x,middle_second_joint_y,middle_second_joint_z,middle_tip_x,middle_tip_y,middle_tip_z,ring_base_x,ring_base_y,ring_base_z,ring_first_joint_x,ring_first_joint_y,ring_first_joint_z,ring_second_joint_x,ring_second_joint_y,ring_second_joint_z,ring_tip_x,ring_tip_y,ring_tip_z,pinky_base_x,pinky_base_y,pinky_base_z,pinky_first_joint_x,pinky_first_joint_y,pinky_first_joint_z,pinky_second_joint_x,pinky_second_joint_y,pinky_second_joint_z,pinky_tip_x,pinky_tip_y,pinky_tip_z,
0.30563399,-0.34585002,0.476042,0.30009694,-0.29028858,0.457803,0.28308313,-0.32766283,0.46949,0.25855637,-0.29088221,0.457599,0.23868792,-0.26084947,0.447944,0.23203841,-0.2399065,0.443048,0.26899138,-0.23561778,0.437635,0.26804586,-0.20614398,0.447801,0.26687844,-0.1907576,0.452884,0.26565338,-0.17630992,0.457505,0.29442024,-0.24107284,0.440615,0.27811831,-0.19402812,0.416884,0.26536215,-0.1902959,0.403042,0.26857729,-0.20768226,0.409735,0.31681458,-0.24947298,0.444739,0.29963612,-0.2123746,0.422406,0.28729506,-0.21066878,0.410979,0.28925005,-0.23093137,0.417864,0.34461538,-0.26908471,0.452581,0.32817218,-0.22997384,0.437179,0.32226485,-0.2278852,0.430103,0.31861008,-0.23478591,0.423859
0.30583534,-0.34546487,0.475785,0.29979115,-0.28956714,0.456916,0.2835143,-0.32751841,0.469593,0.25885659,-0.29077294,0.457755,0.23888931,-0.26086018,0.448197,0.23196801,-0.23983645,0.442913,0.2686704,-0.23496121,0.436794,0.26812843,-0.20573708,0.447398,0.26713289,-0.19043373,0.4527,0.26606495,-0.17607279,0.45752,0.29390136,-0.23959178,0.439132,0.27673526,-0.19335308,0.414935,0.26294207,-0.19039118,0.400821,0.26523554,-0.2090961,0.407323,0.3157858,-0.24888774,0.442786,0.29803065,-0.21196276,0.42021,0.28599974,-0.20961511,0.408659,0.28780081,-0.22979652,0.415403,0.34316131,-0.26841462,0.45018,0.32714123,-0.22950227,0.434648,0.3205032,-0.22743193,0.427512,0.31659657,-0.23363395,0.421216
0.30621236,-0.34527782,0.475801,0.29989882,-0.28924488,0.456659,0.28392468,-0.32734933,0.469661,0.25909335,-0.29059265,0.457799,0.23902935,-0.26080398,0.448335,0.23187249,-0.23974042,0.44273,0.26864173,-0.23456001,0.436428,0.26838475,-0.20546357,0.447285,0.26750376,-0.19019346,0.452714,0.2665414,-0.17587967,0.457648,0.29364102,-0.23935674,0.438619,0.27619105,-0.19318057,0.414208,0.262202,-0.19023463,0.399968,0.26434811,-0.20889889,0.406372,0.31541979,-0.24861836,0.442177,0.29746218,-0.21199587,0.419449,0.28552149,-0.20922998,0.40782,0.28724404,-0.22935935,0.414477,0.34270396,-0.26815896,0.449503,0.32667654,-0.22909947,0.433869,0.31995548,-0.22709551,0.426687,0.31592575,-0.23337653,0.420349
0.30654723,-0.34504276,0.475751,0.30003,-0.2889445,0.456437,0.28429174,-0.32712998,0.469657,0.25931409,-0.29039476,0.457815,0.23915547,-0.26073279,0.448447,0.23176859,-0.23963572,0.442531,0.26866891,-0.23420672,0.436152,0.26867307,-0.20521428,0.447225,0.26789387,-0.18996723,0.452761,0.26702765,-0.17569388,0.457794,0.29344978,-0.23918257,0.438234,0.27580104,-0.19306393,0.41369,0.26168211,-0.19012911,0.399372,0.26372881,-0.20876939,0.405715,0.31514441,-0.24841564,0.441719,0.29705436,-0.21199752,0.418901,0.28516005,-0.20894783,0.407226,0.286838,-0.22903883,0.41383,0.34235464,-0.26796229,0.448987,0.32635189,-0.22882055,0.43333,0.31958955,-0.22687066,0.426136,0.31548972,-0.23323301,0.419788
0.30658257,-0.3451367,0.475776,0.30000171,-0.28898016,0.456269,0.28434706,-0.32711278,0.469624,0.25946793,-0.29027831,0.45773,0.2394129,-0.26064411,0.448486,0.23199665,-0.23955698,0.442514,0.26859671,-0.23405112,0.435785,0.26856646,-0.20484285,0.446577,0.26774014,-0.189509,0.451973,0.26682941,-0.17515766,0.456879,0.29336332,-0.23911705,0.437885,0.27542231,-0.19292046,0.413174,0.26118413,-0.18997135,0.39876,0.26313364,-0.2085686,0.405021,0.31495823,-0.24828003,0.441402,0.29670662,-0.21195842,0.41843,0.28480825,-0.20867969,0.406677,0.28642464,-0.22871098,0.413197,0.3421999,-0.26790083,0.448739,0.32573431,-0.22835096,0.432433,0.31872704,-0.22628326,0.424941,0.31430075,-0.23280527,0.41833
0.30655474,-0.34515956,0.475703,0.29994457,-0.28898813,0.456057,0.28436483,-0.32705245,0.469529,0.25962054,-0.29016062,0.457643,0.2396745,-0.26056012,0.448533,0.23222935,-0.23948312,0.442506,0.26854691,-0.23391489,0.435454,0.26846314,-0.20447364,0.445934,0.26758009,-0.18904607,0.451174,0.26661613,-0.17461133,0.455938,0.29328059,-0.23905455,0.437541,0.27508785,-0.19278361,0.412714,0.26076215,-0.18982332,0.398231,0.26264146,-0.208389,0.404436,0.31474616,-0.24812179,0.44106,0.29638217,-0.21188359,0.417987,0.28448401,-0.20843524,0.406183,0.28605959,-0.22842097,0.412646,0.34198642,-0.26778148,0.448423,0.32532732,-0.22803823,0.431835,0.31820703,-0.22593271,0.424214,0.31357597,-0.23272191,0.41749
0.30652852,-0.34522983,0.475755,0.29981943,-0.28897473,0.455853,0.28446231,-0.32711863,0.469674,0.25975534,-0.29019927,0.457766,0.2398015,-0.26061439,0.448653,0.23224223,-0.23952423,0.442461,0.26849525,-0.2338194,0.435203,0.26844359,-0.20422611,0.445492,0.26754396,-0.18873842,0.450636,0.2665632,-0.17424884,0.455313,0.29306181,-0.23893302,0.437097,0.27455166,-0.19274715,0.412077,0.25982028,-0.18976822,0.397482,0.26147654,-0.20826147,0.403596,0.31440105,-0.24799255,0.44048,0.29587782,-0.21164505,0.417287,0.28396652,-0.20805116,0.405422,0.28549143,-0.22796832,0.411809,0.34150872,-0.26766824,0.447725,0.32508991,-0.22785049,0.431475,0.31807291,-0.22585201,0.424009,0.31353436,-0.2327302,0.417422
0.30676585,-0.34539174,0.475981,0.29965771,-0.28877886,0.455446,0.28475226,-0.3272471,0.469935,0.2599354,-0.29009157,0.457659,0.24019296,-0.26064477,0.448857,0.23264928,-0.23954056,0.442609,0.26814964,-0.23338819,0.434429,0.26812615,-0.20369181,0.444582,0.26719354,-0.18817389,0.449658,0.26617035,-0.17366142,0.454273,0.29251664,-0.23842934,0.436092,0.2734549,-0.19222182,0.410566,0.2587333,-0.18890468,0.395676,0.26022918,-0.20722759,0.401541,0.31373007,-0.24745974,0.439345,0.29469846,-0.21225091,0.415762,0.28302654,-0.21364016,0.403696,0.28420124,-0.2278453,0.409849,0.34076118,-0.26715683,0.446541,0.32436038,-0.2272679,0.430241,0.31718781,-0.22560223,0.422753,0.31268763,-0.23236924,0.416145
0.30671551,-0.34508445,0.475687,0.29951555,-0.28839164,0.454969,0.28472421,-0.32690746,0.469642,0.25996123,-0.28967806,0.457249,0.24048427,-0.26036081,0.448788,0.23302434,-0.23927123,0.442561,0.26797218,-0.23291473,0.433835,0.26799408,-0.2031669,0.443921,0.26706472,-0.18762787,0.448963,0.26603957,-0.17309894,0.453548,0.29228624,-0.2379668,0.435444,0.27305424,-0.19180563,0.409771,0.2581786,-0.18835832,0.394795,0.25954613,-0.20658514,0.400587,0.31346532,-0.24701366,0.438667,0.29418888,-0.21218966,0.414968,0.28242851,-0.21318875,0.402843,0.28361453,-0.22808002,0.408926,0.34047496,-0.26674753,0.445859,0.3237123,-0.22680241,0.429341,0.31649378,-0.22526528,0.421752,0.3119556,-0.23232194,0.415055
0.30609666,-0.34427075,0.474739,0.29928968,-0.2879827,0.45448,0.28427014,-0.32616634,0.468844,0.25991046,-0.28918626,0.456817,0.24086408,-0.26011318,0.4489,0.23354499,-0.23906688,0.44272,0.2681613,-0.23274004,0.433834,0.2681541,-0.20281784,0.443692,0.26719734,-0.18720728,0.44862,0.2661438,-0.17261989,0.453101,0.29243819,-0.23783545,0.435387,0.27346185,-0.1919277,0.410108,0.2586367,-0.1887123,0.395362,0.26007178,-0.2071208,0.401352,0.31354784,-0.24689666,0.438522,0.2944512,-0.21123281,0.415191,0.28268405,-0.20648561,0.403254,0.28411346,-0.22618496,0.409543,0.34039476,-0.26660227,0.445536,0.32312186,-0.22645926,0.428562,0.31583076,-0.2250607,0.420763,0.31115553,-0.23211492,0.413882
0.3059627,-0.34400259,0.474543,0.29917405,-0.28768749,0.454188,0.28413913,-0.32583741,0.46861,0.25984932,-0.28875446,0.456434,0.24118129,-0.25987872,0.44898,0.23397114,-0.23884524,0.442794,0.26805281,-0.2323557,0.433431,0.26804469,-0.20234848,0.443161,0.2670524,-0.18669932,0.448025,0.26594333,-0.17207179,0.452448,0.29233369,-0.23751326,0.435004,0.2732697,-0.19179377,0.409641,0.25838215,-0.18884475,0.394846,0.25978777,-0.20734037,0.400794,0.31344823,-0.24663017,0.438165,0.29444289,-0.21072033,0.414753,0.28265385,-0.20581588,0.402775,0.28399779,-0.2254144,0.40902,0.34029908,-0.26640815,0.445223,0.3226925,-0.22615783,0.4279,0.31529939,-0.22489414,0.419941,0.31054751,-0.23196229,0.412918
0.30583325,-0.34383075,0.474354,0.29902571,-0.28748012,0.45391,0.28403184,-0.32565806,0.468437,0.2596883,-0.28838109,0.455948,0.24177377,-0.26016993,0.449523,0.23485444,-0.23927483,0.443798,0.26791839,-0.23211341,0.433116,0.26785528,-0.20201549,0.442688,0.26680087,-0.18633006,0.447475,0.26561057,-0.17166632,0.451826,0.29216491,-0.23727472,0.434643,0.27307561,-0.19156022,0.409211,0.25814807,-0.18862907,0.394376,0.25951628,-0.20711427,0.40029,0.31324993,-0.24639722,0.437774,0.29428021,-0.21112502,0.414313,0.28251302,-0.20519565,0.40231,0.28379798,-0.22469957,0.408524,0.34006781,-0.26618675,0.444813,0.32215924,-0.2258883,0.427222,0.3146941,-0.22477299,0.41914,0.30990272,-0.23186682,0.412009
0.30568253,-0.34363506,0.474132,0.298884,-0.28727909,0.453642,0.28390211,-0.32545296,0.468227,0.25950629,-0.28798431,0.455425,0.24239443,-0.26049182,0.450119,0.23577174,-0.23973961,0.444867,0.26780375,-0.23188824,0.432833,0.26768094,-0.20169393,0.44224,0.26656004,-0.18596826,0.446943,0.26528662,-0.17126642,0.451219,0.29202906,-0.23706296,0.434331,0.27293762,-0.191366,0.408865,0.25798141,-0.18846267,0.394009,0.2593219,-0.20694972,0.399905,0.31309456,-0.24619804,0.437443,0.29417364,-0.21075323,0.413959,0.2824409,-0.20462561,0.401943,0.2836774,-0.22404748,0.408142,0.33988465,-0.26600305,0.444466,0.32164179,-0.22562992,0.426565,0.31408881,-0.22465177,0.418339,0.3092443,-0.23176058,0.411082
0.30593531,-0.34370415,0.475139,0.30313425,-0.29097858,0.460212,0.28618721,-0.32750266,0.472355,0.26711526,-0.28680121,0.467738,0.25490445,-0.2587618,0.464583,0.24992283,-0.23739159,0.459706,0.27722635,-0.23843555,0.446982,0.27436637,-0.19591488,0.443816,0.27077973,-0.17706111,0.442233,0.26739059,-0.15978096,0.440794,0.30019026,-0.24316437,0.446145,0.27391552,-0.23973891,0.425791,0.26362884,-0.25479525,0.413918,0.27326479,-0.26192864,0.422119,0.31993874,-0.25132474,0.446824,0.29592467,-0.25056591,0.428555,0.28725132,-0.26318789,0.419208,0.29716083,-0.27084233,0.42794,0.34415373,-0.2694324,0.450077,0.31562638,-0.26673547,0.43336,0.30776739,-0.27572057,0.425679,0.31652685,-0.28195865,0.431484
0.30817399,-0.34600232,0.479236,0.29854371,-0.28619189,0.45336,0.2883677,-0.32942393,0.476316,0.26571441,-0.28529711,0.465285,0.25297257,-0.25680068,0.461062,0.24756118,-0.23514835,0.455362,0.26868356,-0.23036795,0.432848,0.2692211,-0.19224083,0.435493,0.26746228,-0.17489185,0.436815,0.26570603,-0.15877434,0.438017,0.28884723,-0.233472,0.428975,0.25731555,-0.22521013,0.399987,0.26519564,-0.25630955,0.416378,0.27966723,-0.26806547,0.432009,0.30669879,-0.24067925,0.428159,0.2782785,-0.23562451,0.403,0.28538614,-0.26147896,0.416486,0.30000301,-0.27343279,0.432033,0.32989657,-0.25835553,0.431459,0.29792082,-0.25177253,0.40905,0.30273384,-0.27121115,0.418717,0.31569644,-0.28121893,0.430352
0.30448448,-0.34164538,0.474112,0.29700283,-0.2843412,0.451145,0.28615504,-0.32636453,0.473053,0.26582201,-0.28563027,0.465689,0.25311965,-0.25728204,0.461787,0.24787801,-0.2356385,0.456269,0.2700884,-0.23104951,0.434886,0.26965479,-0.19268185,0.43647,0.26755695,-0.17507374,0.437262,0.26549931,-0.15875477,0.437982,0.28940141,-0.23342177,0.4295,0.25931169,-0.22499122,0.402225,0.26741897,-0.25707453,0.419542,0.28139387,-0.26928759,0.434843,0.30612012,-0.23996773,0.427172,0.27842674,-0.23428376,0.402497,0.28582708,-0.26073849,0.416679,0.30023179,-0.2732421,0.432307,0.32741405,-0.25645971,0.428219,0.29765409,-0.25081933,0.408055,0.30286414,-0.27069646,0.418389,0.31525562,-0.2804621,0.429493
0.30361142,-0.34045153,0.473365,0.29686655,-0.28383704,0.451063,0.28609764,-0.32576735,0.47335,0.26665009,-0.28662942,0.467248,0.25364276,-0.25798062,0.462971,0.24842915,-0.23625727,0.457446,0.27124157,-0.23161617,0.436562,0.26998519,-0.19298383,0.437143,0.26757193,-0.17514367,0.437433,0.26523372,-0.15864802,0.437697,0.28996995,-0.2333809,0.430045,0.25981625,-0.22444563,0.402575,0.26766002,-0.25661114,0.419756,0.28149615,-0.26916774,0.435085,0.30592903,-0.23956024,0.426726,0.27735643,-0.2326543,0.400593,0.2845515,-0.25900463,0.414595,0.29916275,-0.27206976,0.43074,0.32609451,-0.25547442,0.4265,0.29723252,-0.25010174,0.407164,0.30238874,-0.26995689,0.417479,0.31446262,-0.27957512,0.428284
0.3033473,-0.33976273,0.473304,0.29681835,-0.28328241,0.450928,0.28628961,-0.32531763,0.47381,0.26680452,-0.28638105,0.466854,0.25492859,-0.25905108,0.464219,0.25158442,-0.23920955,0.460959,0.27307563,-0.22881406,0.437041,0.27050063,-0.19278464,0.436751,0.26744316,-0.17537843,0.436606,0.26452043,-0.15921205,0.436474,0.29011322,-0.23290917,0.42984,0.26591423,-0.20800184,0.402287,0.27120603,-0.24058861,0.419168,0.28270989,-0.25936052,0.434433,0.30559297,-0.23891952,0.425964,0.27675953,-0.23176405,0.398878,0.28387219,-0.25777448,0.412586,0.29864158,-0.27077699,0.429,0.32510899,-0.25458316,0.425097,0.29679213,-0.24965311,0.40599,0.30200396,-0.26925739,0.416138,0.31405271,-0.27851675,0.426797
0.30345831,-0.33949445,0.473828,0.29709004,-0.28303319,0.451279,0.2865287,-0.32492133,0.474348,0.26705413,-0.28637351,0.466849,0.25581015,-0.2597896,0.465096,0.25333274,-0.24070669,0.462792,0.2734803,-0.22888309,0.437296,0.27090779,-0.19269885,0.436596,0.26747369,-0.17561114,0.436245,0.26420756,-0.15968785,0.435927,0.2905219,-0.2326502,0.430028,0.26594332,-0.20802459,0.402331,0.27116657,-0.24055359,0.419107,0.28268256,-0.25933544,0.434391,0.30591035,-0.23878989,0.426113,0.2771536,-0.2318351,0.398879,0.28427925,-0.25773794,0.412501,0.29905719,-0.27061021,0.42894,0.32529644,-0.2546107,0.425228,0.29711121,-0.2498696,0.406047,0.30238824,-0.2693637,0.41613,0.31450178,-0.27845452,0.426791
0.30375598,-0.33908448,0.474103,0.29719927,-0.28239765,0.450981,0.28677306,-0.32423116,0.474373,0.26709113,-0.28598836,0.466149,0.2557701,-0.2594212,0.464252,0.25218194,-0.23928407,0.460963,0.27324537,-0.22833573,0.436309,0.2683255,-0.1905852,0.431991,0.26348009,-0.17605368,0.429832,0.25873007,-0.16094603,0.42787,0.29114253,-0.23084961,0.429191,0.26556457,-0.20751882,0.401027,0.27070956,-0.23992977,0.417606,0.28231706,-0.25871004,0.432997,0.30586135,-0.23818516,0.425451,0.28090498,-0.22616579,0.397835,0.28481221,-0.25571135,0.411299,0.29859697,-0.26999559,0.427829,0.32535974,-0.25430354,0.424867,0.29700127,-0.2496189,0.405288,0.30227382,-0.26895525,0.415239,0.31449556,-0.27795994,0.425987
0.30428111,-0.33888225,0.474755,0.29739087,-0.28179266,0.450838,0.28733255,-0.32385853,0.474957,0.26723045,-0.28577994,0.465897,0.2558891,-0.25924755,0.463989,0.25229396,-0.23911492,0.460781,0.27302304,-0.2278228,0.435565,0.26581347,-0.18893949,0.428806,0.26052032,-0.17375827,0.425426,0.25369233,-0.16008171,0.422354,0.29082441,-0.23022509,0.428299,0.26487624,-0.20599584,0.399483,0.26967987,-0.23804542,0.415624,0.28127118,-0.25706055,0.431114,0.30559763,-0.23735221,0.42451,0.27968284,-0.22504387,0.396265,0.2833496,-0.25313385,0.409371,0.29712987,-0.26970383,0.426012,0.32503333,-0.2536274,0.424,0.29638875,-0.24894466,0.404019,0.30153379,-0.26802696,0.413694,0.31381153,-0.27693436,0.424478
0.30617694,-0.33914456,0.476489,0.29840145,-0.28096821,0.451234,0.28899457,-0.32376707,0.476285,0.27024328,-0.28621966,0.466988,0.2546336,-0.25763314,0.461855,0.24987773,-0.23646343,0.457163,0.27266169,-0.22728112,0.434574,0.26674545,-0.18638857,0.424694,0.26072357,-0.17569181,0.419754,0.25217896,-0.16557373,0.415263,0.29051544,-0.22968543,0.427433,0.26335042,-0.20502493,0.397538,0.2677085,-0.23667389,0.413063,0.27947416,-0.25595403,0.42875,0.3058708,-0.23646797,0.423871,0.27629077,-0.22713259,0.394684,0.28300804,-0.2514154,0.40729,0.29554001,-0.26957355,0.424111,0.32677978,-0.25270271,0.423845,0.29585893,-0.24868507,0.403045,0.30064691,-0.26745572,0.412321,0.31303801,-0.27642881,0.423238
0.30768186,-0.33896987,0.477612,0.29913115,-0.28104283,0.451565,0.29047019,-0.32346431,0.477304,0.27128285,-0.28645524,0.467599,0.25476086,-0.25746736,0.461604,0.24985891,-0.23620734,0.456732,0.27267229,-0.22709766,0.434259,0.26733952,-0.18626623,0.424426,0.26057139,-0.17558926,0.419509,0.25204353,-0.16548481,0.41504,0.2904571,-0.22940299,0.427018,0.26249773,-0.20450532,0.396489,0.26651946,-0.23586879,0.411547,0.27836942,-0.25530027,0.427316,0.30583058,-0.23613637,0.423445,0.27561064,-0.22649053,0.393659,0.28160366,-0.25100515,0.405883,0.29444483,-0.26945432,0.422793,0.32736484,-0.2521664,0.423538,0.29548402,-0.2485182,0.402333,0.30000368,-0.26705693,0.411314,0.31242837,-0.27603192,0.422259
0.3083993,-0.33813531,0.477077,0.3007188,-0.27966335,0.45043,0.2913491,-0.32290013,0.477079,0.27278739,-0.28525271,0.466985,0.25712993,-0.25706823,0.461754,0.25161832,-0.23714629,0.457913,0.27346154,-0.22603002,0.433128,0.26993466,-0.18514427,0.423303,0.26092805,-0.17442196,0.418391,0.25245558,-0.16425926,0.413925,0.29090031,-0.22791337,0.425318,0.26126102,-0.20286839,0.394313,0.26479353,-0.23335722,0.408759,0.276451,-0.25330235,0.424508,0.3067269,-0.23417909,0.421331,0.27502156,-0.2228606,0.390963,0.27914866,-0.24859734,0.402679,0.29223012,-0.26890602,0.419622,0.32660631,-0.25055729,0.421037,0.29397106,-0.24724024,0.399741,0.29781877,-0.26564921,0.408354,0.30937075,-0.27509076,0.419189
0.30978545,-0.3379806,0.477554,0.30113273,-0.27942486,0.450301,0.29262309,-0.3226117,0.477383,0.2755811,-0.28436584,0.467843,0.25689191,-0.25451954,0.459718,0.25160632,-0.23414233,0.454674,0.27428218,-0.22527467,0.432385,0.27331608,-0.18358024,0.422375,0.26420464,-0.17371536,0.417371,0.25307393,-0.16481805,0.412821,0.29165868,-0.22738551,0.424616,0.26229849,-0.20085725,0.393137,0.26398542,-0.23250797,0.407249,0.27567192,-0.25224703,0.423065,0.30685882,-0.23397971,0.42072,0.27466427,-0.22217203,0.389935,0.27833215,-0.24766475,0.40138,0.291285,-0.26822272,0.418382,0.32591099,-0.2506543,0.420632,0.29442513,-0.24790102,0.398986,0.29749268,-0.26533547,0.407384,0.30839319,-0.27846397,0.418259
0.31083133,-0.33748633,0.47752,0.3013284,-0.27904399,0.44985,0.2936669,-0.32198536,0.477237,0.27574441,-0.28333768,0.467116,0.26011821,-0.25272951,0.46083,0.25621226,-0.23158682,0.455882,0.27717466,-0.22363394,0.431521,0.27616425,-0.18319037,0.421511,0.26705719,-0.17426317,0.416505,0.25657153,-0.16539694,0.411955,0.29416661,-0.22669643,0.423773,0.26290508,-0.19923182,0.391969,0.26462394,-0.22925191,0.405839,0.27506899,-0.25124473,0.421696,0.30770782,-0.23376257,0.419931,0.27441275,-0.22150059,0.388859,0.27778221,-0.24677719,0.400106,0.29065905,-0.26660102,0.417146,0.32675331,-0.25060839,0.419975,0.29402987,-0.24765543,0.398094,0.29722199,-0.26556849,0.406338,0.30877425,-0.27511493,0.417236
0.31014729,-0.33498445,0.474564,0.30134081,-0.27723567,0.447393,0.29362996,-0.32000046,0.475035,0.27715976,-0.28127025,0.466455,0.26669718,-0.25308904,0.464389,0.26577877,-0.23370637,0.461881,0.27885058,-0.22289635,0.430347,0.27825262,-0.18245497,0.420303,0.26943463,-0.17277267,0.415281,0.25913405,-0.16535236,0.410716,0.29504457,-0.22598234,0.421787,0.26898523,-0.1940917,0.390383,0.2688005,-0.22273309,0.404112,0.27528437,-0.24795385,0.41978,0.30910835,-0.2332808,0.417231,0.27432512,-0.22014946,0.386303,0.27659906,-0.24566745,0.397423,0.28937601,-0.26536819,0.414354,0.32734191,-0.25057407,0.416356,0.29850438,-0.2441421,0.395107,0.29843426,-0.26247649,0.403293,0.3061504,-0.27512332,0.413945
0.31208856,-0.33550887,0.475819,0.3034914,-0.27704091,0.447578,0.29535066,-0.3200242,0.475805,0.28020062,-0.28063107,0.466755,0.27041628,-0.25289183,0.464901,0.26775479,-0.23361446,0.461985,0.28200888,-0.22215749,0.42922,0.28069466,-0.1817961,0.419126,0.27212129,-0.17143293,0.414079,0.262016,-0.16338859,0.409491,0.29691949,-0.22577454,0.420963,0.26948855,-0.19336015,0.388729,0.26891181,-0.22161075,0.401959,0.27629265,-0.24570327,0.417771,0.31108692,-0.23354362,0.416754,0.27654529,-0.22119656,0.385158,0.27851114,-0.24573131,0.395876,0.28890133,-0.26473641,0.412917,0.32953221,-0.25153269,0.416463,0.2967714,-0.24639,0.394503,0.29609407,-0.26345154,0.402361,0.3075463,-0.27255862,0.413137
0.31225599,-0.33397056,0.474152,0.30495145,-0.27605521,0.445819,0.29566112,-0.31836,0.474077,0.2813444,-0.27953041,0.465237,0.27055519,-0.25194556,0.463522,0.27089613,-0.23324302,0.46179,0.28172222,-0.22120938,0.427326,0.2806901,-0.18108762,0.417551,0.27224407,-0.17086983,0.412664,0.26411659,-0.16173555,0.40822,0.2978948,-0.22503615,0.419118,0.2690945,-0.19268941,0.386814,0.26826063,-0.2204276,0.400013,0.27542889,-0.24406596,0.415841,0.31198911,-0.23300302,0.414959,0.27714648,-0.22090079,0.383312,0.27813326,-0.24462226,0.394007,0.29021168,-0.26283483,0.411058,0.33032952,-0.25122078,0.41474,0.29761872,-0.24544535,0.39271,0.29807829,-0.26321619,0.400547,0.30677259,-0.27243969,0.411339
0.31441527,-0.33473162,0.475799,0.30610379,-0.27656186,0.44655,0.29787565,-0.31889603,0.47568,0.28198615,-0.27959657,0.465473,0.27353471,-0.25248933,0.464759,0.27311874,-0.23420902,0.463019,0.28236837,-0.22120801,0.427405,0.2811952,-0.18093098,0.417295,0.27390407,-0.17058792,0.41224,0.26449121,-0.16141772,0.407644,0.29838239,-0.22497506,0.418986,0.26915301,-0.19225404,0.385994,0.267705,-0.21928179,0.398449,0.2755049,-0.24311629,0.414292,0.31238535,-0.23293032,0.414736,0.27716096,-0.22004033,0.382413,0.27854352,-0.24408729,0.392498,0.29014977,-0.26240682,0.409578,0.33071829,-0.25121678,0.414562,0.29729529,-0.24767715,0.392151,0.29806347,-0.26482328,0.399524,0.30644664,-0.27366764,0.410271
0.31520965,-0.33410238,0.475738,0.30707755,-0.27616811,0.445918,0.29916901,-0.31805581,0.47579,0.28878105,-0.27475284,0.467266,0.285509,-0.24775729,0.467477,0.29040167,-0.23093292,0.466299,0.28981203,-0.2184979,0.42662,0.29177352,-0.17832253,0.415066,0.2819127,-0.16838202,0.409289,0.2682135,-0.16001253,0.404037,0.30063893,-0.22458595,0.417815,0.27008283,-0.19149314,0.384418,0.26646691,-0.21762515,0.396213,0.27452407,-0.24091418,0.411996,0.31318237,-0.23291169,0.413302,0.27602136,-0.21897811,0.38051,0.27521639,-0.24175999,0.390051,0.28654537,-0.26139227,0.407103,0.33062983,-0.25170261,0.412911,0.29262245,-0.24853763,0.390392,0.29215442,-0.26428883,0.397364,0.30351345,-0.27318573,0.407993
0.31360778,-0.33192679,0.473053,0.30711487,-0.27491798,0.443938,0.29838174,-0.31582113,0.473532,0.28854442,-0.2738087,0.465985,0.28633713,-0.24760654,0.467489,0.29186236,-0.23129573,0.467106,0.29013761,-0.21796711,0.42564,0.29269413,-0.17817439,0.414451,0.28314064,-0.16818318,0.408857,0.27358864,-0.16003782,0.403771,0.30366927,-0.22416121,0.4165,0.2783319,-0.18592251,0.383641,0.27285874,-0.20788058,0.395722,0.27523336,-0.23578705,0.411399,0.31344251,-0.23273177,0.411644,0.27632105,-0.21813592,0.379249,0.27537065,-0.24134609,0.389017,0.28651203,-0.26046329,0.406,0.32969554,-0.251813,0.410737,0.29234071,-0.2495235,0.388738,0.29195831,-0.26465008,0.395903,0.30256015,-0.2730619,0.406424
0.3136863,-0.3312415,0.472494,0.30860291,-0.27481873,0.443913,0.3001274,-0.31570334,0.474567,0.2997123,-0.2759154,0.47141,0.30151533,-0.25079565,0.474146,0.30720878,-0.2336609,0.472818,0.295165,-0.21891068,0.427987,0.30172,-0.17944948,0.416748,0.28776363,-0.16992683,0.411129,0.27552676,-0.16248445,0.406021,0.30524421,-0.22445329,0.416978,0.27876063,-0.18544614,0.384672,0.27128148,-0.20609614,0.395688,0.27518425,-0.22993495,0.410832,0.3151716,-0.23361003,0.410536,0.27331325,-0.21674107,0.378142,0.27113622,-0.23879611,0.387014,0.28531244,-0.25856035,0.403638,0.32791398,-0.25301048,0.407678,0.28905789,-0.2488127,0.38691,0.28766232,-0.26181255,0.39348,0.30023066,-0.27191027,0.403337
0.31557028,-0.33311748,0.473978,0.31652808,-0.28515798,0.444882,0.30262589,-0.31715199,0.476154,0.30302563,-0.28607064,0.471404,0.30505653,-0.26109787,0.474713,0.30875999,-0.24233177,0.472545,0.30142903,-0.22904146,0.428752,0.30610848,-0.19001216,0.418315,0.29410857,-0.18176715,0.413096,0.28157374,-0.17699788,0.408351,0.31138595,-0.23474302,0.417461,0.28209141,-0.1946582,0.384818,0.27323647,-0.2147497,0.395172,0.2743105,-0.23851982,0.410231,0.32012968,-0.24423185,0.410835,0.27513912,-0.22927845,0.378063,0.27425708,-0.25064563,0.38639,0.29125027,-0.26672726,0.40295,0.33160992,-0.26427734,0.407845,0.29049338,-0.25809685,0.386981,0.28962936,-0.27351748,0.393146,0.30218435,-0.28448997,0.40288
0.31692833,-0.33461007,0.474667,0.31640458,-0.28563379,0.444691,0.30422596,-0.31794309,0.476435,0.30249739,-0.28632684,0.470872,0.30503917,-0.26161889,0.474111,0.30943745,-0.24338678,0.472398,0.30042686,-0.22885599,0.427469,0.30415535,-0.18937379,0.413695,0.2954599,-0.17971402,0.406807,0.28602436,-0.16925293,0.400546,0.31060935,-0.23468049,0.41644,0.27586901,-0.200962,0.383137,0.26705891,-0.22384845,0.393007,0.27192494,-0.24126842,0.408151,0.3196191,-0.24432853,0.410109,0.27396787,-0.22997575,0.376813,0.273338,-0.25090885,0.384749,0.29072146,-0.26646019,0.401364,0.33155904,-0.26468479,0.407611,0.29012339,-0.25799134,0.386181,0.28912602,-0.27311711,0.39203,0.30170186,-0.28405735,0.401841
0.31771668,-0.3351929,0.474061,0.31704159,-0.28551873,0.444029,0.30562072,-0.31825229,0.475958,0.30321368,-0.28613983,0.470305,0.30595435,-0.26146941,0.473424,0.31061171,-0.24342292,0.471823,0.30128747,-0.22879233,0.426935,0.30671473,-0.19036958,0.412324,0.29636176,-0.17902238,0.405019,0.28675811,-0.16839656,0.398377,0.31130157,-0.2345878,0.415726,0.276488,-0.20169879,0.38241,0.26799709,-0.22515141,0.392054,0.27539693,-0.24740414,0.407133,0.32015491,-0.24419923,0.409251,0.27463977,-0.22935953,0.375896,0.27327565,-0.25028991,0.383646,0.28969219,-0.26692501,0.40021,0.33189263,-0.26449265,0.406595,0.29055886,-0.25768842,0.385242,0.28978182,-0.27259216,0.390958,0.30270019,-0.28300581,0.400689
0.31455785,-0.33153199,0.467814,0.31878965,-0.28600518,0.445344,0.30866816,-0.31986513,0.47587,0.32003564,-0.28972248,0.478569,0.32559288,-0.26517552,0.48256,0.33451578,-0.24967479,0.48142,0.31991376,-0.23513168,0.440985,0.31567699,-0.19458704,0.419542,0.298901,-0.1818972,0.408821,0.28043743,-0.17192796,0.399074,0.31863756,-0.23902261,0.424166,0.31504427,-0.19040525,0.402609,0.28877901,-0.18132944,0.390033,0.2765256,-0.17914041,0.39048,0.32271362,-0.24577517,0.412381,0.27334991,-0.22954559,0.383631,0.27510109,-0.25260079,0.390379,0.29249931,-0.27038747,0.404684,0.32638345,-0.26117668,0.402248,0.2852791,-0.25545945,0.388276,0.28906342,-0.27362073,0.393563,0.30164371,-0.28344746,0.400531
0.3361678,-0.35029194,0.494972,0.34220112,-0.30280171,0.46517,0.35114589,-0.32551826,0.499504,0.33792506,-0.30747367,0.492622,0.33381243,-0.27999945,0.486952,0.33595956,-0.2582141,0.477804,0.34994749,-0.25300376,0.451576,0.31375744,-0.22659798,0.432014,0.29197052,-0.22687209,0.422233,0.29396859,-0.23403951,0.420919,0.34039155,-0.26417375,0.437085,0.30014096,-0.22863655,0.408764,0.26802877,-0.22599344,0.392244,0.26680673,-0.23236631,0.389063,0.33270725,-0.27715293,0.427888,0.29658616,-0.24153624,0.406095,0.28365171,-0.25458567,0.410866,0.29306474,-0.27419076,0.421571,0.32400341,-0.29920169,0.421999,0.27940724,-0.27643796,0.403033,0.27849751,-0.28613085,0.406177,0.28125003,-0.29816437,0.414064
0.32819059,-0.34262714,0.48416,0.33579234,-0.29633815,0.454394,0.33829525,-0.32366014,0.488777,0.33510687,-0.29249325,0.47839,0.32907857,-0.27465875,0.476959,0.31906086,-0.26722023,0.466742,0.34823119,-0.24729926,0.44093,0.30831014,-0.22127023,0.422902,0.28661815,-0.22170601,0.413888,0.2875793,-0.2296956,0.412934,0.33865599,-0.2565663,0.426342,0.30702899,-0.21294943,0.398526,0.28724908,-0.1880899,0.3823,0.26842972,-0.18371999,0.379159,0.33067831,-0.26824388,0.417062,0.28927231,-0.23607407,0.395986,0.27671135,-0.24876001,0.400667,0.28329125,-0.26795502,0.411048,0.32106946,-0.28932309,0.41107,0.27652955,-0.2658815,0.392202,0.27200195,-0.27703588,0.395255,0.27397014,-0.28910272,0.40308
0.33054397,-0.34421452,0.485949,0.33658689,-0.29757403,0.455013,0.3401475,-0.32496689,0.489931,0.33483914,-0.29468759,0.479155,0.32728891,-0.27493114,0.47598,0.3178461,-0.26729437,0.465134,0.34463473,-0.24710945,0.439982,0.31477191,-0.21359254,0.414803,0.29939523,-0.19631976,0.402213,0.29120531,-0.18426113,0.398715,0.33572475,-0.2568966,0.425858,0.30438576,-0.21283698,0.397081,0.28432403,-0.18774692,0.380295,0.27469021,-0.17437714,0.376468,0.33064202,-0.2684611,0.417067,0.28689328,-0.23802022,0.395008,0.27360654,-0.25339885,0.399076,0.27996921,-0.27026827,0.409609,0.32221448,-0.29002015,0.411842,0.27701921,-0.26649304,0.392215,0.27152081,-0.27637324,0.39479,0.27243906,-0.28832556,0.402696
0.33245817,-0.34534127,0.486735,0.33717475,-0.29836185,0.455579,0.34128665,-0.32577768,0.490664,0.33489169,-0.29554408,0.479613,0.3275933,-0.27572893,0.476456,0.3180496,-0.26782854,0.465488,0.34512399,-0.24754452,0.440337,0.31483186,-0.21363322,0.414882,0.29935205,-0.19629145,0.402155,0.2909453,-0.18409661,0.398359,0.33639868,-0.25714346,0.426216,0.30407332,-0.21319178,0.397335,0.2839984,-0.18805534,0.380488,0.27465227,-0.17435305,0.376416,0.3309307,-0.26877739,0.417448,0.28652868,-0.23884817,0.395297,0.27360654,-0.25339885,0.399076,0.27996212,-0.27108848,0.409529,0.32274127,-0.29038322,0.412285,0.27745391,-0.266958,0.392604,0.27155535,-0.27632162,0.394958,0.27186822,-0.28814535,0.402797
0.33681478,-0.349618,0.48966,0.33771587,-0.30286997,0.456477,0.34251672,-0.32822687,0.492052,0.33018674,-0.3017399,0.479542,0.32526053,-0.27724589,0.474083,0.31509284,-0.26701792,0.462196,0.33768057,-0.25345959,0.437966,0.310593,-0.21828708,0.409966,0.29686663,-0.20070153,0.395966,0.29009925,-0.18856704,0.391199,0.33219081,-0.26402049,0.425204,0.29916095,-0.21998881,0.394332,0.27843721,-0.1951151,0.376324,0.26622675,-0.18069819,0.371492,0.32816159,-0.2772127,0.417741,0.28393009,-0.24761569,0.393434,0.27209408,-0.26010622,0.396808,0.27828063,-0.27407675,0.407971,0.32421778,-0.30092995,0.414442,0.27687446,-0.27867139,0.393046,0.26982329,-0.28560021,0.395061,0.27142441,-0.2935277,0.403372
0.33608446,-0.34904785,0.488092,0.33696484,-0.30352677,0.455908,0.34209176,-0.328593,0.491167,0.33071548,-0.30228743,0.479717,0.32627246,-0.27644631,0.475231,0.31615729,-0.2678706,0.463921,0.33836793,-0.25339987,0.438915,0.31189242,-0.21852799,0.411778,0.29846249,-0.20106153,0.39821,0.28988399,-0.18553578,0.393981,0.3320898,-0.26143857,0.425577,0.30159878,-0.21944941,0.39559,0.28446269,-0.19284635,0.378097,0.26782315,-0.17320116,0.366056,0.32684188,-0.27436921,0.417548,0.2854154,-0.24271445,0.394189,0.27470343,-0.25449958,0.397989,0.2786776,-0.27316703,0.408939,0.32334836,-0.29942107,0.413421,0.27660647,-0.27771226,0.392761,0.26988982,-0.28255182,0.395112,0.26995677,-0.29132842,0.403296
0.31208442,-0.33240856,0.463735,0.31251169,-0.27988511,0.433973,0.30697511,-0.31366415,0.4656,0.31037852,-0.2776145,0.455569,0.31434123,-0.26406848,0.450361,0.31901206,-0.25094719,0.439608,0.32951252,-0.23356262,0.417015,0.29532072,-0.20326034,0.391544,0.2781799,-0.18805816,0.378808,0.27074826,-0.17963176,0.378671,0.32866876,-0.24457413,0.405924,0.28995098,-0.20919882,0.376158,0.26738138,-0.18858187,0.358795,0.25126775,-0.17386473,0.346392,0.32702355,-0.25759314,0.399523,0.28249628,-0.23239794,0.375693,0.27099322,-0.24622321,0.384237,0.27287295,-0.2592413,0.397273,0.32318572,-0.28039538,0.396908,0.28365728,-0.25173002,0.375613,0.27753853,-0.26276385,0.381544,0.27532159,-0.27277421,0.391338
0.30629977,-0.32838085,0.461013,0.31318198,-0.28029771,0.432668,0.30528977,-0.30961198,0.463413,0.30911824,-0.27926485,0.454895,0.31440111,-0.26567765,0.450476,0.31955643,-0.25399257,0.440477,0.32969944,-0.2348372,0.41731,0.29776837,-0.20701885,0.393757,0.28275591,-0.19072259,0.381981,0.27444488,-0.18180547,0.38292,0.32641537,-0.2451568,0.405954,0.29195481,-0.20969716,0.37731,0.27065261,-0.18872889,0.360601,0.25542592,-0.17373697,0.348665,0.32631768,-0.25829078,0.399205,0.28287064,-0.23318684,0.376447,0.27232375,-0.24663891,0.385723,0.27121039,-0.26242747,0.398617,0.3216798,-0.28047417,0.395949,0.28346542,-0.25204791,0.375488,0.27721984,-0.26272805,0.381989,0.27472325,-0.27328486,0.391711
0.2996889,-0.32491821,0.457886,0.31261899,-0.28311353,0.429319,0.30314287,-0.30605006,0.460411,0.30794916,-0.28242585,0.452627,0.311682,-0.26743712,0.446222,0.31626014,-0.25744113,0.436686,0.33213582,-0.24257064,0.413975,0.30019874,-0.2119322,0.392738,0.28531981,-0.19506436,0.382119,0.27793285,-0.18420496,0.383516,0.32756133,-0.25345712,0.402397,0.29098008,-0.21459622,0.373688,0.26968105,-0.19201832,0.35694,0.25331412,-0.17324284,0.344978,0.32256949,-0.26607771,0.395485,0.278045,-0.23754045,0.372733,0.26891706,-0.24480723,0.381703,0.26725777,-0.2598186,0.394474,0.31423889,-0.2877656,0.392074,0.27536231,-0.25631315,0.371629,0.26950201,-0.26474681,0.377899,0.27045154,-0.27205233,0.387526
0.29402908,-0.32531804,0.458683,0.31090914,-0.29042074,0.429856,0.30116637,-0.30624908,0.461147,0.30660552,-0.2863104,0.452201,0.31155778,-0.27141713,0.447599,0.31635601,-0.25815075,0.437392,0.32902853,-0.24804824,0.414266,0.29853589,-0.21395719,0.392382,0.28237814,-0.19813859,0.381439,0.27558702,-0.18914992,0.382523,0.32338643,-0.2589146,0.402688,0.29062618,-0.21629644,0.373793,0.26951543,-0.19337674,0.356937,0.25281043,-0.17585308,0.344898,0.31743984,-0.27142837,0.3958,0.27336965,-0.24130666,0.372883,0.26297735,-0.24764165,0.381685,0.26016254,-0.26152991,0.394455,0.30783038,-0.2928113,0.39246,0.26980633,-0.25998469,0.371889,0.26381475,-0.2679199,0.378029,0.26490397,-0.27691998,0.38765
0.29273472,-0.32675965,0.458536,0.30677735,-0.2944975,0.428922,0.30063145,-0.30789973,0.461026,0.30350368,-0.29044866,0.451933,0.30589039,-0.27666919,0.445333,0.31286065,-0.26052314,0.435093,0.32796862,-0.25359599,0.412854,0.29870444,-0.21981434,0.390145,0.28402226,-0.20283461,0.378791,0.2751876,-0.19099732,0.379072,0.32034673,-0.26456586,0.401013,0.28599062,-0.22263683,0.371686,0.26681031,-0.19589481,0.354579,0.25045344,-0.1797277,0.342359,0.31277751,-0.27709123,0.39398,0.26769936,-0.24561375,0.370756,0.25646566,-0.2531816,0.378801,0.25401134,-0.26313184,0.391392,0.30127945,-0.2983081,0.390599,0.26337641,-0.26405437,0.369813,0.25780725,-0.2713847,0.375375,0.25815499,-0.27877433,0.384847
0.29351183,-0.3289922,0.459708,0.30868062,-0.29925549,0.429534,0.30141345,-0.30964174,0.461373,0.30763078,-0.2959872,0.451275,0.31151608,-0.28121875,0.445561,0.31253222,-0.26693972,0.434699,0.33233501,-0.25665956,0.412056,0.30300303,-0.22332701,0.389055,0.28377913,-0.20474395,0.377555,0.27351126,-0.19926487,0.378024,0.32505409,-0.26863062,0.401098,0.2895368,-0.22701849,0.370988,0.26891888,-0.20293848,0.353424,0.24948463,-0.18426092,0.340878,0.31780484,-0.2819791,0.394844,0.27202522,-0.24998529,0.370671,0.26109444,-0.25734674,0.379028,0.25881543,-0.26784283,0.392127,0.30673408,-0.30413388,0.392469,0.26826838,-0.26921273,0.370906,0.26291583,-0.27631738,0.376689,0.2594836,-0.28429372,0.386521
0.29088116,-0.33378929,0.459596,0.30698138,-0.31255281,0.434956,0.30448377,-0.32303833,0.466185,0.30733237,-0.30616883,0.455895,0.31303421,-0.29210934,0.454812,0.31342325,-0.28146254,0.444171,0.34092477,-0.27959886,0.427325,0.37188457,-0.26058865,0.4244,0.36156492,-0.24673055,0.422937,0.3504022,-0.25270041,0.430273,0.32531989,-0.28520343,0.411734,0.30097574,-0.23867127,0.387862,0.28152427,-0.21390326,0.373937,0.26767273,-0.19209863,0.36399,0.31067669,-0.29269069,0.401159,0.27014079,-0.25932911,0.383865,0.25535123,-0.26277932,0.391528,0.25070408,-0.27979861,0.401572,0.29006139,-0.30671642,0.392802,0.2579162,-0.27086034,0.376845,0.25090444,-0.27809531,0.382214,0.24755428,-0.28776104,0.389912
0.28979671,-0.33876947,0.461369,0.30561922,-0.31486095,0.434644,0.30541277,-0.32881761,0.467047,0.30544191,-0.30775188,0.454627,0.30667136,-0.29558636,0.450738,0.30756166,-0.28120093,0.438701,0.33790569,-0.28039648,0.424504,0.36534664,-0.25851405,0.418334,0.35050091,-0.24643493,0.41525,0.34086232,-0.25033431,0.421609,0.32071579,-0.28972989,0.409458,0.29219896,-0.24397012,0.383816,0.27307121,-0.21759727,0.368858,0.26096289,-0.19787286,0.358202,0.30559282,-0.29812173,0.399523,0.26320234,-0.26351525,0.3805,0.24794173,-0.26623524,0.387346,0.24619792,-0.28005829,0.397762,0.2847571,-0.31326552,0.392261,0.25178917,-0.27593526,0.374936,0.24489537,-0.28213908,0.379659,0.24412896,-0.28877903,0.387588
0.30498341,-0.36874553,0.466116,0.3113926,-0.33042967,0.435863,0.32176961,-0.35483236,0.471625,0.30326676,-0.32052009,0.4496,0.29825355,-0.30261192,0.447498,0.28999173,-0.28563634,0.433252,0.33590128,-0.28867626,0.423215,0.35804147,-0.26265948,0.411665,0.34193494,-0.24360711,0.40589,0.32637032,-0.24726414,0.407704,0.31689129,-0.29461611,0.407351,0.28710122,-0.24778291,0.381105,0.2679949,-0.22081892,0.365795,0.25444484,-0.19958692,0.354859,0.30066732,-0.30312386,0.397065,0.25828143,-0.26622782,0.377807,0.24021876,-0.26101318,0.377475,0.23442236,-0.2756507,0.385118,0.28049941,-0.31966622,0.389972,0.24713826,-0.28300762,0.372945,0.23606583,-0.28075243,0.372247,0.23441908,-0.28549991,0.377969
0.30609545,-0.37005889,0.467911,0.31132794,-0.3315375,0.436994,0.32316982,-0.35612053,0.472942,0.30293938,-0.32013346,0.449092,0.29639842,-0.30183137,0.446182,0.28732928,-0.28422462,0.431286,0.33544563,-0.28959329,0.423308,0.34339746,-0.26396947,0.40328,0.32076677,-0.245681,0.393266,0.30576492,-0.24644102,0.393213,0.31575603,-0.29551082,0.407856,0.28722104,-0.24850938,0.381475,0.26961731,-0.21951539,0.366086,0.25337145,-0.20087707,0.355094,0.29905896,-0.30403847,0.397972,0.25924427,-0.26421941,0.378497,0.2388044,-0.25978896,0.376637,0.23194268,-0.273434,0.383757,0.27540809,-0.32043127,0.391459,0.24173384,-0.28375506,0.374386,0.23050799,-0.27425724,0.372534,0.23079559,-0.28333129,0.377824
0.31031141,-0.3728363,0.468496,0.31313349,-0.33330523,0.437237,0.32719552,-0.35851258,0.473049,0.30833204,-0.32437117,0.447319,0.29533036,-0.3017774,0.443654,0.28456625,-0.28363434,0.428181,0.33556488,-0.29015721,0.422721,0.34053859,-0.26238402,0.400954,0.31666981,-0.24379917,0.390071,0.30127747,-0.24410865,0.388614,0.31539767,-0.29629564,0.407777,0.28592526,-0.24912616,0.381647,0.26590356,-0.22186794,0.366404,0.24734428,-0.20404858,0.355517,0.29849523,-0.3051166,0.398341,0.25717491,-0.26589315,0.378975,0.23603612,-0.25909689,0.375329,0.22604292,-0.2687061,0.381691,0.27592479,-0.32256695,0.392411,0.24215325,-0.28656757,0.37559,0.23019224,-0.27579431,0.372395,0.22968376,-0.28285853,0.377077
0.28316598,-0.32939893,0.449119,0.29380512,-0.30973491,0.418178,0.29872911,-0.32146448,0.453921,0.318145,-0.29721947,0.441346,0.3399733,-0.28272719,0.431296,0.34587476,-0.26785098,0.419088,0.32859054,-0.27986684,0.404188,0.28947839,-0.23426248,0.380759,0.26673019,-0.23033578,0.369044,0.25978402,-0.23693208,0.360772,0.30415407,-0.28395025,0.389019,0.26452844,-0.23226984,0.363194,0.23397171,-0.22135565,0.348129,0.22415095,-0.22575298,0.33919,0.28290674,-0.28997128,0.37937,0.24438855,-0.24611042,0.360338,0.22966085,-0.24594196,0.356782,0.23322994,-0.26170379,0.363046,0.25586514,-0.30178226,0.373137,0.23075233,-0.25883495,0.356579,0.22304153,-0.25575299,0.353457,0.22502128,-0.26587191,0.358075
0.29112462,-0.3408472,0.461383,0.29602411,-0.31580986,0.423975,0.30861837,-0.33002411,0.460703,0.32147727,-0.30032655,0.445498,0.34087926,-0.28428892,0.431973,0.34598603,-0.26985157,0.418433,0.31384158,-0.28107404,0.398818,0.26982191,-0.2333863,0.369791,0.24876591,-0.21076876,0.355278,0.22992181,-0.19959288,0.347233,0.29004953,-0.29083347,0.388721,0.24625959,-0.23609932,0.354925,0.21730169,-0.22032706,0.335211,0.21208719,-0.22315524,0.326591,0.27075344,-0.3015825,0.383838,0.22573814,-0.25271386,0.356225,0.21926391,-0.24575481,0.355477,0.22529861,-0.26022889,0.366327,0.24864482,-0.31901073,0.384263,0.21789816,-0.27172052,0.36053,0.21373028,-0.26920712,0.359387,0.22086762,-0.275084,0.367296
0.29404792,-0.34840185,0.461203,0.29297002,-0.31901416,0.424314,0.31020237,-0.33614742,0.461003,0.32168189,-0.30244716,0.446608,0.3412293,-0.2881749,0.433309,0.34661883,-0.27263121,0.419923,0.31315402,-0.28236671,0.400105,0.26892398,-0.23384815,0.370684,0.24783789,-0.21093592,0.355973,0.22806924,-0.19893371,0.346142,0.28872539,-0.29135493,0.389549,0.23940328,-0.23587147,0.356465,0.21403031,-0.2245075,0.337167,0.21128692,-0.22572539,0.32706,0.26891679,-0.30154981,0.38424,0.22530988,-0.25270658,0.357516,0.21197878,-0.24209987,0.354603,0.21826652,-0.25647083,0.36423,0.24624012,-0.31847449,0.384081,0.21679132,-0.27206893,0.361633,0.21133055,-0.26750916,0.358901,0.2105684,-0.27042748,0.365742
0.29451936,-0.35002971,0.460752,0.29244733,-0.31997735,0.424259,0.31217407,-0.33784007,0.460858,0.32090719,-0.3064797,0.447169,0.34068092,-0.29144778,0.434011,0.34679362,-0.27632926,0.42063,0.3130331,-0.28352337,0.400696,0.26882748,-0.23477158,0.37126,0.24777312,-0.21177605,0.356542,0.22778339,-0.19954659,0.34625,0.28830847,-0.29216131,0.389867,0.2391883,-0.2365089,0.356114,0.21359107,-0.22479537,0.336425,0.20934158,-0.22769698,0.325677,0.26825682,-0.30207167,0.384298,0.22523542,-0.25332505,0.358022,0.21329398,-0.24390135,0.354529,0.21825434,-0.25693792,0.363743,0.24529986,-0.31866845,0.383768,0.21638926,-0.27266079,0.361892,0.21056854,-0.26748202,0.358741,0.21226432,-0.27246305,0.365218
0.29466177,-0.35226856,0.461164,0.29224613,-0.32121688,0.42502,0.31125473,-0.33730787,0.461616,0.32032661,-0.30757579,0.448231,0.3403455,-0.2923201,0.435415,0.34715405,-0.27783366,0.422113,0.31329723,-0.28463757,0.402123,0.26731086,-0.23577312,0.371959,0.24596189,-0.21259033,0.356877,0.22672953,-0.20014903,0.346331,0.28853989,-0.29317022,0.390956,0.23853448,-0.23706818,0.356103,0.21219443,-0.22474682,0.335772,0.20744563,-0.22717323,0.324685,0.26842813,-0.3030109,0.385078,0.22423046,-0.25329737,0.357256,0.21076913,-0.2432042,0.353627,0.21680721,-0.25645819,0.363412,0.24533935,-0.31955528,0.384127,0.21633391,-0.27393223,0.362612,0.20915602,-0.26842951,0.359447,0.21007972,-0.27236095,0.365793
0.2950058,-0.35327554,0.460895,0.29156861,-0.32158553,0.425087,0.31225616,-0.33873743,0.461553,0.31982067,-0.30820681,0.44891,0.33744431,-0.29216863,0.436741,0.34703096,-0.2784056,0.423342,0.31199339,-0.2854011,0.402668,0.26714645,-0.23634779,0.372655,0.24583484,-0.21325151,0.357649,0.22627245,-0.20066443,0.346732,0.28728886,-0.29368536,0.39134,0.2386422,-0.23782799,0.356977,0.21228496,-0.22559944,0.336931,0.20718735,-0.22775877,0.325559,0.26810019,-0.30326188,0.385297,0.22376903,-0.25346996,0.357251,0.20993488,-0.24311776,0.353058,0.21608388,-0.25595531,0.362708,0.24493333,-0.31970766,0.384098,0.21530361,-0.27476974,0.363061,0.20874632,-0.2688008,0.359513,0.20940722,-0.27252768,0.365541
0.29541356,-0.35366702,0.460361,0.29108261,-0.32157947,0.425205,0.31329883,-0.33965073,0.46149,0.31948279,-0.30838417,0.449334,0.33613158,-0.29011802,0.43757,0.34486546,-0.27802184,0.423944,0.31030994,-0.28461727,0.403809,0.26122009,-0.23609819,0.374982,0.23870935,-0.21488225,0.360569,0.22255292,-0.20110555,0.349571,0.28718379,-0.29349597,0.392073,0.23738104,-0.23883941,0.35847,0.21249825,-0.22741422,0.338869,0.20787335,-0.22898896,0.327269,0.26705792,-0.30312822,0.385636,0.22396228,-0.2550915,0.359653,0.21061178,-0.2446086,0.355,0.21647781,-0.25653865,0.363633,0.24462567,-0.31938339,0.383866,0.2152518,-0.27527727,0.36361,0.20855081,-0.26906421,0.359682,0.20904153,-0.27245313,0.365288
0.28828999,-0.34507544,0.450798,0.28404143,-0.31404268,0.415447,0.3064607,-0.33185927,0.452231,0.31355919,-0.30290889,0.441569,0.33113925,-0.28536642,0.431456,0.34056962,-0.27434126,0.419467,0.3024893,-0.2770247,0.394311,0.253628,-0.22887323,0.363876,0.23099844,-0.20759428,0.348658,0.21538758,-0.19444796,0.339485,0.27953146,-0.28544376,0.382131,0.23019894,-0.2306026,0.347182,0.20517808,-0.21899799,0.326795,0.20123466,-0.22185309,0.317146,0.25976575,-0.29454916,0.375346,0.216463,-0.24691488,0.348299,0.2040921,-0.23923967,0.346641,0.20973409,-0.24998666,0.3569,0.2377904,-0.31028443,0.3732,0.20813275,-0.26631381,0.351848,0.20291631,-0.26192676,0.350158,0.20423629,-0.26626751,0.357018
0.29400855,-0.35186089,0.461308,0.29102747,-0.32195248,0.42607,0.31268901,-0.33826779,0.462429,0.31944853,-0.30877438,0.450274,0.3363657,-0.28964594,0.438461,0.34453563,-0.27738945,0.424894,0.31007167,-0.28371114,0.404612,0.26264205,-0.23688276,0.376737,0.24042833,-0.21594907,0.3628,0.22311218,-0.2013269,0.352266,0.28710994,-0.29301281,0.392861,0.23774104,-0.23829349,0.359093,0.21290389,-0.2274618,0.339395,0.20792497,-0.22935934,0.327932,0.26730661,-0.30287843,0.386418,0.22473638,-0.25662232,0.362121,0.21036061,-0.24661959,0.3578,0.21437589,-0.25552621,0.365885,0.24505971,-0.31963516,0.384655,0.21536047,-0.27566584,0.364261,0.20883063,-0.26965784,0.360506,0.20945137,-0.273123,0.366227
0.29355157,-0.35094273,0.460159,0.29000746,-0.32087701,0.42503,0.31165318,-0.33686294,0.460623,0.31892244,-0.30608247,0.447471,0.33913009,-0.28875923,0.433499,0.33877448,-0.27257955,0.420536,0.30661988,-0.28017087,0.402807,0.26041968,-0.23541139,0.37495,0.23834395,-0.21458112,0.361021,0.21911443,-0.19793803,0.349018,0.28348616,-0.28954275,0.391924,0.22813753,-0.23671891,0.359088,0.21861268,-0.23632494,0.350986,0.22802546,-0.25268443,0.36032,0.26018351,-0.29885228,0.386185,0.21778486,-0.25407733,0.36221,0.20794461,-0.24456381,0.355952,0.21275191,-0.25370563,0.363132,0.23859578,-0.31646753,0.385232,0.21037185,-0.27324395,0.365361,0.20831782,-0.26928106,0.360159,0.20872082,-0.27219936,0.365136
0.29465594,-0.35195613,0.460875,0.29015037,-0.32105281,0.42558,0.31244064,-0.33762737,0.461172,0.32074132,-0.30539537,0.447088,0.33832452,-0.28885997,0.43296,0.33750017,-0.27104474,0.42013,0.30640124,-0.28018433,0.403036,0.26013518,-0.23538877,0.375224,0.23812988,-0.21457277,0.361318,0.21905572,-0.19790666,0.349332,0.2830673,-0.28960665,0.392316,0.22855242,-0.23684268,0.359346,0.21867706,-0.23694633,0.35124,0.22831261,-0.25327014,0.360622,0.26063169,-0.29922925,0.386728,0.22080683,-0.25546992,0.362802,0.20806003,-0.24485465,0.35655,0.21292008,-0.25386712,0.363713,0.23908929,-0.31693673,0.385977,0.21085382,-0.27351266,0.365941,0.20843521,-0.26957911,0.36073,0.20902379,-0.27254127,0.365762
0.29455506,-0.35257328,0.460983,0.28952999,-0.32117936,0.42573,0.31226129,-0.33819346,0.461338,0.32069275,-0.30612934,0.44732,0.33804222,-0.28918116,0.433226,0.33729197,-0.27084465,0.420351,0.3063307,-0.28026267,0.403289,0.26016466,-0.23557209,0.375723,0.23826684,-0.2148191,0.36194,0.21933514,-0.19817351,0.350049,0.28273573,-0.28959682,0.392507,0.22877084,-0.23696698,0.359558,0.21877044,-0.23741396,0.35149,0.22854786,-0.25373839,0.360876,0.2607501,-0.29931932,0.386863,0.22059585,-0.25550957,0.3632,0.20816257,-0.24507847,0.356992,0.21299808,-0.25393096,0.364066,0.23913961,-0.31694173,0.386041,0.2109613,-0.2735332,0.366042,0.20833858,-0.26957112,0.360857,0.20905026,-0.27253333,0.365885
0.29480597,-0.35285354,0.461329,0.28928565,-0.32115255,0.425997,0.31235141,-0.33833174,0.461639,0.32104434,-0.30628749,0.447624,0.33808246,-0.28898229,0.433515,0.33713102,-0.2706918,0.420495,0.30626171,-0.28030197,0.403446,0.26012083,-0.23564435,0.375986,0.23828016,-0.21491887,0.362256,0.21946503,-0.19830115,0.35045,0.28253816,-0.28963055,0.392699,0.22887371,-0.23702254,0.359654,0.21883626,-0.23774646,0.351667,0.22875672,-0.25413558,0.361112,0.26091747,-0.29948855,0.387091,0.22039308,-0.25546402,0.363363,0.20818599,-0.24517958,0.357222,0.21306452,-0.25398752,0.36435,0.23931965,-0.3171495,0.386323,0.21109603,-0.27364846,0.366233,0.20812292,-0.26984873,0.361095,0.20901765,-0.27285707,0.366174
0.29508606,-0.35300025,0.461732,0.28904745,-0.32095801,0.426278,0.31245323,-0.3383075,0.461963,0.32141313,-0.30615593,0.447954,0.33814879,-0.2885391,0.433829,0.33703371,-0.2705959,0.420633,0.30619849,-0.28032104,0.403549,0.26006145,-0.23567456,0.376145,0.23825794,-0.21496465,0.362444,0.21954447,-0.19838065,0.350722,0.28240608,-0.28967269,0.392866,0.22891785,-0.23703769,0.359684,0.2188852,-0.23799505,0.351799,0.22861299,-0.25457767,0.361326,0.26108139,-0.29966293,0.387322,0.22022197,-0.255401,0.363436,0.20819349,-0.24524345,0.357377,0.21313172,-0.25404955,0.364601,0.23952605,-0.31740449,0.386651,0.21122148,-0.27377543,0.366425,0.20790432,-0.26997614,0.361346,0.20899227,-0.27304711,0.366495
0.29557472,-0.35283299,0.462007,0.28887012,-0.32060605,0.426406,0.31280984,-0.33804873,0.462107,0.32228292,-0.30581931,0.447963,0.33854387,-0.28804733,0.433677,0.33699751,-0.27083681,0.42027,0.3059885,-0.28029148,0.403414,0.25991431,-0.2355745,0.376042,0.23814061,-0.21491905,0.362356,0.21956514,-0.19850644,0.350676,0.28215591,-0.28969333,0.392854,0.22883377,-0.23697395,0.359536,0.21887271,-0.23781502,0.351695,0.22871497,-0.2548579,0.361286,0.26103273,-0.29984985,0.387425,0.21997163,-0.25526459,0.363351,0.20837159,-0.24532785,0.357325,0.21278571,-0.25356107,0.364639,0.23951242,-0.31766202,0.386912,0.21125128,-0.27384747,0.366532,0.20785612,-0.26997326,0.361475,0.20933103,-0.27333641,0.366687
0.29617918,-0.35265418,0.462204,0.28880236,-0.32025812,0.426487,0.31327225,-0.33775923,0.462176,0.32215898,-0.30567987,0.447711,0.33898053,-0.28758659,0.433187,0.33624092,-0.27000891,0.419839,0.305784,-0.28023453,0.403258,0.25979341,-0.23549153,0.375955,0.23805886,-0.21489346,0.362304,0.21957769,-0.19860323,0.350633,0.28194302,-0.28969703,0.392827,0.22877035,-0.23692494,0.359425,0.21869051,-0.23804508,0.35156,0.22885085,-0.25513487,0.361174,0.2610089,-0.29999615,0.387515,0.21978431,-0.25516702,0.363297,0.20798384,-0.24504809,0.357247,0.21247786,-0.25309016,0.36461,0.23953932,-0.31789495,0.387158,0.2113046,-0.27394043,0.366664,0.20788848,-0.27003731,0.361588,0.2097373,-0.27366751,0.366832
0.29657915,-0.35259672,0.462203,0.28852468,-0.32016702,0.426297,0.31356967,-0.33764848,0.461985,0.32069133,-0.30594037,0.447476,0.33834124,-0.28737227,0.432597,0.33524773,-0.26942779,0.419119,0.30494916,-0.28004581,0.402703,0.25968977,-0.23590513,0.376436,0.23832172,-0.21565151,0.363302,0.22018471,-0.19964644,0.351955,0.27996886,-0.28944655,0.392458,0.22926299,-0.23801031,0.36052,0.2190669,-0.24008907,0.352773,0.22937702,-0.25622909,0.361894,0.260635,-0.30025645,0.387316,0.21823641,-0.25472575,0.362856,0.20736163,-0.24482349,0.356816,0.21185389,-0.25273556,0.364279,0.23932359,-0.31832115,0.38719,0.21104646,-0.27418532,0.366501,0.20764087,-0.27012072,0.361428,0.20978225,-0.27393855,0.366742
0.29690781,-0.35252068,0.462116,0.28818045,-0.32009372,0.426046,0.3138091,-0.33752684,0.461721,0.32086177,-0.30575423,0.446901,0.3375603,-0.28696406,0.431775,0.33404436,-0.26871535,0.418129,0.30407721,-0.27990369,0.402121,0.25945239,-0.23627415,0.37677,0.23841121,-0.21632631,0.364094,0.22058889,-0.20057362,0.353018,0.27950745,-0.28946983,0.392053,0.22970897,-0.23892244,0.361472,0.21960246,-0.24104131,0.353807,0.22977384,-0.25726848,0.362463,0.26028428,-0.30038949,0.387072,0.21780642,-0.2546904,0.362403,0.20683657,-0.2447503,0.35635,0.21167391,-0.25283941,0.363892,0.23912253,-0.31860835,0.387161,0.21080776,-0.27432574,0.366308,0.2073183,-0.27023039,0.361221,0.20974727,-0.27421675,0.366588
0.29727496,-0.35249039,0.462089,0.28792748,-0.32012187,0.42593,0.31411455,-0.3374761,0.461554,0.32110781,-0.30564045,0.446432,0.33694798,-0.28664765,0.431133,0.33301287,-0.26814159,0.417355,0.30337925,-0.27992279,0.40177,0.25896094,-0.23641263,0.376736,0.23806367,-0.21660495,0.364219,0.22042778,-0.20098632,0.353176,0.27922688,-0.28957972,0.391853,0.22940614,-0.23896681,0.361196,0.21928143,-0.24098107,0.353427,0.22956583,-0.25762967,0.362078,0.26008932,-0.3005945,0.387004,0.21757463,-0.25479274,0.362227,0.20643062,-0.24481532,0.356087,0.21157166,-0.25303464,0.363639,0.23903958,-0.31894199,0.387264,0.21072014,-0.27457226,0.366333,0.20709142,-0.27046373,0.36118,0.20977743,-0.27457943,0.366548
0.29735749,-0.352776,0.462202,0.28789635,-0.32052804,0.425971,0.31419,-0.33777663,0.46158,0.32115076,-0.3059581,0.446376,0.33692895,-0.28698462,0.431002,0.33298203,-0.26849473,0.417185,0.30326558,-0.28042597,0.401653,0.25891722,-0.23670609,0.376535,0.23804561,-0.21679996,0.363976,0.22043145,-0.20109067,0.352898,0.27908774,-0.29010004,0.391825,0.22948783,-0.23918396,0.361092,0.21918693,-0.24091679,0.353302,0.22934441,-0.25751019,0.361974,0.25993954,-0.3011187,0.387057,0.21750229,-0.25509929,0.362187,0.20633324,-0.24492488,0.356029,0.21137261,-0.25295759,0.36361,0.2388946,-0.31944977,0.387423,0.21070206,-0.27492823,0.36642,0.207167,-0.27086883,0.361252,0.20997114,-0.2750998,0.36664
0.29756529,-0.35301797,0.46223,0.28798279,-0.32088149,0.425932,0.31438185,-0.33802431,0.461526,0.32130724,-0.30622484,0.446263,0.33705631,-0.28732664,0.430809,0.33315461,-0.26886348,0.416947,0.30325384,-0.28085753,0.401465,0.25892664,-0.23693296,0.376239,0.23805928,-0.21693196,0.363627,0.22044975,-0.20113591,0.352505,0.27906031,-0.2905597,0.391723,0.2296487,-0.23936618,0.36092,0.21916952,-0.24082033,0.353107,0.22920828,-0.25735339,0.361797,0.25990895,-0.30159048,0.387031,0.21751885,-0.2553772,0.362075,0.20631369,-0.24501026,0.355897,0.21125309,-0.25285626,0.363506,0.23888054,-0.31991724,0.387498,0.21078423,-0.27525862,0.366429,0.20733622,-0.27124745,0.361244,0.21025602,-0.27559292,0.366649
0.29777245,-0.35325919,0.462257,0.28806856,-0.32123416,0.425892,0.31457232,-0.33827053,0.46147,0.32146445,-0.30649224,0.446151,0.3371836,-0.28766854,0.430616,0.33332703,-0.26923205,0.416709,0.30324212,-0.28128913,0.401277,0.25893741,-0.23716108,0.375945,0.23807358,-0.21706448,0.363279,0.22047041,-0.20118329,0.352116,0.27903214,-0.29101869,0.39162,0.2298094,-0.23954821,0.360747,0.21915282,-0.24072458,0.352913,0.22907277,-0.25719727,0.361621,0.25987834,-0.3020623,0.387005,0.21753598,-0.25565565,0.361964,0.2062947,-0.24509627,0.355766,0.21113358,-0.25275496,0.363402,0.23886646,-0.32038476,0.387573,0.21086578,-0.27558801,0.366437,0.20750586,-0.2716265,0.361237,0.21054181,-0.27608718,0.36666
0.29797895,-0.35349962,0.462283,0.28815366,-0.32158607,0.425851,0.31476209,-0.33851597,0.461413,0.32162091,-0.306759,0.446038,0.33731081,-0.28801034,0.430423,0.33349929,-0.26960042,0.416471,0.30322964,-0.28172007,0.401088,0.25894957,-0.23739042,0.375653,0.23809107,-0.21719988,0.362936,0.22049346,-0.20123281,0.351731,0.279004,-0.29147772,0.391517,0.2299712,-0.23973144,0.360575,0.21913564,-0.24062818,0.352718,0.22893726,-0.25704118,0.361445,0.25984775,-0.30253416,0.386979,0.21755246,-0.25593321,0.361852,0.20627627,-0.24518292,0.355636,0.2110141,-0.25265368,0.363298,0.23885239,-0.32085228,0.387648,0.21094783,-0.27591787,0.366446,0.20767533,-0.2720052,0.36123,0.21082683,-0.27658031,0.36667
0.29818479,-0.35373928,0.462308,0.28823876,-0.32193801,0.42581,0.31495118,-0.3387607,0.461355,0.32177668,-0.30702503,0.445924,0.33743717,-0.28835139,0.430229,0.33367143,-0.26996857,0.416233,0.30321644,-0.28215031,0.400898,0.25896307,-0.237621,0.375363,0.23811046,-0.21733698,0.362596,0.22051951,-0.20128505,0.351351,0.27897584,-0.29193679,0.391414,0.23013283,-0.2399145,0.360402,0.21911916,-0.24053252,0.352524,0.22880237,-0.25688576,0.36127,0.25981646,-0.30300532,0.386952,0.21756832,-0.25620992,0.361739,0.20625723,-0.24526883,0.355505,0.2108952,-0.25255309,0.363195,0.23883767,-0.32131906,0.387722,0.21102925,-0.27624673,0.366454,0.20784464,-0.27238355,0.361223,0.21111221,-0.27707382,0.366681
0.29844865,-0.35408154,0.46241,0.28842791,-0.32235345,0.425883,0.31519885,-0.3391029,0.461408,0.32200954,-0.3073787,0.445975,0.33766984,-0.2887617,0.430248,0.33396575,-0.27039751,0.416232,0.30333901,-0.28261211,0.40089,0.25898723,-0.23788859,0.375161,0.23810763,-0.21744564,0.362296,0.22043943,-0.20115195,0.350973,0.27909561,-0.29242213,0.39146,0.23042252,-0.24020387,0.360423,0.21921461,-0.24056443,0.35251,0.22877528,-0.25684698,0.361253,0.25994028,-0.3035031,0.387045,0.2177161,-0.25659835,0.361795,0.20633858,-0.24548582,0.355531,0.21085361,-0.25258274,0.363224,0.2389786,-0.32181879,0.387875,0.21120351,-0.2766627,0.36658,0.20797524,-0.27265588,0.361327,0.21119127,-0.27719699,0.366785
0.29885685,-0.35454027,0.462716,0.28875214,-0.32287476,0.426112,0.31558364,-0.33955276,0.461617,0.32216101,-0.3076214,0.445823,0.33750339,-0.28865655,0.430082,0.33168002,-0.26911434,0.416439,0.30357085,-0.28316691,0.400945,0.25925444,-0.23829334,0.375148,0.23840547,-0.21770949,0.362249,0.22069821,-0.20118196,0.350896,0.27933761,-0.29300296,0.391615,0.23069133,-0.24061786,0.360495,0.2194745,-0.24089707,0.352562,0.22903348,-0.2571926,0.361329,0.26019537,-0.30410275,0.38729,0.2179975,-0.25700418,0.361938,0.20656506,-0.24571715,0.355656,0.21096734,-0.25264496,0.363383,0.23925689,-0.32243287,0.388237,0.21152556,-0.27713092,0.366864,0.20825011,-0.2729856,0.361596,0.21142115,-0.2773919,0.367075
0.29923451,-0.3546815,0.462981,0.28914514,-0.32310947,0.42633,0.31599242,-0.33973696,0.461834,0.32258152,-0.30778845,0.445936,0.33775508,-0.28865055,0.430221,0.33141988,-0.26890002,0.416688,0.30400761,-0.28351918,0.40107,0.25970923,-0.23845323,0.375158,0.23887557,-0.21771107,0.362202,0.22112218,-0.20095154,0.350823,0.2797435,-0.29332664,0.391788,0.23115791,-0.24078377,0.360612,0.21989656,-0.2410191,0.352689,0.22942654,-0.2573356,0.361479,0.26057279,-0.30439535,0.387507,0.21843148,-0.25712993,0.362092,0.20692955,-0.24569431,0.355818,0.2111841,-0.2524563,0.363574,0.23959589,-0.32267547,0.388514,0.21193098,-0.27725938,0.367089,0.20863686,-0.27309179,0.361826,0.2118074,-0.27749149,0.367326
0.29961281,-0.35482352,0.463247,0.28953744,-0.32334343,0.426547,0.31639976,-0.33991972,0.462049,0.32300259,-0.30795613,0.44605,0.33800758,-0.28864514,0.430361,0.33116088,-0.26868666,0.416939,0.30444276,-0.28386999,0.401193,0.26016512,-0.23861429,0.37517,0.2393485,-0.21771507,0.362159,0.22155092,-0.20072415,0.350756,0.28014859,-0.29364956,0.39196,0.23162368,-0.24094902,0.360728,0.2203185,-0.24114113,0.352816,0.22982018,-0.25747933,0.36163,0.2609495,-0.30468713,0.387723,0.21886478,-0.25725498,0.362245,0.20729356,-0.24567072,0.355979,0.2113997,-0.25226613,0.363763,0.2399349,-0.32291808,0.388791,0.21233644,-0.27738787,0.367314,0.20902364,-0.27319797,0.362056,0.21219315,-0.27759033,0.367576
0.29998984,-0.35496401,0.463511,0.28992907,-0.32357663,0.426763,0.31680714,-0.34010245,0.462264,0.32342492,-0.30812517,0.446166,0.33826094,-0.28864037,0.430502,0.33090384,-0.26847485,0.417193,0.30487706,-0.28422,0.401315,0.26062348,-0.23877779,0.375186,0.23982558,-0.21772267,0.362122,0.22198571,-0.20050093,0.350697,0.28055223,-0.29397092,0.39213,0.23208807,-0.24111288,0.360842,0.22073909,-0.24126177,0.352941,0.23021249,-0.2576216,0.361779,0.2613262,-0.3049789,0.387939,0.21929683,-0.25737857,0.362396,0.2076565,-0.2456457,0.356138,0.21161535,-0.25207587,0.363952,0.24027328,-0.32315983,0.389067,0.21274133,-0.27751558,0.367538,0.20940988,-0.27330338,0.362285,0.21257836,-0.27768838,0.367825
0.30066118,-0.35484989,0.463952,0.29064399,-0.32371041,0.427369,0.31754869,-0.3400815,0.462775,0.32418105,-0.30817529,0.44657,0.33783213,-0.28635248,0.431166,0.33317781,-0.2695534,0.416923,0.30575502,-0.28461094,0.402119,0.2615457,-0.23921291,0.376121,0.24077734,-0.21817015,0.363123,0.22284483,-0.20084859,0.351579,0.28132527,-0.29433638,0.392893,0.23231852,-0.24225503,0.361842,0.21793035,-0.23901056,0.353699,0.22309643,-0.25199772,0.362375,0.26201401,-0.30529375,0.388653,0.22011365,-0.25777596,0.363336,0.20839621,-0.24596473,0.356881,0.21241338,-0.25246589,0.364525,0.24086646,-0.32336096,0.389696,0.21346856,-0.27784898,0.368371,0.21004052,-0.27355804,0.362973,0.21312538,-0.27785479,0.368386
0.301097,-0.35467832,0.464318,0.29095719,-0.32360534,0.42766,0.31793291,-0.3398774,0.463037,0.32450212,-0.30798937,0.446632,0.33806367,-0.28609687,0.431102,0.33277841,-0.26895886,0.416917,0.30591479,-0.28450755,0.402225,0.26172441,-0.23912698,0.376237,0.24097789,-0.21808809,0.363243,0.22305091,-0.20075164,0.351683,0.28151975,-0.29429326,0.393111,0.23224013,-0.24230872,0.361981,0.21799381,-0.23908017,0.353802,0.22317093,-0.25208186,0.362496,0.26224524,-0.30529646,0.38897,0.22031904,-0.25765894,0.363552,0.20864694,-0.24589883,0.357066,0.21284248,-0.25260724,0.364739,0.24115645,-0.32340912,0.390141,0.21375196,-0.27783127,0.368739,0.21030621,-0.27355316,0.363317,0.21339328,-0.27787017,0.368747
0.30153218,-0.35450596,0.464683,0.29126765,-0.32349728,0.427947,0.31831642,-0.33967261,0.463298,0.32482598,-0.30780628,0.446698,0.33821788,-0.2859048,0.431042,0.33238403,-0.26836801,0.416918,0.30607456,-0.28440426,0.402331,0.2619058,-0.23904373,0.376357,0.24118229,-0.21800983,0.363369,0.22326445,-0.20066169,0.351799,0.28171209,-0.29424794,0.393326,0.23220543,-0.24236903,0.362113,0.2180585,-0.23915112,0.353907,0.2232485,-0.25216946,0.362622,0.26247178,-0.30529367,0.38928,0.22051965,-0.25753605,0.36376,0.20889711,-0.24583217,0.35725,0.21327293,-0.25274997,0.364955,0.2414409,-0.32344976,0.390577,0.21402898,-0.27780519,0.369096,0.21056787,-0.27354298,0.363654,0.21365945,-0.27788321,0.369105
0.30159815,-0.35420215,0.464834,0.29116128,-0.32327148,0.427986,0.31830705,-0.33932464,0.463301,0.32473093,-0.30733797,0.446541,0.33796272,-0.28546536,0.430825,0.33089478,-0.2664853,0.417056,0.30574975,-0.28417857,0.402109,0.26170774,-0.23886992,0.376226,0.24105706,-0.21785613,0.363285,0.22318318,-0.2004984,0.351727,0.28143944,-0.29409705,0.393259,0.23206839,-0.2420371,0.361926,0.21724433,-0.23846758,0.353688,0.22216479,-0.25123235,0.362436,0.26225349,-0.30520085,0.389351,0.22030151,-0.25726694,0.36368,0.2087588,-0.24560167,0.357143,0.2133363,-0.25272932,0.364897,0.241308,-0.32341679,0.390828,0.21391969,-0.27766108,0.36923,0.21046245,-0.27340115,0.363766,0.2135744,-0.27776312,0.369248
0.30170825,-0.35395022,0.465053,0.29112978,-0.32312885,0.428135,0.31837257,-0.33905661,0.463413,0.32482129,-0.30704544,0.446639,0.33793671,-0.28526939,0.430876,0.33096525,-0.26623309,0.41709,0.30556953,-0.28408719,0.402077,0.26156617,-0.23874767,0.376176,0.2409485,-0.21771756,0.363226,0.22309052,-0.20032501,0.351637,0.28127419,-0.29405834,0.393342,0.23173592,-0.24206582,0.361939,0.21681476,-0.23812263,0.353655,0.22156773,-0.2507307,0.362414,0.26211203,-0.3051974,0.389536,0.22018691,-0.25711874,0.363771,0.2087134,-0.24548047,0.357195,0.21347685,-0.25280007,0.364971,0.24121521,-0.3234376,0.391144,0.21387532,-0.27760126,0.369476,0.21041609,-0.27333603,0.36398,0.21353852,-0.27770699,0.369476
0.30182613,-0.35370741,0.465284,0.29110643,-0.32299525,0.428296,0.31844978,-0.33880108,0.463542,0.32491894,-0.30675994,0.446747,0.33792236,-0.28511808,0.430925,0.33102304,-0.26603259,0.417119,0.30540296,-0.28400852,0.402063,0.26143163,-0.23863185,0.376136,0.24084398,-0.21758271,0.363173,0.22300489,-0.20015804,0.351558,0.28111749,-0.29402859,0.393437,0.23141104,-0.24210116,0.361962,0.21653441,-0.23789951,0.353644,0.22118085,-0.25040918,0.362419,0.26197456,-0.30519861,0.389727,0.22007579,-0.2569746,0.363868,0.20867681,-0.24536959,0.357262,0.21362917,-0.25288471,0.365065,0.24112233,-0.32345836,0.39146,0.21382977,-0.27753988,0.36972,0.2103738,-0.27327615,0.364201,0.21350783,-0.2776576,0.369713
0.30204666,-0.35361597,0.465449,0.29121126,-0.32295829,0.4284,0.31863192,-0.33868739,0.46364,0.32514553,-0.30661364,0.44689,0.33822528,-0.28504425,0.431071,0.33147777,-0.26593005,0.417265,0.30538264,-0.28397924,0.402042,0.26137063,-0.23859247,0.376072,0.2407796,-0.21753544,0.363086,0.22295135,-0.20010812,0.351469,0.28111202,-0.29404338,0.393483,0.23138338,-0.24205023,0.361936,0.21682758,-0.23801884,0.35363,0.22168212,-0.25074449,0.362435,0.26199236,-0.30524579,0.389835,0.22006104,-0.25692057,0.363892,0.20872842,-0.24539505,0.357295,0.21386461,-0.25312619,0.365135,0.24118482,-0.32353323,0.391649,0.21387443,-0.2775567,0.369842,0.21042194,-0.2733221,0.364329,0.21356384,-0.27773015,0.369866
0.30254085,-0.35366956,0.465805,0.29151521,-0.3229756,0.428576,0.31906654,-0.33868325,0.463888,0.32555851,-0.30650236,0.447084,0.33844286,-0.28470301,0.431313,0.33175021,-0.26554909,0.417545,0.30546995,-0.28391041,0.401965,0.2613554,-0.23846807,0.375874,0.24073582,-0.21738631,0.362829,0.22298174,-0.20001888,0.351311,0.28123021,-0.29402978,0.393491,0.2313577,-0.24185821,0.361699,0.21963806,-0.24034285,0.353598,0.22680497,-0.25497707,0.362555,0.26215204,-0.305282,0.389929,0.22007943,-0.25674295,0.363741,0.20890055,-0.24540816,0.35731,0.21429337,-0.25344418,0.365315,0.24142124,-0.3236378,0.391874,0.21399402,-0.27748951,0.369852,0.21060468,-0.27337029,0.36446,0.2138085,-0.27787777,0.370119
0.30281621,-0.35346718,0.465824,0.29168669,-0.32285099,0.428474,0.31929062,-0.33845741,0.46381,0.3258038,-0.30623853,0.446973,0.33754303,-0.28281587,0.431637,0.33068648,-0.26338196,0.418129,0.305493,-0.28381158,0.401658,0.26147551,-0.23846178,0.375698,0.24090983,-0.21741265,0.362718,0.22322552,-0.20008603,0.351306,0.28129722,-0.29397916,0.393273,0.23373605,-0.24168725,0.361321,0.22043133,-0.23860185,0.35332,0.22506916,-0.25253468,0.362366,0.26226265,-0.305264,0.389794,0.22011397,-0.25655778,0.363438,0.20901944,-0.24532625,0.357088,0.21460804,-0.25359767,0.365193,0.24159813,-0.32364908,0.391858,0.214103,-0.27737996,0.369693,0.21071891,-0.27330488,0.364359,0.21394023,-0.27785667,0.370091
0.30322805,-0.35342424,0.466053,0.29203035,-0.32291708,0.428625,0.31965712,-0.33838271,0.463939,0.3261603,-0.30607971,0.447015,0.33726015,-0.28242508,0.431681,0.32997269,-0.26294958,0.418217,0.30573109,-0.28391269,0.401634,0.26173249,-0.23858044,0.375719,0.24118597,-0.21753124,0.362761,0.22350931,-0.20018905,0.351364,0.28157581,-0.29414971,0.393351,0.2329233,-0.24175179,0.361312,0.21943743,-0.23891377,0.353306,0.22766687,-0.25371258,0.362383,0.26257838,-0.30548482,0.389964,0.22037024,-0.25663096,0.363501,0.20930229,-0.24543673,0.357146,0.21505345,-0.2539055,0.365293,0.24196424,-0.32391393,0.392149,0.2144233,-0.27754428,0.369899,0.21100776,-0.27346598,0.36456,0.21422053,-0.27802853,0.37032
0.30221288,-0.35234111,0.464323,0.29076675,-0.32145752,0.42654,0.31856586,-0.33731582,0.462307,0.32444589,-0.30459378,0.444872,0.32756813,-0.27668339,0.429983,0.31517513,-0.25827044,0.41692,0.30414013,-0.28226913,0.399442,0.2612582,-0.23815912,0.375057,0.24118282,-0.21761375,0.362864,0.2241987,-0.20088044,0.352644,0.28004147,-0.29234049,0.390931,0.23599434,-0.23858873,0.358248,0.22104301,-0.23461471,0.351378,0.22939106,-0.25009066,0.361044,0.26113442,-0.30356078,0.387389,0.22184425,-0.2570381,0.360398,0.21352863,-0.24835541,0.354975,0.22561773,-0.26178991,0.363707,0.2419157,-0.32216787,0.389449,0.21274629,-0.27540849,0.366673,0.20970098,-0.27175576,0.362025,0.2131756,-0.27661775,0.368238
0.28646881,-0.3392823,0.441087,0.28631748,-0.31672348,0.419861,0.30083501,-0.3517727,0.451825,0.32488348,-0.36324624,0.481121,0.36044325,-0.3835295,0.497711,0.37687499,-0.38399464,0.509332,0.32158183,-0.28337655,0.419721,0.29225314,-0.24422119,0.407009,0.27794528,-0.22519985,0.400653,0.26456621,-0.20896409,0.395301,0.29590094,-0.28016124,0.399858,0.2720022,-0.23279937,0.383655,0.25066504,-0.23394109,0.380085,0.25245236,-0.2505214,0.384825,0.27392619,-0.28123018,0.385453,0.25577057,-0.23899868,0.37634,0.24373486,-0.21920084,0.371677,0.2312911,-0.20249807,0.367257,0.24663101,-0.289162,0.37204,0.22184535,-0.261679,0.363521,0.22003668,-0.26907928,0.361294,0.22095417,-0.27833439,0.363429
0.27234557,-0.35753568,0.434558,0.28625307,-0.31737133,0.419942,0.29583023,-0.35357372,0.447984,0.31548865,-0.3769375,0.478724,0.34874344,-0.39817166,0.493473,0.36448394,-0.40209572,0.50617,0.3258072,-0.28965472,0.427507,0.32076114,-0.24964774,0.414974,0.3151572,-0.22834753,0.408707,0.30898282,-0.20837848,0.401599,0.29993638,-0.2837565,0.406168,0.30956574,-0.24115281,0.397056,0.29567858,-0.21644019,0.391741,0.27528113,-0.21143207,0.386211,0.27732119,-0.2824021,0.389941,0.26491072,-0.24391643,0.387624,0.257289,-0.22377596,0.386438,0.24199857,-0.21009179,0.382563,0.24944513,-0.28397873,0.373304,0.22724647,-0.2640119,0.370549,0.22807019,-0.26663977,0.367274,0.22934023,-0.272843,0.366973
0.27776714,-0.33533026,0.431715,0.28755064,-0.31752215,0.422661,0.29415756,-0.35156093,0.447062,0.31439383,-0.36688747,0.477552,0.34807571,-0.38707207,0.49227,0.36362689,-0.39039473,0.504631,0.33048724,-0.2866637,0.436281,0.31965485,-0.24545053,0.428453,0.30345561,-0.23036206,0.42454,0.28435984,-0.22431893,0.418621,0.30464072,-0.27667941,0.414129,0.32267163,-0.23890676,0.409891,0.29937133,-0.22653971,0.407419,0.28210063,-0.23288045,0.402646,0.28158483,-0.27193266,0.396724,0.27331093,-0.23689848,0.39966,0.26648704,-0.22036712,0.401163,0.25165259,-0.2078701,0.398291,0.25136657,-0.27256695,0.377787,0.2333504,-0.25356155,0.379452,0.22502894,-0.24813894,0.375923,0.21890171,-0.24459596,0.373969
0.27572991,-0.33551725,0.430333,0.28600635,-0.30155209,0.422024,0.29313823,-0.34437119,0.445883,0.3146703,-0.35783185,0.476453,0.3478304,-0.37987235,0.490829,0.36343273,-0.38705741,0.503331,0.3305645,-0.27643968,0.436383,0.32003385,-0.23551381,0.428961,0.3039631,-0.22070783,0.42525,0.28482039,-0.2149497,0.419299,0.3046878,-0.26643033,0.414193,0.32225204,-0.22828379,0.409358,0.29872324,-0.21598348,0.406537,0.28367288,-0.22107551,0.401447,0.28155999,-0.26162303,0.396689,0.27377185,-0.22712898,0.400334,0.26717524,-0.21083473,0.402199,0.25234255,-0.19852296,0.399383,0.25118492,-0.26210543,0.377514,0.2335558,-0.24392815,0.379786,0.22516303,-0.23882258,0.376147,0.21888239,-0.23541504,0.373936
0.28017616,-0.34274184,0.437997,0.28694694,-0.30349285,0.425149,0.30646457,-0.33801985,0.452554,0.32053554,-0.34888854,0.482935,0.35858215,-0.35814183,0.502374,0.37123546,-0.35604608,0.515616,0.31983262,-0.26981097,0.4353,0.3006175,-0.22841276,0.422149,0.28751423,-0.20861866,0.415574,0.27554706,-0.19251034,0.411539,0.29275059,-0.26428058,0.413041,0.2821667,-0.21945828,0.404336,0.27165326,-0.1943205,0.399258,0.25477466,-0.18877927,0.396756,0.26985187,-0.26347117,0.395897,0.26827205,-0.22413892,0.394149,0.26193973,-0.20572039,0.393255,0.25398582,-0.1896587,0.392442,0.24194785,-0.26913574,0.37789,0.26086798,-0.24567242,0.375477,0.25517444,-0.23105019,0.374368,0.24243681,-0.22778545,0.37358
0.27894838,-0.34415772,0.437642,0.28560141,-0.30907027,0.424729,0.29802075,-0.34900756,0.45215,0.31957065,-0.34883279,0.480933,0.35592422,-0.35615429,0.49905,0.36778459,-0.35216055,0.510812,0.32103946,-0.27977838,0.434775,0.30593299,-0.23696937,0.420145,0.29839909,-0.21571504,0.41283,0.28150751,-0.20395406,0.407756,0.29219458,-0.27329289,0.412559,0.2809778,-0.22819784,0.404073,0.27159839,-0.20280991,0.399122,0.25599777,-0.18951077,0.396075,0.26771535,-0.27152881,0.395456,0.26736277,-0.23309992,0.393903,0.26170726,-0.21457273,0.393108,0.25527208,-0.19298879,0.392385,0.23774677,-0.27575286,0.377509,0.25812145,-0.25457575,0.375356,0.25449547,-0.23943555,0.374366,0.24329718,-0.22878238,0.373199
0.30737427,-0.34821042,0.503572,0.31258296,-0.30868786,0.470691,0.31644756,-0.32802261,0.504927,0.29224903,-0.29325704,0.495159,0.28405786,-0.26037347,0.487541,0.2799833,-0.23681895,0.477967,0.32636923,-0.25859912,0.451061,0.27505662,-0.23651294,0.428451,0.2501524,-0.22566653,0.417147,0.2368468,-0.23112195,0.415783,0.31686113,-0.27186054,0.439704,0.25622221,-0.24177522,0.408049,0.22566045,-0.23464031,0.389583,0.22481942,-0.24029287,0.386355,0.3086112,-0.28663195,0.433369,0.25745541,-0.25701859,0.407948,0.24180068,-0.25318691,0.394941,0.23423086,-0.25549887,0.392817,0.29804284,-0.31093798,0.431345,0.26620443,-0.27316138,0.408908,0.24701694,-0.27376501,0.398599,0.2467366,-0.28247939,0.39638
