sluyters/QuantumLeap/backend/src/datasets/dynamic/HandGestureDataset_SHREC2017_csv/Gesture5/finger_1/subject_24_essai_2_skeletons_world.csv
Wrist_x,Wrist_y,Wrist_z,Palm_x,Palm_y,Palm_z,thumb_base_x,thumb_base_y,thumb_base_z,thumb_first_joint_x,thumb_first_joint_y,thumb_first_joint_z,thumb_second_joint_x,thumb_second_joint_y,thumb_second_joint_z,thumb_tip_x,thumb_tip_y,thumb_tip_z,index_base_x,index_base_y,index_base_z,index_first_joint_x,index_first_joint_y,index_first_joint_z,index_second_joint_x,index_second_joint_y,index_second_joint_z,index_tip_x,index_tip_y,index_tip_z,middle_base_x,middle_base_y,middle_base_z,middle_first_joint_x,middle_first_joint_y,middle_first_joint_z,middle_second_joint_x,middle_second_joint_y,middle_second_joint_z,middle_tip_x,middle_tip_y,middle_tip_z,ring_base_x,ring_base_y,ring_base_z,ring_first_joint_x,ring_first_joint_y,ring_first_joint_z,ring_second_joint_x,ring_second_joint_y,ring_second_joint_z,ring_tip_x,ring_tip_y,ring_tip_z,pinky_base_x,pinky_base_y,pinky_base_z,pinky_first_joint_x,pinky_first_joint_y,pinky_first_joint_z,pinky_second_joint_x,pinky_second_joint_y,pinky_second_joint_z,pinky_tip_x,pinky_tip_y,pinky_tip_z,
0.406117218,-0.383247917,0.573391,0.380832282,-0.327718243,0.544282,0.380815843,-0.370942435,0.565112,0.343236011,-0.347139322,0.540628,0.311248711,-0.327000862,0.518593,0.298181547,-0.311252731,0.501801,0.335232676,-0.283581708,0.517593,0.307731278,-0.246332259,0.500735,0.294186357,-0.235251641,0.492306,0.281660006,-0.225066121,0.484643,0.361503152,-0.284970551,0.521047,0.33187728,-0.243069622,0.488218,0.318248321,-0.250467999,0.469068,0.313322128,-0.258103589,0.45539,0.385868629,-0.291375978,0.526782,0.351222274,-0.249606731,0.495364,0.338286092,-0.249400567,0.47929,0.332357404,-0.257530767,0.464677,0.418885128,-0.308198478,0.538478,0.396210845,-0.2634085,0.511708,0.386639694,-0.258794995,0.499408,0.378595864,-0.26233149,0.488555
0.405387642,-0.382547147,0.573394,0.380607757,-0.327250559,0.544182,0.379989549,-0.370241159,0.565011,0.342862182,-0.346840757,0.540398,0.310607785,-0.326533444,0.518256,0.297556946,-0.311033634,0.501342,0.334977456,-0.282974131,0.5173,0.3075987,-0.245719244,0.500527,0.294135089,-0.234603602,0.492141,0.28168286,-0.224383119,0.484517,0.361328448,-0.284412438,0.520865,0.331670846,-0.242931973,0.487946,0.318161078,-0.250597119,0.468743,0.312507167,-0.258069082,0.455027,0.385761342,-0.290864889,0.5267,0.351305346,-0.249109922,0.495169,0.3384938,-0.24902874,0.479036,0.332079554,-0.257157842,0.46437,0.418861879,-0.307757056,0.538531,0.396196907,-0.263399234,0.51169,0.38660021,-0.258768567,0.499357,0.378534644,-0.26228907,0.488476
0.404529432,-0.381821868,0.573505,0.379864616,-0.326366455,0.544176,0.378789883,-0.369293576,0.564665,0.341458231,-0.346330186,0.539531,0.30996444,-0.326546626,0.516164,0.294302685,-0.311248902,0.499098,0.333687574,-0.27895474,0.516638,0.307162641,-0.241984718,0.500419,0.294242693,-0.229651662,0.492309,0.282297951,-0.218267804,0.484937,0.360500626,-0.280493321,0.520767,0.330969484,-0.24210249,0.487713,0.318835605,-0.249860244,0.468432,0.311767454,-0.257573434,0.45466,0.385250447,-0.287079915,0.527079,0.351851386,-0.246892915,0.495264,0.340377445,-0.249047547,0.478986,0.332555103,-0.25709067,0.464189,0.418634348,-0.304219602,0.539482,0.396456504,-0.262978928,0.512407,0.387065784,-0.259014561,0.499967,0.379109951,-0.262750067,0.488991
0.40318658,-0.380788109,0.57292,0.379161458,-0.325451114,0.543371,0.377525101,-0.368369931,0.56419,0.338475759,-0.345375347,0.539153,0.301452383,-0.329127023,0.51559,0.280354573,-0.311092706,0.499627,0.333230744,-0.278100954,0.515855,0.30682106,-0.241294837,0.499531,0.293948343,-0.228484879,0.491369,0.282053362,-0.216651104,0.483949,0.359911278,-0.279564671,0.519786,0.330864601,-0.241375714,0.486577,0.317625555,-0.249301211,0.467206,0.310568597,-0.256807367,0.453369,0.384518986,-0.286106863,0.525956,0.350838393,-0.247293179,0.494055,0.34013604,-0.248093974,0.477734,0.33160001,-0.257791268,0.462897,0.417703881,-0.303219747,0.538233,0.394849719,-0.267044314,0.510846,0.385205898,-0.26919519,0.498263,0.377129561,-0.274907251,0.48716
0.402402189,-0.380100465,0.572633,0.378835558,-0.324922153,0.543066,0.376692127,-0.367677934,0.563844,0.337417689,-0.345055616,0.53874,0.301149522,-0.328796358,0.515072,0.280061665,-0.310767683,0.499105,0.333007524,-0.277631241,0.515464,0.306649292,-0.240906763,0.499052,0.293796272,-0.22780384,0.490846,0.281923818,-0.215694985,0.483386,0.359744314,-0.279152762,0.519467,0.330368779,-0.240743585,0.486239,0.317361474,-0.248948595,0.466856,0.310324802,-0.256346727,0.453011,0.384383983,-0.28574957,0.525698,0.350844451,-0.246873271,0.493759,0.340344514,-0.248185118,0.477419,0.33189275,-0.25767648,0.462563,0.417585087,-0.302939287,0.53805,0.39476499,-0.26681363,0.510637,0.384762033,-0.268511003,0.498041,0.376787982,-0.274331408,0.486928
0.401703298,-0.379161082,0.572238,0.377934815,-0.321784181,0.542851,0.375999181,-0.366724533,0.563428,0.333581,-0.342885971,0.538319,0.302831459,-0.325250842,0.514696,0.279753196,-0.308813492,0.498532,0.333081841,-0.276926536,0.515318,0.30679213,-0.240205779,0.498789,0.294243072,-0.225102185,0.490525,0.282529185,-0.211870696,0.483012,0.359885252,-0.278522842,0.519394,0.331983502,-0.237347375,0.486299,0.320232668,-0.247037893,0.466993,0.310833651,-0.256050507,0.453203,0.384546893,-0.285176009,0.525668,0.351758497,-0.24531487,0.49383,0.342380706,-0.24883429,0.477541,0.3360821,-0.257724034,0.462732,0.417713448,-0.302418932,0.538038,0.394888952,-0.267086488,0.510708,0.385047345,-0.268136876,0.498151,0.377144662,-0.27394174,0.487071
0.399192823,-0.376685337,0.57002,0.375650835,-0.318315444,0.540598,0.372987804,-0.363589285,0.56026,0.32988057,-0.340219053,0.534436,0.289263257,-0.323756184,0.510058,0.266169499,-0.305804075,0.493751,0.331176538,-0.266374799,0.511809,0.309985627,-0.230610695,0.491444,0.299471112,-0.213435391,0.481261,0.289853487,-0.197640921,0.472005,0.35910323,-0.271904611,0.517113,0.333805442,-0.232923211,0.483913,0.322188895,-0.243205922,0.464546,0.312084955,-0.251976553,0.450713,0.384248415,-0.279547511,0.524402,0.35367538,-0.240079573,0.492121,0.345098064,-0.24697573,0.475605,0.335673149,-0.256117452,0.46059,0.417145541,-0.298977256,0.537956,0.395325353,-0.26373769,0.510347,0.385211313,-0.26737175,0.497661,0.37730119,-0.273145986,0.486468
0.397077999,-0.374688894,0.568398,0.374395681,-0.316687978,0.539267,0.370599462,-0.361105028,0.558038,0.323687568,-0.338041792,0.532285,0.286322283,-0.321018776,0.508053,0.263314774,-0.302502832,0.492366,0.330096052,-0.264742102,0.509856,0.309171059,-0.22932921,0.48968,0.298799781,-0.212273665,0.479592,0.289310595,-0.196581541,0.470421,0.358364335,-0.26846588,0.516015,0.335974144,-0.230745171,0.483004,0.324646088,-0.241717719,0.463747,0.312341064,-0.251062421,0.449992,0.383915813,-0.27847207,0.523979,0.354491523,-0.23974526,0.491629,0.347900346,-0.246680477,0.475079,0.33933806,-0.255624919,0.460032,0.417273254,-0.298520036,0.538266,0.395792118,-0.263871356,0.510655,0.387523656,-0.266508487,0.497969,0.378486141,-0.27314179,0.486775
0.393552455,-0.371462828,0.564826,0.372525307,-0.313511758,0.537395,0.367907052,-0.358361184,0.555428,0.322404585,-0.336336122,0.530936,0.28362066,-0.31677521,0.506629,0.260732982,-0.297130588,0.491282,0.330689809,-0.264198746,0.510167,0.312600886,-0.224205784,0.481185,0.307721194,-0.208053081,0.473711,0.303284212,-0.193059715,0.466916,0.35840679,-0.26774812,0.5155,0.337421686,-0.231189999,0.483852,0.326473658,-0.242637738,0.465391,0.316531133,-0.250366776,0.452204,0.383147637,-0.277215901,0.522616,0.358153338,-0.240874837,0.491748,0.350903475,-0.249879729,0.475955,0.341508582,-0.25736783,0.461598,0.415454151,-0.297915177,0.535624,0.394989085,-0.265196524,0.509126,0.387961731,-0.267525087,0.496951,0.379006115,-0.273330832,0.486209
0.390773994,-0.368504731,0.562046,0.370464951,-0.308678185,0.534281,0.365179414,-0.35503303,0.552445,0.321290546,-0.326026831,0.526984,0.283115848,-0.302742268,0.503494,0.262187908,-0.281687748,0.489729,0.333898688,-0.257100476,0.506606,0.315257169,-0.218467224,0.477227,0.310873672,-0.20243122,0.470005,0.303946436,-0.189584256,0.46344,0.359316045,-0.263724252,0.512121,0.339122987,-0.228153642,0.4802,0.325992058,-0.239921248,0.461579,0.315762418,-0.24709092,0.448279,0.383978589,-0.273015594,0.519418,0.359338405,-0.23940225,0.488249,0.351265398,-0.248733828,0.472303,0.341209361,-0.255609426,0.457806,0.414234654,-0.294151768,0.532695,0.397136941,-0.265357906,0.50597,0.388295536,-0.271322499,0.493692,0.379805511,-0.277431524,0.482857
0.389131225,-0.36642477,0.560361,0.369546213,-0.306402812,0.531377,0.363547478,-0.352589866,0.550553,0.321300937,-0.323318404,0.52483,0.284155837,-0.3012427,0.500925,0.263078162,-0.280419664,0.48638,0.332668069,-0.255069823,0.502764,0.318163412,-0.217147075,0.47286,0.315391375,-0.201586452,0.465505,0.312928088,-0.187120071,0.458818,0.360436615,-0.260256349,0.508242,0.339652109,-0.224904442,0.475371,0.326332817,-0.236389465,0.456197,0.323265389,-0.252063344,0.457387,0.385099881,-0.269976157,0.51563,0.3620829,-0.24226314,0.483601,0.352964969,-0.252781685,0.467215,0.340706239,-0.255960356,0.452318,0.416954149,-0.290988769,0.529223,0.397377444,-0.26466875,0.501822,0.387645604,-0.272088145,0.489232,0.377282979,-0.275719016,0.478123
0.387432225,-0.364764507,0.558798,0.369529909,-0.305615852,0.530041,0.361801457,-0.350355235,0.548621,0.320089027,-0.321072636,0.522346,0.284915718,-0.297641724,0.498044,0.264332149,-0.276597718,0.483233,0.334464422,-0.254432037,0.501073,0.31917586,-0.216655877,0.471096,0.317012389,-0.201501201,0.464168,0.315116987,-0.187387358,0.45787,0.362494505,-0.260432501,0.507088,0.343099807,-0.225447186,0.47437,0.329404755,-0.237228177,0.455285,0.327471793,-0.25135867,0.456476,0.387245935,-0.27081102,0.514896,0.363718368,-0.24043339,0.482856,0.354328866,-0.25050546,0.466464,0.343188936,-0.256372499,0.451562,0.417735669,-0.292071445,0.528938,0.400113635,-0.266733671,0.50156,0.39019757,-0.27421294,0.488981,0.379351061,-0.278043784,0.477882
0.38429362,-0.361501179,0.555044,0.371303511,-0.302153772,0.527054,0.358245563,-0.345954555,0.543687,0.317871245,-0.314197547,0.516848,0.282523035,-0.285261524,0.49343,0.263771028,-0.26322765,0.480029,0.338144918,-0.24888626,0.496967,0.326296491,-0.21226728,0.46737,0.325243276,-0.197574794,0.45948,0.324398657,-0.184872873,0.452308,0.364519763,-0.258770261,0.504712,0.353255763,-0.225312602,0.472554,0.338762734,-0.237628392,0.453795,0.33290216,-0.251951715,0.454933,0.389610611,-0.270771191,0.513869,0.373322242,-0.238801939,0.481856,0.363147266,-0.248816834,0.465477,0.348387131,-0.256560389,0.450587,0.420303076,-0.2932096,0.529343,0.404993299,-0.268694023,0.502101,0.394653651,-0.276157082,0.489585,0.382690807,-0.279952294,0.478541
0.380737076,-0.357095478,0.549911,0.380133151,-0.296789322,0.523821,0.353727939,-0.338689643,0.537394,0.320910366,-0.305013531,0.510217,0.285143754,-0.27890954,0.48532,0.266185221,-0.256855166,0.471451,0.346608002,-0.243461932,0.493262,0.331560224,-0.208788264,0.463113,0.329125244,-0.194757028,0.455006,0.324010443,-0.182335041,0.447635,0.375952643,-0.254333822,0.502996,0.366897691,-0.224987952,0.472359,0.35140567,-0.238212174,0.454487,0.347461831,-0.252633218,0.455974,0.400934708,-0.268569234,0.513603,0.386938838,-0.238759693,0.482426,0.376011497,-0.249306438,0.466476,0.362670873,-0.25757823,0.451975,0.431402677,-0.294569603,0.530431,0.419659595,-0.269872989,0.504,0.40902985,-0.277491921,0.491856,0.396958838,-0.282350207,0.481141
0.378437317,-0.353825263,0.547248,0.377883661,-0.293143053,0.521386,0.353475827,-0.332995354,0.534299,0.314138335,-0.293962206,0.507314,0.278976558,-0.267313265,0.483704,0.260585969,-0.246282165,0.468977,0.346906513,-0.236116838,0.490388,0.334843676,-0.203740113,0.460416,0.333613151,-0.190260982,0.451918,0.328548446,-0.179022698,0.444192,0.375122656,-0.251181982,0.500743,0.368429277,-0.233441905,0.470313,0.344930989,-0.245589586,0.452562,0.336464786,-0.25206037,0.453923,0.399992077,-0.266385759,0.511838,0.387327829,-0.239185545,0.480679,0.374855599,-0.249983674,0.464737,0.360202987,-0.257574951,0.450244,0.430056267,-0.293466051,0.529193,0.420464263,-0.268768021,0.502829,0.408446431,-0.276085194,0.490715,0.392353205,-0.280980559,0.480027
0.37315149,-0.341819759,0.538542,0.375698295,-0.279331097,0.513783,0.348816075,-0.313059768,0.524064,0.310772317,-0.27947499,0.496329,0.276399349,-0.252561018,0.472304,0.259965329,-0.231029771,0.460352,0.348225464,-0.226017463,0.481396,0.338121268,-0.194614835,0.450934,0.33742046,-0.181546613,0.441343,0.336995878,-0.16995902,0.432623,0.37777171,-0.240500257,0.49402,0.374011459,-0.231844784,0.464649,0.348849483,-0.243559013,0.447516,0.338218329,-0.248520774,0.448404,0.402105363,-0.257302711,0.506873,0.395082949,-0.238545375,0.476056,0.379045757,-0.24978474,0.460289,0.358068165,-0.255195558,0.445956,0.430313931,-0.285521467,0.526079,0.422713861,-0.267051366,0.500198,0.408098649,-0.27474754,0.488307,0.394022812,-0.278824984,0.477815
0.373689475,-0.339937875,0.539039,0.376348183,-0.279077045,0.513882,0.35004664,-0.311706279,0.524565,0.314901324,-0.27439941,0.495491,0.284787253,-0.247074515,0.471405,0.270392684,-0.225165603,0.459199,0.348244113,-0.226288771,0.481285,0.339530433,-0.194908976,0.450593,0.339706691,-0.181817353,0.441126,0.340069097,-0.169958007,0.43252,0.377839653,-0.240176095,0.493802,0.37360339,-0.233086396,0.46411,0.348328095,-0.244574836,0.44679,0.337954829,-0.248183299,0.447513,0.402261638,-0.25648302,0.506608,0.395404735,-0.238460192,0.475526,0.379162808,-0.249623939,0.459623,0.358343873,-0.254797882,0.445166,0.430668592,-0.284099509,0.525827,0.421594035,-0.27466817,0.499728,0.406078012,-0.281880282,0.487736,0.39119332,-0.279605539,0.477155
0.373902311,-0.330609286,0.538268,0.37692485,-0.277210787,0.51207,0.35082714,-0.309206214,0.523635,0.316815422,-0.267878187,0.494852,0.286593205,-0.240103781,0.472957,0.27349803,-0.218707352,0.462886,0.352643642,-0.222752566,0.478696,0.347760934,-0.193750341,0.448624,0.349561023,-0.181461243,0.438923,0.351285378,-0.171345627,0.430104,0.38248072,-0.237262178,0.49116,0.371935299,-0.232049178,0.460662,0.34584478,-0.242827664,0.442872,0.336703767,-0.245384378,0.443028,0.407108219,-0.254027313,0.504024,0.394411076,-0.237132285,0.472219,0.377366129,-0.247951909,0.455947,0.357234282,-0.252451323,0.441154,0.43249399,-0.281810295,0.523491,0.421959041,-0.272893441,0.496822,0.405877749,-0.279886502,0.484568,0.390479848,-0.278128388,0.473756
0.376683823,-0.324577843,0.536698,0.387900424,-0.269056229,0.509247,0.354734604,-0.301679941,0.520291,0.322930336,-0.261830355,0.490459,0.292768181,-0.234338878,0.469691,0.278988745,-0.213349425,0.458998,0.357575668,-0.216565148,0.472877,0.353138258,-0.189840185,0.44259,0.355382055,-0.178713835,0.432874,0.35765892,-0.168433715,0.424041,0.38846132,-0.230591745,0.487336,0.381167692,-0.231054709,0.456311,0.353649451,-0.240789098,0.438213,0.341898729,-0.241002859,0.436224,0.414097701,-0.246980074,0.501968,0.407745935,-0.235716309,0.470259,0.388671258,-0.246257762,0.454036,0.368793519,-0.251701527,0.439288,0.44411485,-0.274620785,0.523704,0.43309466,-0.244084412,0.496489,0.425270849,-0.251168079,0.483986,0.412428945,-0.255939609,0.472953
0.3798295,-0.319939885,0.534778,0.389131559,-0.266829129,0.507598,0.358732881,-0.296084849,0.5178,0.327471741,-0.255623417,0.487833,0.299572068,-0.225748456,0.46959,0.288405807,-0.204617127,0.461218,0.363343103,-0.213166021,0.470632,0.359065416,-0.189308654,0.440293,0.360748192,-0.179240173,0.42963,0.362505465,-0.169966496,0.419936,0.394104539,-0.228263814,0.485903,0.386352117,-0.231734098,0.455316,0.355770916,-0.240792064,0.437474,0.3435035,-0.240330912,0.434959,0.416411342,-0.245989997,0.501176,0.409250425,-0.235354216,0.468528,0.3894982,-0.245472646,0.451825,0.368997745,-0.250322528,0.43664,0.44628641,-0.274095205,0.523611,0.439588192,-0.244299491,0.496658,0.428445578,-0.251460877,0.484274,0.415219218,-0.256210803,0.473347
0.382831165,-0.308567603,0.527505,0.394316767,-0.263629376,0.506017,0.361537916,-0.288259321,0.512929,0.332121944,-0.248828188,0.487296,0.304997853,-0.218923944,0.46921,0.294974053,-0.197530145,0.461004,0.377828539,-0.213384519,0.475291,0.373777483,-0.193509618,0.447323,0.373981303,-0.184499506,0.435712,0.372341719,-0.17491416,0.427068,0.407287178,-0.230401656,0.488865,0.394261754,-0.241256486,0.462208,0.363828277,-0.246639097,0.446658,0.35579476,-0.24722836,0.448749,0.430597793,-0.248523619,0.502176,0.420238654,-0.249595769,0.473585,0.398124928,-0.258556376,0.458956,0.378698256,-0.258593999,0.447882,0.455849499,-0.276768382,0.521347,0.449736337,-0.250742501,0.497324,0.43996997,-0.25905308,0.486287,0.432309785,-0.266468624,0.486803
0.383271266,-0.305532443,0.525345,0.398267902,-0.260260293,0.502676,0.364920321,-0.282802632,0.511355,0.332821881,-0.24607985,0.484693,0.307600239,-0.214759969,0.464792,0.295613524,-0.194786356,0.457394,0.38146265,-0.210526632,0.472068,0.379811073,-0.191695698,0.445015,0.380214638,-0.18268725,0.432631,0.381578424,-0.174791791,0.422249,0.406755903,-0.228016564,0.484582,0.392186604,-0.238263907,0.456853,0.361903659,-0.244073338,0.440678,0.354781585,-0.24296294,0.442729,0.42922491,-0.245914099,0.497137,0.419705288,-0.247770725,0.470074,0.398066323,-0.257062933,0.456228,0.389937958,-0.26645093,0.458217,0.453612059,-0.273862126,0.515635,0.447503096,-0.25653533,0.490955,0.435381993,-0.265315999,0.479615,0.42980047,-0.269523467,0.480141
0.383071923,-0.302294699,0.522543,0.401031059,-0.257345388,0.499959,0.367241348,-0.277109889,0.508179,0.339359394,-0.238527288,0.480671,0.312911432,-0.208805898,0.458062,0.301973703,-0.187455733,0.444982,0.385100243,-0.208182291,0.468908,0.385522574,-0.191212776,0.442218,0.386977248,-0.183151716,0.429994,0.389293362,-0.176125994,0.41972,0.410333457,-0.225902753,0.481932,0.399347869,-0.238095918,0.455266,0.369436125,-0.244597274,0.439711,0.360184084,-0.24136002,0.441799,0.432645909,-0.244090574,0.494899,0.424802288,-0.247995006,0.469809,0.40372768,-0.257781118,0.456972,0.395709189,-0.268792208,0.459292,0.45666328,-0.272202834,0.51386,0.448743174,-0.255567452,0.489209,0.436363675,-0.264295628,0.477883,0.430802638,-0.271901227,0.478221
0.386286764,-0.29478955,0.520118,0.404176611,-0.253507498,0.498801,0.366972381,-0.273499253,0.505473,0.340484996,-0.229830023,0.479693,0.314135032,-0.200795704,0.457281,0.30410629,-0.178727579,0.446171,0.391284662,-0.203648511,0.468078,0.392244196,-0.190786559,0.442022,0.393697149,-0.184664055,0.429755,0.392791628,-0.177841259,0.419724,0.418383721,-0.221804298,0.481787,0.401010361,-0.239500677,0.456721,0.37137629,-0.245441863,0.4421,0.363468499,-0.242044358,0.444593,0.437268725,-0.242030503,0.495192,0.432622931,-0.250534082,0.473512,0.411856962,-0.260259625,0.462419,0.4038749,-0.268794527,0.465741,0.459929827,-0.270093099,0.514442,0.458437924,-0.251547469,0.490518,0.445807015,-0.260222055,0.479526,0.436940962,-0.271629154,0.480046
0.39228592,-0.292933378,0.521575,0.413560111,-0.249168468,0.494887,0.374519974,-0.26889114,0.505072,0.34776851,-0.227568228,0.475029,0.321504347,-0.19873311,0.452708,0.312723557,-0.177547877,0.443428,0.394074823,-0.199559333,0.45881,0.390459632,-0.184702974,0.428065,0.392074518,-0.178809528,0.416273,0.393774031,-0.17343629,0.405552,0.421869017,-0.217988463,0.473585,0.402152971,-0.23427624,0.445562,0.392099925,-0.251798532,0.454392,0.394552296,-0.252670011,0.4673,0.4438876,-0.237110591,0.488402,0.435656057,-0.245289741,0.463138,0.411885378,-0.252596725,0.450212,0.399768381,-0.255942491,0.449512,0.467839908,-0.266321909,0.51022,0.458279448,-0.257435469,0.483414,0.441727507,-0.264818768,0.471097,0.43061058,-0.267342768,0.468655
0.396134936,-0.288998365,0.520703,0.416693144,-0.248930265,0.4954,0.379940316,-0.264510691,0.504359,0.356097397,-0.22169006,0.476279,0.332687105,-0.191392137,0.455087,0.326232093,-0.16993887,0.446133,0.404234969,-0.200270039,0.460286,0.397836396,-0.189818456,0.429742,0.396008926,-0.185203408,0.415812,0.394477199,-0.181025809,0.403148,0.430853025,-0.220785093,0.475204,0.403767197,-0.235305467,0.445834,0.393684226,-0.252471754,0.455421,0.39711354,-0.253555327,0.469054,0.45150396,-0.241228767,0.49,0.436999223,-0.247700259,0.463343,0.411725394,-0.253960438,0.449704,0.399641591,-0.256580523,0.449136,0.47313263,-0.27124615,0.511555,0.463003297,-0.263927078,0.485458,0.444292313,-0.268375128,0.473467,0.434930242,-0.273855549,0.471632
0.407496042,-0.285916287,0.52305,0.424175571,-0.248877098,0.496299,0.389869004,-0.263159773,0.507254,0.367008469,-0.220008932,0.480062,0.341173572,-0.192502173,0.455472,0.332310053,-0.171372681,0.442794,0.412964432,-0.201095247,0.461108,0.399964239,-0.190186313,0.429465,0.39553978,-0.18486074,0.413644,0.391565693,-0.180027085,0.399261,0.438955601,-0.222315419,0.474947,0.405463198,-0.235879185,0.444269,0.393975604,-0.251777929,0.45414,0.398612369,-0.253055117,0.468336,0.459182752,-0.24323222,0.488999,0.436633053,-0.251811524,0.461469,0.40985018,-0.25576974,0.447384,0.398199975,-0.255673973,0.446791,0.480456911,-0.273580969,0.50994,0.463537278,-0.264273764,0.483011,0.444252353,-0.270409637,0.470638,0.433787953,-0.27357243,0.468742
0.412573829,-0.281664603,0.521316,0.435353007,-0.24591416,0.49338,0.399756948,-0.257209632,0.505366,0.37159038,-0.217800068,0.476643,0.344288714,-0.187366606,0.452727,0.333018192,-0.167954622,0.440875,0.420559703,-0.198790429,0.457341,0.413203668,-0.191260031,0.42666,0.409611996,-0.18751897,0.41132,0.406404076,-0.184133816,0.397374,0.44576443,-0.219906553,0.471081,0.419208305,-0.232624713,0.440758,0.407493416,-0.249077436,0.449869,0.411167816,-0.251155784,0.463698,0.465360302,-0.240625607,0.48517,0.446401564,-0.253845238,0.460327,0.419492786,-0.256919559,0.447617,0.408548619,-0.256083799,0.447324,0.485974017,-0.270582316,0.506359,0.474350517,-0.25934287,0.478834,0.455363981,-0.265836806,0.466187,0.444994207,-0.269097232,0.463746
0.421166191,-0.279606952,0.520586,0.44517395,-0.245430686,0.49241,0.409273344,-0.255648305,0.504669,0.382519252,-0.216676596,0.475443,0.356408094,-0.18591596,0.451825,0.349703534,-0.164636711,0.44228,0.430053724,-0.198330118,0.456282,0.421622916,-0.192872258,0.426007,0.417504414,-0.19018047,0.41087,0.413825061,-0.187758189,0.397109,0.455177306,-0.21936505,0.469921,0.431114549,-0.233390527,0.442209,0.419384277,-0.249936173,0.45142,0.42217629,-0.251500807,0.464335,0.474753979,-0.240020038,0.483949,0.458829031,-0.254815782,0.462087,0.432774534,-0.258805056,0.450902,0.422212657,-0.258459589,0.451474,0.495433334,-0.269914355,0.505109,0.483734607,-0.258598693,0.47746,0.46443219,-0.265020798,0.464756,0.453737177,-0.26822857,0.462249
0.43010869,-0.279866663,0.52191,0.448553776,-0.24765461,0.493583,0.412930356,-0.256467422,0.505061,0.387823234,-0.218606224,0.474878,0.362798779,-0.188259052,0.451432,0.352481663,-0.165549527,0.441101,0.435948898,-0.203184822,0.45616,0.421919557,-0.201534467,0.425308,0.414960067,-0.200752445,0.409882,0.408670992,-0.200070858,0.395859,0.461430211,-0.224638267,0.470973,0.431620235,-0.242129354,0.443849,0.418377502,-0.251667477,0.451211,0.4214419,-0.251505433,0.463333,0.481231584,-0.245475726,0.485983,0.465696474,-0.262064534,0.465015,0.439248284,-0.265109699,0.454287,0.425912376,-0.261524182,0.453886,0.500304962,-0.273456299,0.50831,0.490794475,-0.26577065,0.480759,0.470953426,-0.271915656,0.468101,0.457545732,-0.271783229,0.464712
0.430630817,-0.277346294,0.519004,0.454464357,-0.247552853,0.49501,0.417648834,-0.254551682,0.502634,0.388886534,-0.217171573,0.472583,0.367967961,-0.186751807,0.449562,0.358469435,-0.165935001,0.439511,0.441873535,-0.203077301,0.460578,0.430225834,-0.205803757,0.432826,0.424632651,-0.207337379,0.419066,0.419682498,-0.20883855,0.40661,0.470268295,-0.22181705,0.475859,0.443948538,-0.242808571,0.452077,0.431181596,-0.256133469,0.462399,0.433149919,-0.256212495,0.474241,0.490656302,-0.241954338,0.490825,0.473926544,-0.265437154,0.473061,0.449435916,-0.271065561,0.463972,0.439243918,-0.268412034,0.46636,0.511427654,-0.270555197,0.512349,0.479007608,-0.273994669,0.486975,0.453137648,-0.267582491,0.475317,0.441632117,-0.259724324,0.473873
0.43705858,-0.275771561,0.51755,0.467014451,-0.24496732,0.494584,0.423262635,-0.253312146,0.50141,0.401477696,-0.215887863,0.471587,0.377359776,-0.185779073,0.448302,0.370537604,-0.164761913,0.437202,0.454911444,-0.201203238,0.461013,0.443012578,-0.208768974,0.435172,0.4372347,-0.212730373,0.422315,0.432112193,-0.216460636,0.410682,0.481406778,-0.222009758,0.476253,0.455779175,-0.243601379,0.453231,0.444994825,-0.257246994,0.464286,0.448874064,-0.254738597,0.476244,0.501510715,-0.242084446,0.491083,0.485989823,-0.264944291,0.474005,0.461917132,-0.272139045,0.465268,0.454302822,-0.268852205,0.468317,0.521750378,-0.270519809,0.512272,0.490307633,-0.274357225,0.487449,0.46504429,-0.270267581,0.476044,0.452375493,-0.262373269,0.475088
0.448852248,-0.274034218,0.517924,0.476577724,-0.245507096,0.493473,0.436733915,-0.252437861,0.500957,0.410973404,-0.214974104,0.470507,0.388132013,-0.184185576,0.448674,0.382676356,-0.16304464,0.439049,0.462971017,-0.202778269,0.458012,0.447146562,-0.213852679,0.431455,0.439318775,-0.219460014,0.41824,0.432265499,-0.224610904,0.406273,0.489990032,-0.222846771,0.473956,0.463546018,-0.245494161,0.45022,0.45046672,-0.255341077,0.459257,0.453574077,-0.251883341,0.47071,0.510639047,-0.242256248,0.489513,0.495299616,-0.266060517,0.47199,0.469947961,-0.271866811,0.463025,0.460179146,-0.266988769,0.464637,0.531725568,-0.269830167,0.511803,0.499596085,-0.275093176,0.486281,0.474005046,-0.270104311,0.474555,0.460035938,-0.261754944,0.472448
0.454382778,-0.271727273,0.515273,0.475948365,-0.24425263,0.490564,0.437331918,-0.250212082,0.49825,0.41100181,-0.212313003,0.467375,0.39140104,-0.180416227,0.444161,0.38293128,-0.160508075,0.434421,0.463111024,-0.202286906,0.45489,0.446199735,-0.212718903,0.427802,0.437856525,-0.218013663,0.414351,0.430333931,-0.222877801,0.40217,0.489636894,-0.222855211,0.470842,0.460817395,-0.245225039,0.446926,0.447487209,-0.254337333,0.455745,0.451443063,-0.250439339,0.467184,0.509841697,-0.242521263,0.486431,0.492137797,-0.266365761,0.468746,0.466747553,-0.272435446,0.459697,0.456279509,-0.268599307,0.461123,0.530346892,-0.270119063,0.508803,0.497458209,-0.275306013,0.483154,0.47212098,-0.270497791,0.47137,0.457442212,-0.26194789,0.469127
0.459331754,-0.272514738,0.517517,0.480220183,-0.245330848,0.490024,0.445833816,-0.250923466,0.500438,0.424061433,-0.213127008,0.470304,0.40307636,-0.181978571,0.446543,0.398962115,-0.160996245,0.435141,0.465901446,-0.204119637,0.452755,0.441709418,-0.220575462,0.425609,0.428871752,-0.227721916,0.412128,0.417240263,-0.234130967,0.399919,0.491907393,-0.224870973,0.468079,0.456716959,-0.245935933,0.441838,0.441850181,-0.251899395,0.449182,0.446999867,-0.247982218,0.460933,0.511930278,-0.24455981,0.483427,0.487842203,-0.267455634,0.463422,0.46136343,-0.272589529,0.453187,0.449573186,-0.268541042,0.45303,0.536178541,-0.273436574,0.506002,0.5025915,-0.280703632,0.478923,0.476112548,-0.276016716,0.466481,0.457403219,-0.270060522,0.463191
0.4647231,-0.270650432,0.51676,0.483728456,-0.245348372,0.488533,0.447451648,-0.249583552,0.49954,0.425651778,-0.211753365,0.468981,0.404556687,-0.180872073,0.444694,0.399758291,-0.160063185,0.432175,0.468105468,-0.205412821,0.450681,0.440622695,-0.220384227,0.423203,0.426929596,-0.227638328,0.40952,0.414513693,-0.234090044,0.397118,0.494547504,-0.226310054,0.466003,0.454581542,-0.245330608,0.439291,0.438859823,-0.250512615,0.445853,0.444129114,-0.246496146,0.457534,0.515035105,-0.24595822,0.481422,0.486823945,-0.268814003,0.460987,0.460227169,-0.27384918,0.450532,0.447719252,-0.270472225,0.449748,0.53648223,-0.273011265,0.504207,0.501701002,-0.280165646,0.476821,0.474942303,-0.275483492,0.464238,0.455868471,-0.268626057,0.460497
0.468286019,-0.271398478,0.51845,0.486400815,-0.247189372,0.489715,0.453258236,-0.249609027,0.50126,0.431549238,-0.212644882,0.470638,0.410523556,-0.181867611,0.445855,0.405239589,-0.161303845,0.432204,0.472758415,-0.208521346,0.451623,0.44196512,-0.223415311,0.423497,0.426650039,-0.230547229,0.409496,0.413296773,-0.235396442,0.396917,0.499604789,-0.232786991,0.466779,0.455263943,-0.248279139,0.439635,0.439417659,-0.252299921,0.445928,0.44469179,-0.247395642,0.457715,0.519729747,-0.253066387,0.482112,0.486998818,-0.272135733,0.461231,0.459999452,-0.277153819,0.450548,0.446685981,-0.274854402,0.449469,0.540863781,-0.280396266,0.504884,0.503112506,-0.283716705,0.477252,0.475878828,-0.278543995,0.464556,0.456567283,-0.269471233,0.460628
0.480018733,-0.274523414,0.523416,0.495201807,-0.258267397,0.491885,0.463872889,-0.253432612,0.507514,0.446603234,-0.217634277,0.478096,0.42482559,-0.187008319,0.453191,0.412844425,-0.165719305,0.435751,0.477206803,-0.214360479,0.453945,0.442615409,-0.223229572,0.424654,0.426749681,-0.229286593,0.4101,0.412372007,-0.234629707,0.396911,0.50149865,-0.241663219,0.466719,0.445589767,-0.251557775,0.436311,0.434838801,-0.254548963,0.44334,0.444947147,-0.249449874,0.456237,0.519924307,-0.264425528,0.480367,0.47219375,-0.278008818,0.455781,0.443646648,-0.275820597,0.443202,0.439386365,-0.26764785,0.441616,0.539909069,-0.294698315,0.501668,0.490054279,-0.292865583,0.472449,0.460749651,-0.285824909,0.459025,0.451552059,-0.278523865,0.4551
0.477626749,-0.274272765,0.521969,0.490666788,-0.257949537,0.488454,0.464000356,-0.253160157,0.506146,0.444737319,-0.217282138,0.476344,0.424740429,-0.186295872,0.452375,0.413897758,-0.165762826,0.435186,0.471243059,-0.220457134,0.449532,0.430175184,-0.228149859,0.418181,0.409434256,-0.231707216,0.402576,0.390664767,-0.234739833,0.388419,0.493095272,-0.24521095,0.461703,0.432214339,-0.252869326,0.429798,0.419374123,-0.253790234,0.435162,0.435091201,-0.248329197,0.447321,0.51071193,-0.267523933,0.475052,0.457933987,-0.27878073,0.448921,0.447377494,-0.285378474,0.453637,0.462330695,-0.284241725,0.465948,0.530368626,-0.29667725,0.496349,0.477057151,-0.293467299,0.466341,0.44795918,-0.284670269,0.452554,0.441667724,-0.274927945,0.447647
0.482245919,-0.275397669,0.52337,0.490947285,-0.258535804,0.489278,0.465985506,-0.253684758,0.507223,0.447430937,-0.217496366,0.47762,0.433769315,-0.187128226,0.453979,0.429206981,-0.168827087,0.438538,0.470659789,-0.220103551,0.449619,0.428630882,-0.226702553,0.416751,0.407098134,-0.229636052,0.400317,0.387545141,-0.232047817,0.385384,0.492790835,-0.245135762,0.462066,0.432185977,-0.252677235,0.430095,0.418165415,-0.253022973,0.433973,0.432900348,-0.248170514,0.44565,0.510756732,-0.267708672,0.475701,0.4435722,-0.267830165,0.439232,0.426215608,-0.269960982,0.442148,0.434517488,-0.266038558,0.458038,0.531000211,-0.297194176,0.497429,0.477067014,-0.293636652,0.46736,0.448139102,-0.284582726,0.453544,0.440932932,-0.274950855,0.447904
0.469334116,-0.270834442,0.513455,0.480578481,-0.259520874,0.482153,0.45742579,-0.249430909,0.497582,0.444530912,-0.215440858,0.470174,0.434050314,-0.188619584,0.447587,0.432602897,-0.171952315,0.433202,0.464590672,-0.225871495,0.444374,0.420444755,-0.226000674,0.411205,0.397628765,-0.22758601,0.394621,0.378649649,-0.228497475,0.379704,0.482939896,-0.252609339,0.457167,0.419845248,-0.252830207,0.423296,0.408713005,-0.253948834,0.430333,0.422786854,-0.248070075,0.438956,0.497461587,-0.276159444,0.470809,0.432053113,-0.27118473,0.435696,0.417531765,-0.272582323,0.441424,0.429587389,-0.269973292,0.456858,0.513133761,-0.305968319,0.492064,0.460476611,-0.297552864,0.462938,0.432732101,-0.28666188,0.449555,0.426427266,-0.278885937,0.445765
0.483429999,-0.279322698,0.5284,0.492976913,-0.26782157,0.494878,0.47126737,-0.257271903,0.512134,0.458650638,-0.223807108,0.482931,0.444327444,-0.194318699,0.4581,0.442013351,-0.177467977,0.442962,0.477016268,-0.231894159,0.455376,0.430885575,-0.232593729,0.421668,0.406766362,-0.23379915,0.404814,0.381161306,-0.234122958,0.389493,0.495443028,-0.259096486,0.468122,0.430467035,-0.259105567,0.433107,0.414951817,-0.259390699,0.437169,0.417674495,-0.253552403,0.440069,0.510164678,-0.283128182,0.481945,0.442905793,-0.277852517,0.44574,0.425565139,-0.277661687,0.448981,0.436470163,-0.275522396,0.464895,0.526309743,-0.313702161,0.503794,0.47233642,-0.305051293,0.473938,0.443876198,-0.293871984,0.46022,0.435935691,-0.284945658,0.45482
0.491661486,-0.283040257,0.533081,0.494027641,-0.273126397,0.497211,0.478654268,-0.261435638,0.516879,0.462063603,-0.226906803,0.486324,0.44499489,-0.198937443,0.460589,0.439829679,-0.181941821,0.443948,0.474081361,-0.237924314,0.456509,0.420774316,-0.23902003,0.422021,0.390745238,-0.23790992,0.404777,0.362477941,-0.235649769,0.3891,0.493020126,-0.26495687,0.46858,0.423227735,-0.263084123,0.432449,0.407656144,-0.259456146,0.432263,0.406610219,-0.252350436,0.43213,0.508851952,-0.288878854,0.482081,0.437535152,-0.281842359,0.445296,0.420491911,-0.276377358,0.445012,0.42897684,-0.27478804,0.459752,0.527456447,-0.316788929,0.503963,0.471334339,-0.306459752,0.473847,0.443130349,-0.294958436,0.460011,0.433861066,-0.284659606,0.452517
0.490788118,-0.282813757,0.531467,0.491366514,-0.273083085,0.495212,0.477775787,-0.261736537,0.515825,0.45970013,-0.230707744,0.484949,0.444336053,-0.199496476,0.459911,0.439618306,-0.182679661,0.443638,0.462382261,-0.242316943,0.455029,0.403952397,-0.247365645,0.42273,0.375804823,-0.248916701,0.406548,0.349741958,-0.249348439,0.391838,0.484044687,-0.266632362,0.466275,0.419180591,-0.27126472,0.431659,0.395203509,-0.263832044,0.425598,0.396092751,-0.264753706,0.436217,0.504168156,-0.287536984,0.479134,0.435511183,-0.288382297,0.444035,0.411734175,-0.283640865,0.438854,0.4097444,-0.285145364,0.450957,0.523575853,-0.313749559,0.500337,0.467893382,-0.30917542,0.471955,0.440948776,-0.297466036,0.458915,0.430206146,-0.282737624,0.449024
0.495339115,-0.286084778,0.533837,0.492625495,-0.274724481,0.497041,0.480771464,-0.26407922,0.518979,0.462392541,-0.233102757,0.48828,0.447392881,-0.201543197,0.463008,0.444310664,-0.183079489,0.447058,0.463645468,-0.243329128,0.457584,0.402050623,-0.246559329,0.424362,0.368522963,-0.244672391,0.407752,0.341631582,-0.243550961,0.392111,0.484537802,-0.267057335,0.467671,0.420078293,-0.272036395,0.433133,0.39507808,-0.263953037,0.425671,0.395729497,-0.264792012,0.435823,0.503789714,-0.287760729,0.479631,0.437037412,-0.289577525,0.444946,0.412409339,-0.283839367,0.438613,0.41097349,-0.284257145,0.450089,0.523441801,-0.313619655,0.499884,0.468204814,-0.30968365,0.471872,0.44289891,-0.294082527,0.459001,0.440629718,-0.275833255,0.448535
0.49696258,-0.287246225,0.535139,0.49188935,-0.277961972,0.498283,0.482518763,-0.265575545,0.520813,0.463965938,-0.234545955,0.490454,0.448461281,-0.2039539,0.464882,0.445445401,-0.185583388,0.448574,0.461164292,-0.24455244,0.459485,0.393224147,-0.244796652,0.426561,0.362431328,-0.243442133,0.409807,0.335479162,-0.241557139,0.394489,0.478195171,-0.269366392,0.468865,0.411875727,-0.272235409,0.434696,0.388345486,-0.262835976,0.426164,0.393929193,-0.264290232,0.435846,0.496008268,-0.290658092,0.480248,0.42710278,-0.288296098,0.446115,0.404778143,-0.27897702,0.438899,0.409679806,-0.281608426,0.449798,0.520982461,-0.317120305,0.499842,0.459703063,-0.308642266,0.47232,0.445419476,-0.294359761,0.466311,0.462421191,-0.291386939,0.473667
0.500116358,-0.28932045,0.537317,0.490825274,-0.279241744,0.499993,0.485377582,-0.267614564,0.523152,0.465827626,-0.235734822,0.493046,0.450256749,-0.204804682,0.467061,0.447249755,-0.185926876,0.450317,0.451570701,-0.246199201,0.461149,0.390906762,-0.248510294,0.431776,0.361913207,-0.248503103,0.416714,0.339237596,-0.247075187,0.402553,0.471539474,-0.270653258,0.470202,0.403557929,-0.271099398,0.438172,0.394383999,-0.258813522,0.430162,0.411549647,-0.252693363,0.435304,0.48988432,-0.291989934,0.481361,0.421614968,-0.289524336,0.448154,0.404820844,-0.279551725,0.441313,0.408485185,-0.277000033,0.451989,0.51706625,-0.318381305,0.500776,0.456993325,-0.309646112,0.472899,0.437747266,-0.30804985,0.46711,0.441504501,-0.312250981,0.474676
0.499130529,-0.288614831,0.535327,0.488184419,-0.27786692,0.498226,0.486329466,-0.267829026,0.523072,0.471342272,-0.237092605,0.500035,0.457469472,-0.205651519,0.474869,0.455113211,-0.189510336,0.457459,0.458060298,-0.239431548,0.461993,0.394167636,-0.232057626,0.434754,0.364421807,-0.228036543,0.421135,0.337622224,-0.223497345,0.407521,0.468479697,-0.267982588,0.468613,0.395600873,-0.254326846,0.435712,0.362429648,-0.250763777,0.42468,0.352927082,-0.25647205,0.433118,0.476570265,-0.289712045,0.477748,0.40576598,-0.274008228,0.445819,0.377853389,-0.268357937,0.436567,0.368427466,-0.272933141,0.445763,0.491440044,-0.319217535,0.494774,0.432016744,-0.301215773,0.468661,0.422290175,-0.298948825,0.461122,0.425673662,-0.305199094,0.467389
0.498756642,-0.288028184,0.534191,0.482593979,-0.275310341,0.497477,0.486236078,-0.267186582,0.522084,0.471148157,-0.233306227,0.499981,0.45724496,-0.201829406,0.47519,0.454663527,-0.186280208,0.457225,0.45549652,-0.237712467,0.461648,0.389941645,-0.228584168,0.434862,0.360533834,-0.224487558,0.421468,0.335728242,-0.221623909,0.407643,0.461733842,-0.262922587,0.468173,0.391340834,-0.251368186,0.436646,0.357515203,-0.24704005,0.42486,0.349875269,-0.253963923,0.432449,0.470985297,-0.286255536,0.477191,0.401424506,-0.270766868,0.446484,0.373342894,-0.264567376,0.436827,0.365796781,-0.270504946,0.445369,0.485674585,-0.31538586,0.494014,0.427036715,-0.297197131,0.468376,0.417510399,-0.294671968,0.460516,0.422891866,-0.302597568,0.466492
0.500960435,-0.28969005,0.535686,0.480721907,-0.279207132,0.498697,0.489706224,-0.268987839,0.523129,0.466623677,-0.2390016,0.500105,0.454123331,-0.20839452,0.4759,0.453023219,-0.191194452,0.457686,0.451215676,-0.245370616,0.46213,0.389974366,-0.22295609,0.43505,0.362411742,-0.215891586,0.42151,0.345405167,-0.210843589,0.408057,0.452466465,-0.270949951,0.469172,0.383283203,-0.250485888,0.437568,0.349773406,-0.240490928,0.425901,0.340229705,-0.240907826,0.433303,0.457521367,-0.29439175,0.478644,0.389787519,-0.269852785,0.448443,0.36270416,-0.261479199,0.439438,0.352087007,-0.263876704,0.448035,0.468559918,-0.323598199,0.496041,0.412692867,-0.295674224,0.469828,0.408021262,-0.293881678,0.462399,0.419061976,-0.3011967,0.468744
0.500036898,-0.287399506,0.530082,0.47285202,-0.278448619,0.4993,0.495331211,-0.265724711,0.52065,0.476397279,-0.239358556,0.505615,0.456338531,-0.210389649,0.481333,0.448841281,-0.194340401,0.463301,0.428388892,-0.238451763,0.470195,0.372361196,-0.231770689,0.4495,0.3457993,-0.22828089,0.439152,0.317752583,-0.221722923,0.423442,0.433320797,-0.264471784,0.474731,0.384488096,-0.24916901,0.450086,0.347444686,-0.238147951,0.429606,0.326523911,-0.230925607,0.415629,0.441822372,-0.287703312,0.481522,0.381019358,-0.269356834,0.457852,0.351436322,-0.260134455,0.445742,0.320688313,-0.248593536,0.428292,0.459454711,-0.317492929,0.494733,0.424314185,-0.306022386,0.486079,0.42500098,-0.306163851,0.477563,0.427486008,-0.305076033,0.470049
0.498515741,-0.286854497,0.528109,0.471521956,-0.278374065,0.503847,0.492121752,-0.265620664,0.518784,0.475289082,-0.240821367,0.506795,0.457503483,-0.210552769,0.482698,0.445308397,-0.19319932,0.464413,0.434955995,-0.241678171,0.478445,0.383951686,-0.237896373,0.464453,0.359486815,-0.235917028,0.457458,0.330989633,-0.229321652,0.441954,0.440808611,-0.26882866,0.484482,0.39747773,-0.256703051,0.466701,0.367986889,-0.251078675,0.456328,0.345104179,-0.243156551,0.440047,0.449499461,-0.292755115,0.491862,0.393447858,-0.277423343,0.474543,0.365863957,-0.269715686,0.465682,0.334498041,-0.257920269,0.448249,0.466353849,-0.322743276,0.504628,0.435525778,-0.314162805,0.501226,0.434641657,-0.313425902,0.490765,0.437539378,-0.312111645,0.481535
0.506491896,-0.288331737,0.527531,0.469664462,-0.276561435,0.501595,0.497955068,-0.267157157,0.519624,0.475329188,-0.23980091,0.505414,0.45766194,-0.211142648,0.483555,0.445315216,-0.194317673,0.465394,0.432523646,-0.240181155,0.477124,0.379612189,-0.233151377,0.461072,0.354898521,-0.22827047,0.453046,0.327452489,-0.220679125,0.436999,0.434417457,-0.264980105,0.480893,0.374850416,-0.250268231,0.462421,0.349018015,-0.243644206,0.451646,0.325266576,-0.234282639,0.435244,0.441204751,-0.28771746,0.486572,0.385277201,-0.270744572,0.468248,0.356957303,-0.260844803,0.458873,0.326755201,-0.248012075,0.441206,0.456670694,-0.316554334,0.497654,0.422765455,-0.303447224,0.48854,0.420242677,-0.302230828,0.477914,0.423331716,-0.302500537,0.468538
0.507172557,-0.28792374,0.526096,0.470383741,-0.276756435,0.502951,0.499415822,-0.267320485,0.519624,0.477214938,-0.242713938,0.509279,0.45522022,-0.214414012,0.490194,0.447512515,-0.19704707,0.47179,0.431108639,-0.23970777,0.481874,0.37853443,-0.234366909,0.468232,0.355126905,-0.232196699,0.461412,0.3304771,-0.224977188,0.445248,0.432653316,-0.264738019,0.484477,0.374148369,-0.250731812,0.468856,0.345999189,-0.244707619,0.459744,0.319795832,-0.235182612,0.44328,0.438613337,-0.286896221,0.488918,0.382737187,-0.267678265,0.473269,0.356876617,-0.258830813,0.465263,0.326556196,-0.245562602,0.447517,0.453732004,-0.315045903,0.49808,0.423486027,-0.303557196,0.490325,0.420555189,-0.302035686,0.478937,0.423345544,-0.302299463,0.468888
0.508877873,-0.288699157,0.526652,0.471009093,-0.277435653,0.50482,0.500701713,-0.267868038,0.520143,0.476816668,-0.24362467,0.510487,0.457146955,-0.215554239,0.493679,0.444222472,-0.19805127,0.475516,0.428012215,-0.239225433,0.484412,0.379455523,-0.235316096,0.472097,0.355907482,-0.233048831,0.465443,0.335231361,-0.230927903,0.459393,0.429393856,-0.264282378,0.487394,0.375285096,-0.25173166,0.47319,0.34807154,-0.245906692,0.464904,0.322194494,-0.236327298,0.448564,0.435424707,-0.286664698,0.492016,0.38374162,-0.268894208,0.477688,0.358466565,-0.260084221,0.470357,0.328393997,-0.246652916,0.452734,0.447854519,-0.314957475,0.501161,0.423972945,-0.304052856,0.495365,0.422568065,-0.303384612,0.483796,0.424994859,-0.303799931,0.473589
0.500633256,-0.284277591,0.520436,0.470460182,-0.278067349,0.507632,0.49342051,-0.263859761,0.513525,0.471831965,-0.243690184,0.509027,0.454471184,-0.214132332,0.490444,0.445818085,-0.197223083,0.472952,0.430786654,-0.241984125,0.491636,0.388742281,-0.24192199,0.488202,0.36820885,-0.241870541,0.486485,0.349879918,-0.241796749,0.484924,0.433983601,-0.268777004,0.497413,0.387100403,-0.260548072,0.492653,0.364474383,-0.257462114,0.489876,0.340809046,-0.249705971,0.475002,0.440855545,-0.292379128,0.503441,0.395072384,-0.278006147,0.49701,0.372386681,-0.270848178,0.49372,0.342797142,-0.257643728,0.477322,0.456333376,-0.321898169,0.512655,0.435054866,-0.314106444,0.514008,0.428740944,-0.311733663,0.501026,0.433134401,-0.312455955,0.489571
0.501765295,-0.285015725,0.520172,0.466388699,-0.278192116,0.508443,0.493128293,-0.264141902,0.513341,0.467670764,-0.244722727,0.509303,0.455650625,-0.215671018,0.492566,0.443607184,-0.198585398,0.475309,0.428367528,-0.242939337,0.493136,0.387156054,-0.243241627,0.490696,0.366920777,-0.24337852,0.489476,0.350422931,-0.243676081,0.488367,0.431539595,-0.269784734,0.499081,0.385939101,-0.262252514,0.495399,0.365612441,-0.259569096,0.493252,0.341423643,-0.250842579,0.478581,0.438330012,-0.293430709,0.50514,0.393488365,-0.279436498,0.499688,0.371242415,-0.272464428,0.496898,0.343508232,-0.259548635,0.480702,0.453616249,-0.322977907,0.514204,0.431961508,-0.314968213,0.515723,0.42826725,-0.313307126,0.502571,0.431226041,-0.313227711,0.490967
0.503335403,-0.286178362,0.520732,0.465852658,-0.278612066,0.508917,0.494343394,-0.265107576,0.514033,0.467806236,-0.245497084,0.510146,0.455914576,-0.216387042,0.493362,0.443748354,-0.199248718,0.476055,0.428122859,-0.243387629,0.493736,0.386808029,-0.243644066,0.491182,0.366398266,-0.243685289,0.489758,0.349521318,-0.24380583,0.488464,0.431111576,-0.270131581,0.499486,0.385481705,-0.262557969,0.495707,0.365115304,-0.259865917,0.493502,0.341055578,-0.25114298,0.478781,0.437770288,-0.293697317,0.505394,0.392933522,-0.279678022,0.499898,0.370700525,-0.272696601,0.497087,0.342759916,-0.259669174,0.480851,0.452933735,-0.323166722,0.514298,0.430847551,-0.314813813,0.515167,0.427145887,-0.31312645,0.501955,0.429739247,-0.312778941,0.490297
0.504391673,-0.287735981,0.52096,0.463743797,-0.279700166,0.509768,0.494985636,-0.266435142,0.514318,0.465738164,-0.247067034,0.510711,0.453739702,-0.218949616,0.494412,0.442065396,-0.200931125,0.477231,0.426398928,-0.244930757,0.495002,0.385547656,-0.245423513,0.493019,0.364638628,-0.245144758,0.490997,0.345904891,-0.244872708,0.489158,0.429368128,-0.271713307,0.500834,0.384351271,-0.264390753,0.497677,0.363582638,-0.262012868,0.495836,0.34179473,-0.25276501,0.481234,0.435977153,-0.295295409,0.506748,0.391649333,-0.281477332,0.501765,0.369652314,-0.274593397,0.499215,0.341820232,-0.261111596,0.483082,0.451025656,-0.324743965,0.51555,0.429175913,-0.316354302,0.516387,0.425527102,-0.314607785,0.503065,0.427804117,-0.313352421,0.49131
0.505163811,-0.28859703,0.521073,0.46316109,-0.280162211,0.510048,0.494984414,-0.267040869,0.514473,0.465325169,-0.247474198,0.510975,0.453187983,-0.219301534,0.494494,0.441519498,-0.201418368,0.477311,0.426121047,-0.245448185,0.495428,0.385375158,-0.245980285,0.493591,0.364353007,-0.245615327,0.49143,0.345525703,-0.24526422,0.489465,0.429048444,-0.272236045,0.501248,0.384165302,-0.264950423,0.498256,0.363466186,-0.262581209,0.49651,0.341621114,-0.253355763,0.481934,0.435608388,-0.2958071,0.507135,0.391399766,-0.282021527,0.502284,0.369453298,-0.275152229,0.499802,0.341522309,-0.261669652,0.483688,0.450574303,-0.325215558,0.515878,0.428463912,-0.316554546,0.516368,0.424769987,-0.314744018,0.502978,0.426882289,-0.313490638,0.491163
0.510614786,-0.293499458,0.527315,0.463637186,-0.292377301,0.514598,0.498197404,-0.272127265,0.52011,0.469403904,-0.259080013,0.515243,0.452356393,-0.229166729,0.49454,0.438271218,-0.212029772,0.477281,0.428328164,-0.255585972,0.498266,0.3858931,-0.252695057,0.494085,0.363713299,-0.248188614,0.491994,0.346125902,-0.246447283,0.490094,0.430152581,-0.282467,0.504448,0.382541338,-0.267127131,0.498352,0.357890078,-0.264094247,0.494796,0.335138137,-0.253290547,0.47962,0.435847456,-0.306307116,0.510801,0.390472563,-0.284717388,0.503265,0.368977146,-0.275619126,0.499409,0.348099614,-0.267319956,0.493534,0.449920582,-0.336400634,0.520377,0.426361312,-0.32460458,0.519181,0.423100893,-0.32327695,0.505949,0.423546727,-0.323016664,0.494272
0.51146038,-0.296908202,0.529483,0.464134969,-0.294273253,0.515534,0.497427047,-0.27661247,0.521969,0.471084389,-0.260045419,0.516271,0.452913416,-0.230044629,0.495086,0.438341849,-0.213101421,0.477945,0.427337228,-0.257286403,0.498125,0.384854133,-0.254847872,0.493756,0.364179948,-0.253577758,0.491572,0.345708377,-0.25242527,0.489586,0.429619847,-0.284243108,0.5044,0.381511484,-0.271714338,0.497217,0.356101886,-0.26584125,0.493027,0.330210044,-0.255193651,0.477723,0.435821234,-0.308169855,0.510952,0.390070213,-0.2893937,0.502461,0.366893394,-0.280281413,0.498117,0.346091358,-0.270215286,0.494168,0.450707739,-0.338426449,0.520972,0.435337528,-0.332995763,0.522385,0.434628013,-0.33246714,0.50967,0.435703627,-0.332199752,0.498452
0.510047609,-0.298895053,0.529649,0.463500166,-0.294876023,0.515598,0.496797679,-0.27778706,0.521891,0.470270035,-0.26002689,0.515826,0.450872256,-0.229893315,0.494443,0.434103611,-0.213634887,0.478194,0.426107579,-0.257864437,0.497816,0.382754212,-0.257341737,0.49341,0.362117097,-0.256386857,0.491206,0.344492764,-0.253486895,0.489204,0.428816511,-0.285013649,0.504382,0.379909724,-0.27452146,0.497182,0.354593042,-0.268995316,0.492982,0.329487513,-0.256504346,0.477743,0.43539252,-0.309099267,0.511184,0.388817056,-0.292173785,0.502501,0.365466245,-0.28334341,0.498059,0.345514442,-0.271306016,0.49402,0.450760656,-0.339530059,0.521513,0.435268246,-0.333853337,0.523212,0.434020977,-0.332993562,0.51057,0.434999409,-0.332791505,0.499415
0.509630343,-0.29985937,0.52979,0.463171706,-0.295170779,0.515618,0.496424807,-0.27872165,0.521936,0.469949828,-0.260065807,0.515699,0.449943027,-0.22986385,0.494221,0.433380243,-0.2138049,0.47884,0.425478822,-0.258144749,0.497645,0.382199035,-0.257325657,0.493147,0.36153344,-0.256369249,0.490898,0.34377358,-0.253934564,0.488854,0.42835771,-0.285361204,0.504306,0.379442011,-0.274567673,0.497015,0.35411034,-0.269041484,0.492761,0.328974058,-0.257040586,0.477532,0.435091827,-0.309503295,0.511199,0.388397956,-0.292240906,0.502374,0.36498349,-0.283389751,0.497858,0.34501229,-0.271942585,0.493754,0.450673075,-0.339996966,0.521652,0.435177078,-0.334088146,0.523407,0.43376106,-0.333125304,0.510803,0.434719077,-0.33295282,0.499682
0.507501884,-0.301042919,0.529122,0.461474078,-0.296465983,0.51401,0.494427054,-0.281694299,0.521711,0.470019389,-0.260805084,0.515756,0.44544567,-0.234683437,0.49442,0.432970666,-0.216665773,0.481247,0.42330285,-0.267740617,0.4961,0.379981887,-0.267395235,0.490598,0.358926365,-0.267181454,0.487847,0.340128316,-0.26696372,0.485346,0.428077387,-0.294889567,0.501949,0.378021442,-0.286561037,0.493417,0.349882004,-0.281802532,0.48844,0.330796763,-0.278488026,0.484885,0.436318077,-0.318354383,0.508264,0.39346808,-0.303681679,0.499135,0.380849225,-0.30094478,0.494463,0.370072365,-0.298449223,0.490217,0.453442819,-0.347022599,0.518212,0.416920644,-0.331420684,0.511851,0.398458595,-0.321225223,0.497971,0.394217663,-0.317032762,0.485725
0.505930814,-0.30243658,0.52883,0.461168791,-0.297148966,0.513812,0.494497689,-0.282679623,0.522347,0.471543713,-0.262188465,0.517665,0.447118507,-0.235617603,0.497058,0.432512476,-0.217702481,0.481966,0.423549248,-0.267890943,0.497161,0.379568867,-0.26717265,0.490876,0.35822817,-0.266768937,0.487734,0.339195546,-0.266376125,0.484877,0.427331437,-0.294392994,0.501825,0.377377976,-0.286129003,0.4934,0.34917883,-0.281424274,0.488486,0.329872145,-0.278140847,0.484975,0.434744621,-0.317274186,0.507156,0.390664102,-0.302946347,0.498606,0.380428526,-0.301025712,0.494231,0.371652576,-0.29922255,0.490254,0.450865068,-0.34521944,0.515944,0.414920454,-0.330127757,0.510131,0.39631767,-0.319894797,0.496011,0.3992297,-0.321525282,0.492582
0.505234966,-0.303971739,0.529063,0.461280194,-0.29780771,0.514031,0.494347038,-0.283329336,0.522625,0.47169373,-0.262656966,0.517999,0.447214094,-0.235685613,0.497425,0.432117226,-0.21826673,0.482266,0.423561355,-0.267896762,0.497433,0.379506358,-0.267151373,0.491066,0.358132615,-0.266733575,0.487883,0.339073238,-0.266328347,0.48499,0.427295085,-0.29437375,0.502033,0.377321513,-0.286104809,0.493601,0.349072974,-0.28140198,0.488682,0.329673272,-0.278118001,0.485168,0.434671638,-0.317243555,0.507313,0.390028145,-0.302927725,0.4988,0.380512656,-0.301228694,0.494444,0.372338509,-0.299610359,0.490484,0.450755347,-0.345192126,0.516045,0.414813285,-0.33014175,0.510245,0.396212905,-0.319942414,0.496119,0.399127013,-0.32159685,0.492683
0.502837734,-0.304331658,0.527626,0.460539385,-0.2977713,0.513617,0.492607514,-0.282767405,0.521215,0.470806821,-0.261952115,0.516979,0.448305108,-0.233637296,0.497372,0.428549997,-0.218753705,0.482515,0.423019117,-0.267787226,0.497613,0.379743654,-0.267430393,0.492201,0.358746048,-0.26720967,0.489495,0.340019592,-0.266985091,0.487035,0.426784892,-0.294406615,0.502436,0.377541653,-0.286466,0.494982,0.349873964,-0.281932926,0.490634,0.331468095,-0.278784732,0.487528,0.434126864,-0.317307252,0.507798,0.387971946,-0.303300205,0.500315,0.381856617,-0.30228592,0.496487,0.376538997,-0.301263426,0.493007,0.450059165,-0.345128953,0.516447,0.413995212,-0.329949932,0.51137,0.396511321,-0.320088617,0.49719,0.399201292,-0.321460716,0.493479
0.502107028,-0.305281012,0.527483,0.460342019,-0.297945143,0.513706,0.491963301,-0.283885599,0.521206,0.466719237,-0.26017825,0.513225,0.440585558,-0.233998497,0.498742,0.420749182,-0.220233748,0.48708,0.4229704,-0.267784612,0.498003,0.379725798,-0.26746744,0.492722,0.358731907,-0.267267671,0.490081,0.340002502,-0.267062828,0.48768,0.426505606,-0.294354766,0.50271,0.377453674,-0.286360624,0.495513,0.350015692,-0.281788873,0.491315,0.332129954,-0.27862895,0.488316,0.433653112,-0.317174446,0.507954,0.387440319,-0.303231724,0.500725,0.382212523,-0.30227805,0.497026,0.377641261,-0.301313227,0.493664,0.449345684,-0.344842746,0.516426,0.413431749,-0.329538193,0.511572,0.396267416,-0.319759542,0.497362,0.398871692,-0.321018916,0.49356
0.500028423,-0.305647766,0.526148,0.459267151,-0.298502713,0.513376,0.490114455,-0.284569421,0.52018,0.460751318,-0.259961264,0.511607,0.438522763,-0.234749587,0.498326,0.4189164,-0.22129058,0.487059,0.422184182,-0.268209927,0.498624,0.379576268,-0.268418966,0.494223,0.358856772,-0.268484455,0.492022,0.340860382,-0.268690817,0.490021,0.42550331,-0.294724667,0.503182,0.377231959,-0.287183395,0.497018,0.350633917,-0.282803281,0.493422,0.334964079,-0.279110396,0.490854,0.430679229,-0.317295882,0.508203,0.385092556,-0.304224402,0.502006,0.383124876,-0.303686423,0.498836,0.379359646,-0.302968576,0.495953,0.447724404,-0.34471074,0.516243,0.411181467,-0.329288378,0.512225,0.396172028,-0.320195267,0.497933,0.398541342,-0.321177646,0.493805
0.49857742,-0.305188028,0.525356,0.458866897,-0.297924185,0.513073,0.488581061,-0.284326522,0.519537,0.459704579,-0.259507295,0.511332,0.435772018,-0.235426895,0.499209,0.417886669,-0.221412124,0.487604,0.420290368,-0.268213696,0.498782,0.377958296,-0.268767779,0.494708,0.357381263,-0.269002676,0.49267,0.340782637,-0.269336947,0.490818,0.423447077,-0.29469554,0.503269,0.377128453,-0.287574795,0.497606,0.349974186,-0.283014679,0.494302,0.335322324,-0.280136131,0.491942,0.431826433,-0.317320162,0.508183,0.384929729,-0.304623869,0.502405,0.383281841,-0.304138096,0.499449,0.379991435,-0.303539526,0.496762,0.447053311,-0.344441219,0.516014,0.411054271,-0.329479125,0.512401,0.396300396,-0.320367816,0.498073,0.39897598,-0.321330341,0.493789
0.497918245,-0.305225075,0.525426,0.45843146,-0.298643577,0.513361,0.487832299,-0.284486218,0.519664,0.459678111,-0.260072557,0.511724,0.43579687,-0.23628735,0.499774,0.418011107,-0.222075784,0.487763,0.420259594,-0.268665216,0.499263,0.378087001,-0.269394064,0.49538,0.358780627,-0.26966453,0.493438,0.340935446,-0.269991004,0.491673,0.42343428,-0.295132755,0.503731,0.377244906,-0.288079907,0.498287,0.350351087,-0.283724887,0.495111,0.335739266,-0.280916486,0.492843,0.430228159,-0.317625889,0.508607,0.385111886,-0.305173576,0.503021,0.383415468,-0.304648681,0.500164,0.380270031,-0.304071772,0.497566,0.446883324,-0.344719562,0.516357,0.411190406,-0.329984985,0.512919,0.396419692,-0.32072952,0.498577,0.399115662,-0.321641411,0.494226
0.495701369,-0.303879031,0.523883,0.455689163,-0.299026446,0.513419,0.485825979,-0.283594639,0.518598,0.456847614,-0.25957294,0.511006,0.429569998,-0.236889684,0.501342,0.413552918,-0.223383067,0.489994,0.418687694,-0.2700437,0.500818,0.377683534,-0.272334266,0.498299,0.357674547,-0.273432975,0.497039,0.339763834,-0.274405894,0.495894,0.422194922,-0.296377474,0.505067,0.376218582,-0.290825781,0.50125,0.351854388,-0.287567538,0.499023,0.33863609,-0.285343382,0.497432,0.430353455,-0.318210989,0.509605,0.385155057,-0.307728081,0.505465,0.383228556,-0.307322896,0.503346,0.382531444,-0.306471863,0.50142,0.44525753,-0.344548795,0.516684,0.412265269,-0.331097167,0.514557,0.397709709,-0.321783511,0.500119,0.40033788,-0.322384937,0.49527
0.492906231,-0.302693962,0.522992,0.447807495,-0.297622912,0.512526,0.483141004,-0.283826281,0.521967,0.450782327,-0.260581998,0.51854,0.426918235,-0.239020206,0.508632,0.406262465,-0.22817411,0.49914,0.416273738,-0.274386462,0.505472,0.375156314,-0.277478433,0.502703,0.35508384,-0.278966547,0.501318,0.338112906,-0.279763562,0.500059,0.41694501,-0.297371672,0.504173,0.371017466,-0.300863957,0.501289,0.366144431,-0.297241766,0.499607,0.37855646,-0.294538816,0.498405,0.423766174,-0.315618543,0.504141,0.378509095,-0.31285383,0.501909,0.375414987,-0.312097672,0.500767,0.37512774,-0.308621849,0.499729,0.435429591,-0.337441096,0.505917,0.401332267,-0.332504539,0.50555,0.386371064,-0.330310305,0.505381,0.372957226,-0.322693898,0.494154
0.49482486,-0.305299346,0.531752,0.446337359,-0.300588568,0.517555,0.475815634,-0.285198633,0.531302,0.447024724,-0.26397959,0.5257,0.420456456,-0.242368172,0.514158,0.398890856,-0.231736111,0.503808,0.411026692,-0.278634005,0.509212,0.367712986,-0.28331854,0.503088,0.346557013,-0.285555903,0.500026,0.329427864,-0.286574115,0.497243,0.415532092,-0.300351035,0.506223,0.368144305,-0.301786177,0.49984,0.362476646,-0.297560247,0.496116,0.373857817,-0.293589929,0.493456,0.421321382,-0.317100048,0.505172,0.376368216,-0.313585031,0.500334,0.372128404,-0.312589474,0.497858,0.369433182,-0.311676602,0.495608,0.43544244,-0.337745623,0.506409,0.399671677,-0.332153353,0.503605,0.38378148,-0.330082515,0.502316,0.377906555,-0.329593866,0.501179
0.494150718,-0.305975172,0.533523,0.446958928,-0.302702802,0.519451,0.475194527,-0.28660449,0.532546,0.445459439,-0.265860358,0.525022,0.417510542,-0.251403231,0.51777,0.395554872,-0.243850433,0.509533,0.412146231,-0.281542652,0.510491,0.369003122,-0.286360349,0.504621,0.347907156,-0.288669449,0.501686,0.330773178,-0.28965737,0.499019,0.416577506,-0.302941819,0.508219,0.368097648,-0.30701621,0.501881,0.361802535,-0.303211124,0.498183,0.37244608,-0.298690639,0.495542,0.422277614,-0.320894099,0.507746,0.377434777,-0.318920126,0.502746,0.372820215,-0.318148745,0.500188,0.369809254,-0.317367398,0.497862,0.43625084,-0.340509109,0.509632,0.401385176,-0.336726272,0.506739,0.385663577,-0.335369837,0.50541,0.380381633,-0.335285493,0.504237
