sluyters/QuantumLeap/backend/src/datasets/dynamic/HandGestureDataset_SHREC2017_csv/Gesture5/finger_1/subject_3_essai_2_skeletons_world.csv
Wrist_x,Wrist_y,Wrist_z,Palm_x,Palm_y,Palm_z,thumb_base_x,thumb_base_y,thumb_base_z,thumb_first_joint_x,thumb_first_joint_y,thumb_first_joint_z,thumb_second_joint_x,thumb_second_joint_y,thumb_second_joint_z,thumb_tip_x,thumb_tip_y,thumb_tip_z,index_base_x,index_base_y,index_base_z,index_first_joint_x,index_first_joint_y,index_first_joint_z,index_second_joint_x,index_second_joint_y,index_second_joint_z,index_tip_x,index_tip_y,index_tip_z,middle_base_x,middle_base_y,middle_base_z,middle_first_joint_x,middle_first_joint_y,middle_first_joint_z,middle_second_joint_x,middle_second_joint_y,middle_second_joint_z,middle_tip_x,middle_tip_y,middle_tip_z,ring_base_x,ring_base_y,ring_base_z,ring_first_joint_x,ring_first_joint_y,ring_first_joint_z,ring_second_joint_x,ring_second_joint_y,ring_second_joint_z,ring_tip_x,ring_tip_y,ring_tip_z,pinky_base_x,pinky_base_y,pinky_base_z,pinky_first_joint_x,pinky_first_joint_y,pinky_first_joint_z,pinky_second_joint_x,pinky_second_joint_y,pinky_second_joint_z,pinky_tip_x,pinky_tip_y,pinky_tip_z,
0.3379574,-0.32890665,0.50484,0.31916108,-0.27132395,0.480886,0.31557001,-0.31682703,0.501335,0.29946735,-0.28865018,0.4964,0.27700313,-0.25867661,0.483367,0.2657858,-0.23387442,0.473588,0.28035224,-0.22213154,0.460627,0.28721855,-0.18997976,0.467134,0.29054387,-0.17361734,0.470388,0.29389346,-0.15795895,0.473346,0.30184659,-0.22104449,0.458281,0.26967073,-0.22258197,0.43087,0.28331448,-0.25179345,0.448241,0.2958544,-0.27328084,0.463609,0.32166588,-0.22523375,0.458683,0.29325781,-0.20938458,0.435103,0.29812645,-0.22778373,0.448987,0.30986347,-0.25600841,0.464055,0.34882012,-0.23945481,0.463296,0.31256259,-0.2379286,0.441809,0.31238868,-0.25280105,0.452039,0.31492486,-0.26691551,0.463568
0.33902761,-0.32878033,0.506478,0.31976799,-0.27185879,0.48168,0.31665625,-0.31627207,0.502822,0.29985082,-0.28911662,0.497047,0.27713828,-0.25895216,0.483586,0.26578036,-0.23414048,0.473661,0.2803412,-0.22229763,0.460672,0.28714797,-0.19008829,0.467047,0.29046221,-0.17368541,0.470234,0.2937696,-0.15800727,0.473132,0.30178834,-0.22114551,0.458278,0.26930237,-0.22234419,0.430196,0.28271217,-0.25132127,0.447179,0.29533359,-0.27286066,0.462668,0.32164147,-0.22532153,0.458724,0.2929411,-0.20890465,0.434572,0.29757002,-0.22735859,0.448149,0.30932334,-0.25525635,0.463326,0.34897568,-0.23960408,0.463534,0.31247356,-0.23790743,0.441574,0.31218632,-0.25262714,0.451557,0.3148705,-0.26673559,0.463156
0.34056797,-0.32951382,0.50793,0.32019556,-0.27222707,0.482282,0.31809802,-0.31709339,0.504227,0.29959586,-0.28901308,0.497571,0.27704246,-0.25919145,0.483759,0.26560757,-0.23485522,0.473831,0.27995116,-0.22252253,0.460653,0.28643203,-0.18999465,0.466279,0.28957498,-0.17318059,0.469093,0.29244175,-0.1574932,0.47165,0.30120287,-0.22115273,0.458077,0.26874635,-0.22195961,0.429348,0.28187511,-0.25069056,0.445904,0.2945451,-0.27227569,0.461493,0.32100403,-0.2251857,0.458456,0.29240052,-0.20830644,0.433787,0.29679196,-0.22672734,0.447029,0.30855297,-0.25438443,0.462279,0.34847042,-0.23936677,0.463334,0.31205086,-0.23762979,0.440947,0.311607,-0.252187,0.450659,0.31438571,-0.26628598,0.462304
0.3419399,-0.33008453,0.509131,0.32057932,-0.27255809,0.482818,0.31948801,-0.31786318,0.50555,0.29991231,-0.28954869,0.498284,0.27718837,-0.25959205,0.484287,0.26565065,-0.23575883,0.474385,0.2797267,-0.22287949,0.460907,0.28654077,-0.19044761,0.466853,0.2900096,-0.17355105,0.469826,0.29319986,-0.15778694,0.472529,0.30068865,-0.22121264,0.457985,0.26837944,-0.22171619,0.428794,0.28125864,-0.25023302,0.444968,0.29394754,-0.27183821,0.460605,0.32033471,-0.22502776,0.458143,0.29196967,-0.20783394,0.433161,0.29615458,-0.22621416,0.446106,0.30788506,-0.25364459,0.461364,0.34777308,-0.23899759,0.462879,0.31155882,-0.23729046,0.440228,0.3109792,-0.25170181,0.449703,0.31381181,-0.26576877,0.461349
0.34225972,-0.33000968,0.508465,0.32051488,-0.27242394,0.482043,0.31968456,-0.31788544,0.504834,0.299678,-0.28953039,0.497381,0.27660857,-0.25999669,0.483163,0.26510743,-0.23591753,0.473455,0.27929228,-0.2228398,0.459998,0.28600306,-0.19042331,0.46594,0.28941886,-0.17352776,0.468911,0.29256006,-0.15776032,0.471612,0.30028379,-0.22104049,0.457108,0.26808897,-0.22143609,0.427824,0.28103421,-0.24995332,0.443949,0.29379704,-0.27159185,0.459603,0.31998896,-0.22474746,0.457303,0.29168585,-0.20616888,0.432233,0.29572686,-0.22545159,0.445137,0.30725638,-0.25219522,0.460415,0.34756291,-0.2385919,0.462101,0.31160291,-0.23681944,0.439378,0.31101008,-0.25128865,0.448821,0.31392291,-0.26539119,0.460479
0.34034979,-0.32826273,0.505469,0.31904548,-0.27122334,0.479713,0.31738022,-0.31577756,0.501149,0.29754,-0.2878854,0.493865,0.27673174,-0.25905344,0.478384,0.26667573,-0.23596747,0.46822,0.27757396,-0.22156406,0.457223,0.28474072,-0.18959932,0.463947,0.28829798,-0.17295683,0.467309,0.29164187,-0.15725977,0.470365,0.2992221,-0.22025977,0.455407,0.26745463,-0.22080196,0.426457,0.28066756,-0.24956657,0.44305,0.29341774,-0.27122529,0.458731,0.31949798,-0.22434081,0.456422,0.29132673,-0.20563328,0.431365,0.29565256,-0.22497924,0.444626,0.30704766,-0.25058107,0.460041,0.34773894,-0.23858886,0.462063,0.31209448,-0.23671311,0.439377,0.31168987,-0.25136519,0.4491,0.31472943,-0.26550591,0.460855
0.33897782,-0.32703397,0.503273,0.31797345,-0.27036027,0.477981,0.315721,-0.31430993,0.498483,0.29730017,-0.28758269,0.493334,0.27809354,-0.25951443,0.476007,0.27071335,-0.23822753,0.466358,0.27630814,-0.22064893,0.455193,0.28374983,-0.18895601,0.462396,0.2874576,-0.17235762,0.465997,0.29081847,-0.15681032,0.469271,0.29842767,-0.21967577,0.454113,0.26702068,-0.22033342,0.42541,0.2803847,-0.24925427,0.442283,0.29310445,-0.27091973,0.457962,0.31910993,-0.2240064,0.455688,0.29102933,-0.20519798,0.430656,0.29557179,-0.22468298,0.444129,0.30705978,-0.25029912,0.459619,0.34782371,-0.23852286,0.461903,0.3125057,-0.23654383,0.43926,0.31221396,-0.2513137,0.449151,0.31535021,-0.26546109,0.460955
0.337874,-0.325028,0.500328,0.31841737,-0.27004542,0.477698,0.31541034,-0.31307638,0.496571,0.30735759,-0.29086315,0.494411,0.2869868,-0.26503346,0.478501,0.2785022,-0.24438308,0.470318,0.27912688,-0.22212536,0.457986,0.28332177,-0.18873965,0.461717,0.28548053,-0.17165979,0.463582,0.2795314,-0.15907073,0.465278,0.30030721,-0.22058756,0.456341,0.2705031,-0.21587705,0.429885,0.28579972,-0.25093195,0.44789,0.30003069,-0.27233544,0.463111,0.32051331,-0.22446532,0.457192,0.29237195,-0.22447867,0.434264,0.3028776,-0.24798646,0.44864,0.31900505,-0.25993159,0.463642,0.34831486,-0.23821815,0.462101,0.31687378,-0.23454828,0.441172,0.31742276,-0.25075932,0.451797,0.32130356,-0.26579447,0.463283
0.33848441,-0.32495008,0.500591,0.31919674,-0.26996926,0.477998,0.31588442,-0.31267099,0.496508,0.30700651,-0.28882225,0.494004,0.28787804,-0.26274871,0.477426,0.28456166,-0.24569678,0.469128,0.28475961,-0.22024756,0.457894,0.28820594,-0.18513229,0.460281,0.28455523,-0.17000937,0.461475,0.28307569,-0.15547642,0.46256,0.30581602,-0.219206,0.456678,0.2723831,-0.21649669,0.430183,0.28718559,-0.25030755,0.448234,0.3014009,-0.27206298,0.463484,0.32362983,-0.22380585,0.457878,0.29427044,-0.22608525,0.434805,0.30392601,-0.24924337,0.449212,0.31961151,-0.26075463,0.464284,0.35017422,-0.23859301,0.463188,0.31527182,-0.23801184,0.442153,0.32233318,-0.25525681,0.452802,0.32767806,-0.26825206,0.464334
0.33913139,-0.32504333,0.500907,0.31973133,-0.26979229,0.477903,0.31645735,-0.31249068,0.496593,0.30684417,-0.28844072,0.493798,0.28818332,-0.26225952,0.477122,0.28872046,-0.24617638,0.468673,0.28484281,-0.21973476,0.457232,0.28818307,-0.18552845,0.459807,0.28439014,-0.17030016,0.461095,0.28296639,-0.15591839,0.462266,0.30609639,-0.21921072,0.456194,0.27219033,-0.21443805,0.429333,0.28752895,-0.24639909,0.447225,0.30077532,-0.27063617,0.462556,0.32603497,-0.22383045,0.457581,0.29442555,-0.22646145,0.434144,0.30368035,-0.24942491,0.448422,0.31924871,-0.26088128,0.46359,0.35237634,-0.23916532,0.46318,0.31646506,-0.23777171,0.441851,0.32213191,-0.2555175,0.452394,0.32762417,-0.26907859,0.463989
0.34447583,-0.33042129,0.507098,0.32790058,-0.28654679,0.480007,0.32663927,-0.3207115,0.498753,0.31508471,-0.30775286,0.494818,0.29214307,-0.28025187,0.479012,0.28384818,-0.25997546,0.469533,0.28195751,-0.23398969,0.451477,0.28783071,-0.27092255,0.484079,0.30363677,-0.28874854,0.49066,0.31844737,-0.30383629,0.496643,0.30475158,-0.23585688,0.454441,0.27183456,-0.19677684,0.423781,0.27403766,-0.22282325,0.439597,0.28680173,-0.24633038,0.455652,0.32686088,-0.24262013,0.459522,0.29324739,-0.22340286,0.431749,0.29856142,-0.24576787,0.444328,0.31503066,-0.26178216,0.460568,0.35851025,-0.26036589,0.470145,0.31739082,-0.26008194,0.445412,0.318733,-0.27326875,0.45458,0.32369176,-0.2869235,0.466839
0.35864156,-0.34255007,0.532167,0.33673703,-0.27727847,0.495264,0.34030147,-0.30177764,0.527694,0.32574244,-0.26482976,0.515938,0.314078,-0.23208814,0.505203,0.31272272,-0.20900472,0.494776,0.31757785,-0.21351041,0.465242,0.30160942,-0.23890274,0.487587,0.30546572,-0.26247897,0.49863,0.31207988,-0.2833722,0.508668,0.32805751,-0.226733,0.460439,0.2807444,-0.19953522,0.424085,0.26905588,-0.21922514,0.431791,0.28023427,-0.24051625,0.447359,0.33820892,-0.24279203,0.46008,0.28678198,-0.23527558,0.42938,0.28558745,-0.24698791,0.435631,0.29907528,-0.25895043,0.450524,0.35263613,-0.27095917,0.466043,0.30254641,-0.26034937,0.438887,0.30103784,-0.26928948,0.443082,0.30681277,-0.28136695,0.454266
0.3571998,-0.33781487,0.529653,0.34085694,-0.2707071,0.493008,0.34590403,-0.30007327,0.527812,0.33484297,-0.26052765,0.514105,0.32246855,-0.22695712,0.501901,0.31264376,-0.20507675,0.489046,0.32663504,-0.20974104,0.466531,0.30443007,-0.22910444,0.486534,0.3077173,-0.25246547,0.499481,0.31191518,-0.27399114,0.511252,0.32844586,-0.22377559,0.458427,0.27434697,-0.19707772,0.423385,0.26680671,-0.21756588,0.429104,0.27886726,-0.23702128,0.443575,0.33481836,-0.2386209,0.455326,0.27954344,-0.22934362,0.426638,0.27768099,-0.24113814,0.431354,0.29205685,-0.25549954,0.444822,0.34307354,-0.26412266,0.458039,0.29257453,-0.25096926,0.432568,0.29167465,-0.25999699,0.435604,0.29878736,-0.27422606,0.445745
0.36010976,-0.33750432,0.530866,0.35212852,-0.27956526,0.499019,0.36187908,-0.30770538,0.535588,0.34474418,-0.28098089,0.522842,0.33366015,-0.25163756,0.517895,0.32539136,-0.2298303,0.507115,0.34408009,-0.22488486,0.484112,0.31966173,-0.18422297,0.465821,0.30934695,-0.16508084,0.459373,0.29118136,-0.15477686,0.453511,0.33693052,-0.23006919,0.468965,0.28486438,-0.20397751,0.440941,0.27241117,-0.22108845,0.441676,0.28453929,-0.23742887,0.452043,0.33726413,-0.24173924,0.459598,0.2860571,-0.23571639,0.438909,0.27244029,-0.24473168,0.43975,0.28297813,-0.25769301,0.448439,0.33498688,-0.26556382,0.454156,0.29218523,-0.25341663,0.43552,0.29038257,-0.26108796,0.435691,0.29521543,-0.2723601,0.442317
0.36065068,-0.33628988,0.530571,0.35317501,-0.28178575,0.500111,0.36746018,-0.31574155,0.536351,0.34703595,-0.28351886,0.525038,0.33631829,-0.25518621,0.521412,0.32872716,-0.23365845,0.511586,0.34820103,-0.22816132,0.487473,0.32382202,-0.18820383,0.470863,0.31331869,-0.16927606,0.464958,0.30353476,-0.15438594,0.459591,0.34172122,-0.23458142,0.471365,0.29059454,-0.20603129,0.444858,0.2799101,-0.22331282,0.445345,0.29425935,-0.23851734,0.455086,0.33833192,-0.24323736,0.461071,0.28719923,-0.23737141,0.441961,0.27430652,-0.24659088,0.442615,0.28305984,-0.26032205,0.450594,0.33499703,-0.26582182,0.454308,0.29236538,-0.25408696,0.436996,0.29083699,-0.26211327,0.43705,0.29515044,-0.27309852,0.443164
0.36414896,-0.33978713,0.530982,0.35520689,-0.28413362,0.501098,0.36993958,-0.31813274,0.537257,0.35425355,-0.28779089,0.525742,0.34042821,-0.26005248,0.523644,0.3325024,-0.23911692,0.514208,0.35735718,-0.23474159,0.489475,0.33327638,-0.1947157,0.473899,0.32236503,-0.17548544,0.467628,0.30876737,-0.15660336,0.461926,0.34585669,-0.23852893,0.472895,0.29375787,-0.21425993,0.447357,0.28135791,-0.22664993,0.446647,0.29510957,-0.24168851,0.455662,0.3399559,-0.24826449,0.462158,0.28923125,-0.23942836,0.444028,0.27558702,-0.24788027,0.443736,0.28352115,-0.26153599,0.45094,0.33512082,-0.26775491,0.454777,0.29166683,-0.25589437,0.438358,0.29046207,-0.26393822,0.437699,0.29491798,-0.27376313,0.443223
0.36678793,-0.34183486,0.531714,0.35770997,-0.28687788,0.501829,0.37180662,-0.31950669,0.538007,0.35521055,-0.28788011,0.525905,0.34488333,-0.2605956,0.523218,0.34179134,-0.23661012,0.513217,0.35872883,-0.23510319,0.490229,0.33479648,-0.19512781,0.474902,0.32361944,-0.17572561,0.468268,0.31348079,-0.15814317,0.462238,0.3490587,-0.2410609,0.473626,0.29444349,-0.21596548,0.448349,0.28304171,-0.23085378,0.446777,0.29701412,-0.24558305,0.455427,0.34132257,-0.24941268,0.46287,0.29059902,-0.24041547,0.444982,0.27598824,-0.24801717,0.444005,0.28246515,-0.26166717,0.450838,0.3359363,-0.26899228,0.455466,0.29356306,-0.25643774,0.439307,0.29262302,-0.26437273,0.438125,0.29508305,-0.27426248,0.443354
0.35066315,-0.32983332,0.50795,0.34708862,-0.28733859,0.48502,0.33719115,-0.32784625,0.515451,0.32975548,-0.3023497,0.513995,0.32094312,-0.27479508,0.512428,0.31682539,-0.25236055,0.505897,0.33432291,-0.23820945,0.479546,0.32848454,-0.19327794,0.466442,0.32567275,-0.17694914,0.466636,0.32159131,-0.16126273,0.466813,0.34139051,-0.2365889,0.46338,0.29742843,-0.22029246,0.436474,0.29705042,-0.24719182,0.446237,0.3054189,-0.26719155,0.459034,0.34732665,-0.24289423,0.452306,0.30572703,-0.22659625,0.424624,0.30281746,-0.24572281,0.432209,0.3101401,-0.26606264,0.446417,0.35578302,-0.25747043,0.443328,0.32064979,-0.24656155,0.426602,0.31914021,-0.26121557,0.432598,0.33030383,-0.27129787,0.440809
0.35010938,-0.3304487,0.505875,0.34645029,-0.28681015,0.484128,0.33941829,-0.3287774,0.513716,0.32994603,-0.30252441,0.514292,0.31996105,-0.27395423,0.51086,0.31687924,-0.25240345,0.505983,0.3345474,-0.2383694,0.479868,0.32912302,-0.19456675,0.467595,0.32770516,-0.17823472,0.468424,0.32460794,-0.16259465,0.469178,0.34149782,-0.23707512,0.463605,0.29820186,-0.2208653,0.437609,0.29823666,-0.24817896,0.448019,0.31005671,-0.26736583,0.46069,0.34734969,-0.24291034,0.452336,0.30611295,-0.22688228,0.42516,0.30354191,-0.24631067,0.433243,0.31085429,-0.26667532,0.447445,0.3554588,-0.2572358,0.442924,0.32206964,-0.24765333,0.428491,0.32082592,-0.26259532,0.434883,0.33152745,-0.27230291,0.442442
0.3590745,-0.34063931,0.518667,0.3509575,-0.29237525,0.492335,0.34787091,-0.33603636,0.522677,0.33712755,-0.31205682,0.517594,0.32399884,-0.28003992,0.512096,0.31637442,-0.25265044,0.50358,0.33453883,-0.23925331,0.480146,0.33556206,-0.20262225,0.478574,0.33483475,-0.18414528,0.477788,0.32980078,-0.16657643,0.477074,0.34330332,-0.24141063,0.467485,0.29675031,-0.22093472,0.437395,0.29729082,-0.24870033,0.448738,0.31141608,-0.26831359,0.463183,0.34856477,-0.25155954,0.459628,0.29852206,-0.24283912,0.42975,0.30107102,-0.26062898,0.43863,0.31051983,-0.28053499,0.454242,0.3583641,-0.27003649,0.454998,0.31481644,-0.25991234,0.436396,0.31282424,-0.26763163,0.443201,0.31547717,-0.27831208,0.452387
0.35868442,-0.3410517,0.519386,0.35039157,-0.29311293,0.49246,0.34888411,-0.33424069,0.52313,0.33694665,-0.31257875,0.517303,0.32372262,-0.28045416,0.51172,0.31623632,-0.25316047,0.5026,0.33401985,-0.23957652,0.479539,0.3347577,-0.20308211,0.477932,0.33390387,-0.18466055,0.477128,0.33051439,-0.16829557,0.476397,0.34260579,-0.2420811,0.46705,0.2955925,-0.22088584,0.436498,0.29590817,-0.24846869,0.447589,0.31061035,-0.26779558,0.462122,0.34856991,-0.25205439,0.459392,0.29832901,-0.24318573,0.429151,0.30068791,-0.26083426,0.437834,0.31013179,-0.28075973,0.453513,0.35869772,-0.27078763,0.455097,0.3148573,-0.26045645,0.4361,0.31475526,-0.26924784,0.442739,0.3171414,-0.27901711,0.451999
0.35852347,-0.34463491,0.519446,0.34985279,-0.29382355,0.492448,0.34839057,-0.33470153,0.523039,0.33613809,-0.31377643,0.517138,0.32252199,-0.28160355,0.511407,0.31634226,-0.25676247,0.502295,0.33349254,-0.24015343,0.479286,0.33294255,-0.20551307,0.477904,0.3320488,-0.18723269,0.477213,0.33027619,-0.16907491,0.476585,0.34091245,-0.24478693,0.46697,0.29123682,-0.22745904,0.436343,0.29344893,-0.25534244,0.447542,0.31069151,-0.26873473,0.462136,0.34831711,-0.25269426,0.459462,0.29811896,-0.24397513,0.429198,0.30059718,-0.26169318,0.437969,0.31011829,-0.28166301,0.453693,0.35873362,-0.27150019,0.455354,0.3147884,-0.26125309,0.436227,0.31474264,-0.2700945,0.442927,0.31718689,-0.2799238,0.452256
0.35792638,-0.34545007,0.519188,0.34939853,-0.29421563,0.492305,0.34794974,-0.33489919,0.522809,0.33573507,-0.31437747,0.517058,0.3219623,-0.28221518,0.511316,0.31571986,-0.25737973,0.502271,0.33323657,-0.24060557,0.479254,0.33256686,-0.20584321,0.477856,0.33179404,-0.18753253,0.477157,0.32998596,-0.16952776,0.476521,0.34068791,-0.2450928,0.466934,0.29126953,-0.22748458,0.436392,0.29353089,-0.25541376,0.447667,0.3108185,-0.26942208,0.462254,0.34812612,-0.25296773,0.459412,0.29801414,-0.24437056,0.429222,0.30056298,-0.26213311,0.438053,0.31010391,-0.28210845,0.453772,0.35858325,-0.2717295,0.455269,0.31468927,-0.26159827,0.436201,0.31468508,-0.27047444,0.442949,0.31713345,-0.28031059,0.452276
0.35477179,-0.3496658,0.516777,0.34639388,-0.29527105,0.490602,0.3460152,-0.33420984,0.520517,0.33318684,-0.31665918,0.515634,0.31867898,-0.28451865,0.509794,0.31354042,-0.25880701,0.501399,0.33056742,-0.24331196,0.478171,0.33237037,-0.20635971,0.477418,0.332081,-0.18818074,0.477041,0.32940433,-0.17192622,0.476699,0.33917349,-0.24578818,0.4659,0.2902639,-0.2280608,0.435879,0.29295713,-0.25635957,0.447673,0.3106845,-0.27085089,0.462235,0.346897,-0.25300423,0.458349,0.29708929,-0.24538532,0.428628,0.29999034,-0.26344767,0.437872,0.3096613,-0.28279704,0.453566,0.35732952,-0.27157978,0.454049,0.31374794,-0.26175869,0.435319,0.31399188,-0.27086618,0.442392,0.31645471,-0.28074382,0.451726
0.35413686,-0.34994083,0.516309,0.3458497,-0.29556311,0.490182,0.34536098,-0.33445764,0.519994,0.33262596,-0.31699974,0.515209,0.31788629,-0.28476059,0.509184,0.31258707,-0.25915863,0.500845,0.32987309,-0.24354097,0.477713,0.33247312,-0.20684829,0.477462,0.33253101,-0.18875878,0.477336,0.33013399,-0.17254461,0.477222,0.33854266,-0.24602543,0.465527,0.2897012,-0.22830239,0.435533,0.29250922,-0.25669332,0.447431,0.31035634,-0.27137204,0.462015,0.34638033,-0.25324877,0.45804,0.29662666,-0.24567967,0.428364,0.29961926,-0.26382269,0.437691,0.30934703,-0.28323969,0.453401,0.35694431,-0.27182184,0.453808,0.31335611,-0.26206211,0.435058,0.31365191,-0.27123318,0.442193,0.31614125,-0.28115651,0.451558
0.3537277,-0.35023752,0.516068,0.34549975,-0.29580498,0.489937,0.34494862,-0.33474286,0.519732,0.33229064,-0.31720538,0.514956,0.31743899,-0.28493207,0.508864,0.31198363,-0.25942187,0.500529,0.32945505,-0.24367719,0.477436,0.3325566,-0.20720336,0.477508,0.33284972,-0.18916995,0.477543,0.33064153,-0.17297912,0.477576,0.33812113,-0.24618286,0.465277,0.28933072,-0.22842149,0.435276,0.29218035,-0.25684105,0.447194,0.31006742,-0.27172463,0.461786,0.34600572,-0.25341948,0.457812,0.29628287,-0.24584674,0.428137,0.29930993,-0.26401848,0.43748,0.30906229,-0.2835011,0.453195,0.3566464,-0.27197762,0.453607,0.31305414,-0.26226063,0.434841,0.3133637,-0.27145638,0.441987,0.31586404,-0.28140426,0.451362
0.35215143,-0.34919529,0.514601,0.34388742,-0.29466049,0.488409,0.34300679,-0.33332146,0.517585,0.33026589,-0.3153253,0.512874,0.31466496,-0.282512,0.505462,0.30851791,-0.2582577,0.497361,0.32723973,-0.24200051,0.474997,0.33377533,-0.20623369,0.478279,0.33630824,-0.19149051,0.47992,0.33624164,-0.17305774,0.481412,0.33596311,-0.24531865,0.463691,0.29022565,-0.21601306,0.436838,0.28919014,-0.24390524,0.449601,0.30717233,-0.26567683,0.46332,0.34449028,-0.25282196,0.456935,0.30069951,-0.24535607,0.43618,0.30069024,-0.26406189,0.446525,0.31233922,-0.28497772,0.459038,0.35579578,-0.27175527,0.453568,0.31191329,-0.26015694,0.434337,0.31289197,-0.26957227,0.441852,0.31544087,-0.28121091,0.451534
0.35091214,-0.34924834,0.514299,0.34339282,-0.29442041,0.488297,0.34175677,-0.33315368,0.516985,0.3295142,-0.31464529,0.512461,0.31374648,-0.28173742,0.504735,0.30619558,-0.25800172,0.496044,0.32660558,-0.2415043,0.474627,0.33327915,-0.2065725,0.477887,0.33640593,-0.18973306,0.479518,0.33486337,-0.17354902,0.481,0.33558817,-0.24499981,0.463758,0.29092444,-0.21888349,0.436893,0.2894897,-0.2462341,0.450082,0.30878163,-0.26755061,0.46394,0.34435209,-0.25276264,0.457343,0.30012671,-0.24514052,0.436462,0.30110438,-0.26442558,0.44714,0.31196944,-0.2852027,0.459837,0.35592999,-0.27189655,0.454343,0.31162708,-0.26028761,0.434999,0.3128644,-0.26997703,0.44277,0.31575566,-0.28163495,0.452591
0.34953147,-0.34940495,0.513235,0.3442884,-0.29562702,0.48971,0.34272279,-0.3351349,0.518638,0.33276242,-0.31488137,0.516209,0.32011942,-0.28730085,0.512618,0.3131409,-0.26404022,0.505239,0.3344838,-0.24900847,0.481153,0.33704531,-0.2157383,0.478932,0.33841329,-0.19841775,0.477821,0.33971091,-0.18224929,0.476811,0.33810842,-0.24723099,0.467508,0.29015974,-0.22104263,0.443598,0.28883479,-0.24846219,0.456041,0.30680509,-0.26819319,0.468596,0.34332275,-0.25397956,0.458568,0.29420916,-0.24708116,0.440993,0.29654144,-0.26799963,0.451111,0.30135405,-0.28820035,0.46225,0.3445845,-0.26983303,0.452186,0.30082552,-0.25946102,0.435593,0.30818292,-0.27005872,0.442985,0.31469197,-0.28130899,0.45169
0.34841829,-0.34941224,0.511939,0.34351865,-0.29595646,0.489123,0.34223544,-0.33555829,0.517786,0.33259964,-0.31484164,0.515814,0.32062819,-0.287761,0.513087,0.31436521,-0.26356568,0.506107,0.33462651,-0.24925115,0.481603,0.3371177,-0.21577118,0.478817,0.33845478,-0.19836896,0.477424,0.33972702,-0.18214032,0.476158,0.33801831,-0.24750821,0.467591,0.29674758,-0.21364333,0.44438,0.29094294,-0.23817096,0.456892,0.30377738,-0.25948702,0.469215,0.34260345,-0.25392867,0.458278,0.29515025,-0.24616452,0.44141,0.29755342,-0.2670844,0.451587,0.30598353,-0.2862062,0.462464,0.34411831,-0.26976364,0.451339,0.30087273,-0.25963624,0.435333,0.30735973,-0.27042869,0.442781,0.31380689,-0.28163602,0.451302
0.34723684,-0.34913404,0.510397,0.34245816,-0.29584415,0.488,0.34116444,-0.33518993,0.515889,0.33136541,-0.31564671,0.514404,0.31986072,-0.286872,0.511418,0.31383289,-0.26294077,0.504612,0.33349669,-0.24656178,0.480301,0.33678695,-0.21533429,0.477849,0.33830064,-0.19803033,0.476623,0.33973674,-0.18187943,0.475509,0.33746409,-0.24731021,0.466863,0.29806418,-0.21192037,0.443742,0.29203771,-0.2360585,0.456998,0.30427098,-0.25781196,0.469522,0.34212639,-0.25385308,0.457983,0.29540824,-0.24558952,0.441039,0.30060644,-0.266976,0.4518,0.30612182,-0.28639662,0.46294,0.34693675,-0.26918674,0.451477,0.30127929,-0.25981293,0.435389,0.30747868,-0.27105905,0.443289,0.3137484,-0.28252669,0.452014
0.34523887,-0.34850877,0.50865,0.34102655,-0.29533936,0.486325,0.34012901,-0.3350613,0.514813,0.330565,-0.31498843,0.513527,0.31959296,-0.28658043,0.510646,0.31499308,-0.26388572,0.503996,0.33638127,-0.24877611,0.479534,0.34422853,-0.21662576,0.476513,0.34706316,-0.19959483,0.475003,0.34973834,-0.18370216,0.47363,0.33756435,-0.24830361,0.465256,0.31183179,-0.20760417,0.442538,0.30121952,-0.22422445,0.455074,0.30676108,-0.24670746,0.467227,0.3426639,-0.25390652,0.455677,0.30084475,-0.24596779,0.439309,0.30706547,-0.27180321,0.449508,0.32579048,-0.28513723,0.460192,0.34355659,-0.26979155,0.448341,0.30344037,-0.25880022,0.43275,0.3070731,-0.27750545,0.440224,0.3222892,-0.28856076,0.448609
0.33722677,-0.34214596,0.498041,0.33802052,-0.29433086,0.481488,0.33428384,-0.33049176,0.506429,0.32853766,-0.31336824,0.510594,0.32145114,-0.28647257,0.510464,0.3203925,-0.26562426,0.507322,0.34123391,-0.25194972,0.481348,0.34348357,-0.21678575,0.473285,0.34471119,-0.1988029,0.469253,0.3458913,-0.18220734,0.465588,0.34251511,-0.2525829,0.465866,0.31737471,-0.21174333,0.448274,0.30746305,-0.22911077,0.462414,0.31184647,-0.25118906,0.473215,0.34326011,-0.25772673,0.454733,0.30450477,-0.2516578,0.442721,0.31007886,-0.27520292,0.45418,0.32879193,-0.29108838,0.46548,0.34355567,-0.27217368,0.444583,0.30836005,-0.26305423,0.432954,0.30851894,-0.27993336,0.441505,0.32370127,-0.2911826,0.449903
0.34414105,-0.35033529,0.509322,0.34135562,-0.29771231,0.486028,0.33976893,-0.33646438,0.514981,0.33029484,-0.31446663,0.513154,0.32260274,-0.28348681,0.508862,0.32136684,-0.2602382,0.502298,0.33985082,-0.25050027,0.477951,0.34774635,-0.2188741,0.474682,0.35135507,-0.20193849,0.473047,0.35475147,-0.18615381,0.471561,0.34226422,-0.25206992,0.464044,0.3150662,-0.20918439,0.44042,0.30423369,-0.22503379,0.452754,0.30798766,-0.24695626,0.465171,0.34444766,-0.25838019,0.454865,0.30259193,-0.24662026,0.437609,0.30623366,-0.27107412,0.447645,0.324365,-0.28743619,0.458621,0.34731585,-0.27503751,0.448164,0.30699737,-0.26253383,0.43184,0.30775745,-0.27874045,0.439172,0.32289474,-0.29019773,0.44776
0.34511323,-0.3529631,0.512059,0.34219556,-0.3015129,0.486134,0.34077956,-0.33817344,0.516679,0.33082406,-0.31462509,0.512509,0.31957446,-0.28453488,0.506335,0.31984571,-0.25972464,0.498771,0.34380932,-0.25424862,0.474994,0.34982995,-0.22212251,0.468985,0.35233724,-0.20544508,0.46598,0.35473796,-0.18989345,0.463248,0.34499291,-0.25830915,0.461668,0.31315214,-0.21539804,0.435818,0.30018283,-0.22342604,0.447042,0.30255857,-0.2462038,0.459916,0.3460497,-0.26670414,0.453224,0.30078188,-0.25116426,0.433878,0.30323142,-0.27180838,0.443027,0.32110828,-0.28859829,0.454493,0.34733653,-0.28586063,0.447837,0.30388481,-0.26951842,0.42981,0.30502572,-0.28435147,0.43642,0.32128103,-0.29184424,0.445328
0.34517343,-0.35550549,0.513494,0.3430759,-0.31465976,0.484773,0.34271455,-0.34226216,0.518107,0.33101232,-0.3194436,0.511229,0.32416596,-0.28818316,0.505758,0.32223705,-0.26463618,0.496602,0.34677807,-0.26211343,0.471785,0.35012003,-0.22949547,0.463074,0.3512155,-0.21260374,0.458719,0.35231425,-0.19690255,0.45476,0.34374813,-0.26663156,0.457669,0.30973346,-0.22182191,0.430248,0.29279205,-0.22965617,0.438305,0.29448912,-0.25012771,0.450754,0.34138062,-0.27550532,0.448846,0.29431761,-0.25740639,0.428355,0.29257591,-0.27821757,0.435001,0.3073579,-0.29777398,0.44593,0.33869333,-0.29540389,0.443501,0.29417338,-0.27564385,0.42464,0.29432856,-0.28875584,0.429295,0.30946954,-0.30099267,0.437738
0.34825719,-0.35978246,0.517902,0.34647659,-0.31622849,0.488416,0.34743888,-0.34570807,0.52323,0.33608571,-0.32262163,0.513639,0.33056287,-0.29415848,0.511236,0.3286598,-0.27003551,0.50089,0.35193989,-0.26413651,0.475841,0.35249938,-0.22981137,0.463036,0.35253745,-0.21224066,0.456633,0.35265696,-0.19602102,0.450813,0.34493502,-0.26972822,0.46059,0.3136015,-0.22423615,0.433432,0.29405008,-0.22978777,0.438747,0.29315262,-0.24711406,0.450239,0.33587173,-0.28185172,0.450907,0.29213366,-0.25243073,0.430963,0.28497083,-0.26915268,0.435444,0.2995397,-0.28776826,0.445287,0.32704165,-0.30296474,0.444689,0.28469513,-0.27951551,0.426409,0.28370608,-0.28480846,0.4294,0.28617806,-0.29268592,0.436994
0.34921205,-0.36184587,0.519136,0.34732925,-0.31645331,0.489228,0.34930825,-0.34653884,0.524432,0.33811881,-0.32233231,0.514317,0.33023248,-0.29514297,0.512152,0.3269864,-0.26952357,0.501607,0.35303344,-0.26432303,0.476335,0.35305741,-0.22977294,0.462719,0.35294841,-0.21212369,0.455911,0.35293118,-0.19584948,0.449722,0.3448995,-0.27041898,0.461003,0.31432321,-0.22463327,0.433697,0.29403368,-0.22947805,0.438222,0.29295221,-0.2468952,0.449519,0.33615265,-0.28204903,0.451296,0.29234714,-0.25256978,0.431249,0.28477713,-0.26889986,0.435103,0.29919231,-0.28735922,0.444738,0.32735526,-0.30318885,0.445122,0.2849776,-0.27971319,0.426797,0.2836677,-0.28468556,0.429303,0.2860291,-0.29244429,0.436724
0.34390752,-0.35797112,0.512705,0.34417705,-0.31185832,0.48517,0.34696478,-0.34420723,0.520195,0.339345,-0.31462774,0.512726,0.33997655,-0.2859724,0.512864,0.3420512,-0.26317632,0.503967,0.36284911,-0.26622386,0.476652,0.35986275,-0.23016174,0.460602,0.35846089,-0.21186269,0.452577,0.3535628,-0.19467532,0.445282,0.34685492,-0.26826459,0.459186,0.32158576,-0.22261029,0.435076,0.30009709,-0.22772095,0.437411,0.29499342,-0.24603246,0.446865,0.33598251,-0.27749708,0.44749,0.29169084,-0.25233989,0.43081,0.28303671,-0.26710309,0.432949,0.2958109,-0.28428151,0.440538,0.32216525,-0.29251616,0.43858,0.28414843,-0.2657255,0.42318,0.27920224,-0.27141935,0.424419,0.27815073,-0.27939032,0.43032
0.34279338,-0.35846086,0.512355,0.34458307,-0.31363277,0.484751,0.3472759,-0.34448235,0.519691,0.33565134,-0.31935409,0.512499,0.33978455,-0.28789527,0.512876,0.34269806,-0.26510595,0.503619,0.36387527,-0.26774742,0.47599,0.36380955,-0.23419354,0.45968,0.35921986,-0.21350122,0.451526,0.35307968,-0.19516909,0.444112,0.34987847,-0.2709452,0.458702,0.32523056,-0.22652855,0.434334,0.30195358,-0.22948647,0.437227,0.30160259,-0.24720402,0.446949,0.33640034,-0.277933,0.447159,0.29256901,-0.25404611,0.430203,0.28303311,-0.26732738,0.432783,0.29519866,-0.28484426,0.44066,0.3226762,-0.29677325,0.438441,0.28501659,-0.26736065,0.422777,0.28011513,-0.2729358,0.424352,0.2790649,-0.28078526,0.430476
0.34076282,-0.35813193,0.510948,0.34377355,-0.31291144,0.483171,0.34687872,-0.34413872,0.518351,0.33854513,-0.31367046,0.508436,0.34901959,-0.28638076,0.507918,0.35479753,-0.26480985,0.497025,0.36545953,-0.2691685,0.474381,0.36349694,-0.2335353,0.45746,0.36044771,-0.21491206,0.448999,0.35169181,-0.19469197,0.441307,0.351062,-0.27258523,0.456958,0.32449659,-0.22549523,0.432732,0.3027731,-0.23098838,0.434669,0.30049614,-0.24706071,0.44404,0.33860836,-0.27984994,0.445321,0.2931933,-0.25625651,0.428532,0.28162296,-0.26608141,0.430354,0.29296752,-0.28326873,0.437861,0.32210491,-0.29466491,0.436522,0.28450944,-0.26712665,0.421055,0.279022,-0.27197018,0.422048,0.27762024,-0.27932102,0.427876
0.33915521,-0.35736755,0.50919,0.34228526,-0.31151441,0.480116,0.34578447,-0.34245192,0.515299,0.3378807,-0.31340471,0.505692,0.34540455,-0.28338209,0.503119,0.3516889,-0.26235258,0.492946,0.36424139,-0.26724361,0.468814,0.36080636,-0.23226298,0.451216,0.35718825,-0.21403153,0.442416,0.34896045,-0.19585333,0.434417,0.35375795,-0.27425781,0.452678,0.32609094,-0.22772619,0.426476,0.30580365,-0.23552871,0.430319,0.30265406,-0.25096676,0.441004,0.34284451,-0.28359239,0.442227,0.29576323,-0.25800523,0.42336,0.28645356,-0.27040146,0.426682,0.29174301,-0.28224018,0.435627,0.32849071,-0.30219327,0.43504,0.28963516,-0.27162575,0.417731,0.28352794,-0.27536789,0.419846,0.27803806,-0.27931728,0.426758
0.3389895,-0.35588162,0.509892,0.3426798,-0.30986284,0.478458,0.34636227,-0.33970307,0.514148,0.34620882,-0.29705563,0.501984,0.34876396,-0.27092875,0.494619,0.34852997,-0.25505387,0.483308,0.36767159,-0.26224461,0.463225,0.35782809,-0.22931163,0.444286,0.35191759,-0.21144737,0.434817,0.34207381,-0.1936487,0.426208,0.35311485,-0.27129099,0.448793,0.32157724,-0.22479972,0.420042,0.30205873,-0.23311455,0.424161,0.30223549,-0.25123892,0.435854,0.34281424,-0.28182763,0.439975,0.29778637,-0.25187651,0.418435,0.28901127,-0.261564,0.421956,0.28957835,-0.27955656,0.432061,0.32912716,-0.30175549,0.435104,0.28917733,-0.26946627,0.415564,0.28400667,-0.27371557,0.417789,0.28347578,-0.28176442,0.425528
0.35714145,-0.36913286,0.531056,0.36257846,-0.31225252,0.496123,0.36433871,-0.33010518,0.52936,0.35062289,-0.31518306,0.514693,0.3417781,-0.29425275,0.503946,0.33769463,-0.27785527,0.490436,0.35584378,-0.25769401,0.470957,0.34807616,-0.22753307,0.445554,0.34131991,-0.2128912,0.432852,0.33249203,-0.20018394,0.421305,0.35636489,-0.27514506,0.463156,0.34416706,-0.23442673,0.428954,0.33431731,-0.21346804,0.411679,0.33471667,-0.20642011,0.412971,0.36033194,-0.29233777,0.460138,0.31659684,-0.2752564,0.431224,0.30238174,-0.28319172,0.43782,0.30313592,-0.29293135,0.45213,0.36393814,-0.32036681,0.462651,0.31614014,-0.30145248,0.437596,0.31481236,-0.30653527,0.44213,0.31839268,-0.31555011,0.452707
0.35551507,-0.36437137,0.527304,0.36098279,-0.31159333,0.495,0.35938676,-0.33473543,0.526232,0.34609357,-0.31577029,0.514982,0.33412242,-0.29875491,0.50367,0.32886532,-0.28559428,0.491505,0.35374714,-0.26017431,0.472365,0.35494472,-0.22475391,0.452474,0.33347203,-0.21931165,0.442529,0.31416744,-0.22477408,0.433488,0.35740877,-0.27563377,0.464514,0.34565756,-0.23601869,0.432047,0.33451413,-0.21411938,0.413108,0.32760345,-0.2025061,0.405331,0.36043287,-0.29284129,0.461199,0.31177449,-0.27900495,0.434658,0.29948782,-0.28872466,0.44328,0.30625483,-0.29725855,0.457442,0.36353945,-0.32039708,0.46291,0.31656698,-0.30236569,0.439002,0.31631639,-0.30860166,0.445092,0.31999978,-0.31782618,0.455868
0.35468035,-0.36246234,0.525666,0.36013535,-0.3109853,0.494072,0.35843188,-0.33760022,0.525102,0.34805015,-0.31588505,0.51463,0.33395668,-0.30030223,0.503631,0.32854755,-0.28800682,0.491832,0.35494943,-0.25781205,0.472556,0.35160884,-0.22510206,0.449235,0.32541087,-0.2209501,0.437574,0.31732387,-0.22980756,0.44069,0.35597283,-0.27407808,0.464257,0.33822806,-0.23103867,0.432428,0.32813268,-0.20725967,0.413861,0.31136876,-0.19791914,0.403955,0.35938571,-0.2912232,0.460504,0.31010795,-0.27772404,0.434634,0.29830806,-0.28863226,0.443514,0.30361883,-0.29951766,0.457508,0.36252967,-0.31836188,0.461581,0.31545515,-0.30115034,0.438208,0.31560726,-0.30822841,0.444508,0.31942329,-0.3179872,0.455176
0.34736712,-0.35551942,0.517215,0.35159032,-0.3130657,0.488382,0.35194081,-0.33848346,0.51927,0.34246501,-0.30627163,0.511858,0.33248314,-0.29539157,0.502441,0.32850879,-0.28726653,0.492527,0.35389401,-0.25857792,0.47204,0.33851258,-0.22604257,0.446203,0.31111049,-0.2239488,0.433285,0.30362306,-0.23318381,0.433745,0.35485032,-0.27228566,0.461171,0.33374108,-0.23058336,0.432206,0.32072284,-0.20528096,0.415309,0.30508012,-0.19176208,0.403434,0.35581745,-0.2869867,0.455034,0.31006789,-0.27066018,0.432328,0.30123274,-0.28547215,0.441513,0.30255176,-0.29679579,0.454351,0.35869064,-0.30950389,0.452846,0.31459571,-0.28897049,0.432046,0.31368677,-0.29744277,0.438631,0.31584567,-0.30763373,0.448504
0.33181083,-0.34953411,0.503321,0.34282724,-0.30683758,0.478181,0.34304916,-0.33260846,0.509173,0.34015516,-0.30100084,0.505903,0.33628539,-0.28735381,0.501572,0.32957733,-0.28671301,0.493799,0.36155542,-0.25753502,0.469139,0.35096324,-0.22308145,0.448615,0.32471844,-0.2136671,0.438354,0.31170858,-0.22154551,0.43962,0.35377259,-0.26588051,0.454456,0.33480278,-0.22724679,0.429807,0.32178022,-0.20296444,0.415427,0.30308632,-0.19223918,0.405157,0.35019574,-0.27702472,0.444819,0.30535641,-0.25608732,0.426881,0.29937538,-0.27079953,0.435338,0.29787022,-0.29000038,0.44596,0.34157604,-0.29543951,0.437901,0.30396208,-0.26697127,0.421071,0.29639185,-0.26685355,0.42717,0.29171055,-0.26855927,0.435458
0.33557052,-0.34319165,0.502292,0.34316563,-0.30365354,0.477435,0.34368131,-0.32690416,0.509191,0.34102469,-0.30158525,0.506559,0.33777929,-0.28942403,0.503777,0.33197444,-0.28870578,0.496524,0.36322275,-0.25819035,0.469921,0.35211776,-0.22293592,0.449486,0.32727192,-0.21218561,0.439268,0.31317947,-0.21867732,0.439654,0.35375079,-0.26539547,0.453977,0.33463391,-0.22517642,0.430197,0.32328116,-0.19973937,0.416324,0.300526,-0.19046174,0.406416,0.34720038,-0.2745449,0.443273,0.34444483,-0.23602242,0.426433,0.33187298,-0.23796439,0.433786,0.3266461,-0.25461327,0.443524,0.33187612,-0.29213721,0.435061,0.29583842,-0.26244438,0.419198,0.28847072,-0.26020798,0.424461,0.28400901,-0.26006854,0.432085
0.33507181,-0.34187804,0.502326,0.34283156,-0.30313604,0.477273,0.34303774,-0.32663332,0.508976,0.34087644,-0.30135628,0.505879,0.33752787,-0.2895536,0.503121,0.33197198,-0.28838464,0.495661,0.36330734,-0.25815194,0.46931,0.35233014,-0.22290781,0.449282,0.32821052,-0.21184713,0.439268,0.31412783,-0.21808557,0.439917,0.35314852,-0.26603867,0.45363,0.33445901,-0.22461796,0.429563,0.32294867,-0.19939523,0.415524,0.30172544,-0.19051632,0.405495,0.34655355,-0.2747539,0.443163,0.34445744,-0.2365013,0.426001,0.33204372,-0.23851272,0.433522,0.3269048,-0.25519484,0.443456,0.33213103,-0.29288518,0.43526,0.29596934,-0.26292142,0.419122,0.29128284,-0.26307128,0.424509,0.28977244,-0.26718931,0.432277
0.33474337,-0.34067883,0.502437,0.34272027,-0.30288959,0.47732,0.34246729,-0.32524517,0.508991,0.34083283,-0.30125889,0.505538,0.33758322,-0.28977359,0.503063,0.33220194,-0.28839268,0.495488,0.3634945,-0.25823573,0.469192,0.35252194,-0.2229208,0.44921,0.32864346,-0.21165417,0.439219,0.31452787,-0.21773746,0.439944,0.35339399,-0.26597886,0.453617,0.33455912,-0.22442065,0.429446,0.32295542,-0.19933014,0.415347,0.30134657,-0.19016912,0.405276,0.34633466,-0.27494162,0.443242,0.34454736,-0.23671978,0.425963,0.33219495,-0.23876331,0.433557,0.32709044,-0.25546643,0.443568,0.33231804,-0.29322467,0.43546,0.29609942,-0.26315728,0.419219,0.29127066,-0.26334625,0.42466,0.28997596,-0.26751307,0.432486
0.30713646,-0.31677617,0.470449,0.33056028,-0.27322421,0.453224,0.31395132,-0.29497737,0.478052,0.32589658,-0.2714912,0.48085,0.33938478,-0.24530761,0.484293,0.35155208,-0.22737274,0.482174,0.35269103,-0.23166274,0.451636,0.3246044,-0.20893529,0.441142,0.30456242,-0.21669367,0.435895,0.31241817,-0.23260225,0.44255,0.35094307,-0.23951635,0.436969,0.31260498,-0.21351735,0.418488,0.28210842,-0.21641154,0.407708,0.28058992,-0.23111488,0.412449,0.34754119,-0.24955423,0.426572,0.31324908,-0.22943156,0.413998,0.3055458,-0.24459029,0.425841,0.31400625,-0.26036597,0.435649,0.33999033,-0.26785679,0.417399,0.30696261,-0.24550834,0.404929,0.30245437,-0.25862117,0.413742,0.31134635,-0.27236996,0.421548
0.30482552,-0.31192467,0.467055,0.32920442,-0.27210352,0.451365,0.31203039,-0.29317252,0.475127,0.32468476,-0.27048169,0.479062,0.33865106,-0.24477728,0.483246,0.35125242,-0.22717893,0.481763,0.35249814,-0.23153604,0.451389,0.32530859,-0.20938855,0.442099,0.30565171,-0.21746869,0.437454,0.31250679,-0.23390693,0.444693,0.35061378,-0.23929162,0.436559,0.31329595,-0.2139893,0.419413,0.28328679,-0.2173155,0.409411,0.28214917,-0.23239919,0.414741,0.34697577,-0.24914823,0.425878,0.31363723,-0.22971585,0.414511,0.30616932,-0.24508942,0.42671,0.31448556,-0.26076341,0.436314,0.33893875,-0.26702832,0.416108,0.30674504,-0.24533433,0.404642,0.30246168,-0.25862742,0.413752,0.31117795,-0.27222264,0.42132
0.30335895,-0.30961061,0.465019,0.32848536,-0.27179261,0.450695,0.3109969,-0.29247654,0.473883,0.32373628,-0.27169451,0.478997,0.33766984,-0.2457974,0.483722,0.34599269,-0.23230792,0.48299,0.35335385,-0.23235536,0.452632,0.32160656,-0.21599952,0.444785,0.30432776,-0.22625731,0.440861,0.31253589,-0.23901672,0.448435,0.35092931,-0.23977686,0.437177,0.31374829,-0.21577081,0.421425,0.28439419,-0.21993016,0.412236,0.28389315,-0.23522822,0.417852,0.34671364,-0.24924669,0.425849,0.31443628,-0.23042779,0.415864,0.30687564,-0.24578563,0.428019,0.31479009,-0.26120296,0.437064,0.33778969,-0.26644744,0.415085,0.30656319,-0.24537114,0.404782,0.30226137,-0.25865416,0.413882,0.31066274,-0.27201931,0.421037
0.30282869,-0.30857685,0.464334,0.32812976,-0.27164007,0.450365,0.31053638,-0.29218086,0.473346,0.32310866,-0.27217588,0.47874,0.3369837,-0.24615692,0.483671,0.34609227,-0.23237477,0.483129,0.35336895,-0.23249396,0.452725,0.32190518,-0.21620008,0.445198,0.30472399,-0.22655189,0.441435,0.31285188,-0.24005309,0.449117,0.35084374,-0.23985339,0.437183,0.3134766,-0.21632202,0.421765,0.28434057,-0.22077192,0.412771,0.28414153,-0.23612945,0.418491,0.34651217,-0.2492453,0.425748,0.31448647,-0.23052797,0.416079,0.30693695,-0.24590021,0.428267,0.31482759,-0.26132772,0.43728,0.33739832,-0.266301,0.414798,0.30640179,-0.24533316,0.404759,0.30212098,-0.25863315,0.413892,0.31045727,-0.27196321,0.420966
0.30247801,-0.30788921,0.463882,0.32790044,-0.27153521,0.450145,0.3102367,-0.29198133,0.472988,0.32271699,-0.27245281,0.478564,0.33656701,-0.24636604,0.48363,0.34614743,-0.23241181,0.483206,0.35337662,-0.2325762,0.452779,0.32209462,-0.21632732,0.44546,0.30497595,-0.22673922,0.4418,0.31304922,-0.24073533,0.449553,0.35078791,-0.23989623,0.437181,0.31332239,-0.21665899,0.421981,0.28432346,-0.22128883,0.413114,0.28430996,-0.23668646,0.418903,0.34638448,-0.24923952,0.425679,0.31452108,-0.2305914,0.416214,0.30698028,-0.24597423,0.428425,0.31485824,-0.26140937,0.437421,0.33715073,-0.26620298,0.41461,0.3063033,-0.24530906,0.404743,0.30203528,-0.25861932,0.413896,0.31033003,-0.27192604,0.420918
0.30224606,-0.30799434,0.464398,0.32752982,-0.27192042,0.450599,0.30990371,-0.29235944,0.473474,0.32272104,-0.27315251,0.479104,0.33700389,-0.24716638,0.484516,0.34895681,-0.23129083,0.483987,0.35299768,-0.23293153,0.453154,0.32131735,-0.21672023,0.445775,0.30420683,-0.2270985,0.442086,0.31175587,-0.24330725,0.449822,0.350391,-0.24026932,0.437576,0.31127672,-0.21797817,0.422316,0.28253689,-0.22299839,0.413414,0.28379018,-0.23718647,0.419187,0.34597551,-0.2496297,0.426096,0.31402909,-0.23093871,0.416573,0.30648505,-0.24630798,0.428782,0.31436172,-0.26172149,0.437752,0.33673214,-0.26661849,0.415064,0.30583461,-0.24567883,0.405148,0.30156375,-0.25897858,0.414299,0.30987474,-0.27229406,0.421337
0.30927582,-0.31626583,0.475673,0.33245443,-0.27650595,0.458266,0.31831271,-0.30237138,0.484265,0.32892895,-0.27749671,0.487889,0.34109607,-0.25192968,0.49164,0.35319821,-0.23417265,0.489448,0.35616684,-0.23556287,0.457825,0.31767621,-0.21749262,0.444972,0.30138028,-0.22578872,0.438546,0.30708681,-0.24087241,0.443666,0.35309371,-0.24268372,0.441838,0.31181941,-0.21809654,0.423771,0.281982,-0.22215573,0.413231,0.28195277,-0.23592735,0.417249,0.3444562,-0.25229818,0.430373,0.30906593,-0.23201253,0.418511,0.30147424,-0.24685653,0.429321,0.30165026,-0.26249587,0.438429,0.33487078,-0.26931252,0.419983,0.30299191,-0.24630408,0.408139,0.30139777,-0.26007436,0.416164,0.31078234,-0.27376567,0.423444
0.30776019,-0.31415346,0.474003,0.33182646,-0.27635514,0.458067,0.31683037,-0.30056722,0.483186,0.32884594,-0.27793502,0.488167,0.34220897,-0.25272856,0.49286,0.35469018,-0.23521486,0.491199,0.3570041,-0.23652151,0.459353,0.31622103,-0.2166591,0.442966,0.29853039,-0.2241809,0.434773,0.30356463,-0.23890637,0.43896,0.35351312,-0.24339285,0.443028,0.31315781,-0.21885822,0.426069,0.28370372,-0.22324132,0.416175,0.28382778,-0.23770526,0.42061,0.34466236,-0.25256,0.431142,0.30970791,-0.2328981,0.42055,0.30251069,-0.24802138,0.431577,0.30290934,-0.26359152,0.440259,0.33426106,-0.26896515,0.420004,0.30338933,-0.24635612,0.409221,0.30173705,-0.26081952,0.417436,0.31101447,-0.27447725,0.424417
0.30502376,-0.31115875,0.470814,0.33082356,-0.27614987,0.457518,0.31358821,-0.29696763,0.480824,0.32694759,-0.27924101,0.488005,0.34310279,-0.25373525,0.494325,0.35647801,-0.23665895,0.493683,0.3557845,-0.23900596,0.461601,0.31512496,-0.21661163,0.44205,0.29488827,-0.22439311,0.432274,0.30095549,-0.23780504,0.435844,0.35124838,-0.24526718,0.44497,0.31600465,-0.22108773,0.430586,0.28737925,-0.22631426,0.422195,0.28807897,-0.24174156,0.427651,0.34516662,-0.25367846,0.432573,0.31009722,-0.23488409,0.424096,0.30467261,-0.25066683,0.43565,0.30465525,-0.26611522,0.443689,0.33383899,-0.26942057,0.420384,0.30388141,-0.24818168,0.411365,0.30034793,-0.26340064,0.420027,0.31121212,-0.27655443,0.426602
0.30423241,-0.31038788,0.471,0.32734979,-0.27686318,0.457906,0.3131112,-0.29717132,0.481061,0.32655683,-0.27951482,0.488426,0.3431634,-0.25443486,0.494877,0.35703644,-0.23880429,0.494355,0.35560166,-0.23961778,0.462186,0.31541382,-0.21699819,0.44279,0.29654008,-0.22382885,0.433092,0.30099988,-0.23853939,0.436738,0.35105415,-0.24600035,0.445548,0.31378112,-0.22076709,0.430525,0.28663356,-0.22618262,0.421761,0.28632722,-0.24217129,0.427074,0.34493135,-0.25448525,0.433126,0.31011769,-0.23605938,0.424801,0.30395376,-0.25186416,0.436403,0.30573605,-0.26758891,0.444908,0.33251842,-0.27008387,0.420872,0.300549,-0.25134828,0.411981,0.29798293,-0.26762474,0.420682,0.30949026,-0.27913175,0.427997
0.30385604,-0.31101561,0.471927,0.32723683,-0.27736971,0.458442,0.31277145,-0.29773677,0.481839,0.3264213,-0.27980459,0.488894,0.3430617,-0.25487052,0.495093,0.35677238,-0.23917431,0.494354,0.35524692,-0.23986933,0.462274,0.31510227,-0.21690928,0.442576,0.29597717,-0.22371481,0.432728,0.30022908,-0.23847332,0.436266,0.35075213,-0.24636888,0.445715,0.31333274,-0.22089046,0.43027,0.28594417,-0.2259929,0.421261,0.28546903,-0.24193873,0.426442,0.34469628,-0.25496604,0.433397,0.30977073,-0.23649302,0.424733,0.30370395,-0.25230595,0.436294,0.30590492,-0.26805413,0.444941,0.33249958,-0.27083483,0.421331,0.30050691,-0.25185346,0.412155,0.29787948,-0.2680771,0.420819,0.30922925,-0.27985056,0.428139
0.30325342,-0.31137199,0.472479,0.32715977,-0.27771481,0.458824,0.31218502,-0.298035,0.482219,0.32612168,-0.27992768,0.48913,0.34070098,-0.2573129,0.494849,0.35475572,-0.24080715,0.49391,0.35497244,-0.24003985,0.462323,0.31493761,-0.21689736,0.442492,0.2956336,-0.22370528,0.432577,0.29980445,-0.23856754,0.436155,0.35060628,-0.24668841,0.445936,0.31458436,-0.22117886,0.430106,0.28546158,-0.22577997,0.420872,0.28487479,-0.2417305,0.426027,0.34466688,-0.25541759,0.433776,0.3097208,-0.23688803,0.424875,0.30378224,-0.25275742,0.436524,0.30629013,-0.26855972,0.445342,0.33270863,-0.27151189,0.421924,0.30073457,-0.25230948,0.412546,0.29813579,-0.26855173,0.421274,0.30933989,-0.28061258,0.428632
0.30287233,-0.31185364,0.473238,0.32729038,-0.27813381,0.459375,0.31184117,-0.29847903,0.48287,0.32609291,-0.28018822,0.489601,0.3404382,-0.25781054,0.495156,0.35438771,-0.24129923,0.494118,0.35495033,-0.24029192,0.462599,0.31494153,-0.21697617,0.442608,0.29514698,-0.22395408,0.432613,0.29915334,-0.23898892,0.436156,0.35064564,-0.24703279,0.446291,0.31421121,-0.22130206,0.430348,0.28507016,-0.22576964,0.421048,0.28431526,-0.24181461,0.426184,0.3447685,-0.25584803,0.434216,0.30978393,-0.23724585,0.425112,0.30389224,-0.25312498,0.436766,0.30657257,-0.26892732,0.445639,0.33297791,-0.27209387,0.4225,0.30099538,-0.25268738,0.412951,0.29838225,-0.26892008,0.421678,0.30943236,-0.28119293,0.429015
0.30236697,-0.31220548,0.4738,0.3274077,-0.27847338,0.459826,0.31141194,-0.29883948,0.483386,0.32610937,-0.28042443,0.490026,0.34034674,-0.25820729,0.495484,0.35421827,-0.24168154,0.494365,0.35501235,-0.24054171,0.462917,0.31504618,-0.21710747,0.442841,0.29476617,-0.22428228,0.432803,0.29861291,-0.23949837,0.436318,0.35073186,-0.24733994,0.446638,0.31395345,-0.22150548,0.430746,0.28484922,-0.225894,0.421475,0.28394382,-0.24205873,0.426623,0.34487814,-0.2562058,0.434597,0.30990644,-0.23757201,0.425393,0.30403764,-0.25345318,0.437038,0.3068087,-0.26922434,0.445897,0.33318519,-0.27253507,0.422939,0.30123119,-0.25299141,0.413306,0.29860154,-0.26921524,0.422025,0.30949779,-0.28163862,0.429304
0.30211185,-0.31345358,0.475624,0.32632876,-0.2799715,0.461403,0.31101469,-0.29986603,0.484879,0.31844218,-0.2833201,0.491201,0.33303854,-0.26357469,0.496984,0.35227227,-0.24535332,0.496622,0.34779935,-0.24182783,0.463909,0.30886778,-0.21827279,0.443641,0.28821689,-0.22556455,0.433507,0.29674166,-0.24081563,0.437138,0.34419723,-0.24903638,0.447982,0.31274846,-0.22295813,0.432058,0.28236665,-0.22689651,0.422769,0.27474741,-0.24200928,0.42808,0.34370962,-0.25825225,0.436256,0.31084532,-0.23805363,0.426645,0.30478774,-0.25390341,0.438488,0.30703122,-0.26951757,0.447101,0.3329743,-0.27499337,0.425009,0.30147795,-0.2545429,0.415027,0.29890338,-0.27086747,0.423894,0.30890004,-0.28449881,0.430844
0.30152201,-0.31394117,0.47634,0.32601879,-0.28030578,0.461893,0.31042863,-0.3003232,0.485513,0.31874882,-0.28359293,0.491674,0.33315916,-0.26367015,0.497164,0.35111915,-0.24605373,0.496528,0.34797703,-0.24195137,0.464146,0.30891303,-0.21830477,0.443706,0.28820292,-0.22555363,0.433486,0.29603289,-0.24080659,0.437049,0.34441083,-0.24919092,0.44826,0.31212039,-0.22305393,0.432127,0.2814326,-0.2266016,0.422716,0.27466654,-0.24193805,0.427954,0.34328445,-0.25844748,0.436589,0.31097022,-0.23795869,0.426787,0.30465688,-0.25365396,0.438598,0.30666426,-0.26927409,0.447274,0.33268968,-0.27526846,0.425445,0.30107386,-0.25477709,0.415304,0.29848412,-0.27109174,0.424142,0.30854987,-0.28476414,0.431137
0.30039285,-0.31410368,0.47628,0.32538799,-0.280319,0.461817,0.3091938,-0.30039044,0.485397,0.31840904,-0.28361516,0.491556,0.33265258,-0.26355224,0.496748,0.34979395,-0.24624182,0.495805,0.34768094,-0.24186064,0.463986,0.30860625,-0.21825768,0.443534,0.28787534,-0.22552967,0.433307,0.295361,-0.2407806,0.436903,0.34420324,-0.24920843,0.448167,0.31142977,-0.22227432,0.431214,0.28188778,-0.22559748,0.421324,0.27971645,-0.24179375,0.426376,0.33904588,-0.25854832,0.436553,0.31052408,-0.23812246,0.426697,0.30419465,-0.25380679,0.438553,0.30637284,-0.26939221,0.447269,0.33221362,-0.27536455,0.425479,0.30057028,-0.25490703,0.415291,0.29431318,-0.27147638,0.424162,0.30312848,-0.28559279,0.431191
0.29907568,-0.31406814,0.47592,0.32472429,-0.2801922,0.46153,0.30778923,-0.30029172,0.485013,0.31806142,-0.28346829,0.491223,0.33227257,-0.26339312,0.496351,0.34887318,-0.24639515,0.495326,0.34739183,-0.24171728,0.463718,0.30836427,-0.21817168,0.443321,0.28764785,-0.22546806,0.433122,0.29481868,-0.24075583,0.436779,0.34396833,-0.24912246,0.44795,0.31108239,-0.22212554,0.431072,0.2815623,-0.22539368,0.421226,0.27933734,-0.24161903,0.426342,0.33884799,-0.25850683,0.43637,0.31002521,-0.23824627,0.426535,0.30369027,-0.25392506,0.438448,0.30602298,-0.26945921,0.447179,0.33170185,-0.27532184,0.425324,0.30008544,-0.25492897,0.415152,0.29392633,-0.27140583,0.424068,0.3022837,-0.28568366,0.431106
0.29808788,-0.31400151,0.475707,0.32378043,-0.28019997,0.461371,0.30675471,-0.30019603,0.484827,0.31788375,-0.28340775,0.491071,0.3320587,-0.26330888,0.496134,0.34817963,-0.24650854,0.494963,0.34727061,-0.24166763,0.463627,0.30827316,-0.21815839,0.443271,0.28756576,-0.22547379,0.433093,0.29398565,-0.24067184,0.43676,0.34384363,-0.24908268,0.447841,0.31058403,-0.2221686,0.43103,0.28106449,-0.22530916,0.421224,0.27863413,-0.24150398,0.426357,0.33871514,-0.25847117,0.436242,0.30973812,-0.23826224,0.426457,0.30337398,-0.25391108,0.438372,0.30585496,-0.26938015,0.447083,0.33126385,-0.2752637,0.425163,0.29969207,-0.25494167,0.415033,0.29365261,-0.27132536,0.423952,0.30171997,-0.28568529,0.430975
0.29773115,-0.3142346,0.476436,0.32043734,-0.27992918,0.461528,0.3062962,-0.30033724,0.485496,0.31753535,-0.2829093,0.491242,0.33134303,-0.26248312,0.495817,0.34423202,-0.24708248,0.494085,0.3466318,-0.24086538,0.463333,0.30730494,-0.21718169,0.442542,0.28649153,-0.22441005,0.432147,0.28968967,-0.23981636,0.435526,0.34317033,-0.2482333,0.447459,0.30748491,-0.22094604,0.43043,0.27783346,-0.22336587,0.420496,0.27428794,-0.23938152,0.425409,0.33805777,-0.2576147,0.435844,0.30838904,-0.23620912,0.425699,0.30105518,-0.25133809,0.437389,0.30468138,-0.26823623,0.446155,0.328012,-0.27462782,0.424846,0.29626322,-0.25448327,0.414419,0.29264079,-0.27021481,0.423156,0.30056107,-0.28464622,0.430214
0.29670861,-0.31376569,0.476101,0.31996013,-0.27933765,0.461234,0.30520394,-0.29985765,0.485162,0.31700539,-0.28230264,0.49093,0.33078445,-0.26185563,0.49552,0.34367368,-0.24625247,0.493764,0.34613347,-0.24026299,0.463067,0.30681323,-0.21662537,0.442309,0.28602793,-0.22388825,0.431929,0.28925996,-0.23931155,0.435331,0.34270375,-0.24763691,0.447205,0.3070837,-0.22028602,0.430174,0.27744165,-0.22275462,0.42024,0.27397204,-0.23879437,0.425167,0.33761475,-0.2570231,0.435594,0.30783813,-0.2356991,0.425472,0.30060548,-0.25090641,0.437182,0.30399983,-0.26752555,0.445947,0.3275947,-0.27404262,0.424594,0.29583888,-0.25393685,0.414186,0.29216128,-0.26964618,0.422939,0.29996078,-0.28411956,0.429996
0.28744377,-0.30460432,0.46253,0.31439221,-0.27434378,0.453447,0.29713156,-0.29253729,0.473708,0.31248578,-0.2781299,0.484213,0.3290178,-0.26024288,0.493113,0.34606512,-0.2457183,0.494899,0.34502772,-0.23931892,0.461801,0.30891092,-0.2178973,0.445535,0.28950698,-0.22642366,0.437402,0.29378638,-0.24289538,0.442379,0.34077868,-0.24606398,0.444876,0.30779708,-0.22045791,0.431238,0.27939981,-0.22400642,0.423283,0.27665732,-0.24080985,0.429375,0.33456817,-0.25452091,0.431827,0.30723363,-0.23618027,0.426581,0.30147945,-0.2518705,0.438866,0.30487797,-0.26833172,0.447939,0.32250433,-0.26960767,0.418146,0.29411939,-0.25226353,0.411929,0.28997336,-0.2676865,0.421222,0.29677042,-0.28250401,0.428354
0.29410198,-0.31231513,0.474578,0.31932155,-0.27854007,0.460746,0.30285125,-0.2987952,0.484241,0.31648576,-0.28157341,0.490634,0.33065217,-0.2613679,0.49575,0.34453297,-0.24527234,0.49405,0.3465699,-0.24025046,0.464032,0.30778375,-0.21693988,0.444066,0.28719802,-0.22447266,0.434083,0.29050525,-0.24005857,0.43762,0.34282664,-0.24740026,0.447693,0.30550594,-0.21855426,0.428078,0.2749733,-0.22021196,0.416636,0.27108636,-0.23571282,0.42076,0.33738324,-0.25651886,0.435589,0.30687327,-0.23604504,0.426529,0.30077888,-0.25146748,0.438167,0.30340266,-0.2670666,0.446475,0.32680029,-0.27305951,0.423834,0.2957432,-0.25350166,0.414321,0.29106505,-0.26852789,0.423038,0.29740292,-0.28316632,0.429765
0.29322814,-0.3120447,0.474507,0.31916515,-0.27831944,0.460672,0.30193824,-0.29852357,0.484201,0.31624556,-0.28126629,0.49044,0.33037402,-0.26101377,0.495483,0.34326594,-0.24501505,0.493581,0.3464425,-0.24005155,0.463995,0.30766975,-0.21672954,0.444027,0.28708244,-0.22426605,0.434044,0.29036487,-0.23984324,0.437554,0.34267972,-0.24718017,0.447616,0.3054246,-0.2182858,0.428004,0.27489461,-0.21995237,0.416564,0.27100779,-0.23544606,0.420663,0.33721833,-0.25627853,0.435479,0.30649314,-0.23585903,0.426337,0.30044556,-0.25133457,0.437938,0.30277926,-0.26655128,0.446263,0.32661331,-0.27279165,0.423686,0.29558597,-0.25324315,0.414195,0.29084229,-0.26819746,0.422887,0.29702776,-0.28285436,0.429597
0.29225183,-0.31141889,0.473938,0.31849414,-0.27781161,0.460274,0.30091013,-0.29792507,0.483619,0.31332295,-0.27777596,0.488025,0.32820999,-0.25935442,0.492699,0.33997345,-0.24257027,0.48908,0.34585967,-0.23970619,0.463692,0.30733803,-0.21635525,0.443853,0.28676617,-0.22390394,0.433933,0.29005491,-0.23955534,0.437554,0.3422557,-0.24680778,0.447378,0.30535136,-0.21779689,0.4279,0.27486949,-0.21951321,0.416537,0.27112684,-0.23509754,0.420745,0.33690445,-0.25587417,0.435279,0.30669148,-0.23537261,0.425846,0.29996013,-0.25099043,0.437524,0.30266132,-0.26637975,0.445998,0.326386,-0.27233575,0.4235,0.29546908,-0.25272199,0.414075,0.29093357,-0.26784148,0.422844,0.2967806,-0.28255007,0.429562
0.29078979,-0.31027578,0.472582,0.31753027,-0.27704835,0.459453,0.29944057,-0.29688975,0.482328,0.31142775,-0.27594842,0.485222,0.32621981,-0.25783206,0.490173,0.33719256,-0.24049175,0.485312,0.34521578,-0.23931851,0.463307,0.30714377,-0.21607757,0.443878,0.28667474,-0.22371711,0.434163,0.29006752,-0.23953374,0.438042,0.34177276,-0.24639288,0.447063,0.30544226,-0.21742425,0.428026,0.27511627,-0.21928993,0.416922,0.27160636,-0.23505995,0.421386,0.33650537,-0.25540506,0.434969,0.30655052,-0.23523886,0.426095,0.30007023,-0.2511447,0.437979,0.30293435,-0.2665522,0.446309,0.32599604,-0.2717439,0.423103,0.29536073,-0.25220735,0.413967,0.29106337,-0.26760873,0.422892,0.29660687,-0.28232944,0.429569
0.28962333,-0.30932304,0.471566,0.31678097,-0.27639016,0.45885,0.29829955,-0.29607487,0.481418,0.31095552,-0.27541949,0.484598,0.3257652,-0.25743898,0.489849,0.33695346,-0.24015805,0.48512,0.34476715,-0.23903201,0.463111,0.30707411,-0.21583685,0.444,0.28668082,-0.22353623,0.434444,0.29010926,-0.23946095,0.438475,0.34140903,-0.24601412,0.446849,0.30538769,-0.21720213,0.428165,0.27519225,-0.21914433,0.417267,0.27174845,-0.23502409,0.421885,0.33617225,-0.25492112,0.4347,0.30654251,-0.23486019,0.426192,0.30007568,-0.25087128,0.43817,0.3028155,-0.26631959,0.446424,0.32562982,-0.27108538,0.422699,0.29526468,-0.25160187,0.413827,0.29099868,-0.26702935,0.422829,0.29613337,-0.28176412,0.429442
0.28810862,-0.30812847,0.470065,0.31582058,-0.27570269,0.45813,0.29677368,-0.29505484,0.480022,0.30981719,-0.27469063,0.483399,0.31895364,-0.26193077,0.489525,0.33576524,-0.24271751,0.484927,0.34419132,-0.23885058,0.463041,0.307315,-0.21557125,0.444534,0.28683575,-0.22292864,0.43528,0.29049582,-0.23950842,0.439668,0.34101914,-0.24577314,0.446868,0.30549328,-0.21731659,0.428837,0.27555534,-0.21946339,0.41832,0.2723281,-0.23558324,0.423293,0.33587568,-0.25459014,0.434715,0.30656083,-0.23504703,0.426948,0.29995022,-0.25097001,0.439193,0.30263386,-0.26674495,0.447351,0.32533473,-0.27056974,0.422575,0.29534152,-0.25128705,0.414138,0.29121369,-0.26683982,0.423348,0.2959535,-0.28158802,0.429888
0.28714656,-0.30752375,0.469463,0.31523128,-0.2753389,0.457947,0.29579555,-0.29457802,0.479509,0.30931684,-0.27447032,0.483078,0.31897384,-0.26194736,0.489556,0.33419269,-0.24340714,0.485126,0.34382292,-0.2388128,0.463249,0.30755578,-0.21530526,0.445068,0.28728515,-0.22300329,0.435977,0.29065994,-0.23937131,0.440527,0.34077707,-0.24563864,0.44708,0.30552724,-0.21738014,0.429409,0.2757376,-0.21963856,0.4191,0.27260718,-0.23588262,0.424236,0.33570391,-0.25435387,0.434891,0.3063843,-0.23508459,0.427433,0.30001898,-0.25140814,0.439778,0.30221145,-0.26695948,0.447925,0.32518156,-0.27017247,0.422635,0.29542397,-0.25097685,0.414457,0.29134809,-0.26657596,0.42375,0.29570287,-0.28134462,0.430232
0.27900064,-0.29941495,0.456983,0.31039603,-0.27149139,0.451517,0.2887079,-0.28823133,0.468977,0.30467677,-0.27052915,0.476419,0.31725539,-0.26098977,0.486933,0.32942361,-0.24711517,0.484572,0.34335889,-0.23897647,0.463298,0.31082167,-0.21742024,0.44993,0.29191332,-0.22633781,0.443246,0.29615971,-0.24386853,0.449417,0.33985226,-0.24526051,0.446359,0.30853338,-0.21981145,0.434099,0.28062483,-0.2237975,0.426947,0.27844951,-0.24122224,0.433747,0.3339304,-0.25313448,0.432946,0.30709299,-0.23734588,0.430594,0.30112816,-0.25407085,0.443464,0.30471582,-0.26999413,0.452758,0.32162765,-0.26715516,0.418213,0.29526479,-0.25066631,0.414353,0.29154693,-0.26656804,0.424148,0.29578936,-0.28161642,0.430968
0.28525012,-0.30675365,0.46808,0.31423083,-0.27522671,0.457698,0.29388252,-0.29412534,0.478362,0.30818432,-0.27382207,0.482499,0.31924695,-0.26285642,0.489997,0.33057446,-0.24833137,0.486189,0.34341421,-0.23950107,0.464047,0.30853395,-0.21565025,0.446753,0.28836798,-0.22333411,0.438105,0.29162809,-0.24010538,0.443087,0.34065083,-0.24612583,0.447901,0.30614739,-0.21840156,0.431203,0.27674894,-0.22096872,0.421463,0.27387488,-0.23753877,0.427033,0.33571905,-0.25461524,0.435619,0.30528737,-0.23653192,0.428997,0.29913166,-0.25313268,0.441605,0.30209241,-0.26848751,0.449975,0.32520226,-0.2700591,0.42306,0.29605616,-0.25116267,0.415583,0.29212306,-0.26690485,0.425095,0.29567638,-0.28169846,0.431414
0.27744888,-0.29912389,0.456369,0.30992347,-0.27194787,0.452376,0.28722574,-0.28834762,0.4688,0.30180761,-0.27014459,0.476662,0.31743556,-0.2619254,0.488184,0.32987174,-0.2484083,0.486146,0.34152355,-0.24041408,0.465685,0.31184534,-0.2172465,0.453519,0.29289399,-0.22573742,0.447435,0.29808715,-0.24561183,0.453971,0.33858453,-0.2460854,0.448608,0.30797442,-0.22173627,0.43769,0.28078142,-0.22640807,0.431322,0.28061065,-0.24393871,0.438496,0.33390412,-0.25368139,0.434938,0.31617883,-0.22983035,0.432553,0.30589596,-0.24282822,0.445432,0.29823735,-0.25669875,0.451541,0.32217816,-0.2675175,0.419649,0.29655786,-0.25157238,0.416845,0.29295898,-0.26763334,0.426724,0.29671467,-0.28282215,0.43357
0.28365689,-0.30659746,0.467701,0.3133824,-0.27548371,0.45839,0.29240517,-0.2944526,0.478557,0.30543785,-0.27365404,0.482988,0.31890363,-0.26351292,0.491091,0.33012721,-0.24900521,0.487185,0.34135434,-0.24045697,0.46618,0.30864969,-0.21528698,0.44973,0.28847374,-0.22264207,0.441505,0.2925651,-0.24124751,0.446615,0.33884887,-0.2463816,0.449603,0.30474959,-0.21964118,0.433897,0.2759789,-0.22284432,0.424734,0.27485943,-0.23948632,0.430451,0.33457133,-0.2544326,0.436863,0.3146789,-0.22874005,0.430501,0.30420177,-0.24148333,0.442965,0.29755903,-0.2561149,0.450514,0.32479274,-0.26965799,0.423582,0.29628803,-0.25132758,0.417023,0.29250819,-0.26718638,0.426479,0.29551385,-0.28181152,0.432454
0.28306373,-0.30673932,0.467847,0.31288508,-0.2755479,0.458629,0.29168836,-0.29463872,0.478691,0.30530155,-0.2737178,0.483196,0.31876382,-0.26366641,0.49134,0.3299911,-0.24919191,0.487458,0.34118437,-0.24045314,0.466467,0.30847581,-0.21535657,0.450091,0.28834916,-0.22276878,0.441903,0.29217229,-0.24110955,0.447071,0.33874853,-0.24638306,0.449931,0.30463548,-0.21972121,0.4343,0.27590287,-0.22300391,0.425182,0.27457932,-0.23978978,0.430955,0.33403303,-0.25426728,0.437215,0.3148134,-0.22883782,0.430685,0.30435354,-0.24160381,0.443186,0.29775916,-0.25628716,0.450817,0.3246676,-0.26952356,0.423946,0.29617778,-0.2512182,0.417425,0.2925279,-0.26716926,0.426919,0.29537881,-0.28181665,0.432895
0.28311554,-0.30716423,0.468479,0.31269031,-0.27569733,0.459078,0.29160614,-0.29501617,0.479248,0.30536537,-0.27391456,0.483615,0.31872067,-0.26383263,0.491622,0.32987956,-0.24932491,0.487649,0.34106971,-0.24045935,0.4667,0.30822002,-0.2153213,0.450179,0.28807127,-0.22272137,0.441919,0.29154194,-0.24068655,0.447048,0.33869564,-0.24640048,0.450207,0.3044156,-0.21968442,0.434411,0.27563678,-0.22295469,0.425196,0.27398518,-0.23976219,0.430929,0.33405033,-0.25431448,0.437546,0.31482436,-0.22884579,0.4307,0.30435628,-0.24160599,0.44319,0.29784304,-0.25635935,0.450944,0.32451041,-0.26947983,0.424372,0.29584591,-0.25119935,0.417709,0.29224461,-0.26718342,0.427197,0.29518594,-0.28186032,0.433221
0.27568737,-0.29962603,0.45694,0.30846148,-0.27242023,0.453684,0.28517986,-0.28908435,0.469531,0.3009576,-0.27013487,0.47693,0.31335044,-0.26945013,0.489197,0.32512053,-0.25995036,0.487355,0.34159256,-0.24101812,0.467685,0.31245138,-0.21850965,0.456124,0.29338959,-0.22697192,0.450343,0.29747707,-0.24572495,0.457098,0.33880053,-0.24667753,0.450612,0.30842109,-0.22271775,0.44036,0.28142165,-0.22777017,0.43438,0.28029539,-0.2458146,0.441775,0.33333155,-0.25397871,0.436873,0.31700964,-0.2305245,0.433455,0.30657338,-0.2432603,0.446329,0.29874329,-0.25718184,0.452852,0.32168399,-0.26741654,0.421377,0.29625595,-0.25192203,0.419065,0.2929694,-0.26824316,0.429018,0.29637015,-0.28337741,0.435685
0.28154243,-0.30652216,0.467414,0.31136109,-0.27543733,0.458772,0.29018909,-0.2947427,0.478639,0.30422487,-0.27320845,0.482347,0.31424079,-0.27021575,0.490587,0.32416322,-0.25918495,0.48592,0.34128239,-0.24095142,0.467476,0.30887463,-0.21601972,0.451558,0.28886031,-0.22357737,0.4436,0.29145165,-0.24088391,0.448772,0.33864447,-0.24672459,0.450617,0.30491394,-0.22029814,0.435537,0.27633935,-0.22376391,0.42674,0.2738589,-0.240689,0.432532,0.33370599,-0.25443355,0.437579,0.31467531,-0.2288867,0.430108,0.30390841,-0.24107576,0.44239,0.29682904,-0.25556564,0.450313,0.32302254,-0.26881445,0.423835,0.29485884,-0.25110715,0.417863,0.29125485,-0.26706847,0.427265,0.29406213,-0.28155419,0.433013
0.28214401,-0.30758648,0.469109,0.31151455,-0.27588336,0.459564,0.29047772,-0.295444,0.479827,0.30468092,-0.27380571,0.483454,0.31775069,-0.26550199,0.491584,0.32870777,-0.25185837,0.487443,0.34056315,-0.24074037,0.467025,0.31081166,-0.21488375,0.45039,0.29132219,-0.21700685,0.442072,0.29016295,-0.23941224,0.447165,0.33823234,-0.24668988,0.450557,0.30399974,-0.21979285,0.434631,0.27517286,-0.22295349,0.425341,0.27262387,-0.23978014,0.431037,0.3336245,-0.25461297,0.43793,0.31494618,-0.22873151,0.429636,0.30422179,-0.24070782,0.442044,0.29707036,-0.25522609,0.45035,0.32344434,-0.26938412,0.424821,0.29471771,-0.25113592,0.418053,0.29114383,-0.26714336,0.427531,0.294136,-0.28184202,0.433588
0.28160453,-0.30740813,0.468909,0.31119913,-0.2759145,0.459665,0.29011754,-0.2954864,0.479945,0.30465177,-0.27396739,0.483792,0.31735419,-0.26563373,0.491259,0.32778605,-0.25175983,0.48627,0.34068775,-0.2411257,0.467731,0.31169503,-0.21425546,0.451337,0.29202533,-0.21753063,0.443139,0.29055247,-0.23932563,0.448144,0.33815445,-0.2468988,0.450942,0.3042058,-0.22009727,0.435326,0.27547869,-0.22333574,0.426217,0.27284105,-0.24014813,0.431837,0.33334496,-0.25464124,0.438021,0.31478559,-0.22835186,0.428788,0.30387523,-0.23997291,0.440941,0.29668818,-0.25448755,0.449524,0.32288301,-0.2691351,0.424516,0.29448989,-0.25109084,0.41812,0.29080678,-0.26701081,0.427465,0.2936515,-0.28159487,0.43334
0.28202119,-0.30801485,0.470028,0.31140877,-0.27617272,0.460332,0.29014054,-0.29575021,0.480607,0.30496468,-0.27432973,0.484632,0.31890781,-0.26371932,0.492413,0.33017431,-0.249024,0.488238,0.34013124,-0.24086931,0.467515,0.31188032,-0.21273486,0.450761,0.29134692,-0.21613542,0.442384,0.29004576,-0.23376424,0.447503,0.33807258,-0.24689866,0.451183,0.30406641,-0.21993527,0.435107,0.27525235,-0.22304248,0.425729,0.27262507,-0.23987565,0.431446,0.33369869,-0.25489544,0.438682,0.31674971,-0.22852257,0.428572,0.30578928,-0.23932086,0.440962,0.29736611,-0.25447196,0.449993,0.32381109,-0.26977736,0.425747,0.29513913,-0.25144009,0.418807,0.29144168,-0.26739989,0.428336,0.29416997,-0.28215237,0.434472
0.28196381,-0.30810423,0.470358,0.31142473,-0.27625925,0.460713,0.28991421,-0.29576025,0.480857,0.30509525,-0.27452823,0.485183,0.31944931,-0.2632007,0.49293,0.33100707,-0.24827442,0.48887,0.33995952,-0.24088517,0.467827,0.31270519,-0.2116575,0.451113,0.29150188,-0.21580413,0.442757,0.28972313,-0.23347237,0.447963,0.3381318,-0.24700153,0.451612,0.30439942,-0.22011503,0.435564,0.2756479,-0.22325324,0.426203,0.2730075,-0.24012974,0.432002,0.33394516,-0.2550677,0.439202,0.31750697,-0.22854518,0.428909,0.30663559,-0.2393803,0.441384,0.29801218,-0.25454701,0.450524,0.32427294,-0.27003101,0.426365,0.295718,-0.25172924,0.419394,0.2919324,-0.2676563,0.428995,0.29439449,-0.28242813,0.435171
0.28205391,-0.30820807,0.470677,0.31152634,-0.27629539,0.460976,0.28983321,-0.29576113,0.481075,0.30533688,-0.27469434,0.485651,0.32012432,-0.26261219,0.493256,0.33191922,-0.24742364,0.48924,0.33982173,-0.24078948,0.467924,0.31231272,-0.21138814,0.451167,0.29112541,-0.21544252,0.442788,0.28912091,-0.23314712,0.44804,0.33820855,-0.24699949,0.451822,0.3044879,-0.22032999,0.43571,0.27578075,-0.22357332,0.426312,0.27319934,-0.24045806,0.432152,0.33420298,-0.25514582,0.43951,0.316751,-0.22856446,0.429534,0.30607644,-0.24009385,0.442102,0.29852315,-0.25462001,0.451151,0.32475257,-0.27021418,0.426798,0.29625788,-0.25191252,0.41973,0.29237122,-0.26779225,0.429382,0.29457895,-0.28259118,0.435612
0.28231749,-0.30848208,0.471271,0.31191706,-0.27657922,0.461662,0.29002007,-0.2960199,0.481724,0.30614816,-0.27536281,0.487014,0.32263524,-0.26037152,0.494346,0.33508822,-0.2441512,0.49033,0.34020582,-0.24106392,0.46874,0.30740019,-0.2161008,0.452055,0.28718018,-0.2233328,0.443712,0.29011582,-0.23929044,0.448972,0.33870423,-0.24730266,0.452594,0.30507576,-0.2209061,0.436568,0.27643604,-0.22431245,0.42722,0.27388266,-0.24121087,0.433069,0.33477766,-0.25546341,0.440238,0.3160297,-0.22909415,0.429999,0.3053223,-0.24083135,0.442534,0.29870977,-0.25505279,0.451676,0.32540168,-0.27053243,0.427457,0.29708525,-0.25233304,0.420471,0.29304909,-0.26813623,0.430115,0.29494243,-0.2829132,0.436313
0.28236288,-0.30851765,0.471501,0.31202731,-0.27661431,0.461933,0.28989712,-0.29596257,0.481859,0.30634131,-0.2754751,0.487394,0.32282424,-0.26020222,0.494742,0.3353957,-0.24391906,0.490945,0.34012592,-0.24100958,0.468917,0.30735003,-0.21633206,0.452266,0.28709499,-0.22337128,0.44394,0.28969915,-0.23945692,0.449291,0.33885413,-0.24735333,0.452904,0.30529392,-0.22121476,0.436897,0.27672394,-0.22475391,0.42756,0.27425634,-0.24169127,0.433496,0.33511507,-0.25559992,0.440654,0.31633455,-0.22956577,0.430576,0.30570367,-0.24141608,0.443224,0.29899204,-0.25556766,0.452346,0.32595494,-0.27077092,0.42799,0.29773356,-0.25260114,0.420958,0.29361219,-0.26837463,0.430679,0.29524481,-0.28317654,0.436924
0.27450323,-0.2995439,0.458537,0.30874809,-0.27333533,0.457165,0.28387885,-0.28957209,0.471991,0.30342776,-0.27256695,0.482995,0.32158107,-0.25906642,0.495189,0.33586358,-0.24446733,0.493154,0.34327827,-0.24224361,0.473513,0.31493438,-0.2199737,0.463518,0.29641347,-0.22239013,0.45852,0.29715845,-0.24387909,0.46545,0.34060836,-0.24742149,0.455871,0.30840703,-0.22406031,0.447425,0.29162617,-0.24079047,0.443232,0.30248231,-0.25689406,0.451226,0.33571302,-0.25424839,0.441481,0.31469614,-0.22839051,0.438873,0.30813543,-0.2270464,0.45142,0.29320417,-0.23083163,0.457485,0.32226949,-0.26106265,0.424898,0.29919707,-0.24546598,0.424184,0.29703974,-0.2685688,0.433963,0.29714913,-0.2842456,0.439471
0.27862278,-0.303483,0.465354,0.31128193,-0.27506509,0.460934,0.28727875,-0.29267189,0.477645,0.30451793,-0.27306258,0.484626,0.32254836,-0.258303,0.496324,0.33687109,-0.24449664,0.494491,0.3432432,-0.24208917,0.473784,0.31320389,-0.21883775,0.461268,0.29398021,-0.22074501,0.45501,0.29422576,-0.24152575,0.461453,0.34119808,-0.24756808,0.456763,0.31027583,-0.22556926,0.450265,0.3067036,-0.25340105,0.466237,0.31938378,-0.27131438,0.476528,0.33684197,-0.25467473,0.443181,0.31671521,-0.23002589,0.441698,0.31033482,-0.22895609,0.45464,0.29507517,-0.23267891,0.460408,0.32474538,-0.26307216,0.428069,0.29982877,-0.24616066,0.424948,0.29776868,-0.26844695,0.434814,0.29773688,-0.28391337,0.439907
0.30051252,-0.32270364,0.489398,0.32962516,-0.28534326,0.474751,0.32683057,-0.31611835,0.501558,0.32354765,-0.2898046,0.49978,0.32457347,-0.27144551,0.505966,0.32581776,-0.25178559,0.499179,0.34933215,-0.24610391,0.480701,0.31671255,-0.22167848,0.468306,0.29322675,-0.22219054,0.462108,0.28942233,-0.23922089,0.464854,0.34414978,-0.24949515,0.460928,0.3007847,-0.2199308,0.447134,0.29405794,-0.24378864,0.456636,0.31004528,-0.26344355,0.464609,0.33637427,-0.25270019,0.446076,0.30382748,-0.22325347,0.438963,0.28702069,-0.21006034,0.435324,0.27635778,-0.20141841,0.439665,0.31850824,-0.26446987,0.43125,0.28389291,-0.24684123,0.423534,0.27782315,-0.25358413,0.429352,0.27247787,-0.2593989,0.434323
0.32134682,-0.32754824,0.490006,0.33366739,-0.28480608,0.476148,0.33142984,-0.3179762,0.502408,0.32577522,-0.29174783,0.501385,0.32428156,-0.2750322,0.508232,0.32366593,-0.2554783,0.501953,0.3520956,-0.24599461,0.482927,0.31537271,-0.22249697,0.471615,0.29418108,-0.22500271,0.465959,0.29197724,-0.24271524,0.46915,0.34539579,-0.24148766,0.463069,0.29744555,-0.22861825,0.449958,0.30007524,-0.25610093,0.459703,0.31544753,-0.26762478,0.468085,0.33807203,-0.24463245,0.448071,0.30576375,-0.22198491,0.441482,0.28835186,-0.20982981,0.438111,0.27711599,-0.20213794,0.442736,0.32798287,-0.25617481,0.432937,0.29154605,-0.24392955,0.425734,0.28587932,-0.25310509,0.431712,0.27727654,-0.26082101,0.436565
0.32276066,-0.32736717,0.489207,0.33443303,-0.2840144,0.475464,0.3322547,-0.31787925,0.50153,0.32397162,-0.28984655,0.497618,0.32083226,-0.27784137,0.505324,0.31749682,-0.25924615,0.498655,0.3520682,-0.24512628,0.482218,0.31981134,-0.22170616,0.475019,0.29970806,-0.22083056,0.471419,0.29669571,-0.24196412,0.476007,0.34559391,-0.24142841,0.462494,0.29780907,-0.22825518,0.449387,0.30043478,-0.25584084,0.459416,0.3164577,-0.26812249,0.467982,0.33830636,-0.24459515,0.447596,0.30609983,-0.2209324,0.441067,0.28831365,-0.20947214,0.437726,0.27669111,-0.2027818,0.442549,0.32819522,-0.25612802,0.432558,0.29182816,-0.24364311,0.425315,0.28620856,-0.25285882,0.431466,0.27858703,-0.26065059,0.4364
0.32212924,-0.32670402,0.487817,0.33460995,-0.28368473,0.475286,0.33137907,-0.31774354,0.500465,0.3234916,-0.28954538,0.496962,0.32130887,-0.27955975,0.505926,0.31878207,-0.26546089,0.500018,0.35289115,-0.24554705,0.483255,0.3220682,-0.22242996,0.478291,0.30286585,-0.22249588,0.47581,0.30025715,-0.24321584,0.48128,0.34644133,-0.24200102,0.46346,0.29983814,-0.22866012,0.451379,0.30236306,-0.25658555,0.461825,0.31862246,-0.26957746,0.470299,0.33935177,-0.24467749,0.448385,0.30881933,-0.21927828,0.44277,0.29094766,-0.20874609,0.439897,0.27929704,-0.20336671,0.445218,0.32924168,-0.25549962,0.432931,0.29353782,-0.24322184,0.426446,0.28841303,-0.25317796,0.43287,0.28375447,-0.26163258,0.437643
0.32190466,-0.32646261,0.487217,0.33477889,-0.28354079,0.475269,0.33094723,-0.3177511,0.499967,0.3235243,-0.28965159,0.497061,0.32183894,-0.28067608,0.506686,0.31981608,-0.26696268,0.501383,0.35330093,-0.24572383,0.483752,0.32305731,-0.22269474,0.47972,0.30419327,-0.22325126,0.477704,0.30185284,-0.243681,0.483617,0.34690219,-0.24231334,0.463993,0.30084813,-0.22885787,0.452367,0.30337964,-0.25699979,0.463108,0.31990439,-0.27041031,0.471604,0.33995735,-0.24477954,0.44889,0.31000418,-0.2193148,0.443662,0.29234113,-0.20881904,0.440987,0.28072168,-0.203613,0.446594,0.32990549,-0.2552969,0.433304,0.29447882,-0.24308169,0.427136,0.28963348,-0.25343924,0.433747,0.28527375,-0.26225043,0.438481
0.32114725,-0.32509678,0.484857,0.33501351,-0.28326937,0.475261,0.33036871,-0.31715648,0.498265,0.32321673,-0.29009012,0.497154,0.31655473,-0.28912114,0.509034,0.31204276,-0.27688922,0.505697,0.35517599,-0.2459839,0.486135,0.32141687,-0.22813594,0.485407,0.30412976,-0.23293217,0.485042,0.30671579,-0.25016027,0.49221,0.34807961,-0.24299474,0.466205,0.30322062,-0.23077498,0.456646,0.3063784,-0.25949358,0.46796,0.3239473,-0.27333082,0.476248,0.34097259,-0.24490673,0.450732,0.31310847,-0.21860648,0.447355,0.29591516,-0.20889375,0.445626,0.28356112,-0.20589211,0.452074,0.33115602,-0.25289849,0.434307,0.29684012,-0.24199782,0.429689,0.29172136,-0.25464762,0.436685,0.28746413,-0.26365488,0.441023
0.32257279,-0.32611278,0.486142,0.33576798,-0.28357193,0.476088,0.33172049,-0.31842623,0.499712,0.32689938,-0.29325565,0.502697,0.3248404,-0.2816293,0.513101,0.3235161,-0.2643902,0.510338,0.35531559,-0.24633461,0.48687,0.32189892,-0.22847809,0.486135,0.30458497,-0.23328082,0.485768,0.30668879,-0.25070706,0.492507,0.34805828,-0.24288608,0.4666,0.30361583,-0.2229963,0.456869,0.3021756,-0.25012568,0.467483,0.32034707,-0.27038212,0.474336,0.34084223,-0.24441181,0.450893,0.31260146,-0.21800171,0.447457,0.29520718,-0.20853849,0.445699,0.28289519,-0.20556451,0.451696,0.33080595,-0.25201725,0.434272,0.29640093,-0.24149963,0.429629,0.29147967,-0.25402642,0.436198,0.28740096,-0.2631936,0.44038
0.32196535,-0.32537505,0.485111,0.33636617,-0.28399942,0.477431,0.33132597,-0.31829898,0.49926,0.32941231,-0.29807493,0.511252,0.31669177,-0.28292533,0.517005,0.31487216,-0.2666798,0.518288,0.35478354,-0.2476512,0.490518,0.3232688,-0.23040796,0.490829,0.30616365,-0.23554846,0.490985,0.30852467,-0.25657774,0.498351,0.34756621,-0.24246582,0.470184,0.30471347,-0.22534347,0.462506,0.30519737,-0.25370517,0.473758,0.32065249,-0.27086982,0.480068,0.34053836,-0.24235976,0.454192,0.31269897,-0.21773279,0.452566,0.29160521,-0.20807772,0.451735,0.28282238,-0.20713646,0.458602,0.33036025,-0.24973794,0.436828,0.29659225,-0.24148458,0.433702,0.28925357,-0.25155325,0.440695,0.28380823,-0.26430393,0.444507
0.32151424,-0.32504476,0.484672,0.33612439,-0.2839195,0.477783,0.33088332,-0.31827916,0.499033,0.32553885,-0.29826783,0.512117,0.3136159,-0.28308944,0.516157,0.31125793,-0.2680383,0.517922,0.35143635,-0.24734132,0.491661,0.32045446,-0.23103191,0.493334,0.30375416,-0.23660124,0.494171,0.3083934,-0.25749193,0.501999,0.34423582,-0.24159636,0.471282,0.30227725,-0.22582042,0.464313,0.30328543,-0.25442649,0.475703,0.32102959,-0.27099189,0.482034,0.33722823,-0.24101301,0.455176,0.30936769,-0.21693465,0.454182,0.29238672,-0.20788655,0.453674,0.28074752,-0.20398372,0.460792,0.32708507,-0.24780254,0.437541,0.29363355,-0.24036834,0.434949,0.2891616,-0.25231985,0.442038,0.28420653,-0.26430112,0.445699
