sluyters/QuantumLeap/backend/src/datasets/dynamic/HandGestureDataset_SHREC2017_csv/Gesture5/finger_1/subject_2_essai_2_skeletons_world.csv
Wrist_x,Wrist_y,Wrist_z,Palm_x,Palm_y,Palm_z,thumb_base_x,thumb_base_y,thumb_base_z,thumb_first_joint_x,thumb_first_joint_y,thumb_first_joint_z,thumb_second_joint_x,thumb_second_joint_y,thumb_second_joint_z,thumb_tip_x,thumb_tip_y,thumb_tip_z,index_base_x,index_base_y,index_base_z,index_first_joint_x,index_first_joint_y,index_first_joint_z,index_second_joint_x,index_second_joint_y,index_second_joint_z,index_tip_x,index_tip_y,index_tip_z,middle_base_x,middle_base_y,middle_base_z,middle_first_joint_x,middle_first_joint_y,middle_first_joint_z,middle_second_joint_x,middle_second_joint_y,middle_second_joint_z,middle_tip_x,middle_tip_y,middle_tip_z,ring_base_x,ring_base_y,ring_base_z,ring_first_joint_x,ring_first_joint_y,ring_first_joint_z,ring_second_joint_x,ring_second_joint_y,ring_second_joint_z,ring_tip_x,ring_tip_y,ring_tip_z,pinky_base_x,pinky_base_y,pinky_base_z,pinky_first_joint_x,pinky_first_joint_y,pinky_first_joint_z,pinky_second_joint_x,pinky_second_joint_y,pinky_second_joint_z,pinky_tip_x,pinky_tip_y,pinky_tip_z,
0.33671699,-0.29757672,0.435845,0.34245263,-0.25680926,0.430019,0.319635,-0.28641781,0.437478,0.29534148,-0.2766747,0.428028,0.26516931,-0.25801202,0.415381,0.24928426,-0.23731569,0.406444,0.32627976,-0.21640662,0.428189,0.30098674,-0.19909128,0.417272,0.2872773,-0.18990034,0.411814,0.29448403,-0.21099231,0.425794,0.34643349,-0.21648593,0.42447,0.32007174,-0.18552082,0.410392,0.32750586,-0.18875738,0.437288,0.32685753,-0.21141982,0.450823,0.36329983,-0.22109014,0.422035,0.33891006,-0.20213487,0.410686,0.35023101,-0.21477407,0.431888,0.36175488,-0.23937434,0.44494,0.38334572,-0.23486803,0.420304,0.35221002,-0.21649057,0.408635,0.34877682,-0.23758814,0.424816,0.35087071,-0.25563642,0.435197
0.33630893,-0.29777506,0.435259,0.34211338,-0.25658744,0.429641,0.31942553,-0.28659867,0.436833,0.29458478,-0.27625724,0.427361,0.26417868,-0.25735299,0.4145,0.24817647,-0.23654778,0.405363,0.32613459,-0.21618944,0.427875,0.30084032,-0.19899442,0.417069,0.28717336,-0.18983163,0.411665,0.29442178,-0.21094771,0.425704,0.34635102,-0.21637517,0.42429,0.32000283,-0.18552905,0.41041,0.32734522,-0.18881008,0.437361,0.32655845,-0.21146992,0.450841,0.36325532,-0.22106138,0.421943,0.33920959,-0.19598987,0.410727,0.34828971,-0.20271639,0.431693,0.3564116,-0.22545767,0.445522,0.38330261,-0.2349288,0.420275,0.35217516,-0.21650383,0.408725,0.34827597,-0.23701273,0.424941,0.34694437,-0.2544466,0.435294
0.33682495,-0.29885084,0.436395,0.34001503,-0.25283809,0.430414,0.31958883,-0.28721555,0.437312,0.29202959,-0.27497535,0.426821,0.26068658,-0.25180171,0.419435,0.24523146,-0.23097452,0.409361,0.32511461,-0.21564496,0.427548,0.29898382,-0.19878469,0.415926,0.28508149,-0.18988886,0.410115,0.29233317,-0.21123133,0.42396,0.34589882,-0.21622703,0.424718,0.3189819,-0.18509519,0.410286,0.32617465,-0.18835662,0.437279,0.32543501,-0.21109779,0.450973,0.36335865,-0.22127718,0.423032,0.33772675,-0.19540306,0.411114,0.34648543,-0.20197359,0.43193,0.35495956,-0.22497757,0.446386,0.38299984,-0.23272429,0.422199,0.35079606,-0.21848569,0.410084,0.34726208,-0.23656074,0.426307,0.34364864,-0.25332436,0.436862
0.33652975,-0.29909534,0.436384,0.33986461,-0.25306282,0.430323,0.3198728,-0.28785779,0.437905,0.29253279,-0.27559416,0.42823,0.26221703,-0.25227638,0.422566,0.24723708,-0.22987452,0.416451,0.32514354,-0.2157383,0.428189,0.29923678,-0.19945908,0.417,0.28546482,-0.19086363,0.411405,0.29280635,-0.21247068,0.425299,0.3452942,-0.21592078,0.424551,0.31836716,-0.1848192,0.410199,0.32535585,-0.1880006,0.437069,0.32450241,-0.21069829,0.450695,0.36216997,-0.22063419,0.422208,0.33850179,-0.20224652,0.410599,0.3485392,-0.21396621,0.431778,0.35890237,-0.23998454,0.444927,0.38142469,-0.23207221,0.420628,0.34907538,-0.2175611,0.40874,0.34438502,-0.23403957,0.4249,0.34085032,-0.2511928,0.43535
0.33535016,-0.29861926,0.434834,0.33970228,-0.25326206,0.429614,0.31916809,-0.28756394,0.436588,0.29339857,-0.27544716,0.427488,0.26303446,-0.25264996,0.420078,0.24752522,-0.23053887,0.413365,0.32552309,-0.21567155,0.428355,0.30037456,-0.20004744,0.418005,0.28690675,-0.1917673,0.41283,0.29453452,-0.21367739,0.427013,0.34561426,-0.21582206,0.424643,0.3224659,-0.18032693,0.411228,0.33051162,-0.17968082,0.437806,0.32968412,-0.20011754,0.451999,0.36235769,-0.22046109,0.422149,0.3394536,-0.20111249,0.411372,0.3494509,-0.21402891,0.432649,0.36039302,-0.23932299,0.445501,0.38128588,-0.23202284,0.420236,0.34944718,-0.2176704,0.409056,0.34578461,-0.23478182,0.425307,0.34104558,-0.25087036,0.435543
0.3340699,-0.29710372,0.433166,0.33875535,-0.24860538,0.429517,0.3180877,-0.2859964,0.434761,0.2939928,-0.26092591,0.425914,0.26587495,-0.2369284,0.416874,0.25210303,-0.21352229,0.411069,0.32737136,-0.20681957,0.429118,0.30310037,-0.19838667,0.419852,0.28904393,-0.1924268,0.415219,0.2972004,-0.21489253,0.429857,0.34798293,-0.20715597,0.426043,0.3248113,-0.17246908,0.414219,0.33281415,-0.17056215,0.440856,0.33202473,-0.19048304,0.455208,0.36505993,-0.2118394,0.423904,0.34108379,-0.19575832,0.414318,0.35046351,-0.2029412,0.435828,0.35732059,-0.2249377,0.448292,0.38251613,-0.22886944,0.422107,0.35245397,-0.20947566,0.411976,0.34889213,-0.22510646,0.428435,0.34340236,-0.24113429,0.438382
0.33378484,-0.29683318,0.433761,0.33765035,-0.2466832,0.428351,0.31693764,-0.28341329,0.436068,0.28201203,-0.24500226,0.427692,0.25288235,-0.2153735,0.418219,0.24059913,-0.19388691,0.406921,0.32471922,-0.20449087,0.427683,0.30223113,-0.19213875,0.417648,0.29057913,-0.18197901,0.41263,0.29402785,-0.2063785,0.426806,0.34176227,-0.20606292,0.423199,0.31906992,-0.18384873,0.409744,0.33555881,-0.18555521,0.436572,0.33855836,-0.20757785,0.44986,0.35886436,-0.2115787,0.420089,0.34202752,-0.19685751,0.409506,0.35600101,-0.20016218,0.430666,0.35926824,-0.22456276,0.443392,0.37854301,-0.22869405,0.417497,0.34767671,-0.20819257,0.406449,0.34411036,-0.22228802,0.422609,0.33851053,-0.23784441,0.432763
0.33624418,-0.2989136,0.437712,0.33877274,-0.24624508,0.429524,0.31766994,-0.28327973,0.438078,0.28014817,-0.24342219,0.426183,0.24823533,-0.21228259,0.413233,0.2358513,-0.19021973,0.400058,0.32111407,-0.20051522,0.42444,0.30836993,-0.18529498,0.407847,0.30175115,-0.17771571,0.399551,0.31198108,-0.20074052,0.41177,0.34355917,-0.20484957,0.421725,0.32891811,-0.18291058,0.40457,0.34975927,-0.18467672,0.431152,0.35287725,-0.20651004,0.445701,0.36067035,-0.21337388,0.420372,0.34629261,-0.19554163,0.405631,0.36418315,-0.20247697,0.426551,0.3617238,-0.22368857,0.44086,0.38190689,-0.23278368,0.420341,0.35691328,-0.21418367,0.406413,0.35497284,-0.22678997,0.422358,0.34401089,-0.23895253,0.433442
0.33281558,-0.29411221,0.437788,0.33627433,-0.24300103,0.429061,0.31265618,-0.2747923,0.438538,0.27929195,-0.23261291,0.42937,0.25432338,-0.20785869,0.423929,0.24492967,-0.18367153,0.417477,0.31829951,-0.1947047,0.424113,0.30731407,-0.18190286,0.406824,0.30148781,-0.17065774,0.398179,0.31111912,-0.19647571,0.410086,0.34157701,-0.2030305,0.42075,0.32647857,-0.18081466,0.402456,0.34763126,-0.18299821,0.428798,0.35099816,-0.20515061,0.443684,0.35947266,-0.21073085,0.41892,0.34229378,-0.19457203,0.403314,0.3614094,-0.20006488,0.424055,0.35659429,-0.22126621,0.438641,0.37957839,-0.22965544,0.418437,0.35428671,-0.21107711,0.404314,0.35208809,-0.22389473,0.42014,0.34150702,-0.23668448,0.431248
0.33172079,-0.29324375,0.438131,0.33546625,-0.24222548,0.428584,0.31179475,-0.2739453,0.439047,0.28105943,-0.23205215,0.431042,0.26178992,-0.20518581,0.427785,0.24994865,-0.1824652,0.420121,0.32003284,-0.19574657,0.423294,0.30613859,-0.18040637,0.405092,0.29918448,-0.17237093,0.395991,0.30813934,-0.19484521,0.407504,0.34108583,-0.20200157,0.419491,0.32458919,-0.18017022,0.400334,0.34490322,-0.18281422,0.426423,0.34756939,-0.20523246,0.441542,0.35837018,-0.21014925,0.417388,0.34066109,-0.19411128,0.401104,0.35841218,-0.1998582,0.42165,0.3531094,-0.22222633,0.436434,0.37820109,-0.23061241,0.416742,0.35190128,-0.21051663,0.40213,0.34941313,-0.22263597,0.417799,0.34309106,-0.2340712,0.429017
0.32946701,-0.29126704,0.436362,0.33333731,-0.24019541,0.424948,0.31091428,-0.27247939,0.438049,0.28430414,-0.22953903,0.430854,0.27334502,-0.20495781,0.431425,0.26797416,-0.18130946,0.427271,0.32839319,-0.19353528,0.419395,0.3030227,-0.17597591,0.399017,0.29400787,-0.16871456,0.388829,0.3010801,-0.19028986,0.399285,0.34685795,-0.2008144,0.414077,0.32013605,-0.17762684,0.394015,0.33867756,-0.18001244,0.419384,0.33762371,-0.20173814,0.434604,0.36125141,-0.21125192,0.410928,0.33662373,-0.19331093,0.394105,0.34981191,-0.1983592,0.4141,0.34585056,-0.21687011,0.428881,0.37449485,-0.22937369,0.409418,0.34478493,-0.20854343,0.393917,0.34082432,-0.21902819,0.409112,0.33550997,-0.22945058,0.42046
0.3271897,-0.28764199,0.436528,0.33333067,-0.23998343,0.424611,0.3107239,-0.27203873,0.438259,0.28572161,-0.22931897,0.43149,0.2746657,-0.20488245,0.432286,0.26989667,-0.18125253,0.428342,0.3272319,-0.19297161,0.418776,0.3021453,-0.17658842,0.39787,0.29267826,-0.16785835,0.387417,0.29889171,-0.18926188,0.397622,0.3455288,-0.2001549,0.413262,0.31892159,-0.17707574,0.392505,0.335094,-0.18040225,0.417678,0.33204217,-0.20177922,0.433088,0.35981424,-0.21054329,0.410006,0.3350448,-0.19280676,0.392451,0.34749225,-0.19774151,0.412286,0.34284518,-0.21849956,0.427299,0.37225353,-0.22856048,0.408466,0.34349037,-0.20831006,0.392651,0.3391245,-0.21873496,0.40773,0.33364806,-0.22884438,0.419143
0.36526001,-0.31595506,0.433465,0.36765299,-0.27425368,0.43498,0.36364784,-0.31868089,0.448208,0.35475577,-0.34882333,0.474822,0.35682338,-0.3724865,0.495588,0.35410989,-0.38318311,0.511161,0.36798053,-0.25187462,0.455212,0.32746114,-0.24736551,0.446059,0.30603239,-0.24513026,0.441482,0.30846624,-0.26782855,0.450444,0.36987497,-0.23672933,0.436423,0.32908424,-0.2315669,0.433763,0.31720537,-0.23901841,0.452429,0.31218526,-0.26170442,0.459251,0.37123644,-0.22838964,0.420787,0.33796814,-0.23068601,0.422733,0.32962551,-0.2395361,0.437635,0.3237271,-0.26256903,0.442802,0.3697304,-0.22612275,0.402354,0.34285513,-0.22960014,0.404179,0.3368833,-0.23756545,0.415925,0.32598446,-0.24080342,0.420571
0.3662249,-0.31834511,0.432539,0.36259905,-0.27356914,0.4297,0.36328269,-0.31868362,0.445697,0.35631492,-0.35165625,0.470682,0.35662165,-0.37430618,0.494635,0.35467963,-0.3842495,0.509954,0.35464863,-0.24624258,0.444911,0.30961518,-0.24753057,0.433059,0.30908858,-0.26602235,0.427133,0.32690359,-0.28881374,0.435889,0.35642715,-0.23448548,0.426997,0.31086826,-0.23367329,0.420936,0.29779138,-0.24615499,0.440352,0.29374362,-0.27183061,0.448638,0.35869786,-0.2294754,0.412551,0.32178943,-0.19946259,0.400563,0.30229535,-0.18356885,0.39443,0.29145198,-0.19672301,0.403064,0.36280704,-0.2320139,0.396316,0.33327303,-0.20855558,0.391921,0.31623914,-0.19787888,0.389902,0.30350733,-0.18845992,0.38903
0.37112094,-0.32272878,0.435388,0.37333395,-0.28395556,0.435383,0.37604853,-0.32694282,0.452329,0.37352033,-0.35768543,0.479526,0.36377377,-0.37958765,0.499854,0.35766439,-0.38480807,0.511777,0.37910666,-0.2576574,0.457447,0.33122991,-0.26372555,0.447577,0.32350015,-0.28079901,0.442642,0.33863249,-0.29884188,0.448144,0.37083087,-0.24357825,0.435379,0.32455693,-0.25737241,0.434995,0.30560344,-0.27426801,0.448566,0.30325386,-0.29850787,0.452965,0.36356325,-0.23430035,0.417208,0.31647525,-0.22838365,0.411157,0.3152669,-0.24796505,0.408061,0.33895421,-0.26283669,0.414654,0.35753367,-0.23636954,0.396117,0.32146175,-0.24562798,0.399217,0.30494739,-0.24988723,0.400663,0.29043828,-0.25367818,0.401997
0.37536636,-0.32549746,0.437584,0.3767089,-0.28494445,0.436889,0.38553844,-0.33010365,0.454331,0.3739301,-0.35752567,0.479471,0.36245318,-0.37781731,0.499442,0.35637745,-0.38255302,0.510251,0.38168314,-0.25813415,0.45823,0.33330684,-0.2639556,0.447691,0.32542254,-0.2808373,0.442422,0.34305744,-0.30063364,0.447798,0.37347949,-0.24406558,0.436227,0.32660705,-0.25754848,0.435024,0.30782896,-0.27458303,0.448662,0.30579517,-0.29905614,0.453378,0.36716934,-0.23706413,0.418184,0.31837977,-0.22848494,0.411109,0.31594388,-0.24767234,0.40749,0.33878759,-0.26343759,0.413845,0.36169939,-0.23560132,0.397371,0.3239792,-0.24609631,0.399839,0.30743587,-0.25075861,0.401021,0.29309741,-0.25517586,0.402113
0.37840299,-0.32789194,0.439463,0.37846168,-0.28614767,0.437955,0.38797291,-0.33192483,0.456197,0.37358138,-0.35778206,0.479456,0.35931052,-0.37619492,0.497425,0.35067917,-0.37755949,0.506635,0.38310178,-0.2588427,0.458725,0.33368355,-0.2639368,0.446976,0.32422957,-0.28005315,0.441102,0.33849977,-0.2989674,0.445828,0.37463509,-0.24471545,0.436518,0.32709535,-0.25773557,0.434574,0.30799415,-0.27443232,0.447697,0.30602242,-0.29891328,0.452519,0.36817001,-0.23772057,0.418393,0.31790482,-0.2325514,0.407249,0.31533072,-0.25053662,0.401547,0.33520153,-0.2621869,0.406376,0.36160417,-0.23785115,0.397638,0.32447883,-0.24649762,0.399626,0.30780139,-0.25112178,0.400539,0.29341636,-0.25557885,0.401375
0.36658062,-0.3187844,0.422774,0.36621445,-0.27799774,0.423187,0.37472932,-0.32162723,0.44011,0.37415315,-0.35574775,0.47009,0.36879261,-0.38345054,0.495553,0.36551011,-0.3915092,0.510557,0.37599774,-0.25560849,0.446047,0.34194639,-0.27129491,0.456257,0.34113652,-0.30065733,0.461362,0.35374206,-0.32961614,0.472289,0.3665121,-0.24254328,0.42358,0.31932526,-0.23338772,0.423981,0.29054659,-0.2277996,0.424215,0.28156762,-0.24823396,0.432222,0.35891112,-0.23631115,0.405035,0.3428474,-0.1897155,0.394544,0.3165658,-0.18758021,0.389176,0.30968243,-0.20742615,0.39389,0.35045909,-0.23708526,0.383431,0.32312249,-0.21233609,0.381105,0.31009999,-0.20053075,0.380065,0.29777142,-0.18717639,0.38007
0.36381544,-0.31739217,0.419088,0.36358448,-0.27965466,0.417205,0.3729983,-0.32041833,0.437158,0.38033289,-0.35232446,0.469031,0.36851447,-0.3807943,0.493015,0.36302681,-0.38837573,0.506727,0.37365393,-0.2515543,0.439463,0.33871013,-0.26986483,0.449631,0.33732295,-0.2955989,0.454714,0.34601282,-0.32248,0.462772,0.36131454,-0.23858867,0.415412,0.31308459,-0.24415897,0.414854,0.28321196,-0.24704101,0.414529,0.27744005,-0.2687349,0.419418,0.35212754,-0.23418348,0.395808,0.34361549,-0.18986393,0.39028,0.33945578,-0.16673753,0.387732,0.3356765,-0.14534303,0.385457,0.33955519,-0.23644831,0.373408,0.31234182,-0.20806943,0.370247,0.29906252,-0.19597929,0.368794,0.28714125,-0.18512044,0.367512
0.35880959,-0.31303031,0.414542,0.36042446,-0.27658024,0.413285,0.36994205,-0.31743575,0.432938,0.37879483,-0.3482521,0.466376,0.36850037,-0.37579375,0.490227,0.36153991,-0.38526341,0.504511,0.37431148,-0.24782124,0.436391,0.33894833,-0.26646252,0.447566,0.3346019,-0.2904985,0.453153,0.34464779,-0.31798728,0.460925,0.36016673,-0.23614939,0.412087,0.31132922,-0.22496434,0.412548,0.30034802,-0.24934197,0.412818,0.31455708,-0.26990217,0.4174,0.3486335,-0.23115564,0.392209,0.34021674,-0.18672215,0.385907,0.33608392,-0.16353749,0.382924,0.33233061,-0.14210061,0.380246,0.33544059,-0.23343864,0.369371,0.3086383,-0.20851732,0.368865,0.29592439,-0.19669395,0.368633,0.2864637,-0.18563406,0.36863
0.35821401,-0.31279965,0.413461,0.35963356,-0.27578048,0.412438,0.36952087,-0.31682014,0.431969,0.37853787,-0.34706188,0.465493,0.36843079,-0.37473812,0.489397,0.36119697,-0.38403061,0.503447,0.37349725,-0.24699604,0.43585,0.33755827,-0.2668826,0.447392,0.33546168,-0.2912183,0.453162,0.34433863,-0.31800814,0.460831,0.35909432,-0.23536017,0.411463,0.31078967,-0.22432913,0.412301,0.29969028,-0.24970076,0.412789,0.31394768,-0.27010429,0.417262,0.34735131,-0.23037649,0.391491,0.3389342,-0.18602558,0.385253,0.3347911,-0.16286446,0.382294,0.3310264,-0.14143997,0.379637,0.3339192,-0.23262759,0.368501,0.30702842,-0.20798566,0.368251,0.29427745,-0.19630015,0.368137,0.28280928,-0.18579013,0.368035
0.35576278,-0.31024555,0.410084,0.35527018,-0.2716253,0.407393,0.36711449,-0.31349922,0.428512,0.37990468,-0.33227435,0.462283,0.36917737,-0.35971565,0.484673,0.36044059,-0.36746402,0.49733,0.36417202,-0.23644815,0.429568,0.33138615,-0.26048029,0.440301,0.3293503,-0.28507814,0.445668,0.33699777,-0.3112779,0.451725,0.34842827,-0.22850053,0.40483,0.29811606,-0.2245856,0.404507,0.29432426,-0.2521104,0.404318,0.30728499,-0.26532509,0.407104,0.33611327,-0.22656975,0.384748,0.32787387,-0.1816137,0.374517,0.31683963,-0.15930486,0.369282,0.30272897,-0.14034244,0.364524,0.32291161,-0.23226488,0.361945,0.29962483,-0.20575018,0.363996,0.28910256,-0.19419845,0.364938,0.27974952,-0.18431351,0.365769
0.37674629,-0.31087795,0.422684,0.35877259,-0.25621744,0.404601,0.38062919,-0.29423172,0.435147,0.36025107,-0.31435928,0.454346,0.34198834,-0.34352194,0.460295,0.31981353,-0.35180765,0.459141,0.34060381,-0.21468962,0.408556,0.29132785,-0.21871529,0.401173,0.28031881,-0.23779947,0.397481,0.28367466,-0.2603854,0.400805,0.33636462,-0.21238971,0.387379,0.27642414,-0.20772946,0.367978,0.25575796,-0.22504727,0.356661,0.26550131,-0.2362959,0.356899,0.33542517,-0.21547499,0.37189,0.31804039,-0.16951548,0.362005,0.29758417,-0.15418267,0.356947,0.27811921,-0.14073826,0.35235,0.33875703,-0.22772099,0.357309,0.29450858,-0.20855432,0.346361,0.27438661,-0.19982306,0.341331,0.25597959,-0.19510234,0.336892
0.38053326,-0.29976819,0.41989,0.35333066,-0.25117024,0.397575,0.37686105,-0.29021724,0.429758,0.35398777,-0.27764716,0.431554,0.32961976,-0.27083383,0.42824,0.31443298,-0.25697363,0.422192,0.3305414,-0.20692484,0.395277,0.31011121,-0.15888558,0.373652,0.29210874,-0.13889906,0.36284,0.28304952,-0.12907086,0.367523,0.32755361,-0.20549797,0.376322,0.28762086,-0.15832829,0.351292,0.25186222,-0.16422672,0.33669,0.2470733,-0.18180893,0.336504,0.32813259,-0.20955978,0.363119,0.29726755,-0.16568343,0.342172,0.28108057,-0.14347168,0.331454,0.26631456,-0.12315131,0.321712,0.33414828,-0.22355895,0.351988,0.28571027,-0.20285548,0.336282,0.26402897,-0.19352683,0.329066,0.24469188,-0.18741181,0.322699
0.36711853,-0.25326621,0.393311,0.33262078,-0.21200918,0.384588,0.35521936,-0.26003279,0.40377,0.33750467,-0.28576513,0.417693,0.31373226,-0.30850115,0.422318,0.2957299,-0.31466921,0.424735,0.29603521,-0.19429397,0.392288,0.25214554,-0.18627197,0.37445,0.24924741,-0.20329565,0.365532,0.26803553,-0.22266511,0.373272,0.30106398,-0.17447185,0.376281,0.26006556,-0.17915288,0.358637,0.26592257,-0.20005646,0.348345,0.28770606,-0.21051191,0.356578,0.3087462,-0.16228722,0.36404,0.27351152,-0.16770987,0.347329,0.25463199,-0.17107931,0.338856,0.23687438,-0.17459222,0.331243,0.32415693,-0.15533554,0.351471,0.28769485,-0.14952716,0.34168,0.27090784,-0.14872548,0.337181,0.25614708,-0.14920597,0.333212
0.36402481,-0.25529653,0.390516,0.34313395,-0.21225915,0.382583,0.35420717,-0.25867261,0.400492,0.32088845,-0.24811612,0.403394,0.28987298,-0.24162112,0.39352,0.26699997,-0.2268627,0.386014,0.32186799,-0.18450718,0.39019,0.32950137,-0.1466356,0.401435,0.31689151,-0.13697145,0.407057,0.31355834,-0.15106028,0.422766,0.32454895,-0.17032837,0.375028,0.2794828,-0.17952706,0.362177,0.27018841,-0.20234403,0.354681,0.29326314,-0.21882365,0.364792,0.32921364,-0.16314357,0.363397,0.28927616,-0.16846647,0.356524,0.26841708,-0.17491546,0.353007,0.2494621,-0.18312866,0.349811,0.33919416,-0.16303467,0.351388,0.30073544,-0.14164022,0.343266,0.28245276,-0.14129374,0.339535,0.27486685,-0.15308463,0.336242
0.38450995,-0.27364372,0.421806,0.32539482,-0.22523,0.399235,0.34841514,-0.27071338,0.42457,0.33429149,-0.30436785,0.438665,0.31577946,-0.33130678,0.438597,0.29817388,-0.34242818,0.439501,0.27188893,-0.19766315,0.387509,0.23937098,-0.2056515,0.365764,0.25978739,-0.23354818,0.381229,0.28102369,-0.24087932,0.395987,0.28512016,-0.18396792,0.377738,0.25165175,-0.19883929,0.347837,0.28209945,-0.2295961,0.367137,0.30476087,-0.23439126,0.384531,0.300871,-0.17718381,0.372125,0.26420911,-0.18213011,0.34889,0.29144786,-0.20885036,0.364247,0.32097402,-0.22797567,0.379764,0.32784415,-0.17734636,0.369852,0.28342991,-0.17468776,0.348004,0.28625904,-0.18276008,0.337966,0.30267352,-0.18669891,0.341724
0.38055461,-0.27300157,0.420935,0.32511454,-0.2253279,0.397071,0.34741102,-0.27096226,0.42149,0.33458195,-0.30625375,0.432768,0.32025452,-0.3327,0.441869,0.30836226,-0.34412428,0.447544,0.26870582,-0.19622252,0.381591,0.24672796,-0.2120952,0.356935,0.2715941,-0.24009115,0.372757,0.30205285,-0.2544576,0.388807,0.28380187,-0.18328808,0.374343,0.24970498,-0.19554347,0.342389,0.28023833,-0.22684238,0.362213,0.30294308,-0.23305563,0.379994,0.30136835,-0.17713615,0.370946,0.27009721,-0.18214961,0.345185,0.29649501,-0.20904019,0.360916,0.32141356,-0.227066,0.377603,0.3309718,-0.1781477,0.37149,0.30363944,-0.14340777,0.346085,0.29191596,-0.14813979,0.334413,0.29582767,-0.16555343,0.337742
0.37325139,-0.27426213,0.419661,0.32388105,-0.22668764,0.39627,0.3458277,-0.2727899,0.420389,0.33044466,-0.3109179,0.43255,0.32194526,-0.33502801,0.444798,0.31451659,-0.34646409,0.454561,0.2682824,-0.19714904,0.381337,0.24070261,-0.2118803,0.357143,0.26339063,-0.24045324,0.373141,0.29819385,-0.2555245,0.389079,0.28317905,-0.18421252,0.373993,0.24629365,-0.19562078,0.342529,0.27673681,-0.22776951,0.362576,0.30174843,-0.23460822,0.38025,0.30051474,-0.17810046,0.370467,0.26109326,-0.17973646,0.345156,0.28719933,-0.20753122,0.361064,0.31614299,-0.22810406,0.377639,0.3297552,-0.17923845,0.370771,0.30203052,-0.14443564,0.345941,0.28534923,-0.15004416,0.334533,0.29235096,-0.16666353,0.338066
0.37396751,-0.27312903,0.41766,0.32310273,-0.22664153,0.394571,0.34508434,-0.27287611,0.418616,0.33292818,-0.3086394,0.432048,0.32685852,-0.33486717,0.446459,0.3158755,-0.34624535,0.455227,0.26870041,-0.19790456,0.380138,0.24272765,-0.21157134,0.356347,0.26338521,-0.24026398,0.372408,0.29668898,-0.25547358,0.388212,0.28271272,-0.18401348,0.372582,0.24455544,-0.19405762,0.341475,0.27316175,-0.22766045,0.361596,0.30011661,-0.23474086,0.379164,0.29970246,-0.17795518,0.368847,0.26028098,-0.17926864,0.343909,0.28591873,-0.20745083,0.359877,0.31447083,-0.22823043,0.376327,0.32850981,-0.17918891,0.368853,0.2998717,-0.14535435,0.34437,0.28447636,-0.15008292,0.333121,0.2901479,-0.16686147,0.336759
0.37137725,-0.27256803,0.415632,0.32184103,-0.22621807,0.392635,0.34443027,-0.27296093,0.417442,0.33304376,-0.30888751,0.431946,0.32548487,-0.33481921,0.445915,0.31671069,-0.34574892,0.455836,0.26849901,-0.19762446,0.379378,0.24307785,-0.21221812,0.356446,0.26620255,-0.24069692,0.372177,0.29655601,-0.25558961,0.38751,0.28164866,-0.18350288,0.370734,0.24308256,-0.19306673,0.340049,0.27125182,-0.22705765,0.359719,0.29607677,-0.23703848,0.376992,0.29825542,-0.17786241,0.366094,0.2588897,-0.17859806,0.341845,0.2839538,-0.2067329,0.357475,0.31192209,-0.22733986,0.373511,0.32564384,-0.18007823,0.36503,0.29623468,-0.14752943,0.341087,0.28195556,-0.15534493,0.330085,0.28522437,-0.1684372,0.333619
0.36924753,-0.27214884,0.413832,0.32079881,-0.2257664,0.39087,0.34381151,-0.27283471,0.416299,0.33336383,-0.30892607,0.432093,0.32828692,-0.33449028,0.447243,0.31782105,-0.3458388,0.457011,0.26848828,-0.19699264,0.378493,0.24296708,-0.21228451,0.356213,0.26436528,-0.24108953,0.371627,0.29576256,-0.25540932,0.386577,0.2813279,-0.18353524,0.369002,0.24158307,-0.19218726,0.338626,0.26918086,-0.22631487,0.357868,0.2941206,-0.23659583,0.374895,0.29676748,-0.17711863,0.363661,0.25735309,-0.17819615,0.339932,0.28120603,-0.20677898,0.35524,0.30829442,-0.22766251,0.370937,0.32436461,-0.17975016,0.361778,0.29365535,-0.15003506,0.338352,0.27928574,-0.15608453,0.327589,0.28267012,-0.1735686,0.331027
0.36654137,-0.27341011,0.413687,0.32042794,-0.22571808,0.390138,0.34359785,-0.27303258,0.415925,0.33258476,-0.30824103,0.431222,0.32371574,-0.33389588,0.444796,0.31421246,-0.34486079,0.454124,0.26784,-0.19601208,0.377064,0.2415429,-0.21107823,0.354196,0.26277853,-0.23976293,0.369407,0.29400739,-0.25425617,0.384508,0.2807002,-0.18289411,0.367711,0.23910919,-0.19059803,0.336719,0.2659508,-0.22570321,0.355704,0.29123887,-0.23972033,0.372874,0.29682974,-0.17683338,0.362546,0.25579964,-0.17697566,0.338245,0.27911893,-0.20558749,0.35335,0.30621277,-0.22683141,0.369196,0.32398349,-0.17976429,0.360978,0.29282572,-0.14987395,0.337133,0.27808774,-0.15587416,0.326178,0.2811501,-0.17320663,0.329392
0.35966739,-0.27198203,0.409011,0.31757425,-0.22731844,0.385856,0.34039397,-0.27341772,0.412007,0.3239886,-0.31496919,0.424759,0.31479042,-0.34017663,0.437481,0.3042385,-0.34938203,0.446558,0.26541437,-0.19541152,0.374037,0.23879091,-0.21048353,0.352158,0.25706503,-0.239417,0.36716,0.28937698,-0.25402439,0.381787,0.27811879,-0.18267038,0.363804,0.23417017,-0.18903327,0.333496,0.25441096,-0.22842085,0.352191,0.28377187,-0.24396311,0.369022,0.29285262,-0.17844382,0.357872,0.24928675,-0.17442885,0.334425,0.26754902,-0.20518566,0.349315,0.29703467,-0.22701923,0.364731,0.31701747,-0.18353505,0.35534,0.28681609,-0.14907044,0.331576,0.27142523,-0.15469473,0.320657,0.27412168,-0.17188409,0.323798
0.35524498,-0.26788642,0.399399,0.32152266,-0.22634826,0.378084,0.33855733,-0.26668194,0.403381,0.3140988,-0.25677878,0.394092,0.28587806,-0.24610408,0.401576,0.26998005,-0.23209659,0.406114,0.27451562,-0.19553212,0.368798,0.23944525,-0.20901286,0.349051,0.25835353,-0.23767106,0.364474,0.28865754,-0.2518343,0.378428,0.28136139,-0.18178458,0.357785,0.23262143,-0.18690232,0.329551,0.25661401,-0.22424575,0.348766,0.28230687,-0.2419637,0.36501,0.28963968,-0.17333856,0.351012,0.24261909,-0.17228862,0.32959,0.26404487,-0.20189295,0.344897,0.29412355,-0.22373408,0.359663,0.31177077,-0.17765634,0.347158,0.27212023,-0.14300152,0.324934,0.25143882,-0.13671297,0.314723,0.2390897,-0.14541412,0.305713
0.35171161,-0.26703383,0.39628,0.3142584,-0.2221873,0.375566,0.33441692,-0.26770429,0.400787,0.31193067,-0.25574951,0.392427,0.28427961,-0.24554335,0.400587,0.26875938,-0.23182661,0.40556,0.27283505,-0.19472921,0.367371,0.23869544,-0.20878491,0.348532,0.25694369,-0.23774774,0.363938,0.28640274,-0.25481357,0.377527,0.27910624,-0.18080487,0.355838,0.22359491,-0.1803145,0.328385,0.24494126,-0.21922703,0.347566,0.27522809,-0.24127192,0.363517,0.28724491,-0.17377345,0.348573,0.23656681,-0.16491799,0.327981,0.25504723,-0.19449358,0.343269,0.28127252,-0.21924638,0.357691,0.31016927,-0.17449136,0.344034,0.26892288,-0.14203949,0.322381,0.24844709,-0.13592484,0.312433,0.23627739,-0.14468246,0.303655
0.33096555,-0.25176502,0.371622,0.3193294,-0.2027004,0.355159,0.34215944,-0.24546748,0.384851,0.32494571,-0.22919669,0.393746,0.32217335,-0.20514525,0.406103,0.31470391,-0.18574251,0.40809,0.31130617,-0.16133286,0.361211,0.26691065,-0.17761856,0.355788,0.26518168,-0.20226876,0.362289,0.26740145,-0.2257841,0.367026,0.30109877,-0.15623728,0.339479,0.2431047,-0.16805013,0.322058,0.2338536,-0.19548046,0.329619,0.25217189,-0.22014175,0.338295,0.29484395,-0.15731704,0.323358,0.2438175,-0.15723961,0.314564,0.23862843,-0.18128912,0.320875,0.25624956,-0.20088947,0.326948,0.29139053,-0.16799333,0.30774,0.25304967,-0.13970822,0.298395,0.23579714,-0.12834372,0.29563,0.22107521,-0.13177047,0.29319
0.33167325,-0.25208401,0.371601,0.31928175,-0.20399823,0.355106,0.34243594,-0.24700266,0.385162,0.32601773,-0.23139379,0.395045,0.32284371,-0.20700299,0.406948,0.31487141,-0.18684156,0.408117,0.31161471,-0.16279711,0.361569,0.26767735,-0.17944235,0.35681,0.26633796,-0.20380351,0.362079,0.2701008,-0.2267872,0.366062,0.30102515,-0.15750885,0.339396,0.24342702,-0.16953523,0.322485,0.23208797,-0.19551183,0.328466,0.2461766,-0.2174722,0.33646,0.29444001,-0.1584186,0.322915,0.24392756,-0.15862124,0.314706,0.23789005,-0.1813876,0.319783,0.25453684,-0.20083112,0.325125,0.29058095,-0.16885735,0.306885,0.24918969,-0.14711861,0.298116,0.23155546,-0.13731341,0.295074,0.21635484,-0.14326557,0.292389
0.33143792,-0.25170993,0.369697,0.31714591,-0.20331234,0.352979,0.34015206,-0.24589529,0.382439,0.31586503,-0.2253279,0.383666,0.30672263,-0.19763645,0.38717,0.29146034,-0.17401527,0.378736,0.30814983,-0.16180989,0.358224,0.26339139,-0.17780994,0.351832,0.26440931,-0.20337446,0.359416,0.27018203,-0.22719496,0.364968,0.29833003,-0.15688227,0.337056,0.23845421,-0.16482704,0.318833,0.22287465,-0.18804132,0.327788,0.23399404,-0.21258169,0.337191,0.29248101,-0.1581104,0.321428,0.24092062,-0.15790215,0.31176,0.2370118,-0.18173792,0.319158,0.25477468,-0.20223433,0.326017,0.28965065,-0.169009,0.306429,0.24650391,-0.14646171,0.296277,0.2294757,-0.13725854,0.2941,0.2149194,-0.14374009,0.292179
0.29108349,-0.26346893,0.381597,0.29444627,-0.21668092,0.360792,0.29177066,-0.248587,0.388147,0.28161006,-0.22616635,0.388593,0.26914104,-0.200663,0.385279,0.26487036,-0.19094234,0.37915,0.29555516,-0.16604502,0.355199,0.24423019,-0.15990145,0.338475,0.25493836,-0.18844359,0.35219,0.26442573,-0.21513617,0.364268,0.2955277,-0.17073529,0.340979,0.23268219,-0.15357916,0.31454,0.22366407,-0.1821673,0.331489,0.23627848,-0.20825839,0.346372,0.29561554,-0.17993079,0.331511,0.24353888,-0.15740649,0.312607,0.24294846,-0.18568882,0.326184,0.26491411,-0.21002672,0.33924,0.29570306,-0.20025491,0.324432,0.26778318,-0.15696669,0.306213,0.25527673,-0.14286874,0.299883,0.23744265,-0.13435337,0.294298
0.28840589,-0.2621918,0.379394,0.29150514,-0.21446061,0.358991,0.28928401,-0.24739949,0.386053,0.27944035,-0.22517051,0.386835,0.26606109,-0.19889625,0.382104,0.26331389,-0.19030802,0.378179,0.29394121,-0.16543883,0.353811,0.24285937,-0.15928676,0.337447,0.25355607,-0.18793557,0.351318,0.2628697,-0.21461421,0.363316,0.29381838,-0.17015703,0.33956,0.23130351,-0.15300316,0.313525,0.22225746,-0.18162329,0.330672,0.23471764,-0.20770477,0.345472,0.29376636,-0.17934348,0.330023,0.24277403,-0.15746013,0.311477,0.24236487,-0.18493342,0.325209,0.26368076,-0.20915497,0.338184,0.2935808,-0.1995886,0.322788,0.26610582,-0.15641142,0.304865,0.25330144,-0.14035096,0.297992,0.23276262,-0.13512117,0.291927
0.28725011,-0.26156438,0.378299,0.29053017,-0.21399099,0.358062,0.28822294,-0.24683183,0.385035,0.27851958,-0.22469841,0.385976,0.26517828,-0.19842127,0.381263,0.26247796,-0.18986939,0.377414,0.29322083,-0.16510493,0.353095,0.24226534,-0.15898051,0.336916,0.25294369,-0.1876593,0.350819,0.26217614,-0.21431837,0.362758,0.29302849,-0.16981031,0.338789,0.23066594,-0.15268319,0.312941,0.2215907,-0.18130128,0.330128,0.23398018,-0.20736331,0.344872,0.29289333,-0.17897024,0.329188,0.24223653,-0.15769413,0.31082,0.24201174,-0.1851072,0.324585,0.26305987,-0.20900416,0.3375,0.29256946,-0.19915235,0.321849,0.26528888,-0.15604957,0.304074,0.25157949,-0.13818986,0.296569,0.23162756,-0.13371666,0.289947
0.28581308,-0.26084633,0.377167,0.2895071,-0.21369344,0.357363,0.28671802,-0.24605495,0.38383,0.27734646,-0.22429248,0.385082,0.26383619,-0.19795698,0.379992,0.26128074,-0.1895962,0.376241,0.2924075,-0.16489482,0.352595,0.24163682,-0.15892449,0.336596,0.25251076,-0.18779176,0.350835,0.26174569,-0.21450261,0.362836,0.29244981,-0.16981523,0.338502,0.23038908,-0.15291578,0.312982,0.22151955,-0.18181805,0.330604,0.23387498,-0.20790309,0.345367,0.29246194,-0.17913361,0.329031,0.24215349,-0.15831918,0.310881,0.24229426,-0.18590729,0.324983,0.26323838,-0.2096321,0.337946,0.29221277,-0.19944992,0.32176,0.26518289,-0.15644727,0.30416,0.24992948,-0.13963688,0.296073,0.22942449,-0.1348982,0.288937
0.28537605,-0.26098459,0.377039,0.28903404,-0.21375524,0.357137,0.28626913,-0.24615326,0.383677,0.27677162,-0.22430434,0.384774,0.26318486,-0.19791788,0.379581,0.26066949,-0.18961109,0.375903,0.29188535,-0.16487769,0.352268,0.24104009,-0.15885797,0.336182,0.25186703,-0.18771098,0.350384,0.26109901,-0.21443697,0.362406,0.29193261,-0.16981926,0.338182,0.2296513,-0.15337074,0.312563,0.22094903,-0.18245355,0.330139,0.2335415,-0.20845911,0.344923,0.29195452,-0.17916227,0.328727,0.23818342,-0.16959537,0.31049,0.24298221,-0.19945764,0.324555,0.26426345,-0.21550919,0.337538,0.29172724,-0.19952307,0.321493,0.26534887,-0.15618744,0.30382,0.25172121,-0.13756477,0.2957,0.23311066,-0.13114016,0.288535
0.28478333,-0.2608409,0.376544,0.28834399,-0.21355836,0.356575,0.28565899,-0.24599013,0.383168,0.27649311,-0.22402988,0.38426,0.26339685,-0.19766418,0.379314,0.26113197,-0.18899659,0.375626,0.29110838,-0.16463074,0.351644,0.24020407,-0.15864506,0.335502,0.25102964,-0.18747668,0.349675,0.26028878,-0.21420098,0.361707,0.29114806,-0.16957759,0.337556,0.22830238,-0.15375159,0.311872,0.21971714,-0.18306695,0.329411,0.2329283,-0.2086573,0.344206,0.29117584,-0.17893117,0.328108,0.2372502,-0.16935109,0.309814,0.24211835,-0.1992309,0.323851,0.26421237,-0.21630707,0.336845,0.2909743,-0.19931497,0.320894,0.26497581,-0.15578722,0.303175,0.25149899,-0.13710274,0.295033,0.2329249,-0.13052423,0.28785
0.28429383,-0.26067774,0.376103,0.28783603,-0.21340663,0.356155,0.28517511,-0.24583223,0.38274,0.27629287,-0.22383277,0.383891,0.26354649,-0.19748112,0.37912,0.26147259,-0.18856414,0.375442,0.29060034,-0.1644809,0.351255,0.2396955,-0.15855149,0.33514,0.25053592,-0.18738729,0.349314,0.25980236,-0.21410835,0.361336,0.29062829,-0.16942867,0.337156,0.22773077,-0.15391958,0.311497,0.21927467,-0.18336338,0.329037,0.23257853,-0.20887688,0.343824,0.29064635,-0.17878254,0.327696,0.23681599,-0.16918187,0.309428,0.24171796,-0.19906284,0.323466,0.2641476,-0.21667185,0.33645,0.29043541,-0.19916564,0.320465,0.26475537,-0.15552848,0.302767,0.25139154,-0.13681683,0.294636,0.23285593,-0.13014422,0.287461
0.28390987,-0.26057146,0.375741,0.28729982,-0.21317545,0.355642,0.28474602,-0.24568105,0.382312,0.27645864,-0.22345616,0.383476,0.26770635,-0.19768069,0.379705,0.2675718,-0.18800859,0.376035,0.28988874,-0.16416137,0.350553,0.23891328,-0.15755408,0.334274,0.24905384,-0.18635681,0.348416,0.25803132,-0.21316397,0.360489,0.28993218,-0.16910785,0.336499,0.22687402,-0.15370599,0.310673,0.21887545,-0.18283111,0.328172,0.23191746,-0.20869339,0.343006,0.28998465,-0.17847318,0.327092,0.236076,-0.16866826,0.308666,0.24097788,-0.19851985,0.322671,0.26298309,-0.2147021,0.335706,0.28985091,-0.19889902,0.319951,0.26426632,-0.15509258,0.302122,0.25091122,-0.13632462,0.29393,0.23235839,-0.12955372,0.286702
0.28439113,-0.26120527,0.376492,0.28732611,-0.2133248,0.355792,0.28531388,-0.24634196,0.38319,0.27711807,-0.22359116,0.383888,0.27306766,-0.19723717,0.381204,0.26991183,-0.18726491,0.377163,0.28970987,-0.16412501,0.35046,0.23856338,-0.15694905,0.333962,0.24813872,-0.18544984,0.347605,0.25681287,-0.21219596,0.359565,0.28946835,-0.16890355,0.336078,0.22605612,-0.15342606,0.309814,0.21770298,-0.18223725,0.326666,0.23078594,-0.20799342,0.341456,0.28933072,-0.17814677,0.326465,0.23529056,-0.16811612,0.307762,0.23984038,-0.19762263,0.321265,0.2620736,-0.21492054,0.334211,0.28907635,-0.19847203,0.319198,0.26347349,-0.15451182,0.301149,0.24884722,-0.13660233,0.292856,0.22727753,-0.13804963,0.285538
0.28416893,-0.26129418,0.376487,0.28715846,-0.21342788,0.355772,0.28531564,-0.24657693,0.383445,0.27755988,-0.22369899,0.38417,0.27417428,-0.1965913,0.382442,0.27599702,-0.18220874,0.378626,0.28989608,-0.1643633,0.350769,0.23889329,-0.15717018,0.334555,0.24858238,-0.18564458,0.347931,0.25709787,-0.21225538,0.359673,0.28935196,-0.16901542,0.336043,0.22636134,-0.15337245,0.309924,0.21738869,-0.18224645,0.326426,0.23035955,-0.20788825,0.341054,0.28894244,-0.17813313,0.326149,0.23516472,-0.16819807,0.307675,0.23944699,-0.19751501,0.320908,0.26250855,-0.2166974,0.333654,0.28834806,-0.19826534,0.318558,0.2631451,-0.15438739,0.300708,0.24722425,-0.13764782,0.292507,0.22732016,-0.13878317,0.28527
0.28252562,-0.26078395,0.375203,0.28554551,-0.21301312,0.354514,0.28363521,-0.24599616,0.382059,0.27643155,-0.22302531,0.382797,0.26836079,-0.19645128,0.380187,0.27028182,-0.18482159,0.37605,0.28824832,-0.16392037,0.349396,0.23719956,-0.15647497,0.333082,0.24619374,-0.18489399,0.346577,0.25529031,-0.21164165,0.358406,0.28739296,-0.16887106,0.334809,0.22381818,-0.15425045,0.308651,0.21525081,-0.18364927,0.325308,0.22900522,-0.20785576,0.339999,0.28705936,-0.17813734,0.325027,0.23378913,-0.16786561,0.306476,0.23797733,-0.19717903,0.31983,0.2608621,-0.21661621,0.332655,0.28653945,-0.19846042,0.317562,0.26227373,-0.15399347,0.299644,0.24771108,-0.1363731,0.291412,0.22731595,-0.13497802,0.284148
0.28109723,-0.26031788,0.373947,0.28434879,-0.21282926,0.353571,0.28231961,-0.24558053,0.380875,0.27585662,-0.22269086,0.381925,0.26863336,-0.19577181,0.379539,0.26991221,-0.18435848,0.375512,0.28737851,-0.16388711,0.348761,0.23644984,-0.15635555,0.332713,0.24570319,-0.18494603,0.346343,0.25435493,-0.21164155,0.358121,0.28662218,-0.16881334,0.334166,0.22324023,-0.15427257,0.308315,0.21471705,-0.18373096,0.325146,0.22836273,-0.20835867,0.33978,0.28618701,-0.17807154,0.324344,0.23306476,-0.16793783,0.306061,0.23688064,-0.19744491,0.31955,0.25986943,-0.21691024,0.332321,0.28531362,-0.19845138,0.316773,0.26190915,-0.15390504,0.299076,0.24752857,-0.13628622,0.290944,0.22912986,-0.13109757,0.28377
0.28020317,-0.26033286,0.373404,0.28348008,-0.21288898,0.353044,0.28145008,-0.24554295,0.380294,0.27549349,-0.22252151,0.381346,0.26904304,-0.19519115,0.379082,0.26957209,-0.18396858,0.375021,0.2865564,-0.16388997,0.348194,0.23553621,-0.15613156,0.332113,0.24505206,-0.18479279,0.345791,0.25325206,-0.21149686,0.357601,0.28600779,-0.16876817,0.333654,0.2226021,-0.15415926,0.307793,0.21408065,-0.18360522,0.324685,0.22757703,-0.20871983,0.339342,0.28555669,-0.1780606,0.323874,0.23237042,-0.16789934,0.305566,0.23606737,-0.19741912,0.319103,0.25897338,-0.21703583,0.331903,0.28464921,-0.19850009,0.31635,0.26164008,-0.15388044,0.298631,0.24734719,-0.1362097,0.290489,0.22893754,-0.13107916,0.283306
0.29029834,-0.27184071,0.388169,0.27837851,-0.22674549,0.357832,0.28633616,-0.25202696,0.388609,0.26581683,-0.23454535,0.37774,0.25709946,-0.20857568,0.368839,0.25449128,-0.18155369,0.359713,0.26558556,-0.16831181,0.337808,0.21042486,-0.16230836,0.309213,0.20938622,-0.18851107,0.320859,0.21477249,-0.21765339,0.336796,0.27307698,-0.17767215,0.32894,0.20982494,-0.15404298,0.291484,0.19810771,-0.1805734,0.305919,0.21289898,-0.20215384,0.323998,0.28040408,-0.19137546,0.324907,0.22448733,-0.17356571,0.294893,0.22760623,-0.20123361,0.306427,0.24878716,-0.21579845,0.323154,0.29069575,-0.21830043,0.325928,0.26449159,-0.16841812,0.298564,0.25527873,-0.15076302,0.291822,0.24280978,-0.13933464,0.285874
0.27967154,-0.26451298,0.375957,0.27656719,-0.22424239,0.352697,0.27245824,-0.24806272,0.376591,0.26106868,-0.22928512,0.372259,0.25056496,-0.19303669,0.359464,0.25436457,-0.17357424,0.353956,0.27824242,-0.17294042,0.337728,0.23003486,-0.15500997,0.313531,0.230075,-0.17746797,0.329631,0.22477405,-0.20440115,0.345611,0.2863793,-0.18173198,0.330544,0.28553635,-0.13270704,0.296762,0.29068954,-0.1246064,0.311886,0.29244669,-0.13932948,0.33125,0.292983,-0.19442739,0.327134,0.24259216,-0.17574682,0.301846,0.24024727,-0.20314341,0.317857,0.25704563,-0.22554116,0.334464,0.2999973,-0.21940735,0.327549,0.2694405,-0.17335374,0.304024,0.25595578,-0.15348991,0.293215,0.24061411,-0.13964801,0.283677
0.2757549,-0.26341008,0.372698,0.27943876,-0.22622831,0.355424,0.27135481,-0.2492808,0.376929,0.26329885,-0.23087945,0.37587,0.25666486,-0.19773608,0.368215,0.26494183,-0.18010764,0.367926,0.28769875,-0.17881796,0.349206,0.24382972,-0.1643057,0.332333,0.24319177,-0.18833277,0.349569,0.23615678,-0.21475217,0.363113,0.29368209,-0.18636621,0.338973,0.29978036,-0.13932714,0.311566,0.29932487,-0.128308,0.321151,0.29966405,-0.14276803,0.339425,0.29770643,-0.19756192,0.332408,0.25237072,-0.18283093,0.314013,0.25029156,-0.21163646,0.331146,0.26509029,-0.23385116,0.345417,0.3004415,-0.21973223,0.328034,0.27496084,-0.17751101,0.31021,0.26421972,-0.15924666,0.302895,0.25132618,-0.14641149,0.296441
0.26368363,-0.26901299,0.367947,0.28048425,-0.235466,0.355335,0.2640467,-0.25382672,0.374109,0.26655597,-0.23640496,0.378278,0.25564128,-0.20922591,0.366384,0.259983,-0.19197211,0.363995,0.29579407,-0.1923161,0.354798,0.25305212,-0.17632634,0.342989,0.24729974,-0.1949501,0.360994,0.24161699,-0.21984469,0.372846,0.29727197,-0.19907604,0.343324,0.31165072,-0.15540226,0.321943,0.31090381,-0.14734032,0.336238,0.3082165,-0.16315359,0.353968,0.2969745,-0.20927438,0.335235,0.25790462,-0.18646121,0.321743,0.25212035,-0.21203117,0.339641,0.26817124,-0.23829833,0.352239,0.29353203,-0.2294502,0.328216,0.27283251,-0.19113306,0.314502,0.26433054,-0.17394967,0.309485,0.2581326,-0.15413017,0.305401
0.26918867,-0.26502743,0.36926,0.28122149,-0.23043984,0.35593,0.26853736,-0.25210777,0.375695,0.26774367,-0.23574652,0.379435,0.25756374,-0.20682944,0.368016,0.2617979,-0.19210668,0.365579,0.29695352,-0.19083338,0.355261,0.25421722,-0.17388242,0.343229,0.2481408,-0.18832617,0.360799,0.24136182,-0.21755391,0.372565,0.297827,-0.19718153,0.343235,0.31075296,-0.15243324,0.321113,0.30936784,-0.14486801,0.335606,0.3064539,-0.16100807,0.353085,0.29703184,-0.20702235,0.334769,0.25672609,-0.18153803,0.320962,0.25239522,-0.20705689,0.33842,0.26660447,-0.23378693,0.35097,0.29303599,-0.2267778,0.327447,0.27257745,-0.18791382,0.313463,0.26680619,-0.16727875,0.308811,0.25800878,-0.15245488,0.304707
0.25818616,-0.26511473,0.360255,0.27600055,-0.22983511,0.347692,0.26128192,-0.25222401,0.368593,0.2618109,-0.23591631,0.372945,0.2402457,-0.20841669,0.357772,0.23867927,-0.18634906,0.352172,0.29615515,-0.1934241,0.350024,0.25288427,-0.17616934,0.340475,0.26096277,-0.20776336,0.356998,0.27543488,-0.2316042,0.367368,0.29282924,-0.19528987,0.335729,0.30879697,-0.15390117,0.317179,0.31133495,-0.14330409,0.331152,0.3034703,-0.15730262,0.347116,0.28992703,-0.20159742,0.325311,0.25171514,-0.17953745,0.313633,0.2468045,-0.20301013,0.330029,0.2602863,-0.23001292,0.341295,0.28385369,-0.21846638,0.31558,0.26778548,-0.17664199,0.303389,0.25907128,-0.15813746,0.297787,0.24917424,-0.1445932,0.292845
0.25699565,-0.26501389,0.358412,0.27606658,-0.2316938,0.346248,0.26106955,-0.25284313,0.367413,0.26018381,-0.23553004,0.371344,0.23741061,-0.20909143,0.355138,0.23503725,-0.18806148,0.349314,0.2969804,-0.19432088,0.349713,0.25429368,-0.17719889,0.341142,0.26134803,-0.20835731,0.357283,0.27531563,-0.23204006,0.367113,0.29447492,-0.19656178,0.334664,0.30965688,-0.1543307,0.317296,0.30785716,-0.14385103,0.329996,0.30240309,-0.15683116,0.345549,0.28940174,-0.20253807,0.323582,0.25095773,-0.17902203,0.312766,0.24323691,-0.20318131,0.328774,0.25211157,-0.22825911,0.339536,0.28173612,-0.21742695,0.313006,0.26601161,-0.17622562,0.301547,0.25737389,-0.15877235,0.296282,0.24845832,-0.1439768,0.291636
0.25638582,-0.2654711,0.357755,0.27496706,-0.23041476,0.345628,0.26083595,-0.25345976,0.366755,0.25877331,-0.23524928,0.370407,0.23546409,-0.2090375,0.353793,0.23274933,-0.18833951,0.34782,0.29623513,-0.19434654,0.349115,0.25385251,-0.17724202,0.340567,0.26034596,-0.20817476,0.356725,0.27426069,-0.23188472,0.366552,0.29242945,-0.19590631,0.334078,0.30905788,-0.15424904,0.316742,0.30416148,-0.14162703,0.327023,0.3006413,-0.15185863,0.342647,0.28838308,-0.20164358,0.323002,0.25019116,-0.17869016,0.31221,0.24221337,-0.2023091,0.328235,0.24888629,-0.22940185,0.338995,0.28095296,-0.21747231,0.312425,0.26359543,-0.17880667,0.300986,0.25654998,-0.15872773,0.295731,0.24794128,-0.14369542,0.291094
0.25685499,-0.26680614,0.358561,0.27869859,-0.23404056,0.350322,0.26351399,-0.25672396,0.370262,0.26234264,-0.239104,0.376175,0.23837374,-0.21246859,0.358965,0.23656094,-0.19250891,0.354497,0.30532155,-0.20057322,0.359968,0.26613373,-0.18603744,0.357054,0.27137065,-0.21731286,0.372256,0.28785739,-0.24376748,0.38517,0.2998066,-0.20115624,0.342475,0.32231664,-0.16100285,0.330368,0.31072522,-0.1445836,0.333926,0.30453187,-0.15391587,0.347158,0.29367492,-0.20574124,0.328958,0.25893672,-0.18510353,0.323434,0.25012936,-0.20792742,0.338491,0.25370355,-0.23449978,0.346737,0.28292815,-0.21944074,0.314817,0.26952196,-0.18284972,0.307869,0.26438861,-0.16391956,0.30506,0.2576833,-0.14935562,0.302582
0.25254396,-0.26337801,0.353177,0.27305762,-0.23008778,0.34395,0.25853133,-0.25275662,0.363593,0.2545587,-0.23385752,0.367018,0.23050128,-0.2058562,0.347701,0.22659701,-0.18760459,0.341734,0.29567763,-0.19454765,0.351252,0.25697781,-0.17974885,0.346208,0.25585629,-0.20710462,0.362311,0.26343871,-0.23240263,0.370733,0.29160702,-0.19704092,0.335163,0.31156198,-0.15625136,0.32134,0.28762199,-0.13548696,0.313276,0.28051818,-0.14572332,0.322436,0.28656364,-0.20311302,0.322908,0.25076097,-0.18011062,0.315474,0.24342046,-0.20211761,0.33144,0.24677325,-0.22944586,0.34082,0.27695606,-0.21751572,0.310418,0.26429901,-0.17832181,0.301828,0.2579392,-0.1600078,0.297881,0.25076385,-0.14511008,0.294398
0.25710884,-0.27044323,0.360816,0.27757563,-0.23449613,0.350192,0.26440088,-0.26021715,0.37208,0.26091945,-0.240067,0.376819,0.24109505,-0.21560048,0.364095,0.24011805,-0.19919087,0.362356,0.3006473,-0.19829541,0.357648,0.26135168,-0.18280324,0.352652,0.25933492,-0.20992043,0.367237,0.26781381,-0.23626229,0.37689,0.29539578,-0.20003428,0.340073,0.3286034,-0.16502585,0.339591,0.3108929,-0.14688577,0.339309,0.30478482,-0.15886136,0.351213,0.28943683,-0.20555001,0.326746,0.25313025,-0.18182385,0.319111,0.2443686,-0.2030269,0.333546,0.2474735,-0.23012618,0.342396,0.27891012,-0.21947027,0.313273,0.26637517,-0.17985216,0.304542,0.26005451,-0.16138818,0.30053,0.2530946,-0.14638126,0.29699
0.2559536,-0.27099916,0.359836,0.2764969,-0.23508985,0.349449,0.26369461,-0.26101596,0.37113,0.25859079,-0.23971455,0.37596,0.23437008,-0.2206512,0.361506,0.23544128,-0.20084595,0.358502,0.29729338,-0.19904544,0.357108,0.25862191,-0.18114504,0.352302,0.25821778,-0.20975663,0.366968,0.26659219,-0.23615787,0.376618,0.29272774,-0.19928647,0.339557,0.326731,-0.16480466,0.340048,0.31043642,-0.14694059,0.340333,0.3051964,-0.15942587,0.352468,0.28693084,-0.20481063,0.326225,0.24950245,-0.17984322,0.318786,0.24282874,-0.2027116,0.333303,0.24718493,-0.22993563,0.342107,0.27739989,-0.21905892,0.312701,0.2664968,-0.17895396,0.304135,0.26011483,-0.16097196,0.300199,0.25442996,-0.14517697,0.296861
0.25505576,-0.27184186,0.359217,0.27575669,-0.23497098,0.349028,0.26338502,-0.26219328,0.370693,0.25928609,-0.23968865,0.37589,0.23854262,-0.21685925,0.362848,0.2379784,-0.20045439,0.360936,0.29894311,-0.19932236,0.357057,0.26034051,-0.18241394,0.352595,0.25817369,-0.20983866,0.367148,0.26606574,-0.23599758,0.376301,0.29373542,-0.19977802,0.339324,0.32808478,-0.16546207,0.340028,0.3113525,-0.14761557,0.340439,0.30489907,-0.1595034,0.352493,0.28760709,-0.20501205,0.325819,0.25448243,-0.1759309,0.318696,0.2440807,-0.19363133,0.333099,0.24574124,-0.22565044,0.341729,0.27644927,-0.21864023,0.312059,0.26594611,-0.17909779,0.303764,0.26018504,-0.16091218,0.299953,0.25606182,-0.14442474,0.296851
0.25372332,-0.27157442,0.357972,0.27473775,-0.23495101,0.348161,0.26230862,-0.26219024,0.369588,0.2584532,-0.23925059,0.375099,0.23762673,-0.21648666,0.361826,0.23699895,-0.20022698,0.359838,0.29829645,-0.19916188,0.356628,0.26008087,-0.18241838,0.352576,0.25807323,-0.20982786,0.367151,0.26581424,-0.23595862,0.376202,0.2930006,-0.2000407,0.338816,0.32727589,-0.16560381,0.339572,0.31035818,-0.1473256,0.340013,0.30399351,-0.15902402,0.352036,0.28661357,-0.20493398,0.325206,0.25391324,-0.17528955,0.318484,0.24394074,-0.1935203,0.332908,0.2457481,-0.22416563,0.341385,0.27546334,-0.21809766,0.311253,0.26567271,-0.1787445,0.303298,0.26028959,-0.16060694,0.299644,0.25653509,-0.1441687,0.296672
0.25256856,-0.27188361,0.356879,0.27394338,-0.23459727,0.347525,0.26136025,-0.26273932,0.368634,0.25779157,-0.23890369,0.374472,0.2369071,-0.21618895,0.361019,0.236274,-0.2000798,0.359039,0.29796032,-0.19914074,0.356484,0.26010327,-0.18246761,0.352896,0.2582697,-0.21003495,0.367528,0.26586612,-0.23612774,0.376447,0.29261559,-0.19996088,0.338616,0.32725937,-0.16577099,0.339701,0.31037271,-0.14810534,0.340335,0.30402056,-0.15930458,0.352402,0.28614432,-0.20477201,0.32491,0.25323887,-0.17432526,0.318646,0.24410121,-0.19364761,0.333127,0.24594195,-0.22344707,0.341442,0.27482319,-0.21776881,0.31076,0.26583465,-0.17855523,0.303194,0.26065122,-0.16053443,0.299717,0.25719139,-0.14414585,0.296886
0.25133107,-0.27166074,0.356291,0.2729534,-0.23463568,0.347204,0.26027796,-0.26257302,0.368089,0.25691753,-0.23874331,0.374048,0.23630862,-0.21592915,0.360338,0.23561299,-0.19989245,0.358276,0.29772316,-0.19914049,0.356401,0.25960072,-0.18229356,0.35304,0.25837459,-0.21015414,0.367747,0.26600892,-0.23634264,0.376772,0.29239356,-0.19995166,0.33855,0.32715847,-0.16585648,0.33971,0.31052023,-0.14818564,0.340386,0.30392191,-0.15941361,0.352491,0.28591082,-0.20474007,0.324829,0.25335729,-0.17440678,0.318795,0.24426682,-0.19377898,0.333353,0.24616211,-0.22304962,0.341606,0.27453285,-0.21767731,0.310611,0.26569544,-0.17864245,0.30324,0.26095651,-0.16057686,0.299885,0.25802579,-0.14411774,0.297181
0.25039911,-0.27163038,0.356084,0.27199369,-0.23455511,0.34705,0.2594764,-0.26271273,0.368048,0.25674797,-0.23889648,0.374325,0.23693009,-0.21586866,0.360893,0.23656921,-0.19986941,0.358935,0.29641751,-0.1992409,0.356498,0.25859575,-0.18171368,0.353369,0.25840789,-0.21026999,0.367906,0.26638502,-0.23644335,0.376988,0.29090113,-0.19978843,0.338445,0.32568061,-0.1657542,0.339629,0.31020177,-0.14808662,0.34032,0.30275612,-0.1591521,0.352283,0.28426904,-0.20436313,0.324553,0.25119905,-0.17659568,0.31872,0.24248901,-0.19726285,0.333106,0.24620296,-0.22512916,0.341208,0.27273192,-0.21705768,0.310126,0.26513316,-0.17807537,0.30293,0.26054692,-0.16001151,0.299624,0.2563774,-0.14396061,0.296706
0.24842523,-0.27026036,0.354458,0.26743968,-0.23113917,0.342188,0.25592461,-0.25974259,0.364004,0.25039824,-0.23286128,0.365387,0.22688025,-0.20768761,0.346142,0.22301009,-0.19013887,0.338989,0.28793648,-0.19346701,0.346291,0.24747506,-0.17363093,0.338251,0.24849493,-0.20192261,0.353845,0.25678867,-0.22749372,0.363248,0.28393391,-0.19498779,0.330503,0.3183728,-0.16176619,0.331373,0.30257271,-0.14428274,0.33188,0.29591749,-0.15602086,0.345163,0.27897427,-0.20060506,0.318824,0.24332567,-0.16886235,0.308419,0.23575623,-0.18920791,0.323875,0.2407656,-0.21901224,0.334251,0.26959754,-0.21500808,0.307574,0.25929181,-0.17379912,0.296471,0.25369716,-0.15474913,0.29137,0.2481167,-0.13855962,0.286869
0.24741757,-0.26993914,0.354207,0.26645911,-0.23080507,0.341886,0.25491549,-0.25934641,0.363566,0.24964748,-0.23203618,0.364611,0.22608812,-0.20726081,0.345061,0.22213775,-0.19018246,0.337734,0.28745883,-0.1930875,0.345711,0.2468279,-0.17296269,0.337429,0.24799565,-0.2012925,0.353176,0.25651519,-0.22690661,0.362734,0.28351957,-0.19469073,0.330152,0.31785612,-0.1617338,0.331323,0.30273885,-0.14423233,0.332006,0.29547146,-0.156251,0.345483,0.27861591,-0.20038618,0.318668,0.24249134,-0.16854837,0.308058,0.2350513,-0.18913872,0.323668,0.24055723,-0.21877099,0.334188,0.26924937,-0.21487114,0.307653,0.25901846,-0.17326217,0.296374,0.25334412,-0.15437392,0.291192,0.24814056,-0.13781127,0.28662
0.24624825,-0.26938373,0.353337,0.26550166,-0.23052551,0.341282,0.25409124,-0.25909717,0.362999,0.24950059,-0.23202016,0.364619,0.22554266,-0.20879299,0.345458,0.22244415,-0.19132486,0.338434,0.28715296,-0.19328121,0.34568,0.24641025,-0.17419304,0.337909,0.24731619,-0.20245277,0.353493,0.25593965,-0.22727212,0.362785,0.2828026,-0.19462864,0.329801,0.31769122,-0.16207326,0.331335,0.30279251,-0.1444848,0.33223,0.29534083,-0.15630896,0.345597,0.27727992,-0.200064,0.318023,0.23932912,-0.17053084,0.307875,0.23221091,-0.19253121,0.32332,0.23987688,-0.21804638,0.333589,0.26550655,-0.21348785,0.306619,0.25686758,-0.17221232,0.295733,0.25107686,-0.15343206,0.290732,0.24782548,-0.1374656,0.286319
0.24547593,-0.26926114,0.353035,0.26486132,-0.23052078,0.341085,0.25348877,-0.25907323,0.362748,0.24925108,-0.23190868,0.364477,0.22545217,-0.20894621,0.34535,0.22225825,-0.19204764,0.338386,0.28682448,-0.19345994,0.345622,0.24610229,-0.17455021,0.337977,0.24697438,-0.20281392,0.35356,0.25533988,-0.22761643,0.362802,0.28230258,-0.19471585,0.329703,0.31760088,-0.16245127,0.331425,0.3028232,-0.14472659,0.332429,0.29529636,-0.15641258,0.345812,0.27685668,-0.20007713,0.317883,0.23854442,-0.16997047,0.307856,0.2313662,-0.19198367,0.3233,0.2395769,-0.21766781,0.333518,0.2649554,-0.21364348,0.306409,0.2563669,-0.17194614,0.295626,0.25082633,-0.15311249,0.290671,0.24775456,-0.13725552,0.2863
0.24612762,-0.27008175,0.354051,0.26507609,-0.23101696,0.341625,0.25410186,-0.2596569,0.363549,0.24998177,-0.23220615,0.364824,0.23130269,-0.21524494,0.345583,0.22848094,-0.2022304,0.338368,0.28665812,-0.19348002,0.34556,0.24247447,-0.17725482,0.337363,0.24343581,-0.20570614,0.35293,0.25353667,-0.22915509,0.362383,0.28209185,-0.1949179,0.329791,0.31776527,-0.16281844,0.33167,0.30293797,-0.14512567,0.332765,0.29537546,-0.15688597,0.346252,0.27665973,-0.20047508,0.318146,0.23785445,-0.16953339,0.307587,0.23019656,-0.19266216,0.323016,0.23915521,-0.21737173,0.333442,0.26461956,-0.2148672,0.306964,0.25797503,-0.17355792,0.295731,0.25269128,-0.15465772,0.29057,0.24729875,-0.13745579,0.286016
0.24661345,-0.27069729,0.354825,0.2651291,-0.23136945,0.342027,0.25455701,-0.26008514,0.364168,0.25059743,-0.23247448,0.365112,0.23145463,-0.21538632,0.34581,0.22851066,-0.2022567,0.338412,0.28636998,-0.1934252,0.345506,0.24178982,-0.17739737,0.336892,0.24289436,-0.20591952,0.352431,0.25261326,-0.22981665,0.362037,0.28174045,-0.19501666,0.329838,0.31730851,-0.16282937,0.331443,0.30220429,-0.14512027,0.332379,0.29455977,-0.15692164,0.345859,0.27629975,-0.20073743,0.318315,0.23746224,-0.16973237,0.307353,0.22982516,-0.19290782,0.322753,0.23868731,-0.21794073,0.333332,0.26481108,-0.21561904,0.307346,0.25754002,-0.17393409,0.295772,0.25218631,-0.15496044,0.290454,0.24673477,-0.13763804,0.285762
0.24768775,-0.27234813,0.356334,0.26534752,-0.2322554,0.342782,0.25532959,-0.26137755,0.365349,0.25315878,-0.23621767,0.365605,0.23116289,-0.21747865,0.34617,0.22809464,-0.20354257,0.338393,0.28418744,-0.19403544,0.345323,0.2358426,-0.18229249,0.335855,0.2385403,-0.21183605,0.351339,0.24974954,-0.23261862,0.361261,0.27943844,-0.19611158,0.329875,0.31307646,-0.16300654,0.330353,0.29636348,-0.14619111,0.330631,0.28973763,-0.15796434,0.343991,0.27405438,-0.20234759,0.318615,0.23710127,-0.16949504,0.306828,0.22986526,-0.19152402,0.322174,0.23833234,-0.2182163,0.333064,0.26491986,-0.21779985,0.308092,0.25543698,-0.1753801,0.295821,0.24997464,-0.15623835,0.290184,0.24443283,-0.13789531,0.285209
0.24851126,-0.27372524,0.357482,0.26815663,-0.23541018,0.346842,0.25752502,-0.26411401,0.368543,0.26258942,-0.2455178,0.378789,0.25130892,-0.23253389,0.373474,0.25325758,-0.22024932,0.371555,0.29117928,-0.19900417,0.354026,0.24732029,-0.18709379,0.348782,0.24860356,-0.21659181,0.363588,0.25817473,-0.24158317,0.373784,0.28489863,-0.20044063,0.33671,0.31869865,-0.16625539,0.337364,0.29799043,-0.1500383,0.337745,0.29224693,-0.16241261,0.350066,0.27818077,-0.20583638,0.323597,0.24413974,-0.17449679,0.315756,0.23591718,-0.19650734,0.330415,0.24278828,-0.2228572,0.339437,0.26699465,-0.21983928,0.310377,0.26036636,-0.1792286,0.301465,0.25712466,-0.16225497,0.297542,0.25299605,-0.14384072,0.294439
0.25122622,-0.27769327,0.361608,0.26897577,-0.23966126,0.348956,0.25922928,-0.26677208,0.371133,0.26286213,-0.24953789,0.379591,0.25175991,-0.23505698,0.374857,0.2532526,-0.22145221,0.372022,0.28712029,-0.20088859,0.352773,0.24242687,-0.18803482,0.344459,0.24148166,-0.21668047,0.359892,0.23648194,-0.24208919,0.369338,0.28277657,-0.20307128,0.336907,0.31697457,-0.16821883,0.338881,0.29947771,-0.15261441,0.340033,0.29131993,-0.16686212,0.353471,0.27780237,-0.20952117,0.325205,0.24276982,-0.17482105,0.314512,0.23513953,-0.19725196,0.329806,0.24292754,-0.22404291,0.340233,0.2693124,-0.22539248,0.314,0.26211472,-0.18217979,0.302656,0.25867072,-0.16494382,0.297793,0.25389655,-0.14666161,0.293785
0.25125142,-0.27844477,0.361728,0.26859601,-0.23912603,0.348814,0.25934287,-0.26753616,0.371348,0.26328305,-0.249609,0.379695,0.25391841,-0.23466487,0.376256,0.25606614,-0.22032761,0.373497,0.28854223,-0.20028793,0.352575,0.2422695,-0.18794531,0.344197,0.2382515,-0.21513567,0.35941,0.23604613,-0.2408162,0.368794,0.28334337,-0.2019773,0.336514,0.31673282,-0.16839349,0.338661,0.29918638,-0.15279464,0.339914,0.29089064,-0.16697933,0.353257,0.27782356,-0.2084002,0.32468,0.24229581,-0.17394336,0.31389,0.23436404,-0.19598919,0.328962,0.2418476,-0.22351251,0.33934,0.26860588,-0.22416588,0.313372,0.26170508,-0.18198454,0.301949,0.25754131,-0.16282584,0.296747,0.25413248,-0.146575,0.293242
0.25139099,-0.27904653,0.360985,0.26884941,-0.24044597,0.34872,0.25985758,-0.26869996,0.371434,0.26517636,-0.25108963,0.380486,0.25794512,-0.23734133,0.378954,0.2592913,-0.22246792,0.376787,0.28964027,-0.20144063,0.354001,0.24805816,-0.1838144,0.346991,0.24855063,-0.21127447,0.361664,0.25494746,-0.2390601,0.370292,0.28443211,-0.20209555,0.337038,0.31577102,-0.16792918,0.337736,0.29733319,-0.15218943,0.338144,0.28850116,-0.16613187,0.350651,0.2776909,-0.20854125,0.324392,0.24275789,-0.17545118,0.31483,0.23450711,-0.19740495,0.329356,0.24172549,-0.22399183,0.33902,0.26770714,-0.22352249,0.312018,0.26188029,-0.18209847,0.301648,0.25882124,-0.16337735,0.297035,0.25505557,-0.14704229,0.293624
0.25181245,-0.28036585,0.360647,0.26862704,-0.24252385,0.348589,0.26009478,-0.26998051,0.371079,0.26562127,-0.25382986,0.380308,0.25665615,-0.23877513,0.378718,0.25845256,-0.22355775,0.376637,0.28853572,-0.20428595,0.353988,0.24574446,-0.18702872,0.347092,0.24485101,-0.21512298,0.361888,0.25330472,-0.24065574,0.370521,0.28295098,-0.20419018,0.337104,0.31578785,-0.16831672,0.338318,0.29629128,-0.15392461,0.339026,0.28849178,-0.16705613,0.351696,0.27707995,-0.2098891,0.3245,0.24290624,-0.17556755,0.315065,0.23466674,-0.19748703,0.329715,0.2417321,-0.2245727,0.339377,0.26771015,-0.22393998,0.312136,0.26193114,-0.18242073,0.301872,0.25849442,-0.16362843,0.297442,0.25416449,-0.14608749,0.293953
0.25306461,-0.2821274,0.36118,0.26903616,-0.24313826,0.348652,0.26120097,-0.27168482,0.371626,0.26624243,-0.25453346,0.380386,0.25848883,-0.23922479,0.379524,0.25933807,-0.22405719,0.377291,0.28862521,-0.20458935,0.353751,0.24620404,-0.18555565,0.34657,0.24652834,-0.21360587,0.361111,0.25345742,-0.23960329,0.369753,0.28281634,-0.20434631,0.336721,0.31536619,-0.16829174,0.337893,0.29661944,-0.15286777,0.338576,0.28781836,-0.16713696,0.351121,0.27686772,-0.20990175,0.324047,0.24257187,-0.1752567,0.314301,0.23416906,-0.19689109,0.328693,0.24118656,-0.22395477,0.338379,0.2674623,-0.22391394,0.311691,0.26147193,-0.18217696,0.301168,0.25772288,-0.16318318,0.296373,0.25460456,-0.14701465,0.293138
0.25318295,-0.28215709,0.359216,0.27104616,-0.24571754,0.348078,0.26179517,-0.27403155,0.370195,0.26945102,-0.25803028,0.380214,0.26038962,-0.24429203,0.380244,0.260166,-0.22676847,0.378785,0.28980208,-0.20559011,0.354816,0.24670891,-0.1897731,0.349151,0.24896533,-0.21986699,0.363805,0.26093529,-0.24594851,0.373037,0.2837871,-0.20621843,0.337471,0.31555494,-0.16850868,0.338317,0.29547235,-0.15413504,0.33881,0.28695909,-0.1682084,0.35113,0.27750168,-0.21042849,0.324388,0.244191,-0.17666625,0.316119,0.23582426,-0.19849068,0.330624,0.24253732,-0.22532186,0.339758,0.26842457,-0.22468774,0.311297,0.26400244,-0.18435095,0.302024,0.26045165,-0.16544075,0.297764,0.25538752,-0.1477586,0.294005
0.25398095,-0.2832747,0.35878,0.27074474,-0.24534003,0.347899,0.26249201,-0.27450935,0.369995,0.26858522,-0.25797891,0.38032,0.25997644,-0.24494073,0.380263,0.26069018,-0.22735971,0.378952,0.29028406,-0.20592948,0.35512,0.24793493,-0.18922106,0.349901,0.24993806,-0.21947153,0.364413,0.26264851,-0.24597968,0.373427,0.28398894,-0.20536505,0.337537,0.31540416,-0.16839855,0.338339,0.29506534,-0.15407717,0.338806,0.28692204,-0.16779731,0.35096,0.27774396,-0.21000068,0.324231,0.24461002,-0.17688969,0.316371,0.23614024,-0.19855936,0.330733,0.24276803,-0.22530796,0.339645,0.26743962,-0.22408172,0.310831,0.26325627,-0.18344528,0.301911,0.25952504,-0.16459558,0.297812,0.2556162,-0.1482316,0.294195
0.25514466,-0.28467096,0.358698,0.27211836,-0.24591513,0.347885,0.26304006,-0.27477472,0.369688,0.26875594,-0.25810468,0.380108,0.25907427,-0.24722029,0.37863,0.25827346,-0.23108867,0.377192,0.29030943,-0.20586838,0.354858,0.24782576,-0.18872689,0.349418,0.25027014,-0.218909,0.364219,0.2604567,-0.24444789,0.372704,0.28426791,-0.2055121,0.337587,0.31353024,-0.16704031,0.337519,0.29072087,-0.15348977,0.337479,0.28443742,-0.16850011,0.349676,0.27815226,-0.21070468,0.32453,0.24500508,-0.17706647,0.316499,0.23676472,-0.19885841,0.331152,0.24361636,-0.22581374,0.340249,0.26924213,-0.22497657,0.311407,0.26715992,-0.1845022,0.302333,0.26246453,-0.16571579,0.298165,0.25771659,-0.14914403,0.294486
0.25600939,-0.28555366,0.358562,0.27107362,-0.24515922,0.347915,0.26405404,-0.27591291,0.369781,0.26886776,-0.25838814,0.380384,0.25650048,-0.24824682,0.377724,0.25636079,-0.23364735,0.376251,0.29068648,-0.20622332,0.355298,0.24878733,-0.1888357,0.350235,0.25017277,-0.21764005,0.364859,0.26169411,-0.24391031,0.372903,0.28455101,-0.20606021,0.337775,0.31539675,-0.16876704,0.338265,0.29557127,-0.15354136,0.33855,0.28588063,-0.16826562,0.350693,0.27821474,-0.21097086,0.324492,0.24515284,-0.17734652,0.316798,0.23675295,-0.19897556,0.331273,0.24349406,-0.22584439,0.340163,0.26822957,-0.22492103,0.311076,0.26570282,-0.1841447,0.302293,0.26253637,-0.16544937,0.298258,0.25758727,-0.148882,0.294698
0.25622827,-0.28571617,0.357525,0.27159913,-0.24551301,0.347597,0.26462854,-0.27658968,0.369277,0.26904064,-0.25859211,0.380572,0.25632207,-0.24881972,0.377582,0.25636418,-0.23490514,0.376449,0.29151147,-0.20684098,0.356163,0.24847847,-0.1965118,0.3522,0.25578892,-0.22967942,0.366554,0.26983239,-0.25053451,0.377134,0.28502667,-0.20674012,0.338141,0.31643819,-0.169788,0.338384,0.29748143,-0.15392349,0.338525,0.28618264,-0.16804282,0.350285,0.278263,-0.21122704,0.324371,0.24584914,-0.17801726,0.317702,0.23718855,-0.19946071,0.331905,0.24358696,-0.22606704,0.340272,0.26773468,-0.22458335,0.310254,0.26765607,-0.18405455,0.302351,0.26365619,-0.1656565,0.298719,0.25920588,-0.1494045,0.295515
0.25734401,-0.28653535,0.357676,0.27158165,-0.24536066,0.347491,0.26551029,-0.27731479,0.369269,0.26877856,-0.25783675,0.380347,0.25742199,-0.24849749,0.377765,0.25794226,-0.23433242,0.376556,0.29121933,-0.2067549,0.355674,0.24951963,-0.19008716,0.351353,0.25299791,-0.22008547,0.365771,0.266341,-0.24654426,0.374362,0.28487128,-0.20656009,0.337791,0.31538419,-0.16910504,0.337717,0.29523211,-0.15351077,0.337674,0.28497486,-0.16771712,0.349459,0.2783018,-0.21102665,0.324162,0.24547833,-0.17755704,0.317155,0.2369205,-0.19901052,0.331422,0.24350273,-0.22574247,0.33995,0.26813745,-0.22447945,0.310257,0.26644337,-0.18373694,0.302064,0.26338411,-0.16516393,0.298301,0.25886567,-0.14890163,0.294979
0.25779993,-0.28701221,0.35711,0.27191681,-0.24593383,0.347489,0.26601014,-0.2780435,0.368925,0.26880615,-0.25860304,0.380423,0.25585552,-0.24877296,0.376971,0.25583821,-0.23718185,0.375904,0.29159764,-0.20759687,0.356345,0.24801548,-0.19636479,0.352656,0.25352842,-0.22708203,0.367087,0.26856869,-0.25051572,0.376736,0.28515246,-0.20714221,0.338326,0.31278704,-0.16795371,0.337678,0.29096713,-0.15354348,0.337299,0.28318834,-0.16779618,0.348886,0.27850505,-0.21139221,0.324525,0.24590999,-0.17820544,0.318133,0.23733956,-0.19972099,0.332412,0.2438491,-0.2263856,0.340698,0.26794899,-0.22454724,0.310314,0.26747634,-0.18412968,0.302644,0.2650595,-0.16562158,0.29912,0.26068959,-0.14949721,0.296011
0.25876341,-0.28831727,0.357894,0.2721107,-0.24649883,0.347693,0.26695946,-0.27938191,0.369707,0.26893945,-0.25898259,0.380842,0.25643437,-0.24974714,0.378179,0.25626664,-0.23834639,0.376993,0.29120667,-0.20787782,0.356154,0.246171,-0.19843357,0.35209,0.2525607,-0.22919853,0.366231,0.26840474,-0.25168982,0.376142,0.28454133,-0.20712794,0.337978,0.31219133,-0.16797861,0.337324,0.29042731,-0.15342477,0.336943,0.28194507,-0.16762196,0.348385,0.27780467,-0.21118786,0.32411,0.24483385,-0.17762048,0.317313,0.2360584,-0.19882634,0.331302,0.24258779,-0.22548231,0.339634,0.26728117,-0.22423213,0.30993,0.26713305,-0.18362963,0.301924,0.26675156,-0.16524086,0.299199,0.26429226,-0.14955537,0.297112
0.25851729,-0.28795316,0.357128,0.27226578,-0.24673316,0.347834,0.26681246,-0.27924476,0.369128,0.26903124,-0.25933472,0.380928,0.25568425,-0.24943043,0.377499,0.25564505,-0.2384384,0.3766,0.29184487,-0.20859412,0.357154,0.24683024,-0.19984972,0.353901,0.25351808,-0.2308961,0.368268,0.26991554,-0.25376138,0.378366,0.285179,-0.20777423,0.338983,0.31224566,-0.16831587,0.337751,0.2894587,-0.1535382,0.337032,0.28149161,-0.16757721,0.348391,0.2780769,-0.21173919,0.325021,0.24425477,-0.17846099,0.319042,0.23560348,-0.19994856,0.333257,0.24358326,-0.2267687,0.34135,0.26731817,-0.22435407,0.310562,0.26780518,-0.18425399,0.303051,0.26542163,-0.16577324,0.2996,0.26186159,-0.14960563,0.296555
0.2598044,-0.28862091,0.357716,0.27305279,-0.24718446,0.348476,0.26779212,-0.27983209,0.369601,0.26953384,-0.25999821,0.381328,0.25577137,-0.25033601,0.377335,0.25587084,-0.2386587,0.376345,0.29190281,-0.20880615,0.357683,0.24690095,-0.20065203,0.354327,0.25460647,-0.23260882,0.368858,0.27176037,-0.25669085,0.379433,0.28550217,-0.20800734,0.339676,0.31147535,-0.16795292,0.33786,0.28889692,-0.15330956,0.3368,0.27894338,-0.16804159,0.348153,0.27898382,-0.21202093,0.325844,0.24584155,-0.17931505,0.319789,0.23746697,-0.20117272,0.33417,0.2443386,-0.22784245,0.34236,0.26904627,-0.22501451,0.311525,0.2689116,-0.18456099,0.303919,0.2665232,-0.16604813,0.300425,0.26292799,-0.14985919,0.297341
0.26015372,-0.28879255,0.358108,0.27392793,-0.24792316,0.349959,0.26824468,-0.28029063,0.370349,0.26968515,-0.26043227,0.382087,0.2539624,-0.24788223,0.374639,0.25394676,-0.23565009,0.373413,0.29112294,-0.20995556,0.36037,0.24804226,-0.20311249,0.358155,0.25648972,-0.23446926,0.372775,0.27358118,-0.25733105,0.382843,0.28578738,-0.20890285,0.342198,0.31050115,-0.16765725,0.338248,0.28659747,-0.15278273,0.335944,0.27669469,-0.16732053,0.346707,0.28003938,-0.21288108,0.328112,0.26647259,-0.16533231,0.323179,0.24434804,-0.15839658,0.320655,0.23472431,-0.17522575,0.330788,0.27027104,-0.22570658,0.313293,0.27048842,-0.18544859,0.306744,0.26791462,-0.16672079,0.303734,0.26579158,-0.15104385,0.301079
0.26105106,-0.28940042,0.358968,0.27424777,-0.24805011,0.350474,0.26882271,-0.28072639,0.37099,0.26977942,-0.26046693,0.382192,0.25359806,-0.24784891,0.374031,0.25326653,-0.23581375,0.372464,0.29199718,-0.20966338,0.360366,0.24835292,-0.20270515,0.357663,0.25626511,-0.23430632,0.372383,0.27389068,-0.25805368,0.382649,0.28672226,-0.20883493,0.342384,0.31007533,-0.16703308,0.337854,0.28573149,-0.15236762,0.335211,0.27532045,-0.16709452,0.345954,0.2804321,-0.21277786,0.328492,0.26408128,-0.16622264,0.323099,0.23856696,-0.16970868,0.32034,0.23616888,-0.19402088,0.330434,0.27115833,-0.22560755,0.313964,0.27109173,-0.18526814,0.30711,0.26907947,-0.16657782,0.303961,0.26682785,-0.15066742,0.301182
0.26196922,-0.29053757,0.360318,0.2744876,-0.24849524,0.351442,0.26915413,-0.28158981,0.371965,0.27011481,-0.26135952,0.383366,0.25495405,-0.24897485,0.376932,0.25546672,-0.23519674,0.375573,0.28663186,-0.20724285,0.360585,0.24507958,-0.20316369,0.357185,0.25497752,-0.23458852,0.372163,0.27370192,-0.25830981,0.382766,0.2837586,-0.20601976,0.342989,0.30673352,-0.16417917,0.339258,0.28327283,-0.15233959,0.337082,0.27604798,-0.16804692,0.348292,0.27950259,-0.21221705,0.329455,0.25288803,-0.16899486,0.323424,0.23085867,-0.17513117,0.320338,0.23400894,-0.19760782,0.330471,0.27273579,-0.22485798,0.315414,0.26943348,-0.18185286,0.307707,0.26667178,-0.16313321,0.304165,0.26468304,-0.14903835,0.301041
0.26234081,-0.29086275,0.360665,0.27439119,-0.24854242,0.351857,0.26899475,-0.28176552,0.372064,0.26991559,-0.26172541,0.383673,0.25514501,-0.24901516,0.378062,0.25607101,-0.234666,0.376876,0.28375343,-0.20711378,0.360725,0.24182809,-0.20371032,0.357081,0.25348094,-0.23544187,0.372363,0.27380905,-0.25886515,0.383371,0.28202665,-0.20573987,0.343469,0.30442309,-0.16321685,0.340748,0.28015028,-0.15191221,0.339162,0.27610985,-0.16958717,0.350857,0.279205,-0.20976502,0.330208,0.25206824,-0.16900776,0.323989,0.22996219,-0.17524119,0.320807,0.23119057,-0.20146957,0.331133,0.27305959,-0.22292186,0.316472,0.26938877,-0.18159468,0.308575,0.26553842,-0.1623005,0.304947,0.26271093,-0.14632318,0.301746
0.26357399,-0.29211071,0.362406,0.2746418,-0.24890093,0.35302,0.26938619,-0.28262683,0.373324,0.26848358,-0.26233178,0.384323,0.25528459,-0.24894238,0.378308,0.25520009,-0.23589634,0.376751,0.28245187,-0.20651525,0.360868,0.23885717,-0.20350537,0.356285,0.25169959,-0.23531401,0.371822,0.2727478,-0.25868523,0.383081,0.28039536,-0.20498746,0.344081,0.30378575,-0.16286849,0.341376,0.27979549,-0.15180844,0.339798,0.2731419,-0.17009776,0.351787,0.2787385,-0.2094469,0.331269,0.24567077,-0.17321767,0.324181,0.22543233,-0.18351412,0.320555,0.23046421,-0.21081478,0.330858,0.2744628,-0.22343669,0.318161,0.26977876,-0.18149767,0.309374,0.26629302,-0.16249018,0.305336,0.26226062,-0.1458897,0.301774
0.26417,-0.29269759,0.363328,0.27461608,-0.24900331,0.353778,0.26924539,-0.2829736,0.37393,0.26815343,-0.26247028,0.384623,0.2545689,-0.24861201,0.378075,0.25443532,-0.23512091,0.376311,0.28078442,-0.20600661,0.361103,0.23817028,-0.20320162,0.356051,0.25034528,-0.23548124,0.371837,0.2724912,-0.2593644,0.383291,0.28034114,-0.20514185,0.344683,0.30131513,-0.16184095,0.341265,0.27699968,-0.15141204,0.339271,0.27039168,-0.16983381,0.351318,0.27983016,-0.21013068,0.33219,0.24544517,-0.17463378,0.324692,0.22492898,-0.18973708,0.320856,0.23211,-0.21709128,0.331249,0.27552951,-0.22400741,0.319485,0.27035627,-0.18169708,0.310175,0.26665607,-0.16256357,0.305897,0.26359342,-0.14723133,0.302122
0.26352569,-0.29170331,0.362341,0.27406582,-0.24838709,0.353567,0.2680738,-0.28202026,0.372907,0.26694082,-0.26198069,0.383926,0.25332149,-0.24734397,0.376548,0.25350685,-0.23334086,0.374916,0.28063213,-0.20606767,0.361372,0.23833548,-0.20354582,0.356803,0.2506545,-0.23616968,0.372947,0.27306615,-0.2604377,0.38458,0.28047328,-0.20535901,0.345212,0.28853626,-0.15660227,0.336289,0.25955321,-0.15031004,0.331085,0.2567247,-0.16860174,0.341826,0.28009759,-0.21035581,0.332849,0.25118131,-0.17139623,0.325881,0.22956215,-0.17905388,0.322315,0.23247396,-0.20614763,0.333132,0.27608153,-0.22426063,0.320149,0.27135963,-0.1822286,0.311385,0.26787451,-0.163182,0.307358,0.26489253,-0.14778966,0.303805
0.26381652,-0.29174472,0.36264,0.27381134,-0.24803913,0.353737,0.2677204,-0.28192716,0.373021,0.26610795,-0.26186373,0.383775,0.25268638,-0.24667403,0.37593,0.25298469,-0.23194035,0.374122,0.28029164,-0.20592153,0.361213,0.2378081,-0.20323125,0.356351,0.25011946,-0.23595035,0.372617,0.27231509,-0.26018974,0.384348,0.28031189,-0.20532121,0.345258,0.28837067,-0.1565124,0.336096,0.25929137,-0.15015841,0.330751,0.25535599,-0.16923146,0.341542,0.28007463,-0.21035681,0.333078,0.25105131,-0.17139685,0.325848,0.22889444,-0.18209303,0.322149,0.23390024,-0.21117648,0.332996,0.27646792,-0.22442785,0.320615,0.27160526,-0.18228647,0.311711,0.26806151,-0.16320267,0.30762,0.26493596,-0.14768007,0.30401
0.30096664,-0.29920815,0.41845,0.30396311,-0.25388105,0.387687,0.30555754,-0.2799459,0.422468,0.29693391,-0.2556245,0.411616,0.2920609,-0.22669441,0.402536,0.29416948,-0.20127875,0.390727,0.31067848,-0.2001958,0.372032,0.30943566,-0.15009126,0.347285,0.29204339,-0.1298872,0.336913,0.2757318,-0.13332325,0.339738,0.30582806,-0.21163078,0.358389,0.26528068,-0.16107363,0.322813,0.22135168,-0.15375607,0.302061,0.20913503,-0.16551182,0.299451,0.30176236,-0.22611394,0.35047,0.25879966,-0.18414513,0.322514,0.226048,-0.17969608,0.308212,0.21537142,-0.19444531,0.30679,0.29673675,-0.25200812,0.34706,0.24276232,-0.22198863,0.322397,0.22337921,-0.21766934,0.311065,0.22693266,-0.22260816,0.309443
0.28866106,-0.28995149,0.407247,0.29584986,-0.24238886,0.380167,0.29415475,-0.2725783,0.412999,0.29236488,-0.23665307,0.407677,0.29333801,-0.20642046,0.402267,0.30060763,-0.18269069,0.394332,0.30811712,-0.19240728,0.369272,0.29347692,-0.14739347,0.342034,0.27616793,-0.12646669,0.328415,0.26434893,-0.11485671,0.328693,0.30480822,-0.2002389,0.354377,0.26539542,-0.15212288,0.322519,0.2230675,-0.14653458,0.303935,0.21248157,-0.16013209,0.303631,0.30133778,-0.21170901,0.345029,0.2594113,-0.17590536,0.32106,0.22733157,-0.1730369,0.308797,0.21762784,-0.18779207,0.309881,0.29349707,-0.2352169,0.339269,0.24453937,-0.20361123,0.317484,0.22747373,-0.20297391,0.307474,0.22507683,-0.20990912,0.307643
0.28832783,-0.29181727,0.405979,0.29687722,-0.24657451,0.380189,0.29352847,-0.27506713,0.412386,0.28087301,-0.23894824,0.407217,0.25451162,-0.21232455,0.397425,0.24360559,-0.18740433,0.387604,0.30720342,-0.19829639,0.371023,0.29359486,-0.14989162,0.345011,0.26926241,-0.13272055,0.332005,0.25049232,-0.13038201,0.332917,0.3039071,-0.20210105,0.355627,0.26475965,-0.15405961,0.325168,0.22347971,-0.14751127,0.307401,0.20353985,-0.15643419,0.307747,0.30068006,-0.21295947,0.345728,0.26149856,-0.1774493,0.323658,0.22995284,-0.17519169,0.312366,0.22070944,-0.19047205,0.314295,0.29394119,-0.23525502,0.339085,0.24511233,-0.20595137,0.318413,0.22829702,-0.20445678,0.308915,0.22657088,-0.21084452,0.309601
0.28275328,-0.28419977,0.409719,0.29276926,-0.24136778,0.381142,0.29511782,-0.27073558,0.416454,0.28771494,-0.23478832,0.404542,0.28316975,-0.21176918,0.399374,0.2819702,-0.19386343,0.386314,0.30963256,-0.19562174,0.370511,0.29675331,-0.14842767,0.343429,0.26473623,-0.13970653,0.329887,0.24946543,-0.14974987,0.327224,0.29878046,-0.20293237,0.353926,0.2579223,-0.15256903,0.322084,0.21366064,-0.14149324,0.303509,0.19392881,-0.1466288,0.300221,0.28731047,-0.2159302,0.343349,0.2510832,-0.16633092,0.317182,0.22096215,-0.16774705,0.303794,0.21082605,-0.18197298,0.301222,0.26978322,-0.23661222,0.336443,0.22420571,-0.19849102,0.315327,0.20915353,-0.1877649,0.305625,0.20123765,-0.1828484,0.303718
0.28797078,-0.29148718,0.41261,0.28485489,-0.24629584,0.385542,0.2976394,-0.27651945,0.421116,0.28475423,-0.245813,0.41667,0.27561836,-0.22242451,0.417501,0.26113421,-0.21915749,0.408832,0.308288,-0.20133664,0.378241,0.2986066,-0.1589319,0.350634,0.27323774,-0.13638576,0.336831,0.24951422,-0.1364192,0.331949,0.29030254,-0.21007219,0.359763,0.25375285,-0.15497062,0.330898,0.21366095,-0.14263275,0.314061,0.19412209,-0.14578475,0.30952,0.27509285,-0.2160457,0.347463,0.24292221,-0.17208702,0.327819,0.21371731,-0.16095176,0.317769,0.19848019,-0.16994861,0.315114,0.2575292,-0.23438122,0.338275,0.21441111,-0.19963052,0.319978,0.20200032,-0.19124371,0.311571,0.19479189,-0.18706416,0.308896
0.292096,-0.29756096,0.430499,0.28435166,-0.24865567,0.401434,0.28862733,-0.27487602,0.436432,0.27247809,-0.23593775,0.430893,0.26099372,-0.2009619,0.426532,0.25569488,-0.17498311,0.417734,0.29188383,-0.19625559,0.389427,0.22300065,-0.17783739,0.352463,0.20104439,-0.18491208,0.333981,0.20713044,-0.19417969,0.329212,0.28514764,-0.20701911,0.373753,0.25990942,-0.15388605,0.340776,0.21806242,-0.14838195,0.32154,0.19871192,-0.15919495,0.318769,0.27955653,-0.22070209,0.363978,0.2441466,-0.17497049,0.337266,0.22602859,-0.15157074,0.323599,0.20375813,-0.15101989,0.321687,0.2729303,-0.24511029,0.358095,0.22118509,-0.21678822,0.3359,0.20537328,-0.20685278,0.325702,0.19693868,-0.20310459,0.324116
0.29167632,-0.29769244,0.438013,0.29001572,-0.24965174,0.407541,0.28872435,-0.27359486,0.440756,0.26548952,-0.2282312,0.429105,0.25029233,-0.19081574,0.418657,0.24689365,-0.16762689,0.407822,0.29876826,-0.19356892,0.390424,0.27478649,-0.14984544,0.358657,0.25766382,-0.12943064,0.342773,0.24585556,-0.11877166,0.342016,0.2976442,-0.2070022,0.37852,0.26252757,-0.15792474,0.342227,0.2217062,-0.15019821,0.321056,0.20325967,-0.15854066,0.319853,0.2961552,-0.22277757,0.372002,0.25080078,-0.18739835,0.341821,0.22751138,-0.16922855,0.326379,0.20753842,-0.17634072,0.325884,0.2933049,-0.249602,0.370164,0.24050835,-0.21928498,0.34445,0.21624288,-0.20581731,0.332635,0.2054292,-0.20459284,0.331931
0.2935902,-0.29957585,0.443294,0.29447025,-0.25161898,0.412724,0.29062596,-0.27469667,0.444981,0.26622278,-0.2306021,0.431467,0.24929847,-0.19274864,0.419408,0.24474103,-0.16774905,0.407788,0.30193574,-0.19500371,0.394165,0.27241133,-0.15006159,0.365352,0.25143359,-0.13138378,0.350946,0.23810399,-0.12264599,0.351837,0.30223266,-0.20929024,0.383609,0.26626664,-0.16037939,0.346618,0.22311546,-0.15303369,0.32504,0.20666238,-0.16195674,0.32442,0.30191058,-0.22593421,0.378211,0.24223964,-0.19718393,0.340599,0.21754421,-0.20172756,0.321356,0.22351632,-0.20892738,0.319376,0.30033864,-0.25404644,0.377692,0.24629167,-0.22332314,0.351109,0.2210951,-0.21031216,0.338896,0.20970926,-0.20885964,0.338532
0.29245568,-0.29682765,0.445502,0.29421094,-0.25090587,0.412971,0.29158378,-0.27365279,0.446269,0.26578781,-0.2311973,0.43133,0.24823984,-0.19337677,0.418173,0.24289942,-0.16772381,0.40587,0.2995313,-0.19392727,0.391884,0.27066097,-0.148906,0.36255,0.24856917,-0.13051135,0.347883,0.23348684,-0.12196895,0.347785,0.29811944,-0.20923857,0.38199,0.25538115,-0.1619115,0.343091,0.2145673,-0.14974107,0.320399,0.19914685,-0.15883176,0.318425,0.29372103,-0.22714004,0.377349,0.25691817,-0.18358719,0.346409,0.22556592,-0.18584228,0.330579,0.22333814,-0.19914498,0.329791,0.29063962,-0.25598101,0.378076,0.23488981,-0.224382,0.350031,0.21632644,-0.21583717,0.337145,0.21014633,-0.21594737,0.335738
0.29077404,-0.29458837,0.443877,0.29267077,-0.24939838,0.411319,0.29038916,-0.27144804,0.444406,0.26234176,-0.23399541,0.429058,0.23941898,-0.20220937,0.414144,0.23023243,-0.17760073,0.400932,0.29645017,-0.19360106,0.389902,0.26858753,-0.14785517,0.360298,0.24602183,-0.12960441,0.345496,0.23057074,-0.12133397,0.345468,0.29578693,-0.20836819,0.380311,0.25323174,-0.16096236,0.34126,0.21035606,-0.14837297,0.31848,0.19517123,-0.15789423,0.316615,0.292219,-0.22625358,0.375922,0.25513022,-0.18213723,0.344759,0.22366116,-0.18493538,0.328816,0.22165123,-0.19823861,0.328111,0.28944035,-0.25528907,0.376948,0.23349817,-0.22368486,0.348713,0.21437514,-0.21478557,0.335741,0.2059699,-0.21289921,0.334395
0.2855075,-0.28943598,0.444712,0.29059725,-0.24614225,0.412485,0.28727689,-0.26692099,0.444059,0.24912391,-0.2194469,0.426709,0.22718916,-0.18309704,0.412185,0.21501592,-0.15760753,0.397736,0.29761837,-0.19228679,0.389752,0.2404321,-0.16851859,0.35908,0.21167788,-0.15777017,0.343745,0.19591726,-0.16991346,0.344379,0.29787438,-0.2084777,0.381793,0.25077993,-0.16262762,0.342381,0.21989438,-0.13872263,0.31939,0.19838868,-0.14033263,0.318406,0.2945786,-0.22710286,0.378712,0.25778268,-0.18330147,0.346743,0.22676389,-0.18011301,0.330388,0.22058368,-0.19686746,0.330416,0.29191921,-0.25706597,0.381193,0.23699929,-0.22042962,0.352264,0.2161288,-0.21607552,0.338972,0.20844051,-0.21582039,0.338172
0.27104435,-0.27679499,0.443163,0.28785769,-0.24208234,0.414311,0.27627033,-0.25490403,0.442696,0.23636229,-0.21788558,0.425669,0.21044886,-0.18219896,0.411179,0.20086989,-0.15497966,0.397644,0.30212174,-0.19397598,0.394113,0.25789084,-0.16008576,0.36546,0.23420809,-0.14373522,0.351134,0.2151016,-0.14579106,0.354305,0.30207828,-0.21099432,0.386833,0.24726769,-0.17244767,0.350172,0.21000594,-0.17418596,0.328787,0.2132686,-0.18529892,0.330489,0.30043235,-0.22976455,0.383947,0.26411862,-0.18733186,0.354139,0.23284729,-0.18474949,0.338888,0.22527767,-0.20010275,0.341511,0.29518477,-0.25944851,0.386021,0.24288214,-0.22287751,0.3588,0.22453081,-0.21847607,0.346293,0.21545212,-0.22311832,0.347444
0.28593608,-0.29170565,0.448141,0.2896927,-0.24415359,0.418042,0.28670167,-0.26782386,0.448316,0.24366378,-0.23771106,0.432268,0.21485037,-0.20556557,0.418716,0.20074859,-0.17928946,0.405519,0.28521383,-0.18607456,0.397835,0.24372455,-0.14880095,0.369103,0.22271418,-0.13004355,0.354737,0.21192387,-0.11859864,0.356891,0.29186729,-0.19895844,0.389377,0.23313746,-0.17143906,0.351984,0.19540619,-0.17542752,0.330171,0.19411729,-0.18772564,0.33068,0.29728342,-0.21501345,0.385656,0.26329536,-0.17516296,0.354468,0.23277297,-0.18315273,0.33851,0.22438795,-0.19808161,0.33972,0.30324076,-0.2435412,0.386995,0.24616586,-0.22146913,0.359566,0.22562772,-0.21817444,0.346964,0.21565912,-0.22314605,0.347302
0.27096496,-0.27843713,0.429256,0.28026901,-0.23751274,0.406956,0.26458591,-0.26542821,0.433983,0.22711448,-0.23822721,0.425829,0.20780961,-0.20511275,0.423228,0.20360267,-0.1814819,0.417274,0.28503374,-0.18782096,0.397971,0.24843879,-0.15260413,0.37838,0.22986818,-0.13366224,0.368584,0.22171394,-0.1210173,0.374901,0.28868955,-0.19599078,0.385717,0.23133239,-0.16790641,0.356995,0.19698191,-0.17432087,0.34024,0.19884204,-0.1950117,0.344557,0.29009623,-0.20436724,0.378031,0.25025578,-0.17072944,0.35656,0.22939311,-0.15306755,0.345575,0.21116068,-0.16046539,0.351186,0.2901431,-0.22471377,0.3733,0.24375816,-0.19585545,0.352925,0.2275261,-0.20232816,0.343564,0.21757669,-0.21328951,0.346987
0.26362667,-0.27546164,0.424454,0.27078934,-0.232569,0.403547,0.25721922,-0.26162519,0.428007,0.2167126,-0.2324382,0.418074,0.19953791,-0.19855379,0.416944,0.19683716,-0.17412145,0.412575,0.27426747,-0.181174,0.393978,0.24099765,-0.14554603,0.372467,0.22387898,-0.1270518,0.361711,0.21842103,-0.11876675,0.368712,0.28209688,-0.18752901,0.383635,0.22928203,-0.16490945,0.355565,0.1963937,-0.17365336,0.339191,0.19767063,-0.1945708,0.34494,0.28760168,-0.19779091,0.377371,0.24710345,-0.17093342,0.355888,0.22158237,-0.15760175,0.344897,0.20500552,-0.16972488,0.351758,0.29215007,-0.21913286,0.37403,0.24457299,-0.19511109,0.353632,0.22837216,-0.20163792,0.34426,0.22293069,-0.21423298,0.348628
0.25590736,-0.27291076,0.422156,0.26805965,-0.23156328,0.401897,0.25322805,-0.26054377,0.425768,0.2139385,-0.23207053,0.416017,0.19671885,-0.19796515,0.414261,0.19309599,-0.17263998,0.409454,0.27265739,-0.18158338,0.392846,0.23979164,-0.14650726,0.372346,0.22282302,-0.1282328,0.362097,0.21776327,-0.11855581,0.36961,0.28023076,-0.18826783,0.382603,0.22758462,-0.16475756,0.355142,0.19594713,-0.17490238,0.339123,0.19787687,-0.19514143,0.345251,0.28542796,-0.19876798,0.376351,0.2379082,-0.17674331,0.355364,0.21358718,-0.16439822,0.344627,0.19742602,-0.17769319,0.351851,0.28955839,-0.22169786,0.372902,0.24282723,-0.19543162,0.352916,0.2268402,-0.20191918,0.343733,0.21930489,-0.21483881,0.348379
0.25455279,-0.27136868,0.417512,0.26587797,-0.22994906,0.399251,0.24594288,-0.25876164,0.421268,0.21206417,-0.23116327,0.412047,0.19452801,-0.19730324,0.409806,0.18756521,-0.17088595,0.403876,0.27200017,-0.18118764,0.391744,0.24012013,-0.14709106,0.373141,0.22477803,-0.13024993,0.36384,0.2188815,-0.11928725,0.372535,0.27971889,-0.18812882,0.381859,0.22778383,-0.16532781,0.356286,0.19822952,-0.17770225,0.341368,0.20007342,-0.1973358,0.348626,0.28575073,-0.19985004,0.375688,0.23891186,-0.17719709,0.356223,0.2149127,-0.16535638,0.346265,0.19931345,-0.17937267,0.35457,0.28869738,-0.22115504,0.371957,0.24269353,-0.19599313,0.353241,0.2271508,-0.2027802,0.344642,0.22146199,-0.21607028,0.350115
0.25079915,-0.27296896,0.415316,0.26351335,-0.22783201,0.396452,0.24270377,-0.25688671,0.414648,0.20627256,-0.23703385,0.398691,0.18403707,-0.20989679,0.396372,0.16680489,-0.1848135,0.386148,0.23691306,-0.17265723,0.382773,0.20960214,-0.12417011,0.360381,0.19343194,-0.10972325,0.349186,0.1923561,-0.12254551,0.357952,0.25860527,-0.1761918,0.378486,0.22155381,-0.16450492,0.349311,0.20412778,-0.18351469,0.332293,0.21315258,-0.19498687,0.339769,0.27712963,-0.18463896,0.376988,0.2445829,-0.17221884,0.353356,0.23083406,-0.1910216,0.341266,0.23311801,-0.20645722,0.349502,0.30004259,-0.20452015,0.378795,0.27786631,-0.18677468,0.357243,0.25461673,-0.19176262,0.34734,0.24713254,-0.20416602,0.352925
