sluyters/QuantumLeap/backend/src/datasets/dynamic/HandGestureDataset_SHREC2017_csv/Gesture5/finger_1/subject_4_essai_2_skeletons_world.csv
Wrist_x,Wrist_y,Wrist_z,Palm_x,Palm_y,Palm_z,thumb_base_x,thumb_base_y,thumb_base_z,thumb_first_joint_x,thumb_first_joint_y,thumb_first_joint_z,thumb_second_joint_x,thumb_second_joint_y,thumb_second_joint_z,thumb_tip_x,thumb_tip_y,thumb_tip_z,index_base_x,index_base_y,index_base_z,index_first_joint_x,index_first_joint_y,index_first_joint_z,index_second_joint_x,index_second_joint_y,index_second_joint_z,index_tip_x,index_tip_y,index_tip_z,middle_base_x,middle_base_y,middle_base_z,middle_first_joint_x,middle_first_joint_y,middle_first_joint_z,middle_second_joint_x,middle_second_joint_y,middle_second_joint_z,middle_tip_x,middle_tip_y,middle_tip_z,ring_base_x,ring_base_y,ring_base_z,ring_first_joint_x,ring_first_joint_y,ring_first_joint_z,ring_second_joint_x,ring_second_joint_y,ring_second_joint_z,ring_tip_x,ring_tip_y,ring_tip_z,pinky_base_x,pinky_base_y,pinky_base_z,pinky_first_joint_x,pinky_first_joint_y,pinky_first_joint_z,pinky_second_joint_x,pinky_second_joint_y,pinky_second_joint_z,pinky_tip_x,pinky_tip_y,pinky_tip_z,
0.54179973,-0.31901237,0.598921,0.52151782,-0.26407667,0.571836,0.5127697,-0.29742806,0.588722,0.48667997,-0.27330639,0.562391,0.45618291,-0.24643697,0.533602,0.43853506,-0.22228682,0.513751,0.4695077,-0.19542502,0.536158,0.47412458,-0.15665261,0.534851,0.47579483,-0.13729876,0.534197,0.47680376,-0.11892506,0.533603,0.49637709,-0.19990288,0.538688,0.46445949,-0.17932396,0.505032,0.44204513,-0.1964276,0.485399,0.44127745,-0.21056025,0.488434,0.52083285,-0.20755336,0.542926,0.48966828,-0.19767699,0.51149,0.49881317,-0.22464132,0.526058,0.51760978,-0.24549106,0.544571,0.55478914,-0.22365962,0.552085,0.52032211,-0.21228011,0.523922,0.50319097,-0.21673988,0.510982,0.50443897,-0.22912082,0.512745
0.54388856,-0.31976642,0.599449,0.5228559,-0.26459294,0.572509,0.51475345,-0.29872228,0.589628,0.48534959,-0.27445187,0.563774,0.45725265,-0.24818195,0.535083,0.44054623,-0.22502489,0.514973,0.46943501,-0.19711542,0.537418,0.47401387,-0.15718277,0.535669,0.47431051,-0.13710947,0.534794,0.4769655,-0.11963404,0.533999,0.49684907,-0.20024744,0.539538,0.46540241,-0.17921,0.506059,0.44362669,-0.19642167,0.48653,0.44284905,-0.21070463,0.48968,0.52107819,-0.20758476,0.543426,0.49062712,-0.19777975,0.512269,0.50021979,-0.22499871,0.526941,0.51841744,-0.2459724,0.545383,0.55432937,-0.22258045,0.552147,0.52050548,-0.21281466,0.524194,0.50246017,-0.21507655,0.511351,0.50430442,-0.22774027,0.513226
0.54464372,-0.3203627,0.599626,0.52337068,-0.26506067,0.572845,0.51529328,-0.29950211,0.589807,0.4859197,-0.27475692,0.563957,0.45758446,-0.24865936,0.535236,0.44159193,-0.22585451,0.515167,0.46933801,-0.19884495,0.537892,0.47056306,-0.16119767,0.536696,0.4718352,-0.14199509,0.536099,0.47769523,-0.12045125,0.535555,0.49709235,-0.20064664,0.540069,0.46588244,-0.18108318,0.50672,0.44513839,-0.19874964,0.487267,0.44415007,-0.21105905,0.4905,0.52142585,-0.20778421,0.543992,0.49134555,-0.19851729,0.512935,0.5012367,-0.22663614,0.527676,0.51905164,-0.24659699,0.546105,0.55468585,-0.22454754,0.55273,0.51940821,-0.22073335,0.524861,0.50428612,-0.21897826,0.512057,0.50534494,-0.22992847,0.513994
0.54484368,-0.3206328,0.59919,0.52341252,-0.26529387,0.572673,0.51535855,-0.30000905,0.589444,0.48606223,-0.27484647,0.563694,0.4573115,-0.24878354,0.53497,0.44172941,-0.22621745,0.514963,0.46883365,-0.19982329,0.538035,0.47045847,-0.16172945,0.536728,0.47163445,-0.14253027,0.536075,0.47660992,-0.12182879,0.535481,0.49696548,-0.20090475,0.540219,0.46622615,-0.17933233,0.507099,0.44499264,-0.19647987,0.487778,0.44528479,-0.21105445,0.491155,0.52134276,-0.20781653,0.544127,0.48919226,-0.20266904,0.513273,0.50178032,-0.2302692,0.528135,0.51927741,-0.24741824,0.54653,0.55465971,-0.22428204,0.552807,0.51938447,-0.22082138,0.525105,0.50435831,-0.21961114,0.512378,0.50547506,-0.23067014,0.514427
0.54763172,-0.32263802,0.601537,0.5254115,-0.26734773,0.574431,0.51729489,-0.30184108,0.591174,0.48728653,-0.27561826,0.564636,0.45841592,-0.24944329,0.536124,0.44316025,-0.22688361,0.51616,0.46794394,-0.20231857,0.538532,0.47139151,-0.16386192,0.537481,0.47284112,-0.14504293,0.536956,0.47415988,-0.12757121,0.536478,0.49606824,-0.20373688,0.541256,0.46331409,-0.18729519,0.507557,0.44241233,-0.20412044,0.487898,0.44492989,-0.21315045,0.490903,0.52248126,-0.20928765,0.545655,0.49054915,-0.21215401,0.514124,0.50145205,-0.23964213,0.528662,0.51910283,-0.25131451,0.547202,0.5567428,-0.22507107,0.55501,0.52092699,-0.22209323,0.526779,0.50561429,-0.22053588,0.513807,0.50629661,-0.23143555,0.515536
0.54734343,-0.32272454,0.60064,0.52483114,-0.26675594,0.573833,0.51678658,-0.30211044,0.590227,0.48679972,-0.27531536,0.563634,0.45758381,-0.24891868,0.535136,0.44157396,-0.22625032,0.515643,0.4675235,-0.2022985,0.538127,0.46865133,-0.16297161,0.533851,0.46991726,-0.1468105,0.531714,0.4702598,-0.13117816,0.52977,0.49527038,-0.20417277,0.541023,0.46634575,-0.18132226,0.50756,0.44545947,-0.19834153,0.48804,0.44633873,-0.21143123,0.491193,0.52220675,-0.20859798,0.54554,0.49089215,-0.20963991,0.514172,0.50179131,-0.23713064,0.52883,0.51924979,-0.2515652,0.547352,0.55658011,-0.22484624,0.55499,0.52092918,-0.222117,0.526899,0.5058376,-0.22016113,0.513993,0.50546966,-0.23077833,0.515829
0.54338316,-0.32110351,0.595902,0.52193184,-0.26581938,0.57051,0.51220072,-0.30032233,0.584783,0.48240222,-0.2718967,0.557387,0.451264,-0.24415524,0.527864,0.4361675,-0.22290565,0.508449,0.46591591,-0.19934658,0.53515,0.473654,-0.15766989,0.530704,0.47778864,-0.1423038,0.528481,0.48099588,-0.12562642,0.52646,0.49553199,-0.20174198,0.539434,0.47457903,-0.1815133,0.507054,0.45377578,-0.19866075,0.488166,0.44828166,-0.21193976,0.491913,0.52156279,-0.20870023,0.54498,0.4988608,-0.20318108,0.514184,0.50460615,-0.23018716,0.529273,0.51962022,-0.25005724,0.547737,0.55684356,-0.2254156,0.555442,0.52241676,-0.22257038,0.527893,0.50729828,-0.22083959,0.515236,0.50738641,-0.2318065,0.517464
0.54400465,-0.32263582,0.596459,0.52257376,-0.26856895,0.571066,0.51211418,-0.30156029,0.584725,0.4810588,-0.2722693,0.556595,0.45010986,-0.24461427,0.527129,0.43500812,-0.2222419,0.507631,0.46555235,-0.20099988,0.53495,0.47369589,-0.16146503,0.530076,0.47692862,-0.14318282,0.527638,0.47832543,-0.13574426,0.525423,0.49511409,-0.20474823,0.539988,0.47454199,-0.18208082,0.507538,0.45366784,-0.19896031,0.488609,0.4495399,-0.21202536,0.492239,0.52232252,-0.21126563,0.546154,0.49924863,-0.20374294,0.515077,0.50571706,-0.22848429,0.530021,0.51989114,-0.25047896,0.548539,0.55804014,-0.22888255,0.557355,0.52428394,-0.22345397,0.529618,0.50880182,-0.22228462,0.516874,0.50813908,-0.23181815,0.518972
0.54331646,-0.32395742,0.596034,0.52271404,-0.27212123,0.571823,0.51198732,-0.30307203,0.584896,0.47967475,-0.27541267,0.557553,0.44776963,-0.24638065,0.528955,0.43316935,-0.22071636,0.509624,0.47481274,-0.20685247,0.53745,0.48016047,-0.16932067,0.529686,0.482293,-0.15173248,0.525803,0.4804968,-0.14544612,0.522274,0.50359699,-0.21348545,0.542192,0.4785562,-0.19041907,0.510811,0.45527151,-0.20677327,0.492506,0.45468206,-0.21692558,0.496798,0.52909074,-0.22309791,0.54802,0.50142579,-0.21327826,0.517991,0.506496,-0.23933726,0.533488,0.52131807,-0.25495778,0.551804,0.56279966,-0.24277696,0.55864,0.52658392,-0.23439634,0.531749,0.50909802,-0.23162394,0.519394,0.5103113,-0.2338345,0.522027
0.53813638,-0.32332262,0.592363,0.5197824,-0.27056821,0.569497,0.50835273,-0.30197346,0.581927,0.46074373,-0.26557922,0.555525,0.42758179,-0.23525056,0.528198,0.40780202,-0.20855908,0.511281,0.47483587,-0.20397863,0.537134,0.47996826,-0.16251567,0.528576,0.48155128,-0.14868678,0.524297,0.47964448,-0.14508957,0.520406,0.50285495,-0.21171244,0.541511,0.48105854,-0.19120471,0.511365,0.45705645,-0.20778181,0.49378,0.45627774,-0.21754365,0.4988,0.52737392,-0.22210886,0.546932,0.5027723,-0.21261474,0.51812,0.50882725,-0.23731533,0.534206,0.52139322,-0.25544929,0.552267,0.55936436,-0.24247565,0.556862,0.52855391,-0.22522149,0.530959,0.51445861,-0.22382737,0.519057,0.51376281,-0.23095164,0.52228
0.52085494,-0.323251,0.588498,0.51470121,-0.26820354,0.566528,0.49157881,-0.29486715,0.577981,0.4577582,-0.26203276,0.55156,0.42447824,-0.22730198,0.52419,0.40511745,-0.20336691,0.505933,0.48083195,-0.19603249,0.534833,0.49748307,-0.16106487,0.527571,0.50503715,-0.14580949,0.52394,0.51071654,-0.1342731,0.520639,0.50756301,-0.20838281,0.539639,0.48868578,-0.19355952,0.51026,0.45754417,-0.20798222,0.493122,0.45617632,-0.21769443,0.498514,0.52726337,-0.2217866,0.545342,0.50950149,-0.2128168,0.517096,0.51068205,-0.23652947,0.533431,0.52014895,-0.25586258,0.551362,0.55798209,-0.24351935,0.555472,0.53413465,-0.23401658,0.530064,0.51773814,-0.23032036,0.51839,0.50933175,-0.23390379,0.521883
0.52088263,-0.31959115,0.58393,0.51695345,-0.26808199,0.565587,0.50142788,-0.29857177,0.577881,0.46475551,-0.26287258,0.557357,0.43699669,-0.23334948,0.538765,0.42286065,-0.20803429,0.525343,0.50376905,-0.20113397,0.542477,0.51157419,-0.16417857,0.523901,0.51274643,-0.14847093,0.514613,0.51141592,-0.13677814,0.506169,0.52625564,-0.2144811,0.543139,0.50246128,-0.20343145,0.517595,0.47225542,-0.21879883,0.502694,0.46906605,-0.22670391,0.510146,0.54458162,-0.22916122,0.545143,0.51972174,-0.22351888,0.521556,0.52224431,-0.24804144,0.539502,0.52535331,-0.26369446,0.556195,0.56596004,-0.2537974,0.550313,0.53340325,-0.24410797,0.528575,0.51309681,-0.24117766,0.518587,0.50361483,-0.24706671,0.523921
0.51802418,-0.31783006,0.582314,0.51222589,-0.2659686,0.560133,0.49660208,-0.29342533,0.57807,0.467907,-0.26146602,0.559717,0.43288397,-0.22582149,0.534703,0.41543139,-0.20256991,0.516244,0.50076833,-0.19900137,0.535953,0.50442135,-0.16195358,0.509223,0.49983775,-0.14672734,0.495857,0.49022622,-0.13341112,0.483707,0.51873651,-0.21171911,0.532986,0.48968387,-0.19936826,0.504587,0.45741328,-0.21275213,0.488021,0.45456339,-0.21999008,0.493669,0.5333829,-0.22577097,0.532309,0.50449682,-0.21905919,0.507211,0.50473167,-0.24193123,0.523702,0.51012643,-0.25732699,0.540424,0.55119993,-0.25236099,0.534868,0.51369921,-0.24050369,0.511725,0.49032597,-0.2363394,0.501092,0.4822893,-0.23933544,0.505208
0.5246781,-0.31967851,0.586739,0.51635447,-0.26871239,0.561765,0.50373597,-0.29748964,0.581793,0.47129676,-0.26262129,0.562429,0.43678537,-0.22923684,0.537617,0.41984171,-0.20223464,0.520368,0.50515373,-0.19962013,0.534337,0.50339985,-0.16209475,0.505518,0.49738552,-0.14695906,0.491109,0.48787406,-0.13653078,0.47801,0.52202072,-0.21346472,0.531201,0.48557447,-0.20587676,0.500359,0.4515662,-0.21669412,0.482368,0.45175515,-0.22055199,0.486581,0.53587771,-0.22848429,0.530609,0.5010706,-0.22128995,0.503361,0.49882991,-0.24293498,0.518707,0.50690362,-0.25853576,0.53584,0.55235588,-0.25344444,0.533692,0.51817669,-0.24362967,0.508767,0.4928371,-0.23964387,0.497315,0.47856437,-0.23906028,0.500315
0.52150021,-0.31852526,0.585432,0.51632281,-0.2688788,0.559699,0.50229521,-0.29529989,0.580755,0.47415296,-0.26134791,0.561777,0.44022431,-0.22679296,0.537557,0.42479671,-0.19913186,0.521105,0.51220397,-0.20215345,0.53195,0.51240445,-0.16577619,0.502294,0.50722677,-0.15056028,0.487466,0.49825527,-0.13960794,0.473986,0.52704634,-0.21743442,0.528205,0.48435638,-0.20595841,0.496837,0.44934457,-0.21591871,0.478538,0.44866642,-0.21976093,0.482289,0.53904638,-0.23349368,0.527173,0.49893429,-0.22818964,0.49963,0.49548136,-0.24579057,0.514535,0.50319235,-0.25806085,0.53161,0.55295327,-0.25941374,0.529845,0.51492997,-0.2441907,0.504665,0.48944881,-0.23958968,0.493096,0.47677338,-0.24238319,0.495769
0.51638713,-0.3171786,0.588053,0.51692644,-0.26751687,0.560611,0.4999758,-0.28902646,0.580568,0.46697625,-0.24802535,0.557752,0.43283989,-0.21315184,0.531937,0.41575671,-0.18689094,0.513096,0.50911199,-0.19935394,0.527957,0.50796274,-0.16463561,0.49707,0.501318,-0.1532476,0.481627,0.50243764,-0.14269628,0.476555,0.52429065,-0.21514585,0.527026,0.48476564,-0.20667327,0.4936,0.44598617,-0.21452801,0.474101,0.4445408,-0.22118212,0.477065,0.53879181,-0.2321086,0.528444,0.49840967,-0.22791508,0.498225,0.49408716,-0.24783104,0.51268,0.50253003,-0.25852623,0.530657,0.55640329,-0.2614425,0.534297,0.51637118,-0.24574168,0.506997,0.48967003,-0.24069154,0.494454,0.47630994,-0.24336522,0.49635
0.51566867,-0.31635298,0.587631,0.51752332,-0.26785977,0.560062,0.49977042,-0.28799329,0.580026,0.46698741,-0.24763941,0.55705,0.43262668,-0.21264865,0.530973,0.41719611,-0.18911094,0.512263,0.50904231,-0.19853332,0.527152,0.50826499,-0.16420843,0.496212,0.50117174,-0.15282555,0.480742,0.50093268,-0.14345937,0.474947,0.5260119,-0.21563686,0.526322,0.48487657,-0.20643636,0.492769,0.44593886,-0.21433704,0.473197,0.44413969,-0.22085393,0.476091,0.53984091,-0.23324365,0.527834,0.49843443,-0.22765338,0.497471,0.49405673,-0.24751097,0.511871,0.50272137,-0.2596123,0.529884,0.5560205,-0.26113889,0.533817,0.51567409,-0.24564832,0.506403,0.48882546,-0.2405818,0.493807,0.47546328,-0.24335281,0.495643
0.51375776,-0.31438442,0.585941,0.51814006,-0.26646243,0.556637,0.49870146,-0.28421033,0.576643,0.46844866,-0.23588008,0.551461,0.43774764,-0.2001165,0.526127,0.42374121,-0.17290048,0.507884,0.51443427,-0.19630559,0.520164,0.50668849,-0.16991925,0.487742,0.49779835,-0.15908615,0.471531,0.48982775,-0.14916451,0.456793,0.52973383,-0.21660905,0.520773,0.48113759,-0.20583446,0.485501,0.43970305,-0.21136207,0.464926,0.43571435,-0.21527792,0.466796,0.54192318,-0.23657983,0.523606,0.49393199,-0.22649115,0.491279,0.48753487,-0.24448705,0.50483,0.49609059,-0.25593044,0.523297,0.5556066,-0.26678974,0.531428,0.51130851,-0.24582862,0.502462,0.48360615,-0.23971807,0.489154,0.46975341,-0.24088031,0.490111
0.5053588,-0.30929337,0.576436,0.51088207,-0.26360784,0.548177,0.49030845,-0.28216471,0.568437,0.46527443,-0.23998308,0.544946,0.43462363,-0.20390503,0.518771,0.41992812,-0.17346165,0.501153,0.50717526,-0.20055882,0.514193,0.50319568,-0.16996332,0.482574,0.4988391,-0.16027496,0.466764,0.48831563,-0.14919667,0.452392,0.52207376,-0.21984012,0.513592,0.51738359,-0.17754049,0.479409,0.50044193,-0.16578769,0.459468,0.50677076,-0.16324992,0.461968,0.53390266,-0.23891121,0.515347,0.48685298,-0.23455412,0.484351,0.47995708,-0.25006663,0.498419,0.49044264,-0.25622064,0.516555,0.54716819,-0.26790988,0.521725,0.50055468,-0.25187905,0.493802,0.47067677,-0.24352636,0.480972,0.46134013,-0.23879959,0.482487
0.50106957,-0.30631529,0.572264,0.51530562,-0.26869698,0.55036,0.48966073,-0.27984608,0.566435,0.46739534,-0.24145402,0.545942,0.44337705,-0.2079306,0.527287,0.43529175,-0.18210241,0.51483,0.52342451,-0.20731158,0.524473,0.48174367,-0.19455785,0.500216,0.48034155,-0.21134242,0.516135,0.48146837,-0.22795708,0.533487,0.53623938,-0.2266574,0.523552,0.53132586,-0.19161712,0.495008,0.52139201,-0.17302103,0.478357,0.51300505,-0.16270076,0.466463,0.54464438,-0.2444852,0.524538,0.50302729,-0.23356936,0.498708,0.49846216,-0.25340099,0.515482,0.50850918,-0.27083791,0.533658,0.55504853,-0.27319863,0.529035,0.51335738,-0.25365598,0.505355,0.48586341,-0.24781206,0.494475,0.47580879,-0.24826997,0.498634
0.50670761,-0.3090943,0.578731,0.51322979,-0.26545622,0.549224,0.49314384,-0.27981333,0.568699,0.46801293,-0.2319266,0.542575,0.44288429,-0.19502095,0.519105,0.43255006,-0.16860463,0.502008,0.51297412,-0.20235307,0.511678,0.47045767,-0.18833503,0.480544,0.46199204,-0.2017973,0.493285,0.46300046,-0.21718907,0.510661,0.52712802,-0.22311548,0.513112,0.5097254,-0.19485354,0.477544,0.49888095,-0.17760735,0.456796,0.49126405,-0.16518955,0.441977,0.53844438,-0.2436098,0.51664,0.49255244,-0.2315827,0.483807,0.48205645,-0.24776702,0.497229,0.4917694,-0.26271987,0.515849,0.55097945,-0.27464695,0.525321,0.50449713,-0.25126381,0.495974,0.4738101,-0.24450668,0.482491,0.46012576,-0.24505087,0.48328
0.50586505,-0.30819827,0.578425,0.51363285,-0.26600624,0.54832,0.4932733,-0.2783782,0.567956,0.46722203,-0.23128097,0.541289,0.44203307,-0.19430415,0.517633,0.43166481,-0.1678886,0.500427,0.51210171,-0.20170995,0.509725,0.46840872,-0.18740287,0.478003,0.46264633,-0.20045621,0.490415,0.461432,-0.21566267,0.507891,0.52624482,-0.22287217,0.511475,0.50787703,-0.19417512,0.475363,0.49570728,-0.17721595,0.454297,0.48664845,-0.16520283,0.439251,0.53755849,-0.24366535,0.515311,0.49092418,-0.23085721,0.481897,0.48081232,-0.24677813,0.494972,0.48992778,-0.26214216,0.513687,0.55010643,-0.27500964,0.524449,0.50359091,-0.25105914,0.494645,0.47267327,-0.24422817,0.480951,0.45869559,-0.2446873,0.481424
0.50518968,-0.30765737,0.577746,0.51450595,-0.26811321,0.547305,0.49308606,-0.27731295,0.566702,0.46657521,-0.23074818,0.53932,0.44195479,-0.19362685,0.515767,0.431715,-0.16757833,0.498566,0.51186756,-0.20116004,0.507718,0.46654329,-0.18735505,0.475455,0.46058693,-0.20033887,0.487641,0.46107363,-0.21493979,0.505241,0.52535546,-0.22249718,0.510049,0.50649332,-0.19424509,0.47358,0.49365078,-0.17791549,0.452307,0.4828451,-0.16806405,0.437112,0.5372398,-0.24354563,0.514389,0.49057952,-0.23075279,0.480487,0.48157254,-0.24570088,0.493328,0.48855078,-0.26142799,0.512147,0.55053478,-0.27522681,0.52418,0.50395853,-0.25239669,0.494004,0.47379106,-0.2456427,0.48014,0.45937706,-0.24557003,0.480385
0.50453407,-0.30735947,0.577661,0.51431194,-0.26819935,0.546609,0.49230992,-0.27611764,0.565294,0.46473072,-0.2297349,0.536298,0.44010846,-0.19254108,0.512413,0.42986362,-0.16674712,0.495128,0.50967594,-0.20070103,0.504877,0.46514143,-0.18996215,0.471476,0.45851001,-0.20230603,0.483148,0.45789191,-0.21434347,0.500991,0.52550291,-0.22324452,0.508606,0.50614789,-0.20194937,0.471474,0.49394278,-0.1880092,0.449814,0.48534219,-0.17800193,0.434342,0.53822454,-0.24515435,0.514145,0.49221973,-0.2336888,0.479242,0.48155725,-0.24623321,0.491549,0.48707839,-0.26079195,0.510559,0.55249456,-0.27779534,0.525458,0.50792405,-0.25635947,0.494537,0.47524944,-0.24714854,0.480331,0.45982561,-0.24595785,0.480081
0.5059496,-0.30882487,0.58021,0.51535315,-0.27425551,0.546463,0.49309176,-0.27642317,0.565937,0.46722298,-0.23204115,0.53482,0.44966889,-0.19503724,0.512068,0.4427431,-0.16983131,0.495605,0.50819587,-0.21147718,0.500086,0.46194883,-0.20360555,0.464256,0.45674237,-0.22217509,0.473956,0.46251433,-0.24223305,0.49197,0.52333513,-0.23603498,0.505161,0.50216539,-0.20868693,0.465777,0.48529699,-0.19533611,0.442804,0.47330196,-0.18577836,0.426394,0.53546187,-0.25933358,0.512022,0.48917503,-0.24697762,0.474715,0.47688183,-0.25640963,0.484945,0.47669513,-0.26870215,0.504096,0.54904063,-0.2930818,0.525318,0.49802372,-0.27455993,0.492555,0.46577976,-0.26773508,0.477502,0.45209036,-0.26820882,0.475572
0.50605739,-0.30943696,0.580283,0.51510319,-0.27543128,0.546006,0.49407725,-0.27698644,0.566033,0.47099941,-0.23427972,0.53499,0.45712449,-0.19564467,0.513095,0.44741036,-0.17039356,0.496405,0.5081336,-0.21130526,0.499206,0.46362244,-0.20228499,0.463747,0.45802213,-0.22073449,0.473157,0.4631692,-0.2409439,0.490909,0.52301754,-0.23576192,0.504057,0.50118691,-0.20856583,0.464287,0.48263526,-0.19602607,0.441088,0.4688001,-0.18739983,0.424517,0.53497396,-0.25896539,0.510775,0.48813782,-0.24673248,0.473189,0.47557145,-0.2557862,0.483076,0.47637544,-0.26761276,0.502203,0.54844404,-0.29259433,0.523982,0.49867612,-0.27429341,0.49099,0.46628324,-0.26739722,0.475832,0.45194959,-0.26763318,0.473642
0.50521269,-0.30969062,0.579398,0.5141353,-0.278238,0.545109,0.49414728,-0.2772556,0.565202,0.47299982,-0.23582466,0.534221,0.45715933,-0.19690925,0.511913,0.45297153,-0.17185202,0.496343,0.50769282,-0.2115608,0.498364,0.46368559,-0.20353586,0.463866,0.45813552,-0.2220066,0.473334,0.46304173,-0.2419161,0.490729,0.52246943,-0.23598213,0.503144,0.50059984,-0.20901075,0.46337,0.48160012,-0.1968408,0.440168,0.46575024,-0.19061857,0.423595,0.53433762,-0.25913945,0.509806,0.48742048,-0.24709736,0.472235,0.47488052,-0.25614913,0.482131,0.47560171,-0.2679552,0.501254,0.54770647,-0.2926835,0.522947,0.49850131,-0.27457174,0.489964,0.46626869,-0.26761247,0.47481,0.45123224,-0.26781527,0.472627
0.50347857,-0.30919203,0.577359,0.51255618,-0.27498439,0.542658,0.49178776,-0.27614986,0.561612,0.46996341,-0.22995853,0.528927,0.45450699,-0.19232302,0.50443,0.44864181,-0.16897537,0.489689,0.5070674,-0.2113626,0.493657,0.46056202,-0.20646342,0.459534,0.45334157,-0.22353042,0.468233,0.45618206,-0.24144859,0.485174,0.52156036,-0.23603766,0.500189,0.49669526,-0.21885804,0.460024,0.48046462,-0.20765709,0.436594,0.46892902,-0.1996564,0.419859,0.53357068,-0.25935198,0.508325,0.48519348,-0.24982864,0.469903,0.47182862,-0.25640621,0.478919,0.47238449,-0.26704385,0.498035,0.54811341,-0.29376603,0.523285,0.49957922,-0.27653333,0.489734,0.4670716,-0.26918619,0.474318,0.44996808,-0.26799832,0.47148
0.50223446,-0.30842805,0.576452,0.51130863,-0.27454535,0.541358,0.49128318,-0.27539673,0.56051,0.46906334,-0.22890043,0.527656,0.45251021,-0.19193818,0.502969,0.44736179,-0.16810377,0.487639,0.5058403,-0.21121752,0.491781,0.4587611,-0.20857463,0.457433,0.45029482,-0.22319084,0.465784,0.45089947,-0.24334602,0.482674,0.5207647,-0.23700999,0.498407,0.49332586,-0.21877895,0.457955,0.47669335,-0.20756453,0.434358,0.4648615,-0.19955457,0.417503,0.53270344,-0.26112117,0.506652,0.48143503,-0.25176412,0.467947,0.46836142,-0.25724424,0.476593,0.46950212,-0.26641755,0.495675,0.54603638,-0.29543956,0.521802,0.4958627,-0.27900579,0.48804,0.46324539,-0.27100726,0.472527,0.44732503,-0.26748214,0.469417
0.50221076,-0.3081509,0.577243,0.51137604,-0.27641169,0.542468,0.49188755,-0.27536419,0.561292,0.4720378,-0.23183341,0.531093,0.45508049,-0.19465016,0.504768,0.4557475,-0.17345331,0.487229,0.502827,-0.21732536,0.493153,0.44748523,-0.21458566,0.459069,0.44111929,-0.22330907,0.467634,0.44402574,-0.23553857,0.484506,0.51585166,-0.24370965,0.499908,0.49268974,-0.2227573,0.459684,0.4772854,-0.21175882,0.43622,0.4670549,-0.20242547,0.41946,0.52610698,-0.26773807,0.508233,0.48260459,-0.25993897,0.469695,0.46842096,-0.26246354,0.478561,0.47052662,-0.26906339,0.497664,0.53731036,-0.30083727,0.523431,0.49876376,-0.29023021,0.489803,0.46729386,-0.28037692,0.474352,0.44908252,-0.27150517,0.471407
0.50286635,-0.30877858,0.578419,0.51114612,-0.27688643,0.542868,0.49254939,-0.27599777,0.561958,0.47221143,-0.23209559,0.530999,0.45874017,-0.1964805,0.504592,0.455197,-0.17408403,0.486265,0.50221533,-0.21809737,0.492266,0.44639558,-0.21506894,0.457813,0.43932372,-0.22334871,0.465604,0.44212536,-0.23544619,0.482312,0.51549884,-0.2446734,0.499359,0.49031234,-0.22572813,0.458579,0.4779414,-0.21568833,0.436828,0.46869311,-0.20648626,0.421292,0.52603374,-0.26890755,0.508025,0.48178971,-0.26075337,0.468896,0.46711853,-0.26517351,0.476933,0.46806561,-0.27094575,0.495943,0.53767707,-0.3023351,0.523745,0.49905313,-0.29163313,0.489689,0.4674268,-0.28164655,0.474042,0.44823051,-0.27341873,0.470501
0.50337366,-0.31066727,0.579371,0.50804517,-0.28273241,0.543242,0.49340472,-0.27809958,0.56308,0.47186512,-0.23932905,0.532068,0.4560854,-0.20383064,0.505454,0.45466562,-0.17656718,0.48737,0.50134575,-0.21931387,0.492353,0.44593077,-0.21593393,0.457356,0.43818025,-0.2240658,0.464789,0.44072754,-0.23624573,0.481569,0.51507513,-0.24546194,0.499025,0.48903459,-0.22583096,0.457846,0.47681087,-0.21569047,0.436472,0.46803878,-0.2069314,0.421205,0.52605656,-0.26949668,0.50739,0.48076019,-0.26102016,0.468026,0.46574357,-0.26775218,0.475703,0.46407128,-0.28131029,0.494665,0.53923145,-0.30427032,0.52284,0.49801509,-0.29127711,0.488584,0.46629693,-0.2812327,0.472845,0.44706697,-0.27346615,0.46904
0.49944829,-0.31176143,0.5742,0.50629448,-0.28656853,0.538372,0.48828445,-0.28229134,0.557689,0.47126953,-0.24243617,0.526376,0.45717874,-0.20167045,0.500425,0.45183184,-0.17592693,0.483399,0.49727917,-0.21767142,0.487472,0.45414544,-0.2134398,0.452201,0.44390624,-0.22188881,0.459729,0.44546152,-0.23671626,0.476655,0.51261876,-0.24448569,0.494524,0.48519966,-0.22450513,0.453552,0.4719383,-0.21530597,0.431888,0.46277946,-0.20729712,0.416414,0.52679,-0.2690339,0.503178,0.47722747,-0.25893108,0.46389,0.4628333,-0.26638716,0.471687,0.46183117,-0.28021185,0.490665,0.54624334,-0.30403184,0.518928,0.49516556,-0.28851427,0.48475,0.46331598,-0.279131,0.469047,0.44511188,-0.2751344,0.465333
0.497606,-0.31329441,0.572513,0.50603253,-0.28671527,0.537147,0.48692387,-0.28318726,0.556137,0.47025067,-0.24191204,0.525238,0.45651183,-0.20137626,0.499695,0.45172971,-0.17616415,0.482728,0.49714276,-0.21769358,0.486806,0.45278059,-0.21279835,0.450842,0.44277046,-0.22160566,0.458721,0.44469643,-0.23626404,0.47606,0.51299892,-0.24423651,0.493864,0.4852905,-0.22481472,0.453214,0.47126837,-0.21547106,0.431072,0.46143087,-0.20745148,0.415256,0.52732226,-0.26864234,0.502486,0.47723833,-0.25883422,0.463482,0.46336335,-0.26684669,0.471704,0.46240718,-0.28064809,0.490738,0.54540018,-0.30356255,0.518127,0.49520378,-0.28787736,0.484163,0.46329267,-0.27893456,0.468558,0.44533056,-0.27574375,0.465149
0.49372982,-0.31742063,0.568643,0.50449944,-0.28952398,0.534363,0.48487499,-0.29012964,0.554491,0.46804011,-0.24874713,0.525617,0.45303717,-0.20926757,0.501046,0.4516254,-0.1804576,0.483796,0.50138142,-0.23033087,0.487679,0.44808945,-0.21742226,0.451678,0.44020226,-0.22368233,0.461082,0.45347956,-0.23587349,0.479046,0.51360371,-0.25589736,0.492408,0.48745756,-0.23391842,0.452644,0.47183415,-0.21838927,0.430317,0.46131383,-0.20974251,0.414369,0.52321465,-0.27988113,0.499027,0.47366377,-0.26149771,0.461481,0.46100447,-0.26941546,0.471395,0.46187069,-0.28100137,0.490517,0.53354282,-0.31413746,0.512117,0.48199562,-0.29283201,0.47915,0.44986815,-0.28523526,0.464004,0.43325494,-0.28563665,0.461836
0.49173333,-0.31992646,0.567105,0.50197093,-0.29429521,0.532976,0.48391884,-0.29049911,0.553148,0.46708551,-0.24841759,0.524452,0.45203651,-0.20909644,0.4999,0.4474507,-0.18317428,0.482634,0.50065929,-0.23012602,0.48666,0.44730923,-0.21762806,0.450841,0.43829297,-0.22627962,0.460397,0.45326864,-0.23596535,0.47835,0.51264874,-0.25564265,0.491206,0.48642737,-0.23417763,0.45157,0.47125657,-0.22164947,0.428449,0.45898717,-0.21070193,0.411934,0.52204651,-0.27953993,0.497663,0.47081408,-0.26432424,0.460284,0.45805678,-0.27153601,0.470357,0.46025553,-0.28086763,0.489475,0.53209448,-0.31361203,0.510536,0.48051432,-0.29264217,0.477691,0.44844298,-0.28502871,0.4626,0.43196932,-0.28544359,0.460556
0.49177274,-0.31732279,0.567665,0.50123493,-0.29005341,0.531835,0.48205432,-0.28961032,0.551285,0.46574894,-0.2419883,0.520156,0.46011644,-0.20493022,0.496784,0.46165739,-0.18192566,0.48189,0.49485961,-0.22854796,0.481093,0.44339733,-0.22740353,0.446376,0.434239,-0.24343084,0.453998,0.44081783,-0.25736581,0.470743,0.50886107,-0.25460433,0.487984,0.4815768,-0.23502984,0.44701,0.4661463,-0.22671652,0.423108,0.45522003,-0.21905432,0.406036,0.5201302,-0.27937187,0.496505,0.46398315,-0.27055937,0.457261,0.44918668,-0.27560621,0.465128,0.45267302,-0.2807491,0.484117,0.53264727,-0.31455339,0.512097,0.4796876,-0.29412473,0.477943,0.44738525,-0.28556093,0.46225,0.42933485,-0.28410873,0.458583
0.49134708,-0.32262086,0.567627,0.50008033,-0.28991321,0.530555,0.48169392,-0.28950811,0.550543,0.47113159,-0.24258683,0.520821,0.46253756,-0.20486727,0.497476,0.46419934,-0.18202398,0.482617,0.4915417,-0.2284824,0.477885,0.43869087,-0.22665425,0.44259,0.42830465,-0.24170547,0.44882,0.43552336,-0.25503035,0.465236,0.50588655,-0.25516125,0.485182,0.47895824,-0.23581812,0.443395,0.46776192,-0.22691897,0.423249,0.45895361,-0.21781932,0.408859,0.51782013,-0.27918196,0.494137,0.46196262,-0.270228,0.454058,0.44609453,-0.27395777,0.460441,0.45032761,-0.27750276,0.479174,0.53122635,-0.31392673,0.510433,0.47542651,-0.29652239,0.475694,0.44397492,-0.28554879,0.459732,0.42549133,-0.28220154,0.455042
0.49069613,-0.31656066,0.566592,0.49945025,-0.28913697,0.529164,0.48140828,-0.28823279,0.549102,0.47486716,-0.23964223,0.51996,0.46567225,-0.20166255,0.496386,0.46374162,-0.17968786,0.480128,0.49300097,-0.22846223,0.475693,0.43720213,-0.22584493,0.44037,0.42617917,-0.2399412,0.446013,0.43293017,-0.25322336,0.462206,0.50720873,-0.2556256,0.483357,0.47984922,-0.23636475,0.441372,0.46684556,-0.22752571,0.420481,0.45639236,-0.22052138,0.405559,0.51732841,-0.2797364,0.492642,0.45927381,-0.26987732,0.452286,0.44323142,-0.27302802,0.458036,0.44664678,-0.27827868,0.476628,0.53057589,-0.31378051,0.509385,0.47409001,-0.29635195,0.474475,0.44229939,-0.28517743,0.458436,0.42376704,-0.28128302,0.45333
0.49066324,-0.31795443,0.565622,0.49916755,-0.28876736,0.528294,0.4811968,-0.28724049,0.54793,0.4767193,-0.23708164,0.518588,0.46477043,-0.20080214,0.494319,0.46244614,-0.1788704,0.47765,0.49579978,-0.22929928,0.474659,0.43691021,-0.22598678,0.439527,0.42561915,-0.23975706,0.445124,0.431544,-0.25332743,0.461223,0.50738488,-0.25614136,0.482608,0.4811193,-0.23864064,0.440702,0.46230388,-0.23004832,0.417548,0.44225813,-0.22754758,0.40101,0.51751186,-0.28034776,0.49212,0.4581976,-0.27137155,0.451753,0.44234748,-0.27323881,0.457443,0.44563807,-0.27958969,0.476015,0.5304824,-0.31425885,0.509119,0.47364022,-0.29686911,0.474221,0.44110545,-0.28614068,0.458186,0.42334032,-0.28133703,0.453048
0.49043684,-0.31935813,0.564447,0.49862084,-0.29022229,0.527236,0.48095185,-0.28671766,0.546908,0.4747821,-0.23863048,0.517819,0.4651161,-0.20112243,0.49389,0.46272467,-0.17913908,0.477081,0.4951701,-0.23026292,0.47389,0.43663236,-0.22728328,0.438754,0.42526221,-0.24022111,0.444569,0.43082814,-0.25404527,0.460757,0.50819817,-0.25781568,0.481695,0.48027679,-0.23962689,0.439849,0.46275943,-0.23315584,0.417763,0.45284993,-0.22515327,0.401987,0.51863755,-0.28284036,0.491078,0.45588396,-0.2725525,0.450805,0.44157155,-0.27452085,0.45673,0.44501263,-0.2812961,0.475359,0.53036498,-0.31715718,0.507906,0.47229007,-0.29801649,0.473062,0.43987424,-0.286737,0.457053,0.42368367,-0.2813918,0.452068
0.49060854,-0.31967697,0.563807,0.49861326,-0.29020552,0.526789,0.48138855,-0.28710573,0.546195,0.47469499,-0.23870357,0.517315,0.46515241,-0.20124061,0.493451,0.46278942,-0.1792716,0.476576,0.49486912,-0.23074976,0.473519,0.4366756,-0.22778255,0.438566,0.42531978,-0.24069723,0.444508,0.43056461,-0.25465037,0.460675,0.50801419,-0.25838129,0.481484,0.48022834,-0.24030446,0.439764,0.46339734,-0.23339606,0.417686,0.45281773,-0.22615345,0.401915,0.5185342,-0.28346707,0.490983,0.45584082,-0.27317705,0.450776,0.441499,-0.27516717,0.456829,0.44503668,-0.28199254,0.475482,0.53032379,-0.31783899,0.50792,0.47228275,-0.29869936,0.473134,0.44006633,-0.28726019,0.457151,0.42435931,-0.28188303,0.452255
0.49130572,-0.31953761,0.564097,0.49913266,-0.29049821,0.526996,0.48237239,-0.28719748,0.546405,0.47488465,-0.23887686,0.517249,0.46524974,-0.201351,0.493236,0.46285327,-0.17937312,0.476233,0.49496087,-0.23116858,0.473557,0.43685412,-0.22819351,0.438591,0.42530119,-0.2410036,0.444402,0.43028707,-0.25503019,0.460521,0.50814923,-0.25884541,0.48159,0.48032157,-0.24077215,0.439825,0.46391454,-0.23361598,0.417826,0.45306411,-0.22678476,0.402112,0.51870985,-0.28397303,0.491151,0.45594378,-0.27362902,0.450886,0.44135597,-0.27553886,0.456797,0.44491179,-0.28239972,0.475418,0.53055756,-0.31840314,0.508176,0.47244855,-0.29926288,0.473353,0.44032585,-0.28769428,0.457353,0.4248183,-0.28221811,0.452365
0.48821217,-0.31641349,0.55955,0.49665914,-0.28840509,0.523086,0.48064888,-0.28503046,0.542918,0.4739853,-0.23706229,0.514718,0.46479621,-0.19988387,0.491542,0.46189645,-0.1784462,0.47502,0.49358783,-0.22998373,0.471491,0.43510624,-0.2234168,0.436411,0.42539617,-0.23641004,0.443411,0.43072324,-0.25199188,0.46005,0.50538567,-0.25715227,0.478458,0.4769499,-0.23801651,0.437055,0.45777679,-0.22559048,0.412903,0.44568064,-0.22067201,0.395651,0.51476747,-0.28178663,0.487093,0.49408694,-0.25301342,0.447446,0.48265263,-0.23786399,0.427162,0.46743691,-0.23961669,0.422514,0.52562412,-0.31461864,0.502915,0.46724056,-0.29437729,0.468468,0.43609224,-0.28500391,0.452641,0.4235017,-0.28230687,0.448511
0.48890503,-0.31496563,0.559059,0.49745833,-0.28805787,0.522787,0.48172063,-0.28385749,0.542489,0.47511378,-0.23491572,0.514473,0.46593344,-0.1968933,0.491355,0.46322999,-0.17760908,0.474629,0.49476335,-0.23050087,0.471434,0.43582032,-0.22299222,0.43647,0.42809269,-0.23346429,0.443657,0.43123293,-0.25159577,0.460325,0.50583986,-0.25726461,0.478395,0.47784047,-0.23885909,0.437121,0.45889629,-0.22892143,0.413044,0.44458117,-0.22107655,0.395846,0.51494518,-0.28200015,0.48701,0.49271432,-0.25460207,0.447479,0.47844041,-0.24213255,0.427254,0.44941321,-0.23408163,0.408868,0.52488105,-0.31648781,0.502779,0.4663078,-0.29498698,0.468417,0.43622131,-0.2852507,0.452628,0.42359987,-0.28302378,0.448636
0.48995241,-0.31375592,0.559007,0.4982987,-0.28770807,0.522571,0.48312253,-0.28288397,0.542466,0.47554022,-0.23455399,0.514169,0.46627633,-0.1965086,0.490887,0.46325471,-0.17696473,0.474075,0.4950773,-0.23027634,0.471112,0.43579475,-0.22245134,0.436006,0.42772116,-0.23312316,0.443074,0.43087536,-0.25089159,0.459751,0.5057902,-0.2571502,0.477978,0.47743462,-0.23850679,0.436592,0.458303,-0.22837497,0.41245,0.44387888,-0.22052048,0.395206,0.51463291,-0.28191651,0.486526,0.49163348,-0.25480966,0.446924,0.47777861,-0.24179762,0.426663,0.44775343,-0.23445774,0.408244,0.52428397,-0.31638492,0.502242,0.46540545,-0.29475246,0.467821,0.43573194,-0.2850569,0.452006,0.42291813,-0.28300309,0.447928
0.49130214,-0.3130861,0.559016,0.49848756,-0.28751985,0.522413,0.4848011,-0.28231238,0.542502,0.4758057,-0.23430359,0.513946,0.46642657,-0.19625454,0.490548,0.4633444,-0.17647666,0.473704,0.49528696,-0.23009597,0.470846,0.43621164,-0.22204516,0.435598,0.42730401,-0.23282664,0.442543,0.43058896,-0.25020437,0.459227,0.50571285,-0.25704153,0.477617,0.4770527,-0.2381997,0.43612,0.4577593,-0.22790903,0.411914,0.44323846,-0.22003662,0.394624,0.51433884,-0.28182343,0.486101,0.49085318,-0.25478839,0.446428,0.47718178,-0.24149555,0.42613,0.4466464,-0.23449884,0.407678,0.52375865,-0.31626126,0.501765,0.46466882,-0.29451067,0.467288,0.4352801,-0.28486217,0.451446,0.42229591,-0.28289741,0.447279
0.49246223,-0.31235521,0.55934,0.49929645,-0.28731337,0.522414,0.48649225,-0.28170974,0.542931,0.47627211,-0.23421004,0.514129,0.46686819,-0.19620677,0.490744,0.46597059,-0.17384919,0.474119,0.49539857,-0.23000778,0.470699,0.43570326,-0.22161156,0.435152,0.42660999,-0.23233593,0.441874,0.43105075,-0.24821151,0.458587,0.5054044,-0.25691932,0.477222,0.47625758,-0.23786291,0.435513,0.45628781,-0.22614635,0.411183,0.44088291,-0.21871129,0.393804,0.51369842,-0.28163181,0.485527,0.48878237,-0.25526686,0.445737,0.47562645,-0.24118146,0.42538,0.44349942,-0.23519511,0.406873,0.5227421,-0.31638123,0.501028,0.46246072,-0.29430643,0.466452,0.43436172,-0.28467742,0.450565,0.42055937,-0.2819333,0.44624
0.49930657,-0.31609897,0.566529,0.50566962,-0.29084663,0.528605,0.49305994,-0.28479534,0.549339,0.48098981,-0.23591872,0.518139,0.46976249,-0.19691936,0.49266,0.46585082,-0.17620382,0.474482,0.50277096,-0.23190563,0.475077,0.44024659,-0.22332536,0.43923,0.42924176,-0.23380263,0.444577,0.43374635,-0.24873318,0.460859,0.51109543,-0.26018336,0.48219,0.4809176,-0.24078949,0.439886,0.46012917,-0.22901798,0.415209,0.44420303,-0.22135092,0.397583,0.51968914,-0.28552241,0.491061,0.45250451,-0.26860766,0.45058,0.41145952,-0.25256105,0.429869,0.4007706,-0.24443251,0.423624,0.52922197,-0.3205769,0.507387,0.4680744,-0.29816207,0.47236,0.43983513,-0.28875015,0.456266,0.42538712,-0.28561148,0.450958
0.49999278,-0.31593614,0.566723,0.50608416,-0.29086803,0.528584,0.49399537,-0.28462698,0.54952,0.48185216,-0.23573156,0.518188,0.46981425,-0.19693959,0.492533,0.46642276,-0.17583118,0.474394,0.50264361,-0.23197641,0.474855,0.44023452,-0.22254152,0.438867,0.42868114,-0.23352107,0.44398,0.43339892,-0.24827923,0.460223,0.51117794,-0.26041356,0.481906,0.48029569,-0.24084612,0.439478,0.45953114,-0.22879603,0.414729,0.44403844,-0.22072494,0.39705,0.51949113,-0.28581344,0.490742,0.45209376,-0.26836384,0.450171,0.41102305,-0.25229314,0.429413,0.40013391,-0.24404419,0.422951,0.52875705,-0.32051448,0.50706,0.46751321,-0.29800655,0.471969,0.4394585,-0.28884447,0.455847,0.424706,-0.28542971,0.450377
0.50024405,-0.31512416,0.566404,0.50616056,-0.29032475,0.528184,0.49464976,-0.28390482,0.549341,0.48194002,-0.2355878,0.518069,0.47007166,-0.19688026,0.49254,0.46816561,-0.17407295,0.47461,0.50247917,-0.2319046,0.474558,0.43986041,-0.22225047,0.438435,0.42828078,-0.23317725,0.443551,0.43315148,-0.24790085,0.459849,0.51106678,-0.26018113,0.481407,0.47954055,-0.24040071,0.438924,0.45856123,-0.22854197,0.414143,0.44297612,-0.22043977,0.396442,0.51894952,-0.28556806,0.490083,0.45143463,-0.26760851,0.449521,0.41039464,-0.25154323,0.428768,0.3995423,-0.24340562,0.422317,0.52754194,-0.32059118,0.506223,0.46652561,-0.29743724,0.471128,0.43853434,-0.28836862,0.455003,0.42373482,-0.28529575,0.449538
0.50063385,-0.31417044,0.56619,0.50648403,-0.28987018,0.527979,0.49542003,-0.2830321,0.549155,0.48232926,-0.23488616,0.517871,0.47047811,-0.19619352,0.492346,0.46882888,-0.17338796,0.474489,0.5026202,-0.23208788,0.474396,0.43987892,-0.2222873,0.438264,0.42845149,-0.23306918,0.443407,0.43523277,-0.24672711,0.459719,0.51136095,-0.26030841,0.481214,0.47953205,-0.24030427,0.438735,0.45874049,-0.22897425,0.413956,0.44319457,-0.22098839,0.396256,0.51887285,-0.28576272,0.489865,0.45104537,-0.26772134,0.449314,0.41003897,-0.25157416,0.428567,0.39926947,-0.24343918,0.422143,0.52706938,-0.32064711,0.505972,0.46606087,-0.29741135,0.470883,0.43810489,-0.28840492,0.454761,0.42326772,-0.28567592,0.449315
0.50121791,-0.31334597,0.566218,0.50696244,-0.28951625,0.527965,0.49643196,-0.28231002,0.549261,0.48238909,-0.23455814,0.517805,0.47036123,-0.1957805,0.492189,0.46865575,-0.17294307,0.474305,0.50287936,-0.232324,0.474442,0.43997167,-0.22237374,0.438237,0.42898021,-0.23293858,0.443383,0.44165941,-0.24477395,0.459726,0.51175052,-0.26050221,0.481148,0.47958343,-0.24025635,0.438641,0.4584852,-0.22874972,0.413846,0.4426742,-0.22061983,0.396135,0.51882261,-0.28598716,0.48971,0.45072315,-0.26775717,0.449167,0.40975226,-0.2515639,0.428423,0.39902986,-0.24342896,0.422007,0.52659704,-0.32064378,0.505718,0.46559914,-0.29733971,0.470628,0.43763596,-0.2884201,0.454506,0.42275052,-0.28602597,0.449064
0.50138144,-0.31278606,0.566264,0.50712655,-0.28940831,0.528009,0.49679807,-0.28186597,0.549284,0.48246561,-0.2343098,0.517783,0.47034472,-0.19548246,0.492144,0.46861918,-0.17262517,0.474261,0.50330696,-0.23270288,0.474456,0.44023876,-0.22254533,0.438263,0.42931385,-0.23288615,0.443393,0.44244833,-0.2445047,0.459725,0.51193039,-0.26092339,0.48119,0.47964615,-0.24067084,0.438683,0.45844966,-0.22915034,0.413887,0.44249536,-0.22101492,0.396176,0.51879125,-0.28640329,0.489774,0.45066293,-0.26787283,0.449223,0.40970368,-0.25164452,0.428476,0.3989909,-0.24349576,0.422044,0.52630646,-0.32097961,0.505809,0.46529987,-0.29754137,0.470715,0.43731333,-0.28860885,0.454591,0.42245331,-0.28620374,0.449138
0.5015481,-0.31246496,0.566339,0.50725828,-0.28938413,0.528078,0.49708867,-0.28162447,0.549343,0.48269627,-0.23403056,0.517859,0.47049994,-0.19517079,0.492229,0.46878055,-0.17229726,0.474353,0.50357783,-0.23299977,0.4745,0.44036895,-0.22269261,0.438312,0.42972568,-0.23281767,0.443425,0.44286476,-0.24438279,0.459748,0.51203569,-0.26124598,0.481251,0.47968786,-0.24097711,0.438742,0.45840768,-0.22944366,0.413945,0.44231347,-0.22130433,0.396233,0.51875999,-0.28672248,0.489851,0.45065004,-0.26797331,0.449293,0.40969587,-0.25171865,0.428542,0.3989844,-0.24355652,0.422093,0.52611032,-0.32124507,0.505905,0.46506837,-0.29770457,0.470807,0.43706557,-0.28876152,0.454682,0.42223628,-0.28634549,0.449217
0.50146361,-0.31201585,0.566392,0.50714141,-0.28928558,0.528086,0.49710772,-0.28123178,0.549296,0.48416449,-0.23252105,0.518334,0.47182969,-0.1929804,0.492986,0.4697837,-0.17207189,0.47503,0.5035427,-0.23324368,0.474345,0.44025121,-0.22275688,0.438184,0.42964128,-0.23262312,0.443184,0.43828755,-0.24546493,0.459451,0.51187714,-0.26155686,0.481203,0.47945209,-0.24124236,0.438674,0.4580931,-0.22967693,0.413866,0.44186344,-0.22151909,0.396145,0.51849786,-0.28706453,0.489894,0.45036424,-0.26802806,0.449289,0.40940201,-0.2517283,0.428514,0.39859261,-0.24350183,0.421955,0.5257232,-0.32157593,0.506064,0.46466977,-0.29790178,0.470941,0.43663664,-0.28894262,0.454804,0.42176905,-0.28647463,0.44926
0.50248129,-0.3115377,0.56725,0.50681348,-0.28879528,0.52782,0.49971885,-0.28164663,0.551595,0.49434321,-0.2299032,0.52159,0.48365467,-0.19152759,0.496179,0.47095149,-0.17213071,0.475919,0.50419898,-0.23383073,0.474888,0.43694851,-0.22047271,0.437246,0.42654195,-0.2304574,0.441655,0.43455144,-0.24488843,0.45827,0.50971359,-0.26116834,0.479563,0.47431263,-0.23953182,0.436421,0.44813626,-0.22409988,0.411254,0.42685287,-0.21423011,0.393278,0.5109165,-0.28665447,0.486548,0.44110952,-0.26425483,0.446029,0.40604884,-0.24972439,0.425297,0.39496984,-0.24152276,0.418338,0.51130948,-0.31935853,0.500855,0.45033865,-0.28658472,0.465723,0.42147715,-0.26848428,0.449581,0.40483562,-0.25811438,0.443709
0.50450743,-0.31160818,0.56914,0.50812937,-0.28931585,0.529251,0.50162652,-0.28161299,0.552959,0.49697394,-0.23117259,0.523413,0.49304445,-0.19422618,0.499374,0.48789553,-0.17323878,0.480222,0.50470728,-0.23456,0.475279,0.4337958,-0.21945305,0.43765,0.42236396,-0.22707883,0.441163,0.43399329,-0.24355303,0.457415,0.5064112,-0.26398665,0.480431,0.47193268,-0.23962575,0.437085,0.44780108,-0.22546414,0.4118,0.42645101,-0.21541149,0.39374,0.5086442,-0.28856918,0.487845,0.43861556,-0.26404239,0.447016,0.39732367,-0.24388136,0.426126,0.38488889,-0.23442319,0.418325,0.51125485,-0.32121971,0.502732,0.4457926,-0.29191863,0.467433,0.41757719,-0.28148125,0.451215,0.40137507,-0.27728646,0.444731
0.50507389,-0.31084408,0.569483,0.50822051,-0.28914808,0.529507,0.50235793,-0.2809792,0.553155,0.497503,-0.23161409,0.522641,0.49207832,-0.19528922,0.497406,0.48580248,-0.17510209,0.477638,0.50466796,-0.23498469,0.475283,0.43352451,-0.2196115,0.437689,0.42141018,-0.22703545,0.440986,0.43396157,-0.24244723,0.457138,0.5062191,-0.26443664,0.480582,0.47177103,-0.2400705,0.437208,0.44760814,-0.22587742,0.411907,0.42625255,-0.21577201,0.393834,0.50843312,-0.28905497,0.488124,0.43767889,-0.26390535,0.44723,0.39749244,-0.24398495,0.426307,0.38486957,-0.23441142,0.418304,0.51105194,-0.32172501,0.503177,0.44618839,-0.2921778,0.467848,0.41794737,-0.28173078,0.451615,0.40160521,-0.27744546,0.444986
0.50302235,-0.30778775,0.565895,0.50809167,-0.28871719,0.529187,0.50201926,-0.27812753,0.550161,0.50864609,-0.2342635,0.522343,0.49343004,-0.1974111,0.495275,0.48356921,-0.17821986,0.47451,0.50686073,-0.24022507,0.478486,0.43733288,-0.22164127,0.442432,0.42914618,-0.23090295,0.449615,0.44527779,-0.24558427,0.465328,0.50859941,-0.26819354,0.484261,0.47521537,-0.24416793,0.442704,0.44281161,-0.22907225,0.418463,0.41505492,-0.2171937,0.401147,0.50991326,-0.29278641,0.491934,0.43304043,-0.26344517,0.452492,0.39679302,-0.24346332,0.432312,0.38624547,-0.23539295,0.427923,0.50699671,-0.32591336,0.506648,0.44300476,-0.29165074,0.472289,0.42074167,-0.28353209,0.456502,0.40727155,-0.2807827,0.452545
0.50506739,-0.30730858,0.566948,0.50896486,-0.2888805,0.529931,0.5041725,-0.27835034,0.551265,0.51073635,-0.23511749,0.524511,0.5072608,-0.19997017,0.500176,0.5010763,-0.1803913,0.480451,0.50784173,-0.23959712,0.47903,0.43720034,-0.22148859,0.442816,0.42937376,-0.23058261,0.449761,0.44808067,-0.244241,0.464312,0.50862089,-0.26874227,0.484628,0.47449575,-0.24418146,0.442872,0.44297512,-0.22853504,0.418515,0.41514009,-0.21656814,0.401116,0.50947107,-0.29320614,0.492181,0.43237559,-0.26256567,0.452613,0.39661277,-0.2427073,0.432369,0.38653281,-0.23481123,0.427749,0.50724597,-0.3257762,0.506797,0.44313851,-0.29141244,0.472339,0.4199222,-0.28281328,0.456506,0.40657432,-0.27991831,0.452375
0.50910725,-0.30799636,0.570036,0.50984973,-0.28945606,0.53101,0.51324279,-0.27755205,0.554197,0.51642819,-0.23859257,0.524433,0.5136747,-0.20526068,0.498503,0.50495276,-0.18628771,0.477852,0.50440291,-0.2495258,0.478198,0.43447785,-0.22020531,0.440895,0.42435142,-0.22770007,0.445737,0.43447972,-0.23630782,0.45014,0.49826447,-0.27531847,0.483248,0.45967192,-0.2481192,0.440302,0.42900532,-0.22947659,0.41525,0.40053727,-0.214258,0.397356,0.49378085,-0.29779871,0.490508,0.41966611,-0.2579232,0.450052,0.38654374,-0.23708539,0.429354,0.37468896,-0.22830676,0.42276,0.48954297,-0.32676886,0.505082,0.42970353,-0.28293689,0.469992,0.4037511,-0.26400684,0.45387,0.39347421,-0.25636035,0.448272
0.51191244,-0.30814729,0.572329,0.50978388,-0.29054994,0.532557,0.51554662,-0.27938303,0.556987,0.51736325,-0.24184958,0.525643,0.51730913,-0.21489778,0.499113,0.51066203,-0.19786668,0.478305,0.50108805,-0.25546509,0.479717,0.43238922,-0.21862314,0.441727,0.42233738,-0.22318949,0.44579,0.43102437,-0.235077,0.449483,0.48928883,-0.2779046,0.483882,0.44947797,-0.24301998,0.440594,0.42624788,-0.22268646,0.415342,0.3937977,-0.2027576,0.397306,0.48026856,-0.29754079,0.490474,0.41232546,-0.25091734,0.449976,0.38127862,-0.2327376,0.429256,0.37102254,-0.22686853,0.422029,0.47090353,-0.32295309,0.504364,0.41736734,-0.27356385,0.469247,0.39519843,-0.25672657,0.453113,0.39192263,-0.25648349,0.447038
0.51031026,-0.3065477,0.570806,0.49196363,-0.29251411,0.530514,0.51235675,-0.28040897,0.556395,0.50663373,-0.2466223,0.526191,0.51010963,-0.21829908,0.500965,0.51152511,-0.20126425,0.481125,0.49004632,-0.25483651,0.478371,0.41885002,-0.21519338,0.439693,0.40936285,-0.22048851,0.443226,0.42215327,-0.23317656,0.446438,0.47739838,-0.27672821,0.481202,0.4443609,-0.2425621,0.437775,0.42240415,-0.2227495,0.412443,0.39047867,-0.20289267,0.394348,0.46776544,-0.29598537,0.486739,0.40004113,-0.24979091,0.446509,0.36912244,-0.23169443,0.425926,0.35577854,-0.22487309,0.41837,0.45780027,-0.3211367,0.499449,0.40424039,-0.272438,0.464527,0.40204687,-0.27238437,0.466621,0.41622619,-0.28656761,0.476135
0.51540466,-0.30832552,0.576521,0.50032164,-0.29377132,0.535158,0.51847522,-0.28288331,0.561962,0.52081627,-0.2478249,0.531487,0.52432593,-0.22025747,0.505733,0.52554857,-0.21004891,0.486265,0.49839098,-0.25759036,0.481917,0.43083577,-0.2176798,0.442941,0.41518373,-0.22021325,0.444241,0.42247114,-0.23159332,0.445423,0.48473417,-0.27896962,0.484535,0.44783925,-0.24566412,0.440884,0.42726424,-0.22852288,0.415421,0.39626528,-0.20800627,0.397233,0.47164772,-0.29794871,0.489981,0.4090819,-0.24892059,0.449643,0.38262439,-0.23187028,0.429005,0.3839694,-0.23346929,0.419567,0.46077737,-0.32221904,0.502747,0.40840818,-0.27299467,0.467899,0.40382895,-0.27138893,0.468174,0.41968343,-0.28719924,0.480546
0.51233111,-0.30528929,0.571998,0.49628609,-0.29182372,0.530551,0.51946846,-0.28186906,0.557859,0.5161277,-0.25250248,0.52695,0.52060798,-0.22844572,0.500472,0.51814871,-0.21548769,0.479969,0.49183928,-0.25683611,0.477753,0.42588539,-0.21501438,0.438595,0.41078939,-0.21582968,0.439745,0.4159093,-0.22872556,0.440791,0.47687177,-0.27702356,0.479826,0.43528844,-0.24694713,0.436149,0.4117039,-0.22891179,0.410671,0.38499701,-0.2050927,0.392472,0.46557693,-0.29476558,0.484829,0.4511055,-0.27256106,0.444048,0.4161025,-0.24638296,0.423183,0.39056792,-0.23454992,0.413494,0.45407979,-0.3179738,0.49708,0.40451999,-0.26633107,0.46239,0.40180565,-0.25476366,0.46256,0.41089066,-0.25430144,0.474836
0.50551386,-0.29975084,0.564215,0.48705208,-0.28779831,0.522681,0.50977857,-0.27681593,0.549124,0.51663942,-0.24723315,0.517556,0.52509662,-0.23036364,0.491068,0.51844191,-0.21645509,0.470286,0.48457225,-0.26866073,0.46864,0.42439204,-0.21722908,0.429926,0.4071444,-0.21377483,0.430491,0.40443998,-0.22048854,0.431005,0.4655641,-0.28464526,0.471848,0.42171859,-0.2462333,0.428214,0.39614729,-0.22391834,0.40276,0.37076177,-0.20111332,0.384579,0.45117799,-0.29809114,0.477794,0.43019001,-0.27289491,0.436682,0.39424543,-0.24487771,0.415648,0.37118405,-0.23191123,0.405352,0.43638226,-0.31462708,0.49118,0.39705674,-0.26177469,0.456301,0.39517972,-0.25296522,0.455959,0.4047119,-0.25149691,0.468102
0.50561816,-0.29822913,0.563691,0.48682359,-0.28795544,0.52231,0.51021248,-0.27646293,0.547805,0.51657482,-0.24840979,0.515346,0.526289,-0.23583182,0.4883,0.51513077,-0.21811296,0.467094,0.48132375,-0.27357362,0.467425,0.42161446,-0.2211878,0.429161,0.40664246,-0.2146045,0.429692,0.40543021,-0.22246657,0.430174,0.46370491,-0.28649838,0.471664,0.41698089,-0.24999267,0.428049,0.39072378,-0.22765073,0.402607,0.36525146,-0.20117164,0.384434,0.44974673,-0.29967443,0.478446,0.42455153,-0.27705913,0.437275,0.39237712,-0.24649041,0.416211,0.37000795,-0.23292045,0.405848,0.43568677,-0.31574985,0.492806,0.39722907,-0.26255624,0.457749,0.39616507,-0.25412541,0.457347,0.40621694,-0.25326206,0.46953
0.50543028,-0.29683882,0.562589,0.48597723,-0.28813567,0.521274,0.51061312,-0.27640744,0.546262,0.51694989,-0.25128162,0.513201,0.52337169,-0.23593658,0.485392,0.51170848,-0.22091906,0.464036,0.47890443,-0.27363337,0.465905,0.41892332,-0.22275821,0.42794,0.40482957,-0.21464312,0.428258,0.40245218,-0.22116231,0.428547,0.46003797,-0.28871863,0.47071,0.41498709,-0.25058154,0.427162,0.38872716,-0.22842535,0.401759,0.36140924,-0.20329221,0.383614,0.44612063,-0.3013164,0.477952,0.42196739,-0.27674869,0.436789,0.38753017,-0.24728208,0.41573,0.36783706,-0.23277171,0.405178,0.43258282,-0.31663542,0.49285,0.3959368,-0.26315426,0.457756,0.39520987,-0.25460028,0.457165,0.40572681,-0.25386423,0.469287
0.50437807,-0.2964373,0.561995,0.48466866,-0.29196944,0.520586,0.51084124,-0.2775895,0.54595,0.51579001,-0.25562831,0.513139,0.52233751,-0.24023327,0.485481,0.51118547,-0.22288501,0.464161,0.47669796,-0.2757957,0.465483,0.41788402,-0.22308486,0.427334,0.40367464,-0.21609703,0.427611,0.40138939,-0.22188521,0.427863,0.45721569,-0.29026085,0.469907,0.41399889,-0.25045519,0.426333,0.38819908,-0.22789415,0.400914,0.36225208,-0.2016681,0.382759,0.44281265,-0.30246134,0.476843,0.42019194,-0.27613376,0.435713,0.38599448,-0.24650548,0.414669,0.36604347,-0.23231921,0.404102,0.42875941,-0.31751506,0.491391,0.39262191,-0.26321395,0.456354,0.39252182,-0.25502629,0.455741,0.40361189,-0.25482996,0.467834
0.50352556,-0.29626876,0.561843,0.48242533,-0.29425598,0.520332,0.51109209,-0.27891592,0.54588,0.51312835,-0.25835938,0.513131,0.52005925,-0.24316932,0.485723,0.51055787,-0.22567743,0.464532,0.47502773,-0.27611298,0.46524,0.41572916,-0.22360477,0.42707,0.40217644,-0.21611327,0.427017,0.3997828,-0.22201976,0.426968,0.45410213,-0.291104,0.469527,0.41174765,-0.2508138,0.425993,0.3869431,-0.22751837,0.400598,0.36003222,-0.20216649,0.382459,0.43940921,-0.30303561,0.476357,0.4116849,-0.27246367,0.435241,0.37789487,-0.24281953,0.414204,0.36120585,-0.23173542,0.403366,0.42492831,-0.31791095,0.490795,0.38968807,-0.26362084,0.455847,0.38949289,-0.25507928,0.454969,0.40175637,-0.25431492,0.466928
0.5025506,-0.29628788,0.561803,0.48164637,-0.29467621,0.520289,0.51090915,-0.28019251,0.545863,0.51295443,-0.2586819,0.513243,0.52035307,-0.24423707,0.486136,0.51041611,-0.2286448,0.464925,0.47332905,-0.27741671,0.465225,0.41528048,-0.22391537,0.427038,0.40104149,-0.2169374,0.427003,0.3990658,-0.22333737,0.426971,0.45348509,-0.2913413,0.469481,0.41118208,-0.25100676,0.425943,0.38645857,-0.2276569,0.400545,0.35967322,-0.20222646,0.382404,0.43873966,-0.30317063,0.476287,0.41176121,-0.27300118,0.43517,0.37804317,-0.24327801,0.414133,0.36035065,-0.23161003,0.40331,0.42422004,-0.31790483,0.490697,0.38900415,-0.26366312,0.455749,0.38881322,-0.25501793,0.454886,0.4010144,-0.2543064,0.466852
0.50636106,-0.30043707,0.565607,0.48443131,-0.29960236,0.523968,0.51681084,-0.29152113,0.549432,0.51749694,-0.26649678,0.51627,0.52215766,-0.24580887,0.487861,0.51234508,-0.22827546,0.466543,0.47661432,-0.28271412,0.468508,0.42146115,-0.22579388,0.430691,0.40592145,-0.21741764,0.429455,0.40101846,-0.22243396,0.42833,0.4568233,-0.29437158,0.473008,0.41456591,-0.25372634,0.429763,0.38941145,-0.23050406,0.404537,0.36450605,-0.20389256,0.386518,0.44190294,-0.30591345,0.480024,0.39183472,-0.24776467,0.439544,0.37321738,-0.22805508,0.418834,0.36711852,-0.23092571,0.407187,0.42724464,-0.32039742,0.494703,0.39358874,-0.26535004,0.46005,0.39116371,-0.25678454,0.458205,0.40108211,-0.25682342,0.469685
0.50793618,-0.30295362,0.565633,0.48667456,-0.30279953,0.524068,0.51806051,-0.29340834,0.549317,0.51759867,-0.26644021,0.516344,0.52238115,-0.24637995,0.488149,0.51253305,-0.22877198,0.466954,0.47614029,-0.28223738,0.4685,0.42021826,-0.22626816,0.430704,0.4103864,-0.22835055,0.429771,0.41216093,-0.2407579,0.428923,0.45661707,-0.29489739,0.473199,0.41479366,-0.25431734,0.429885,0.39072871,-0.2310305,0.404619,0.36492427,-0.20431628,0.386572,0.4417614,-0.30631182,0.480373,0.39047314,-0.24854803,0.439768,0.37217745,-0.22829972,0.418994,0.36673926,-0.23087518,0.407562,0.42730177,-0.32072655,0.495229,0.39282939,-0.26559409,0.460456,0.39135809,-0.25656183,0.458851,0.40084535,-0.25520958,0.470467
0.50963504,-0.30492486,0.56569,0.48700587,-0.30355526,0.524143,0.51890819,-0.29467298,0.549258,0.51752863,-0.26636787,0.516265,0.52221973,-0.24661464,0.488051,0.51225717,-0.22894375,0.466874,0.47602752,-0.28266773,0.468445,0.4203774,-0.22652168,0.430769,0.41028136,-0.2282921,0.429661,0.41190148,-0.24060635,0.428653,0.45644826,-0.2952279,0.473294,0.41502483,-0.2547819,0.430043,0.39112163,-0.23154634,0.404813,0.36541826,-0.20474064,0.386792,0.44165251,-0.30656745,0.48059,0.39016024,-0.24889848,0.440001,0.37199748,-0.22848352,0.419235,0.36658499,-0.23084079,0.407656,0.42734699,-0.32095137,0.495588,0.39303234,-0.26561196,0.460853,0.39131719,-0.25628543,0.459101,0.40063228,-0.25475324,0.470647
0.51372908,-0.31565648,0.567103,0.4881793,-0.30786208,0.525878,0.5221994,-0.30257167,0.550239,0.51555131,-0.27358213,0.51682,0.52055005,-0.24852081,0.487782,0.51096409,-0.23023833,0.466429,0.476234,-0.28289917,0.469928,0.41203296,-0.2303547,0.433693,0.39449623,-0.22081491,0.429865,0.39360075,-0.22488233,0.426385,0.45729485,-0.29725932,0.475425,0.41555434,-0.25670789,0.433451,0.39118214,-0.23330068,0.408966,0.36535629,-0.20776116,0.391477,0.44256319,-0.31002523,0.483228,0.3847781,-0.25591298,0.443648,0.36760712,-0.23653161,0.423398,0.36315836,-0.23731756,0.409794,0.42914885,-0.33205202,0.498782,0.39288025,-0.2756838,0.465178,0.39214172,-0.25775883,0.461208,0.40285482,-0.25605767,0.471496
0.5131826,-0.31707674,0.56709,0.48768409,-0.3087318,0.525916,0.52150607,-0.30340932,0.550333,0.51579771,-0.27371288,0.517067,0.5201189,-0.24903117,0.488051,0.51094088,-0.23081694,0.466697,0.47583447,-0.28302461,0.47014,0.41237118,-0.23054379,0.434049,0.39448613,-0.22080925,0.429854,0.39192177,-0.22493873,0.426039,0.45696985,-0.29758297,0.475525,0.41515669,-0.25716643,0.43376,0.3908473,-0.23373524,0.409398,0.36489495,-0.20829428,0.391996,0.44229327,-0.3106952,0.483232,0.38497932,-0.25604681,0.44388,0.36790926,-0.23672602,0.423746,0.36325053,-0.23737779,0.409898,0.42904732,-0.33197346,0.498664,0.39296555,-0.27574366,0.465279,0.39174636,-0.25794357,0.461017,0.40186654,-0.25605072,0.471113
0.51321522,-0.31799351,0.566837,0.48607716,-0.31318974,0.526553,0.51963862,-0.30305596,0.548565,0.51392467,-0.27265516,0.515295,0.51723601,-0.24813423,0.485952,0.50791547,-0.22991109,0.464492,0.46666544,-0.28615304,0.469681,0.41370012,-0.2360605,0.435134,0.39656754,-0.22653472,0.430718,0.40424079,-0.23621761,0.442586,0.45438184,-0.30153153,0.477252,0.41417251,-0.27829744,0.436171,0.38470384,-0.25289399,0.412206,0.35748608,-0.22752856,0.395089,0.44296065,-0.31695505,0.486688,0.38259144,-0.26014392,0.447323,0.35756301,-0.23245813,0.427182,0.34832879,-0.22174259,0.413078,0.43294996,-0.33687606,0.504044,0.3951034,-0.28375544,0.470799,0.39376274,-0.26386887,0.4663,0.40395836,-0.25816415,0.476257
0.51371214,-0.3188265,0.56718,0.48787734,-0.31075791,0.526875,0.51993761,-0.30365777,0.549014,0.51418295,-0.27295976,0.515537,0.51459445,-0.24976835,0.485925,0.50679227,-0.23108209,0.464402,0.46987622,-0.28456568,0.470115,0.41419138,-0.23590988,0.435558,0.3962322,-0.22380963,0.430998,0.40514004,-0.23705732,0.442813,0.453743,-0.30216615,0.477548,0.41439096,-0.27808769,0.436519,0.38501049,-0.25264712,0.412586,0.35787769,-0.22725346,0.395491,0.44233974,-0.31750589,0.486871,0.38282059,-0.25976586,0.447596,0.35790405,-0.23210025,0.427502,0.34860236,-0.22138913,0.413306,0.43251404,-0.33727453,0.504097,0.39643912,-0.28119213,0.470933,0.39467723,-0.26280138,0.466322,0.40362646,-0.2579693,0.476206
0.51403264,-0.31939591,0.567314,0.48786758,-0.31123812,0.526997,0.51998244,-0.30395804,0.549074,0.51446034,-0.27307396,0.515618,0.51460141,-0.24991094,0.485752,0.50562977,-0.23126905,0.464212,0.46957819,-0.28479371,0.470134,0.41313452,-0.23372022,0.435529,0.39533915,-0.22888179,0.431147,0.40794679,-0.24156738,0.443052,0.45353751,-0.30248619,0.477654,0.41487488,-0.27786876,0.436532,0.38549108,-0.25232776,0.412544,0.35829505,-0.22688037,0.39541,0.44225021,-0.31788686,0.48705,0.38316105,-0.25957139,0.447663,0.35816689,-0.23185833,0.427511,0.34892034,-0.22124821,0.413431,0.43263099,-0.33770507,0.504365,0.39646169,-0.2815735,0.471094,0.394709,-0.26317726,0.466624,0.40380093,-0.25803044,0.476601
0.51436265,-0.31989894,0.567537,0.4879571,-0.31168178,0.527229,0.52013642,-0.30427521,0.549281,0.5144807,-0.27290927,0.515573,0.51627245,-0.24877461,0.48574,0.50149003,-0.23170198,0.464281,0.4695257,-0.28505217,0.470354,0.41275442,-0.23393302,0.435762,0.39544394,-0.22900079,0.431385,0.40838367,-0.24258008,0.443287,0.45351397,-0.30278319,0.477897,0.41527029,-0.27787243,0.436779,0.38591453,-0.25230174,0.412793,0.35871091,-0.22684306,0.395661,0.44227807,-0.31820329,0.487311,0.38348264,-0.25958459,0.44792,0.35847687,-0.23186657,0.427767,0.34921353,-0.22127811,0.41369,0.43276678,-0.33802657,0.504646,0.39659645,-0.28191358,0.471373,0.39448624,-0.26375875,0.466907,0.40369595,-0.25789838,0.476886
0.51482842,-0.32071628,0.5679,0.48727406,-0.31437636,0.527631,0.5204517,-0.30485341,0.549661,0.51472836,-0.27304907,0.51601,0.51640019,-0.24889703,0.4862,0.50034288,-0.2301756,0.465087,0.46983907,-0.28525911,0.470812,0.41324545,-0.23424106,0.436306,0.39674364,-0.22785988,0.431784,0.40866502,-0.24268127,0.443594,0.45390812,-0.30311361,0.478348,0.41620104,-0.2779627,0.437327,0.38689978,-0.25241813,0.413399,0.35961761,-0.22705002,0.396307,0.44274948,-0.31864462,0.487753,0.384025,-0.26008563,0.448455,0.35894589,-0.23248744,0.428349,0.34957579,-0.22194908,0.414175,0.43334903,-0.33861855,0.505071,0.39628863,-0.28374233,0.47189,0.39372231,-0.26511614,0.467307,0.40341773,-0.25819442,0.477208
0.51572726,-0.32245794,0.568571,0.48797848,-0.31496135,0.528298,0.5210482,-0.3060736,0.550421,0.5154011,-0.27341224,0.516826,0.51663917,-0.24943294,0.487093,0.50060768,-0.23007912,0.466128,0.47050062,-0.28567329,0.471583,0.41379418,-0.23466207,0.437093,0.3965505,-0.2286059,0.432422,0.40770303,-0.24089055,0.444166,0.45450999,-0.30356595,0.479009,0.41716797,-0.27825384,0.438056,0.38789772,-0.25271775,0.414167,0.3605549,-0.22739765,0.397104,0.44332045,-0.31913211,0.488324,0.38465241,-0.26059985,0.449122,0.3595334,-0.23307966,0.429065,0.35006768,-0.22255567,0.414795,0.43391115,-0.33916053,0.505536,0.39675674,-0.28424565,0.472443,0.393866,-0.2656509,0.467743,0.40343666,-0.25835351,0.477568
0.51693745,-0.32458035,0.570498,0.48975748,-0.31520348,0.53001,0.52248244,-0.30782944,0.552878,0.513464,-0.27101721,0.521419,0.51449635,-0.24533465,0.492912,0.50121581,-0.22833782,0.471645,0.47309881,-0.28589445,0.473763,0.4145999,-0.23473222,0.438966,0.39763644,-0.22721177,0.433996,0.4087714,-0.24166774,0.445742,0.45657897,-0.30385051,0.480459,0.42083476,-0.27721413,0.439506,0.39163286,-0.25185812,0.415617,0.36228857,-0.22790813,0.398553,0.44434864,-0.31957592,0.48919,0.38555201,-0.2613225,0.450204,0.36025107,-0.2339716,0.430257,0.35052544,-0.22338438,0.415818,0.43427305,-0.34022982,0.505738,0.39704142,-0.28467592,0.472813,0.39299421,-0.26665624,0.467891,0.40260502,-0.25938203,0.477571
0.51855052,-0.32712884,0.573308,0.49127759,-0.31667686,0.532037,0.52509683,-0.31020006,0.556982,0.51681555,-0.27122776,0.525651,0.51687926,-0.24000487,0.499399,0.50060777,-0.21930147,0.479875,0.48133283,-0.27582131,0.476708,0.41643708,-0.23289887,0.440441,0.39862624,-0.2295054,0.436025,0.41097969,-0.24332739,0.448572,0.46654652,-0.29614809,0.481527,0.43401441,-0.26509682,0.43983,0.41508519,-0.24695106,0.415507,0.38664765,-0.22428619,0.398133,0.45575201,-0.31418179,0.488777,0.3861834,-0.26054864,0.449357,0.35945679,-0.23366202,0.429188,0.34949666,-0.22341339,0.415143,0.44565089,-0.33796549,0.503679,0.39508996,-0.28376527,0.470476,0.38483117,-0.28754333,0.466052,0.39777067,-0.30454227,0.476022
0.51892838,-0.32766414,0.574984,0.49252223,-0.31709115,0.533656,0.52578224,-0.31049538,0.559048,0.51732053,-0.26862765,0.52908,0.51623174,-0.2355695,0.503797,0.50157983,-0.21776987,0.483576,0.48386808,-0.27666401,0.478755,0.41904892,-0.23221833,0.442365,0.39996142,-0.22397004,0.43774,0.40737344,-0.23713085,0.450252,0.46890487,-0.29693411,0.483075,0.4362912,-0.2654853,0.441472,0.41731185,-0.2471051,0.417203,0.38914598,-0.22484674,0.399869,0.45783402,-0.31483841,0.48992,0.39283571,-0.26105093,0.450663,0.36094889,-0.23467425,0.430579,0.3502064,-0.22414266,0.416416,0.44712209,-0.33832171,0.504346,0.39599851,-0.28526514,0.471331,0.38582014,-0.2869912,0.466753,0.39814909,-0.30334338,0.476598
0.50173006,-0.32336127,0.5789,0.48514476,-0.30930656,0.537047,0.51191929,-0.30407619,0.565256,0.50955498,-0.26573951,0.539774,0.51331061,-0.23483109,0.516258,0.50366786,-0.21532056,0.496791,0.49003654,-0.27718347,0.48451,0.42546977,-0.23172202,0.446448,0.40352317,-0.2242577,0.44274,0.40899749,-0.23730381,0.456278,0.47350857,-0.29627745,0.485825,0.44270625,-0.2569668,0.443772,0.42456566,-0.23554134,0.419685,0.39504868,-0.2143191,0.402479,0.46076809,-0.31314151,0.490238,0.39601735,-0.26113794,0.450365,0.361531,-0.23606478,0.429965,0.34497864,-0.22805577,0.416454,0.44616575,-0.33579441,0.501846,0.40200348,-0.2838976,0.468967,0.38842969,-0.2730373,0.465222,0.39476656,-0.28286585,0.475342
0.48841875,-0.31427294,0.578075,0.48240798,-0.29886015,0.536476,0.50051384,-0.29524997,0.565271,0.50183983,-0.25021931,0.538805,0.50331345,-0.21704593,0.515935,0.49909282,-0.19785979,0.496669,0.49283323,-0.26803134,0.485187,0.42829272,-0.22821448,0.445613,0.40938967,-0.22271219,0.446162,0.41339066,-0.2358072,0.461998,0.47806749,-0.28751785,0.485564,0.44492936,-0.25069268,0.442287,0.42632844,-0.22966206,0.41779,0.39446447,-0.21141328,0.400291,0.46603121,-0.30459281,0.489186,0.41152903,-0.2594923,0.448606,0.3759868,-0.23573894,0.427844,0.35978049,-0.22823833,0.417734,0.45175964,-0.32681886,0.499812,0.40498223,-0.27949837,0.465754,0.3899958,-0.27283458,0.465492,0.39685392,-0.2839791,0.477376
0.48824943,-0.3139517,0.579455,0.48451572,-0.30002355,0.538302,0.50104605,-0.29503265,0.567493,0.50397847,-0.25331289,0.541681,0.50550239,-0.22060145,0.51977,0.50155102,-0.20187296,0.50102,0.49635994,-0.26800751,0.488425,0.43349591,-0.22625441,0.448657,0.4153654,-0.22152255,0.450267,0.41788629,-0.23675208,0.466603,0.48136979,-0.28711328,0.487935,0.44856734,-0.24538671,0.444841,0.42912803,-0.22234999,0.420009,0.39810543,-0.20276975,0.402271,0.46907994,-0.30397074,0.490807,0.41866837,-0.2577779,0.451871,0.3810338,-0.23725804,0.43195,0.36533672,-0.2313782,0.423232,0.4543796,-0.32612801,0.500473,0.40634433,-0.27994825,0.466625,0.39424546,-0.28421526,0.467258,0.40238724,-0.30389677,0.479416
0.47949722,-0.3098221,0.571928,0.48150612,-0.29864871,0.53572,0.49244912,-0.28978368,0.563281,0.49255268,-0.25070341,0.539849,0.49505134,-0.21600077,0.520362,0.49397026,-0.19548692,0.50324,0.5024047,-0.26836784,0.494142,0.45638777,-0.22613263,0.460854,0.44788274,-0.2207697,0.468797,0.44458517,-0.23167984,0.485107,0.48684491,-0.28617873,0.491407,0.4530974,-0.24025276,0.451431,0.43274491,-0.21430093,0.428112,0.40126002,-0.19632197,0.411456,0.47352749,-0.30194738,0.492038,0.42182428,-0.25784935,0.456492,0.38576567,-0.24022879,0.438306,0.37468055,-0.2394635,0.43561,0.45656068,-0.32273415,0.498282,0.41365114,-0.27716414,0.46674,0.40114052,-0.28650671,0.472462,0.41239003,-0.30477324,0.485782
0.46665663,-0.30267455,0.558308,0.47565786,-0.29461845,0.527677,0.48257683,-0.28542146,0.553669,0.483976,-0.24451821,0.535106,0.49172577,-0.21002396,0.520968,0.49203487,-0.18854337,0.50617,0.51135223,-0.26883308,0.495786,0.47455131,-0.23039663,0.468125,0.46923693,-0.22656046,0.479361,0.46381148,-0.23173111,0.494765,0.49908645,-0.2850629,0.490188,0.46818472,-0.24074762,0.455189,0.45015745,-0.214898,0.434772,0.41968525,-0.1988131,0.420189,0.48767003,-0.29958158,0.488021,0.44798844,-0.25709458,0.45777,0.41133114,-0.24398583,0.442293,0.39423607,-0.24346871,0.4437,0.47120596,-0.31899557,0.490084,0.43735894,-0.27572688,0.462694,0.42798612,-0.2832965,0.471172,0.4266837,-0.29655668,0.484099
0.46697893,-0.30157081,0.557651,0.48885445,-0.28280462,0.52763,0.4821779,-0.28312219,0.552404,0.48440121,-0.2344002,0.532866,0.48502556,-0.19803317,0.51574,0.47491101,-0.18017868,0.498389,0.51713515,-0.24466139,0.495517,0.46419863,-0.21344205,0.46185,0.45364406,-0.2238758,0.473418,0.45205418,-0.23733257,0.491324,0.50796153,-0.26446241,0.49089,0.47618676,-0.22859791,0.456119,0.45410799,-0.20691886,0.435836,0.42128706,-0.19652634,0.421348,0.49916476,-0.28225894,0.489472,0.44925805,-0.24574279,0.459137,0.41433767,-0.2320049,0.443616,0.40063483,-0.23031811,0.44554,0.48610721,-0.3062916,0.492336,0.4494021,-0.26986956,0.464877,0.44129385,-0.28088901,0.473886,0.4472753,-0.29790297,0.487044
0.46412096,-0.30092225,0.555496,0.48094927,-0.28686696,0.529014,0.4805561,-0.28331214,0.552714,0.47426695,-0.24085973,0.536526,0.48014808,-0.20531684,0.52478,0.48165737,-0.18561798,0.510624,0.51235012,-0.24830065,0.50295,0.46908351,-0.21611269,0.47187,0.46374231,-0.22961455,0.484733,0.4612435,-0.24348362,0.502136,0.50598007,-0.26595592,0.496604,0.48940513,-0.22832338,0.465253,0.47272043,-0.20529112,0.446965,0.44250077,-0.19348234,0.433902,0.50121604,-0.28340686,0.49349,0.46172228,-0.24706781,0.466735,0.42448493,-0.2381224,0.453046,0.41708091,-0.24788834,0.457023,0.48771965,-0.30612746,0.493795,0.45548604,-0.26336084,0.469225,0.45215974,-0.25796327,0.479393,0.45586497,-0.26637005,0.491982
0.46685198,-0.30267848,0.558208,0.49137839,-0.28233037,0.531538,0.47904785,-0.28212041,0.551809,0.46447257,-0.23211086,0.530452,0.45823879,-0.19264213,0.512991,0.44765273,-0.17474998,0.494573,0.51010141,-0.22711674,0.500874,0.49149536,-0.20388246,0.471053,0.48239214,-0.19210106,0.456143,0.4715691,-0.19101564,0.459484,0.51256781,-0.24987242,0.498896,0.49222103,-0.22006969,0.466336,0.47684662,-0.20394061,0.447342,0.44761867,-0.19503502,0.433775,0.51326737,-0.27080561,0.499392,0.46511632,-0.24913992,0.470258,0.427141,-0.23983862,0.455352,0.42095845,-0.24697014,0.459384,0.51138651,-0.30000789,0.504029,0.46959519,-0.26854462,0.477586,0.46301605,-0.26377339,0.488392,0.46720466,-0.27039533,0.501888
0.47739251,-0.30915974,0.570889,0.49589644,-0.28465742,0.538402,0.48680191,-0.28606631,0.561585,0.45740904,-0.23901432,0.53659,0.45043422,-0.19794299,0.5151,0.43596045,-0.17757374,0.495191,0.50775996,-0.22827683,0.4992,0.48816479,-0.20460315,0.464589,0.47678511,-0.19149605,0.447284,0.46971463,-0.18582104,0.447076,0.5101429,-0.25150794,0.498642,0.48418998,-0.21922906,0.460971,0.434421,-0.21093029,0.438996,0.41945709,-0.21579449,0.438836,0.50781071,-0.27454269,0.500769,0.45319429,-0.2464637,0.466633,0.41776128,-0.23638918,0.449169,0.4039426,-0.23651017,0.449434,0.50557412,-0.30430123,0.508231,0.46038899,-0.26750428,0.477782,0.45764214,-0.26611058,0.486084,0.47230163,-0.27832316,0.500019
0.48145932,-0.31191863,0.575804,0.49816428,-0.28472309,0.54374,0.48847118,-0.28718012,0.565763,0.45346086,-0.24534034,0.539751,0.4406548,-0.20265775,0.516898,0.42518495,-0.18273718,0.496487,0.50452556,-0.22454534,0.503996,0.48640462,-0.19933605,0.469602,0.47548107,-0.18672055,0.452406,0.47217981,-0.18559253,0.452507,0.51051072,-0.2478266,0.504498,0.48466097,-0.21673714,0.466978,0.43947726,-0.21246361,0.445091,0.42489717,-0.21826646,0.445218,0.51467503,-0.26970422,0.507463,0.46009182,-0.24841591,0.473152,0.42417144,-0.23942943,0.455597,0.41017877,-0.24039363,0.456068,0.51790754,-0.30100551,0.515861,0.47101593,-0.26844393,0.485296,0.46599812,-0.26925368,0.493847,0.48080247,-0.28103937,0.507919
0.48915857,-0.31702023,0.584916,0.49959,-0.29322839,0.555917,0.48796091,-0.29268581,0.572419,0.4581832,-0.27987979,0.543251,0.44501134,-0.2370704,0.518556,0.43779614,-0.22078968,0.497497,0.49731772,-0.22596004,0.51578,0.48512337,-0.20183666,0.483156,0.47901612,-0.18974918,0.466844,0.48154526,-0.18172586,0.459638,0.51338351,-0.24945505,0.520425,0.47166599,-0.23317405,0.484908,0.42829126,-0.23310848,0.464189,0.41953387,-0.23916139,0.46586,0.52604734,-0.27211045,0.526555,0.48418582,-0.25718769,0.492835,0.44667191,-0.25340479,0.475583,0.42998492,-0.25542128,0.477286,0.53973933,-0.3054672,0.53826,0.49689575,-0.28293129,0.50834,0.49072588,-0.28464056,0.517981,0.50279296,-0.29306364,0.53225
0.48758282,-0.32072386,0.584635,0.49934981,-0.29454502,0.555687,0.48532946,-0.29556766,0.57287,0.45915443,-0.28211052,0.544582,0.44578086,-0.239545,0.519659,0.43836356,-0.22388118,0.49851,0.49795313,-0.22762419,0.516492,0.4858857,-0.20363487,0.484072,0.47985106,-0.19161061,0.467862,0.48118074,-0.1831841,0.459538,0.5131749,-0.25075818,0.520258,0.46758847,-0.23774665,0.484868,0.42427966,-0.23771936,0.464224,0.41840377,-0.24123007,0.466054,0.52511474,-0.2730606,0.52566,0.48348342,-0.25841414,0.492309,0.44618673,-0.2546442,0.475246,0.43018521,-0.26017444,0.477192,0.5379315,-0.30591528,0.53649,0.50465972,-0.28958959,0.506824,0.49703053,-0.29074115,0.516612,0.50292445,-0.29425936,0.530848
0.48573591,-0.32537559,0.583163,0.49902594,-0.29489317,0.555047,0.47935437,-0.29903127,0.571608,0.45954408,-0.28255099,0.543584,0.44620248,-0.24227557,0.518364,0.43918387,-0.22810504,0.497137,0.4974569,-0.2277833,0.516822,0.48608005,-0.2035968,0.485054,0.48040943,-0.19146385,0.46917,0.48132659,-0.18263521,0.460431,0.51321158,-0.25067987,0.520637,0.4700929,-0.23607547,0.485948,0.42737554,-0.23675581,0.465712,0.42011665,-0.24295272,0.468021,0.52557757,-0.27281754,0.526014,0.48489172,-0.25855526,0.493277,0.44793728,-0.25540308,0.476528,0.43240672,-0.26159097,0.478966,0.53886959,-0.30552755,0.536687,0.50683636,-0.28844504,0.507524,0.49936347,-0.29031704,0.517648,0.50537898,-0.29489369,0.531838
0.48502585,-0.32613981,0.58211,0.4988399,-0.29493682,0.554573,0.47886465,-0.29976231,0.571413,0.46097204,-0.28344834,0.544452,0.44753067,-0.24293231,0.51911,0.44073285,-0.22837408,0.497843,0.4983353,-0.22829663,0.517897,0.4859646,-0.19708855,0.486927,0.48012927,-0.18130965,0.471441,0.48350796,-0.16991288,0.465651,0.51346976,-0.25074859,0.520872,0.47073808,-0.23671615,0.486772,0.4283684,-0.23778516,0.46688,0.42159409,-0.24421131,0.469619,0.52526977,-0.27246261,0.525512,0.48451924,-0.2590142,0.493548,0.44814718,-0.25609669,0.477194,0.43324011,-0.26260072,0.48015,0.53782209,-0.30457645,0.535219,0.50631612,-0.28772081,0.506645,0.49909901,-0.28987002,0.51709,0.50449744,-0.29497987,0.531197
0.48537293,-0.3272979,0.582377,0.49919189,-0.2952371,0.554804,0.47889773,-0.30047201,0.571711,0.46167253,-0.28389069,0.544787,0.44824163,-0.24328599,0.519536,0.44159553,-0.22855347,0.498294,0.49846951,-0.22842485,0.518134,0.48618716,-0.19717881,0.48715,0.48035027,-0.1813931,0.471658,0.48371355,-0.16998513,0.465849,0.51366907,-0.25081146,0.521058,0.47080161,-0.23693821,0.486932,0.42845406,-0.23812014,0.467025,0.42173568,-0.24453558,0.469748,0.52553203,-0.27248156,0.525658,0.48427173,-0.2592766,0.493686,0.44802392,-0.25637013,0.477328,0.43321023,-0.26288516,0.480273,0.53818353,-0.30456696,0.535324,0.50659085,-0.28766296,0.506741,0.49932005,-0.2898517,0.517177,0.50480588,-0.29518395,0.531283
0.50895755,-0.35411061,0.589752,0.5126725,-0.30931294,0.562711,0.49656346,-0.32525738,0.582184,0.49535639,-0.29911901,0.568839,0.48877968,-0.26794693,0.552025,0.49142726,-0.24930366,0.539921,0.49951612,-0.23772588,0.530297,0.49221867,-0.20370968,0.499807,0.49730907,-0.18859095,0.490017,0.49857968,-0.17551276,0.481437,0.51633273,-0.2554218,0.529616,0.47166001,-0.24102006,0.496489,0.4362105,-0.24526824,0.477165,0.43105932,-0.25205514,0.480357,0.53094622,-0.27510342,0.531208,0.49034108,-0.26296869,0.501184,0.45607441,-0.2614998,0.485823,0.44211836,-0.26995822,0.489567,0.5418901,-0.30465918,0.537207,0.49322843,-0.28773277,0.510075,0.48913589,-0.29462434,0.520815,0.49026316,-0.30310562,0.534528
0.50896101,-0.35411301,0.589756,0.51255861,-0.30924423,0.562586,0.49671101,-0.32535404,0.582357,0.49563593,-0.2992878,0.56916,0.48928526,-0.26822409,0.552596,0.49206075,-0.24962503,0.540617,0.49948975,-0.23771333,0.530269,0.4921064,-0.20366322,0.499693,0.49676879,-0.18878377,0.49034,0.49860356,-0.17567297,0.482096,0.51605781,-0.2552858,0.529334,0.47133037,-0.24085161,0.496142,0.43533866,-0.24561923,0.47678,0.43073196,-0.252573,0.479897,0.53036903,-0.27467152,0.530727,0.48976507,-0.26259663,0.50072,0.45570152,-0.26166054,0.485367,0.44199087,-0.27059107,0.489055,0.54214804,-0.30393881,0.536509,0.49255832,-0.28734185,0.509382,0.48842869,-0.29419837,0.520062,0.4895505,-0.30266502,0.533751
0.50912121,-0.35361075,0.585419,0.51165899,-0.30839672,0.558812,0.49836812,-0.32658894,0.580647,0.50620247,-0.31226795,0.571836,0.49134249,-0.27023964,0.556072,0.48296646,-0.2429881,0.546157,0.49986659,-0.23830171,0.5302,0.49547728,-0.20270338,0.50001,0.49093056,-0.18592257,0.484915,0.49361814,-0.1731344,0.477924,0.5139903,-0.2539406,0.526249,0.46919953,-0.24046883,0.494174,0.43222239,-0.24822922,0.475463,0.43011045,-0.25753434,0.478708,0.52566561,-0.27051631,0.525116,0.48436824,-0.26070116,0.497,0.45367556,-0.26376355,0.482614,0.44225272,-0.27544543,0.486692,0.53954751,-0.2973849,0.527802,0.48803421,-0.28245775,0.502147,0.4829319,-0.29048363,0.512747,0.48346439,-0.29882638,0.525886
0.51075816,-0.35444219,0.58505,0.51247063,-0.30873377,0.558307,0.49983735,-0.32762627,0.580539,0.50602897,-0.31216092,0.57164,0.49093818,-0.27045829,0.556187,0.48295231,-0.24298098,0.546141,0.49980348,-0.23847665,0.529898,0.49494485,-0.20229417,0.499634,0.49028571,-0.18525041,0.484503,0.49287843,-0.17235365,0.47764,0.51380599,-0.25368794,0.525577,0.468403,-0.24041478,0.493473,0.43164977,-0.24840754,0.474746,0.42936859,-0.25799095,0.477871,0.52544509,-0.26994294,0.524151,0.48385172,-0.26012724,0.496118,0.45300007,-0.26387451,0.481775,0.44176279,-0.2756987,0.48576,0.53940881,-0.29649154,0.526507,0.48726353,-0.28204035,0.500915,0.48235449,-0.28993418,0.511402,0.48273434,-0.29833713,0.524476
0.51174719,-0.35494562,0.584835,0.51295375,-0.30893359,0.557999,0.50072505,-0.32825272,0.58048,0.505913,-0.31208939,0.571509,0.49067927,-0.27057934,0.556236,0.48293728,-0.24297341,0.546124,0.4997509,-0.23857469,0.529701,0.49459993,-0.20201651,0.499401,0.48986719,-0.1847868,0.48425,0.4923866,-0.17180929,0.477472,0.51367726,-0.2535273,0.525155,0.46790003,-0.24036944,0.493026,0.4312782,-0.24849851,0.474285,0.42888771,-0.25824365,0.477329,0.52529101,-0.26958755,0.52355,0.48342325,-0.26033344,0.495562,0.45256779,-0.26392506,0.481243,0.44143222,-0.27582718,0.485161,0.53930337,-0.29594313,0.525708,0.48680341,-0.28179309,0.500149,0.48197467,-0.28958455,0.51056,0.48226114,-0.29802186,0.523592
0.51629002,-0.35814395,0.589377,0.51290034,-0.30898334,0.557605,0.50368118,-0.33035945,0.583407,0.50353288,-0.31110641,0.569496,0.48590874,-0.2684505,0.551523,0.47495479,-0.23936776,0.537711,0.49345702,-0.23574948,0.523104,0.48440149,-0.19767209,0.489129,0.47749413,-0.17987487,0.472141,0.48369652,-0.16861503,0.469424,0.50739044,-0.25047793,0.518719,0.45948001,-0.23291561,0.482477,0.42168408,-0.23734832,0.461336,0.41445033,-0.24586695,0.461316,0.51946193,-0.26654962,0.517641,0.47377055,-0.25535561,0.485916,0.4415603,-0.25776582,0.469685,0.42797717,-0.2677011,0.470419,0.5349053,-0.29336889,0.521175,0.47915799,-0.27825235,0.492607,0.47297686,-0.28407563,0.50078,0.47388069,-0.29260488,0.514003
