sluyters/QuantumLeap/backend/src/datasets/dynamic/HandGestureDataset_SHREC2017_csv/Gesture5/finger_1/subject_23_essai_1_skeletons_world.csv
Wrist_x,Wrist_y,Wrist_z,Palm_x,Palm_y,Palm_z,thumb_base_x,thumb_base_y,thumb_base_z,thumb_first_joint_x,thumb_first_joint_y,thumb_first_joint_z,thumb_second_joint_x,thumb_second_joint_y,thumb_second_joint_z,thumb_tip_x,thumb_tip_y,thumb_tip_z,index_base_x,index_base_y,index_base_z,index_first_joint_x,index_first_joint_y,index_first_joint_z,index_second_joint_x,index_second_joint_y,index_second_joint_z,index_tip_x,index_tip_y,index_tip_z,middle_base_x,middle_base_y,middle_base_z,middle_first_joint_x,middle_first_joint_y,middle_first_joint_z,middle_second_joint_x,middle_second_joint_y,middle_second_joint_z,middle_tip_x,middle_tip_y,middle_tip_z,ring_base_x,ring_base_y,ring_base_z,ring_first_joint_x,ring_first_joint_y,ring_first_joint_z,ring_second_joint_x,ring_second_joint_y,ring_second_joint_z,ring_tip_x,ring_tip_y,ring_tip_z,pinky_base_x,pinky_base_y,pinky_base_z,pinky_first_joint_x,pinky_first_joint_y,pinky_first_joint_z,pinky_second_joint_x,pinky_second_joint_y,pinky_second_joint_z,pinky_tip_x,pinky_tip_y,pinky_tip_z,
0.258113457,-0.183272859,0.365871,0.216617322,-0.140217092,0.341703,0.233434373,-0.182587043,0.356362,0.211942776,-0.170844957,0.332951,0.187661806,-0.158952053,0.308758,0.169023668,-0.145299357,0.292387,0.170700189,-0.121647609,0.319294,0.134037658,-0.101115839,0.312716,0.115623643,-0.0886988246,0.309428,0.0988619497,-0.078274245,0.306438,0.190852484,-0.111632157,0.325504,0.154359038,-0.0769839571,0.310137,0.139953405,-0.0612074931,0.301174,0.12886165,-0.0486958384,0.294771,0.21132372,-0.106745687,0.332619,0.178867051,-0.0694217776,0.309274,0.171801708,-0.0601776741,0.29733,0.163250817,-0.0484281929,0.286471,0.241826594,-0.107034336,0.344501,0.226650446,-0.0866614045,0.321811,0.219531106,-0.0774866452,0.311387,0.214631968,-0.0711538246,0.302188
0.258676288,-0.18334329,0.365925,0.217255771,-0.14020074,0.341617,0.234056239,-0.182657677,0.356467,0.212019243,-0.171007809,0.333089,0.187096627,-0.160398217,0.308855,0.169029537,-0.146014133,0.292642,0.170665982,-0.121658532,0.319212,0.135000472,-0.0998592949,0.312845,0.116329229,-0.0888510184,0.309661,0.0995821598,-0.0785115361,0.306767,0.191007588,-0.111752855,0.325323,0.154619807,-0.0770729718,0.309713,0.14005587,-0.0610307207,0.300608,0.129230089,-0.0485197038,0.294104,0.211391781,-0.106865516,0.332368,0.17832182,-0.0687403784,0.31043,0.170448044,-0.058423958,0.299205,0.164933348,-0.0493209119,0.289002,0.241748978,-0.107176633,0.344189,0.227749594,-0.0890898356,0.321441,0.221011325,-0.0789791907,0.310989,0.215028653,-0.0715368323,0.301767
0.258756273,-0.183447978,0.365368,0.217723705,-0.140206287,0.341434,0.234080156,-0.182608178,0.355863,0.211448037,-0.170950923,0.332488,0.185659426,-0.158491464,0.308087,0.167710238,-0.145266055,0.291649,0.17079454,-0.121579928,0.319128,0.13505656,-0.0998668692,0.31322,0.116896862,-0.0884080619,0.310266,0.100405003,-0.0784531354,0.307581,0.19127969,-0.111827951,0.325391,0.154738987,-0.0768868667,0.308943,0.141166086,-0.0607751826,0.299349,0.130862031,-0.0481296893,0.292495,0.211752224,-0.107078243,0.33253,0.177678229,-0.0684245984,0.308032,0.171970686,-0.0597144285,0.295498,0.166540844,-0.050571682,0.284103,0.242163437,-0.107566002,0.344406,0.228775568,-0.0895862811,0.321833,0.222601011,-0.0807931264,0.311462,0.216064148,-0.0720365673,0.302311
0.258662913,-0.183458552,0.364605,0.218197378,-0.140369288,0.341155,0.234227229,-0.182699681,0.355425,0.21102513,-0.173530267,0.332464,0.184447376,-0.161690504,0.30805,0.167290793,-0.145747607,0.291691,0.172173417,-0.122949533,0.31947,0.136196935,-0.100226932,0.313746,0.117953215,-0.0889942533,0.310885,0.101268758,-0.0786193812,0.308283,0.192597664,-0.113251216,0.325437,0.155322155,-0.0776496672,0.305791,0.142496957,-0.0587768981,0.294331,0.136114821,-0.0503081273,0.286145,0.213257245,-0.109099476,0.332292,0.178773347,-0.0697490194,0.306501,0.171879927,-0.059793031,0.293306,0.165896626,-0.0505856771,0.28131,0.243202676,-0.109871551,0.343765,0.233174436,-0.0958748266,0.321513,0.227885537,-0.0885951682,0.31129,0.223260001,-0.0820887685,0.302269
0.256879189,-0.182691124,0.361499,0.219541985,-0.1421722,0.341081,0.233232761,-0.182274376,0.353302,0.209434692,-0.173885128,0.331868,0.182899562,-0.161584248,0.308126,0.167694493,-0.147816075,0.294478,0.174490659,-0.124369354,0.321939,0.140270442,-0.0996187847,0.314229,0.127454299,-0.086095922,0.311305,0.10735993,-0.0761436957,0.308647,0.195266394,-0.114778604,0.327395,0.162947636,-0.0779820152,0.309688,0.157496285,-0.0643986799,0.299358,0.15298362,-0.0564234459,0.29198,0.215653106,-0.110559307,0.333579,0.186252188,-0.0722481941,0.310705,0.180550802,-0.0629313031,0.299002,0.174287139,-0.0539104661,0.288363,0.246722546,-0.112814686,0.34382,0.237971799,-0.103416716,0.323369,0.233257318,-0.0984249662,0.31406,0.229215137,-0.0939975539,0.305933
0.262296261,-0.187832657,0.368821,0.221506902,-0.144121514,0.342909,0.236787078,-0.186093754,0.358409,0.210181808,-0.175228034,0.333826,0.18203071,-0.161588247,0.309221,0.165045641,-0.146857434,0.292846,0.174038755,-0.123854246,0.318604,0.146064122,-0.0990088855,0.316201,0.130543292,-0.0862135196,0.314999,0.116144374,-0.0740469604,0.313906,0.196888147,-0.115797552,0.325541,0.163753933,-0.0769465099,0.30329,0.15426977,-0.0630710457,0.29031,0.14816688,-0.0536980442,0.281039,0.219744868,-0.113430052,0.333398,0.184999364,-0.0768670357,0.30456,0.179529229,-0.0695090619,0.289806,0.178080571,-0.067803177,0.276392,0.251109192,-0.116783668,0.346405,0.240996157,-0.111211824,0.322653,0.236101385,-0.107856314,0.31174,0.231822179,-0.104900289,0.30211
0.264278038,-0.190545502,0.371184,0.223113138,-0.145624831,0.343301,0.238207784,-0.188194994,0.360179,0.210827525,-0.176140232,0.334765,0.1841911,-0.162793448,0.310284,0.166403048,-0.148028618,0.293915,0.176711221,-0.123358879,0.317402,0.147926394,-0.0973875271,0.314223,0.132726047,-0.0839104418,0.312633,0.118674568,-0.0711338986,0.311188,0.199024591,-0.11607479,0.324612,0.165206195,-0.0760578813,0.298709,0.161478735,-0.0671032437,0.283599,0.157050611,-0.0610908046,0.272806,0.22206447,-0.114619639,0.332858,0.188024273,-0.081027421,0.302276,0.183308292,-0.0769624179,0.286629,0.184753474,-0.0815492198,0.272405,0.253998656,-0.119118273,0.34661,0.242526395,-0.112085798,0.321795,0.237283882,-0.109002327,0.310393,0.232688797,-0.106289817,0.300333
0.265440914,-0.192894683,0.372274,0.226212601,-0.148301752,0.343223,0.239306824,-0.190165041,0.361357,0.218657454,-0.182905555,0.335916,0.189258079,-0.165709708,0.311686,0.168709511,-0.15048231,0.295679,0.180374156,-0.123309595,0.316942,0.151566256,-0.0967405766,0.314104,0.136750293,-0.083002042,0.312686,0.121055075,-0.0707777199,0.311396,0.203311035,-0.117030388,0.32375,0.170564539,-0.0772310979,0.293624,0.16317224,-0.0719341428,0.27605,0.157937728,-0.0681400006,0.263498,0.225592732,-0.115673661,0.331762,0.192002843,-0.0846116837,0.300515,0.188225808,-0.0842728048,0.284528,0.188290297,-0.0890545915,0.269994,0.260515666,-0.122944788,0.345412,0.237402684,-0.109026809,0.320072,0.234728138,-0.108215898,0.308429,0.233591828,-0.109964368,0.298155
0.265010392,-0.194046519,0.371765,0.223656488,-0.145872907,0.342972,0.238621482,-0.190701197,0.360494,0.210472855,-0.176209118,0.334723,0.183182372,-0.162511995,0.310296,0.166277718,-0.148476046,0.293755,0.177625814,-0.122321402,0.316346,0.149382248,-0.0943592541,0.313516,0.136081591,-0.0811915226,0.3121,0.12243224,-0.068203019,0.310814,0.200442673,-0.115802928,0.323672,0.169390079,-0.0751175553,0.291844,0.162956128,-0.0702901954,0.273277,0.16398724,-0.0733243674,0.260015,0.223855053,-0.114807557,0.332089,0.194530122,-0.084798458,0.30086,0.189425167,-0.0812342318,0.284883,0.190289554,-0.0866610792,0.270357,0.256234624,-0.120296382,0.346176,0.237984741,-0.108853805,0.320886,0.235310779,-0.108223053,0.309267,0.235073864,-0.110609092,0.299015
0.266808163,-0.197228487,0.374739,0.226579141,-0.14906835,0.34406,0.239546594,-0.192874567,0.362394,0.21003127,-0.178061196,0.335443,0.184971191,-0.16375351,0.31101,0.166277684,-0.149106901,0.294475,0.177183401,-0.121944144,0.31526,0.151777749,-0.0930630549,0.3119,0.141813576,-0.0754491374,0.310219,0.130590755,-0.0603480879,0.308692,0.201524162,-0.11636343,0.323496,0.17439759,-0.0796714973,0.29033,0.170991418,-0.0779210614,0.270983,0.170763265,-0.0851782383,0.257164,0.225612077,-0.115988145,0.332817,0.201712862,-0.091520771,0.300115,0.200488203,-0.0919972039,0.283384,0.200546174,-0.0994178483,0.268174,0.259647113,-0.123580277,0.348239,0.241121221,-0.111566666,0.321936,0.236527175,-0.109898955,0.309851,0.236749629,-0.113631134,0.299187
0.265403791,-0.199603096,0.373036,0.227432887,-0.151418674,0.342807,0.237360169,-0.192887254,0.359647,0.20697956,-0.182368904,0.331815,0.181761627,-0.166401576,0.30706,0.16630211,-0.150157918,0.290321,0.178297756,-0.121803818,0.312861,0.155210609,-0.0911685432,0.309639,0.146658119,-0.0752476388,0.308027,0.132996883,-0.0598993756,0.306562,0.204027332,-0.118412273,0.322545,0.182045035,-0.0834404616,0.289823,0.177889615,-0.0804173489,0.270735,0.17366105,-0.0855202549,0.257101,0.229438505,-0.120083033,0.333021,0.216893859,-0.105684792,0.300288,0.210253959,-0.0969252673,0.28354,0.209799315,-0.102455306,0.268316,0.264240922,-0.133105245,0.349728,0.248616517,-0.121481942,0.323533,0.246631908,-0.121921622,0.311498,0.246525337,-0.126207834,0.300878
0.266424878,-0.199636482,0.373179,0.236296885,-0.150949641,0.348762,0.239020157,-0.194178838,0.360931,0.211613216,-0.18026735,0.334768,0.188079935,-0.170268452,0.310552,0.170403332,-0.158699747,0.294463,0.190618044,-0.12139785,0.322741,0.165004565,-0.0878973987,0.31271,0.151848256,-0.0706196315,0.307694,0.137551245,-0.0570235042,0.303821,0.215968711,-0.116515019,0.332396,0.196915815,-0.0868955367,0.303971,0.194986896,-0.0906609238,0.28739,0.194606044,-0.0995431343,0.275546,0.240249223,-0.11623347,0.342368,0.228889264,-0.11011937,0.313505,0.227347641,-0.115282243,0.298738,0.221588101,-0.126510598,0.285593,0.274714894,-0.122920581,0.357628,0.264267726,-0.125579139,0.334307,0.258671307,-0.128175185,0.323592,0.25847603,-0.13395796,0.314137
0.26858028,-0.203100014,0.375811,0.241778278,-0.159541728,0.349119,0.241374874,-0.197230161,0.364077,0.211852397,-0.191682274,0.338088,0.185970661,-0.181614693,0.315057,0.173014584,-0.167059871,0.299273,0.196556302,-0.126425828,0.322791,0.172090278,-0.0913240142,0.308643,0.159644515,-0.0733538331,0.301569,0.148396601,-0.0570055128,0.295137,0.22276873,-0.12482226,0.331228,0.202628686,-0.0942781607,0.301001,0.197669436,-0.101553745,0.283368,0.193976117,-0.111730651,0.270774,0.247215386,-0.127637594,0.340384,0.234558671,-0.120232374,0.310263,0.229351968,-0.128218831,0.294853,0.222646291,-0.138283847,0.28117,0.280902274,-0.138608449,0.355026,0.261380452,-0.141147986,0.330653,0.252409602,-0.14235989,0.319454,0.244539789,-0.143483766,0.309631
0.265142436,-0.206119559,0.372907,0.240332842,-0.160924178,0.347393,0.239554197,-0.197706507,0.361728,0.210261613,-0.190669948,0.336428,0.185899478,-0.181293884,0.314056,0.172869295,-0.167288752,0.298574,0.197203422,-0.126346679,0.322275,0.173713066,-0.0906363795,0.306842,0.165252722,-0.0719474537,0.299125,0.155426947,-0.0548936151,0.292921,0.223468713,-0.125926757,0.330291,0.206933289,-0.10145213,0.300958,0.200752692,-0.112408853,0.283847,0.195560763,-0.12320854,0.271702,0.249148286,-0.132462581,0.339004,0.234293861,-0.120269385,0.309813,0.229318906,-0.129364674,0.294879,0.223061131,-0.13956908,0.281737,0.281938355,-0.146388665,0.352953,0.26483451,-0.145204706,0.329246,0.254498131,-0.1434405,0.318679,0.252262268,-0.152552233,0.309356
0.262896746,-0.210890849,0.370641,0.238515449,-0.160703602,0.344056,0.236005123,-0.198264307,0.358482,0.206204669,-0.191256347,0.332105,0.182669094,-0.178994921,0.309835,0.170038601,-0.165126145,0.294208,0.195529233,-0.12432984,0.317229,0.175957104,-0.0895335439,0.30242,0.167696556,-0.0719706105,0.295016,0.156957718,-0.0551118659,0.291058,0.22388231,-0.126457879,0.326236,0.209238866,-0.10530022,0.296114,0.201075345,-0.117345381,0.278543,0.202572773,-0.130489632,0.279657,0.248697584,-0.132528404,0.335854,0.23614159,-0.127985399,0.305657,0.228257943,-0.139182963,0.290207,0.229810007,-0.154440454,0.29079,0.282082273,-0.147762776,0.35102,0.265322232,-0.150711632,0.326637,0.257014572,-0.151413737,0.315603,0.25009885,-0.154838059,0.305885
0.249201608,-0.203934941,0.351535,0.238655,-0.160909514,0.331587,0.224975419,-0.190579793,0.341519,0.197884383,-0.184501735,0.318248,0.17506771,-0.173755402,0.299159,0.163569614,-0.162709545,0.286382,0.203513483,-0.122887279,0.310315,0.181266122,-0.0865305128,0.291696,0.170225583,-0.0685463372,0.282387,0.161375432,-0.0523591248,0.276103,0.230048323,-0.127034934,0.318216,0.216366803,-0.114930379,0.293318,0.206667529,-0.130393041,0.278795,0.209743291,-0.148608783,0.283458,0.253573754,-0.134641944,0.326373,0.240230902,-0.134227112,0.301217,0.231814424,-0.146790715,0.288347,0.234914368,-0.163621812,0.292689,0.28392884,-0.151330796,0.338852,0.265625352,-0.153584316,0.318214,0.257400528,-0.156755957,0.308856,0.251024502,-0.164764465,0.30085
0.265931754,-0.216039243,0.336183,0.238873016,-0.163058744,0.318201,0.241593764,-0.208684168,0.330766,0.198666225,-0.190062856,0.312889,0.170352971,-0.170489339,0.292268,0.151235172,-0.157567614,0.277543,0.199689973,-0.134796552,0.303649,0.178680099,-0.0945947376,0.282354,0.175413918,-0.0781751845,0.283246,0.172197592,-0.0624746776,0.284057,0.221690115,-0.13062634,0.306148,0.205752741,-0.121012422,0.283248,0.202179149,-0.13687647,0.26989,0.206762293,-0.146020326,0.276518,0.242258246,-0.130998499,0.309695,0.228807853,-0.125150965,0.287979,0.223538634,-0.139629845,0.276868,0.227319915,-0.14908217,0.283745,0.271061724,-0.138451927,0.316492,0.251906602,-0.132439488,0.298155,0.246450313,-0.14224385,0.28973,0.252082212,-0.149747441,0.293972
0.247910222,-0.208408963,0.339656,0.23377369,-0.160551764,0.314783,0.230270164,-0.202069498,0.337051,0.198866005,-0.186817469,0.321797,0.171761895,-0.177479546,0.30094,0.159322387,-0.16478878,0.285291,0.199233116,-0.125683115,0.30091,0.181533461,-0.0855826717,0.276629,0.178058901,-0.0697126677,0.274229,0.17434288,-0.0549895124,0.272048,0.216686467,-0.125861628,0.29811,0.188368856,-0.126980078,0.270499,0.203036994,-0.155261534,0.287097,0.218314017,-0.16299186,0.302295,0.234566209,-0.127787598,0.297866,0.208596382,-0.130997556,0.273522,0.220943213,-0.154600442,0.287271,0.237803616,-0.161565324,0.302593,0.258270351,-0.139522184,0.301244,0.22888657,-0.140713667,0.280666,0.236274651,-0.157317463,0.29004,0.249101926,-0.161468921,0.300916
0.248571388,-0.210791971,0.337173,0.232369646,-0.160804112,0.312991,0.232345616,-0.204211358,0.335012,0.197718815,-0.186389249,0.320408,0.170715386,-0.177016899,0.299633,0.154378711,-0.16376409,0.284032,0.200526891,-0.126761467,0.299979,0.188174976,-0.0877452715,0.275944,0.186456992,-0.0720473398,0.273846,0.184730623,-0.0569312106,0.271939,0.220333969,-0.128388579,0.296782,0.190178646,-0.133198966,0.269808,0.204237351,-0.160846317,0.286638,0.218772933,-0.16510156,0.301678,0.236784457,-0.132765686,0.296153,0.209951438,-0.138212312,0.272507,0.221800926,-0.16130003,0.286452,0.238376967,-0.164654001,0.301571,0.259252622,-0.145676488,0.298979,0.229867393,-0.146249299,0.278923,0.236469608,-0.162830496,0.288447,0.249074217,-0.165093513,0.299199
0.252650713,-0.215970921,0.338816,0.235802822,-0.164288434,0.315121,0.232407426,-0.20548343,0.335204,0.195541796,-0.18742996,0.318755,0.16678339,-0.176225531,0.296755,0.151811952,-0.162135147,0.280671,0.204974323,-0.129530001,0.30046,0.195689155,-0.0902320596,0.276108,0.195861609,-0.0750940596,0.273611,0.196137866,-0.0603676421,0.271341,0.224649405,-0.130797861,0.299239,0.202764809,-0.135182971,0.272235,0.214709619,-0.163850631,0.289578,0.224640187,-0.170333891,0.30479,0.244885373,-0.137620731,0.300197,0.223057697,-0.141167767,0.275727,0.23299569,-0.165800157,0.290052,0.243872291,-0.172421163,0.305655,0.26836409,-0.151805982,0.304808,0.241946215,-0.152800792,0.284327,0.247577919,-0.169163923,0.294129,0.25679715,-0.173715784,0.305138
0.251521575,-0.216886837,0.338412,0.235659466,-0.165134873,0.314917,0.232164868,-0.206429112,0.335661,0.195390421,-0.192697729,0.320343,0.165387143,-0.177704258,0.298923,0.141392352,-0.161140575,0.283619,0.206653671,-0.130222587,0.301441,0.19772648,-0.0906783185,0.277252,0.196873754,-0.075850983,0.273484,0.196213409,-0.0614814212,0.270059,0.227318097,-0.132650586,0.299168,0.201187997,-0.135709365,0.271781,0.212862126,-0.164783379,0.289037,0.224510699,-0.172058507,0.30436,0.244190383,-0.138314484,0.299244,0.220522878,-0.141730168,0.274237,0.230389762,-0.16610636,0.28848,0.243875503,-0.174239898,0.304267,0.266329309,-0.152648233,0.302794,0.239286371,-0.153810016,0.282782,0.245090477,-0.170147657,0.292578,0.255632195,-0.174461932,0.30342
0.24778168,-0.218597253,0.338905,0.235720844,-0.168541568,0.314015,0.229675561,-0.206784327,0.336489,0.19545066,-0.193984529,0.321485,0.165483195,-0.179122836,0.300773,0.14275872,-0.161901018,0.285259,0.213545468,-0.132131542,0.300377,0.204033552,-0.0955103962,0.274835,0.203022994,-0.0807575298,0.268747,0.201876604,-0.06715795,0.263212,0.23091187,-0.137022679,0.297331,0.198952073,-0.135533419,0.268683,0.20814725,-0.166068251,0.285156,0.221708953,-0.177637338,0.300689,0.245971957,-0.145270098,0.296885,0.217723473,-0.140861187,0.270707,0.226835991,-0.165013246,0.284306,0.240732059,-0.175798016,0.300309,0.265182118,-0.162692051,0.30003,0.231892386,-0.158673582,0.279534,0.228748157,-0.171874703,0.288876,0.227965292,-0.185237199,0.299713
0.247655309,-0.222562217,0.338892,0.236266351,-0.173255097,0.313448,0.229862235,-0.209536137,0.336162,0.194965896,-0.193963574,0.320694,0.165753071,-0.178299284,0.299982,0.145781015,-0.15989907,0.284589,0.214326213,-0.133226257,0.299173,0.208228305,-0.0992104727,0.272972,0.211244191,-0.0842778273,0.268704,0.214338049,-0.0699513635,0.264824,0.23174349,-0.138743068,0.296393,0.200480683,-0.138437134,0.267332,0.208157548,-0.168427237,0.283604,0.220880058,-0.182281352,0.299224,0.248101404,-0.150028045,0.296212,0.220242761,-0.146844136,0.268766,0.225774064,-0.168790295,0.282152,0.240206651,-0.180527842,0.298581,0.266635356,-0.168372729,0.299748,0.234085796,-0.163638065,0.278855,0.229149449,-0.173738384,0.288065,0.228236926,-0.186803175,0.29899
0.247196241,-0.224280023,0.340303,0.237785134,-0.174873698,0.314201,0.22882147,-0.208353244,0.336795,0.195388816,-0.190959777,0.320252,0.165128558,-0.175246685,0.299284,0.148043481,-0.155944691,0.283602,0.223000615,-0.135232573,0.298652,0.217134418,-0.103040495,0.271791,0.220548524,-0.0895400411,0.266029,0.223909692,-0.0768214668,0.26079,0.239538134,-0.144460141,0.296706,0.204758997,-0.141221623,0.267217,0.210088991,-0.170257135,0.28333,0.221299219,-0.182627267,0.299054,0.253283874,-0.156062639,0.297265,0.223563241,-0.153014229,0.26951,0.227378799,-0.173892619,0.282769,0.240980344,-0.185116407,0.299273,0.269808123,-0.17706764,0.301765,0.236195116,-0.170103922,0.280223,0.231274317,-0.17889609,0.289309,0.229434209,-0.189277277,0.300414
0.24549427,-0.222309137,0.340108,0.23854885,-0.174736106,0.313459,0.227683365,-0.207491006,0.33571,0.194123126,-0.186182383,0.317979,0.162462561,-0.167778161,0.296531,0.145539466,-0.147997752,0.280617,0.228690889,-0.132567424,0.29654,0.222970402,-0.105219273,0.269135,0.223637368,-0.0928561941,0.259396,0.221901058,-0.0838283757,0.250543,0.24488966,-0.144044508,0.295597,0.213215805,-0.142040408,0.265808,0.211994389,-0.169643984,0.281778,0.221298894,-0.181553096,0.297567,0.255556759,-0.156628219,0.297028,0.230293893,-0.153309474,0.269392,0.228549495,-0.174346916,0.282557,0.24104961,-0.183674965,0.298975,0.271936972,-0.178792102,0.302627,0.238546971,-0.170771107,0.280455,0.232508531,-0.179499563,0.289424,0.23032179,-0.189785646,0.300705
0.243593694,-0.223678474,0.338591,0.241697923,-0.176889467,0.312341,0.226173553,-0.207163656,0.333132,0.191871589,-0.180864089,0.314108,0.161879622,-0.160627592,0.291776,0.145662962,-0.141011895,0.275534,0.234668789,-0.135954781,0.294232,0.230942939,-0.111588614,0.267196,0.233412432,-0.101112114,0.258301,0.235057078,-0.0921400991,0.250215,0.250352035,-0.149858315,0.294746,0.219161168,-0.147204822,0.265491,0.215963452,-0.171002488,0.281724,0.222845767,-0.182890317,0.297402,0.262791692,-0.164960662,0.297344,0.232926297,-0.161098315,0.269766,0.229333754,-0.177667425,0.283122,0.232632401,-0.195148196,0.299594,0.27663127,-0.189524997,0.304248,0.24614639,-0.180284106,0.28183,0.24071885,-0.191284061,0.29092,0.241666947,-0.201816948,0.302334
0.24276597,-0.224157456,0.33873,0.245108005,-0.180482428,0.311363,0.225671292,-0.206752056,0.332654,0.191762269,-0.179783629,0.312775,0.163293693,-0.158120909,0.290426,0.145977581,-0.139444425,0.274066,0.23461902,-0.136401528,0.291991,0.229662264,-0.112583686,0.264138,0.23267989,-0.105155697,0.25472,0.232206899,-0.0937982376,0.246158,0.2502493,-0.151030193,0.293019,0.21709651,-0.147923455,0.262979,0.214559215,-0.17286073,0.278637,0.221020687,-0.18207923,0.294417,0.262700008,-0.166765498,0.296133,0.231023978,-0.162504033,0.26789,0.226079417,-0.181142268,0.280776,0.230884777,-0.194750826,0.297328,0.276581856,-0.19213259,0.303806,0.244529666,-0.182139247,0.280643,0.238553589,-0.192412849,0.289367,0.239444129,-0.202694874,0.300902
0.242429135,-0.226309923,0.3399,0.25273526,-0.188788948,0.310363,0.226414175,-0.207561527,0.333325,0.20145564,-0.179760532,0.312674,0.171344323,-0.157668153,0.290738,0.150812237,-0.138026777,0.274319,0.246569948,-0.144956747,0.289433,0.237790474,-0.123329567,0.260038,0.235121472,-0.114719527,0.248697,0.231976973,-0.107222958,0.238387,0.259258046,-0.16238233,0.290565,0.215453435,-0.156213625,0.25861,0.210287138,-0.176686891,0.273042,0.219745851,-0.183500779,0.289131,0.269170116,-0.180253676,0.293944,0.22823199,-0.172999277,0.264487,0.221249854,-0.187385915,0.276396,0.228069855,-0.194151069,0.293048,0.279651863,-0.207703732,0.302247,0.241448275,-0.192674894,0.277934,0.234022964,-0.198080346,0.28592,0.236486364,-0.202113422,0.297573
0.240365086,-0.224997041,0.337947,0.255686374,-0.188115042,0.310275,0.225656298,-0.202969915,0.328933,0.205682307,-0.164019547,0.307497,0.175240681,-0.150071163,0.284713,0.155816773,-0.134207999,0.267886,0.25334253,-0.147959004,0.287014,0.25727668,-0.124518254,0.258393,0.251142495,-0.120168888,0.244082,0.230273542,-0.122845062,0.231072,0.267940677,-0.167325216,0.291727,0.223810059,-0.172247278,0.260821,0.217668048,-0.18701066,0.275584,0.224951828,-0.190565213,0.291398,0.278843078,-0.185711305,0.297899,0.236606285,-0.189432474,0.268289,0.232836854,-0.19868971,0.280409,0.248138134,-0.201084712,0.297207,0.287896533,-0.212092775,0.309195,0.251805587,-0.206454,0.284943,0.247884334,-0.21063518,0.293096,0.259570741,-0.21416339,0.304793
0.239888488,-0.225259246,0.338326,0.256581054,-0.189643322,0.309819,0.225900393,-0.202410961,0.328542,0.205500721,-0.166031548,0.306305,0.175104818,-0.149268637,0.28351,0.159464972,-0.132243841,0.266778,0.254554387,-0.153404628,0.285217,0.257731958,-0.135623613,0.256138,0.250950726,-0.132122647,0.241599,0.227966859,-0.132941968,0.228382,0.268536124,-0.17414569,0.290711,0.222103443,-0.173729837,0.259127,0.215406532,-0.187400635,0.273128,0.22486911,-0.192643464,0.288947,0.27896618,-0.193659548,0.297595,0.234123065,-0.194730375,0.267138,0.229815213,-0.203040134,0.27862,0.246311058,-0.203034762,0.295504,0.289192041,-0.220928817,0.309847,0.249819402,-0.213280806,0.285007,0.245562037,-0.216682476,0.292693,0.2584382,-0.217314634,0.304415
0.238739178,-0.224762425,0.337584,0.258654367,-0.201052952,0.308921,0.229318734,-0.200621268,0.327729,0.210438136,-0.169737772,0.30354,0.183890748,-0.14540463,0.279754,0.17182383,-0.127895739,0.262992,0.260334231,-0.164609677,0.284162,0.260582735,-0.148797646,0.254706,0.254759132,-0.143802837,0.239978,0.232099021,-0.142399253,0.226589,0.269587708,-0.18696058,0.289708,0.220067805,-0.183144767,0.258005,0.213026684,-0.190582848,0.271893,0.22301017,-0.195840236,0.28772,0.275928856,-0.207206481,0.296649,0.230880688,-0.20147825,0.266068,0.220816013,-0.207925906,0.277456,0.228524258,-0.211462133,0.294353,0.280975198,-0.234286979,0.308989,0.241820006,-0.22176828,0.284061,0.237524406,-0.223184457,0.291677,0.249513324,-0.22816545,0.303404
0.24027456,-0.22576814,0.33884,0.264114178,-0.209759228,0.308584,0.236429856,-0.20120058,0.328267,0.218407869,-0.174630667,0.303602,0.192790858,-0.148294333,0.280358,0.181090353,-0.130125119,0.263648,0.265099849,-0.174392868,0.282231,0.261849279,-0.160195051,0.251449,0.253625396,-0.155497192,0.236058,0.228493922,-0.152320377,0.222066,0.273391006,-0.197593118,0.288303,0.218693369,-0.190110882,0.255402,0.210812978,-0.196521908,0.268057,0.221047874,-0.198317589,0.28393,0.279123926,-0.218357605,0.295808,0.229054497,-0.209260509,0.263993,0.218823746,-0.21295875,0.274359,0.227432804,-0.212709244,0.291347,0.283764579,-0.245636333,0.309044,0.241469127,-0.230122211,0.283231,0.237631207,-0.229736397,0.290097,0.250786998,-0.235072361,0.301844
0.241075663,-0.225605751,0.338722,0.264146969,-0.209412783,0.307631,0.239937298,-0.201676353,0.328233,0.218699055,-0.174517919,0.303069,0.194281944,-0.147151881,0.280152,0.183141851,-0.128356456,0.26335,0.2648546,-0.173833729,0.281033,0.259960889,-0.160367312,0.249813,0.25143872,-0.155765457,0.234203,0.226012972,-0.152415739,0.220012,0.27293154,-0.196799459,0.286792,0.219277966,-0.190332566,0.255053,0.210943437,-0.19653972,0.2674,0.222578342,-0.201100942,0.282756,0.278554415,-0.217393426,0.294108,0.227389628,-0.207644658,0.26185,0.216791967,-0.211380219,0.27188,0.225462698,-0.212193515,0.288912,0.283196734,-0.244557532,0.307246,0.240655067,-0.228922555,0.281085,0.236526414,-0.228369707,0.287701,0.249586925,-0.233657116,0.299474
0.24182176,-0.224824779,0.337177,0.264166013,-0.209786851,0.305451,0.249025577,-0.206756953,0.328202,0.228425476,-0.178404819,0.30463,0.207002873,-0.149792189,0.282599,0.197513915,-0.130992673,0.265988,0.272650843,-0.180211928,0.280521,0.26165599,-0.173468356,0.249765,0.256328561,-0.170213626,0.234387,0.233545469,-0.164006862,0.220407,0.275927956,-0.202725887,0.284186,0.217293344,-0.188050978,0.251415,0.20916949,-0.194668144,0.264073,0.221451582,-0.200284521,0.2799,0.277683276,-0.222724857,0.289831,0.224652995,-0.205288423,0.257892,0.220927821,-0.205771655,0.268248,0.239138773,-0.211632617,0.285281,0.277937933,-0.248800482,0.301107,0.235642564,-0.224930481,0.275063,0.229201159,-0.228280465,0.281907,0.229168051,-0.230771693,0.293727
0.244352885,-0.222711521,0.333618,0.269547447,-0.21279388,0.302495,0.248890534,-0.204213668,0.323688,0.233132752,-0.174361318,0.299109,0.209267496,-0.147572654,0.2764,0.195908891,-0.128496706,0.259497,0.280738505,-0.183172374,0.276599,0.263287242,-0.179443598,0.246425,0.254730885,-0.177788013,0.231338,0.230082428,-0.165892107,0.217622,0.283001239,-0.205820196,0.281634,0.231194777,-0.193856529,0.249662,0.221199509,-0.198640035,0.262291,0.225433006,-0.202647886,0.27782,0.283796042,-0.225613676,0.288358,0.233867297,-0.209706431,0.256319,0.22879374,-0.206830486,0.266604,0.246646078,-0.212082645,0.28365,0.282629443,-0.250984245,0.300807,0.243553109,-0.2317058,0.274763,0.236284472,-0.233783179,0.281562,0.235306117,-0.237686112,0.293364
0.242744958,-0.220704035,0.329944,0.269743211,-0.214745509,0.299362,0.247570918,-0.202200953,0.319558,0.230792131,-0.172837706,0.294534,0.213606699,-0.14435959,0.270887,0.207546464,-0.125995035,0.254146,0.277357792,-0.189806403,0.273111,0.260530908,-0.188502394,0.243834,0.25229399,-0.188111245,0.229195,0.228146349,-0.1795053,0.215888,0.277704251,-0.212295076,0.278863,0.227200635,-0.199248221,0.247493,0.218304605,-0.199380431,0.260191,0.22386135,-0.202632109,0.275524,0.27691998,-0.231593415,0.286132,0.228228188,-0.214462884,0.254206,0.222860006,-0.210384916,0.264525,0.239683091,-0.211204626,0.281538,0.273859109,-0.255731324,0.29914,0.236550864,-0.235811804,0.273224,0.229795657,-0.237007153,0.280053,0.231516173,-0.238094256,0.291821
0.250304269,-0.224633695,0.330517,0.271634204,-0.225005984,0.298573,0.256269456,-0.205516753,0.320483,0.242169841,-0.177706639,0.295749,0.224633221,-0.147434519,0.272705,0.219314729,-0.129162433,0.256126,0.280949997,-0.199304449,0.272196,0.258639697,-0.194153768,0.241642,0.247613865,-0.191818613,0.226366,0.223262844,-0.17801952,0.212478,0.278444341,-0.221376286,0.277161,0.224596097,-0.198793608,0.244576,0.214809959,-0.200081547,0.256651,0.223465896,-0.203377652,0.272228,0.275545662,-0.240186191,0.283895,0.225135587,-0.214121186,0.25135,0.220308772,-0.209286706,0.261184,0.236512663,-0.214340398,0.278254,0.270427198,-0.263391666,0.296477,0.232964319,-0.235525341,0.270058,0.226271009,-0.235446756,0.276525,0.227809183,-0.236481579,0.28833
0.249151771,-0.223069109,0.326858,0.269299416,-0.226257708,0.295469,0.257791488,-0.205490796,0.316125,0.245143587,-0.179566249,0.290693,0.228298415,-0.150541215,0.267163,0.22330782,-0.133803603,0.250428,0.279413917,-0.208043883,0.268434,0.254988462,-0.204158044,0.23851,0.242874431,-0.202498536,0.223548,0.217774493,-0.188445514,0.209946,0.27530648,-0.229578243,0.27443,0.222533598,-0.207211806,0.24255,0.213875265,-0.202267407,0.254575,0.221850383,-0.205308716,0.269881,0.2712158,-0.247543368,0.281967,0.221003578,-0.221713899,0.249442,0.218598918,-0.211997134,0.259199,0.235831449,-0.217990265,0.27623,0.264914065,-0.268997773,0.295407,0.227997792,-0.242715221,0.269066,0.223571822,-0.238257607,0.275483,0.224591121,-0.238521726,0.287242
0.249011752,-0.222834969,0.325352,0.268342411,-0.227116974,0.294462,0.257859086,-0.205934838,0.314643,0.245051941,-0.17957974,0.289266,0.228238698,-0.151453077,0.265801,0.223202756,-0.135013025,0.24894,0.278668479,-0.208272479,0.267669,0.255081923,-0.204801741,0.237835,0.243394665,-0.203346443,0.222918,0.218744092,-0.189500784,0.209357,0.27446528,-0.229678141,0.273758,0.223212979,-0.208305879,0.242267,0.214162369,-0.206627286,0.254599,0.221417196,-0.206788549,0.269861,0.270246504,-0.247519059,0.28133,0.221431459,-0.22258935,0.249097,0.218669406,-0.215740412,0.259103,0.235774585,-0.219314052,0.276116,0.263684397,-0.268798062,0.294736,0.22789748,-0.243271527,0.268616,0.222667447,-0.241523668,0.275217,0.224258847,-0.239566246,0.28697
0.253133831,-0.224336585,0.324616,0.268457532,-0.230901082,0.293545,0.262182952,-0.20947102,0.312586,0.245519217,-0.180179638,0.285901,0.233043631,-0.153553061,0.261744,0.229354934,-0.138174551,0.245022,0.277834707,-0.21642999,0.264984,0.248139216,-0.21403298,0.236197,0.2332974,-0.213113854,0.221803,0.208257936,-0.19746767,0.208718,0.273563352,-0.237171933,0.272719,0.221155053,-0.215702134,0.241655,0.212599439,-0.208608151,0.252904,0.220244911,-0.207919174,0.267672,0.269594955,-0.254088131,0.281661,0.218929729,-0.22880313,0.248838,0.217569753,-0.217831491,0.257899,0.234889794,-0.221681273,0.274772,0.26490952,-0.271608011,0.296697,0.228639316,-0.247133102,0.270265,0.223395157,-0.243609307,0.276188,0.225024612,-0.241233993,0.287788
0.254354449,-0.224770193,0.324683,0.268267675,-0.231930732,0.293321,0.263730804,-0.210222452,0.312718,0.25009895,-0.181498681,0.286255,0.239477735,-0.151939008,0.262168,0.231956518,-0.137538539,0.24525,0.277072646,-0.217744153,0.264719,0.246769035,-0.21384139,0.235392,0.2316216,-0.212141865,0.220728,0.206820882,-0.195491682,0.207398,0.271834745,-0.238128373,0.272299,0.219822375,-0.214599478,0.240972,0.211777811,-0.20654529,0.252105,0.219284035,-0.206243069,0.266931,0.26714363,-0.254699683,0.281138,0.21706268,-0.227609962,0.248172,0.216345952,-0.21619683,0.257143,0.234038941,-0.22155548,0.274038,0.260691837,-0.27371439,0.296097,0.22649871,-0.246534685,0.269547,0.22203411,-0.242915884,0.275403,0.224159689,-0.240732294,0.287017
0.255250665,-0.224791261,0.324495,0.267811643,-0.235969731,0.293384,0.264557668,-0.210438912,0.312185,0.254049075,-0.181883774,0.285635,0.243966346,-0.156784751,0.26145,0.235397992,-0.139890674,0.244477,0.272565821,-0.22519628,0.264446,0.239900273,-0.218908175,0.234671,0.223546106,-0.215964994,0.219783,0.203861363,-0.195221737,0.206249,0.26503274,-0.243995308,0.27253,0.214946854,-0.213021135,0.239052,0.208357967,-0.20511911,0.249869,0.217292944,-0.205132211,0.265374,0.258752343,-0.258893952,0.281763,0.213395673,-0.227578208,0.248826,0.213516279,-0.21736684,0.257648,0.233673303,-0.222148273,0.274472,0.251000067,-0.275206347,0.297145,0.217912088,-0.246180365,0.270658,0.218080272,-0.241903908,0.27641,0.224377712,-0.241096213,0.287963
0.257375425,-0.225832938,0.326013,0.267006802,-0.237006891,0.29379,0.266266342,-0.211361365,0.312905,0.257718797,-0.184248108,0.285199,0.245731206,-0.158406836,0.260721,0.238719412,-0.145881242,0.243822,0.270054623,-0.226195238,0.26336,0.231777183,-0.217135101,0.233129,0.213298305,-0.211741427,0.218014,0.190615668,-0.190026653,0.204273,0.262650319,-0.244974902,0.272191,0.209781165,-0.212895672,0.238017,0.202213317,-0.202891171,0.247297,0.21295983,-0.201327367,0.262572,0.256619906,-0.259874855,0.282132,0.207901176,-0.226805234,0.248349,0.208859967,-0.214943912,0.255896,0.231192759,-0.220654855,0.272552,0.249414641,-0.276160402,0.298505,0.216269822,-0.246131015,0.271474,0.213651582,-0.238844414,0.276304,0.222932758,-0.238798352,0.28769
0.259477185,-0.225959538,0.326188,0.264030221,-0.239085393,0.295355,0.266647339,-0.211147461,0.312597,0.257692339,-0.183934386,0.284714,0.247484631,-0.160127426,0.259978,0.242577816,-0.149165371,0.243286,0.2635025,-0.22894364,0.264896,0.229029299,-0.224944788,0.236273,0.211738574,-0.223134528,0.221962,0.190137526,-0.20418276,0.208951,0.255941486,-0.246419676,0.274689,0.202852827,-0.212801574,0.241566,0.201375538,-0.203478607,0.251114,0.216805861,-0.205579179,0.266092,0.250094191,-0.2598627,0.285305,0.200753502,-0.225340459,0.252181,0.199826436,-0.21403026,0.25993,0.217160837,-0.216473965,0.276401,0.243729651,-0.273776261,0.302264,0.215800083,-0.246669168,0.275798,0.217038918,-0.241382418,0.280789,0.229267223,-0.23929373,0.292039
0.258350071,-0.223567819,0.322975,0.264558834,-0.239995005,0.297413,0.265244378,-0.209423415,0.310326,0.258251766,-0.183571156,0.284479,0.249599604,-0.160786634,0.261085,0.249618982,-0.152066436,0.246469,0.267854777,-0.233854219,0.270392,0.232133031,-0.230549758,0.246056,0.214575019,-0.229243374,0.233888,0.194536603,-0.209697227,0.222826,0.259860881,-0.251082852,0.280279,0.211992416,-0.223999936,0.253379,0.210528735,-0.214137584,0.266578,0.228297371,-0.216710076,0.280659,0.253361867,-0.263793859,0.290536,0.206443785,-0.232103222,0.260825,0.208159316,-0.222353363,0.271448,0.226077661,-0.223770361,0.287785,0.245814298,-0.275955863,0.306299,0.218121885,-0.248750353,0.28236,0.222363868,-0.246257239,0.289468,0.235878575,-0.243554931,0.300649
0.260126751,-0.223194073,0.32332,0.260951185,-0.23769736,0.298472,0.265581932,-0.209088582,0.310571,0.258080728,-0.183477002,0.284593,0.248689264,-0.161045707,0.260476,0.245164761,-0.151648661,0.244808,0.265438166,-0.232948317,0.271627,0.232952432,-0.233874787,0.24916,0.214723929,-0.236754322,0.238091,0.194511294,-0.220835629,0.228029,0.257956935,-0.249914587,0.281817,0.206164378,-0.219575604,0.25632,0.207625123,-0.210063043,0.269716,0.228289697,-0.216472009,0.283437,0.252005384,-0.262284744,0.292264,0.204838182,-0.23076926,0.263365,0.203598687,-0.219139439,0.274123,0.224679599,-0.221145218,0.290177,0.24532997,-0.273873473,0.308145,0.21679653,-0.246964308,0.284552,0.216214515,-0.244614048,0.291751,0.228681319,-0.244724259,0.302846
0.263194337,-0.22326905,0.325564,0.26099502,-0.236395942,0.300626,0.267895491,-0.209555003,0.311627,0.257798557,-0.18299943,0.284458,0.247683229,-0.160897695,0.259668,0.243622615,-0.15196482,0.243879,0.261541582,-0.230457435,0.27222,0.22382649,-0.231085112,0.249703,0.20491275,-0.230902182,0.238445,0.185638526,-0.226363135,0.22821,0.25581053,-0.248106572,0.283909,0.206395335,-0.220698626,0.258999,0.208044871,-0.209683405,0.270981,0.226439963,-0.215956951,0.28398,0.251496472,-0.261006645,0.295599,0.201175412,-0.225458345,0.268366,0.204231031,-0.214768444,0.27802,0.223476483,-0.218773872,0.292475,0.247152972,-0.273119255,0.312945,0.215547671,-0.241192128,0.289239,0.214131605,-0.241934974,0.295572,0.227561351,-0.241215528,0.30637
0.264692973,-0.221900114,0.326264,0.257494895,-0.232947681,0.29986,0.269033965,-0.209031335,0.311895,0.257362479,-0.182371085,0.284066,0.247009867,-0.160667787,0.259038,0.242385313,-0.151989611,0.243028,0.251637839,-0.228769665,0.270282,0.212282556,-0.225490443,0.245797,0.191791948,-0.222654927,0.233554,0.171716971,-0.2154681,0.222425,0.244978125,-0.244683693,0.282163,0.196965711,-0.217257948,0.256258,0.199381327,-0.204262253,0.267105,0.21899469,-0.208124242,0.279975,0.240577071,-0.256136603,0.294131,0.192282337,-0.217164967,0.264591,0.196654598,-0.205594165,0.273238,0.213780674,-0.208470892,0.281098,0.23734164,-0.266549994,0.312019,0.207986105,-0.234750269,0.287591,0.20648197,-0.23368982,0.293236,0.220929097,-0.233492491,0.304023
0.266653471,-0.218854538,0.326293,0.255174711,-0.230956378,0.299591,0.269825341,-0.207814199,0.311238,0.256271573,-0.181226257,0.282765,0.245384257,-0.159782908,0.257517,0.23912149,-0.15167308,0.241427,0.247871956,-0.227988575,0.269009,0.203266827,-0.223836118,0.246289,0.18218838,-0.222000226,0.235154,0.161753832,-0.215767368,0.225031,0.242084533,-0.243892568,0.281693,0.190266709,-0.211904608,0.256002,0.19666603,-0.200596847,0.265647,0.213975482,-0.203977248,0.277993,0.238664595,-0.255355613,0.294347,0.190623014,-0.214122445,0.267694,0.197595383,-0.204603409,0.275495,0.213114428,-0.204114729,0.282587,0.23706241,-0.265809929,0.313082,0.207332573,-0.232862771,0.28855,0.203679971,-0.227307935,0.293468,0.21735328,-0.227161855,0.304009
0.266681578,-0.214153718,0.324955,0.251756722,-0.229563596,0.299036,0.269267712,-0.205786372,0.309945,0.255145603,-0.180165369,0.281564,0.244161309,-0.159145003,0.256285,0.236946918,-0.151861941,0.240208,0.242725894,-0.229467151,0.268843,0.197305891,-0.222860507,0.247895,0.175540202,-0.219072008,0.237479,0.155332813,-0.211321059,0.22801,0.237158851,-0.243469478,0.281664,0.188607982,-0.211409955,0.25661,0.194628935,-0.197523359,0.266644,0.214028771,-0.203240277,0.278914,0.23429886,-0.253245643,0.294365,0.193854838,-0.220225973,0.275292,0.200929423,-0.207980315,0.283793,0.218711571,-0.209782888,0.291521,0.233934914,-0.261568982,0.31304,0.204073927,-0.229075986,0.288884,0.202198005,-0.226209069,0.294037,0.214696078,-0.2227728,0.304536
0.267471284,-0.213289287,0.325007,0.25158102,-0.22946365,0.299261,0.269857022,-0.204682926,0.30991,0.254968876,-0.179781283,0.281461,0.243933865,-0.15908836,0.256157,0.236554211,-0.151965166,0.240105,0.242083652,-0.229785414,0.26903,0.197196925,-0.221623027,0.248299,0.175334357,-0.217357047,0.238024,0.155123363,-0.209141744,0.228683,0.236675521,-0.243568118,0.282004,0.18821756,-0.212539946,0.257163,0.193897183,-0.198261942,0.267113,0.213286359,-0.203027191,0.279228,0.234013504,-0.253148308,0.294819,0.193829133,-0.219993118,0.275987,0.201206388,-0.207759301,0.284421,0.218998671,-0.209567535,0.292089,0.233990531,-0.261212137,0.3136,0.204147814,-0.228590294,0.289538,0.202379462,-0.225362643,0.29464,0.214989228,-0.221841716,0.305086
0.268861446,-0.213061638,0.325738,0.251644922,-0.229739523,0.300019,0.270463773,-0.203636549,0.310017,0.254300378,-0.178513972,0.281124,0.242946799,-0.158974144,0.25579,0.235961539,-0.151993075,0.239879,0.238925086,-0.230190805,0.269001,0.19092418,-0.217109139,0.248854,0.168458648,-0.211103155,0.239004,0.1481998,-0.201297171,0.230049,0.234371869,-0.243647532,0.28278,0.186166216,-0.212589403,0.258444,0.191693747,-0.197059548,0.267233,0.211253201,-0.200784532,0.278795,0.232592275,-0.252951523,0.296255,0.192931955,-0.218136424,0.278139,0.200859755,-0.206779602,0.285631,0.219093718,-0.208989371,0.292441,0.233921065,-0.26066083,0.315805,0.204025653,-0.227764402,0.291846,0.202017007,-0.223371529,0.29625,0.215543223,-0.221146833,0.306389
0.26557674,-0.207621361,0.320275,0.247853174,-0.226499151,0.29632,0.266363491,-0.199083636,0.304739,0.250208522,-0.175503034,0.276315,0.238363855,-0.156405638,0.251325,0.231516281,-0.150531756,0.236011,0.230984634,-0.227042308,0.266285,0.183857217,-0.212736683,0.247429,0.161796269,-0.206212224,0.238593,0.145414233,-0.198905312,0.230602,0.227243038,-0.239628844,0.280263,0.180275292,-0.207847344,0.257313,0.188330396,-0.193248748,0.267077,0.209315264,-0.198684033,0.27838,0.226465209,-0.248211807,0.293755,0.189540574,-0.212887978,0.276959,0.199938223,-0.201432741,0.285255,0.218953933,-0.207114895,0.292796,0.22955738,-0.25511056,0.313066,0.200885956,-0.221163149,0.289958,0.199613101,-0.216319293,0.294951,0.213704178,-0.215068745,0.305019
0.271190688,-0.209261302,0.325445,0.250228958,-0.228739298,0.300542,0.270940883,-0.200961908,0.309217,0.253165026,-0.17650994,0.280088,0.242051802,-0.158595458,0.254764,0.234686721,-0.152826027,0.239164,0.232699605,-0.228818827,0.269221,0.185952676,-0.214173326,0.250249,0.16332534,-0.206369973,0.240763,0.143673452,-0.194597437,0.232139,0.227816597,-0.240825541,0.283851,0.18243544,-0.20048691,0.260661,0.193252958,-0.186266671,0.268636,0.21076974,-0.197095273,0.279413,0.227698263,-0.249377304,0.297958,0.191189313,-0.212780212,0.281155,0.201504055,-0.200281018,0.287989,0.219522368,-0.2063861,0.294202,0.231965057,-0.25632357,0.318128,0.203265883,-0.221499077,0.294693,0.201383978,-0.215462218,0.29861,0.215422728,-0.213937389,0.308377
0.272168243,-0.207460646,0.325014,0.248943191,-0.227558841,0.300303,0.271244118,-0.199759214,0.308786,0.252830507,-0.175937083,0.279674,0.241451412,-0.1585768,0.25436,0.234486294,-0.15286898,0.238845,0.230474354,-0.227726295,0.269063,0.185483351,-0.213413115,0.250249,0.162922643,-0.20529728,0.240842,0.143478844,-0.193118201,0.232291,0.227260547,-0.240082232,0.28374,0.182831108,-0.198105938,0.260716,0.194779106,-0.184633935,0.268761,0.214711563,-0.191841789,0.279496,0.227167731,-0.248524256,0.29787,0.191000355,-0.211843745,0.281233,0.201541059,-0.199407123,0.288125,0.219784829,-0.203378578,0.29439,0.231503792,-0.255327396,0.318038,0.203043755,-0.220505816,0.294699,0.201267935,-0.214424767,0.298658,0.215185839,-0.211034053,0.308408
0.273087812,-0.205690289,0.324118,0.248104674,-0.226465872,0.29942,0.271568455,-0.198565981,0.307845,0.251875357,-0.175192555,0.278705,0.24032502,-0.158164035,0.253444,0.232292719,-0.153201986,0.237968,0.229743771,-0.22666003,0.268129,0.184896165,-0.212050972,0.249372,0.162314041,-0.202406177,0.239994,0.143251788,-0.189315618,0.231469,0.22651011,-0.239000362,0.282866,0.183167353,-0.194583864,0.259895,0.19618634,-0.18187639,0.267837,0.214755903,-0.190639259,0.278359,0.226418746,-0.247439926,0.297045,0.190533694,-0.209657224,0.280475,0.200707947,-0.196957369,0.287283,0.218685744,-0.19882632,0.293473,0.230794979,-0.254254824,0.317268,0.202587652,-0.219285524,0.293948,0.200903176,-0.212114431,0.297846,0.21490361,-0.209686103,0.307565
0.273631428,-0.204324307,0.323245,0.247456305,-0.225628968,0.298734,0.271657664,-0.197713925,0.306967,0.251037957,-0.174305938,0.277851,0.239403378,-0.15786375,0.252612,0.231246506,-0.153110972,0.237255,0.22925947,-0.225975106,0.267515,0.18459813,-0.211295781,0.248919,0.162144189,-0.201718346,0.239621,0.143174438,-0.188595904,0.231168,0.226031341,-0.238321163,0.282306,0.183077212,-0.194123812,0.259502,0.196156288,-0.181503445,0.267496,0.214929792,-0.190174594,0.277989,0.225940381,-0.246757601,0.296512,0.190371332,-0.209064196,0.280111,0.200376217,-0.196281795,0.286963,0.218289956,-0.197732776,0.293193,0.230321632,-0.253558251,0.31674,0.202326163,-0.218566275,0.293515,0.200761503,-0.211479928,0.297445,0.214792897,-0.208934328,0.307143
0.274216478,-0.20316439,0.322414,0.246910345,-0.224940457,0.29815,0.271786268,-0.196947159,0.306122,0.250214537,-0.173514714,0.277037,0.238427741,-0.157614858,0.251831,0.230329676,-0.152984171,0.236602,0.228859728,-0.225442806,0.267016,0.184416532,-0.21081168,0.24864,0.16207944,-0.20135145,0.239452,0.143197306,-0.188254471,0.231099,0.22567479,-0.23782901,0.281886,0.183036018,-0.193897888,0.259311,0.196160727,-0.18133495,0.267352,0.215057095,-0.189916421,0.277797,0.225607238,-0.246287186,0.296138,0.190325901,-0.208765163,0.279969,0.200240578,-0.195938101,0.286862,0.218128962,-0.197145049,0.293128,0.23000243,-0.253089844,0.316383,0.202192958,-0.218131026,0.293286,0.200703973,-0.211127908,0.297245,0.214752231,-0.208465177,0.306909
0.274192072,-0.201859243,0.321476,0.246282592,-0.224082987,0.297452,0.271488673,-0.195979276,0.305212,0.249203067,-0.172723293,0.276179,0.237470093,-0.157490324,0.251027,0.229132127,-0.153186807,0.235911,0.228399672,-0.224700791,0.266456,0.184091819,-0.209551942,0.248251,0.161906777,-0.200720839,0.239148,0.143101068,-0.187655501,0.230873,0.225133074,-0.236652697,0.281349,0.182842288,-0.193327884,0.258957,0.196075607,-0.18090271,0.267146,0.215079907,-0.189481018,0.277589,0.225039561,-0.245059055,0.2956,0.190112508,-0.208147287,0.279605,0.199922466,-0.194762055,0.286619,0.217798009,-0.195544836,0.292995,0.229418796,-0.251786108,0.315808,0.201877841,-0.216801631,0.292824,0.200503789,-0.210497503,0.296872,0.214575643,-0.207787358,0.306531
0.274821493,-0.201307155,0.321149,0.245881431,-0.223268467,0.297208,0.271834968,-0.195498669,0.304864,0.248751367,-0.172307581,0.275834,0.236922529,-0.157608839,0.250722,0.228282317,-0.153540105,0.235665,0.228212338,-0.224299702,0.26622,0.184007553,-0.209192578,0.248106,0.161863438,-0.20036957,0.239049,0.143096448,-0.187311605,0.230815,0.224984061,-0.236309067,0.281161,0.182811937,-0.1930526,0.258861,0.196031566,-0.180626419,0.267026,0.215094224,-0.189168516,0.277438,0.224908802,-0.244737116,0.295444,0.190098119,-0.207857118,0.279548,0.199850573,-0.194477228,0.286543,0.21769138,-0.195155584,0.292901,0.229304558,-0.251481337,0.315677,0.201838469,-0.21650583,0.292742,0.200475229,-0.210167452,0.296775,0.214558348,-0.207390609,0.306412
0.275032688,-0.200554953,0.320653,0.245312723,-0.222419682,0.296902,0.271815954,-0.194863663,0.304355,0.248225482,-0.171885466,0.275349,0.236316506,-0.157719673,0.250293,0.227410506,-0.153895223,0.235303,0.228016535,-0.223938622,0.265978,0.18397384,-0.208956539,0.248037,0.1618934,-0.200183289,0.239067,0.14318012,-0.187167377,0.230912,0.224841877,-0.236019425,0.280982,0.182839405,-0.192907818,0.258862,0.196085065,-0.180507309,0.267056,0.215181109,-0.189001188,0.277423,0.224791702,-0.244474976,0.295302,0.190144287,-0.207701609,0.279589,0.199882404,-0.194354621,0.286608,0.217730515,-0.194980772,0.292989,0.229198008,-0.251229859,0.31555,0.201833441,-0.216310144,0.292716,0.200497543,-0.209965641,0.296767,0.214583112,-0.207118812,0.306374
0.275012643,-0.199642636,0.319996,0.2447953,-0.221495264,0.296477,0.271702782,-0.194119845,0.303741,0.247812157,-0.171341123,0.27479,0.235953039,-0.157679915,0.249785,0.226554636,-0.153851479,0.234807,0.227696459,-0.223573623,0.265706,0.183743318,-0.208308494,0.247915,0.16173021,-0.199450509,0.239019,0.143142774,-0.186865834,0.230932,0.224510211,-0.235606855,0.280712,0.182754853,-0.192571563,0.258756,0.196196331,-0.180310145,0.267124,0.215363437,-0.188844772,0.277518,0.224452785,-0.243994516,0.295014,0.190037634,-0.206863487,0.27945,0.199910553,-0.194038853,0.286612,0.217863424,-0.194733832,0.293123,0.22872348,-0.250356351,0.315207,0.201642443,-0.215418891,0.292478,0.200355499,-0.20915342,0.296635,0.214410048,-0.206128248,0.306245
0.274957548,-0.19893486,0.319568,0.244570955,-0.220790364,0.296178,0.271598955,-0.193456619,0.303285,0.247456108,-0.170836387,0.274343,0.235744271,-0.157623139,0.249388,0.225958127,-0.153747174,0.234411,0.227345671,-0.222936383,0.265426,0.183566156,-0.208028365,0.247772,0.161616645,-0.19919159,0.238945,0.143096115,-0.186602491,0.230921,0.224247363,-0.235279468,0.280499,0.182695767,-0.192317031,0.258683,0.196169149,-0.180052118,0.267022,0.215322312,-0.188555568,0.277353,0.224229195,-0.243661923,0.294846,0.190013719,-0.20660893,0.279432,0.199901673,-0.193763226,0.286571,0.217843273,-0.194431071,0.293061,0.228550558,-0.250012728,0.315073,0.201588577,-0.215128083,0.292419,0.200222265,-0.208897055,0.296558,0.214188943,-0.205794608,0.306136
0.274863649,-0.198396115,0.319095,0.244268996,-0.220211464,0.295785,0.271445744,-0.192955462,0.302774,0.247040532,-0.170487645,0.27383,0.235110713,-0.157463963,0.248901,0.224811304,-0.153448491,0.233889,0.226886898,-0.22238911,0.26502,0.1832885,-0.207650277,0.247474,0.161400835,-0.198830543,0.238701,0.142914709,-0.185785374,0.230725,0.223804885,-0.234686555,0.280161,0.182526587,-0.191985217,0.258452,0.195989119,-0.179700597,0.266725,0.215505025,-0.187895974,0.277001,0.223812787,-0.243031831,0.294557,0.189888093,-0.206289527,0.279261,0.199761191,-0.193413489,0.286347,0.217661839,-0.194041417,0.292789,0.228313029,-0.24962943,0.314829,0.201446356,-0.21478972,0.292228,0.200001995,-0.208573395,0.296328,0.213929952,-0.205007997,0.305873
0.27478793,-0.198162278,0.318875,0.244099795,-0.219881028,0.295672,0.271199923,-0.192595796,0.302483,0.246479564,-0.170350156,0.273526,0.23417987,-0.157402598,0.248608,0.223259915,-0.153177515,0.23357,0.226471278,-0.221875556,0.264861,0.182561758,-0.206352515,0.247482,0.15978344,-0.196903725,0.238792,0.141433902,-0.187185827,0.230913,0.223564688,-0.234323755,0.28012,0.182411119,-0.19164767,0.258574,0.195987187,-0.179332111,0.266702,0.2154809,-0.187507451,0.276844,0.223721515,-0.242795203,0.294605,0.189916622,-0.206098084,0.279495,0.199643689,-0.19305727,0.286463,0.21753455,-0.193364383,0.292798,0.228411372,-0.249542559,0.314965,0.20158107,-0.214686206,0.292441,0.200137812,-0.208357602,0.296455,0.213947178,-0.204784533,0.305939
0.275345841,-0.198411724,0.319488,0.244377219,-0.219910174,0.296093,0.271633625,-0.192736382,0.303042,0.246917653,-0.170425314,0.274033,0.234504228,-0.157331895,0.249088,0.223176598,-0.15277706,0.233952,0.22646655,-0.221661151,0.26513,0.182707977,-0.20655009,0.247647,0.160737191,-0.19783392,0.238905,0.141894626,-0.18590311,0.230958,0.223658096,-0.234192481,0.280412,0.182376917,-0.191401437,0.258747,0.195986478,-0.179015532,0.266682,0.215522012,-0.187201937,0.276787,0.223918378,-0.242752176,0.294931,0.189991926,-0.205957781,0.279721,0.1996772,-0.192817396,0.28653,0.217560987,-0.19307348,0.292721,0.228768682,-0.249639001,0.315359,0.201493427,-0.214845952,0.292754,0.1998332,-0.208471907,0.296652,0.213372746,-0.204880115,0.306119
0.275739149,-0.198542508,0.31991,0.244600997,-0.219891005,0.296449,0.271896107,-0.192755415,0.30341,0.247203445,-0.170395388,0.274371,0.234675135,-0.157158309,0.249405,0.222977195,-0.152297336,0.234212,0.226454164,-0.221439223,0.26539,0.182589972,-0.206159768,0.247909,0.160565772,-0.197504622,0.239168,0.14153079,-0.186136924,0.231223,0.223766649,-0.234077067,0.280723,0.18243671,-0.191254197,0.259053,0.196109919,-0.178813081,0.266831,0.215668094,-0.186988222,0.276865,0.224140321,-0.242736329,0.29529,0.190165842,-0.205924625,0.280092,0.199834086,-0.192697064,0.286774,0.21773968,-0.192918156,0.292849,0.229149174,-0.249760777,0.315785,0.201472834,-0.215076962,0.293164,0.199609619,-0.208669876,0.296968,0.212872195,-0.205046603,0.306405
0.274866371,-0.19737958,0.319247,0.244194529,-0.219314368,0.296271,0.270702839,-0.191636492,0.302574,0.239786419,-0.161952043,0.273557,0.236079846,-0.157810895,0.250663,0.224756457,-0.153141719,0.236276,0.225839252,-0.221112367,0.265197,0.18245191,-0.205897612,0.248319,0.1597813,-0.196556037,0.239881,0.141561791,-0.186695169,0.232209,0.223679696,-0.233872422,0.280871,0.17768171,-0.196300367,0.259806,0.19563561,-0.180806553,0.267264,0.215675584,-0.18749428,0.277083,0.224435551,-0.242586212,0.295679,0.190531843,-0.206673987,0.281139,0.200198747,-0.1932432,0.287563,0.218025467,-0.193000083,0.293403,0.229807853,-0.249582749,0.316383,0.201775674,-0.215596933,0.294076,0.199818195,-0.209020157,0.297692,0.212932337,-0.205272046,0.306945
