sluyters/QuantumLeap/backend/src/datasets/gesture/HandGestureDataset_SHREC2017_csv/Gesture10/finger_1/subject_21_essai_4_skeletons_world.csv
Wrist_x,Wrist_y,Wrist_z,Palm_x,Palm_y,Palm_z,thumb_base_x,thumb_base_y,thumb_base_z,thumb_first_joint_x,thumb_first_joint_y,thumb_first_joint_z,thumb_second_joint_x,thumb_second_joint_y,thumb_second_joint_z,thumb_tip_x,thumb_tip_y,thumb_tip_z,index_base_x,index_base_y,index_base_z,index_first_joint_x,index_first_joint_y,index_first_joint_z,index_second_joint_x,index_second_joint_y,index_second_joint_z,index_tip_x,index_tip_y,index_tip_z,middle_base_x,middle_base_y,middle_base_z,middle_first_joint_x,middle_first_joint_y,middle_first_joint_z,middle_second_joint_x,middle_second_joint_y,middle_second_joint_z,middle_tip_x,middle_tip_y,middle_tip_z,ring_base_x,ring_base_y,ring_base_z,ring_first_joint_x,ring_first_joint_y,ring_first_joint_z,ring_second_joint_x,ring_second_joint_y,ring_second_joint_z,ring_tip_x,ring_tip_y,ring_tip_z,pinky_base_x,pinky_base_y,pinky_base_z,pinky_first_joint_x,pinky_first_joint_y,pinky_first_joint_z,pinky_second_joint_x,pinky_second_joint_y,pinky_second_joint_z,pinky_tip_x,pinky_tip_y,pinky_tip_z,
0.335100412,-0.306134736,0.421533,0.320803412,-0.245193063,0.393513,0.31282999,-0.284888068,0.412998,0.293914632,-0.262429427,0.390125,0.274533121,-0.242791664,0.365328,0.264521483,-0.223509843,0.350836,0.28642932,-0.190236467,0.367033,0.289648041,-0.159448639,0.373279,0.291219985,-0.143285641,0.376402,0.292626745,-0.128135404,0.379241,0.308337466,-0.197318677,0.369125,0.277726779,-0.172334151,0.338859,0.258455662,-0.167978326,0.321204,0.255161945,-0.184785079,0.323403,0.328051335,-0.207274181,0.372884,0.297957149,-0.168922248,0.344509,0.282045269,-0.165976654,0.329991,0.280730387,-0.171409033,0.332416,0.354426006,-0.227108972,0.381154,0.323615418,-0.207850666,0.357757,0.309431806,-0.198986197,0.347007,0.296504433,-0.192995742,0.337522
0.334871698,-0.305423344,0.421644,0.320646317,-0.244927819,0.393483,0.312621089,-0.284049267,0.413031,0.293719107,-0.262060866,0.390057,0.274427675,-0.24247004,0.365277,0.264417407,-0.223104863,0.350732,0.286222714,-0.189876383,0.366826,0.289619798,-0.159167211,0.373262,0.291281429,-0.143039675,0.37648,0.292769773,-0.12791957,0.379405,0.308154058,-0.197019654,0.368972,0.277577718,-0.171909714,0.338593,0.258189413,-0.16765781,0.320873,0.254995582,-0.184298745,0.322996,0.327892381,-0.207029762,0.372785,0.297769471,-0.168815847,0.344292,0.281808515,-0.16583733,0.329714,0.280426362,-0.171223401,0.332056,0.354305257,-0.226939614,0.381138,0.323428537,-0.207735534,0.357655,0.309215152,-0.198896572,0.346865,0.296359017,-0.192555318,0.337345
0.334372901,-0.304728413,0.422296,0.31987991,-0.243921412,0.393237,0.311442583,-0.280534362,0.413175,0.29037653,-0.255207015,0.389551,0.272702996,-0.234959541,0.364677,0.262279174,-0.219434216,0.347657,0.284934964,-0.187401089,0.365442,0.2888606,-0.156895871,0.372328,0.290771646,-0.140852244,0.375771,0.292429427,-0.126669839,0.378901,0.307003383,-0.195020638,0.367945,0.278305714,-0.161877048,0.336855,0.256887076,-0.165201263,0.318719,0.254257694,-0.180978303,0.320344,0.327088968,-0.206036818,0.372118,0.296415807,-0.169412967,0.342876,0.279810281,-0.171040887,0.327915,0.278399807,-0.183478107,0.329707,0.353803124,-0.226414517,0.38102,0.322615119,-0.206789857,0.35699,0.308268514,-0.197762885,0.345949,0.295599826,-0.189791931,0.336207
0.334974146,-0.305331399,0.423754,0.319996905,-0.244103071,0.393684,0.311932832,-0.281110076,0.414406,0.293608673,-0.254394774,0.390488,0.282231183,-0.228072794,0.365976,0.279167901,-0.209134807,0.353701,0.284734618,-0.187810505,0.365032,0.288262007,-0.157185537,0.371515,0.289964531,-0.141078031,0.374756,0.291477091,-0.125954044,0.377703,0.306788423,-0.195416013,0.367511,0.275821402,-0.168952301,0.33568,0.255182076,-0.166235898,0.317112,0.251050533,-0.182988594,0.318202,0.326715053,-0.205880871,0.371738,0.295100461,-0.176021875,0.341834,0.278520784,-0.172353826,0.326534,0.276594363,-0.188762638,0.327772,0.353518323,-0.226490538,0.380841,0.32192509,-0.206626049,0.356316,0.307400813,-0.197494063,0.345048,0.294382945,-0.190533813,0.335106
0.334706694,-0.305265252,0.423723,0.319486815,-0.2440489,0.393276,0.312172567,-0.283041341,0.414411,0.294440264,-0.254795532,0.390536,0.281939579,-0.229439934,0.366225,0.278686646,-0.210494314,0.354093,0.28409482,-0.187654173,0.364455,0.287264031,-0.157623813,0.370759,0.288768625,-0.141504274,0.373911,0.290223835,-0.125695015,0.376777,0.306006328,-0.195192921,0.366775,0.274772689,-0.16840912,0.334689,0.253335045,-0.168660947,0.315971,0.250145106,-0.181711334,0.316872,0.325829174,-0.205611888,0.370898,0.293761068,-0.175915189,0.340811,0.27642813,-0.174564442,0.325417,0.275053053,-0.188032074,0.326473,0.352548533,-0.226186891,0.37993,0.320769168,-0.206331734,0.355263,0.306161621,-0.197205453,0.343929,0.293132457,-0.190063709,0.333929
0.33470536,-0.3055355,0.423939,0.319315041,-0.244357132,0.39325,0.312103559,-0.283224977,0.414546,0.294353447,-0.258017052,0.390572,0.281838842,-0.230567747,0.366319,0.27851336,-0.211665468,0.354251,0.283688619,-0.188387664,0.364191,0.286411092,-0.15759045,0.370163,0.287693962,-0.141414982,0.373149,0.288814412,-0.126236557,0.375864,0.305665737,-0.195866786,0.366538,0.274213793,-0.168418431,0.334273,0.252588819,-0.169263718,0.315452,0.249085627,-0.183951617,0.316217,0.325508884,-0.205815219,0.370701,0.292904442,-0.177372529,0.340445,0.275909887,-0.177996357,0.324965,0.273244109,-0.19331614,0.325876,0.352321033,-0.226449157,0.379812,0.320431262,-0.207083529,0.355021,0.305695382,-0.198014161,0.34363,0.292641258,-0.190224852,0.33358
0.335018879,-0.306107214,0.42446,0.319198566,-0.244742604,0.3932,0.312198873,-0.283576647,0.414793,0.294859897,-0.259326778,0.390486,0.281801138,-0.233107257,0.366192,0.278075873,-0.214241674,0.353664,0.283014526,-0.188396298,0.363479,0.285193296,-0.157868058,0.36909,0.285086696,-0.142597727,0.371895,0.28734395,-0.126103385,0.374446,0.305106083,-0.195987523,0.365993,0.273100417,-0.168745113,0.333299,0.250742966,-0.171500444,0.314227,0.247883067,-0.185820023,0.314653,0.325167893,-0.20649003,0.370334,0.291731225,-0.178303645,0.339641,0.275151984,-0.180227777,0.323938,0.272842705,-0.194971281,0.324482,0.352334302,-0.227248321,0.379735,0.319992155,-0.20646843,0.354627,0.305201954,-0.197098039,0.343091,0.292153688,-0.188831209,0.332912
0.33305961,-0.304430375,0.422692,0.317732372,-0.245067574,0.391026,0.311115855,-0.282395391,0.413912,0.295334574,-0.261292696,0.390722,0.284560029,-0.237712572,0.367183,0.279884768,-0.217038747,0.353929,0.282145996,-0.191404131,0.362172,0.283975764,-0.160594355,0.367526,0.284780023,-0.144380075,0.370203,0.284588922,-0.127644052,0.372637,0.302854413,-0.199591099,0.363464,0.271073153,-0.172147619,0.330639,0.249474986,-0.174233842,0.311491,0.245711616,-0.188003279,0.311792,0.32201968,-0.209854579,0.366829,0.289572265,-0.175933518,0.336381,0.27300554,-0.17473218,0.320802,0.270790185,-0.189331215,0.321326,0.347978333,-0.230260166,0.375127,0.316578239,-0.212693787,0.350156,0.300891695,-0.200745246,0.338682,0.287534515,-0.191332909,0.328559
0.334144408,-0.307261389,0.424681,0.318618823,-0.260523232,0.392412,0.312349324,-0.28614674,0.415459,0.2988136,-0.271414783,0.391728,0.286980789,-0.247400696,0.368163,0.283495681,-0.223785532,0.355456,0.283092571,-0.202388489,0.362669,0.285055058,-0.171661347,0.367785,0.28591183,-0.155538406,0.370343,0.286617742,-0.140400222,0.372669,0.304433577,-0.210228886,0.364326,0.272799941,-0.181848827,0.331024,0.251034909,-0.183249495,0.311599,0.246861363,-0.19474036,0.311522,0.323787025,-0.221003714,0.368035,0.291346939,-0.178201649,0.337049,0.273696231,-0.178058736,0.321196,0.271795461,-0.193338498,0.321293,0.350009174,-0.2421986,0.376824,0.317910596,-0.221462847,0.351469,0.303215317,-0.212781431,0.339819,0.290282963,-0.20562,0.32954
0.332095448,-0.320065845,0.422299,0.318146268,-0.268433625,0.39183,0.310153438,-0.301554744,0.413261,0.297287982,-0.278626266,0.389728,0.284965018,-0.254309833,0.365577,0.281461997,-0.234427962,0.35327,0.28361478,-0.210573469,0.363338,0.284923298,-0.179621695,0.367615,0.285457111,-0.163453444,0.369754,0.285870951,-0.148313406,0.371698,0.305256651,-0.2187496,0.365311,0.274636881,-0.191087647,0.333253,0.253536064,-0.191625119,0.314553,0.250193791,-0.203951443,0.315476,0.324767971,-0.229773582,0.36915,0.294910666,-0.188392648,0.339192,0.278450738,-0.189354525,0.323864,0.278086362,-0.20640904,0.324973,0.350961235,-0.251191048,0.377849,0.319533304,-0.230937341,0.353263,0.305131944,-0.222481215,0.341967,0.292449911,-0.215522466,0.332
0.334473291,-0.331482199,0.425394,0.319999496,-0.280507212,0.394062,0.312893991,-0.312882635,0.41661,0.299303615,-0.29208962,0.393406,0.2862588,-0.269437471,0.36974,0.281986468,-0.250007074,0.356962,0.285813051,-0.222120375,0.365393,0.286746405,-0.191208717,0.368741,0.287085533,-0.175071007,0.370415,0.287319526,-0.159963074,0.371937,0.306690919,-0.230703592,0.366792,0.274087585,-0.203996722,0.33419,0.251967868,-0.201892884,0.315172,0.24706607,-0.216073776,0.315658,0.325594817,-0.242100754,0.37022,0.29479963,-0.201174683,0.339941,0.277230953,-0.202429179,0.32445,0.275939273,-0.21938227,0.325155,0.351093494,-0.26400955,0.378548,0.318269201,-0.244251843,0.353705,0.303206438,-0.236036609,0.342291,0.289929763,-0.229295202,0.332219
0.334074857,-0.345584171,0.424938,0.320242097,-0.290724989,0.394057,0.313104785,-0.322625404,0.416595,0.301374612,-0.301394943,0.393945,0.29012287,-0.277651654,0.370682,0.285706003,-0.255000057,0.359245,0.286806148,-0.232349476,0.366191,0.287253438,-0.20121928,0.368727,0.287359293,-0.185024438,0.369995,0.287386465,-0.1698946,0.371147,0.30746123,-0.240846064,0.367179,0.277341723,-0.209558394,0.334961,0.254491007,-0.203732084,0.316167,0.249844785,-0.217666775,0.316931,0.326078656,-0.252156944,0.370237,0.296137453,-0.211531086,0.340426,0.279010598,-0.213006579,0.325174,0.278055282,-0.230364825,0.326207,0.351078379,-0.273917013,0.378065,0.319047219,-0.254585225,0.353555,0.304340624,-0.246568438,0.342293,0.291375441,-0.240006645,0.332357
0.333861804,-0.349935229,0.424667,0.320359037,-0.298896496,0.393461,0.312868752,-0.33154993,0.41614,0.301379739,-0.309782935,0.39326,0.290166549,-0.286454045,0.369735,0.288513824,-0.268539362,0.356999,0.28714351,-0.239874992,0.365183,0.287651544,-0.208752878,0.367127,0.287799679,-0.192576957,0.368099,0.287873617,-0.177472215,0.368983,0.307835609,-0.248880902,0.366301,0.277818345,-0.217966165,0.33383,0.256875701,-0.212077295,0.314889,0.251271155,-0.221012082,0.315463,0.326457442,-0.260633977,0.369489,0.296714176,-0.220079543,0.339412,0.279356849,-0.221586984,0.324024,0.278000689,-0.238880609,0.324847,0.351407125,-0.282952315,0.377516,0.319379969,-0.263759139,0.352813,0.304663833,-0.2558114,0.341462,0.291684454,-0.249313683,0.331448
0.333355013,-0.345953769,0.423645,0.325799795,-0.293080887,0.397743,0.314430736,-0.328093897,0.417433,0.309339362,-0.300353936,0.40682,0.30393838,-0.272869023,0.397484,0.303544228,-0.250693385,0.390327,0.302400537,-0.234803921,0.375341,0.293322685,-0.203172194,0.372808,0.290787643,-0.18601336,0.371541,0.288733383,-0.172855043,0.370548,0.321935191,-0.243550448,0.375197,0.292542858,-0.219180412,0.346873,0.270388037,-0.221331296,0.330351,0.267699865,-0.23793674,0.333699,0.339113618,-0.25502335,0.376962,0.309542401,-0.235463304,0.351007,0.292314904,-0.233881009,0.337727,0.292442003,-0.250973553,0.341545,0.358350133,-0.277064472,0.382578,0.32820801,-0.271461315,0.360922,0.31519322,-0.272365974,0.350972,0.302572415,-0.272389471,0.342302
0.336183796,-0.348392252,0.425303,0.331791027,-0.292074837,0.397872,0.316614636,-0.328744999,0.417954,0.325352501,-0.305075597,0.40845,0.321698587,-0.277453902,0.40024,0.31898739,-0.253108716,0.394082,0.303022686,-0.232650009,0.373194,0.296660899,-0.201603033,0.371262,0.293354557,-0.185298435,0.370296,0.28974414,-0.17233522,0.370779,0.323522708,-0.24158701,0.373996,0.292415945,-0.227195275,0.344354,0.269115066,-0.230329476,0.327063,0.264382688,-0.247180001,0.329646,0.344663989,-0.251866484,0.37665,0.311691007,-0.245245265,0.349222,0.293400084,-0.246279351,0.335189,0.290072594,-0.259804601,0.338127,0.369154579,-0.274121001,0.383529,0.334931203,-0.268899966,0.360794,0.317001595,-0.272001138,0.350348,0.303869256,-0.27333763,0.341388
0.338417083,-0.353641772,0.425525,0.335461896,-0.294563246,0.397007,0.318835681,-0.332264655,0.417595,0.326140938,-0.312786937,0.406972,0.320073547,-0.284566397,0.396596,0.319000763,-0.261616461,0.390103,0.305080162,-0.237860027,0.370993,0.297039671,-0.20783988,0.368632,0.290037003,-0.192131059,0.367452,0.287358525,-0.176667685,0.366379,0.326160691,-0.246719541,0.372185,0.290980169,-0.234143271,0.34167,0.267123737,-0.237224775,0.323869,0.262106361,-0.25374027,0.325884,0.345089042,-0.25852453,0.37524,0.310683098,-0.252375219,0.346905,0.29177501,-0.253468093,0.332409,0.28778404,-0.267278849,0.334724,0.370345724,-0.281343964,0.382741,0.335073465,-0.270090725,0.359339,0.319216857,-0.272583806,0.348587,0.305313224,-0.274625036,0.3391
0.341156829,-0.359667195,0.426329,0.336065987,-0.308578964,0.396801,0.322662632,-0.341082138,0.418219,0.321587194,-0.320120604,0.404517,0.310121262,-0.2922323,0.393028,0.305375124,-0.266474742,0.383262,0.303701494,-0.246875464,0.369992,0.294832348,-0.2168868,0.366869,0.290228612,-0.201145317,0.365307,0.285937892,-0.186365088,0.363888,0.324695603,-0.255727812,0.371102,0.288926523,-0.242825578,0.339851,0.265161529,-0.244183902,0.321621,0.2597284,-0.255836525,0.323115,0.343632864,-0.267614202,0.374161,0.308729251,-0.261162789,0.345187,0.289623285,-0.261999071,0.330363,0.285253549,-0.275836013,0.332144,0.369078415,-0.290709264,0.381806,0.334905421,-0.281495416,0.357922,0.318905407,-0.283304261,0.346949,0.30486264,-0.284761602,0.337266
0.346564462,-0.37220345,0.42482,0.335399446,-0.318329318,0.396014,0.326035129,-0.352917647,0.417268,0.321436146,-0.330923341,0.404327,0.311644165,-0.303926483,0.394427,0.309411781,-0.277452293,0.385802,0.303959236,-0.256760594,0.370306,0.294933607,-0.226966817,0.366995,0.290254035,-0.211344362,0.365339,0.285895459,-0.196685719,0.363834,0.324556486,-0.265474819,0.370943,0.289306543,-0.253135009,0.340298,0.265821916,-0.254738556,0.322422,0.260541456,-0.271282069,0.324317,0.343081819,-0.277238421,0.373561,0.308807957,-0.271414274,0.345275,0.290009025,-0.272543883,0.330803,0.286024774,-0.28727199,0.333042,0.367897151,-0.300153627,0.380584,0.334227979,-0.291340734,0.357198,0.318450417,-0.293242348,0.346454,0.304597791,-0.294789591,0.336973
0.346132093,-0.382650242,0.42429,0.334780639,-0.328530008,0.396003,0.325590367,-0.363285981,0.416854,0.321220215,-0.342445058,0.40483,0.313878812,-0.314773437,0.395892,0.31021521,-0.28968104,0.386926,0.303141724,-0.266732804,0.370732,0.291302439,-0.237210924,0.365097,0.28519947,-0.22180543,0.362279,0.279535656,-0.207391279,0.359718,0.323854936,-0.275385524,0.371382,0.28894344,-0.26367078,0.341121,0.265791152,-0.265591335,0.323468,0.260880016,-0.282743967,0.325628,0.342482775,-0.287122777,0.373973,0.309820812,-0.27446497,0.346029,0.29120948,-0.27587499,0.331733,0.287384513,-0.291653666,0.334246,0.367429467,-0.310044441,0.380893,0.332755615,-0.305084997,0.357765,0.31718277,-0.307882915,0.347139,0.303546313,-0.310133904,0.337763
0.34438124,-0.388907041,0.422502,0.333706007,-0.32916446,0.395429,0.324078637,-0.364536183,0.415413,0.320396575,-0.343659564,0.404471,0.313422044,-0.316791911,0.396068,0.309614163,-0.291164167,0.38775,0.302832105,-0.268328972,0.371279,0.289789364,-0.238198698,0.364266,0.283096524,-0.22254774,0.360759,0.276903238,-0.207946511,0.357571,0.323593578,-0.276912725,0.371866,0.290651674,-0.263697493,0.34253,0.268331131,-0.262516718,0.325417,0.263831656,-0.280070929,0.328185,0.342169105,-0.288517358,0.374318,0.310787461,-0.279593524,0.347229,0.291892752,-0.285581401,0.33337,0.288399954,-0.305222908,0.33652,0.366868144,-0.311110118,0.380907,0.332948356,-0.307105584,0.35842,0.317714673,-0.310269708,0.348089,0.304369033,-0.312853288,0.338972
0.345629876,-0.393301182,0.424328,0.332923154,-0.334003885,0.396191,0.324608094,-0.372333193,0.416971,0.31579482,-0.35083777,0.404188,0.304500558,-0.322338106,0.393581,0.297704221,-0.296565225,0.385292,0.299147557,-0.275850771,0.371102,0.28528759,-0.245157779,0.36392,0.278187997,-0.229278418,0.360329,0.273577145,-0.211988391,0.357064,0.32012737,-0.284117577,0.371701,0.288280937,-0.266772799,0.34156,0.265656379,-0.268246736,0.323978,0.260944108,-0.285613304,0.326216,0.339022756,-0.295508145,0.374239,0.30590928,-0.29143759,0.346419,0.28725796,-0.296541042,0.332186,0.283626925,-0.316362891,0.334785,0.364376503,-0.317921286,0.381076,0.330051986,-0.314919987,0.358039,0.314894383,-0.318099072,0.347455,0.303122356,-0.317830062,0.33883
0.346346097,-0.402592044,0.426217,0.330677753,-0.347035363,0.395541,0.323964995,-0.379379518,0.417692,0.31538566,-0.363744051,0.402019,0.304843472,-0.336390679,0.389197,0.299588065,-0.311921431,0.3815,0.296286436,-0.282503465,0.367564,0.284801445,-0.253054536,0.362153,0.278882542,-0.23770479,0.359447,0.273390045,-0.22335409,0.356987,0.317708638,-0.29169218,0.368841,0.282417794,-0.279482834,0.336728,0.259101311,-0.280739159,0.317995,0.253482891,-0.297264795,0.318856,0.337099988,-0.304052779,0.372121,0.30278917,-0.297944653,0.342319,0.283263513,-0.301759995,0.327072,0.278274717,-0.320174188,0.32818,0.363301948,-0.328055928,0.380184,0.327971011,-0.323370963,0.35569,0.312166031,-0.325678311,0.344436,0.298346576,-0.32742284,0.334506
0.342445359,-0.410589893,0.423904,0.329590934,-0.349727173,0.395146,0.320679476,-0.385102895,0.415487,0.308805404,-0.365253656,0.399828,0.297337845,-0.337152326,0.388486,0.294638215,-0.311103803,0.380108,0.296043829,-0.28909959,0.368393,0.28448833,-0.259063469,0.361603,0.278568666,-0.243470441,0.358208,0.272697905,-0.225691811,0.355343,0.317941566,-0.298724624,0.370115,0.285427249,-0.288220049,0.339346,0.262818062,-0.28656991,0.321397,0.258029645,-0.304198955,0.323252,0.337507108,-0.311328103,0.373623,0.30586577,-0.301994451,0.344902,0.287090301,-0.306174613,0.330208,0.283033884,-0.325771378,0.332309,0.363495567,-0.335362353,0.381696,0.330075918,-0.331764015,0.358025,0.314856342,-0.334464994,0.347149,0.301825184,-0.334086186,0.338142
0.341669284,-0.412320336,0.423831,0.329117607,-0.350712068,0.39467,0.319896722,-0.386439308,0.415115,0.308460481,-0.365352414,0.399518,0.299337871,-0.34267157,0.385199,0.296464746,-0.320777609,0.377181,0.296076433,-0.288911968,0.367318,0.284474486,-0.259130574,0.360258,0.278531712,-0.243658707,0.356728,0.273037882,-0.229221486,0.353518,0.318008362,-0.29921576,0.369288,0.284376619,-0.289041105,0.338188,0.262191335,-0.2896696,0.320047,0.256558045,-0.304500333,0.321671,0.337615994,-0.312389631,0.37303,0.305576545,-0.305100725,0.343937,0.286449676,-0.308800943,0.329052,0.281430152,-0.326318034,0.330891,0.363633298,-0.337107496,0.381434,0.32921345,-0.333397033,0.357493,0.313526353,-0.33585013,0.346494,0.299810432,-0.337724288,0.336788
0.338291861,-0.416914541,0.421632,0.327040617,-0.360907689,0.392734,0.316796779,-0.390675786,0.412768,0.310114846,-0.376021232,0.397684,0.304629183,-0.354265324,0.382706,0.304771449,-0.334342973,0.375989,0.295873847,-0.296228124,0.365347,0.285603789,-0.26655074,0.358031,0.280362848,-0.251133273,0.354373,0.275530886,-0.236747006,0.351048,0.31785426,-0.307357757,0.367581,0.28529822,-0.29745968,0.336642,0.263236854,-0.298398335,0.318594,0.257958112,-0.315975135,0.320331,0.337351114,-0.321205429,0.371521,0.306224537,-0.307398846,0.342495,0.286765627,-0.308676865,0.327645,0.281609553,-0.326285921,0.329577,0.362954424,-0.346699641,0.380125,0.329202867,-0.337047758,0.356246,0.313388296,-0.339097505,0.345274,0.299813961,-0.338856428,0.335805
0.335865754,-0.415814975,0.419098,0.326243306,-0.354733649,0.391747,0.315011667,-0.390167522,0.410822,0.309888703,-0.374865025,0.397394,0.304473966,-0.353180495,0.382511,0.306106107,-0.334963779,0.376368,0.29637676,-0.2959439,0.365968,0.28561735,-0.265752556,0.358048,0.28013737,-0.250108007,0.354088,0.274019107,-0.233217477,0.350488,0.318165559,-0.30685734,0.367941,0.286226356,-0.294771045,0.338195,0.264549514,-0.29356103,0.320842,0.25983046,-0.312329168,0.323386,0.337381079,-0.320418136,0.371554,0.307395649,-0.306960337,0.343683,0.289102173,-0.310543457,0.329424,0.284657099,-0.329328661,0.332217,0.362413991,-0.345344911,0.379559,0.329885815,-0.335406578,0.356537,0.314645987,-0.33783021,0.345959,0.301293923,-0.33795721,0.336871
0.333619266,-0.41497963,0.417224,0.324530104,-0.358428923,0.391301,0.313307896,-0.390049467,0.409581,0.308658444,-0.374696452,0.397337,0.29814969,-0.349094399,0.382772,0.304816144,-0.334565068,0.377169,0.295662752,-0.296673657,0.367116,0.284243397,-0.266003728,0.358637,0.278434598,-0.250152838,0.354398,0.272797741,-0.233717237,0.350544,0.317246565,-0.307059834,0.368738,0.286556065,-0.290508393,0.340126,0.265972378,-0.288576128,0.323436,0.26250118,-0.307294823,0.326695,0.336184103,-0.32008379,0.371957,0.308407216,-0.308295855,0.345217,0.290712852,-0.312577116,0.331536,0.287112503,-0.332519471,0.335104,0.360703919,-0.34416802,0.379302,0.330248404,-0.333677416,0.357119,0.315377885,-0.331713815,0.346928,0.303217253,-0.335792148,0.337935
0.332868886,-0.415437714,0.41695,0.323862268,-0.358253374,0.391288,0.312560649,-0.390544516,0.409306,0.308010706,-0.374571229,0.397265,0.298276655,-0.349243057,0.382935,0.304000658,-0.334177932,0.377357,0.294950743,-0.296682908,0.36725,0.283623752,-0.266191988,0.359016,0.277856079,-0.250419574,0.354899,0.272516432,-0.234403176,0.351157,0.316628684,-0.307007542,0.368952,0.287171645,-0.29075883,0.34053,0.267145063,-0.289130423,0.323951,0.263882661,-0.307815162,0.327326,0.335640769,-0.319968381,0.372218,0.308533228,-0.308638966,0.345627,0.290977143,-0.313063763,0.332022,0.287611789,-0.333347894,0.335702,0.360241006,-0.343952911,0.379583,0.330731398,-0.333603863,0.357517,0.316209113,-0.332427621,0.347378,0.304004875,-0.335951333,0.338432
0.332716695,-0.416159444,0.417149,0.324309659,-0.355759206,0.391369,0.312439992,-0.391295046,0.409567,0.307969258,-0.374088795,0.397389,0.300140852,-0.347865494,0.385098,0.301574576,-0.329485988,0.379311,0.294627265,-0.296446977,0.36734,0.283649366,-0.266275387,0.359707,0.277174646,-0.250246069,0.35589,0.272686833,-0.233904927,0.352421,0.316220357,-0.306619628,0.36893,0.287025053,-0.290627606,0.340432,0.266351114,-0.294518338,0.323808,0.262658969,-0.31540638,0.327137,0.335176874,-0.319467443,0.372112,0.307873533,-0.3072804,0.345485,0.29023905,-0.311817399,0.331862,0.287342053,-0.333048037,0.335504,0.359747498,-0.343346385,0.379393,0.330646148,-0.329291935,0.357295,0.316720591,-0.327948471,0.347142,0.304697076,-0.32930033,0.338183
0.331870959,-0.415986957,0.416541,0.323863457,-0.355769324,0.391211,0.311731137,-0.391289659,0.409119,0.308199443,-0.374025737,0.397495,0.300849418,-0.347845776,0.385578,0.30239077,-0.329263698,0.380176,0.294509834,-0.296462049,0.367638,0.282956884,-0.2659364,0.360194,0.277730546,-0.249352728,0.356472,0.272995664,-0.23432688,0.35312,0.316075354,-0.306529032,0.369166,0.28773856,-0.292384725,0.341025,0.267057149,-0.298303821,0.324609,0.263270946,-0.3176791,0.328153,0.334976122,-0.31926555,0.372264,0.307464818,-0.306196689,0.345978,0.290914232,-0.309991713,0.33253,0.288262004,-0.331391907,0.336401,0.359423285,-0.342965843,0.379385,0.331514538,-0.328629079,0.357543,0.317933833,-0.327966722,0.347508,0.30598598,-0.325946521,0.338866
0.331775892,-0.416513366,0.416691,0.323776778,-0.356079397,0.391383,0.311756522,-0.392000504,0.409469,0.308957635,-0.374797939,0.398355,0.302527845,-0.347317202,0.388241,0.302589661,-0.326852366,0.382923,0.29395347,-0.296412623,0.368069,0.283333244,-0.264088757,0.361174,0.277806699,-0.248382796,0.357727,0.273399594,-0.234204555,0.354593,0.31537293,-0.306132954,0.369355,0.287659248,-0.292861365,0.341265,0.266841137,-0.298761765,0.324879,0.263461171,-0.318890378,0.328448,0.33415181,-0.318583319,0.372254,0.307622471,-0.306058245,0.346085,0.290464024,-0.309027684,0.332696,0.288546342,-0.333278495,0.336616,0.35846967,-0.341942758,0.379135,0.331501041,-0.328244766,0.357372,0.318106585,-0.327804293,0.347372,0.306699405,-0.330766583,0.338549
0.330138031,-0.416765557,0.415493,0.323071723,-0.355628148,0.390752,0.310363479,-0.392506116,0.408501,0.308799705,-0.374495435,0.398063,0.302149233,-0.347163418,0.388326,0.302067427,-0.326571513,0.383275,0.293748679,-0.296340916,0.368045,0.282639939,-0.265744579,0.361374,0.277885014,-0.248592058,0.358039,0.274012177,-0.234869024,0.355007,0.315086597,-0.305930785,0.369218,0.287707802,-0.293345218,0.341583,0.267007803,-0.299448716,0.325463,0.263788493,-0.31978324,0.3293,0.333758779,-0.318236408,0.371982,0.308021203,-0.306615025,0.34626,0.291463906,-0.309730721,0.333099,0.289509368,-0.334148669,0.337306,0.357877758,-0.341349004,0.378626,0.332682591,-0.326023254,0.357197,0.319729721,-0.326391341,0.347352,0.3082679,-0.326796492,0.338665
0.329174216,-0.416982146,0.414856,0.322438715,-0.356136079,0.390441,0.309495849,-0.39279484,0.407942,0.308723445,-0.374316751,0.397896,0.301836053,-0.346990815,0.388304,0.301610478,-0.326266201,0.38337,0.29358551,-0.296277468,0.368015,0.28263124,-0.265660937,0.36146,0.27778341,-0.249340553,0.358182,0.274040073,-0.23546416,0.355202,0.314936521,-0.305841918,0.369191,0.287748207,-0.29408829,0.34181,0.2670799,-0.299905237,0.325837,0.263952796,-0.320336918,0.329822,0.333604021,-0.318109717,0.371934,0.308225565,-0.306723645,0.34644,0.291919883,-0.309714343,0.333396,0.29000653,-0.3344545,0.337756,0.357682299,-0.341140649,0.378507,0.33296545,-0.325547635,0.357253,0.320171415,-0.325812948,0.347487,0.308848018,-0.326136163,0.338871
0.32692913,-0.415256913,0.412452,0.319911114,-0.354399675,0.388792,0.306841294,-0.390640127,0.405025,0.309678654,-0.368351639,0.397133,0.313109441,-0.35004184,0.389389,0.323156837,-0.337221484,0.386309,0.290789445,-0.288617604,0.36616,0.282521545,-0.261671515,0.362081,0.278191517,-0.248223414,0.360041,0.274517163,-0.236491384,0.358187,0.313089748,-0.298065302,0.368199,0.287588043,-0.290561589,0.341288,0.266084361,-0.295004376,0.325591,0.263728283,-0.319598168,0.329846,0.33265302,-0.3103303,0.371597,0.308270514,-0.303756784,0.346274,0.291543659,-0.309297781,0.333318,0.290213684,-0.33373125,0.337881,0.35800669,-0.333602927,0.378846,0.333918436,-0.322440569,0.35776,0.32153288,-0.322513485,0.348072,0.310564911,-0.322694709,0.339524
0.326172367,-0.414305903,0.411916,0.319861215,-0.353922375,0.388893,0.306235525,-0.390026781,0.404809,0.309556747,-0.368616871,0.397875,0.309600629,-0.349212786,0.389561,0.321512008,-0.335869583,0.386714,0.290841443,-0.289048931,0.367019,0.282004716,-0.260975985,0.362213,0.277556974,-0.24743336,0.35981,0.27353215,-0.234453587,0.357626,0.312954829,-0.298326749,0.368855,0.28790171,-0.291096758,0.342473,0.266627319,-0.295593134,0.327083,0.265037194,-0.317371504,0.331634,0.332302441,-0.310401835,0.37204,0.308078198,-0.300589122,0.347255,0.292397529,-0.309214015,0.334575,0.290974307,-0.334058591,0.339462,0.357288015,-0.333342928,0.378949,0.333758505,-0.321977521,0.358266,0.321535934,-0.322441662,0.348762,0.310709962,-0.322982805,0.340377
0.325440555,-0.413558894,0.411412,0.319673299,-0.353376395,0.388794,0.305503459,-0.389421464,0.404427,0.309365249,-0.368525421,0.397928,0.309903478,-0.348997255,0.389706,0.321138459,-0.33560094,0.387056,0.290854592,-0.28918852,0.3673,0.281647401,-0.260536686,0.362152,0.277073852,-0.246853123,0.359578,0.272912193,-0.233872162,0.357238,0.312938336,-0.298440945,0.369107,0.287928028,-0.291269364,0.343048,0.266911433,-0.295901462,0.327847,0.264173179,-0.316598771,0.332575,0.332231861,-0.310468665,0.372239,0.308376681,-0.300625668,0.347756,0.292684677,-0.309358922,0.33523,0.29110113,-0.333833076,0.340303,0.357093278,-0.333297665,0.37903,0.333667033,-0.321703708,0.358575,0.321538888,-0.322399572,0.349178,0.310792634,-0.32315129,0.340885
