sluyters/QuantumLeap/backend/src/datasets/gesture/HandGestureDataset_SHREC2017_csv/Gesture5/finger_1/subject_2_essai_3_skeletons_world.csv
Wrist_x,Wrist_y,Wrist_z,Palm_x,Palm_y,Palm_z,thumb_base_x,thumb_base_y,thumb_base_z,thumb_first_joint_x,thumb_first_joint_y,thumb_first_joint_z,thumb_second_joint_x,thumb_second_joint_y,thumb_second_joint_z,thumb_tip_x,thumb_tip_y,thumb_tip_z,index_base_x,index_base_y,index_base_z,index_first_joint_x,index_first_joint_y,index_first_joint_z,index_second_joint_x,index_second_joint_y,index_second_joint_z,index_tip_x,index_tip_y,index_tip_z,middle_base_x,middle_base_y,middle_base_z,middle_first_joint_x,middle_first_joint_y,middle_first_joint_z,middle_second_joint_x,middle_second_joint_y,middle_second_joint_z,middle_tip_x,middle_tip_y,middle_tip_z,ring_base_x,ring_base_y,ring_base_z,ring_first_joint_x,ring_first_joint_y,ring_first_joint_z,ring_second_joint_x,ring_second_joint_y,ring_second_joint_z,ring_tip_x,ring_tip_y,ring_tip_z,pinky_base_x,pinky_base_y,pinky_base_z,pinky_first_joint_x,pinky_first_joint_y,pinky_first_joint_z,pinky_second_joint_x,pinky_second_joint_y,pinky_second_joint_z,pinky_tip_x,pinky_tip_y,pinky_tip_z,
0.31577465,-0.33849721,0.435815,0.30201996,-0.28600959,0.422547,0.29119768,-0.32526534,0.42833,0.25620839,-0.29511268,0.415351,0.22530112,-0.26254539,0.394176,0.21629687,-0.2454048,0.387417,0.26334065,-0.24410607,0.403787,0.25456224,-0.20777219,0.399879,0.25061429,-0.18929406,0.397925,0.25716509,-0.18190851,0.413787,0.28993042,-0.24631637,0.40991,0.27079617,-0.19579831,0.386392,0.25922947,-0.18473675,0.372673,0.26433162,-0.18628127,0.382419,0.3138789,-0.25273521,0.416382,0.29542693,-0.20442571,0.394189,0.28656093,-0.19719052,0.382835,0.27867264,-0.20331852,0.372513,0.3453454,-0.26870535,0.426388,0.31316084,-0.22225452,0.405868,0.30794087,-0.22154824,0.39644,0.30342976,-0.22114033,0.388121
0.31464949,-0.3386825,0.435906,0.3014778,-0.28599425,0.422725,0.29003677,-0.32506947,0.428243,0.25655003,-0.29506929,0.414918,0.22576996,-0.26195221,0.391788,0.21741154,-0.2461841,0.386676,0.26310317,-0.24369192,0.403794,0.25488524,-0.20748656,0.399993,0.25062132,-0.18931107,0.398093,0.25717961,-0.18190926,0.413937,0.28983455,-0.24627203,0.410172,0.27088631,-0.19616745,0.386727,0.2594307,-0.18504096,0.373051,0.26456354,-0.18665071,0.382782,0.31387022,-0.25300147,0.416844,0.29538094,-0.20439148,0.394621,0.28649938,-0.19744095,0.383251,0.27869583,-0.20403464,0.372915,0.34538615,-0.26936123,0.427067,0.31351849,-0.22248736,0.406556,0.30836101,-0.22176872,0.397132,0.30390995,-0.22135647,0.388816
0.31374715,-0.33851329,0.435437,0.30096422,-0.28580894,0.422436,0.28895165,-0.32453271,0.427433,0.25662997,-0.29446408,0.414218,0.22744679,-0.26163382,0.391429,0.21517259,-0.23998398,0.382055,0.26260751,-0.24319685,0.403184,0.25484708,-0.20746563,0.400044,0.25082073,-0.18944483,0.398474,0.25746963,-0.18207057,0.4144,0.28963663,-0.2461666,0.410055,0.27084494,-0.19628219,0.386766,0.25947232,-0.18519596,0.37318,0.26461716,-0.18684906,0.382881,0.31391736,-0.25320915,0.417113,0.29531904,-0.20434742,0.394785,0.28639613,-0.1975162,0.383362,0.27860377,-0.20431624,0.372977,0.34570491,-0.26994014,0.427751,0.31396266,-0.22278993,0.407267,0.30885258,-0.22207308,0.397856,0.30444725,-0.22166733,0.389552
0.31303566,-0.33855116,0.435234,0.30071129,-0.2857481,0.422317,0.28820198,-0.32429108,0.427083,0.25705358,-0.29421366,0.414146,0.22814221,-0.26099565,0.391407,0.21603007,-0.23932109,0.382303,0.26256393,-0.24285271,0.402929,0.25509713,-0.20733169,0.400029,0.25123221,-0.18935889,0.398579,0.25800415,-0.18198776,0.414524,0.28972901,-0.24611224,0.410014,0.27115457,-0.19658981,0.386799,0.25974783,-0.1853012,0.373257,0.2649337,-0.18699957,0.382944,0.31409667,-0.25339677,0.417241,0.29576947,-0.20438033,0.394881,0.28684708,-0.19762661,0.383442,0.279018,-0.20455774,0.373042,0.34593553,-0.27042198,0.428058,0.31451018,-0.22299391,0.407591,0.30942295,-0.22228288,0.398188,0.30503884,-0.22188501,0.38989
0.31224225,-0.33859259,0.43526,0.30035715,-0.28564213,0.422392,0.28779329,-0.32453737,0.427602,0.25717143,-0.29405559,0.414491,0.22543421,-0.26154443,0.394261,0.21317708,-0.24070216,0.386767,0.26271974,-0.24265746,0.403681,0.25521023,-0.20710075,0.400173,0.25123581,-0.18896392,0.39842,0.25809023,-0.18157281,0.414342,0.28970368,-0.2459804,0.410137,0.27141989,-0.19671099,0.387016,0.26013955,-0.18543658,0.37353,0.26551582,-0.18728398,0.383378,0.31364316,-0.25308323,0.41684,0.29563971,-0.20395957,0.394676,0.28679453,-0.19730724,0.383336,0.27901393,-0.20437659,0.373027,0.34485821,-0.26988136,0.427039,0.31491925,-0.2225649,0.406752,0.30885728,-0.22161244,0.39743,0.30453441,-0.22124515,0.389206
0.31152904,-0.33850705,0.435624,0.29999824,-0.28538831,0.422572,0.2869355,-0.3240398,0.427628,0.25734238,-0.29396424,0.414634,0.22689626,-0.26081346,0.392677,0.21499335,-0.23984542,0.384909,0.26229882,-0.2417912,0.403295,0.25485022,-0.20607111,0.399848,0.2510453,-0.18792609,0.398125,0.25804352,-0.18084028,0.414,0.28956858,-0.24560575,0.410141,0.27123566,-0.19658722,0.3868,0.26008633,-0.18570767,0.373184,0.26553398,-0.18798294,0.382868,0.31372775,-0.25308211,0.417186,0.29768585,-0.20243861,0.394717,0.28843777,-0.19784118,0.383221,0.27937922,-0.20596452,0.37277,0.3451774,-0.2703608,0.427816,0.31534267,-0.22275039,0.407299,0.30930368,-0.22183447,0.397872,0.30494198,-0.2216637,0.389554
0.31045241,-0.33827131,0.435733,0.2993607,-0.28505028,0.422597,0.28577635,-0.32345886,0.42748,0.25732104,-0.29369145,0.414445,0.22794865,-0.26038791,0.391097,0.21507225,-0.2396035,0.383633,0.26198263,-0.24135731,0.402927,0.25461409,-0.20563667,0.399519,0.25084976,-0.18749733,0.397816,0.2578421,-0.18006229,0.413626,0.28923325,-0.24520134,0.410086,0.27110626,-0.19644078,0.386637,0.26001718,-0.1857396,0.372957,0.26547887,-0.18812288,0.382534,0.3135539,-0.25300388,0.417398,0.29864104,-0.20221039,0.395125,0.28955302,-0.1981248,0.383729,0.28030323,-0.20684297,0.37337,0.34514173,-0.27069299,0.428353,0.31530689,-0.22268179,0.407702,0.30970456,-0.22200324,0.398214,0.30535799,-0.22199549,0.389842
0.30938125,-0.33818391,0.435667,0.29883865,-0.28497921,0.422611,0.28465778,-0.32305092,0.4272,0.25826402,-0.29374361,0.41486,0.22901882,-0.25967441,0.391299,0.21692427,-0.23897398,0.383343,0.26164669,-0.24092766,0.402718,0.25431278,-0.20513446,0.399135,0.25057284,-0.18696861,0.397343,0.25759833,-0.17960545,0.413049,0.28911827,-0.24514965,0.410177,0.27124216,-0.19667805,0.386794,0.260326,-0.18616777,0.373154,0.26588532,-0.18874036,0.382693,0.31358747,-0.2532687,0.417726,0.30053638,-0.20240686,0.395804,0.29222602,-0.19889889,0.384588,0.28269156,-0.20952284,0.374392,0.34527559,-0.2713428,0.428942,0.31552402,-0.22298555,0.408289,0.31035641,-0.22242951,0.398799,0.30603804,-0.22258329,0.390426
0.30991591,-0.33815654,0.435958,0.29921682,-0.28495275,0.422725,0.28519327,-0.32308864,0.427507,0.2586772,-0.29382992,0.415076,0.22891279,-0.2599986,0.391436,0.21741045,-0.23906061,0.383705,0.2618895,-0.24086762,0.402733,0.25441222,-0.20485181,0.398958,0.25059337,-0.18664224,0.39707,0.25761431,-0.17933852,0.412743,0.28935162,-0.24504527,0.410123,0.27126073,-0.19636452,0.386558,0.26038093,-0.18575225,0.372812,0.26600603,-0.18822076,0.382292,0.31381389,-0.25313723,0.417634,0.30177457,-0.20176404,0.395723,0.29363388,-0.19879083,0.384513,0.28220552,-0.20854895,0.374322,0.34549689,-0.27118709,0.42884,0.31571679,-0.22290531,0.408065,0.31058029,-0.22248486,0.39852,0.30633948,-0.22289997,0.390098
0.30727408,-0.33556963,0.433148,0.2988539,-0.28435473,0.422378,0.2831753,-0.32082368,0.42527,0.25143518,-0.28660291,0.413227,0.22384662,-0.25565712,0.392985,0.21540569,-0.23695108,0.381617,0.26363503,-0.24037428,0.404805,0.2546612,-0.2027522,0.398645,0.25010001,-0.18399986,0.395565,0.25645778,-0.17819134,0.410748,0.29102237,-0.24588838,0.412121,0.27775995,-0.19509861,0.391168,0.26784455,-0.18751927,0.378946,0.27824719,-0.20742205,0.389472,0.31528781,-0.25400267,0.419307,0.30282888,-0.20383775,0.398866,0.29671987,-0.20019925,0.388408,0.2864061,-0.21088863,0.378901,0.34623008,-0.27180275,0.429671,0.32802122,-0.22345872,0.410824,0.32334222,-0.2220262,0.402164,0.31931259,-0.23284496,0.394523
0.30547941,-0.33420297,0.431521,0.29851745,-0.28397695,0.421976,0.28175491,-0.31951271,0.423918,0.25305199,-0.28867306,0.411844,0.22243182,-0.25539958,0.392097,0.21465722,-0.23575364,0.380421,0.26462959,-0.24102248,0.405593,0.25496829,-0.20284005,0.398419,0.25009576,-0.18384903,0.394832,0.25639127,-0.17760378,0.409755,0.29193557,-0.24622684,0.412886,0.28028309,-0.19613752,0.393244,0.27471571,-0.19005207,0.381786,0.28286637,-0.21021613,0.392807,0.31606798,-0.25448921,0.419921,0.30577508,-0.20449229,0.400623,0.29976571,-0.20273733,0.39075,0.29127937,-0.21455286,0.381775,0.34658506,-0.27249918,0.42988,0.3297075,-0.22519568,0.412,0.32611821,-0.22394493,0.403785,0.32266267,-0.23498839,0.396537
0.30860475,-0.33811888,0.436857,0.29958222,-0.28479625,0.423516,0.28324751,-0.32138614,0.426948,0.25159726,-0.28784274,0.411748,0.22204631,-0.25531325,0.392083,0.214512,-0.23531762,0.380663,0.26228626,-0.23805219,0.401553,0.25375975,-0.20103478,0.396121,0.24948828,-0.1829682,0.393405,0.25707373,-0.17682784,0.408425,0.29088935,-0.24476537,0.410811,0.2791978,-0.19838407,0.387055,0.27133115,-0.20581535,0.373197,0.27743822,-0.22776101,0.382128,0.31639338,-0.25447795,0.419872,0.29690416,-0.20436819,0.396344,0.29153544,-0.20528935,0.384306,0.28663203,-0.21379205,0.373362,0.34911952,-0.27453655,0.432898,0.32966955,-0.22503646,0.41167,0.32515202,-0.22286573,0.401917,0.32067817,-0.23300816,0.393311
0.30736415,-0.33710487,0.436023,0.29917657,-0.28406957,0.422967,0.28202075,-0.32002822,0.425883,0.25070992,-0.28641594,0.41012,0.22095655,-0.25335635,0.389913,0.2122731,-0.23263632,0.376582,0.26353121,-0.23627662,0.400895,0.25325335,-0.19875999,0.393832,0.2480032,-0.18077177,0.3903,0.25756181,-0.17732183,0.404753,0.29112655,-0.24423535,0.410533,0.27929147,-0.19782537,0.387068,0.27152509,-0.20552404,0.373379,0.27762335,-0.22748012,0.382318,0.31677693,-0.25435727,0.419877,0.29862369,-0.20321265,0.396489,0.29249644,-0.20319064,0.384524,0.28559844,-0.21315941,0.373646,0.34952305,-0.27487162,0.433176,0.33020055,-0.22493687,0.412098,0.32589632,-0.22284505,0.402414,0.32151172,-0.23306671,0.393869
0.30748503,-0.33758817,0.436966,0.29931948,-0.28398012,0.423183,0.28175433,-0.31982044,0.426135,0.25184445,-0.28684374,0.409025,0.22085308,-0.25392408,0.386793,0.21107045,-0.2318348,0.369041,0.26303345,-0.23549237,0.399716,0.2524149,-0.19776149,0.391786,0.24746463,-0.17939888,0.387821,0.25722506,-0.17745188,0.401826,0.29115761,-0.24370948,0.410056,0.27876009,-0.1973845,0.38582,0.27065617,-0.20484905,0.371682,0.27635982,-0.22640986,0.380074,0.31723323,-0.25442653,0.420056,0.29893965,-0.20245703,0.395799,0.29131989,-0.20454536,0.383388,0.28597877,-0.21439092,0.372105,0.35053694,-0.27575231,0.434254,0.33084414,-0.2251909,0.412501,0.32638783,-0.22295705,0.402506,0.32180029,-0.2330331,0.393687
0.3073785,-0.33791591,0.437374,0.2995211,-0.28406512,0.423276,0.28166372,-0.31989574,0.426427,0.24978864,-0.28597051,0.407504,0.21983688,-0.25564926,0.383132,0.20733862,-0.23498922,0.364848,0.26269446,-0.2357592,0.399445,0.25131882,-0.19753625,0.390755,0.24712562,-0.17919486,0.38641,0.25695093,-0.17850212,0.400168,0.2915212,-0.24359855,0.409849,0.27855735,-0.19740015,0.385284,0.27030846,-0.20477056,0.370954,0.27589541,-0.22620834,0.379184,0.31760452,-0.25457405,0.419936,0.29646693,-0.20406283,0.395375,0.29158909,-0.20605771,0.382809,0.28604789,-0.2172561,0.371386,0.35085423,-0.27623959,0.434294,0.33088868,-0.2252279,0.41229,0.32640217,-0.22294967,0.402181,0.32174323,-0.23296125,0.393261
0.30672962,-0.33788691,0.436799,0.29941535,-0.28401999,0.422828,0.28105982,-0.31965071,0.425779,0.24815236,-0.28616855,0.405569,0.21642169,-0.25581538,0.3806,0.20673718,-0.23532899,0.362526,0.2621767,-0.23580346,0.398989,0.25126534,-0.19710287,0.389889,0.24667859,-0.17896875,0.385339,0.2568386,-0.17983817,0.398947,0.29181809,-0.24360322,0.409522,0.27858102,-0.19781216,0.385089,0.27043966,-0.20524533,0.370837,0.27603116,-0.22669349,0.37908,0.31825041,-0.25496138,0.419701,0.29662233,-0.20470574,0.395218,0.29285921,-0.20982056,0.382692,0.28629235,-0.21827235,0.371304,0.35129508,-0.27705406,0.434143,0.33097125,-0.22553554,0.412216,0.3271363,-0.2235104,0.402141,0.32197948,-0.23332709,0.393252
0.30698708,-0.33879093,0.436987,0.29994452,-0.28468196,0.42253,0.28098546,-0.31998007,0.42541,0.2474081,-0.29019196,0.403006,0.2164415,-0.25927976,0.377788,0.20740904,-0.23954855,0.358673,0.26398106,-0.23804853,0.397636,0.25114385,-0.19891933,0.387692,0.24705512,-0.18170887,0.38272,0.25542923,-0.18069636,0.395884,0.29332374,-0.24509665,0.408762,0.27862215,-0.19973035,0.383826,0.27042964,-0.20707929,0.369281,0.27501196,-0.22644054,0.377095,0.3196686,-0.25707278,0.419482,0.29752149,-0.20773764,0.394393,0.29292124,-0.2119179,0.381556,0.28687612,-0.22233012,0.369887,0.35295158,-0.27950843,0.434642,0.33201338,-0.22712087,0.412256,0.32777274,-0.22540054,0.401971,0.32270234,-0.2340655,0.392896
0.30679975,-0.33923152,0.436729,0.30016494,-0.28504753,0.422275,0.28080493,-0.32022527,0.425076,0.25010165,-0.28968463,0.403961,0.21798897,-0.26012391,0.379042,0.20850647,-0.23970357,0.359386,0.26406959,-0.23844292,0.397281,0.2512812,-0.19925562,0.387253,0.2468705,-0.18216507,0.382239,0.25522619,-0.18141893,0.395346,0.29349927,-0.24557812,0.408508,0.27865685,-0.20028397,0.383576,0.27051229,-0.20764352,0.369033,0.27510857,-0.22693661,0.37681,0.3199245,-0.2575594,0.419311,0.29762101,-0.20832964,0.394196,0.29300248,-0.21242155,0.381346,0.28702704,-0.2229319,0.369664,0.35326537,-0.27999421,0.434567,0.332223,-0.22761333,0.412168,0.32770366,-0.22491675,0.401877,0.32294201,-0.23436944,0.392796
0.30345262,-0.3365822,0.432097,0.29965916,-0.28568887,0.419911,0.27835271,-0.31818427,0.421419,0.2467273,-0.28848668,0.401317,0.21731016,-0.25848169,0.376838,0.20858006,-0.23834756,0.357471,0.26583872,-0.24025076,0.397728,0.25337323,-0.20037869,0.388032,0.24782161,-0.18165964,0.383184,0.25590157,-0.18005004,0.396687,0.29559478,-0.2485966,0.408304,0.28892334,-0.20350144,0.385743,0.28085353,-0.20872939,0.372583,0.28017404,-0.23093454,0.381589,0.32146991,-0.26016188,0.418327,0.29906731,-0.20921977,0.395451,0.29370409,-0.20363558,0.383746,0.28860495,-0.21533538,0.373106,0.35388302,-0.28230969,0.432252,0.33409793,-0.23110242,0.411686,0.33010181,-0.2276211,0.402236,0.32473177,-0.23572425,0.393898
0.30276664,-0.3361813,0.429991,0.29999855,-0.28708059,0.418571,0.27778254,-0.31795384,0.41946,0.24742562,-0.28959058,0.399637,0.21854364,-0.25739983,0.374165,0.21297016,-0.2378211,0.354517,0.26552318,-0.24051593,0.397102,0.25390644,-0.20201801,0.388462,0.24845727,-0.1833266,0.384142,0.25661369,-0.18068955,0.397951,0.29526226,-0.24887083,0.407696,0.2879885,-0.20419098,0.385945,0.2774222,-0.21091874,0.373257,0.28094269,-0.23125516,0.382581,0.32106555,-0.26039028,0.41765,0.29905576,-0.20955237,0.39547,0.29407663,-0.20387593,0.384122,0.28957548,-0.21546071,0.373806,0.35329623,-0.28238826,0.431352,0.33391996,-0.23184928,0.411376,0.33099873,-0.22926236,0.402198,0.32712127,-0.23868385,0.3941
0.30219927,-0.3360297,0.428577,0.29939319,-0.28699084,0.41766,0.27795836,-0.3186125,0.419133,0.24708933,-0.2892927,0.400073,0.2177914,-0.25789781,0.375508,0.20994605,-0.23781032,0.356029,0.26606674,-0.24136809,0.397946,0.25402351,-0.20255469,0.388503,0.24848161,-0.18424019,0.383781,0.25649982,-0.18067834,0.397684,0.29491919,-0.24902189,0.407263,0.28493323,-0.20365759,0.386065,0.28033137,-0.20703341,0.3737,0.28168335,-0.2310306,0.383637,0.3198453,-0.25991035,0.416111,0.29848442,-0.2094418,0.39478,0.29325975,-0.20415108,0.383866,0.28985396,-0.21559688,0.373944,0.35086767,-0.28104525,0.428434,0.33274942,-0.2337721,0.40907,0.33000174,-0.23389463,0.400173,0.32752322,-0.24459016,0.392323
0.30147694,-0.33600181,0.426941,0.29924716,-0.28779351,0.416645,0.27779313,-0.31914531,0.418272,0.24749477,-0.29011775,0.399736,0.21781641,-0.25795798,0.375437,0.2101601,-0.2378599,0.355995,0.26644728,-0.24211846,0.398362,0.25401971,-0.20299757,0.388159,0.24822505,-0.18439965,0.383057,0.25642757,-0.1812832,0.396919,0.29471737,-0.24934321,0.40684,0.28760745,-0.20400539,0.386333,0.28062472,-0.20829421,0.37437,0.28321567,-0.23184762,0.384795,0.31949969,-0.26113398,0.41493,0.29874777,-0.21078788,0.39444,0.29390626,-0.20586609,0.383956,0.29079535,-0.2166139,0.374426,0.34957973,-0.28192535,0.426256,0.33137451,-0.23522945,0.407539,0.32946404,-0.23742123,0.398939,0.32695961,-0.24868786,0.391351
0.30140723,-0.33668069,0.426067,0.2990886,-0.28787214,0.416166,0.27793012,-0.31999279,0.417686,0.24763472,-0.29029971,0.399673,0.21798417,-0.25860718,0.376989,0.20848565,-0.23661658,0.358169,0.26680945,-0.24255126,0.398525,0.25474619,-0.20419528,0.388048,0.24837033,-0.18465546,0.382809,0.25665825,-0.1817932,0.396626,0.29539077,-0.2507287,0.406736,0.28804538,-0.20430683,0.386662,0.28119937,-0.20848691,0.374952,0.2845653,-0.23254604,0.385605,0.31947254,-0.26126875,0.414564,0.2990208,-0.21110463,0.394526,0.29469383,-0.20627227,0.384274,0.2919621,-0.21681787,0.374954,0.34921961,-0.28184671,0.425511,0.33150704,-0.23566457,0.407157,0.32974543,-0.23779606,0.398724,0.32730336,-0.24916677,0.391284
0.30276971,-0.33896093,0.427369,0.29946719,-0.28840994,0.416499,0.27888697,-0.3217887,0.418491,0.24812481,-0.29088767,0.400247,0.21831195,-0.2589748,0.377594,0.20909879,-0.23769264,0.358725,0.26634935,-0.2422105,0.397555,0.25401945,-0.20373139,0.386573,0.24770222,-0.18489229,0.381082,0.25611233,-0.18314668,0.394674,0.29513109,-0.25058336,0.406146,0.28733795,-0.20448085,0.385022,0.27990335,-0.21081173,0.3727,0.28349934,-0.23260116,0.382862,0.31951045,-0.26140423,0.414393,0.29827323,-0.2106694,0.393335,0.29379274,-0.2054418,0.382562,0.29086847,-0.21528676,0.372768,0.34979495,-0.28245234,0.426008,0.33149729,-0.2358623,0.406818,0.32937664,-0.23761589,0.398001,0.32661434,-0.2487505,0.390222
0.29827086,-0.33459064,0.420404,0.29965249,-0.28872329,0.416606,0.27650014,-0.31964303,0.414282,0.2471574,-0.28965282,0.398583,0.21887499,-0.25941972,0.378688,0.20815115,-0.23660004,0.361625,0.27219376,-0.24758672,0.406054,0.25864848,-0.20753026,0.39335,0.25180293,-0.18807234,0.386998,0.25997632,-0.18615592,0.400157,0.30022692,-0.25496449,0.41299,0.29802395,-0.21206604,0.39962,0.29416796,-0.22022264,0.391822,0.30010917,-0.24562004,0.405021,0.32326999,-0.26455546,0.41911,0.3074335,-0.21721326,0.405251,0.30605481,-0.21335381,0.39816,0.30617183,-0.22527762,0.391714,0.35067026,-0.2832602,0.426928,0.33732504,-0.2401476,0.413748,0.33753834,-0.24355652,0.407693,0.337613,-0.25719423,0.403215
0.300743,-0.33768663,0.423053,0.29868263,-0.28775314,0.414931,0.27867331,-0.3224128,0.416681,0.24879484,-0.29131315,0.400896,0.22022772,-0.26045599,0.380256,0.20922382,-0.23671571,0.362136,0.2696144,-0.2454238,0.401116,0.25264094,-0.20259591,0.383199,0.24450057,-0.18289731,0.374241,0.25148071,-0.1807942,0.385657,0.29628555,-0.25150409,0.407195,0.29050425,-0.20672185,0.389171,0.28450125,-0.21306944,0.378656,0.29004257,-0.23711383,0.390486,0.31888978,-0.26087712,0.413077,0.30032391,-0.21218887,0.395434,0.29810168,-0.20801121,0.386407,0.29625689,-0.21855822,0.378201,0.34642886,-0.27975886,0.42143,0.33075897,-0.23594978,0.404954,0.32934869,-0.23749818,0.397384,0.32747067,-0.24931877,0.390705
0.30185355,-0.33929819,0.42429,0.29943504,-0.2886681,0.41551,0.27957505,-0.32370426,0.417676,0.24994113,-0.29224268,0.402221,0.22132559,-0.2606728,0.382368,0.21057358,-0.23762512,0.364504,0.26969734,-0.24538454,0.400934,0.25243363,-0.2029181,0.382349,0.24446691,-0.18295245,0.373056,0.2512947,-0.18063725,0.384192,0.29644338,-0.25155702,0.407148,0.29011367,-0.20644692,0.388403,0.28374448,-0.21250439,0.377468,0.28946072,-0.23609832,0.389021,0.31917638,-0.2610498,0.413211,0.30176711,-0.21384308,0.394905,0.29928446,-0.21601351,0.385539,0.29692769,-0.22718037,0.377024,0.34699025,-0.28016317,0.421899,0.33062445,-0.23528213,0.404868,0.32925263,-0.23727141,0.397043,0.32717983,-0.2489148,0.390139
0.30308825,-0.34087026,0.425471,0.30012394,-0.28937881,0.415794,0.28049344,-0.32483766,0.418455,0.25081822,-0.29273354,0.402851,0.22283726,-0.26094376,0.383974,0.2118864,-0.2372938,0.366485,0.26942796,-0.24492404,0.400085,0.25208832,-0.20236713,0.380672,0.24431491,-0.18278291,0.370965,0.25400656,-0.18521333,0.381717,0.29631834,-0.25126839,0.406577,0.28953613,-0.2060435,0.386847,0.28246193,-0.21138924,0.375338,0.28827507,-0.23443732,0.386484,0.31926933,-0.26096127,0.412966,0.3050513,-0.21755314,0.393726,0.30250326,-0.21739823,0.383882,0.29969964,-0.23034412,0.374933,0.34751291,-0.28042908,0.422201,0.33083286,-0.23564452,0.404396,0.32893267,-0.23675851,0.396215,0.3265913,-0.24815098,0.388997
0.30555558,-0.34318899,0.428903,0.30066632,-0.28997689,0.416497,0.28291531,-0.32729184,0.421919,0.26159014,-0.29771349,0.410936,0.23595553,-0.2657971,0.389206,0.21683938,-0.24164534,0.373397,0.26872059,-0.24461715,0.398977,0.26514139,-0.20102313,0.380301,0.26230986,-0.19121604,0.370963,0.26917431,-0.20749931,0.381757,0.29499699,-0.25040386,0.404682,0.28583666,-0.20342855,0.382108,0.2777532,-0.20807425,0.36894,0.28285268,-0.23023939,0.379136,0.31760125,-0.25977729,0.410717,0.31478564,-0.2224662,0.389757,0.3054991,-0.23306899,0.379033,0.30748369,-0.25616106,0.389004,0.34579237,-0.27911467,0.420054,0.32447865,-0.24079843,0.400299,0.3147064,-0.2235128,0.391222,0.31116137,-0.22359254,0.383214
0.30636494,-0.34365348,0.430528,0.30128176,-0.2903891,0.417337,0.28334363,-0.32724228,0.42282,0.26308218,-0.29774459,0.411395,0.24062481,-0.26520547,0.387508,0.22459353,-0.24305132,0.369466,0.26856526,-0.24423024,0.398342,0.26594423,-0.20004693,0.379465,0.26305218,-0.19053877,0.370027,0.26938902,-0.20681159,0.380521,0.29534371,-0.25056068,0.404775,0.28686244,-0.20440147,0.381455,0.27783709,-0.20925341,0.367852,0.28251371,-0.23178343,0.377605,0.31845282,-0.26042697,0.411494,0.31572247,-0.22239285,0.389716,0.30574956,-0.23253963,0.378574,0.30697955,-0.2552649,0.388057,0.34733307,-0.28043013,0.421772,0.3258639,-0.24214615,0.401241,0.31605643,-0.22475102,0.391808,0.31202879,-0.22496113,0.383485
0.30777707,-0.34458607,0.432761,0.30221061,-0.29102676,0.418497,0.28466055,-0.32806315,0.424819,0.26612525,-0.29961531,0.414912,0.24339188,-0.26562474,0.390757,0.23441785,-0.24332868,0.377689,0.26893544,-0.24434305,0.398468,0.26593606,-0.19963686,0.378958,0.26272035,-0.19010929,0.369203,0.26861302,-0.20625536,0.379347,0.29574614,-0.25074511,0.404913,0.28619798,-0.203739,0.380539,0.2768694,-0.20850909,0.366322,0.28084212,-0.22958796,0.375626,0.31894263,-0.26072358,0.411756,0.31525986,-0.22205739,0.388995,0.30467273,-0.23183094,0.377349,0.30545242,-0.25418826,0.386371,0.3480221,-0.2809488,0.422382,0.32571612,-0.24237393,0.401024,0.31560968,-0.22481798,0.391212,0.3111275,-0.22495714,0.382554
0.30859211,-0.345374,0.434816,0.30337652,-0.2920628,0.420241,0.28685566,-0.3303199,0.428659,0.26746383,-0.3007837,0.416733,0.24258039,-0.26454126,0.390616,0.23256184,-0.24351274,0.379778,0.27193107,-0.24673988,0.402325,0.2662652,-0.20019745,0.379925,0.26238661,-0.18188286,0.368726,0.27435946,-0.17965897,0.378342,0.29712281,-0.2517591,0.40636,0.2870468,-0.20431452,0.381664,0.2823638,-0.20085893,0.367258,0.29021125,-0.2225196,0.376803,0.31873344,-0.26056371,0.411254,0.31058835,-0.22991574,0.388433,0.30597957,-0.23847478,0.376757,0.31215628,-0.26277642,0.38609,0.3455631,-0.27904643,0.419674,0.32929217,-0.26093896,0.398669,0.32315347,-0.25156563,0.389018,0.32111903,-0.25858587,0.380503
0.31020874,-0.3473355,0.438164,0.30467717,-0.29347387,0.422333,0.28923255,-0.33307187,0.432957,0.26818358,-0.30321769,0.420004,0.23744148,-0.26518787,0.397309,0.22918855,-0.24437341,0.39155,0.27387975,-0.24841738,0.404802,0.26699608,-0.20113074,0.381238,0.26296502,-0.18278667,0.369456,0.27466384,-0.18042429,0.378672,0.29798293,-0.25255676,0.407256,0.28707547,-0.20447007,0.381438,0.28168572,-0.20065365,0.366378,0.28928614,-0.22204241,0.375563,0.31858876,-0.2606723,0.410982,0.31025731,-0.23130379,0.387696,0.3052875,-0.24018617,0.375783,0.31110509,-0.26407617,0.38492,0.344027,-0.27888723,0.418283,0.32775279,-0.26033704,0.396756,0.32140581,-0.25087815,0.386866,0.31915193,-0.25772083,0.378139
0.31068106,-0.34822998,0.440405,0.305324,-0.29419022,0.423584,0.28966877,-0.33360739,0.434775,0.26345924,-0.30267294,0.419293,0.23745739,-0.26281037,0.397115,0.23002803,-0.24205433,0.391663,0.27436708,-0.24837933,0.404831,0.26693743,-0.20052708,0.380288,0.26368129,-0.18185402,0.368016,0.27519688,-0.17941095,0.376744,0.29859158,-0.25293361,0.407565,0.28736386,-0.20405864,0.380686,0.28182706,-0.20011542,0.365007,0.2886516,-0.22118875,0.373707,0.31929791,-0.26143004,0.411629,0.31090558,-0.23220382,0.387429,0.30523291,-0.24290332,0.375048,0.30994191,-0.26449965,0.383711,0.34298262,-0.28223927,0.419507,0.32833726,-0.26155244,0.397156,0.32170875,-0.25189006,0.386886,0.3188157,-0.25864489,0.377824
0.31171292,-0.3499719,0.448594,0.30818735,-0.29734464,0.430092,0.28861675,-0.33252541,0.439847,0.26440762,-0.29382271,0.423776,0.24230854,-0.25875694,0.407583,0.23394891,-0.23867947,0.397213,0.27636166,-0.24818441,0.406136,0.2803877,-0.20559181,0.391785,0.28512715,-0.19079667,0.384609,0.29741087,-0.19076685,0.396959,0.30255648,-0.25602017,0.412471,0.29373411,-0.20727939,0.383769,0.28858557,-0.20732399,0.367026,0.28971547,-0.22328078,0.374396,0.3256413,-0.26685831,0.419681,0.31746109,-0.24072079,0.393239,0.30714939,-0.25412225,0.379711,0.30979367,-0.27202065,0.38686,0.35211594,-0.29081428,0.431528,0.33410031,-0.27556091,0.407013,0.32688988,-0.26787679,0.395749,0.32062725,-0.27604905,0.38581
0.31419064,-0.35341813,0.454359,0.30757408,-0.29686713,0.430001,0.29089342,-0.33529687,0.445208,0.26526256,-0.29500341,0.42549,0.24000155,-0.25673824,0.404956,0.23318971,-0.23434574,0.397988,0.27349782,-0.24499697,0.401543,0.27579457,-0.20160843,0.384549,0.27664186,-0.18609165,0.376052,0.29135859,-0.18688647,0.387751,0.29859215,-0.25254689,0.406803,0.28663355,-0.19978932,0.372079,0.27576178,-0.19302572,0.351823,0.2761626,-0.21204937,0.356253,0.32097906,-0.26341078,0.413759,0.30833012,-0.23481078,0.38211,0.29567278,-0.24485581,0.365917,0.29552718,-0.26119382,0.370182,0.347526,-0.28769114,0.426412,0.32644845,-0.26944315,0.397945,0.31759696,-0.26049815,0.384865,0.30990686,-0.26710201,0.373325
0.31410609,-0.35464836,0.458113,0.30852774,-0.29726349,0.431984,0.28747183,-0.33205185,0.449158,0.26398335,-0.28479835,0.426775,0.24731013,-0.25099947,0.415861,0.24872477,-0.23644808,0.420301,0.27689249,-0.24230665,0.402578,0.27696742,-0.19947479,0.383252,0.27711977,-0.18477303,0.373589,0.28959434,-0.18549926,0.384487,0.29925752,-0.25260965,0.407098,0.28807062,-0.19889998,0.370723,0.27573413,-0.19741372,0.349504,0.27394474,-0.21094861,0.353037,0.32101701,-0.2635889,0.413637,0.30748567,-0.23444238,0.380815,0.29427853,-0.24358187,0.364023,0.29311705,-0.2597377,0.367485,0.34712956,-0.28778023,0.426137,0.32574692,-0.26861713,0.396631,0.31657694,-0.25931009,0.383074,0.30828618,-0.26554575,0.371112
0.31298481,-0.35377315,0.458096,0.30804463,-0.29668275,0.431761,0.28711799,-0.33132029,0.449445,0.26389261,-0.28500655,0.426982,0.24689405,-0.25079563,0.415501,0.24860999,-0.23648222,0.420358,0.2772743,-0.24182382,0.40261,0.27582702,-0.19821893,0.38116,0.27491294,-0.18384698,0.370435,0.28799055,-0.18580179,0.380444,0.2992373,-0.25224033,0.406679,0.28820937,-0.19850559,0.370265,0.27548202,-0.19708116,0.349023,0.27367197,-0.21121769,0.352544,0.32040884,-0.26337718,0.412868,0.30695977,-0.23426783,0.380123,0.29367981,-0.24315445,0.36337,0.29236171,-0.25959408,0.366853,0.34609977,-0.28725895,0.425002,0.32490197,-0.26790496,0.395467,0.31570651,-0.25854981,0.381898,0.30725492,-0.26474777,0.369924
0.30893801,-0.35212516,0.459921,0.30561533,-0.29517081,0.431933,0.28684523,-0.33062715,0.452422,0.26486793,-0.28662816,0.43018,0.24788559,-0.25143596,0.417664,0.24918173,-0.2360324,0.420735,0.27746311,-0.24195473,0.403161,0.27174912,-0.19549347,0.375656,0.26721429,-0.18320191,0.361904,0.272064,-0.19143931,0.369101,0.29852986,-0.2514402,0.405277,0.28517963,-0.19773772,0.367496,0.27103787,-0.19585922,0.345457,0.26690861,-0.21384582,0.348224,0.31830888,-0.26226238,0.410035,0.3010095,-0.23454029,0.376107,0.28251431,-0.24360695,0.358749,0.28457785,-0.25803399,0.361491,0.34138014,-0.28630455,0.42082,0.31566776,-0.26907202,0.390701,0.30438946,-0.25949334,0.376862,0.29347434,-0.26555315,0.364652
0.30793253,-0.35284444,0.463178,0.30574632,-0.29644629,0.434353,0.28828391,-0.33307456,0.456413,0.26845755,-0.29149232,0.435989,0.25048182,-0.25424619,0.41961,0.24936956,-0.23546056,0.418765,0.27788511,-0.24610031,0.40597,0.27185469,-0.19909689,0.377098,0.26357636,-0.19243031,0.362662,0.26705041,-0.20000411,0.369171,0.29922076,-0.25410718,0.406901,0.28530171,-0.20543777,0.3684,0.26491918,-0.20311284,0.345941,0.26202051,-0.21616123,0.34825,0.31491308,-0.27184401,0.410774,0.29334907,-0.24256067,0.376544,0.27448193,-0.24896693,0.359032,0.27091548,-0.26482379,0.361421,0.3356816,-0.29728416,0.420687,0.30786157,-0.27539295,0.390367,0.29502515,-0.26532773,0.376436,0.2819769,-0.27068896,0.364143
0.30067998,-0.34669737,0.453986,0.3041577,-0.29696128,0.430194,0.28133397,-0.32674588,0.44474,0.28317145,-0.31374137,0.436185,0.28794517,-0.29172278,0.415624,0.30168516,-0.28405228,0.411292,0.27622726,-0.24429854,0.401997,0.27464481,-0.22241587,0.372911,0.27213663,-0.21057387,0.358368,0.27199805,-0.22355301,0.363731,0.30064046,-0.25943202,0.407536,0.28840966,-0.23453765,0.373344,0.27008091,-0.236566,0.353399,0.26535567,-0.25506349,0.358093,0.31996539,-0.2762684,0.41466,0.30866681,-0.23812073,0.383253,0.30109706,-0.22624311,0.367185,0.30263907,-0.2443849,0.371643,0.34259566,-0.30442275,0.427402,0.32005809,-0.29318451,0.399265,0.30895114,-0.28706123,0.386337,0.29725808,-0.29469213,0.374931
0.30198186,-0.3514761,0.461093,0.29895667,-0.30121799,0.436743,0.28231835,-0.3302531,0.450976,0.2802445,-0.31627806,0.441073,0.29024615,-0.29731897,0.423046,0.30622497,-0.29063068,0.421687,0.27044071,-0.24560715,0.407031,0.25987287,-0.22735003,0.375858,0.25466424,-0.21822586,0.360272,0.25280085,-0.23287042,0.364641,0.29509483,-0.25946809,0.413551,0.28311214,-0.23694909,0.37875,0.26969559,-0.23389846,0.358449,0.26679811,-0.25526855,0.362602,0.31557914,-0.27584402,0.421545,0.29378244,-0.27278677,0.389268,0.26651195,-0.27375024,0.372753,0.26322866,-0.27350999,0.376572,0.33980151,-0.30397024,0.435401,0.32477085,-0.29722601,0.406658,0.31462067,-0.29281381,0.393452,0.30072403,-0.29717267,0.381799
0.30044825,-0.35152214,0.460559,0.29823275,-0.30125104,0.436577,0.28082193,-0.3301083,0.450361,0.28577265,-0.31802731,0.442124,0.29116262,-0.29881273,0.423857,0.30706599,-0.29198793,0.421997,0.27372528,-0.24587647,0.407009,0.26096099,-0.22738451,0.375915,0.25578606,-0.21828401,0.360368,0.2540345,-0.23298857,0.364826,0.29845204,-0.26031859,0.413736,0.2845667,-0.23728191,0.379282,0.27191575,-0.2369675,0.359184,0.26676244,-0.25543083,0.363497,0.31687061,-0.27605014,0.42186,0.29304648,-0.2750566,0.389823,0.26605426,-0.27512314,0.373431,0.26377408,-0.27394985,0.377388,0.34118567,-0.3042474,0.435798,0.32559693,-0.29721306,0.407267,0.31592998,-0.29349303,0.394158,0.30144225,-0.29681802,0.382592
0.29918966,-0.35152166,0.460083,0.29784526,-0.30123313,0.436433,0.27958651,-0.329948,0.449802,0.28577274,-0.31826278,0.442322,0.29161988,-0.29950143,0.424113,0.3076975,-0.29280386,0.422275,0.27343753,-0.2458115,0.406984,0.26165221,-0.2276335,0.376214,0.25664355,-0.21865196,0.360829,0.25504886,-0.23348797,0.365437,0.29832128,-0.26025673,0.413909,0.28541911,-0.23764966,0.37977,0.27233986,-0.23726004,0.359856,0.2671631,-0.25583592,0.364308,0.31747438,-0.27625289,0.422161,0.29316821,-0.27609181,0.390337,0.26628182,-0.27590876,0.374055,0.26433539,-0.27445562,0.378131,0.34185088,-0.30450236,0.436184,0.32630465,-0.29742621,0.407843,0.31662289,-0.29426296,0.394822,0.30146794,-0.29720364,0.383332
0.28726505,-0.33925806,0.44317,0.29477178,-0.29099953,0.420837,0.26676285,-0.3165414,0.430421,0.26447521,-0.29586649,0.403769,0.25821578,-0.27049802,0.373529,0.26508514,-0.25826294,0.36315,0.26895274,-0.23435162,0.389069,0.26956139,-0.21002518,0.361531,0.26993564,-0.19783443,0.347762,0.27947836,-0.20432976,0.352601,0.29541391,-0.24916758,0.399568,0.29001541,-0.22379443,0.366664,0.26749258,-0.23270795,0.34747,0.26334598,-0.25107817,0.351531,0.3183653,-0.26689137,0.410621,0.3070806,-0.23298398,0.378828,0.30365115,-0.21199704,0.362561,0.29616438,-0.21564116,0.349229,0.34547296,-0.2962992,0.427648,0.32796777,-0.29406216,0.399611,0.31006613,-0.29145631,0.387935,0.29143376,-0.29413461,0.377632
0.28515739,-0.33090522,0.457264,0.30131022,-0.28635838,0.427099,0.27321617,-0.30496881,0.446648,0.26148868,-0.25402961,0.419631,0.25625629,-0.21804193,0.404929,0.26231356,-0.19907729,0.401188,0.28866484,-0.23000525,0.392791,0.25877723,-0.22418887,0.357391,0.24384186,-0.22125156,0.339692,0.24252807,-0.23019563,0.340829,0.30713182,-0.25014626,0.398371,0.27753256,-0.2409519,0.359213,0.24353141,-0.24242968,0.336371,0.23326385,-0.24951631,0.33736,0.32175375,-0.27099077,0.406216,0.28044322,-0.26882662,0.369541,0.24947653,-0.26667915,0.350777,0.23373628,-0.27782329,0.351282,0.33770852,-0.30317513,0.420993,0.29434795,-0.29551391,0.388604,0.27434056,-0.29207111,0.373723,0.25765721,-0.29743775,0.373404
0.24200399,-0.278249,0.401815,0.28100649,-0.25773832,0.396446,0.24702107,-0.26414974,0.4085,0.26367273,-0.23929895,0.4158,0.27690956,-0.21365959,0.418818,0.28620706,-0.19824219,0.414637,0.30368867,-0.23173577,0.401507,0.28913416,-0.20692442,0.386084,0.26866726,-0.21497603,0.378372,0.26967126,-0.23387002,0.389711,0.30687474,-0.24268735,0.391332,0.29307024,-0.2166059,0.378361,0.2649877,-0.2249936,0.370794,0.26778871,-0.24351498,0.383182,0.30660309,-0.25356768,0.383532,0.29701067,-0.2310739,0.375995,0.27290092,-0.23803721,0.372138,0.26308905,-0.25647366,0.385766,0.30116419,-0.27000282,0.375487,0.28547693,-0.24072694,0.366855,0.2638383,-0.24498096,0.362889,0.26401884,-0.26414194,0.372495
0.2399901,-0.27423321,0.399065,0.27768027,-0.25371128,0.390287,0.24415991,-0.25686454,0.401636,0.26058798,-0.22675251,0.404189,0.26712855,-0.1972231,0.397158,0.27128086,-0.18426219,0.390013,0.30177201,-0.22263679,0.387675,0.28365735,-0.20295729,0.370343,0.27870637,-0.22208698,0.390601,0.28349163,-0.24275443,0.408257,0.3019565,-0.23808385,0.381926,0.30258694,-0.21411372,0.365113,0.27567422,-0.21198027,0.355305,0.26881358,-0.22788297,0.367446,0.30303243,-0.25247869,0.378139,0.29187835,-0.2356663,0.365021,0.26317575,-0.23130881,0.35831,0.25237945,-0.24558242,0.371041,0.29765505,-0.27694957,0.375392,0.27871637,-0.25161621,0.362133,0.25437639,-0.25132139,0.356041,0.24367916,-0.26304772,0.364951
0.24270901,-0.27714273,0.404929,0.27414112,-0.25210873,0.386281,0.24533211,-0.2564738,0.402986,0.25905018,-0.22290104,0.397469,0.27057224,-0.19489387,0.390684,0.26778283,-0.17720837,0.377636,0.29018682,-0.21618572,0.371087,0.25491635,-0.20207004,0.344542,0.25560729,-0.21668551,0.36296,0.25125101,-0.23753588,0.380793,0.29218957,-0.23630692,0.36852,0.28255098,-0.21468083,0.340634,0.24511977,-0.20637475,0.324367,0.23468129,-0.21349534,0.332431,0.29157533,-0.25514143,0.368416,0.25508491,-0.23804991,0.344777,0.24672236,-0.24926302,0.36332,0.24470256,-0.25977552,0.380273,0.28662625,-0.28134748,0.371801,0.25163017,-0.2541746,0.349772,0.24582178,-0.26035345,0.363659,0.25672204,-0.27299668,0.377548
0.24316991,-0.27812416,0.407169,0.27386625,-0.25329502,0.387075,0.24638641,-0.25721829,0.405104,0.26003558,-0.22330967,0.398098,0.27120471,-0.1954461,0.391423,0.26976171,-0.17776158,0.37843,0.2891736,-0.21644511,0.370743,0.25237607,-0.20149437,0.342803,0.25239544,-0.21579519,0.360718,0.24825511,-0.23672092,0.3789,0.29080552,-0.2364819,0.367939,0.27948951,-0.21413099,0.338634,0.24148808,-0.20510748,0.321539,0.23071027,-0.21162553,0.328878,0.28999997,-0.25530638,0.367796,0.25213704,-0.23736813,0.343,0.24357819,-0.24808484,0.361051,0.24200442,-0.25864995,0.378274,0.28502602,-0.28163819,0.371406,0.24894937,-0.25368417,0.348402,0.24249142,-0.25912298,0.361883,0.25184155,-0.27094857,0.375452
0.24290351,-0.27846401,0.408147,0.27326358,-0.2538507,0.387387,0.24671772,-0.25766909,0.406383,0.2613287,-0.22436593,0.399547,0.27264457,-0.19673157,0.392589,0.27368974,-0.17989498,0.379431,0.28859196,-0.21663445,0.370994,0.25193479,-0.20030522,0.342298,0.2520345,-0.21384658,0.359898,0.24784427,-0.23473959,0.378253,0.28971461,-0.2363124,0.367616,0.27741627,-0.21307334,0.337436,0.23911934,-0.20364593,0.319832,0.22813457,-0.20988128,0.326716,0.28854122,-0.25485434,0.367071,0.25022519,-0.23632389,0.34197,0.24153866,-0.24684622,0.35973,0.24010243,-0.25751698,0.37696,0.2832454,-0.28091429,0.370341,0.24681591,-0.25241236,0.347062,0.23799772,-0.25721178,0.360309,0.2447086,-0.26806867,0.373639
0.26396664,-0.28931782,0.425333,0.29253487,-0.26017786,0.392904,0.28623233,-0.26341605,0.422077,0.28319588,-0.24892432,0.408348,0.28697035,-0.22310351,0.392278,0.28264121,-0.21997115,0.379089,0.30251137,-0.21918543,0.366645,0.25822554,-0.18721982,0.330055,0.24771263,-0.19258178,0.341618,0.25378783,-0.20731382,0.360676,0.29688649,-0.23811272,0.36202,0.24638287,-0.20268735,0.321398,0.20645789,-0.18535805,0.297702,0.19793457,-0.18606344,0.297312,0.29163057,-0.25650351,0.361706,0.23517558,-0.22599558,0.327697,0.21893617,-0.23242781,0.339354,0.22382772,-0.24552198,0.357744,0.28127406,-0.28034562,0.367438,0.23522816,-0.24237154,0.336852,0.22796484,-0.24260862,0.345191,0.23630531,-0.25493779,0.359188
0.26904325,-0.28820055,0.426501,0.29212128,-0.25867697,0.392239,0.28844291,-0.26359299,0.423757,0.28300823,-0.24704787,0.407897,0.28664037,-0.22020804,0.391534,0.28161475,-0.21570054,0.377681,0.30158785,-0.21735179,0.365403,0.25494558,-0.18348168,0.326938,0.24327949,-0.18760703,0.336642,0.24987452,-0.20251155,0.355697,0.29456626,-0.23539693,0.359609,0.24222124,-0.19823771,0.317783,0.20084442,-0.17807569,0.293385,0.19230136,-0.18003995,0.291279,0.28839323,-0.25313101,0.35853,0.22861176,-0.22138261,0.323839,0.21208871,-0.22332891,0.3337,0.21298284,-0.24113202,0.351647,0.28020906,-0.27906921,0.363718,0.22888716,-0.23527925,0.332615,0.22453113,-0.23388696,0.339542,0.23398507,-0.24385449,0.353174
0.23705353,-0.26972308,0.398184,0.26668214,-0.24838737,0.377699,0.24240369,-0.25022388,0.397057,0.25991098,-0.23654856,0.392817,0.26889988,-0.22143391,0.380292,0.27319466,-0.22891666,0.37767,0.29378417,-0.22130811,0.362322,0.26681532,-0.19278291,0.338032,0.26517621,-0.19662132,0.355829,0.26225367,-0.20799712,0.372524,0.2878871,-0.23965528,0.35819,0.25041307,-0.20580467,0.32878,0.21439698,-0.19159354,0.311624,0.21042861,-0.19741173,0.318689,0.28072579,-0.2563962,0.356995,0.24450772,-0.22918422,0.332503,0.23720269,-0.24004829,0.350259,0.25159382,-0.25611094,0.368813,0.26785226,-0.27889038,0.359459,0.23933954,-0.23876169,0.336662,0.23466577,-0.2408584,0.349915,0.23427272,-0.24764818,0.363077
0.23670063,-0.26700494,0.397125,0.26656291,-0.24809745,0.377088,0.24391059,-0.24524405,0.394719,0.25644281,-0.23310619,0.388296,0.26286984,-0.21816919,0.37428,0.25897014,-0.22037637,0.362369,0.2926397,-0.22077071,0.360348,0.26115993,-0.191678,0.335699,0.25571173,-0.19648962,0.353854,0.25787457,-0.20351438,0.370834,0.28712105,-0.24028024,0.358005,0.24783545,-0.20788365,0.328661,0.21239052,-0.19071152,0.311544,0.21011605,-0.197518,0.318925,0.28021087,-0.25790059,0.358234,0.24118368,-0.22956584,0.33327,0.23629031,-0.24027177,0.351378,0.24517627,-0.25473529,0.370188,0.26751899,-0.28113539,0.362267,0.23480427,-0.24094671,0.339139,0.2342935,-0.24230583,0.352664,0.234873,-0.24867534,0.366048
0.24142977,-0.27100928,0.407689,0.26643522,-0.25197476,0.381988,0.24828975,-0.25024817,0.403942,0.26039141,-0.23194934,0.391579,0.2722796,-0.22070156,0.380483,0.26421339,-0.22313841,0.366576,0.28409792,-0.2235907,0.359657,0.24399375,-0.19564292,0.33009,0.23974755,-0.20963709,0.346029,0.24814959,-0.22738248,0.364157,0.27677317,-0.24349951,0.357511,0.23322348,-0.21025236,0.322522,0.19648691,-0.18963795,0.302112,0.19031934,-0.19085942,0.306414,0.26887576,-0.26134857,0.358513,0.23147103,-0.22839711,0.328617,0.22358157,-0.23333758,0.344501,0.23421372,-0.24801796,0.362919,0.25588161,-0.28485277,0.364508,0.22672057,-0.24336032,0.337297,0.22800698,-0.23896456,0.349004,0.23288826,-0.24604959,0.36312
0.24096377,-0.27001729,0.408395,0.26563926,-0.25205886,0.382118,0.2485549,-0.2495987,0.404746,0.26194099,-0.23438006,0.394277,0.27451085,-0.22388635,0.383754,0.26799976,-0.22823264,0.372003,0.28401664,-0.22302858,0.359523,0.24166902,-0.19476838,0.326157,0.23642734,-0.20733995,0.34162,0.24604366,-0.22497222,0.361091,0.27646765,-0.24275348,0.357092,0.2325614,-0.20918685,0.321607,0.19567729,-0.18843537,0.300907,0.18931769,-0.18945449,0.304858,0.26844234,-0.26046954,0.357922,0.22913872,-0.22652523,0.327682,0.22280824,-0.23226236,0.343273,0.23524167,-0.24704695,0.361902,0.25539342,-0.28388062,0.363825,0.22604539,-0.24219434,0.336323,0.22664181,-0.23768958,0.347794,0.23205111,-0.24468284,0.361922
0.23784829,-0.26114856,0.409167,0.26228663,-0.24569657,0.387216,0.24332586,-0.23845312,0.403045,0.25764667,-0.22944745,0.394918,0.27967506,-0.22154193,0.387165,0.28182954,-0.22609851,0.379292,0.283074,-0.21290015,0.364336,0.24906693,-0.19497892,0.335556,0.24712037,-0.20864527,0.352957,0.24272112,-0.21992333,0.371265,0.2808454,-0.23597837,0.366309,0.24850772,-0.21222876,0.334314,0.20694746,-0.19822339,0.315651,0.19968224,-0.20117712,0.321888,0.27758319,-0.25635865,0.370299,0.24580837,-0.23431342,0.341774,0.23910755,-0.23591057,0.359153,0.24769932,-0.25359697,0.377614,0.269165,-0.28333014,0.379057,0.24402607,-0.24903112,0.353153,0.24034502,-0.24808216,0.366067,0.24353629,-0.25099331,0.380192
0.23053398,-0.25431129,0.407132,0.26095696,-0.24402587,0.387385,0.24033475,-0.23401251,0.400456,0.25645912,-0.2267046,0.393555,0.28200303,-0.22007622,0.388473,0.2810623,-0.22545475,0.377774,0.28273754,-0.21373159,0.365282,0.25232458,-0.19554605,0.338506,0.24986914,-0.20735645,0.35655,0.24414309,-0.21968946,0.374324,0.28082863,-0.23719447,0.368579,0.24906943,-0.21463615,0.338636,0.2109465,-0.20131466,0.32117,0.2031511,-0.20478753,0.328389,0.27731159,-0.25786588,0.373422,0.24632506,-0.23530253,0.346281,0.24093737,-0.23761384,0.364272,0.25050196,-0.24931101,0.38297,0.26464278,-0.2831021,0.382755,0.24637532,-0.25015537,0.358077,0.24452518,-0.24587646,0.3715,0.24530631,-0.24782555,0.38539
0.22892727,-0.25124943,0.405822,0.26091106,-0.24324299,0.388126,0.23638529,-0.22695611,0.400656,0.25837168,-0.22806805,0.396742,0.28183924,-0.2084738,0.391864,0.30046771,-0.20756324,0.388907,0.28512594,-0.21574713,0.369381,0.25913792,-0.19823412,0.344643,0.25522521,-0.2099075,0.363479,0.2490938,-0.22247458,0.380765,0.28215815,-0.23822976,0.371272,0.25295668,-0.21736824,0.343602,0.21657154,-0.20423254,0.327462,0.20806851,-0.20892833,0.335838,0.27547454,-0.25712565,0.374737,0.24862182,-0.23732202,0.349972,0.24062577,-0.23939096,0.368775,0.24798271,-0.24972208,0.387042,0.2639859,-0.28146968,0.382084,0.24500638,-0.24986023,0.359318,0.24232968,-0.24507095,0.37341,0.24240994,-0.24598994,0.386886
0.22493202,-0.24313499,0.404373,0.2592821,-0.23994468,0.387736,0.23671057,-0.2252524,0.401159,0.25985102,-0.22790515,0.400866,0.28471148,-0.21074711,0.396471,0.30367562,-0.20770369,0.393661,0.28680378,-0.2166419,0.372254,0.26257258,-0.19645367,0.348075,0.26322307,-0.20276046,0.36725,0.25218323,-0.2207634,0.384451,0.28090691,-0.23703292,0.371891,0.25630987,-0.21093866,0.345661,0.22387368,-0.19871137,0.33036,0.21218438,-0.20538581,0.339372,0.27378235,-0.25491461,0.373385,0.24592027,-0.22926168,0.350528,0.24019221,-0.23897791,0.369744,0.24798852,-0.25030488,0.387906,0.25976236,-0.27581583,0.378247,0.24138906,-0.23841896,0.356969,0.24136088,-0.23052641,0.371405,0.24041874,-0.22358746,0.384492
0.22478379,-0.2417464,0.404396,0.25918381,-0.23925333,0.387875,0.23698431,-0.22430848,0.401594,0.25990805,-0.22772491,0.401705,0.28526595,-0.21150208,0.397363,0.30434381,-0.20826245,0.394398,0.28719243,-0.21661775,0.373008,0.263075,-0.19596528,0.348867,0.2615613,-0.20376119,0.368056,0.25312737,-0.22034124,0.385249,0.28085192,-0.23662941,0.372141,0.25664874,-0.21121755,0.346118,0.22351173,-0.19846257,0.330939,0.21281964,-0.2045298,0.340017,0.27330236,-0.25415082,0.373207,0.2460255,-0.22935978,0.350678,0.23977779,-0.23857472,0.369925,0.24787871,-0.25048274,0.388162,0.2588199,-0.27473347,0.37755,0.24108882,-0.23812241,0.356525,0.24108989,-0.23026758,0.370988,0.24010922,-0.22329961,0.383997
0.22452383,-0.24073244,0.404218,0.25894424,-0.23871843,0.387722,0.23709262,-0.22366098,0.401832,0.26024167,-0.22789006,0.402378,0.28618107,-0.21238225,0.39828,0.30532573,-0.20893928,0.395237,0.2873961,-0.21654545,0.373414,0.26306726,-0.19424641,0.349191,0.25950593,-0.20461275,0.368356,0.25365658,-0.22012135,0.385572,0.28062366,-0.23623468,0.372011,0.25656041,-0.21121684,0.346112,0.22211001,-0.19899434,0.331004,0.21282094,-0.20670523,0.340101,0.27267887,-0.25342263,0.372634,0.24569468,-0.22919883,0.350369,0.23917152,-0.23808841,0.369611,0.24748841,-0.25035652,0.387899,0.25781971,-0.27374065,0.376458,0.24035961,-0.23758185,0.355631,0.24035142,-0.22973701,0.370093,0.23932937,-0.22273972,0.383031
0.22389096,-0.23961108,0.403381,0.25827683,-0.23793131,0.386897,0.23672534,-0.22282805,0.401323,0.26077677,-0.2288579,0.402639,0.28688922,-0.21304796,0.398791,0.30603941,-0.20944732,0.39566,0.28704019,-0.21608274,0.373024,0.26255708,-0.19388816,0.348716,0.25868474,-0.20434734,0.367852,0.25341788,-0.21954918,0.385089,0.27994138,-0.23551992,0.371198,0.25719284,-0.21092034,0.345391,0.22233962,-0.19720338,0.330337,0.21469685,-0.2023726,0.339439,0.27137812,-0.25175262,0.37147,0.24478447,-0.2285926,0.34941,0.23732154,-0.23697589,0.368638,0.24676299,-0.24990473,0.387119,0.25656951,-0.27255329,0.374885,0.2391534,-0.23668068,0.354212,0.239003,-0.22898732,0.368665,0.23797281,-0.22250986,0.381545
0.2239274,-0.23925604,0.403601,0.25817605,-0.23768351,0.386851,0.23675852,-0.222452,0.401415,0.26075512,-0.22875133,0.402605,0.28707042,-0.21355429,0.398699,0.30621462,-0.21019179,0.395483,0.28668682,-0.2156638,0.372629,0.26195975,-0.19357204,0.34809,0.25788932,-0.2040888,0.367159,0.25305717,-0.21904145,0.384461,0.27965574,-0.23516783,0.370898,0.25741135,-0.2107435,0.344797,0.22328576,-0.1967718,0.329572,0.21446532,-0.20173976,0.338551,0.27145626,-0.25214534,0.371278,0.2442807,-0.22838012,0.348935,0.23677583,-0.23658152,0.368094,0.24629587,-0.24962467,0.386619,0.25644833,-0.27246132,0.374867,0.23881943,-0.23661042,0.35396,0.23850759,-0.22909283,0.368354,0.23763078,-0.22337932,0.381293
0.2308269,-0.2449072,0.414837,0.2678976,-0.24482945,0.400912,0.23460893,-0.22004308,0.397883,0.22558264,-0.22953949,0.378215,0.22436156,-0.2128505,0.350301,0.23835136,-0.20702497,0.346425,0.28303693,-0.21332547,0.369375,0.236688,-0.21454208,0.340526,0.22575206,-0.22185014,0.352485,0.22371678,-0.22100376,0.368646,0.29189529,-0.24471103,0.38765,0.24873437,-0.24859035,0.364011,0.21470628,-0.23797947,0.350221,0.20884268,-0.22958238,0.354439,0.29761417,-0.26478752,0.4042,0.2540245,-0.26887284,0.378188,0.23950838,-0.27510808,0.390265,0.23796301,-0.27004734,0.405594,0.30028113,-0.29146361,0.426028,0.2595905,-0.29612364,0.403645,0.25170926,-0.30083482,0.412591,0.25513602,-0.30332652,0.423937
0.22683907,-0.23682279,0.406369,0.26425846,-0.23977772,0.39511,0.23047025,-0.21359894,0.389973,0.24519006,-0.20253675,0.371247,0.25642807,-0.19220875,0.354007,0.26954389,-0.18758982,0.345825,0.28197536,-0.21286218,0.366111,0.24703963,-0.22130438,0.339649,0.23725629,-0.22525609,0.3524,0.23957928,-0.22008046,0.367936,0.28979335,-0.24322455,0.384388,0.24954612,-0.24901009,0.363487,0.22200896,-0.22869674,0.351294,0.22610161,-0.21950042,0.356782,0.29446308,-0.26277036,0.400653,0.25279102,-0.268335,0.377007,0.2389738,-0.27522716,0.389878,0.23687433,-0.26956737,0.404568,0.29499326,-0.28728301,0.421647,0.25929457,-0.2851684,0.40125,0.25173585,-0.27788101,0.410858,0.24577345,-0.27229273,0.421762
0.22810869,-0.2361871,0.407357,0.26479382,-0.23928735,0.395247,0.23158546,-0.21354179,0.391078,0.24579768,-0.20303867,0.372167,0.25709304,-0.19270718,0.354925,0.27008481,-0.18796628,0.346519,0.28158561,-0.21302018,0.365822,0.25362713,-0.22720563,0.348706,0.2438172,-0.23148515,0.362145,0.24274593,-0.22597512,0.374267,0.2893515,-0.24268098,0.383714,0.24881048,-0.24814671,0.36185,0.22061988,-0.22726581,0.349096,0.22463834,-0.21807987,0.354473,0.29362185,-0.26228115,0.399752,0.25155626,-0.26727907,0.375383,0.23797353,-0.27431885,0.388407,0.23605713,-0.26888941,0.403449,0.29356161,-0.2862073,0.420645,0.25822121,-0.28398793,0.399589,0.25078003,-0.27682591,0.409298,0.24502231,-0.27146054,0.420473
0.23853103,-0.2292024,0.413592,0.26895817,-0.23705374,0.397283,0.24146977,-0.20843579,0.396321,0.25913692,-0.20800497,0.37772,0.26848952,-0.21347165,0.36238,0.27620871,-0.22146627,0.353757,0.28225347,-0.21566725,0.363714,0.2515904,-0.22434437,0.345468,0.24091495,-0.22825692,0.357494,0.23960094,-0.22334061,0.369499,0.28799829,-0.24105091,0.381751,0.24526544,-0.24357587,0.355665,0.21502572,-0.22324365,0.340448,0.21590528,-0.21154996,0.343609,0.29229637,-0.26164446,0.39836,0.24782883,-0.26325009,0.370302,0.23365579,-0.26867611,0.381774,0.2317094,-0.26428365,0.397686,0.29091217,-0.28525465,0.420706,0.25511558,-0.28092085,0.396587,0.24687721,-0.27281081,0.405022,0.24151063,-0.26781143,0.416781
0.23925765,-0.22756265,0.413255,0.26946679,-0.23656418,0.397093,0.24260443,-0.2073644,0.39609,0.25830412,-0.20763813,0.377096,0.26799709,-0.2120393,0.361576,0.27598543,-0.21939426,0.352775,0.28310649,-0.21605968,0.363762,0.25264934,-0.22485952,0.346749,0.24200662,-0.22915446,0.358997,0.24026147,-0.22418452,0.370603,0.28813486,-0.24086633,0.381701,0.24572105,-0.24346085,0.355737,0.21506551,-0.2234348,0.340592,0.21513189,-0.21185021,0.343909,0.29201042,-0.26170543,0.398214,0.24761477,-0.26301142,0.37029,0.23358116,-0.26822906,0.381923,0.2312052,-0.26395075,0.397847,0.29011242,-0.28492103,0.42042,0.25440189,-0.28032708,0.396398,0.24658848,-0.27190461,0.404961,0.24192356,-0.26649175,0.416736
0.23398841,-0.23102868,0.410384,0.26926911,-0.23588179,0.395839,0.24222452,-0.20602772,0.393812,0.25825315,-0.20787856,0.376409,0.26862476,-0.21221404,0.361485,0.27769718,-0.21895685,0.353135,0.2865421,-0.21797097,0.364378,0.25468674,-0.22635934,0.348867,0.24454934,-0.23142565,0.362037,0.24245534,-0.22639088,0.373419,0.28944339,-0.24192607,0.381987,0.24826661,-0.24503134,0.357573,0.21745181,-0.22588753,0.343332,0.21728097,-0.21465698,0.347736,0.29201278,-0.26198871,0.398055,0.25645291,-0.27011443,0.371561,0.24402987,-0.27901051,0.384116,0.23673855,-0.27724309,0.399829,0.28934577,-0.28456072,0.419439,0.25454834,-0.28058483,0.396566,0.24735961,-0.27244547,0.405868,0.24298489,-0.26671071,0.417525
0.23559659,-0.22943373,0.410589,0.26982353,-0.23611991,0.396035,0.24306893,-0.20607312,0.394036,0.25789318,-0.20795869,0.376015,0.26772876,-0.21175475,0.360561,0.27683573,-0.21794785,0.35196,0.28688156,-0.21858397,0.364593,0.25506686,-0.22663882,0.349032,0.24494094,-0.23180947,0.362224,0.24279837,-0.22688487,0.373635,0.29017518,-0.24266401,0.382174,0.24868289,-0.24534329,0.357746,0.21775936,-0.22634488,0.343497,0.21717451,-0.21507648,0.347916,0.29210984,-0.26249381,0.39822,0.25608083,-0.27046275,0.371723,0.24366003,-0.27921984,0.384301,0.23643708,-0.27733717,0.400026,0.28922144,-0.28497368,0.419581,0.25473647,-0.2812684,0.3967,0.2476016,-0.27305165,0.406021,0.24339295,-0.26719423,0.417689
0.23676602,-0.22734754,0.409708,0.27016504,-0.23620747,0.395824,0.24335809,-0.20582174,0.393332,0.25711786,-0.20769331,0.375049,0.26664305,-0.21013433,0.358939,0.27556878,-0.21578191,0.350046,0.28756728,-0.21934493,0.365066,0.26330614,-0.23186478,0.350561,0.25388886,-0.23977024,0.36404,0.24633064,-0.23162289,0.375149,0.29155324,-0.24428046,0.3826,0.24984529,-0.24634193,0.358843,0.21879251,-0.22678818,0.344985,0.21837637,-0.21656994,0.34977,0.29247439,-0.26310058,0.398535,0.25699249,-0.27142006,0.372631,0.24476385,-0.28033084,0.385473,0.23748989,-0.27831443,0.401064,0.2892964,-0.2853525,0.419642,0.25625806,-0.28324503,0.397251,0.24930579,-0.27521044,0.406787,0.24425977,-0.26803368,0.418366
0.23933149,-0.22658244,0.411205,0.27113755,-0.23689345,0.396695,0.2447231,-0.20660394,0.394659,0.25727087,-0.20805721,0.375382,0.26661308,-0.20960251,0.358792,0.27533131,-0.21481617,0.349542,0.28795469,-0.21979892,0.365293,0.25933812,-0.22927127,0.349938,0.24940294,-0.23570828,0.363151,0.24446046,-0.22900734,0.374489,0.29195592,-0.24476595,0.382877,0.24990223,-0.2462874,0.358495,0.21858134,-0.22661508,0.344272,0.21774918,-0.21617496,0.348712,0.29286149,-0.26366576,0.398921,0.25701778,-0.27144404,0.372461,0.24467675,-0.28015457,0.385053,0.23753222,-0.27823596,0.400766,0.28975403,-0.28603274,0.42027,0.25651016,-0.28371496,0.397422,0.24947342,-0.27547235,0.406753,0.24464056,-0.26836778,0.418413
0.24186928,-0.22582504,0.412701,0.27267153,-0.23729872,0.397508,0.24592349,-0.20731855,0.395932,0.25740987,-0.20836792,0.375713,0.26652772,-0.2092279,0.358668,0.27504865,-0.21409755,0.349103,0.28819349,-0.21992289,0.365351,0.25594472,-0.22709702,0.349118,0.24565034,-0.23226511,0.361979,0.24397698,-0.22840027,0.373523,0.29229296,-0.24496748,0.383039,0.24986281,-0.24601987,0.357988,0.21826315,-0.22622608,0.343376,0.21699453,-0.21553958,0.347393,0.29325051,-0.26405395,0.399242,0.25710274,-0.27122333,0.372176,0.2445884,-0.27972436,0.384429,0.23753006,-0.27794722,0.400253,0.29094364,-0.28674381,0.420905,0.25684321,-0.28402252,0.397563,0.24963991,-0.27556811,0.406621,0.24494477,-0.26856369,0.418348
0.24287582,-0.22384261,0.412094,0.27285516,-0.23718133,0.397402,0.24634845,-0.20678138,0.395561,0.25738953,-0.20774975,0.375107,0.2658117,-0.20812646,0.357261,0.27527834,-0.20898757,0.347001,0.28877027,-0.22051665,0.365892,0.25159124,-0.22281256,0.341831,0.24680132,-0.22262747,0.354595,0.24875621,-0.21739329,0.369188,0.29255886,-0.24542085,0.383409,0.25041104,-0.24649572,0.358828,0.21923815,-0.22771039,0.344489,0.21674817,-0.21691708,0.348885,0.29319944,-0.26462433,0.399417,0.26668423,-0.27529945,0.372805,0.25293344,-0.28221145,0.385401,0.25237693,-0.27953221,0.401178,0.2899572,-0.28653114,0.42076,0.25685546,-0.28447129,0.397775,0.24978359,-0.27619371,0.407107,0.24510778,-0.26921379,0.418815
0.23804051,-0.21517083,0.399395,0.27322594,-0.23581172,0.395344,0.24945875,-0.20274487,0.390267,0.26798921,-0.20827077,0.377295,0.26627763,-0.21116526,0.358408,0.27020164,-0.22105105,0.348832,0.30862575,-0.23136344,0.380705,0.28971483,-0.22834762,0.36357,0.29314767,-0.22408636,0.382688,0.30479469,-0.22524809,0.400448,0.30135933,-0.2523171,0.391487,0.28112979,-0.25527748,0.377692,0.25438406,-0.23775687,0.369645,0.24870664,-0.23313233,0.381699,0.29405447,-0.26600632,0.400802,0.26890573,-0.27183498,0.385457,0.2627367,-0.28364781,0.404651,0.25414285,-0.28020497,0.418515,0.2793062,-0.28172296,0.412375,0.25831668,-0.28170923,0.398239,0.25257384,-0.27929097,0.412866,0.24799388,-0.27455157,0.423513
0.23903061,-0.21460832,0.399392,0.27373072,-0.23559558,0.395165,0.25153309,-0.20207029,0.390428,0.26801123,-0.20828788,0.377326,0.26643203,-0.21127368,0.358051,0.27393004,-0.21892168,0.349943,0.30855603,-0.23131117,0.380619,0.29094613,-0.22999338,0.363434,0.294188,-0.22638802,0.382648,0.30352198,-0.22543764,0.399634,0.30109067,-0.25209217,0.391138,0.28202953,-0.25595788,0.377151,0.25529805,-0.23888022,0.368992,0.24940461,-0.2344487,0.381072,0.2934936,-0.26610726,0.400257,0.270066,-0.27231894,0.384821,0.26458609,-0.28492802,0.404109,0.25557998,-0.28178858,0.418047,0.27790989,-0.28145629,0.411635,0.25862605,-0.28090558,0.397398,0.25205331,-0.27894077,0.412095,0.24702825,-0.27486391,0.422804
0.24072932,-0.21448277,0.400031,0.27469924,-0.23575822,0.395326,0.25353029,-0.20198355,0.391324,0.2685167,-0.20846234,0.3778,0.26758187,-0.21100211,0.358359,0.27385672,-0.21913174,0.349542,0.30864919,-0.23135869,0.380791,0.29150551,-0.23039163,0.363365,0.2947978,-0.22708796,0.382723,0.30330099,-0.22548147,0.399482,0.30081456,-0.25186971,0.390845,0.28204708,-0.25564295,0.37634,0.25522156,-0.23857118,0.367879,0.24926056,-0.2342358,0.379942,0.29294283,-0.26605901,0.399632,0.27011875,-0.27189014,0.383883,0.26709672,-0.2863811,0.40331,0.25594974,-0.2825071,0.417431,0.2767847,-0.28097584,0.410715,0.26590556,-0.28418316,0.396169,0.25723941,-0.28519551,0.410966,0.24641528,-0.27594543,0.421823
0.24688667,-0.21865626,0.407394,0.28619416,-0.24182596,0.404224,0.2614236,-0.2020003,0.393181,0.2782026,-0.20764789,0.374507,0.26120328,-0.20720636,0.348384,0.26197813,-0.21256812,0.335421,0.31166312,-0.24269532,0.383559,0.28835317,-0.24313782,0.364678,0.2893083,-0.237016,0.379478,0.29654409,-0.22667858,0.394297,0.30920005,-0.26579494,0.401205,0.28789773,-0.27371197,0.388852,0.26502347,-0.25590143,0.381646,0.25774566,-0.24416068,0.390758,0.30401113,-0.2830214,0.416077,0.27775974,-0.29089096,0.400011,0.27767446,-0.28388341,0.414941,0.27464869,-0.27368736,0.427393,0.29219271,-0.29947592,0.433936,0.29779876,-0.34073886,0.447428,0.30123259,-0.36043705,0.454881,0.30437513,-0.37788872,0.461618
0.25280366,-0.22213005,0.415093,0.28376564,-0.24299831,0.406022,0.25904313,-0.20634937,0.398361,0.25443428,-0.20737375,0.372145,0.26150598,-0.2050873,0.350676,0.27019737,-0.20565578,0.34088,0.30271696,-0.23500246,0.37807,0.26702474,-0.22963606,0.353297,0.26289668,-0.22566085,0.365475,0.25842773,-0.22309119,0.380115,0.3052254,-0.25682728,0.397384,0.27368721,-0.26633381,0.379011,0.24880216,-0.24159293,0.368294,0.23881743,-0.23219127,0.373946,0.30210717,-0.27789644,0.414266,0.26589777,-0.27951295,0.392515,0.25763744,-0.29367576,0.404826,0.25191298,-0.2869316,0.418526,0.29355746,-0.29791661,0.435566,0.29914391,-0.33915006,0.44819,0.30201244,-0.35890205,0.454879,0.3043773,-0.37649551,0.460797
0.25481103,-0.22214882,0.416354,0.2846805,-0.24334235,0.406546,0.26121589,-0.20663143,0.399443,0.25459469,-0.20832628,0.372956,0.26186711,-0.2030599,0.351476,0.27188745,-0.20474507,0.342025,0.30237773,-0.23526046,0.377859,0.2660271,-0.22947766,0.352416,0.26178767,-0.22536374,0.36438,0.25836766,-0.22253801,0.3792,0.30462619,-0.25727602,0.397204,0.27611772,-0.26721308,0.378067,0.25066132,-0.24426814,0.366903,0.24226058,-0.23474817,0.372206,0.30182258,-0.27780943,0.414192,0.26494291,-0.27922038,0.39177,0.25708411,-0.29216251,0.403868,0.25190012,-0.285507,0.417754,0.29359478,-0.29719662,0.435753,0.29904134,-0.33827145,0.447996,0.30168618,-0.35799941,0.454432,0.30378031,-0.37562801,0.460111
0.25598024,-0.22108044,0.416014,0.28540035,-0.24337674,0.406689,0.26241088,-0.20590589,0.398721,0.27784053,-0.20932516,0.37749,0.27895297,-0.21119732,0.356623,0.28669142,-0.21673061,0.346915,0.30394389,-0.2369696,0.377834,0.26661659,-0.23143302,0.35271,0.26217897,-0.22658144,0.364041,0.25885309,-0.22304869,0.378482,0.30518549,-0.25896042,0.397809,0.27472977,-0.26938786,0.379353,0.24962334,-0.2450883,0.368587,0.24117553,-0.23410739,0.373563,0.30250926,-0.27838432,0.415263,0.26530936,-0.27994995,0.393254,0.25658932,-0.2907868,0.404724,0.2534389,-0.28247312,0.418193,0.29467264,-0.29551409,0.437275,0.29918529,-0.33590189,0.448062,0.30068329,-0.35555862,0.453509,0.30163325,-0.37386466,0.458315
0.25699108,-0.21990726,0.415206,0.28527224,-0.24282436,0.405501,0.26491687,-0.20478545,0.397555,0.27607025,-0.20873296,0.375174,0.27796734,-0.21109412,0.354103,0.28440167,-0.21721644,0.344021,0.30284941,-0.23867595,0.375921,0.26568434,-0.23543168,0.350401,0.26150034,-0.22955072,0.36117,0.2586103,-0.22298694,0.375542,0.30331517,-0.26034289,0.396258,0.27268265,-0.26868927,0.377519,0.24734123,-0.24643203,0.366588,0.23907385,-0.23414245,0.37106,0.30159052,-0.27769121,0.414052,0.26379711,-0.2792437,0.391697,0.25487855,-0.28919506,0.402607,0.25026681,-0.28177234,0.415992,0.29503211,-0.29528671,0.43653,0.29821701,-0.33471178,0.446794,0.29933471,-0.35500149,0.45195,0.29994123,-0.37236654,0.456499
0.25826172,-0.21895563,0.414819,0.28553675,-0.24273655,0.404955,0.2649557,-0.20479341,0.397075,0.27536423,-0.20864591,0.374363,0.27895958,-0.21038199,0.353651,0.28592367,-0.21632883,0.343799,0.30225648,-0.23890608,0.375147,0.26479839,-0.23553917,0.349476,0.2605671,-0.22951561,0.3601,0.25806052,-0.22328819,0.374474,0.3027594,-0.26029311,0.395562,0.27149701,-0.26849866,0.376684,0.24590785,-0.24635916,0.365672,0.23923039,-0.23424503,0.369998,0.30121775,-0.27724995,0.413436,0.26286216,-0.27897414,0.39094,0.253119,-0.28775759,0.401705,0.24953825,-0.27996064,0.415089,0.29450942,-0.2948182,0.436037,0.29741529,-0.33401207,0.445862,0.29808295,-0.35414182,0.450729,0.29807392,-0.37161036,0.455024
0.2597388,-0.21890448,0.41518,0.28603041,-0.24308649,0.404832,0.2665153,-0.2051265,0.397168,0.27469996,-0.20854448,0.373597,0.27919919,-0.20961399,0.352844,0.28659454,-0.21536893,0.343188,0.30147297,-0.23896671,0.374344,0.26356609,-0.2352044,0.348217,0.25911885,-0.22887488,0.358407,0.25695293,-0.22296146,0.372788,0.3021854,-0.26029376,0.394976,0.27195737,-0.27544482,0.375672,0.24539617,-0.25634489,0.364412,0.23689861,-0.24516886,0.368299,0.30067312,-0.27736839,0.413081,0.26187838,-0.27862796,0.390157,0.25180299,-0.28699374,0.400489,0.24738199,-0.27889985,0.413873,0.29360893,-0.29436454,0.436042,0.29656667,-0.33347669,0.44512,0.2967775,-0.35332826,0.44959,0.29552334,-0.37086023,0.453533
0.26022018,-0.22010701,0.416088,0.28572141,-0.24479735,0.404742,0.26699439,-0.20666703,0.398285,0.27476352,-0.20895379,0.374293,0.2795497,-0.20929608,0.353455,0.28831624,-0.21339546,0.343971,0.30091989,-0.23896226,0.373849,0.26258818,-0.23458677,0.346913,0.2583156,-0.22885231,0.357545,0.2568551,-0.22430878,0.372423,0.30110058,-0.26057159,0.393936,0.26870731,-0.26659036,0.373423,0.24034292,-0.24574787,0.361456,0.23453997,-0.23176354,0.365397,0.29941466,-0.27800773,0.4117,0.26301884,-0.28484229,0.387881,0.25166386,-0.28628771,0.39865,0.24799314,-0.27967008,0.41257,0.29227053,-0.29740121,0.434452,0.29728239,-0.33602404,0.445082,0.2998674,-0.35553255,0.45073,0.30024137,-0.37193459,0.455714
0.26034848,-0.22087168,0.416226,0.28541094,-0.24504758,0.404369,0.26685949,-0.20759276,0.39823,0.27435557,-0.20874605,0.373815,0.27906643,-0.20854375,0.352651,0.28768415,-0.21238269,0.342908,0.30022166,-0.2386089,0.372879,0.2617832,-0.23389359,0.345481,0.25705064,-0.22914032,0.355806,0.2560284,-0.22509635,0.370743,0.30070827,-0.26113866,0.393077,0.26753264,-0.2657914,0.372079,0.23906132,-0.24560836,0.35983,0.23430452,-0.23318344,0.363416,0.2989392,-0.27804693,0.410987,0.2629042,-0.28457551,0.386719,0.25290482,-0.28706114,0.39718,0.24763805,-0.28114378,0.411159,0.29215543,-0.29753835,0.434005,0.29711746,-0.33561703,0.444691,0.29964045,-0.35503163,0.450469,0.30072934,-0.37188081,0.455567
0.25973155,-0.22145494,0.415477,0.28471308,-0.24486417,0.403418,0.2661314,-0.20830755,0.397436,0.27388074,-0.20828102,0.372825,0.27989455,-0.20716143,0.351582,0.2888084,-0.21087326,0.34185,0.29906808,-0.23624678,0.371733,0.26815109,-0.23361981,0.344159,0.26287506,-0.23335147,0.354415,0.26065714,-0.23521674,0.369393,0.29981848,-0.25936936,0.391933,0.27103953,-0.26406918,0.370731,0.24324729,-0.25245909,0.358363,0.23451464,-0.23831736,0.361846,0.29821988,-0.27718389,0.409868,0.26911993,-0.28537983,0.385422,0.26179457,-0.29291866,0.395729,0.25514478,-0.29278042,0.409771,0.29166124,-0.29730958,0.432951,0.29670965,-0.3353185,0.444293,0.29976571,-0.35537994,0.450405,0.30104876,-0.37268119,0.455799
0.25898827,-0.22175361,0.415275,0.28430339,-0.24469224,0.403042,0.26568109,-0.20867926,0.397757,0.27364513,-0.20814113,0.372892,0.28183709,-0.20127274,0.351669,0.29349007,-0.20596129,0.342851,0.29961829,-0.23322584,0.371919,0.26977706,-0.23157446,0.344303,0.26495847,-0.2321212,0.355439,0.2603732,-0.23239247,0.370785,0.29987381,-0.25798052,0.391392,0.27346855,-0.26396424,0.369784,0.24648224,-0.25095904,0.357179,0.2355122,-0.23810877,0.361247,0.29770248,-0.27637451,0.408745,0.27090455,-0.28367701,0.384152,0.26441237,-0.29210857,0.395418,0.25772998,-0.29260143,0.409849,0.2913585,-0.29844623,0.431187,0.30171268,-0.33653966,0.440168,0.30464376,-0.35586447,0.444821,0.30312041,-0.37083813,0.448927
0.25776693,-0.22175171,0.413286,0.28392924,-0.24457308,0.40186,0.2646988,-0.20862788,0.396045,0.27334379,-0.20736087,0.372024,0.28245799,-0.20127793,0.351408,0.2915612,-0.2056262,0.341986,0.3024946,-0.23331467,0.371646,0.2724888,-0.22975534,0.344765,0.26663474,-0.23210082,0.356311,0.26426772,-0.23444768,0.371531,0.30310322,-0.25798156,0.390978,0.27692891,-0.26270599,0.370157,0.25028747,-0.25117572,0.358012,0.2401416,-0.24068017,0.362588,0.30087433,-0.27742708,0.408128,0.27467205,-0.28283819,0.384256,0.26865019,-0.29181515,0.395932,0.25957613,-0.29278433,0.410236,0.29311756,-0.29799857,0.430184,0.30263505,-0.33564193,0.439639,0.3057133,-0.3550049,0.44447,0.30774081,-0.37352166,0.448733
0.25126177,-0.21511332,0.401717,0.29052969,-0.23262149,0.401365,0.26268775,-0.20294355,0.390045,0.27888912,-0.19917747,0.374593,0.28654256,-0.20295891,0.356532,0.29689561,-0.20869156,0.348366,0.31854315,-0.22701959,0.385924,0.30192796,-0.22977397,0.370573,0.3047661,-0.24277146,0.387573,0.30107751,-0.25137458,0.400422,0.31515822,-0.25101481,0.401031,0.30431978,-0.25671255,0.391498,0.28237364,-0.23437712,0.385938,0.28472669,-0.22983122,0.397405,0.30879783,-0.26917865,0.413508,0.29300685,-0.27717665,0.400613,0.29257395,-0.29342709,0.417727,0.27794156,-0.3025603,0.429772,0.29489094,-0.28701126,0.428057,0.3021962,-0.32973677,0.438982,0.30616603,-0.34985753,0.444891,0.30897828,-0.37265916,0.450105
0.25535776,-0.21461156,0.405849,0.29255767,-0.23119362,0.402842,0.26782302,-0.20027818,0.393335,0.28205944,-0.19814805,0.377086,0.29369761,-0.19810697,0.361069,0.30056783,-0.2060865,0.350795,0.3183047,-0.22415367,0.3845,0.30357054,-0.21851445,0.366471,0.31685082,-0.23249144,0.383016,0.3199836,-0.2344746,0.39674,0.31525816,-0.24831602,0.399977,0.30145346,-0.25213456,0.387525,0.27671679,-0.23178019,0.380261,0.26701393,-0.22869372,0.390688,0.30936558,-0.26680926,0.413046,0.30517562,-0.27532608,0.397514,0.3023943,-0.28782002,0.414172,0.29171879,-0.29251361,0.427099,0.29627776,-0.28534278,0.428781,0.30578476,-0.32460224,0.437447,0.31072481,-0.34443123,0.44286,0.31519086,-0.36198426,0.447796
0.25753796,-0.2146867,0.408336,0.29370252,-0.23124647,0.404094,0.27068252,-0.19856352,0.395683,0.28346513,-0.19818239,0.378408,0.29299176,-0.20030821,0.361733,0.30215561,-0.20634361,0.352344,0.318718,-0.22382089,0.384734,0.30267303,-0.21829567,0.365591,0.31591033,-0.23227168,0.382118,0.31943308,-0.23450734,0.396275,0.3154841,-0.2478518,0.400055,0.30034117,-0.25079452,0.386231,0.2745538,-0.23088478,0.378167,0.26519172,-0.22734826,0.388253,0.30954851,-0.26629643,0.413128,0.30399395,-0.2748129,0.396452,0.30121609,-0.28723744,0.413089,0.29090928,-0.29217429,0.42647,0.29657807,-0.2848913,0.4291,0.30388044,-0.32597607,0.437423,0.31022578,-0.34462332,0.442984,0.3124159,-0.36370663,0.44789
0.25760801,-0.21724801,0.409726,0.29354376,-0.23226319,0.404153,0.26710359,-0.20415691,0.395681,0.26968361,-0.20499654,0.375722,0.2876673,-0.19735939,0.361569,0.30716563,-0.19757377,0.361253,0.31645214,-0.22321932,0.382075,0.29393281,-0.23105492,0.366579,0.30075027,-0.24925157,0.382121,0.29424694,-0.25092452,0.394445,0.31464356,-0.2479039,0.398845,0.29330263,-0.25505427,0.383733,0.2694009,-0.23198289,0.374918,0.26147804,-0.22589388,0.383723,0.30993032,-0.26702572,0.413256,0.29446198,-0.28035017,0.395049,0.29661355,-0.28773635,0.410425,0.28935362,-0.29033371,0.423919,0.29845055,-0.28661981,0.431031,0.30658086,-0.32911237,0.441848,0.3085878,-0.35026321,0.448081,0.31536895,-0.3677728,0.453819
0.25873307,-0.21771532,0.41118,0.29395218,-0.2332721,0.404882,0.26808846,-0.20389818,0.396748,0.26972524,-0.20502819,0.37578,0.28737691,-0.19716015,0.361204,0.30678471,-0.19732875,0.360805,0.31619298,-0.22363239,0.381808,0.29285275,-0.23020591,0.365232,0.2993926,-0.24812638,0.380396,0.29239349,-0.25109121,0.392994,0.31474177,-0.24840885,0.398883,0.29369057,-0.25551752,0.383029,0.26795438,-0.23490953,0.37378,0.26049145,-0.22636195,0.38213,0.3103768,-0.26765027,0.413623,0.2941914,-0.28009257,0.394686,0.2953362,-0.28795215,0.409701,0.28905467,-0.28989487,0.423346,0.29938463,-0.28747499,0.431916,0.30711712,-0.32983107,0.442942,0.30952607,-0.35055018,0.449335,0.31549471,-0.36829492,0.455013
0.26058197,-0.21781172,0.413268,0.29494135,-0.23401824,0.40646,0.26983194,-0.20342389,0.398521,0.27008744,-0.20469207,0.3767,0.28735616,-0.19602648,0.361649,0.30695747,-0.19594615,0.361567,0.31673488,-0.22355028,0.382631,0.29358743,-0.2275541,0.364436,0.29881936,-0.24371728,0.379228,0.29196777,-0.2502988,0.392316,0.31571688,-0.24853754,0.399977,0.2979729,-0.25453952,0.383615,0.27159757,-0.23722076,0.37407,0.26308834,-0.23248309,0.382056,0.31172665,-0.26802445,0.414995,0.29763342,-0.27803212,0.395541,0.29708581,-0.287574,0.410242,0.29057346,-0.29062709,0.42397,0.30164423,-0.28913533,0.433706,0.31052311,-0.33119211,0.447068,0.3147536,-0.35147344,0.454123,0.31855303,-0.36940822,0.460442
0.26646923,-0.22107462,0.422063,0.29876159,-0.23689674,0.412187,0.27789679,-0.20093524,0.406796,0.2681629,-0.19966595,0.381263,0.28193841,-0.18787821,0.36309,0.3047699,-0.19045774,0.363368,0.31868988,-0.22345047,0.385594,0.28614947,-0.21600329,0.360626,0.29140491,-0.22953784,0.37475,0.28932069,-0.22889808,0.390245,0.31779789,-0.24980169,0.40278,0.29661158,-0.25447705,0.383121,0.2685544,-0.23500908,0.371653,0.25926912,-0.2295464,0.3785,0.31404402,-0.26948426,0.417997,0.29694562,-0.27967498,0.395735,0.29873317,-0.29004361,0.409975,0.29162033,-0.29190639,0.424653,0.30542235,-0.29018763,0.437516,0.31260649,-0.33193061,0.449011,0.31995367,-0.35042058,0.456197,0.32123979,-0.37054095,0.462537
0.27026365,-0.22193842,0.427381,0.3003218,-0.23794541,0.414975,0.27997962,-0.20251995,0.411032,0.27514869,-0.19349372,0.385035,0.28184273,-0.1858642,0.363076,0.29849994,-0.18477476,0.35941,0.31625956,-0.22139006,0.385257,0.27526812,-0.21454839,0.357829,0.27546028,-0.2280632,0.37064,0.26865935,-0.23330958,0.386582,0.31776322,-0.24759465,0.403159,0.29483721,-0.254182,0.380992,0.26651936,-0.23406989,0.368061,0.25534056,-0.22714103,0.373292,0.31511209,-0.26795418,0.419238,0.2963589,-0.28024626,0.394603,0.29507891,-0.29048141,0.406179,0.2895141,-0.29076032,0.421729,0.30741061,-0.29116826,0.440234,0.31527316,-0.32991387,0.449182,0.31897042,-0.34878104,0.453881,0.3220293,-0.36727991,0.458028
0.27168323,-0.22063631,0.428817,0.30029361,-0.23778315,0.41543,0.28009287,-0.20266364,0.412128,0.27518499,-0.19351442,0.385093,0.2816657,-0.18508084,0.362861,0.29719818,-0.18373634,0.357881,0.31522443,-0.22074777,0.384604,0.27409154,-0.21365463,0.35627,0.2739619,-0.22686694,0.36861,0.26734928,-0.23223504,0.384721,0.31706192,-0.24706238,0.402681,0.29383765,-0.25345229,0.379544,0.2648076,-0.23306661,0.366048,0.2533093,-0.22606689,0.370682,0.314823,-0.26756385,0.41901,0.29592215,-0.27966932,0.393488,0.2932017,-0.28930169,0.404095,0.2881281,-0.29011625,0.419825,0.30763748,-0.29080904,0.440479,0.31525418,-0.32968354,0.448878,0.3189439,-0.34854277,0.453394,0.32189039,-0.36661067,0.457379
0.27265877,-0.21928935,0.43014,0.29982951,-0.23654225,0.415761,0.28013061,-0.20282941,0.413114,0.27507384,-0.19367817,0.385406,0.28154144,-0.18481332,0.362985,0.29642748,-0.1832672,0.357227,0.31332819,-0.21974078,0.383822,0.27255537,-0.21263821,0.354586,0.27212751,-0.22555778,0.366425,0.26571367,-0.23107984,0.382691,0.31619689,-0.24647072,0.402067,0.29259832,-0.25254112,0.377962,0.26297535,-0.23188384,0.3639,0.25114718,-0.2247594,0.367912,0.31431073,-0.26710906,0.418642,0.29512651,-0.27888121,0.392235,0.29021554,-0.28644917,0.401872,0.28650395,-0.28902689,0.417703,0.30759298,-0.29046506,0.440583,0.31497177,-0.3293851,0.448598,0.31866876,-0.34822498,0.453011,0.32164656,-0.36603765,0.456905
0.27261705,-0.2192117,0.430969,0.29958951,-0.23597785,0.416189,0.27975493,-0.2026747,0.413876,0.27468654,-0.19347274,0.385541,0.28049753,-0.18315217,0.362597,0.29518028,-0.18235099,0.356378,0.31312404,-0.21967395,0.38389,0.27222456,-0.21247067,0.354312,0.27173278,-0.22533549,0.366035,0.26539226,-0.23093314,0.38239,0.31594657,-0.24633754,0.402113,0.29230485,-0.25240609,0.377597,0.26234118,-0.23163135,0.363297,0.25040515,-0.22456115,0.36712,0.31418655,-0.26698889,0.418712,0.29502254,-0.27875722,0.391958,0.29003525,-0.28549789,0.401363,0.28597622,-0.28865101,0.417262,0.30762665,-0.29027054,0.440757,0.31491665,-0.32932539,0.448601,0.31862695,-0.34816791,0.452957,0.32164054,-0.3658098,0.456801
0.27051781,-0.21821976,0.429008,0.29873197,-0.23557521,0.416183,0.27880367,-0.20268321,0.414183,0.26577793,-0.18839023,0.383712,0.28323357,-0.17274759,0.370284,0.30726476,-0.17329168,0.37663,0.31589149,-0.22113912,0.388166,0.28042147,-0.20807886,0.360976,0.28418489,-0.21939202,0.375532,0.27990773,-0.22054171,0.392076,0.31611475,-0.24628779,0.403969,0.29773318,-0.24934135,0.381028,0.26525806,-0.23260026,0.367646,0.26213688,-0.22414417,0.374034,0.31368855,-0.26632816,0.418365,0.31144535,-0.26960599,0.393657,0.30314951,-0.27903585,0.408315,0.29713048,-0.27976922,0.424147,0.30519559,-0.28795413,0.437485,0.31185416,-0.3289524,0.446069,0.31567163,-0.34823207,0.450981,0.31910297,-0.36521835,0.45541
0.26939118,-0.21835369,0.428783,0.29816964,-0.23562588,0.416679,0.27804112,-0.20312295,0.414984,0.26612682,-0.18806275,0.385068,0.28814661,-0.1743561,0.377829,0.31377793,-0.175268,0.385522,0.31753791,-0.22214066,0.390487,0.29033423,-0.21751769,0.36433,0.28742936,-0.22096954,0.379914,0.28798059,-0.21886874,0.396461,0.31727715,-0.247121,0.405151,0.2993012,-0.25224935,0.38284,0.26685505,-0.23461548,0.369826,0.26414042,-0.22681145,0.377153,0.31361136,-0.26611469,0.418532,0.31218458,-0.27092269,0.394695,0.30468802,-0.2811662,0.410372,0.29852476,-0.28195672,0.42626,0.30426484,-0.28725099,0.436338,0.31022474,-0.32712374,0.443489,0.31571092,-0.34631506,0.448959,0.31974646,-0.36382814,0.453787
0.26949393,-0.21854342,0.43005,0.29849478,-0.2360358,0.417486,0.27797865,-0.20309808,0.416257,0.26670626,-0.18827961,0.386192,0.28861304,-0.17417399,0.378816,0.313734,-0.17467564,0.385772,0.31777424,-0.22219832,0.39099,0.29085943,-0.2173664,0.364469,0.28749514,-0.22071571,0.380032,0.28816436,-0.21900841,0.396714,0.31737977,-0.24721322,0.405521,0.29935832,-0.25174894,0.382718,0.26687904,-0.23453885,0.369416,0.26369803,-0.22674939,0.376608,0.31368876,-0.2663032,0.418841,0.31209557,-0.27107093,0.394617,0.30461681,-0.28133843,0.410271,0.2985283,-0.28225181,0.426306,0.30442669,-0.28709271,0.436663,0.31038212,-0.32686492,0.443124,0.3137976,-0.34633024,0.447174,0.3168791,-0.36333769,0.450885
0.26947008,-0.21852239,0.431134,0.29870098,-0.23619454,0.418046,0.27773858,-0.20282516,0.417268,0.26589025,-0.18667208,0.386962,0.28735212,-0.17157669,0.379302,0.3113811,-0.17115998,0.384648,0.31776007,-0.22193379,0.3911,0.29092671,-0.21678555,0.364128,0.28729583,-0.22004369,0.37959,0.28809307,-0.21848371,0.39641,0.31691566,-0.24677073,0.405582,0.30053995,-0.24958488,0.382229,0.26732275,-0.23365764,0.368606,0.26363893,-0.22656902,0.375587,0.31363898,-0.26622349,0.418918,0.31191226,-0.27062768,0.394232,0.30441874,-0.28086456,0.409784,0.29840299,-0.28189712,0.425965,0.30450685,-0.28672986,0.436857,0.31056698,-0.3264992,0.442778,0.31400337,-0.34587981,0.446369,0.31693327,-0.36285598,0.449625
0.26941398,-0.21840393,0.431885,0.29844591,-0.23592769,0.418467,0.27757566,-0.20261432,0.418048,0.26589147,-0.18634699,0.38766,0.28729744,-0.17108435,0.379933,0.31078833,-0.17029169,0.384503,0.31786892,-0.22181199,0.391333,0.2911176,-0.21654949,0.364112,0.28736383,-0.21978522,0.379573,0.28822683,-0.21834964,0.396491,0.31691807,-0.24665215,0.405687,0.30094642,-0.24951062,0.38198,0.26706651,-0.23325591,0.368151,0.26365272,-0.22650318,0.375045,0.31330606,-0.26595235,0.418955,0.31179978,-0.27035978,0.393998,0.3043423,-0.28061951,0.409549,0.29838218,-0.28173564,0.425838,0.30426141,-0.28658698,0.436876,0.31032481,-0.32651951,0.442423,0.31363512,-0.34576754,0.445882,0.31640265,-0.36270856,0.448943
0.26888516,-0.21914884,0.433424,0.29729114,-0.23603012,0.420171,0.27659472,-0.20282967,0.418915,0.25475493,-0.17653803,0.387959,0.2718604,-0.15367115,0.379235,0.296122,-0.15011993,0.387213,0.31097767,-0.2171033,0.392272,0.28124056,-0.21836708,0.364876,0.28140707,-0.21303841,0.379722,0.28863827,-0.21687921,0.396464,0.31126412,-0.24213359,0.407548,0.28835242,-0.24777364,0.3841,0.25790779,-0.22531944,0.370422,0.25878063,-0.21813093,0.37691,0.30877321,-0.26223069,0.421555,0.31335224,-0.27179122,0.39656,0.3061955,-0.28414157,0.41128,0.299304,-0.28480114,0.42746,0.30060395,-0.28452811,0.440305,0.31241542,-0.32605169,0.44695,0.31655854,-0.34441469,0.450913,0.32066876,-0.36161093,0.45441
0.26891055,-0.22126827,0.436105,0.29767048,-0.23740322,0.422837,0.27609271,-0.20405879,0.420728,0.23899402,-0.19138914,0.389007,0.25281028,-0.17700283,0.378863,0.26615608,-0.17179135,0.371199,0.31144563,-0.21563891,0.3938,0.28353686,-0.20895688,0.366029,0.28066356,-0.21196833,0.379974,0.27793936,-0.20853561,0.396503,0.31357917,-0.24215253,0.410202,0.28750885,-0.23948043,0.386885,0.25811051,-0.22585388,0.373283,0.24898153,-0.21766515,0.37911,0.31246015,-0.26382453,0.425138,0.28418151,-0.26386989,0.399935,0.27273957,-0.27346102,0.413984,0.26167206,-0.27766294,0.429774,0.30878228,-0.29125841,0.444969,0.31712999,-0.32970934,0.45039,0.32326233,-0.34822602,0.45418,0.32756778,-0.36502069,0.457524
0.26694778,-0.22186349,0.435773,0.29195787,-0.2362411,0.422957,0.27431506,-0.20442965,0.420779,0.23984754,-0.19245478,0.389541,0.25542813,-0.17836076,0.380175,0.269801,-0.17335186,0.373201,0.31158298,-0.21540364,0.394725,0.28409107,-0.20900469,0.367471,0.28143417,-0.21244672,0.381852,0.27873355,-0.20927011,0.398352,0.31372071,-0.24202656,0.410751,0.2877414,-0.23997596,0.387847,0.2580416,-0.22611189,0.374487,0.24945924,-0.21853727,0.380749,0.31255058,-0.26383728,0.425328,0.28411593,-0.26428339,0.40059,0.27243737,-0.27335084,0.415074,0.26214518,-0.27663371,0.430849,0.30806405,-0.29092932,0.444658,0.31507974,-0.33075079,0.448393,0.32122346,-0.34765705,0.452268,0.3299716,-0.36554905,0.455687
0.26073344,-0.22544179,0.43427,0.29197175,-0.24827987,0.424638,0.26393259,-0.20888339,0.420161,0.24207395,-0.20425654,0.390825,0.26059224,-0.1917265,0.383848,0.27582861,-0.18709911,0.377428,0.31389612,-0.22756763,0.399722,0.28883683,-0.22246561,0.37543,0.28680462,-0.2271805,0.390789,0.28431622,-0.22452066,0.406511,0.31605146,-0.25484204,0.415465,0.29489789,-0.25542842,0.395868,0.26292753,-0.24135887,0.384437,0.25651352,-0.2352854,0.392247,0.31459562,-0.27714842,0.429467,0.28782362,-0.27949109,0.40767,0.27618267,-0.28853522,0.423135,0.26643829,-0.2867364,0.438115,0.3067582,-0.3025172,0.44753,0.31732569,-0.34196029,0.450754,0.32196809,-0.36122905,0.452547,0.32610512,-0.37829877,0.454179
0.26027488,-0.2273741,0.434718,0.29214844,-0.24858672,0.424922,0.2642211,-0.21105034,0.420891,0.24409885,-0.202657,0.391751,0.2626543,-0.18289334,0.385174,0.27570005,-0.17628346,0.378448,0.31429778,-0.2279876,0.400261,0.28933708,-0.22267685,0.375959,0.28753803,-0.22745763,0.391591,0.28509267,-0.22486515,0.407425,0.31611555,-0.25508343,0.415593,0.2941417,-0.2553426,0.395778,0.26336521,-0.2419147,0.384219,0.25596156,-0.23607797,0.392185,0.31440639,-0.27723596,0.429274,0.28894804,-0.27971703,0.407406,0.27776403,-0.28928341,0.423139,0.26748102,-0.29144842,0.438255,0.30631601,-0.30243171,0.446995,0.31684339,-0.3419495,0.450213,0.32144202,-0.3612105,0.451953,0.32553802,-0.37827335,0.453534
0.25561227,-0.23490189,0.435553,0.29175259,-0.25040011,0.42589,0.26299756,-0.22084013,0.422741,0.24321411,-0.2062913,0.394607,0.25714349,-0.18260746,0.381829,0.27801915,-0.17857349,0.380976,0.31493119,-0.22966255,0.40264,0.29055613,-0.22457897,0.378924,0.28914137,-0.23005693,0.395458,0.28637384,-0.22781333,0.411422,0.31615631,-0.25633546,0.416687,0.29293933,-0.25650605,0.396904,0.26331659,-0.24322759,0.385365,0.25632739,-0.23811652,0.394027,0.31396923,-0.27814277,0.429295,0.28951027,-0.28086803,0.407824,0.27863464,-0.29102903,0.42445,0.26915259,-0.29330709,0.439762,0.30535136,-0.30301374,0.445747,0.31688307,-0.34251478,0.449151,0.32191591,-0.3617339,0.450908,0.32641375,-0.37878992,0.452525
0.25561722,-0.24507688,0.437806,0.29083725,-0.26405119,0.427652,0.2635406,-0.22551096,0.424969,0.24361529,-0.21811029,0.396641,0.26007642,-0.19499885,0.385152,0.27863786,-0.19086065,0.383503,0.31348851,-0.24057707,0.404038,0.28952085,-0.23534272,0.379914,0.28787461,-0.24208279,0.396415,0.28456156,-0.2410125,0.412526,0.3155023,-0.26792569,0.417982,0.29275867,-0.26810655,0.397672,0.26250461,-0.25510278,0.385825,0.25529179,-0.25059327,0.394334,0.31395525,-0.29056365,0.430559,0.29107159,-0.29356312,0.40866,0.27972782,-0.30438142,0.425251,0.27166135,-0.30696875,0.440722,0.30603564,-0.31689639,0.447065,0.31843814,-0.35502842,0.449075,0.32390438,-0.37361317,0.450178,0.32873036,-0.3900246,0.45115
0.25494327,-0.24714821,0.437444,0.29050425,-0.26383808,0.427204,0.26283217,-0.22746458,0.424685,0.24339636,-0.21800024,0.396403,0.25950053,-0.19578947,0.385016,0.27833627,-0.19125845,0.383825,0.31320566,-0.24038276,0.403633,0.28921147,-0.23513517,0.379477,0.28760215,-0.24191472,0.396038,0.28430318,-0.24085942,0.412186,0.31512119,-0.26766198,0.417452,0.29230261,-0.26778305,0.397042,0.26200799,-0.25474062,0.385137,0.25481065,-0.25024613,0.393668,0.31350334,-0.29024141,0.429935,0.29058358,-0.29321075,0.407986,0.27927762,-0.30407944,0.424637,0.27123376,-0.30669763,0.440152,0.30552036,-0.31651327,0.44635,0.3180221,-0.35475002,0.448502,0.3235293,-0.37338406,0.449661,0.32841256,-0.38986649,0.45071
0.25307434,-0.24029809,0.434246,0.28713739,-0.25367484,0.425632,0.25919407,-0.22473529,0.420005,0.23842023,-0.21394501,0.390925,0.25686385,-0.19790875,0.384018,0.27238131,-0.19088221,0.377956,0.3078557,-0.23491177,0.401235,0.2875422,-0.23450073,0.377725,0.28475424,-0.2399641,0.392939,0.28157358,-0.23789804,0.408295,0.30964131,-0.26186761,0.417429,0.29325737,-0.26922088,0.398969,0.26397831,-0.25703667,0.3882,0.25627009,-0.25156433,0.396172,0.30781803,-0.28375234,0.431692,0.28601213,-0.29129604,0.41075,0.27341003,-0.30093251,0.426075,0.27021208,-0.30258717,0.440654,0.29946061,-0.30839216,0.449867,0.32793012,-0.31921418,0.440608,0.32484113,-0.32695421,0.436354,0.32211978,-0.33432126,0.432601
0.2495861,-0.24400655,0.429954,0.29188237,-0.26647774,0.430496,0.25784558,-0.22986296,0.420242,0.24603338,-0.22022637,0.399104,0.25550888,-0.20222788,0.384429,0.27463262,-0.19986365,0.383837,0.32086381,-0.25225955,0.418213,0.3241163,-0.26052041,0.404617,0.31950949,-0.27269536,0.423073,0.31568585,-0.2735635,0.435812,0.31992718,-0.27814133,0.431011,0.31297862,-0.28839854,0.422348,0.28867785,-0.2784988,0.417294,0.27993416,-0.27410971,0.430073,0.31533853,-0.29872109,0.441492,0.30489512,-0.30906012,0.430014,0.29627658,-0.32098626,0.448568,0.28298552,-0.31893324,0.460616,0.30294109,-0.32116564,0.453556,0.32081789,-0.35958355,0.462112,0.32950817,-0.37761492,0.466874,0.33813314,-0.39458421,0.472467
0.24906234,-0.24476368,0.429241,0.29083225,-0.26620413,0.429645,0.25758252,-0.23039021,0.419442,0.24601558,-0.22012761,0.398158,0.25575729,-0.20294767,0.384217,0.2739073,-0.19993966,0.382709,0.31992979,-0.25140857,0.417155,0.32789867,-0.26503162,0.411741,0.32289033,-0.2769967,0.430593,0.31730854,-0.27558018,0.440261,0.31907089,-0.27730067,0.43003,0.31234555,-0.28756358,0.421214,0.28770823,-0.27705979,0.416072,0.28103094,-0.27350345,0.42878,0.31456451,-0.29792214,0.440588,0.30435456,-0.30826451,0.428956,0.29632634,-0.32012641,0.447464,0.28296364,-0.31838634,0.459555,0.30228934,-0.32047749,0.452768,0.32083324,-0.35952283,0.462346,0.32988433,-0.37792631,0.467635,0.33856909,-0.39493388,0.473321
0.24681255,-0.24390857,0.426504,0.28946799,-0.26389944,0.429798,0.2570007,-0.23072821,0.419905,0.26347108,-0.22402763,0.403231,0.28939853,-0.21155606,0.402094,0.31345682,-0.20914837,0.409138,0.31800139,-0.24386175,0.423439,0.31608605,-0.24380831,0.413978,0.31290415,-0.24666719,0.434029,0.30463614,-0.24544354,0.446692,0.31773918,-0.26978095,0.432935,0.31784569,-0.27731084,0.427381,0.29416714,-0.27455441,0.424142,0.28674972,-0.27941591,0.438853,0.31349927,-0.29066966,0.440399,0.31088379,-0.30002455,0.432573,0.30240596,-0.32143134,0.452702,0.28610571,-0.32152282,0.463903,0.29997779,-0.31628494,0.448444,0.31824538,-0.35567234,0.45788,0.32737662,-0.37448629,0.463373,0.33637864,-0.39216043,0.469564
0.24577105,-0.24380768,0.425344,0.28854393,-0.26302877,0.428949,0.25628404,-0.23055299,0.41944,0.26607831,-0.22546493,0.403675,0.29711617,-0.21680089,0.405382,0.31734445,-0.212521,0.410217,0.31905929,-0.24442596,0.423707,0.31756246,-0.24478654,0.414938,0.31462772,-0.24771772,0.435294,0.30630313,-0.2463336,0.447859,0.31809785,-0.26983261,0.432382,0.31833884,-0.27760325,0.427212,0.29477496,-0.27486524,0.424195,0.28720854,-0.27951784,0.439222,0.31328648,-0.29020088,0.439138,0.31090367,-0.29991134,0.431882,0.30268252,-0.32021373,0.45231,0.28726621,-0.3221585,0.4634,0.30121266,-0.31504797,0.446301,0.31685927,-0.35359538,0.4552,0.32596797,-0.37259478,0.460757,0.33483225,-0.39030386,0.46683
0.24918087,-0.25389937,0.43316,0.29078893,-0.27026884,0.432534,0.26019554,-0.23805838,0.426366,0.2780949,-0.22595562,0.407932,0.3038075,-0.21177152,0.408898,0.32749596,-0.21034978,0.420418,0.32312465,-0.25482548,0.42326,0.31596801,-0.25375543,0.410371,0.31508269,-0.25969069,0.430601,0.30698895,-0.25914043,0.443769,0.31993425,-0.27893443,0.431938,0.31399657,-0.28735067,0.421992,0.28878895,-0.27851952,0.416191,0.28292379,-0.27988947,0.429992,0.31371201,-0.29810397,0.439151,0.30541534,-0.30782082,0.427753,0.30226721,-0.32637258,0.448048,0.28814991,-0.33229547,0.460759,0.3016571,-0.32396591,0.447641,0.31627458,-0.36126815,0.452845,0.32507814,-0.38062605,0.458351,0.33476766,-0.39528483,0.466836
0.24902239,-0.25507303,0.433273,0.28998033,-0.27067877,0.431858,0.26009552,-0.23909849,0.426634,0.27809222,-0.22610913,0.408079,0.3039443,-0.2118737,0.409044,0.32765249,-0.21037145,0.420428,0.32170975,-0.25419719,0.422249,0.31648249,-0.25391845,0.408799,0.31536313,-0.2603444,0.429123,0.30830487,-0.26024986,0.442549,0.31867928,-0.27836697,0.430509,0.31688019,-0.2851207,0.419702,0.29538796,-0.28209879,0.413397,0.28383335,-0.28391793,0.427061,0.31264746,-0.29772112,0.437464,0.30413473,-0.30630441,0.42544,0.30052965,-0.32516546,0.445824,0.28661629,-0.3312873,0.458822,0.30043839,-0.32308562,0.445803,0.3145566,-0.35982613,0.45025,0.32286971,-0.37860465,0.455053,0.33108847,-0.39620004,0.460544
0.2482223,-0.25677323,0.432237,0.29046745,-0.26932668,0.430845,0.25951302,-0.23926375,0.425685,0.27801674,-0.22568868,0.407239,0.30370306,-0.21158089,0.407492,0.32689445,-0.20963159,0.417563,0.32109033,-0.25373833,0.421366,0.31696919,-0.2538847,0.407992,0.31574928,-0.26043769,0.428352,0.30902175,-0.26042613,0.441764,0.31826663,-0.27803798,0.42952,0.31939855,-0.28545507,0.418744,0.29530513,-0.28152906,0.412458,0.28459808,-0.28384943,0.426156,0.31239084,-0.29754619,0.436384,0.30725084,-0.30693047,0.424418,0.30021445,-0.32464775,0.444839,0.2863449,-0.3307246,0.457828,0.3003403,-0.32253522,0.444613,0.31425896,-0.35906721,0.448713,0.32261489,-0.37789962,0.453543,0.33084955,-0.39478905,0.457806
0.24592683,-0.25405751,0.42863,0.28844901,-0.26760118,0.428834,0.25789523,-0.23743867,0.423497,0.27742655,-0.22497523,0.407302,0.30144805,-0.2086652,0.407203,0.32320261,-0.20497034,0.414971,0.31921553,-0.25018244,0.422286,0.3178983,-0.24366632,0.411148,0.32582856,-0.25152238,0.432026,0.31711285,-0.25178359,0.444761,0.31793923,-0.27707777,0.429028,0.32163088,-0.27539992,0.420121,0.30214473,-0.272593,0.414926,0.29306357,-0.27868803,0.429447,0.31156826,-0.29598914,0.434557,0.32354476,-0.29801261,0.424623,0.32068718,-0.31682144,0.445552,0.30632391,-0.32679227,0.457924,0.30016996,-0.31789157,0.440937,0.31707712,-0.35327586,0.44468,0.32540637,-0.37287386,0.44868,0.33314063,-0.390659,0.452696
0.24082637,-0.24965499,0.419672,0.28541592,-0.26540264,0.424642,0.2534755,-0.23411011,0.416448,0.27520668,-0.22290987,0.404375,0.29730556,-0.20436152,0.402315,0.3218671,-0.20303449,0.410623,0.3204273,-0.25083806,0.423818,0.33694111,-0.25290742,0.41795,0.34142587,-0.25987208,0.439206,0.33168033,-0.25924747,0.450013,0.31832297,-0.2768488,0.429375,0.32674984,-0.27829367,0.425966,0.30214958,-0.26902907,0.423977,0.29875068,-0.2739712,0.440072,0.31119561,-0.29499387,0.433416,0.32695113,-0.30081638,0.428595,0.32362087,-0.31969562,0.449901,0.3076509,-0.3278441,0.460359,0.29906151,-0.31627014,0.437172,0.318281,-0.3536186,0.44339,0.32784502,-0.37243938,0.448027,0.33715478,-0.3900479,0.453284
0.2415189,-0.25197067,0.420071,0.28563508,-0.26605201,0.424107,0.25364834,-0.23566465,0.416401,0.2740918,-0.22114407,0.40342,0.29633198,-0.20324983,0.400976,0.31789358,-0.19828594,0.406548,0.3204428,-0.25182858,0.422067,0.33553354,-0.25137069,0.415107,0.34002564,-0.25830888,0.436293,0.33062059,-0.25792808,0.447502,0.3175545,-0.27565876,0.427951,0.32557477,-0.27653068,0.423446,0.30131572,-0.26758811,0.420818,0.29656111,-0.27206946,0.436605,0.3120957,-0.29382293,0.432362,0.32601776,-0.2996174,0.426495,0.32249464,-0.31837938,0.447731,0.3067956,-0.32665784,0.458584,0.30050042,-0.3154912,0.436723,0.31842864,-0.35349029,0.442726,0.32826638,-0.37262908,0.447711,0.33766857,-0.39035518,0.453062
0.24061371,-0.25156442,0.419098,0.28287358,-0.26311819,0.42163,0.25370181,-0.23606056,0.417082,0.27479532,-0.22137788,0.405562,0.30253015,-0.20810536,0.407721,0.32556582,-0.20468363,0.415164,0.31826956,-0.25365476,0.420724,0.32364887,-0.25782962,0.413656,0.32303954,-0.26537998,0.435328,0.31321463,-0.2637876,0.446775,0.31162986,-0.27561723,0.424042,0.32714806,-0.28420846,0.418089,0.30267755,-0.27408524,0.414617,0.29549549,-0.27942412,0.430398,0.30229357,-0.29332628,0.426501,0.32192356,-0.30172653,0.420128,0.31867486,-0.31508188,0.441829,0.30357309,-0.3226437,0.453072,0.28188014,-0.31235714,0.42888,0.31450582,-0.34280532,0.440872,0.33031901,-0.35774381,0.447877,0.34473706,-0.37144149,0.454773
0.24019884,-0.25191481,0.418885,0.28270922,-0.26491026,0.42093,0.25283894,-0.23585071,0.416274,0.27302908,-0.22060599,0.403829,0.29840285,-0.2050526,0.403929,0.3208676,-0.20125042,0.410486,0.31733178,-0.25174398,0.418918,0.32127201,-0.255913,0.412064,0.32042272,-0.26340252,0.433679,0.31164407,-0.26290301,0.445018,0.31263414,-0.27441245,0.422877,0.32661013,-0.28263098,0.416299,0.30124801,-0.27331105,0.412461,0.29444905,-0.27823162,0.428018,0.30379555,-0.29310277,0.425918,0.32145744,-0.29747978,0.418814,0.31810397,-0.31471547,0.440406,0.30321015,-0.32204506,0.451901,0.28806826,-0.31348307,0.429062,0.32211713,-0.34061383,0.438169,0.3387547,-0.35422579,0.444107,0.35373138,-0.36657065,0.449837
0.239362,-0.25114137,0.416592,0.28180394,-0.26417273,0.419638,0.25186385,-0.2351184,0.413885,0.27099662,-0.21954894,0.401696,0.29745011,-0.2048781,0.402961,0.32045782,-0.20174422,0.410081,0.31614523,-0.25229824,0.418181,0.32094611,-0.2445963,0.411051,0.33359145,-0.25028309,0.432558,0.33752348,-0.24940518,0.443963,0.31152998,-0.27505547,0.42254,0.32484964,-0.27343733,0.417053,0.30310281,-0.26977424,0.413852,0.29474126,-0.27457513,0.429632,0.30386735,-0.29332201,0.425801,0.32152792,-0.29471167,0.419527,0.31840138,-0.31271279,0.441072,0.30370258,-0.32127545,0.452212,0.28905379,-0.3141702,0.429013,0.32208589,-0.34117267,0.437594,0.33846593,-0.35491299,0.443536,0.35327395,-0.36742961,0.449345
0.2387905,-0.25081071,0.415035,0.28116214,-0.26365972,0.418727,0.25150434,-0.23510455,0.41279,0.27069636,-0.21915157,0.401421,0.29745665,-0.20477907,0.4035,0.32291292,-0.20441046,0.414128,0.31596448,-0.25244387,0.418311,0.32193534,-0.24528287,0.412044,0.33441973,-0.25090451,0.433632,0.33810583,-0.2498355,0.444729,0.31122386,-0.27499589,0.422244,0.32612105,-0.27419282,0.417537,0.30437016,-0.26968247,0.414791,0.29605136,-0.27532022,0.430811,0.30346009,-0.293029,0.425085,0.32209818,-0.29476494,0.419612,0.31894342,-0.31226618,0.441235,0.30381883,-0.32047502,0.452083,0.28850185,-0.31344177,0.427688,0.32161325,-0.34086968,0.436774,0.33801593,-0.35477171,0.442882,0.35283998,-0.36742389,0.448823
0.23520448,-0.24513667,0.408159,0.28052098,-0.25069721,0.415114,0.24862227,-0.23073598,0.407686,0.28899825,-0.21732034,0.417414,0.31535,-0.21638855,0.417694,0.33598387,-0.21966078,0.41736,0.31711973,-0.24608273,0.419221,0.32615907,-0.23109198,0.416962,0.3339672,-0.23268823,0.438702,0.33216439,-0.22743353,0.448279,0.31326911,-0.26431958,0.421738,0.33633683,-0.25898429,0.420942,0.31280379,-0.25322422,0.420477,0.30900565,-0.2638461,0.437513,0.30684,-0.28127652,0.423062,0.32004811,-0.27375335,0.421396,0.31301964,-0.28127807,0.443166,0.30364446,-0.28816998,0.455022,0.2918112,-0.29920682,0.42329,0.32296669,-0.32686367,0.428383,0.33862739,-0.34097529,0.432903,0.35277626,-0.35376854,0.437397
0.2332928,-0.24096401,0.401978,0.28240191,-0.26226063,0.419455,0.24873011,-0.22938243,0.406355,0.28445562,-0.21077863,0.409223,0.30658749,-0.19370291,0.406224,0.31400845,-0.19655229,0.400494,0.31687679,-0.25364313,0.437024,0.36243541,-0.2592016,0.44807,0.38749422,-0.26569677,0.468907,0.39240435,-0.2619109,0.472872,0.31614945,-0.27386768,0.4361,0.3543746,-0.2737501,0.448257,0.3733324,-0.27155295,0.455348,0.37859153,-0.27743238,0.474636,0.31360755,-0.29272959,0.433456,0.34927696,-0.29365064,0.44405,0.34663612,-0.31119381,0.464877,0.32867293,-0.31654308,0.468918,0.30054691,-0.30475041,0.427101,0.33187571,-0.34087351,0.445089,0.34678316,-0.35797993,0.45415,0.36163364,-0.37479418,0.462145
