sluyters/QuantumLeap/backend/src/datasets/gesture/HandGestureDataset_SHREC2017_csv/Gesture5/finger_1/subject_5_essai_3_skeletons_world.csv
Wrist_x,Wrist_y,Wrist_z,Palm_x,Palm_y,Palm_z,thumb_base_x,thumb_base_y,thumb_base_z,thumb_first_joint_x,thumb_first_joint_y,thumb_first_joint_z,thumb_second_joint_x,thumb_second_joint_y,thumb_second_joint_z,thumb_tip_x,thumb_tip_y,thumb_tip_z,index_base_x,index_base_y,index_base_z,index_first_joint_x,index_first_joint_y,index_first_joint_z,index_second_joint_x,index_second_joint_y,index_second_joint_z,index_tip_x,index_tip_y,index_tip_z,middle_base_x,middle_base_y,middle_base_z,middle_first_joint_x,middle_first_joint_y,middle_first_joint_z,middle_second_joint_x,middle_second_joint_y,middle_second_joint_z,middle_tip_x,middle_tip_y,middle_tip_z,ring_base_x,ring_base_y,ring_base_z,ring_first_joint_x,ring_first_joint_y,ring_first_joint_z,ring_second_joint_x,ring_second_joint_y,ring_second_joint_z,ring_tip_x,ring_tip_y,ring_tip_z,pinky_base_x,pinky_base_y,pinky_base_z,pinky_first_joint_x,pinky_first_joint_y,pinky_first_joint_z,pinky_second_joint_x,pinky_second_joint_y,pinky_second_joint_z,pinky_tip_x,pinky_tip_y,pinky_tip_z,
0.53032374,-0.40273594,0.592141,0.52127781,-0.35981946,0.586805,0.50997601,-0.38877295,0.590188,0.48489104,-0.36431523,0.591825,0.46328653,-0.3359953,0.582671,0.45489008,-0.31616661,0.579176,0.49702586,-0.3122848,0.580637,0.49357763,-0.27933931,0.584559,0.49069065,-0.26324784,0.58652,0.49067227,-0.24665651,0.588302,0.52042771,-0.32090017,0.581722,0.50942308,-0.27575848,0.567305,0.50277829,-0.25980346,0.558896,0.51563265,-0.25688141,0.572404,0.53979185,-0.32808252,0.583191,0.5279375,-0.28624857,0.573831,0.52377218,-0.27459546,0.569043,0.5213252,-0.28150005,0.56469,0.56346101,-0.34285867,0.585899,0.56207364,-0.31393658,0.588443,0.56650097,-0.30361955,0.594894,0.57039973,-0.29445584,0.600586
0.5267373,-0.40172043,0.58939,0.52177493,-0.3596882,0.586404,0.50688326,-0.38780691,0.587756,0.48627092,-0.36384038,0.59166,0.46388092,-0.33633253,0.582553,0.45511684,-0.31605261,0.578798,0.49819311,-0.3132719,0.582248,0.48847598,-0.27726308,0.579153,0.48461698,-0.25954038,0.577605,0.48096193,-0.24357104,0.576198,0.52200316,-0.31790331,0.583561,0.51224367,-0.27727675,0.571698,0.50605025,-0.26986228,0.564778,0.51971604,-0.27398571,0.579071,0.54176572,-0.32760812,0.584963,0.52794863,-0.28499998,0.574053,0.52341585,-0.2749755,0.568471,0.52061205,-0.2818745,0.563396,0.56529163,-0.341545,0.587153,0.56229002,-0.3119133,0.588942,0.56441006,-0.30039792,0.593401,0.56697983,-0.29058706,0.598074
0.51868915,-0.40892636,0.594175,0.51601339,-0.3649044,0.587805,0.49903192,-0.39160709,0.590749,0.47971693,-0.36341143,0.589367,0.45572952,-0.32682636,0.570873,0.45309717,-0.31114704,0.571324,0.49538783,-0.31181363,0.579017,0.48932892,-0.27676268,0.578575,0.48781747,-0.25799191,0.578354,0.48566086,-0.24184922,0.578153,0.51994386,-0.32075394,0.581738,0.50842917,-0.27532642,0.565966,0.50700452,-0.27226934,0.556765,0.52214799,-0.27845265,0.569759,0.5394989,-0.33070146,0.584666,0.5242553,-0.28570359,0.569955,0.519333,-0.27458565,0.562428,0.51532901,-0.27383668,0.555586,0.56035061,-0.35045939,0.589261,0.54780699,-0.31524069,0.575062,0.54271735,-0.30086683,0.568538,0.53861502,-0.28941694,0.562782
0.52892321,-0.40861397,0.597387,0.52078739,-0.36270245,0.588479,0.5079581,-0.39254808,0.593759,0.48785707,-0.36516753,0.593366,0.46233066,-0.33321102,0.578246,0.45447205,-0.31131598,0.570976,0.49465912,-0.31212304,0.577705,0.48524087,-0.27577924,0.572099,0.48090892,-0.25744255,0.569297,0.48057491,-0.2419906,0.566749,0.51868419,-0.3198613,0.579995,0.50525272,-0.27318196,0.561684,0.50215439,-0.2691361,0.551003,0.514488,-0.2877013,0.563139,0.53885018,-0.32800574,0.582841,0.52069638,-0.28355082,0.565923,0.51744871,-0.27950415,0.557267,0.51456767,-0.28694918,0.549398,0.5653757,-0.34235937,0.587819,0.54578522,-0.31187599,0.571712,0.53965166,-0.29870984,0.564311,0.53456315,-0.28798737,0.557781
0.52335453,-0.41495963,0.601622,0.51907567,-0.36747995,0.590515,0.50150008,-0.39528475,0.595206,0.47869199,-0.36338936,0.587725,0.45829608,-0.32948574,0.5713,0.45162797,-0.30708344,0.562956,0.49263197,-0.31290735,0.574616,0.4946573,-0.2744704,0.557128,0.48914773,-0.27201403,0.548384,0.47989989,-0.27791905,0.540435,0.51881789,-0.32163134,0.579937,0.50699668,-0.27536222,0.558858,0.50155018,-0.27488306,0.546562,0.51019387,-0.28854511,0.557388,0.54010724,-0.33498888,0.585516,0.5253212,-0.28936851,0.565377,0.51757382,-0.27953145,0.555074,0.5128344,-0.28261303,0.545707,0.56645971,-0.35560115,0.594079,0.55519154,-0.3186861,0.575429,0.54927468,-0.30086096,0.566859,0.54522205,-0.28585694,0.560517
0.52142089,-0.41465093,0.603088,0.52140391,-0.36439406,0.591713,0.49793713,-0.39230237,0.596316,0.47374178,-0.34680212,0.582725,0.45185128,-0.3117178,0.564368,0.44454603,-0.28808543,0.553433,0.50014697,-0.30420168,0.575167,0.50498668,-0.26819588,0.557359,0.49472309,-0.27076303,0.548455,0.48260038,-0.27555201,0.54036,0.5248534,-0.31669841,0.580879,0.52042286,-0.27518142,0.559397,0.50920305,-0.28102385,0.546866,0.51651451,-0.30013342,0.557487,0.54396432,-0.32941194,0.586808,0.5366099,-0.28713175,0.566279,0.53038505,-0.29128061,0.555775,0.52445066,-0.29622688,0.546227,0.5697181,-0.35360542,0.595828,0.55722292,-0.31926445,0.576873,0.5512674,-0.30241218,0.568164,0.54600543,-0.28757956,0.56048
0.51621472,-0.4103529,0.598459,0.52299339,-0.36156829,0.589546,0.49772847,-0.39043854,0.596431,0.47678484,-0.34752469,0.584683,0.4599808,-0.31622461,0.572328,0.45380361,-0.29355102,0.56242,0.51426917,-0.30730287,0.580854,0.51977535,-0.27555796,0.564282,0.50571653,-0.28107821,0.555996,0.49118995,-0.2848713,0.549895,0.53410997,-0.31843382,0.581058,0.53149576,-0.28271503,0.562895,0.51673264,-0.29284638,0.5523,0.52236496,-0.31440493,0.564547,0.5500353,-0.33074434,0.582187,0.54451874,-0.29352503,0.566144,0.53584731,-0.30208776,0.557935,0.52763495,-0.31099575,0.550474,0.56808181,-0.35148191,0.585172,0.55632873,-0.32336887,0.569691,0.55096188,-0.31179208,0.562578,0.54623965,-0.30242956,0.556302
0.51812727,-0.41235438,0.601987,0.51656991,-0.36046093,0.584796,0.50224934,-0.39402913,0.600141,0.47960167,-0.3503541,0.587622,0.45869162,-0.31619129,0.568309,0.44943308,-0.29194084,0.55586,0.50582796,-0.30419966,0.570719,0.49612388,-0.26180528,0.546587,0.49077402,-0.24233599,0.534521,0.50341066,-0.23425081,0.54332,0.52299235,-0.31414106,0.568424,0.51347388,-0.27789244,0.541978,0.49282811,-0.28142655,0.526552,0.49488923,-0.30024818,0.535319,0.53741837,-0.32584071,0.568386,0.5272262,-0.28918524,0.545913,0.51323721,-0.29553977,0.534414,0.50104449,-0.29945815,0.523962,0.55531639,-0.3499249,0.571574,0.53825286,-0.31853452,0.550534,0.53008936,-0.30658457,0.540866,0.52272835,-0.29320492,0.532336
0.51483184,-0.41311215,0.606107,0.51569929,-0.3594102,0.583904,0.4980871,-0.38836505,0.600544,0.49018667,-0.34693064,0.588742,0.47582505,-0.30964898,0.574395,0.47624355,-0.29054318,0.572919,0.49960692,-0.3001934,0.561582,0.49203274,-0.26099291,0.532368,0.4874536,-0.24223913,0.517761,0.50191918,-0.2340001,0.524004,0.51932556,-0.3127859,0.562757,0.50436065,-0.27216008,0.530624,0.48045204,-0.27682587,0.51188,0.47944058,-0.29203624,0.518052,0.53639536,-0.32702285,0.566119,0.52041639,-0.28493732,0.537707,0.50353864,-0.2900999,0.523171,0.48766509,-0.29592654,0.509957,0.55793078,-0.35139732,0.574194,0.5367004,-0.31798198,0.548344,0.52665671,-0.30482984,0.536468,0.51763094,-0.29441857,0.525989
0.51748009,-0.41119921,0.602403,0.51662031,-0.35182629,0.579614,0.49826962,-0.38334842,0.598112,0.49593184,-0.34331255,0.588782,0.47661339,-0.30763397,0.572235,0.47598164,-0.28707389,0.568702,0.50157018,-0.29177818,0.558551,0.48968984,-0.25893296,0.528666,0.48450808,-0.24124212,0.513724,0.49843896,-0.23398553,0.519621,0.52036524,-0.30253907,0.55791,0.50162005,-0.2706258,0.525463,0.47573731,-0.2760118,0.506536,0.47344,-0.2916445,0.512476,0.53684827,-0.31525639,0.559838,0.51782457,-0.26929754,0.531712,0.50800157,-0.24612483,0.517322,0.49564837,-0.2396396,0.50424,0.55809011,-0.33779578,0.566359,0.53257754,-0.31591369,0.540666,0.52504586,-0.30831756,0.528861,0.51588636,-0.30009163,0.518444
0.51141253,-0.38227707,0.585181,0.52168428,-0.32664622,0.568027,0.4990889,-0.35221627,0.57684,0.4891146,-0.32042343,0.558456,0.4658045,-0.2839521,0.541067,0.46280221,-0.26439183,0.540795,0.4987697,-0.26791554,0.545516,0.48772326,-0.24879986,0.519577,0.48214111,-0.23963238,0.506607,0.48871847,-0.2518525,0.514393,0.52460595,-0.28044117,0.55169,0.51760724,-0.23445662,0.524125,0.50596041,-0.23123148,0.508045,0.51711175,-0.23813479,0.51603,0.54665035,-0.29447509,0.558622,0.53378585,-0.27479361,0.532696,0.51968177,-0.28328893,0.519431,0.50426506,-0.29420091,0.510638,0.57381515,-0.31825249,0.569893,0.55643773,-0.30234251,0.546415,0.54357936,-0.30710998,0.535627,0.53071535,-0.31430256,0.527562
0.52295759,-0.37675841,0.586221,0.52134915,-0.32665431,0.566218,0.5065006,-0.35619075,0.582105,0.5167903,-0.34073339,0.578376,0.50333925,-0.31078471,0.559954,0.50062361,-0.28925213,0.554907,0.49917925,-0.2703696,0.547275,0.48082377,-0.24439393,0.519942,0.47113351,-0.23238453,0.506275,0.47613281,-0.23803961,0.51363,0.51963713,-0.27934813,0.547167,0.48905661,-0.26810737,0.517447,0.46277668,-0.27890666,0.500111,0.46866551,-0.28738511,0.507492,0.53750456,-0.29049822,0.549234,0.51415585,-0.25437989,0.523285,0.50198791,-0.23617864,0.510009,0.48771427,-0.23748443,0.497939,0.56175604,-0.31180776,0.555393,0.54115667,-0.29387527,0.531535,0.52269701,-0.29829903,0.520574,0.50921997,-0.30069352,0.513108
0.52326083,-0.38349596,0.591944,0.5232993,-0.32884531,0.569263,0.51072952,-0.35936166,0.587553,0.50669516,-0.33597549,0.579507,0.49147618,-0.30521712,0.562559,0.48706628,-0.28250575,0.555933,0.49758389,-0.27267661,0.548144,0.47830041,-0.24435283,0.518323,0.46754328,-0.23191751,0.503413,0.47119872,-0.23694633,0.509362,0.51807484,-0.28146304,0.547662,0.48501209,-0.26885747,0.51532,0.45463374,-0.28027988,0.496454,0.45945028,-0.28917117,0.502455,0.53646199,-0.29264718,0.549709,0.5121331,-0.25565907,0.521606,0.49947129,-0.23746449,0.507227,0.48380927,-0.23860066,0.494156,0.56083982,-0.3135036,0.556349,0.51604137,-0.31167554,0.530681,0.49239666,-0.31359539,0.518887,0.48965176,-0.32109675,0.522849
0.52500127,-0.37784666,0.588501,0.51947468,-0.32681697,0.564449,0.51228413,-0.35914477,0.58815,0.51005283,-0.33720665,0.582337,0.49642516,-0.30798324,0.568123,0.49303964,-0.28551661,0.561973,0.50087715,-0.27166271,0.547663,0.47949503,-0.24160493,0.516127,0.47078694,-0.22392477,0.500358,0.46680691,-0.23329368,0.50474,0.51369015,-0.27981254,0.541543,0.47503042,-0.26805378,0.509092,0.44632033,-0.27691768,0.490162,0.44858254,-0.28658908,0.495074,0.528617,-0.2940767,0.539096,0.50200062,-0.25328848,0.512568,0.48701869,-0.23240736,0.498996,0.46753793,-0.22999355,0.486657,0.54539931,-0.3148133,0.540777,0.49637978,-0.30922187,0.516244,0.47364316,-0.30957448,0.504972,0.47594923,-0.31342422,0.508447
0.52741327,-0.37934,0.591182,0.51945002,-0.32767931,0.564633,0.51652853,-0.36096802,0.592158,0.51266735,-0.3399542,0.585753,0.49979139,-0.31237388,0.573426,0.49474418,-0.2890745,0.565222,0.50152845,-0.2740184,0.547878,0.47649619,-0.24109441,0.514226,0.46618698,-0.22223303,0.497399,0.45957762,-0.22569411,0.499615,0.51243715,-0.28332635,0.539348,0.46004437,-0.26275088,0.505222,0.43142762,-0.27085172,0.485315,0.44048015,-0.28176179,0.488234,0.51882846,-0.29634199,0.535186,0.48918916,-0.25342622,0.507935,0.47614151,-0.23263909,0.496181,0.45502993,-0.22913603,0.485496,0.53187142,-0.31739469,0.535345,0.47846192,-0.30980411,0.510201,0.46254709,-0.30921634,0.498649,0.46160585,-0.31562371,0.500785
0.52994973,-0.38100266,0.59401,0.52103334,-0.32928488,0.566556,0.5194006,-0.36224658,0.594915,0.51391225,-0.34138559,0.587496,0.49996726,-0.31508024,0.575333,0.49484115,-0.29058109,0.566204,0.50155449,-0.27473498,0.549094,0.47486385,-0.24309688,0.515572,0.45602119,-0.22827578,0.498811,0.44514899,-0.23478405,0.500651,0.5125513,-0.28436068,0.540409,0.45509105,-0.27165424,0.505491,0.42995642,-0.27843119,0.485122,0.43912058,-0.28197976,0.487411,0.51956307,-0.29676812,0.536216,0.48916545,-0.25352197,0.50833,0.47669511,-0.23306299,0.497256,0.45614663,-0.22991629,0.487188,0.53286515,-0.31788676,0.53651,0.47894747,-0.31014663,0.510852,0.4622598,-0.30957085,0.499063,0.46004781,-0.31593748,0.500739
0.52677248,-0.3784002,0.592009,0.51713079,-0.32447382,0.563002,0.51651336,-0.35888856,0.592237,0.50736076,-0.32749837,0.581792,0.49908767,-0.3041713,0.569443,0.49937118,-0.28498222,0.561155,0.50664666,-0.26512922,0.543604,0.46805237,-0.23953705,0.509743,0.44991561,-0.22545742,0.492812,0.43757136,-0.23186071,0.494049,0.51202117,-0.27804139,0.535376,0.45048496,-0.26804914,0.498881,0.42334508,-0.27307514,0.477592,0.43061843,-0.27732053,0.47895,0.51691729,-0.29274816,0.531726,0.48083146,-0.2584566,0.502345,0.460572,-0.24247377,0.487313,0.43529537,-0.2442443,0.473648,0.52990476,-0.31484275,0.532942,0.47695536,-0.30005016,0.506073,0.45930891,-0.30051381,0.493728,0.45468195,-0.31067035,0.494682
0.52545252,-0.37738272,0.5916,0.51656677,-0.32577739,0.56215,0.51530264,-0.35723585,0.591245,0.50677056,-0.32948738,0.58029,0.49704726,-0.30429498,0.5674,0.4953134,-0.2835119,0.557243,0.50489779,-0.26548609,0.541693,0.46760026,-0.23826258,0.507205,0.4489584,-0.22466466,0.489961,0.4360002,-0.2307386,0.491034,0.51132835,-0.27776646,0.534103,0.44929663,-0.26826282,0.496998,0.42148575,-0.27252182,0.475353,0.42695173,-0.27676231,0.476567,0.51717611,-0.29231397,0.531027,0.47955618,-0.25975756,0.500929,0.45892113,-0.24390468,0.485532,0.43339365,-0.24566543,0.471535,0.53036691,-0.31514665,0.532993,0.47667251,-0.30156537,0.50554,0.45999748,-0.30181588,0.492927,0.45404799,-0.31005642,0.493734
0.52481992,-0.37708567,0.591704,0.51624895,-0.325579,0.56169,0.51500211,-0.35659232,0.591174,0.50616544,-0.32950259,0.579701,0.49636844,-0.30530762,0.566451,0.49439848,-0.28440775,0.556056,0.50234393,-0.26713434,0.540619,0.46675937,-0.23836008,0.5055,0.44809222,-0.22454404,0.487941,0.43453428,-0.23018307,0.488587,0.51155363,-0.27778094,0.533105,0.44902323,-0.2692684,0.495468,0.41939387,-0.27329473,0.473513,0.42112825,-0.2805156,0.474342,0.51699137,-0.29222621,0.530151,0.47862689,-0.26209526,0.499573,0.45788052,-0.2464734,0.484078,0.43215999,-0.2463253,0.46999,0.5300766,-0.31538715,0.532365,0.47608397,-0.30213767,0.504528,0.45875341,-0.30185781,0.491737,0.45260001,-0.30925397,0.492255
0.52300583,-0.37590889,0.590257,0.5143213,-0.32386933,0.559856,0.51375141,-0.35537492,0.589909,0.50487732,-0.32888631,0.57819,0.49479593,-0.30500705,0.564447,0.49390679,-0.28522792,0.555152,0.50262482,-0.26563771,0.53876,0.46514052,-0.237694,0.503217,0.44641053,-0.22375235,0.485445,0.43258788,-0.22948452,0.485655,0.50971227,-0.27719775,0.530902,0.44702544,-0.26858254,0.493034,0.41665821,-0.2723757,0.470945,0.41480242,-0.28189542,0.471402,0.51713486,-0.29068734,0.527707,0.47650381,-0.26109709,0.497035,0.45566786,-0.24543304,0.481424,0.4298466,-0.24561418,0.467233,0.5286471,-0.31445223,0.529714,0.47385435,-0.30114807,0.501806,0.45560316,-0.30090904,0.488983,0.45064003,-0.3073913,0.489245
0.52158206,-0.37510349,0.589139,0.51313073,-0.32461211,0.557954,0.51276547,-0.35404489,0.588468,0.50660577,-0.33619915,0.576428,0.49781677,-0.31200486,0.562333,0.49480689,-0.2905249,0.552208,0.50140801,-0.26733221,0.535905,0.46430043,-0.2387202,0.499625,0.44575866,-0.22445408,0.481485,0.43108003,-0.22893205,0.481151,0.50860697,-0.27915124,0.528253,0.44525749,-0.2699907,0.489628,0.41277896,-0.27296192,0.467097,0.41094334,-0.2807703,0.467022,0.51618673,-0.29289586,0.525313,0.47499929,-0.26171552,0.493927,0.45393082,-0.24576833,0.477869,0.42737379,-0.24630095,0.463272,0.5279868,-0.31704088,0.527762,0.47296275,-0.30304914,0.499283,0.45409106,-0.30240519,0.486198,0.44827566,-0.30766096,0.486053
0.5204362,-0.37489993,0.589102,0.51277111,-0.32488507,0.557132,0.51196965,-0.35298745,0.587765,0.5054394,-0.3349304,0.57412,0.49295542,-0.30635465,0.559005,0.49044347,-0.28600793,0.547307,0.50265622,-0.26968259,0.533685,0.46593111,-0.2407244,0.496962,0.44757819,-0.22629,0.478601,0.43028902,-0.22895663,0.477946,0.51015246,-0.28219094,0.526685,0.44596223,-0.27174001,0.487165,0.4107724,-0.27193658,0.464112,0.40824275,-0.27950591,0.463604,0.51800773,-0.29655189,0.524367,0.47596872,-0.26556233,0.492016,0.45447445,-0.24972515,0.475464,0.42785821,-0.25087666,0.460417,0.53013566,-0.32151201,0.527685,0.47448282,-0.30627579,0.498432,0.454783,-0.30510206,0.484991,0.44724522,-0.3075521,0.484485
0.51932264,-0.3744689,0.588509,0.51232132,-0.32520268,0.556549,0.51165092,-0.35207476,0.58708,0.50522961,-0.33460407,0.573451,0.49297959,-0.30598026,0.558221,0.49053563,-0.28545943,0.546532,0.50257061,-0.26946707,0.532988,0.46591536,-0.24051173,0.496259,0.44759586,-0.22607815,0.477894,0.43066744,-0.22910558,0.477284,0.51012352,-0.28209417,0.526111,0.44586804,-0.27152975,0.486559,0.41064673,-0.27202275,0.463487,0.40795682,-0.27965246,0.463018,0.51801896,-0.29655133,0.523893,0.47573308,-0.26584713,0.491478,0.45411279,-0.25015572,0.474893,0.42742613,-0.25137832,0.459816,0.53017446,-0.32162027,0.527326,0.47446369,-0.30625056,0.498019,0.45467775,-0.30502283,0.484554,0.44718959,-0.30790785,0.484069
0.51565578,-0.37195163,0.58589,0.51040078,-0.32278335,0.553937,0.50853314,-0.34889165,0.583731,0.50923035,-0.31814877,0.569108,0.50864519,-0.2948882,0.555613,0.51371392,-0.277275,0.545936,0.51615903,-0.26689538,0.52943,0.47411911,-0.24012019,0.493824,0.45313579,-0.22677676,0.476021,0.43339741,-0.23028308,0.476043,0.52099347,-0.2821576,0.523506,0.45729027,-0.26353061,0.483665,0.42063762,-0.26427005,0.460424,0.41320393,-0.27294509,0.460173,0.52610252,-0.29850446,0.522071,0.48167383,-0.27074267,0.489121,0.45896022,-0.25655277,0.472263,0.42657147,-0.25336489,0.456938,0.53111676,-0.32285225,0.526412,0.47558179,-0.30488883,0.496671,0.45355888,-0.30263036,0.483007,0.44613079,-0.30624506,0.482625
0.50009309,-0.36179846,0.571785,0.5052206,-0.3203522,0.547605,0.49948417,-0.34229635,0.574207,0.50887496,-0.31920679,0.568803,0.51584684,-0.30018297,0.558797,0.52908178,-0.28784721,0.554743,0.52489207,-0.27822447,0.534342,0.49297696,-0.24867552,0.508484,0.47698168,-0.23380794,0.495555,0.46501776,-0.23645298,0.500485,0.52313869,-0.29051508,0.524577,0.48937422,-0.25540237,0.493117,0.4550924,-0.2422933,0.474765,0.44350236,-0.25070566,0.478811,0.52165457,-0.30360744,0.519141,0.55335059,-0.28158913,0.516929,0.57002865,-0.27035385,0.516284,0.57579481,-0.25743132,0.515698,0.5194489,-0.32507649,0.517377,0.51409473,-0.28908733,0.494421,0.49856792,-0.27761366,0.483874,0.48984973,-0.28376934,0.48693
0.50790271,-0.36807898,0.584971,0.51616669,-0.33138373,0.55959,0.50641659,-0.34730093,0.58373,0.51088849,-0.32495635,0.57334,0.51281994,-0.30709315,0.558197,0.52581418,-0.29744667,0.553124,0.52817406,-0.28946706,0.540741,0.4976913,-0.26261658,0.513251,0.48242313,-0.2491018,0.499506,0.47114112,-0.25201472,0.504831,0.53015448,-0.30578649,0.535418,0.48818133,-0.2759356,0.501468,0.44925465,-0.27576293,0.481664,0.45068508,-0.28496492,0.485911,0.53174166,-0.32221764,0.53377,0.55743337,-0.29647685,0.526409,0.57162165,-0.28382352,0.523933,0.57655196,-0.27163058,0.521682,0.53296357,-0.34758106,0.536628,0.48967767,-0.31959479,0.510849,0.46761676,-0.31495111,0.499005,0.46368864,-0.3228128,0.501935
0.49517852,-0.36519334,0.580751,0.51347634,-0.33099281,0.557553,0.50187566,-0.34507451,0.579492,0.50314796,-0.32422117,0.570088,0.50808916,-0.30457645,0.554007,0.52109774,-0.29640429,0.549366,0.52696526,-0.28897737,0.540163,0.49835183,-0.26330185,0.514327,0.4840097,-0.25034093,0.501409,0.4738436,-0.25389092,0.508009,0.52947758,-0.30576724,0.535461,0.48951225,-0.27727435,0.503483,0.4513912,-0.27746304,0.48483,0.45395235,-0.28728617,0.490399,0.53126541,-0.32246189,0.534088,0.55590108,-0.29597985,0.525548,0.56893192,-0.2823664,0.522063,0.5718073,-0.27029347,0.518894,0.53229433,-0.34786321,0.536856,0.4906429,-0.32073943,0.512342,0.46900806,-0.31671772,0.501079,0.46556885,-0.32327699,0.504961
0.48942618,-0.36578305,0.580679,0.50823726,-0.33564259,0.557203,0.5005717,-0.34524939,0.579528,0.50230812,-0.32570442,0.570878,0.50944591,-0.30556647,0.555787,0.5227003,-0.29746007,0.551032,0.52559371,-0.28988894,0.539765,0.49726027,-0.2642806,0.513838,0.4830616,-0.25135398,0.500875,0.4727756,-0.25462204,0.507331,0.52652028,-0.30731948,0.534845,0.48926773,-0.27747645,0.502647,0.45054809,-0.27690903,0.483864,0.45216478,-0.28664061,0.489256,0.5276507,-0.32407658,0.533324,0.5502894,-0.30037917,0.523708,0.56263294,-0.28649032,0.519109,0.56484371,-0.27159246,0.514929,0.5251991,-0.35140809,0.535971,0.48703462,-0.32198659,0.511348,0.46048006,-0.31993966,0.500035,0.45751715,-0.32575913,0.503797
0.49382911,-0.36791953,0.583012,0.50752811,-0.33624061,0.556704,0.5007515,-0.34653102,0.580941,0.50195371,-0.32503447,0.569549,0.5034884,-0.29920403,0.554491,0.51362266,-0.29218862,0.545759,0.52080569,-0.28885854,0.536145,0.48508072,-0.26273345,0.507593,0.46764216,-0.2491688,0.493317,0.45517187,-0.2523065,0.498165,0.52305408,-0.30588314,0.53165,0.47601409,-0.27632805,0.496603,0.43604178,-0.27437457,0.476159,0.44251944,-0.28193396,0.479947,0.52495001,-0.32296511,0.530783,0.54326502,-0.29280117,0.516137,0.55325089,-0.27693795,0.510184,0.55274015,-0.26551683,0.504771,0.52664809,-0.34918801,0.534723,0.48102617,-0.32163902,0.507981,0.45630755,-0.31777174,0.495695,0.45149886,-0.32298925,0.498232
0.48175581,-0.36701018,0.574436,0.49956924,-0.34400368,0.551293,0.48635208,-0.34872642,0.574668,0.50102007,-0.33321759,0.569819,0.50186725,-0.31044926,0.557089,0.51719572,-0.29698417,0.551899,0.51424421,-0.29568621,0.535882,0.48861575,-0.26456856,0.509347,0.47511151,-0.25012978,0.49608,0.46530208,-0.25274411,0.502101,0.51865202,-0.30711313,0.529253,0.47991686,-0.27603058,0.497828,0.43975515,-0.27647048,0.479497,0.44177288,-0.28688183,0.484845,0.51901252,-0.32262549,0.526288,0.54358414,-0.2956375,0.518106,0.55476186,-0.28007629,0.51392,0.55735244,-0.26787679,0.510114,0.51946609,-0.34724325,0.527197,0.47671658,-0.31844549,0.503513,0.45344332,-0.30833504,0.492632,0.44599221,-0.30858149,0.496464
0.48051816,-0.36834349,0.573122,0.49881893,-0.34348702,0.550465,0.48532836,-0.35059098,0.573742,0.49997242,-0.33375505,0.569425,0.50195193,-0.31050165,0.557183,0.51645488,-0.29794481,0.552284,0.51425092,-0.29569007,0.535889,0.48876488,-0.26508493,0.509824,0.47555954,-0.25056286,0.496792,0.46591559,-0.25331467,0.503002,0.51775598,-0.3076197,0.528886,0.4799296,-0.27632045,0.498044,0.44059391,-0.27687711,0.480052,0.44235268,-0.28771146,0.485608,0.51810928,-0.32276823,0.525562,0.54295842,-0.29568554,0.518121,0.55462016,-0.28079407,0.514565,0.55794165,-0.26824674,0.511333,0.51831326,-0.3470286,0.525961,0.47598326,-0.31779949,0.50278,0.45298033,-0.30802022,0.492129,0.44570115,-0.3083801,0.49614
0.47756038,-0.36721972,0.571126,0.49437542,-0.34078291,0.546465,0.4838223,-0.34616208,0.571304,0.49106708,-0.32770299,0.562175,0.49744587,-0.30343479,0.548022,0.51131498,-0.29292534,0.543815,0.5152826,-0.29953958,0.529953,0.54503271,-0.29218875,0.520728,0.55967133,-0.28655408,0.516116,0.58267243,-0.28629879,0.530573,0.51311463,-0.31427974,0.522979,0.46920769,-0.27996941,0.490174,0.43086926,-0.27411832,0.471037,0.4304025,-0.28362038,0.475454,0.51101721,-0.32914613,0.519894,0.50484186,-0.28808612,0.493316,0.48424211,-0.27406427,0.479718,0.45565457,-0.27265469,0.467356,0.50732099,-0.35213603,0.520948,0.46930082,-0.31450531,0.496363,0.44511068,-0.31169425,0.485066,0.43924707,-0.31729988,0.488223
0.4732684,-0.36077904,0.568409,0.49177788,-0.3385881,0.544421,0.48486073,-0.34726078,0.573284,0.50235265,-0.32578581,0.57036,0.51500848,-0.31016414,0.564388,0.52729521,-0.29717648,0.557252,0.52154223,-0.30769559,0.534484,0.55056345,-0.30003012,0.524281,0.5632742,-0.28975887,0.51918,0.5818525,-0.28607408,0.531744,0.51173936,-0.31394022,0.521575,0.47137285,-0.2729454,0.491516,0.43156998,-0.27056464,0.473982,0.42834911,-0.28401433,0.476994,0.50397743,-0.32371091,0.51353,0.47531462,-0.28069069,0.491107,0.46006373,-0.2595126,0.479634,0.43236011,-0.24864019,0.469205,0.49160437,-0.33615855,0.508701,0.46027791,-0.29411558,0.487561,0.4394848,-0.28822295,0.477847,0.43227882,-0.29684967,0.480341
0.46988625,-0.35875959,0.565675,0.49057821,-0.33589219,0.542536,0.48343593,-0.34472895,0.570704,0.49982927,-0.32557399,0.568552,0.51437213,-0.3091915,0.562993,0.52813114,-0.29746676,0.557784,0.52139093,-0.30759951,0.533374,0.5483532,-0.29625505,0.52226,0.56089185,-0.28772809,0.516702,0.5757285,-0.28183045,0.528818,0.51123632,-0.31390792,0.520498,0.47087807,-0.27283742,0.491228,0.43409674,-0.27252964,0.474153,0.43269255,-0.28453473,0.477709,0.50308527,-0.32302743,0.512388,0.47583354,-0.28123486,0.490635,0.46103102,-0.26026359,0.479505,0.43359539,-0.24941191,0.469387,0.49089001,-0.33608196,0.507325,0.46031214,-0.29437146,0.48673,0.43971161,-0.28846733,0.477268,0.43285517,-0.29612273,0.480165
0.4662824,-0.35559467,0.561859,0.48946875,-0.33466223,0.540941,0.47905004,-0.34285229,0.566777,0.49630494,-0.32100967,0.563731,0.51293002,-0.29546268,0.558341,0.52832406,-0.28318443,0.553515,0.52363637,-0.30888777,0.533143,0.55224209,-0.30024699,0.523667,0.56354389,-0.28881389,0.51893,0.57729044,-0.28317461,0.531702,0.51462187,-0.31631844,0.521018,0.48045153,-0.27316792,0.49359,0.442641,-0.27397059,0.477591,0.44054427,-0.28646295,0.48275,0.50577249,-0.32459731,0.513289,0.48037626,-0.28450687,0.492896,0.46624551,-0.26409607,0.482463,0.43857083,-0.25241595,0.472978,0.49466266,-0.33794904,0.508249,0.4711427,-0.29656946,0.488762,0.45032992,-0.29037083,0.479808,0.44960708,-0.30102758,0.483853
0.46277032,-0.35340166,0.559264,0.48872785,-0.33380261,0.539846,0.47656692,-0.34165799,0.564404,0.49506389,-0.31907456,0.561916,0.51085475,-0.29426726,0.556082,0.52664797,-0.28228604,0.551759,0.52435559,-0.30930223,0.533356,0.55324589,-0.30056125,0.523885,0.56392179,-0.28884285,0.519149,0.57672942,-0.28318924,0.53191,0.51553771,-0.31680702,0.521353,0.48216095,-0.27506382,0.495362,0.44463884,-0.27530845,0.480201,0.44377381,-0.28855148,0.486224,0.5066876,-0.32490754,0.513561,0.48227027,-0.2857438,0.494373,0.46869075,-0.26570759,0.484556,0.44186696,-0.25438437,0.475631,0.49533332,-0.33803351,0.508167,0.47202472,-0.29712466,0.489677,0.45161951,-0.29120235,0.481182,0.45147853,-0.30228059,0.485867
0.45971641,-0.35160739,0.556747,0.48808962,-0.33410806,0.539021,0.47413497,-0.34053801,0.561705,0.49249414,-0.31701153,0.558659,0.50472906,-0.2912501,0.549697,0.52079372,-0.2832204,0.547512,0.52615937,-0.31079809,0.533442,0.55332997,-0.30035205,0.523179,0.56292476,-0.28811753,0.518048,0.57479548,-0.28253191,0.530749,0.51813755,-0.31882626,0.522138,0.48519816,-0.27788902,0.49759,0.44922493,-0.27664008,0.48327,0.44722912,-0.29180805,0.490399,0.50929099,-0.32681259,0.51474,0.48608038,-0.28894426,0.496588,0.47299244,-0.26933599,0.4873,0.4469995,-0.25797887,0.478857,0.49804216,-0.34136055,0.509485,0.47479863,-0.29958766,0.491857,0.45467179,-0.29377254,0.483758,0.4551912,-0.30532502,0.489226
0.45715527,-0.34966116,0.554046,0.48711623,-0.33323415,0.537518,0.4722776,-0.33947951,0.559198,0.49091908,-0.31572707,0.556646,0.50324019,-0.29064671,0.548217,0.5169152,-0.28100839,0.543659,0.52607883,-0.31097609,0.533004,0.55340454,-0.30023956,0.522778,0.56265092,-0.28782386,0.517665,0.5739249,-0.28229922,0.530361,0.51810663,-0.31909204,0.521776,0.48629613,-0.27950447,0.498419,0.45069018,-0.27801359,0.484794,0.44897375,-0.29381776,0.492537,0.50933586,-0.32702412,0.514311,0.48701587,-0.28985697,0.497165,0.47445516,-0.27053748,0.488393,0.44901402,-0.2594706,0.480418,0.49767747,-0.34112034,0.508752,0.47524161,-0.30022573,0.491967,0.45545692,-0.29458123,0.484255,0.45637644,-0.30639988,0.490181
0.45865316,-0.3531814,0.553483,0.50022228,-0.33625615,0.536675,0.47194935,-0.33908883,0.556963,0.49700805,-0.31980171,0.554856,0.49642786,-0.29208873,0.541803,0.5090107,-0.27955917,0.536042,0.53200288,-0.30418425,0.529796,0.56050954,-0.29369629,0.519467,0.56416049,-0.27978202,0.514302,0.56987995,-0.28010479,0.527658,0.52742259,-0.31545888,0.520669,0.48493537,-0.27879087,0.496336,0.44874878,-0.27662813,0.482142,0.44843517,-0.29222645,0.490294,0.52254293,-0.32691581,0.514964,0.48813424,-0.29197945,0.496345,0.47104841,-0.27698508,0.48682,0.46426559,-0.27294146,0.495938,0.51421383,-0.34477521,0.511501,0.48269315,-0.30807565,0.493502,0.45858452,-0.29799268,0.485233,0.4572607,-0.30669461,0.49133
0.45860702,-0.35159082,0.552534,0.49970777,-0.33520611,0.536123,0.47271753,-0.33788406,0.556118,0.49632908,-0.31863043,0.554098,0.49761978,-0.28872679,0.541564,0.50857693,-0.27796462,0.535085,0.53185527,-0.30341406,0.529649,0.56026461,-0.2928824,0.51924,0.5638687,-0.27894072,0.514036,0.56936814,-0.27950819,0.527353,0.52724532,-0.31465969,0.520494,0.48561984,-0.27900022,0.496577,0.44963767,-0.27701167,0.482625,0.45080018,-0.29263225,0.490961,0.5222994,-0.32606217,0.514724,0.48866504,-0.29213585,0.496473,0.47289641,-0.27404232,0.487135,0.46394985,-0.27404492,0.496435,0.51382176,-0.34379769,0.511111,0.48261393,-0.30732039,0.493421,0.45926733,-0.29833646,0.485293,0.457323,-0.30631218,0.49153
0.45840059,-0.34970833,0.55139,0.49899926,-0.33384565,0.535413,0.47262023,-0.33639424,0.555236,0.49685863,-0.31797938,0.554212,0.49850333,-0.28913524,0.541993,0.50923724,-0.27705478,0.535526,0.53168657,-0.30240556,0.529574,0.55993357,-0.2916605,0.519034,0.56336756,-0.27758987,0.513765,0.56871671,-0.27860386,0.526979,0.52686434,-0.31343948,0.520196,0.48603669,-0.27880066,0.496794,0.45033519,-0.27705793,0.483142,0.45195372,-0.2926812,0.491633,0.52169791,-0.3246353,0.514195,0.48950274,-0.29089019,0.496456,0.474134,-0.2703202,0.48738,0.46480768,-0.27192589,0.496851,0.51289441,-0.34207051,0.510233,0.48006755,-0.30455016,0.492969,0.45938123,-0.29809927,0.485037,0.45729462,-0.30594834,0.491406
0.49544966,-0.38443517,0.570795,0.51113951,-0.35092881,0.545016,0.51258286,-0.371321,0.577124,0.51480527,-0.34660857,0.57314,0.51244532,-0.32438435,0.566747,0.5148095,-0.30866733,0.558743,0.54033874,-0.31405657,0.535756,0.56638476,-0.29464724,0.525323,0.56143911,-0.27433682,0.520106,0.56423491,-0.27443585,0.530419,0.52672531,-0.31614743,0.520464,0.48186943,-0.27473276,0.489954,0.44399083,-0.26464888,0.472157,0.4371301,-0.27917236,0.472585,0.51305579,-0.32530623,0.51065,0.48402615,-0.28682234,0.488569,0.46663539,-0.26600742,0.477272,0.45065681,-0.25970006,0.479294,0.49614906,-0.33955938,0.504104,0.45726496,-0.30326651,0.483362,0.43663355,-0.29610303,0.473832,0.42869531,-0.29209917,0.474572
0.4941772,-0.38317586,0.569012,0.51091002,-0.35022008,0.544936,0.51230305,-0.37103288,0.576234,0.51588783,-0.34648356,0.573636,0.51510181,-0.32574175,0.569738,0.51685082,-0.31081594,0.562184,0.54243234,-0.31475854,0.537993,0.56760704,-0.29477868,0.526753,0.55487686,-0.27391731,0.521133,0.54970998,-0.27812827,0.53256,0.52792016,-0.31626637,0.522005,0.4819887,-0.27598266,0.493402,0.44531279,-0.26846659,0.476717,0.43970095,-0.28353693,0.477906,0.50953558,-0.32540748,0.511434,0.48468973,-0.27862403,0.491208,0.46822377,-0.25671335,0.48086,0.46352811,-0.24382221,0.483687,0.49479442,-0.33742485,0.50369,0.45693087,-0.30179424,0.484481,0.43764483,-0.29659427,0.475655,0.43045874,-0.29592346,0.47701
0.50112129,-0.38474129,0.571983,0.52164941,-0.34655401,0.545983,0.51790067,-0.37138319,0.578537,0.52726593,-0.34451286,0.571048,0.52986571,-0.32558045,0.566376,0.531578,-0.31008486,0.555843,0.54644295,-0.30513139,0.536866,0.56537673,-0.27456956,0.52764,0.5485393,-0.2621664,0.523026,0.54197382,-0.27313995,0.532421,0.52950915,-0.31248545,0.521222,0.47812765,-0.2743079,0.490729,0.43755649,-0.26853242,0.472942,0.43280228,-0.28080043,0.47294,0.51968032,-0.32092465,0.511141,0.48483107,-0.27759261,0.489184,0.46728949,-0.25593838,0.477951,0.46036647,-0.24373448,0.479576,0.50754218,-0.33733277,0.504327,0.46317498,-0.30174994,0.483715,0.43808449,-0.29574279,0.474244,0.42891593,-0.29640684,0.47469
0.50272339,-0.38400491,0.571027,0.52109053,-0.34569808,0.545424,0.51980868,-0.37089391,0.578296,0.52465178,-0.34243688,0.568392,0.52748343,-0.32426516,0.565382,0.5272758,-0.30759466,0.553528,0.5468786,-0.30481256,0.537507,0.56546086,-0.27414514,0.527591,0.54794256,-0.2612375,0.522632,0.54065632,-0.27165317,0.531562,0.53056011,-0.31045804,0.52104,0.47554964,-0.2731771,0.491406,0.43427703,-0.26672152,0.47412,0.42950707,-0.27837332,0.473762,0.51930996,-0.31798519,0.510239,0.48669981,-0.27498628,0.489277,0.46688337,-0.25334875,0.478552,0.46005313,-0.24243851,0.479889,0.50596819,-0.33280313,0.502514,0.45855672,-0.29906299,0.482768,0.43810911,-0.29520796,0.473696,0.42879594,-0.29623122,0.473939
0.50009827,-0.38054313,0.567191,0.51879904,-0.34370918,0.543662,0.51835394,-0.36838697,0.575869,0.52799512,-0.34388979,0.57305,0.53193687,-0.31905163,0.571089,0.5380246,-0.30076015,0.562967,0.54840265,-0.30529181,0.538989,0.51352098,-0.26963722,0.521772,0.48568195,-0.26572649,0.513163,0.47166675,-0.27113553,0.515537,0.53097146,-0.31005946,0.521254,0.47519328,-0.27485291,0.494255,0.43774972,-0.26925318,0.478506,0.43171801,-0.2800593,0.478645,0.51809452,-0.31664461,0.509184,0.48702848,-0.27592747,0.490883,0.46977215,-0.2544202,0.481519,0.4628333,-0.24376484,0.483445,0.50186532,-0.32946585,0.499598,0.4633342,-0.29581049,0.482091,0.44326673,-0.29248764,0.474047,0.42998254,-0.29634422,0.474755
0.49836937,-0.37826212,0.564664,0.51718237,-0.34240389,0.542286,0.51740797,-0.36673902,0.574281,0.52754985,-0.34289308,0.574054,0.53358222,-0.32041503,0.573958,0.54098356,-0.30277114,0.567408,0.54904977,-0.30546657,0.539617,0.51482033,-0.27305611,0.525943,0.48640608,-0.27358013,0.519106,0.47588844,-0.27788764,0.522056,0.53080239,-0.30957706,0.520974,0.47620425,-0.27545687,0.495639,0.43962961,-0.27061008,0.48086,0.43354198,-0.28157378,0.480976,0.51683844,-0.31551932,0.508033,0.49130258,-0.2725711,0.491448,0.4810952,-0.25094608,0.483325,0.46596204,-0.23349687,0.475941,0.4992663,-0.32744198,0.497219,0.46110143,-0.29488938,0.481183,0.44198558,-0.29278603,0.473815,0.43012155,-0.29596726,0.474577
0.49900072,-0.37805186,0.564975,0.5171489,-0.34224099,0.542442,0.51799137,-0.3664558,0.574545,0.52738345,-0.34270681,0.574314,0.53338588,-0.32042287,0.574115,0.54075335,-0.30276158,0.567616,0.5490445,-0.30535228,0.539607,0.51375006,-0.27340175,0.525801,0.48621118,-0.27347051,0.518898,0.4750279,-0.27882044,0.521744,0.53088801,-0.30937107,0.520982,0.47588002,-0.27528083,0.495501,0.43926168,-0.27050392,0.480637,0.43308014,-0.2814727,0.480649,0.51682242,-0.31527087,0.508073,0.49215258,-0.27223595,0.491356,0.47999246,-0.25093215,0.482849,0.45920386,-0.23609481,0.475115,0.49924606,-0.32723789,0.497324,0.45974701,-0.29452695,0.481183,0.44087939,-0.29319679,0.473767,0.43022153,-0.29569755,0.47445
0.50997455,-0.38011895,0.573401,0.52483535,-0.33091501,0.549768,0.52618418,-0.36419619,0.581552,0.52108565,-0.31695683,0.579879,0.51555514,-0.28646003,0.577351,0.51095961,-0.26370104,0.56973,0.55129856,-0.28975794,0.544339,0.50576636,-0.2658239,0.526623,0.47928608,-0.26790272,0.517764,0.4709889,-0.27930243,0.520657,0.53835807,-0.29630545,0.527261,0.47989311,-0.26879866,0.499723,0.44241003,-0.26897215,0.483659,0.43633719,-0.28272309,0.484319,0.52774907,-0.30460142,0.515745,0.50310905,-0.26452736,0.496774,0.48781828,-0.2450699,0.487067,0.46776591,-0.23353435,0.478243,0.51511556,-0.32030867,0.50682,0.47531167,-0.2905742,0.488708,0.45506021,-0.29246433,0.480387,0.44213398,-0.29783869,0.48143
0.51264339,-0.3771704,0.577016,0.52639756,-0.33065936,0.5516,0.52659226,-0.35111553,0.583158,0.51438026,-0.31535917,0.577448,0.50288491,-0.28507003,0.570983,0.49561357,-0.26325916,0.561324,0.54886489,-0.28713256,0.542343,0.50081053,-0.2639401,0.522605,0.47398995,-0.26600947,0.512735,0.46560588,-0.27658116,0.516076,0.53830589,-0.29542494,0.527395,0.47723903,-0.26755598,0.497013,0.43824874,-0.26843878,0.479291,0.43257985,-0.27982361,0.480225,0.52986357,-0.30531398,0.517825,0.50219387,-0.26460662,0.495748,0.4817003,-0.2506478,0.484452,0.45585111,-0.23812918,0.474184,0.52006721,-0.32316599,0.511494,0.47742779,-0.29266522,0.490729,0.4553308,-0.29251288,0.481188,0.44172214,-0.29857749,0.482278
0.51303764,-0.37827187,0.576587,0.5276556,-0.32954837,0.55714,0.53057317,-0.3628181,0.587495,0.5130756,-0.32652057,0.591167,0.50421836,-0.30001397,0.593259,0.50329834,-0.27893844,0.590189,0.54647852,-0.28360089,0.558144,0.50240942,-0.27034349,0.547661,0.48465082,-0.27969844,0.54242,0.47693788,-0.29251988,0.546682,0.53367743,-0.28708919,0.538619,0.47694736,-0.26871295,0.516538,0.44634723,-0.27413025,0.503658,0.44368925,-0.28716503,0.505025,0.52320576,-0.29304774,0.524637,0.49422057,-0.25772388,0.511127,0.47413871,-0.24398731,0.504215,0.45207751,-0.23772285,0.497931,0.51101118,-0.30633212,0.512063,0.4698937,-0.28497752,0.498588,0.45200057,-0.2877819,0.492397,0.44457404,-0.295363,0.494158
0.51262234,-0.37704123,0.57642,0.52397502,-0.32818372,0.560155,0.52910849,-0.36155425,0.587398,0.50837995,-0.33335228,0.591094,0.49571339,-0.30973763,0.59127,0.491259,-0.28919634,0.587339,0.54151122,-0.28506838,0.563409,0.50635213,-0.27227797,0.55464,0.49089665,-0.28372051,0.550255,0.48674044,-0.29943619,0.557102,0.53578242,-0.2896457,0.544664,0.48325835,-0.27195751,0.525036,0.45452969,-0.27945508,0.513586,0.45452545,-0.2945171,0.517696,0.52395374,-0.29521313,0.53098,0.50556448,-0.2574619,0.51934,0.49609509,-0.23783859,0.513393,0.47534418,-0.23400997,0.507987,0.5143225,-0.30860933,0.518154,0.47760073,-0.28877936,0.50613,0.45979489,-0.29244313,0.500606,0.45401473,-0.30203161,0.504349
0.52220818,-0.38348407,0.587622,0.52969023,-0.33203177,0.567695,0.53129678,-0.35840276,0.594603,0.50198004,-0.33929173,0.590544,0.48083534,-0.31651497,0.582593,0.47233673,-0.29525337,0.57528,0.53838824,-0.28373001,0.563257,0.49936382,-0.26827068,0.547535,0.48132066,-0.27820675,0.539675,0.47790737,-0.29418929,0.546612,0.53527404,-0.28976514,0.548716,0.49822938,-0.25531262,0.523276,0.47694728,-0.23592479,0.508436,0.4679697,-0.24336889,0.513119,0.53300799,-0.2981217,0.53889,0.49372408,-0.28257359,0.520945,0.47273352,-0.27531965,0.511764,0.46651935,-0.29224579,0.517918,0.53436118,-0.313188,0.53123,0.49231865,-0.2971893,0.51381,0.47098566,-0.29508459,0.505807,0.46248191,-0.30660829,0.509662
0.5226084,-0.38226958,0.588624,0.52986826,-0.33227719,0.568599,0.53045671,-0.35896823,0.595423,0.50131251,-0.34013927,0.591035,0.47883286,-0.31758071,0.582607,0.46939006,-0.29633477,0.574938,0.53797612,-0.28361478,0.563859,0.49942431,-0.26817805,0.547877,0.48144087,-0.27828668,0.539887,0.47827848,-0.29451157,0.546846,0.5358498,-0.28973818,0.549528,0.49882161,-0.2556161,0.523898,0.47742757,-0.23616237,0.508948,0.46847951,-0.24363402,0.513678,0.53440466,-0.29818024,0.539885,0.49500596,-0.28174043,0.521713,0.47417103,-0.27376477,0.512415,0.46774883,-0.29032498,0.518599,0.5355944,-0.31391079,0.532456,0.49330844,-0.29778679,0.514843,0.47186467,-0.29563531,0.506751,0.46348618,-0.30668219,0.510627
0.52323215,-0.38130597,0.589892,0.5323584,-0.3342819,0.574107,0.52967913,-0.35989648,0.596361,0.49908086,-0.3434926,0.591926,0.47068243,-0.32438628,0.581061,0.45828838,-0.30338543,0.572878,0.53142404,-0.28327267,0.571815,0.49570838,-0.26822905,0.553739,0.48345043,-0.28046436,0.544701,0.48278103,-0.29804465,0.552942,0.5360035,-0.28756619,0.559073,0.50439376,-0.25624435,0.53703,0.48582466,-0.23772461,0.524172,0.48388646,-0.25068146,0.531781,0.53997006,-0.29451453,0.550282,0.50663742,-0.28058144,0.534727,0.48920464,-0.27333514,0.526768,0.48595798,-0.29490149,0.53565,0.54519306,-0.30955713,0.543045,0.50739258,-0.29734221,0.52759,0.48827253,-0.29751503,0.520489,0.48011275,-0.31252296,0.526416
0.51484609,-0.37412217,0.581513,0.52297147,-0.32726837,0.570383,0.51287579,-0.35531244,0.588448,0.48530879,-0.33900721,0.585625,0.46512497,-0.32244244,0.580588,0.45481537,-0.30272133,0.573957,0.52924915,-0.2824366,0.571858,0.49504038,-0.26613383,0.554327,0.47934892,-0.27832151,0.545562,0.48408991,-0.29879947,0.55504,0.534722,-0.28624224,0.559783,0.50615645,-0.25848088,0.542336,0.48528864,-0.24243371,0.532158,0.48801692,-0.23856802,0.542093,0.53893057,-0.29249885,0.551038,0.51132946,-0.27057523,0.539258,0.49772643,-0.26023017,0.533231,0.49922026,-0.27749562,0.544334,0.54192946,-0.30283434,0.54298,0.51167775,-0.28441473,0.530707,0.49727015,-0.27644722,0.525069,0.49435924,-0.28719269,0.53271
0.51361075,-0.3712185,0.578973,0.52441212,-0.32657603,0.570768,0.51889608,-0.3555877,0.585572,0.49365524,-0.34080499,0.582862,0.46862863,-0.32163124,0.572326,0.45494852,-0.30350013,0.563172,0.51896392,-0.28254355,0.573792,0.49136165,-0.25644405,0.558799,0.48066903,-0.26923364,0.551302,0.48791218,-0.29113886,0.562331,0.52893703,-0.28099823,0.562953,0.5015873,-0.25316887,0.548202,0.48532507,-0.23646673,0.539598,0.48918818,-0.23170732,0.551063,0.53743179,-0.28293155,0.554912,0.51288563,-0.26675935,0.545095,0.49986446,-0.25814155,0.540073,0.50710558,-0.27936497,0.55257,0.54835308,-0.29161156,0.54712,0.51913103,-0.28014474,0.536531,0.50448407,-0.27735193,0.531666,0.50351325,-0.2881945,0.540387
0.51719827,-0.37119147,0.58028,0.52881022,-0.32990444,0.573307,0.52137326,-0.3563285,0.587871,0.5008811,-0.35020027,0.587029,0.47159542,-0.33029415,0.571893,0.45723973,-0.31337212,0.562282,0.52170121,-0.28526708,0.57846,0.49007735,-0.26235087,0.564561,0.48330828,-0.27278074,0.557612,0.49141021,-0.29460074,0.568729,0.53076027,-0.2831185,0.566666,0.50389402,-0.25689919,0.553565,0.48472103,-0.24294052,0.545922,0.49129924,-0.23684376,0.5576,0.53840778,-0.2845123,0.557706,0.51956413,-0.25619055,0.546522,0.51063339,-0.24103431,0.540799,0.51370668,-0.25326174,0.552645,0.54818701,-0.29245904,0.548616,0.52014478,-0.27903296,0.53947,0.50522373,-0.26951396,0.535268,0.50551163,-0.27115436,0.544217
0.51990561,-0.37192046,0.58175,0.52981332,-0.32763512,0.574528,0.52132322,-0.35731533,0.588994,0.50246782,-0.34882056,0.587538,0.47430236,-0.3297311,0.573681,0.45888124,-0.30992682,0.564735,0.5217096,-0.28449786,0.57906,0.49015551,-0.26148725,0.565156,0.48269847,-0.27260785,0.558204,0.49131812,-0.29444794,0.569442,0.53109719,-0.28242228,0.56765,0.50325163,-0.25675635,0.554149,0.48430458,-0.24225938,0.546273,0.48976409,-0.23741028,0.557964,0.53911756,-0.28391108,0.559034,0.52024506,-0.2553082,0.547734,0.51099499,-0.24037781,0.541953,0.51324092,-0.25284503,0.553886,0.54949752,-0.29203016,0.550389,0.519664,-0.2743665,0.540856,0.50619595,-0.26391921,0.536476,0.50644326,-0.26824776,0.545408
0.51868366,-0.37026234,0.578903,0.52798165,-0.32565735,0.574005,0.51557904,-0.35571855,0.585409,0.49682297,-0.34213526,0.583387,0.47315607,-0.3232012,0.573885,0.46233759,-0.30793647,0.567757,0.5197106,-0.28509411,0.579154,0.4915194,-0.2635727,0.567793,0.48342134,-0.27469589,0.562112,0.49552376,-0.29720094,0.574795,0.53163742,-0.28296818,0.56934,0.50342297,-0.25808991,0.557853,0.486049,-0.24232091,0.551152,0.49063587,-0.24062744,0.564082,0.53929068,-0.28194582,0.561787,0.517607,-0.25688448,0.554491,0.50680533,-0.24387482,0.550758,0.50841985,-0.25813936,0.564597,0.55113751,-0.28852715,0.55394,0.52341035,-0.27357934,0.545523,0.51070219,-0.26882,0.541656,0.51157935,-0.27055614,0.551428
0.51848399,-0.36916807,0.577277,0.52739742,-0.32490359,0.573328,0.5135772,-0.35552172,0.583979,0.49699095,-0.34196575,0.582514,0.47336146,-0.32283035,0.572814,0.46224919,-0.30686927,0.56692,0.51936884,-0.28563526,0.579376,0.49232385,-0.26468368,0.569255,0.48487988,-0.27580242,0.564194,0.49742943,-0.29848409,0.577294,0.53122813,-0.28290523,0.569568,0.50391194,-0.25827666,0.55912,0.48708985,-0.24272836,0.553026,0.49169292,-0.24117634,0.566287,0.53897036,-0.28174265,0.561916,0.51856756,-0.25736119,0.55552,0.5081755,-0.24453414,0.552247,0.51005066,-0.25896737,0.566408,0.55064818,-0.28756404,0.553777,0.52374961,-0.27376264,0.546129,0.51137351,-0.26890769,0.542616,0.51247782,-0.27082427,0.552642
0.51893099,-0.36783931,0.575083,0.52723089,-0.32530652,0.572763,0.51396532,-0.35610159,0.582417,0.4992022,-0.34428064,0.58238,0.47551188,-0.3241392,0.572936,0.46260441,-0.30625492,0.567121,0.51765295,-0.28829547,0.580741,0.49080144,-0.26707015,0.571143,0.48592235,-0.2771292,0.566344,0.49899245,-0.29975532,0.579543,0.52848362,-0.28285399,0.570554,0.50317109,-0.25773516,0.56202,0.4879041,-0.24248142,0.557041,0.49140048,-0.24052623,0.570766,0.53849206,-0.28166059,0.562415,0.51978025,-0.25820591,0.55779,0.51022842,-0.24576086,0.555423,0.5129245,-0.26055686,0.570065,0.54911085,-0.28487004,0.553404,0.52418828,-0.27219337,0.547265,0.51240724,-0.26131854,0.544445,0.51455385,-0.26518221,0.554853
0.52164624,-0.36658184,0.573068,0.52737996,-0.32450513,0.571882,0.51322107,-0.35579388,0.580233,0.50012633,-0.34302241,0.580259,0.474208,-0.32131955,0.57054,0.46083272,-0.30306741,0.56443,0.51804674,-0.28812559,0.580409,0.49173543,-0.26870618,0.572681,0.48770674,-0.27973377,0.568817,0.50250397,-0.30339395,0.582753,0.52990051,-0.28319969,0.570752,0.50504063,-0.25844961,0.563314,0.48925299,-0.24279278,0.558976,0.49433858,-0.24167268,0.573182,0.53867561,-0.28172747,0.562928,0.52090641,-0.25874425,0.559095,0.51174576,-0.24648092,0.557134,0.51504799,-0.26153573,0.572199,0.5498272,-0.28484171,0.554069,0.52632012,-0.26753799,0.548625,0.51682525,-0.25760987,0.546123,0.50560884,-0.25294814,0.543916
0.52131913,-0.36388752,0.569246,0.52546228,-0.3236453,0.570497,0.51173455,-0.35494643,0.577146,0.4996708,-0.34244972,0.579027,0.47392121,-0.32206724,0.57017,0.46128767,-0.30432964,0.564657,0.51500888,-0.29027447,0.581635,0.48367228,-0.27480572,0.574229,0.48708592,-0.28593393,0.570526,0.50423676,-0.30597173,0.584475,0.52493805,-0.28319947,0.571688,0.50239829,-0.2591914,0.567066,0.48863171,-0.24445194,0.564371,0.49237991,-0.24382399,0.57926,0.53422443,-0.27999818,0.563361,0.50788043,-0.25418803,0.562057,0.49513073,-0.24248808,0.56139,0.49777534,-0.2414047,0.57714,0.54596243,-0.28153838,0.553461,0.52932841,-0.25737057,0.550185,0.52245157,-0.24669436,0.54868,0.51625203,-0.2370336,0.547351
0.52226037,-0.36556941,0.570157,0.5225316,-0.32601657,0.569347,0.50992676,-0.35489371,0.574198,0.49198889,-0.33798906,0.569694,0.46579714,-0.31592647,0.561856,0.4545141,-0.29811152,0.557065,0.50211892,-0.292869,0.574061,0.49066258,-0.260729,0.565924,0.4820295,-0.26540326,0.561856,0.495474,-0.29578572,0.576602,0.51928009,-0.28999233,0.568576,0.50238019,-0.25715174,0.560435,0.48831482,-0.24119626,0.555686,0.49995889,-0.23324408,0.570632,0.53373033,-0.29047995,0.564146,0.51454395,-0.2535125,0.558465,0.50466974,-0.2344552,0.555559,0.5144152,-0.2362976,0.570994,0.5553599,-0.29625381,0.559156,0.54637244,-0.2696086,0.56329,0.54864383,-0.25956754,0.570051,0.55062071,-0.25062475,0.576016
0.52934481,-0.37162403,0.578175,0.52057921,-0.33140498,0.569856,0.51024005,-0.35638954,0.57518,0.47971929,-0.33095146,0.558753,0.44362042,-0.30133389,0.53645,0.43250323,-0.28290195,0.531451,0.48943235,-0.28548108,0.560308,0.47134641,-0.24990283,0.544023,0.46131417,-0.22991179,0.53588,0.47022827,-0.22281263,0.548252,0.51283414,-0.28696561,0.561934,0.49241558,-0.25117671,0.544196,0.48461413,-0.22901136,0.533849,0.49529579,-0.22212754,0.546229,0.53343355,-0.29144841,0.56417,0.54005415,-0.25837639,0.561397,0.5416234,-0.24654167,0.559978,0.55544296,-0.26062879,0.57656,0.56031866,-0.30319249,0.568329,0.55105002,-0.27340377,0.568722,0.54686551,-0.25994609,0.568903,0.54668016,-0.24977369,0.572697
0.53075518,-0.37332343,0.579522,0.52012923,-0.33185072,0.570681,0.51088334,-0.35818896,0.576318,0.47995118,-0.3316751,0.559462,0.44402522,-0.30080104,0.538899,0.43328162,-0.28183093,0.533632,0.48837039,-0.28531748,0.560504,0.4682719,-0.24579267,0.543646,0.45701722,-0.22444491,0.535217,0.46761822,-0.21962317,0.547368,0.51200445,-0.28707808,0.562261,0.49007389,-0.25026016,0.54394,0.48309277,-0.22824649,0.533252,0.49372636,-0.22129205,0.545422,0.53279297,-0.29181907,0.56466,0.5118681,-0.2473259,0.548032,0.5045742,-0.23355586,0.539524,0.51737543,-0.23494004,0.551628,0.55992664,-0.30391031,0.569107,0.55144173,-0.27453821,0.570257,0.54815678,-0.26150684,0.571351,0.54842859,-0.25153575,0.575615
0.5326395,-0.3748758,0.580911,0.52133804,-0.33226935,0.571867,0.51079526,-0.35914356,0.576203,0.4791344,-0.33049418,0.557377,0.44445592,-0.30097283,0.537021,0.43269831,-0.28214196,0.531731,0.48694638,-0.28473474,0.559594,0.46828803,-0.24651681,0.542211,0.4579621,-0.22588168,0.53352,0.46670363,-0.21763554,0.545352,0.5123129,-0.28725454,0.563253,0.49052802,-0.24967307,0.54447,0.48340779,-0.22787413,0.533514,0.49414364,-0.22115672,0.545394,0.53464968,-0.29264535,0.567241,0.51241355,-0.24710179,0.549648,0.5053735,-0.23376348,0.540647,0.51856171,-0.23492729,0.552295,0.56304524,-0.30592638,0.57357,0.55488465,-0.27094823,0.568839,0.55454925,-0.25869217,0.566665,0.55536287,-0.2547135,0.564747
0.53243161,-0.37522763,0.580182,0.52131782,-0.33171737,0.571852,0.50862366,-0.3589395,0.573887,0.47436215,-0.32842637,0.55334,0.44137209,-0.30040666,0.537577,0.4281888,-0.27993067,0.525937,0.48318494,-0.28312328,0.557997,0.46629968,-0.24389723,0.541309,0.45725321,-0.2236143,0.532966,0.46668729,-0.21641469,0.544756,0.51062898,-0.28637931,0.563919,0.4912472,-0.24901722,0.545683,0.48471081,-0.22792118,0.535045,0.49566291,-0.22131827,0.546827,0.5357442,-0.29258966,0.569694,0.5113616,-0.2460499,0.551913,0.50494428,-0.2325979,0.542816,0.51597064,-0.22776787,0.55416,0.56552237,-0.30411307,0.577962,0.55388384,-0.26954228,0.56923,0.55210829,-0.25707892,0.565218,0.55170766,-0.25299984,0.561678
0.52971218,-0.37360959,0.576583,0.52267283,-0.32799052,0.571224,0.50674545,-0.35839683,0.571612,0.47440478,-0.32892927,0.553643,0.44174578,-0.30128284,0.538854,0.42734304,-0.27942201,0.525606,0.48654387,-0.28448177,0.561112,0.47037215,-0.24408913,0.54767,0.46219478,-0.22164504,0.54095,0.47152018,-0.21069864,0.554055,0.51241496,-0.28687658,0.566121,0.49871773,-0.24804377,0.551197,0.49349163,-0.22430052,0.542491,0.50706393,-0.2166571,0.555525,0.53540961,-0.29217812,0.570824,0.5117106,-0.24697971,0.556179,0.50667901,-0.2324069,0.548686,0.52108817,-0.22866124,0.561332,0.56433836,-0.30309607,0.57729,0.55682354,-0.27220976,0.577006,0.55242836,-0.2589765,0.576876,0.55404891,-0.2541083,0.57676
0.52959801,-0.37322313,0.575573,0.52449289,-0.32801054,0.57254,0.50458994,-0.35719708,0.568758,0.47065861,-0.32654738,0.549406,0.44074925,-0.30106159,0.538225,0.42585941,-0.27866925,0.526089,0.48499811,-0.28263437,0.561603,0.47074163,-0.24215974,0.551168,0.46418963,-0.22252945,0.54595,0.47373246,-0.21162132,0.559473,0.51382026,-0.28591857,0.569651,0.49986486,-0.24226596,0.557058,0.49434782,-0.21917491,0.549712,0.50710545,-0.20937263,0.562906,0.53789624,-0.29066288,0.576605,0.51530202,-0.24880713,0.563095,0.50318185,-0.22660862,0.556183,0.49934746,-0.21011008,0.555179,0.56646994,-0.30013901,0.585247,0.56685129,-0.2714632,0.588316,0.56704301,-0.25848102,0.589726,0.57261749,-0.24903355,0.590971
0.52537775,-0.37015199,0.570974,0.52203314,-0.32546478,0.571546,0.50087433,-0.35483889,0.564817,0.46802974,-0.32486348,0.547567,0.43866643,-0.30235479,0.539253,0.42589348,-0.28056603,0.529145,0.48614006,-0.28216873,0.563915,0.47320203,-0.24277638,0.557245,0.46857488,-0.22393865,0.553911,0.48081966,-0.21427786,0.568562,0.51340181,-0.28382388,0.57209,0.50123491,-0.24184655,0.56487,0.49453916,-0.21823022,0.560658,0.50530671,-0.20794633,0.575324,0.53727042,-0.2887891,0.578761,0.51890771,-0.24918174,0.568693,0.5101354,-0.2289766,0.563542,0.50348495,-0.21099647,0.558859,0.56675771,-0.30001785,0.586397,0.56702211,-0.2712836,0.589365,0.56716107,-0.25828085,0.590729,0.57283406,-0.24878543,0.591932
0.52119463,-0.36800764,0.567493,0.518155,-0.32470343,0.569567,0.49778949,-0.35357892,0.562631,0.4671135,-0.32254584,0.557763,0.44030025,-0.29728462,0.549249,0.43271363,-0.28478898,0.554287,0.48558672,-0.28079147,0.564643,0.47428958,-0.24264682,0.558746,0.47003353,-0.22383815,0.555797,0.48236208,-0.21422637,0.570935,0.51285306,-0.28348868,0.571543,0.50255856,-0.24270029,0.566202,0.49762654,-0.2193489,0.563087,0.51087497,-0.20984262,0.578502,0.53749749,-0.29039985,0.577002,0.52953016,-0.25482057,0.577915,0.52616474,-0.23390316,0.578382,0.52429501,-0.21643856,0.578806,0.56567137,-0.30164725,0.582948,0.55815956,-0.27094056,0.581962,0.55550258,-0.25865708,0.58151,0.55627178,-0.24989233,0.58111
0.51775733,-0.36700656,0.565354,0.51188338,-0.32364171,0.569261,0.49542194,-0.35332864,0.561778,0.46456746,-0.32381503,0.558112,0.43926679,-0.29855124,0.55004,0.43307708,-0.2850809,0.555222,0.48581661,-0.28178446,0.567257,0.4749572,-0.24511093,0.563459,0.47185896,-0.22741623,0.56156,0.48507432,-0.21599721,0.577477,0.51294687,-0.28462041,0.572982,0.5037781,-0.2447796,0.569404,0.49814126,-0.22196874,0.567317,0.51383642,-0.21269327,0.583365,0.53421286,-0.28933542,0.577275,0.52814779,-0.25453449,0.577887,0.52483337,-0.2343711,0.578431,0.52327226,-0.21684473,0.578925,0.55985029,-0.3018334,0.581524,0.55610767,-0.27178133,0.583124,0.55450698,-0.2580474,0.583859,0.55746085,-0.25292036,0.584507
