sluyters/QuantumLeap/backend/src/datasets/gesture/HandGestureDataset_SHREC2017_csv/Gesture5/finger_1/subject_1_essai_3_skeletons_world.csv
Wrist_x,Wrist_y,Wrist_z,Palm_x,Palm_y,Palm_z,thumb_base_x,thumb_base_y,thumb_base_z,thumb_first_joint_x,thumb_first_joint_y,thumb_first_joint_z,thumb_second_joint_x,thumb_second_joint_y,thumb_second_joint_z,thumb_tip_x,thumb_tip_y,thumb_tip_z,index_base_x,index_base_y,index_base_z,index_first_joint_x,index_first_joint_y,index_first_joint_z,index_second_joint_x,index_second_joint_y,index_second_joint_z,index_tip_x,index_tip_y,index_tip_z,middle_base_x,middle_base_y,middle_base_z,middle_first_joint_x,middle_first_joint_y,middle_first_joint_z,middle_second_joint_x,middle_second_joint_y,middle_second_joint_z,middle_tip_x,middle_tip_y,middle_tip_z,ring_base_x,ring_base_y,ring_base_z,ring_first_joint_x,ring_first_joint_y,ring_first_joint_z,ring_second_joint_x,ring_second_joint_y,ring_second_joint_z,ring_tip_x,ring_tip_y,ring_tip_z,pinky_base_x,pinky_base_y,pinky_base_z,pinky_first_joint_x,pinky_first_joint_y,pinky_first_joint_z,pinky_second_joint_x,pinky_second_joint_y,pinky_second_joint_z,pinky_tip_x,pinky_tip_y,pinky_tip_z,
0.47905049,-0.40816467,0.579696,0.46117186,-0.35621303,0.565033,0.45100614,-0.39227735,0.570137,0.4167722,-0.37840899,0.550375,0.3786865,-0.35922355,0.523994,0.35558596,-0.34192328,0.509263,0.41596273,-0.30430877,0.543435,0.40472474,-0.26766265,0.542256,0.39934788,-0.24901281,0.541667,0.39494016,-0.23174929,0.541131,0.44357246,-0.3062264,0.55038,0.42684912,-0.25727183,0.534109,0.4204481,-0.23631499,0.524618,0.41887341,-0.22650284,0.517839,0.4678118,-0.31141453,0.557173,0.44526712,-0.26611026,0.534021,0.4398946,-0.25033717,0.522175,0.43858692,-0.24443867,0.511407,0.49928079,-0.32459664,0.567302,0.48555783,-0.30130161,0.546374,0.48131665,-0.29126606,0.536758,0.47765805,-0.2823203,0.528274
0.47932707,-0.40858643,0.580396,0.46066424,-0.35609129,0.564943,0.45156511,-0.3930366,0.571251,0.41679092,-0.37865832,0.550894,0.3790665,-0.35838027,0.52452,0.35559662,-0.34189897,0.509253,0.41533984,-0.30425813,0.543326,0.40046734,-0.2657507,0.537517,0.39130474,-0.24711951,0.534612,0.38622962,-0.22912832,0.531972,0.44140546,-0.30540477,0.549501,0.4196019,-0.25598295,0.530767,0.4155911,-0.24210645,0.519839,0.41378597,-0.22733312,0.512033,0.46411793,-0.3093802,0.55572,0.44174871,-0.26530831,0.532193,0.43638488,-0.25039121,0.520155,0.43528389,-0.24631766,0.509212,0.49555756,-0.32168065,0.565276,0.48131564,-0.30621895,0.54396,0.47655923,-0.29860972,0.534166,0.47244534,-0.29185203,0.525525
0.48402921,-0.41241694,0.585973,0.46225056,-0.35752485,0.567364,0.45440642,-0.39559624,0.574867,0.41713254,-0.37893161,0.551248,0.38092419,-0.359052,0.524742,0.35772371,-0.34116027,0.508917,0.40851193,-0.30420509,0.541217,0.39233613,-0.26642235,0.533375,0.38482226,-0.24767044,0.529453,0.37822209,-0.23059468,0.525888,0.43710432,-0.30478336,0.548769,0.40995265,-0.25378305,0.52231,0.40256637,-0.24194757,0.506875,0.3990617,-0.23317097,0.49585,0.46151508,-0.30983107,0.556352,0.44392452,-0.27712543,0.529497,0.44258993,-0.27503334,0.515758,0.44253507,-0.28204462,0.503267,0.49404685,-0.32304537,0.567971,0.48216887,-0.30377157,0.544108,0.47577515,-0.29874305,0.533144,0.47053617,-0.29330346,0.52347
0.47932487,-0.40828524,0.579983,0.46002905,-0.35641045,0.565432,0.44755459,-0.38991533,0.566105,0.41805937,-0.37039663,0.54047,0.38341029,-0.34673814,0.514421,0.36047037,-0.32766982,0.50074,0.39981354,-0.30696951,0.538595,0.3891232,-0.26843475,0.53096,0.38249537,-0.24970122,0.527142,0.37714353,-0.23114876,0.523672,0.4299509,-0.30929886,0.550891,0.40688454,-0.25920148,0.528256,0.4088225,-0.25842187,0.515053,0.41046058,-0.25798431,0.505621,0.45689277,-0.31467137,0.56208,0.44124115,-0.278731,0.536744,0.43489288,-0.26168977,0.523782,0.43860758,-0.26373837,0.511998,0.49306971,-0.32780228,0.577425,0.47796209,-0.30446647,0.555672,0.48192786,-0.31045471,0.545677,0.47737152,-0.31342626,0.536858
0.47418688,-0.40422675,0.573691,0.45052598,-0.35590173,0.560602,0.44114569,-0.38506304,0.558038,0.4141214,-0.36488422,0.531237,0.38667743,-0.33999793,0.505033,0.36472823,-0.32005259,0.490931,0.38991416,-0.30886275,0.53256,0.37671844,-0.27140534,0.522776,0.37002786,-0.25218801,0.517884,0.36388781,-0.23441285,0.513437,0.42024324,-0.31228435,0.547522,0.40539535,-0.26592005,0.526552,0.40908858,-0.25677788,0.514319,0.41354415,-0.24791476,0.505581,0.4474261,-0.31841577,0.560797,0.44243426,-0.28532017,0.536161,0.44011456,-0.26808303,0.523557,0.44672002,-0.26983649,0.512098,0.48408072,-0.33215944,0.578421,0.48342864,-0.3220331,0.55756,0.48237766,-0.33031017,0.547976,0.48150044,-0.33631992,0.550867
0.47368737,-0.40287768,0.571844,0.45011655,-0.35377345,0.558077,0.4397317,-0.38357195,0.555042,0.42861218,-0.35752805,0.527263,0.3881414,-0.33300262,0.50166,0.36290922,-0.31813042,0.48957,0.38683018,-0.30769563,0.528165,0.37381053,-0.26967559,0.518306,0.36782344,-0.25041042,0.513376,0.36270804,-0.23272954,0.508894,0.41690863,-0.31065203,0.544319,0.40231747,-0.26354323,0.522935,0.40772688,-0.25278083,0.510461,0.41191318,-0.24499724,0.501551,0.44411319,-0.31632378,0.558624,0.43970196,-0.28090572,0.533231,0.43869889,-0.26556207,0.520239,0.44596001,-0.26665131,0.508428,0.47907635,-0.32706614,0.577568,0.48039978,-0.31527298,0.556249,0.48028048,-0.32416867,0.546454,0.47946862,-0.33392395,0.548421
0.46972704,-0.39828246,0.565615,0.44242883,-0.35112528,0.550655,0.43817114,-0.38245863,0.548129,0.42284102,-0.35234202,0.519631,0.38430155,-0.32772598,0.494084,0.35965991,-0.31322198,0.483229,0.38054128,-0.30301093,0.519103,0.36655514,-0.26423279,0.507991,0.36038029,-0.24423347,0.502436,0.35606835,-0.22726009,0.497386,0.40988441,-0.30477752,0.535707,0.39495504,-0.25610924,0.513328,0.40213163,-0.24939174,0.500274,0.40479325,-0.24199647,0.490949,0.43672668,-0.30940724,0.550469,0.4341795,-0.2751916,0.524014,0.43276918,-0.25819528,0.510479,0.43815908,-0.2604905,0.498174,0.47388712,-0.32108465,0.570125,0.47333989,-0.3026653,0.548006,0.47460497,-0.30846914,0.537842,0.47285648,-0.32410267,0.539098
0.46559343,-0.39403699,0.559344,0.43937298,-0.34609562,0.544306,0.4356546,-0.37913545,0.541672,0.41850019,-0.34805942,0.513042,0.38147069,-0.32304861,0.487438,0.35670251,-0.30852216,0.476816,0.37626208,-0.29820911,0.512471,0.3600521,-0.25970777,0.498669,0.35306753,-0.24187056,0.491767,0.3467213,-0.22280887,0.485494,0.40587211,-0.29997549,0.529278,0.39011486,-0.25247066,0.506879,0.39736365,-0.24583414,0.493814,0.40198628,-0.24034365,0.484481,0.43295649,-0.30460654,0.544213,0.43062618,-0.27248877,0.517677,0.42967605,-0.25583329,0.5041,0.4372773,-0.25683365,0.491758,0.47043589,-0.31630255,0.564085,0.46887308,-0.2993992,0.54193,0.46958611,-0.3076525,0.531751,0.46951414,-0.31743538,0.532838
0.47301537,-0.3970777,0.563362,0.44056942,-0.34512805,0.543744,0.44000317,-0.38135246,0.544868,0.4197816,-0.35046824,0.514793,0.38214452,-0.32738841,0.48887,0.3568656,-0.30949515,0.475867,0.37262535,-0.29659464,0.507826,0.35801243,-0.259868,0.493646,0.35103526,-0.24097078,0.486557,0.35258256,-0.22947695,0.480111,0.40176316,-0.29758772,0.524139,0.3857963,-0.25367455,0.497523,0.38950963,-0.2464553,0.481997,0.3934165,-0.24641549,0.470907,0.42880107,-0.30169107,0.539006,0.42826892,-0.28081968,0.508717,0.42825487,-0.27010215,0.493221,0.42794908,-0.2773742,0.479133,0.46693355,-0.31296079,0.559434,0.46155353,-0.29433109,0.534172,0.46089552,-0.29226708,0.522565,0.46823833,-0.30483192,0.522207
0.47484321,-0.38917635,0.555011,0.43543571,-0.33933123,0.536234,0.43936155,-0.37519344,0.536914,0.41466186,-0.34558479,0.507236,0.37760322,-0.32454393,0.481388,0.35220301,-0.3069826,0.46893,0.36804309,-0.2927489,0.501369,0.35336397,-0.25541873,0.48622,0.35052691,-0.23671288,0.478645,0.34990114,-0.22627317,0.471759,0.3968857,-0.29302308,0.517471,0.38171798,-0.24872577,0.491533,0.38583043,-0.24163564,0.476403,0.39007209,-0.24171836,0.465595,0.42372852,-0.296413,0.532101,0.4220854,-0.26740325,0.502506,0.42131868,-0.25400556,0.487364,0.42224885,-0.26008265,0.473598,0.46206472,-0.30489603,0.552132,0.45534638,-0.28675298,0.527392,0.45622099,-0.28631643,0.516025,0.46407563,-0.29658478,0.516168
0.46717095,-0.38094044,0.544674,0.43294262,-0.32971953,0.52848,0.43368879,-0.36864738,0.528882,0.41114448,-0.33894592,0.501338,0.37344882,-0.31672538,0.475025,0.34719635,-0.30061214,0.461347,0.36826692,-0.28420496,0.498183,0.349163,-0.24183882,0.474085,0.34179595,-0.2221778,0.462036,0.33960405,-0.21405085,0.451082,0.3965361,-0.28325537,0.512296,0.38397752,-0.24007244,0.488313,0.38682574,-0.23629962,0.474322,0.3916756,-0.23708259,0.464329,0.4205927,-0.28755838,0.525101,0.42018875,-0.26325563,0.497938,0.42032058,-0.25067164,0.48404,0.42174181,-0.25761724,0.471406,0.45704333,-0.29575568,0.542598,0.45164622,-0.27891637,0.51956,0.45300809,-0.27900962,0.508975,0.46115811,-0.28971857,0.511271
0.46167373,-0.37430087,0.536326,0.43571147,-0.32985455,0.529584,0.43162995,-0.36350253,0.523291,0.41869599,-0.3266463,0.500058,0.38610775,-0.30844773,0.486359,0.3654855,-0.2981037,0.482811,0.37818034,-0.29075994,0.509018,0.36766924,-0.2562346,0.490292,0.36369358,-0.23961538,0.480929,0.35837858,-0.22496449,0.473575,0.40649901,-0.28952063,0.522845,0.40851729,-0.25584753,0.507842,0.41738731,-0.24863853,0.49909,0.42179634,-0.25006923,0.492947,0.43219657,-0.29126118,0.534719,0.4416672,-0.27523384,0.515986,0.44648748,-0.26668895,0.506553,0.44745274,-0.27437348,0.498437,0.46739602,-0.2986626,0.54979,0.46534226,-0.28650795,0.533673,0.46882544,-0.28857798,0.526267,0.47992803,-0.30403033,0.53159
0.46069035,-0.36980201,0.532021,0.43772992,-0.32393222,0.524874,0.43191252,-0.35755586,0.518491,0.39798986,-0.32567842,0.494752,0.36408134,-0.30356099,0.475225,0.3433299,-0.28679332,0.465568,0.38311043,-0.28023618,0.50343,0.37109945,-0.24444858,0.483634,0.36773555,-0.22752081,0.473736,0.37333013,-0.21681938,0.475635,0.41174483,-0.28102026,0.517733,0.41630474,-0.24690061,0.502385,0.42739022,-0.24338981,0.493432,0.43624164,-0.24659426,0.487037,0.43748669,-0.28458085,0.530027,0.44803969,-0.26987013,0.510823,0.45420699,-0.26221594,0.500998,0.47120143,-0.28319377,0.508209,0.47234511,-0.29442698,0.545656,0.47457787,-0.28350272,0.529204,0.47705513,-0.28544467,0.521646,0.48268044,-0.30186121,0.526631
0.46155629,-0.36953339,0.531944,0.44012155,-0.32006042,0.521809,0.43326784,-0.35737344,0.519292,0.39806514,-0.32555326,0.495616,0.36406463,-0.30251722,0.475994,0.34342886,-0.28469888,0.465777,0.38922474,-0.27264966,0.499441,0.37673546,-0.23841031,0.477965,0.3728493,-0.22266738,0.467227,0.37866268,-0.21329639,0.468897,0.41845937,-0.27425913,0.51168,0.42129752,-0.24292795,0.493246,0.42846654,-0.2422005,0.482493,0.4336901,-0.24737488,0.474812,0.44445606,-0.27884294,0.522497,0.45019021,-0.26861302,0.501081,0.45383399,-0.26341418,0.490123,0.46749956,-0.28643985,0.497592,0.47917396,-0.29057919,0.536784,0.47664146,-0.28249964,0.518257,0.4759222,-0.28462159,0.509744,0.48003805,-0.29912881,0.514827
0.46255071,-0.36958095,0.532234,0.4413711,-0.32013575,0.522013,0.43407351,-0.35711101,0.519682,0.39898621,-0.32537377,0.497508,0.36528464,-0.29762362,0.480689,0.34581897,-0.28055439,0.46917,0.38965588,-0.27265751,0.499711,0.37682796,-0.23852434,0.478226,0.37275303,-0.22284236,0.467483,0.37916489,-0.21397082,0.470122,0.4189449,-0.2742085,0.5118,0.42238974,-0.2452695,0.493276,0.42985517,-0.25361343,0.48247,0.43316433,-0.2642344,0.475059,0.44498695,-0.27875301,0.522499,0.45024858,-0.26871321,0.501047,0.45364754,-0.26361851,0.490071,0.46718851,-0.28676658,0.497597,0.47976027,-0.29046415,0.536658,0.47676982,-0.28252404,0.518085,0.47579546,-0.28517161,0.509551,0.48103424,-0.30066968,0.514671
0.46659576,-0.36776988,0.531718,0.45212757,-0.3196664,0.521411,0.43636447,-0.355464,0.519352,0.40103206,-0.32558293,0.497656,0.36766907,-0.29869588,0.481691,0.34977332,-0.27981213,0.473336,0.39833869,-0.27228237,0.499279,0.38539425,-0.23830919,0.477827,0.38126659,-0.22271279,0.4671,0.38501666,-0.21458663,0.471475,0.42761091,-0.27372444,0.511111,0.43198153,-0.24721511,0.49249,0.43807022,-0.25539359,0.481627,0.43977905,-0.2674612,0.473875,0.45365074,-0.27818505,0.521605,0.45874468,-0.26834804,0.500145,0.46207359,-0.26336384,0.489165,0.47130349,-0.2863113,0.496807,0.48844367,-0.28980731,0.535531,0.48527722,-0.28200923,0.516924,0.48415812,-0.28517154,0.508375,0.49186781,-0.30332674,0.513572
0.46156598,-0.36567703,0.527749,0.44610203,-0.31654325,0.518388,0.43516603,-0.35364341,0.518128,0.39774504,-0.31565701,0.498838,0.36525045,-0.28924766,0.482109,0.34748967,-0.26835657,0.472052,0.40610099,-0.26177853,0.50027,0.40235431,-0.22462308,0.483086,0.40364933,-0.22600123,0.474495,0.41635681,-0.24654402,0.483536,0.4349781,-0.26631778,0.509035,0.43986263,-0.25104614,0.491512,0.44329117,-0.2631967,0.48129,0.44334286,-0.27722643,0.474391,0.45989107,-0.27348863,0.516935,0.46956768,-0.2648989,0.502172,0.47527284,-0.27891714,0.494618,0.48788948,-0.30399412,0.50564,0.49182358,-0.28866251,0.527643,0.48560848,-0.28432559,0.510232,0.48257415,-0.28968835,0.502233,0.48828354,-0.30468457,0.508756
0.45825829,-0.3616512,0.523277,0.44366636,-0.31112921,0.512432,0.42893573,-0.34713685,0.512858,0.38940975,-0.30811584,0.493634,0.35757759,-0.28078107,0.476731,0.34255745,-0.26279364,0.467339,0.40641228,-0.25254036,0.492336,0.40512168,-0.22592975,0.472086,0.40022513,-0.23371356,0.461961,0.40568488,-0.25608842,0.4698,0.43609609,-0.26001475,0.501595,0.43692265,-0.22996635,0.482413,0.43052889,-0.24735688,0.471224,0.43707209,-0.26725998,0.480028,0.46135536,-0.26973942,0.510011,0.45219363,-0.23227225,0.488855,0.45306268,-0.23986905,0.478032,0.46442502,-0.26478892,0.486792,0.48951854,-0.28677196,0.52154,0.48536551,-0.27611321,0.502929,0.48530508,-0.28444922,0.494378,0.49484496,-0.30144507,0.500327
0.45336981,-0.35734516,0.519478,0.4454601,-0.29856004,0.505966,0.42485891,-0.33601841,0.51162,0.39190258,-0.2949522,0.494508,0.36300328,-0.2660122,0.478991,0.34916387,-0.24431329,0.469854,0.41838589,-0.24059165,0.487232,0.41308241,-0.21828337,0.466294,0.40199792,-0.22707812,0.455825,0.40199517,-0.25109674,0.46414,0.44498908,-0.24989977,0.492463,0.43967133,-0.2290416,0.470932,0.42486719,-0.24602095,0.458372,0.42760813,-0.26248468,0.467225,0.46718901,-0.26117943,0.497761,0.45638906,-0.22679756,0.475726,0.45061379,-0.23657948,0.464452,0.45521556,-0.25975397,0.473691,0.4941333,-0.28159837,0.505951,0.47904382,-0.27190925,0.486277,0.47355262,-0.28144176,0.477238,0.47966972,-0.29498485,0.483432
0.45703918,-0.35962692,0.522652,0.44546263,-0.31064932,0.5082,0.42888736,-0.34246998,0.51332,0.39568574,-0.30232861,0.493231,0.36746277,-0.27163007,0.476197,0.35431451,-0.24918521,0.466464,0.423684,-0.24958429,0.487022,0.42129332,-0.22707181,0.464927,0.41049766,-0.23525881,0.453879,0.41085579,-0.25675255,0.461432,0.45079541,-0.26066767,0.493758,0.44893006,-0.23967758,0.471224,0.43374913,-0.25585532,0.458078,0.43425125,-0.27384203,0.466234,0.47333775,-0.27343038,0.500365,0.46551389,-0.23850314,0.476909,0.45984541,-0.24781684,0.464909,0.46583875,-0.27263,0.473257,0.50057064,-0.29567028,0.510242,0.48796083,-0.28524681,0.489514,0.48224859,-0.29439999,0.47999,0.48819311,-0.31148901,0.485551
0.45472499,-0.35919521,0.522664,0.44983658,-0.30872918,0.507573,0.42506646,-0.33570361,0.512031,0.39231475,-0.29421019,0.491888,0.37003646,-0.26268329,0.472968,0.35824528,-0.23954009,0.463578,0.42371581,-0.24725208,0.484365,0.4260816,-0.22825456,0.462201,0.42660184,-0.21906603,0.45112,0.43199345,-0.23432787,0.45821,0.45144265,-0.25996709,0.492492,0.45306959,-0.24131966,0.469288,0.43353844,-0.2559814,0.455753,0.4318274,-0.27329401,0.463278,0.47445734,-0.27408555,0.500289,0.47328979,-0.26182855,0.475763,0.45353046,-0.27331007,0.463215,0.44720582,-0.29335597,0.470753,0.50214643,-0.29798041,0.511673,0.49022248,-0.29391185,0.490181,0.48340449,-0.30385407,0.480306,0.48745612,-0.31925787,0.485294
0.4529064,-0.35805244,0.519494,0.45539688,-0.31375238,0.503451,0.42859474,-0.34103932,0.511487,0.40127556,-0.29920427,0.491492,0.37463008,-0.26490842,0.475297,0.36354141,-0.24209837,0.466894,0.43277885,-0.25245116,0.482838,0.4262073,-0.22933263,0.460597,0.42539105,-0.21929242,0.449476,0.4302002,-0.23408885,0.457152,0.45745627,-0.26499677,0.487419,0.45020196,-0.23883668,0.463556,0.43195755,-0.25344913,0.449636,0.42803798,-0.27067164,0.457599,0.47792871,-0.27895099,0.492369,0.46920543,-0.25861778,0.468381,0.45602408,-0.26648976,0.456108,0.45383044,-0.28893222,0.464476,0.50263059,-0.30267999,0.500496,0.48760892,-0.2912359,0.479169,0.480534,-0.29998553,0.469369,0.48619407,-0.31722073,0.474892
0.45154648,-0.35859586,0.518847,0.45349399,-0.31232311,0.497894,0.42578432,-0.33779934,0.507828,0.40375588,-0.29260787,0.487247,0.38501791,-0.25835062,0.472898,0.38006277,-0.23667295,0.46721,0.43728913,-0.24932261,0.470281,0.42631755,-0.2349688,0.44331,0.42115636,-0.22779037,0.429824,0.43388058,-0.23039262,0.434792,0.46167052,-0.26571677,0.476955,0.45683614,-0.24555851,0.448395,0.42775154,-0.25835119,0.431735,0.42064767,-0.27190856,0.4371,0.48164336,-0.28286585,0.483989,0.4782328,-0.26540896,0.454965,0.4489036,-0.27223102,0.440116,0.4382283,-0.28896617,0.445525,0.50521548,-0.31042642,0.495282,0.488419,-0.29842922,0.469994,0.47643934,-0.30715846,0.458376,0.47683809,-0.3223497,0.461729
0.44761292,-0.3586546,0.518068,0.45274891,-0.31316022,0.496613,0.4232114,-0.33468695,0.506181,0.40098013,-0.29003738,0.484774,0.38344837,-0.2558625,0.471068,0.37969811,-0.23449977,0.465773,0.44033331,-0.25197239,0.467596,0.42918303,-0.24007406,0.439897,0.42393346,-0.23419071,0.426047,0.43662906,-0.23829842,0.430455,0.46342871,-0.27100789,0.475174,0.45740042,-0.2558472,0.446119,0.42578851,-0.26748268,0.429171,0.41751174,-0.27960429,0.434052,0.48196568,-0.29013035,0.482988,0.47404029,-0.27910649,0.453214,0.44150952,-0.28463969,0.43798,0.42945552,-0.29975241,0.442785,0.50307364,-0.31963787,0.495279,0.48683623,-0.30759445,0.469454,0.47158874,-0.31625092,0.457589,0.46921615,-0.3295348,0.460513
0.44915143,-0.35901293,0.518088,0.45769862,-0.31324618,0.494363,0.42574853,-0.33553313,0.505697,0.41380053,-0.28984859,0.486228,0.39799005,-0.25558919,0.472383,0.39570712,-0.23427311,0.467007,0.4445033,-0.2501197,0.463202,0.42681142,-0.23717956,0.433754,0.4203293,-0.2308988,0.419029,0.43173953,-0.23452778,0.422387,0.46895756,-0.26815273,0.470654,0.45077577,-0.26351977,0.439577,0.41500269,-0.27217233,0.421448,0.4077304,-0.27717167,0.425242,0.48883187,-0.28653542,0.478532,0.47049193,-0.28224333,0.446925,0.43496843,-0.28296725,0.430754,0.4216736,-0.29669795,0.434421,0.51188207,-0.31523864,0.491216,0.48460337,-0.31203809,0.4639,0.46532865,-0.31889612,0.451349,0.46134445,-0.32750133,0.453424
0.44708227,-0.35907598,0.517792,0.46164675,-0.31571895,0.494157,0.42436866,-0.33258033,0.505063,0.41407052,-0.28726551,0.483717,0.40460954,-0.25098882,0.467491,0.4036012,-0.22922743,0.458498,0.45131166,-0.25409266,0.462641,0.4347212,-0.24203023,0.43272,0.42666162,-0.23608067,0.417759,0.43519321,-0.23733325,0.420872,0.47354146,-0.275063,0.470539,0.45026535,-0.27354578,0.439528,0.41394378,-0.28123878,0.421438,0.40497226,-0.28913106,0.425144,0.49121149,-0.29562907,0.478777,0.4694924,-0.29174528,0.447088,0.43543642,-0.29582917,0.430875,0.42209032,-0.30959974,0.434401,0.51089588,-0.32648232,0.491877,0.48346259,-0.32208636,0.464531,0.46444063,-0.32900362,0.451967,0.46034003,-0.34082315,0.453948
0.44445185,-0.35664094,0.515147,0.46128902,-0.31389943,0.490691,0.43409428,-0.32679376,0.502345,0.4299531,-0.27718853,0.484206,0.42312965,-0.24220329,0.469898,0.42577162,-0.22199779,0.462612,0.4665771,-0.25674465,0.458534,0.4448902,-0.24572337,0.428152,0.42897027,-0.24534556,0.412961,0.42562894,-0.25972705,0.415764,0.48449505,-0.28089185,0.466251,0.4496911,-0.28036722,0.434522,0.40843388,-0.28007578,0.416013,0.3988641,-0.28626629,0.419348,0.49816078,-0.30353847,0.474402,0.46735855,-0.30038961,0.442106,0.43066001,-0.3014392,0.425582,0.41620518,-0.30907715,0.428735,0.5121679,-0.33576576,0.487511,0.47882952,-0.32924003,0.459662,0.45498393,-0.33349723,0.446867,0.44820903,-0.34337889,0.448567
0.44479659,-0.35575417,0.514868,0.46721946,-0.31491116,0.48891,0.43562477,-0.32407614,0.50162,0.42980919,-0.27534849,0.481808,0.42294239,-0.24040759,0.467359,0.42668007,-0.22099479,0.46123,0.47099044,-0.26080811,0.455198,0.44317061,-0.25112706,0.423526,0.42428091,-0.25014614,0.40769,0.41852698,-0.25956659,0.409647,0.48689284,-0.28614756,0.46297,0.44623304,-0.28041216,0.429933,0.40341636,-0.280805,0.410662,0.39285276,-0.28338193,0.413173,0.49882859,-0.30953702,0.471276,0.45754699,-0.30711707,0.437754,0.41949167,-0.30568012,0.420603,0.40340934,-0.31533264,0.422875,0.51063416,-0.34215109,0.48478,0.47286062,-0.33393782,0.455953,0.44676537,-0.33616841,0.442709,0.44102126,-0.34205096,0.443758
0.44659726,-0.35776905,0.516036,0.46877244,-0.32662295,0.488636,0.43537753,-0.32648721,0.501963,0.42902596,-0.2834687,0.478703,0.42205023,-0.2483917,0.464051,0.42772311,-0.2301278,0.460003,0.46865513,-0.26966294,0.452941,0.43966523,-0.25943414,0.420176,0.42022532,-0.2580741,0.403793,0.41270708,-0.27073892,0.404769,0.48509028,-0.29535029,0.461256,0.44446829,-0.29188551,0.426983,0.40022831,-0.29002632,0.406991,0.38813246,-0.29239495,0.4085,0.49759865,-0.31914825,0.470114,0.45851542,-0.31454646,0.435276,0.42007936,-0.31278444,0.417451,0.40288471,-0.3222321,0.418603,0.510315,-0.35247898,0.484477,0.47466443,-0.3418593,0.454648,0.44833311,-0.34367279,0.440942,0.43875374,-0.35179299,0.441179
0.44642558,-0.35699779,0.513929,0.47416064,-0.33315794,0.484493,0.44735639,-0.32987336,0.50105,0.4432238,-0.2891556,0.479986,0.43906048,-0.25498431,0.466134,0.44577046,-0.23736961,0.4609,0.47608473,-0.27884981,0.448902,0.44763001,-0.25968685,0.415552,0.41863929,-0.25540375,0.398877,0.4081808,-0.26307963,0.399579,0.48856011,-0.30486849,0.455078,0.43637634,-0.29445428,0.419152,0.39061521,-0.28579683,0.398195,0.37923847,-0.28745354,0.399153,0.49790418,-0.32879843,0.462326,0.4483618,-0.31818972,0.426651,0.40830886,-0.31318739,0.408399,0.39232095,-0.31779034,0.409187,0.50701415,-0.36191207,0.475056,0.47510964,-0.34011829,0.4444,0.44599754,-0.33943801,0.430315,0.44075428,-0.34232234,0.430235
0.45009682,-0.3570778,0.513913,0.47619048,-0.33421326,0.483471,0.45571827,-0.33014995,0.499589,0.4606849,-0.29049484,0.47844,0.46541388,-0.26013441,0.464801,0.47340415,-0.24474499,0.456607,0.48413298,-0.28659778,0.445427,0.44636031,-0.27095155,0.41072,0.41820927,-0.26651556,0.393366,0.40340536,-0.27420197,0.392827,0.49415557,-0.3140704,0.45305,0.43952288,-0.30164659,0.416264,0.39114138,-0.29135545,0.394805,0.37556729,-0.28626447,0.394681,0.50136616,-0.3387306,0.461563,0.4462765,-0.32705045,0.424629,0.40487781,-0.31931956,0.405732,0.38627893,-0.32075216,0.405219,0.50774441,-0.37180088,0.475939,0.47537657,-0.35076448,0.444404,0.44409138,-0.34689576,0.429915,0.43799822,-0.34450525,0.428911
0.45538884,-0.35530132,0.514961,0.47820134,-0.33748552,0.481457,0.45947319,-0.32851103,0.499084,0.47298852,-0.29194949,0.476692,0.47789253,-0.26376397,0.458447,0.48701394,-0.25189563,0.449263,0.48440465,-0.30095596,0.439448,0.42036662,-0.27904258,0.402418,0.38847609,-0.26775001,0.383903,0.36979465,-0.26449547,0.380779,0.48901761,-0.32867637,0.447977,0.42616095,-0.30974437,0.408849,0.37619772,-0.28875282,0.386024,0.36212171,-0.2822974,0.383343,0.49204138,-0.35268193,0.457461,0.43137162,-0.33401681,0.418084,0.3883508,-0.31740544,0.397938,0.36592757,-0.31430106,0.394604,0.49403677,-0.3833434,0.473418,0.45083753,-0.36082415,0.440087,0.42003798,-0.35152268,0.424773,0.40384083,-0.35049469,0.421731
0.46034674,-0.35151512,0.507528,0.46865035,-0.33212116,0.47027,0.46015196,-0.32218378,0.49074,0.47339814,-0.29050466,0.466671,0.47817268,-0.26410681,0.447315,0.48377529,-0.25193016,0.434573,0.46860127,-0.29783727,0.424622,0.39952175,-0.27250866,0.385662,0.36432474,-0.25863638,0.366182,0.34218676,-0.25240191,0.359727,0.47222766,-0.32563303,0.433039,0.40803593,-0.30281864,0.391452,0.35824947,-0.27693849,0.367192,0.33820976,-0.26640538,0.361051,0.4750976,-0.34967719,0.442706,0.40527766,-0.32367985,0.401129,0.36571773,-0.30351612,0.379856,0.34487773,-0.29619141,0.372831,0.47822115,-0.38027413,0.459405,0.42529638,-0.35186591,0.424506,0.39327721,-0.3392325,0.408471,0.3860754,-0.33466795,0.402758
0.45385281,-0.33923203,0.494419,0.46742464,-0.33484326,0.459376,0.46059045,-0.31356002,0.477166,0.47377364,-0.28698735,0.450707,0.48472942,-0.27223704,0.437559,0.49868314,-0.2692699,0.431948,0.47179426,-0.30731744,0.414641,0.40359253,-0.27644657,0.376342,0.36563142,-0.25109641,0.357192,0.34506796,-0.23757073,0.351964,0.47080813,-0.33396419,0.424358,0.39677817,-0.30327759,0.3843,0.35224186,-0.2723943,0.360934,0.33617092,-0.26221393,0.356251,0.46964403,-0.35618093,0.434932,0.39574497,-0.32631831,0.394333,0.35967197,-0.29962481,0.373561,0.34085395,-0.29136637,0.367963,0.46751307,-0.38303726,0.452402,0.40875641,-0.35170765,0.418299,0.38076659,-0.33582343,0.40263,0.38044687,-0.33098767,0.397976
0.46049323,-0.33851463,0.494195,0.46641082,-0.34200322,0.4577,0.46509913,-0.3162236,0.477178,0.48247911,-0.29697091,0.453061,0.49640578,-0.28440647,0.438731,0.50859496,-0.28455025,0.432796,0.46431603,-0.31632629,0.412283,0.39139433,-0.27502753,0.373502,0.3536016,-0.24952201,0.354111,0.33839337,-0.23421575,0.34806,0.46044168,-0.34173824,0.421231,0.38604933,-0.30313615,0.380159,0.34730671,-0.26964972,0.356201,0.33111255,-0.25822826,0.350554,0.45755587,-0.362839,0.431281,0.38158242,-0.32257697,0.390001,0.34895848,-0.29703729,0.368882,0.33498652,-0.28647978,0.362331,0.45471679,-0.38813581,0.448328,0.39457692,-0.34770273,0.413676,0.38637727,-0.34725473,0.416959,0.405501,-0.35951305,0.430428
0.48150683,-0.39827669,0.49596,0.46145022,-0.36956596,0.455353,0.48625127,-0.37504299,0.487097,0.491104,-0.34232826,0.468711,0.49484285,-0.3143671,0.451371,0.49564421,-0.29919828,0.435773,0.4537991,-0.32164512,0.417212,0.39860987,-0.27938166,0.383231,0.36588766,-0.25696857,0.36624,0.33859016,-0.23770969,0.353071,0.4415108,-0.34089522,0.414773,0.38121875,-0.29815813,0.375551,0.33702175,-0.26918344,0.352671,0.31802472,-0.25352293,0.338878,0.43278176,-0.35901002,0.415756,0.36589856,-0.31508316,0.379099,0.33278185,-0.28859285,0.360344,0.31064286,-0.26958392,0.34583,0.42504049,-0.38473007,0.422585,0.36793211,-0.33569789,0.392816,0.35386514,-0.32862617,0.387421,0.36082768,-0.33885938,0.395806
0.48068471,-0.39471436,0.492511,0.45782495,-0.36753124,0.451911,0.48375239,-0.37105117,0.482036,0.48952845,-0.33947093,0.463776,0.50014675,-0.31601326,0.446139,0.50256176,-0.30444469,0.430917,0.44456744,-0.32273028,0.411792,0.38401186,-0.27562123,0.378511,0.35476957,-0.25295093,0.36187,0.32887555,-0.23530295,0.348134,0.43233078,-0.34276848,0.41134,0.37020883,-0.29729154,0.372163,0.33163974,-0.26801283,0.349309,0.31365401,-0.25537012,0.334745,0.42406075,-0.36123437,0.413957,0.35806082,-0.31611242,0.377699,0.32947639,-0.28889291,0.359149,0.30697574,-0.26931296,0.343907,0.41767865,-0.38683348,0.422729,0.36534764,-0.33607189,0.392667,0.34841644,-0.33084517,0.386436,0.35675271,-0.33971803,0.394601
0.47777431,-0.391273,0.488253,0.45319233,-0.36488083,0.4478,0.4807067,-0.36803062,0.477408,0.48983496,-0.33773569,0.459508,0.49714819,-0.31382687,0.442397,0.49908889,-0.30190421,0.42703,0.438977,-0.320743,0.407324,0.37973309,-0.27201483,0.373272,0.35107496,-0.24858754,0.356246,0.32322578,-0.23050509,0.341984,0.42627685,-0.34046329,0.407375,0.36131961,-0.29241903,0.368348,0.32436505,-0.26521435,0.345582,0.30857479,-0.25189078,0.330756,0.41499008,-0.35914844,0.410395,0.36385403,-0.31018028,0.373177,0.32622893,-0.28374161,0.354135,0.30340713,-0.26931821,0.338275,0.407683,-0.38365537,0.419628,0.35529734,-0.33070314,0.389656,0.34326638,-0.32717392,0.383118,0.34837203,-0.33847725,0.391131
0.47709847,-0.3895509,0.486462,0.45157375,-0.36360036,0.446276,0.48015306,-0.36667185,0.475705,0.4891928,-0.33653154,0.458196,0.49673264,-0.31301211,0.441122,0.49875637,-0.30170452,0.425729,0.43717899,-0.31958025,0.406086,0.3778272,-0.27053655,0.372215,0.34916001,-0.24700153,0.355279,0.32090085,-0.22943464,0.340722,0.42277747,-0.33940899,0.406118,0.36024567,-0.29100744,0.367589,0.32238101,-0.26301437,0.345114,0.30756119,-0.2493295,0.330071,0.41347668,-0.35704929,0.409103,0.36430566,-0.30955392,0.372273,0.32663536,-0.28274478,0.353429,0.30181273,-0.26667756,0.337305,0.40632093,-0.38151141,0.418256,0.35556455,-0.32944361,0.388674,0.34000885,-0.323609,0.381796,0.34347454,-0.33421305,0.389541
0.47715857,-0.38899579,0.485924,0.45111729,-0.36332912,0.445876,0.48027849,-0.36629213,0.475135,0.48669819,-0.33545965,0.455607,0.49174589,-0.31211108,0.436838,0.49322337,-0.30010984,0.420603,0.43670855,-0.31939759,0.40574,0.37661614,-0.27052297,0.371691,0.34606371,-0.24700357,0.354666,0.31797091,-0.22918601,0.339875,0.42352124,-0.33882367,0.405856,0.35948422,-0.29024166,0.367529,0.32309022,-0.26353374,0.345171,0.30720548,-0.24928807,0.330001,0.41319654,-0.35667391,0.4089,0.36465683,-0.30960105,0.372205,0.32709631,-0.28282349,0.353431,0.3025261,-0.26684924,0.33715,0.40604024,-0.38112512,0.418104,0.35595849,-0.32925938,0.388692,0.33939179,-0.32105285,0.381636,0.34027023,-0.32932686,0.389252
0.47559546,-0.38808854,0.484272,0.4492163,-0.3625505,0.444408,0.47852697,-0.36535518,0.473356,0.48191501,-0.33461714,0.451542,0.48311298,-0.31005615,0.431078,0.48237779,-0.29857324,0.414012,0.43389016,-0.31890403,0.404239,0.37098877,-0.2711855,0.370134,0.34012299,-0.24801297,0.353082,0.31375009,-0.22919733,0.338038,0.42049636,-0.33828328,0.40457,0.35649679,-0.28905734,0.366516,0.32056487,-0.26231575,0.344318,0.30438734,-0.24993867,0.328982,0.41149261,-0.35612712,0.407778,0.36330456,-0.30945833,0.371417,0.32587216,-0.28271579,0.352814,0.29971966,-0.26597641,0.336374,0.40466521,-0.38084889,0.417152,0.35481971,-0.32922596,0.387928,0.33753424,-0.32100141,0.380637,0.33795928,-0.32889234,0.388095
0.47505735,-0.387912,0.483681,0.44840018,-0.3624309,0.443895,0.47799834,-0.36523709,0.4728,0.48093356,-0.3347057,0.451065,0.48198835,-0.30981253,0.430609,0.48120375,-0.29821367,0.413519,0.43298955,-0.31870343,0.403823,0.36997104,-0.27116446,0.369789,0.33909983,-0.24806115,0.352773,0.31259776,-0.22941939,0.337662,0.41965102,-0.33811523,0.404137,0.35545603,-0.2890022,0.366208,0.31980392,-0.2623306,0.344082,0.30371237,-0.24985201,0.328691,0.41069187,-0.35599016,0.407324,0.36262304,-0.30948333,0.371077,0.32521816,-0.28272243,0.352532,0.29878029,-0.26572275,0.336031,0.40392011,-0.38075796,0.416663,0.35421068,-0.32927532,0.387551,0.33663829,-0.32100607,0.380174,0.33684279,-0.3287115,0.38756
0.47263508,-0.38621856,0.481605,0.44558797,-0.36153767,0.442508,0.47579077,-0.36381781,0.471006,0.47315596,-0.33160535,0.452105,0.4801845,-0.30971675,0.43138,0.48111693,-0.29850051,0.414522,0.4290101,-0.31734245,0.403243,0.36683262,-0.27131905,0.369843,0.33632594,-0.2490543,0.353142,0.30815943,-0.23069769,0.337516,0.41575166,-0.33679925,0.403437,0.3491429,-0.28446116,0.366563,0.31325169,-0.25819123,0.345053,0.29492319,-0.24438062,0.329236,0.40684724,-0.35474335,0.406476,0.3538326,-0.30389224,0.371232,0.31777111,-0.27795674,0.3532,0.29510813,-0.26402417,0.336232,0.40012368,-0.37963588,0.415541,0.35155588,-0.32894656,0.387362,0.33327236,-0.32012649,0.37931,0.33337086,-0.3264999,0.386105
0.47211117,-0.38601192,0.481375,0.44487566,-0.36123053,0.442426,0.47519248,-0.36356856,0.470717,0.47416066,-0.33230948,0.453065,0.48035648,-0.30988036,0.43219,0.48125804,-0.2987924,0.41529,0.42818504,-0.31659338,0.403187,0.36598968,-0.27120261,0.369922,0.33562886,-0.24925976,0.35329,0.30764021,-0.23046207,0.337553,0.41502855,-0.33610227,0.403503,0.34939721,-0.28466835,0.36683,0.31360029,-0.25847856,0.345437,0.29518028,-0.24459365,0.329523,0.40619659,-0.35410699,0.406631,0.35414428,-0.30415993,0.371559,0.31814448,-0.27828334,0.353615,0.29441471,-0.26331274,0.336534,0.39954456,-0.37909509,0.415781,0.35120229,-0.32845223,0.387752,0.33291621,-0.31966488,0.379553,0.33289833,-0.32623455,0.386238
0.47140601,-0.38572476,0.481039,0.44238213,-0.36130511,0.442696,0.47444703,-0.36330156,0.470399,0.47372638,-0.33259586,0.453475,0.47749426,-0.30878491,0.432449,0.47936199,-0.29854307,0.415467,0.42512318,-0.31503165,0.403888,0.36356738,-0.27227177,0.371273,0.33388676,-0.25158979,0.354965,0.30793476,-0.23157903,0.338872,0.41203766,-0.33457662,0.40438,0.34207152,-0.2837075,0.368429,0.30881905,-0.25851456,0.347457,0.29464288,-0.24525929,0.331183,0.40327476,-0.35262984,0.407607,0.35383249,-0.30550014,0.373215,0.31836768,-0.28002735,0.35562,0.29480665,-0.26435773,0.338143,0.39674157,-0.37770099,0.416793,0.34956329,-0.32753768,0.389455,0.33119772,-0.31854131,0.380726,0.33179952,-0.32661303,0.386962
0.47133408,-0.38550501,0.480857,0.44162833,-0.36101322,0.442604,0.47437054,-0.36325023,0.47021,0.47231849,-0.33190294,0.45254,0.47637619,-0.30835953,0.431878,0.47814214,-0.29806611,0.414987,0.42432282,-0.31499895,0.403848,0.36311486,-0.27260875,0.37132,0.33356735,-0.25207881,0.355056,0.30736084,-0.23175007,0.33891,0.41127387,-0.33457298,0.404378,0.34214208,-0.28376602,0.368505,0.30892659,-0.25860458,0.347578,0.29369592,-0.24502527,0.331246,0.40255786,-0.35264318,0.407631,0.35294941,-0.3055448,0.373279,0.31765566,-0.28017623,0.355704,0.2941433,-0.26422458,0.338154,0.39610725,-0.37771833,0.416833,0.34915713,-0.32771339,0.389593,0.3307307,-0.31853577,0.380788,0.33115431,-0.32623828,0.386961
0.47098508,-0.38556497,0.480883,0.44137528,-0.36097913,0.442796,0.4740161,-0.36334315,0.470226,0.47350163,-0.33195057,0.453853,0.47926193,-0.30768931,0.433938,0.4813634,-0.29891252,0.41729,0.42422448,-0.31522978,0.404137,0.36344253,-0.27246059,0.371804,0.33409648,-0.25175916,0.355637,0.30749253,-0.23174126,0.339412,0.41121606,-0.33485603,0.404735,0.34163863,-0.28340701,0.369007,0.30955661,-0.2590538,0.348166,0.291972,-0.2450692,0.331734,0.402532,-0.35295487,0.408031,0.35284164,-0.30588195,0.373753,0.31766902,-0.28058519,0.356216,0.29402245,-0.26439127,0.338537,0.39612077,-0.3780356,0.417261,0.3493966,-0.32819781,0.390197,0.33086412,-0.31884361,0.381259,0.33103271,-0.32623136,0.387319
0.47078015,-0.38577368,0.481182,0.44131996,-0.3610636,0.443075,0.47371897,-0.36348078,0.470524,0.47413244,-0.33187135,0.454577,0.47994412,-0.30731003,0.43494,0.482223,-0.29890587,0.418344,0.42423554,-0.31544084,0.404403,0.36356539,-0.27228992,0.372029,0.33427794,-0.25141656,0.355842,0.30743819,-0.23161914,0.33962,0.41119952,-0.33506288,0.404995,0.34141407,-0.28324979,0.369283,0.30986309,-0.25927164,0.348451,0.29264614,-0.24554988,0.332039,0.40250493,-0.35315429,0.408288,0.35255158,-0.30591766,0.373838,0.31737014,-0.28058584,0.356212,0.29364934,-0.26426173,0.338498,0.39610268,-0.37822143,0.417518,0.34940576,-0.32837977,0.390432,0.33089725,-0.3189952,0.381509,0.33093746,-0.32622226,0.387583
0.47030997,-0.38587231,0.481395,0.44129881,-0.36099438,0.44335,0.47317356,-0.36352073,0.470746,0.4742445,-0.33174137,0.45469,0.47855047,-0.30696542,0.435152,0.47975727,-0.29704407,0.418413,0.42425945,-0.31542208,0.40473,0.36413541,-0.2723362,0.372436,0.33569527,-0.25037446,0.356289,0.30781003,-0.23170091,0.34004,0.41124727,-0.33508016,0.405331,0.34134446,-0.28311188,0.369733,0.31019536,-0.25945679,0.348968,0.293203,-0.24589354,0.332536,0.40257805,-0.35319583,0.408627,0.34963157,-0.30520717,0.374073,0.31520501,-0.28052495,0.356394,0.2914433,-0.26407927,0.338593,0.39621677,-0.37828151,0.417852,0.34954931,-0.32853646,0.390836,0.33117205,-0.31929151,0.381866,0.33186961,-0.32652607,0.387896
0.46991003,-0.38598048,0.48165,0.44126583,-0.36092584,0.443554,0.47261175,-0.36350535,0.470953,0.47426101,-0.33159658,0.45471,0.47850524,-0.30671638,0.435212,0.47955936,-0.29664862,0.418428,0.42413639,-0.31530316,0.404841,0.36431282,-0.27218287,0.372485,0.33598276,-0.25030853,0.356307,0.30783861,-0.23156308,0.340079,0.41118345,-0.33501193,0.405485,0.34110587,-0.28286062,0.369824,0.31015872,-0.25936444,0.349022,0.29334892,-0.24593391,0.332612,0.40257241,-0.35317387,0.40882,0.34889775,-0.30473622,0.374186,0.31474944,-0.28036183,0.356466,0.29161907,-0.26436165,0.338684,0.39629795,-0.37832233,0.418098,0.34953962,-0.3285437,0.391008,0.33132631,-0.31946378,0.382074,0.33151762,-0.32680819,0.388144
0.4697653,-0.38583453,0.481961,0.44079373,-0.36060606,0.443792,0.47235185,-0.3632896,0.471208,0.47430872,-0.33150832,0.454759,0.4784521,-0.30652491,0.435236,0.47939539,-0.29633467,0.418431,0.4240748,-0.31523602,0.40496,0.36444111,-0.27205592,0.372513,0.33615982,-0.25023952,0.356289,0.30746225,-0.23128045,0.340092,0.41117957,-0.33499612,0.40565,0.34093961,-0.28268471,0.369893,0.31010998,-0.25927975,0.349035,0.29344571,-0.2459566,0.332658,0.40262388,-0.35320584,0.409027,0.34839345,-0.3044168,0.374286,0.31442127,-0.28024188,0.356512,0.29175459,-0.26457191,0.338761,0.39643362,-0.37842333,0.418366,0.34956081,-0.32857636,0.391174,0.33149674,-0.31964644,0.382294,0.3314099,-0.32676677,0.388421
0.46962046,-0.38568852,0.482272,0.44031381,-0.36027996,0.444022,0.47209897,-0.36307924,0.47147,0.47437797,-0.33145942,0.454828,0.47844519,-0.30640232,0.435284,0.47930268,-0.2961072,0.418467,0.42404622,-0.31519769,0.405075,0.36453271,-0.27194589,0.372524,0.33626802,-0.25016902,0.356249,0.30706853,-0.23098479,0.340088,0.41119256,-0.3349966,0.405798,0.34080344,-0.2825433,0.369932,0.31004265,-0.25919056,0.34901,0.29349927,-0.24595778,0.332671,0.40268114,-0.3532455,0.409209,0.34800787,-0.30417059,0.374352,0.31415204,-0.2801308,0.356519,0.29184504,-0.26471919,0.338806,0.39656068,-0.37852176,0.4186,0.34957074,-0.32859588,0.391299,0.33164178,-0.31980095,0.38248,0.33127845,-0.32670194,0.38867
0.46956644,-0.38554573,0.482336,0.44006796,-0.36014177,0.444085,0.47191499,-0.36287814,0.471467,0.47418513,-0.33113689,0.454801,0.47831521,-0.30622714,0.435208,0.47877968,-0.29540236,0.418345,0.42350752,-0.31499153,0.405056,0.36446236,-0.2717626,0.372507,0.33642742,-0.24993264,0.356233,0.30700144,-0.23083935,0.340071,0.41075058,-0.33486257,0.40586,0.34073976,-0.28246836,0.370008,0.31008225,-0.25919808,0.349094,0.29360783,-0.2460148,0.332757,0.40233236,-0.35317271,0.409338,0.34778072,-0.30404255,0.374481,0.31405125,-0.28014096,0.356647,0.29199368,-0.26490459,0.338932,0.39634899,-0.37852358,0.418809,0.34936964,-0.32863365,0.39148,0.33156884,-0.31991657,0.382658,0.33141039,-0.32695159,0.388856
0.46950951,-0.38540058,0.482397,0.43981622,-0.35999872,0.444142,0.471731,-0.36267707,0.471464,0.47399552,-0.33081676,0.454777,0.4781945,-0.30607625,0.435132,0.47826397,-0.29470243,0.418229,0.42296368,-0.31478157,0.405032,0.36438404,-0.27157306,0.372482,0.3365782,-0.24968814,0.356207,0.30692594,-0.23068719,0.340045,0.4103005,-0.33472198,0.405914,0.34069092,-0.28241015,0.370071,0.31011552,-0.25920549,0.349163,0.29369749,-0.24606276,0.332829,0.40197371,-0.3530913,0.409457,0.34761022,-0.3039499,0.374596,0.31398026,-0.28015755,0.35676,0.29212303,-0.26506232,0.339045,0.39612492,-0.37851358,0.419005,0.34915493,-0.32865876,0.391646,0.33148455,-0.32002129,0.382823,0.33153296,-0.327192,0.389031
0.46945238,-0.38533738,0.48246,0.4398409,-0.36011443,0.444361,0.47128749,-0.36235617,0.47118,0.47346904,-0.33033568,0.454361,0.47099918,-0.3025434,0.434645,0.46796863,-0.28702227,0.417419,0.42256253,-0.31468986,0.404929,0.36456451,-0.27155141,0.372589,0.3363799,-0.2505869,0.356418,0.30715399,-0.2307146,0.340191,0.41041122,-0.33502163,0.406289,0.34018481,-0.28238447,0.370748,0.31070317,-0.25991474,0.350016,0.29486914,-0.24712009,0.333634,0.40247721,-0.35372965,0.410214,0.34526106,-0.30317047,0.375564,0.31289713,-0.28059293,0.357835,0.29305503,-0.26679857,0.340043,0.39705785,-0.37955835,0.420195,0.35000406,-0.32970404,0.392859,0.3323443,-0.32108259,0.383903,0.33255599,-0.32838164,0.390051
0.46966686,-0.38547516,0.482845,0.43995454,-0.36027831,0.444739,0.47146397,-0.36249401,0.471556,0.47376433,-0.33041697,0.454774,0.47126947,-0.30270424,0.435102,0.46821101,-0.28719741,0.417876,0.42255903,-0.31487139,0.40529,0.3649041,-0.27159345,0.372933,0.33686933,-0.25055565,0.356755,0.30751284,-0.23076095,0.340529,0.4104203,-0.33521079,0.406659,0.34012215,-0.28260668,0.371108,0.31088991,-0.26025267,0.35037,0.29522026,-0.24753593,0.333993,0.40250621,-0.353921,0.410592,0.34538715,-0.30357718,0.375924,0.31300675,-0.28092416,0.358186,0.29310074,-0.26667538,0.340396,0.39712671,-0.37974614,0.420583,0.35002869,-0.329905,0.393234,0.33253659,-0.32142746,0.384285,0.33298316,-0.32891082,0.390439
0.46995328,-0.38570372,0.483594,0.44033518,-0.36067823,0.445721,0.4718456,-0.36281444,0.472445,0.47348023,-0.33054304,0.454967,0.4715609,-0.30279027,0.436482,0.46816253,-0.28695946,0.419229,0.42291834,-0.31530041,0.4066,0.36623885,-0.27271972,0.374538,0.33851108,-0.25188731,0.358507,0.30888515,-0.23187358,0.342182,0.4109004,-0.33578747,0.407874,0.33719855,-0.28278746,0.372635,0.30925238,-0.26053062,0.352078,0.29595433,-0.24813406,0.335596,0.40289802,-0.35444221,0.411711,0.34233888,-0.30400205,0.377373,0.31378504,-0.28190025,0.359804,0.29399708,-0.2680524,0.341909,0.39741146,-0.380162,0.421555,0.35054032,-0.33058945,0.394516,0.33306243,-0.32212263,0.385391,0.33359558,-0.32965541,0.39137
0.47003847,-0.38576711,0.484136,0.4402798,-0.36072109,0.446262,0.4717866,-0.36279616,0.472893,0.47330734,-0.33074683,0.455267,0.47141385,-0.30264529,0.436901,0.46784277,-0.28665933,0.419641,0.42281037,-0.31541643,0.407026,0.3664174,-0.27298581,0.374962,0.33889783,-0.25228611,0.35893,0.30914687,-0.23215332,0.342606,0.41070068,-0.3358088,0.408415,0.33714029,-0.28265551,0.373193,0.30907966,-0.26040148,0.352647,0.29584391,-0.24821358,0.336172,0.4028155,-0.35454633,0.412346,0.34218102,-0.30382873,0.378019,0.31384747,-0.28217818,0.360457,0.29420751,-0.26840615,0.342568,0.39748455,-0.38037554,0.422303,0.35054023,-0.33079159,0.395223,0.33324305,-0.32248416,0.386098,0.33402803,-0.33022227,0.39209
0.47008596,-0.38594942,0.484639,0.44025968,-0.36100708,0.446837,0.47177367,-0.36297572,0.473335,0.47309019,-0.33077479,0.455752,0.47065492,-0.30166775,0.438927,0.46815713,-0.28632065,0.421603,0.42267243,-0.31576639,0.407574,0.36662626,-0.27353121,0.3756,0.33925444,-0.25291052,0.359613,0.30946877,-0.23265952,0.343262,0.41061003,-0.33619969,0.409061,0.33745421,-0.28298482,0.373955,0.30948515,-0.26074375,0.353477,0.29602371,-0.24854371,0.336979,0.40276806,-0.35496518,0.413068,0.34108278,-0.30347154,0.378916,0.31144033,-0.28226814,0.361443,0.29459436,-0.26904858,0.343548,0.39749801,-0.3808141,0.423106,0.35092498,-0.33140184,0.396075,0.33348908,-0.32285634,0.386897,0.33412557,-0.33039465,0.392851
0.47075731,-0.38665362,0.485864,0.44086836,-0.3618187,0.448129,0.47204358,-0.3633786,0.474137,0.47108209,-0.33033986,0.457036,0.47053759,-0.30141258,0.439528,0.46692376,-0.28503342,0.422458,0.42273478,-0.3162703,0.40839,0.36698974,-0.27419683,0.376474,0.33974422,-0.25363936,0.360516,0.30993668,-0.23328063,0.344157,0.40886799,-0.33673802,0.410419,0.33846716,-0.2838954,0.375485,0.30975852,-0.26101428,0.355107,0.29653503,-0.24909104,0.33863,0.40142382,-0.35572688,0.414868,0.34224992,-0.30470704,0.380839,0.31268368,-0.28351532,0.363429,0.29578908,-0.27044318,0.345544,0.39667694,-0.38183674,0.425421,0.35242289,-0.33308347,0.39827,0.33282411,-0.32303188,0.389057,0.33525568,-0.33140859,0.39504
0.47158751,-0.38734653,0.487344,0.44144967,-0.36253871,0.449485,0.47274282,-0.36399401,0.475435,0.46722186,-0.32659398,0.458043,0.46769891,-0.29823246,0.439432,0.46586521,-0.2838109,0.421908,0.42116361,-0.31670048,0.409438,0.36726682,-0.27444906,0.377339,0.33999447,-0.25320921,0.361289,0.31029672,-0.23342033,0.344985,0.40962467,-0.33751025,0.411652,0.33913045,-0.28438854,0.376569,0.31193909,-0.2627883,0.356104,0.29783603,-0.25043065,0.339697,0.40155646,-0.35604259,0.41626,0.34205758,-0.30457686,0.382064,0.31196754,-0.28289603,0.364568,0.29625932,-0.2710777,0.346752,0.3961318,-0.38159333,0.427022,0.35309834,-0.33394067,0.399655,0.33336721,-0.32322325,0.390542,0.33361982,-0.33003406,0.39664
0.47163124,-0.38739347,0.488012,0.44127715,-0.36263973,0.450074,0.47281992,-0.36413044,0.476108,0.4670874,-0.3262388,0.458732,0.46802236,-0.29801821,0.440125,0.46635561,-0.28372684,0.422623,0.4214299,-0.3170064,0.409981,0.3671333,-0.27439441,0.377782,0.33982759,-0.25289268,0.361682,0.31029247,-0.233286,0.345408,0.40977861,-0.33774888,0.412162,0.33925103,-0.28444227,0.376964,0.31212198,-0.26283483,0.356432,0.29787186,-0.25051864,0.340055,0.4016729,-0.35625983,0.416749,0.34208253,-0.30469342,0.382448,0.31203597,-0.28293635,0.364899,0.29600992,-0.2710532,0.347116,0.39623096,-0.38176681,0.427496,0.3528971,-0.33396925,0.400049,0.33361922,-0.32331945,0.390993,0.33382773,-0.33004085,0.397142
0.47157013,-0.38735427,0.488571,0.4410389,-0.36260579,0.450557,0.4727721,-0.36414873,0.476652,0.46735084,-0.32617783,0.459391,0.46869011,-0.29688976,0.442714,0.46258492,-0.27632952,0.427538,0.42234688,-0.3172205,0.410394,0.36672995,-0.27374929,0.378095,0.33971984,-0.25141965,0.361946,0.3102461,-0.23295523,0.345702,0.40999202,-0.33783058,0.412569,0.33941268,-0.28437775,0.377263,0.31187761,-0.26232714,0.356669,0.29785694,-0.25050623,0.340323,0.40189888,-0.35634722,0.417157,0.34227258,-0.30467064,0.382777,0.31222238,-0.28289713,0.365188,0.29578212,-0.27095505,0.347448,0.39648539,-0.38187091,0.427915,0.3527182,-0.33386429,0.40038,0.33394307,-0.32335785,0.391381,0.33411727,-0.33005402,0.397583
0.47164948,-0.38741999,0.489309,0.44105241,-0.36278304,0.451387,0.47303579,-0.36440626,0.477578,0.46702946,-0.3254929,0.460593,0.46854745,-0.29669932,0.443365,0.46226737,-0.27622883,0.428133,0.42206078,-0.31736419,0.411518,0.36689479,-0.27359871,0.379356,0.33950687,-0.24926004,0.363275,0.31087897,-0.23323794,0.346984,0.41007547,-0.33787587,0.413492,0.33926581,-0.28403655,0.37829,0.31227646,-0.26252937,0.357756,0.29842115,-0.25103415,0.341349,0.40178806,-0.3562551,0.417908,0.34272177,-0.30501182,0.383588,0.31273805,-0.28329821,0.366029,0.29583024,-0.27116666,0.34821,0.39677824,-0.38204858,0.428449,0.35246435,-0.33359764,0.4011,0.33436784,-0.32362095,0.392021,0.33442355,-0.33020168,0.398126
0.47170275,-0.38726909,0.489876,0.4409252,-0.36256959,0.45189,0.47312134,-0.36430871,0.478165,0.46745027,-0.3257678,0.461182,0.4688168,-0.29680976,0.444092,0.46269754,-0.27651561,0.428828,0.4223412,-0.31752468,0.412002,0.36707749,-0.27349169,0.379767,0.33960102,-0.24927444,0.36365,0.31087411,-0.2326733,0.347385,0.41029498,-0.33800312,0.41393,0.33942586,-0.28409717,0.378632,0.31247805,-0.26263607,0.358041,0.29827247,-0.25075052,0.341657,0.40200841,-0.3563775,0.418314,0.34277899,-0.30501711,0.383892,0.31279541,-0.28329878,0.366281,0.2956065,-0.27076125,0.348483,0.39696947,-0.3821515,0.428825,0.35264072,-0.33365845,0.401416,0.33458308,-0.32371397,0.392384,0.33464448,-0.33029931,0.398528
0.47166035,-0.38700316,0.490378,0.44074502,-0.36229866,0.45236,0.47309134,-0.36408661,0.478706,0.46765288,-0.32583879,0.461773,0.46808437,-0.29594789,0.445397,0.46297508,-0.27657138,0.429769,0.42208105,-0.31730764,0.412499,0.36723695,-0.2731001,0.38024,0.33998294,-0.2495265,0.36411,0.31099858,-0.23230452,0.347861,0.40997237,-0.33772502,0.414368,0.33951079,-0.28420278,0.379017,0.31262082,-0.2627985,0.358395,0.29808263,-0.25056796,0.342018,0.40218033,-0.35644953,0.418705,0.34278818,-0.30507671,0.38423,0.31281765,-0.28338747,0.366592,0.29537974,-0.2706055,0.348803,0.39713303,-0.38221053,0.429165,0.35251965,-0.33342992,0.401741,0.33472932,-0.32383561,0.392731,0.33479151,-0.33041785,0.398889
0.46744714,-0.38326152,0.487137,0.43328663,-0.35524861,0.447564,0.46866961,-0.36034055,0.47489,0.45596451,-0.31009336,0.457587,0.46321602,-0.2831029,0.44221,0.46375441,-0.26711799,0.425844,0.42317982,-0.31758263,0.405952,0.35881183,-0.26686686,0.371643,0.33042982,-0.24261945,0.354488,0.3023899,-0.22465814,0.339066,0.40832899,-0.33656637,0.408018,0.33213296,-0.27753119,0.37042,0.30451313,-0.25540846,0.348489,0.28894179,-0.2426471,0.332955,0.39786016,-0.35362623,0.412632,0.33399908,-0.29777338,0.376887,0.3053357,-0.27676678,0.358599,0.28945889,-0.26524663,0.341999,0.38883344,-0.37652594,0.423638,0.33797302,-0.32153343,0.394205,0.32919355,-0.31849165,0.386567,0.33046552,-0.32606856,0.393964
0.46627652,-0.38201497,0.487065,0.43313367,-0.3551232,0.447406,0.46801828,-0.35949418,0.474893,0.45582601,-0.30999916,0.457448,0.46329144,-0.28314899,0.442282,0.46380451,-0.26714685,0.42589,0.42305056,-0.31748562,0.405828,0.35844137,-0.26631786,0.371526,0.32990009,-0.24230852,0.354375,0.30220182,-0.22482821,0.339038,0.40808481,-0.3363651,0.407774,0.33210517,-0.27701187,0.370028,0.30436183,-0.25460714,0.34801,0.28834735,-0.24121304,0.33252,0.39753426,-0.35333656,0.412294,0.33356235,-0.29760638,0.377113,0.30559772,-0.27710002,0.359113,0.28995642,-0.26576774,0.342774,0.38843326,-0.37613842,0.423202,0.33754177,-0.32112316,0.393702,0.32855247,-0.31788305,0.386145,0.32996639,-0.32549624,0.393598
0.46570036,-0.38117591,0.487523,0.4344717,-0.35639744,0.448011,0.46758874,-0.35876354,0.475117,0.45570983,-0.31004943,0.457546,0.46300635,-0.28295269,0.442655,0.46323782,-0.26666123,0.426157,0.42282014,-0.31773289,0.406245,0.3585951,-0.26633234,0.372069,0.32967849,-0.2428202,0.354981,0.30289343,-0.22544329,0.339555,0.40829716,-0.33693149,0.408526,0.33320742,-0.27755426,0.371048,0.30494682,-0.25363755,0.349185,0.28804127,-0.23945988,0.333641,0.39792548,-0.35391672,0.413312,0.33316356,-0.29782203,0.378495,0.30506222,-0.27801732,0.360682,0.29113512,-0.26698826,0.344315,0.38949026,-0.37728326,0.424515,0.33850811,-0.32239387,0.395079,0.32903157,-0.31842419,0.387394,0.33835276,-0.33377157,0.394775
0.46475406,-0.38002256,0.487519,0.43429451,-0.35625262,0.44798,0.46697806,-0.35788642,0.475083,0.45563003,-0.31005971,0.457573,0.46293974,-0.28290095,0.442914,0.46310931,-0.26650755,0.426433,0.4223992,-0.31762627,0.406159,0.35815072,-0.26589914,0.371916,0.32914325,-0.24281233,0.354794,0.30271447,-0.22468976,0.339379,0.40797113,-0.33685761,0.408469,0.33337931,-0.27731079,0.370954,0.30455366,-0.25326485,0.349071,0.28750973,-0.23915339,0.333547,0.39789473,-0.35412426,0.413281,0.33257969,-0.29769502,0.378438,0.30484792,-0.27809701,0.360611,0.29103395,-0.26702134,0.344271,0.3894193,-0.37727491,0.424518,0.33836477,-0.32243216,0.395036,0.32881937,-0.31837797,0.38738,0.3383639,-0.33378256,0.394788
0.46380922,-0.37902698,0.487563,0.43315674,-0.35528252,0.447939,0.46611562,-0.35694178,0.474868,0.44588878,-0.3069406,0.455202,0.44842833,-0.27711851,0.436718,0.44618665,-0.25908248,0.419537,0.42137987,-0.31699001,0.405742,0.35730291,-0.26557723,0.371389,0.32598033,-0.24232133,0.354213,0.30213723,-0.22413077,0.338893,0.40729704,-0.33645155,0.408343,0.33329675,-0.27694139,0.370727,0.30410058,-0.25223911,0.348785,0.28684925,-0.23870592,0.333364,0.39750974,-0.35393332,0.4134,0.329907,-0.29677326,0.378555,0.30568619,-0.27781504,0.360727,0.2909415,-0.26714468,0.344526,0.38939738,-0.37737653,0.424941,0.33813417,-0.32237976,0.395227,0.32865156,-0.31843337,0.387691,0.33554541,-0.33145431,0.395226
0.46295308,-0.37790196,0.487753,0.43304051,-0.35480592,0.448062,0.46559897,-0.35604878,0.475012,0.44742606,-0.30618972,0.455892,0.45103454,-0.27668176,0.439171,0.44931012,-0.25870369,0.422314,0.42114193,-0.316417,0.405762,0.35694016,-0.26514199,0.371257,0.32714255,-0.24173276,0.354005,0.30227741,-0.22279529,0.338718,0.40705667,-0.3358598,0.408398,0.33388861,-0.27642455,0.370683,0.30404819,-0.25175497,0.348682,0.28721967,-0.23862285,0.333313,0.39727503,-0.35333835,0.41349,0.32973013,-0.2961171,0.37856,0.30536764,-0.27703695,0.360689,0.29063808,-0.26694875,0.344548,0.38918134,-0.37679672,0.425081,0.33790583,-0.32173747,0.395263,0.32834346,-0.31812633,0.387802,0.33592061,-0.33154697,0.395403
0.45463189,-0.37045183,0.482292,0.42532732,-0.3483039,0.440622,0.45946147,-0.35104466,0.469744,0.43547226,-0.30080903,0.448206,0.43001595,-0.26729155,0.427987,0.42748224,-0.24977656,0.411402,0.40976548,-0.3075413,0.397235,0.34554851,-0.2565061,0.359688,0.31580497,-0.23150161,0.340915,0.29259315,-0.21485327,0.327837,0.39604878,-0.32619789,0.398981,0.32303623,-0.26508659,0.3576,0.29072614,-0.24025459,0.333462,0.27611051,-0.22903752,0.320245,0.38721069,-0.34400575,0.403486,0.31753701,-0.2837554,0.364755,0.28914289,-0.26223557,0.344939,0.27848153,-0.25557684,0.331055,0.37867033,-0.36599112,0.414655,0.32599822,-0.30940942,0.382039,0.31922314,-0.30903011,0.377657,0.32757374,-0.32294874,0.387437
0.4598834,-0.37535725,0.490353,0.43391489,-0.35583369,0.450436,0.46435188,-0.35466768,0.477527,0.43852889,-0.30667429,0.457681,0.44180486,-0.27701952,0.44239,0.43866024,-0.25811172,0.42503,0.42097669,-0.31607303,0.407881,0.35814391,-0.26587088,0.373034,0.32821747,-0.24205635,0.35561,0.30397289,-0.22257005,0.340483,0.40743995,-0.33574973,0.410546,0.33531174,-0.27676277,0.37248,0.30504258,-0.2521638,0.350274,0.28867002,-0.2396576,0.335073,0.39827677,-0.35400223,0.415678,0.33068283,-0.29554044,0.380422,0.30309388,-0.27537352,0.362383,0.29057094,-0.26724248,0.34643,0.38792734,-0.37524237,0.427349,0.33724505,-0.31995585,0.397214,0.32599943,-0.31589404,0.390005,0.33520475,-0.33088855,0.397816
0.45959543,-0.37559337,0.491051,0.43381417,-0.35598992,0.451105,0.46412332,-0.35489137,0.478208,0.43801873,-0.30682785,0.458325,0.44123439,-0.27704555,0.443329,0.43788225,-0.25775623,0.426,0.42075015,-0.31596767,0.408509,0.35834341,-0.26601425,0.37361,0.32820289,-0.24203074,0.356161,0.30441436,-0.22227836,0.341055,0.40790537,-0.33621061,0.411186,0.3358447,-0.27671156,0.373074,0.30437797,-0.25162156,0.350842,0.28894292,-0.23999343,0.335665,0.39780096,-0.35333638,0.416329,0.32977901,-0.29439586,0.381033,0.30322162,-0.2757454,0.362974,0.29108234,-0.26829939,0.347049,0.38785745,-0.3754043,0.428018,0.33690606,-0.31922764,0.397838,0.32583775,-0.3161483,0.390664,0.33576939,-0.3317919,0.398504
0.46041916,-0.3768921,0.492989,0.4352566,-0.3572829,0.453328,0.46569256,-0.35657944,0.480855,0.43918739,-0.30960224,0.462595,0.44301951,-0.28045853,0.451286,0.44276152,-0.26162488,0.434524,0.42231668,-0.31598366,0.411796,0.36155085,-0.26685683,0.377343,0.33151867,-0.24268725,0.360116,0.3075255,-0.22386421,0.344733,0.40747128,-0.33453972,0.413695,0.33692466,-0.27621401,0.37594,0.30640846,-0.25264102,0.353916,0.29099658,-0.24192594,0.338423,0.39792515,-0.35273417,0.418177,0.33134868,-0.29540487,0.382972,0.30461787,-0.27702944,0.36496,0.29115327,-0.26866017,0.348612,0.38864608,-0.3757069,0.429039,0.33846696,-0.3211628,0.399554,0.32711846,-0.31779073,0.391997,0.33788557,-0.33397239,0.399445
0.46090264,-0.37795153,0.495155,0.43413924,-0.35673466,0.45556,0.46627841,-0.35756604,0.483074,0.43801051,-0.30933338,0.464863,0.44277124,-0.28018509,0.452229,0.44091577,-0.26026352,0.435284,0.42293945,-0.31627766,0.414139,0.36228816,-0.26669029,0.379784,0.33326273,-0.24364246,0.362607,0.30928651,-0.22503833,0.347179,0.40901521,-0.33541174,0.415993,0.33811809,-0.27647968,0.378335,0.30640794,-0.25390175,0.356367,0.29207399,-0.24311209,0.340824,0.39840655,-0.35241183,0.420434,0.33273926,-0.29588138,0.385307,0.30515689,-0.27750271,0.367334,0.29006294,-0.26869189,0.350929,0.38886501,-0.37556166,0.431238,0.33962684,-0.32175154,0.401858,0.32715713,-0.31805976,0.39423,0.3368355,-0.33360647,0.401613
0.46188865,-0.37977975,0.498353,0.43434328,-0.35766347,0.458775,0.46808349,-0.35976254,0.487009,0.44091476,-0.31233924,0.469971,0.44747782,-0.28406678,0.459094,0.44446928,-0.2631232,0.442827,0.42549975,-0.31557918,0.418271,0.36566077,-0.26877387,0.383964,0.33679678,-0.24526296,0.36681,0.31285458,-0.22695522,0.351358,0.41075719,-0.33404849,0.419225,0.34003337,-0.27810248,0.381449,0.30888226,-0.25605226,0.359413,0.29441207,-0.24535032,0.343801,0.40005675,-0.35219842,0.422923,0.33471322,-0.29698678,0.387392,0.30707187,-0.27883657,0.369213,0.29218629,-0.27022966,0.352645,0.3902803,-0.37628449,0.43284,0.34017326,-0.32217248,0.402823,0.32771465,-0.31873359,0.395432,0.3374492,-0.33455987,0.403131
0.46263005,-0.38166651,0.501574,0.43495333,-0.35832407,0.461873,0.46934588,-0.36170813,0.490714,0.43909357,-0.31420994,0.473987,0.44374522,-0.28463388,0.461504,0.43986026,-0.26248295,0.446452,0.42788025,-0.31587286,0.421885,0.36787825,-0.26889967,0.387404,0.33866642,-0.24591195,0.370164,0.31496727,-0.22829319,0.354826,0.41324421,-0.33430903,0.422201,0.34277352,-0.27983837,0.384115,0.31054135,-0.25776795,0.361898,0.29528913,-0.24741912,0.346368,0.40281593,-0.35216381,0.425384,0.33653599,-0.29820868,0.389349,0.30862407,-0.2805311,0.370913,0.29332897,-0.27158045,0.354372,0.39226046,-0.37630338,0.434706,0.34124105,-0.32298807,0.404725,0.32986979,-0.3210908,0.397479,0.34045901,-0.33725986,0.405221
0.46742126,-0.38986762,0.515523,0.44273092,-0.36374356,0.474225,0.46940922,-0.36635103,0.504666,0.43911664,-0.31519236,0.486565,0.44165484,-0.28357734,0.471622,0.43794354,-0.26108144,0.456228,0.43844522,-0.31935987,0.433167,0.37671812,-0.27436765,0.396304,0.34730188,-0.25379372,0.377873,0.32310268,-0.23430572,0.364253,0.42567949,-0.33905725,0.432955,0.34931268,-0.28507253,0.391982,0.31546923,-0.26243777,0.368082,0.30108733,-0.25317923,0.354222,0.41826854,-0.35629369,0.435822,0.34677771,-0.30664371,0.396849,0.31393756,-0.28938346,0.37691,0.30027309,-0.27899047,0.362137,0.40956737,-0.38152276,0.444989,0.35024705,-0.33137003,0.412951,0.33925518,-0.33023558,0.408046,0.34926507,-0.34653751,0.41742
0.46556921,-0.39066741,0.521864,0.44717303,-0.36706399,0.480274,0.47112044,-0.36856044,0.511788,0.4485557,-0.31925595,0.494488,0.44462994,-0.28281837,0.480227,0.43542246,-0.25873648,0.467392,0.44589877,-0.32364692,0.439982,0.38099482,-0.27679782,0.40186,0.34957749,-0.25387683,0.3828,0.32232957,-0.24334497,0.370194,0.43242109,-0.34272301,0.438712,0.35486782,-0.28839665,0.396597,0.31865461,-0.26503646,0.37203,0.30434315,-0.2564107,0.359265,0.42212562,-0.36013233,0.44073,0.34875214,-0.30690478,0.400316,0.31552575,-0.28826586,0.379639,0.30228232,-0.28076243,0.365949,0.41138188,-0.3839763,0.448928,0.35165601,-0.3323213,0.415609,0.34203137,-0.33319319,0.412295,0.35336283,-0.35087549,0.422736
0.46691233,-0.39417363,0.529174,0.45133583,-0.36789031,0.488451,0.47103316,-0.37003927,0.521738,0.44998626,-0.32549234,0.507037,0.44197816,-0.29084182,0.495516,0.43159134,-0.26681446,0.483873,0.45669551,-0.31983891,0.45199,0.39017411,-0.27384368,0.41331,0.35822332,-0.25173515,0.393969,0.33205837,-0.24804361,0.382373,0.44301704,-0.33736331,0.447758,0.36623572,-0.28569716,0.405468,0.32512283,-0.26946004,0.380799,0.3115522,-0.26291501,0.369176,0.43215043,-0.35396263,0.447273,0.35789147,-0.30315956,0.405719,0.32018035,-0.29009534,0.384459,0.30669999,-0.28509745,0.371713,0.41991506,-0.37773274,0.452372,0.36024469,-0.32850013,0.418081,0.34726799,-0.33605862,0.416448,0.35788709,-0.35492437,0.427883
0.47333523,-0.39896169,0.535792,0.45937769,-0.35738014,0.497679,0.47821335,-0.37559368,0.532285,0.45205325,-0.33105314,0.522199,0.43815371,-0.29898566,0.513747,0.42269905,-0.27733601,0.504079,0.4675697,-0.3069877,0.467804,0.39987312,-0.26750574,0.430244,0.36732703,-0.24840535,0.411464,0.34121813,-0.24640965,0.400367,0.45586629,-0.32256361,0.459593,0.37796648,-0.28045175,0.419223,0.33626964,-0.26821986,0.395673,0.32245828,-0.27089598,0.384741,0.4464727,-0.33813675,0.455643,0.36990794,-0.29547587,0.414619,0.33452589,-0.2868658,0.393631,0.32091269,-0.28680933,0.381227,0.43566591,-0.36185411,0.456253,0.37451719,-0.32177043,0.425096,0.36546133,-0.33101478,0.42351,0.3768352,-0.34975674,0.433861
0.46432444,-0.39333134,0.536332,0.46224067,-0.35865829,0.501373,0.47991515,-0.37656622,0.535812,0.44429371,-0.33983284,0.527647,0.43551921,-0.30775769,0.520699,0.41295122,-0.29193542,0.511407,0.48265822,-0.31635577,0.477288,0.43401902,-0.27175993,0.448152,0.41010789,-0.25000123,0.433583,0.38735156,-0.24070335,0.427237,0.4636325,-0.32717519,0.466437,0.39764592,-0.27402871,0.427766,0.36019789,-0.26720361,0.405207,0.3575029,-0.27231677,0.397017,0.45014156,-0.3397541,0.460083,0.37714512,-0.2866464,0.419795,0.34644448,-0.2806082,0.399183,0.32786753,-0.28047637,0.389472,0.43092262,-0.35577962,0.457393,0.3806411,-0.31293427,0.432321,0.37042683,-0.32340949,0.432932,0.38144114,-0.34261779,0.441992
0.41308495,-0.38482311,0.510659,0.44175105,-0.35309953,0.496844,0.42693194,-0.37218113,0.520875,0.42478861,-0.34676793,0.52761,0.41858783,-0.32275042,0.530286,0.4112989,-0.30209368,0.525383,0.47629554,-0.3179205,0.500153,0.43439041,-0.28488049,0.478696,0.40578232,-0.28670356,0.467968,0.40340964,-0.30152068,0.469799,0.46876055,-0.322274,0.483039,0.42714668,-0.28589998,0.462103,0.39420624,-0.29272978,0.449891,0.39722315,-0.3070854,0.452496,0.46066042,-0.32816442,0.469975,0.41108749,-0.29027339,0.444447,0.38142022,-0.29157692,0.431386,0.36950524,-0.30232504,0.432624,0.44738289,-0.33967382,0.456351,0.41461401,-0.31098434,0.447247,0.40876952,-0.32589981,0.455217,0.41806375,-0.34182836,0.461512
0.42443751,-0.37531009,0.5064,0.44587288,-0.3515207,0.499548,0.42786102,-0.37161781,0.519564,0.42550535,-0.3541931,0.530867,0.41796808,-0.33618991,0.53773,0.41084273,-0.3174421,0.535954,0.48062634,-0.31741564,0.511153,0.44369095,-0.28741663,0.495701,0.41971002,-0.29353368,0.487975,0.42125093,-0.31360502,0.491568,0.47555925,-0.31671412,0.4927,0.43945939,-0.28354782,0.478667,0.43099607,-0.30987134,0.491149,0.44005469,-0.33525938,0.500143,0.46941989,-0.31844473,0.478022,0.42484525,-0.28466099,0.458618,0.39947603,-0.29244536,0.448691,0.3902232,-0.30822074,0.451766,0.45839458,-0.32500175,0.461507,0.42933959,-0.30189058,0.458382,0.42554131,-0.31985753,0.466758,0.43449341,-0.33512866,0.471105
0.40532865,-0.38852337,0.502839,0.42505782,-0.35762505,0.492788,0.41237748,-0.38638544,0.515348,0.41177066,-0.36485176,0.526404,0.39877574,-0.34090756,0.527871,0.39152816,-0.32130678,0.52508,0.44900721,-0.31770202,0.501442,0.46272495,-0.27973168,0.49745,0.4534842,-0.26542243,0.495454,0.44657296,-0.2662693,0.501536,0.4451814,-0.31835451,0.482744,0.40106071,-0.29653881,0.465835,0.39522591,-0.32545443,0.476653,0.40770559,-0.34375625,0.486761,0.44054725,-0.32169826,0.468099,0.40824682,-0.28240081,0.445892,0.37861016,-0.28587694,0.434531,0.3728255,-0.30321347,0.435757,0.43231947,-0.3311116,0.452069,0.39819683,-0.3165086,0.446948,0.39572659,-0.33518399,0.45422,0.40828992,-0.34964036,0.460742
