sluyters/QuantumLeap/backend/src/datasets/dynamic/HandGestureDataset_SHREC2017_csv/Gesture1/finger_2/subject_26_essai_1_skeletons_world.csv
Wrist_x,Wrist_y,Wrist_z,Palm_x,Palm_y,Palm_z,thumb_base_x,thumb_base_y,thumb_base_z,thumb_first_joint_x,thumb_first_joint_y,thumb_first_joint_z,thumb_second_joint_x,thumb_second_joint_y,thumb_second_joint_z,thumb_tip_x,thumb_tip_y,thumb_tip_z,index_base_x,index_base_y,index_base_z,index_first_joint_x,index_first_joint_y,index_first_joint_z,index_second_joint_x,index_second_joint_y,index_second_joint_z,index_tip_x,index_tip_y,index_tip_z,middle_base_x,middle_base_y,middle_base_z,middle_first_joint_x,middle_first_joint_y,middle_first_joint_z,middle_second_joint_x,middle_second_joint_y,middle_second_joint_z,middle_tip_x,middle_tip_y,middle_tip_z,ring_base_x,ring_base_y,ring_base_z,ring_first_joint_x,ring_first_joint_y,ring_first_joint_z,ring_second_joint_x,ring_second_joint_y,ring_second_joint_z,ring_tip_x,ring_tip_y,ring_tip_z,pinky_base_x,pinky_base_y,pinky_base_z,pinky_first_joint_x,pinky_first_joint_y,pinky_first_joint_z,pinky_second_joint_x,pinky_second_joint_y,pinky_second_joint_z,pinky_tip_x,pinky_tip_y,pinky_tip_z,r
0.392001045,-0.329897105,0.489383,0.369999927,-0.285252593,0.481824,0.374867512,-0.32300724,0.493883,0.347193281,-0.305291169,0.495967,0.32219004,-0.288521261,0.498805,0.30861899,-0.271801461,0.494428,0.333970959,-0.245216291,0.481549,0.300048386,-0.243375727,0.473395,0.29817828,-0.262946126,0.469317,0.317807224,-0.282208149,0.481994,0.34585393,-0.236481617,0.473356,0.308742229,-0.194005226,0.459548,0.291852078,-0.204538946,0.451493,0.305836522,-0.228534905,0.462963,0.357366028,-0.232083499,0.467117,0.326383828,-0.191232214,0.45705,0.310469705,-0.195891783,0.451899,0.315728959,-0.21697959,0.464963,0.374529277,-0.232503058,0.460621,0.34560573,-0.196032861,0.450008,0.334464961,-0.200589149,0.445132,0.34556715,-0.218928556,0.454125
0.391159586,-0.329694094,0.488387,0.369309154,-0.285091309,0.480913,0.374165354,-0.322871622,0.493055,0.346710883,-0.305287467,0.495384,0.322051035,-0.288674764,0.498713,0.308474395,-0.271939415,0.494702,0.333527242,-0.245117436,0.480907,0.299771405,-0.243151063,0.472958,0.29796671,-0.262759555,0.468984,0.317596888,-0.282021374,0.481675,0.345319454,-0.236341485,0.472541,0.30805786,-0.194035633,0.458877,0.291419739,-0.20474302,0.450906,0.30562434,-0.228686322,0.462368,0.356737749,-0.231911706,0.466154,0.326129126,-0.190958952,0.456277,0.309914666,-0.194949804,0.451223,0.315275359,-0.216667861,0.464295,0.373754079,-0.232291471,0.45947,0.345405382,-0.195601256,0.449012,0.334161911,-0.199949973,0.444206,0.345045508,-0.218296221,0.453206
0.390315732,-0.329488662,0.487388,0.368616042,-0.284928083,0.479999,0.373416163,-0.322695293,0.492165,0.34609967,-0.305170681,0.494617,0.321720961,-0.288656732,0.498325,0.30810952,-0.2718828,0.494622,0.333030813,-0.244980057,0.480189,0.299411394,-0.24285905,0.47239,0.297652849,-0.26248278,0.46849,0.317284352,-0.281743847,0.481201,0.344782106,-0.236199445,0.471722,0.307354053,-0.194053764,0.458177,0.290959627,-0.204927762,0.450276,0.305393687,-0.228824047,0.461745,0.356151543,-0.231767185,0.465246,0.325825716,-0.190657221,0.455436,0.309269575,-0.193950825,0.450416,0.31472262,-0.216288,0.463481,0.373080404,-0.232142726,0.458444,0.345270804,-0.195207542,0.448103,0.333912403,-0.199343538,0.443352,0.344582363,-0.217701126,0.452364
0.389472725,-0.329283432,0.48639,0.367922965,-0.284764747,0.479085,0.372667,-0.322518827,0.491275,0.345483516,-0.305049742,0.493843,0.321385847,-0.288633741,0.497929,0.30773655,-0.271818528,0.494528,0.332532992,-0.24484183,0.479469,0.299049481,-0.242565495,0.471819,0.297337083,-0.262204324,0.467993,0.316969178,-0.281463977,0.480723,0.344244774,-0.236057472,0.470903,0.306650264,-0.194071844,0.457477,0.290499444,-0.205112614,0.449646,0.305163087,-0.228961898,0.461122,0.355566832,-0.231623629,0.46434,0.32551857,-0.190353361,0.45459,0.308619662,-0.192948643,0.449602,0.314164448,-0.215904405,0.462659,0.372409899,-0.231995732,0.457422,0.345138293,-0.194815575,0.447198,0.333663902,-0.1987383,0.4425,0.344122168,-0.217108063,0.451526
0.388720474,-0.329166166,0.485948,0.367253256,-0.284599415,0.478561,0.371924131,-0.322362957,0.490878,0.345255607,-0.304968948,0.493492,0.321723986,-0.288882716,0.498105,0.308170874,-0.271983294,0.495242,0.331898344,-0.244540763,0.478938,0.298633145,-0.242491193,0.471283,0.29708601,-0.262097312,0.467456,0.316728272,-0.281099899,0.480149,0.343651701,-0.235808682,0.470287,0.305807726,-0.193960619,0.456806,0.289962027,-0.205228211,0.448942,0.304839127,-0.229008625,0.460368,0.354994824,-0.231426629,0.463659,0.325041694,-0.189995044,0.453792,0.307919827,-0.192111123,0.448743,0.313597543,-0.215674183,0.461726,0.371840428,-0.231872695,0.456675,0.344691072,-0.194628192,0.446431,0.333249517,-0.198536091,0.441724,0.343661675,-0.21691196,0.450716
0.388867127,-0.32920847,0.486574,0.367324253,-0.284522821,0.478995,0.371964522,-0.322313659,0.49141,0.345669457,-0.304902941,0.493936,0.322390119,-0.28900917,0.498634,0.308975884,-0.272056533,0.496002,0.331784482,-0.244266195,0.479113,0.298557119,-0.241741425,0.47126,0.29674986,-0.261290314,0.467333,0.316426883,-0.280504626,0.479965,0.343638393,-0.235605132,0.470506,0.305538188,-0.193954975,0.456815,0.289904009,-0.205461858,0.448828,0.304880185,-0.229192996,0.460194,0.355069308,-0.231290273,0.463928,0.324927826,-0.189833948,0.453859,0.307915832,-0.192148073,0.448708,0.31362901,-0.215684469,0.461627,0.372028198,-0.231831555,0.457028,0.344443793,-0.194741512,0.446612,0.333133574,-0.198828524,0.441826,0.343704416,-0.217192697,0.450768
0.388420434,-0.328503301,0.486423,0.367072274,-0.283929571,0.478981,0.371297319,-0.321435399,0.491011,0.346058387,-0.301222423,0.493313,0.321884903,-0.287867094,0.497415,0.308529186,-0.270788766,0.49482,0.329606034,-0.24058781,0.478903,0.297258579,-0.235733663,0.470899,0.295186359,-0.255256989,0.466897,0.316017119,-0.279543372,0.479609,0.342325549,-0.232472666,0.470646,0.305390455,-0.19369332,0.456979,0.290074632,-0.205503705,0.449007,0.305289284,-0.2293014,0.460505,0.354412042,-0.228615072,0.464346,0.325220692,-0.189554768,0.454429,0.308446875,-0.192132345,0.449355,0.314375631,-0.215774271,0.462454,0.372602183,-0.231686389,0.457762,0.345688188,-0.194253836,0.447273,0.334072853,-0.197927945,0.442454,0.344345931,-0.217074213,0.451474
0.387996339,-0.327709404,0.487384,0.35823369,-0.270073312,0.477217,0.367130539,-0.315622881,0.491358,0.337284839,-0.290314656,0.491982,0.316604286,-0.273985446,0.497157,0.303136924,-0.256311759,0.494477,0.323308191,-0.225387157,0.474334,0.28880429,-0.221469653,0.464213,0.28486832,-0.240594955,0.459152,0.302784742,-0.258629136,0.470867,0.33589915,-0.21926765,0.465829,0.304138784,-0.174170779,0.449484,0.28536817,-0.186789364,0.43995,0.296082409,-0.211004285,0.450349,0.347861436,-0.217202386,0.459505,0.327048253,-0.171012132,0.444293,0.30948087,-0.179145023,0.43651,0.316634947,-0.205290087,0.447608,0.36526931,-0.220734709,0.453248,0.337732248,-0.185751588,0.440796,0.326485832,-0.190541321,0.435075,0.337756574,-0.21271766,0.443249
0.370043776,-0.317022232,0.488873,0.343344155,-0.268260116,0.476724,0.342554446,-0.304911151,0.490683,0.315406064,-0.280546154,0.486928,0.290974357,-0.259408302,0.479147,0.278282438,-0.239714169,0.470965,0.309678741,-0.219107551,0.469724,0.275307417,-0.217916397,0.456504,0.2699728,-0.235958253,0.449894,0.285656242,-0.253230049,0.461002,0.32441027,-0.215050176,0.463116,0.307836061,-0.166039144,0.452852,0.288250787,-0.166723462,0.446864,0.295004156,-0.189948621,0.459814,0.337983419,-0.214822371,0.458485,0.321194599,-0.164139529,0.440385,0.302924567,-0.153132606,0.431125,0.299595118,-0.166455103,0.441679,0.357022021,-0.220859635,0.454516,0.360581314,-0.18860698,0.438851,0.345043542,-0.191917363,0.431654,0.335990578,-0.207290954,0.439257
0.360681502,-0.31113778,0.479809,0.340289571,-0.265155613,0.471207,0.345154904,-0.301701224,0.484798,0.31357217,-0.278072719,0.482635,0.290421537,-0.258044525,0.476628,0.278837958,-0.239336503,0.470223,0.311252737,-0.219579609,0.470736,0.281467321,-0.228053932,0.462448,0.279919085,-0.247088135,0.458304,0.297242523,-0.259697119,0.470512,0.324240374,-0.214333212,0.461572,0.308735073,-0.166038411,0.45285,0.289765686,-0.167058876,0.447763,0.296376337,-0.190204742,0.460434,0.336038778,-0.213003935,0.454604,0.321979472,-0.164076167,0.440215,0.305071678,-0.15374638,0.432853,0.302258391,-0.167384838,0.444146,0.352331101,-0.217386745,0.447369,0.358109674,-0.186816109,0.434684,0.343773577,-0.190673346,0.428856,0.339577975,-0.206559852,0.437027
0.351360553,-0.301022476,0.471927,0.341287015,-0.241518921,0.45966,0.342144665,-0.279262698,0.476126,0.307070104,-0.266032827,0.471915,0.267871651,-0.247864559,0.45415,0.244680472,-0.229984258,0.441224,0.313626289,-0.193412862,0.45546,0.297935243,-0.146058957,0.437028,0.277896334,-0.145179575,0.427812,0.278237048,-0.165702613,0.436395,0.324594401,-0.188420062,0.445919,0.292468646,-0.140789265,0.427842,0.267638049,-0.139510565,0.417298,0.271394607,-0.160206075,0.426553,0.334870609,-0.187397642,0.438882,0.313387185,-0.139337997,0.418343,0.2953698,-0.121904729,0.407835,0.288142289,-0.13237232,0.416604,0.349631631,-0.192427207,0.432044,0.323258997,-0.153629804,0.418566,0.307292125,-0.142885022,0.412374,0.30200709,-0.139105694,0.419727
0.35292269,-0.298248338,0.468152,0.335875478,-0.237501011,0.450192,0.336196358,-0.276595797,0.468964,0.294457859,-0.262839424,0.45963,0.251755,-0.243402408,0.437898,0.231487907,-0.223543363,0.424497,0.301163944,-0.185547135,0.437589,0.272628988,-0.140065546,0.417784,0.256399536,-0.125882118,0.407882,0.251536489,-0.117402896,0.415745,0.317777432,-0.182087227,0.430076,0.286362705,-0.132943525,0.405739,0.267127986,-0.106651675,0.391543,0.253094523,-0.0918669579,0.382169,0.332563397,-0.182482519,0.425084,0.312107857,-0.136109093,0.398323,0.30164324,-0.112290682,0.384631,0.301623853,-0.110991058,0.391177,0.352752758,-0.189395966,0.421441,0.334659403,-0.160148633,0.399891,0.325098599,-0.148791698,0.38999,0.328216833,-0.143637601,0.395209
0.334674777,-0.276250699,0.443563,0.316663248,-0.227740379,0.425409,0.315747275,-0.26432538,0.444494,0.272355269,-0.249846719,0.435349,0.230059467,-0.232468146,0.413969,0.204416643,-0.214382963,0.398781,0.283388207,-0.17289668,0.412803,0.258517953,-0.126449158,0.394478,0.241700408,-0.111051832,0.385315,0.236108666,-0.100962732,0.393702,0.299453533,-0.171454092,0.405075,0.27690413,-0.120128594,0.38598,0.260662191,-0.0935836208,0.374841,0.248119312,-0.0757210488,0.366885,0.313716208,-0.173536685,0.39992,0.29969514,-0.124379125,0.380543,0.290900066,-0.100698125,0.37063,0.279020547,-0.0865853756,0.361617,0.333013344,-0.182548914,0.396107,0.319218407,-0.141873385,0.37401,0.309369029,-0.129359948,0.363858,0.312521296,-0.12276148,0.368916
0.313741514,-0.263375126,0.418985,0.296987286,-0.211369669,0.40025,0.295241828,-0.249279433,0.419623,0.252695398,-0.235658533,0.410587,0.210059196,-0.220884068,0.388518,0.183526538,-0.204232892,0.372483,0.261655431,-0.157182261,0.386849,0.234493468,-0.111033245,0.367498,0.21753589,-0.0936905982,0.357823,0.211515717,-0.0812894107,0.36572,0.278283956,-0.15563623,0.379264,0.257336297,-0.104385897,0.36125,0.241909652,-0.0779260513,0.350741,0.230585954,-0.0587262242,0.343235,0.293018599,-0.157600921,0.374265,0.280058338,-0.108106888,0.353429,0.271027504,-0.0856984607,0.34277,0.262488028,-0.0653518038,0.333079,0.31293051,-0.166371596,0.370714,0.301305472,-0.127104058,0.347704,0.293383067,-0.113774527,0.337132,0.298845718,-0.106187368,0.34202
0.298718686,-0.245415171,0.395266,0.280479234,-0.192670346,0.374215,0.278074288,-0.231295024,0.393982,0.237484011,-0.22082092,0.385489,0.195180473,-0.211021137,0.363214,0.167752315,-0.197028415,0.347096,0.238847165,-0.139199142,0.356736,0.209501922,-0.092525888,0.334498,0.191593234,-0.0770305853,0.32338,0.184565224,-0.0660075028,0.330402,0.257007027,-0.137387054,0.350635,0.232378225,-0.0859687081,0.329687,0.215695599,-0.0591942367,0.317467,0.203614792,-0.0395890732,0.308738,0.273326126,-0.139123607,0.34701,0.256463338,-0.089455052,0.323031,0.246276101,-0.0668385888,0.310762,0.237005298,-0.0458409629,0.299609,0.295726451,-0.147602271,0.34541,0.280423231,-0.111455834,0.321099,0.273451736,-0.0945687081,0.309929,0.267337271,-0.0794952849,0.300073
0.291149326,-0.238881934,0.385453,0.27101837,-0.18747393,0.363222,0.270449012,-0.223003303,0.383078,0.226881302,-0.217394826,0.37271,0.185316056,-0.209741948,0.349498,0.159466113,-0.199642687,0.33142,0.227829506,-0.133424836,0.343531,0.197789431,-0.0885464738,0.321833,0.180081635,-0.0718069944,0.310984,0.163648433,-0.0561717694,0.301121,0.246287588,-0.13292052,0.338321,0.22181756,-0.0809909584,0.315379,0.204189587,-0.0555243421,0.301996,0.191390575,-0.0367783822,0.292436,0.262983699,-0.135740747,0.335507,0.24699204,-0.0852175868,0.309801,0.235655083,-0.0676698321,0.29665,0.224305683,-0.0516662117,0.284694,0.285990144,-0.145570756,0.335033,0.273342957,-0.110334663,0.310121,0.26763532,-0.0938528401,0.298675,0.259813768,-0.0777567186,0.288576
0.282874601,-0.231087813,0.371401,0.25861939,-0.184104185,0.34406,0.25977953,-0.215820102,0.367149,0.215454478,-0.212193971,0.35117,0.175218445,-0.206599946,0.329027,0.147931223,-0.194705005,0.311161,0.210509596,-0.128240828,0.318231,0.177767901,-0.0860742752,0.295112,0.1606597,-0.0660169687,0.283553,0.144975401,-0.0475675288,0.273044,0.22917228,-0.127705024,0.313435,0.201979059,-0.0775948296,0.288582,0.185353712,-0.0491723558,0.274085,0.17341737,-0.028639308,0.26373,0.246469824,-0.130567225,0.311298,0.228443976,-0.0795500989,0.2833,0.215643976,-0.0608394609,0.268975,0.203962475,-0.0433014567,0.255952,0.271068288,-0.140626101,0.312304,0.255410352,-0.104280014,0.283724,0.248256635,-0.0874775472,0.270593,0.241970299,-0.0725861652,0.259007
0.270030557,-0.223485232,0.351443,0.24725746,-0.180176541,0.324646,0.250523827,-0.212627917,0.348958,0.209269683,-0.211606047,0.335241,0.171110299,-0.210146255,0.314679,0.144827362,-0.201576932,0.297102,0.199702956,-0.125848619,0.301367,0.162489756,-0.0881117753,0.272665,0.14377194,-0.0690859511,0.258314,0.126675679,-0.0516762327,0.245268,0.215799149,-0.124758099,0.29463,0.182410203,-0.077692104,0.262807,0.162915795,-0.0501777558,0.244244,0.146193717,-0.0359233112,0.230984,0.231152223,-0.127121884,0.290861,0.205318445,-0.0822890865,0.258764,0.192099772,-0.0592405422,0.242342,0.180082783,-0.0382035926,0.227414,0.253718953,-0.136514212,0.289839,0.237074451,-0.102093929,0.260828,0.229497483,-0.0861103752,0.247498,0.22285931,-0.0718968042,0.235737
0.282851733,-0.229616465,0.362464,0.250109779,-0.178952457,0.324138,0.25632718,-0.214702003,0.351699,0.215811145,-0.209115667,0.328096,0.176992293,-0.206425624,0.307558,0.151082951,-0.197925955,0.289867,0.184168933,-0.12948386,0.282119,0.149892,-0.0859748892,0.25653,0.132191563,-0.071645955,0.243735,0.120649038,-0.0742762276,0.232103,0.205954295,-0.124968356,0.281208,0.166190099,-0.0776685357,0.248195,0.143152785,-0.0566808781,0.228938,0.130113845,-0.056449116,0.215183,0.225965478,-0.123969925,0.282994,0.189924503,-0.0797175814,0.246508,0.171961609,-0.0655230003,0.227841,0.159375183,-0.0712402708,0.21087,0.258679425,-0.129528964,0.290139,0.220699054,-0.133987023,0.255905,0.206218248,-0.13829232,0.240176,0.193474787,-0.141635906,0.226298
0.288923763,-0.230180268,0.363664,0.251260176,-0.178995732,0.326378,0.257585135,-0.214644643,0.351982,0.214708537,-0.210012571,0.326752,0.174845416,-0.20672985,0.303981,0.147983025,-0.197428107,0.285844,0.178211976,-0.13187498,0.284035,0.132527079,-0.0907814653,0.253883,0.116892296,-0.0903421642,0.238807,0.116377536,-0.100774193,0.225102,0.201258658,-0.125564631,0.284613,0.15684119,-0.0808842076,0.241219,0.144050235,-0.0918115825,0.215906,0.147459785,-0.105437262,0.211803,0.223577237,-0.123224836,0.287555,0.168745238,-0.0836242447,0.249586,0.158183233,-0.0912039136,0.230161,0.157034715,-0.0989681578,0.212501,0.2568273,-0.126248974,0.29595,0.224662941,-0.139646397,0.261518,0.206049916,-0.13894991,0.245699,0.202599884,-0.128947768,0.242049
0.289763146,-0.229594782,0.363388,0.251711183,-0.180192997,0.327947,0.259319847,-0.216433495,0.353541,0.216945753,-0.212669552,0.330368,0.178115993,-0.208105911,0.310787,0.149424865,-0.193654313,0.295633,0.179981427,-0.13595111,0.289222,0.147517816,-0.123369223,0.252165,0.142411192,-0.133251913,0.233636,0.146027305,-0.136819249,0.231398,0.201984663,-0.128622478,0.28825,0.164790167,-0.120005849,0.246555,0.157747112,-0.130380808,0.222233,0.160271523,-0.130971967,0.219725,0.223260148,-0.125467519,0.289794,0.169683648,-0.0869328785,0.258937,0.156595906,-0.0907991831,0.24315,0.157923493,-0.102196915,0.228977,0.254976927,-0.127495195,0.296273,0.224015929,-0.143483824,0.263357,0.226294685,-0.153763761,0.27008,0.237553385,-0.152778503,0.283782
0.305752997,-0.244199957,0.388224,0.264354164,-0.198331265,0.350366,0.275327503,-0.231287286,0.375076,0.233952314,-0.225606975,0.348093,0.197043372,-0.213861778,0.325036,0.172415189,-0.198156223,0.307772,0.190264813,-0.149824384,0.305818,0.154812253,-0.112256777,0.265989,0.14582622,-0.119057924,0.246075,0.148696601,-0.131395553,0.241449,0.213304106,-0.143192927,0.307961,0.175694436,-0.123724311,0.263895,0.166863342,-0.134303243,0.23819,0.170004256,-0.140040096,0.233457,0.235786746,-0.140747899,0.312228,0.194620411,-0.127780846,0.271381,0.192789539,-0.134646248,0.250483,0.199883343,-0.140509701,0.24576,0.269676383,-0.144005872,0.322287,0.235315217,-0.156511353,0.287046,0.233006359,-0.165795565,0.291982,0.244008476,-0.165840215,0.306299
0.337056755,-0.270780141,0.416882,0.289270874,-0.220932615,0.382926,0.29923721,-0.260153103,0.401157,0.260511801,-0.245444001,0.375855,0.221939869,-0.226802301,0.349975,0.197728494,-0.207774953,0.332197,0.21142466,-0.173594863,0.33821,0.174806776,-0.14914963,0.299742,0.168067967,-0.147696424,0.280508,0.179773802,-0.159186486,0.278039,0.235222975,-0.165537242,0.344891,0.205170005,-0.14177008,0.303335,0.200227483,-0.148405468,0.279094,0.206661363,-0.160349597,0.276812,0.258515958,-0.16176353,0.352633,0.225226029,-0.143573171,0.312555,0.227081439,-0.147754075,0.29205,0.231959152,-0.150720801,0.289433,0.293808237,-0.163204086,0.366349,0.268748971,-0.165954778,0.331834,0.270541717,-0.185992112,0.338648,0.278805721,-0.197724357,0.353438
0.344169202,-0.283074603,0.425369,0.304081328,-0.237013532,0.403663,0.31094071,-0.275054431,0.41514,0.27364565,-0.257284052,0.396507,0.243860062,-0.238185695,0.375756,0.223196893,-0.218601834,0.362088,0.238975484,-0.189792399,0.374865,0.202441516,-0.170991505,0.346587,0.197176374,-0.173016095,0.332447,0.21238279,-0.18964288,0.338046,0.263256066,-0.183295578,0.379349,0.235386381,-0.166652299,0.348794,0.231909028,-0.178676943,0.33097,0.245200335,-0.197257553,0.336768,0.286175398,-0.180854078,0.384473,0.267622332,-0.18123564,0.354964,0.26092397,-0.193502377,0.339866,0.269332685,-0.213380034,0.345844,0.319370697,-0.183972655,0.393452,0.29243642,-0.191016402,0.36729,0.299918956,-0.214104191,0.379934,0.311576516,-0.225056336,0.394044
0.348267798,-0.289768698,0.43276,0.313664189,-0.24511101,0.416804,0.317444232,-0.284137958,0.427763,0.28601658,-0.266049973,0.414479,0.257120526,-0.248049088,0.396938,0.237700193,-0.228831146,0.385124,0.258882617,-0.199675491,0.398686,0.22691176,-0.187693052,0.377598,0.211495041,-0.184828494,0.367054,0.218797144,-0.206849682,0.376191,0.279835659,-0.19321588,0.39893,0.245731287,-0.183928277,0.374564,0.240439339,-0.198644061,0.360351,0.258009059,-0.219134666,0.369249,0.299620874,-0.190766762,0.400186,0.273270045,-0.190386987,0.377693,0.261779611,-0.199811497,0.366185,0.272251213,-0.226808285,0.375793,0.328233861,-0.193795128,0.403776,0.297394122,-0.203429837,0.383145,0.310801757,-0.225377066,0.397637,0.325971577,-0.236418237,0.410517
0.358408337,-0.30343007,0.449191,0.325688083,-0.254412424,0.432697,0.328886428,-0.293330612,0.444166,0.29902848,-0.275528196,0.430847,0.269578396,-0.257157801,0.413685,0.250357577,-0.237963302,0.402211,0.270975957,-0.20837419,0.41414,0.23753392,-0.200855883,0.392714,0.227676152,-0.205042581,0.382001,0.236941861,-0.22449986,0.390946,0.291863048,-0.202072229,0.414222,0.253241603,-0.18298364,0.389357,0.24128086,-0.191290651,0.374853,0.251871779,-0.213876496,0.383523,0.311564389,-0.199791127,0.41538,0.284617039,-0.198242635,0.392491,0.272622758,-0.206890991,0.38078,0.282514002,-0.233801302,0.39017,0.34003476,-0.203078262,0.418923,0.308860905,-0.21146684,0.397955,0.321711354,-0.233863579,0.412326,0.337239189,-0.245090489,0.425279
0.365315178,-0.310715606,0.460073,0.334322914,-0.260620479,0.442917,0.337862468,-0.300528694,0.456195,0.310170377,-0.281847458,0.444963,0.281851531,-0.263409247,0.43042,0.261074167,-0.244718775,0.417646,0.283768625,-0.212695853,0.425245,0.25186067,-0.199655686,0.404338,0.238305737,-0.204369262,0.393885,0.241884867,-0.227901452,0.402784,0.303575456,-0.207256916,0.423699,0.26646286,-0.197432714,0.398512,0.256730593,-0.211360476,0.38382,0.269228573,-0.235270393,0.392201,0.319984565,-0.204780003,0.423562,0.2927124,-0.205014839,0.400932,0.278842483,-0.213788328,0.389354,0.287863745,-0.239710782,0.39861,0.347303829,-0.208337932,0.425638,0.314802233,-0.216669935,0.404803,0.327228022,-0.239001083,0.418975,0.342438792,-0.250317189,0.431803
0.367421562,-0.312654465,0.463086,0.336055674,-0.2617951,0.444802,0.339787869,-0.301845134,0.458749,0.311225044,-0.282805819,0.446476,0.282829845,-0.264323548,0.431914,0.262776325,-0.245199558,0.41979,0.284087598,-0.212934935,0.425723,0.251528666,-0.199392499,0.403805,0.237677733,-0.20383069,0.392847,0.240236776,-0.225928987,0.401245,0.304021829,-0.207561663,0.424322,0.266125195,-0.197182524,0.398007,0.255952682,-0.210720039,0.382657,0.268080133,-0.234266808,0.390528,0.321353291,-0.205521918,0.42438,0.29252915,-0.204886492,0.400681,0.278270982,-0.213350158,0.388556,0.286650522,-0.239183871,0.397273,0.348879925,-0.209584515,0.426835,0.315257311,-0.217354723,0.405124,0.327374875,-0.239477442,0.419025,0.342793755,-0.25089047,0.432056
0.373347292,-0.318039826,0.470418,0.342072169,-0.266322158,0.450784,0.345345279,-0.30603702,0.465501,0.315775873,-0.286804554,0.451872,0.286526747,-0.267934662,0.437827,0.268018729,-0.247988202,0.427226,0.288342534,-0.215767204,0.429983,0.254800891,-0.201607285,0.406841,0.240398556,-0.205755721,0.39527,0.241016149,-0.225378512,0.403045,0.308541124,-0.210696463,0.428793,0.269418867,-0.199654283,0.40113,0.258421766,-0.212854215,0.384994,0.269937778,-0.236100936,0.392237,0.327653036,-0.209658042,0.429113,0.298700991,-0.216581056,0.404126,0.284196533,-0.227055723,0.391342,0.29210546,-0.251641491,0.39939,0.355396799,-0.214871246,0.432059,0.31971414,-0.221834469,0.409295,0.331290497,-0.243689904,0.422851,0.347038562,-0.255228731,0.436119
0.375419783,-0.320032107,0.472939,0.344074798,-0.267977238,0.452847,0.347841772,-0.308165862,0.468438,0.315861418,-0.286814833,0.451435,0.285501497,-0.267052795,0.436392,0.26746184,-0.247530978,0.426444,0.29053462,-0.217230466,0.432202,0.256929526,-0.203103616,0.409141,0.242446739,-0.207306444,0.39761,0.242898075,-0.226916252,0.405251,0.310311625,-0.211929999,0.430343,0.270862345,-0.200739484,0.402387,0.259600599,-0.213875392,0.38608,0.270859657,-0.23701155,0.393083,0.329043042,-0.210733565,0.430142,0.299434206,-0.217112693,0.405118,0.284903135,-0.227620255,0.392315,0.292684712,-0.252140502,0.400182,0.356299927,-0.215797698,0.432525,0.320428962,-0.222659312,0.409701,0.331828496,-0.244388208,0.423087,0.347544557,-0.25590025,0.43631
0.378306831,-0.322692771,0.476773,0.346870876,-0.269921141,0.455774,0.350915219,-0.310548976,0.472216,0.31938638,-0.288660386,0.455131,0.294464732,-0.265233325,0.442882,0.272057474,-0.247133482,0.42942,0.295017141,-0.218987467,0.434375,0.263106199,-0.197009215,0.410771,0.248358934,-0.20175694,0.398969,0.244643434,-0.226421717,0.406213,0.314674139,-0.214225422,0.432253,0.274373717,-0.20226194,0.403492,0.26047612,-0.21405367,0.386715,0.270958025,-0.237007328,0.39326,0.333277493,-0.213527371,0.431897,0.301310217,-0.217528776,0.406235,0.286330578,-0.227807654,0.393105,0.293412306,-0.252139977,0.400526,0.360324046,-0.219285719,0.434211,0.324075227,-0.224172052,0.410853,0.333294434,-0.2448861,0.423956,0.348404842,-0.25596456,0.437257
0.37804978,-0.322238206,0.476422,0.346812225,-0.269359941,0.455131,0.35100895,-0.31001978,0.47209,0.320267468,-0.287076643,0.455317,0.295639843,-0.265084255,0.442653,0.281871799,-0.245915593,0.433386,0.295291704,-0.217893819,0.433782,0.262887471,-0.195891756,0.410206,0.247906589,-0.200847322,0.398418,0.244902422,-0.225199548,0.405553,0.314695361,-0.21324874,0.431282,0.273980522,-0.193592001,0.402332,0.257120318,-0.203415421,0.385444,0.26359961,-0.226185061,0.391821,0.333057728,-0.212661569,0.430634,0.300804716,-0.216620845,0.40493,0.285577567,-0.226876235,0.391779,0.292298863,-0.251038305,0.399063,0.359758888,-0.218569222,0.432636,0.323538153,-0.222780327,0.40923,0.332082923,-0.244051182,0.422207,0.346986816,-0.256760876,0.435477
0.378410191,-0.322369635,0.476856,0.347196316,-0.269291076,0.455232,0.351486546,-0.309984325,0.472544,0.321149391,-0.2869143,0.455802,0.295993631,-0.264998828,0.442517,0.282338279,-0.245857139,0.432884,0.295612982,-0.217352901,0.433656,0.262750703,-0.195471556,0.409918,0.247640499,-0.200450782,0.398049,0.245056409,-0.224304444,0.405035,0.314934488,-0.212816481,0.43101,0.273605301,-0.193326874,0.401781,0.256644026,-0.203038612,0.38473,0.262999512,-0.225670139,0.390929,0.333225994,-0.212334264,0.430265,0.30065751,-0.21618925,0.404358,0.285212531,-0.226386963,0.391103,0.291654934,-0.25039843,0.398218,0.359836226,-0.21839282,0.432193,0.323499662,-0.222141636,0.408616,0.331624952,-0.243754127,0.421476,0.346122859,-0.257129731,0.43476
0.378704334,-0.322483841,0.477211,0.347506489,-0.2692568,0.455337,0.351872648,-0.309970219,0.472917,0.321791456,-0.28685547,0.456203,0.296251833,-0.265028545,0.44257,0.28265572,-0.245900805,0.432761,0.295841033,-0.217002057,0.433592,0.262657976,-0.195243369,0.409736,0.247471722,-0.200223639,0.397807,0.245189972,-0.223653199,0.404679,0.315097897,-0.212530848,0.430834,0.273342443,-0.193141141,0.401395,0.256305818,-0.202771046,0.384223,0.262566931,-0.225298957,0.390286,0.333333546,-0.212113096,0.430013,0.300543096,-0.215890013,0.403955,0.284948368,-0.226044512,0.390624,0.291192262,-0.249943326,0.397609,0.359875486,-0.218267792,0.431883,0.323452096,-0.221700815,0.408179,0.331297391,-0.243543002,0.420948,0.345490433,-0.257418516,0.434242
0.378947572,-0.322582131,0.477505,0.347758584,-0.269238654,0.455433,0.352187797,-0.309964825,0.473224,0.322279871,-0.28684041,0.456532,0.296456642,-0.265090821,0.442676,0.282899964,-0.245973587,0.432769,0.296011365,-0.216756672,0.433557,0.262589615,-0.195097034,0.409607,0.247351891,-0.200072401,0.397632,0.245300153,-0.223154414,0.404414,0.315216692,-0.212328134,0.430711,0.273147001,-0.193003044,0.401108,0.256050328,-0.202568921,0.38384,0.262236608,-0.225015519,0.389795,0.333408058,-0.211953646,0.42983,0.300452216,-0.215669843,0.403655,0.284745844,-0.225789034,0.390263,0.290841293,-0.24960075,0.397146,0.359897198,-0.218174659,0.431654,0.32340551,-0.221377351,0.407851,0.331051028,-0.243384987,0.420548,0.345006289,-0.257649342,0.433849
0.379923847,-0.323395648,0.478755,0.348414104,-0.26957537,0.456104,0.353358927,-0.310411451,0.47446,0.323339215,-0.287445373,0.45776,0.297388625,-0.265843365,0.443934,0.283899964,-0.246749628,0.434054,0.296304668,-0.216693561,0.433773,0.262120306,-0.194684754,0.40886,0.24658072,-0.199412538,0.396404,0.244487428,-0.221938843,0.402719,0.315390211,-0.212232852,0.430734,0.272825578,-0.192775929,0.400636,0.255542684,-0.202167308,0.383079,0.26151205,-0.224393803,0.388718,0.333494407,-0.211853394,0.429732,0.300194909,-0.215369041,0.403176,0.284300345,-0.225364774,0.38959,0.290113252,-0.248945028,0.396164,0.359917371,-0.218107217,0.431487,0.323181734,-0.221005661,0.407367,0.330558681,-0.243041463,0.419853,0.34434021,-0.257625718,0.433184
0.38203272,-0.324386273,0.48049,0.350047177,-0.270249018,0.457245,0.355320443,-0.311244327,0.476045,0.325133258,-0.288746919,0.459151,0.298106578,-0.267049691,0.445147,0.284716479,-0.247986253,0.434004,0.296777106,-0.217028523,0.434283,0.26236426,-0.195381141,0.409086,0.245507152,-0.205214845,0.396487,0.24528058,-0.222001739,0.402551,0.315845514,-0.212443377,0.431209,0.273134402,-0.19409019,0.400565,0.258718341,-0.211496805,0.38269,0.268255833,-0.233385681,0.388012,0.333984754,-0.211975987,0.430218,0.300411661,-0.215593944,0.403182,0.28432627,-0.225207901,0.38935,0.289814342,-0.248755669,0.3956,0.360554521,-0.218153772,0.432063,0.323422588,-0.221480088,0.40755,0.331340433,-0.243868478,0.419835,0.344761093,-0.258302433,0.433226
0.383091813,-0.324617567,0.480927,0.351079308,-0.270587108,0.457611,0.356488642,-0.311455102,0.476554,0.325697142,-0.289215906,0.459763,0.296748507,-0.26874231,0.445508,0.284767236,-0.249156958,0.434385,0.297182694,-0.217385873,0.434681,0.261366472,-0.201013364,0.409642,0.246034943,-0.205535418,0.397123,0.246219893,-0.222420407,0.403196,0.31614218,-0.212691845,0.431493,0.272949042,-0.193270536,0.400812,0.259407213,-0.211081869,0.382915,0.268985982,-0.232663086,0.388187,0.33420777,-0.212133544,0.430414,0.300567771,-0.216070678,0.403383,0.284403363,-0.22551183,0.389553,0.289773365,-0.249179994,0.395763,0.360722499,-0.218198375,0.432164,0.321747932,-0.224429928,0.40765,0.331418688,-0.24432255,0.419896,0.345078738,-0.259155957,0.433271
0.383656888,-0.324303809,0.480916,0.351497729,-0.270388883,0.457513,0.35716352,-0.311225941,0.476672,0.326311959,-0.289109292,0.460068,0.297532884,-0.268831126,0.445871,0.284631145,-0.249882382,0.434405,0.297587482,-0.217310556,0.434674,0.261931566,-0.200169878,0.409495,0.246414343,-0.204915425,0.396905,0.246250549,-0.222123881,0.40288,0.316386473,-0.212572365,0.431299,0.27268124,-0.193199048,0.400585,0.259253313,-0.209913522,0.382669,0.268982963,-0.231189726,0.387875,0.334322924,-0.21197561,0.430071,0.300586615,-0.216226617,0.403075,0.284279028,-0.225460981,0.389263,0.289412005,-0.249238556,0.395423,0.360690437,-0.217986689,0.431653,0.322050341,-0.224964442,0.407163,0.331122213,-0.244393883,0.419351,0.344690245,-0.259310306,0.432696
0.3842235,-0.32399253,0.480908,0.351916581,-0.270191308,0.457416,0.357838581,-0.310997722,0.476791,0.326924314,-0.289001071,0.46037,0.298310656,-0.26891388,0.446224,0.284563014,-0.250479291,0.434478,0.297989845,-0.217233198,0.434663,0.262492406,-0.19932271,0.409341,0.246788822,-0.204292357,0.39668,0.246274483,-0.221822171,0.402554,0.316629427,-0.212451907,0.431103,0.272437367,-0.193118111,0.400356,0.259097989,-0.20874821,0.382421,0.268974864,-0.229727968,0.387559,0.334438844,-0.211818165,0.429729,0.300604528,-0.216381782,0.402766,0.284153237,-0.225409031,0.388971,0.289047475,-0.249295172,0.395079,0.360661474,-0.217776985,0.431146,0.322354584,-0.225500007,0.406679,0.330826326,-0.244465152,0.418807,0.344301627,-0.259463818,0.432121
0.38668249,-0.325279756,0.483169,0.353394134,-0.270945868,0.458836,0.359948025,-0.312140393,0.478783,0.328199015,-0.290141213,0.462014,0.298117879,-0.272350412,0.44722,0.284327307,-0.254946381,0.43395,0.298441298,-0.217557453,0.435119,0.262323642,-0.200206141,0.408981,0.246233124,-0.205135831,0.395911,0.245370481,-0.221781465,0.401301,0.317069519,-0.212730993,0.431579,0.273644286,-0.202996338,0.400048,0.261312397,-0.218095896,0.381655,0.271593772,-0.238325647,0.386337,0.334940931,-0.212081535,0.430276,0.300282882,-0.219932351,0.4026,0.285023066,-0.233174745,0.38844,0.288387144,-0.251667629,0.394075,0.361387744,-0.218072955,0.43189,0.322513134,-0.2258901,0.406843,0.330779994,-0.244867339,0.41868,0.346834184,-0.258614426,0.432085
