sluyters/QuantumLeap/backend/src/datasets/dynamic/HandGestureDataset_SHREC2017_csv/Gesture1/finger_2/subject_6_essai_2_skeletons_world.csv
Wrist_x,Wrist_y,Wrist_z,Palm_x,Palm_y,Palm_z,thumb_base_x,thumb_base_y,thumb_base_z,thumb_first_joint_x,thumb_first_joint_y,thumb_first_joint_z,thumb_second_joint_x,thumb_second_joint_y,thumb_second_joint_z,thumb_tip_x,thumb_tip_y,thumb_tip_z,index_base_x,index_base_y,index_base_z,index_first_joint_x,index_first_joint_y,index_first_joint_z,index_second_joint_x,index_second_joint_y,index_second_joint_z,index_tip_x,index_tip_y,index_tip_z,middle_base_x,middle_base_y,middle_base_z,middle_first_joint_x,middle_first_joint_y,middle_first_joint_z,middle_second_joint_x,middle_second_joint_y,middle_second_joint_z,middle_tip_x,middle_tip_y,middle_tip_z,ring_base_x,ring_base_y,ring_base_z,ring_first_joint_x,ring_first_joint_y,ring_first_joint_z,ring_second_joint_x,ring_second_joint_y,ring_second_joint_z,ring_tip_x,ring_tip_y,ring_tip_z,pinky_base_x,pinky_base_y,pinky_base_z,pinky_first_joint_x,pinky_first_joint_y,pinky_first_joint_z,pinky_second_joint_x,pinky_second_joint_y,pinky_second_joint_z,pinky_tip_x,pinky_tip_y,pinky_tip_z,r
0.57969775,-0.38405821,0.58705,0.57821404,-0.33886989,0.585795,0.56026687,-0.36811919,0.588137,0.52688631,-0.33523518,0.58031,0.49700876,-0.30594787,0.567713,0.49219672,-0.28795747,0.565365,0.55870445,-0.28306752,0.58636,0.55324019,-0.24734585,0.586564,0.55081395,-0.23015265,0.586667,0.54907026,-0.21398582,0.586759,0.58087398,-0.28628848,0.584601,0.57587833,-0.24382916,0.574989,0.57231678,-0.21993501,0.569382,0.57045019,-0.20431913,0.565377,0.60136464,-0.29247653,0.583287,0.59737175,-0.24737257,0.574635,0.59567444,-0.22799887,0.570208,0.59406704,-0.20945132,0.566184,0.62542254,-0.31199597,0.581998,0.62412976,-0.27030005,0.574633,0.62255097,-0.25521422,0.571249,0.62454438,-0.23918535,0.568263
0.57860305,-0.38499748,0.587621,0.57759424,-0.33965286,0.586035,0.55921611,-0.36871715,0.588528,0.52541203,-0.33477152,0.579394,0.49733189,-0.30598836,0.568075,0.48326922,-0.28236313,0.555215,0.55715392,-0.28412914,0.58614,0.55277383,-0.24542719,0.58983,0.55524853,-0.23186585,0.591675,0.55517166,-0.2160666,0.593352,0.58242284,-0.29089633,0.584524,0.57513835,-0.24332694,0.57456,0.57174699,-0.21053989,0.568748,0.57010533,-0.19843179,0.564597,0.60184654,-0.29879993,0.583364,0.59732422,-0.24899065,0.574408,0.59555847,-0.22412768,0.569826,0.59438296,-0.20346222,0.56566,0.6250389,-0.31202971,0.582316,0.62664192,-0.26731222,0.578637,0.63103573,-0.25336094,0.576946,0.6334502,-0.24073285,0.575455
0.57712853,-0.3856857,0.587808,0.57693521,-0.34003084,0.585946,0.55780758,-0.36908048,0.588544,0.52470282,-0.33463672,0.579085,0.49705329,-0.30571093,0.567752,0.48233177,-0.28141145,0.553895,0.55664373,-0.28428777,0.585641,0.55285068,-0.24546131,0.589912,0.55533155,-0.23176088,0.592048,0.55570033,-0.21597467,0.59399,0.58181003,-0.29070713,0.584174,0.574175,-0.24273076,0.573907,0.57091261,-0.21023264,0.567918,0.56915218,-0.19531465,0.56364,0.60124212,-0.2984641,0.583166,0.59625053,-0.2490388,0.573953,0.5945767,-0.22349086,0.569239,0.59341074,-0.20243192,0.564953,0.62458798,-0.31195505,0.582347,0.62671078,-0.26728314,0.578444,0.63055217,-0.2536793,0.576651,0.63316022,-0.24108094,0.575069
0.57362364,-0.3842074,0.584559,0.57619704,-0.34164619,0.583563,0.55403023,-0.36749918,0.584959,0.52106307,-0.3338525,0.575333,0.49534638,-0.30460542,0.565448,0.48142916,-0.28099551,0.552557,0.55341366,-0.28610131,0.583408,0.55108002,-0.25477134,0.586289,0.55208626,-0.23832348,0.58773,0.5523577,-0.2193182,0.589039,0.57807861,-0.28925551,0.582615,0.5719373,-0.24576301,0.573164,0.56894,-0.22134004,0.567651,0.5683122,-0.20506689,0.563713,0.59885102,-0.29380024,0.582069,0.5951662,-0.24726324,0.573588,0.59398724,-0.22478165,0.569248,0.59311386,-0.20432043,0.565304,0.62284337,-0.30389172,0.581623,0.62407987,-0.2701391,0.574953,0.62497067,-0.25507483,0.571889,0.62666863,-0.23979104,0.569185
0.57184936,-0.38325461,0.582936,0.5733181,-0.33850391,0.581968,0.55252842,-0.36663613,0.583529,0.51884364,-0.33119628,0.574173,0.49352501,-0.30219772,0.564148,0.48022883,-0.27865618,0.551144,0.55491078,-0.28152942,0.582083,0.5508234,-0.24945897,0.585284,0.5507888,-0.23167664,0.586884,0.55071236,-0.21493302,0.588339,0.57733789,-0.28728742,0.581046,0.57163894,-0.24277901,0.571717,0.56850384,-0.22015777,0.566275,0.56737701,-0.20422557,0.562388,0.59702501,-0.29330531,0.580296,0.59375125,-0.24760766,0.571932,0.5926921,-0.22261068,0.567653,0.59211377,-0.20156664,0.563763,0.62056417,-0.30655403,0.579607,0.62136092,-0.27172564,0.57256,0.62151752,-0.25534787,0.569322,0.62200374,-0.24493121,0.566465
0.56417228,-0.37866603,0.574254,0.56915746,-0.33771216,0.572982,0.54475956,-0.36299672,0.574781,0.51977026,-0.33684493,0.565235,0.48774381,-0.30260817,0.547774,0.48143417,-0.28151871,0.552008,0.54165734,-0.28845987,0.572805,0.5393008,-0.24297681,0.573046,0.53907206,-0.22416787,0.573167,0.54319792,-0.20216754,0.573276,0.56609951,-0.28887616,0.57177,0.56392548,-0.23468857,0.564587,0.56106686,-0.19899392,0.560397,0.56262837,-0.18986551,0.557404,0.58666319,-0.29226781,0.571055,0.58488578,-0.23524927,0.562119,0.58505707,-0.20656539,0.557547,0.58239025,-0.19704532,0.55339,0.61234039,-0.30147099,0.570465,0.61653257,-0.24945767,0.564206,0.62173961,-0.23421859,0.56133,0.6268412,-0.21992554,0.558793
0.55480122,-0.3727895,0.564636,0.55859349,-0.33205053,0.562219,0.53713161,-0.35651276,0.56291,0.50590875,-0.32048438,0.550008,0.47147243,-0.2842619,0.529096,0.46365281,-0.2634809,0.526372,0.52926366,-0.27317368,0.558329,0.52699742,-0.22733447,0.561302,0.53114247,-0.20853631,0.562788,0.53481886,-0.19457293,0.56414,0.55584436,-0.27687518,0.559917,0.55857808,-0.22184831,0.556761,0.56013439,-0.19009906,0.55492,0.56420956,-0.17428376,0.553605,0.57749446,-0.28523008,0.561484,0.57763092,-0.22575401,0.551784,0.57733919,-0.19652653,0.546821,0.5772151,-0.18645745,0.542309,0.60536184,-0.29774706,0.563758,0.60904634,-0.24496248,0.557029,0.61405455,-0.2320203,0.553937,0.61900724,-0.21986237,0.551208
0.54926908,-0.368954,0.557855,0.55267595,-0.32921072,0.555973,0.53200755,-0.35412234,0.557561,0.5062182,-0.32049524,0.546713,0.47503631,-0.28291595,0.521918,0.46228506,-0.26131091,0.520045,0.52758225,-0.27297106,0.554311,0.52170362,-0.22599925,0.555056,0.52468675,-0.20690338,0.555429,0.52768802,-0.18864222,0.555768,0.55232531,-0.27625837,0.554181,0.55582616,-0.22186987,0.552355,0.55587178,-0.19215227,0.551291,0.56272678,-0.17492112,0.55053,0.57505137,-0.28468789,0.554276,0.57158368,-0.22521333,0.54492,0.57091558,-0.19614335,0.540133,0.57374064,-0.18205933,0.535782,0.59990665,-0.29821611,0.55474,0.5993352,-0.24123572,0.547224,0.6050333,-0.23446479,0.543771,0.61008594,-0.22629408,0.540724
0.54890779,-0.36427301,0.551768,0.55340043,-0.30902256,0.547813,0.52842697,-0.34568305,0.55218,0.50428276,-0.31021952,0.541612,0.46919749,-0.27858188,0.515592,0.45129332,-0.25422626,0.504297,0.52388646,-0.25511801,0.545663,0.5137433,-0.21584598,0.539581,0.51008887,-0.19741253,0.536539,0.50703869,-0.1814268,0.533775,0.5474686,-0.2556187,0.544046,0.54842486,-0.21871441,0.542532,0.55136532,-0.19569011,0.541649,0.55110672,-0.17889419,0.541018,0.56745621,-0.25921528,0.54314,0.56878687,-0.22108952,0.539647,0.57544196,-0.20194626,0.53786,0.57853552,-0.18433385,0.536236,0.59263721,-0.26978757,0.542832,0.59486288,-0.23328316,0.533396,0.59643022,-0.22053474,0.52906,0.59507847,-0.21589892,0.525235
0.53518318,-0.34912876,0.537298,0.53866414,-0.29777534,0.533774,0.52284058,-0.32807319,0.53925,0.49764944,-0.3001812,0.530939,0.45831846,-0.26780938,0.502172,0.44159849,-0.24559072,0.483313,0.51581773,-0.24115378,0.533923,0.50269698,-0.20334396,0.523968,0.49610402,-0.18412509,0.518991,0.49008971,-0.16645999,0.514466,0.53749124,-0.24187343,0.530418,0.53736408,-0.20301833,0.525035,0.53662493,-0.18198715,0.521895,0.53560816,-0.16922806,0.519653,0.55579492,-0.24562399,0.52791,0.55566449,-0.20580742,0.519015,0.55490479,-0.18743544,0.514464,0.55079603,-0.17310587,0.510326,0.5786427,-0.25642597,0.525662,0.58571606,-0.22098781,0.516315,0.584715,-0.21212307,0.51202,0.58397173,-0.20404882,0.508231
0.52619933,-0.33948318,0.526629,0.52496976,-0.2900662,0.52194,0.50431368,-0.31712719,0.525315,0.48036602,-0.28685277,0.512207,0.44793836,-0.25100229,0.484338,0.43344332,-0.22605535,0.4728,0.50231975,-0.23450827,0.517043,0.48576047,-0.19318667,0.504651,0.47820558,-0.17363619,0.498455,0.47364496,-0.16241137,0.492822,0.52748547,-0.23996431,0.517473,0.52746847,-0.20205931,0.512745,0.52876775,-0.18205544,0.509986,0.52671292,-0.16703834,0.508016,0.54853412,-0.24776598,0.518332,0.54825472,-0.20382242,0.511182,0.54925567,-0.18575138,0.507524,0.55031186,-0.16882793,0.504198,0.57416649,-0.26361718,0.520211,0.57556183,-0.22586603,0.509303,0.57610987,-0.2105477,0.504291,0.57576264,-0.20027066,0.499869
0.50511111,-0.32420464,0.508142,0.50570114,-0.28222827,0.505015,0.48412913,-0.3082217,0.508284,0.48464013,-0.27961458,0.497615,0.4445674,-0.23898002,0.472823,0.4321811,-0.22294804,0.470515,0.48709798,-0.22637189,0.503077,0.47590644,-0.18667826,0.493795,0.47372421,-0.16987378,0.489154,0.46864691,-0.15810227,0.484935,0.51075358,-0.23134344,0.502037,0.50839401,-0.19122656,0.490392,0.50736818,-0.16969493,0.483599,0.50667128,-0.15526837,0.478747,0.53029939,-0.23857718,0.501517,0.53406981,-0.19714959,0.495334,0.53739022,-0.17938163,0.492171,0.53866769,-0.16343313,0.489295,0.55382475,-0.25345351,0.501502,0.56061239,-0.21830255,0.492035,0.56315156,-0.20504608,0.487686,0.56559713,-0.19303773,0.483848
0.48534783,-0.31526393,0.487683,0.49410675,-0.27439754,0.486538,0.46862761,-0.29878463,0.489702,0.47366983,-0.27331318,0.482234,0.43782949,-0.23644485,0.463601,0.42917879,-0.2211292,0.466468,0.47818004,-0.22087818,0.48839,0.47555186,-0.18167205,0.484881,0.47523362,-0.16570489,0.483127,0.47148403,-0.15288757,0.481533,0.50020288,-0.22429834,0.485447,0.50024013,-0.18524502,0.476203,0.50031211,-0.16354053,0.470811,0.50033397,-0.15054468,0.469831,0.51818686,-0.23015438,0.483148,0.52134074,-0.18779283,0.474965,0.52343695,-0.16809865,0.470779,0.52532317,-0.15115179,0.466973,0.5395297,-0.24320278,0.480694,0.54678916,-0.20838217,0.473117,0.54934408,-0.1956332,0.469636,0.55181599,-0.18401423,0.466565
0.49032261,-0.31287606,0.488602,0.50162596,-0.266141,0.486371,0.46782369,-0.29259633,0.484908,0.49555807,-0.25362863,0.486947,0.48154708,-0.21226503,0.465525,0.496153,-0.19680091,0.465292,0.47720581,-0.21312201,0.480045,0.46980914,-0.17371488,0.467981,0.46888769,-0.15798106,0.461949,0.46823894,-0.1431828,0.456466,0.50501486,-0.22168557,0.484247,0.50427559,-0.18599636,0.472853,0.50425838,-0.16519828,0.466206,0.50436993,-0.15002684,0.461459,0.52834435,-0.2315242,0.487947,0.52321918,-0.18783806,0.476597,0.52512306,-0.17381088,0.47079,0.52718189,-0.16104695,0.465511,0.55688363,-0.24886769,0.492661,0.55748652,-0.21464846,0.481437,0.55784893,-0.20607486,0.47628,0.55739053,-0.19591697,0.47173
0.49467091,-0.31217949,0.488411,0.49588781,-0.26154691,0.478382,0.47390203,-0.29098465,0.483097,0.46178099,-0.25659693,0.463216,0.42559239,-0.21814022,0.433688,0.41372949,-0.19531813,0.426131,0.46090407,-0.20165535,0.464652,0.44225765,-0.16025634,0.445215,0.43724386,-0.14615247,0.435496,0.43283454,-0.13299224,0.426661,0.48895012,-0.20633181,0.468832,0.47932035,-0.16705968,0.448935,0.47439557,-0.14546537,0.437328,0.47189294,-0.13466626,0.429038,0.51340732,-0.21368903,0.473355,0.50728718,-0.1727676,0.455045,0.50628968,-0.15789562,0.445677,0.50582793,-0.14445795,0.437161,0.54504197,-0.22933153,0.48049,0.53740297,-0.20775193,0.462976,0.53418052,-0.19752622,0.454929,0.53150931,-0.18831801,0.447829
0.52634001,-0.31971319,0.485006,0.50705026,-0.2694558,0.472752,0.4986464,-0.30477544,0.4805,0.48744346,-0.27418039,0.460982,0.44310389,-0.23736684,0.433635,0.42467679,-0.21782544,0.428035,0.46057422,-0.21324736,0.458563,0.44017691,-0.17131631,0.438097,0.43283219,-0.1552384,0.427864,0.42622834,-0.14032015,0.418561,0.48746399,-0.21303384,0.461082,0.47049945,-0.17339113,0.439011,0.46216022,-0.15347546,0.426136,0.45661715,-0.14009276,0.416939,0.51164606,-0.21648039,0.464477,0.4996871,-0.1738531,0.444705,0.49626261,-0.15864397,0.43459,0.49394498,-0.14757449,0.425393,0.54432151,-0.22761614,0.470722,0.52963039,-0.20847869,0.451921,0.52303706,-0.19946114,0.443282,0.51731451,-0.19137022,0.43566
0.52311282,-0.32103068,0.482079,0.50362342,-0.27035031,0.469235,0.49552301,-0.30582628,0.477312,0.48504433,-0.27509823,0.457298,0.44124187,-0.23798904,0.429719,0.42270471,-0.21813839,0.423784,0.45716171,-0.21349553,0.454306,0.43718648,-0.17134901,0.433223,0.43289032,-0.1571593,0.422682,0.42396253,-0.14030665,0.413099,0.4839438,-0.21359565,0.457003,0.46916612,-0.17614027,0.434285,0.46185843,-0.15616561,0.421033,0.45389604,-0.14051229,0.411567,0.50868457,-0.22002652,0.460609,0.49840453,-0.1773076,0.440279,0.49620694,-0.16221416,0.429878,0.49161361,-0.14855827,0.420423,0.54092825,-0.23185036,0.467208,0.52833821,-0.21276154,0.447899,0.52277241,-0.20377751,0.439027,0.51498988,-0.19254995,0.431199
0.52329975,-0.32571154,0.482267,0.50325984,-0.28302722,0.468571,0.49475877,-0.30977922,0.476516,0.48414631,-0.28740409,0.455026,0.43979485,-0.24900982,0.426204,0.42003853,-0.22809843,0.418839,0.45549304,-0.22435835,0.45178,0.43546262,-0.18164629,0.429605,0.42862473,-0.16549734,0.418517,0.42250666,-0.1505609,0.408437,0.48318041,-0.22521478,0.455526,0.46646316,-0.18492148,0.431783,0.45845784,-0.16487288,0.417933,0.45319351,-0.15147268,0.408041,0.50810809,-0.22967999,0.460087,0.49677895,-0.18670041,0.438843,0.49400916,-0.17165083,0.427974,0.4923546,-0.16082881,0.418094,0.54179428,-0.24225546,0.467956,0.52810465,-0.22299108,0.447701,0.52201985,-0.21395605,0.438395,0.51677424,-0.20587333,0.430184
0.49231934,-0.30308332,0.459815,0.49033671,-0.26521536,0.460434,0.46441156,-0.28624296,0.451858,0.45998783,-0.24520726,0.438545,0.45541175,-0.20893753,0.420531,0.45994678,-0.18748548,0.417611,0.45438434,-0.20672173,0.45049,0.46578432,-0.18618209,0.439712,0.47281523,-0.17532759,0.434621,0.4800312,-0.1650123,0.430104,0.48791547,-0.21572304,0.461023,0.49150331,-0.18317251,0.452424,0.5032407,-0.18033675,0.447408,0.51071715,-0.1786553,0.444157,0.51682736,-0.22567483,0.469631,0.52785764,-0.21782115,0.458862,0.52435327,-0.23075079,0.453352,0.54186808,-0.25272607,0.46605,0.54872836,-0.24570311,0.479505,0.55147792,-0.23492105,0.469278,0.55169283,-0.22912641,0.464578,0.55225896,-0.22390466,0.460528
0.47943275,-0.29619909,0.454155,0.48228838,-0.25740853,0.451616,0.45777823,-0.27926058,0.444337,0.45734565,-0.23761183,0.421863,0.45013347,-0.20242926,0.394331,0.45318769,-0.18092781,0.38514,0.44395838,-0.19324322,0.437104,0.45331793,-0.17645799,0.422408,0.45937726,-0.16776537,0.415386,0.46572901,-0.15959967,0.40911,0.47820993,-0.20331783,0.449198,0.48871859,-0.19323671,0.43708,0.4965252,-0.18725174,0.430351,0.50158487,-0.18780958,0.425545,0.50733186,-0.21480271,0.459431,0.51943611,-0.19947725,0.44516,0.52630994,-0.1936607,0.437859,0.55484323,-0.19755609,0.448915,0.543388,-0.2347496,0.471786,0.54331982,-0.22308382,0.45869,0.54382961,-0.21753837,0.452673,0.53584994,-0.22350894,0.447897
0.48247418,-0.30021486,0.448594,0.4781556,-0.25403893,0.445061,0.45234667,-0.27684862,0.438256,0.45296186,-0.2414079,0.414859,0.4455675,-0.20687142,0.386232,0.45329965,-0.18750575,0.380172,0.43853502,-0.19169493,0.429197,0.445231,-0.17256356,0.412818,0.47845802,-0.17302179,0.430714,0.51088304,-0.17231852,0.446982,0.47581154,-0.20455563,0.441697,0.4855821,-0.1963423,0.428489,0.49350049,-0.19179682,0.421573,0.49836584,-0.19342953,0.416633,0.5052065,-0.21682447,0.45237,0.51687485,-0.20365803,0.437038,0.52341925,-0.19910016,0.429194,0.55188601,-0.2046782,0.439736,0.54146943,-0.23794074,0.465424,0.54092463,-0.22786608,0.451457,0.54123731,-0.22313218,0.44504,0.53123546,-0.2312956,0.439378
0.48243142,-0.30222228,0.448324,0.476191,-0.25748632,0.441545,0.45025782,-0.2773539,0.435982,0.44647731,-0.24081845,0.40935,0.43525336,-0.20676327,0.381725,0.44224683,-0.18501484,0.372854,0.43296226,-0.19170359,0.420867,0.43312508,-0.1692687,0.399748,0.46401607,-0.17119457,0.416674,0.4951004,-0.16716444,0.432061,0.46944039,-0.20327926,0.435089,0.47439649,-0.19390666,0.418414,0.47828933,-0.19084308,0.408688,0.50015233,-0.19702105,0.418396,0.5009101,-0.21633672,0.44753,0.50628707,-0.20958984,0.4287,0.50848195,-0.20768323,0.419065,0.53192372,-0.21637431,0.427591,0.54046913,-0.23880366,0.463246,0.53753851,-0.22584998,0.44646,0.53671593,-0.21976339,0.438748,0.52581553,-0.22685948,0.431942
0.47965476,-0.30170787,0.445605,0.47386744,-0.25674524,0.439017,0.44826097,-0.27717382,0.433878,0.4445905,-0.24352448,0.407921,0.43281759,-0.2081371,0.38647,0.4355769,-0.1865233,0.376064,0.43196509,-0.19138815,0.41927,0.43230936,-0.17105649,0.398618,0.46384906,-0.17137525,0.416031,0.49460605,-0.17048775,0.431862,0.46781423,-0.20260365,0.432744,0.47275266,-0.19240767,0.416233,0.47658913,-0.1869657,0.406602,0.49858847,-0.19614144,0.41672,0.49868447,-0.21535023,0.444549,0.50399141,-0.20864696,0.426075,0.50612637,-0.20713964,0.416623,0.52989482,-0.21640396,0.425623,0.53885755,-0.23869968,0.45949,0.53480944,-0.22443229,0.442933,0.53414958,-0.21832418,0.435325,0.52336768,-0.22537799,0.428613
0.48120811,-0.30467899,0.447242,0.47329183,-0.25973717,0.438271,0.4490851,-0.27951354,0.434785,0.44307287,-0.25232541,0.407242,0.43051558,-0.21692347,0.384572,0.4328124,-0.1956205,0.373177,0.42941297,-0.19256705,0.415953,0.42736476,-0.17576857,0.392977,0.45824742,-0.17778091,0.409815,0.48840981,-0.17869378,0.425122,0.46584122,-0.20390674,0.429727,0.46720172,-0.19419788,0.410666,0.4688796,-0.18885354,0.399547,0.48913759,-0.19845632,0.408614,0.49747284,-0.21692661,0.442036,0.49937728,-0.21411347,0.421267,0.4996186,-0.21358299,0.410641,0.52154057,-0.22424742,0.418587,0.53755761,-0.23965042,0.458009,0.53392813,-0.23073127,0.439528,0.53241025,-0.22498328,0.43107,0.5205968,-0.22769632,0.423756
0.47868751,-0.30696983,0.444632,0.47120857,-0.26517446,0.436456,0.44710676,-0.28199499,0.432702,0.44171153,-0.25265825,0.405966,0.4304368,-0.2172727,0.385298,0.43259632,-0.19550595,0.374292,0.42638559,-0.20155856,0.415366,0.42545167,-0.18459447,0.393307,0.45715153,-0.18893927,0.410568,0.48814877,-0.19226167,0.426261,0.46261539,-0.21258609,0.42867,0.46640095,-0.196955,0.410437,0.46820585,-0.18972997,0.399801,0.48941557,-0.19763863,0.40939,0.49414778,-0.22528767,0.440506,0.49706127,-0.21456773,0.420589,0.49738581,-0.21391975,0.410399,0.51919738,-0.22507912,0.4189,0.53506161,-0.24473535,0.455782,0.53086692,-0.23096921,0.437978,0.52944592,-0.22451691,0.429798,0.5170438,-0.22710801,0.42301
0.47512068,-0.30664429,0.441301,0.46779307,-0.26503836,0.433483,0.44350206,-0.28516012,0.42909,0.43700713,-0.25362809,0.402204,0.42562887,-0.21813268,0.382232,0.42887589,-0.19587335,0.371225,0.42309908,-0.20076175,0.41227,0.42212109,-0.18492452,0.39036,0.45379189,-0.19425487,0.407405,0.48522072,-0.20231847,0.4229,0.45988087,-0.21185601,0.426037,0.46207091,-0.19858236,0.408213,0.46402538,-0.19250459,0.397816,0.48580663,-0.20186394,0.407338,0.49183908,-0.22462331,0.438216,0.49462112,-0.21392453,0.41852,0.49509389,-0.21313092,0.408443,0.51671892,-0.22422315,0.416834,0.53238075,-0.24696732,0.453823,0.52791894,-0.23261883,0.436253,0.52636723,-0.22587918,0.428181,0.51589015,-0.23192469,0.421058
0.47413605,-0.30748487,0.440373,0.46671432,-0.26532361,0.432579,0.44251726,-0.28595392,0.428262,0.43601136,-0.25390741,0.401484,0.42445068,-0.21850287,0.381324,0.42755154,-0.1962978,0.370155,0.42228473,-0.20062973,0.411512,0.42132908,-0.18517521,0.389672,0.45311355,-0.19396449,0.406796,0.48460459,-0.20206156,0.422363,0.45896475,-0.21161083,0.425155,0.46112334,-0.19869027,0.40735,0.46305578,-0.19283698,0.396963,0.48451832,-0.20228207,0.40655,0.49081977,-0.22428809,0.43723,0.49351984,-0.21365421,0.417586,0.49403285,-0.21277307,0.407535,0.51572765,-0.22390284,0.416001,0.53120116,-0.24652773,0.452711,0.52671755,-0.23255145,0.435173,0.52515681,-0.22599261,0.427115,0.51445348,-0.23211038,0.420005
0.47390083,-0.30848448,0.440144,0.46650366,-0.26584188,0.432594,0.44201551,-0.28670401,0.427906,0.43529898,-0.25392028,0.401091,0.42423676,-0.21884389,0.381472,0.426801,-0.19665816,0.369445,0.421859,-0.20086799,0.411528,0.42123618,-0.18819054,0.389824,0.45317257,-0.20247464,0.406846,0.48493942,-0.21386506,0.422321,0.45881091,-0.21188622,0.425403,0.46125179,-0.19910125,0.407874,0.46336941,-0.19332982,0.397648,0.4847089,-0.20286195,0.407224,0.4908894,-0.22458768,0.437643,0.49301225,-0.21523154,0.418171,0.48969562,-0.21986697,0.408209,0.50818588,-0.2354166,0.41664,0.5315159,-0.24684448,0.453269,0.52590081,-0.23519346,0.435901,0.5186081,-0.23339919,0.427922,0.50588994,-0.24147692,0.420881
0.47305866,-0.31047823,0.439122,0.46608965,-0.26751411,0.432496,0.44071196,-0.28677085,0.426749,0.43406617,-0.25359069,0.400143,0.42326207,-0.21981194,0.379934,0.4297748,-0.20361317,0.364375,0.42187587,-0.20136219,0.411881,0.42184062,-0.19256228,0.390873,0.45397187,-0.20318665,0.407769,0.48562112,-0.21445865,0.423129,0.4593141,-0.2125534,0.426186,0.4629183,-0.20021109,0.409682,0.4652912,-0.19676887,0.400055,0.48060209,-0.21603333,0.409781,0.4917228,-0.22535831,0.438679,0.49462101,-0.21676793,0.419973,0.4911489,-0.22272505,0.410402,0.50794643,-0.24038329,0.418937,0.53257905,-0.2476664,0.454426,0.52408375,-0.23898308,0.437755,0.52101094,-0.23485548,0.430095,0.50865084,-0.24312648,0.423336
0.47718718,-0.31548515,0.442745,0.46763053,-0.26889576,0.433984,0.44543705,-0.294091,0.431565,0.43325377,-0.26427522,0.405388,0.42256126,-0.23412076,0.381404,0.41935373,-0.21231263,0.363457,0.42020428,-0.20544561,0.413475,0.4116943,-0.20235597,0.391338,0.43993729,-0.21518446,0.409129,0.46578516,-0.24246484,0.425303,0.4579121,-0.2129744,0.425641,0.44962183,-0.19956651,0.40674,0.44772318,-0.19858371,0.395714,0.46607427,-0.2147965,0.405542,0.48915625,-0.22425047,0.436604,0.48180973,-0.22024558,0.416436,0.47886265,-0.22016227,0.406118,0.49766086,-0.23274593,0.414964,0.52900849,-0.24442119,0.450976,0.51800367,-0.23592443,0.432849,0.5135265,-0.23179954,0.424521,0.50143202,-0.24021037,0.417173
0.47715969,-0.31592189,0.44251,0.46723143,-0.26902007,0.433655,0.44540912,-0.29469908,0.431511,0.43336171,-0.26434106,0.405489,0.42153926,-0.23361266,0.379706,0.41886035,-0.21289532,0.361032,0.41940553,-0.20603449,0.413316,0.41155018,-0.20228513,0.391201,0.43991686,-0.21517446,0.40911,0.46544346,-0.24228697,0.424991,0.45702232,-0.21302364,0.425221,0.44903816,-0.19930745,0.406212,0.44705564,-0.19828762,0.395124,0.46546861,-0.21451737,0.405015,0.48828398,-0.2238995,0.435979,0.48106694,-0.21990604,0.415794,0.47809386,-0.21980881,0.405466,0.49698327,-0.23242903,0.414399,0.52816772,-0.2437461,0.450132,0.51684328,-0.23525216,0.431966,0.51206898,-0.23130144,0.42362,0.50042205,-0.23999456,0.416255
0.4774622,-0.31761495,0.442581,0.46725191,-0.26929663,0.433705,0.44563193,-0.2953317,0.431706,0.43370157,-0.26454837,0.405807,0.42174025,-0.2337434,0.379629,0.41933421,-0.21341185,0.360779,0.41928818,-0.2064668,0.413514,0.41181321,-0.2024144,0.391451,0.44027386,-0.21534908,0.409442,0.46582021,-0.24248309,0.425335,0.45674284,-0.21322445,0.425252,0.4490459,-0.19931088,0.406219,0.44704658,-0.19828361,0.395116,0.46552262,-0.21454226,0.405062,0.4880383,-0.22382361,0.435875,0.4809767,-0.21986478,0.415716,0.47801839,-0.21977411,0.405402,0.49699046,-0.23243239,0.414405,0.52798015,-0.24343619,0.449873,0.51648049,-0.23500054,0.431715,0.51154796,-0.23116233,0.423372,0.50018493,-0.24004199,0.416011
0.47831501,-0.31959448,0.443084,0.46825615,-0.27002223,0.434585,0.446076,-0.2959354,0.432021,0.4353999,-0.2631232,0.406055,0.42252348,-0.23313364,0.379764,0.42215642,-0.21422464,0.36101,0.42071583,-0.20642712,0.414404,0.41339328,-0.20297394,0.392542,0.44191589,-0.2158537,0.41042,0.46740166,-0.24294879,0.426189,0.45791632,-0.21398769,0.426491,0.45323794,-0.2066272,0.407868,0.45193742,-0.20959672,0.397005,0.46998893,-0.22833663,0.406966,0.48964363,-0.22456995,0.43736,0.48333337,-0.22077584,0.417456,0.48017673,-0.22197794,0.407273,0.49858967,-0.24389715,0.416256,0.53007506,-0.24421546,0.451573,0.51854883,-0.23670506,0.433665,0.51112188,-0.23871698,0.425436,0.50262224,-0.24326142,0.418427
0.47880412,-0.32062574,0.443077,0.46840446,-0.27022496,0.434681,0.44632335,-0.29728359,0.432117,0.4356788,-0.26325164,0.406295,0.42310931,-0.23283325,0.37995,0.42284606,-0.21399193,0.361167,0.42092954,-0.20679108,0.414704,0.41411515,-0.20319819,0.392981,0.44282159,-0.21611712,0.410932,0.46832251,-0.24321313,0.426675,0.45800234,-0.21419546,0.426685,0.45357354,-0.2067802,0.40817,0.45235293,-0.20978942,0.39737,0.470504,-0.22858687,0.407412,0.48970404,-0.22460578,0.437455,0.48379399,-0.22088667,0.417676,0.48048299,-0.2228446,0.407557,0.49799109,-0.24460137,0.416629,0.53003965,-0.24452639,0.451535,0.51842807,-0.23719538,0.433722,0.51124442,-0.23877421,0.425538,0.5022828,-0.24424416,0.418424
0.48010718,-0.32180823,0.444137,0.46960428,-0.27163958,0.436159,0.44744389,-0.29887593,0.433295,0.4362615,-0.26467513,0.407743,0.42641478,-0.23156714,0.381292,0.42588589,-0.21284591,0.36252,0.42092994,-0.2093949,0.416621,0.41592494,-0.20426201,0.395303,0.44487512,-0.21694932,0.413344,0.47047504,-0.24387127,0.428963,0.45801626,-0.21604908,0.428562,0.45394526,-0.20447112,0.410498,0.45344796,-0.2111025,0.39996,0.47160696,-0.23043289,0.410178,0.49084081,-0.22567079,0.439255,0.48543004,-0.22161588,0.419877,0.48093685,-0.22666593,0.409962,0.49601031,-0.24755559,0.41921,0.53074241,-0.24566437,0.453165,0.51914471,-0.23917872,0.43569,0.51184374,-0.23859833,0.427661,0.50416878,-0.24503232,0.420577
0.48121761,-0.32247531,0.444874,0.47024744,-0.27245526,0.437051,0.44822531,-0.29984506,0.434002,0.43694398,-0.26484172,0.408473,0.42711942,-0.23165309,0.381789,0.42640501,-0.21263506,0.362985,0.42126366,-0.21013644,0.417578,0.41659185,-0.20471489,0.396368,0.44561578,-0.21718933,0.414393,0.47131632,-0.24397975,0.429963,0.45841446,-0.21674508,0.4296,0.45471856,-0.20538287,0.411703,0.45400813,-0.21176385,0.401264,0.47210585,-0.23132641,0.41151,0.49112878,-0.2262669,0.440343,0.48617796,-0.22194467,0.421086,0.48130618,-0.22720055,0.411234,0.49608146,-0.24854463,0.420502,0.53109101,-0.24571777,0.454283,0.5196216,-0.23967909,0.436919,0.51240728,-0.23863398,0.428941,0.50514069,-0.2459074,0.421901
0.48253283,-0.32327978,0.445801,0.47085553,-0.27324995,0.43791,0.44913154,-0.30089617,0.43483,0.43762103,-0.26506666,0.409175,0.42775218,-0.23181877,0.382275,0.42690331,-0.21260232,0.363423,0.42148191,-0.21067662,0.418264,0.41686,-0.20494054,0.396946,0.44587274,-0.21722391,0.414902,0.47170067,-0.24393357,0.430488,0.45871085,-0.21728023,0.430395,0.45510223,-0.20597798,0.412429,0.45423377,-0.21210877,0.401948,0.47219724,-0.23175922,0.412126,0.49119892,-0.22676281,0.441236,0.48661685,-0.22213556,0.421887,0.48151812,-0.22751641,0.411988,0.49601195,-0.24907941,0.421179,0.53132359,-0.24571746,0.455302,0.52004856,-0.2400765,0.43787,0.51292604,-0.23873952,0.42986,0.50571741,-0.24651009,0.422793
0.48953578,-0.32801886,0.452049,0.48025479,-0.2810019,0.448623,0.45518224,-0.30550786,0.44061,0.44440268,-0.2707764,0.416143,0.43331577,-0.23810133,0.388583,0.4341295,-0.21578669,0.370763,0.43114303,-0.22232553,0.431397,0.43159843,-0.2168291,0.41353,0.46080696,-0.22822567,0.431038,0.48620705,-0.25072532,0.445082,0.46915011,-0.2294118,0.44536,0.47237588,-0.21838688,0.432331,0.47605488,-0.22208052,0.424731,0.49644345,-0.24451582,0.435754,0.50219315,-0.2385461,0.457227,0.50488963,-0.23153443,0.441629,0.50343775,-0.23909949,0.433649,0.51863701,-0.26265978,0.443479,0.54409237,-0.2559946,0.471646,0.53690362,-0.25304333,0.457596,0.53362711,-0.25316011,0.451141,0.52770101,-0.26150125,0.445445
0.49146199,-0.32927291,0.453608,0.48116202,-0.28192597,0.449591,0.45694008,-0.30715457,0.442228,0.44594688,-0.27171729,0.417589,0.43505982,-0.23905966,0.390147,0.43499236,-0.21664536,0.372176,0.43178765,-0.22265794,0.432042,0.43178316,-0.2169219,0.413707,0.46108491,-0.22836333,0.431298,0.48665905,-0.25157567,0.445561,0.46957675,-0.22962042,0.445765,0.47209398,-0.21825655,0.432073,0.47533193,-0.22174327,0.424086,0.49544412,-0.24357248,0.435014,0.502493,-0.23868853,0.4575,0.50462211,-0.23141175,0.441395,0.50286541,-0.23882766,0.433156,0.51795688,-0.26222973,0.442918,0.54435654,-0.2561189,0.471875,0.53663493,-0.2529167,0.457367,0.53310784,-0.25291376,0.450702,0.52664284,-0.26173318,0.44482
0.49523273,-0.33160958,0.457433,0.48236412,-0.28343268,0.451803,0.46155868,-0.31026311,0.446972,0.45003988,-0.27553472,0.42266,0.43613938,-0.24817815,0.399324,0.42963113,-0.22480733,0.382018,0.43381368,-0.22302449,0.434355,0.43221431,-0.21791749,0.415165,0.46178059,-0.23036644,0.433475,0.48753171,-0.25643485,0.448362,0.47012844,-0.22896022,0.446441,0.46998314,-0.21776116,0.430925,0.47150553,-0.22114642,0.421874,0.49208266,-0.24244077,0.432908,0.50189335,-0.23726965,0.457001,0.50197533,-0.23074613,0.439788,0.49949761,-0.23752518,0.430981,0.51544163,-0.26073441,0.441009,0.54259503,-0.25394288,0.470316,0.53276234,-0.25133027,0.454701,0.52811862,-0.25189025,0.447526,0.53534985,-0.27086818,0.454684
0.49475983,-0.33089852,0.457437,0.48213257,-0.28242891,0.452138,0.46324301,-0.3112251,0.449102,0.44917192,-0.27781036,0.427212,0.43543163,-0.24875001,0.401813,0.42698483,-0.22469662,0.383128,0.43657337,-0.22375917,0.437684,0.43198608,-0.21998707,0.419996,0.45589174,-0.23351875,0.439542,0.48598992,-0.26027284,0.454331,0.47047598,-0.22821282,0.447091,0.46625223,-0.21812676,0.431952,0.46103359,-0.22223415,0.42312,0.48465602,-0.24353938,0.43517,0.49994594,-0.23295032,0.455409,0.49730321,-0.23018174,0.439297,0.49509044,-0.23689929,0.431054,0.51610781,-0.26113618,0.44233,0.53950226,-0.24922806,0.466061,0.51924904,-0.2437086,0.451149,0.51012093,-0.24251348,0.444298,0.50931611,-0.25852612,0.452344
0.49896832,-0.3326491,0.462096,0.48614927,-0.28209387,0.457193,0.46734256,-0.31311818,0.454539,0.45408887,-0.28056692,0.433668,0.43859612,-0.25214664,0.408627,0.43171065,-0.22836647,0.389913,0.4416602,-0.22475953,0.444022,0.43810022,-0.22393527,0.427136,0.46645097,-0.23899944,0.44706,0.49086837,-0.26542555,0.461682,0.47523219,-0.22814158,0.452524,0.46749204,-0.21003202,0.437852,0.46440365,-0.22688292,0.429294,0.47627788,-0.24307082,0.441735,0.50454739,-0.23430309,0.460054,0.50515261,-0.23230297,0.44461,0.50564535,-0.24061055,0.436709,0.52659943,-0.26647605,0.448451,0.54207411,-0.24834666,0.469716,0.5235265,-0.24613279,0.455302,0.5149263,-0.24590451,0.448679,0.51505394,-0.2621962,0.457064
0.51003638,-0.33935777,0.475658,0.49317942,-0.28545275,0.467176,0.47795439,-0.31843558,0.46878,0.45929815,-0.28929653,0.447488,0.44217537,-0.26352224,0.422356,0.43556499,-0.23786638,0.402834,0.44956011,-0.22732984,0.452458,0.44004278,-0.22788533,0.433139,0.46612859,-0.24479627,0.453143,0.48767072,-0.27300554,0.468758,0.48168896,-0.23031002,0.459098,0.47007299,-0.21301573,0.440643,0.46300249,-0.22899892,0.429877,0.47368215,-0.24416174,0.441455,0.51031483,-0.23709469,0.465481,0.5020268,-0.23705666,0.447301,0.49863231,-0.24898962,0.438,0.5165113,-0.27569035,0.449077,0.54688125,-0.25389424,0.474484,0.5211116,-0.25387138,0.457592,0.50972605,-0.25451658,0.44983,0.5119008,-0.2665352,0.457639
0.51199796,-0.34054683,0.479131,0.49432843,-0.28631802,0.469428,0.48049577,-0.319902,0.472852,0.46312228,-0.2915822,0.451891,0.44690649,-0.26650196,0.427973,0.43572006,-0.24331739,0.408592,0.45161494,-0.22718605,0.454662,0.44043169,-0.22782237,0.434786,0.46585851,-0.24462499,0.454864,0.48707956,-0.27300018,0.470729,0.48271207,-0.23052168,0.460188,0.46859818,-0.20971784,0.440508,0.46105744,-0.22509286,0.429029,0.47136413,-0.24229984,0.440356,0.51044679,-0.23706864,0.465784,0.50229842,-0.23326833,0.446869,0.49505897,-0.2425271,0.437192,0.51416323,-0.27183478,0.448128,0.54620079,-0.253359,0.474103,0.51919293,-0.25278409,0.456506,0.50717396,-0.25323551,0.448421,0.5094088,-0.26492005,0.456092
0.51414807,-0.34148507,0.481896,0.50196508,-0.29175275,0.480043,0.4804159,-0.3197261,0.473428,0.49330627,-0.29274023,0.481561,0.48585782,-0.25830763,0.469405,0.49715692,-0.23991129,0.473551,0.45413349,-0.23523415,0.467756,0.45133748,-0.23299478,0.452832,0.47762076,-0.24610704,0.47226,0.49697787,-0.27574477,0.485911,0.48900754,-0.23906828,0.478279,0.48726424,-0.22209409,0.466916,0.49048214,-0.23689258,0.460288,0.50612375,-0.2593006,0.473156,0.51923336,-0.24535799,0.487143,0.52090677,-0.21854779,0.473982,0.51989863,-0.22357578,0.467248,0.53762346,-0.24283966,0.479211,0.55753956,-0.259109,0.497781,0.54506393,-0.25776417,0.485494,0.53937337,-0.25730763,0.479849,0.54340448,-0.27557218,0.488478
0.51869629,-0.34259864,0.489506,0.50834349,-0.29566231,0.491959,0.48395038,-0.32080148,0.480194,0.49765089,-0.29083199,0.489593,0.4899284,-0.25471763,0.476718,0.50429285,-0.23789739,0.484492,0.46013915,-0.23996959,0.481496,0.46496734,-0.23515925,0.469764,0.49270535,-0.2450325,0.488271,0.51155652,-0.26895144,0.500294,0.49606905,-0.24496023,0.494296,0.50090345,-0.22265012,0.487792,0.50883635,-0.23189404,0.483998,0.52586645,-0.25469267,0.497327,0.52673218,-0.25190875,0.504572,0.53500314,-0.22307494,0.494966,0.53869327,-0.22655117,0.490051,0.55908559,-0.24360674,0.502233,0.56479374,-0.26584758,0.516038,0.56031445,-0.26248581,0.507027,0.55845605,-0.26098877,0.502887,0.56417431,-0.27879602,0.511791
0.514676,-0.3392022,0.489935,0.50932773,-0.29685426,0.497542,0.48546421,-0.32202255,0.48539,0.49239923,-0.28987968,0.486274,0.46346849,-0.26187577,0.478465,0.46002827,-0.2531597,0.490333,0.47654383,-0.24723912,0.496789,0.48320644,-0.23893198,0.492318,0.51011916,-0.24705889,0.512805,0.52696466,-0.26854707,0.522754,0.50879253,-0.25162345,0.504787,0.50815688,-0.21714482,0.504248,0.51561079,-0.21760943,0.503933,0.53742634,-0.23747209,0.520142,0.53546942,-0.25779445,0.510554,0.54579874,-0.22481144,0.507513,0.5506548,-0.22588848,0.505958,0.57271048,-0.23988299,0.521391,0.5671986,-0.27030165,0.515818,0.57486227,-0.2549271,0.512059,0.57886548,-0.2473156,0.510332,0.59740741,-0.24634755,0.521666
0.52062188,-0.34297104,0.499969,0.51909648,-0.30136454,0.510388,0.49326432,-0.32606995,0.495135,0.48538027,-0.28931499,0.483491,0.45908801,-0.26070775,0.476108,0.45788471,-0.25139223,0.488906,0.49055013,-0.24866366,0.511166,0.50028535,-0.22943824,0.508989,0.52663333,-0.22792461,0.528861,0.54652168,-0.24137301,0.537659,0.52330722,-0.25612706,0.520312,0.53986752,-0.23604015,0.52301,0.55051242,-0.22437336,0.524584,0.57493064,-0.22169957,0.541092,0.54988904,-0.26461462,0.526719,0.55511922,-0.22962689,0.526157,0.56334771,-0.21805993,0.52587,0.59153077,-0.22218024,0.541474,0.58056989,-0.27943697,0.532199,0.59284485,-0.26207831,0.530696,0.59904292,-0.25343899,0.530006,0.61870816,-0.25105523,0.541537
0.53636658,-0.35140426,0.520889,0.53756358,-0.31213548,0.528957,0.50777153,-0.33251242,0.516904,0.47820774,-0.30279492,0.505405,0.44652262,-0.27163223,0.482346,0.43872477,-0.25539443,0.483822,0.51098527,-0.26098643,0.529245,0.51535625,-0.23368541,0.525531,0.53998462,-0.22836588,0.546045,0.56252404,-0.2379702,0.557289,0.54181649,-0.26760025,0.536641,0.55595517,-0.24264204,0.536668,0.56490728,-0.22683683,0.536684,0.58917877,-0.22151156,0.553148,0.5668413,-0.27555628,0.541861,0.58047437,-0.2489757,0.539488,0.58820229,-0.23419115,0.538274,0.6144038,-0.2268578,0.55401,0.59586844,-0.29002649,0.546405,0.6047827,-0.27625532,0.543176,0.6093645,-0.26945774,0.541693,0.62830422,-0.2694499,0.553251
0.5324196,-0.35523521,0.519355,0.53062603,-0.32682056,0.525909,0.50445972,-0.35062841,0.523329,0.48901122,-0.31943373,0.521228,0.46751459,-0.28576932,0.504649,0.46684729,-0.2670995,0.50762,0.51931918,-0.27931068,0.535534,0.52550176,-0.24703674,0.535064,0.52742121,-0.23327543,0.53483,0.54638586,-0.22720968,0.551904,0.54119177,-0.28094416,0.53215,0.54882825,-0.24202889,0.531611,0.54988993,-0.22342803,0.531296,0.57003379,-0.21523239,0.548363,0.55844865,-0.28490991,0.528658,0.56659635,-0.25028794,0.528029,0.57093579,-0.23190884,0.527707,0.59380237,-0.22205059,0.54473,0.5777893,-0.29495219,0.523372,0.58335153,-0.26515042,0.522386,0.58848891,-0.25050349,0.521933,0.5921557,-0.23804622,0.522055
0.53650255,-0.36111794,0.530064,0.54317221,-0.327951,0.538445,0.51838476,-0.35024925,0.533831,0.49923205,-0.32257471,0.532124,0.47740814,-0.29524021,0.527655,0.47491496,-0.27920163,0.5339,0.53067111,-0.28181981,0.549043,0.53729035,-0.25166916,0.550268,0.54078898,-0.23552651,0.550881,0.55999618,-0.22968186,0.568385,0.55335706,-0.28311333,0.546428,0.56188469,-0.24985723,0.547888,0.56419453,-0.22731085,0.54874,0.58663704,-0.2201989,0.566278,0.57119604,-0.28669049,0.543371,0.57979889,-0.25329577,0.544563,0.58437484,-0.23540309,0.545173,0.61009264,-0.22745128,0.562675,0.59106468,-0.29605187,0.538248,0.5988363,-0.26739355,0.538677,0.60254077,-0.2536965,0.538874,0.60862175,-0.24352869,0.539049
0.54185492,-0.36874371,0.537247,0.54624571,-0.32999306,0.542161,0.5234113,-0.35430504,0.539659,0.502385,-0.33012897,0.542807,0.47382864,-0.29621532,0.526461,0.46636652,-0.27710571,0.526212,0.52899468,-0.28157719,0.548639,0.52840085,-0.24269962,0.546025,0.52791301,-0.23189836,0.544718,0.54481841,-0.22883062,0.561365,0.55244746,-0.28302469,0.546841,0.55266458,-0.24459235,0.543954,0.55367206,-0.22426024,0.54227,0.57273243,-0.21621736,0.558908,0.57138447,-0.28695402,0.544831,0.57485036,-0.24748883,0.542067,0.57753302,-0.22821775,0.540654,0.59927197,-0.21729313,0.557238,0.59337377,-0.2971443,0.541573,0.59862383,-0.26512917,0.539879,0.6018057,-0.25078512,0.539101,0.6046412,-0.23802956,0.538414
0.55408946,-0.37475335,0.550142,0.55629011,-0.33628451,0.554399,0.53443566,-0.36343147,0.554011,0.51307914,-0.33912416,0.558766,0.48494953,-0.31167936,0.549114,0.47044607,-0.2857733,0.535656,0.53976452,-0.2873415,0.56233,0.53912058,-0.25005089,0.558967,0.53546626,-0.23468672,0.557286,0.55087535,-0.22602772,0.573577,0.56109306,-0.28751706,0.558454,0.56237939,-0.24933118,0.554457,0.56067846,-0.22826295,0.552125,0.58023221,-0.2201172,0.568327,0.57938972,-0.29109679,0.554803,0.58239445,-0.25384731,0.551112,0.58103667,-0.23891823,0.549223,0.60043294,-0.23098604,0.565391,0.59964994,-0.30034447,0.549765,0.60261072,-0.26949818,0.547254,0.60455039,-0.25571296,0.5461,0.60624496,-0.24362043,0.545082
0.55781241,-0.38396298,0.559472,0.55647283,-0.34711032,0.563935,0.53988019,-0.36979745,0.562484,0.5120985,-0.34539551,0.565164,0.4880653,-0.31524043,0.555295,0.48344235,-0.29955604,0.561367,0.54192161,-0.29915967,0.570888,0.54310681,-0.25687797,0.567571,0.54174739,-0.23801574,0.565913,0.55766767,-0.22754563,0.582316,0.56430181,-0.3003538,0.568185,0.56909106,-0.25423038,0.56451,0.56882638,-0.23099662,0.562366,0.58670449,-0.2211637,0.578754,0.58236675,-0.30412191,0.565479,0.58721763,-0.25842489,0.561955,0.5895854,-0.2350173,0.560152,0.59363909,-0.2149892,0.560839,0.60329684,-0.31422862,0.561498,0.61412965,-0.27540594,0.559487,0.61721917,-0.25938657,0.558563,0.61957101,-0.24119679,0.557747
0.56560173,-0.38907858,0.56773,0.56778245,-0.34823593,0.571479,0.54494362,-0.37390282,0.569377,0.51650387,-0.34706596,0.568686,0.49101824,-0.31931536,0.561273,0.48590511,-0.30277321,0.565288,0.54706723,-0.30023639,0.576171,0.54624702,-0.25971209,0.572341,0.54280356,-0.24080705,0.570426,0.56029679,-0.23007202,0.58679,0.57119272,-0.30193958,0.57505,0.57254985,-0.25505193,0.57078,0.57297983,-0.22585402,0.568289,0.5911902,-0.21910645,0.584628,0.59091347,-0.30383241,0.573723,0.59250017,-0.2582814,0.569826,0.595585,-0.23663799,0.567832,0.5973821,-0.21558495,0.566588,0.61415308,-0.31405951,0.571478,0.62174474,-0.27849611,0.569106,0.62516746,-0.26072315,0.568016,0.62900428,-0.24902787,0.567054
0.56270629,-0.39036286,0.572212,0.57000419,-0.35113199,0.579294,0.54620223,-0.37650621,0.576014,0.52067111,-0.35062595,0.58312,0.49426287,-0.32332121,0.574242,0.4850837,-0.30285818,0.567203,0.55858676,-0.30314571,0.589056,0.556674,-0.26629851,0.589075,0.55608331,-0.2487911,0.589084,0.57177051,-0.23956806,0.6063,0.58090683,-0.30503141,0.58604,0.5825604,-0.26680782,0.585782,0.58415735,-0.24474313,0.585632,0.60255426,-0.23552881,0.602772,0.59844042,-0.30924433,0.582792,0.60703718,-0.27468052,0.587778,0.61233638,-0.2559928,0.590328,0.61718565,-0.23877313,0.592647,0.61500753,-0.32173515,0.577692,0.62533982,-0.28917994,0.577807,0.63014365,-0.27400014,0.57786,0.63440587,-0.26053156,0.577907
0.55955261,-0.38766982,0.570261,0.57100554,-0.35084734,0.581202,0.54450131,-0.37472479,0.575357,0.52281136,-0.35042587,0.58454,0.4964175,-0.32328525,0.575852,0.48444171,-0.30311655,0.569671,0.56304844,-0.3034447,0.595268,0.56495751,-0.27052373,0.599478,0.56594337,-0.25397642,0.601583,0.58202753,-0.24537201,0.619627,0.58464713,-0.30581639,0.591623,0.5913455,-0.26976497,0.595835,0.59525512,-0.24835347,0.598292,0.6142362,-0.23933431,0.616232,0.60101035,-0.31022404,0.587441,0.61139602,-0.27569143,0.592568,0.6168545,-0.25721522,0.595191,0.62189114,-0.24015831,0.597575,0.61797662,-0.31758021,0.580531,0.63104128,-0.28990346,0.583965,0.63722753,-0.27557561,0.585543,0.64274334,-0.26278562,0.586935
0.57076701,-0.39457256,0.580788,0.5794311,-0.35473242,0.589052,0.55457737,-0.38130115,0.585279,0.53972773,-0.36568403,0.596918,0.50788213,-0.33869693,0.586428,0.49928733,-0.32264003,0.589129,0.56612723,-0.31256404,0.600513,0.56409228,-0.27389023,0.601557,0.56389145,-0.25452639,0.60208,0.58077985,-0.2457226,0.619454,0.58868617,-0.3094324,0.596922,0.59159914,-0.27078771,0.59752,0.59338824,-0.24822619,0.597868,0.61267922,-0.2393523,0.615096,0.60585828,-0.31237534,0.593075,0.62050436,-0.28406981,0.604402,0.6289097,-0.26662171,0.610197,0.63836644,-0.24857478,0.615466,0.62495121,-0.32101889,0.587056,0.63471811,-0.28869993,0.588163,0.63939517,-0.27368752,0.588672,0.64463417,-0.26206704,0.589121
0.57692726,-0.39816298,0.587118,0.58405731,-0.3586317,0.595403,0.55756372,-0.38229653,0.589873,0.54001145,-0.36579594,0.599489,0.50689545,-0.33817048,0.587042,0.49952755,-0.32368467,0.591951,0.56975442,-0.31077978,0.604617,0.56703746,-0.27563029,0.605667,0.56665643,-0.25738291,0.606192,0.58425271,-0.24803678,0.623722,0.59306039,-0.31340021,0.603294,0.59701779,-0.27327604,0.604214,0.59925294,-0.24672524,0.604751,0.61902576,-0.24087705,0.62222,0.61219952,-0.31672048,0.601311,0.62476873,-0.28186069,0.610932,0.63283804,-0.26363758,0.615855,0.64096344,-0.24955528,0.62033,0.63185102,-0.32503113,0.597452,0.64598888,-0.29287267,0.599292,0.65161231,-0.27757644,0.600137,0.65665127,-0.26397657,0.600883
0.58034623,-0.40051183,0.593058,0.58918905,-0.36184922,0.600516,0.56195864,-0.3857235,0.595282,0.53797455,-0.36543865,0.601524,0.50503997,-0.33717567,0.588206,0.49944929,-0.32387398,0.593627,0.57263104,-0.31430711,0.608478,0.57126073,-0.28121288,0.61308,0.57034559,-0.26691771,0.615382,0.58933018,-0.25622664,0.633652,0.59699927,-0.31644064,0.60762,0.59987009,-0.27532342,0.607819,0.60104081,-0.24985133,0.607935,0.62136474,-0.24207917,0.625288,0.61491217,-0.32381334,0.606109,0.62704608,-0.28605666,0.61278,0.63310048,-0.26718439,0.616193,0.63872575,-0.24979466,0.619296,0.63537056,-0.33578429,0.602954,0.64680304,-0.30313706,0.603506,0.65217349,-0.28778088,0.60376,0.658382,-0.27133342,0.603985
0.57403911,-0.39681407,0.584783,0.5874739,-0.36427935,0.598489,0.55846542,-0.3843359,0.590064,0.53760318,-0.36755136,0.596154,0.50917497,-0.34302641,0.58998,0.50008039,-0.32569032,0.594278,0.5746489,-0.32790343,0.614674,0.57789849,-0.29663245,0.621661,0.57996862,-0.28042577,0.625155,0.59607116,-0.27181846,0.643715,0.59710022,-0.32713232,0.611543,0.60623409,-0.28875697,0.618597,0.61157369,-0.26615898,0.622712,0.62357406,-0.25324546,0.633969,0.61534292,-0.32655255,0.607487,0.62506818,-0.29053704,0.613409,0.6304601,-0.27143096,0.616438,0.63771899,-0.25486311,0.619192,0.63276773,-0.33439259,0.600203,0.64954753,-0.30433427,0.606268,0.65736563,-0.29017186,0.609054,0.66432503,-0.27749285,0.611512
