sluyters/QuantumLeap/backend/src/datasets/dynamic/HandGestureDataset_SHREC2017_csv/Gesture13/finger_2/subject_27_essai_2_skeletons_world.csv
Wrist_x,Wrist_y,Wrist_z,Palm_x,Palm_y,Palm_z,thumb_base_x,thumb_base_y,thumb_base_z,thumb_first_joint_x,thumb_first_joint_y,thumb_first_joint_z,thumb_second_joint_x,thumb_second_joint_y,thumb_second_joint_z,thumb_tip_x,thumb_tip_y,thumb_tip_z,index_base_x,index_base_y,index_base_z,index_first_joint_x,index_first_joint_y,index_first_joint_z,index_second_joint_x,index_second_joint_y,index_second_joint_z,index_tip_x,index_tip_y,index_tip_z,middle_base_x,middle_base_y,middle_base_z,middle_first_joint_x,middle_first_joint_y,middle_first_joint_z,middle_second_joint_x,middle_second_joint_y,middle_second_joint_z,middle_tip_x,middle_tip_y,middle_tip_z,ring_base_x,ring_base_y,ring_base_z,ring_first_joint_x,ring_first_joint_y,ring_first_joint_z,ring_second_joint_x,ring_second_joint_y,ring_second_joint_z,ring_tip_x,ring_tip_y,ring_tip_z,pinky_base_x,pinky_base_y,pinky_base_z,pinky_first_joint_x,pinky_first_joint_y,pinky_first_joint_z,pinky_second_joint_x,pinky_second_joint_y,pinky_second_joint_z,pinky_tip_x,pinky_tip_y,pinky_tip_z,
0.372553813,-0.245853417,0.396306,0.371214085,-0.192831124,0.37984,0.350411836,-0.230871904,0.392288,0.332831543,-0.193646537,0.372287,0.304593171,-0.164235956,0.341926,0.292177336,-0.142890568,0.322011,0.340845793,-0.137754267,0.363426,0.324659929,-0.0877494373,0.339644,0.315348009,-0.0733765171,0.327753,0.326222391,-0.0639729352,0.336871,0.366983261,-0.144172221,0.364158,0.350793652,-0.0920389396,0.337927,0.340226598,-0.0753027416,0.322625,0.329556232,-0.0714093438,0.311696,0.388755337,-0.156877129,0.366535,0.379252613,-0.107569031,0.343032,0.376208709,-0.0893027753,0.331007,0.391032706,-0.0833338647,0.340046,0.417039434,-0.177896742,0.372389,0.413139735,-0.139877345,0.351435,0.409853304,-0.128335079,0.341807,0.40537919,-0.118920527,0.333312
0.373059625,-0.244860443,0.396492,0.3712055,-0.191825525,0.37991,0.350549197,-0.229350251,0.391932,0.333302077,-0.191287618,0.371195,0.311611455,-0.157775578,0.340884,0.30425643,-0.136209374,0.321894,0.340241523,-0.137482501,0.362712,0.323824681,-0.087485053,0.338639,0.314445463,-0.0731244553,0.326602,0.325284331,-0.0637455998,0.335593,0.367002744,-0.144170268,0.364118,0.351533157,-0.0912585176,0.337666,0.340965468,-0.0750687373,0.322236,0.330279876,-0.0714178539,0.311214,0.389572781,-0.156385046,0.367063,0.380353967,-0.10712488,0.343361,0.376626663,-0.0894277463,0.331235,0.392372952,-0.0828852506,0.340172,0.418394542,-0.177953043,0.373599,0.41450656,-0.139875974,0.352252,0.411172148,-0.128309082,0.342444,0.40679476,-0.119014534,0.33379
0.374531129,-0.244595023,0.39668,0.372780481,-0.192166125,0.380374,0.352275474,-0.229236992,0.392447,0.339848914,-0.193913509,0.372203,0.313580213,-0.160261342,0.341654,0.305722426,-0.138358107,0.323297,0.34185826,-0.139061824,0.363788,0.326310337,-0.0891086098,0.340164,0.317366274,-0.0762946054,0.328352,0.327720068,-0.0665740616,0.337537,0.368446366,-0.145170061,0.364844,0.358407169,-0.0923335663,0.338728,0.345321996,-0.076290066,0.323494,0.337445478,-0.0703559264,0.312613,0.39082943,-0.156459982,0.367471,0.383759449,-0.106659295,0.344075,0.37861383,-0.0903984253,0.332105,0.39451552,-0.0840355058,0.341196,0.419448878,-0.177673886,0.373585,0.417377997,-0.139036799,0.352711,0.415648552,-0.126855569,0.343121,0.412109217,-0.117687664,0.334658
0.376939302,-0.247128573,0.396509,0.375259712,-0.194953076,0.380276,0.353652699,-0.229670983,0.39253,0.341353333,-0.196100923,0.372637,0.314231351,-0.161210293,0.342399,0.30453588,-0.140218317,0.327211,0.341731937,-0.144035284,0.364071,0.327574422,-0.0935517826,0.340607,0.317582742,-0.0812612439,0.328875,0.325331595,-0.0731521542,0.338128,0.368207325,-0.1476621,0.364816,0.355969118,-0.0918640098,0.338824,0.345335895,-0.0772673749,0.323662,0.335433935,-0.0703843923,0.312832,0.391063312,-0.156720681,0.367179,0.383692543,-0.107170675,0.343892,0.378408917,-0.0908360889,0.331978,0.394530407,-0.0844392214,0.341123,0.419667403,-0.177493972,0.372973,0.416300482,-0.139430667,0.352112,0.413258246,-0.127554002,0.342528,0.409241307,-0.118096915,0.334071
0.379052531,-0.248613777,0.397899,0.374352859,-0.197672434,0.379078,0.356186871,-0.235710028,0.393085,0.338448375,-0.205364072,0.371483,0.311259099,-0.170274288,0.342497,0.300540108,-0.143399474,0.327533,0.338146822,-0.149844542,0.360029,0.318326866,-0.102006149,0.334091,0.307708763,-0.0849462554,0.321122,0.313987802,-0.072244011,0.329134,0.365191645,-0.15411711,0.361153,0.345833751,-0.0982995375,0.332441,0.332786514,-0.083344431,0.315692,0.322555644,-0.0704244026,0.303728,0.389302415,-0.163068678,0.364107,0.376371493,-0.114965997,0.338401,0.368731783,-0.0988981901,0.32525,0.380553458,-0.0895836129,0.333153,0.420415964,-0.18334463,0.371074,0.410002015,-0.1415967,0.348169,0.404496095,-0.12776153,0.337645,0.401329013,-0.11713529,0.328359
0.381575717,-0.25157752,0.399912,0.375304234,-0.210487351,0.37854,0.363370839,-0.240188605,0.393786,0.339259006,-0.213729984,0.369923,0.311295196,-0.179390978,0.34059,0.301673628,-0.155037517,0.327351,0.334591281,-0.156705609,0.356049,0.309876588,-0.108986458,0.327594,0.297327565,-0.0918135014,0.313366,0.304520298,-0.0821264877,0.319999,0.362477675,-0.161537644,0.358185,0.343687753,-0.105655459,0.330351,0.331182505,-0.0925361242,0.314114,0.322407085,-0.083028674,0.302517,0.38763954,-0.171098575,0.362248,0.369134233,-0.122359918,0.334074,0.358909098,-0.108661671,0.31966,0.37223576,-0.10201341,0.326182,0.420578104,-0.19239351,0.37098,0.406199883,-0.152010545,0.345513,0.398937801,-0.139302054,0.333812,0.392687932,-0.127905633,0.323488
0.381113923,-0.261125414,0.393771,0.369412204,-0.218627884,0.374219,0.357826852,-0.250452122,0.389763,0.330335361,-0.225407169,0.369056,0.298485719,-0.192865005,0.341126,0.284271333,-0.168171872,0.325009,0.334378215,-0.16541882,0.355722,0.306151538,-0.11702141,0.330144,0.292120883,-0.100305146,0.317355,0.297204465,-0.0901491441,0.325332,0.359989666,-0.170485888,0.355598,0.342058699,-0.114638298,0.331557,0.330178505,-0.098317344,0.317533,0.320945504,-0.0927102912,0.307515,0.382767592,-0.180168132,0.357603,0.36305374,-0.13037454,0.331764,0.352445425,-0.114750545,0.318544,0.364464488,-0.111128418,0.326265,0.412070427,-0.201408304,0.363606,0.39428029,-0.163374227,0.340083,0.386167432,-0.145948493,0.329276,0.379059288,-0.130432014,0.31974
0.379611547,-0.270459966,0.394454,0.367811294,-0.22700983,0.374449,0.355725551,-0.259255425,0.390513,0.327706707,-0.234175345,0.369798,0.295729716,-0.203179958,0.341833,0.280283075,-0.177506804,0.327758,0.333713736,-0.173760941,0.355732,0.305416787,-0.123178269,0.329886,0.291555521,-0.108228335,0.316963,0.29674046,-0.100302797,0.324756,0.359176641,-0.179324864,0.355396,0.342775432,-0.122928746,0.331691,0.332140693,-0.108215566,0.317863,0.323822981,-0.103212494,0.307986,0.381581176,-0.189362037,0.357275,0.373265106,-0.139881786,0.330528,0.364269011,-0.131405806,0.316843,0.371429611,-0.145710728,0.324184,0.410009745,-0.210802289,0.363217,0.390787211,-0.173305501,0.339431,0.382018477,-0.155879733,0.328502,0.374321449,-0.14038443,0.31886
0.369645069,-0.282887799,0.396398,0.354502317,-0.235395005,0.374385,0.346462063,-0.26519104,0.390318,0.314290576,-0.239558423,0.366379,0.285320669,-0.208126201,0.338347,0.272695557,-0.183321185,0.323394,0.320889272,-0.179929651,0.35152,0.291830482,-0.139320788,0.322648,0.277265498,-0.118676207,0.308212,0.263999819,-0.099666428,0.295089,0.34784453,-0.188462366,0.353421,0.336042269,-0.131619911,0.327018,0.326524541,-0.117486555,0.311617,0.313936446,-0.124302169,0.300615,0.371303417,-0.200935567,0.357359,0.349118818,-0.146388201,0.328801,0.337762016,-0.131945177,0.31419,0.347368452,-0.136716856,0.320448,0.400515448,-0.225140297,0.366068,0.384541891,-0.187043453,0.34014,0.377206847,-0.170676334,0.328228,0.370751324,-0.156894063,0.317717
0.361992854,-0.295256543,0.398469,0.350486833,-0.251125452,0.374842,0.338792019,-0.286131766,0.393461,0.30952495,-0.259756402,0.370605,0.277294058,-0.230935873,0.343064,0.261761692,-0.205999673,0.328759,0.314628391,-0.195837607,0.352276,0.281545935,-0.156410155,0.323095,0.26492667,-0.136462705,0.308505,0.249762711,-0.118148086,0.295241,0.340043093,-0.202749427,0.352339,0.321360146,-0.146233997,0.324132,0.309125689,-0.12146686,0.307678,0.296678068,-0.122750021,0.295925,0.362669475,-0.214026097,0.354938,0.33754375,-0.159610995,0.325785,0.323753668,-0.14582747,0.31087,0.330287099,-0.152349314,0.31656,0.391740213,-0.237113493,0.362395,0.374473299,-0.201028387,0.335901,0.366412785,-0.185554789,0.323729,0.359240584,-0.172515916,0.312988
0.354693823,-0.309784342,0.394518,0.345014967,-0.268742519,0.376369,0.329188264,-0.303580055,0.389663,0.298038947,-0.276469693,0.368165,0.264609772,-0.247700236,0.339317,0.24743825,-0.22357955,0.320977,0.311021538,-0.215311267,0.357724,0.282562383,-0.161530812,0.332509,0.269630482,-0.149196617,0.319901,0.259103667,-0.146755693,0.30844,0.3382276,-0.221335923,0.359085,0.317720324,-0.160242164,0.331026,0.305546009,-0.149893912,0.314658,0.294478334,-0.157380232,0.302966,0.361786411,-0.231721911,0.362162,0.337117971,-0.178198605,0.337216,0.326848751,-0.170268143,0.324453,0.337986778,-0.180319436,0.332716,0.391021322,-0.253429105,0.369145,0.372797072,-0.205473942,0.346199,0.365323163,-0.201800418,0.335656,0.357900491,-0.204203211,0.326353
0.342213465,-0.339339165,0.393482,0.332538007,-0.285709828,0.375257,0.319400304,-0.323607424,0.389367,0.288046011,-0.293812367,0.368817,0.255512288,-0.262960521,0.341803,0.2397647,-0.238470408,0.32525,0.296989552,-0.231717674,0.357522,0.272493236,-0.180231095,0.332631,0.25952416,-0.167735906,0.320186,0.248174076,-0.167873178,0.308872,0.323044936,-0.236344133,0.3579,0.307729421,-0.179572611,0.337854,0.298001466,-0.156728088,0.32616,0.289763023,-0.159685127,0.317808,0.346115797,-0.24578597,0.360176,0.324682776,-0.19381541,0.335581,0.313475249,-0.18687451,0.322997,0.32196721,-0.204268823,0.331375,0.375643497,-0.266888209,0.366242,0.357159174,-0.221593366,0.343541,0.348111452,-0.218723363,0.333111,0.339397901,-0.222021523,0.323908
0.349150077,-0.356246231,0.403776,0.336046495,-0.304134664,0.383357,0.326836001,-0.340365506,0.400749,0.31122051,-0.310515191,0.392415,0.288562461,-0.269484788,0.378345,0.281313552,-0.24462752,0.374867,0.30118428,-0.247146077,0.365549,0.26945547,-0.205918075,0.340133,0.254142202,-0.192500059,0.327425,0.241485811,-0.188258374,0.315872,0.324899274,-0.250676773,0.36391,0.298819883,-0.194056457,0.334043,0.281371294,-0.18032124,0.316621,0.26825638,-0.181738901,0.304176,0.346251638,-0.259582315,0.364761,0.317127765,-0.214398787,0.339136,0.303815603,-0.207607756,0.326026,0.311224321,-0.224689094,0.333567,0.374466155,-0.280910222,0.369587,0.350827414,-0.240380662,0.345935,0.339390674,-0.23815778,0.335067,0.329165921,-0.241525728,0.325478
0.349246477,-0.361535835,0.404419,0.335431467,-0.306939843,0.383437,0.325606972,-0.351624784,0.401496,0.310054515,-0.318267884,0.393403,0.286496125,-0.278108017,0.380248,0.278328903,-0.253114203,0.37662,0.297886368,-0.252873876,0.365382,0.263902547,-0.211903624,0.339658,0.247597447,-0.198709216,0.326796,0.234304688,-0.194624688,0.315104,0.321382435,-0.255301464,0.363453,0.291959767,-0.201458951,0.333074,0.273129359,-0.189601693,0.315353,0.259630445,-0.191474726,0.302696,0.34424152,-0.261254789,0.364126,0.311224614,-0.218220707,0.338145,0.297057766,-0.211541978,0.324852,0.306832064,-0.226277778,0.332133,0.372696774,-0.282133393,0.368851,0.347774776,-0.241439969,0.34489,0.336014,-0.239201407,0.333881,0.32566541,-0.242519806,0.324167
0.347877219,-0.375212775,0.407365,0.329603574,-0.322503843,0.386098,0.324206896,-0.362858946,0.404534,0.305009192,-0.331948948,0.396373,0.281932072,-0.291735821,0.383234,0.273686055,-0.266087408,0.379144,0.293488818,-0.265026331,0.367972,0.259952468,-0.224398079,0.342127,0.243779474,-0.211594194,0.329205,0.230532577,-0.207985484,0.317457,0.316750296,-0.267622004,0.365844,0.287890696,-0.213923322,0.33522,0.269151155,-0.202589922,0.317356,0.255622542,-0.20476767,0.304595,0.337888981,-0.275898424,0.366385,0.306835333,-0.231037224,0.34025,0.292731738,-0.224833036,0.326878,0.298971893,-0.243174111,0.334029,0.366175956,-0.296728944,0.371009,0.34079983,-0.256388404,0.346913,0.328875488,-0.254555888,0.335841,0.318492454,-0.258105777,0.326072
0.34526799,-0.392026522,0.410184,0.330322893,-0.334625597,0.388537,0.323131115,-0.376449167,0.407884,0.306259605,-0.346961109,0.400151,0.281731326,-0.307215587,0.38711,0.27261316,-0.281293681,0.382808,0.292970144,-0.277646282,0.370844,0.257463178,-0.238107599,0.345173,0.240381413,-0.226047954,0.332337,0.226546476,-0.223157868,0.320668,0.315546344,-0.278989419,0.367922,0.28413896,-0.225615607,0.33708,0.264218496,-0.214999558,0.319089,0.250345988,-0.217601143,0.306238,0.336310303,-0.286304769,0.367848,0.303161754,-0.242251955,0.341761,0.288281424,-0.236729054,0.328414,0.293790532,-0.25607158,0.335414,0.364525537,-0.306129613,0.371832,0.336534125,-0.268853634,0.347746,0.324069474,-0.268775115,0.33668,0.313645779,-0.273479776,0.326916
0.340197217,-0.393041578,0.406734,0.325295705,-0.334987698,0.385174,0.317214533,-0.381262237,0.404017,0.278730825,-0.35577901,0.384654,0.245318958,-0.328645856,0.359985,0.226286381,-0.301803763,0.344173,0.289009037,-0.276919933,0.366998,0.252197346,-0.241325702,0.341044,0.234622936,-0.230593837,0.328068,0.22012116,-0.228878356,0.316271,0.310483132,-0.282109474,0.364641,0.279514082,-0.229369342,0.333769,0.257913981,-0.221153202,0.315761,0.242470547,-0.22442878,0.302897,0.331070358,-0.290949912,0.365025,0.297620176,-0.2599749,0.338744,0.280815925,-0.250627604,0.325298,0.286458922,-0.276014528,0.332313,0.358934122,-0.312907137,0.369522,0.331990862,-0.273432846,0.345295,0.318033972,-0.276176065,0.334164,0.305923518,-0.281139445,0.324343
0.335743894,-0.399912714,0.404795,0.321396168,-0.340924951,0.383642,0.315207638,-0.384006803,0.403347,0.276817872,-0.362479848,0.385838,0.242673863,-0.33530543,0.362348,0.226103983,-0.306640704,0.347377,0.289395346,-0.285896716,0.367393,0.253025554,-0.24815446,0.342767,0.234611935,-0.237473629,0.330454,0.220569032,-0.233472407,0.319261,0.309897288,-0.288890164,0.363497,0.278459227,-0.235997953,0.333361,0.255138319,-0.227612408,0.315782,0.240530272,-0.227708679,0.303226,0.32874833,-0.297726645,0.362568,0.293955768,-0.266712795,0.337379,0.276017563,-0.257387582,0.324492,0.279961019,-0.283240877,0.331777,0.354262331,-0.319754299,0.365465,0.326890477,-0.280246648,0.342096,0.311831038,-0.282946955,0.331359,0.298810091,-0.287876666,0.321885
0.331083978,-0.406492122,0.40449,0.31907076,-0.347208746,0.383969,0.31125837,-0.389872253,0.403277,0.270416133,-0.365573414,0.386221,0.23493087,-0.337818668,0.363904,0.215671907,-0.312433418,0.348873,0.28565721,-0.290730594,0.368457,0.249786752,-0.253574524,0.344462,0.231666712,-0.243240795,0.332465,0.218432713,-0.239795686,0.321558,0.306137793,-0.293354086,0.364426,0.275267581,-0.240890102,0.334958,0.252475853,-0.232929944,0.317767,0.238119955,-0.234434014,0.305489,0.324892526,-0.301846174,0.363319,0.293065872,-0.266462606,0.338745,0.275398143,-0.255625432,0.326173,0.279173319,-0.280628947,0.333782,0.352418915,-0.321753502,0.36589,0.325550645,-0.282692965,0.34303,0.310829861,-0.285652239,0.332526,0.298118029,-0.290828971,0.323259
0.329809645,-0.408591854,0.404851,0.31572429,-0.350418747,0.384506,0.310273077,-0.392196075,0.403938,0.268854746,-0.367017513,0.387343,0.23044851,-0.34151303,0.365247,0.21350781,-0.315424916,0.350261,0.284749111,-0.292370707,0.369503,0.248632332,-0.255702472,0.345882,0.23035024,-0.245657785,0.334071,0.214899441,-0.24473069,0.323335,0.304921707,-0.294686074,0.365129,0.273751557,-0.242546906,0.335916,0.248137521,-0.236061249,0.318874,0.234340737,-0.238612274,0.306702,0.323406741,-0.30291091,0.363721,0.289397206,-0.265210624,0.339469,0.271615203,-0.252056984,0.327062,0.27453157,-0.27536251,0.334762,0.348345971,-0.324091837,0.36591,0.321317292,-0.285477293,0.343307,0.306710801,-0.288672636,0.332922,0.29416029,-0.294034162,0.323759
0.327069578,-0.407407397,0.403155,0.311773827,-0.347625293,0.382013,0.308030121,-0.391808087,0.402882,0.264151765,-0.367186691,0.387069,0.227430446,-0.34215431,0.364915,0.206795211,-0.318068846,0.349687,0.2752748,-0.28984432,0.367303,0.243308613,-0.24752726,0.342419,0.22501386,-0.237187917,0.329977,0.208064653,-0.234857585,0.318666,0.294610425,-0.290475577,0.361877,0.26016876,-0.239790856,0.332118,0.236187415,-0.233313557,0.314759,0.219826129,-0.237756698,0.302359,0.312607908,-0.297314946,0.359688,0.283972134,-0.260854967,0.335278,0.266579764,-0.255957703,0.322789,0.266386028,-0.273547715,0.330072,0.337391994,-0.316844859,0.361121,0.308057545,-0.280084842,0.338358,0.293624248,-0.28459653,0.327899,0.284451661,-0.290782424,0.318671
0.314502533,-0.398631941,0.392735,0.293383825,-0.333647841,0.37233,0.289496187,-0.382062109,0.392164,0.248356694,-0.349361743,0.376048,0.214838113,-0.32262339,0.353458,0.199298581,-0.302757571,0.335655,0.263834452,-0.276081063,0.357731,0.232682054,-0.233514627,0.333373,0.214665502,-0.222950745,0.321194,0.197885751,-0.220113727,0.310122,0.283327841,-0.277984221,0.352896,0.250469363,-0.227050361,0.32373,0.226727782,-0.220001372,0.306717,0.210221685,-0.224034184,0.294565,0.30117331,-0.285847827,0.351114,0.273528756,-0.247923026,0.326965,0.255774202,-0.242861854,0.314609,0.253847169,-0.263597455,0.322255,0.325262722,-0.306610433,0.352881,0.297017299,-0.268728669,0.330414,0.282333102,-0.272971451,0.320091,0.270131001,-0.279354669,0.310983
0.295897018,-0.386265824,0.38797,0.282403346,-0.319572016,0.367995,0.277220477,-0.370013996,0.38719,0.236882444,-0.334921784,0.370855,0.20302395,-0.309045302,0.347865,0.18713771,-0.289664691,0.329708,0.252924821,-0.263178894,0.353417,0.221547193,-0.221912467,0.329226,0.203388616,-0.211976792,0.317131,0.186530155,-0.209706677,0.306136,0.272628451,-0.265246239,0.348971,0.239772231,-0.215866128,0.320148,0.21603036,-0.209711602,0.303334,0.199679623,-0.214349409,0.291324,0.290623106,-0.273110622,0.347463,0.263985513,-0.2325688,0.323226,0.2464608,-0.225696167,0.310826,0.2442049,-0.244216869,0.318607,0.314788412,-0.293604484,0.349467,0.286562707,-0.257019927,0.327162,0.271992135,-0.261692055,0.316913,0.259969484,-0.268376794,0.307871
0.290980243,-0.322839798,0.419975,0.274301572,-0.273200214,0.3855,0.268227525,-0.303102457,0.41202,0.237241336,-0.303771792,0.384059,0.206909081,-0.300184122,0.357547,0.189870521,-0.292014059,0.337702,0.233613046,-0.215295301,0.35173,0.192676968,-0.18629387,0.313515,0.170747307,-0.191066546,0.294407,0.168564675,-0.207801961,0.293101,0.258236048,-0.22650364,0.352666,0.207191825,-0.231494686,0.309136,0.213849294,-0.25464458,0.322619,0.233543817,-0.260309482,0.341901,0.280877211,-0.24126086,0.357152,0.235625467,-0.244020329,0.318996,0.240524474,-0.264802247,0.329635,0.260543265,-0.272316957,0.349253,0.311032479,-0.268145645,0.368839,0.265273831,-0.264002411,0.335065,0.251090564,-0.263117443,0.319548,0.254803984,-0.258361898,0.317617
0.283826413,-0.308060815,0.410618,0.269529867,-0.248919932,0.378688,0.260423194,-0.288809182,0.401943,0.226555068,-0.287669922,0.373189,0.190124055,-0.279506527,0.345272,0.169078449,-0.265187543,0.326025,0.229419648,-0.191708874,0.345708,0.190665151,-0.161866415,0.308436,0.173876621,-0.169242041,0.2898,0.176114186,-0.187476202,0.290045,0.25628065,-0.20090984,0.348278,0.224293227,-0.17926062,0.30673,0.226095716,-0.21487112,0.322385,0.234212083,-0.249093671,0.342328,0.280372951,-0.214042581,0.353836,0.251071798,-0.197551016,0.316835,0.234499449,-0.193676431,0.297904,0.216986647,-0.196671086,0.280694,0.311630322,-0.239165444,0.366288,0.274329519,-0.218195437,0.333535,0.261327058,-0.225581175,0.318486,0.263913634,-0.23243669,0.317807
0.28434309,-0.306657229,0.41129,0.269064015,-0.249650029,0.37911,0.261518624,-0.288007103,0.40371,0.230714524,-0.282131356,0.376332,0.196263585,-0.268815127,0.3502,0.177311152,-0.25138256,0.334083,0.229200169,-0.192352671,0.347386,0.184215548,-0.165506395,0.310761,0.163882486,-0.168524037,0.292449,0.164672166,-0.188195977,0.292867,0.254541999,-0.201025902,0.348461,0.219394944,-0.169350726,0.306886,0.21608138,-0.198422756,0.320254,0.222001904,-0.230777466,0.340238,0.277546132,-0.213804694,0.352815,0.248810109,-0.196087718,0.315832,0.232055742,-0.191319889,0.296911,0.213729312,-0.193060244,0.279709,0.307844828,-0.238682407,0.363917,0.272046394,-0.217036697,0.331437,0.257043837,-0.224052614,0.316515,0.258579927,-0.23021765,0.315897
0.284552562,-0.30053186,0.413125,0.265515428,-0.239140015,0.377447,0.260760027,-0.281236281,0.404614,0.217085756,-0.265544279,0.375942,0.179109922,-0.255273827,0.349562,0.155146105,-0.237144053,0.329266,0.223652555,-0.179036604,0.342136,0.179882688,-0.15167311,0.302867,0.159654576,-0.153670911,0.283232,0.158907447,-0.171105474,0.280827,0.248348208,-0.187720773,0.343467,0.217164801,-0.147508633,0.298898,0.213525251,-0.177605447,0.311049,0.222127848,-0.205158135,0.330985,0.271304319,-0.200850287,0.348408,0.234901216,-0.157267941,0.309245,0.214310839,-0.164680146,0.289208,0.212714155,-0.178792638,0.286565,0.302447007,-0.226904181,0.36085,0.261871136,-0.198134182,0.32631,0.243000874,-0.192970304,0.310439,0.237012437,-0.204333276,0.307697
0.289531792,-0.28142964,0.424447,0.271624382,-0.223950849,0.387295,0.264514226,-0.260362012,0.414165,0.221208824,-0.249449086,0.383379,0.182875016,-0.23869223,0.356523,0.158769427,-0.22030083,0.335649,0.227782743,-0.161938155,0.348678,0.182882962,-0.13506736,0.307436,0.161538177,-0.135991481,0.286816,0.158747701,-0.152901587,0.282507,0.254036687,-0.171563055,0.351912,0.221365021,-0.131011092,0.306006,0.215552975,-0.158073467,0.315946,0.223457914,-0.185655089,0.335671,0.278551311,-0.185658035,0.358579,0.230230672,-0.190880508,0.317715,0.209637166,-0.187922567,0.296808,0.210756591,-0.178574216,0.292329,0.311859982,-0.213257775,0.373301,0.258286308,-0.209733002,0.337535,0.232038722,-0.205013918,0.321102,0.225014845,-0.201897924,0.317017
0.285309391,-0.275414927,0.421946,0.267988177,-0.213447036,0.386154,0.261414308,-0.255082255,0.413012,0.207933981,-0.232124564,0.383805,0.164709856,-0.218560177,0.357274,0.137697672,-0.198367687,0.336657,0.227836303,-0.152126353,0.350216,0.18748905,-0.112088321,0.31058,0.166247499,-0.10672355,0.290763,0.160297849,-0.122457947,0.288134,0.253211023,-0.161246975,0.352066,0.222245221,-0.121699116,0.307339,0.217882444,-0.148889786,0.319294,0.225455798,-0.176472572,0.339225,0.276485049,-0.174810382,0.357448,0.230418034,-0.180128985,0.317997,0.210376325,-0.179728427,0.297813,0.212360405,-0.172481099,0.294966,0.307600055,-0.201586126,0.370422,0.255949373,-0.197654549,0.335675,0.230794415,-0.194385317,0.31971,0.225121357,-0.193174869,0.316822
0.258861738,-0.2587698,0.428753,0.251596121,-0.204958729,0.394977,0.236292228,-0.236029536,0.417831,0.1929441,-0.21772432,0.386249,0.154182108,-0.199098729,0.357654,0.132853656,-0.182670973,0.336159,0.217430072,-0.143024474,0.357817,0.183648508,-0.0981979092,0.317943,0.163280777,-0.0914435575,0.298006,0.155853732,-0.106027828,0.296076,0.243828768,-0.155867912,0.362809,0.21954076,-0.108241454,0.319461,0.208982207,-0.125362517,0.321728,0.213232935,-0.152480675,0.339676,0.26722922,-0.172298199,0.37056,0.225236487,-0.178900368,0.331371,0.211435047,-0.181704091,0.311321,0.215153713,-0.175699678,0.309324,0.297029539,-0.201989153,0.385906,0.246302808,-0.198353078,0.351489,0.226931013,-0.194539709,0.335676,0.218664867,-0.197434993,0.333468
0.254973248,-0.2543674,0.429913,0.247053663,-0.197338361,0.394941,0.233718065,-0.230811251,0.41918,0.184246535,-0.204186813,0.387785,0.143746827,-0.183854272,0.359437,0.121838114,-0.161023228,0.338291,0.218419953,-0.134565131,0.357217,0.183740156,-0.0955281268,0.316794,0.162472042,-0.0902876843,0.296583,0.153835371,-0.105161383,0.293873,0.242905415,-0.152703662,0.361635,0.216697008,-0.107671991,0.317334,0.198154905,-0.125515844,0.315347,0.20453649,-0.149607047,0.331837,0.265085797,-0.170044242,0.369042,0.21704775,-0.173102593,0.329204,0.201589425,-0.175846415,0.308822,0.205941581,-0.170252323,0.306011,0.293137307,-0.200707054,0.384214,0.237305608,-0.193857679,0.349267,0.218430559,-0.189796869,0.33321,0.213379708,-0.193878572,0.330383
0.251417329,-0.247264303,0.422984,0.244400281,-0.193630034,0.393329,0.234793453,-0.228320545,0.419994,0.193891827,-0.204198445,0.399125,0.154312888,-0.186104714,0.375802,0.130190353,-0.168788965,0.357465,0.214849096,-0.134048813,0.369298,0.183395085,-0.0848796251,0.337888,0.161987161,-0.0922962588,0.322183,0.150659397,-0.104294467,0.324935,0.233230444,-0.143563332,0.365085,0.204108378,-0.101052072,0.326833,0.170944112,-0.107462915,0.304519,0.163516615,-0.125829001,0.306187,0.249829685,-0.156921108,0.364812,0.201095957,-0.164741327,0.328895,0.214401513,-0.187694267,0.342239,0.241341082,-0.198704887,0.362073,0.271529867,-0.182277638,0.370069,0.219030936,-0.181503908,0.341017,0.2080095,-0.181680097,0.327668,0.207787897,-0.189635683,0.328608
0.25456494,-0.241288766,0.430423,0.241586978,-0.177346794,0.397222,0.241446687,-0.219008617,0.428676,0.202696192,-0.198632765,0.409619,0.165344707,-0.184074312,0.389285,0.139988928,-0.170669778,0.371309,0.213977078,-0.121690377,0.372402,0.181774127,-0.0828578448,0.33627,0.155177836,-0.0750311335,0.318204,0.138487494,-0.0843984415,0.317081,0.227597983,-0.129569343,0.365601,0.188345291,-0.0886851955,0.324972,0.153179951,-0.0884904072,0.301272,0.143399794,-0.104926872,0.29982,0.240782935,-0.141632632,0.363578,0.212616334,-0.105444866,0.326745,0.200979803,-0.122994731,0.336905,0.207538353,-0.145448485,0.355836,0.259499553,-0.165715037,0.367472,0.204047576,-0.160082164,0.337423,0.181608495,-0.159114699,0.323617,0.169475411,-0.163335054,0.322399
0.251043587,-0.239652286,0.421665,0.239246706,-0.177412232,0.394219,0.236550621,-0.219969937,0.42268,0.199383943,-0.198792663,0.408063,0.157245504,-0.177257784,0.38795,0.135403177,-0.160410551,0.370814,0.211155868,-0.128460244,0.376906,0.171379239,-0.0863268816,0.350495,0.149354564,-0.0849558092,0.337289,0.13533911,-0.0878411596,0.34119,0.227234943,-0.129628961,0.368081,0.19350547,-0.0779839508,0.333218,0.163658798,-0.0663451239,0.312882,0.15066057,-0.0759949037,0.315137,0.238966603,-0.134725353,0.363771,0.208488884,-0.0955263637,0.332234,0.201207398,-0.114773405,0.345392,0.210768647,-0.144506868,0.363383,0.258277007,-0.151823083,0.363927,0.207387763,-0.14705053,0.338343,0.186498304,-0.150176406,0.326588,0.175575867,-0.158083822,0.328249
0.243925112,-0.231317728,0.415001,0.231355643,-0.175435288,0.396023,0.231599709,-0.217038059,0.418032,0.183873574,-0.191753521,0.407561,0.148219979,-0.171031888,0.395856,0.127446101,-0.14992828,0.384053,0.213530219,-0.127485536,0.387086,0.180163644,-0.0839476634,0.367927,0.160358379,-0.0845560515,0.358347,0.14715041,-0.0919528281,0.366958,0.227902526,-0.128328482,0.377949,0.195212536,-0.0785906084,0.351411,0.166357252,-0.0701352737,0.335931,0.155924121,-0.0819159025,0.343008,0.240486086,-0.13433056,0.37247,0.213151396,-0.0978508433,0.34997,0.191030939,-0.0896974645,0.338459,0.180366269,-0.107455866,0.345923,0.256482894,-0.150952627,0.369678,0.209128356,-0.144405287,0.350088,0.19012663,-0.150497843,0.341087,0.183366459,-0.164207665,0.346376
0.244845065,-0.232839001,0.418868,0.230285318,-0.174320376,0.394743,0.231527868,-0.2182339,0.420453,0.183590919,-0.190089098,0.407016,0.145163422,-0.166070405,0.387409,0.123501238,-0.144115118,0.371624,0.209014071,-0.126181724,0.380427,0.170210621,-0.0849464977,0.356571,0.149336742,-0.0823320202,0.344644,0.139238956,-0.084712932,0.350581,0.223006356,-0.125694092,0.371767,0.183401574,-0.078391769,0.339992,0.155894999,-0.0579181109,0.321456,0.143442114,-0.0672695389,0.325829,0.235812795,-0.130694222,0.367235,0.201517172,-0.0906476798,0.340388,0.178015625,-0.0807020581,0.326652,0.166668062,-0.0963132841,0.331517,0.251971834,-0.143302768,0.366509,0.202247409,-0.134748128,0.343057,0.185800216,-0.144706985,0.332282,0.179364839,-0.157782506,0.335512
0.243828015,-0.232342529,0.418798,0.230171332,-0.174132827,0.394732,0.230472435,-0.218151609,0.420379,0.183544486,-0.189588041,0.40694,0.145217259,-0.165658208,0.387459,0.123599568,-0.143842583,0.371741,0.208748312,-0.126483104,0.38045,0.170236875,-0.0849596004,0.356626,0.149367073,-0.0823487425,0.344714,0.138342797,-0.0844933709,0.350688,0.222646632,-0.125532127,0.371812,0.183452819,-0.0784136731,0.340087,0.155955135,-0.0579404525,0.32158,0.143514754,-0.0673036042,0.325994,0.235420889,-0.130134684,0.367293,0.201572822,-0.0906727127,0.340482,0.178076662,-0.0807297287,0.326764,0.16674297,-0.096356572,0.331666,0.252014459,-0.143327009,0.366571,0.202301058,-0.134783871,0.343148,0.186051809,-0.144120664,0.332387,0.180303705,-0.157212786,0.335645
0.241460011,-0.229307727,0.415163,0.222608477,-0.168452768,0.393823,0.227866488,-0.216198217,0.416715,0.182212858,-0.188812275,0.403592,0.144127162,-0.164982524,0.385057,0.122894109,-0.143478715,0.371005,0.192951841,-0.129891621,0.381354,0.154576012,-0.0923405508,0.357954,0.132530719,-0.0794802923,0.346254,0.117535276,-0.0745457354,0.353394,0.206898379,-0.122126673,0.373499,0.159472734,-0.0875398963,0.344205,0.131298631,-0.0669561394,0.327117,0.120037378,-0.0762189168,0.333233,0.22063374,-0.120658692,0.369329,0.181165982,-0.0867477115,0.345942,0.160510307,-0.0689208526,0.333977,0.149649471,-0.0768463358,0.34096,0.240899952,-0.128050778,0.368502,0.209872884,-0.0991200203,0.346627,0.190111552,-0.0967333328,0.336577,0.179362953,-0.0998767141,0.341062
0.241215072,-0.22831604,0.414596,0.226438686,-0.171223056,0.393851,0.227403489,-0.216074013,0.416253,0.183629234,-0.190508664,0.403382,0.144898566,-0.164733387,0.384904,0.12386987,-0.143030003,0.371046,0.193677298,-0.130937377,0.381923,0.156061989,-0.0924937621,0.358729,0.134291345,-0.0789986185,0.347132,0.119605997,-0.0733571909,0.354496,0.2076978,-0.123025567,0.374093,0.160544918,-0.0887396691,0.345385,0.132465731,-0.0682832767,0.328638,0.121474852,-0.0777451704,0.335076,0.221494523,-0.121412082,0.369881,0.182327988,-0.0877952832,0.347095,0.161784313,-0.0700791111,0.335436,0.151238318,-0.0782011342,0.342764,0.241824142,-0.12857792,0.368892,0.211098874,-0.0998719419,0.347432,0.191536482,-0.0976115339,0.337571,0.181031261,-0.10091924,0.342296
0.241089056,-0.228073719,0.414589,0.226494048,-0.171838367,0.39363,0.227147479,-0.21646191,0.416359,0.18406094,-0.191046936,0.403627,0.145513039,-0.165018514,0.385557,0.124685596,-0.143154271,0.371986,0.194054849,-0.131651515,0.381704,0.156835194,-0.0927233002,0.358533,0.134922401,-0.0799254146,0.346947,0.119748324,-0.077751455,0.354206,0.207915848,-0.123806968,0.373669,0.160704341,-0.0893207124,0.344808,0.132618292,-0.0687669546,0.327972,0.121457229,-0.0781551475,0.334257,0.221552047,-0.122270709,0.369311,0.182390864,-0.0885130401,0.346454,0.16186299,-0.0707353597,0.33476,0.151142947,-0.0787991928,0.341954,0.241650295,-0.129564239,0.368193,0.210389347,-0.102491536,0.346671,0.189244131,-0.103434732,0.336782,0.179773781,-0.103017615,0.341404
0.239523414,-0.226011409,0.413013,0.222398976,-0.171207968,0.393555,0.224304574,-0.216891477,0.414927,0.182139657,-0.191536504,0.402658,0.144709436,-0.164671748,0.384117,0.124135256,-0.142635457,0.370494,0.190521397,-0.135784155,0.382836,0.157685177,-0.0935215876,0.360731,0.136120018,-0.0806796195,0.349679,0.121760105,-0.0769483578,0.357688,0.207595449,-0.127417721,0.375024,0.167045804,-0.0813046411,0.347602,0.135609785,-0.0686637415,0.331606,0.124639636,-0.0780789528,0.338716,0.221580867,-0.126346816,0.370687,0.193966616,-0.0829184136,0.3474,0.172775859,-0.0746873386,0.335485,0.163729693,-0.0861173216,0.342983,0.241701187,-0.134178256,0.369311,0.210605559,-0.107299675,0.348773,0.191046741,-0.105756927,0.339336,0.180549575,-0.110181273,0.344565
0.238264538,-0.225235263,0.41268,0.22100614,-0.174601256,0.393469,0.222457502,-0.217035429,0.414347,0.180279555,-0.19529001,0.401749,0.143726204,-0.16585648,0.38276,0.123891488,-0.142801678,0.369608,0.19035633,-0.137072938,0.382597,0.157325898,-0.0941659924,0.360363,0.135729864,-0.0819221679,0.349246,0.121589894,-0.0791789345,0.357375,0.205674608,-0.129890458,0.375172,0.166828062,-0.0826469343,0.347889,0.136266701,-0.0696312057,0.331974,0.125701057,-0.0781575061,0.339279,0.221344586,-0.127605043,0.371129,0.193916695,-0.0839778133,0.347788,0.172750306,-0.0758218364,0.335846,0.163944783,-0.0874201717,0.343485,0.241915371,-0.135450409,0.370047,0.211143965,-0.108629641,0.349518,0.191761764,-0.107057266,0.340086,0.181480119,-0.11157965,0.345437
0.23691493,-0.226094886,0.41212,0.220353996,-0.175329044,0.393075,0.221659368,-0.217454405,0.413593,0.17994139,-0.195687857,0.400732,0.14269948,-0.166508156,0.381481,0.123639259,-0.142857493,0.368681,0.189504715,-0.137791521,0.382063,0.155914345,-0.0964213916,0.359893,0.135388805,-0.0839131122,0.348807,0.121824092,-0.0810492899,0.357066,0.205071612,-0.130551789,0.374937,0.16690665,-0.083110472,0.347738,0.137583533,-0.0705119294,0.331872,0.126405775,-0.0783906132,0.339311,0.219942878,-0.129510908,0.371121,0.193425662,-0.0846051928,0.347851,0.172374687,-0.0764940074,0.335945,0.163797843,-0.0882148875,0.343717,0.241158036,-0.137336554,0.370273,0.211186747,-0.109450751,0.349737,0.191956773,-0.10786325,0.340301,0.181850216,-0.112473659,0.345735
0.235347635,-0.225855469,0.41144,0.219815811,-0.175647976,0.392576,0.219789662,-0.217854146,0.412833,0.179619753,-0.195720142,0.399884,0.142391514,-0.166542094,0.380488,0.123380162,-0.142835016,0.367769,0.188972337,-0.138073168,0.381581,0.155410583,-0.0968045159,0.359589,0.134864965,-0.0842311181,0.348593,0.121453295,-0.0814382253,0.356981,0.20465487,-0.130809282,0.374609,0.166892641,-0.0833163215,0.347551,0.137949367,-0.0708144756,0.331767,0.12690409,-0.0785540804,0.339321,0.219635866,-0.129737992,0.370901,0.193139989,-0.0849019673,0.347811,0.172187628,-0.0768314429,0.335997,0.163755843,-0.0886307842,0.3439,0.240998248,-0.137510537,0.370143,0.211095039,-0.109882652,0.349674,0.191983,-0.108296236,0.340269,0.182001609,-0.112967185,0.345779
0.235280099,-0.226242526,0.410888,0.218674961,-0.177008773,0.392064,0.219244822,-0.218882208,0.412137,0.179509023,-0.196825465,0.39898,0.142199772,-0.168493553,0.378856,0.123218959,-0.143354925,0.366575,0.188175677,-0.139203348,0.380909,0.154556057,-0.0980288534,0.358943,0.133863375,-0.0851844142,0.34796,0.121126254,-0.0818237076,0.35641,0.204089428,-0.131887171,0.374137,0.167085437,-0.0834652049,0.347065,0.14056762,-0.0733794315,0.331274,0.131207495,-0.0818639603,0.338879,0.219426689,-0.130180481,0.370588,0.192390136,-0.0859037213,0.346946,0.171839079,-0.0762072533,0.33485,0.162219448,-0.0745200619,0.34264,0.24098434,-0.138028331,0.370008,0.211461543,-0.111157215,0.349483,0.192695264,-0.109306789,0.340053,0.182594342,-0.113060834,0.34559
0.235674127,-0.227372824,0.411752,0.218257827,-0.177294918,0.391982,0.219059607,-0.220345179,0.412711,0.17907349,-0.19709765,0.398952,0.141926129,-0.168938727,0.379224,0.12298689,-0.144019524,0.367111,0.187143326,-0.138906553,0.379807,0.153237076,-0.0975293374,0.356962,0.132439761,-0.0847762839,0.34554,0.119690414,-0.0815215966,0.35354,0.203106402,-0.131712005,0.373153,0.160790138,-0.089472295,0.345092,0.136042832,-0.0731240137,0.328723,0.12956652,-0.0870997984,0.335869,0.218596325,-0.13020111,0.369804,0.18636767,-0.0888811672,0.346236,0.169402183,-0.0780338158,0.334178,0.158635204,-0.0850468563,0.341801,0.240421705,-0.138244415,0.369633,0.210708659,-0.110080496,0.348368,0.191675713,-0.10821799,0.338597,0.181797117,-0.112599794,0.343781
0.23533427,-0.227979074,0.411334,0.21789922,-0.177663494,0.391731,0.218326918,-0.221446666,0.412268,0.178641023,-0.197297379,0.398503,0.141511878,-0.169000861,0.37857,0.122582592,-0.145282571,0.365374,0.186812858,-0.139203268,0.379638,0.153066895,-0.0977796071,0.356897,0.132317108,-0.0850947322,0.345526,0.119296989,-0.0825930502,0.353613,0.202861246,-0.132090773,0.373062,0.161035816,-0.0898161449,0.345149,0.136310196,-0.0722837467,0.328867,0.126946309,-0.0822597047,0.336109,0.218232257,-0.131179809,0.369759,0.187937269,-0.0895517659,0.346158,0.169123273,-0.0786653155,0.334083,0.159476704,-0.0858341291,0.341752,0.240216465,-0.139212928,0.36961,0.210946258,-0.111145578,0.348434,0.192194867,-0.109191328,0.338704,0.182202411,-0.112888773,0.343956
0.234997818,-0.229500236,0.41157,0.217807129,-0.178058342,0.391804,0.217774284,-0.222871708,0.41242,0.178497486,-0.197586045,0.398499,0.141361823,-0.169162894,0.378394,0.12249487,-0.145462966,0.364959,0.186554221,-0.139345123,0.37949,0.152920583,-0.0978515029,0.35686,0.132224509,-0.0852736061,0.345546,0.119224993,-0.0828190357,0.353642,0.202717935,-0.13233364,0.372979,0.166342987,-0.0838269816,0.344884,0.138800643,-0.073336308,0.328494,0.129894238,-0.0868081958,0.335664,0.218189232,-0.13152082,0.369748,0.188084885,-0.0915228639,0.346178,0.167678148,-0.0810643163,0.334119,0.15907569,-0.095693777,0.341774,0.240300108,-0.139694115,0.369713,0.211081356,-0.11133488,0.348391,0.192404322,-0.109331269,0.338594,0.182499915,-0.113016951,0.343786
0.234081281,-0.23060203,0.411242,0.217574977,-0.178234199,0.391572,0.21669858,-0.223862459,0.412022,0.17817488,-0.197564457,0.398016,0.14108571,-0.169088454,0.377824,0.122314775,-0.145470222,0.364303,0.186288419,-0.139397907,0.379233,0.152752888,-0.0978683502,0.356697,0.132104859,-0.0853755234,0.34543,0.119147806,-0.0829803925,0.353602,0.202567636,-0.13248791,0.372838,0.166462633,-0.0840192698,0.344809,0.139117525,-0.0735879404,0.328459,0.130744396,-0.0870812981,0.335694,0.218129394,-0.131759991,0.369693,0.188031482,-0.0921518158,0.34621,0.167717481,-0.0816219739,0.334195,0.159145506,-0.0957357757,0.341924,0.240329535,-0.140035687,0.369739,0.211235108,-0.11150773,0.348438,0.192648175,-0.109486123,0.338651,0.182863256,-0.113197114,0.343886
0.233675102,-0.231899707,0.411462,0.217373846,-0.179144898,0.391492,0.215935878,-0.224977781,0.41194,0.177674389,-0.19802928,0.397433,0.140832807,-0.169211697,0.37729,0.122106842,-0.146119286,0.363401,0.185523413,-0.139774441,0.378556,0.152293607,-0.0987417541,0.355492,0.131866395,-0.0862535607,0.34396,0.118413051,-0.0835212724,0.35197,0.202070972,-0.133051465,0.372474,0.166463292,-0.0844498471,0.34406,0.139247202,-0.0747503685,0.327485,0.130896624,-0.0872996565,0.334611,0.217887711,-0.132496521,0.369617,0.187630712,-0.0945726374,0.345901,0.16742563,-0.0842464393,0.333767,0.159169181,-0.0974164523,0.34142,0.240355356,-0.141979425,0.370056,0.211423538,-0.11214436,0.348407,0.192907234,-0.110081198,0.338461,0.18332554,-0.114013383,0.343594
0.233947077,-0.232891426,0.4116,0.217515764,-0.179470884,0.391502,0.215904268,-0.225779376,0.411733,0.177525427,-0.197970463,0.396696,0.140784451,-0.169233912,0.376694,0.12217018,-0.146208796,0.3627,0.185403722,-0.139823449,0.378028,0.153479017,-0.0994870939,0.353986,0.134233556,-0.0870774516,0.341964,0.11880004,-0.0838863754,0.349735,0.202194166,-0.133293712,0.37236,0.167156909,-0.0852992657,0.34371,0.140578655,-0.075276528,0.326998,0.132316008,-0.0880065088,0.33411,0.218180825,-0.133654002,0.369859,0.188154247,-0.0949037254,0.345953,0.167879127,-0.0847869614,0.333722,0.159822163,-0.0983107508,0.341369,0.241133054,-0.142580944,0.370734,0.211962291,-0.112545883,0.348823,0.194284139,-0.110955325,0.338755,0.184168082,-0.114727858,0.343854
