sluyters/QuantumLeap/backend/src/datasets/dynamic/HandGestureDataset_SHREC2017_csv/Gesture13/finger_2/subject_2_essai_2_skeletons_world.csv
Wrist_x,Wrist_y,Wrist_z,Palm_x,Palm_y,Palm_z,thumb_base_x,thumb_base_y,thumb_base_z,thumb_first_joint_x,thumb_first_joint_y,thumb_first_joint_z,thumb_second_joint_x,thumb_second_joint_y,thumb_second_joint_z,thumb_tip_x,thumb_tip_y,thumb_tip_z,index_base_x,index_base_y,index_base_z,index_first_joint_x,index_first_joint_y,index_first_joint_z,index_second_joint_x,index_second_joint_y,index_second_joint_z,index_tip_x,index_tip_y,index_tip_z,middle_base_x,middle_base_y,middle_base_z,middle_first_joint_x,middle_first_joint_y,middle_first_joint_z,middle_second_joint_x,middle_second_joint_y,middle_second_joint_z,middle_tip_x,middle_tip_y,middle_tip_z,ring_base_x,ring_base_y,ring_base_z,ring_first_joint_x,ring_first_joint_y,ring_first_joint_z,ring_second_joint_x,ring_second_joint_y,ring_second_joint_z,ring_tip_x,ring_tip_y,ring_tip_z,pinky_base_x,pinky_base_y,pinky_base_z,pinky_first_joint_x,pinky_first_joint_y,pinky_first_joint_z,pinky_second_joint_x,pinky_second_joint_y,pinky_second_joint_z,pinky_tip_x,pinky_tip_y,pinky_tip_z,
0.18075471,-0.23007766,0.381162,0.16301793,-0.18950567,0.381395,0.15816129,-0.22837589,0.379393,0.11722562,-0.20532839,0.367351,0.091194576,-0.19768577,0.369032,0.071707496,-0.18005217,0.363561,0.13713479,-0.17752151,0.379248,0.10731427,-0.13425384,0.371182,0.091477743,-0.11224793,0.367149,0.076182774,-0.092015555,0.363482,0.15720799,-0.17053955,0.381616,0.12768785,-0.1192945,0.373191,0.11321641,-0.091002945,0.368276,0.099773078,-0.069636055,0.364765,0.17540456,-0.16862387,0.383541,0.16306814,-0.12351871,0.375697,0.14176162,-0.10294818,0.371684,0.13198921,-0.10536483,0.368035,0.19893916,-0.17322467,0.385731,0.18040733,-0.13039775,0.378776,0.17090208,-0.11092204,0.37558,0.16152881,-0.093987735,0.37276
0.17111247,-0.22617722,0.377913,0.16077338,-0.18731909,0.378765,0.15469196,-0.22581776,0.376791,0.10946315,-0.20160377,0.371881,0.075506206,-0.18059225,0.363824,0.059211308,-0.16414565,0.361165,0.13529193,-0.17361177,0.377882,0.10617705,-0.13323996,0.370588,0.090202665,-0.11144797,0.366941,0.074698889,-0.091386137,0.363625,0.15595175,-0.16875766,0.379576,0.12653342,-0.11727807,0.371939,0.10948804,-0.087164329,0.367483,0.097161807,-0.065375109,0.364301,0.17363459,-0.16681798,0.38088,0.15101119,-0.11522822,0.373991,0.13929217,-0.089847939,0.370467,0.12429488,-0.068638378,0.367263,0.19622776,-0.17128748,0.382233,0.17811521,-0.12881435,0.376347,0.16895619,-0.1094951,0.373643,0.16006562,-0.092571657,0.371256
0.16832665,-0.22415032,0.375186,0.1592495,-0.18583899,0.376864,0.1520138,-0.22352163,0.373881,0.10858736,-0.19879713,0.368733,0.074429824,-0.17241402,0.356121,0.057876725,-0.15364087,0.351295,0.1345144,-0.17237425,0.376303,0.10453103,-0.13024486,0.369623,0.088852863,-0.10836458,0.366284,0.074156536,-0.090451855,0.363248,0.15519288,-0.16770248,0.378462,0.12605603,-0.1164814,0.37169,0.1090749,-0.086436662,0.36774,0.096757641,-0.064630267,0.364918,0.17289869,-0.16603359,0.380058,0.15081794,-0.11491135,0.373862,0.13919786,-0.089537198,0.370691,0.12424395,-0.068287343,0.367809,0.19535538,-0.17074357,0.381596,0.17519905,-0.12691633,0.374479,0.16577667,-0.10733672,0.371208,0.15834379,-0.091145324,0.368323
0.16549586,-0.22173349,0.371173,0.15875017,-0.18569451,0.376818,0.15065117,-0.2228498,0.372971,0.10869412,-0.19779243,0.36756,0.076821326,-0.17460415,0.361237,0.061603888,-0.15730889,0.359524,0.13754879,-0.17710142,0.382993,0.10852021,-0.13605613,0.381396,0.09284092,-0.11449975,0.380783,0.077298259,-0.094353971,0.380226,0.15652034,-0.16921829,0.382195,0.12880668,-0.11921197,0.380395,0.11247806,-0.08930428,0.38007,0.10044787,-0.067230606,0.379957,0.17305276,-0.16637073,0.380929,0.1536632,-0.11711862,0.379333,0.14315604,-0.092071598,0.378516,0.12890639,-0.070642831,0.377773,0.19335631,-0.16938495,0.378399,0.17559245,-0.12745263,0.375518,0.1670749,-0.10834651,0.374195,0.16013283,-0.092184257,0.373027
0.16549614,-0.22246561,0.373285,0.15505425,-0.18230392,0.37392,0.14874682,-0.22101113,0.371035,0.10518491,-0.19108649,0.358526,0.073854501,-0.1696927,0.353214,0.059407483,-0.15366227,0.352946,0.12401944,-0.16320453,0.37142,0.094067846,-0.11865473,0.363068,0.078782636,-0.095914196,0.358892,0.064694109,-0.074950735,0.355095,0.14933318,-0.16121035,0.374525,0.12083486,-0.10572616,0.366457,0.10587156,-0.074509752,0.361751,0.094026849,-0.058810152,0.358389,0.16905372,-0.16243066,0.377012,0.15015895,-0.11381511,0.371717,0.13951844,-0.088911786,0.369008,0.12557164,-0.067561309,0.366545,0.19296261,-0.16923938,0.379781,0.17312916,-0.12534726,0.371239,0.16356875,-0.10562888,0.367315,0.15710649,-0.089891461,0.367035
0.16388423,-0.22118593,0.371028,0.15548141,-0.18280278,0.372902,0.14718392,-0.21977006,0.36904,0.10695283,-0.19571915,0.365417,0.074048073,-0.17279162,0.356627,0.059036481,-0.1562362,0.354787,0.12428892,-0.1650976,0.371585,0.099202551,-0.12539306,0.364669,0.083156556,-0.10240876,0.361211,0.070237899,-0.08300227,0.358067,0.14954275,-0.16255324,0.374687,0.12359956,-0.11204726,0.368015,0.10816288,-0.079699174,0.364123,0.09580609,-0.059892867,0.361343,0.16907247,-0.16299987,0.377039,0.15025401,-0.11415935,0.372275,0.13993107,-0.089351033,0.369837,0.1264185,-0.067930474,0.367621,0.19303621,-0.16947117,0.379418,0.17348982,-0.1259296,0.372384,0.16424424,-0.10630381,0.369153,0.15687945,-0.089831302,0.366945
0.16117665,-0.21728085,0.36684,0.14210081,-0.16727794,0.368971,0.14086037,-0.21434641,0.365375,0.10042048,-0.18510524,0.363926,0.066429983,-0.16259472,0.353587,0.051134172,-0.14048012,0.341738,0.11495902,-0.15491204,0.368511,0.090036153,-0.11168766,0.363859,0.075445773,-0.089692009,0.361533,0.061872141,-0.069225793,0.359418,0.13643736,-0.14852602,0.371001,0.11242721,-0.096650584,0.364698,0.097670329,-0.066006779,0.361021,0.08702934,-0.043899622,0.358395,0.15566871,-0.14722927,0.372822,0.14804376,-0.10365553,0.372227,0.13957137,-0.07871688,0.371922,0.12800553,-0.068152723,0.371645,0.18006598,-0.15260686,0.374536,0.16466865,-0.11138929,0.371478,0.1572825,-0.092423782,0.370073,0.15098191,-0.075840596,0.369317
0.1598984,-0.21575623,0.367369,0.14238932,-0.16645386,0.368823,0.14079294,-0.21328366,0.366085,0.10087985,-0.18620662,0.364548,0.066670251,-0.16569955,0.355743,0.055717236,-0.1502966,0.34887,0.11463931,-0.15410725,0.368137,0.089100309,-0.11067728,0.362829,0.074338635,-0.088571524,0.360175,0.060619855,-0.068023839,0.357763,0.13613603,-0.1474287,0.370207,0.1113635,-0.095339953,0.363195,0.09620256,-0.064556017,0.359104,0.085265009,-0.042336018,0.356182,0.15540266,-0.1459383,0.371755,0.14703901,-0.10247954,0.371723,0.13852928,-0.077541077,0.371706,0.12804269,-0.067480266,0.371692,0.1799049,-0.15112053,0.373278,0.1637383,-0.10985631,0.369592,0.15571298,-0.090671517,0.367899,0.14843875,-0.07362364,0.366405
0.15727949,-0.21297628,0.367193,0.14225527,-0.16566925,0.368367,0.14050524,-0.21201892,0.366012,0.10074034,-0.18586769,0.363931,0.066470057,-0.16609259,0.35566,0.052469451,-0.15033807,0.349306,0.11427964,-0.15332778,0.367627,0.088366402,-0.10971451,0.361801,0.07347564,-0.087540762,0.358888,0.059643776,-0.066940119,0.356239,0.13575198,-0.14652346,0.369486,0.1106292,-0.094340254,0.362188,0.09526672,-0.063474214,0.357931,0.084175526,-0.041176992,0.354891,0.15500763,-0.14495185,0.37089,0.14631069,-0.10144975,0.371046,0.13813369,-0.07664603,0.371126,0.12814673,-0.061950484,0.371198,0.17952169,-0.15005672,0.372299,0.1617325,-0.1081996,0.366956,0.1520833,-0.087683454,0.364502,0.14522545,-0.071608478,0.36241
0.15709295,-0.16997649,0.368502,0.13278395,-0.13463478,0.368501,0.13587972,-0.1698281,0.367376,0.10053469,-0.16586526,0.367619,0.063827635,-0.15394591,0.355744,0.042401286,-0.14257223,0.350587,0.094306889,-0.11684246,0.367034,0.072176097,-0.088584888,0.359423,0.061108968,-0.074453922,0.355618,0.051046889,-0.061606177,0.352159,0.11371346,-0.10690915,0.3685,0.091728242,-0.072981643,0.360267,0.078970417,-0.053298956,0.355465,0.069950517,-0.039325223,0.352345,0.13148465,-0.1012656,0.369707,0.11623077,-0.070111017,0.36341,0.10848236,-0.054298545,0.360187,0.10072715,-0.039507903,0.357258,0.15584218,-0.099293204,0.371109,0.1464415,-0.076387377,0.372895,0.14194577,-0.065669045,0.373716,0.13694145,-0.055034599,0.37444
0.15482095,-0.17252122,0.368377,0.13198935,-0.13662773,0.368757,0.1344313,-0.17229905,0.368364,0.099731743,-0.16742918,0.36971,0.063012425,-0.15410942,0.355876,0.041506718,-0.14057988,0.347625,0.095147477,-0.11834927,0.368999,0.070992781,-0.087904289,0.361742,0.056208068,-0.070274538,0.358114,0.044204214,-0.055313365,0.354816,0.11398881,-0.10830817,0.369118,0.093291616,-0.074829279,0.361218,0.081287685,-0.055418299,0.35661,0.072943147,-0.041721477,0.354277,0.13119656,-0.10264153,0.369176,0.1148942,-0.069017913,0.363943,0.10440728,-0.049401911,0.361265,0.093918458,-0.031866782,0.358831,0.15469744,-0.1007671,0.369172,0.14464743,-0.075665224,0.371559,0.13996305,-0.064087384,0.372656,0.13379062,-0.05252169,0.373623
0.15035344,-0.17356311,0.368066,0.1272274,-0.1379148,0.368309,0.12971653,-0.17224991,0.367432,0.083098615,-0.16012593,0.362515,0.04795171,-0.14414106,0.351072,0.028254943,-0.12994956,0.345564,0.088456552,-0.11439657,0.367649,0.070118379,-0.081318253,0.360147,0.056415384,-0.068541677,0.356397,0.047737664,-0.057692669,0.352987,0.11223961,-0.10775091,0.368541,0.092342168,-0.074240314,0.360426,0.080825666,-0.054853897,0.355692,0.072963892,-0.041264024,0.353873,0.12996806,-0.1029991,0.369249,0.11227641,-0.067116993,0.363232,0.10367272,-0.048518876,0.360154,0.093269689,-0.031038153,0.357355,0.15321566,-0.10400737,0.370025,0.14297389,-0.076016303,0.370403,0.1374051,-0.06347767,0.370576,0.13094881,-0.052580721,0.370729
0.15087567,-0.17369204,0.370936,0.12866073,-0.13644261,0.370168,0.12910558,-0.17153533,0.368231,0.087422902,-0.1621487,0.365792,0.051611045,-0.14799363,0.354102,0.039830405,-0.13718243,0.342652,0.086848168,-0.11316461,0.366124,0.068845051,-0.081864319,0.358885,0.05626587,-0.068181628,0.355265,0.046073661,-0.055903503,0.351975,0.10817564,-0.10574148,0.369437,0.090265765,-0.072483054,0.360857,0.078802593,-0.053015262,0.355851,0.073238408,-0.041137305,0.359428,0.12632144,-0.10023907,0.372248,0.10859033,-0.063286771,0.365336,0.099635904,-0.044648342,0.3618,0.092476045,-0.029645866,0.358585,0.15234955,-0.1004426,0.375655,0.1401885,-0.071722226,0.372373,0.13350802,-0.056595386,0.370865,0.13051163,-0.052072488,0.369534
0.1490389,-0.17262921,0.369174,0.12721311,-0.13538564,0.368441,0.12753638,-0.17072921,0.367311,0.08647671,-0.16054045,0.363308,0.05097185,-0.14627772,0.352228,0.029205197,-0.1303678,0.345849,0.086512428,-0.11249069,0.365517,0.068258559,-0.082760507,0.359972,0.055258162,-0.069030321,0.3572,0.043310426,-0.054506735,0.35468,0.10909049,-0.10526911,0.367742,0.089341391,-0.071706875,0.358649,0.077977023,-0.052412202,0.353344,0.073905652,-0.041381115,0.364617,0.12777775,-0.10122431,0.369654,0.10932745,-0.064702772,0.36387,0.10061521,-0.046247794,0.360911,0.091486714,-0.029580004,0.358221,0.15343317,-0.10185694,0.372011,0.14069184,-0.074339752,0.370517,0.13416351,-0.060151249,0.369831,0.12975896,-0.051529753,0.369225
0.14654156,-0.1714176,0.36795,0.12193907,-0.13244491,0.368426,0.12348908,-0.16986741,0.36666,0.087287602,-0.16130879,0.365751,0.061602272,-0.1513237,0.35247,0.041022151,-0.13773871,0.344744,0.084621672,-0.11239015,0.367069,0.065751778,-0.08309879,0.36361,0.049683906,-0.064479594,0.361881,0.040852966,-0.055157868,0.360309,0.10480875,-0.10377011,0.36888,0.08697376,-0.070814426,0.361187,0.076063046,-0.051660069,0.356699,0.073254812,-0.040814734,0.371846,0.12305125,-0.099373029,0.370319,0.10971803,-0.068652063,0.36385,0.10106132,-0.056131666,0.36054,0.097847968,-0.04125425,0.357531,0.14756868,-0.099163399,0.371901,0.13888541,-0.074502941,0.37159,0.1339865,-0.060197136,0.371447,0.13019597,-0.050588555,0.371321
0.14573237,-0.17161825,0.369366,0.12076065,-0.13213363,0.368514,0.12290949,-0.17005994,0.36816,0.088644743,-0.16326955,0.370537,0.061208966,-0.15057363,0.35209,0.041509431,-0.13723126,0.343729,0.084009237,-0.11219006,0.366364,0.06364005,-0.081417828,0.35884,0.049870925,-0.064925699,0.355078,0.040061654,-0.053822951,0.351658,0.10369221,-0.10337454,0.367702,0.085366995,-0.070205523,0.358511,0.074007031,-0.05099181,0.353149,0.071211093,-0.040106551,0.368209,0.12156842,-0.098856162,0.368895,0.1060977,-0.069714617,0.360681,0.098809826,-0.054988198,0.356479,0.094699833,-0.040835223,0.353379,0.14575053,-0.098586208,0.370441,0.1371458,-0.073371055,0.369572,0.13255269,-0.059596362,0.369173,0.12851548,-0.04963487,0.368821
0.14475785,-0.17165703,0.369675,0.12034333,-0.13295649,0.367946,0.12208239,-0.17001979,0.368259,0.088869954,-0.16399589,0.371522,0.060585191,-0.15026044,0.350945,0.042326752,-0.13871868,0.343564,0.083285888,-0.11217662,0.364928,0.058406484,-0.079455895,0.35537,0.045282743,-0.063266722,0.350591,0.032920143,-0.054978025,0.346247,0.10275373,-0.10335948,0.366299,0.084347904,-0.07004446,0.356123,0.072733231,-0.050841605,0.350188,0.069682691,-0.039818854,0.364967,0.12050389,-0.098853904,0.367615,0.10498177,-0.069687898,0.358479,0.097336372,-0.05490779,0.353805,0.09008782,-0.041562261,0.349556,0.14284443,-0.098591741,0.369467,0.13639352,-0.073193347,0.368561,0.13191314,-0.060221568,0.368145,0.12802929,-0.050170237,0.367778
0.14426542,-0.17223397,0.370567,0.11980471,-0.1331867,0.367922,0.12145385,-0.17023958,0.368334,0.089381185,-0.16434959,0.371099,0.060227277,-0.15044728,0.350449,0.04240117,-0.13921373,0.34398,0.082648681,-0.1122,0.363219,0.057040608,-0.079850149,0.352631,0.042910591,-0.064039056,0.347337,0.031357994,-0.057399101,0.342525,0.10223671,-0.1036777,0.365404,0.083356917,-0.070070013,0.354264,0.068847987,-0.051233488,0.347766,0.069273893,-0.040215511,0.362223,0.12018641,-0.099417429,0.367488,0.10489509,-0.070309392,0.3575,0.097174123,-0.05550898,0.352389,0.089795862,-0.042156014,0.347744,0.14329022,-0.099674552,0.370404,0.1362294,-0.073598545,0.368684,0.13166718,-0.060904584,0.367894,0.12776803,-0.050335985,0.367197
0.14409914,-0.17275045,0.371397,0.11969691,-0.13345289,0.368184,0.12275826,-0.17051541,0.368645,0.089501358,-0.16565764,0.369286,0.059968892,-0.15148587,0.348636,0.042384244,-0.1403473,0.344517,0.083463712,-0.11213617,0.362419,0.056452078,-0.080417022,0.351148,0.043184588,-0.063762933,0.345512,0.031885726,-0.057350798,0.340389,0.10351912,-0.10410281,0.365125,0.084395475,-0.070487173,0.353299,0.07076454,-0.051832886,0.3464,0.064900866,-0.039280311,0.360619,0.12185956,-0.10026803,0.367699,0.10518897,-0.070671629,0.357111,0.097398857,-0.05583352,0.351694,0.089925668,-0.042456301,0.346769,0.14632173,-0.10119869,0.371291,0.13717603,-0.074009896,0.369033,0.13282686,-0.06164034,0.367996,0.12782302,-0.050481972,0.367081
0.14242863,-0.17435655,0.371929,0.11823677,-0.14542668,0.367929,0.1211073,-0.17190351,0.369028,0.088674212,-0.17720866,0.366484,0.05830494,-0.1622993,0.344136,0.042255229,-0.15376419,0.341512,0.082398929,-0.12424237,0.361435,0.057265719,-0.090767117,0.3496,0.044053269,-0.074109289,0.343682,0.033433943,-0.068395327,0.338303,0.10222677,-0.11615841,0.36412,0.083444354,-0.082048181,0.351638,0.072048157,-0.062523269,0.344356,0.063674965,-0.043728337,0.35837,0.12047035,-0.11235236,0.366762,0.10651358,-0.082779448,0.355576,0.098763536,-0.067870201,0.349853,0.09119521,-0.054446657,0.344651,0.14548327,-0.11321106,0.37058,0.13334291,-0.08449401,0.3648,0.12751296,-0.071332816,0.362144,0.12293045,-0.05589466,0.3598
0.14178075,-0.181638,0.373126,0.12708216,-0.15458963,0.370573,0.12321833,-0.18799405,0.371883,0.099336213,-0.18927082,0.375692,0.069168782,-0.17504359,0.355062,0.047595217,-0.16014378,0.346593,0.094335452,-0.13317661,0.367221,0.06942982,-0.10047054,0.356887,0.056138881,-0.084232612,0.35172,0.044357497,-0.079772978,0.347023,0.11290794,-0.12516526,0.368141,0.095009284,-0.090992153,0.357009,0.083916215,-0.07141339,0.350515,0.079839964,-0.060708705,0.365031,0.12995063,-0.12144109,0.369174,0.11684089,-0.091772176,0.35921,0.10931422,-0.076863221,0.354113,0.10178097,-0.063508665,0.349478,0.15320091,-0.12247365,0.370853,0.14216094,-0.093216192,0.365351,0.1367407,-0.079837188,0.362824,0.1319564,-0.068096731,0.360593
0.14282317,-0.18267835,0.372883,0.1270976,-0.15405927,0.370618,0.12437067,-0.18885631,0.371829,0.099626534,-0.18926282,0.37679,0.069335537,-0.17492527,0.355918,0.049285825,-0.1616225,0.347681,0.094460301,-0.1328137,0.367707,0.06958526,-0.10014874,0.357686,0.056291311,-0.083908439,0.352675,0.041185245,-0.076476516,0.34812,0.11300578,-0.12472916,0.36846,0.095178806,-0.090617281,0.357646,0.084113248,-0.071045811,0.351338,0.080041187,-0.060297302,0.365951,0.13000378,-0.12094123,0.369325,0.11698401,-0.091343002,0.35965,0.10970136,-0.076445269,0.3547,0.1024941,-0.063046924,0.3502,0.15316042,-0.12188486,0.370755,0.14216833,-0.092671625,0.36537,0.13676783,-0.079305502,0.362896,0.13200031,-0.067573437,0.360713
0.17172652,-0.18115437,0.35473,0.14545859,-0.15418082,0.360162,0.16465057,-0.18930645,0.365862,0.17712341,-0.23194522,0.402842,0.19236148,-0.24080275,0.415944,0.19722696,-0.26175375,0.436563,0.12455022,-0.15226119,0.378348,0.090226435,-0.13117938,0.373513,0.072554546,-0.12034044,0.371096,0.054429541,-0.11302108,0.368898,0.12608827,-0.13430458,0.365334,0.1003694,-0.1102744,0.362241,0.085450375,-0.096334438,0.360436,0.077997814,-0.090113626,0.374484,0.12932383,-0.12152306,0.354032,0.11755272,-0.098871066,0.357378,0.10987006,-0.087405353,0.359089,0.10164922,-0.077120732,0.360645,0.13680781,-0.1102222,0.339893,0.12466924,-0.09178884,0.347118,0.12027861,-0.084133163,0.354,0.11627976,-0.077205763,0.360073
0.12995564,-0.18677915,0.333177,0.15180292,-0.18127132,0.351494,0.12137672,-0.19299643,0.338262,0.12945575,-0.21802037,0.371395,0.13643672,-0.23492767,0.374768,0.14826433,-0.24952666,0.388682,0.15313494,-0.18923036,0.370554,0.1339835,-0.17116521,0.381853,0.12202055,-0.17143171,0.387503,0.12040329,-0.18608314,0.392639,0.16885458,-0.18005553,0.368939,0.15537464,-0.15934314,0.381746,0.14638979,-0.14569752,0.389216,0.14436276,-0.13998098,0.40849,0.18022055,-0.17239083,0.365635,0.16987257,-0.15531683,0.377196,0.16386686,-0.14558265,0.383111,0.15796754,-0.1361162,0.388489,0.19086354,-0.16328347,0.358357,0.21249804,-0.17852781,0.39118,0.2234244,-0.18632688,0.407996,0.23309393,-0.19321057,0.422834
0.11789787,-0.17523974,0.308177,0.14687612,-0.1767476,0.340003,0.11352757,-0.18427695,0.317941,0.10136673,-0.17676321,0.335559,0.09644642,-0.17696266,0.346573,0.10028915,-0.18013654,0.366637,0.16114636,-0.19423652,0.37433,0.14367787,-0.18236459,0.402943,0.13872431,-0.19445952,0.41725,0.14885948,-0.21891577,0.436898,0.17309701,-0.18197587,0.370313,0.16411824,-0.16867426,0.401336,0.15720901,-0.15913518,0.419433,0.15349589,-0.15346179,0.439029,0.1797369,-0.17131089,0.363575,0.17014719,-0.16616822,0.391504,0.16322202,-0.16232027,0.406262,0.15462887,-0.15991723,0.419679,0.18388958,-0.15761001,0.349772,0.19493819,-0.14908007,0.372489,0.18966238,-0.14644866,0.382927,0.1840979,-0.14355015,0.392136
0.11352958,-0.17416593,0.299278,0.14360293,-0.18429606,0.333579,0.11063103,-0.18434403,0.310963,0.099758334,-0.18562247,0.332984,0.097320648,-0.19047938,0.352899,0.10155685,-0.1945939,0.374635,0.15963841,-0.20265306,0.372088,0.14581929,-0.19546873,0.404607,0.13904689,-0.20766744,0.420866,0.14895367,-0.23275258,0.439865,0.17071936,-0.18955764,0.366247,0.16418961,-0.18022388,0.401199,0.15670132,-0.17313536,0.421587,0.15145631,-0.16857477,0.440443,0.17696477,-0.17801216,0.35774,0.16872991,-0.17601505,0.389636,0.16244945,-0.17347582,0.406116,0.15431878,-0.17227227,0.421098,0.17912793,-0.16335768,0.341417,0.19200948,-0.15675432,0.367622,0.18758589,-0.15532817,0.379662,0.18269312,-0.15346385,0.390286
0.11499601,-0.17556728,0.298209,0.15250164,-0.18352885,0.33211,0.1130145,-0.18921873,0.310523,0.1099738,-0.18583361,0.333264,0.10806559,-0.19149444,0.354723,0.11392083,-0.19739639,0.37651,0.16889106,-0.20218552,0.371166,0.15626558,-0.19505713,0.403863,0.15041042,-0.20730417,0.420211,0.16107915,-0.23243017,0.439221,0.17958035,-0.18859801,0.364395,0.17398459,-0.17916637,0.39907,0.16715301,-0.17202716,0.419297,0.16251815,-0.16743045,0.438036,0.18545316,-0.17670433,0.355167,0.17850921,-0.17476857,0.387096,0.17289034,-0.17222966,0.403535,0.1654381,-0.17101924,0.41848,0.18714475,-0.16170936,0.338082,0.20023528,-0.15519941,0.364266,0.19642675,-0.15379556,0.376296,0.19209735,-0.15194982,0.386911
0.11344029,-0.17872865,0.293934,0.15336044,-0.19531509,0.33041,0.11308662,-0.19195069,0.305677,0.13580251,-0.19823973,0.343182,0.14903987,-0.19161611,0.362253,0.16810979,-0.19011793,0.383297,0.17382737,-0.21607022,0.370472,0.1657372,-0.20988959,0.405394,0.15724265,-0.21876053,0.422855,0.16081868,-0.24332835,0.441167,0.18588181,-0.20547261,0.365148,0.18415491,-0.19843388,0.403115,0.17901711,-0.19293504,0.425262,0.17412562,-0.18964048,0.443539,0.19239619,-0.1954434,0.356833,0.19078022,-0.19292302,0.39121,0.18821123,-0.18978773,0.408798,0.18365114,-0.19986166,0.427186,0.19384035,-0.18163453,0.340326,0.22432286,-0.18560871,0.368832,0.22444357,-0.18145021,0.38193,0.22399875,-0.17702553,0.393487
0.11469661,-0.1819248,0.296349,0.15533781,-0.19789496,0.331901,0.11402374,-0.19399361,0.307998,0.13860451,-0.19867048,0.345038,0.15825805,-0.19302511,0.365066,0.18052368,-0.19391106,0.386099,0.17564911,-0.21732002,0.371214,0.17702399,-0.2071692,0.405033,0.16968332,-0.21300422,0.421942,0.16589592,-0.23510413,0.44059,0.19077536,-0.21187188,0.365761,0.19739136,-0.20103094,0.4024,0.19775296,-0.19271637,0.423773,0.19755966,-0.18743956,0.442352,0.1984525,-0.20522925,0.357439,0.20340936,-0.19939948,0.390694,0.20480679,-0.19431576,0.407708,0.20144968,-0.20240924,0.426418,0.20098056,-0.19500674,0.341096,0.233533,-0.20161402,0.368565,0.23692445,-0.19643052,0.381186,0.23960232,-0.19103134,0.392322
0.11521049,-0.1835504,0.297117,0.15745664,-0.20161859,0.332011,0.11389063,-0.19269759,0.309592,0.14397527,-0.19882622,0.346895,0.16900901,-0.19590097,0.368392,0.19411665,-0.2000903,0.389226,0.17867976,-0.21972707,0.371953,0.18913768,-0.20796987,0.405854,0.18383433,-0.21149133,0.422804,0.18144233,-0.2341454,0.441528,0.19328686,-0.21854327,0.365244,0.20913467,-0.20668087,0.401328,0.21561937,-0.19729301,0.422377,0.22035629,-0.1910648,0.440856,0.20059152,-0.21488417,0.355959,0.21315444,-0.20823276,0.3891,0.21906704,-0.20258196,0.406057,0.21733657,-0.20889535,0.424783,0.20246317,-0.20766602,0.338622,0.23825439,-0.22321668,0.367544,0.24699551,-0.21833055,0.380832,0.25471718,-0.21319766,0.392558
0.11862649,-0.18805764,0.299516,0.16870051,-0.20433241,0.333242,0.11741453,-0.19643779,0.312425,0.15842243,-0.20033205,0.349998,0.18171649,-0.19812325,0.372571,0.20724908,-0.20197797,0.392898,0.1903664,-0.22147791,0.372955,0.20043347,-0.20807133,0.406052,0.19587111,-0.21138978,0.422601,0.19444653,-0.23414965,0.441536,0.20336737,-0.21861327,0.365361,0.21964625,-0.20603147,0.400067,0.22651013,-0.19632845,0.420312,0.23203972,-0.19020235,0.438866,0.21033021,-0.21459078,0.355473,0.22353977,-0.20746961,0.387674,0.22981444,-0.20162955,0.404148,0.22911903,-0.2080377,0.423039,0.21185895,-0.20707422,0.337657,0.24797252,-0.2228037,0.366864,0.25720449,-0.21801639,0.380284,0.26536052,-0.2129625,0.392125
0.13473522,-0.19173347,0.297138,0.1831664,-0.21070083,0.332755,0.14021149,-0.19795847,0.308818,0.17388569,-0.20399312,0.346171,0.19697742,-0.20266544,0.368105,0.22395597,-0.20839591,0.389156,0.20223229,-0.22824765,0.372151,0.21779619,-0.21570192,0.406069,0.21655351,-0.2188667,0.423027,0.21623229,-0.2412055,0.441651,0.21715725,-0.22763743,0.366676,0.23929755,-0.21685916,0.403417,0.25021361,-0.2079956,0.424849,0.25869541,-0.20205526,0.443402,0.22580324,-0.22519029,0.358329,0.2440535,-0.21921208,0.391679,0.25316112,-0.21391442,0.408742,0.25501314,-0.22002373,0.427428,0.2294287,-0.21900717,0.341946,0.26468893,-0.23704903,0.372171,0.27581909,-0.23293065,0.386058,0.28571985,-0.22847536,0.398312
0.14224594,-0.19737898,0.294898,0.18249539,-0.21930978,0.331536,0.1392199,-0.20122612,0.306634,0.17289363,-0.21278961,0.344196,0.19601422,-0.21179758,0.366305,0.22254116,-0.2177806,0.387533,0.20198612,-0.23749493,0.371698,0.22046709,-0.22573683,0.406794,0.22043173,-0.22811587,0.424342,0.2181439,-0.24549849,0.442592,0.21701097,-0.2370553,0.366429,0.24001292,-0.22824305,0.404623,0.25142272,-0.22051893,0.426902,0.25970183,-0.21504205,0.445127,0.2256854,-0.23465463,0.358142,0.2446903,-0.23051299,0.392701,0.25417688,-0.22610748,0.410382,0.2557786,-0.23287158,0.428711,0.2292207,-0.22836217,0.341636,0.26464413,-0.24674345,0.372108,0.27585553,-0.24308373,0.386109,0.28582745,-0.23902722,0.398462
0.14753617,-0.20101197,0.289284,0.1889236,-0.22312465,0.327484,0.14786365,-0.20841193,0.298251,0.17614979,-0.2143736,0.333975,0.19352149,-0.21296164,0.354501,0.21724079,-0.21496005,0.376238,0.19919236,-0.24355077,0.365101,0.21492582,-0.2319786,0.399574,0.21711016,-0.23460824,0.41681,0.22000647,-0.25593123,0.434313,0.21839412,-0.24275995,0.363864,0.23975644,-0.23503821,0.403413,0.25070725,-0.22793419,0.426483,0.25894871,-0.21863939,0.444514,0.23105189,-0.23984519,0.358729,0.24898721,-0.23589356,0.393286,0.25617321,-0.22903239,0.410966,0.25866932,-0.23569228,0.428733,0.24019941,-0.23255618,0.345588,0.26889895,-0.25002525,0.375832,0.27934348,-0.24618938,0.389728,0.28858967,-0.24200886,0.401989
0.15048082,-0.20227007,0.289734,0.18912911,-0.22408337,0.327905,0.14832542,-0.20692943,0.298748,0.17878009,-0.21395892,0.334748,0.2016411,-0.21271958,0.355218,0.22831605,-0.22132115,0.376933,0.199664,-0.2425237,0.365563,0.22730196,-0.22949922,0.400039,0.23410128,-0.22899288,0.417276,0.23571126,-0.24628039,0.434802,0.21856396,-0.24422072,0.364258,0.24930875,-0.23866398,0.403776,0.26666864,-0.23201131,0.426827,0.27959191,-0.22689207,0.444872,0.23066999,-0.24655629,0.35907,0.25748965,-0.24283022,0.39362,0.27157215,-0.23877875,0.411296,0.27811146,-0.2436933,0.429082,0.2392575,-0.24382838,0.345873,0.26967756,-0.26521221,0.377454,0.28336354,-0.26261763,0.391965,0.29564155,-0.25954615,0.404768
0.16338279,-0.21466734,0.298645,0.20797067,-0.23857003,0.335109,0.15748762,-0.21643821,0.30912,0.20520229,-0.23107445,0.346817,0.23023926,-0.22976361,0.366853,0.2594069,-0.24011376,0.387974,0.22737997,-0.24916275,0.373511,0.26059975,-0.2400431,0.407262,0.26855237,-0.24266898,0.424137,0.2700983,-0.26259636,0.442535,0.24239267,-0.25555211,0.369836,0.27861266,-0.25154944,0.407314,0.29938537,-0.24758691,0.429176,0.31618876,-0.24553548,0.447753,0.25106961,-0.25888043,0.36288,0.2885731,-0.25763436,0.396343,0.30830788,-0.25526735,0.413464,0.32743822,-0.25371937,0.432007,0.2546378,-0.2594572,0.347952,0.28694942,-0.27939091,0.378171,0.30292874,-0.27799277,0.392055,0.31695616,-0.27616032,0.404306
0.16621028,-0.21748837,0.301406,0.21103327,-0.24055991,0.3376,0.16227506,-0.21954308,0.313456,0.20987784,-0.23327533,0.351191,0.2398577,-0.23451469,0.372293,0.26635308,-0.24500473,0.393331,0.23707278,-0.25589636,0.377869,0.27371698,-0.24809035,0.412769,0.28210152,-0.24947703,0.430219,0.27825853,-0.26676223,0.448593,0.24932219,-0.26157998,0.37207,0.28787649,-0.25796779,0.409765,0.30974815,-0.25384265,0.431754,0.32699409,-0.2513253,0.450026,0.25547211,-0.26393754,0.363393,0.29577166,-0.26463221,0.397674,0.31699699,-0.26325399,0.415213,0.33705111,-0.26203545,0.43364,0.25460996,-0.26052579,0.346519,0.2901764,-0.2867244,0.377061,0.30715994,-0.28580331,0.391094,0.32202728,-0.28429336,0.403476
0.16815836,-0.21902677,0.30285,0.21274629,-0.24132154,0.338568,0.16495836,-0.22064986,0.314978,0.21209631,-0.23401997,0.352667,0.24249936,-0.23613862,0.374871,0.27239914,-0.24811874,0.395824,0.23845753,-0.25640223,0.378616,0.27492543,-0.24827006,0.413068,0.28324192,-0.24952052,0.430294,0.28065561,-0.26708647,0.448823,0.25058848,-0.26194204,0.372585,0.28882711,-0.2578954,0.40965,0.31050997,-0.25355868,0.431271,0.32790415,-0.25112035,0.449659,0.25666006,-0.26421136,0.36377,0.29669547,-0.26456101,0.397567,0.31777264,-0.26302955,0.414859,0.33798371,-0.26190674,0.433427,0.25678004,-0.26290046,0.346824,0.29124576,-0.28685367,0.377231,0.30821976,-0.28588224,0.391202,0.32308013,-0.28433141,0.40353
0.17820058,-0.22992961,0.309735,0.22911885,-0.25217611,0.344501,0.17900114,-0.23416295,0.322177,0.22647764,-0.24785785,0.359988,0.25172608,-0.2461274,0.379632,0.27730724,-0.25224061,0.400106,0.25279348,-0.26672907,0.384311,0.28299563,-0.25685884,0.418041,0.28912067,-0.25947466,0.434907,0.29144022,-0.28036953,0.453673,0.26579317,-0.2689223,0.37761,0.29524303,-0.26167996,0.413504,0.31368641,-0.2562853,0.434442,0.33025063,-0.25384683,0.452962,0.27253703,-0.26879326,0.368346,0.30802053,-0.26630299,0.401319,0.32389884,-0.26420583,0.418188,0.34193486,-0.26318156,0.436957,0.2734125,-0.26536035,0.351058,0.30905681,-0.2856342,0.38079,0.32390169,-0.28353816,0.394451,0.33672399,-0.2810725,0.406505
0.19508181,-0.24088046,0.31533,0.24163909,-0.2549687,0.348316,0.19351453,-0.24171104,0.327277,0.23988016,-0.25081847,0.364288,0.26530824,-0.24883353,0.383806,0.2952329,-0.25759993,0.404046,0.26413773,-0.26809079,0.386273,0.29376978,-0.25663642,0.417679,0.29996581,-0.25856481,0.433382,0.30354581,-0.2797299,0.452638,0.27738427,-0.2704321,0.37973,0.30876124,-0.26273357,0.413045,0.32603631,-0.25682977,0.432478,0.34181781,-0.25476072,0.451478,0.28446074,-0.27057526,0.370788,0.32052191,-0.26694672,0.401462,0.33923417,-0.26353206,0.417156,0.35906091,-0.26217658,0.436407,0.28597784,-0.26774064,0.354207,0.32105912,-0.28725294,0.382948,0.33593546,-0.2847623,0.396154,0.34880471,-0.28197206,0.407806
0.2372462,-0.29494875,0.350095,0.26482658,-0.27560595,0.371016,0.22928468,-0.28957366,0.357083,0.21976927,-0.28751697,0.365095,0.199328,-0.25938726,0.353461,0.19890406,-0.25583287,0.363428,0.27110555,-0.26443313,0.394322,0.27318492,-0.24520655,0.409611,0.27834809,-0.25571231,0.417256,0.29211476,-0.27458579,0.436871,0.28828513,-0.26492858,0.39094,0.30538474,-0.24325245,0.407784,0.30367914,-0.24571689,0.41761,0.31784998,-0.24647443,0.43727,0.30014227,-0.26632125,0.3859,0.30963857,-0.24987335,0.401294,0.31440169,-0.24041479,0.40917,0.32831286,-0.23818191,0.428922,0.30997533,-0.27002286,0.376118,0.32521116,-0.26328332,0.394808,0.33066132,-0.25972634,0.403395,0.3353589,-0.2559457,0.410973
0.23543113,-0.29180227,0.350073,0.2612824,-0.27138375,0.370151,0.22809407,-0.28609887,0.357211,0.25424494,-0.27919525,0.386175,0.25223099,-0.26784579,0.395642,0.26800199,-0.2642484,0.411988,0.2708534,-0.25513407,0.393081,0.27530894,-0.23713588,0.407732,0.27544625,-0.25178705,0.415057,0.28736305,-0.28051676,0.434634,0.28719226,-0.25628449,0.389274,0.29655666,-0.23772637,0.405173,0.30051486,-0.22657168,0.414447,0.31181153,-0.22528287,0.434001,0.29827653,-0.25838329,0.383974,0.30752186,-0.2404109,0.398672,0.31218954,-0.23042226,0.406191,0.32611792,-0.23208327,0.425884,0.3070051,-0.26320735,0.374049,0.32547419,-0.26047667,0.394337,0.33147936,-0.25716378,0.403659,0.33665659,-0.25356079,0.411884
0.29149321,-0.32792734,0.386774,0.28556193,-0.28032984,0.382734,0.26664261,-0.31102459,0.377715,0.23975855,-0.29229946,0.364949,0.21213984,-0.27297169,0.353833,0.20690189,-0.26959474,0.363599,0.25215096,-0.239592,0.368191,0.24672697,-0.23839942,0.360401,0.26302071,-0.2693493,0.380052,0.27171796,-0.28227671,0.390976,0.280077,-0.2478003,0.378887,0.26758532,-0.21122293,0.365831,0.2604218,-0.19306125,0.358216,0.26853834,-0.1912625,0.3705,0.30555328,-0.25496534,0.388129,0.29567847,-0.22236225,0.377377,0.29064097,-0.20594788,0.371876,0.29709055,-0.20301521,0.384447,0.33712647,-0.27208983,0.399617,0.32678585,-0.23664973,0.38956,0.32324539,-0.22301472,0.384939,0.32026934,-0.21151233,0.380862
0.29549706,-0.32898384,0.388666,0.28991172,-0.28304088,0.38561,0.27261565,-0.31479018,0.382344,0.24640907,-0.31328247,0.365031,0.22154059,-0.30344252,0.361013,0.21804601,-0.30443101,0.374683,0.25881067,-0.24523452,0.375302,0.23960772,-0.21006922,0.364889,0.25328364,-0.22345277,0.385578,0.26651922,-0.24511774,0.397952,0.28535387,-0.24940282,0.3827,0.27245243,-0.21348315,0.371226,0.2653208,-0.19110622,0.364532,0.27290712,-0.18491545,0.378176,0.30833558,-0.25626576,0.389122,0.29817476,-0.22391217,0.37818,0.29298796,-0.20755462,0.372582,0.30281646,-0.20252549,0.386024,0.3371505,-0.27082815,0.39715,0.32741951,-0.2362522,0.388244,0.32403742,-0.22257245,0.384152,0.32132986,-0.21151746,0.380541
0.29448894,-0.33176745,0.38866,0.29041796,-0.2873902,0.385264,0.27256857,-0.31820541,0.383388,0.23819075,-0.30172312,0.366164,0.21250707,-0.28619101,0.357131,0.20759896,-0.28414252,0.367993,0.26020065,-0.2530845,0.376092,0.23987907,-0.21424356,0.363715,0.25225861,-0.2253138,0.384641,0.26624149,-0.24854984,0.397886,0.28587209,-0.25736459,0.382029,0.27209611,-0.21763558,0.369179,0.2646919,-0.19714522,0.361683,0.27287956,-0.19265487,0.375222,0.30782625,-0.26439255,0.387285,0.29700307,-0.23148447,0.374915,0.29149093,-0.21490537,0.368586,0.30151218,-0.21043693,0.381865,0.33492094,-0.27920208,0.394024,0.32756256,-0.24586994,0.387329,0.32542561,-0.23267605,0.384254,0.3239638,-0.22261003,0.38154
0.29531535,-0.3343735,0.39021,0.29083671,-0.29242314,0.386163,0.27365075,-0.32072036,0.385046,0.24024035,-0.30307102,0.367708,0.21397554,-0.28651547,0.357648,0.20889347,-0.28376727,0.367797,0.262385,-0.25372375,0.37669,0.24291012,-0.21475346,0.363486,0.2551246,-0.22745626,0.384405,0.26729857,-0.24869245,0.397972,0.28786641,-0.25809924,0.382309,0.27609892,-0.21890517,0.368769,0.269261,-0.19654319,0.360871,0.27854625,-0.1904866,0.374251,0.30959973,-0.26524213,0.387373,0.29896985,-0.23234004,0.374404,0.29627591,-0.2170835,0.367769,0.3039144,-0.21141204,0.380895,0.33633509,-0.28022492,0.394011,0.32954844,-0.24688034,0.387361,0.32779403,-0.2339258,0.384306,0.32668914,-0.22414557,0.38161
0.29421254,-0.33375541,0.388681,0.29241591,-0.29097713,0.387317,0.27394068,-0.32152194,0.385272,0.24242432,-0.30575708,0.370728,0.21690984,-0.29085233,0.362714,0.21232741,-0.28903444,0.374064,0.2663826,-0.25702016,0.381951,0.24860262,-0.21964439,0.371692,0.26078099,-0.23149076,0.392536,0.27384824,-0.25412709,0.406882,0.29093458,-0.26031844,0.386019,0.28608569,-0.22553141,0.380457,0.28503667,-0.20795915,0.377212,0.29849029,-0.20916261,0.393035,0.31156041,-0.26638893,0.389515,0.30658074,-0.23275489,0.380493,0.30388898,-0.2165137,0.375878,0.3172601,-0.21451872,0.390498,0.33644186,-0.27973794,0.393829,0.33243947,-0.24849106,0.39031,0.33199689,-0.23654003,0.388693,0.33203509,-0.22762814,0.387266
0.29632777,-0.33671862,0.390864,0.29361462,-0.29449324,0.38798,0.27489276,-0.32305654,0.385779,0.25496833,-0.32129651,0.38868,0.22307366,-0.29695178,0.362043,0.20943147,-0.28866594,0.358129,0.26769626,-0.25771578,0.379399,0.24766789,-0.21894753,0.367837,0.26718319,-0.23273069,0.38885,0.27560816,-0.25224001,0.401806,0.29331307,-0.26235777,0.385234,0.28376642,-0.22452561,0.374274,0.27837203,-0.20345774,0.367881,0.28893868,-0.19911272,0.382004,0.31493285,-0.26962447,0.39035,0.31225005,-0.23861975,0.380223,0.31020198,-0.22228898,0.375042,0.32514331,-0.2219077,0.389035,0.34113968,-0.28453712,0.396831,0.34829486,-0.25912194,0.399559,0.35157668,-0.2469775,0.400813,0.35447613,-0.23623703,0.401919
0.30072923,-0.34182195,0.395746,0.30189165,-0.30037694,0.391227,0.27842849,-0.32728839,0.388682,0.25864523,-0.32480554,0.381564,0.22180606,-0.29258708,0.350888,0.20367375,-0.27580615,0.342191,0.27677132,-0.25912226,0.378958,0.25632254,-0.21828969,0.364376,0.26213417,-0.21451928,0.37435,0.27719214,-0.22340899,0.393501,0.30372351,-0.26622587,0.386923,0.29438962,-0.2273651,0.372697,0.28916337,-0.20540622,0.364399,0.30026208,-0.19969599,0.37711,0.32642236,-0.27566374,0.393969,0.31103371,-0.23838088,0.379141,0.30763758,-0.23117886,0.371555,0.32125885,-0.24764087,0.383634,0.35381524,-0.29338945,0.402997,0.35107934,-0.26162824,0.40125,0.35158531,-0.24807211,0.400448,0.35303959,-0.23694775,0.39974
0.300885,-0.34248412,0.395736,0.30076544,-0.29994581,0.391737,0.27888058,-0.32768755,0.389654,0.25815473,-0.3248023,0.382732,0.21829111,-0.29316837,0.352132,0.20380385,-0.27832956,0.343431,0.27480016,-0.26065387,0.381099,0.25717718,-0.22014444,0.367472,0.25746917,-0.21233891,0.369218,0.27173446,-0.22192825,0.386739,0.30100524,-0.26658211,0.387928,0.29430751,-0.22836986,0.374344,0.28938926,-0.20654543,0.36642,0.30077832,-0.20100078,0.379574,0.32304557,-0.2750048,0.393982,0.31091432,-0.23908676,0.380049,0.30770244,-0.23244117,0.372921,0.32168498,-0.24962723,0.38554,0.34965146,-0.29143833,0.401761,0.34988714,-0.26158046,0.400458,0.35036604,-0.2481519,0.399859,0.35216622,-0.23766354,0.399331
0.30065806,-0.34273002,0.39519,0.30315488,-0.30183133,0.392043,0.28043397,-0.32996478,0.390577,0.25725045,-0.32537783,0.386323,0.21920205,-0.29645363,0.356599,0.20419595,-0.28290043,0.349164,0.27995615,-0.26309949,0.383899,0.28093623,-0.22515547,0.37442,0.28364171,-0.20896719,0.372782,0.29973241,-0.20326388,0.388914,0.30491829,-0.26858315,0.389047,0.29883146,-0.23086624,0.376542,0.29486551,-0.20930191,0.369248,0.30552146,-0.20365315,0.383015,0.32557044,-0.27655604,0.393625,0.31190529,-0.24063757,0.381036,0.31065929,-0.23999407,0.374595,0.32514316,-0.26025214,0.387941,0.34998889,-0.29226216,0.399531,0.35008868,-0.26305929,0.398947,0.35037098,-0.24980594,0.398678,0.35186105,-0.23813053,0.398441
0.30209531,-0.3478064,0.397027,0.30488946,-0.30438502,0.392629,0.28193608,-0.33382859,0.392576,0.25792648,-0.32801021,0.386316,0.21856486,-0.29816451,0.356067,0.20332956,-0.28263462,0.347312,0.28231885,-0.26624011,0.383845,0.26657476,-0.22755602,0.371656,0.26510011,-0.22421,0.365562,0.27936927,-0.2461825,0.379142,0.30664244,-0.27234065,0.388441,0.29956081,-0.23303054,0.375018,0.29569698,-0.21101667,0.367188,0.30843716,-0.20580536,0.380734,0.32668194,-0.28089793,0.392699,0.31865455,-0.25053797,0.37975,0.31558918,-0.23620954,0.373125,0.3299367,-0.23698227,0.386391,0.35024855,-0.30060431,0.398469,0.34810776,-0.26957237,0.395305,0.35057482,-0.25978705,0.393852,0.35285397,-0.25091015,0.392569
0.30230874,-0.34673542,0.396449,0.30514465,-0.30516797,0.392639,0.28100917,-0.33286485,0.390595,0.25673025,-0.32672559,0.386167,0.22014867,-0.2994092,0.356375,0.20553757,-0.28410318,0.348881,0.28065829,-0.26610012,0.382428,0.26264104,-0.22677567,0.369011,0.25533913,-0.21786588,0.362302,0.26850921,-0.23514232,0.375225,0.30662837,-0.27317172,0.389011,0.29624707,-0.23073407,0.375654,0.28846096,-0.21011254,0.367863,0.30330938,-0.20427095,0.381134,0.32822033,-0.28253046,0.394843,0.317529,-0.24781956,0.381879,0.3127685,-0.23192814,0.375246,0.32601108,-0.22421017,0.388214,0.35383608,-0.30003909,0.402328,0.34786772,-0.26511276,0.393534,0.34842111,-0.25572961,0.389494,0.34886133,-0.24617478,0.385929
0.30287723,-0.34921032,0.396605,0.30693027,-0.31055451,0.392896,0.2842154,-0.33686162,0.391477,0.26244676,-0.3292429,0.390358,0.22903289,-0.30173882,0.361992,0.21613187,-0.28885431,0.35582,0.28308272,-0.27421037,0.383698,0.26356448,-0.23331208,0.370193,0.25618311,-0.21797287,0.363441,0.26562021,-0.22208522,0.376503,0.30815831,-0.27749779,0.389363,0.29947893,-0.2372589,0.376191,0.2917227,-0.21584227,0.368507,0.30511866,-0.20698719,0.381993,0.32908989,-0.28623096,0.394428,0.32075257,-0.25250543,0.381786,0.31711401,-0.23679829,0.375318,0.32967296,-0.23267079,0.388548,0.35383495,-0.30293612,0.401005,0.34955208,-0.26773713,0.394175,0.35054797,-0.25674341,0.391036,0.3514998,-0.24687362,0.388267
0.31035951,-0.36038514,0.401263,0.31473608,-0.32216368,0.39578,0.29304483,-0.34921224,0.396694,0.27372923,-0.34054516,0.394784,0.24162732,-0.31317792,0.36683,0.22986456,-0.30015212,0.359543,0.28666157,-0.28408047,0.386104,0.26444566,-0.24299375,0.371327,0.25510897,-0.22657819,0.363938,0.26174747,-0.23589746,0.376714,0.31147269,-0.28759179,0.390557,0.2976431,-0.24600326,0.375551,0.29010345,-0.22320182,0.366798,0.30024364,-0.2186731,0.379878,0.33242171,-0.29405032,0.394815,0.32124694,-0.259454,0.381,0.31564513,-0.24226508,0.373932,0.32857551,-0.2361556,0.386899,0.35792179,-0.30814571,0.400787,0.35244504,-0.27211404,0.394204,0.35274493,-0.25955328,0.39118,0.35212454,-0.24808452,0.388511
0.30948603,-0.36369252,0.399735,0.30852507,-0.32962513,0.394668,0.29169436,-0.35402005,0.395073,0.26484851,-0.34404641,0.389364,0.23101122,-0.31045148,0.362481,0.21678677,-0.29424373,0.357638,0.28407163,-0.28913966,0.385155,0.26452409,-0.24456628,0.370742,0.25822288,-0.23075346,0.363535,0.26602362,-0.23646811,0.376411,0.30866867,-0.29471876,0.389843,0.30205457,-0.25593594,0.381275,0.29916571,-0.23472987,0.376277,0.3107015,-0.22809902,0.391265,0.32903683,-0.30290089,0.394249,0.31960641,-0.26819405,0.380296,0.3148338,-0.25086956,0.373158,0.32390431,-0.24952781,0.386075,0.35318678,-0.31906344,0.400315,0.35170291,-0.28591886,0.393892,0.35270053,-0.27308546,0.390941,0.35382907,-0.26213292,0.388337
0.3088328,-0.36186901,0.398731,0.31188397,-0.32448039,0.394525,0.29044387,-0.35062889,0.393571,0.27054069,-0.34296041,0.392683,0.23617941,-0.31153831,0.364682,0.22132334,-0.29434275,0.358303,0.28665362,-0.28346665,0.384948,0.26581838,-0.24414644,0.371469,0.26056055,-0.23119528,0.364729,0.27315836,-0.2401477,0.377794,0.31214683,-0.28817551,0.390519,0.30217352,-0.24884629,0.379318,0.29687849,-0.22701574,0.372784,0.3083477,-0.22451798,0.386891,0.33349309,-0.29554322,0.395561,0.32473864,-0.26083581,0.383176,0.32299176,-0.24347743,0.376839,0.33350911,-0.24090084,0.390143,0.35911437,-0.31056939,0.402203,0.35426106,-0.27661779,0.395209,0.35450483,-0.26444111,0.391996,0.35470184,-0.25660011,0.38916
0.30669592,-0.35837132,0.39691,0.31107825,-0.31917177,0.393531,0.2871575,-0.34607073,0.391486,0.26644794,-0.3423539,0.389571,0.23014918,-0.30942297,0.360837,0.2157606,-0.29337589,0.35433,0.28527667,-0.27994083,0.384172,0.26771882,-0.24031626,0.371556,0.26411101,-0.23073638,0.365248,0.27759765,-0.2422834,0.378505,0.31159278,-0.28741653,0.390313,0.30162239,-0.24718334,0.377465,0.29863615,-0.22549416,0.36997,0.31120506,-0.22158257,0.383476,0.33296821,-0.29554618,0.395733,0.33506059,-0.26734567,0.393821,0.33696567,-0.25257077,0.392842,0.35397635,-0.25037143,0.409175,0.35836256,-0.31140395,0.40266,0.35501805,-0.27791278,0.396188,0.35689823,-0.26795161,0.393215,0.35776027,-0.25998843,0.390591
0.30827767,-0.36148647,0.398405,0.31156137,-0.31995945,0.394015,0.28878731,-0.34918373,0.392536,0.26407045,-0.33950218,0.38518,0.22796201,-0.31210847,0.354508,0.21090234,-0.29490404,0.345415,0.28562609,-0.2812367,0.38339,0.26602842,-0.24026314,0.37006,0.26380093,-0.23069396,0.363394,0.27716995,-0.24168207,0.376345,0.3113562,-0.28707011,0.389834,0.3014148,-0.24666373,0.376376,0.29844706,-0.22530028,0.368526,0.31137235,-0.22178998,0.381771,0.33280238,-0.29540143,0.395613,0.33363626,-0.26605408,0.392333,0.33482306,-0.25146379,0.390655,0.35117476,-0.2491572,0.406576,0.35839666,-0.31163264,0.403146,0.35533588,-0.27820816,0.396726,0.35781458,-0.26894427,0.393776,0.35992097,-0.2628887,0.391173
0.30453768,-0.35893199,0.393021,0.31080865,-0.32282353,0.393508,0.28610376,-0.34670297,0.388905,0.26545973,-0.34190255,0.387498,0.22662349,-0.30855699,0.3588,0.21418006,-0.29243517,0.352989,0.28980681,-0.2850721,0.388479,0.27810461,-0.24679237,0.380199,0.27604322,-0.2377577,0.37606,0.29018413,-0.24990129,0.390764,0.31452278,-0.29247594,0.393973,0.31341473,-0.2558258,0.386345,0.31340809,-0.23577257,0.381896,0.32919456,-0.23302494,0.396982,0.33476493,-0.30235545,0.398444,0.33984228,-0.27492098,0.398094,0.34324505,-0.26155969,0.397915,0.36026496,-0.2571401,0.414736,0.35688535,-0.32040758,0.403543,0.36228523,-0.28950955,0.401145,0.36780336,-0.28104825,0.400043,0.37127142,-0.2715339,0.399071
0.30612951,-0.36186122,0.394028,0.31116936,-0.32301038,0.393616,0.28717564,-0.34842485,0.389018,0.27073024,-0.34931341,0.390327,0.23282417,-0.31585814,0.362815,0.2205238,-0.30580005,0.358343,0.28864947,-0.28394297,0.386812,0.27776958,-0.2459431,0.378893,0.27604167,-0.23727344,0.374934,0.28997671,-0.24868573,0.389591,0.31444485,-0.29034217,0.393225,0.31169072,-0.25370427,0.385607,0.31165879,-0.23415968,0.381163,0.32373151,-0.22974303,0.396096,0.33549434,-0.29886083,0.39855,0.33879254,-0.27144704,0.397712,0.34220358,-0.25867028,0.397284,0.35932874,-0.25605465,0.413835,0.35959669,-0.31553217,0.404808,0.36241624,-0.28692295,0.39951,0.36308463,-0.27211414,0.397076,0.36647773,-0.26391266,0.394928
0.30851447,-0.3638792,0.393766,0.31770489,-0.32391632,0.394858,0.29142601,-0.35099169,0.389439,0.28262013,-0.35101066,0.393001,0.24390356,-0.32208955,0.366553,0.22743012,-0.31129924,0.363326,0.29381785,-0.28746663,0.389963,0.28416853,-0.25124606,0.385829,0.28509356,-0.24336027,0.383762,0.29924744,-0.25472777,0.399572,0.31906622,-0.29354782,0.395898,0.31750294,-0.25735228,0.389842,0.31735968,-0.23719283,0.38631,0.33186325,-0.23363499,0.401747,0.34344466,-0.29923397,0.400668,0.34587924,-0.27049416,0.396998,0.34761654,-0.25626134,0.39512,0.3595553,-0.25526082,0.411047,0.36785786,-0.31224777,0.405999,0.37143403,-0.28210652,0.401904,0.37320764,-0.26846135,0.400022,0.37492775,-0.26457022,0.398362
0.30931425,-0.36375281,0.393379,0.32237518,-0.32431481,0.395075,0.29075546,-0.35141159,0.389312,0.28297402,-0.35138185,0.393471,0.2444264,-0.32169111,0.367323,0.23093565,-0.31092521,0.364426,0.29930799,-0.28976711,0.390929,0.28736532,-0.25413623,0.389371,0.29185612,-0.25454057,0.388592,0.31055097,-0.27852724,0.405083,0.32467375,-0.29422735,0.396691,0.32258451,-0.25836498,0.391184,0.32090232,-0.23869464,0.387972,0.33493759,-0.23487743,0.403578,0.34537562,-0.30097433,0.401252,0.34601513,-0.27141228,0.396437,0.34678698,-0.25676907,0.393974,0.35924748,-0.25464934,0.409615,0.36929804,-0.3144942,0.406228,0.37280414,-0.28461564,0.401725,0.37448718,-0.27096958,0.399656,0.37552579,-0.26341994,0.39783
0.30707691,-0.38360937,0.39773,0.31646836,-0.34927399,0.396542,0.28978719,-0.36752864,0.395059,0.27519332,-0.35639335,0.394539,0.24315978,-0.31836835,0.366723,0.23132675,-0.30262471,0.360508,0.301333,-0.2986031,0.392257,0.28845988,-0.25611521,0.383278,0.28520007,-0.24818259,0.378788,0.29685424,-0.25061209,0.393567,0.32417103,-0.30661027,0.395411,0.3231269,-0.26210257,0.386132,0.31962978,-0.23548276,0.380719,0.33330663,-0.23017557,0.395637,0.34274075,-0.31575113,0.398137,0.3440025,-0.26886142,0.393842,0.34735888,-0.24601274,0.391645,0.35010373,-0.22602397,0.389648,0.36442519,-0.33183096,0.401524,0.37107364,-0.28739272,0.39953,0.37334102,-0.27023766,0.398614,0.37674303,-0.25762013,0.397805
0.30738334,-0.3870253,0.397815,0.3160721,-0.34936361,0.396313,0.29044072,-0.36992918,0.395338,0.2751534,-0.35673973,0.394519,0.24364355,-0.31990817,0.36663,0.23219782,-0.3023022,0.360207,0.30108898,-0.29872839,0.392067,0.28821793,-0.25600425,0.382882,0.28497434,-0.24805263,0.378289,0.29653622,-0.25092065,0.39303,0.32369058,-0.30655236,0.394883,0.32241285,-0.26192168,0.385315,0.31974235,-0.23534057,0.379734,0.33362038,-0.22933963,0.394599,0.34206965,-0.31555951,0.397363,0.34218558,-0.26695316,0.391148,0.34515267,-0.24442476,0.387968,0.34736858,-0.2245018,0.385077,0.36355146,-0.33151724,0.400525,0.3711757,-0.28833393,0.39965,0.37419506,-0.27081066,0.399248,0.37796116,-0.25710424,0.398894
0.30689562,-0.39340705,0.398178,0.31582624,-0.3493601,0.397093,0.29131745,-0.36735781,0.395465,0.27114797,-0.35125278,0.389375,0.24000846,-0.31449006,0.364456,0.23421854,-0.30043684,0.362468,0.30170289,-0.29832361,0.392822,0.29053542,-0.25674507,0.385082,0.2885866,-0.24926893,0.381212,0.29972707,-0.25312252,0.396361,0.32445453,-0.30686665,0.396059,0.33084534,-0.26161518,0.387109,0.33141067,-0.25941224,0.381888,0.34119691,-0.28547994,0.396889,0.34291917,-0.31644328,0.398842,0.34150956,-0.26662363,0.390157,0.34307132,-0.24349861,0.385713,0.34411677,-0.22274683,0.381673,0.36439435,-0.33304297,0.402276,0.37041582,-0.29027232,0.399757,0.37261702,-0.27127136,0.3986,0.37614135,-0.25954339,0.397579
0.31660333,-0.37231714,0.400827,0.32448779,-0.32950949,0.400791,0.29189305,-0.35036233,0.38898,0.30921496,-0.32578669,0.394438,0.29940528,-0.28501396,0.368918,0.31142511,-0.27499188,0.367118,0.30209472,-0.27175711,0.385335,0.31144252,-0.25208509,0.405577,0.32569335,-0.2525104,0.415699,0.34476202,-0.27070726,0.431549,0.33287573,-0.28978251,0.400755,0.34145492,-0.25320163,0.404198,0.35348557,-0.24353374,0.406206,0.37214596,-0.25696577,0.420578,0.35867433,-0.30728545,0.413458,0.3598572,-0.26100447,0.400803,0.36059953,-0.23690885,0.394328,0.36136213,-0.2147354,0.388441,0.38957799,-0.33346526,0.428209,0.38767078,-0.28702906,0.416842,0.38679221,-0.26570702,0.41162,0.38701392,-0.25901088,0.407012
0.31697406,-0.37221185,0.399914,0.32397067,-0.32884988,0.399948,0.29239047,-0.34898881,0.387976,0.30959517,-0.32574727,0.394923,0.29950002,-0.28509057,0.370227,0.31063259,-0.27390604,0.369127,0.30137816,-0.27071932,0.384421,0.31159994,-0.25181314,0.405782,0.32629193,-0.25254873,0.416463,0.34525414,-0.27063568,0.432165,0.332232,-0.28881607,0.39998,0.3414338,-0.2527872,0.404173,0.35384409,-0.2433613,0.406618,0.37254502,-0.25678876,0.421029,0.35809397,-0.30637081,0.412789,0.35929246,-0.26017164,0.400174,0.36004354,-0.2361172,0.39372,0.36081512,-0.21398095,0.387853,0.38906942,-0.33259737,0.42765,0.3871974,-0.28624618,0.416333,0.38633553,-0.264961,0.411134,0.38745924,-0.25818729,0.406546
0.29836063,-0.3432613,0.393313,0.31673909,-0.30522832,0.396358,0.28014984,-0.31293626,0.382232,0.30578125,-0.30017948,0.394479,0.30191889,-0.2644922,0.3731,0.31616971,-0.25585944,0.374846,0.30495938,-0.24987558,0.383994,0.32384066,-0.232481,0.408288,0.3420794,-0.23336779,0.420435,0.36068667,-0.25029563,0.436161,0.33361201,-0.27060542,0.399259,0.35267721,-0.23931991,0.4067,0.36998519,-0.23136135,0.411041,0.38978364,-0.24406262,0.426114,0.35687812,-0.29004913,0.411501,0.36904502,-0.24759082,0.401901,0.37555967,-0.22536244,0.396989,0.38166766,-0.20483269,0.392524,0.38322495,-0.3179129,0.425139,0.39178745,-0.27499909,0.416391,0.3957454,-0.25523026,0.412372,0.40231349,-0.248181,0.408826
0.29851532,-0.34315301,0.393558,0.31706773,-0.30538834,0.396851,0.28043834,-0.31300368,0.382636,0.30659285,-0.30080018,0.395586,0.30351141,-0.26572649,0.374706,0.31826767,-0.25752907,0.376795,0.30559184,-0.25033272,0.384862,0.32447903,-0.23293801,0.409165,0.34271131,-0.23311713,0.421316,0.36181244,-0.24889713,0.43714,0.3341277,-0.27096567,0.399988,0.35371888,-0.24004912,0.408038,0.37144912,-0.23149303,0.412734,0.39202484,-0.24305562,0.427983,0.35726478,-0.29030284,0.412089,0.36966626,-0.24803612,0.402763,0.376312,-0.22588814,0.397992,0.38254452,-0.20541929,0.393654,0.38340688,-0.31799035,0.425516,0.39215839,-0.27526844,0.416991,0.39620844,-0.25557479,0.413074,0.40285285,-0.24857962,0.409617
0.30444732,-0.34566092,0.396558,0.32832515,-0.30586202,0.398029,0.28580817,-0.31504978,0.385209,0.31679221,-0.30085422,0.39515,0.31180032,-0.26492178,0.372265,0.32542817,-0.25585206,0.372682,0.31446585,-0.2494852,0.384245,0.33273643,-0.23148709,0.407706,0.35089609,-0.22875993,0.419437,0.37204158,-0.23951518,0.43521,0.34343571,-0.26996603,0.399429,0.3634341,-0.23933298,0.40823,0.3820498,-0.22829454,0.413364,0.40537312,-0.23534347,0.42867,0.36713399,-0.28932114,0.411775,0.37906625,-0.24854524,0.400641,0.3856015,-0.22703329,0.394944,0.39182348,-0.20705371,0.389765,0.39431563,-0.31730642,0.425828,0.40133062,-0.27360282,0.415746,0.40455418,-0.25352253,0.411114,0.41069686,-0.24626055,0.407027
0.30931795,-0.34593736,0.396937,0.33893556,-0.30595346,0.398148,0.29825852,-0.31514441,0.385468,0.32914499,-0.30162781,0.39678,0.3244087,-0.26603637,0.374829,0.33844526,-0.25725355,0.375852,0.3240541,-0.2493469,0.384032,0.34263363,-0.23144677,0.407635,0.36147941,-0.22875939,0.419436,0.38338091,-0.23946785,0.435124,0.35340293,-0.2698802,0.399302,0.37348913,-0.23937285,0.408298,0.39270646,-0.22839506,0.413546,0.41683901,-0.23542912,0.428826,0.37746271,-0.28930077,0.411746,0.38937771,-0.24835789,0.400339,0.39590338,-0.22678035,0.394504,0.40211468,-0.20675304,0.389199,0.40516246,-0.31740627,0.425962,0.41195996,-0.27354293,0.415655,0.41507686,-0.25340228,0.410919,0.42140895,-0.24608751,0.406741
0.33028241,-0.34048299,0.40137,0.34768408,-0.2903101,0.4008,0.31332206,-0.30089037,0.388678,0.33835155,-0.28639792,0.398541,0.33275967,-0.25147897,0.375632,0.34617223,-0.24223218,0.375906,0.33008666,-0.23255026,0.38388,0.34623576,-0.21157109,0.404619,0.36484864,-0.20818736,0.414988,0.38732499,-0.21858504,0.43009,0.36023508,-0.25284138,0.400256,0.37817899,-0.22029638,0.406776,0.39709959,-0.20896577,0.410579,0.42143933,-0.21554239,0.42488,0.38510631,-0.27218147,0.413803,0.39674603,-0.23171215,0.400445,0.40318126,-0.2103738,0.39361,0.40934909,-0.19055848,0.387397,0.41402323,-0.30039738,0.429635,0.42049973,-0.25686039,0.417771,0.42350088,-0.23680694,0.41232,0.43003515,-0.22995284,0.407511
0.39623731,-0.33784808,0.435806,0.38989623,-0.28552419,0.424849,0.36972783,-0.31246543,0.424336,0.37002728,-0.2859199,0.421771,0.33433968,-0.25590309,0.401764,0.33522746,-0.24099231,0.40307,0.35383006,-0.22664201,0.40247,0.36488629,-0.19349022,0.403412,0.37069747,-0.17648813,0.403883,0.39037857,-0.16694918,0.418984,0.38366165,-0.23806019,0.414414,0.38548135,-0.21951066,0.397058,0.37690772,-0.23690128,0.386935,0.38068953,-0.25683354,0.39702,0.40976513,-0.2506339,0.42543,0.40498203,-0.20270106,0.419461,0.40541741,-0.17910268,0.416407,0.41227191,-0.1674685,0.413631,0.4433207,-0.27195978,0.440277,0.42952226,-0.22556498,0.430491,0.43272954,-0.21189116,0.425995,0.4367175,-0.2018267,0.422027
0.39478651,-0.32971804,0.434252,0.39168028,-0.27325363,0.426079,0.36726492,-0.3027642,0.421028,0.36605713,-0.26443434,0.413612,0.33396696,-0.23733913,0.397304,0.33956146,-0.22505676,0.40328,0.35683881,-0.21445672,0.403306,0.37303107,-0.18304477,0.407669,0.38147501,-0.16689108,0.409851,0.40192379,-0.15672071,0.424336,0.38850617,-0.22867303,0.418296,0.39382326,-0.20678878,0.40018,0.38487528,-0.22315952,0.389612,0.38605929,-0.24277542,0.39841,0.41587873,-0.24337585,0.43152,0.41487558,-0.19637641,0.427423,0.41778207,-0.17290762,0.425327,0.42777213,-0.16027107,0.423421,0.45034763,-0.26688772,0.448406,0.43754374,-0.22131649,0.438867,0.44265715,-0.20668599,0.434485,0.44840975,-0.19564719,0.430617
0.38591365,-0.31018191,0.424628,0.39120078,-0.26270952,0.425749,0.36252771,-0.28607531,0.415195,0.36469911,-0.25301733,0.412245,0.33607931,-0.22886288,0.399939,0.34264595,-0.21819481,0.409104,0.3663596,-0.21049298,0.414223,0.38016392,-0.17681725,0.415646,0.38735018,-0.15970209,0.416358,0.40876031,-0.14920406,0.43177,0.39623977,-0.22336689,0.426816,0.41136183,-0.1979515,0.418799,0.41128031,-0.21559901,0.414122,0.41648157,-0.23723948,0.427155,0.42100996,-0.2363628,0.437066,0.42114207,-0.1886007,0.432401,0.42466134,-0.16483707,0.430014,0.43497822,-0.15269159,0.427845,0.45043895,-0.25671121,0.448751,0.44435745,-0.21489787,0.445943,0.45274792,-0.20128538,0.444652,0.46154334,-0.19099136,0.443514
0.37482055,-0.29152322,0.413399,0.38458853,-0.24852222,0.419531,0.35434027,-0.27010608,0.406954,0.3687167,-0.24621841,0.418047,0.33436226,-0.21749429,0.39825,0.33676151,-0.20340688,0.401099,0.36651257,-0.20102315,0.4153,0.36419297,-0.16428915,0.414106,0.36302857,-0.14579098,0.413509,0.37927052,-0.13454063,0.429022,0.39469089,-0.21227731,0.425371,0.40138959,-0.17196283,0.425325,0.40530295,-0.14841034,0.425298,0.42375921,-0.13637879,0.441184,0.4174302,-0.22361326,0.433004,0.42324161,-0.1782498,0.431672,0.42929789,-0.15519204,0.430991,0.43736379,-0.13506212,0.430372,0.44337191,-0.2413826,0.44071,0.45051063,-0.20187486,0.440031,0.45744989,-0.18382871,0.439718,0.46366008,-0.16769397,0.439443
0.37405944,-0.28013212,0.412229,0.38575791,-0.23707756,0.418283,0.35372628,-0.25902724,0.405997,0.36960779,-0.23481519,0.418354,0.33567044,-0.20445841,0.397177,0.33672226,-0.18960638,0.398632,0.3680677,-0.18981007,0.414277,0.36530025,-0.15258236,0.412189,0.36391405,-0.1338698,0.411145,0.38044088,-0.12199259,0.426521,0.39588608,-0.20085837,0.424049,0.40274994,-0.16043586,0.423821,0.40676226,-0.13680819,0.423688,0.42554483,-0.12432222,0.439621,0.4182852,-0.2120219,0.431444,0.42435937,-0.16671528,0.430049,0.43067515,-0.14357988,0.429336,0.43908021,-0.12329376,0.428687,0.44377264,-0.2295791,0.438889,0.45132394,-0.19044342,0.43848,0.45859753,-0.17244241,0.438293,0.46510946,-0.15633059,0.438127
0.37337902,-0.26715935,0.41025,0.38667299,-0.22496723,0.418286,0.35388276,-0.24629141,0.404451,0.37205393,-0.22091415,0.417203,0.33700632,-0.19233752,0.396187,0.33925685,-0.17773719,0.398152,0.3720728,-0.17856664,0.416189,0.37476641,-0.14288538,0.417578,0.37611599,-0.12498651,0.418273,0.3899095,-0.1123001,0.432854,0.39939582,-0.19025682,0.425939,0.40837151,-0.15153079,0.428299,0.41536896,-0.12845362,0.429675,0.43677161,-0.11565213,0.446162,0.42107408,-0.20182273,0.433102,0.43428296,-0.15898944,0.435136,0.44340363,-0.13669863,0.436176,0.45181804,-0.11609128,0.437122,0.44515002,-0.21960741,0.439906,0.46029732,-0.1860363,0.445556,0.47063236,-0.1697514,0.448152,0.47981193,-0.15524368,0.450442
0.37701248,-0.26409726,0.412067,0.38911573,-0.22184004,0.418657,0.35775239,-0.23775161,0.405627,0.37824866,-0.21588261,0.417796,0.34263836,-0.18722386,0.396419,0.34183459,-0.17498106,0.39793,0.37277276,-0.17204124,0.414742,0.37398147,-0.13543103,0.414636,0.37459353,-0.11691024,0.414583,0.38858007,-0.10774546,0.43038,0.40101487,-0.18277343,0.424933,0.40903465,-0.14234995,0.42551,0.41542468,-0.11829328,0.425846,0.43461011,-0.10962732,0.441831,0.42375988,-0.19365594,0.432615,0.43303086,-0.14970969,0.433043,0.44002419,-0.12681089,0.433262,0.44646715,-0.10570366,0.433461,0.44964299,-0.21083354,0.440292,0.4621503,-0.17602511,0.444761,0.47113676,-0.15905963,0.446814,0.47911776,-0.14395735,0.448626
0.37814024,-0.26176959,0.411706,0.3918867,-0.21837715,0.418381,0.35883831,-0.23661739,0.405235,0.37915645,-0.21584529,0.417725,0.34366993,-0.18727978,0.396572,0.3457893,-0.17242998,0.398255,0.37343666,-0.17189861,0.414485,0.37455322,-0.13524398,0.414269,0.37511896,-0.1167081,0.414161,0.38907461,-0.10624187,0.429899,0.40175561,-0.18265883,0.424739,0.40965411,-0.14217423,0.42518,0.41597874,-0.11809313,0.425437,0.43551476,-0.10777938,0.441359,0.42455835,-0.19356266,0.432463,0.43381738,-0.14959203,0.43288,0.4408145,-0.12668072,0.433093,0.44726038,-0.10556217,0.433286,0.45049752,-0.21076272,0.440174,0.46293698,-0.17591431,0.444591,0.47190532,-0.15893266,0.44662,0.47986888,-0.14381734,0.44841
0.38345745,-0.25688303,0.414347,0.40055228,-0.21325935,0.421885,0.36620485,-0.23508092,0.409502,0.37911793,-0.21505416,0.417352,0.34077053,-0.18525434,0.393172,0.33940415,-0.1710604,0.392626,0.38506935,-0.1675032,0.420692,0.39086069,-0.1330814,0.423219,0.39507851,-0.11523597,0.424482,0.41441355,-0.10231739,0.441502,0.41213241,-0.17699603,0.429064,0.42102191,-0.13872572,0.431183,0.42727244,-0.11600836,0.43242,0.45008772,-0.10281052,0.449266,0.43364123,-0.18684459,0.435145,0.45213067,-0.14876071,0.443035,0.46217622,-0.12902363,0.447072,0.47277681,-0.11020566,0.450742,0.45763531,-0.20276631,0.440788,0.47377225,-0.16627908,0.444341,0.48113203,-0.1496798,0.445973,0.4875985,-0.13511755,0.447413
0.40022418,-0.2489851,0.422098,0.41719849,-0.20561419,0.4281,0.38221018,-0.23003696,0.418492,0.38675201,-0.20583247,0.416551,0.34399766,-0.17433422,0.387682,0.33995131,-0.15806054,0.382336,0.40389625,-0.15951989,0.427477,0.41039499,-0.12700686,0.435283,0.4138445,-0.11044724,0.439187,0.42171838,-0.094774789,0.446029,0.42940626,-0.16859409,0.433815,0.43310574,-0.12916917,0.433613,0.43759837,-0.1052745,0.433496,0.45797792,-0.091495658,0.450268,0.44959335,-0.17815736,0.438388,0.46039549,-0.13518531,0.441633,0.46591324,-0.11325109,0.443293,0.47102902,-0.093269763,0.444802,0.47201325,-0.19386741,0.442568,0.48922442,-0.1584805,0.447096,0.49741956,-0.14221371,0.449177,0.50463113,-0.12791582,0.451013
0.412035,-0.2413477,0.424559,0.42720162,-0.1990706,0.428965,0.39386532,-0.22264101,0.421022,0.40689848,-0.20157134,0.426147,0.36627705,-0.17190845,0.400586,0.35543139,-0.15897628,0.39799,0.41119127,-0.15313543,0.42735,0.41585818,-0.12006598,0.43477,0.41945988,-0.10224,0.43848,0.42070569,-0.089574874,0.441853,0.43697535,-0.16088102,0.433161,0.43845055,-0.11979714,0.430998,0.44053181,-0.095366254,0.429736,0.46065112,-0.080662106,0.446155,0.45767322,-0.16946372,0.437473,0.46636066,-0.12546588,0.439318,0.47079789,-0.10300569,0.440262,0.47482705,-0.082616522,0.44112,0.48120514,-0.18423417,0.441648,0.49878422,-0.15165102,0.4475,0.50888994,-0.13553843,0.450189,0.51783026,-0.12126323,0.452561
0.41306918,-0.23990062,0.424023,0.42728918,-0.19925803,0.429274,0.39572575,-0.2218843,0.421479,0.40753482,-0.20234712,0.427133,0.36719837,-0.17275895,0.401871,0.35660327,-0.1598175,0.399531,0.4130932,-0.15404321,0.429525,0.41745374,-0.12077619,0.436634,0.42090525,-0.10287112,0.440189,0.42306251,-0.088611674,0.44342,0.43786825,-0.16141315,0.434274,0.44100029,-0.12075153,0.433736,0.44406743,-0.096423698,0.433422,0.46472377,-0.081706451,0.450352,0.45756447,-0.16962669,0.437619,0.46651591,-0.1268649,0.440776,0.47110057,-0.10512633,0.442412,0.47525842,-0.085439524,0.443899,0.47967231,-0.18384422,0.440515,0.49979929,-0.15220089,0.448694,0.51111915,-0.13639663,0.452453,0.52115836,-0.12232711,0.455769
0.4150674,-0.24007393,0.425367,0.42814137,-0.19978797,0.43033,0.39717706,-0.22183849,0.422343,0.40771996,-0.20322989,0.42775,0.36727093,-0.17350673,0.402338,0.35665078,-0.16035375,0.3999,0.41314803,-0.15424365,0.429761,0.41650117,-0.12072522,0.435814,0.41944504,-0.10276494,0.43884,0.42166758,-0.087719922,0.441591,0.43845016,-0.16181142,0.435057,0.44045352,-0.12083409,0.433407,0.44284791,-0.096421687,0.432445,0.46315521,-0.081728539,0.449059,0.45864974,-0.17021285,0.438883,0.46899572,-0.1281401,0.443702,0.47430122,-0.10668929,0.446187,0.47911966,-0.087227098,0.448446,0.48144389,-0.18470159,0.44239,0.49969495,-0.1523868,0.448856,0.51011489,-0.13636691,0.451827,0.51933988,-0.1221562,0.454448
0.4006583,-0.21663521,0.42106,0.42043881,-0.18222259,0.429379,0.38628323,-0.19641431,0.41825,0.38240315,-0.17366418,0.424729,0.35203986,-0.1420097,0.399769,0.34977047,-0.12574133,0.398443,0.41580701,-0.13673689,0.431367,0.42576274,-0.10324645,0.438573,0.43075651,-0.086312141,0.442176,0.43530587,-0.070809996,0.445452,0.43959242,-0.14841804,0.437301,0.45117873,-0.11157328,0.439683,0.45801151,-0.090297524,0.441072,0.48184068,-0.076899464,0.458444,0.45775628,-0.15990984,0.441292,0.4714806,-0.11667833,0.442677,0.47878726,-0.094441791,0.443386,0.48820387,-0.073279279,0.44403,0.47666673,-0.17749407,0.44436,0.49664511,-0.14874188,0.451279,0.5125272,-0.13623734,0.454458,0.52281607,-0.12212737,0.457263
0.40633781,-0.21526383,0.425628,0.42694278,-0.17550297,0.431449,0.39081816,-0.19388596,0.420887,0.38156926,-0.17045033,0.42258,0.34884773,-0.13928323,0.395323,0.34511096,-0.12283682,0.392112,0.421245,-0.12706044,0.429227,0.42722745,-0.09552071,0.437186,0.43119541,-0.078964215,0.441166,0.43900224,-0.067779442,0.444784,0.4457504,-0.13989313,0.436993,0.45276149,-0.10364957,0.436959,0.46193,-0.080828456,0.436939,0.48973815,-0.067070355,0.453471,0.46463534,-0.1524925,0.442761,0.4814936,-0.11173033,0.447001,0.4902741,-0.09088696,0.44917,0.49824584,-0.071974043,0.451142,0.48454021,-0.17167983,0.448362,0.505095,-0.14250605,0.452999,0.52103227,-0.12795129,0.45513,0.53537395,-0.11479477,0.45701
0.39904806,-0.21013958,0.421686,0.41560359,-0.17082415,0.429284,0.38399314,-0.18779918,0.415535,0.38188163,-0.15619531,0.423781,0.35745836,-0.12413163,0.399839,0.35548189,-0.10913751,0.399717,0.41738217,-0.12415089,0.426431,0.42385663,-0.092534012,0.433186,0.42900794,-0.075824092,0.436564,0.44306594,-0.063085055,0.439634,0.43854101,-0.13845369,0.43652,0.45288921,-0.10366875,0.437706,0.46433971,-0.081941984,0.438397,0.49341725,-0.069276642,0.454499,0.45517547,-0.15370178,0.444009,0.47732958,-0.11234298,0.444366,0.48887931,-0.092138021,0.447258,0.49941597,-0.073680939,0.449888,0.47160537,-0.1754978,0.451274,0.5127381,-0.17927944,0.463767,0.53546521,-0.18165996,0.469508,0.53810016,-0.18408485,0.474573
0.39532043,-0.20754128,0.419606,0.41507652,-0.17063099,0.428336,0.38090755,-0.18484659,0.413086,0.37985575,-0.15401422,0.418763,0.36284211,-0.12158524,0.393542,0.36365625,-0.10575028,0.392603,0.41695735,-0.12341048,0.425772,0.42378973,-0.091763676,0.432074,0.43147966,-0.073559972,0.435225,0.44785008,-0.062333504,0.43809,0.44142845,-0.13916744,0.436651,0.45348467,-0.10444355,0.438656,0.46559851,-0.083247172,0.439825,0.49488569,-0.070939104,0.455782,0.45650435,-0.15440245,0.444668,0.47926158,-0.11361092,0.445905,0.49008608,-0.094415442,0.446538,0.50206162,-0.076269459,0.448608,0.47317293,-0.17648977,0.452333,0.51681841,-0.18144795,0.467013,0.54080229,-0.18436208,0.473758,0.54441145,-0.1870899,0.47971
0.39761682,-0.20695145,0.421857,0.41925192,-0.17087386,0.428599,0.38513281,-0.18194244,0.417098,0.38804384,-0.15424908,0.42485,0.36202414,-0.12092282,0.40063,0.36710167,-0.10637674,0.399862,0.42392911,-0.12014657,0.426978,0.43223261,-0.089789845,0.433413,0.44332846,-0.072515892,0.43663,0.45742675,-0.057602637,0.439555,0.44449563,-0.13769458,0.43502,0.4642978,-0.10083506,0.435551,0.47531606,-0.080420072,0.43586,0.50861697,-0.070478052,0.452418,0.46190979,-0.15142978,0.440916,0.48717573,-0.11425406,0.445848,0.50166836,-0.09524749,0.448372,0.51864192,-0.077621958,0.450666,0.47963144,-0.17164118,0.446492,0.51882883,-0.17691248,0.457564,0.54028855,-0.17791483,0.462651,0.54148302,-0.17909041,0.467139
0.40601043,-0.21039401,0.428526,0.43279869,-0.17595956,0.434497,0.39284778,-0.18872192,0.420653,0.40064507,-0.16537515,0.428272,0.37481129,-0.13368313,0.403968,0.37485832,-0.11322443,0.403547,0.42612779,-0.12290338,0.428297,0.44389351,-0.092583653,0.43438,0.45240108,-0.076028562,0.437421,0.45913943,-0.059289531,0.440185,0.45253849,-0.1385752,0.440185,0.47137363,-0.10250277,0.441591,0.48231237,-0.081561933,0.442411,0.49624354,-0.067546405,0.442997,0.47597728,-0.15316084,0.44933,0.4933926,-0.11555418,0.451064,0.50724933,-0.095757768,0.451952,0.52181538,-0.07749929,0.452758,0.4988682,-0.17387456,0.458822,0.49102838,-0.13409171,0.452958,0.50250519,-0.12683828,0.450264,0.50639725,-0.13704733,0.447886
0.41216973,-0.21230129,0.429454,0.43473359,-0.17600505,0.435249,0.39512716,-0.18908101,0.421508,0.40205723,-0.16580184,0.429377,0.37632977,-0.13409481,0.405212,0.37876047,-0.11820326,0.40488,0.42720074,-0.12384966,0.428834,0.44483104,-0.092702585,0.434938,0.45335835,-0.07612746,0.43799,0.46034051,-0.059895005,0.440765,0.45404907,-0.13903248,0.440768,0.47225222,-0.10268397,0.441986,0.48281977,-0.081592447,0.442697,0.49613724,-0.067094568,0.443205,0.4770274,-0.15337934,0.449971,0.49458783,-0.11572477,0.451777,0.50885934,-0.095833308,0.452701,0.52321996,-0.077473018,0.453541,0.50004876,-0.17415574,0.459564,0.49201898,-0.13426371,0.453539,0.50344319,-0.1269811,0.450771,0.50727692,-0.13718288,0.448329
0.4061713,-0.20930137,0.42671,0.43185258,-0.17397144,0.433672,0.3918794,-0.18649296,0.420458,0.39861822,-0.16271449,0.42613,0.37156183,-0.12895739,0.400756,0.37284258,-0.11276058,0.399369,0.42973938,-0.12590247,0.430256,0.44610765,-0.093105478,0.436069,0.4543446,-0.076532807,0.438975,0.46383809,-0.061278173,0.441617,0.45538996,-0.14020006,0.440303,0.47187579,-0.10358965,0.441594,0.48745823,-0.084976847,0.442347,0.4965306,-0.067565269,0.442885,0.47506582,-0.15397422,0.447825,0.49881545,-0.1229934,0.451447,0.51660765,-0.10439074,0.453299,0.53307041,-0.087131958,0.454984,0.49581002,-0.17838123,0.455248,0.49260025,-0.14160655,0.450536,0.50221287,-0.12776151,0.448371,0.51210212,-0.12600796,0.446461
0.41266028,-0.21174271,0.429058,0.43685661,-0.17588798,0.435129,0.40010823,-0.18932032,0.423171,0.40273597,-0.16573257,0.428188,0.37548405,-0.13343659,0.40244,0.37597919,-0.11543253,0.400506,0.43214455,-0.12694632,0.431583,0.44593268,-0.093886544,0.435192,0.45363038,-0.077578127,0.436997,0.46681786,-0.063648222,0.438638,0.45784598,-0.14153465,0.44091,0.47369645,-0.10536836,0.441558,0.488734,-0.084884347,0.441936,0.49675149,-0.067751014,0.442206,0.47805424,-0.15670476,0.447937,0.50458154,-0.12238041,0.450655,0.52330602,-0.1040167,0.452045,0.5358894,-0.086853866,0.45331,0.50069634,-0.17716431,0.454951,0.49356475,-0.13997734,0.450052,0.50368723,-0.12463084,0.447801,0.51288516,-0.12380041,0.445815
0.41600608,-0.2137352,0.42957,0.44234705,-0.17870177,0.434919,0.40155451,-0.19002842,0.423028,0.40812371,-0.16768881,0.427498,0.38307529,-0.13639749,0.401466,0.37846447,-0.11785484,0.399259,0.43530432,-0.12907534,0.43003,0.44828233,-0.098088402,0.435696,0.45730665,-0.081448016,0.438529,0.47173722,-0.067820579,0.441104,0.46155387,-0.14296726,0.440014,0.47843182,-0.10673217,0.440732,0.49070258,-0.08530101,0.441151,0.49814025,-0.069362798,0.44145,0.4819423,-0.15651663,0.447658,0.50480247,-0.12180456,0.450027,0.52309438,-0.10321014,0.451239,0.53670088,-0.08613111,0.45234,0.50361525,-0.17695066,0.455526,0.49732173,-0.13784194,0.450613,0.50577968,-0.12378232,0.448356,0.51489048,-0.12387384,0.446364
0.42073969,-0.21606486,0.430709,0.44428924,-0.1894672,0.435111,0.40591841,-0.19389497,0.423589,0.41335084,-0.18032236,0.430469,0.38735491,-0.14723358,0.405746,0.38660106,-0.1311207,0.40452,0.43431199,-0.13923059,0.428826,0.44571105,-0.1073703,0.433301,0.45484076,-0.090245465,0.435539,0.4689078,-0.077875935,0.437573,0.46137036,-0.15272427,0.439303,0.48104926,-0.11681807,0.442045,0.49276558,-0.095950809,0.44387,0.50113382,-0.081045348,0.445173,0.48263001,-0.16602214,0.447456,0.50328658,-0.13049839,0.449301,0.52073327,-0.1116164,0.450245,0.53751695,-0.090256175,0.451103,0.50569232,-0.18630102,0.456093,0.49689303,-0.1460916,0.449997,0.50582405,-0.13082428,0.447197,0.51421004,-0.13279226,0.444726
0.41789194,-0.21297056,0.429164,0.44300493,-0.17858184,0.434442,0.40381997,-0.19146891,0.422158,0.41286382,-0.16712451,0.429031,0.3870134,-0.13187595,0.404289,0.38434188,-0.11861074,0.40322,0.44147442,-0.12915903,0.428901,0.4467915,-0.096964898,0.432706,0.45743977,-0.079167056,0.434609,0.46967111,-0.067131173,0.436339,0.4649571,-0.14398629,0.439469,0.48540251,-0.10804571,0.441973,0.49733718,-0.087064412,0.443434,0.50623194,-0.071969723,0.444478,0.48543246,-0.1582093,0.447602,0.50415616,-0.12326962,0.449501,0.52206148,-0.10799865,0.450473,0.53933238,-0.08932866,0.451357,0.5066123,-0.1817003,0.456051,0.50242652,-0.14350269,0.449788,0.51370082,-0.13068853,0.446911,0.51717801,-0.1337733,0.444372
0.41989262,-0.21414651,0.428825,0.44365785,-0.17874052,0.434186,0.40430218,-0.19129605,0.421928,0.41336336,-0.16668919,0.428875,0.38890213,-0.13247971,0.404175,0.38704444,-0.11831683,0.403136,0.44197539,-0.12945013,0.428843,0.44432824,-0.09602906,0.429316,0.45661055,-0.077762035,0.429552,0.46627453,-0.069718341,0.429767,0.46768203,-0.1451262,0.439291,0.48656395,-0.10838809,0.439983,0.49787742,-0.087056533,0.44067,0.50671697,-0.071758526,0.443468,0.48747094,-0.16007206,0.447317,0.50316197,-0.12363107,0.448288,0.52180656,-0.10947644,0.448785,0.53969316,-0.092945368,0.449237,0.50711739,-0.18338443,0.455626,0.50287213,-0.14325148,0.449454,0.51387661,-0.12966167,0.446619,0.52167339,-0.13221484,0.444117
0.4225431,-0.21553688,0.429256,0.44661442,-0.17995602,0.434548,0.40705509,-0.19281487,0.422485,0.41353951,-0.1685595,0.428226,0.38563513,-0.13744688,0.402859,0.38401824,-0.12044612,0.401245,0.44344274,-0.13035401,0.429322,0.44788734,-0.09652058,0.429803,0.45730005,-0.07880708,0.430044,0.4673188,-0.066950542,0.430263,0.46895785,-0.14572991,0.439589,0.48698905,-0.10884097,0.439939,0.49842849,-0.087265328,0.440143,0.50764253,-0.071688401,0.440289,0.48858585,-0.16043178,0.447473,0.50376888,-0.12412256,0.448526,0.52315676,-0.10968802,0.449064,0.54172632,-0.09356553,0.449554,0.50903498,-0.18209956,0.455629,0.50398305,-0.1426028,0.449429,0.51533013,-0.13019688,0.44658,0.52263722,-0.13630159,0.444067
0.42537576,-0.21717274,0.431045,0.44957805,-0.18240214,0.434541,0.41132227,-0.1954453,0.423929,0.41495968,-0.17583881,0.429274,0.38563931,-0.1453629,0.403711,0.38396524,-0.12509544,0.401614,0.44325731,-0.13302422,0.427647,0.44680214,-0.099763481,0.428997,0.45350439,-0.084338199,0.429673,0.46747825,-0.069632967,0.430286,0.46774806,-0.14596728,0.437871,0.48565968,-0.10899332,0.438741,0.49703835,-0.087298342,0.439248,0.50364107,-0.072477673,0.441024,0.48782077,-0.16038029,0.445914,0.50060058,-0.12349417,0.445336,0.51952706,-0.10884819,0.445039,0.54015879,-0.093009405,0.44477,0.51031322,-0.18201521,0.454593,0.50215174,-0.14146548,0.446857,0.51252218,-0.12937266,0.443302,0.51912688,-0.13539004,0.440166
0.42539155,-0.21741534,0.429659,0.44641989,-0.18221397,0.43335,0.41027872,-0.19477937,0.423347,0.41451321,-0.17214529,0.428422,0.38555335,-0.13945539,0.402731,0.3843155,-0.12298962,0.400412,0.44300037,-0.1323667,0.427633,0.44644041,-0.099020448,0.428603,0.45279965,-0.085601436,0.429088,0.46477579,-0.074647676,0.429529,0.46806983,-0.14676246,0.436865,0.48530942,-0.10938486,0.437997,0.4969234,-0.087676896,0.438657,0.5063594,-0.071921192,0.439128,0.48848779,-0.16127944,0.444069,0.49930981,-0.12487932,0.443053,0.51887303,-0.10844004,0.442533,0.53735049,-0.092961839,0.44206,0.50942471,-0.18202519,0.451737,0.5030034,-0.14085705,0.444347,0.51446324,-0.13140095,0.440951,0.51865837,-0.13771628,0.437954
0.42559374,-0.21812349,0.428206,0.44751057,-0.18482197,0.432126,0.41153136,-0.19599848,0.423041,0.41395646,-0.17777308,0.428094,0.38458356,-0.14494229,0.40243,0.3835792,-0.12691484,0.399956,0.44400474,-0.1354663,0.42806,0.44080896,-0.10238263,0.425353,0.44926152,-0.083941692,0.423999,0.45918848,-0.076313404,0.422769,0.46849638,-0.14888163,0.435859,0.48414121,-0.11058325,0.436384,0.49489415,-0.088779194,0.43669,0.50384425,-0.071790354,0.436909,0.48747344,-0.16202783,0.441859,0.49647898,-0.12505668,0.440577,0.51643781,-0.10848717,0.439921,0.53399884,-0.092503506,0.439325,0.50762611,-0.18199862,0.448086,0.50135953,-0.14108181,0.441178,0.51269981,-0.13290746,0.438004,0.51598408,-0.13896396,0.435204
0.42489369,-0.21805531,0.426922,0.44717922,-0.18484038,0.431329,0.41131708,-0.19625619,0.422332,0.41430116,-0.17774838,0.428012,0.38492993,-0.14506143,0.402704,0.38432804,-0.12736713,0.400514,0.44431217,-0.13604176,0.428344,0.44722391,-0.10403045,0.431523,0.45864186,-0.086272014,0.433113,0.47142502,-0.07884151,0.434558,0.46828679,-0.1492063,0.435527,0.48478194,-0.11109929,0.436966,0.49612343,-0.089224164,0.437805,0.505918,-0.072249004,0.43868,0.48676013,-0.16210909,0.440967,0.50545634,-0.12741853,0.448232,0.53063217,-0.11166253,0.451948,0.55375612,-0.096010593,0.455595,0.50621244,-0.18172576,0.446453,0.50828679,-0.14326315,0.446955,0.52343981,-0.13571775,0.447186,0.53064695,-0.14351956,0.447488
0.42767589,-0.21975859,0.428838,0.44602582,-0.1828239,0.431734,0.41296391,-0.19732428,0.423185,0.41443731,-0.17366918,0.427855,0.38480003,-0.14148313,0.40202,0.38271886,-0.1248945,0.399255,0.44190095,-0.13451412,0.426338,0.44104878,-0.10101089,0.424258,0.45133449,-0.09038336,0.423218,0.4588682,-0.077108642,0.422273,0.46610592,-0.14751091,0.434492,0.48345721,-0.11022642,0.43624,0.49537246,-0.088378762,0.43726,0.50387393,-0.073258067,0.437988,0.48519246,-0.16098553,0.440895,0.49572003,-0.12586532,0.43845,0.51352158,-0.10835341,0.437198,0.52817292,-0.10370732,0.436061,0.50566226,-0.18139464,0.447783,0.50077741,-0.14082169,0.439927,0.51101252,-0.13254036,0.436318,0.513651,-0.14129388,0.433133
0.42675914,-0.21958541,0.427546,0.44589091,-0.1830647,0.43095,0.41276792,-0.19742157,0.422579,0.41370808,-0.17456351,0.427072,0.38442097,-0.1410806,0.401142,0.38160178,-0.12511764,0.398286,0.44235476,-0.13461403,0.426793,0.44130443,-0.10113235,0.424217,0.45199277,-0.090067417,0.422929,0.45917015,-0.077227445,0.421758,0.46633247,-0.14804084,0.434192,0.48300219,-0.11057258,0.435469,0.49473542,-0.088581059,0.436214,0.5042097,-0.072366281,0.436746,0.48492447,-0.16118587,0.439918,0.4968499,-0.12616839,0.437816,0.51345245,-0.10840732,0.436741,0.52896012,-0.10349625,0.435763,0.50550403,-0.18161751,0.445925,0.49970746,-0.14041215,0.438662,0.51008154,-0.13222575,0.435325,0.51280379,-0.14115696,0.43238
0.42419193,-0.2175828,0.424857,0.44558891,-0.18228276,0.430029,0.41136273,-0.19585517,0.420912,0.40953664,-0.17007128,0.423068,0.38213515,-0.13930975,0.3994,0.38026418,-0.12369017,0.39932,0.44411322,-0.13522099,0.428404,0.4436065,-0.10179204,0.426336,0.45228544,-0.088578585,0.425301,0.46177511,-0.076385871,0.424361,0.46749376,-0.14900841,0.434956,0.48058556,-0.11515244,0.435845,0.49472078,-0.091165339,0.436364,0.50506109,-0.074937465,0.436734,0.48539614,-0.16193312,0.439794,0.49887212,-0.12717629,0.439353,0.51640958,-0.10929206,0.439128,0.53355266,-0.092639147,0.438923,0.50430592,-0.18197083,0.444438,0.50113504,-0.14161186,0.43888,0.51160462,-0.13249864,0.436327,0.51520436,-0.13843382,0.434074
0.42462732,-0.2182634,0.424929,0.44598439,-0.18289937,0.429947,0.41177187,-0.19656071,0.421091,0.40751004,-0.16935181,0.421393,0.38093351,-0.13883617,0.398688,0.37989227,-0.1236286,0.399635,0.44413137,-0.13528233,0.428355,0.44343682,-0.1018557,0.4261,0.45210279,-0.088615788,0.424973,0.46136248,-0.076263373,0.423949,0.46734581,-0.14906809,0.434726,0.4803447,-0.11620577,0.436198,0.4953277,-0.09221201,0.437057,0.50621701,-0.076108778,0.437671,0.4851067,-0.16203133,0.439432,0.49844243,-0.12741918,0.4388,0.51576104,-0.10935679,0.438477,0.53269843,-0.092589078,0.438183,0.50382871,-0.18208279,0.443951,0.50079247,-0.14187038,0.438302,0.51112641,-0.13228793,0.435707,0.51492453,-0.13784042,0.433416
0.41948024,-0.21626671,0.420197,0.44234139,-0.18236924,0.427989,0.40759283,-0.19514966,0.417301,0.40100224,-0.16696553,0.418171,0.37548019,-0.13583053,0.396427,0.37825824,-0.1219331,0.398531,0.44482167,-0.13608815,0.429507,0.44602952,-0.10337313,0.430098,0.45666017,-0.089824189,0.430393,0.46834192,-0.078516614,0.430662,0.4669972,-0.14975677,0.435409,0.48082055,-0.1192431,0.439195,0.49793417,-0.098102557,0.441403,0.51145545,-0.082717392,0.442981,0.47986355,-0.16450592,0.43943,0.49709951,-0.13241067,0.441436,0.52040251,-0.11146911,0.442463,0.53866025,-0.094262598,0.443396,0.49604036,-0.18476753,0.442633,0.49813649,-0.1467795,0.4395,0.512759,-0.13372873,0.438061,0.5176242,-0.14258401,0.436791
0.42002409,-0.21711032,0.421592,0.44113514,-0.18217124,0.427594,0.40760132,-0.19557023,0.418217,0.39902466,-0.16599658,0.416822,0.37458511,-0.13508584,0.395845,0.37722716,-0.12158678,0.398551,0.44213285,-0.13536206,0.427273,0.4411831,-0.10251579,0.425906,0.45075455,-0.089032353,0.425222,0.46133764,-0.077529767,0.424601,0.46413771,-0.14917638,0.43331,0.47807066,-0.11891822,0.437398,0.49539586,-0.097973369,0.439782,0.50909793,-0.082729547,0.441486,0.47790229,-0.16383357,0.437634,0.49294872,-0.13130504,0.43775,0.51447586,-0.11061028,0.437809,0.53137259,-0.093478474,0.437863,0.49479867,-0.18430502,0.441525,0.49507966,-0.14587879,0.436803,0.50831506,-0.13309292,0.434634,0.51250838,-0.14124586,0.43272
0.4211113,-0.21859196,0.423032,0.44430688,-0.18432541,0.428184,0.408046,-0.19672773,0.419135,0.40764032,-0.18216851,0.424068,0.37779038,-0.14955027,0.398324,0.37912234,-0.12894526,0.395839,0.43772624,-0.1411324,0.426607,0.43822836,-0.10379132,0.424439,0.44647356,-0.091359178,0.423355,0.45707557,-0.07830008,0.42237,0.46123965,-0.15094803,0.433092,0.47737282,-0.11901269,0.436687,0.49397002,-0.097967548,0.438784,0.50732696,-0.082676827,0.440282,0.48194802,-0.16307285,0.437876,0.49547447,-0.1279872,0.436991,0.51208444,-0.10737244,0.436538,0.52492793,-0.085385032,0.436126,0.50070602,-0.18235794,0.442461,0.49817139,-0.14256366,0.436902,0.50851158,-0.13260599,0.434348,0.51280075,-0.13951274,0.432094
0.42035019,-0.21997252,0.422885,0.43951608,-0.19211395,0.427542,0.40855186,-0.19942956,0.418992,0.40256349,-0.18650356,0.423955,0.37326812,-0.15342697,0.398259,0.37372913,-0.13476642,0.39569,0.43318777,-0.14622592,0.425634,0.43365769,-0.11233089,0.422929,0.44223011,-0.098784007,0.421577,0.45206239,-0.082790287,0.420347,0.4572392,-0.15874184,0.431977,0.47409178,-0.12648468,0.435781,0.48960558,-0.10559293,0.438001,0.50447065,-0.085038251,0.439586,0.47576843,-0.17114025,0.436698,0.49230509,-0.13150836,0.436747,0.50926995,-0.1125655,0.436771,0.52738858,-0.092462435,0.436794,0.49525575,-0.19020574,0.441303,0.49309586,-0.14703667,0.43535,0.50179302,-0.14043091,0.432615,0.50754898,-0.14270332,0.430202
