sluyters/QuantumLeap/backend/src/datasets/dynamic/HandGestureDataset_SHREC2017_csv/Gesture13/finger_2/subject_25_essai_2_skeletons_world.csv
Wrist_x,Wrist_y,Wrist_z,Palm_x,Palm_y,Palm_z,thumb_base_x,thumb_base_y,thumb_base_z,thumb_first_joint_x,thumb_first_joint_y,thumb_first_joint_z,thumb_second_joint_x,thumb_second_joint_y,thumb_second_joint_z,thumb_tip_x,thumb_tip_y,thumb_tip_z,index_base_x,index_base_y,index_base_z,index_first_joint_x,index_first_joint_y,index_first_joint_z,index_second_joint_x,index_second_joint_y,index_second_joint_z,index_tip_x,index_tip_y,index_tip_z,middle_base_x,middle_base_y,middle_base_z,middle_first_joint_x,middle_first_joint_y,middle_first_joint_z,middle_second_joint_x,middle_second_joint_y,middle_second_joint_z,middle_tip_x,middle_tip_y,middle_tip_z,ring_base_x,ring_base_y,ring_base_z,ring_first_joint_x,ring_first_joint_y,ring_first_joint_z,ring_second_joint_x,ring_second_joint_y,ring_second_joint_z,ring_tip_x,ring_tip_y,ring_tip_z,pinky_base_x,pinky_base_y,pinky_base_z,pinky_first_joint_x,pinky_first_joint_y,pinky_first_joint_z,pinky_second_joint_x,pinky_second_joint_y,pinky_second_joint_z,pinky_tip_x,pinky_tip_y,pinky_tip_z,
0.494819639,-0.253237537,0.486353,0.499999551,-0.203669055,0.478122,0.478690671,-0.239933587,0.484467,0.455341681,-0.203959046,0.471217,0.42923232,-0.175150518,0.455339,0.419296919,-0.154942523,0.44962,0.475639188,-0.163323835,0.470967,0.477204135,-0.121122607,0.457633,0.478116728,-0.101870948,0.450966,0.474137483,-0.0850796156,0.444905,0.50116693,-0.167938309,0.471578,0.505618106,-0.125257446,0.462836,0.51097159,-0.0981610324,0.457736,0.510422827,-0.0823828142,0.454093,0.522040486,-0.17681174,0.473012,0.530588545,-0.134381371,0.465342,0.534712878,-0.113856905,0.461418,0.537327781,-0.0974000058,0.45785,0.54578563,-0.195690496,0.476249,0.567175273,-0.166667782,0.469046,0.576529788,-0.154473525,0.465736,0.584864391,-0.143648267,0.462816
0.4993557,-0.24740167,0.486094,0.510657437,-0.192115997,0.476692,0.483205027,-0.22889018,0.483047,0.458811051,-0.192083596,0.469335,0.43272626,-0.164865664,0.453413,0.422805433,-0.145077213,0.448414,0.488580709,-0.149231884,0.467322,0.481069858,-0.108957493,0.45257,0.477374254,-0.0885514091,0.445194,0.474051656,-0.0698313331,0.438488,0.51488537,-0.15693533,0.469205,0.513789625,-0.112813155,0.456284,0.514090524,-0.0873216896,0.448746,0.514952651,-0.0693001747,0.443362,0.536096079,-0.1683141,0.47182,0.535598615,-0.126470364,0.462305,0.537615084,-0.105615805,0.457436,0.536665788,-0.0902811166,0.453011,0.55960298,-0.190048166,0.476635,0.571348293,-0.158618365,0.467109,0.576699106,-0.14423056,0.462731,0.582835698,-0.132342916,0.458869
0.500605208,-0.245293837,0.486172,0.510719569,-0.192139372,0.47675,0.484352793,-0.226925104,0.483137,0.459016343,-0.192169542,0.469545,0.432637503,-0.164831848,0.45332,0.422786575,-0.145070743,0.448394,0.488643439,-0.149251044,0.467382,0.481110251,-0.108966641,0.452608,0.477403206,-0.0885567796,0.445221,0.474070035,-0.0698340405,0.438505,0.514921582,-0.156946368,0.469238,0.513564419,-0.112763707,0.456084,0.513705597,-0.0872563072,0.44841,0.514449733,-0.0692324941,0.442929,0.536108577,-0.168318024,0.471831,0.535223248,-0.126381729,0.461981,0.537034496,-0.105501747,0.456942,0.536864267,-0.0888327067,0.452361,0.559590065,-0.19004378,0.476624,0.571233317,-0.158586445,0.467015,0.576537088,-0.14419004,0.462601,0.582627392,-0.132295616,0.458705
0.502026196,-0.244334233,0.486282,0.510370259,-0.192631711,0.476577,0.485557622,-0.226982882,0.483138,0.463547618,-0.196850306,0.468579,0.43431503,-0.16799431,0.450675,0.423325023,-0.146154257,0.447462,0.487130855,-0.150102053,0.466901,0.480098383,-0.10966488,0.451938,0.476636334,-0.0892236525,0.444457,0.473521478,-0.0705007935,0.437655,0.513370026,-0.157116465,0.468838,0.512353509,-0.113057293,0.45604,0.512718864,-0.0875652976,0.448574,0.510565127,-0.0717689157,0.443242,0.534640065,-0.167942037,0.471529,0.534317186,-0.126040453,0.46115,0.53593851,-0.105032745,0.45584,0.536316018,-0.0878893925,0.451013,0.558464154,-0.189053546,0.476489,0.571773033,-0.158660481,0.467167,0.577927948,-0.144650457,0.462883,0.583302653,-0.13523142,0.459104
0.503025682,-0.24039085,0.484943,0.508732869,-0.191166787,0.474584,0.485705582,-0.225886624,0.482342,0.461010675,-0.194364099,0.469951,0.426474337,-0.17117903,0.450358,0.415237608,-0.151482559,0.444093,0.48532919,-0.14901381,0.465262,0.477844681,-0.108549137,0.449962,0.474153039,-0.0880997911,0.442311,0.470829914,-0.0693734824,0.435356,0.510758609,-0.15538276,0.46632,0.505612326,-0.110018452,0.451935,0.503968099,-0.0841432547,0.443543,0.503149394,-0.0656966262,0.437549,0.531446074,-0.165688072,0.46836,0.528178106,-0.11883511,0.452431,0.525878972,-0.0966306038,0.444281,0.529937402,-0.0828193042,0.443716,0.55570207,-0.186379736,0.472699,0.567460155,-0.155749672,0.462782,0.575585033,-0.140583535,0.458225,0.579484265,-0.1299583,0.454205
0.502866618,-0.246013153,0.487606,0.498057343,-0.200951294,0.474054,0.485785789,-0.232110569,0.485324,0.45331003,-0.206204034,0.471052,0.421674925,-0.179252638,0.452374,0.409107145,-0.15917623,0.444846,0.47198474,-0.157592687,0.463357,0.464203175,-0.115903937,0.44561,0.459283171,-0.0959192344,0.436736,0.45485893,-0.0775544006,0.428669,0.496633188,-0.161999129,0.463241,0.489822284,-0.115298317,0.443793,0.48532068,-0.0898149922,0.432448,0.482614945,-0.072144334,0.424344,0.517434067,-0.170860291,0.464672,0.517296998,-0.127363626,0.451845,0.516031757,-0.105561157,0.445283,0.51694835,-0.0873081148,0.439317,0.542354965,-0.190088001,0.468924,0.560672667,-0.161562135,0.457616,0.567690576,-0.148467114,0.45242,0.574597523,-0.138153884,0.447836
0.493941672,-0.251859647,0.483727,0.487057125,-0.209352225,0.469907,0.474336146,-0.239806856,0.481102,0.442327636,-0.215709807,0.467296,0.41027966,-0.18802863,0.448755,0.402249678,-0.171096495,0.447052,0.464909359,-0.166982676,0.458603,0.450631558,-0.126658681,0.440833,0.44350938,-0.106335713,0.431947,0.437195607,-0.0879696559,0.42387,0.489913282,-0.172848521,0.458875,0.486499225,-0.128580939,0.445219,0.484790414,-0.102743811,0.437253,0.485830275,-0.0850218601,0.437074,0.510814833,-0.182918053,0.460652,0.507642938,-0.140464124,0.450265,0.506042354,-0.118648359,0.444952,0.509947194,-0.0997601293,0.444289,0.535457509,-0.203583206,0.465348,0.54408811,-0.171476664,0.452113,0.548174178,-0.1568236,0.446032,0.552259338,-0.144509802,0.440666
0.484658327,-0.261944831,0.482772,0.473916439,-0.218710589,0.46922,0.457706678,-0.254804681,0.480178,0.425933744,-0.228094868,0.466049,0.394214749,-0.20308192,0.447501,0.379628192,-0.18369599,0.439539,0.445725484,-0.177385465,0.458111,0.433494197,-0.136967354,0.440348,0.427403502,-0.116595933,0.431467,0.421881699,-0.0979733703,0.423393,0.470997191,-0.181284985,0.458407,0.462670903,-0.135899456,0.440587,0.458832444,-0.110680813,0.430192,0.456550417,-0.0931985025,0.422767,0.492228375,-0.189748503,0.460174,0.490120556,-0.147305565,0.446798,0.489492152,-0.125804409,0.439954,0.489034698,-0.106164652,0.433732,0.517396976,-0.20848553,0.464808,0.527157272,-0.177740673,0.452157,0.531772716,-0.163477944,0.446345,0.535917041,-0.150816313,0.441216
0.475238191,-0.270277189,0.481904,0.470590207,-0.227596712,0.468825,0.455871499,-0.259164347,0.47985,0.421954989,-0.238497821,0.467815,0.389200578,-0.214282544,0.4512,0.373025499,-0.1954665,0.440476,0.442872596,-0.18635181,0.458709,0.430189109,-0.145640133,0.44145,0.423861807,-0.125157807,0.43282,0.418119544,-0.106457999,0.424975,0.46789386,-0.190153813,0.458394,0.458784645,-0.145034392,0.441038,0.453482584,-0.118665083,0.430914,0.453600036,-0.0966186301,0.423682,0.488961814,-0.198560159,0.459606,0.485310306,-0.155603332,0.446439,0.48359203,-0.133709767,0.439703,0.482041927,-0.113759307,0.433578,0.513961044,-0.217296045,0.463509,0.522315608,-0.184821236,0.45086,0.526168505,-0.169882874,0.445048,0.531954045,-0.153540346,0.43992
0.467160813,-0.281752965,0.481899,0.453907138,-0.240488935,0.467954,0.440681424,-0.278643669,0.480138,0.406675453,-0.252294546,0.467083,0.375578615,-0.229024699,0.451318,0.361259068,-0.210552458,0.445555,0.424028686,-0.200616808,0.457747,0.410620132,-0.159568659,0.43976,0.403923998,-0.138966701,0.430767,0.397840893,-0.120188269,0.422591,0.448624634,-0.202568585,0.456843,0.445767409,-0.158295385,0.444888,0.444117732,-0.132393343,0.437914,0.442948115,-0.113855737,0.432933,0.469615921,-0.209501455,0.457666,0.46576508,-0.166661312,0.44405,0.463804013,-0.144711397,0.437084,0.462527548,-0.125161711,0.430751,0.49506159,-0.22659346,0.461289,0.504026454,-0.19539087,0.448226,0.508233355,-0.180959636,0.442224,0.51199421,-0.168173247,0.436928
0.445460886,-0.31223473,0.48828,0.441120006,-0.264279232,0.473511,0.426282014,-0.301408621,0.486372,0.39347787,-0.27533397,0.473204,0.361110076,-0.25053538,0.45535,0.346992281,-0.231578302,0.449137,0.41327525,-0.22311696,0.462654,0.397063658,-0.180476819,0.444366,0.389586503,-0.161531842,0.435221,0.382798273,-0.144120231,0.426908,0.437587023,-0.226447903,0.461758,0.430240278,-0.181686245,0.446709,0.425973763,-0.155475464,0.437931,0.422934223,-0.136704607,0.43166,0.458049048,-0.234499972,0.462681,0.452201393,-0.191592993,0.449153,0.449440419,-0.169861707,0.442232,0.446953863,-0.150000742,0.43594,0.482413739,-0.252832719,0.466578,0.485448366,-0.221159438,0.451058,0.486976468,-0.206443379,0.443927,0.488413272,-0.193424301,0.437635
0.444503833,-0.319989916,0.491623,0.428485911,-0.274461148,0.473081,0.424439252,-0.309517429,0.489506,0.383199981,-0.289941043,0.474945,0.350495064,-0.267552659,0.459138,0.334369997,-0.24897746,0.451962,0.394709643,-0.233438738,0.45982,0.375992091,-0.196067119,0.438349,0.366630653,-0.177175507,0.427613,0.358118789,-0.15986787,0.417853,0.418840735,-0.234559882,0.458325,0.41105558,-0.190098498,0.442816,0.406622467,-0.16445178,0.433769,0.403479613,-0.146003916,0.427307,0.440161041,-0.241084892,0.459178,0.436960728,-0.198813853,0.447916,0.435426799,-0.177244005,0.442154,0.434054255,-0.157533997,0.436916,0.467241161,-0.258261698,0.46372,0.469364125,-0.22584501,0.446319,0.470406514,-0.21087175,0.438323,0.471366299,-0.197616067,0.431269
0.434234698,-0.345968688,0.495019,0.419535754,-0.29480395,0.475737,0.414584555,-0.337256117,0.494424,0.37765864,-0.31350034,0.481665,0.344894987,-0.293239124,0.467976,0.32853101,-0.275536756,0.461645,0.38554154,-0.255284794,0.464091,0.363149388,-0.219097714,0.442433,0.351917625,-0.200807254,0.431604,0.341683339,-0.184051426,0.421759,0.407798248,-0.254777904,0.460393,0.396116302,-0.210250572,0.443479,0.389247874,-0.184667303,0.433613,0.384353586,-0.166269027,0.426566,0.427872138,-0.25998659,0.459515,0.421201643,-0.217407143,0.446781,0.417805736,-0.195723111,0.440266,0.414734838,-0.175905802,0.434344,0.454010292,-0.275680664,0.462209,0.45223533,-0.242983326,0.443204,0.4514909,-0.227870385,0.434472,0.450874437,-0.214483833,0.426767
0.419312012,-0.360680468,0.494094,0.404627998,-0.310879702,0.477192,0.400545374,-0.353829118,0.494913,0.364900782,-0.333678839,0.484112,0.330345063,-0.312673418,0.469311,0.313472295,-0.295478887,0.463184,0.371690485,-0.274178797,0.46877,0.349902083,-0.234912326,0.449154,0.338944235,-0.215502939,0.439345,0.328965423,-0.197780495,0.430429,0.39294722,-0.271719173,0.463742,0.37768795,-0.227364131,0.443327,0.368777049,-0.201484304,0.431418,0.362415511,-0.182936389,0.422911,0.412078904,-0.275194369,0.4615,0.398202248,-0.232353398,0.442002,0.391037375,-0.211227338,0.432027,0.384537366,-0.191897392,0.422958,0.436952863,-0.288616344,0.462171,0.436560034,-0.257638209,0.444406,0.436498645,-0.243261152,0.436244,0.436512491,-0.230492648,0.429042
0.418620928,-0.366180506,0.496285,0.398324836,-0.319192064,0.477306,0.399274814,-0.359197656,0.496618,0.359257648,-0.341595431,0.484705,0.325811681,-0.322325293,0.471625,0.3081413,-0.305242346,0.464603,0.362892291,-0.28223194,0.467066,0.340386785,-0.243963199,0.445137,0.32893923,-0.226008812,0.434172,0.318501158,-0.209564519,0.424204,0.384231731,-0.27928499,0.462202,0.370104246,-0.233900985,0.444254,0.361615796,-0.208658777,0.433784,0.355554583,-0.190501343,0.426306,0.403820406,-0.282462661,0.46033,0.393968631,-0.238896526,0.445528,0.388926905,-0.216622353,0.437955,0.388072279,-0.195986595,0.431071,0.429885309,-0.295746847,0.461824,0.42997442,-0.263705618,0.443279,0.430084977,-0.248904236,0.434759,0.432448216,-0.232663394,0.42724
0.40130289,-0.385440698,0.496285,0.385278501,-0.33438871,0.478084,0.382345291,-0.37809349,0.496853,0.345465403,-0.358299002,0.486727,0.311321518,-0.339781928,0.473543,0.292654952,-0.323390325,0.465776,0.351480544,-0.296639069,0.468596,0.328580234,-0.260174021,0.447572,0.317078496,-0.241773923,0.43706,0.306412508,-0.225828522,0.427504,0.372548348,-0.294377085,0.4636,0.354583504,-0.250569628,0.442794,0.344036839,-0.225123383,0.430658,0.336499698,-0.206869487,0.421989,0.391766636,-0.298138794,0.461531,0.376681833,-0.254269219,0.442061,0.368472764,-0.234166173,0.4321,0.361012878,-0.215718129,0.423044,0.417134751,-0.312154454,0.46265,0.41705005,-0.278480735,0.444212,0.417028546,-0.262985757,0.43574,0.414232109,-0.256686377,0.428265
0.397101128,-0.390366277,0.498689,0.373674944,-0.344821387,0.478353,0.378244319,-0.383061403,0.499289,0.33664932,-0.374632248,0.492919,0.301409719,-0.358166578,0.480761,0.284424354,-0.342816587,0.476584,0.339096997,-0.308009893,0.467708,0.313130948,-0.269206758,0.446016,0.300132181,-0.249767525,0.43517,0.288305093,-0.232071427,0.42531,0.359865144,-0.306318643,0.462171,0.341363064,-0.260297665,0.441749,0.330575558,-0.23352985,0.429835,0.321664757,-0.218699005,0.421326,0.378937977,-0.31035972,0.459897,0.365510364,-0.263968559,0.442362,0.357357128,-0.245113261,0.43339,0.349932113,-0.227729743,0.425234,0.404234575,-0.324304754,0.46119,0.403707587,-0.289814326,0.441099,0.403429724,-0.274009957,0.431868,0.398653754,-0.271632952,0.423723
0.392152533,-0.403357777,0.504765,0.366490912,-0.360120817,0.482472,0.373675219,-0.39686823,0.50602,0.333886351,-0.392199061,0.500379,0.297898816,-0.37833578,0.48783,0.279255666,-0.363877605,0.482702,0.329572686,-0.324892051,0.471597,0.301917412,-0.286626723,0.448009,0.288049304,-0.267563702,0.436216,0.275431868,-0.250214883,0.425494,0.348965358,-0.321782133,0.464732,0.328838718,-0.275117959,0.44121,0.31711036,-0.248045927,0.427489,0.306032072,-0.238927929,0.417689,0.36744681,-0.324633478,0.461584,0.350151863,-0.280272457,0.44086,0.340891702,-0.258790822,0.430257,0.332469251,-0.239201687,0.420617,0.392985863,-0.337181619,0.462249,0.392585777,-0.303118855,0.440682,0.392344692,-0.287527145,0.430773,0.387077779,-0.285514097,0.422029
0.380231217,-0.433708239,0.512893,0.36047295,-0.383130548,0.489748,0.362615234,-0.424673468,0.513814,0.325790508,-0.411638386,0.505092,0.290741989,-0.394286146,0.492196,0.273544415,-0.377875335,0.486755,0.326235953,-0.343322257,0.477949,0.296562457,-0.311064084,0.45383,0.281627497,-0.29482401,0.44177,0.26798669,-0.279988396,0.430807,0.344778834,-0.343226304,0.47133,0.322616858,-0.29920718,0.445241,0.309689156,-0.273527056,0.430023,0.297700498,-0.261365991,0.419153,0.362460768,-0.348819552,0.46848,0.34665705,-0.304940608,0.448453,0.338377196,-0.282818512,0.438206,0.330849921,-0.262687075,0.428891,0.386877024,-0.365037131,0.469651,0.384382383,-0.327961078,0.447153,0.383131185,-0.311054272,0.436816,0.375833631,-0.307322133,0.427696
0.37791218,-0.442404889,0.51583,0.352442259,-0.397200875,0.491731,0.359885839,-0.4332981,0.516441,0.317953453,-0.427208601,0.507193,0.282301599,-0.409789462,0.493476,0.264202328,-0.392788211,0.486916,0.31693678,-0.357221849,0.478982,0.286652627,-0.324884239,0.454096,0.27142214,-0.30862729,0.441653,0.257518338,-0.293790473,0.430341,0.335789247,-0.35671378,0.472554,0.313101536,-0.312615615,0.446159,0.299868742,-0.286901826,0.430762,0.287783765,-0.27490209,0.419763,0.353851224,-0.362039701,0.469969,0.337465671,-0.318153818,0.449818,0.328893972,-0.296049941,0.439509,0.32109964,-0.275936786,0.430136,0.378946208,-0.378078762,0.471628,0.375811709,-0.340193032,0.448653,0.37425524,-0.322933957,0.438097,0.366933005,-0.31920448,0.428783
0.379329323,-0.448779674,0.519243,0.354245543,-0.403158912,0.495621,0.358499282,-0.446132797,0.520539,0.321641538,-0.435247509,0.512079,0.286143385,-0.419892706,0.49877,0.267674744,-0.404171996,0.492651,0.315717858,-0.369674715,0.484054,0.28496695,-0.334390309,0.459547,0.269551217,-0.31670291,0.447294,0.258227405,-0.299189644,0.436154,0.334297276,-0.366710363,0.476824,0.307539985,-0.323772735,0.448396,0.291934595,-0.298735136,0.431813,0.278973182,-0.286619614,0.419968,0.352376737,-0.369815365,0.473525,0.330120155,-0.320550129,0.446238,0.315255225,-0.306469888,0.432278,0.300170113,-0.306820764,0.419587,0.379487221,-0.3815646,0.474272,0.373240311,-0.347937983,0.451136,0.371058093,-0.331904887,0.440506,0.363465869,-0.330156495,0.431127
0.375796191,-0.459559687,0.522387,0.346713215,-0.416143385,0.497247,0.356734723,-0.455162507,0.524001,0.315366411,-0.443053461,0.515439,0.280511459,-0.42699136,0.502678,0.262148629,-0.409862155,0.495532,0.310623657,-0.378336512,0.48525,0.280213421,-0.343275967,0.460088,0.264963151,-0.325696976,0.447507,0.251070163,-0.309684666,0.43607,0.328392976,-0.37675739,0.477242,0.301830977,-0.334125905,0.447483,0.286339954,-0.309269231,0.430123,0.273025087,-0.297363044,0.417724,0.345686905,-0.381026963,0.473473,0.324322136,-0.33182386,0.444917,0.309011955,-0.317979065,0.430307,0.292681619,-0.31824886,0.417025,0.370130642,-0.395498569,0.473971,0.365370792,-0.361566231,0.449434,0.363147074,-0.346009668,0.43816,0.354540343,-0.344454065,0.428212
0.368286464,-0.472242811,0.523561,0.345204915,-0.426158239,0.497937,0.350046465,-0.463266799,0.524009,0.311466145,-0.455139534,0.517309,0.27644369,-0.437457876,0.50478,0.259054911,-0.421041786,0.499326,0.309783622,-0.385498584,0.484112,0.277336033,-0.351884035,0.460415,0.261045741,-0.335019894,0.448566,0.246193546,-0.319652236,0.437794,0.32873511,-0.385649921,0.477546,0.305449756,-0.338635822,0.450984,0.291894525,-0.313685948,0.435489,0.279862664,-0.301586251,0.424421,0.346791128,-0.39151332,0.475018,0.325419075,-0.34283785,0.446673,0.310331994,-0.329163394,0.432171,0.294233996,-0.329602481,0.418988,0.371750899,-0.408135018,0.477036,0.364846437,-0.370481681,0.452377,0.359839315,-0.357437025,0.441047,0.349418182,-0.357123206,0.43105
0.365887928,-0.475726683,0.524253,0.342367713,-0.427706713,0.497973,0.347546565,-0.466392075,0.524488,0.307931513,-0.454881264,0.516077,0.273235388,-0.436701886,0.50352,0.256171265,-0.419920075,0.497991,0.306734281,-0.386336051,0.483494,0.270140933,-0.355850079,0.460318,0.25307649,-0.339874785,0.44873,0.23750034,-0.325308521,0.438195,0.323143293,-0.388079279,0.47706,0.300579367,-0.344050092,0.451075,0.287416678,-0.318362329,0.435918,0.27879701,-0.303105513,0.425091,0.34128255,-0.394245601,0.474715,0.318935898,-0.346005667,0.445991,0.303663656,-0.331709627,0.431295,0.290456042,-0.330251191,0.417935,0.366333021,-0.411377729,0.477069,0.36176462,-0.370620406,0.451898,0.351466721,-0.362036436,0.440333,0.338619068,-0.36467281,0.430128
0.362577914,-0.475597023,0.522415,0.339410669,-0.426738822,0.495948,0.341706663,-0.468875233,0.522255,0.30219708,-0.453415664,0.513236,0.267897217,-0.434819677,0.500701,0.252970967,-0.41853037,0.495452,0.301543256,-0.385917348,0.480837,0.267563106,-0.35396822,0.45721,0.250484178,-0.337933284,0.445396,0.234901122,-0.323317991,0.434657,0.320946008,-0.386818497,0.474887,0.298159458,-0.3424908,0.448174,0.284184631,-0.318142562,0.432591,0.271834526,-0.306965083,0.421461,0.339370146,-0.39338554,0.472961,0.31668121,-0.346592334,0.444205,0.301275027,-0.333247611,0.429493,0.285020873,-0.333992797,0.416118,0.364748425,-0.41097859,0.475833,0.3577344,-0.370959028,0.45067,0.350228999,-0.361977141,0.439109,0.33739808,-0.364668118,0.428908
0.363423925,-0.469621173,0.519082,0.339007772,-0.42118376,0.493165,0.342564368,-0.463428603,0.519519,0.304459331,-0.451957129,0.51237,0.270715061,-0.435862091,0.501734,0.252901443,-0.420155099,0.496105,0.30064821,-0.383190241,0.479161,0.265689045,-0.351815041,0.45601,0.24447929,-0.333810022,0.444435,0.232095555,-0.321725295,0.433911,0.319786486,-0.379316719,0.472542,0.293396747,-0.334877966,0.444994,0.277009857,-0.311294728,0.428924,0.267126892,-0.303581817,0.417446,0.338122434,-0.384207639,0.470003,0.31200094,-0.338813242,0.441345,0.295353137,-0.326189399,0.426682,0.281641507,-0.32753477,0.413353,0.364060795,-0.399821591,0.472064,0.354100369,-0.356497755,0.447059,0.345020879,-0.347633516,0.435571,0.332398826,-0.35084799,0.425434
0.360240589,-0.465773797,0.514735,0.338902857,-0.416246774,0.490709,0.340497512,-0.460089089,0.516073,0.303328937,-0.449507079,0.51001,0.271243087,-0.436585022,0.50261,0.254088076,-0.42296694,0.499005,0.300311025,-0.379424238,0.47897,0.263731757,-0.350135389,0.458062,0.245306668,-0.335417939,0.447609,0.228471713,-0.32199461,0.438111,0.318520282,-0.377656817,0.47159,0.292136898,-0.333666405,0.44457,0.275738431,-0.310320806,0.428808,0.261551817,-0.301833987,0.41755,0.336189071,-0.381799352,0.468212,0.311074975,-0.33793535,0.441437,0.295292971,-0.324430581,0.427738,0.278452557,-0.318966437,0.415285,0.361070147,-0.396190641,0.468947,0.352108207,-0.356451879,0.446794,0.343444986,-0.349437242,0.436615,0.331598987,-0.354020188,0.427634
0.361582485,-0.457120747,0.511943,0.329750214,-0.403084089,0.487782,0.340173724,-0.452319953,0.513552,0.298819116,-0.437799905,0.507654,0.263983972,-0.423128266,0.496796,0.244866731,-0.411331867,0.489317,0.293149708,-0.366156266,0.476327,0.256082833,-0.336286709,0.455249,0.237436761,-0.321287619,0.444709,0.220414404,-0.307611929,0.435128,0.31101395,-0.363967257,0.468555,0.28492149,-0.319513421,0.441932,0.268719227,-0.29568754,0.426403,0.254873091,-0.285172712,0.41531,0.328477072,-0.36770173,0.464869,0.301056749,-0.326509633,0.44326,0.286987212,-0.305478818,0.432204,0.274189268,-0.286344709,0.422154,0.353255301,-0.381512926,0.465276,0.341273274,-0.341041412,0.441117,0.332146059,-0.331351337,0.430017,0.320006557,-0.334560176,0.420224
0.343860072,-0.441025548,0.501875,0.321707174,-0.386721215,0.480464,0.326765191,-0.433594516,0.503689,0.288567039,-0.421478925,0.500364,0.254060575,-0.408549115,0.490565,0.235516637,-0.39436475,0.485959,0.288628908,-0.347794132,0.470831,0.252537054,-0.321684379,0.452001,0.234224886,-0.308496743,0.442585,0.217406588,-0.296423497,0.434026,0.306240319,-0.346131123,0.463426,0.276063769,-0.30307073,0.438638,0.258483112,-0.27799206,0.424178,0.245937246,-0.260099339,0.41385,0.32311857,-0.350515925,0.459733,0.295919861,-0.309428839,0.44008,0.281994193,-0.288387348,0.430026,0.269326952,-0.269244579,0.420885,0.346592235,-0.36551306,0.459603,0.335957816,-0.325582066,0.437493,0.327432611,-0.314246255,0.427334,0.315218103,-0.316697528,0.41837
0.336360201,-0.426976343,0.494627,0.317105661,-0.370862387,0.474292,0.319515578,-0.419197755,0.496485,0.283931761,-0.406086281,0.493612,0.249597405,-0.393826282,0.484176,0.231233273,-0.380299241,0.480151,0.284066908,-0.332834127,0.465321,0.248208408,-0.306863481,0.44715,0.229991682,-0.293727751,0.438065,0.213244938,-0.281688371,0.429805,0.301819888,-0.330750103,0.458109,0.27186044,-0.287987773,0.434178,0.254396445,-0.263065353,0.420218,0.241928697,-0.245275201,0.410247,0.318800333,-0.334718572,0.454454,0.291832157,-0.294005169,0.435702,0.278012915,-0.273133717,0.426107,0.265437048,-0.254133981,0.417385,0.34235622,-0.349121827,0.454162,0.33194436,-0.309397292,0.432853,0.32362742,-0.297971003,0.423062,0.311791661,-0.300534605,0.414423
0.329232593,-0.409652796,0.488096,0.307659714,-0.352215299,0.469062,0.312714514,-0.402449561,0.490396,0.274022294,-0.386407513,0.48641,0.240653337,-0.373090356,0.477878,0.221087792,-0.359376563,0.47223,0.275575969,-0.314999179,0.461416,0.239836913,-0.288082368,0.444293,0.221689423,-0.27445825,0.435732,0.205012693,-0.261965405,0.427948,0.292788376,-0.312374038,0.453916,0.261783004,-0.271794957,0.431163,0.243635739,-0.248031132,0.41789,0.230643186,-0.231010684,0.40841,0.309285789,-0.315858216,0.449878,0.279712552,-0.274246492,0.428847,0.264551944,-0.253136801,0.418087,0.24907297,-0.237746565,0.408305,0.332216179,-0.329654017,0.448895,0.320351816,-0.288677753,0.428521,0.311857631,-0.275022829,0.419161,0.300205691,-0.276070106,0.410901
0.320188838,-0.390068494,0.481985,0.299023164,-0.331360292,0.463147,0.301403987,-0.375165312,0.484251,0.264821918,-0.365935584,0.478806,0.229643201,-0.351292027,0.466996,0.209250747,-0.337075457,0.459797,0.266880279,-0.294527236,0.455564,0.231034417,-0.2672251,0.438605,0.21283902,-0.253402368,0.430126,0.196122602,-0.240725588,0.422417,0.284045956,-0.291520217,0.448155,0.252873636,-0.250632214,0.425546,0.233676425,-0.228571368,0.412357,0.219454782,-0.213654775,0.402936,0.30053561,-0.294682196,0.444171,0.270852448,-0.252983341,0.423352,0.255647482,-0.231846032,0.4127,0.24010641,-0.216247631,0.403017,0.323517624,-0.308111827,0.443212,0.311519904,-0.267079214,0.422998,0.302927795,-0.25313999,0.413711,0.29128508,-0.253924616,0.405516
0.315460794,-0.378123538,0.48078,0.295646254,-0.323090398,0.462682,0.299307951,-0.371668271,0.483619,0.261371451,-0.357878996,0.479148,0.227340697,-0.343788774,0.469302,0.208136177,-0.32955398,0.463686,0.264784601,-0.286740551,0.45628,0.229082909,-0.260797846,0.440227,0.210893265,-0.247623079,0.432201,0.195706672,-0.238825028,0.424905,0.281405823,-0.282653773,0.44828,0.249357428,-0.243476052,0.426453,0.230556613,-0.220475561,0.413721,0.21674443,-0.204588414,0.404626,0.297314928,-0.28498103,0.443726,0.267381681,-0.244145001,0.423682,0.251420376,-0.224519761,0.413427,0.23801407,-0.213954036,0.404104,0.319473454,-0.297567811,0.44197,0.310175931,-0.258842376,0.422004,0.301912654,-0.25012207,0.41283,0.290026629,-0.251919272,0.404736
0.309204825,-0.363799585,0.476342,0.289158303,-0.305341556,0.46016,0.29352045,-0.358431333,0.479871,0.255254454,-0.338739136,0.474282,0.22145608,-0.323833236,0.464195,0.2013112,-0.309476814,0.457038,0.2585059,-0.271494208,0.455757,0.22379629,-0.244675786,0.440331,0.2060805,-0.23102142,0.432618,0.189743483,-0.21845095,0.425606,0.274683423,-0.265887088,0.447283,0.24271631,-0.226767092,0.427233,0.223947702,-0.203779502,0.415537,0.210480948,-0.187275856,0.407183,0.290232414,-0.266809666,0.442123,0.262861315,-0.225440983,0.42239,0.248868315,-0.204297678,0.412294,0.238237028,-0.186723078,0.406671,0.311991014,-0.277503119,0.439303,0.310674704,-0.238880306,0.420277,0.300478861,-0.234336607,0.411536,0.289711622,-0.233675553,0.403823
0.296561415,-0.345845454,0.465528,0.273576077,-0.294984589,0.452591,0.281253416,-0.342500958,0.47001,0.241642521,-0.323290638,0.463962,0.210165384,-0.307306798,0.45602,0.192225534,-0.292019591,0.450458,0.242649875,-0.265042362,0.451285,0.21373016,-0.230421853,0.436065,0.19911099,-0.212914315,0.428455,0.185720322,-0.19687384,0.421537,0.25877071,-0.256924969,0.442297,0.234504828,-0.212474302,0.423153,0.219807519,-0.187204927,0.411986,0.208186181,-0.170495227,0.40401,0.27423635,-0.255569891,0.436347,0.254444896,-0.212129628,0.421419,0.24251583,-0.191882284,0.413782,0.231601209,-0.17331975,0.406838,0.295855385,-0.263229288,0.431996,0.292620225,-0.223230874,0.414913,0.285154099,-0.212691075,0.407064,0.27851921,-0.203236012,0.400139
0.274944317,-0.31766096,0.455183,0.257901302,-0.26989969,0.443953,0.259540578,-0.315181368,0.459764,0.225978364,-0.297492521,0.455064,0.196917128,-0.282830635,0.450662,0.180144874,-0.268127754,0.446744,0.228497002,-0.240710699,0.44374,0.201551763,-0.2060099,0.429265,0.18786955,-0.188370722,0.422028,0.174509277,-0.173333419,0.415448,0.244528755,-0.232630411,0.435017,0.221160733,-0.188977229,0.417586,0.207419111,-0.163572496,0.407419,0.195916054,-0.147106182,0.400156,0.259747424,-0.231191356,0.429094,0.241903988,-0.18803747,0.41466,0.232796455,-0.166041401,0.407276,0.220228003,-0.151324561,0.400563,0.280768543,-0.238575299,0.424446,0.280677554,-0.200106212,0.408625,0.273638779,-0.189954678,0.401356,0.267369853,-0.180810069,0.394942
0.268528323,-0.288639122,0.448159,0.248310633,-0.24245033,0.437255,0.253490548,-0.287835285,0.453429,0.219206217,-0.275089845,0.45057,0.187701983,-0.262836078,0.444353,0.169019697,-0.249743424,0.439849,0.217529091,-0.216153207,0.438144,0.188441002,-0.182002506,0.424451,0.173513733,-0.164874359,0.417605,0.159789168,-0.149119116,0.411381,0.232424821,-0.206275085,0.428578,0.207748322,-0.162518207,0.411565,0.193163609,-0.137258052,0.401641,0.184866362,-0.120619805,0.399101,0.247040965,-0.203200155,0.421924,0.230537731,-0.159285179,0.406617,0.22213311,-0.137004466,0.398786,0.20794686,-0.12710576,0.391667,0.267924423,-0.208415131,0.416373,0.26437271,-0.169468285,0.400373,0.25619088,-0.158809566,0.393022,0.248877376,-0.149191937,0.386535
0.266229375,-0.291156023,0.457376,0.243189421,-0.240661004,0.4415,0.240676527,-0.282279239,0.45931,0.205739577,-0.265616761,0.449797,0.174341923,-0.24462585,0.437991,0.159242551,-0.227764549,0.433301,0.210491438,-0.206623692,0.435142,0.182378117,-0.16927324,0.419017,0.168273872,-0.150528546,0.410954,0.155422115,-0.133444498,0.403624,0.231728724,-0.204785285,0.428866,0.211936986,-0.158483664,0.413368,0.200440138,-0.13274637,0.404327,0.191282335,-0.115074789,0.397869,0.24923792,-0.205252854,0.425482,0.231705881,-0.161449658,0.410305,0.222778518,-0.139216263,0.402541,0.210340102,-0.12528525,0.395482,0.273490089,-0.21740383,0.424643,0.263102863,-0.181103471,0.406707,0.259021955,-0.162716478,0.398466,0.253005434,-0.150289125,0.391195
0.261757126,-0.283635688,0.450654,0.240756054,-0.22983493,0.4377,0.240392818,-0.276932593,0.453803,0.207072161,-0.257736923,0.446541,0.174468015,-0.242952668,0.437155,0.159020667,-0.227769067,0.433884,0.206720282,-0.20100417,0.434606,0.179870478,-0.16343978,0.418846,0.166375012,-0.1445475,0.410965,0.154626643,-0.130560931,0.403802,0.225117719,-0.192794351,0.427391,0.205208673,-0.148550754,0.412307,0.193536526,-0.12273456,0.403508,0.184436303,-0.104711849,0.397223,0.242525808,-0.19122745,0.422905,0.225322227,-0.147384549,0.407257,0.215135961,-0.126128142,0.399251,0.204764407,-0.107863389,0.391973,0.266471649,-0.19835861,0.420238,0.260280702,-0.160392836,0.404058,0.255969829,-0.144571879,0.396623,0.252171476,-0.130474667,0.390063
0.252350098,-0.262599013,0.442168,0.230049416,-0.206967331,0.431117,0.232063669,-0.251756444,0.446009,0.19669066,-0.236753028,0.440761,0.165017052,-0.222516779,0.433076,0.147587322,-0.208636956,0.4291,0.197515683,-0.179660797,0.430017,0.171417334,-0.142576511,0.415665,0.158237548,-0.123826243,0.408489,0.146173595,-0.106649397,0.401965,0.215206355,-0.170749948,0.422322,0.194823044,-0.126455092,0.407075,0.182966829,-0.100719289,0.398181,0.169997923,-0.0897127182,0.391827,0.23191934,-0.168485575,0.417226,0.212589835,-0.126694074,0.404509,0.202667225,-0.105212966,0.398003,0.193625488,-0.0856219506,0.392088,0.254877492,-0.17461146,0.413495,0.254563368,-0.137438056,0.398378,0.249640184,-0.125110012,0.391432,0.245282622,-0.113956365,0.385303
0.244445226,-0.246564977,0.43626,0.226656223,-0.201531088,0.427184,0.227943374,-0.245641576,0.440539,0.192122395,-0.226475515,0.435491,0.161280991,-0.212106247,0.428958,0.144995788,-0.198229105,0.426016,0.193684543,-0.172101688,0.42778,0.168214538,-0.135156606,0.414712,0.155251483,-0.116478329,0.408178,0.144819203,-0.103031875,0.402238,0.21127715,-0.162477498,0.419961,0.189059018,-0.118644824,0.404304,0.176113001,-0.0931138732,0.395171,0.16622983,-0.075162555,0.388647,0.227774778,-0.159521069,0.41454,0.209317042,-0.11825927,0.404171,0.199360571,-0.0972570408,0.398866,0.190269303,-0.0780566079,0.394043,0.250269249,-0.164654989,0.410056,0.246511507,-0.127245177,0.396229,0.241825543,-0.112446968,0.389876,0.237675098,-0.0991199556,0.38427
0.241401536,-0.24135348,0.435189,0.219087189,-0.186779479,0.425827,0.222485986,-0.236289011,0.438903,0.184210605,-0.213879582,0.432822,0.154058539,-0.199027315,0.426821,0.136520772,-0.184175105,0.421843,0.186638445,-0.16009677,0.425508,0.160959505,-0.123138037,0.412482,0.147947906,-0.104382294,0.405969,0.134989432,-0.0881929631,0.400047,0.205392131,-0.151220151,0.418377,0.184040555,-0.107158566,0.402542,0.171462205,-0.081564673,0.393306,0.16427986,-0.0639904365,0.390993,0.222740749,-0.148906472,0.413554,0.20340715,-0.107312799,0.401415,0.192434969,-0.0864989056,0.395204,0.182364034,-0.0673413103,0.389558,0.24603539,-0.154788342,0.409813,0.239701682,-0.119198383,0.396179,0.236601133,-0.1027754,0.389915,0.233712474,-0.0882540136,0.384387
0.233958632,-0.225509189,0.434938,0.214155066,-0.173734299,0.424839,0.216568074,-0.223606656,0.437995,0.180983999,-0.202529839,0.435083,0.149532576,-0.189683985,0.428744,0.132452076,-0.175942195,0.425181,0.181876234,-0.145702314,0.423227,0.155053299,-0.1094627,0.409709,0.141408184,-0.0909916753,0.40295,0.128157915,-0.0746390449,0.396806,0.200371422,-0.137914099,0.416797,0.178985717,-0.0937092923,0.400255,0.166179405,-0.0680382485,0.390605,0.156649886,-0.0502097778,0.38497,0.217675525,-0.136515397,0.412635,0.200620441,-0.0943770152,0.401139,0.191244466,-0.0729292671,0.395258,0.182684074,-0.0533175008,0.389911,0.241105568,-0.143577794,0.409791,0.233143863,-0.106098147,0.39597,0.229474988,-0.0888600119,0.389619,0.226238273,-0.073636731,0.384016
0.232763692,-0.22275191,0.435703,0.213163703,-0.172040292,0.424795,0.213676519,-0.215667944,0.438908,0.179412799,-0.199382471,0.433625,0.147171792,-0.182098298,0.426366,0.130703697,-0.171104089,0.422166,0.180951244,-0.143742775,0.422918,0.153846875,-0.107401559,0.409284,0.140086086,-0.0889199993,0.402467,0.127095113,-0.0722483265,0.39627,0.199266819,-0.135898991,0.4161,0.177347857,-0.0917330982,0.399508,0.163400722,-0.0650635082,0.392422,0.155126462,-0.0492292773,0.387361,0.216408107,-0.134486564,0.411706,0.19882744,-0.0922266739,0.399391,0.18927733,-0.070719203,0.393091,0.179816107,-0.0513925224,0.387363,0.239667107,-0.14157948,0.408747,0.231087933,-0.104269665,0.3942,0.22714064,-0.0870801312,0.387516,0.223657484,-0.0718845948,0.381618
0.228794791,-0.21505482,0.435014,0.209413273,-0.166802362,0.423166,0.211564616,-0.212673192,0.438102,0.172481278,-0.191721105,0.431958,0.140408121,-0.177279202,0.423507,0.125550044,-0.164521892,0.418563,0.174294707,-0.135033192,0.420605,0.147248844,-0.0978563567,0.406297,0.133329648,-0.0792644753,0.399143,0.122818404,-0.0657780643,0.392639,0.193084981,-0.127515394,0.413721,0.170596415,-0.0846133846,0.400634,0.157401603,-0.0594064807,0.392999,0.147939961,-0.0413138539,0.387546,0.210620724,-0.126413947,0.409379,0.193927819,-0.084150087,0.397434,0.184001405,-0.0628645224,0.391323,0.177224009,-0.0488272288,0.385767,0.234342797,-0.13389252,0.40666,0.224227874,-0.0969928837,0.39141,0.219576003,-0.079921506,0.384404,0.219617046,-0.0691109842,0.378221
0.226950811,-0.213037843,0.434027,0.205681249,-0.162968165,0.42249,0.209702694,-0.210940054,0.437293,0.171147343,-0.190187119,0.430813,0.139589365,-0.175093979,0.422709,0.12208272,-0.160376695,0.417734,0.172459764,-0.134900954,0.42034,0.146116602,-0.0974584986,0.406062,0.132664355,-0.0786320234,0.398922,0.120337976,-0.061364093,0.392432,0.191213393,-0.126789989,0.413293,0.169765611,-0.0835155525,0.399728,0.156752207,-0.0582570595,0.391815,0.147400288,-0.0400767089,0.386163,0.208696805,-0.125167609,0.408782,0.191913284,-0.0828291523,0.396233,0.182507207,-0.0613251968,0.389812,0.172354297,-0.0423759107,0.383975,0.232362852,-0.131972892,0.405809,0.22295024,-0.0953356486,0.390716,0.218516205,-0.0784347288,0.383781,0.214299923,-0.0636703885,0.377662
0.223623569,-0.208529433,0.430111,0.198401412,-0.15246056,0.418805,0.205308583,-0.204989944,0.434018,0.165538512,-0.181829993,0.42805,0.135988357,-0.169970336,0.420176,0.119018049,-0.155765473,0.416332,0.164692439,-0.126334787,0.41764,0.138097396,-0.0886665764,0.402747,0.12466144,-0.0696107762,0.395301,0.115688009,-0.0560752855,0.388532,0.182650551,-0.11673424,0.409793,0.163470157,-0.072991526,0.396835,0.150447591,-0.0478407937,0.389276,0.144044976,-0.0369269879,0.383877,0.199626132,-0.11382018,0.404597,0.183395088,-0.0714924222,0.39226,0.172419745,-0.0506926444,0.385948,0.162283421,-0.0313948958,0.38021,0.22299511,-0.119007174,0.400792,0.214072763,-0.082677175,0.385436,0.209971231,-0.0657906318,0.378381,0.206328331,-0.0507913918,0.372156
0.220644736,-0.204036275,0.429184,0.197158089,-0.151227787,0.417866,0.20211905,-0.200422424,0.432925,0.164289889,-0.180696597,0.427321,0.13271511,-0.166805608,0.419755,0.11732444,-0.154534903,0.415869,0.163619139,-0.124909206,0.416473,0.136581471,-0.087713933,0.402154,0.122910986,-0.0688831056,0.394995,0.110387398,-0.051616864,0.388487,0.181554736,-0.115505041,0.408845,0.161614941,-0.0717218177,0.395029,0.148301866,-0.0465677048,0.386969,0.137233239,-0.0292604826,0.381213,0.198522029,-0.112745467,0.403829,0.182491489,-0.0706987897,0.392087,0.171328785,-0.0500538947,0.386079,0.16100642,-0.0308781064,0.380617,0.221888443,-0.118121533,0.400235,0.212907136,-0.0815901571,0.384996,0.208777576,-0.0646333883,0.377994,0.205121549,-0.0495794211,0.371817
0.217605331,-0.200932179,0.429563,0.196118365,-0.151324668,0.418021,0.198667949,-0.197498093,0.432581,0.156643854,-0.179150513,0.427118,0.125620615,-0.164370308,0.419741,0.11288489,-0.152001748,0.415554,0.162484111,-0.123524816,0.415538,0.135502992,-0.0864738261,0.401762,0.120517852,-0.0667917102,0.394874,0.109345002,-0.0504915118,0.388612,0.181325029,-0.115343525,0.408821,0.160805165,-0.0716144769,0.39473,0.147082422,-0.0465841957,0.38651,0.136193492,-0.0290552591,0.380639,0.198948043,-0.113634414,0.404581,0.181978886,-0.0717954477,0.392977,0.170710867,-0.051121041,0.38704,0.160305241,-0.0319533922,0.381643,0.222873404,-0.120303944,0.401922,0.2132811,-0.0838665991,0.38696,0.206754688,-0.0707584266,0.380086,0.204958352,-0.0518716334,0.374021
0.216592517,-0.200894825,0.43074,0.195357884,-0.151635822,0.418664,0.195849337,-0.195239944,0.43335,0.155942276,-0.179694973,0.427942,0.125018903,-0.164968599,0.420597,0.110512537,-0.151431919,0.416864,0.160944281,-0.122130774,0.415336,0.133664092,-0.0851250134,0.401366,0.1198787,-0.0664035127,0.394381,0.108492772,-0.0499535115,0.38803,0.18085929,-0.115397979,0.409038,0.160153277,-0.0716784187,0.394765,0.146516889,-0.0465758807,0.386439,0.135892706,-0.0288771926,0.380491,0.19875873,-0.114191608,0.405203,0.179265372,-0.0739586634,0.393815,0.168895228,-0.0520449996,0.387988,0.158346891,-0.0329112167,0.382691,0.222958453,-0.121509462,0.403111,0.21134595,-0.0877108418,0.387915,0.206232823,-0.0708477871,0.380933,0.204216911,-0.052937404,0.374773
0.215682674,-0.200696363,0.431214,0.194873072,-0.151800111,0.418988,0.1949873,-0.195273332,0.433704,0.155738488,-0.179911512,0.4283,0.124826401,-0.165178444,0.420909,0.110128849,-0.151560822,0.417495,0.160591251,-0.122032593,0.415416,0.133374054,-0.0849861479,0.401361,0.119620174,-0.0662432791,0.394334,0.108056155,-0.0496653074,0.387945,0.180612651,-0.115451496,0.409242,0.159779252,-0.0717246035,0.394829,0.146187234,-0.0465739859,0.386422,0.135717812,-0.0287716574,0.380417,0.198620547,-0.114511754,0.405526,0.178943932,-0.0740441699,0.394024,0.168391821,-0.0523931974,0.388138,0.157833403,-0.0332444184,0.382788,0.222884648,-0.122165051,0.403599,0.211223594,-0.0877880092,0.388332,0.20611414,-0.0708966364,0.381318,0.203721146,-0.0535625917,0.375129
0.214715367,-0.200365555,0.431099,0.194416485,-0.151895674,0.419108,0.195551555,-0.196669998,0.433664,0.155666144,-0.18023123,0.428702,0.124830922,-0.165852931,0.42176,0.108561936,-0.15191276,0.418537,0.16040161,-0.122156362,0.415768,0.13304936,-0.0853062304,0.402127,0.118686743,-0.0662504504,0.395307,0.106550343,-0.0495508516,0.389107,0.180425821,-0.11555945,0.40955,0.157828721,-0.0720688682,0.395116,0.144082631,-0.0469452196,0.386696,0.134248666,-0.0287071587,0.380682,0.198431839,-0.114710801,0.405771,0.178439875,-0.074066734,0.394056,0.168005366,-0.0524872868,0.388063,0.157218493,-0.0334743285,0.382614,0.222609539,-0.122464128,0.403727,0.210906474,-0.0878859811,0.388622,0.205787507,-0.0710442482,0.381683,0.201259732,-0.056067163,0.375559
0.214095908,-0.200232157,0.431276,0.194135552,-0.151999188,0.419291,0.195030492,-0.196606952,0.433918,0.155684107,-0.180493982,0.429112,0.124793725,-0.166204799,0.422136,0.108456773,-0.152325263,0.418921,0.160296787,-0.122255438,0.416059,0.132793024,-0.0854943396,0.402518,0.118370956,-0.0666015514,0.395748,0.106154446,-0.0498377201,0.389593,0.180278201,-0.115627549,0.409738,0.15739172,-0.072273613,0.395364,0.143630214,-0.0471530442,0.386979,0.13365379,-0.0289992702,0.380989,0.198261926,-0.114832582,0.405874,0.178127807,-0.0740764967,0.394055,0.167745926,-0.0525492445,0.388008,0.156813904,-0.0336287437,0.382511,0.222365112,-0.122650995,0.403731,0.210610343,-0.0879009432,0.388602,0.20545528,-0.0710862404,0.381651,0.200895662,-0.0561272365,0.375518
