sluyters/QuantumLeap/backend/src/datasets/dynamic/HandGestureDataset_SHREC2017_csv/Gesture13/finger_2/subject_25_essai_5_skeletons_world.csv
Wrist_x,Wrist_y,Wrist_z,Palm_x,Palm_y,Palm_z,thumb_base_x,thumb_base_y,thumb_base_z,thumb_first_joint_x,thumb_first_joint_y,thumb_first_joint_z,thumb_second_joint_x,thumb_second_joint_y,thumb_second_joint_z,thumb_tip_x,thumb_tip_y,thumb_tip_z,index_base_x,index_base_y,index_base_z,index_first_joint_x,index_first_joint_y,index_first_joint_z,index_second_joint_x,index_second_joint_y,index_second_joint_z,index_tip_x,index_tip_y,index_tip_z,middle_base_x,middle_base_y,middle_base_z,middle_first_joint_x,middle_first_joint_y,middle_first_joint_z,middle_second_joint_x,middle_second_joint_y,middle_second_joint_z,middle_tip_x,middle_tip_y,middle_tip_z,ring_base_x,ring_base_y,ring_base_z,ring_first_joint_x,ring_first_joint_y,ring_first_joint_z,ring_second_joint_x,ring_second_joint_y,ring_second_joint_z,ring_tip_x,ring_tip_y,ring_tip_z,pinky_base_x,pinky_base_y,pinky_base_z,pinky_first_joint_x,pinky_first_joint_y,pinky_first_joint_z,pinky_second_joint_x,pinky_second_joint_y,pinky_second_joint_z,pinky_tip_x,pinky_tip_y,pinky_tip_z,
0.435820168,-0.196778523,0.454406,0.435136624,-0.15243096,0.449601,0.415213646,-0.185679712,0.452521,0.386113026,-0.163514139,0.448095,0.360989989,-0.147078457,0.44761,0.34834582,-0.136118866,0.452189,0.407995398,-0.109733088,0.444049,0.402337107,-0.0678114264,0.433686,0.398492219,-0.0475862042,0.428504,0.394999718,-0.0291588612,0.423794,0.434476592,-0.11237353,0.445219,0.427179339,-0.0694698303,0.435737,0.424699464,-0.0443836501,0.430206,0.426114047,-0.0314999366,0.426255,0.458173784,-0.11679339,0.446689,0.4564659,-0.0747708242,0.438605,0.455609707,-0.0531578749,0.434468,0.45484369,-0.0334406563,0.430708,0.483616677,-0.132386127,0.44928,0.500248737,-0.104508081,0.444882,0.508003826,-0.0915577932,0.442861,0.514908223,-0.0800547056,0.441078
0.434359487,-0.193711622,0.451753,0.437118783,-0.147523392,0.445887,0.413161108,-0.181494884,0.448547,0.384081764,-0.159517652,0.445282,0.358993418,-0.143571888,0.445082,0.350396101,-0.131296102,0.450122,0.416360544,-0.0994773761,0.437933,0.408349381,-0.0629567736,0.434249,0.405941975,-0.0434492774,0.432406,0.403746002,-0.0254917823,0.430731,0.443568364,-0.105317723,0.440548,0.447057942,-0.0658252729,0.441172,0.44936396,-0.0428869756,0.441807,0.451035902,-0.026519313,0.442286,0.465557803,-0.114798216,0.443323,0.465144411,-0.0751407658,0.439759,0.464918108,-0.0550161703,0.437935,0.463732065,-0.0347567787,0.436278,0.490381178,-0.133937353,0.447626,0.502664941,-0.105722083,0.445353,0.510347458,-0.0931684464,0.444309,0.517145227,-0.082063741,0.443387
0.437601018,-0.194510528,0.453327,0.443572024,-0.148357434,0.447289,0.416262331,-0.181952738,0.449736,0.392755439,-0.159659194,0.446342,0.368188956,-0.141492555,0.445086,0.361420688,-0.128505016,0.450859,0.420539909,-0.105103816,0.438727,0.409848015,-0.0656152077,0.43037,0.404746656,-0.0458877512,0.42645,0.398556649,-0.0274528844,0.424668,0.446452435,-0.107983913,0.441797,0.448179892,-0.067512888,0.440592,0.449497339,-0.0437324386,0.439888,0.450599751,-0.0266140837,0.439386,0.468851976,-0.117290368,0.444965,0.475232801,-0.080887911,0.444397,0.477707069,-0.0611690723,0.444107,0.479959744,-0.0432163959,0.443843,0.494244842,-0.136270969,0.449755,0.508625505,-0.108333857,0.447801,0.515236054,-0.0955339422,0.446904,0.520965979,-0.0831825336,0.446112
0.440305529,-0.194855226,0.454013,0.448164887,-0.150692966,0.447842,0.42098803,-0.181153303,0.450081,0.394206516,-0.160639511,0.446247,0.368543047,-0.142988303,0.444352,0.360654229,-0.130023651,0.449435,0.422268182,-0.105027715,0.438758,0.409307229,-0.0653502914,0.428809,0.403645837,-0.0454825593,0.423835,0.398932578,-0.0274572916,0.419313,0.450233245,-0.110140588,0.442224,0.449899543,-0.0684005759,0.438977,0.450025841,-0.0438293863,0.437083,0.449928949,-0.0262186013,0.437334,0.473020018,-0.119061119,0.445728,0.475642052,-0.080215387,0.444307,0.476978746,-0.0603958652,0.443581,0.47686114,-0.040259005,0.44292,0.499026281,-0.137616958,0.450928,0.512748532,-0.108808151,0.448585,0.519045028,-0.0955848708,0.447508,0.524190962,-0.0841719818,0.446558
0.44145049,-0.195053561,0.45345,0.448297475,-0.151046676,0.447226,0.42208884,-0.181767284,0.449652,0.394713336,-0.162124104,0.444439,0.368758553,-0.145030254,0.442644,0.360055527,-0.130682837,0.447918,0.421647648,-0.105781193,0.438293,0.408553909,-0.065895851,0.427638,0.402644629,-0.0459594226,0.42231,0.398204752,-0.0280122058,0.417467,0.449608919,-0.110466011,0.441588,0.448249064,-0.0685049139,0.437436,0.447662584,-0.0439825864,0.435015,0.448608193,-0.0262327666,0.433285,0.472501029,-0.119048813,0.44496,0.474620143,-0.0803309348,0.443444,0.476191893,-0.0602673653,0.442668,0.476730875,-0.0403580374,0.441963,0.498815676,-0.137247833,0.45002,0.510127371,-0.107864619,0.445341,0.513876028,-0.0944044003,0.443192,0.524200619,-0.0844645474,0.441295
0.438906391,-0.197806378,0.452018,0.443759813,-0.159053465,0.445443,0.419479273,-0.183267069,0.449012,0.39189738,-0.161977606,0.441955,0.360771023,-0.139458748,0.43137,0.354683097,-0.127515542,0.438067,0.420150911,-0.112843694,0.437316,0.408038286,-0.0703474449,0.427231,0.40207185,-0.0506158287,0.422188,0.399214944,-0.0332533567,0.417604,0.446999685,-0.118878583,0.439485,0.442434231,-0.0751194213,0.428872,0.441484601,-0.0493624655,0.422681,0.443412643,-0.0328841181,0.418259,0.468725765,-0.128523635,0.441968,0.470823179,-0.0902046311,0.440282,0.473408564,-0.0697572754,0.439419,0.476667679,-0.0506210925,0.438635,0.49330508,-0.147881126,0.446061,0.50559159,-0.11933039,0.440929,0.511371276,-0.106293428,0.438571,0.518963078,-0.0972348406,0.43649
0.442048342,-0.196613728,0.452698,0.446815635,-0.153220296,0.445939,0.423804636,-0.185227518,0.449592,0.391849494,-0.163749445,0.440915,0.365437593,-0.144383074,0.436884,0.356896759,-0.13036203,0.441563,0.419828006,-0.110620061,0.437551,0.407833651,-0.0705270463,0.426298,0.401930753,-0.0506085862,0.420672,0.398227633,-0.0314124933,0.415556,0.446921083,-0.113460586,0.439817,0.444874971,-0.071923515,0.432821,0.442229761,-0.0455028979,0.42874,0.446638715,-0.0296946567,0.425825,0.469291568,-0.119440394,0.442403,0.471161833,-0.0803152834,0.439885,0.47223068,-0.0604277532,0.438596,0.477561194,-0.0481961729,0.437425,0.495693284,-0.136500753,0.446656,0.509573271,-0.107795387,0.440948,0.51917093,-0.0961199014,0.438325,0.520470126,-0.0838324742,0.436011
0.440768196,-0.198780892,0.451805,0.444131933,-0.157349996,0.443128,0.423379848,-0.186175682,0.448692,0.390006846,-0.171984065,0.440371,0.359872186,-0.153272143,0.433268,0.351252473,-0.140303434,0.43811,0.415681403,-0.113370412,0.433469,0.404357858,-0.0739215912,0.419711,0.39958246,-0.0536335006,0.413354,0.396558902,-0.034778648,0.411887,0.442585811,-0.117761409,0.435229,0.441078006,-0.0748008003,0.427504,0.441249116,-0.0494616827,0.422997,0.441787723,-0.0310898406,0.419778,0.464844121,-0.126188431,0.437605,0.467021081,-0.0875597723,0.435191,0.469112187,-0.0672797744,0.433956,0.473296261,-0.0472103478,0.432833,0.490876442,-0.144380964,0.441974,0.505233329,-0.116701819,0.437903,0.511883262,-0.104040547,0.436032,0.51965851,-0.0893158237,0.434382
0.443338313,-0.209338543,0.450096,0.439995175,-0.173088081,0.438445,0.423461841,-0.200752771,0.44606,0.387741007,-0.185194137,0.436731,0.35871653,-0.1660268,0.430203,0.347021608,-0.150915094,0.430824,0.407255923,-0.127790394,0.425632,0.39600376,-0.0875062331,0.414093,0.390545665,-0.0674297127,0.408499,0.386076199,-0.0492211565,0.403845,0.434660473,-0.130338943,0.427785,0.427754699,-0.0867129224,0.416869,0.423753639,-0.061282238,0.410502,0.421602491,-0.043018855,0.405953,0.457846644,-0.137401082,0.430799,0.458924155,-0.0971259518,0.426289,0.459841731,-0.0763820612,0.423981,0.460686622,-0.0574677048,0.421884,0.485862646,-0.154255816,0.436458,0.499235759,-0.125453895,0.431803,0.505587421,-0.112265803,0.42984,0.511551161,-0.0982869905,0.428561
0.42971202,-0.220162363,0.440715,0.422764178,-0.17898691,0.431058,0.401709363,-0.211593611,0.436953,0.370123968,-0.189554072,0.43278,0.342281515,-0.170228095,0.427378,0.33195578,-0.155542686,0.429158,0.395307202,-0.132079244,0.41988,0.38601342,-0.0918169599,0.40874,0.381393199,-0.071685698,0.403198,0.377282392,-0.0533917329,0.398254,0.42269273,-0.137188559,0.422222,0.418980928,-0.0935242056,0.412742,0.416808339,-0.0681053515,0.407212,0.416147031,-0.0497931285,0.403262,0.445271519,-0.146284479,0.425185,0.445824005,-0.1063892,0.420989,0.446774488,-0.0857781271,0.418842,0.448632605,-0.0666706404,0.41689,0.471521219,-0.165363525,0.430423,0.485623551,-0.137009947,0.427362,0.492406435,-0.124089879,0.426233,0.498439338,-0.112701097,0.425278
0.421133652,-0.230122988,0.440243,0.413183757,-0.188198756,0.42868,0.398913049,-0.217640826,0.435916,0.36144493,-0.203131124,0.428649,0.33337296,-0.186445287,0.425134,0.319435382,-0.171457703,0.424163,0.379143048,-0.143310651,0.415564,0.364191924,-0.103015874,0.399366,0.356716074,-0.0828087283,0.391267,0.350684201,-0.0650730121,0.383904,0.40700662,-0.145547295,0.418168,0.402411553,-0.1020334,0.408616,0.401357954,-0.0767589682,0.403045,0.400648704,-0.0584686769,0.399065,0.430728715,-0.152426497,0.421558,0.432678167,-0.111714842,0.415122,0.433679475,-0.0908621013,0.411828,0.434672484,-0.0718656846,0.408834,0.459604069,-0.169198735,0.427651,0.475880589,-0.141818711,0.424547,0.483683182,-0.129355308,0.423421,0.490569316,-0.118357181,0.422428
0.410050663,-0.238524927,0.432256,0.400726983,-0.199688991,0.423757,0.386336298,-0.236752172,0.430586,0.352056074,-0.21718568,0.425332,0.323311947,-0.200810157,0.421271,0.31040273,-0.186914816,0.422053,0.368271119,-0.158418029,0.416117,0.358205394,-0.117947783,0.40428,0.353221546,-0.0977438121,0.398417,0.348737732,-0.0793933817,0.39314,0.394369488,-0.158195361,0.416079,0.384544224,-0.11349442,0.402554,0.37881285,-0.0874261398,0.394665,0.374891158,-0.0688410014,0.389209,0.416637009,-0.162982757,0.416968,0.413787165,-0.121307277,0.408781,0.412465158,-0.0999913184,0.404592,0.411267055,-0.0805887064,0.400784,0.443792274,-0.177168246,0.419598,0.457276816,-0.148459098,0.415415,0.463620177,-0.135311866,0.413583,0.469219408,-0.123709092,0.411967
0.39111447,-0.265387597,0.430342,0.3860296,-0.218936124,0.421261,0.368250451,-0.254186262,0.425991,0.336875481,-0.234868761,0.423748,0.310656903,-0.218753882,0.42253,0.299401328,-0.205159879,0.424682,0.352956403,-0.174920036,0.409739,0.337205728,-0.135390161,0.395211,0.329315471,-0.115479844,0.387946,0.322134961,-0.0972888701,0.381343,0.381419467,-0.177267724,0.413064,0.371619074,-0.132658852,0.399811,0.365899194,-0.106668097,0.392079,0.362614008,-0.0884956467,0.386557,0.405502995,-0.184210739,0.416789,0.399265412,-0.141694481,0.406545,0.397999106,-0.120849917,0.401304,0.396906457,-0.101616356,0.39654,0.434482399,-0.200990215,0.422811,0.444388308,-0.170484134,0.415905,0.449488898,-0.156729434,0.41327,0.454043802,-0.144614011,0.410996
0.385300313,-0.271839898,0.42959,0.377271268,-0.232601383,0.421476,0.357739779,-0.266877431,0.425424,0.327173923,-0.246600795,0.423397,0.302045085,-0.229993946,0.422875,0.291604577,-0.216241575,0.425399,0.346204039,-0.18791597,0.410815,0.332056048,-0.148229192,0.397027,0.324973001,-0.128255391,0.390134,0.318526309,-0.110015075,0.383866,0.374636158,-0.191221422,0.414151,0.36554785,-0.146245539,0.400417,0.360761567,-0.120473032,0.392406,0.358284152,-0.102973439,0.386684,0.398466057,-0.198920454,0.417779,0.394186166,-0.156639498,0.408348,0.393762409,-0.135971812,0.403523,0.393438577,-0.116911872,0.399137,0.426756089,-0.216525683,0.423507,0.437958678,-0.186605618,0.417113,0.443664104,-0.17315966,0.414738,0.448694156,-0.16130298,0.412643
0.3758781,-0.301435173,0.43637,0.364315328,-0.254446115,0.423026,0.353002258,-0.292641526,0.432824,0.319143592,-0.272372276,0.426999,0.290466544,-0.255070573,0.422428,0.276551097,-0.239781501,0.421223,0.326925866,-0.21279182,0.409824,0.318067918,-0.173152386,0.401796,0.313873762,-0.153500267,0.398075,0.310061293,-0.135643861,0.394692,0.353877289,-0.212021376,0.41098,0.338103098,-0.165722138,0.394196,0.330112042,-0.140959611,0.384405,0.324408632,-0.123067237,0.377412,0.377329843,-0.216490389,0.413381,0.372670943,-0.173750454,0.401786,0.370448299,-0.152062719,0.395854,0.368430459,-0.132334893,0.390462,0.406658527,-0.230514722,0.418673,0.413570579,-0.198939891,0.40852,0.416902405,-0.18452972,0.40402,0.419840644,-0.17181861,0.40005
0.369877958,-0.308960504,0.433326,0.350652084,-0.270909888,0.418563,0.342019918,-0.310947912,0.428103,0.307173726,-0.292208476,0.422788,0.282812062,-0.279230577,0.425073,0.268874614,-0.265353668,0.425098,0.308644303,-0.230429045,0.402283,0.29377697,-0.190550518,0.390684,0.286342938,-0.170611032,0.384884,0.279584519,-0.152484172,0.379611,0.336463763,-0.22817304,0.405298,0.326368901,-0.184043983,0.394635,0.320537682,-0.158366184,0.388415,0.316372436,-0.140025477,0.383972,0.361104251,-0.231493186,0.409392,0.359664804,-0.190809788,0.404499,0.358926675,-0.170009511,0.401995,0.358255302,-0.151109222,0.399719,0.392644995,-0.24431598,0.41692,0.40536358,-0.215052112,0.41228,0.411378551,-0.201727456,0.410337,0.416681792,-0.18997557,0.408622
0.346379281,-0.339035613,0.428397,0.330387524,-0.292273973,0.414149,0.321804736,-0.331794665,0.422825,0.288031506,-0.313504889,0.4184,0.266343602,-0.301526524,0.423401,0.255336978,-0.288790843,0.42631,0.287927515,-0.252904673,0.39774,0.27811385,-0.213835871,0.391017,0.273212994,-0.194341204,0.387656,0.268760627,-0.176642037,0.3846,0.316016928,-0.25024356,0.401347,0.301679828,-0.203402335,0.38468,0.294582134,-0.178159911,0.374958,0.290914035,-0.163060291,0.368013,0.340899105,-0.253156311,0.405872,0.334166236,-0.21011385,0.392839,0.330717879,-0.188114859,0.38617,0.327701676,-0.168192168,0.380247,0.372714685,-0.265370034,0.413801,0.387533301,-0.237261633,0.409556,0.394444623,-0.224441271,0.407731,0.400536698,-0.213136209,0.40612
0.335095144,-0.360754763,0.428706,0.32171104,-0.313813304,0.414715,0.311119839,-0.352442957,0.42366,0.275318049,-0.33583129,0.417784,0.258543607,-0.327638186,0.427967,0.247284516,-0.315831571,0.431415,0.281700222,-0.272921653,0.399159,0.261754498,-0.232633047,0.383946,0.25194584,-0.213049855,0.37634,0.243016145,-0.19520632,0.369425,0.309683349,-0.271618346,0.402143,0.292893391,-0.226145647,0.385305,0.283320924,-0.200171877,0.375483,0.276592334,-0.18183818,0.368467,0.33419333,-0.275668982,0.406126,0.3257021,-0.233358747,0.397544,0.321436913,-0.211868086,0.393153,0.318019847,-0.192793589,0.389162,0.365086701,-0.289235365,0.413381,0.374802338,-0.258473299,0.406743,0.379297841,-0.244379954,0.403736,0.383261285,-0.231950514,0.401083
0.333237602,-0.371260438,0.431743,0.31303948,-0.33203751,0.416757,0.305779762,-0.371988692,0.428379,0.271650507,-0.357683064,0.425937,0.249975879,-0.348121738,0.432061,0.233872499,-0.335163953,0.43102,0.272350148,-0.292574793,0.402775,0.255967652,-0.254899721,0.395894,0.247785543,-0.236084684,0.392456,0.240351965,-0.218992703,0.389331,0.298673593,-0.289724235,0.403293,0.279970407,-0.24435935,0.384229,0.269145841,-0.218474676,0.373109,0.261410524,-0.19996661,0.365165,0.322104979,-0.292512714,0.405354,0.312997,-0.249475595,0.395434,0.308650121,-0.228424916,0.390358,0.304696806,-0.209179258,0.385744,0.352254323,-0.304641512,0.410571,0.361356144,-0.273581355,0.403219,0.365628036,-0.259403593,0.399953,0.369393873,-0.246899109,0.397071
0.332591642,-0.374725921,0.431654,0.3128552,-0.333600684,0.416564,0.30708178,-0.373956134,0.428738,0.273487376,-0.364307051,0.427065,0.251627414,-0.357665164,0.434314,0.233048763,-0.345653529,0.431603,0.271455448,-0.295206953,0.403103,0.246756334,-0.259107282,0.389754,0.235261173,-0.240186084,0.383521,0.224810609,-0.222984515,0.377854,0.297268747,-0.291517395,0.403005,0.279829215,-0.246361501,0.386215,0.269702357,-0.22034366,0.376421,0.262468927,-0.201765058,0.369424,0.32043386,-0.293589379,0.404572,0.308623663,-0.248679134,0.391798,0.302870223,-0.22699158,0.385263,0.29644444,-0.214268678,0.379321,0.350531351,-0.30484322,0.409237,0.358719733,-0.273266735,0.400839,0.362711007,-0.258977505,0.397257,0.366244225,-0.24640025,0.394097
0.324244141,-0.404309932,0.440388,0.308346703,-0.357596306,0.423644,0.301659798,-0.397135798,0.437667,0.267143874,-0.383667644,0.435212,0.242054428,-0.373170113,0.438132,0.227943951,-0.360587538,0.439108,0.268451358,-0.318243014,0.409398,0.244473307,-0.276091641,0.391372,0.232586587,-0.255252724,0.382359,0.223064777,-0.249488191,0.374166,0.294091514,-0.315645445,0.408641,0.275617247,-0.270106186,0.391337,0.26485795,-0.243904504,0.381243,0.25717606,-0.226042108,0.374033,0.316908355,-0.318646768,0.409855,0.304427326,-0.275397394,0.396231,0.2980425,-0.253290687,0.38926,0.292239121,-0.233207182,0.382923,0.3462402,-0.330987312,0.414435,0.350442263,-0.298169796,0.404229,0.352374351,-0.283086921,0.399539,0.354081352,-0.269777185,0.395402
0.322285588,-0.40582257,0.440041,0.305109218,-0.358483042,0.422442,0.30002126,-0.399108611,0.437879,0.265939375,-0.386101015,0.436185,0.237549829,-0.376796008,0.437478,0.226017889,-0.363112997,0.439546,0.262119601,-0.321586657,0.408472,0.238101906,-0.280673306,0.391964,0.22578902,-0.262606321,0.38371,0.214539612,-0.246088494,0.376207,0.286854799,-0.31830021,0.406769,0.266356407,-0.273538393,0.38844,0.25440419,-0.247450242,0.377747,0.245870374,-0.228828136,0.37011,0.309153927,-0.32075323,0.407288,0.295996941,-0.277171638,0.39221,0.289327312,-0.254940499,0.384577,0.287841307,-0.234042449,0.380399,0.338294191,-0.332512667,0.411213,0.347122336,-0.298980824,0.402007,0.349995547,-0.284471145,0.397778,0.352545703,-0.271641222,0.394046
0.323220976,-0.407729123,0.44101,0.304926753,-0.360700619,0.423047,0.301188232,-0.401695107,0.439346,0.266195847,-0.389492692,0.437316,0.239007277,-0.37837848,0.437927,0.225789751,-0.364416473,0.439126,0.262268993,-0.325067186,0.409501,0.237068837,-0.281457455,0.390788,0.223499501,-0.268785546,0.381432,0.211294864,-0.25564682,0.372926,0.286454559,-0.320904888,0.40705,0.265200438,-0.275904648,0.388468,0.252806005,-0.249799713,0.377629,0.243953997,-0.231194166,0.369886,0.308397904,-0.322581075,0.406992,0.295294425,-0.278919316,0.392148,0.288592055,-0.256603016,0.384554,0.282628185,-0.236436653,0.377822,0.337298212,-0.333329574,0.410319,0.343541827,-0.301480172,0.399275,0.346412872,-0.286841632,0.3942,0.348948649,-0.273923459,0.389723
0.321175825,-0.409366764,0.440446,0.299501589,-0.365404312,0.422301,0.299822897,-0.4041579,0.439846,0.25920884,-0.391833278,0.434643,0.236785813,-0.378895035,0.437051,0.222162863,-0.365657548,0.437169,0.254836614,-0.329371045,0.410049,0.230976337,-0.289969259,0.389696,0.220800931,-0.268935455,0.379655,0.209138212,-0.253260634,0.370527,0.277718315,-0.324369698,0.406152,0.261608996,-0.278295848,0.387179,0.24989594,-0.252776701,0.376112,0.241517992,-0.234538501,0.368207,0.298742032,-0.325504931,0.404921,0.285093688,-0.281849269,0.38942,0.278054221,-0.259952906,0.381489,0.271652047,-0.240012661,0.374279,0.326905963,-0.3359115,0.406923,0.33286946,-0.303699768,0.39605,0.335604692,-0.288906688,0.391054,0.338015812,-0.275858096,0.386646
0.319752602,-0.410266796,0.440328,0.299123241,-0.363826641,0.421834,0.297977839,-0.404207881,0.439078,0.258370957,-0.390695336,0.434542,0.233219127,-0.377842727,0.4355,0.220519193,-0.365053036,0.43636,0.25695108,-0.326855643,0.408509,0.22941658,-0.289266995,0.387831,0.216654929,-0.270436965,0.377492,0.206217677,-0.252962639,0.368093,0.280414832,-0.322625048,0.405376,0.260961083,-0.278016032,0.387128,0.249518985,-0.252518532,0.376483,0.242293246,-0.232747682,0.368918,0.301885196,-0.324344987,0.404813,0.288909335,-0.280989578,0.389761,0.282235941,-0.259071107,0.382059,0.27616797,-0.239114381,0.375058,0.328272491,-0.336673163,0.407652,0.332790395,-0.303501977,0.396265,0.335088551,-0.288504207,0.391316,0.337113159,-0.275275851,0.386949
0.316739802,-0.40864409,0.438085,0.293824565,-0.363977323,0.420161,0.295159486,-0.402566024,0.436977,0.254517848,-0.387067142,0.432339,0.227242362,-0.374087009,0.432072,0.21679659,-0.362380951,0.434171,0.254260013,-0.3236567,0.407406,0.233137894,-0.279998016,0.388949,0.220643131,-0.261808597,0.37972,0.209086292,-0.247812556,0.37133,0.277364069,-0.321132042,0.404209,0.257495818,-0.27542695,0.38592,0.245628522,-0.249292347,0.375252,0.238543198,-0.231381164,0.367939,0.298666323,-0.323275727,0.403512,0.283896343,-0.279092851,0.388519,0.27656712,-0.257167137,0.380847,0.269880571,-0.237381517,0.373874,0.326794839,-0.334793137,0.406065,0.331749722,-0.302001534,0.395415,0.334055037,-0.286977008,0.390563,0.336087699,-0.273725228,0.386283
0.312813117,-0.403242451,0.433644,0.287960404,-0.349026521,0.415388,0.29143874,-0.39733215,0.43262,0.252653427,-0.375456281,0.430293,0.224456809,-0.362843437,0.429322,0.209302531,-0.351975576,0.428088,0.246457261,-0.312151592,0.402535,0.221246646,-0.272808278,0.383952,0.208647469,-0.25314781,0.37466,0.197197909,-0.235282237,0.366213,0.269694701,-0.307522348,0.39914,0.249899372,-0.262612564,0.381513,0.238350635,-0.236474123,0.371231,0.230089576,-0.217861595,0.363886,0.291027356,-0.308754348,0.398318,0.276043538,-0.265694419,0.385968,0.268381349,-0.243687336,0.379649,0.261418769,-0.22369611,0.373905,0.319523327,-0.318911376,0.400786,0.321227027,-0.286106491,0.385159,0.322005902,-0.271039555,0.377979,0.328687284,-0.264448611,0.37867
0.316057857,-0.391614274,0.432262,0.286430949,-0.343977022,0.413559,0.29105053,-0.389161774,0.43097,0.252737352,-0.365190458,0.425876,0.223392257,-0.35047281,0.422442,0.207348743,-0.33503499,0.419656,0.243314721,-0.308139155,0.400074,0.216537109,-0.26640671,0.38235,0.203995015,-0.246641911,0.373488,0.194691501,-0.231739051,0.365431,0.264748821,-0.299412601,0.396914,0.246830355,-0.254441008,0.380866,0.236384776,-0.228238045,0.371505,0.228926541,-0.209536098,0.364818,0.286341377,-0.298956247,0.396333,0.271194171,-0.255575531,0.382835,0.263497826,-0.233450866,0.375999,0.256503274,-0.213348741,0.369785,0.315816771,-0.307064927,0.399165,0.317059232,-0.273358611,0.384764,0.31762027,-0.257888775,0.378147,0.318469277,-0.244524358,0.372729
0.305406715,-0.376130649,0.425911,0.27969654,-0.32538787,0.407083,0.283018593,-0.372250905,0.424405,0.246772406,-0.351393681,0.419115,0.216936806,-0.337464357,0.415563,0.201461032,-0.322872765,0.41396,0.234030089,-0.291775883,0.393238,0.208166333,-0.252902579,0.376045,0.195247878,-0.233488464,0.367448,0.183512719,-0.215854027,0.359633,0.257051822,-0.284491127,0.390327,0.237962107,-0.239814016,0.374465,0.226834435,-0.213783247,0.365212,0.218890193,-0.195205146,0.358603,0.278765464,-0.283458102,0.389965,0.26242774,-0.240317564,0.376622,0.25410064,-0.218296755,0.369833,0.246532747,-0.198292085,0.36366,0.308673823,-0.290873474,0.393074,0.309139642,-0.256854844,0.378891,0.309346996,-0.241239415,0.372375,0.309530544,-0.227472502,0.366631
0.293375647,-0.342467225,0.414068,0.268462279,-0.297646622,0.400021,0.271589755,-0.340741148,0.41393,0.237559801,-0.329741173,0.413294,0.208463975,-0.320453475,0.412715,0.191938671,-0.308953793,0.412485,0.224204313,-0.267132162,0.390979,0.197716869,-0.229192686,0.375985,0.184501815,-0.210267334,0.368488,0.172603499,-0.193199261,0.361877,0.246330651,-0.257839066,0.387531,0.224407477,-0.213063734,0.371366,0.21168938,-0.187149836,0.361937,0.201988735,-0.17278638,0.355201,0.267248293,-0.255054225,0.386219,0.249668272,-0.211899906,0.372648,0.24057125,-0.190504087,0.365704,0.232286134,-0.170992661,0.359392,0.296131215,-0.260258144,0.387347,0.301433076,-0.226782209,0.375368,0.303795631,-0.21153228,0.369865,0.30443902,-0.207742692,0.365009
0.265664187,-0.329202541,0.403338,0.249509956,-0.283047389,0.391288,0.244739066,-0.323854653,0.403415,0.214624682,-0.31152793,0.406188,0.186553385,-0.300340327,0.405969,0.17250489,-0.28809118,0.40725,0.211866064,-0.24692099,0.383788,0.187624409,-0.209112722,0.371234,0.175563009,-0.190285089,0.365041,0.164618519,-0.173195877,0.359438,0.235146526,-0.242010501,0.380573,0.215632338,-0.198302147,0.367778,0.204072805,-0.173184318,0.360314,0.195810428,-0.155226135,0.354983,0.256079018,-0.242986468,0.379237,0.242347368,-0.200669256,0.369557,0.23533972,-0.179106621,0.364605,0.228515133,-0.160210186,0.360103,0.283341319,-0.252807855,0.37996,0.287994135,-0.219538894,0.372016,0.290120072,-0.204284404,0.368366,0.292005949,-0.191063928,0.365146
0.266368611,-0.32384887,0.402762,0.247106583,-0.274216795,0.390944,0.246175998,-0.320149775,0.404096,0.21491937,-0.304878564,0.405447,0.187186412,-0.294472437,0.405997,0.172219352,-0.28475249,0.406401,0.207617555,-0.241974582,0.385248,0.185333886,-0.205923022,0.36955,0.172963459,-0.186518039,0.361701,0.161149509,-0.170523306,0.354565,0.229019329,-0.234408447,0.380455,0.209608268,-0.190634842,0.366761,0.198289679,-0.165114345,0.358773,0.190207528,-0.146892524,0.353068,0.248906803,-0.233077043,0.377798,0.234744877,-0.191547582,0.369978,0.226971354,-0.170870006,0.365977,0.219876326,-0.151973424,0.362339,0.275785594,-0.240029899,0.376958,0.279035874,-0.206404,0.366407,0.280522547,-0.190970064,0.361559,0.281830472,-0.177360494,0.357281
0.263914335,-0.308359814,0.400399,0.239239783,-0.254721491,0.387415,0.241017068,-0.297260565,0.401216,0.206559755,-0.284768161,0.399587,0.177272281,-0.273826703,0.39825,0.16067447,-0.261123491,0.39713,0.197461088,-0.223459598,0.38031,0.171684109,-0.185686007,0.366475,0.158744378,-0.166927347,0.359558,0.146984314,-0.149879222,0.35327,0.219093849,-0.21491864,0.375892,0.197612232,-0.171960584,0.363356,0.18509924,-0.146946431,0.356044,0.176066211,-0.12917505,0.350821,0.239379943,-0.212775835,0.373669,0.225368173,-0.171219728,0.365614,0.217929745,-0.150225559,0.361493,0.211152575,-0.131081017,0.357747,0.267114847,-0.21875904,0.373547,0.268405253,-0.184471151,0.363936,0.268993897,-0.168731709,0.35952,0.269510633,-0.1548517,0.355623
0.246253243,-0.276827265,0.394795,0.224137316,-0.231390865,0.38112,0.224290453,-0.273786538,0.394262,0.190790839,-0.262661421,0.394243,0.160884072,-0.252939024,0.392745,0.144774368,-0.241148322,0.392646,0.181331865,-0.198652221,0.371772,0.156928841,-0.161322043,0.360252,0.144849335,-0.142795841,0.354723,0.133888749,-0.125977524,0.349736,0.204442922,-0.190933404,0.368938,0.185336604,-0.147535478,0.356574,0.174256659,-0.122418251,0.349361,0.165033996,-0.106583576,0.34421,0.225864617,-0.189526453,0.368093,0.212198275,-0.147597136,0.359261,0.205248222,-0.126336145,0.354742,0.197707541,-0.108948548,0.350634,0.254795984,-0.196460443,0.369697,0.254624692,-0.162326273,0.356761,0.254553588,-0.146620858,0.350818,0.254494771,-0.132750505,0.345574
0.232991967,-0.2501141,0.381522,0.210176333,-0.206739724,0.372546,0.211541197,-0.249215346,0.381826,0.17969219,-0.240711995,0.384266,0.150031585,-0.232633194,0.383658,0.132981649,-0.221900607,0.383445,0.167921137,-0.178431629,0.367268,0.144342849,-0.140049507,0.35355,0.132573205,-0.120894533,0.34669,0.120317331,-0.107387854,0.340455,0.189963109,-0.168342567,0.364549,0.170234103,-0.126433489,0.354262,0.158715919,-0.101961934,0.348261,0.150483856,-0.0844703708,0.343974,0.21064139,-0.164700995,0.363288,0.197742868,-0.122986845,0.354662,0.19119859,-0.101907123,0.350249,0.183205623,-0.0857429956,0.346237,0.238963126,-0.1686075,0.363522,0.245932648,-0.136048222,0.356529,0.249412976,-0.121310184,0.353751,0.252480481,-0.108317089,0.351301
0.23252743,-0.243305511,0.381606,0.206332098,-0.194783463,0.371015,0.21193902,-0.243475159,0.383188,0.176925571,-0.228092526,0.383119,0.147724341,-0.219380001,0.382758,0.130708044,-0.20797533,0.38206,0.162891367,-0.168639736,0.366392,0.136716481,-0.131314599,0.352985,0.12367161,-0.112717731,0.346281,0.110480565,-0.0970933316,0.340187,0.18328262,-0.157287047,0.361579,0.162980851,-0.115630606,0.351788,0.151215035,-0.091391616,0.346235,0.142833228,-0.0740865297,0.342326,0.202892361,-0.1525452,0.35877,0.187818739,-0.111519081,0.350704,0.180154039,-0.0906987879,0.346577,0.17118441,-0.0727722299,0.342825,0.230389496,-0.155028874,0.357518,0.226461458,-0.120018865,0.345347,0.224661759,-0.103894845,0.339755,0.222885963,-0.090106179,0.334821
0.221605259,-0.228241022,0.377373,0.189838408,-0.179057463,0.367397,0.19283623,-0.221954861,0.378722,0.158462401,-0.21181369,0.377857,0.126948582,-0.202846707,0.374877,0.111155003,-0.192030592,0.375328,0.147713373,-0.150990461,0.362824,0.12147534,-0.113732805,0.348844,0.108334942,-0.0950710663,0.341855,0.0964285037,-0.0781279053,0.335686,0.168646306,-0.140348245,0.358464,0.147572108,-0.0974265105,0.345683,0.135301483,-0.0726180167,0.338228,0.12390106,-0.0577525258,0.332903,0.188474659,-0.136273638,0.355959,0.173875251,-0.0951402356,0.347597,0.166272641,-0.0742084541,0.343319,0.157765156,-0.0553755015,0.339429,0.21592694,-0.139695807,0.35494,0.217729894,-0.105565732,0.346216,0.218821284,-0.0900636319,0.342643,0.219783014,-0.076389563,0.33949
0.219481317,-0.225949194,0.37791,0.189641263,-0.17844006,0.367243,0.193261554,-0.221294449,0.378986,0.15834858,-0.210485003,0.377387,0.127384656,-0.201065555,0.374835,0.111148032,-0.189805653,0.374738,0.146605563,-0.150422138,0.361852,0.119906376,-0.113356766,0.347805,0.10655461,-0.0948209048,0.340781,0.0938067862,-0.0784793523,0.334396,0.167615723,-0.139691901,0.357658,0.145564137,-0.0971983033,0.345127,0.132722546,-0.0725419855,0.337818,0.121884737,-0.0564130152,0.332597,0.187593132,-0.135532071,0.355358,0.172606659,-0.0949355372,0.347854,0.164718789,-0.0742267509,0.344015,0.156403248,-0.0554129322,0.340525,0.215365837,-0.138835962,0.3547,0.213766424,-0.103913059,0.344227,0.209230697,-0.0866866577,0.339415,0.20764109,-0.0724212163,0.335169
0.210171214,-0.215807908,0.374478,0.179863016,-0.165220264,0.363269,0.189182563,-0.215455409,0.375347,0.149198596,-0.198411896,0.373727,0.118090095,-0.190001364,0.371451,0.100388292,-0.1787882,0.370079,0.135369547,-0.13781489,0.35722,0.109051092,-0.10033716,0.342409,0.0958784842,-0.081577646,0.335004,0.0831096574,-0.065001652,0.328271,0.156308996,-0.126575479,0.353142,0.134180321,-0.0846529987,0.341724,0.121330857,-0.0603284697,0.335064,0.110038227,-0.0437826561,0.330306,0.176376351,-0.121939763,0.350994,0.160710233,-0.0822487814,0.344553,0.15182383,-0.0618103915,0.341258,0.143684581,-0.0430683009,0.338262,0.204512415,-0.124594866,0.350608,0.202316318,-0.0897710886,0.341943,0.201348313,-0.0738237409,0.338065,0.200509494,-0.0597586879,0.334669
0.20132,-0.204355018,0.373278,0.172112488,-0.158160885,0.361826,0.180299907,-0.204148817,0.374373,0.141101449,-0.190695537,0.372778,0.109928234,-0.181775043,0.370306,0.0927543881,-0.170346842,0.369216,0.128452022,-0.129699263,0.355894,0.101541783,-0.0933473026,0.342966,0.0880466753,-0.0751090758,0.336538,0.0757691533,-0.058500149,0.330799,0.149226434,-0.118981629,0.351444,0.127612139,-0.0771741101,0.340836,0.115013559,-0.0527484337,0.334746,0.105988423,-0.0352694374,0.330457,0.169073513,-0.114804305,0.349013,0.153367051,-0.0751568142,0.342829,0.145357117,-0.0549489296,0.339665,0.139543697,-0.0395958784,0.336789,0.196824304,-0.118053062,0.348339,0.193188713,-0.0827729362,0.336335,0.191582899,-0.0666140757,0.330936,0.195365779,-0.0560714819,0.330481
0.199085335,-0.200108594,0.372456,0.168085505,-0.150604993,0.361239,0.175075287,-0.196721523,0.373352,0.139258318,-0.184750692,0.373074,0.108691803,-0.178865199,0.369687,0.0915721427,-0.168132386,0.369448,0.122495217,-0.1242519,0.355163,0.0961639475,-0.0878044806,0.342695,0.0829685103,-0.0695374018,0.336461,0.0733589094,-0.0556990629,0.330794,0.143030714,-0.112295611,0.351017,0.120311835,-0.0708162459,0.340283,0.107040754,-0.046581522,0.334022,0.0970573895,-0.029185694,0.329549,0.162900965,-0.106963012,0.348806,0.14517374,-0.0678598222,0.342058,0.135136246,-0.0476549407,0.338606,0.12574424,-0.0290650167,0.335468,0.191055734,-0.108636156,0.348335,0.187012072,-0.073526893,0.338775,0.185153655,-0.0574155234,0.334383,0.18350937,-0.043202357,0.330646
0.194177121,-0.193526709,0.371904,0.165257809,-0.14794931,0.360335,0.172788516,-0.19359245,0.372428,0.133765007,-0.178476325,0.37117,0.102741335,-0.169602456,0.368877,0.0884478098,-0.162097943,0.368817,0.11649991,-0.119123242,0.353509,0.0916074814,-0.0821412765,0.341431,0.0791368485,-0.0635951291,0.335484,0.0692597063,-0.0497473889,0.330079,0.137321343,-0.107118412,0.349743,0.114842888,-0.0658203413,0.339423,0.1017262,-0.041721008,0.333403,0.0940194782,-0.0267727317,0.329103,0.157455495,-0.101740462,0.347879,0.142338271,-0.0616594949,0.340897,0.134186076,-0.0410412558,0.337325,0.125255791,-0.025428294,0.334078,0.185989156,-0.10335299,0.347872,0.182827439,-0.0683466942,0.338271,0.181373817,-0.0522805677,0.33386,0.181598001,-0.0406086523,0.329968
0.193039338,-0.191427125,0.372111,0.161964659,-0.144394929,0.360555,0.1704601,-0.189011528,0.372921,0.13303256,-0.177524565,0.371203,0.10211767,-0.169226018,0.369297,0.0854661437,-0.158470216,0.369024,0.11575963,-0.118108616,0.354075,0.0902355163,-0.0811587803,0.341084,0.077466515,-0.0626431365,0.334768,0.0674031479,-0.0480736005,0.329139,0.136159426,-0.10588537,0.34992,0.113241832,-0.0646980565,0.339282,0.099779711,-0.0406677233,0.333076,0.0888629851,-0.023432357,0.328644,0.155969858,-0.100298978,0.347732,0.140197973,-0.0601043441,0.340148,0.131933486,-0.0395312306,0.336268,0.122763285,-0.0204300883,0.33274,0.184179739,-0.101625453,0.34734,0.180099731,-0.0665082903,0.337307,0.178337845,-0.0504242423,0.332909,0.176767969,-0.0362185417,0.329029
0.192375384,-0.190185226,0.372273,0.1617095,-0.1440058,0.360711,0.169967663,-0.188284922,0.373179,0.13285647,-0.177298119,0.371403,0.101934594,-0.169141498,0.369526,0.0850503995,-0.158407736,0.369098,0.115524874,-0.11778277,0.354299,0.0898037386,-0.0808541639,0.341063,0.0769329327,-0.0623444583,0.334628,0.0665241607,-0.0472717575,0.328912,0.135784691,-0.105484267,0.35001,0.112748321,-0.0643470218,0.339353,0.0991823728,-0.0403376949,0.333137,0.0881744822,-0.0231293321,0.328697,0.155489475,-0.0998281744,0.347715,0.139568933,-0.0596221421,0.340103,0.131298512,-0.0390631469,0.336208,0.122061319,-0.0199718808,0.332668,0.183600423,-0.101062898,0.347207,0.179213582,-0.0659041965,0.337028,0.177334365,-0.0498078405,0.332608,0.175665788,-0.0355903792,0.328708
0.189581339,-0.185897025,0.371624,0.158979763,-0.141378628,0.359645,0.167927661,-0.1863682,0.371846,0.126720108,-0.172233517,0.37038,0.0955166844,-0.164120271,0.368109,0.0819664705,-0.156397758,0.367977,0.108228568,-0.111869592,0.352038,0.0832468055,-0.0752834596,0.340165,0.0707254838,-0.056943485,0.334229,0.0624352346,-0.043371067,0.328832,0.129290544,-0.0997018526,0.348512,0.109710211,-0.0618492838,0.338202,0.0961488427,-0.0379641508,0.332188,0.0854179804,-0.0208196039,0.327892,0.149653236,-0.09416668,0.346883,0.132064508,-0.0542175856,0.338965,0.123073631,-0.033799157,0.334915,0.118314635,-0.0176739658,0.331232,0.178545887,-0.0955538153,0.347217,0.17302758,-0.0603678695,0.336511,0.17049212,-0.0442084971,0.331592,0.171439841,-0.0328184665,0.327251
