sluyters/QuantumLeap/backend/src/datasets/dynamic/HandGestureDataset_SHREC2017_csv/Gesture13/finger_2/subject_12_essai_1_skeletons_world.csv
Wrist_x,Wrist_y,Wrist_z,Palm_x,Palm_y,Palm_z,thumb_base_x,thumb_base_y,thumb_base_z,thumb_first_joint_x,thumb_first_joint_y,thumb_first_joint_z,thumb_second_joint_x,thumb_second_joint_y,thumb_second_joint_z,thumb_tip_x,thumb_tip_y,thumb_tip_z,index_base_x,index_base_y,index_base_z,index_first_joint_x,index_first_joint_y,index_first_joint_z,index_second_joint_x,index_second_joint_y,index_second_joint_z,index_tip_x,index_tip_y,index_tip_z,middle_base_x,middle_base_y,middle_base_z,middle_first_joint_x,middle_first_joint_y,middle_first_joint_z,middle_second_joint_x,middle_second_joint_y,middle_second_joint_z,middle_tip_x,middle_tip_y,middle_tip_z,ring_base_x,ring_base_y,ring_base_z,ring_first_joint_x,ring_first_joint_y,ring_first_joint_z,ring_second_joint_x,ring_second_joint_y,ring_second_joint_z,ring_tip_x,ring_tip_y,ring_tip_z,pinky_base_x,pinky_base_y,pinky_base_z,pinky_first_joint_x,pinky_first_joint_y,pinky_first_joint_z,pinky_second_joint_x,pinky_second_joint_y,pinky_second_joint_z,pinky_tip_x,pinky_tip_y,pinky_tip_z,
0.46078486,-0.26796535,0.505681,0.45698892,-0.22537573,0.512653,0.44202823,-0.26059976,0.508368,0.42726481,-0.23374796,0.520601,0.40267702,-0.20571787,0.511284,0.40147766,-0.19187979,0.519334,0.4340288,-0.19232955,0.520887,0.42229654,-0.1550347,0.520908,0.41636201,-0.13617119,0.520918,0.41097603,-0.11873154,0.520928,0.4570537,-0.18886323,0.519292,0.45468763,-0.15343651,0.527089,0.45313067,-0.13115213,0.531637,0.45195292,-0.11495073,0.534886,0.47600244,-0.18901353,0.517228,0.47305341,-0.15187816,0.520102,0.47156628,-0.13220698,0.521572,0.47020436,-0.11399562,0.522909,0.49842255,-0.19482049,0.513522,0.49998042,-0.16136975,0.513186,0.50069872,-0.14594561,0.513031,0.5013944,-0.13343532,0.512895
0.45196145,-0.26202243,0.507953,0.44860511,-0.22259309,0.513782,0.43319379,-0.25406706,0.51029,0.41868196,-0.22708177,0.521237,0.39671253,-0.19725014,0.511415,0.39689271,-0.18291663,0.519104,0.42872429,-0.18714877,0.520784,0.4127128,-0.150686,0.519673,0.40466382,-0.13235213,0.519117,0.40290078,-0.11724874,0.525894,0.45185385,-0.18549051,0.519333,0.44322958,-0.13591953,0.517833,0.43819216,-0.10695894,0.516958,0.43442104,-0.087286359,0.516333,0.47073335,-0.18720929,0.51751,0.46006501,-0.13943144,0.516324,0.45498463,-0.11438443,0.515717,0.45313345,-0.10324244,0.515165,0.49273518,-0.19504239,0.514299,0.49618506,-0.15606437,0.518924,0.49777884,-0.1385159,0.521049,0.49932956,-0.1229429,0.522924
0.45044787,-0.26258592,0.508856,0.44872719,-0.22374661,0.514256,0.43176731,-0.25442051,0.511135,0.41922095,-0.22880571,0.522292,0.39705001,-0.19905942,0.512494,0.39698843,-0.18470304,0.520006,0.42834242,-0.18833874,0.520891,0.41170148,-0.15192978,0.519372,0.40334921,-0.13365046,0.518613,0.40441206,-0.11955341,0.529276,0.45139128,-0.18647342,0.519398,0.44196354,-0.13687644,0.517435,0.43635858,-0.10767532,0.516289,0.43224882,-0.088955457,0.515471,0.47027549,-0.18803614,0.517587,0.45890328,-0.14022097,0.51599,0.45334178,-0.11524104,0.515172,0.4510354,-0.10418464,0.514429,0.49241188,-0.19571716,0.51447,0.49557765,-0.15667708,0.519035,0.49704248,-0.13910186,0.521132,0.49833336,-0.12357072,0.522982
0.4358065,-0.25433865,0.499428,0.43530144,-0.21359969,0.509102,0.41799331,-0.24660379,0.502336,0.40275093,-0.2204549,0.515074,0.37753239,-0.19259284,0.504711,0.37767629,-0.17752892,0.512916,0.41461925,-0.18175576,0.519459,0.40318376,-0.14699534,0.522175,0.39743524,-0.12940449,0.523532,0.39949937,-0.11551119,0.534525,0.43818556,-0.17872263,0.518317,0.4298118,-0.13162879,0.521167,0.42492591,-0.10415386,0.522829,0.4214033,-0.084280901,0.524017,0.45729375,-0.17908227,0.516333,0.45022647,-0.13254812,0.519441,0.44662747,-0.10809133,0.521031,0.44334245,-0.085793491,0.522476,0.47936512,-0.18486747,0.512212,0.48219181,-0.14541972,0.515865,0.48349682,-0.1276893,0.517544,0.48501608,-0.111577,0.519025
0.43439626,-0.24676158,0.498255,0.43429764,-0.20126618,0.507735,0.41326031,-0.23566791,0.499914,0.40318337,-0.21153375,0.514327,0.37592708,-0.18580694,0.504571,0.37529673,-0.17539825,0.512982,0.40839519,-0.17059444,0.516333,0.39513051,-0.13553185,0.518424,0.38847826,-0.11795203,0.51947,0.3828913,-0.10123626,0.52042,0.43289741,-0.16631448,0.516763,0.42585015,-0.13117586,0.519194,0.41810351,-0.10976555,0.520612,0.41416208,-0.094169234,0.521625,0.45317576,-0.16565207,0.516096,0.44767851,-0.13056217,0.518319,0.44387276,-0.10886992,0.519456,0.43915001,-0.092804591,0.52049,0.47729303,-0.17024239,0.513541,0.47849987,-0.14222612,0.516994,0.47946111,-0.12670363,0.518581,0.48309198,-0.11228293,0.519982
0.43389399,-0.24413168,0.498002,0.43306565,-0.20137272,0.507188,0.41318471,-0.23412019,0.499917,0.40178702,-0.21138689,0.513679,0.37534563,-0.18546532,0.504435,0.37431563,-0.17457484,0.513128,0.4076831,-0.17124335,0.51592,0.39398803,-0.13583931,0.517791,0.38706317,-0.11795305,0.518727,0.38094873,-0.10123109,0.519577,0.43178105,-0.16673716,0.515937,0.42233825,-0.13176809,0.518092,0.41681671,-0.11072528,0.519349,0.41281006,-0.095489671,0.520247,0.45173715,-0.16587334,0.514961,0.44550482,-0.13066807,0.516887,0.43963276,-0.11359383,0.517872,0.43684674,-0.094787009,0.518768,0.47550569,-0.17020161,0.512102,0.48342399,-0.14485225,0.520695,0.48663382,-0.13013672,0.524644,0.49239986,-0.12367936,0.533543
0.43919069,-0.24944486,0.504112,0.43394874,-0.2119787,0.508311,0.4189352,-0.24197471,0.505104,0.40104138,-0.21870693,0.513082,0.37696266,-0.18933388,0.504491,0.37295567,-0.17432777,0.510965,0.4078166,-0.17972773,0.512454,0.38886384,-0.14371441,0.509123,0.37979894,-0.12505485,0.507458,0.37144289,-0.10782327,0.505944,0.43165527,-0.17623325,0.512309,0.41546218,-0.13508142,0.508743,0.40669643,-0.11077494,0.506663,0.40877786,-0.094739708,0.515373,0.45169256,-0.17633251,0.511738,0.43849049,-0.13322938,0.508532,0.43240981,-0.11127083,0.506892,0.42681599,-0.091004689,0.505401,0.47612895,-0.1820692,0.510286,0.47719193,-0.14467794,0.511388,0.47712547,-0.12924015,0.511894,0.4774114,-0.11232244,0.513222
0.44005626,-0.25679503,0.50206,0.43173413,-0.22521875,0.502696,0.41982247,-0.25259163,0.503296,0.40310611,-0.23453095,0.510232,0.37780759,-0.20744312,0.50127,0.37487445,-0.1956763,0.508656,0.40327442,-0.19019094,0.504736,0.38449667,-0.15161918,0.498215,0.37695038,-0.13294185,0.497473,0.36999796,-0.11571954,0.496798,0.42615999,-0.18604281,0.503301,0.41033315,-0.14845254,0.495928,0.40086917,-0.12709769,0.491626,0.40874673,-0.1158332,0.506775,0.4457772,-0.18605149,0.502051,0.43492534,-0.14986988,0.495459,0.42909022,-0.13159771,0.492087,0.42375765,-0.11482205,0.489021,0.47031135,-0.19246695,0.50048,0.46877664,-0.16125296,0.497009,0.46780394,-0.14630554,0.495415,0.46694785,-0.13304407,0.494008
0.43895363,-0.26060997,0.497826,0.43237358,-0.22674782,0.501289,0.41861024,-0.25702929,0.501537,0.40372033,-0.23965235,0.508056,0.38288326,-0.21456423,0.504743,0.38163424,-0.20028006,0.515706,0.40952251,-0.19801321,0.508474,0.3928824,-0.16041854,0.505549,0.3836708,-0.14365406,0.504086,0.37502564,-0.12786533,0.502757,0.43008452,-0.19153199,0.504587,0.41838767,-0.15574076,0.500845,0.40971751,-0.13637001,0.498662,0.41783296,-0.12696997,0.514962,0.44620535,-0.18753222,0.501012,0.44093311,-0.1555906,0.497832,0.4358679,-0.13814463,0.496205,0.42994903,-0.11906764,0.494726,0.46778366,-0.19189451,0.496213,0.46961459,-0.16190499,0.495731,0.46962532,-0.1474369,0.495509,0.46963867,-0.13447499,0.495314
0.42851974,-0.28826114,0.481174,0.42944304,-0.25121992,0.488051,0.40800165,-0.2799907,0.481741,0.39981987,-0.25856868,0.494865,0.37766561,-0.23066599,0.487695,0.37764787,-0.21881986,0.497178,0.40513185,-0.217774,0.493457,0.3920173,-0.1810274,0.492387,0.38529731,-0.16218701,0.491852,0.37993432,-0.14752885,0.491365,0.43029815,-0.21576038,0.494599,0.41989839,-0.17263807,0.493902,0.41384505,-0.1475398,0.493496,0.41235898,-0.13178476,0.496255,0.45121855,-0.2171124,0.494799,0.44514869,-0.17496368,0.494182,0.44203316,-0.15332496,0.493866,0.43919532,-0.13360958,0.493579,0.47615612,-0.22441511,0.493738,0.47730682,-0.19095654,0.493155,0.47760601,-0.175898,0.492887,0.4771753,-0.1761814,0.49265
0.44669387,-0.30549528,0.485242,0.44287235,-0.26560793,0.488636,0.42645002,-0.29782654,0.486499,0.41436703,-0.27774935,0.497199,0.3853682,-0.24744654,0.48335,0.38205582,-0.23151574,0.487848,0.41518999,-0.22982339,0.492577,0.39788715,-0.19223111,0.488632,0.38922322,-0.17339397,0.48666,0.38130894,-0.15617094,0.484868,0.43906596,-0.22661729,0.491867,0.4249785,-0.184455,0.48748,0.41674115,-0.15978261,0.484921,0.41240153,-0.14265946,0.484919,0.45918838,-0.22734622,0.490918,0.44722631,-0.18607433,0.487026,0.44120055,-0.164872,0.485034,0.43572453,-0.14541804,0.483224,0.48371704,-0.23446928,0.489177,0.47946443,-0.20112039,0.485625,0.47751339,-0.18592182,0.483993,0.47579345,-0.17257624,0.482553
0.44815512,-0.31210193,0.482916,0.44646745,-0.27836487,0.483764,0.43149876,-0.31184993,0.483994,0.41936331,-0.29051562,0.493662,0.39289666,-0.2600525,0.481559,0.38992231,-0.24443235,0.486449,0.41828066,-0.24138338,0.485744,0.39843804,-0.20416792,0.479419,0.38852857,-0.18801013,0.476257,0.37931343,-0.17290183,0.473382,0.44130934,-0.23803567,0.484571,0.42380637,-0.19647237,0.477389,0.41347795,-0.17191308,0.4732,0.4060453,-0.15418225,0.470207,0.46113131,-0.23871374,0.483515,0.45544398,-0.20138394,0.484409,0.45170857,-0.18235824,0.484866,0.44821169,-0.1645938,0.485282,0.48601569,-0.24603003,0.482128,0.48199394,-0.21148083,0.478751,0.47974408,-0.19511224,0.477199,0.47748868,-0.18866066,0.47583
0.43504877,-0.33895021,0.481355,0.43992252,-0.29672537,0.481576,0.41794461,-0.32603842,0.482699,0.41356335,-0.30163885,0.491342,0.39215915,-0.26747717,0.477544,0.3917519,-0.25045426,0.481243,0.42199179,-0.25346008,0.483477,0.40530214,-0.21593153,0.477064,0.39685252,-0.19684553,0.473857,0.38910789,-0.17929919,0.470942,0.44465938,-0.25564394,0.481786,0.4371091,-0.2109255,0.473995,0.43219092,-0.18572965,0.46945,0.42806917,-0.17020765,0.466203,0.46328581,-0.26106354,0.480371,0.45434335,-0.21903507,0.475072,0.44970044,-0.19775859,0.472362,0.44547134,-0.17834763,0.469897,0.48504637,-0.27424743,0.478686,0.49022667,-0.24120514,0.479318,0.49256005,-0.2263726,0.479609,0.49398834,-0.21582411,0.479865
0.46107502,-0.35496924,0.478208,0.45333076,-0.31181222,0.476946,0.4387323,-0.34537761,0.477223,0.42394411,-0.32423897,0.483304,0.39355931,-0.2940191,0.470357,0.38965752,-0.27931602,0.47527,0.42051002,-0.27160774,0.474806,0.4141838,-0.2382253,0.48105,0.41093842,-0.22127764,0.484172,0.4079415,-0.20572373,0.487011,0.44582465,-0.2698658,0.475744,0.42841196,-0.22579177,0.465851,0.41825994,-0.20011147,0.460079,0.41431598,-0.18324409,0.459622,0.46755998,-0.27206592,0.476652,0.45479858,-0.23062177,0.467771,0.44823968,-0.20915183,0.463227,0.44225853,-0.18946852,0.459096,0.49477291,-0.28140236,0.477943,0.49074256,-0.24347847,0.471324,0.4895362,-0.22644323,0.468908,0.48885744,-0.21258705,0.471015
0.45613959,-0.37534251,0.477099,0.45219629,-0.33185955,0.4756,0.43605531,-0.36470474,0.477621,0.42797335,-0.34363355,0.484921,0.39980134,-0.30934673,0.469331,0.3972156,-0.29241513,0.471583,0.42466785,-0.29011388,0.475263,0.40896815,-0.25109284,0.466419,0.40106499,-0.23134912,0.461998,0.39384635,-0.21325697,0.457978,0.44838202,-0.28944756,0.474173,0.43673134,-0.24577062,0.468263,0.43022593,-0.22163425,0.464816,0.42554032,-0.20412931,0.462354,0.46852023,-0.29260247,0.473437,0.46873426,-0.2540006,0.475323,0.46884286,-0.23422721,0.476288,0.46894175,-0.21623793,0.477166,0.49332783,-0.30321571,0.472865,0.49011781,-0.2616356,0.465055,0.48862853,-0.24264121,0.461467,0.48794733,-0.23519377,0.4583
0.45980904,-0.3813164,0.478139,0.45589085,-0.34033893,0.47411,0.43968142,-0.37077142,0.478791,0.42888828,-0.35152726,0.482918,0.40092162,-0.3174118,0.468508,0.39727994,-0.30050681,0.471305,0.42674257,-0.29760451,0.472224,0.4074906,-0.25903479,0.461401,0.3978955,-0.23980911,0.45599,0.38912326,-0.22216743,0.45107,0.44958244,-0.29631951,0.470273,0.43733973,-0.25247216,0.463371,0.43126345,-0.2295542,0.459345,0.42688123,-0.21280394,0.456469,0.46914607,-0.29914828,0.469101,0.4642112,-0.25910052,0.466383,0.46167469,-0.2384156,0.464992,0.45936254,-0.21949397,0.463728,0.49369403,-0.30966859,0.468498,0.48720287,-0.27326001,0.458105,0.4842734,-0.25617457,0.453329,0.48172013,-0.24089878,0.449116
0.46450143,-0.39171532,0.479029,0.45959874,-0.35192954,0.474039,0.44291388,-0.38001442,0.477882,0.43349588,-0.36513523,0.482987,0.40443418,-0.33239221,0.468123,0.39818965,-0.31599365,0.470392,0.4288276,-0.30821113,0.469157,0.40923923,-0.26668547,0.456513,0.400089,-0.24894582,0.450192,0.39170378,-0.23255135,0.444445,0.45384339,-0.30867626,0.469286,0.44038115,-0.26410884,0.46,0.43252759,-0.23809977,0.454584,0.42691683,-0.21951606,0.450715,0.47531309,-0.31297068,0.469931,0.46187171,-0.2687131,0.457503,0.45499674,-0.24613253,0.451145,0.44933359,-0.22717018,0.445365,0.50203627,-0.32523069,0.471617,0.50119415,-0.29696451,0.466797,0.50079844,-0.28414531,0.464583,0.50061759,-0.27300257,0.462629
0.4699639,-0.40567204,0.478822,0.46543039,-0.36771742,0.472333,0.45274194,-0.40360405,0.477933,0.4386894,-0.38037541,0.48104,0.40970956,-0.34530539,0.463649,0.40582922,-0.32792197,0.463802,0.432444,-0.3221808,0.466769,0.41370882,-0.28264194,0.452816,0.4043112,-0.26271584,0.44584,0.39574875,-0.24450337,0.439498,0.45666821,-0.32198686,0.466153,0.43792878,-0.27939023,0.450752,0.42696299,-0.2542414,0.441768,0.41911348,-0.23612979,0.435351,0.47787648,-0.32594325,0.466345,0.46406907,-0.28223912,0.452571,0.45700525,-0.25985146,0.445524,0.45058411,-0.23948211,0.439118,0.5051062,-0.33826287,0.467787,0.49580305,-0.30717907,0.455409,0.49156286,-0.29330397,0.449721,0.48783499,-0.28121841,0.444703
0.46581299,-0.41715088,0.468227,0.46413922,-0.38191195,0.465692,0.44513595,-0.41383452,0.466287,0.43437226,-0.39009115,0.471303,0.40866184,-0.35420046,0.455942,0.40766829,-0.33798732,0.459204,0.43434605,-0.33515779,0.461444,0.41784934,-0.29795021,0.45048,0.41019225,-0.28155595,0.444998,0.40316518,-0.26632515,0.440014,0.46089643,-0.33791311,0.463278,0.4465372,-0.29204633,0.451839,0.44423185,-0.26913353,0.45132,0.44255978,-0.25246306,0.450948,0.48357251,-0.34411176,0.465061,0.4733815,-0.30107901,0.454655,0.46816857,-0.2790014,0.449331,0.46343022,-0.25889331,0.444491,0.51161979,-0.35878019,0.467607,0.50553048,-0.32734389,0.458328,0.50297905,-0.31369006,0.454064,0.50071802,-0.30169265,0.450302
0.48087117,-0.44204155,0.479443,0.47479246,-0.39894341,0.472467,0.46116416,-0.43242598,0.4781,0.45152925,-0.41377167,0.481409,0.4214916,-0.3780137,0.462888,0.41598936,-0.36005253,0.461961,0.44225987,-0.35233813,0.465982,0.42591489,-0.31442249,0.451396,0.4177186,-0.29520879,0.444103,0.41025238,-0.27758027,0.437473,0.46703741,-0.3538483,0.465824,0.45065808,-0.30964146,0.449816,0.4411027,-0.28367905,0.440479,0.43427582,-0.26504787,0.433809,0.48874703,-0.35923332,0.466445,0.47663827,-0.31548373,0.452115,0.47044662,-0.29304383,0.444782,0.46482233,-0.27261008,0.438117,0.51648629,-0.37327559,0.468478,0.50930422,-0.33990172,0.456236,0.50612979,-0.32551279,0.450611,0.50341593,-0.31355192,0.445648
0.48568271,-0.45106519,0.481201,0.47493205,-0.40691363,0.47163,0.46385595,-0.43820765,0.479997,0.45515743,-0.42460455,0.480099,0.42337955,-0.38787131,0.458126,0.41518837,-0.36802948,0.453642,0.43977836,-0.35999068,0.463564,0.42293452,-0.31900896,0.446602,0.4145103,-0.29843306,0.438121,0.40921556,-0.27909608,0.434635,0.46371547,-0.36060407,0.462516,0.44655692,-0.31560008,0.443858,0.43652239,-0.29014976,0.432975,0.42935624,-0.27197075,0.425201,0.48507522,-0.36539804,0.462683,0.47223888,-0.32192358,0.445988,0.46568458,-0.29959268,0.437446,0.45973524,-0.27923617,0.429681,0.5130604,-0.37899957,0.464677,0.50620419,-0.34527542,0.452441,0.50328961,-0.33132622,0.446819,0.5007807,-0.31997173,0.441859
0.48028985,-0.45866601,0.475111,0.47309461,-0.41970064,0.467552,0.45792881,-0.44491156,0.473086,0.44444617,-0.4295125,0.471956,0.41561277,-0.39271837,0.456008,0.4107291,-0.37579304,0.458293,0.44081014,-0.37055618,0.459782,0.4255775,-0.33062867,0.444427,0.41795754,-0.31049616,0.436749,0.41102931,-0.29208875,0.42977,0.46647007,-0.37305186,0.460353,0.45116388,-0.32489778,0.443594,0.44222493,-0.29702294,0.433818,0.43669782,-0.28220305,0.426835,0.48871562,-0.37940677,0.461638,0.48369201,-0.33348238,0.451859,0.48106166,-0.31041535,0.446856,0.48044382,-0.30201456,0.442308,0.51680888,-0.39483393,0.464551,0.50842081,-0.3601187,0.451907,0.50521951,-0.34609529,0.446097,0.50267852,-0.33512915,0.440971
0.47977779,-0.46096015,0.475095,0.47523881,-0.42020482,0.46843,0.45838025,-0.44777303,0.47339,0.4432721,-0.42791474,0.470751,0.41793286,-0.39420576,0.45636,0.41819008,-0.37758433,0.460249,0.44608125,-0.37274428,0.461683,0.43163718,-0.33467552,0.447277,0.42440951,-0.31535742,0.440074,0.42279202,-0.30504592,0.433526,0.47438867,-0.37564938,0.462082,0.46206516,-0.32913809,0.446321,0.45487538,-0.30201547,0.437127,0.45325228,-0.29334111,0.43056,0.49513006,-0.38157661,0.463129,0.48714534,-0.3361465,0.454507,0.48874869,-0.32302063,0.450096,0.48851913,-0.30811219,0.447301,0.52012321,-0.39593177,0.465598,0.51618539,-0.36554685,0.45352,0.51510314,-0.35329644,0.44797,0.51415792,-0.34247551,0.443074
0.48327818,-0.4648748,0.476808,0.47884661,-0.42086455,0.467674,0.45932123,-0.44905514,0.472487,0.45285278,-0.43135228,0.470815,0.42248471,-0.39229887,0.451193,0.41430982,-0.37379831,0.45078,0.44578573,-0.36966223,0.455845,0.43057529,-0.33089871,0.438083,0.42202873,-0.31089869,0.429203,0.41332512,-0.29883856,0.42113,0.47343491,-0.37431922,0.458976,0.45720125,-0.32555159,0.44016,0.44770448,-0.29737822,0.429183,0.44394988,-0.29009123,0.421343,0.49720695,-0.38251873,0.462539,0.48538973,-0.33400112,0.445571,0.48090309,-0.31875733,0.436889,0.47401929,-0.30136037,0.428997,0.52680896,-0.40015098,0.468391,0.52590087,-0.36899084,0.455308,0.52370452,-0.35407676,0.449297,0.51887086,-0.34294762,0.443993
0.48384879,-0.46641333,0.473246,0.48323243,-0.42163993,0.465735,0.46737086,-0.45431593,0.470294,0.46156234,-0.43856288,0.471224,0.42727307,-0.40167511,0.451202,0.41707253,-0.38309229,0.450016,0.4498982,-0.37451428,0.45679,0.43515794,-0.33257735,0.441193,0.4293859,-0.30932103,0.433394,0.42326754,-0.30427897,0.426304,0.47668047,-0.3770338,0.458581,0.46097531,-0.32653839,0.441693,0.45654114,-0.30875463,0.431842,0.45052836,-0.2960435,0.424805,0.49979248,-0.38326173,0.460866,0.48677876,-0.33378449,0.445714,0.48358463,-0.31862917,0.437962,0.47828246,-0.3028482,0.430915,0.52871307,-0.39819253,0.46493,0.52389245,-0.36642239,0.452723,0.52216162,-0.35310207,0.447115,0.51837097,-0.34208681,0.442166
0.48197594,-0.46160497,0.471062,0.48255286,-0.4206096,0.464842,0.4611282,-0.4514602,0.468658,0.45483686,-0.43087848,0.469201,0.42628901,-0.39354664,0.451662,0.4209281,-0.37606276,0.453011,0.45062165,-0.37399408,0.457488,0.43904246,-0.33081247,0.443271,0.4329086,-0.30886857,0.436162,0.42932538,-0.30378825,0.4297,0.47710281,-0.37640189,0.458919,0.46358914,-0.324798,0.443487,0.45903347,-0.30834101,0.434485,0.45348071,-0.29550499,0.428055,0.49983395,-0.38247352,0.460768,0.48952823,-0.33477736,0.446983,0.48827793,-0.31678308,0.43993,0.48664435,-0.29563805,0.433518,0.52808645,-0.39711943,0.464083,0.52408819,-0.3662542,0.452786,0.52265923,-0.35315752,0.447595,0.51985337,-0.34251793,0.443015
0.48709877,-0.45490067,0.472595,0.48654483,-0.40340506,0.465262,0.46079798,-0.43302058,0.470578,0.4601642,-0.4144559,0.468832,0.42927126,-0.37592132,0.449607,0.42146203,-0.3574228,0.449589,0.45105187,-0.35531744,0.457654,0.43917134,-0.31150476,0.442506,0.43321832,-0.2897217,0.434931,0.42883381,-0.28462458,0.428046,0.47682035,-0.35613047,0.458278,0.46245762,-0.30585532,0.441755,0.45632227,-0.28678474,0.432117,0.45203731,-0.27285865,0.425233,0.49939863,-0.36110869,0.459581,0.49101898,-0.31334114,0.44502,0.48841695,-0.29517867,0.437571,0.48617324,-0.27838346,0.430798,0.52841598,-0.37494897,0.462473,0.5270119,-0.34629352,0.451029,0.52626526,-0.33329619,0.445771,0.52555262,-0.32191852,0.441132
0.48395864,-0.44257187,0.470404,0.4837817,-0.39094655,0.463226,0.4639651,-0.42867326,0.468224,0.46430704,-0.406257,0.468421,0.43248873,-0.36825344,0.44655,0.42283438,-0.34831034,0.443797,0.4494898,-0.34482394,0.455513,0.43763882,-0.30149538,0.440465,0.43170562,-0.27991365,0.432941,0.42733237,-0.27497658,0.426101,0.47554691,-0.34600517,0.45639,0.46097313,-0.2948507,0.439997,0.45518676,-0.27754652,0.430434,0.45073988,-0.26834748,0.423604,0.49824597,-0.35111924,0.457886,0.48811108,-0.30283399,0.443645,0.48537499,-0.28628758,0.436359,0.48408729,-0.27502127,0.429736,0.52704601,-0.36476871,0.460971,0.5234976,-0.33616369,0.448744,0.52197481,-0.32355128,0.443126,0.52096308,-0.31383199,0.438169
0.48740445,-0.42422265,0.463409,0.48463597,-0.37169361,0.459777,0.46685956,-0.40420552,0.461047,0.4586126,-0.38092426,0.462546,0.43008557,-0.34425026,0.444816,0.42450386,-0.32740388,0.446826,0.45267335,-0.32572329,0.454234,0.44078607,-0.28383017,0.442328,0.43484243,-0.26288511,0.436375,0.43245821,-0.25763619,0.430963,0.47973245,-0.32776374,0.456318,0.46608921,-0.27923892,0.444755,0.46366771,-0.26480064,0.43801,0.46211783,-0.25409245,0.433192,0.50287133,-0.33341733,0.458426,0.49150907,-0.28651121,0.446982,0.4906676,-0.27478486,0.441127,0.49015939,-0.2637582,0.435804,0.53152726,-0.34742491,0.461555,0.52878047,-0.31875773,0.452004,0.52866455,-0.30817316,0.447615,0.52878998,-0.30007282,0.443743
0.48216123,-0.40333936,0.454763,0.48291177,-0.35453819,0.454628,0.46029669,-0.39084049,0.453082,0.45121384,-0.36197357,0.455157,0.42228605,-0.32597142,0.434796,0.4170293,-0.30860757,0.435686,0.45483052,-0.31076464,0.452345,0.44419376,-0.26860233,0.443988,0.43888746,-0.24772587,0.439809,0.43766534,-0.23977241,0.43601,0.4821392,-0.31304372,0.454498,0.46997143,-0.26652416,0.445689,0.46860916,-0.24912691,0.44055,0.46778422,-0.23618049,0.43688,0.50501481,-0.31864652,0.456286,0.49654226,-0.27413053,0.44839,0.49661256,-0.25720198,0.444351,0.4968294,-0.24132078,0.440678,0.53245857,-0.33212968,0.458386,0.53216134,-0.30529499,0.452683,0.53195179,-0.29322881,0.450063,0.53320862,-0.28364244,0.447751
0.48264579,-0.38785416,0.454509,0.48223586,-0.33680697,0.454242,0.45971315,-0.36569602,0.451971,0.45012872,-0.34273552,0.453526,0.42127386,-0.30645284,0.431864,0.41582291,-0.28852074,0.431901,0.4544771,-0.29225599,0.450755,0.44477074,-0.25012997,0.441971,0.43992251,-0.22923773,0.43758,0.43954202,-0.22104809,0.433587,0.48261264,-0.29548257,0.453988,0.47101072,-0.24931076,0.444893,0.47084121,-0.23174433,0.439587,0.47092393,-0.21865439,0.435798,0.50606476,-0.30186203,0.456678,0.49823036,-0.25769436,0.448519,0.49924621,-0.24068955,0.444345,0.5003665,-0.22472052,0.44055,0.53396099,-0.31623669,0.459852,0.53460361,-0.29008937,0.454526,0.53482495,-0.27831515,0.452078,0.53665069,-0.26892033,0.449919
0.48500997,-0.37135078,0.457389,0.48472168,-0.31936087,0.456027,0.46271646,-0.34846818,0.454358,0.45463952,-0.32654961,0.456024,0.42352758,-0.29028969,0.43347,0.41772902,-0.27199308,0.432436,0.45598534,-0.27482859,0.451154,0.44548218,-0.23275992,0.442321,0.44038504,-0.21198972,0.437905,0.43963565,-0.2012981,0.43389,0.48439224,-0.2778395,0.454729,0.47550173,-0.23372596,0.448986,0.47437159,-0.21047766,0.445636,0.4736121,-0.19344565,0.443243,0.50814563,-0.28408074,0.45782,0.50418211,-0.24175521,0.452239,0.50531706,-0.22159292,0.449383,0.50641668,-0.2029725,0.446787,0.5364962,-0.29834096,0.461664,0.53535006,-0.27159921,0.4553,0.53475848,-0.25955287,0.452377,0.53592947,-0.24996062,0.449797
0.49003979,-0.34072297,0.455474,0.48945034,-0.29896673,0.455519,0.46759443,-0.32843406,0.452968,0.45936897,-0.30575735,0.455454,0.42779692,-0.26984637,0.433315,0.4223337,-0.25176611,0.432854,0.46059721,-0.25573242,0.452285,0.44913023,-0.21411693,0.443845,0.4435087,-0.1935088,0.439625,0.44206573,-0.18101387,0.435788,0.48886858,-0.25785387,0.455562,0.47868908,-0.21431446,0.449535,0.47778771,-0.19187163,0.44602,0.47721668,-0.17530653,0.443509,0.51251328,-0.26329635,0.458255,0.50816968,-0.22204008,0.453685,0.50932973,-0.20191612,0.451347,0.51045042,-0.18328663,0.449221,0.54076537,-0.27652274,0.461373,0.53878708,-0.25013377,0.455564,0.53793339,-0.23824212,0.452895,0.53844518,-0.22820082,0.450541
0.49664589,-0.33823863,0.458365,0.49591934,-0.29200244,0.457589,0.47395088,-0.32681846,0.455936,0.46769678,-0.30206467,0.458158,0.43099342,-0.26884082,0.434737,0.42357831,-0.25023078,0.432832,0.46400901,-0.25078297,0.453898,0.4509703,-0.20903146,0.44472,0.44425316,-0.19103002,0.440132,0.44244456,-0.17840203,0.43596,0.49181327,-0.25088301,0.456849,0.48111509,-0.20751629,0.451147,0.47944009,-0.18425757,0.447821,0.47828464,-0.16716502,0.445445,0.51535562,-0.25465453,0.459363,0.50991887,-0.21351297,0.455144,0.51020096,-0.19313278,0.452985,0.51050036,-0.17430363,0.451023,0.5440222,-0.26588707,0.462427,0.54153334,-0.23950113,0.456347,0.54403393,-0.22916454,0.456652,0.54624092,-0.22004713,0.456922
0.50179709,-0.32525648,0.459499,0.4981905,-0.27409107,0.459434,0.47786084,-0.30434737,0.455279,0.46791256,-0.2801777,0.455694,0.43393618,-0.24444754,0.431882,0.42708949,-0.22621147,0.43062,0.46461106,-0.23163778,0.453893,0.45493038,-0.19118917,0.4478,0.45015828,-0.17107518,0.444753,0.4509574,-0.15730603,0.441984,0.49421025,-0.23300745,0.459372,0.48786499,-0.19049087,0.455884,0.48670216,-0.16574863,0.45385,0.48588078,-0.1478552,0.452397,0.51921456,-0.23779947,0.46389,0.51678991,-0.19750836,0.460718,0.51796941,-0.17687981,0.459095,0.52082286,-0.15843022,0.457619,0.54956953,-0.25019578,0.469148,0.55045827,-0.22469217,0.463837,0.55083259,-0.21307914,0.461396,0.55114656,-0.20288818,0.459243
0.51437941,-0.29843717,0.462961,0.50637347,-0.25672476,0.462415,0.48954156,-0.28869338,0.459111,0.48911578,-0.2652922,0.462574,0.44985043,-0.23454386,0.443774,0.43794982,-0.2224413,0.446056,0.46966186,-0.21684892,0.457032,0.4617271,-0.17764776,0.45328,0.46072104,-0.1586075,0.451405,0.46015817,-0.14109246,0.4497,0.49855256,-0.21589643,0.461896,0.48994031,-0.17329226,0.457529,0.48765192,-0.14841576,0.454982,0.48654117,-0.13049416,0.453163,0.52331285,-0.21873754,0.465961,0.51743664,-0.17975813,0.463944,0.51827032,-0.1593956,0.462913,0.51971817,-0.14071076,0.461975,0.55402433,-0.22877337,0.470781,0.55508994,-0.20359474,0.466014,0.55555423,-0.1921094,0.463823,0.55595251,-0.18201988,0.461891
0.51736115,-0.29234498,0.463323,0.51085851,-0.24452631,0.462919,0.49201821,-0.28262167,0.459049,0.49502133,-0.25311903,0.463496,0.45509953,-0.22317312,0.44466,0.44262465,-0.21149814,0.446886,0.47278133,-0.20524474,0.457078,0.4647692,-0.16673555,0.454358,0.46396624,-0.14767304,0.452998,0.46361323,-0.13007723,0.451762,0.50199215,-0.20396675,0.462535,0.49304307,-0.16201414,0.45903,0.49073926,-0.13721059,0.456985,0.48964884,-0.11927568,0.455524,0.52710592,-0.20650569,0.467072,0.52077688,-0.16828065,0.465878,0.52159576,-0.14792173,0.465267,0.52306893,-0.12916725,0.464712,0.55839934,-0.21612944,0.472414,0.5593488,-0.1911513,0.468201,0.5597639,-0.17975545,0.466265,0.56011955,-0.16974287,0.464557
0.52195176,-0.2791816,0.464628,0.51334911,-0.23068109,0.464723,0.4963702,-0.26989952,0.460121,0.4969901,-0.23930728,0.464557,0.45623152,-0.21163167,0.446456,0.44378681,-0.20130709,0.449476,0.47496049,-0.19216457,0.458918,0.46724831,-0.15569955,0.458666,0.46778068,-0.13699411,0.45854,0.46828424,-0.11942306,0.458425,0.50436253,-0.19049719,0.464814,0.49440886,-0.15022603,0.46304,0.49282854,-0.12572238,0.462005,0.49169269,-0.10784739,0.461266,0.52962351,-0.19268139,0.469659,0.52380906,-0.1549662,0.469391,0.52427437,-0.13455922,0.469254,0.52515105,-0.11568645,0.469129,0.5610515,-0.20182146,0.475265,0.56095384,-0.17714514,0.471864,0.5608923,-0.16591048,0.470302,0.56082804,-0.15605109,0.468923
0.52362559,-0.2683148,0.466918,0.51514234,-0.22290876,0.46781,0.4987876,-0.25931825,0.463056,0.49772556,-0.23014751,0.467718,0.45864395,-0.20265339,0.450774,0.44763758,-0.19247489,0.454711,0.47904261,-0.18401177,0.463386,0.4734257,-0.1478861,0.463869,0.4746795,-0.12903024,0.464111,0.47584885,-0.11131318,0.46433,0.50819248,-0.18279722,0.468661,0.50047978,-0.1428762,0.46768,0.49994113,-0.11830582,0.467108,0.49955706,-0.10037657,0.466699,0.53304364,-0.18534961,0.472908,0.5293288,-0.14806639,0.473258,0.53068286,-0.12768963,0.473438,0.53234786,-0.10881798,0.473601,0.5636355,-0.19491576,0.47767,0.56491777,-0.17065246,0.474778,0.56548817,-0.15959498,0.473449,0.56598269,-0.14988599,0.472277
0.52499045,-0.26515196,0.469433,0.51528411,-0.21503522,0.470032,0.49853327,-0.25107509,0.465375,0.49949451,-0.22245476,0.47016,0.4587973,-0.19417596,0.451149,0.44837725,-0.1806398,0.45345,0.4791338,-0.17581063,0.465152,0.47428875,-0.14046813,0.466918,0.47574812,-0.12158356,0.4678,0.47709358,-0.10381939,0.468603,0.5085501,-0.17469938,0.470602,0.50230348,-0.13609331,0.471542,0.50257231,-0.11170906,0.472091,0.50275904,-0.093892076,0.472483,0.53363812,-0.17736246,0.475025,0.52864375,-0.13971341,0.474345,0.52987416,-0.11907694,0.473998,0.53101944,-0.099969946,0.473682,0.56450939,-0.18711581,0.480046,0.56289359,-0.16218692,0.476036,0.56223201,-0.15082143,0.474193,0.56203488,-0.1407488,0.472567
0.52607993,-0.25837059,0.471327,0.51873883,-0.21363342,0.472284,0.50077225,-0.24884483,0.467134,0.50426485,-0.21874201,0.473305,0.4616361,-0.19284535,0.45345,0.4509297,-0.17861743,0.454971,0.48215463,-0.17462584,0.467472,0.47760206,-0.13959891,0.469722,0.4790624,-0.12073307,0.470847,0.48040016,-0.10298326,0.47187,0.51199338,-0.17345042,0.473195,0.50569602,-0.13504371,0.474318,0.50580135,-0.11067002,0.474973,0.50586735,-0.092870835,0.475441,0.53816972,-0.17369422,0.477804,0.53174095,-0.13835063,0.476683,0.5324843,-0.11763232,0.47611,0.53318117,-0.098482539,0.475589,0.56971923,-0.18313181,0.482974,0.56793778,-0.15911273,0.479775,0.56719692,-0.14819862,0.478305,0.56711333,-0.14025203,0.477008
0.53141,-0.25230284,0.476683,0.52360664,-0.20228643,0.478535,0.5072308,-0.23985909,0.473279,0.50552637,-0.21056374,0.4788,0.46400175,-0.1826765,0.458771,0.45396723,-0.16800267,0.460366,0.4871891,-0.16526639,0.475358,0.48168484,-0.13033212,0.476797,0.4831359,-0.11151754,0.477516,0.4844807,-0.09374907,0.47817,0.51610234,-0.16284223,0.480299,0.51060708,-0.12325692,0.4815,0.50874366,-0.099188355,0.4822,0.50739619,-0.08183394,0.482701,0.54081548,-0.16432566,0.484168,0.53342728,-0.12543936,0.481331,0.53264734,-0.10442546,0.479879,0.53269972,-0.085004185,0.47856,0.57133604,-0.17252418,0.488311,0.56878523,-0.1484898,0.485217,0.5684682,-0.13720928,0.483796,0.56961667,-0.12727404,0.482542
0.53709184,-0.2394092,0.480196,0.53075042,-0.19519687,0.48286,0.51131844,-0.23085418,0.475927,0.5062235,-0.20123227,0.47972,0.46711562,-0.17148695,0.458872,0.45806277,-0.15621664,0.460518,0.49275596,-0.15853736,0.479109,0.48724694,-0.12502127,0.482289,0.48900125,-0.10596197,0.48388,0.491017,-0.088101021,0.485325,0.52248427,-0.15645301,0.485397,0.51541458,-0.11713146,0.486166,0.51345472,-0.092821944,0.486615,0.51203402,-0.075257108,0.486935,0.54790235,-0.15813956,0.490289,0.53881589,-0.12191372,0.48791,0.54036952,-0.10118379,0.486693,0.54119218,-0.084030618,0.485587,0.57933192,-0.16643225,0.495465,0.58104958,-0.14433257,0.494811,0.58397832,-0.13482163,0.496343,0.58656115,-0.12644378,0.497695
0.53519087,-0.24367089,0.480942,0.52900107,-0.19938416,0.483764,0.51055722,-0.23053441,0.47803,0.50563664,-0.20164055,0.481944,0.46850802,-0.17236263,0.463167,0.46128146,-0.1574369,0.466212,0.49582869,-0.15872276,0.481886,0.49141071,-0.12456777,0.486484,0.49203198,-0.10574063,0.488783,0.49514314,-0.088552266,0.490873,0.52403506,-0.1576291,0.48645,0.51906082,-0.11871204,0.488766,0.51724289,-0.095326671,0.490117,0.51625422,-0.078199708,0.491081,0.54777147,-0.16020029,0.489905,0.54393837,-0.12497978,0.492778,0.54744339,-0.10462309,0.494247,0.55100367,-0.08632264,0.495583,0.57669535,-0.1738748,0.493385,0.57730351,-0.15162306,0.494563,0.58115395,-0.14170533,0.497122,0.58796232,-0.13036836,0.499379
0.5357023,-0.24366409,0.48289,0.52993597,-0.19997756,0.485447,0.51140236,-0.23116332,0.480276,0.50704603,-0.20294464,0.484245,0.47009685,-0.17423353,0.467652,0.46635865,-0.15986948,0.472182,0.4976563,-0.15956945,0.483779,0.4935189,-0.12515358,0.488869,0.49339334,-0.10662477,0.491414,0.49626772,-0.089369948,0.493728,0.5254577,-0.15873284,0.487882,0.52143492,-0.12056165,0.491525,0.52041874,-0.099865034,0.494724,0.52019698,-0.083633145,0.497008,0.54876859,-0.16154912,0.490985,0.54657661,-0.12656341,0.495591,0.55068312,-0.10632908,0.497948,0.55500677,-0.087639492,0.500091,0.57642742,-0.17391075,0.494107,0.57749216,-0.15202993,0.495248,0.58227938,-0.14233798,0.498637,0.588968,-0.13141057,0.501627
0.53772193,-0.2444228,0.485704,0.53165141,-0.20076945,0.487515,0.51168623,-0.23143977,0.481414,0.509156,-0.20416025,0.486739,0.47074282,-0.17477976,0.468294,0.46515403,-0.15980338,0.471378,0.49695573,-0.15947485,0.483156,0.49002713,-0.12429358,0.485558,0.48808596,-0.1057698,0.486759,0.48949826,-0.088454466,0.48785,0.52685928,-0.15949356,0.489239,0.52555611,-0.12216895,0.495672,0.52535352,-0.10153327,0.499979,0.52581012,-0.085388269,0.503056,0.55209235,-0.1630571,0.494053,0.54254603,-0.12611443,0.492146,0.54276595,-0.10533536,0.491171,0.54353287,-0.086231684,0.490284,0.58230278,-0.17581075,0.4993,0.57745598,-0.15213921,0.495391,0.58340379,-0.14273224,0.499784,0.59090639,-0.13250031,0.503661
0.5386113,-0.24474367,0.487273,0.53219451,-0.20117187,0.488509,0.51285786,-0.23216443,0.483179,0.50904818,-0.20537035,0.488802,0.4715334,-0.17584978,0.469915,0.46557878,-0.16031791,0.472377,0.49748105,-0.15996795,0.484016,0.49038044,-0.12469535,0.486428,0.48704126,-0.10604226,0.487635,0.48957216,-0.088937809,0.488731,0.52696179,-0.1599044,0.489686,0.52621466,-0.12375969,0.497024,0.5259991,-0.10202712,0.501305,0.52657299,-0.085663114,0.504362,0.55187153,-0.16342512,0.494223,0.5425865,-0.12656706,0.492724,0.542857,-0.10583743,0.491957,0.54373209,-0.086673863,0.49126,0.58174621,-0.17575045,0.499256,0.57588832,-0.15184607,0.49456,0.583528,-0.14288855,0.500451,0.59249423,-0.13330663,0.50565
0.53897463,-0.24476812,0.487807,0.53261214,-0.20155566,0.4891,0.51391892,-0.23277399,0.484287,0.50945502,-0.20634712,0.489995,0.46999579,-0.17994137,0.473065,0.46749423,-0.16285559,0.47687,0.49854854,-0.16089423,0.485393,0.49078504,-0.12534484,0.48731,0.4871054,-0.10673677,0.488268,0.48934041,-0.089549156,0.489139,0.52725641,-0.16056698,0.490332,0.52487923,-0.12546532,0.497564,0.52458036,-0.10363741,0.501782,0.52713642,-0.084897244,0.504796,0.55148462,-0.16385985,0.494259,0.54360915,-0.1285898,0.494876,0.54450844,-0.1080943,0.495192,0.54541784,-0.088975602,0.495479,0.58053082,-0.17563008,0.498575,0.5742953,-0.15186812,0.493818,0.58506849,-0.14378669,0.502536,0.59595202,-0.1360604,0.510229
0.53894035,-0.24491401,0.488057,0.53289503,-0.20216669,0.489726,0.51449737,-0.23347846,0.485069,0.50652338,-0.20878037,0.490369,0.46947174,-0.18381811,0.475744,0.46784509,-0.16745832,0.481244,0.49859212,-0.16321607,0.486968,0.48994744,-0.12952452,0.490355,0.48696683,-0.11112233,0.492049,0.48959039,-0.093332732,0.493589,0.52767931,-0.16150798,0.491316,0.52400242,-0.13012973,0.501224,0.52524391,-0.10810671,0.507004,0.5291107,-0.089698158,0.511132,0.55109605,-0.16539162,0.494717,0.54494496,-0.1319963,0.499645,0.54619052,-0.1132896,0.502167,0.55061099,-0.09317125,0.504459,0.57960426,-0.17587185,0.498351,0.57383189,-0.15239243,0.494211,0.58817553,-0.14572864,0.506823,0.60350946,-0.13868552,0.517952
0.53926511,-0.24519082,0.488576,0.53290176,-0.20256115,0.490017,0.51509716,-0.23409523,0.485819,0.50639243,-0.20943204,0.490673,0.46843484,-0.18399017,0.475033,0.46585548,-0.16758455,0.479783,0.49852988,-0.1639512,0.487405,0.48705386,-0.12931068,0.487948,0.48263998,-0.11069253,0.488219,0.48387521,-0.092975688,0.488466,0.5272821,-0.16199525,0.491389,0.52222672,-0.13017626,0.500006,0.52249827,-0.10817681,0.505032,0.52547814,-0.090029137,0.508622,0.55034998,-0.16568277,0.494515,0.54127259,-0.13181379,0.496939,0.54130815,-0.11271019,0.498179,0.54413997,-0.092811658,0.499307,0.5785739,-0.17593168,0.497873,0.57203567,-0.15237633,0.493228,0.58513654,-0.14557045,0.504935,0.59934319,-0.13836636,0.515265
0.53774756,-0.24408098,0.488369,0.52949929,-0.20591431,0.488527,0.51333751,-0.23421404,0.484679,0.50398436,-0.21191233,0.490056,0.46610275,-0.18480655,0.473282,0.46348148,-0.16943362,0.47693,0.49304435,-0.16678733,0.483827,0.48433313,-0.13149519,0.487107,0.48126288,-0.11328794,0.488747,0.4830137,-0.096821159,0.490238,0.52210832,-0.16720767,0.488677,0.52043915,-0.13213823,0.499542,0.52155782,-0.11099573,0.50588,0.52355147,-0.094609532,0.510408,0.54344057,-0.17214323,0.492653,0.53716624,-0.13771371,0.495851,0.53935139,-0.11467781,0.497487,0.5412515,-0.095969246,0.498974,0.57333161,-0.18275308,0.497239,0.56482829,-0.1589361,0.491261,0.57968494,-0.15291046,0.504531,0.59414583,-0.14287422,0.51624
0.53646389,-0.24424011,0.48822,0.52806225,-0.20679515,0.489172,0.51293963,-0.23455704,0.485262,0.50340221,-0.21235226,0.489704,0.46653413,-0.18526946,0.473688,0.46319268,-0.168989,0.478137,0.49392924,-0.16768901,0.485965,0.48474791,-0.132514,0.48798,0.48108715,-0.11414487,0.488987,0.48233078,-0.097585618,0.489903,0.52066332,-0.16918501,0.490079,0.52092538,-0.13298177,0.500153,0.52150489,-0.11185734,0.506029,0.52302872,-0.095549931,0.510226,0.54422487,-0.17239167,0.493364,0.53715757,-0.13771149,0.495843,0.53888524,-0.11533519,0.497111,0.54048725,-0.096558616,0.498265,0.57305373,-0.18266451,0.496998,0.56491107,-0.1589594,0.491333,0.58030308,-0.15307352,0.505069,0.59514734,-0.14407591,0.517189
0.53276484,-0.24512555,0.486445,0.52577152,-0.2115246,0.489438,0.5089084,-0.23936175,0.484255,0.49461242,-0.21966035,0.488845,0.46550396,-0.18687036,0.473119,0.46297376,-0.16971488,0.478204,0.49126733,-0.17786145,0.488617,0.48206028,-0.13969829,0.486571,0.47994604,-0.12027476,0.485548,0.47671651,-0.10004394,0.484618,0.5188995,-0.1775013,0.492288,0.5180247,-0.14251654,0.500891,0.51898331,-0.1203986,0.505909,0.52165494,-0.099956078,0.509493,0.54215181,-0.18057047,0.494988,0.53398493,-0.14172566,0.493098,0.53396373,-0.12124545,0.49213,0.5332492,-0.098923002,0.491251,0.57041853,-0.19039298,0.49756,0.56726201,-0.16757962,0.494031,0.58503881,-0.16270668,0.509152,0.60085094,-0.15790013,0.522494
0.53121526,-0.24609956,0.485486,0.5249623,-0.21251638,0.489199,0.50760979,-0.24017033,0.483651,0.49446268,-0.21959385,0.488697,0.46482305,-0.18716197,0.472714,0.46226553,-0.1700314,0.477682,0.49198319,-0.17812063,0.489329,0.48176504,-0.13961273,0.486273,0.47915231,-0.12007585,0.484745,0.47579298,-0.10031042,0.483356,0.51937066,-0.17766247,0.492735,0.51781993,-0.1424602,0.500693,0.5183955,-0.12026223,0.505336,0.52098545,-0.10061289,0.508652,0.54231719,-0.18062555,0.495139,0.53345972,-0.14158626,0.492613,0.53308487,-0.12104589,0.49132,0.53222756,-0.099488541,0.490145,0.5700425,-0.19026747,0.497232,0.56774656,-0.16772277,0.494453,0.58579258,-0.16291631,0.509808,0.60184221,-0.15816063,0.523356
0.52679891,-0.24935315,0.483363,0.52162082,-0.21585113,0.488202,0.50268921,-0.24255199,0.481843,0.49426652,-0.21972422,0.489214,0.46548982,-0.18644265,0.47324,0.46291587,-0.17024689,0.478096,0.49244371,-0.17810774,0.489509,0.48184487,-0.14020771,0.486928,0.47934118,-0.1208523,0.485637,0.47659291,-0.10126841,0.484464,0.51984778,-0.1780395,0.492812,0.51372802,-0.14135711,0.496071,0.51761792,-0.11820694,0.497972,0.51463686,-0.1011189,0.49933,0.54259758,-0.18129664,0.49501,0.53443077,-0.14203719,0.492588,0.53321895,-0.12150955,0.491349,0.53198253,-0.10035267,0.490223,0.56968345,-0.19123423,0.496651,0.56907124,-0.16926731,0.495048,0.58642711,-0.16432931,0.50965,0.60183769,-0.15952297,0.522535
0.52403953,-0.25336792,0.482918,0.52165064,-0.2175949,0.488359,0.50261289,-0.24427236,0.482295,0.49243663,-0.22694923,0.490336,0.4621942,-0.19540064,0.474318,0.46123973,-0.17579382,0.479026,0.49366061,-0.18566529,0.49124,0.48287777,-0.14740277,0.488528,0.47846862,-0.12797295,0.487173,0.47746544,-0.10487542,0.48594,0.52060737,-0.18520701,0.49354,0.5110466,-0.14769204,0.493874,0.5104781,-0.1241621,0.494069,0.51263811,-0.10345863,0.494208,0.54309621,-0.18538544,0.494848,0.53356714,-0.14960645,0.492394,0.53225049,-0.12919047,0.491139,0.53180688,-0.11050066,0.489998,0.56910217,-0.1953285,0.495343,0.56919601,-0.17302208,0.494114,0.58407379,-0.1671957,0.506422,0.59603664,-0.15901236,0.517282
0.52140983,-0.25765032,0.481211,0.52090775,-0.22590676,0.487615,0.50049348,-0.2490451,0.481385,0.49502224,-0.23745434,0.491729,0.46371673,-0.20640692,0.475732,0.4595457,-0.19130312,0.480173,0.4925704,-0.19544652,0.49219,0.48438896,-0.15731899,0.4908,0.48111986,-0.13798485,0.490105,0.47810483,-0.12009012,0.489473,0.51864262,-0.19293735,0.493714,0.5084594,-0.15523199,0.492418,0.50871118,-0.13339863,0.491661,0.50931556,-0.11757679,0.491121,0.5403748,-0.19404702,0.494279,0.53491138,-0.15495503,0.493177,0.53306304,-0.13227593,0.492612,0.53196837,-0.11392721,0.492099,0.56699373,-0.19907458,0.493731,0.56770898,-0.17624423,0.493286,0.5791494,-0.16910406,0.502732,0.58925712,-0.1625233,0.511065
0.52171014,-0.25915946,0.481083,0.52107782,-0.22712062,0.487629,0.5004707,-0.25063894,0.481075,0.49492056,-0.23740557,0.491628,0.46373915,-0.2064169,0.475755,0.45969404,-0.19136488,0.480328,0.4924433,-0.19539609,0.492063,0.48434554,-0.15730489,0.490756,0.48111692,-0.137984,0.490102,0.47813902,-0.12009871,0.489508,0.51879914,-0.19299558,0.493863,0.50874129,-0.15531805,0.492691,0.50906918,-0.1334925,0.492007,0.50972727,-0.11767183,0.491518,0.54076947,-0.19418874,0.49464,0.53543417,-0.15510647,0.493659,0.53339273,-0.1333175,0.493157,0.53192311,-0.11503488,0.4927,0.56747227,-0.20002951,0.494311,0.56837945,-0.17720329,0.493999,0.57815595,-0.16956044,0.501987,0.58679489,-0.16258617,0.509035
0.52162729,-0.26085032,0.481054,0.52054433,-0.23066682,0.487385,0.50056941,-0.25839233,0.481144,0.49579082,-0.23888726,0.491954,0.46421429,-0.20838693,0.476487,0.4604057,-0.19329608,0.481205,0.49170025,-0.19642942,0.491801,0.48353986,-0.15831596,0.490378,0.47998599,-0.13897527,0.489666,0.47671416,-0.12111628,0.489019,0.5179767,-0.1938306,0.493414,0.50735249,-0.155787,0.492021,0.5033248,-0.13458824,0.491208,0.50653023,-0.11781831,0.490627,0.5399117,-0.19489091,0.49406,0.53416483,-0.15573647,0.492916,0.53134438,-0.13574769,0.492331,0.53000729,-0.11597836,0.491799,0.56622633,-0.20208382,0.49362,0.56629344,-0.17894165,0.492912,0.57391907,-0.17051642,0.499056,0.58108743,-0.16307944,0.504477
0.52205174,-0.26236117,0.481481,0.5204132,-0.23136114,0.487535,0.50062863,-0.25955724,0.481402,0.49625774,-0.2396445,0.492148,0.46429,-0.2093,0.476687,0.46049399,-0.19415101,0.481364,0.49120086,-0.19689469,0.491542,0.48275711,-0.15869802,0.489804,0.47891793,-0.13932485,0.488935,0.47538945,-0.12146755,0.488145,0.51768127,-0.19429207,0.4933,0.50653562,-0.15598493,0.491568,0.50265774,-0.13440987,0.490557,0.50457588,-0.11780803,0.489835,0.53983882,-0.19537162,0.494096,0.53365064,-0.15608726,0.492656,0.53058016,-0.13607177,0.491919,0.52885021,-0.11653912,0.491249,0.56648772,-0.20263988,0.493882,0.56594159,-0.17927821,0.49284,0.57067153,-0.16990988,0.49649,0.57549129,-0.16181168,0.499711
0.52400535,-0.26982205,0.48341,0.52013835,-0.23252115,0.487729,0.50152536,-0.2615072,0.482805,0.49748647,-0.24273686,0.4927,0.465218,-0.21270558,0.477631,0.46165112,-0.19526352,0.48227,0.4886732,-0.1988446,0.489872,0.47810355,-0.16016969,0.486097,0.47296577,-0.14069348,0.484209,0.47127173,-0.13186279,0.482493,0.51551244,-0.19635025,0.491841,0.50485973,-0.15791789,0.490481,0.50417258,-0.13438214,0.489687,0.50368106,-0.11846406,0.48912,0.53818868,-0.19762222,0.492998,0.53544688,-0.1598344,0.494936,0.53404905,-0.14054451,0.495927,0.5336672,-0.12099407,0.496829,0.56579221,-0.20534082,0.493528,0.56235816,-0.18090205,0.490431,0.56233852,-0.16992077,0.49002,0.56339495,-0.16060327,0.489657
0.52392843,-0.27087312,0.483723,0.52021055,-0.23340899,0.488098,0.50140896,-0.26250672,0.483079,0.4977274,-0.24330441,0.49301,0.46577423,-0.21313298,0.478014,0.46228142,-0.19594662,0.482726,0.48896066,-0.1994483,0.49023,0.47830589,-0.16078292,0.486481,0.47321642,-0.14133722,0.484607,0.47167121,-0.13197457,0.482902,0.5159016,-0.19707658,0.492265,0.50589992,-0.15878964,0.49125,0.5051381,-0.13522681,0.490658,0.50472368,-0.11928648,0.490235,0.53864521,-0.19845192,0.493468,0.5364669,-0.16098833,0.495865,0.5353753,-0.14189025,0.497105,0.53509141,-0.1224717,0.498232,0.56629684,-0.20630229,0.494043,0.56293533,-0.18179543,0.490938,0.56174938,-0.17045269,0.489511,0.56168026,-0.16075531,0.488253
0.52376116,-0.27191862,0.484037,0.51921705,-0.23605537,0.488403,0.50123576,-0.26509951,0.483354,0.49748129,-0.24396637,0.49311,0.46567412,-0.21407593,0.478529,0.46241532,-0.19897852,0.483569,0.48882513,-0.20013367,0.490477,0.47792955,-0.16147683,0.486711,0.47201292,-0.14352001,0.484828,0.4706433,-0.13195333,0.483116,0.51583461,-0.19783821,0.492561,0.50413923,-0.1591674,0.490003,0.5017811,-0.1385309,0.488511,0.50121329,-0.13285283,0.487445,0.53826026,-0.20102971,0.493806,0.53645597,-0.16402287,0.496536,0.53576584,-0.14278513,0.497933,0.53489159,-0.12545411,0.499203,0.56588017,-0.20923205,0.494432,0.56246923,-0.18494107,0.491367,0.56122375,-0.17368176,0.489959,0.5614901,-0.16185007,0.488716
0.52366775,-0.27292564,0.484498,0.51885502,-0.23657208,0.488416,0.50087812,-0.26579426,0.483606,0.49596262,-0.24526571,0.492189,0.46213615,-0.21693801,0.477457,0.46080039,-0.19925737,0.482522,0.48814994,-0.20017324,0.489914,0.47608842,-0.16259651,0.485627,0.4706889,-0.14323097,0.483484,0.46918218,-0.13182573,0.481535,0.51532225,-0.19808373,0.492147,0.50338407,-0.16103827,0.489426,0.50074592,-0.13877064,0.487838,0.50074381,-0.13243012,0.486704,0.53797209,-0.20130931,0.493564,0.53792821,-0.16491671,0.497466,0.54077025,-0.14714595,0.501334,0.54273626,-0.13095147,0.504851,0.56583968,-0.20982225,0.494472,0.5619203,-0.18550439,0.491092,0.56054431,-0.17417752,0.489538,0.56065728,-0.16242107,0.488168
0.52359059,-0.27373089,0.484865,0.51854173,-0.23691659,0.488374,0.50058006,-0.26632438,0.483783,0.49525707,-0.24529305,0.491617,0.46146967,-0.21680945,0.476803,0.45973264,-0.1994922,0.481863,0.48750444,-0.20013442,0.489348,0.47503928,-0.16230603,0.484575,0.46941882,-0.14291295,0.482189,0.46775375,-0.13159453,0.48002,0.51481362,-0.19820422,0.491715,0.50276977,-0.16108826,0.489027,0.50015022,-0.13892166,0.487459,0.50046593,-0.13225706,0.486339,0.53765554,-0.20142358,0.493287,0.53824312,-0.16527918,0.497498,0.54151188,-0.14776684,0.501712,0.54395489,-0.13172155,0.505543,0.565765,-0.21015831,0.494452,0.56137366,-0.18577013,0.490737,0.55984548,-0.17438391,0.489031,0.55977385,-0.16274394,0.487525
0.52311644,-0.27535232,0.484943,0.51810876,-0.23699968,0.488279,0.50018125,-0.26661969,0.483877,0.49406343,-0.24486303,0.490725,0.45988581,-0.21631513,0.475817,0.45554611,-0.20194784,0.480941,0.4871065,-0.20003951,0.489155,0.47495912,-0.16112514,0.484251,0.46865831,-0.14254421,0.481799,0.46688107,-0.1311001,0.47957,0.51436783,-0.19815647,0.491456,0.50198033,-0.15959727,0.488461,0.49906271,-0.13862605,0.486714,0.49931671,-0.13158083,0.485466,0.53716121,-0.20123403,0.492991,0.53788845,-0.16515055,0.497144,0.54002452,-0.14731629,0.500891,0.54196509,-0.13108345,0.504298,0.56523795,-0.21004043,0.494146,0.56066232,-0.18564656,0.490317,0.55914293,-0.17422353,0.488557,0.55906098,-0.16283514,0.487005
