sluyters/QuantumLeap/backend/src/datasets/dynamic/HandGestureDataset_SHREC2017_csv/Gesture13/finger_2/subject_14_essai_1_skeletons_world.csv
Wrist_x,Wrist_y,Wrist_z,Palm_x,Palm_y,Palm_z,thumb_base_x,thumb_base_y,thumb_base_z,thumb_first_joint_x,thumb_first_joint_y,thumb_first_joint_z,thumb_second_joint_x,thumb_second_joint_y,thumb_second_joint_z,thumb_tip_x,thumb_tip_y,thumb_tip_z,index_base_x,index_base_y,index_base_z,index_first_joint_x,index_first_joint_y,index_first_joint_z,index_second_joint_x,index_second_joint_y,index_second_joint_z,index_tip_x,index_tip_y,index_tip_z,middle_base_x,middle_base_y,middle_base_z,middle_first_joint_x,middle_first_joint_y,middle_first_joint_z,middle_second_joint_x,middle_second_joint_y,middle_second_joint_z,middle_tip_x,middle_tip_y,middle_tip_z,ring_base_x,ring_base_y,ring_base_z,ring_first_joint_x,ring_first_joint_y,ring_first_joint_z,ring_second_joint_x,ring_second_joint_y,ring_second_joint_z,ring_tip_x,ring_tip_y,ring_tip_z,pinky_base_x,pinky_base_y,pinky_base_z,pinky_first_joint_x,pinky_first_joint_y,pinky_first_joint_z,pinky_second_joint_x,pinky_second_joint_y,pinky_second_joint_z,pinky_tip_x,pinky_tip_y,pinky_tip_z,
0.44747213,-0.33338237,0.589382,0.43972052,-0.28818302,0.590321,0.42974444,-0.32053754,0.592247,0.40035271,-0.28311809,0.595275,0.3757481,-0.25276488,0.592767,0.36745655,-0.229551,0.592707,0.41826327,-0.23686144,0.594691,0.41379073,-0.20021791,0.59994,0.41122069,-0.18159254,0.602564,0.40883933,-0.16453564,0.60495,0.4396021,-0.23603813,0.591215,0.43759579,-0.19541994,0.592713,0.43508447,-0.17082698,0.593587,0.43391465,-0.15620794,0.594211,0.45729801,-0.23827861,0.588252,0.45266058,-0.19731281,0.590626,0.44947861,-0.17578165,0.591841,0.44656544,-0.15610089,0.592945,0.47878045,-0.24684127,0.584635,0.47713357,-0.20715599,0.584059,0.47473226,-0.18798525,0.583794,0.47624306,-0.17273909,0.58356
0.44511906,-0.3327969,0.589148,0.43842392,-0.28891748,0.59004,0.42740893,-0.32013379,0.592217,0.39917653,-0.2846835,0.595352,0.37391754,-0.2544814,0.592546,0.3652641,-0.23136991,0.592503,0.41630085,-0.23798699,0.594643,0.40180342,-0.19956375,0.592832,0.39521311,-0.17966581,0.591927,0.38917067,-0.16146945,0.591103,0.43745816,-0.23675079,0.590889,0.43511778,-0.19623798,0.5928,0.42944039,-0.17251118,0.593915,0.4284988,-0.1546694,0.594711,0.45503663,-0.23865107,0.587702,0.44965715,-0.19768017,0.589946,0.44324659,-0.17679127,0.591095,0.442811,-0.15651511,0.592139,0.47646025,-0.24680398,0.583835,0.46549806,-0.20416062,0.577856,0.45930476,-0.18549078,0.575109,0.45356889,-0.1693483,0.572685
0.41308789,-0.28405885,0.584899,0.41645399,-0.24832796,0.595037,0.39837641,-0.27696931,0.591968,0.37382714,-0.24432266,0.595611,0.35783059,-0.23330046,0.607,0.34830996,-0.2103764,0.607307,0.40084142,-0.20913312,0.611127,0.39441217,-0.17479085,0.615544,0.38569193,-0.15764917,0.617753,0.3774469,-0.14150939,0.619761,0.41857825,-0.20271165,0.604692,0.41109796,-0.16372541,0.609281,0.40640814,-0.14078859,0.611958,0.4023065,-0.12399233,0.61387,0.43282171,-0.19976637,0.5983,0.42584548,-0.16168906,0.603658,0.42114528,-0.14156561,0.606399,0.41684833,-0.12319573,0.608891,0.44942649,-0.20109347,0.588974,0.44971491,-0.17002948,0.595458,0.44487683,-0.15269816,0.598437,0.44047283,-0.1370603,0.601065
0.41198472,-0.28286591,0.585846,0.41360246,-0.24683097,0.595538,0.39623297,-0.27578787,0.592375,0.37255708,-0.24863509,0.605066,0.34877329,-0.22337655,0.607128,0.33877887,-0.20056253,0.607274,0.38990068,-0.20557134,0.610621,0.38327961,-0.17314787,0.614259,0.37389253,-0.15639904,0.616078,0.36501005,-0.14060113,0.617731,0.40864808,-0.19883153,0.604768,0.40087502,-0.16094107,0.609561,0.3957985,-0.13854054,0.612357,0.38965176,-0.12161337,0.614354,0.42392088,-0.19568647,0.598903,0.41588596,-0.15854447,0.604229,0.41018532,-0.13849405,0.606955,0.40496044,-0.12015172,0.609432,0.44213513,-0.19686126,0.590274,0.44139444,-0.16557843,0.599137,0.43873927,-0.14900771,0.603209,0.4363608,-0.13427471,0.606802
0.4112505,-0.28013872,0.588128,0.40712072,-0.23585635,0.596958,0.39545909,-0.27309019,0.594788,0.36689528,-0.24097211,0.605774,0.34159387,-0.21606053,0.607661,0.33032111,-0.19423997,0.608103,0.38774875,-0.19581234,0.611628,0.37496642,-0.16195058,0.617291,0.3683987,-0.14487948,0.620123,0.36240362,-0.12930829,0.622697,0.40601903,-0.18919005,0.605368,0.39697939,-0.15013994,0.608113,0.38952958,-0.1263588,0.609713,0.38415054,-0.10920612,0.610857,0.42090382,-0.18618104,0.599262,0.41247827,-0.15009153,0.603533,0.4045199,-0.1296929,0.605719,0.39713767,-0.11082262,0.607706,0.43866361,-0.18758887,0.590514,0.43472875,-0.15486657,0.595632,0.42911511,-0.13729902,0.597984,0.42383741,-0.12152112,0.600059
0.40253136,-0.26865661,0.587958,0.39776675,-0.22968984,0.598212,0.38684943,-0.26272593,0.595285,0.35965823,-0.23640641,0.608169,0.33469315,-0.21229516,0.610896,0.32670225,-0.19501571,0.615855,0.37714548,-0.19317874,0.614718,0.36717724,-0.15856388,0.618752,0.36039587,-0.14050042,0.620769,0.35119915,-0.12443374,0.622603,0.39476433,-0.18478965,0.607978,0.38648076,-0.148092,0.613221,0.37878418,-0.1252218,0.616279,0.37320773,-0.10869272,0.618463,0.40914937,-0.18020248,0.601323,0.40079077,-0.14449831,0.607169,0.39370681,-0.12458088,0.61016,0.38706803,-0.10621429,0.612879,0.42642742,-0.17947818,0.59167,0.4209727,-0.14350617,0.597668,0.41849023,-0.12706993,0.600424,0.41631202,-0.11261405,0.602856
0.40118836,-0.26917446,0.590861,0.39569613,-0.23012388,0.59834,0.38441381,-0.26236988,0.596507,0.35658328,-0.23505187,0.607042,0.33274348,-0.21161614,0.610679,0.32476815,-0.19383075,0.615247,0.37355079,-0.19133903,0.610773,0.35597122,-0.15422669,0.61216,0.34558478,-0.13597666,0.612853,0.34104629,-0.12083374,0.613483,0.39202284,-0.18394216,0.605464,0.38219734,-0.14591514,0.609894,0.37477996,-0.12282305,0.612478,0.36942335,-0.10617498,0.614324,0.40733671,-0.18026539,0.600286,0.39841416,-0.14584002,0.604882,0.38729803,-0.12832253,0.607233,0.37737166,-0.11036991,0.60937,0.42607335,-0.1808278,0.59287,0.41715887,-0.14420786,0.593692,0.41189506,-0.12683447,0.59407,0.40145283,-0.11559956,0.594404
0.39768817,-0.26723114,0.588723,0.39304892,-0.22933163,0.597446,0.37849237,-0.25970711,0.595353,0.35330396,-0.23390163,0.607998,0.3296134,-0.21228333,0.611348,0.32297339,-0.19355103,0.615846,0.36694851,-0.19176829,0.612005,0.35703617,-0.15505032,0.613764,0.34745521,-0.13662176,0.614644,0.34145075,-0.12069217,0.615444,0.38406922,-0.18295999,0.605754,0.37489635,-0.14573861,0.610321,0.36628367,-0.12284716,0.612985,0.35907317,-0.10617658,0.614888,0.39829267,-0.17805945,0.599666,0.39341453,-0.14156491,0.60668,0.39146817,-0.12325272,0.610268,0.38637097,-0.10513355,0.61353,0.41578926,-0.17705632,0.59096,0.41526123,-0.14578554,0.59596,0.40689098,-0.12789229,0.598257,0.39937462,-0.1132146,0.600284
0.3962509,-0.26634655,0.588054,0.39168595,-0.22877738,0.596745,0.38028919,-0.26060222,0.594886,0.35251001,-0.23346404,0.607251,0.3285171,-0.21235111,0.610574,0.32108968,-0.19311553,0.614701,0.36634623,-0.19125347,0.611545,0.35624146,-0.15464198,0.613114,0.3467637,-0.13613385,0.613899,0.34016863,-0.11994348,0.614612,0.3833862,-0.18236661,0.605023,0.37398861,-0.14500908,0.60983,0.36624203,-0.1223408,0.612634,0.36283641,-0.10542683,0.614637,0.39755097,-0.17742152,0.598715,0.3922098,-0.14067487,0.605593,0.38773598,-0.12090114,0.609112,0.38465992,-0.10392266,0.612311,0.41500552,-0.17639514,0.58976,0.40781828,-0.14259836,0.592147,0.3970656,-0.12350261,0.593244,0.39171077,-0.1108705,0.594212
0.39411425,-0.26638563,0.587114,0.38792761,-0.22892694,0.5951,0.37642667,-0.26003009,0.594752,0.35104133,-0.23378215,0.606472,0.32558785,-0.21295828,0.608831,0.31933045,-0.19290932,0.613404,0.3655705,-0.19155421,0.610471,0.3551872,-0.15487097,0.612225,0.34582043,-0.13638285,0.613102,0.33704054,-0.11926524,0.613899,0.38176755,-0.1826252,0.602705,0.37325714,-0.14540876,0.608631,0.36640801,-0.12290865,0.612087,0.36443825,-0.10645063,0.614556,0.39519114,-0.17769878,0.595449,0.39015755,-0.14128881,0.603157,0.3862919,-0.12339591,0.607101,0.3819968,-0.10557481,0.610686,0.41109576,-0.18010011,0.585526,0.40762509,-0.14782023,0.590099,0.40066106,-0.13057595,0.5922,0.39470099,-0.11308306,0.594054
0.39738314,-0.26970335,0.584586,0.39140777,-0.22951716,0.588909,0.3796235,-0.26221158,0.591634,0.35092397,-0.24169086,0.597361,0.3223525,-0.22198673,0.598734,0.31046905,-0.20491139,0.60263,0.3631665,-0.19362851,0.601024,0.34923696,-0.16025391,0.60451,0.34121982,-0.14328751,0.606253,0.32963648,-0.12896974,0.607838,0.37964751,-0.18438458,0.593026,0.3649936,-0.14564991,0.5944,0.35480569,-0.12262978,0.595202,0.34710415,-0.10601126,0.595775,0.39376034,-0.17941177,0.585973,0.38532812,-0.14663732,0.596481,0.38198934,-0.1282604,0.601857,0.37552508,-0.1117513,0.606745,0.41198641,-0.17880264,0.576975,0.39718838,-0.14699231,0.58255,0.38883984,-0.13171311,0.585111,0.38144168,-0.11818025,0.587372
0.40160371,-0.27313198,0.583879,0.39117059,-0.24016698,0.586791,0.38804678,-0.27020496,0.589508,0.35403494,-0.2485485,0.596936,0.32438248,-0.22287143,0.595368,0.310708,-0.20361343,0.598469,0.36027979,-0.20075172,0.5961,0.34515475,-0.1603854,0.591094,0.33762471,-0.14030588,0.588591,0.32593187,-0.12783156,0.586316,0.3779737,-0.19161628,0.589565,0.35915213,-0.15199615,0.587411,0.34590569,-0.12869932,0.586155,0.33635492,-0.11189557,0.585257,0.39325954,-0.18673107,0.583869,0.3824742,-0.14705713,0.586378,0.37698977,-0.12686921,0.587661,0.369439,-0.10756345,0.588828,0.41319541,-0.18622109,0.576711,0.40280857,-0.14525426,0.573187,0.39738617,-0.12631854,0.571567,0.38877545,-0.11486875,0.570138
0.39882413,-0.27789224,0.579433,0.38718408,-0.24572468,0.579054,0.38023984,-0.27287,0.58257,0.34619745,-0.24957172,0.586242,0.31914805,-0.22090588,0.585445,0.30516714,-0.1968359,0.576592,0.35740085,-0.19990428,0.58288,0.34700887,-0.16558417,0.589092,0.34178481,-0.14835203,0.592198,0.3370193,-0.13264523,0.595021,0.37793672,-0.19447627,0.578692,0.3648761,-0.15378814,0.575023,0.35300317,-0.12989907,0.572882,0.34432738,-0.11240246,0.571353,0.39550204,-0.19284457,0.575284,0.38798153,-0.15579757,0.577481,0.38016426,-0.13476884,0.578605,0.37286342,-0.11516827,0.579627,0.41796898,-0.19660343,0.571399,0.41294292,-0.16096167,0.574815,0.41070744,-0.1449451,0.576385,0.40516419,-0.13104009,0.57777
0.3836808,-0.3041629,0.569727,0.38021164,-0.26205829,0.5693,0.36746698,-0.29277585,0.573936,0.35751146,-0.26110404,0.582063,0.3296149,-0.23266534,0.575309,0.32386941,-0.21029406,0.578411,0.35798384,-0.21282744,0.574492,0.3423772,-0.17150595,0.567202,0.33449885,-0.15058334,0.563557,0.3272912,-0.13140461,0.560243,0.37596711,-0.20958078,0.568893,0.37016779,-0.16817717,0.571181,0.36675751,-0.14386946,0.572515,0.36430959,-0.1264368,0.573468,0.391259,-0.20986377,0.564328,0.3835132,-0.16603322,0.562574,0.37984023,-0.14372975,0.562103,0.37651342,-0.12343705,0.561698,0.41054781,-0.2162105,0.559111,0.40711495,-0.17328584,0.555635,0.40629167,-0.15401944,0.555063,0.40588527,-0.13715862,0.554995
0.37987398,-0.29836272,0.541799,0.38548476,-0.26526237,0.553571,0.35884358,-0.28683416,0.542124,0.35366783,-0.24352262,0.537229,0.34816896,-0.20227181,0.508622,0.35825357,-0.19030229,0.489741,0.36408393,-0.2238838,0.561988,0.35530949,-0.18624624,0.565461,0.35048417,-0.16831639,0.567197,0.3459136,-0.15209344,0.568776,0.3901473,-0.22352262,0.564784,0.38519746,-0.18242366,0.56957,0.38782366,-0.15996377,0.580857,0.38953608,-0.14306708,0.58892,0.41125163,-0.2252683,0.565817,0.40685633,-0.20808655,0.568917,0.40470823,-0.21356931,0.570503,0.40257748,-0.21898304,0.572059,0.43579968,-0.23161828,0.564803,0.4258776,-0.19360623,0.566055,0.42351848,-0.18173173,0.566631,0.42128906,-0.17061603,0.567139
0.397945,-0.30915555,0.535789,0.39521859,-0.27073353,0.541485,0.38067847,-0.30097426,0.540859,0.35746554,-0.27324273,0.549795,0.33273338,-0.24697857,0.550818,0.31933856,-0.22085039,0.543332,0.37184752,-0.2284135,0.551956,0.35567077,-0.19105859,0.551418,0.34753967,-0.17228084,0.551149,0.33761152,-0.15127627,0.550904,0.39064262,-0.22227346,0.54691,0.37747447,-0.18154506,0.546028,0.36703222,-0.15785916,0.545514,0.35721622,-0.14559767,0.545147,0.40638736,-0.21976864,0.54214,0.40123168,-0.18160446,0.543457,0.39275157,-0.16175758,0.544131,0.38477343,-0.14311333,0.544744,0.42589941,-0.22205156,0.535533,0.42215851,-0.18554843,0.538613,0.41773005,-0.16757788,0.540028,0.41377407,-0.15156111,0.541276
0.42223178,-0.33490627,0.531708,0.41424357,-0.29365745,0.53262,0.40318897,-0.32610994,0.535562,0.37900555,-0.29801799,0.54281,0.35094034,-0.26845477,0.539316,0.34104456,-0.24728679,0.540886,0.38518593,-0.24918467,0.538258,0.36671458,-0.20945616,0.532287,0.36328386,-0.19274844,0.537841,0.35998519,-0.17709156,0.54289,0.40426252,-0.24297905,0.533489,0.38518816,-0.20002522,0.52711,0.37252893,-0.17603318,0.523389,0.36244322,-0.16039808,0.520731,0.42074738,-0.24063199,0.529463,0.4046425,-0.19616175,0.523619,0.39517528,-0.17399438,0.520629,0.38649021,-0.15361093,0.517911,0.44212095,-0.24348881,0.524618,0.44105742,-0.20927793,0.533277,0.44061128,-0.19375525,0.537255,0.44023906,-0.18015677,0.540765
0.43696904,-0.35517491,0.526742,0.42943848,-0.31185388,0.524929,0.41911387,-0.34487301,0.531333,0.39387832,-0.31563181,0.535255,0.36684173,-0.287438,0.533881,0.36025327,-0.27013799,0.538966,0.40239381,-0.2636473,0.529677,0.38259777,-0.22298017,0.522125,0.3778016,-0.20608918,0.526056,0.37326462,-0.19030551,0.52963,0.42057451,-0.25877806,0.523202,0.39878515,-0.21573833,0.514186,0.38598197,-0.19038533,0.508927,0.3767924,-0.17215903,0.50517,0.43629287,-0.25777504,0.518065,0.41626346,-0.21407133,0.510837,0.40595621,-0.19153771,0.50714,0.39654816,-0.17094591,0.503778,0.45673817,-0.26267774,0.512444,0.44064633,-0.22217038,0.506524,0.4322057,-0.21743342,0.503804,0.43150451,-0.22838993,0.501404
0.45116685,-0.36945231,0.518724,0.44014088,-0.3242556,0.513725,0.42944812,-0.35726947,0.519847,0.40330565,-0.32664081,0.521768,0.3752047,-0.29633723,0.517844,0.36575379,-0.27618644,0.519926,0.40584035,-0.27265276,0.511794,0.38501542,-0.23075807,0.499485,0.37394237,-0.21199817,0.493331,0.36376308,-0.19466053,0.487736,0.42777924,-0.26960961,0.508964,0.40388292,-0.2252365,0.495606,0.3898969,-0.19921496,0.487814,0.37988505,-0.18056252,0.482249,0.44703188,-0.27029255,0.507172,0.42620716,-0.22456115,0.495372,0.41551249,-0.20108569,0.489334,0.40577097,-0.17966941,0.483846,0.4723815,-0.27751007,0.506032,0.44989024,-0.23438277,0.496396,0.44273316,-0.22996683,0.491969,0.44276166,-0.24076878,0.488063
0.45313161,-0.39543528,0.507883,0.44724851,-0.35021932,0.503459,0.42820037,-0.3785566,0.503548,0.39885238,-0.34318217,0.499036,0.37028676,-0.30768508,0.485576,0.35987342,-0.28102682,0.474887,0.41268947,-0.2921585,0.494808,0.39787418,-0.25149693,0.4899,0.39409196,-0.23665216,0.487446,0.39057597,-0.222568,0.485215,0.44109155,-0.29521527,0.499245,0.42577108,-0.24788905,0.485403,0.41683407,-0.22028676,0.477328,0.41045143,-0.20057353,0.471561,0.46527446,-0.30096742,0.503375,0.44478701,-0.25260527,0.490069,0.43589133,-0.22960589,0.483262,0.43081082,-0.21377557,0.477073,0.49551545,-0.3141945,0.509001,0.48471765,-0.2676043,0.499831,0.4832743,-0.24917206,0.495617,0.48470953,-0.24712974,0.4919
0.48627038,-0.41808011,0.514247,0.47487289,-0.36913839,0.503502,0.46374816,-0.40217317,0.51312,0.43364206,-0.36758136,0.509858,0.40461218,-0.33874269,0.492913,0.39035818,-0.31319445,0.484452,0.44004076,-0.31079534,0.494737,0.41721666,-0.27043351,0.476551,0.40575869,-0.25005283,0.467458,0.39531269,-0.23139793,0.459191,0.46368107,-0.311563,0.493269,0.44328432,-0.25700828,0.477547,0.43164099,-0.23608356,0.468376,0.42330587,-0.22170638,0.461825,0.48461488,-0.31584469,0.493217,0.46058169,-0.26377194,0.475706,0.44856823,-0.23974438,0.466747,0.43757566,-0.21749172,0.458603,0.51234503,-0.32814808,0.495177,0.50166276,-0.27915521,0.488423,0.49700848,-0.25756788,0.485319,0.4943981,-0.25002313,0.482581
0.49523992,-0.42054355,0.498069,0.4850227,-0.37577673,0.493505,0.47456182,-0.40818493,0.500208,0.45078466,-0.38075019,0.503,0.42178959,-0.34978608,0.495296,0.41017701,-0.32681951,0.494397,0.45257653,-0.32439877,0.493191,0.43264644,-0.28517146,0.481864,0.42259792,-0.26528099,0.4762,0.41341161,-0.2470275,0.471051,0.47371954,-0.32181554,0.489158,0.4604217,-0.28321308,0.484802,0.45266052,-0.26067891,0.482261,0.44711495,-0.24457566,0.480446,0.49230953,-0.32294551,0.486329,0.47597202,-0.2761877,0.474899,0.46763139,-0.2524067,0.469052,0.46005888,-0.23087342,0.463736,0.51682378,-0.33083055,0.483903,0.50508815,-0.29943667,0.47345,0.49966091,-0.2857245,0.468647,0.49487367,-0.27364319,0.46441
0.50704435,-0.43797834,0.497438,0.49725761,-0.39237689,0.48954,0.48834419,-0.42500845,0.500367,0.46766108,-0.39822189,0.501007,0.43937291,-0.36574,0.495187,0.42930559,-0.34264215,0.495029,0.46793552,-0.33929512,0.487992,0.45000815,-0.29754478,0.477275,0.44102205,-0.2765673,0.471917,0.43283881,-0.25743429,0.467046,0.48743348,-0.33774217,0.482018,0.47028917,-0.29597193,0.470651,0.46030403,-0.2716959,0.464021,0.45317751,-0.25439722,0.459284,0.50463594,-0.33991711,0.47795,0.48732488,-0.29371946,0.463928,0.47846581,-0.27003636,0.456755,0.47040894,-0.24847575,0.450233,0.52747602,-0.3493692,0.474712,0.52084653,-0.32050142,0.471276,0.51776294,-0.30775224,0.469697,0.51504414,-0.29651851,0.468304
0.52742893,-0.44740409,0.491273,0.51101016,-0.4015447,0.483316,0.50461172,-0.43640527,0.492303,0.47699543,-0.40973269,0.490729,0.44460062,-0.37921981,0.480135,0.4298325,-0.35601971,0.477846,0.47128385,-0.35104971,0.479255,0.4599742,-0.3091803,0.46944,0.45431068,-0.28807351,0.464532,0.44915781,-0.26878119,0.460071,0.49317603,-0.34709686,0.475738,0.48078763,-0.3047925,0.467414,0.47404828,-0.28354451,0.462558,0.46921163,-0.26813453,0.459089,0.51285766,-0.34726078,0.473699,0.50114447,-0.30114906,0.461712,0.49515376,-0.27749137,0.455579,0.48970954,-0.25594393,0.450004,0.53960514,-0.35419466,0.472829,0.52353919,-0.32445265,0.459404,0.51624732,-0.31117903,0.453236,0.5098126,-0.29946654,0.447793
0.53046935,-0.45781103,0.471875,0.52121869,-0.41527127,0.474351,0.50999428,-0.44860917,0.476447,0.48514527,-0.42152672,0.481626,0.45806935,-0.38928974,0.470651,0.44603257,-0.36441221,0.466269,0.49001694,-0.37044236,0.481986,0.4808377,-0.33125475,0.477489,0.47621671,-0.31142143,0.47524,0.47501522,-0.29512276,0.476221,0.50954419,-0.36406028,0.476709,0.50431773,-0.32735914,0.477339,0.5024398,-0.32517859,0.477707,0.50097807,-0.32349229,0.477969,0.52634302,-0.36156507,0.472096,0.52099439,-0.31968572,0.467527,0.51807697,-0.30068688,0.46519,0.51532718,-0.28479527,0.463065,0.54819209,-0.36429511,0.466277,0.54377897,-0.33927768,0.462061,0.54174375,-0.32860046,0.460124,0.53995158,-0.31904646,0.458415
0.53296465,-0.47112972,0.479638,0.52263813,-0.42934038,0.475568,0.50530737,-0.45233486,0.475367,0.48190353,-0.41892457,0.469585,0.45820092,-0.38266694,0.462209,0.44461674,-0.36003036,0.461853,0.48963188,-0.36801806,0.467243,0.47852712,-0.32928751,0.454797,0.47299969,-0.3095498,0.448574,0.46799073,-0.29137174,0.442917,0.51868034,-0.3737879,0.471693,0.50580977,-0.30840596,0.458604,0.49830324,-0.27027014,0.45097,0.50167987,-0.26119338,0.445516,0.54340193,-0.38195799,0.475796,0.5221576,-0.30822107,0.463504,0.52223584,-0.2830223,0.457216,0.5305441,-0.29053005,0.451499,0.57420854,-0.39839466,0.481324,0.55642232,-0.33153031,0.471336,0.56293824,-0.32449098,0.466747,0.56961356,-0.31798307,0.462697
0.53659904,-0.47488881,0.48152,0.53463435,-0.43052543,0.477127,0.5091587,-0.45525338,0.4768,0.48964564,-0.41855055,0.467693,0.46490667,-0.38319076,0.460074,0.45263491,-0.36126694,0.463066,0.5001684,-0.36830144,0.467997,0.48834756,-0.32871481,0.454924,0.48246065,-0.3086086,0.448388,0.4771221,-0.29013248,0.442445,0.52983065,-0.37446288,0.472943,0.51897802,-0.31145152,0.459099,0.51270224,-0.27406319,0.451022,0.51708846,-0.26778448,0.445254,0.55517386,-0.38299872,0.47749,0.53265121,-0.30875027,0.464701,0.53056855,-0.27972861,0.458157,0.53843394,-0.27891175,0.452208,0.58690592,-0.39995736,0.483594,0.567774,-0.33281518,0.473274,0.57479235,-0.32790429,0.468533,0.58215431,-0.32510618,0.464349
0.53492278,-0.47244419,0.478953,0.53549309,-0.42750335,0.475528,0.50964656,-0.45354471,0.475486,0.48999546,-0.41252145,0.469606,0.46798405,-0.37590211,0.457333,0.46021979,-0.35114041,0.455694,0.51058268,-0.3640429,0.468687,0.49988752,-0.32368536,0.456802,0.49456113,-0.30320536,0.450859,0.48973332,-0.28439994,0.445457,0.5387049,-0.37097885,0.472266,0.53057756,-0.30511918,0.46008,0.52581664,-0.26688971,0.452971,0.53103728,-0.25679609,0.447893,0.56231451,-0.3800594,0.475583,0.54268432,-0.30725398,0.463758,0.54307256,-0.28061669,0.457707,0.55295491,-0.28655849,0.452207,0.59117043,-0.39750031,0.480076,0.57689704,-0.33263174,0.472708,0.58478818,-0.32021287,0.469323,0.59260753,-0.30853952,0.466336
0.52766607,-0.46124874,0.475826,0.53698644,-0.41414988,0.475178,0.50943928,-0.44379236,0.47303,0.49918941,-0.39750466,0.471177,0.47990299,-0.36014553,0.466843,0.47849251,-0.33594965,0.466765,0.51742548,-0.3526651,0.471096,0.51046053,-0.31142832,0.461903,0.50706546,-0.2906215,0.457307,0.50411867,-0.27167599,0.453129,0.54531574,-0.36186526,0.47456,0.54541511,-0.29733642,0.465553,0.54544205,-0.25986661,0.460299,0.55285744,-0.248717,0.456546,0.56815678,-0.37259075,0.477483,0.54895769,-0.30047562,0.46906,0.5507912,-0.27248981,0.46475,0.56106316,-0.27505834,0.460832,0.59496294,-0.39161135,0.480998,0.58623013,-0.32767653,0.474013,0.59535799,-0.3147223,0.470804,0.60434083,-0.30252972,0.467972
0.53027398,-0.45017303,0.478806,0.54476589,-0.39863493,0.47991,0.51573825,-0.41934759,0.476789,0.51004507,-0.38434752,0.470358,0.48237347,-0.34412873,0.460173,0.47926789,-0.32071253,0.460762,0.52708353,-0.3393361,0.478033,0.52388543,-0.29838248,0.471109,0.52263575,-0.2780538,0.467647,0.52163859,-0.25947658,0.464499,0.55498324,-0.34800373,0.480962,0.55486919,-0.28387996,0.473916,0.55475447,-0.24683048,0.469806,0.56109644,-0.23378775,0.46687,0.57768043,-0.35816179,0.483255,0.56560092,-0.28841894,0.476596,0.56973876,-0.26027714,0.473189,0.57860367,-0.26193352,0.470092,0.60399192,-0.37628195,0.485709,0.607469,-0.31674081,0.483269,0.61611409,-0.29305839,0.482147,0.62407244,-0.271412,0.481158
0.52940825,-0.43787949,0.48063,0.54803562,-0.39775242,0.483323,0.518489,-0.41808592,0.480483,0.50802471,-0.37177916,0.471417,0.4901678,-0.3318982,0.462964,0.49165968,-0.30924338,0.465035,0.53680948,-0.33639775,0.484959,0.53538186,-0.29421758,0.479933,0.53557233,-0.27395049,0.477419,0.53578267,-0.25530441,0.475135,0.56229768,-0.34505066,0.485887,0.56535081,-0.2818387,0.4806,0.57116462,-0.24720492,0.477515,0.57910798,-0.23294037,0.475312,0.58195597,-0.35773343,0.486361,0.57528487,-0.28785048,0.482867,0.58118464,-0.25882881,0.48108,0.59119951,-0.2432857,0.479455,0.60497413,-0.37470649,0.486404,0.6089715,-0.31585138,0.485625,0.61410702,-0.28846174,0.485267,0.62009591,-0.26584023,0.484951
0.56000295,-0.39988274,0.481651,0.56697035,-0.35981708,0.486305,0.53876505,-0.38162971,0.480434,0.52766957,-0.3442223,0.481094,0.5036483,-0.30979525,0.477342,0.50222416,-0.284344,0.473602,0.54634099,-0.30459538,0.487879,0.54557623,-0.26322898,0.485285,0.54799759,-0.24372407,0.483989,0.55027106,-0.22563723,0.48281,0.57399581,-0.31064315,0.490737,0.56581761,-0.24980256,0.487651,0.57127306,-0.21673805,0.48585,0.58235871,-0.21172477,0.484564,0.59627035,-0.318356,0.492589,0.58274754,-0.2542403,0.489717,0.5903534,-0.2253405,0.488247,0.60521674,-0.22444705,0.486911,0.62190355,-0.33302765,0.493864,0.61274987,-0.27575609,0.491625,0.62426919,-0.25975611,0.490596,0.63534818,-0.24453836,0.489689
0.56890729,-0.38204633,0.48519,0.57741388,-0.34353016,0.491799,0.54875761,-0.36521703,0.485552,0.5395102,-0.32886947,0.488518,0.51634098,-0.29566912,0.486036,0.51480607,-0.27013168,0.482237,0.55913229,-0.29101638,0.496757,0.5587683,-0.250672,0.49609,0.55977618,-0.2305925,0.495757,0.5608445,-0.21221228,0.495454,0.58570723,-0.29574925,0.498093,0.58064587,-0.23598081,0.497266,0.58473504,-0.20152033,0.496784,0.59407174,-0.18566342,0.49644,0.60688232,-0.30224407,0.498481,0.59729642,-0.2412062,0.498624,0.60319702,-0.2098065,0.498697,0.61770103,-0.20188233,0.498763,0.63089353,-0.31523574,0.497688,0.62070683,-0.26013604,0.496781,0.63114509,-0.24370202,0.496365,0.64115267,-0.22801937,0.495997
0.57243392,-0.37494348,0.488315,0.58143961,-0.32726042,0.495175,0.55234944,-0.34865991,0.488678,0.55009316,-0.31118449,0.490386,0.52418378,-0.2837149,0.490883,0.52339056,-0.25968234,0.490679,0.56385032,-0.2749562,0.500306,0.56421268,-0.23483044,0.499915,0.56565261,-0.21473254,0.49972,0.56697522,-0.19630166,0.499543,0.59042775,-0.27980854,0.501708,0.58504677,-0.2213436,0.50119,0.58953667,-0.18673208,0.500888,0.60033632,-0.1769595,0.500672,0.61154037,-0.28638911,0.502123,0.60456814,-0.22686653,0.503958,0.61016495,-0.19453269,0.504897,0.6254571,-0.18199439,0.50575,0.63535548,-0.29945119,0.501315,0.62326216,-0.24512474,0.500213,0.63446968,-0.23124953,0.499707,0.64530696,-0.21791398,0.49926
0.58659744,-0.34405217,0.495555,0.59497404,-0.30662576,0.503559,0.56514186,-0.32751054,0.495301,0.55634432,-0.29078118,0.499127,0.53232045,-0.25505601,0.49304,0.53124625,-0.23179528,0.494127,0.57477587,-0.2555849,0.508663,0.57564921,-0.21609933,0.509605,0.57661731,-0.19619187,0.510077,0.57836867,-0.17785886,0.510505,0.60267763,-0.2602436,0.511182,0.59826904,-0.2021432,0.512045,0.60107759,-0.16687095,0.512549,0.61215613,-0.1530817,0.512908,0.62495613,-0.26659161,0.512394,0.61656552,-0.20979144,0.51494,0.62265556,-0.17736006,0.516242,0.63852431,-0.16444131,0.517426,0.65026708,-0.27924361,0.512297,0.6391349,-0.2277454,0.51284,0.6487414,-0.2066778,0.51309,0.65778429,-0.18679577,0.51331
0.59937974,-0.32354606,0.507564,0.60907393,-0.28691592,0.516573,0.57880097,-0.30753965,0.50792,0.56740967,-0.27047762,0.511234,0.54453844,-0.23275199,0.502413,0.543025,-0.21121495,0.505769,0.59082398,-0.23685265,0.523154,0.59184253,-0.19783445,0.524846,0.59288565,-0.17809943,0.525692,0.59455221,-0.15980675,0.526461,0.61806691,-0.24128293,0.525153,0.61264868,-0.18605568,0.526914,0.61675011,-0.15085609,0.527942,0.62857225,-0.1368406,0.528676,0.63959939,-0.24738821,0.525828,0.63384425,-0.19291002,0.531573,0.63795429,-0.16076662,0.534512,0.65422548,-0.14059177,0.537183,0.66370112,-0.25963269,0.524919,0.64953347,-0.20947496,0.524979,0.66227667,-0.19647541,0.525006,0.67307994,-0.20907708,0.52503
0.60786239,-0.30047185,0.515534,0.61975527,-0.26535462,0.526357,0.58951018,-0.28644699,0.518467,0.57550666,-0.25015484,0.52208,0.55265568,-0.21463204,0.51544,0.55028472,-0.19340542,0.518903,0.60597518,-0.21896278,0.537527,0.60854976,-0.18120583,0.541335,0.61021154,-0.16197394,0.543238,0.61222792,-0.14397959,0.544969,0.63086395,-0.22144038,0.536666,0.62839688,-0.16906194,0.540845,0.63229228,-0.13408254,0.543283,0.6420549,-0.11826468,0.545024,0.65020789,-0.22581069,0.53479,0.64825792,-0.17494241,0.54276,0.65254241,-0.14336174,0.546838,0.66632116,-0.12118959,0.550545,0.67136693,-0.23577249,0.530578,0.66105814,-0.18937941,0.532963,0.67125414,-0.17211105,0.534059,0.68234056,-0.1784227,0.535026
0.62281699,-0.28753344,0.5331,0.63382921,-0.25045154,0.541534,0.60289624,-0.27202997,0.533904,0.59156165,-0.23429737,0.535609,0.56617796,-0.19834736,0.526868,0.5636486,-0.17735872,0.530756,0.61746273,-0.20055839,0.548308,0.62479531,-0.167129,0.560049,0.62856651,-0.15007675,0.56592,0.63254757,-0.13358189,0.571257,0.64462189,-0.20417143,0.549566,0.64496448,-0.14838568,0.553367,0.64583017,-0.11570178,0.555584,0.65368023,-0.092472934,0.557168,0.66612296,-0.20972218,0.549693,0.6543949,-0.15546334,0.55467,0.65254208,-0.12363012,0.557217,0.6626591,-0.099770408,0.559532,0.69016723,-0.22153728,0.548255,0.68821292,-0.17293077,0.555284,0.6874964,-0.15145941,0.558514,0.69626339,-0.12988444,0.561364
0.62725621,-0.28670294,0.537184,0.6377008,-0.24933738,0.545426,0.60575059,-0.27034543,0.536505,0.59205564,-0.22837585,0.535503,0.56576177,-0.19199615,0.52551,0.56348906,-0.17433154,0.530412,0.61818429,-0.19537288,0.550138,0.62487111,-0.15965923,0.559408,0.62819722,-0.14162117,0.564043,0.63082361,-0.12883952,0.568598,0.64676163,-0.2000681,0.553276,0.64871391,-0.14512608,0.559375,0.64990686,-0.11367025,0.562933,0.65815672,-0.08785961,0.565475,0.669475,-0.20652195,0.554972,0.66581814,-0.15203641,0.561755,0.66691089,-0.1218582,0.565225,0.6810202,-0.094966644,0.568379,0.69500727,-0.21940789,0.555391,0.69441769,-0.17139557,0.562393,0.69430807,-0.15021229,0.56561,0.7051983,-0.12996347,0.568448
0.65133949,-0.27379846,0.552506,0.65914872,-0.23648127,0.560872,0.6295593,-0.25904322,0.552416,0.61323106,-0.22097884,0.551584,0.58545138,-0.18621501,0.542411,0.58053669,-0.16569344,0.545974,0.6378214,-0.18731572,0.566433,0.64111636,-0.1515437,0.57486,0.64274428,-0.13353921,0.579073,0.64461471,-0.11657649,0.582903,0.66604574,-0.19007026,0.568838,0.6646206,-0.13554081,0.575051,0.6638789,-0.10432458,0.578674,0.67014907,-0.078261853,0.581263,0.68862728,-0.19492129,0.569918,0.68177653,-0.14124894,0.576761,0.68094061,-0.11129633,0.580262,0.69271209,-0.083819835,0.583445,0.71434737,-0.20589627,0.569598,0.71192361,-0.15869868,0.577421,0.71100906,-0.13782429,0.581016,0.72063643,-0.1155713,0.584187
0.65708445,-0.25462095,0.561004,0.66777881,-0.21939178,0.571755,0.6339344,-0.23738235,0.558354,0.62017718,-0.19631195,0.555684,0.59312099,-0.15953401,0.544173,0.58956153,-0.13907286,0.548098,0.64661757,-0.1690592,0.575602,0.65378519,-0.13477499,0.586553,0.65735226,-0.11751429,0.592028,0.66121925,-0.10111456,0.597005,0.67747873,-0.17561153,0.581993,0.68021102,-0.12404973,0.591309,0.68189676,-0.094590774,0.596743,0.69294014,-0.068228218,0.600625,0.70190671,-0.1834307,0.586098,0.69694028,-0.13350027,0.59561,0.69823587,-0.10496204,0.600476,0.71645334,-0.076253483,0.604901,0.72914068,-0.19759667,0.588841,0.72819578,-0.15403606,0.599178,0.72799312,-0.13481517,0.603927,0.74194808,-0.11211589,0.608118
0.67121539,-0.25329839,0.572227,0.68326026,-0.21270646,0.584408,0.64712382,-0.23566523,0.568808,0.63605957,-0.18873555,0.566905,0.60800095,-0.15177502,0.554307,0.60382996,-0.13135449,0.557989,0.66129079,-0.16270625,0.588227,0.66673638,-0.12845752,0.59843,0.67033751,-0.11047702,0.603531,0.67486833,-0.09303853,0.608169,0.69298423,-0.16982033,0.59601,0.69483113,-0.11893397,0.605987,0.69601559,-0.08983989,0.611807,0.70769528,-0.063390229,0.615964,0.71799194,-0.17804095,0.601106,0.71146164,-0.12902996,0.611203,0.71228928,-0.10078942,0.616369,0.73171477,-0.071770389,0.621065,0.74570879,-0.19255202,0.604732,0.74356211,-0.14994203,0.615825,0.74283133,-0.13110889,0.620922,0.75752138,-0.1082598,0.625419
0.67868492,-0.25334741,0.578744,0.687963,-0.21425062,0.590391,0.65225841,-0.22973385,0.572146,0.63642733,-0.18688559,0.566078,0.60719803,-0.150822,0.553909,0.60172786,-0.13133277,0.557977,0.66038736,-0.16245451,0.589707,0.66190842,-0.12807975,0.600341,0.66506923,-0.11036435,0.605658,0.67348482,-0.093279139,0.610492,0.69111053,-0.17136678,0.601485,0.69068551,-0.12161766,0.612645,0.6905805,-0.09316806,0.619155,0.70405216,-0.067123459,0.623806,0.71768108,-0.1815815,0.609928,0.70706274,-0.13369638,0.621,0.70673666,-0.10595698,0.626666,0.72948012,-0.077287249,0.631816,0.74765946,-0.19837762,0.617539,0.74135843,-0.1569021,0.629401,0.7387894,-0.1385583,0.634852,0.75515045,-0.11603788,0.639661
0.68049065,-0.24755,0.582056,0.68778238,-0.21246179,0.594867,0.65601049,-0.22918399,0.577528,0.63023113,-0.18793237,0.578541,0.60799227,-0.15670314,0.575763,0.60465936,-0.13339647,0.575381,0.66058336,-0.16034584,0.597666,0.66052975,-0.12355578,0.604267,0.66178556,-0.10428011,0.607567,0.66488051,-0.085690852,0.610567,0.69202096,-0.16948281,0.607067,0.6937573,-0.11778327,0.615692,0.69485934,-0.088215678,0.620724,0.7115448,-0.065243077,0.624317,0.71931492,-0.18089607,0.613428,0.70535065,-0.12095116,0.618873,0.69965912,-0.091809688,0.621659,0.71787535,-0.062074087,0.624191,0.7465924,-0.19687163,0.618403,0.74164127,-0.15550395,0.631455,0.73750666,-0.13514899,0.637452,0.75603463,-0.11450159,0.642744
0.67891999,-0.24707143,0.582383,0.68619699,-0.2121419,0.595106,0.65539667,-0.22937155,0.578881,0.6307743,-0.18976864,0.579612,0.6064567,-0.1636539,0.579489,0.60382912,-0.13569392,0.57513,0.66046049,-0.1614786,0.599183,0.66260527,-0.12501302,0.606848,0.66431207,-0.10627561,0.610681,0.66936931,-0.090121182,0.614165,0.69112719,-0.16925683,0.607223,0.68854305,-0.118665,0.616828,0.68835149,-0.089389309,0.622431,0.70484829,-0.065719303,0.626433,0.715304,-0.17789637,0.612472,0.70545408,-0.12199377,0.619665,0.70065535,-0.094158251,0.623345,0.71797751,-0.064014585,0.62669,0.74215927,-0.19264963,0.616174,0.74478855,-0.14082823,0.624774,0.74590206,-0.1182564,0.628726,0.74781027,-0.097767891,0.632212
0.68126108,-0.2480289,0.586189,0.68588899,-0.21109669,0.598098,0.65825183,-0.2308009,0.583324,0.63931546,-0.18973208,0.582386,0.61515883,-0.17545452,0.59024,0.61121647,-0.15186916,0.590291,0.66305171,-0.16161798,0.602452,0.66393992,-0.12531787,0.609657,0.66511607,-0.10655026,0.61326,0.66776403,-0.088392159,0.616535,0.69314135,-0.16833342,0.609439,0.68996424,-0.11713323,0.618779,0.68900469,-0.088180098,0.624227,0.70125631,-0.062317682,0.628118,0.71669708,-0.17196388,0.61391,0.71535798,-0.1203456,0.626491,0.71488746,-0.094674116,0.632928,0.72390663,-0.063274861,0.63878,0.74399938,-0.18488293,0.616861,0.74104173,-0.13700669,0.627103,0.73988824,-0.11534526,0.631809,0.74063,-0.094605315,0.635961
0.6822603,-0.24876969,0.5885,0.68764378,-0.2121058,0.600595,0.65934999,-0.23179139,0.585824,0.64074873,-0.19120188,0.584459,0.61793989,-0.17737555,0.593622,0.61492312,-0.15400614,0.594608,0.66524669,-0.16253146,0.605321,0.66316326,-0.12668258,0.61296,0.66400363,-0.10815316,0.61678,0.67024419,-0.089513671,0.620252,0.69542821,-0.16880729,0.612113,0.69196151,-0.11787097,0.621412,0.69074309,-0.089053551,0.626837,0.70229365,-0.063037329,0.630712,0.71884631,-0.17510109,0.616403,0.71740291,-0.122186,0.629239,0.71703262,-0.09658119,0.635807,0.72611586,-0.065225535,0.641777,0.74557796,-0.1864961,0.619109,0.74277365,-0.13876086,0.629556,0.74168954,-0.11715979,0.634356,0.7424873,-0.096469433,0.638592
0.68498328,-0.24759961,0.59627,0.68552695,-0.20408201,0.607268,0.66173309,-0.23120119,0.593898,0.63652694,-0.18407984,0.594311,0.61289089,-0.1537392,0.591455,0.60883681,-0.12907599,0.589023,0.66199519,-0.15782773,0.611646,0.65760751,-0.11877879,0.614869,0.65715258,-0.098122942,0.61648,0.65669826,-0.078947745,0.617945,0.6935936,-0.16210166,0.617743,0.69621363,-0.11241364,0.628246,0.69784803,-0.084033683,0.634373,0.70848899,-0.061484265,0.63875,0.7188942,-0.16795433,0.621578,0.7228293,-0.12399604,0.636283,0.72288869,-0.10119068,0.643807,0.73633788,-0.067423231,0.650647,0.74762668,-0.17964553,0.623962,0.75652728,-0.13992071,0.639054,0.76074447,-0.12227743,0.645989,0.76452527,-0.1070023,0.652107
0.686337,-0.24804138,0.596877,0.68705955,-0.20635422,0.608664,0.66131655,-0.23081871,0.595024,0.63833544,-0.18643966,0.595929,0.6152074,-0.15622506,0.59355,0.61118696,-0.13156256,0.591151,0.66486917,-0.16042468,0.614254,0.66129814,-0.12150684,0.618247,0.66124984,-0.1008911,0.620243,0.66116281,-0.081730393,0.622058,0.69597257,-0.16460033,0.619889,0.69892014,-0.11493002,0.630689,0.70074119,-0.086537587,0.636989,0.71143627,-0.06208087,0.641488,0.72301187,-0.1717461,0.623259,0.72382981,-0.12560368,0.638524,0.72569645,-0.10367029,0.646334,0.7395604,-0.069498041,0.653434,0.75033759,-0.18366479,0.624956,0.7579429,-0.14222755,0.64038,0.76234478,-0.12461475,0.647467,0.76628761,-0.1093585,0.65372
0.68655645,-0.2477623,0.598118,0.68816599,-0.20729019,0.609657,0.66135295,-0.23066235,0.596127,0.63932783,-0.1873398,0.596832,0.61594919,-0.15704604,0.594219,0.61174461,-0.13234271,0.591642,0.66558431,-0.16123236,0.614899,0.66158925,-0.12224465,0.618495,0.66133172,-0.10161917,0.620293,0.66105469,-0.082462061,0.621927,0.69681236,-0.1654445,0.620646,0.69965793,-0.11574225,0.631355,0.70142066,-0.087337699,0.637602,0.71202152,-0.062335749,0.642064,0.72343201,-0.17211885,0.624136,0.7246651,-0.12642862,0.639276,0.72645907,-0.10447267,0.647022,0.7403144,-0.070632718,0.654064,0.75113588,-0.18399869,0.626017,0.75916641,-0.14313719,0.641457,0.76357446,-0.12550755,0.648551,0.76752364,-0.11023654,0.654811
0.68611991,-0.24726424,0.598404,0.69060445,-0.20895819,0.610033,0.66016721,-0.23004122,0.595678,0.64103797,-0.18787219,0.597879,0.62224247,-0.15010338,0.586518,0.6180333,-0.12358166,0.577837,0.66551325,-0.16123301,0.614379,0.66093256,-0.12213118,0.617377,0.66038555,-0.10148754,0.618876,0.65984815,-0.082328344,0.620239,0.6978265,-0.16570965,0.621109,0.70260932,-0.1174174,0.634079,0.70538073,-0.091337238,0.641644,0.71669969,-0.063962964,0.647048,0.72494252,-0.17240836,0.625396,0.72593498,-0.1265345,0.639901,0.72738753,-0.10440969,0.647321,0.74078387,-0.071017307,0.654067,0.7538624,-0.18453313,0.628188,0.76105984,-0.14341824,0.642592,0.76493161,-0.12559084,0.64921,0.76841017,-0.11016634,0.655049
0.68408372,-0.24650409,0.59702,0.69296413,-0.21128271,0.609541,0.66212527,-0.23092949,0.59608,0.64116552,-0.18910573,0.597015,0.62617185,-0.15213751,0.589326,0.62479102,-0.12594265,0.580974,0.67030948,-0.16373781,0.61682,0.66908963,-0.12558099,0.621888,0.67144738,-0.10483823,0.624423,0.66991977,-0.084292267,0.627531,0.70106089,-0.16792444,0.621466,0.70511964,-0.11955049,0.635431,0.7085229,-0.091710412,0.643662,0.72032762,-0.064476829,0.649542,0.72441979,-0.17369606,0.623944,0.72997713,-0.12758947,0.642215,0.73305485,-0.10518858,0.651598,0.74897698,-0.074021316,0.660128,0.75027734,-0.18530036,0.624465,0.76033744,-0.14415344,0.641048,0.76547514,-0.12641502,0.648675,0.76972658,-0.11032185,0.655405
0.68719615,-0.24715079,0.601261,0.69244326,-0.21061688,0.609651,0.66141825,-0.23052422,0.597221,0.64148654,-0.18981905,0.597433,0.61419354,-0.15671397,0.589668,0.61798934,-0.12644231,0.579436,0.66424079,-0.16189183,0.610085,0.6591318,-0.12364898,0.609737,0.65790039,-0.10025054,0.609563,0.65763234,-0.080700875,0.609404,0.69701626,-0.16679132,0.617642,0.69977373,-0.11776728,0.629556,0.70191631,-0.089340545,0.636506,0.71317937,-0.063183917,0.641471,0.72361177,-0.17331738,0.62296,0.72529143,-0.12565477,0.637604,0.72633017,-0.10331838,0.645096,0.73978693,-0.072155614,0.651906,0.75441296,-0.18610707,0.627556,0.75975287,-0.14325624,0.640267,0.76428159,-0.12538353,0.647411,0.7683337,-0.10988753,0.653715
0.67628975,-0.2480262,0.591005,0.68343947,-0.22380171,0.601206,0.65409318,-0.23287776,0.588807,0.63304462,-0.20194321,0.588884,0.61285822,-0.1691231,0.585599,0.61030479,-0.14724492,0.586089,0.66574877,-0.17276412,0.605268,0.65785266,-0.13532846,0.60706,0.65658593,-0.11499738,0.607956,0.65726644,-0.095779487,0.608771,0.69578135,-0.18023483,0.61092,0.69947638,-0.12682275,0.61665,0.70166979,-0.096415551,0.619992,0.71531375,-0.072328855,0.622379,0.71940772,-0.18881452,0.614476,0.71133938,-0.13935224,0.62627,0.70761611,-0.11502845,0.632304,0.72117584,-0.084437747,0.637789,0.74547755,-0.20389791,0.616685,0.75354816,-0.1614649,0.631277,0.75737021,-0.14253408,0.637981,0.7607977,-0.12610406,0.643896
0.67070342,-0.25245583,0.587371,0.68049791,-0.22427158,0.599146,0.64570713,-0.24116303,0.585454,0.63302416,-0.20406805,0.589638,0.61271263,-0.1737012,0.587256,0.61139549,-0.14997203,0.588483,0.65990097,-0.17674389,0.604645,0.65128458,-0.14079848,0.608213,0.64972546,-0.12098155,0.609997,0.65020777,-0.10207479,0.611619,0.68997213,-0.18332871,0.610361,0.69229215,-0.13198365,0.618825,0.69374278,-0.10275857,0.623762,0.70754579,-0.078413397,0.627289,0.71613047,-0.18982869,0.613799,0.70360887,-0.14462998,0.627931,0.69895886,-0.12181217,0.635161,0.71207789,-0.091296759,0.641734,0.74200544,-0.20420105,0.615576,0.74279667,-0.1589904,0.62756,0.74426437,-0.13844833,0.633067,0.7456187,-0.12058593,0.637925
0.66433025,-0.26080072,0.584117,0.67758567,-0.2344423,0.596424,0.64299493,-0.24386268,0.582799,0.6302001,-0.21480773,0.587127,0.60862043,-0.18054884,0.581632,0.60749232,-0.15780911,0.583188,0.65978641,-0.18556934,0.603064,0.65243819,-0.14949128,0.607266,0.65147393,-0.12969915,0.609367,0.65247321,-0.11087677,0.611277,0.6891814,-0.19216429,0.608146,0.69241992,-0.14029096,0.616499,0.69438783,-0.1107167,0.621372,0.70834943,-0.086793511,0.624852,0.71214809,-0.19987982,0.611004,0.7033605,-0.15269085,0.62523,0.69931006,-0.12945701,0.632509,0.71279697,-0.099354123,0.639126,0.73727904,-0.21366424,0.612008,0.73586897,-0.16186563,0.617355,0.73763913,-0.13674334,0.619812,0.74059914,-0.11369395,0.621979
0.66325349,-0.26198792,0.582714,0.67652375,-0.23362622,0.594882,0.64199041,-0.24513692,0.581505,0.62906543,-0.21396605,0.585525,0.60714945,-0.17961037,0.579717,0.60617732,-0.15692168,0.581422,0.65876307,-0.1847614,0.60157,0.65132191,-0.14865474,0.60569,0.65031614,-0.12884793,0.607749,0.65128233,-0.11001119,0.609622,0.68796278,-0.19129869,0.606471,0.69117303,-0.13942948,0.614807,0.69312489,-0.10986053,0.61967,0.70709987,-0.085918472,0.623143,0.71077561,-0.19896902,0.609195,0.70195756,-0.15179826,0.623403,0.69789266,-0.12857616,0.630672,0.71139175,-0.098461635,0.637281,0.73574852,-0.21270428,0.61007,0.73486743,-0.16105348,0.615868,0.73637475,-0.1363457,0.618532,0.7388029,-0.11385096,0.620883
0.66296571,-0.26284182,0.582187,0.6761756,-0.23335614,0.594373,0.64172605,-0.24603094,0.581035,0.62861628,-0.21366136,0.584925,0.60710457,-0.17942929,0.579504,0.60625998,-0.15676063,0.581333,0.65850524,-0.18451535,0.601148,0.65120513,-0.14843404,0.605402,0.65027201,-0.12863176,0.607529,0.65130392,-0.10979321,0.609462,0.68763182,-0.19103108,0.605979,0.69106776,-0.13920484,0.614519,0.69314958,-0.10964571,0.619501,0.70723466,-0.085693606,0.623059,0.71037876,-0.19868241,0.608644,0.70183449,-0.1515752,0.6231,0.6979042,-0.12837171,0.630497,0.71154186,-0.098249663,0.63722,0.73526599,-0.21239234,0.609447,0.73506916,-0.16089995,0.615821,0.73630408,-0.13671364,0.61875,0.73814602,-0.11497047,0.621334
0.66310934,-0.26354479,0.58213,0.67577616,-0.23304017,0.593841,0.64156308,-0.24660982,0.580716,0.62824635,-0.21336841,0.584402,0.60639045,-0.17898694,0.578603,0.60532127,-0.15623016,0.580177,0.6574827,-0.18389816,0.599951,0.64961342,-0.14763779,0.603601,0.64890718,-0.12766676,0.605426,0.6504751,-0.10890157,0.607085,0.68682599,-0.19047801,0.604994,0.6900436,-0.13848549,0.61323,0.69199656,-0.10883658,0.618034,0.70597615,-0.084909883,0.621466,0.70981679,-0.19820682,0.607885,0.70091877,-0.1508353,0.621915,0.69681071,-0.12751207,0.629093,0.71028275,-0.097390386,0.635619,0.73509546,-0.21205569,0.609038,0.73514199,-0.16046,0.615508,0.73619472,-0.13644975,0.618481,0.73770622,-0.11500524,0.621104
0.6642066,-0.26440034,0.582867,0.67578719,-0.23288482,0.593609,0.64204697,-0.24721334,0.580934,0.62797666,-0.21312507,0.583903,0.60639613,-0.17880557,0.578334,0.60524079,-0.15599804,0.579803,0.65609071,-0.18326899,0.598387,0.64761618,-0.14640392,0.600941,0.64989566,-0.12438627,0.602219,0.64914016,-0.10696341,0.60338,0.68585294,-0.18996918,0.60384,0.68944107,-0.13802698,0.612336,0.69160606,-0.1083758,0.617292,0.70573832,-0.084483918,0.620832,0.70933164,-0.19783824,0.607174,0.70055237,-0.15039933,0.621236,0.69649963,-0.12703318,0.628431,0.71002826,-0.096923185,0.634972,0.73542409,-0.21193415,0.609024,0.73540441,-0.16021082,0.615378,0.73625219,-0.1362866,0.618298,0.73748158,-0.11500903,0.620874
0.66368614,-0.26489271,0.582494,0.67418511,-0.23290539,0.592446,0.64145374,-0.24944987,0.580537,0.63796928,-0.21455667,0.585438,0.6161636,-0.19197782,0.588609,0.61915382,-0.16916298,0.590329,0.65020704,-0.18964648,0.596655,0.65243371,-0.14964677,0.599194,0.65442269,-0.12899364,0.600463,0.65293614,-0.10677594,0.601617,0.68335379,-0.19004303,0.601925,0.68700703,-0.13807263,0.610405,0.68920631,-0.10837745,0.615352,0.69658757,-0.08657614,0.618885,0.70704073,-0.19746624,0.605192,0.68471999,-0.15278989,0.606336,0.68888049,-0.12298438,0.606921,0.70222238,-0.12104521,0.607453,0.73409989,-0.21088944,0.607113,0.73386184,-0.16051877,0.614107,0.73491942,-0.13685257,0.617321,0.73628256,-0.11581116,0.620156
