sluyters/QuantumLeap/backend/src/datasets/dynamic/HandGestureDataset_SHREC2017_csv/Gesture13/finger_2/subject_6_essai_1_skeletons_world.csv
Wrist_x,Wrist_y,Wrist_z,Palm_x,Palm_y,Palm_z,thumb_base_x,thumb_base_y,thumb_base_z,thumb_first_joint_x,thumb_first_joint_y,thumb_first_joint_z,thumb_second_joint_x,thumb_second_joint_y,thumb_second_joint_z,thumb_tip_x,thumb_tip_y,thumb_tip_z,index_base_x,index_base_y,index_base_z,index_first_joint_x,index_first_joint_y,index_first_joint_z,index_second_joint_x,index_second_joint_y,index_second_joint_z,index_tip_x,index_tip_y,index_tip_z,middle_base_x,middle_base_y,middle_base_z,middle_first_joint_x,middle_first_joint_y,middle_first_joint_z,middle_second_joint_x,middle_second_joint_y,middle_second_joint_z,middle_tip_x,middle_tip_y,middle_tip_z,ring_base_x,ring_base_y,ring_base_z,ring_first_joint_x,ring_first_joint_y,ring_first_joint_z,ring_second_joint_x,ring_second_joint_y,ring_second_joint_z,ring_tip_x,ring_tip_y,ring_tip_z,pinky_base_x,pinky_base_y,pinky_base_z,pinky_first_joint_x,pinky_first_joint_y,pinky_first_joint_z,pinky_second_joint_x,pinky_second_joint_y,pinky_second_joint_z,pinky_tip_x,pinky_tip_y,pinky_tip_z,
0.59203846,-0.32889021,0.607035,0.59589488,-0.28895887,0.616468,0.57499955,-0.31736742,0.613145,0.55005756,-0.29089925,0.617213,0.5238915,-0.26357995,0.607339,0.51307517,-0.2418564,0.597284,0.58380255,-0.24845005,0.631429,0.5827443,-0.21408042,0.634002,0.5818741,-0.19585715,0.635289,0.58145818,-0.17962079,0.636458,0.60474023,-0.24657771,0.627464,0.60830544,-0.20772,0.629523,0.61020483,-0.18434197,0.630724,0.6115686,-0.16741983,0.631582,0.62156989,-0.24745084,0.623533,0.6228997,-0.2100351,0.626,0.62373999,-0.19121372,0.627263,0.62469811,-0.17786337,0.62841,0.64091984,-0.25325349,0.617525,0.64874003,-0.22669252,0.621012,0.65232813,-0.21222288,0.622615,0.65397844,-0.20908982,0.624028
0.59286952,-0.33138588,0.607523,0.59831229,-0.29259204,0.61637,0.5766231,-0.31841648,0.612997,0.54866518,-0.29120081,0.614897,0.52504771,-0.26619243,0.609214,0.51691022,-0.24570057,0.599567,0.58451459,-0.25424601,0.630091,0.58177099,-0.21907268,0.632389,0.57869466,-0.19977901,0.633537,0.57860826,-0.18038666,0.634582,0.60570648,-0.25456219,0.626685,0.60818192,-0.21513006,0.628514,0.61103862,-0.19211717,0.629581,0.61348222,-0.17561002,0.630343,0.6233559,-0.25645927,0.623255,0.62898333,-0.22476971,0.632239,0.63377346,-0.2062055,0.636836,0.63937771,-0.18935174,0.641015,0.64291608,-0.26582867,0.617926,0.64585948,-0.23129454,0.61906,0.64840517,-0.21611167,0.61958,0.65045819,-0.2089143,0.62004
0.59848349,-0.33721245,0.613489,0.59951426,-0.29772433,0.61972,0.57853456,-0.32157873,0.614729,0.54779901,-0.29271945,0.609917,0.52280226,-0.27133273,0.608321,0.51736218,-0.24638396,0.601658,0.57684439,-0.25707548,0.626203,0.57263397,-0.21782545,0.624594,0.56975476,-0.19915724,0.62379,0.5755962,-0.18341983,0.629305,0.60048806,-0.26120942,0.626983,0.60434793,-0.22111979,0.625794,0.60799214,-0.19514162,0.625101,0.61141433,-0.17706779,0.624606,0.61961917,-0.26699639,0.627182,0.62127412,-0.22825109,0.625677,0.62277191,-0.20809231,0.624906,0.62483073,-0.18966009,0.624206,0.64209317,-0.27860477,0.62656,0.64121833,-0.24694124,0.623635,0.64872321,-0.25356087,0.622292,0.66315731,-0.27231834,0.633566
0.60062797,-0.33728022,0.611476,0.60556345,-0.29641596,0.613378,0.58066412,-0.32434424,0.609827,0.55708978,-0.29959171,0.607267,0.53140009,-0.27261119,0.599057,0.52297138,-0.25448308,0.599083,0.57310634,-0.25170883,0.612885,0.5643181,-0.21337682,0.607904,0.55990921,-0.19408525,0.605413,0.56975395,-0.18162726,0.615213,0.59813317,-0.24908224,0.615587,0.59491488,-0.21226683,0.610045,0.5919422,-0.18872278,0.606813,0.58982201,-0.17145185,0.604504,0.62227709,-0.25428851,0.617674,0.62080284,-0.21477538,0.613288,0.62540649,-0.19635669,0.618741,0.63543545,-0.17987984,0.623699,0.65054116,-0.26372717,0.619907,0.64507088,-0.22666301,0.61664,0.65103601,-0.21577279,0.615138,0.66094916,-0.20886373,0.626386
0.60963003,-0.35568318,0.608155,0.60384493,-0.31362704,0.608134,0.58745655,-0.34358694,0.607452,0.56386204,-0.31643022,0.60587,0.53595137,-0.28872906,0.595965,0.52761326,-0.27238966,0.598132,0.57244427,-0.26573596,0.607261,0.56300307,-0.2259847,0.600695,0.55828675,-0.20615751,0.597412,0.55829214,-0.18961859,0.599031,0.59717217,-0.26512313,0.608109,0.59202234,-0.22198583,0.601134,0.58902369,-0.19671114,0.597066,0.58711453,-0.17665118,0.594963,0.61788584,-0.26758359,0.608808,0.61234704,-0.22871573,0.605521,0.61558934,-0.21152479,0.60384,0.61871158,-0.19531229,0.602312,0.64344227,-0.2762859,0.609646,0.63751933,-0.23924332,0.603437,0.63941126,-0.22692743,0.600584,0.65525668,-0.22047762,0.611163
0.59050591,-0.37194301,0.595135,0.59279389,-0.33062113,0.597031,0.56976577,-0.35642692,0.594221,0.55253644,-0.32799393,0.596402,0.53191223,-0.29841951,0.589458,0.52642008,-0.27880922,0.589046,0.56964923,-0.27979227,0.597426,0.56190804,-0.24079161,0.592039,0.55803137,-0.22119973,0.589346,0.55450247,-0.20333424,0.586897,0.59544408,-0.28325996,0.599232,0.58575309,-0.2428726,0.59379,0.58854843,-0.22944614,0.590616,0.59110996,-0.23598826,0.588349,0.61659807,-0.28901602,0.600582,0.61314231,-0.24775678,0.595163,0.61139641,-0.22642081,0.59239,0.60981794,-0.2068834,0.58987,0.64175452,-0.30159359,0.601935,0.63728535,-0.26740558,0.597397,0.64061269,-0.25615204,0.595312,0.6576146,-0.25122783,0.606289
0.59163645,-0.37749257,0.597543,0.59653725,-0.33983337,0.598067,0.57254015,-0.36152549,0.597685,0.55497589,-0.33101142,0.592188,0.53584691,-0.30670089,0.591837,0.5304846,-0.28483054,0.586943,0.57934282,-0.28763006,0.598656,0.59231085,-0.2614248,0.615412,0.59877963,-0.24815168,0.623791,0.60465012,-0.23598971,0.631407,0.60354977,-0.29244535,0.598674,0.60645072,-0.25101975,0.59219,0.60842547,-0.23650478,0.588408,0.60738217,-0.23693581,0.585706,0.62324123,-0.29933619,0.598652,0.62420777,-0.26299059,0.600439,0.62731868,-0.24432323,0.601354,0.63020206,-0.22685658,0.602185,0.6462868,-0.31335429,0.598553,0.64532346,-0.27765511,0.592207,0.64689845,-0.26776302,0.589292,0.66293892,-0.26455811,0.599843
0.58442754,-0.37671416,0.590306,0.59238642,-0.34063874,0.59286,0.56706076,-0.36128034,0.591751,0.55995028,-0.34035927,0.58502,0.52931888,-0.31028447,0.573739,0.52820757,-0.29644755,0.581245,0.58039414,-0.29467037,0.596649,0.57591485,-0.25816114,0.592708,0.57366647,-0.23946608,0.590737,0.57161831,-0.22220428,0.588946,0.60382296,-0.29915855,0.595826,0.60899273,-0.26362,0.596569,0.61264239,-0.24673072,0.597002,0.61536874,-0.23403536,0.597312,0.6227633,-0.30567388,0.594967,0.62869934,-0.26714183,0.595978,0.63175032,-0.24736346,0.596496,0.63459362,-0.22925961,0.596966,0.64463061,-0.3190568,0.593585,0.65102397,-0.28739273,0.589446,0.65200193,-0.28098165,0.587544,0.66723747,-0.28112721,0.598658
0.58813424,-0.38614814,0.584441,0.6014448,-0.35172799,0.587848,0.57692602,-0.37609325,0.584081,0.56020257,-0.34451622,0.583149,0.54077159,-0.31711885,0.580159,0.53267357,-0.30015117,0.583641,0.57946692,-0.30304072,0.59012,0.57443306,-0.26726795,0.585673,0.57190691,-0.24889501,0.58345,0.57082722,-0.23424434,0.581428,0.60558099,-0.30668311,0.591805,0.60127145,-0.2650345,0.587804,0.60173129,-0.2438921,0.585471,0.60340511,-0.23306512,0.583804,0.62709618,-0.31244833,0.592947,0.6256126,-0.27298033,0.590066,0.62794213,-0.25518223,0.588591,0.630702,-0.24082002,0.587251,0.65280998,-0.32484587,0.593842,0.65922229,-0.29425562,0.591599,0.66302688,-0.2882019,0.590568,0.68065103,-0.28860456,0.602104
0.57123116,-0.39881189,0.574952,0.58457278,-0.36232704,0.579917,0.55510202,-0.38120395,0.576218,0.55420136,-0.34675944,0.569709,0.53507398,-0.31851757,0.566266,0.5377718,-0.31100657,0.578628,0.57587592,-0.31482767,0.585405,0.58297462,-0.28016613,0.583174,0.58666382,-0.26232961,0.582058,0.59006594,-0.24685775,0.581044,0.59967099,-0.32183006,0.585682,0.60574166,-0.2833121,0.583348,0.60943706,-0.2601674,0.581987,0.6118806,-0.25518161,0.581014,0.61864602,-0.3301316,0.585556,0.62688782,-0.29144418,0.583269,0.63117428,-0.27140632,0.582099,0.63511261,-0.25304284,0.581035,0.64007448,-0.34512071,0.584717,0.64890426,-0.31178401,0.582365,0.65369254,-0.29885123,0.581284,0.67211981,-0.29395128,0.59282
0.56997855,-0.40328328,0.572879,0.58757708,-0.3727516,0.578972,0.5542243,-0.38509159,0.573871,0.55346473,-0.3574882,0.567256,0.53611549,-0.3255771,0.561079,0.54009385,-0.31432161,0.572253,0.58245286,-0.32277789,0.585024,0.5868864,-0.28672397,0.583038,0.58917596,-0.2683,0.582045,0.59190794,-0.26042856,0.581142,0.60687761,-0.33130085,0.586047,0.62135164,-0.2933444,0.584803,0.62988066,-0.27100248,0.584078,0.6360116,-0.25495174,0.58356,0.62609162,-0.34095467,0.586455,0.62453836,-0.30093362,0.584601,0.62541534,-0.28099026,0.583653,0.62729759,-0.26397752,0.582791,0.64717929,-0.35770523,0.586098,0.65147033,-0.32466737,0.583438,0.65560244,-0.3167479,0.582215,0.67364865,-0.31615769,0.593648
0.6110385,-0.4203566,0.579727,0.61081281,-0.37849146,0.581549,0.59083307,-0.40670778,0.581195,0.57619352,-0.3712238,0.574369,0.55733237,-0.34356886,0.571842,0.55793775,-0.33328839,0.582607,0.58685117,-0.3308551,0.584784,0.58752944,-0.29424455,0.580094,0.58764417,-0.27758832,0.577749,0.58704563,-0.26000004,0.575617,0.61062431,-0.33137403,0.583664,0.60836816,-0.2899884,0.578572,0.60707425,-0.26557322,0.575602,0.60506629,-0.2499183,0.573481,0.63048044,-0.33467809,0.582613,0.63484474,-0.29438443,0.577399,0.6371576,-0.27378023,0.574732,0.6393071,-0.25487487,0.572307,0.65473628,-0.34434865,0.581103,0.66292619,-0.31163994,0.577559,0.66739485,-0.29772027,0.57593,0.68583955,-0.29316437,0.587175
0.61633855,-0.42953585,0.583566,0.61650974,-0.39140017,0.581828,0.59113313,-0.41128564,0.579097,0.57229065,-0.37715784,0.564596,0.55505382,-0.35044132,0.563028,0.55366773,-0.33935511,0.572597,0.58692797,-0.33525893,0.575009,0.58344117,-0.29890555,0.565068,0.58178385,-0.28033663,0.560098,0.5803465,-0.26323504,0.555579,0.61524311,-0.34092286,0.57981,0.6137766,-0.29698111,0.570659,0.61287037,-0.2715866,0.565321,0.61651281,-0.26304527,0.561509,0.63880931,-0.34868003,0.583883,0.63869384,-0.3058145,0.575174,0.64174465,-0.28660476,0.570718,0.64672311,-0.27746967,0.566668,0.66747077,-0.36407108,0.588997,0.67255199,-0.32967907,0.583924,0.67989593,-0.31868,0.581593,0.70164147,-0.31548529,0.59221
0.61190143,-0.43054331,0.582771,0.61832236,-0.39325334,0.583827,0.59290197,-0.41396052,0.582814,0.58030156,-0.38542275,0.574104,0.55827039,-0.35478123,0.567501,0.55763953,-0.34130257,0.575184,0.60902735,-0.34009331,0.584719,0.61230415,-0.30787445,0.579091,0.6137299,-0.292066,0.576276,0.61489034,-0.27789152,0.573718,0.63312017,-0.34814477,0.585053,0.64147361,-0.30763739,0.579094,0.64630614,-0.28404828,0.575618,0.64611177,-0.27560322,0.573136,0.65251883,-0.35774485,0.585253,0.64666592,-0.31645382,0.579232,0.64378409,-0.29560745,0.576151,0.64117896,-0.27652926,0.573351,0.6745532,-0.37510507,0.585345,0.68877554,-0.3454606,0.587761,0.69529382,-0.33194865,0.588871,0.70638258,-0.32258274,0.594373
0.61146531,-0.43952124,0.585357,0.61970277,-0.40480998,0.585406,0.59405928,-0.42100139,0.585128,0.58352905,-0.39908321,0.575916,0.56069612,-0.3657714,0.566782,0.5640288,-0.35140924,0.575201,0.60949636,-0.34995702,0.585168,0.61181215,-0.31773383,0.578701,0.61239952,-0.30282126,0.575468,0.61253941,-0.29012233,0.572529,0.63361483,-0.35814347,0.585464,0.6410451,-0.31697505,0.57857,0.64528388,-0.29315954,0.574548,0.64511952,-0.2836574,0.571676,0.65310758,-0.36791938,0.585704,0.64626094,-0.32623156,0.578821,0.64286423,-0.30524784,0.575299,0.6397889,-0.28606008,0.572097,0.67540409,-0.38561997,0.585984,0.6819081,-0.35040736,0.581984,0.68921514,-0.33661412,0.583853,0.69886932,-0.32251167,0.588124
0.61277755,-0.45507866,0.5897,0.62353356,-0.41846677,0.587621,0.5956262,-0.43426562,0.588679,0.60053593,-0.40998522,0.578158,0.58538877,-0.38172534,0.577391,0.5887919,-0.37312739,0.590288,0.61048221,-0.36116452,0.584726,0.61232685,-0.32694274,0.576398,0.61336114,-0.3095426,0.572235,0.61440456,-0.29343486,0.568449,0.63491592,-0.36972622,0.585208,0.64247932,-0.33017147,0.579328,0.64509148,-0.31493669,0.575898,0.64668842,-0.3049462,0.573448,0.65477378,-0.37992357,0.585752,0.65811594,-0.33851637,0.579068,0.66031265,-0.31969171,0.575649,0.66159867,-0.3067973,0.57254,0.67774659,-0.39833814,0.586691,0.68202002,-0.3619289,0.581845,0.68755972,-0.34737402,0.582716,0.69329571,-0.33498372,0.584207
0.62459761,-0.46836595,0.592308,0.63594628,-0.42870427,0.58845,0.61280125,-0.45433176,0.590601,0.59703975,-0.41756441,0.578976,0.58075888,-0.3848969,0.569334,0.5837622,-0.36853844,0.574884,0.61399439,-0.37113583,0.583306,0.61120958,-0.33334186,0.573457,0.60998109,-0.31545889,0.568533,0.60929314,-0.29505895,0.564056,0.63935852,-0.3772941,0.583971,0.63970235,-0.3340872,0.573338,0.64030324,-0.31034943,0.567136,0.63766988,-0.29623474,0.562706,0.66034494,-0.38559141,0.584792,0.65710535,-0.34021428,0.577656,0.65891354,-0.32585866,0.574005,0.66025195,-0.31463797,0.570686,0.68548151,-0.4018852,0.586309,0.68670882,-0.36355554,0.577353,0.68900858,-0.34842339,0.573238,0.68995443,-0.34287916,0.569607
0.63279592,-0.47671373,0.590549,0.6372405,-0.43720798,0.587872,0.61223621,-0.45774244,0.588616,0.61226342,-0.43139179,0.576899,0.58932513,-0.3986072,0.567598,0.58783472,-0.38621786,0.576171,0.6141141,-0.38070271,0.583392,0.61792104,-0.34297768,0.574575,0.61989392,-0.32394728,0.570167,0.62172823,-0.30654489,0.566159,0.64029545,-0.38647074,0.584764,0.64075763,-0.34358993,0.57512,0.64174405,-0.32034315,0.569495,0.64009933,-0.30209329,0.565476,0.66195493,-0.39439647,0.586083,0.65708742,-0.35028523,0.577467,0.65803869,-0.33441245,0.573059,0.65924466,-0.32378474,0.569051,0.68789853,-0.41014053,0.588033,0.69563532,-0.37463995,0.582033,0.70045745,-0.35912806,0.579276,0.70487916,-0.34556141,0.576844
0.63423215,-0.47853438,0.588648,0.63875236,-0.43907419,0.586892,0.61768817,-0.46636395,0.588853,0.62294298,-0.44225262,0.579889,0.61041079,-0.41797576,0.580722,0.61405302,-0.40742807,0.593364,0.61750458,-0.38891022,0.585745,0.61976727,-0.35124464,0.577717,0.62109986,-0.3322546,0.57382,0.62487216,-0.31209141,0.570794,0.64093908,-0.388949,0.584853,0.64108692,-0.34645556,0.576258,0.64070887,-0.3268275,0.571244,0.64390148,-0.30816239,0.568351,0.6606056,-0.39482529,0.584244,0.66634587,-0.35486582,0.576394,0.66922205,-0.33395726,0.572378,0.67267535,-0.31606045,0.568727,0.68406973,-0.40792615,0.583759,0.69866883,-0.37597472,0.578689,0.7048183,-0.3610303,0.576382,0.71021748,-0.34788103,0.574345
0.64279519,-0.48351552,0.589695,0.65528911,-0.44019942,0.588435,0.625595,-0.46717487,0.587576,0.6328859,-0.43753445,0.575873,0.60049075,-0.40275652,0.561899,0.59731414,-0.38819809,0.567794,0.63180666,-0.38438282,0.584855,0.63430937,-0.34619268,0.57705,0.63630164,-0.32842769,0.573148,0.63829348,-0.31229052,0.5696,0.65851196,-0.3901242,0.586972,0.65563843,-0.34688774,0.579844,0.6600244,-0.33557235,0.575687,0.66348727,-0.32716799,0.572717,0.68052472,-0.39795909,0.588803,0.68326292,-0.35599356,0.580793,0.68465265,-0.3345535,0.576694,0.68726559,-0.31648936,0.572969,0.7068074,-0.41345756,0.591169,0.71416343,-0.37787557,0.585054,0.71753314,-0.36155046,0.582245,0.71918935,-0.34959942,0.579765
0.64401824,-0.48256267,0.591901,0.65556494,-0.43967024,0.588987,0.62453847,-0.46564023,0.588603,0.60987437,-0.42973923,0.575235,0.58442129,-0.3965087,0.563481,0.57571129,-0.37397061,0.550917,0.63096708,-0.38167108,0.582658,0.62932387,-0.34147615,0.57317,0.6310812,-0.3259555,0.568426,0.63312613,-0.31305034,0.564113,0.65786478,-0.38839067,0.585604,0.66374237,-0.34599793,0.576001,0.66889585,-0.32462729,0.570399,0.67276303,-0.30907495,0.566398,0.68004915,-0.39708776,0.588234,0.67997931,-0.35417379,0.578478,0.67991912,-0.33229902,0.573487,0.67860407,-0.3146647,0.568949,0.70661671,-0.41373161,0.591785,0.71125546,-0.37703387,0.584296,0.7126013,-0.36161252,0.580854,0.71670046,-0.34922193,0.577818
0.64585622,-0.48295654,0.589793,0.65486462,-0.4388602,0.588317,0.62453147,-0.4642393,0.587204,0.60949278,-0.42889564,0.574911,0.5854441,-0.39665855,0.564321,0.57756956,-0.37341852,0.552252,0.63280211,-0.38215584,0.583993,0.63272961,-0.34229303,0.575892,0.63579842,-0.32757427,0.571841,0.63898045,-0.31487044,0.568158,0.65918418,-0.38874991,0.586603,0.6613519,-0.34456628,0.57835,0.66687393,-0.32375235,0.573536,0.67405116,-0.30982419,0.570098,0.68076936,-0.39726628,0.588855,0.68190301,-0.35511991,0.58043,0.68247945,-0.33356587,0.576119,0.68271074,-0.31607836,0.572201,0.70630058,-0.41352327,0.591753,0.71293254,-0.37780921,0.585641,0.71682874,-0.36205501,0.582833,0.72064892,-0.35052728,0.580355
0.64593893,-0.48130386,0.588809,0.65516982,-0.4376375,0.588277,0.628185,-0.46348873,0.586856,0.61048302,-0.42810958,0.575477,0.58739246,-0.39560424,0.565395,0.57915674,-0.37253346,0.553612,0.63554007,-0.38106948,0.585478,0.63637844,-0.34034129,0.578393,0.64102396,-0.32675209,0.57485,0.64385822,-0.31383368,0.571629,0.66105596,-0.38751453,0.587659,0.66353618,-0.34369164,0.580262,0.66957761,-0.3230708,0.575947,0.67617812,-0.30952233,0.572865,0.68163865,-0.39648271,0.589491,0.68356242,-0.35487161,0.581992,0.68455748,-0.33354327,0.578155,0.68720868,-0.31559927,0.574667,0.70630434,-0.41224504,0.591756,0.71479259,-0.37684588,0.586584,0.7200162,-0.36195605,0.584208,0.72396152,-0.35029293,0.582112
0.64697974,-0.48016677,0.588937,0.6577903,-0.43284034,0.589456,0.63164363,-0.46134755,0.587594,0.61376192,-0.42382412,0.577124,0.58980612,-0.39283062,0.567504,0.58057909,-0.37026687,0.55601,0.63918083,-0.37847891,0.588235,0.64023979,-0.33905148,0.582227,0.64558872,-0.32296627,0.579223,0.64988187,-0.31652585,0.576493,0.66432396,-0.38433561,0.590059,0.6671183,-0.34156476,0.583655,0.67358766,-0.32079428,0.579919,0.67841174,-0.30563613,0.577251,0.68462842,-0.39212256,0.591522,0.68693979,-0.35112253,0.585016,0.68815154,-0.33003504,0.581687,0.69119283,-0.31228525,0.578661,0.70819675,-0.40723338,0.593201,0.71745125,-0.37293128,0.589034,0.72419346,-0.35929221,0.587119,0.72992713,-0.35018822,0.58543
0.64973101,-0.47515889,0.587277,0.65941374,-0.42082563,0.588976,0.63285287,-0.45288157,0.586653,0.61609277,-0.41266192,0.577253,0.59029796,-0.38147492,0.567065,0.58296294,-0.35891185,0.559635,0.64219989,-0.36787763,0.589568,0.64341809,-0.32928301,0.584732,0.64976633,-0.31477516,0.582313,0.65637028,-0.30834347,0.580115,0.66691423,-0.37313078,0.590949,0.66589756,-0.33106556,0.585696,0.67338596,-0.31171963,0.582632,0.6815444,-0.30657395,0.580443,0.68676412,-0.38036878,0.591964,0.69176143,-0.3400151,0.587051,0.69916703,-0.32207303,0.584538,0.70797684,-0.31034343,0.582253,0.70960474,-0.39470186,0.592943,0.7199248,-0.36095901,0.589711,0.72707329,-0.34731524,0.588226,0.7342369,-0.33624763,0.586916
0.64974482,-0.46590285,0.58537,0.65860092,-0.41911177,0.588328,0.631435,-0.44585966,0.584276,0.61406026,-0.4051095,0.57456,0.59137407,-0.37428115,0.567047,0.58633799,-0.35303691,0.564257,0.64128995,-0.36618174,0.589351,0.64328579,-0.32867394,0.585645,0.65030547,-0.31408366,0.583793,0.65763786,-0.30726312,0.582108,0.6670242,-0.37225433,0.591764,0.66765504,-0.33093136,0.5877,0.67628544,-0.31210231,0.585329,0.68494138,-0.30741803,0.583635,0.68770818,-0.38012505,0.593538,0.69368238,-0.34079181,0.590004,0.70189554,-0.32298665,0.588196,0.71153578,-0.31109089,0.586552,0.71150449,-0.39514994,0.595251,0.72358991,-0.36270404,0.593768,0.73139873,-0.3488665,0.593087,0.74036164,-0.33827125,0.592486
0.64896112,-0.46305066,0.584317,0.65829678,-0.41742075,0.587866,0.63168715,-0.44032919,0.583502,0.61434528,-0.40291667,0.57423,0.59284832,-0.37277447,0.567929,0.58862338,-0.35184525,0.565729,0.64204001,-0.3633346,0.589697,0.64395472,-0.32775921,0.586422,0.65126171,-0.31327663,0.584785,0.65893716,-0.30640953,0.583296,0.66758787,-0.37107331,0.591987,0.67136556,-0.3288537,0.588549,0.68452713,-0.30818144,0.586544,0.69185445,-0.29391722,0.585111,0.68796522,-0.37901245,0.593618,0.69395035,-0.34000819,0.590542,0.70238514,-0.32226959,0.588969,0.71231534,-0.31034402,0.587538,0.71127058,-0.39404553,0.595078,0.72272615,-0.36144787,0.593726,0.73147994,-0.34845981,0.593104,0.73959913,-0.33717718,0.592556
0.65310704,-0.45650571,0.58606,0.66105964,-0.41191307,0.588842,0.63328649,-0.43850952,0.584199,0.62259055,-0.39433202,0.573555,0.60590521,-0.38099117,0.582357,0.60237116,-0.36132542,0.582553,0.64332829,-0.35497043,0.58879,0.64726253,-0.31932911,0.587957,0.65533635,-0.30420577,0.58754,0.66429397,-0.29670612,0.587162,0.66983575,-0.36146283,0.592072,0.67471309,-0.32001787,0.588024,0.68290304,-0.29930498,0.585662,0.6893038,-0.28461212,0.583975,0.69124536,-0.36969072,0.594573,0.69815707,-0.33180812,0.593302,0.70705935,-0.31392811,0.592651,0.7177789,-0.30152775,0.59206,0.7160695,-0.38517998,0.597181,0.72491504,-0.35175369,0.595624,0.73335288,-0.33872406,0.594909,0.74098364,-0.32702753,0.594278
0.65659251,-0.45245926,0.588291,0.665294,-0.39927191,0.59117,0.63754384,-0.42700147,0.58577,0.62362943,-0.38411258,0.57439,0.6089553,-0.371593,0.584768,0.60707445,-0.35269968,0.586215,0.64625442,-0.34530429,0.590394,0.65667786,-0.31337584,0.595136,0.66699269,-0.29786732,0.597507,0.67720088,-0.28399563,0.599663,0.67368401,-0.35254816,0.594514,0.67911219,-0.3113818,0.590607,0.68793212,-0.29119502,0.588328,0.69459443,-0.27652986,0.5867,0.6958593,-0.36139789,0.597699,0.70300013,-0.32390373,0.596146,0.71251055,-0.30637687,0.595352,0.72340114,-0.29424016,0.594629,0.72155685,-0.37764367,0.601109,0.73182771,-0.3453483,0.600989,0.73936249,-0.33105276,0.600933,0.74606903,-0.31833402,0.600885
0.66525257,-0.43849458,0.59668,0.67248633,-0.39120032,0.598766,0.64523229,-0.42016972,0.594235,0.63044239,-0.37960219,0.582779,0.61832891,-0.364179,0.593144,0.61355593,-0.34561356,0.594414,0.65616891,-0.33725114,0.597451,0.66293785,-0.30198355,0.598186,0.66966081,-0.28466428,0.598553,0.67820754,-0.27150292,0.598887,0.68341314,-0.34442302,0.601188,0.68642529,-0.3030708,0.596635,0.69485272,-0.28284206,0.59398,0.70112464,-0.26797663,0.592083,0.70526463,-0.35324029,0.604113,0.71180607,-0.31481195,0.600499,0.72047088,-0.29669972,0.59865,0.73073158,-0.28574213,0.596968,0.73019488,-0.36946885,0.607325,0.74311132,-0.33763541,0.607395,0.74982441,-0.32311678,0.607427,0.75574933,-0.31030173,0.607455
0.68694417,-0.42105984,0.601747,0.68991646,-0.37942039,0.603402,0.66591459,-0.40448422,0.599817,0.64498627,-0.37222478,0.59403,0.62271257,-0.34775096,0.592287,0.61644399,-0.32942005,0.593257,0.66685238,-0.32671238,0.60237,0.67218008,-0.29313276,0.604922,0.67919485,-0.27598516,0.606197,0.68909955,-0.2651127,0.607357,0.69335803,-0.33146893,0.605324,0.69266701,-0.28942535,0.600304,0.69985591,-0.26923041,0.597375,0.70524197,-0.25435953,0.595283,0.71500438,-0.33832235,0.607636,0.71840661,-0.3000877,0.603587,0.72868823,-0.2898834,0.601516,0.73549238,-0.28764623,0.599632,0.74058343,-0.35226696,0.610173,0.75076256,-0.32166591,0.612477,0.75945574,-0.30775165,0.613535,0.76721255,-0.29530691,0.614469
0.68786384,-0.41705488,0.604832,0.69040365,-0.36945919,0.606076,0.6662491,-0.39954349,0.602133,0.65053675,-0.36208575,0.600741,0.62995528,-0.33080753,0.591983,0.62466738,-0.30996474,0.589778,0.66869616,-0.31541293,0.603782,0.67816663,-0.28291766,0.608158,0.68742526,-0.26656891,0.610346,0.69600339,-0.25129565,0.612335,0.69632429,-0.32155057,0.607521,0.69482594,-0.27906243,0.601638,0.70113104,-0.25945209,0.598206,0.70590221,-0.24497632,0.595755,0.71884156,-0.32956837,0.610507,0.72093675,-0.29132833,0.605916,0.73009322,-0.2776279,0.603567,0.73763053,-0.27476662,0.601432,0.7452735,-0.34497852,0.613908,0.75265606,-0.31276787,0.613722,0.75993304,-0.29824552,0.613637,0.76643278,-0.28527661,0.613562
0.68691818,-0.41391617,0.605123,0.69146041,-0.3683341,0.60727,0.66374585,-0.39101075,0.602537,0.65923194,-0.35755331,0.603303,0.63911819,-0.32421045,0.593581,0.63653293,-0.30403114,0.593137,0.67084749,-0.31459651,0.605833,0.68339846,-0.28043196,0.61045,0.69170777,-0.26605603,0.612758,0.70065572,-0.25093742,0.614857,0.6989357,-0.32123112,0.609763,0.69819238,-0.27925374,0.604325,0.70436383,-0.25928601,0.601152,0.70901978,-0.24455845,0.598886,0.72180253,-0.32962581,0.612844,0.72495466,-0.2922236,0.608691,0.73398089,-0.27813394,0.606566,0.74118493,-0.27464493,0.604635,0.74854576,-0.34543504,0.616232,0.75578392,-0.31340946,0.615581,0.76275536,-0.2987328,0.615281,0.76897495,-0.28565225,0.615018
0.69147675,-0.40150733,0.608453,0.70364389,-0.35449554,0.613057,0.67593917,-0.37770929,0.608402,0.67231325,-0.34862493,0.610252,0.64768447,-0.3149928,0.59784,0.64475428,-0.29575104,0.598693,0.68767606,-0.30382276,0.616658,0.69408813,-0.26956109,0.617595,0.70124187,-0.25250271,0.618063,0.70789449,-0.23660482,0.618488,0.71399326,-0.30864154,0.618404,0.7172146,-0.2698198,0.617129,0.72391446,-0.24706351,0.616385,0.72920757,-0.23077031,0.615854,0.73514529,-0.31546337,0.619512,0.73719983,-0.27745352,0.61719,0.74283887,-0.25788292,0.616002,0.75047442,-0.24373327,0.614922,0.75934693,-0.32920001,0.620199,0.76964153,-0.29702801,0.620265,0.77519885,-0.28214981,0.620295,0.78009926,-0.26903258,0.620322
0.70767395,-0.39265948,0.618215,0.71759687,-0.34526869,0.621079,0.68671326,-0.37472488,0.615858,0.68609463,-0.33521577,0.615222,0.66262243,-0.30082241,0.602502,0.66104623,-0.28165821,0.603789,0.69952345,-0.29175395,0.620489,0.70854885,-0.25727923,0.624378,0.71306703,-0.24000365,0.626323,0.72127349,-0.22467102,0.628091,0.72705598,-0.29889634,0.624404,0.73466412,-0.25963214,0.624865,0.73909694,-0.23675771,0.625134,0.74621419,-0.22104578,0.625326,0.7492703,-0.30765326,0.627421,0.75560514,-0.27255753,0.624172,0.76709511,-0.25994671,0.62251,0.77192679,-0.26379966,0.620999,0.77490138,-0.32376778,0.630633,0.77571411,-0.28812637,0.626549,0.7818528,-0.27485599,0.624673,0.78605811,-0.26990836,0.623017
0.70793144,-0.37794816,0.617695,0.71782614,-0.33149736,0.621458,0.68951332,-0.36026571,0.616753,0.68540526,-0.31988568,0.612145,0.66413662,-0.28893868,0.60451,0.6642756,-0.27047716,0.607596,0.70427842,-0.27872931,0.623304,0.71139245,-0.24473266,0.627784,0.71710059,-0.22697285,0.630024,0.72537019,-0.21174357,0.632061,0.73034042,-0.28595805,0.625827,0.74210649,-0.25001781,0.629337,0.74899201,-0.22927521,0.631438,0.75411713,-0.21440852,0.632939,0.75110963,-0.29472798,0.627634,0.76550838,-0.26260676,0.630767,0.78082576,-0.24842694,0.632371,0.79479683,-0.24092739,0.633828,0.77458445,-0.31073106,0.629275,0.77842554,-0.27673859,0.628265,0.78660967,-0.2650415,0.627801,0.79472969,-0.26083868,0.627392
0.71254723,-0.36499063,0.620876,0.72533727,-0.31850789,0.625502,0.69587968,-0.34822504,0.621738,0.6944068,-0.30919936,0.619835,0.66743183,-0.27823578,0.609633,0.66647872,-0.26000009,0.612567,0.7132578,-0.26778273,0.63023,0.71902651,-0.23484712,0.634561,0.72444449,-0.21702674,0.636726,0.73199579,-0.20192581,0.638694,0.73803244,-0.27343734,0.630874,0.7558677,-0.24013751,0.640037,0.76627772,-0.22067335,0.645381,0.77423182,-0.20632929,0.649199,0.75772683,-0.28088139,0.631074,0.77316351,-0.24783823,0.63779,0.78253788,-0.23005782,0.641227,0.79108731,-0.21378556,0.64435,0.7798817,-0.29523463,0.630672,0.78475975,-0.26020274,0.628385,0.78791,-0.24407996,0.627335,0.79350884,-0.23209987,0.626408
0.73153585,-0.34091489,0.633053,0.74217157,-0.30190967,0.637308,0.71467766,-0.32418427,0.633877,0.7096701,-0.29074256,0.628737,0.68063639,-0.26113861,0.618518,0.68041068,-0.24302791,0.622016,0.73015938,-0.25082807,0.641694,0.73121471,-0.21767251,0.643202,0.7377777,-0.2004185,0.643955,0.74390858,-0.18423405,0.644641,0.75449945,-0.25677919,0.642249,0.76463048,-0.22012786,0.644411,0.77347283,-0.19747573,0.645672,0.78181839,-0.18127029,0.646573,0.77381302,-0.2644533,0.642403,0.78209454,-0.22846626,0.643948,0.79026448,-0.2089619,0.644739,0.79780258,-0.19092577,0.645458,0.79551292,-0.27905133,0.641996,0.80151776,-0.24409259,0.639584,0.80486432,-0.2279632,0.638476,0.81142741,-0.2171615,0.637498
0.73103693,-0.34011458,0.633421,0.74234879,-0.30125033,0.637703,0.71459532,-0.32328482,0.634466,0.7087906,-0.28956075,0.627558,0.68081802,-0.26102542,0.618874,0.68151487,-0.24318878,0.623159,0.73137665,-0.25016903,0.642379,0.73382202,-0.21650223,0.644326,0.7395082,-0.1986734,0.645299,0.74569285,-0.18242374,0.646184,0.75545839,-0.25628549,0.642675,0.76499271,-0.21955124,0.644553,0.77362259,-0.19678024,0.645648,0.78177352,-0.1805785,0.646431,0.77451311,-0.26408631,0.642613,0.78188722,-0.22891336,0.64608,0.78286351,-0.2097324,0.647854,0.79317934,-0.19680088,0.649467,0.79581436,-0.27881938,0.641945,0.80154821,-0.24383103,0.639489,0.80479895,-0.22768488,0.63836,0.8112225,-0.21699342,0.637364
0.7312839,-0.33668058,0.633902,0.74237579,-0.29047488,0.637969,0.71483091,-0.31975056,0.634896,0.7096136,-0.27882765,0.627886,0.68148848,-0.25238085,0.620755,0.68164646,-0.23487445,0.625367,0.73185347,-0.23924352,0.642414,0.73568623,-0.20515753,0.644791,0.74047722,-0.18671029,0.645979,0.74670744,-0.17026629,0.64706,0.75593759,-0.2455975,0.642693,0.76495697,-0.20890628,0.64436,0.77342226,-0.18597085,0.645332,0.7814118,-0.16965788,0.646027,0.77498419,-0.25359342,0.642633,0.77933918,-0.2187202,0.646275,0.7832079,-0.19986541,0.648139,0.79362754,-0.18669243,0.649834,0.79624385,-0.26856225,0.641997,0.8015548,-0.23349649,0.639375,0.80464023,-0.21729495,0.63817,0.81086106,-0.20653507,0.637107
0.72598779,-0.29617345,0.633965,0.7442025,-0.26033944,0.641463,0.71317019,-0.27918856,0.637074,0.70740774,-0.24667835,0.640098,0.69232683,-0.21621645,0.634785,0.6947642,-0.19895478,0.6395,0.74308869,-0.21122968,0.651208,0.74484411,-0.17949242,0.653529,0.75067504,-0.16095487,0.654689,0.7569962,-0.14419841,0.655744,0.76535293,-0.21873267,0.65017,0.77737988,-0.18366781,0.653535,0.7874428,-0.16110664,0.655497,0.79469436,-0.14480298,0.656899,0.78239229,-0.22746654,0.648782,0.79271303,-0.19018893,0.650858,0.79799012,-0.17112586,0.651919,0.80288272,-0.15381993,0.652962,0.80028032,-0.24290033,0.646083,0.80718988,-0.20985127,0.64599,0.81034503,-0.1947565,0.645947,0.81789249,-0.18434674,0.645909
0.7313406,-0.29476364,0.637298,0.74795151,-0.25834588,0.644073,0.71787271,-0.27785429,0.640166,0.70820637,-0.24436824,0.640254,0.69152956,-0.21415234,0.634522,0.69369364,-0.19735982,0.640019,0.74452478,-0.2062652,0.652949,0.7443474,-0.17517832,0.654958,0.75117749,-0.15907921,0.655963,0.75794744,-0.14349352,0.656876,0.76698099,-0.21307806,0.651939,0.78442284,-0.17720838,0.655895,0.79460708,-0.15625315,0.658202,0.80188652,-0.14127125,0.65985,0.78434665,-0.22127397,0.650626,0.79370925,-0.18893333,0.659924,0.79942759,-0.17151121,0.664682,0.8054147,-0.15491782,0.669007,0.80296819,-0.23612837,0.648116,0.80171253,-0.20284329,0.646728,0.80797354,-0.18972618,0.64609,0.81370739,-0.17777107,0.645528
0.73367904,-0.29081654,0.639564,0.75025518,-0.24474331,0.646498,0.72034547,-0.26998919,0.642172,0.70649396,-0.2294208,0.638851,0.69082298,-0.20097619,0.635801,0.69074073,-0.18457811,0.640829,0.7470308,-0.19577554,0.655184,0.75003779,-0.16245397,0.658037,0.75418118,-0.14371895,0.659464,0.75970117,-0.12645808,0.660761,0.77007622,-0.20292257,0.654549,0.78584552,-0.16634966,0.657642,0.79504831,-0.14500613,0.659447,0.80162266,-0.12975643,0.660736,0.78789908,-0.21139407,0.653532,0.7850422,-0.17864426,0.654766,0.79055735,-0.15862772,0.655398,0.79828341,-0.14299638,0.655972,0.80696094,-0.22658518,0.651355,0.80156875,-0.19538284,0.649486,0.80714013,-0.1829176,0.648627,0.81479671,-0.17995624,0.647869
0.73338535,-0.27287061,0.6398,0.74943647,-0.22906096,0.648228,0.72058569,-0.25696937,0.643784,0.70861515,-0.21542552,0.641308,0.68732603,-0.18755445,0.635784,0.68504231,-0.17029221,0.639339,0.74606391,-0.18192367,0.659778,0.75112715,-0.15295619,0.663113,0.75849677,-0.13434574,0.664781,0.76688437,-0.11912757,0.666297,0.76811699,-0.1876367,0.658016,0.78229086,-0.14980823,0.659415,0.79057001,-0.1277112,0.660232,0.79648762,-0.11191375,0.660815,0.78511495,-0.1948772,0.655965,0.7924883,-0.1617027,0.66419,0.79652797,-0.14448344,0.668398,0.80267571,-0.12657869,0.672223,0.80323265,-0.20848546,0.652344,0.81436083,-0.17528054,0.653541,0.81949361,-0.15995541,0.654091,0.82403251,-0.14639712,0.654576
0.73267166,-0.26958101,0.639035,0.74900835,-0.2284166,0.647792,0.71940768,-0.25379861,0.642798,0.70876674,-0.21447366,0.640112,0.68682195,-0.18637664,0.633952,0.68518571,-0.16933173,0.638136,0.7453621,-0.18131499,0.659334,0.75030825,-0.15232578,0.662706,0.7576123,-0.133694,0.664392,0.76595618,-0.11845476,0.665925,0.76790675,-0.18703596,0.65796,0.7817219,-0.14908232,0.659206,0.78978691,-0.1269201,0.659932,0.79555147,-0.11107998,0.660451,0.78531848,-0.19428898,0.656207,0.79220558,-0.16099968,0.664182,0.79599796,-0.1437318,0.668263,0.80191599,-0.12578207,0.671972,0.80392214,-0.20792254,0.652895,0.81490773,-0.17546152,0.654498,0.8199579,-0.1605349,0.655234,0.82441628,-0.14735825,0.655884
0.74119393,-0.26238817,0.64332,0.75847863,-0.22115958,0.653104,0.72543233,-0.24741555,0.646149,0.71406861,-0.20937743,0.642532,0.68730931,-0.1827844,0.632478,0.68513686,-0.16688041,0.637176,0.74534284,-0.17886665,0.664327,0.75114987,-0.14439867,0.666598,0.75754199,-0.12591198,0.667733,0.76667621,-0.11618162,0.668765,0.770319,-0.18180043,0.664465,0.77957124,-0.15446322,0.672349,0.79171883,-0.13139321,0.676948,0.80056802,-0.11430494,0.680233,0.79028231,-0.18663808,0.663882,0.79370287,-0.14956859,0.667448,0.79545415,-0.13062887,0.669273,0.79870427,-0.11201479,0.670931,0.81297259,-0.19718558,0.661828,0.82857323,-0.16855555,0.666173,0.83572023,-0.15546451,0.66817,0.84201405,-0.14394577,0.669931
0.74314559,-0.26034524,0.643473,0.75846577,-0.22042856,0.653233,0.72654117,-0.2457152,0.645978,0.71363012,-0.20834684,0.641964,0.6883775,-0.18101304,0.63436,0.68510968,-0.16645702,0.63797,0.74475549,-0.17794586,0.664043,0.7504785,-0.14348003,0.666293,0.75673324,-0.12477861,0.667418,0.76388684,-0.11171564,0.668441,0.77008784,-0.18104697,0.664567,0.77796303,-0.15177341,0.670717,0.78936247,-0.12864622,0.674305,0.79769002,-0.11151121,0.676867,0.79036277,-0.18602482,0.664302,0.79354008,-0.14889483,0.667694,0.79516589,-0.12993043,0.669429,0.79835027,-0.11129717,0.671007,0.81346199,-0.19674732,0.662633,0.82900386,-0.16814329,0.667035,0.83612204,-0.15506555,0.669057,0.84239142,-0.14355961,0.670841
0.74146682,-0.25734196,0.642227,0.7567674,-0.21836531,0.652702,0.72735033,-0.23823254,0.644719,0.70792623,-0.19794545,0.640848,0.69443407,-0.16991359,0.639244,0.69310643,-0.15418929,0.643901,0.74605016,-0.17143481,0.664063,0.75007907,-0.14036404,0.666679,0.75702838,-0.12190969,0.667987,0.7649567,-0.10787534,0.669177,0.77059827,-0.179837,0.664865,0.77671906,-0.14793124,0.669786,0.78782341,-0.12696788,0.672656,0.79599249,-0.10994718,0.674707,0.79079027,-0.18555438,0.664778,0.79313567,-0.14807731,0.667423,0.79433631,-0.12895025,0.668776,0.79725754,-0.11021581,0.670006,0.8135218,-0.19706824,0.663223,0.82923663,-0.16825326,0.667527,0.83643722,-0.15506911,0.669504,0.84278151,-0.14346459,0.671249
0.74347619,-0.24958434,0.643236,0.75563579,-0.21226808,0.654605,0.72453591,-0.22992023,0.647298,0.70546368,-0.19431093,0.645538,0.68933753,-0.16849757,0.645158,0.6898675,-0.15040347,0.640531,0.75273726,-0.16673868,0.668589,0.75916393,-0.13292592,0.672265,0.76687293,-0.11495599,0.674103,0.77408155,-0.097967452,0.675774,0.77605156,-0.17262947,0.667807,0.78609163,-0.13508378,0.671814,0.79195305,-0.11315367,0.674152,0.79614039,-0.097476367,0.675821,0.79403721,-0.17975713,0.666353,0.79515632,-0.14625259,0.670146,0.79597618,-0.12827603,0.673596,0.80403403,-0.11102069,0.676733,0.81326413,-0.19594637,0.663039,0.82570803,-0.16704873,0.666787,0.82996954,-0.15015438,0.66851,0.83752895,-0.13612988,0.670029
0.74128846,-0.25454702,0.644222,0.75401336,-0.21372996,0.654749,0.72555061,-0.2351431,0.646456,0.70046953,-0.19974613,0.642291,0.68206905,-0.17078138,0.636569,0.67681304,-0.14986038,0.633918,0.74725172,-0.17116876,0.665839,0.75150751,-0.13700649,0.668477,0.76026502,-0.11720571,0.669796,0.76795342,-0.098478409,0.670995,0.77237085,-0.17993261,0.666973,0.78241429,-0.14506811,0.67408,0.79131798,-0.12147224,0.678226,0.80089209,-0.10150532,0.681187,0.79241688,-0.18653834,0.667155,0.79546887,-0.14941629,0.669866,0.7969846,-0.13142346,0.671253,0.80344173,-0.11430542,0.672513,0.81475715,-0.19910966,0.665915,0.81684583,-0.17851445,0.669827,0.82861135,-0.16513548,0.671624,0.84394035,-0.15202029,0.67321
0.74097387,-0.25423047,0.644864,0.75590489,-0.21776044,0.65579,0.72432517,-0.23473646,0.646369,0.70075954,-0.19904854,0.641737,0.68623477,-0.17329217,0.641981,0.68672337,-0.16464234,0.65388,0.74837676,-0.1715006,0.666311,0.75137057,-0.13737189,0.668764,0.75846692,-0.11878975,0.669991,0.7658533,-0.099376627,0.671106,0.77419676,-0.18047045,0.668478,0.78439764,-0.14648248,0.674747,0.79394376,-0.1228491,0.678405,0.80208347,-0.10608049,0.681017,0.79490636,-0.18790778,0.669482,0.79892456,-0.15262998,0.672502,0.80150857,-0.1353714,0.674047,0.81207501,-0.11830082,0.675452,0.81350201,-0.20536614,0.669169,0.81960758,-0.17979023,0.672804,0.83010069,-0.16555135,0.674474,0.84254671,-0.15279788,0.675948
0.74848521,-0.25660216,0.651791,0.75000367,-0.22462716,0.658451,0.72958308,-0.24079047,0.65207,0.7006166,-0.20708303,0.644728,0.68482205,-0.18789054,0.649186,0.68451791,-0.16756128,0.652656,0.72895702,-0.19012467,0.664088,0.73529521,-0.15326376,0.663531,0.73905735,-0.13446201,0.663253,0.74264975,-0.11899228,0.663001,0.75613826,-0.19282494,0.666185,0.7655623,-0.16573773,0.665235,0.77176946,-0.16062794,0.664681,0.7898575,-0.17849811,0.678866,0.7785364,-0.19699414,0.667436,0.77504204,-0.15699461,0.666055,0.77324909,-0.1364084,0.665349,0.77237918,-0.11727951,0.664707,0.80532722,-0.20589684,0.66801,0.81424973,-0.17826058,0.669594,0.82020344,-0.16416827,0.670323,0.82647427,-0.15039501,0.670965
0.73581437,-0.25588209,0.643858,0.74532045,-0.23299415,0.65626,0.72062023,-0.24734193,0.64774,0.69303498,-0.2180077,0.645995,0.67277019,-0.18631524,0.634559,0.66590781,-0.16689323,0.633541,0.73740677,-0.1939382,0.670846,0.74742412,-0.15828839,0.675356,0.75353203,-0.13965282,0.677612,0.75942741,-0.12327483,0.679662,0.76227949,-0.20122154,0.670661,0.77528763,-0.16226694,0.675646,0.78295639,-0.13910637,0.678555,0.78846919,-0.1223639,0.680632,0.78097398,-0.20761017,0.669625,0.78924129,-0.17100535,0.674466,0.7945574,-0.15143698,0.676942,0.80470548,-0.12995156,0.679194,0.80157452,-0.21910875,0.666667,0.81230318,-0.18662314,0.670812,0.81784735,-0.17121564,0.672717,0.82276121,-0.15750704,0.674397
0.73416877,-0.25740099,0.645392,0.73655708,-0.23599031,0.656761,0.7140213,-0.24728201,0.648307,0.69106532,-0.21870299,0.645151,0.6738891,-0.19382872,0.644679,0.67157132,-0.18206523,0.652247,0.72368393,-0.20092037,0.669348,0.7306783,-0.16410653,0.672386,0.73424175,-0.14501518,0.673904,0.7375227,-0.12724855,0.675285,0.74903409,-0.20395221,0.669962,0.76059822,-0.16441973,0.673866,0.76743449,-0.1408451,0.676143,0.77235978,-0.12377069,0.67777,0.76937059,-0.20841533,0.669656,0.78063051,-0.17083831,0.673532,0.78642463,-0.15142297,0.675515,0.79411568,-0.13363959,0.677318,0.79264925,-0.21766633,0.667716,0.80212727,-0.18500179,0.670837,0.80745872,-0.16912544,0.672271,0.81243752,-0.15485407,0.673537
0.72528512,-0.26465286,0.645951,0.72773943,-0.24028152,0.65496,0.70271136,-0.25407691,0.64817,0.67731486,-0.22351275,0.643646,0.67391949,-0.20261287,0.65386,0.67724466,-0.19459831,0.664754,0.71577784,-0.2072961,0.664824,0.71724403,-0.17067661,0.665396,0.72037364,-0.15368396,0.665682,0.72466401,-0.13990264,0.665942,0.74110982,-0.21102263,0.665421,0.74892338,-0.1706689,0.666926,0.75407745,-0.14646082,0.667805,0.75811103,-0.12887948,0.668432,0.76151197,-0.21590344,0.66527,0.76370567,-0.17634165,0.666295,0.76483474,-0.15586454,0.66682,0.76840042,-0.1372939,0.667297,0.78498823,-0.22538165,0.663841,0.79042031,-0.19356926,0.664733,0.79348769,-0.17813478,0.665142,0.79724227,-0.16389983,0.665504
0.70679636,-0.29323935,0.650191,0.72085085,-0.25784347,0.658386,0.69200507,-0.2787854,0.65387,0.67861573,-0.24850459,0.650966,0.6470541,-0.22031169,0.638955,0.63815821,-0.19802261,0.629707,0.71414799,-0.21283224,0.669378,0.71354964,-0.17954597,0.670372,0.71715359,-0.16260137,0.670868,0.72053264,-0.14663357,0.67132,0.73711673,-0.21714445,0.667901,0.74266037,-0.17704751,0.668801,0.74590917,-0.15352458,0.669326,0.75384341,-0.13292648,0.669701,0.75514187,-0.22320923,0.666103,0.75860774,-0.18424619,0.667068,0.76038385,-0.16426962,0.667562,0.76557956,-0.14180054,0.668011,0.77494822,-0.23539587,0.662815,0.78241682,-0.20319566,0.664797,0.78632851,-0.18795905,0.665708,0.78996014,-0.17433204,0.666512
0.70872615,-0.29345018,0.647884,0.72014193,-0.25788743,0.656442,0.69253713,-0.27985464,0.651189,0.68206205,-0.25259228,0.647894,0.64544947,-0.22386749,0.631959,0.63663707,-0.20088373,0.62906,0.70745193,-0.21530318,0.667269,0.706443,-0.17988752,0.668461,0.70805084,-0.16096047,0.669056,0.71522706,-0.14621079,0.669598,0.73337928,-0.21696018,0.66638,0.73437754,-0.17748584,0.667652,0.73641456,-0.15398122,0.668394,0.7378732,-0.13712651,0.668924,0.75218462,-0.22214324,0.665039,0.7557202,-0.1834039,0.666229,0.757531,-0.16355349,0.666838,0.76225107,-0.14279774,0.667392,0.77328119,-0.23329107,0.662249,0.77565516,-0.19811221,0.663206,0.77930602,-0.18203176,0.663645,0.78308383,-0.16782886,0.664033
0.71595873,-0.29889616,0.65395,0.71610371,-0.26495703,0.656749,0.69534259,-0.28438267,0.653871,0.67178503,-0.26173603,0.645327,0.63455546,-0.23623267,0.631383,0.6221003,-0.21502481,0.623809,0.68927781,-0.21916611,0.65888,0.68137996,-0.18096631,0.654609,0.68217408,-0.16543335,0.652474,0.68299699,-0.15080627,0.650532,0.71499458,-0.22034733,0.660001,0.71550192,-0.17811534,0.65578,0.71582704,-0.15324804,0.653318,0.71607324,-0.13537845,0.65156,0.73636601,-0.2240371,0.660723,0.73124234,-0.18351072,0.656456,0.73320167,-0.16463085,0.654273,0.73511734,-0.14691038,0.652289,0.76233929,-0.23380721,0.661199,0.75738018,-0.19816645,0.657163,0.75906317,-0.1832757,0.655309,0.76063009,-0.16982454,0.653672
0.70894902,-0.29817139,0.649329,0.70432085,-0.2661529,0.654932,0.68686458,-0.28990033,0.65051,0.65752936,-0.26136557,0.648689,0.63617945,-0.23325257,0.642747,0.62992559,-0.21818555,0.646203,0.68074516,-0.22425367,0.660824,0.68333341,-0.193515,0.665299,0.68878766,-0.17764144,0.667537,0.69386816,-0.16256816,0.669571,0.7060307,-0.22546115,0.661438,0.70711234,-0.18550793,0.659799,0.71139859,-0.16359565,0.658843,0.71460454,-0.14735485,0.65816,0.72688495,-0.22892459,0.661544,0.72814787,-0.19030275,0.660005,0.73514975,-0.16800515,0.659217,0.73850632,-0.14987759,0.658502,0.75194868,-0.23794845,0.660894,0.75290511,-0.20850103,0.659957,0.75772045,-0.19677726,0.659527,0.76214837,-0.18719094,0.659147
0.69272752,-0.30501782,0.646017,0.69136871,-0.2727348,0.652515,0.67381283,-0.29322038,0.648709,0.64558907,-0.26874744,0.648253,0.62571473,-0.24902354,0.650563,0.62003319,-0.22771016,0.64575,0.67358652,-0.23054299,0.660956,0.67862516,-0.19891249,0.66734,0.68304527,-0.18167688,0.670532,0.68710101,-0.16543143,0.673434,0.69753813,-0.23144011,0.66006,0.70144661,-0.19039912,0.65928,0.70496191,-0.16775736,0.658825,0.70779008,-0.15719254,0.6585,0.71704637,-0.23470141,0.658859,0.72120205,-0.1956354,0.657949,0.72332216,-0.17569024,0.657483,0.72925494,-0.15436875,0.65706,0.73996173,-0.24358487,0.656522,0.74657734,-0.21054212,0.656733,0.75262403,-0.19527026,0.65683,0.75688447,-0.1834097,0.656915
0.69072835,-0.32129886,0.650235,0.68962927,-0.29134216,0.652673,0.67207652,-0.32032437,0.653434,0.65431717,-0.29459532,0.658208,0.63194747,-0.2672308,0.652694,0.6260126,-0.24852454,0.653368,0.66634584,-0.24728512,0.658503,0.66050492,-0.20900967,0.654845,0.65788196,-0.18997015,0.653016,0.65548583,-0.1723911,0.651353,0.68825775,-0.24573863,0.65551,0.6851021,-0.20363753,0.650918,0.68326077,-0.17908374,0.648239,0.68201782,-0.16146436,0.646326,0.70645969,-0.24720777,0.652876,0.70432478,-0.20673678,0.64854,0.70330609,-0.18559564,0.646321,0.70304603,-0.16753221,0.644304,0.72860647,-0.25436189,0.649388,0.72622387,-0.21810894,0.645303,0.72698393,-0.20478458,0.643427,0.72773098,-0.19268621,0.641771
0.68298382,-0.3330536,0.64762,0.67677014,-0.29718888,0.650709,0.66183344,-0.32078298,0.648555,0.63384594,-0.29641554,0.649213,0.61277169,-0.26793737,0.642944,0.60674665,-0.25109335,0.64532,0.65105184,-0.25299815,0.65431,0.64736748,-0.21443148,0.650556,0.64594797,-0.19517283,0.648679,0.64548245,-0.17891417,0.646973,0.67574569,-0.25330722,0.654309,0.67448863,-0.21124508,0.650257,0.67516274,-0.18788325,0.647894,0.67616078,-0.1724995,0.646205,0.69630176,-0.25618726,0.654091,0.69614515,-0.21507611,0.650142,0.69670891,-0.19398543,0.648122,0.69725089,-0.17458602,0.646285,0.72137372,-0.26484142,0.653404,0.72531235,-0.23082048,0.651008,0.72842883,-0.21485661,0.649907,0.73123204,-0.20057715,0.648935
0.67936205,-0.33378992,0.645364,0.67552174,-0.29814527,0.649837,0.65893958,-0.32209416,0.647133,0.62895781,-0.30153689,0.646973,0.60717249,-0.27802298,0.645388,0.59948863,-0.25704426,0.641441,0.65085061,-0.25511763,0.655556,0.64805651,-0.21711404,0.653047,0.65148441,-0.20226407,0.658631,0.65621127,-0.18680938,0.663708,0.67497818,-0.25499943,0.655051,0.67405206,-0.21359307,0.652295,0.67575092,-0.19080432,0.650688,0.677683,-0.17634793,0.64954,0.694968,-0.25748272,0.65432,0.69549823,-0.21745354,0.651582,0.69752959,-0.19741686,0.650181,0.69944682,-0.17880755,0.648907,0.7192029,-0.26554977,0.652829,0.72363459,-0.23283727,0.651725,0.72760888,-0.21733952,0.651218,0.73118639,-0.20342336,0.65077
0.66977528,-0.33592784,0.639939,0.66915287,-0.30032022,0.645327,0.64963739,-0.32482333,0.642144,0.62644301,-0.30776105,0.647021,0.60470355,-0.28293241,0.644204,0.59883889,-0.26099797,0.643518,0.64318986,-0.2620139,0.652296,0.63830123,-0.22420103,0.650634,0.63675226,-0.20664444,0.649803,0.63532393,-0.19022133,0.649047,0.66727221,-0.26052276,0.651596,0.66439983,-0.22040734,0.649718,0.6674743,-0.19440943,0.648623,0.6650015,-0.17965074,0.64961,0.68731086,-0.26185275,0.650639,0.68712004,-0.22158147,0.648784,0.68768872,-0.20092406,0.647835,0.68843801,-0.18214995,0.646972,0.71170374,-0.26851888,0.648753,0.71463834,-0.23529061,0.647923,0.71719177,-0.21961614,0.647542,0.71974081,-0.20740352,0.647206
0.66119486,-0.33899196,0.635203,0.65872551,-0.31008348,0.642477,0.63978255,-0.33162384,0.638385,0.61071116,-0.30969919,0.639417,0.5909504,-0.28623401,0.639215,0.58383357,-0.26847609,0.64054,0.64083783,-0.26871618,0.65214,0.63596497,-0.23206319,0.652274,0.63467376,-0.21464014,0.652341,0.63602872,-0.19478961,0.652401,0.66447446,-0.26890347,0.650946,0.66379969,-0.23011972,0.650925,0.66468639,-0.2066527,0.650913,0.66560537,-0.19002831,0.650904,0.68375619,-0.27153525,0.649451,0.68982285,-0.23522572,0.653358,0.69362308,-0.2155378,0.655357,0.6970958,-0.19741993,0.657174,0.70647947,-0.27959635,0.646662,0.71057447,-0.24554784,0.647078,0.71262632,-0.22972499,0.647269,0.7172676,-0.2115699,0.647438
0.64666644,-0.34586335,0.63209,0.65364669,-0.31034403,0.639482,0.62931153,-0.33404903,0.635658,0.60667691,-0.30779651,0.637036,0.58789369,-0.28379714,0.637016,0.58235778,-0.26775938,0.640454,0.63873557,-0.26942537,0.649706,0.63450749,-0.23633829,0.650142,0.63245621,-0.21615821,0.65036,0.63083012,-0.199704,0.650558,0.66179,-0.27019318,0.648087,0.66190474,-0.23233125,0.648369,0.66214374,-0.20717182,0.648533,0.6627116,-0.19027501,0.64865,0.6805626,-0.27630418,0.646235,0.6805426,-0.2388082,0.646507,0.68199866,-0.21967786,0.646646,0.68335559,-0.20179257,0.646772,0.70194151,-0.28540075,0.643,0.70421388,-0.25036897,0.642573,0.70526796,-0.23414822,0.642377,0.70620327,-0.21976961,0.642204
0.65585814,-0.34647348,0.637214,0.65588571,-0.31151981,0.64145,0.63684415,-0.33481567,0.639823,0.60751804,-0.3093096,0.638138,0.58687601,-0.28611199,0.636263,0.57972929,-0.26888471,0.639058,0.63674852,-0.26941211,0.647994,0.62907481,-0.23282222,0.645686,0.62557929,-0.21462426,0.644532,0.62236501,-0.19780558,0.643483,0.65978556,-0.26979626,0.646382,0.65559836,-0.22998343,0.64364,0.65143778,-0.20559548,0.64204,0.64979477,-0.18923824,0.640898,0.67872849,-0.27260968,0.644756,0.67459009,-0.23268008,0.642194,0.67264662,-0.2118241,0.640884,0.67235869,-0.19961358,0.639692,0.70137486,-0.28095331,0.642228,0.7017511,-0.24568227,0.639872,0.70197409,-0.22948025,0.638789,0.70220946,-0.21516869,0.637833
0.65500465,-0.34688344,0.636511,0.65438295,-0.31094154,0.63972,0.63730494,-0.33590253,0.640469,0.60620347,-0.31259632,0.637798,0.57680577,-0.29064252,0.631632,0.56762033,-0.27788473,0.635683,0.6356468,-0.26922852,0.647087,0.62703894,-0.23383181,0.644868,0.62283562,-0.21542268,0.643759,0.61905378,-0.19851189,0.642751,0.6566324,-0.2686685,0.643457,0.65127903,-0.22833213,0.64011,0.64712683,-0.20390568,0.638157,0.64673122,-0.18723643,0.636762,0.67386142,-0.27072136,0.640244,0.66848446,-0.23163315,0.637658,0.6638161,-0.21195092,0.636334,0.66605551,-0.20580975,0.635131,0.69450526,-0.27815509,0.635957,0.69268419,-0.24436216,0.632383,0.69166939,-0.22624979,0.630741,0.6919814,-0.22067648,0.629292
0.65132766,-0.34594567,0.633373,0.65142377,-0.31018117,0.63718,0.6324792,-0.33684014,0.638054,0.60294678,-0.31439315,0.636463,0.57322919,-0.29113662,0.629825,0.56307432,-0.27702657,0.632527,0.63289318,-0.27013919,0.645902,0.62551972,-0.23379154,0.644353,0.62157101,-0.21544034,0.643579,0.61923957,-0.19797618,0.642875,0.65327225,-0.26887146,0.641613,0.64814059,-0.22787178,0.638964,0.64562736,-0.2040204,0.63742,0.64393343,-0.18702391,0.636316,0.67040996,-0.27091643,0.637816,0.66333965,-0.23187634,0.635919,0.66017213,-0.21157862,0.634949,0.66380209,-0.20204633,0.634067,0.69017805,-0.27793562,0.632747,0.68800565,-0.24259624,0.629699,0.68636596,-0.22900745,0.628299,0.68680746,-0.22529085,0.627063
0.64405507,-0.34657919,0.628149,0.64552727,-0.31385724,0.633748,0.62851163,-0.33679269,0.634117,0.60497958,-0.32312843,0.637269,0.58216423,-0.30049815,0.636062,0.57238583,-0.28209566,0.638829,0.62462392,-0.2777198,0.645457,0.62050717,-0.24049159,0.644647,0.61961708,-0.21855352,0.644242,0.61850596,-0.20009301,0.643874,0.64438974,-0.27398597,0.640251,0.64169391,-0.23303539,0.638708,0.6423471,-0.20693176,0.637808,0.64340294,-0.1883878,0.637165,0.66064077,-0.2735336,0.63557,0.66194523,-0.23202013,0.633999,0.66130795,-0.22422512,0.633195,0.66204854,-0.21713998,0.632464,0.68016058,-0.2781018,0.629196,0.68542537,-0.24229327,0.627688,0.68761375,-0.2268582,0.626995,0.68870182,-0.21857786,0.626384
0.64363418,-0.34754689,0.627625,0.64507926,-0.31494044,0.633616,0.62826201,-0.33813458,0.633912,0.60579885,-0.32356601,0.638132,0.58257152,-0.30070838,0.636507,0.57403903,-0.28353283,0.639948,0.62517455,-0.27796462,0.646026,0.62131668,-0.24080533,0.645488,0.62016623,-0.22001322,0.645219,0.61925795,-0.20122285,0.644975,0.64471583,-0.27412462,0.640575,0.64233992,-0.23326999,0.639351,0.64246197,-0.20789385,0.638637,0.64354145,-0.18933899,0.638126,0.66074056,-0.27357491,0.635666,0.66174778,-0.23279522,0.634161,0.66151266,-0.22429453,0.633391,0.66228616,-0.21721792,0.632691,0.67990979,-0.27799926,0.628964,0.6852472,-0.24253347,0.6277,0.68756999,-0.22696279,0.62712,0.68892088,-0.21829773,0.626608
0.64297056,-0.34808284,0.626893,0.64456218,-0.31533846,0.633262,0.62765932,-0.33891632,0.633339,0.60566405,-0.32349401,0.63799,0.58243606,-0.30063846,0.636359,0.57461248,-0.28412657,0.640225,0.6253081,-0.278024,0.646164,0.62174887,-0.24097283,0.645937,0.62055294,-0.22078231,0.645824,0.61975619,-0.20201755,0.645721,0.64479937,-0.27416014,0.640658,0.64277997,-0.23342979,0.639789,0.64275106,-0.20845015,0.639282,0.64378825,-0.19001876,0.63892,0.66075199,-0.27357965,0.635677,0.66182165,-0.23332658,0.634442,0.6619503,-0.22444288,0.63381,0.6628556,-0.21740468,0.633235,0.67977251,-0.27794313,0.628837,0.6853126,-0.24273847,0.627865,0.68778803,-0.22710632,0.627418,0.68936469,-0.21826367,0.627024
0.64085791,-0.34983613,0.626533,0.63598591,-0.31917776,0.632263,0.62259857,-0.34151005,0.630975,0.59460913,-0.3148282,0.631198,0.57291339,-0.29140997,0.629735,0.5712691,-0.28194417,0.637948,0.6211643,-0.27628468,0.642211,0.62151208,-0.24187573,0.646129,0.62188541,-0.22407738,0.648089,0.62357176,-0.20534946,0.64987,0.64274064,-0.27405793,0.638902,0.64107137,-0.23373126,0.63789,0.6402716,-0.20985686,0.6373,0.64138018,-0.19105402,0.636878,0.65940895,-0.27852364,0.635773,0.65838359,-0.23946695,0.634964,0.66204025,-0.22479933,0.634551,0.66179815,-0.22532076,0.634175,0.67989461,-0.28668684,0.631236,0.67846162,-0.25689268,0.630208,0.68029014,-0.24906986,0.629736,0.68091762,-0.25624588,0.629319
0.63834897,-0.34835342,0.623832,0.639207,-0.31693509,0.63031,0.62112208,-0.34341644,0.629485,0.60228658,-0.32265953,0.635313,0.58006247,-0.30006011,0.634534,0.57054042,-0.28162727,0.636761,0.62118053,-0.27716136,0.642325,0.62280913,-0.24233434,0.647027,0.62327003,-0.22511565,0.649379,0.62404646,-0.20871034,0.651516,0.64106771,-0.27676531,0.637817,0.64070513,-0.23440916,0.637374,0.64160144,-0.21359569,0.637116,0.64116077,-0.19269275,0.636931,0.65767456,-0.27801994,0.633647,0.65816714,-0.23887344,0.633201,0.66059082,-0.2239271,0.632973,0.66201571,-0.21886897,0.632766,0.6771004,-0.28453501,0.627762,0.67856201,-0.25337789,0.627094,0.68455398,-0.23549742,0.626788,0.68722163,-0.22363998,0.626517
0.63645505,-0.34930068,0.622532,0.63819435,-0.31694492,0.629394,0.61984597,-0.34342251,0.628386,0.6009182,-0.32251141,0.634401,0.57889501,-0.29984605,0.63372,0.57016008,-0.28147162,0.636056,0.62076373,-0.27755597,0.641959,0.62277056,-0.24289036,0.64698,0.62347549,-0.2255497,0.649491,0.62441596,-0.20923274,0.651774,0.64069319,-0.27696643,0.637346,0.64065602,-0.2349325,0.637224,0.64155907,-0.21386041,0.637153,0.6413856,-0.19339517,0.637102,0.65722537,-0.27790631,0.633063,0.6583366,-0.23876302,0.632845,0.66047304,-0.22363324,0.632734,0.66198129,-0.21864789,0.632632,0.67658274,-0.28399315,0.626989,0.67922471,-0.25243516,0.626632,0.68420339,-0.23537681,0.626467,0.68683072,-0.22419461,0.626322
