sluyters/QuantumLeap/backend/src/datasets/dynamic/HandGestureDataset_SHREC2017_csv/Gesture13/finger_2/subject_22_essai_5_skeletons_world.csv
Wrist_x,Wrist_y,Wrist_z,Palm_x,Palm_y,Palm_z,thumb_base_x,thumb_base_y,thumb_base_z,thumb_first_joint_x,thumb_first_joint_y,thumb_first_joint_z,thumb_second_joint_x,thumb_second_joint_y,thumb_second_joint_z,thumb_tip_x,thumb_tip_y,thumb_tip_z,index_base_x,index_base_y,index_base_z,index_first_joint_x,index_first_joint_y,index_first_joint_z,index_second_joint_x,index_second_joint_y,index_second_joint_z,index_tip_x,index_tip_y,index_tip_z,middle_base_x,middle_base_y,middle_base_z,middle_first_joint_x,middle_first_joint_y,middle_first_joint_z,middle_second_joint_x,middle_second_joint_y,middle_second_joint_z,middle_tip_x,middle_tip_y,middle_tip_z,ring_base_x,ring_base_y,ring_base_z,ring_first_joint_x,ring_first_joint_y,ring_first_joint_z,ring_second_joint_x,ring_second_joint_y,ring_second_joint_z,ring_tip_x,ring_tip_y,ring_tip_z,pinky_base_x,pinky_base_y,pinky_base_z,pinky_first_joint_x,pinky_first_joint_y,pinky_first_joint_z,pinky_second_joint_x,pinky_second_joint_y,pinky_second_joint_z,pinky_tip_x,pinky_tip_y,pinky_tip_z,
0.463234643,-0.214749565,0.454228,0.480955327,-0.172770733,0.455099,0.446934375,-0.201300026,0.45222,0.428645376,-0.163407143,0.448897,0.411576667,-0.136710757,0.446619,0.408114589,-0.119551672,0.449605,0.468443708,-0.132795324,0.452826,0.478137896,-0.0955016193,0.4472,0.484936577,-0.0767554134,0.444387,0.487498515,-0.0635634652,0.44183,0.493258677,-0.142983628,0.455718,0.504304271,-0.102605134,0.449664,0.51241165,-0.0787895917,0.446133,0.515448571,-0.0637974761,0.44361,0.510251035,-0.15677504,0.458003,0.51779795,-0.1161965,0.451721,0.522881762,-0.0953698052,0.448507,0.530972166,-0.0776036999,0.445585,0.529261853,-0.177842655,0.46045,0.544730751,-0.146907869,0.457107,0.553878908,-0.132806393,0.455571,0.563010966,-0.120786736,0.454216
0.463327653,-0.2133301,0.454492,0.480891037,-0.172150594,0.455215,0.446917023,-0.199524489,0.452158,0.427382748,-0.162831675,0.448469,0.410100293,-0.13559366,0.445344,0.406535319,-0.117768707,0.447647,0.468097373,-0.132820308,0.45243,0.4778698,-0.0951693711,0.446561,0.483779927,-0.0761912867,0.443627,0.487093196,-0.0616801953,0.44096,0.493144433,-0.143546227,0.455729,0.502917213,-0.10401478,0.44941,0.510074422,-0.0801979907,0.445724,0.515573907,-0.0630569482,0.443091,0.510955603,-0.157105113,0.458366,0.518074788,-0.116206708,0.451801,0.522524969,-0.0952586793,0.448442,0.530153927,-0.0772464572,0.445389,0.529940542,-0.178791839,0.461243,0.544504431,-0.147422684,0.457569,0.553232008,-0.133122321,0.455882,0.561830534,-0.120787294,0.454392
0.463475847,-0.212521463,0.454741,0.480950918,-0.171873763,0.45536,0.447051083,-0.198525207,0.452267,0.42697114,-0.162643384,0.448336,0.409518849,-0.135191841,0.444822,0.405843382,-0.117126103,0.446812,0.468020208,-0.132839443,0.452335,0.477727517,-0.0950476792,0.446298,0.4832923,-0.0759872389,0.44328,0.486902118,-0.0607417671,0.440536,0.493180278,-0.143755258,0.455801,0.50319628,-0.103789371,0.449326,0.51017398,-0.0798962491,0.445549,0.515659916,-0.0626889087,0.442851,0.511351841,-0.157283629,0.458587,0.518205297,-0.116210008,0.451834,0.522312302,-0.0951968642,0.44838,0.529683416,-0.0770590682,0.445239,0.530297535,-0.179272958,0.461655,0.544332859,-0.147664395,0.457751,0.552812183,-0.133257045,0.455958,0.561111852,-0.120759706,0.454375
0.460005329,-0.214565135,0.453596,0.478095286,-0.173834382,0.453922,0.445595575,-0.198440777,0.451165,0.425682587,-0.171446153,0.449007,0.400666292,-0.143214381,0.441596,0.398712465,-0.124797501,0.442793,0.463226642,-0.137990585,0.450812,0.471427249,-0.10096493,0.445469,0.476874175,-0.0821271154,0.442798,0.48491767,-0.0627276422,0.440369,0.488821892,-0.147412722,0.454154,0.498872173,-0.106527528,0.447631,0.505657258,-0.0826014599,0.443826,0.512650721,-0.065752144,0.441108,0.508243416,-0.15961444,0.45687,0.514388006,-0.118443898,0.450055,0.518017884,-0.0974162479,0.446568,0.525901112,-0.0778569167,0.443399,0.527797044,-0.181103487,0.459917,0.540531312,-0.148754118,0.455872,0.54721199,-0.136011412,0.454014,0.557000113,-0.12112115,0.452374
0.457819045,-0.216629127,0.453599,0.475785354,-0.177447235,0.4537,0.443812679,-0.200756218,0.451603,0.420398155,-0.17085192,0.447605,0.401080093,-0.143108619,0.442464,0.398810555,-0.124868467,0.443879,0.462212837,-0.139955996,0.451065,0.470716593,-0.102500733,0.445284,0.475995294,-0.0835140805,0.442394,0.480861455,-0.066103499,0.439766,0.487103789,-0.14990735,0.453773,0.497034963,-0.10903901,0.446727,0.503968571,-0.0829254753,0.442616,0.509374017,-0.0678968166,0.439681,0.505665769,-0.164219464,0.455992,0.509382843,-0.121964752,0.44848,0.512090942,-0.100363892,0.444636,0.516492899,-0.0808700429,0.441142,0.523673131,-0.186521639,0.458512,0.53391011,-0.150713406,0.453039,0.538493099,-0.13665069,0.450524,0.546804533,-0.125385466,0.448305
0.448693327,-0.22366198,0.453037,0.461576428,-0.189226264,0.451716,0.431423739,-0.21105191,0.45087,0.406229777,-0.176401442,0.446298,0.390470486,-0.148582178,0.443497,0.387622546,-0.129967597,0.444933,0.449079759,-0.147478297,0.448142,0.460008909,-0.111094006,0.440323,0.464733605,-0.0920397674,0.436413,0.469087427,-0.0745964847,0.432858,0.47185071,-0.161929025,0.450775,0.482864481,-0.121410069,0.442315,0.491242414,-0.0943010302,0.437381,0.497403921,-0.0811603133,0.433856,0.489967388,-0.175477835,0.453092,0.495836948,-0.133822952,0.444123,0.49897001,-0.109207333,0.439534,0.502781366,-0.0895680801,0.435363,0.507436974,-0.198384511,0.455995,0.516651935,-0.162704058,0.448584,0.523231092,-0.148366365,0.445179,0.529243236,-0.135457815,0.442175
0.442773775,-0.230146872,0.451766,0.453871779,-0.198985164,0.44906,0.42555751,-0.226962342,0.450497,0.402561017,-0.193752419,0.444548,0.385567951,-0.166091658,0.441145,0.381179629,-0.146506947,0.440871,0.437708816,-0.1621329,0.446006,0.445021914,-0.12388633,0.437178,0.448802785,-0.104490486,0.432764,0.45231696,-0.086690702,0.428752,0.462040226,-0.170429132,0.447133,0.465750282,-0.127427498,0.437391,0.469046973,-0.102603239,0.431708,0.471513852,-0.0845946263,0.427649,0.480938061,-0.181784734,0.448365,0.484726642,-0.139138503,0.438726,0.486907813,-0.117262963,0.433795,0.489999662,-0.0977508595,0.429312,0.500640297,-0.202588271,0.450289,0.506219305,-0.16679805,0.442262,0.510030281,-0.150796224,0.438574,0.513907937,-0.13698218,0.435319
0.437829815,-0.24448075,0.451403,0.44381943,-0.206699705,0.447113,0.42088038,-0.231639825,0.449556,0.393360073,-0.20775353,0.446707,0.370880605,-0.181422809,0.44083,0.366259669,-0.164845525,0.444358,0.426042242,-0.169041684,0.442489,0.432922641,-0.130270156,0.432453,0.436379353,-0.110849466,0.427435,0.439577108,-0.0931757401,0.422873,0.450805618,-0.176484015,0.444046,0.456433656,-0.133710309,0.432981,0.45978226,-0.108611237,0.426527,0.462383543,-0.0906432538,0.421916,0.470100626,-0.187339157,0.44581,0.473412012,-0.144432738,0.434839,0.475561238,-0.122667891,0.429226,0.480796338,-0.0997132965,0.424123,0.490327859,-0.207786078,0.448643,0.497371912,-0.17231427,0.439853,0.502363264,-0.157544876,0.435814,0.506947416,-0.144266316,0.432251
0.432458263,-0.254161417,0.451983,0.438955328,-0.215677366,0.446523,0.416411349,-0.242306966,0.451312,0.390204524,-0.214571718,0.445337,0.371554926,-0.187940404,0.442106,0.365060706,-0.165924575,0.441189,0.42146208,-0.178379065,0.442897,0.42583774,-0.138896233,0.431652,0.428051445,-0.119096184,0.42603,0.430079284,-0.101060156,0.420919,0.445016014,-0.185033181,0.442621,0.449306956,-0.14188184,0.430397,0.45203919,-0.116751458,0.423266,0.454033619,-0.098704107,0.418172,0.463512906,-0.195312797,0.443005,0.469719829,-0.153318371,0.435231,0.472902937,-0.131813921,0.431254,0.475801525,-0.112252923,0.427639,0.48316979,-0.215276439,0.444482,0.487920993,-0.178762183,0.434508,0.490886449,-0.162642787,0.429925,0.493596537,-0.148333655,0.425882
0.42535357,-0.264144251,0.452205,0.42447179,-0.224205801,0.443514,0.408033221,-0.252103858,0.450477,0.375937222,-0.225989063,0.443121,0.354953652,-0.200120035,0.43908,0.348591287,-0.181716096,0.439735,0.40333051,-0.186360231,0.436846,0.409798223,-0.147396748,0.424071,0.413317905,-0.128304247,0.417684,0.416548997,-0.11089153,0.411877,0.427505856,-0.19208395,0.437277,0.429603962,-0.148162901,0.422152,0.432377058,-0.123116642,0.41481,0.434387557,-0.105162014,0.409566,0.446879966,-0.201749792,0.4386,0.450283917,-0.158787519,0.427859,0.452042056,-0.136764168,0.422364,0.453649744,-0.116716269,0.417368,0.46823511,-0.221229377,0.44176,0.474111245,-0.185889973,0.429823,0.477050846,-0.16978639,0.424339,0.479696175,-0.155498299,0.4195
0.398199996,-0.28484168,0.453472,0.406952602,-0.241310952,0.442707,0.381432841,-0.270735314,0.450361,0.356706677,-0.239280665,0.444345,0.337206691,-0.213339539,0.441371,0.329579974,-0.193357075,0.439206,0.388863404,-0.200646545,0.433136,0.392007263,-0.160542807,0.420368,0.39358261,-0.14050605,0.413993,0.39505005,-0.122309358,0.408237,0.413210829,-0.21007571,0.434964,0.414686259,-0.166034637,0.419827,0.415562579,-0.140358468,0.411016,0.416187998,-0.122021111,0.404723,0.432297347,-0.222663905,0.437667,0.43171663,-0.178288776,0.42292,0.431886882,-0.156201731,0.415375,0.432080978,-0.136025472,0.408515,0.452530306,-0.245289608,0.442798,0.45515671,-0.208585632,0.428147,0.456713182,-0.192435208,0.421415,0.458131183,-0.178118892,0.415475
0.397125401,-0.292340822,0.455018,0.393014472,-0.252033829,0.439833,0.376578072,-0.287401379,0.452869,0.349379235,-0.256206878,0.445453,0.32755099,-0.230378878,0.440883,0.315737242,-0.209311768,0.434136,0.367916492,-0.213239096,0.429307,0.371754498,-0.173205997,0.414472,0.373741985,-0.154085512,0.407055,0.375603686,-0.136600874,0.400312,0.391765935,-0.218311904,0.428863,0.392299056,-0.173991457,0.412431,0.392687029,-0.148207111,0.40294,0.393000643,-0.129813605,0.396202,0.411613328,-0.227665403,0.430182,0.407361565,-0.182904207,0.412124,0.405257232,-0.160063562,0.402966,0.403379317,-0.139324169,0.394679,0.434716076,-0.247202331,0.43456,0.43528029,-0.209193274,0.417594,0.435965805,-0.1942356,0.409799,0.436668378,-0.180913162,0.40292
0.373697505,-0.320472828,0.451283,0.373508066,-0.272505649,0.437406,0.356894956,-0.309005997,0.450671,0.331818723,-0.276451809,0.444468,0.312362253,-0.250455265,0.441608,0.305571173,-0.230761501,0.4404,0.351117246,-0.233520816,0.429584,0.351537561,-0.194425297,0.411508,0.351775881,-0.174823256,0.40247,0.35201073,-0.15696897,0.394254,0.373233579,-0.238205255,0.427349,0.37094211,-0.194612554,0.408266,0.369648759,-0.16908349,0.397134,0.368747065,-0.150798828,0.389183,0.391500361,-0.247265295,0.427041,0.386051186,-0.203036064,0.407301,0.383179601,-0.181770758,0.397201,0.380168666,-0.165541538,0.38802,0.412623252,-0.266575172,0.429299,0.414103175,-0.230742799,0.412882,0.414789081,-0.214762817,0.405339,0.415442998,-0.200592553,0.398683
0.372703232,-0.328647183,0.454883,0.363171101,-0.285573643,0.436969,0.35431568,-0.317051464,0.452727,0.319544185,-0.293134321,0.44429,0.29893022,-0.270521081,0.443937,0.285559048,-0.250286775,0.437648,0.335553496,-0.247069238,0.42503,0.33496205,-0.206486687,0.406995,0.334719526,-0.186269694,0.39806,0.334492175,-0.167907467,0.389938,0.359038398,-0.250551673,0.423967,0.355189547,-0.205984878,0.404098,0.352946987,-0.179981689,0.392508,0.351345969,-0.161404802,0.384229,0.378934811,-0.258707078,0.425068,0.372239464,-0.214243125,0.405957,0.368823179,-0.191467276,0.39618,0.365771213,-0.170951655,0.387291,0.402810887,-0.277073074,0.429698,0.399575187,-0.242354436,0.41024,0.398155474,-0.226302008,0.401299,0.396942044,-0.212080331,0.39341
0.366318091,-0.339050236,0.454633,0.355939431,-0.29586601,0.436689,0.348741197,-0.329542523,0.454099,0.317867156,-0.304694906,0.447731,0.296261317,-0.281053778,0.445656,0.290769984,-0.263100475,0.447208,0.328147663,-0.258597044,0.426855,0.323444222,-0.217191279,0.406457,0.321257367,-0.196651371,0.396485,0.319263602,-0.177995083,0.38742,0.349969003,-0.26077387,0.423574,0.341369532,-0.214012683,0.401407,0.335920945,-0.188739385,0.388475,0.332058262,-0.170594198,0.379239,0.36881586,-0.267818376,0.42284,0.361349281,-0.222590908,0.402426,0.357467161,-0.199934148,0.391981,0.353946696,-0.179311744,0.382486,0.39197964,-0.284865943,0.425353,0.389073208,-0.248493597,0.405871,0.387752516,-0.231761708,0.396921,0.386594035,-0.216985692,0.389023
0.364091262,-0.351731629,0.458729,0.349822409,-0.308123122,0.435922,0.34583222,-0.341410124,0.457457,0.311647035,-0.316520013,0.448861,0.286953049,-0.292459999,0.443818,0.272739031,-0.272570069,0.437205,0.320190123,-0.269921423,0.422633,0.312413596,-0.228093084,0.401085,0.308638802,-0.207309594,0.390472,0.30520111,-0.188432933,0.380823,0.341732055,-0.273064218,0.419255,0.327315027,-0.225496883,0.394905,0.318206812,-0.200653229,0.380701,0.311717954,-0.182805216,0.370556,0.360660291,-0.280896748,0.418973,0.344505819,-0.235355117,0.398931,0.336240317,-0.212067156,0.388677,0.328726702,-0.190904703,0.379356,0.384455313,-0.29883856,0.422915,0.373059514,-0.262157787,0.399404,0.367830977,-0.245290493,0.388602,0.363220915,-0.230398766,0.37907
0.356432662,-0.362536687,0.459866,0.337076479,-0.31896823,0.434594,0.338108558,-0.352245051,0.458444,0.29945226,-0.327828676,0.44792,0.273804683,-0.304055404,0.442314,0.258613766,-0.284231787,0.434993,0.305434952,-0.280797893,0.419852,0.295619689,-0.238928269,0.396936,0.290844437,-0.218146702,0.385669,0.286498859,-0.199270631,0.375426,0.326788067,-0.283369954,0.416125,0.310337973,-0.23585096,0.390453,0.299907254,-0.21130345,0.375478,0.292465887,-0.19367679,0.364782,0.34588591,-0.290807445,0.415826,0.327562912,-0.245389824,0.394389,0.31818843,-0.22216831,0.383421,0.309666246,-0.20106797,0.37345,0.370457745,-0.308435806,0.42021,0.356640735,-0.271589261,0.394927,0.350286799,-0.254670561,0.38331,0.344678527,-0.239749682,0.373061
0.346547169,-0.370815939,0.459238,0.325591804,-0.326254513,0.432245,0.328929257,-0.361267434,0.458836,0.293110615,-0.335538196,0.450296,0.267994592,-0.311980965,0.445383,0.252386511,-0.292362997,0.437962,0.293676375,-0.288877219,0.417991,0.280625323,-0.247557795,0.392898,0.274153683,-0.226976435,0.380434,0.268267643,-0.208280005,0.369103,0.313239201,-0.291336855,0.412518,0.293821288,-0.244371303,0.38489,0.281135009,-0.220395415,0.368774,0.272070717,-0.20319039,0.357262,0.331177876,-0.298585775,0.410971,0.310181065,-0.253675272,0.387821,0.299439136,-0.230703841,0.375977,0.289674299,-0.209824801,0.36521,0.35492922,-0.315824317,0.414243,0.338191999,-0.280205331,0.387695,0.330503933,-0.263833849,0.375497,0.323722548,-0.249385615,0.364735
0.335320604,-0.375788664,0.458111,0.310013324,-0.330746373,0.429368,0.318041757,-0.366099623,0.457996,0.27611513,-0.344598258,0.449742,0.245462352,-0.325671251,0.442954,0.229973544,-0.306778791,0.437573,0.277405102,-0.293574676,0.414607,0.261437698,-0.253578027,0.386192,0.253449895,-0.233609116,0.371985,0.245403371,-0.216928997,0.359069,0.296139922,-0.296089255,0.408363,0.277187176,-0.251106362,0.380776,0.266116082,-0.224920672,0.364684,0.258207147,-0.206228116,0.353189,0.313616093,-0.303339802,0.406371,0.293936248,-0.258594075,0.381258,0.283858821,-0.23572768,0.368409,0.274698284,-0.214945706,0.356729,0.337219844,-0.320510801,0.409461,0.324318291,-0.282488817,0.386308,0.318442291,-0.265082443,0.375737,0.313255044,-0.249729728,0.366409
0.321830641,-0.38363029,0.457932,0.297992608,-0.342124016,0.429943,0.297746513,-0.37830305,0.45738,0.262168264,-0.356968768,0.450232,0.233837524,-0.336437438,0.445155,0.220670065,-0.317850348,0.441889,0.266688233,-0.303966194,0.414983,0.252516406,-0.2632499,0.389248,0.24542916,-0.242900664,0.37638,0.238985676,-0.224407559,0.364682,0.285688962,-0.307872353,0.409489,0.268199141,-0.262151131,0.384396,0.257996431,-0.235505448,0.369758,0.250708562,-0.216485664,0.359302,0.303197837,-0.316230651,0.408033,0.285655048,-0.271402,0.382434,0.276678671,-0.248485279,0.369337,0.26851785,-0.227664691,0.357431,0.326472956,-0.334602418,0.411596,0.315133257,-0.296845392,0.387637,0.31013001,-0.27971875,0.376893,0.30571463,-0.264611502,0.367414
0.311238584,-0.387537592,0.45565,0.294149453,-0.341181515,0.427872,0.294027897,-0.377084864,0.455088,0.255040073,-0.358592019,0.448031,0.22611697,-0.340576131,0.444113,0.21190809,-0.323023227,0.441221,0.262488771,-0.303687459,0.413004,0.243855222,-0.263739421,0.385979,0.236334654,-0.243541013,0.372973,0.233857456,-0.224412014,0.362309,0.281658145,-0.307327865,0.407571,0.259767991,-0.262253822,0.381255,0.248956991,-0.235836715,0.366451,0.245631008,-0.216414417,0.357083,0.299322502,-0.315405022,0.406142,0.281263269,-0.270820329,0.380362,0.268954968,-0.249022578,0.367173,0.264943774,-0.228437493,0.356961,0.3227985,-0.333338952,0.409697,0.311282121,-0.295961312,0.385871,0.306099278,-0.278903713,0.375063,0.301525896,-0.263854904,0.365527
0.309563227,-0.391831307,0.459146,0.284162901,-0.345659987,0.430759,0.291116962,-0.380967392,0.457341,0.246337569,-0.358897972,0.447076,0.22021065,-0.337387374,0.443278,0.209369844,-0.320125556,0.439814,0.250066219,-0.308362664,0.413921,0.23439643,-0.266759916,0.388111,0.226300056,-0.246647902,0.375206,0.218939308,-0.228353051,0.363474,0.271528784,-0.310171943,0.410013,0.251264875,-0.265281265,0.383632,0.239444565,-0.239093035,0.368244,0.231000959,-0.220385427,0.357252,0.291025011,-0.316954688,0.409907,0.268044036,-0.272991497,0.384282,0.256196068,-0.250795495,0.371171,0.245420758,-0.230596027,0.359252,0.316612888,-0.333780104,0.415094,0.297314732,-0.299926716,0.387671,0.288450398,-0.284353389,0.375071,0.28063022,-0.270600676,0.363953
0.29788197,-0.402660846,0.461733,0.273444094,-0.346812056,0.430032,0.276952597,-0.391754585,0.457974,0.23502865,-0.361042929,0.442793,0.210476851,-0.335549174,0.437586,0.202400676,-0.316920074,0.436387,0.236442777,-0.302855724,0.408899,0.2244516,-0.264024803,0.387058,0.218250609,-0.245238131,0.376137,0.216601777,-0.229057787,0.36621,0.259514273,-0.303105658,0.406865,0.24176671,-0.263327283,0.382444,0.231385902,-0.239840955,0.368199,0.227753183,-0.221881236,0.358023,0.280594803,-0.309766762,0.408666,0.254895035,-0.267012481,0.374912,0.25113905,-0.250212166,0.367606,0.244627536,-0.234835261,0.360963,0.308767987,-0.328594595,0.416662,0.276729023,-0.32934311,0.387472,0.261701852,-0.33314649,0.37406,0.24858011,-0.336119055,0.362226
0.299821025,-0.399318544,0.459692,0.273043387,-0.344762515,0.429551,0.274526852,-0.391690862,0.455985,0.23444328,-0.359882814,0.441106,0.211052149,-0.33806782,0.43953,0.198436555,-0.31949012,0.436791,0.235596088,-0.302198376,0.40928,0.223111409,-0.263495098,0.388282,0.214178798,-0.243188205,0.377784,0.210826178,-0.227560933,0.368239,0.258817295,-0.30178532,0.407523,0.238041441,-0.25948376,0.38318,0.226523628,-0.235614279,0.368981,0.221348986,-0.220914034,0.358838,0.2800774,-0.307799304,0.409382,0.252462536,-0.262693157,0.376772,0.243434089,-0.245588898,0.36697,0.237892377,-0.232921636,0.358059,0.307912401,-0.322421753,0.417152,0.280731405,-0.316683815,0.388778,0.267537973,-0.320415643,0.375741,0.255939981,-0.323857061,0.364237
0.269454219,-0.37409764,0.445007,0.257312364,-0.321120962,0.422485,0.251369733,-0.36461179,0.444547,0.219898205,-0.337559243,0.438553,0.195638485,-0.318660751,0.438292,0.182220233,-0.301124486,0.435973,0.227524097,-0.282345819,0.410424,0.20933619,-0.242698335,0.385226,0.200010199,-0.223306872,0.372626,0.191164189,-0.20640102,0.361172,0.248407143,-0.283119856,0.406025,0.226339467,-0.240819017,0.378969,0.213441301,-0.216036415,0.363186,0.204214879,-0.198278153,0.351912,0.266920727,-0.289408878,0.404871,0.246503879,-0.250958899,0.377785,0.235933075,-0.231419203,0.363927,0.226303325,-0.213524294,0.351328,0.290600517,-0.306351469,0.407759,0.271690495,-0.273664488,0.384564,0.262984481,-0.258536388,0.373906,0.255293348,-0.245123726,0.364503
0.263409816,-0.36179399,0.438639,0.245405019,-0.306230061,0.419467,0.245988165,-0.354387497,0.439607,0.212128586,-0.324267139,0.435471,0.190652532,-0.304401669,0.436625,0.17664824,-0.286370499,0.433228,0.213677594,-0.27279906,0.411019,0.201717003,-0.22851234,0.389656,0.195742661,-0.206570226,0.378975,0.184909409,-0.198867645,0.369265,0.233868794,-0.27085331,0.405456,0.213545573,-0.226200047,0.38064,0.201676923,-0.200089497,0.366164,0.193106913,-0.181557969,0.355824,0.252197322,-0.274544687,0.402975,0.231545112,-0.229041303,0.37889,0.220991046,-0.205825017,0.366567,0.210429019,-0.18686874,0.355365,0.276180396,-0.287814121,0.403715,0.264605274,-0.246186458,0.382735,0.255607981,-0.238948398,0.373096,0.246650316,-0.237311357,0.364591
0.255819573,-0.346675541,0.435551,0.239743174,-0.292172194,0.41721,0.238242216,-0.339563586,0.436483,0.204695745,-0.30733105,0.431844,0.184516796,-0.286364804,0.43305,0.171766624,-0.267756855,0.429897,0.210214849,-0.257298266,0.409134,0.20127457,-0.213259264,0.38867,0.196793128,-0.191452865,0.378437,0.186700497,-0.183071419,0.369135,0.230626588,-0.256677279,0.403805,0.21324767,-0.211502632,0.37965,0.203104243,-0.185101502,0.36556,0.195764952,-0.166352738,0.355495,0.248765904,-0.261473076,0.401427,0.23106111,-0.215523491,0.377996,0.222011597,-0.192099058,0.366008,0.212743618,-0.172761412,0.35511,0.271908728,-0.276031877,0.402128,0.262963359,-0.23457749,0.381777,0.254637086,-0.226801366,0.372427,0.245983419,-0.224620209,0.364176
0.247067308,-0.33321838,0.432744,0.228124346,-0.279566447,0.416191,0.230426827,-0.32753408,0.435386,0.197768465,-0.300056084,0.434462,0.177096034,-0.281889923,0.43736,0.165682858,-0.264849364,0.436877,0.197839057,-0.248314473,0.41131,0.18466201,-0.204744809,0.389345,0.176661081,-0.184792706,0.378363,0.168767457,-0.167398247,0.368379,0.216896213,-0.244564525,0.404094,0.19720495,-0.198841602,0.381401,0.185620997,-0.172301395,0.368164,0.177343996,-0.153332741,0.358709,0.234164086,-0.246704939,0.399964,0.212432171,-0.201117242,0.378755,0.201346154,-0.177907058,0.367904,0.189190643,-0.160685509,0.358039,0.256748615,-0.258045292,0.398321,0.240061486,-0.221997943,0.379329,0.231327971,-0.207946,0.370604,0.223563389,-0.195384719,0.362905
0.238604806,-0.321350604,0.431904,0.218517809,-0.267743852,0.417323,0.221631703,-0.316864138,0.43468,0.187323835,-0.290650073,0.434083,0.166146777,-0.274273752,0.437667,0.154502594,-0.258280023,0.438008,0.187739732,-0.238048962,0.413624,0.174743277,-0.194193091,0.393537,0.166866525,-0.173896625,0.383493,0.159098764,-0.156093636,0.374363,0.207142001,-0.232933708,0.406668,0.187467353,-0.186878581,0.385734,0.17590723,-0.160171063,0.373522,0.168259059,-0.141615291,0.366118,0.22470028,-0.233923515,0.402536,0.203759251,-0.189210262,0.384658,0.193057751,-0.166371884,0.375512,0.181304036,-0.148944943,0.367197,0.247650116,-0.243888607,0.400521,0.23097543,-0.207181868,0.382991,0.222326849,-0.192584129,0.374937,0.214627645,-0.179520337,0.36783
0.232598461,-0.292636159,0.437192,0.211463736,-0.245772264,0.419839,0.216444476,-0.288944399,0.440699,0.185161497,-0.2686936,0.439175,0.161681808,-0.251533738,0.440637,0.147566041,-0.234830561,0.438599,0.179173003,-0.217065305,0.415707,0.164942539,-0.173458097,0.399368,0.155018533,-0.153670982,0.391198,0.145919401,-0.135528142,0.383771,0.196029644,-0.211557603,0.407157,0.176631489,-0.16536632,0.389635,0.164253461,-0.139227667,0.379413,0.155393826,-0.120505575,0.372112,0.212235929,-0.212153893,0.402018,0.192066454,-0.166296299,0.384572,0.180524692,-0.143931345,0.375647,0.167457161,-0.126346211,0.367532,0.234796863,-0.221594781,0.399365,0.213246064,-0.182937438,0.380097,0.203340365,-0.16525914,0.371244,0.192572915,-0.15329226,0.363433
0.226828027,-0.283889466,0.43459,0.202149392,-0.230991808,0.420495,0.211451881,-0.281226582,0.439266,0.176055282,-0.255721012,0.439082,0.152181305,-0.239407814,0.440655,0.137940688,-0.223124289,0.438851,0.171406392,-0.204404902,0.419581,0.157916795,-0.1616456,0.405953,0.148121909,-0.14187328,0.399138,0.139127271,-0.123719235,0.392944,0.187322901,-0.197448953,0.410195,0.168619237,-0.152014503,0.395542,0.156542225,-0.126132803,0.386995,0.147891564,-0.107580974,0.38089,0.202648926,-0.196753694,0.404008,0.183282248,-0.151850599,0.389366,0.172024807,-0.129751779,0.381875,0.158950856,-0.111945789,0.375065,0.224012567,-0.204533807,0.399544,0.202957838,-0.166297613,0.382741,0.193272982,-0.148793472,0.37502,0.182475067,-0.136552999,0.368208
0.222530531,-0.267897308,0.434792,0.202196986,-0.212857832,0.420594,0.207244977,-0.256366255,0.43945,0.176024007,-0.2374557,0.439004,0.152196846,-0.221248304,0.4407,0.137985007,-0.205042075,0.438992,0.171416197,-0.186219465,0.419605,0.157924186,-0.143602909,0.405972,0.148128218,-0.123719222,0.399155,0.139132228,-0.105458389,0.392958,0.187333861,-0.179269102,0.410219,0.168678919,-0.133932402,0.395682,0.156626363,-0.108020465,0.387203,0.147990964,-0.0894402546,0.381146,0.202666984,-0.178585176,0.404044,0.183378275,-0.133876233,0.38957,0.172155445,-0.111767508,0.382165,0.159106813,-0.09374038,0.375433,0.224050693,-0.186389682,0.399612,0.20301935,-0.148201331,0.382857,0.193344618,-0.130715533,0.375159,0.182553864,-0.118304326,0.368367
0.214260816,-0.248073763,0.430447,0.190886315,-0.194880309,0.42148,0.193480767,-0.238961461,0.436003,0.165969819,-0.222835208,0.439993,0.146466076,-0.210449176,0.446861,0.135569068,-0.196675201,0.449315,0.16266897,-0.171016788,0.42435,0.151884085,-0.131009835,0.41664,0.143062358,-0.111544389,0.412785,0.130451737,-0.0967685063,0.40928,0.178330392,-0.162183316,0.414927,0.158739975,-0.118016297,0.402667,0.145601765,-0.0928178907,0.395515,0.13587406,-0.0747944376,0.390406,0.193100803,-0.159806668,0.408148,0.171257021,-0.118086288,0.398198,0.159483348,-0.0969507121,0.393107,0.147484431,-0.0780663772,0.388478,0.213272692,-0.165431597,0.402045,0.191958313,-0.128734301,0.390071,0.181897615,-0.112114615,0.384569,0.169894476,-0.102452865,0.379714
0.207289651,-0.238176259,0.431434,0.190363613,-0.194116424,0.424221,0.192754782,-0.237844739,0.437185,0.165132437,-0.222271909,0.441068,0.144826817,-0.210564086,0.447998,0.133362349,-0.197162812,0.450574,0.160611875,-0.170069331,0.428241,0.149737479,-0.131124921,0.421874,0.140815002,-0.112037444,0.41869,0.130274643,-0.0978088374,0.415796,0.17598105,-0.160185023,0.41895,0.156513757,-0.117122378,0.408994,0.143393491,-0.0924182158,0.403187,0.133660162,-0.0747109242,0.399039,0.19053622,-0.156822248,0.412087,0.163988092,-0.116308765,0.400703,0.149784204,-0.095758245,0.394879,0.135631866,-0.0775512324,0.389585,0.210503835,-0.161119348,0.405559,0.189019473,-0.125177946,0.394825,0.1788831,-0.108893377,0.389892,0.166780435,-0.0991145387,0.385541
0.202098614,-0.228604853,0.433088,0.181522955,-0.176408633,0.426484,0.184556735,-0.220538984,0.440055,0.160077164,-0.206339263,0.446944,0.13930245,-0.194609085,0.453561,0.127374485,-0.181100322,0.455694,0.15641884,-0.154604271,0.43244,0.147829246,-0.116461729,0.428293,0.13960338,-0.0974644131,0.426219,0.12676553,-0.0824984863,0.424334,0.169959686,-0.14453175,0.421658,0.151926089,-0.101748512,0.413025,0.139386857,-0.0770713095,0.40799,0.13002678,-0.0593594951,0.404393,0.182858384,-0.141002395,0.4135,0.157500165,-0.100629518,0.403521,0.14381028,-0.0801136722,0.398415,0.129924412,-0.0618570346,0.393774,0.200674404,-0.145099757,0.405373,0.18031184,-0.109325517,0.395607,0.170635705,-0.0931055782,0.39112,0.158043441,-0.0830594683,0.387161
0.196536459,-0.216476064,0.433099,0.179633253,-0.170682116,0.429483,0.183402545,-0.217434328,0.440062,0.160138642,-0.201476532,0.44924,0.140494541,-0.190476312,0.457045,0.128497425,-0.179456481,0.458345,0.15377209,-0.15176509,0.436952,0.145558857,-0.113162604,0.431529,0.135728907,-0.0942579846,0.428818,0.126669664,-0.0799135047,0.426353,0.168007189,-0.140207216,0.42684,0.151018611,-0.0981139859,0.42005,0.139541418,-0.0736095897,0.416089,0.130772496,-0.0560154393,0.41326,0.181459143,-0.135254152,0.418907,0.158325571,-0.0942975507,0.409644,0.1456986,-0.0734216016,0.404905,0.134148978,-0.0543140642,0.400597,0.199878172,-0.137347401,0.410478,0.180221646,-0.102754384,0.402721,0.168277635,-0.0881416621,0.399158,0.157128039,-0.0754546693,0.396013
0.195941317,-0.205277123,0.434189,0.179101514,-0.15728106,0.432527,0.183386181,-0.208072145,0.442319,0.163127885,-0.191044367,0.454344,0.144547446,-0.182359705,0.46389,0.133718059,-0.170637338,0.467951,0.154485323,-0.141399707,0.442547,0.146167536,-0.104541707,0.440573,0.136953567,-0.0859703242,0.439586,0.128355529,-0.0688034862,0.438689,0.166987336,-0.128091819,0.431312,0.149197609,-0.087563933,0.426732,0.137141708,-0.063873985,0.424061,0.127915599,-0.0468304473,0.422152,0.179073307,-0.1215125,0.42224,0.15508838,-0.0821888794,0.415135,0.141962578,-0.0620912177,0.4115,0.129947199,-0.043684435,0.408195,0.196026185,-0.121408953,0.412138,0.173042701,-0.0893281848,0.406607,0.160335274,-0.0753905074,0.404065,0.148915066,-0.0628969587,0.401823
0.195648901,-0.206153805,0.440163,0.181060078,-0.158248756,0.435651,0.18040232,-0.201548722,0.446506,0.155996539,-0.187909753,0.455882,0.144564058,-0.180193104,0.468849,0.136892187,-0.170610097,0.473195,0.158797157,-0.133164333,0.441837,0.145496196,-0.0973266326,0.439833,0.136990326,-0.0791248771,0.438831,0.127860325,-0.0655139963,0.43792,0.175923904,-0.126087196,0.432354,0.172689843,-0.0839847258,0.420194,0.154836379,-0.0748634565,0.4131,0.141371497,-0.0679808756,0.408033,0.190766955,-0.125051213,0.425038,0.167964405,-0.0855698918,0.417927,0.156314351,-0.0654018218,0.414288,0.145733969,-0.0470867329,0.410981,0.209174921,-0.131963204,0.417485,0.183675992,-0.102224447,0.410031,0.171730042,-0.0851140541,0.406606,0.160530492,-0.0744150254,0.403584
0.191898784,-0.202294375,0.443401,0.180087954,-0.158071299,0.437115,0.173976262,-0.19995036,0.449549,0.154913674,-0.183609145,0.461628,0.140573786,-0.171301609,0.472323,0.135048077,-0.158330456,0.477901,0.154887596,-0.129298343,0.442136,0.147781902,-0.0925646792,0.440539,0.140282973,-0.073583053,0.43974,0.129999719,-0.0593020542,0.439014,0.173593866,-0.125033365,0.43252,0.163965878,-0.0820607229,0.427048,0.153427675,-0.0571853782,0.423856,0.14574914,-0.0390232341,0.421576,0.185571787,-0.123983104,0.425288,0.16754869,-0.0850797147,0.419788,0.156744857,-0.0646981563,0.416974,0.146892869,-0.0461073182,0.414416,0.203173008,-0.133320435,0.418163,0.182213017,-0.0993741145,0.409423,0.169940716,-0.0845877124,0.405407,0.158995155,-0.0713868574,0.401863
