sluyters/QuantumLeap/src/datasets/gesture/HandGestureDataset_SHREC2017_csv/Gesture13/finger_1/subject_10_essai_1_skeletons_world.csv
Wrist_x,Wrist_y,Wrist_z,Palm_x,Palm_y,Palm_z,thumb_base_x,thumb_base_y,thumb_base_z,thumb_first_joint_x,thumb_first_joint_y,thumb_first_joint_z,thumb_second_joint_x,thumb_second_joint_y,thumb_second_joint_z,thumb_tip_x,thumb_tip_y,thumb_tip_z,index_base_x,index_base_y,index_base_z,index_first_joint_x,index_first_joint_y,index_first_joint_z,index_second_joint_x,index_second_joint_y,index_second_joint_z,index_tip_x,index_tip_y,index_tip_z,middle_base_x,middle_base_y,middle_base_z,middle_first_joint_x,middle_first_joint_y,middle_first_joint_z,middle_second_joint_x,middle_second_joint_y,middle_second_joint_z,middle_tip_x,middle_tip_y,middle_tip_z,ring_base_x,ring_base_y,ring_base_z,ring_first_joint_x,ring_first_joint_y,ring_first_joint_z,ring_second_joint_x,ring_second_joint_y,ring_second_joint_z,ring_tip_x,ring_tip_y,ring_tip_z,pinky_base_x,pinky_base_y,pinky_base_z,pinky_first_joint_x,pinky_first_joint_y,pinky_first_joint_z,pinky_second_joint_x,pinky_second_joint_y,pinky_second_joint_z,pinky_tip_x,pinky_tip_y,pinky_tip_z,
0.46469787,-0.34615346,0.594812,0.44570238,-0.2940852,0.582649,0.44028179,-0.33657811,0.592128,0.40635952,-0.29892334,0.580257,0.36998233,-0.27511115,0.574374,0.3509507,-0.25206231,0.56837,0.39738976,-0.246718,0.570895,0.38825399,-0.21611248,0.581434,0.38343049,-0.20026346,0.586704,0.37889601,-0.18553724,0.591494,0.42106485,-0.23971055,0.571065,0.39533537,-0.22724639,0.549434,0.42463558,-0.26580832,0.575242,0.44428127,-0.28454266,0.591167,0.44302761,-0.23758969,0.572517,0.42116561,-0.22556966,0.553464,0.44535796,-0.25215436,0.57376,0.46714721,-0.27430803,0.589561,0.47377068,-0.24205394,0.576487,0.457389,-0.21827459,0.558462,0.44235177,-0.22989421,0.550181,0.44602732,-0.24456487,0.557843
0.46349689,-0.34676267,0.593552,0.44277587,-0.29106106,0.580323,0.43767786,-0.33357814,0.590141,0.39254873,-0.29810278,0.57625,0.35369052,-0.27262683,0.563613,0.33159889,-0.24981493,0.555494,0.39300272,-0.24480941,0.566896,0.3766382,-0.21301053,0.574279,0.3698827,-0.19690943,0.577971,0.36793004,-0.18294079,0.582228,0.41726922,-0.23843327,0.567723,0.39218139,-0.22867709,0.54486,0.42060042,-0.27030534,0.570349,0.44025894,-0.2846624,0.586621,0.43978094,-0.23689489,0.569829,0.41755176,-0.22402807,0.549531,0.4403839,-0.25024762,0.569569,0.46239771,-0.27433891,0.58577,0.47127376,-0.24217089,0.574761,0.45287206,-0.22168712,0.555705,0.43874674,-0.23086496,0.54695,0.441826,-0.24528367,0.554208
0.46485291,-0.34735047,0.594728,0.43902218,-0.29016407,0.575528,0.43755165,-0.33377511,0.589631,0.39115952,-0.30483038,0.571167,0.35244251,-0.27895925,0.55807,0.32903434,-0.25617569,0.549039,0.3836675,-0.24471466,0.555853,0.37068955,-0.2146547,0.565119,0.36387838,-0.19905777,0.569751,0.35950897,-0.18275823,0.576014,0.40773788,-0.23651631,0.557242,0.38186219,-0.23171813,0.528105,0.40937243,-0.26986332,0.551485,0.42768427,-0.28445617,0.569363,0.43118151,-0.23587372,0.560456,0.40660231,-0.22496662,0.534539,0.42720088,-0.24944407,0.552919,0.44904276,-0.2714719,0.570727,0.46464968,-0.24276237,0.567795,0.44547014,-0.2230686,0.544062,0.43717122,-0.23847933,0.54331,0.44320942,-0.25154394,0.555938
0.46355119,-0.34572485,0.591278,0.4401788,-0.29440678,0.565346,0.43917642,-0.33446466,0.588843,0.40134639,-0.31043003,0.572809,0.36248485,-0.28638991,0.560878,0.33882096,-0.26282539,0.551166,0.38413359,-0.24332759,0.544566,0.36568015,-0.21102314,0.546692,0.3561706,-0.19439949,0.547755,0.34730588,-0.17903686,0.548721,0.40471166,-0.23599709,0.540648,0.36934873,-0.23549986,0.505285,0.39422131,-0.27123943,0.524929,0.41641178,-0.2862183,0.543887,0.42519153,-0.23434318,0.540217,0.39233628,-0.22737509,0.50949,0.40974243,-0.25307582,0.524977,0.43378424,-0.27825588,0.54357,0.45625225,-0.24065536,0.544591,0.43001102,-0.22550107,0.517877,0.4313964,-0.24675906,0.529343,0.44086455,-0.26109019,0.54319
0.46290398,-0.34562766,0.589445,0.43839979,-0.29629933,0.563869,0.44124563,-0.33803984,0.588628,0.40958969,-0.32300798,0.575126,0.37357778,-0.30439555,0.566556,0.35064385,-0.28259123,0.557221,0.39084785,-0.24543818,0.545438,0.36468645,-0.22165419,0.539732,0.35097942,-0.20916019,0.536879,0.33812067,-0.19741974,0.534285,0.40444983,-0.23762085,0.53951,0.3535528,-0.2458498,0.505531,0.34977922,-0.26937293,0.524855,0.36294713,-0.30029588,0.543212,0.4203537,-0.23945323,0.537385,0.36784386,-0.21616837,0.509483,0.38150326,-0.24117439,0.524803,0.40900269,-0.26136923,0.542191,0.44534924,-0.24776648,0.539726,0.40717855,-0.23212971,0.514065,0.40570026,-0.25162456,0.524379,0.41922223,-0.26499952,0.538058
0.46291945,-0.36679118,0.573785,0.43488417,-0.31255874,0.551335,0.43941854,-0.35364897,0.571279,0.40603972,-0.33401832,0.557683,0.37347914,-0.31442985,0.547318,0.35269613,-0.29193537,0.537102,0.38747053,-0.25758187,0.532828,0.36367204,-0.23179711,0.522972,0.35131716,-0.21832883,0.518044,0.33979227,-0.20571444,0.513564,0.4064868,-0.25408832,0.529954,0.36173814,-0.26056905,0.498301,0.363639,-0.28666188,0.520071,0.37700345,-0.31879358,0.538354,0.42548051,-0.25561874,0.530007,0.37846642,-0.2316036,0.503204,0.39525732,-0.25860682,0.520394,0.4256067,-0.2776641,0.538084,0.45414324,-0.26599132,0.534288,0.42330032,-0.25044524,0.50961,0.42291296,-0.27128946,0.522385,0.43377556,-0.28485596,0.536024
0.47954055,-0.37677729,0.58488,0.45200835,-0.32455033,0.560175,0.45101446,-0.36310675,0.5784,0.41384307,-0.3422863,0.558446,0.37396583,-0.31971447,0.544215,0.34816925,-0.29674856,0.533822,0.39183779,-0.27099697,0.53496,0.37421866,-0.24152927,0.531172,0.36500136,-0.22603873,0.529278,0.35275588,-0.21140112,0.527557,0.41626085,-0.26594752,0.536646,0.38347431,-0.26851661,0.501972,0.39523727,-0.29324542,0.522696,0.41469785,-0.32573674,0.541744,0.44025989,-0.26614701,0.540698,0.39861239,-0.24249038,0.509943,0.41338358,-0.26203992,0.525158,0.44068777,-0.28850493,0.54448,0.47590738,-0.27471527,0.550044,0.44711463,-0.26083584,0.522279,0.44907516,-0.28279431,0.534312,0.46003056,-0.29618839,0.54875
0.47368891,-0.37510157,0.563356,0.44929839,-0.33230497,0.544177,0.45197034,-0.37429385,0.560722,0.4166374,-0.35157021,0.54526,0.38024421,-0.33002323,0.536404,0.35717099,-0.30753361,0.52948,0.39734901,-0.28089896,0.527726,0.3688847,-0.25300505,0.505643,0.35447062,-0.23881029,0.494601,0.34124811,-0.22574392,0.484563,0.4194476,-0.27535912,0.525913,0.37868096,-0.25257281,0.497337,0.40428472,-0.29221253,0.520707,0.42808833,-0.31443307,0.538379,0.44080691,-0.27503122,0.526486,0.41266744,-0.2807033,0.502029,0.4278999,-0.31241484,0.520453,0.44587151,-0.33028068,0.537689,0.47205661,-0.28273686,0.530757,0.44807877,-0.26964219,0.508073,0.45098524,-0.29276121,0.521857,0.46064434,-0.30630534,0.535185
0.48886146,-0.41340865,0.564517,0.45681918,-0.35797616,0.542483,0.45976663,-0.40104032,0.558883,0.42687974,-0.37780864,0.545957,0.38947576,-0.35029463,0.525123,0.36787298,-0.32505278,0.510578,0.40000798,-0.30320054,0.520183,0.37474289,-0.30143463,0.49088,0.38645022,-0.3208954,0.508268,0.40925718,-0.34937475,0.526777,0.42429826,-0.29910827,0.521497,0.38129787,-0.26501926,0.489512,0.36307119,-0.24980448,0.480184,0.34966459,-0.23857759,0.47352,0.44787902,-0.30016,0.524954,0.41872568,-0.30126866,0.49663,0.4324735,-0.33202946,0.514035,0.45010623,-0.35837669,0.532425,0.48247466,-0.30983965,0.533108,0.45637961,-0.2948729,0.507339,0.45902689,-0.3168266,0.520273,0.46579268,-0.33640582,0.534358
0.48369096,-0.42094587,0.5601,0.46247213,-0.37571168,0.542027,0.45708121,-0.40746991,0.556314,0.45013945,-0.38393007,0.552361,0.44318588,-0.3535708,0.547672,0.44381851,-0.32959781,0.548267,0.4182366,-0.31561003,0.524826,0.38990164,-0.31520386,0.500476,0.39943519,-0.33524014,0.5193,0.40993993,-0.36566197,0.536429,0.4428864,-0.315293,0.524816,0.40788726,-0.28352614,0.497048,0.40274646,-0.27524578,0.5002,0.39851331,-0.26859917,0.502452,0.46570387,-0.31960173,0.526754,0.43729508,-0.31785703,0.502464,0.44875833,-0.35037825,0.521261,0.46251585,-0.37640961,0.538578,0.49740419,-0.3334683,0.532402,0.49054877,-0.30668067,0.509937,0.48618268,-0.31752528,0.513239,0.48800984,-0.33820447,0.52737
0.49073326,-0.43472009,0.559886,0.47428007,-0.38152457,0.535538,0.47140184,-0.42025349,0.553598,0.45710929,-0.39291076,0.541591,0.44106611,-0.36600955,0.530252,0.4288004,-0.33935346,0.522851,0.4234629,-0.31909158,0.510815,0.39133281,-0.32369499,0.480178,0.40095367,-0.34827585,0.496668,0.41367993,-0.37981186,0.515345,0.44992814,-0.32103985,0.512349,0.41059452,-0.29190388,0.478045,0.40186458,-0.28496638,0.475046,0.39523566,-0.27968479,0.472903,0.47492087,-0.32748776,0.516235,0.44330594,-0.32717431,0.485845,0.45389121,-0.35852897,0.502311,0.46730776,-0.38682926,0.52116,0.51021108,-0.34429078,0.525324,0.50192341,-0.31771285,0.497852,0.48694754,-0.31975071,0.48523,0.48006402,-0.3343405,0.488307
0.49350724,-0.4516297,0.549689,0.47307323,-0.3987244,0.531776,0.46670586,-0.43665291,0.544962,0.4457561,-0.41589057,0.523685,0.41257377,-0.38871444,0.506687,0.39294005,-0.36413158,0.498771,0.42618436,-0.34043007,0.513456,0.40119269,-0.33061116,0.488506,0.4182737,-0.36512034,0.507312,0.43169446,-0.39175705,0.524671,0.45273627,-0.34065118,0.514716,0.42402816,-0.31724146,0.486913,0.40823383,-0.30422774,0.471976,0.39685696,-0.29481996,0.461307,0.47706646,-0.34533153,0.517684,0.46004676,-0.35311032,0.492989,0.48548265,-0.38794192,0.511779,0.50708258,-0.40968766,0.529256,0.51034325,-0.35935039,0.524496,0.50405127,-0.34215182,0.501755,0.49271425,-0.34459861,0.491307,0.48843329,-0.36149388,0.496923
0.49875567,-0.45925274,0.553042,0.48139248,-0.40921078,0.532114,0.47301811,-0.44370377,0.549059,0.4541898,-0.4286731,0.528095,0.42619183,-0.405459,0.516885,0.41047157,-0.3823143,0.512194,0.43754778,-0.34778097,0.512716,0.41188652,-0.33975153,0.48619,0.42322455,-0.37244014,0.504095,0.4360185,-0.39855177,0.521715,0.46260221,-0.34950894,0.512182,0.42997897,-0.32593018,0.481601,0.41105864,-0.31581871,0.463761,0.39761091,-0.31044655,0.451019,0.48570656,-0.35568097,0.513998,0.46277967,-0.36366593,0.48743,0.4852242,-0.39890777,0.5053,0.50691611,-0.42091385,0.523166,0.51755475,-0.37193501,0.520039,0.50838323,-0.35660761,0.495646,0.49452115,-0.35880275,0.484439,0.48791404,-0.37390978,0.489098
0.57563449,-0.47002578,0.593925,0.53261407,-0.43149545,0.555927,0.54990281,-0.46204306,0.5911,0.51892545,-0.48590987,0.571138,0.52002651,-0.50578961,0.560896,0.52163516,-0.52653914,0.557735,0.47049482,-0.39400553,0.526448,0.42188611,-0.38412829,0.48646,0.40460362,-0.38543188,0.474492,0.40974147,-0.40993753,0.481999,0.49009619,-0.39268771,0.519739,0.4542409,-0.34782094,0.485305,0.43138691,-0.33594694,0.465218,0.41467992,-0.33118752,0.45087,0.51085504,-0.39552651,0.51831,0.46883359,-0.38208352,0.481898,0.47329115,-0.40542967,0.487162,0.49184265,-0.42201404,0.503968,0.54389597,-0.40594409,0.523794,0.51516637,-0.37414054,0.48999,0.49885463,-0.37631097,0.474459,0.49100737,-0.38626826,0.4695
0.55129135,-0.49811664,0.583239,0.51773946,-0.44803932,0.543671,0.52381238,-0.48188427,0.575247,0.49043813,-0.46365041,0.547809,0.46200883,-0.44831068,0.52626,0.44512366,-0.42909043,0.509474,0.46147331,-0.39160954,0.506395,0.41484835,-0.38286626,0.465855,0.3916877,-0.37813711,0.445584,0.38703008,-0.39030093,0.439437,0.48666115,-0.39663978,0.505987,0.44996125,-0.34244219,0.46664,0.42560152,-0.33891623,0.443689,0.40818695,-0.33647682,0.427294,0.51147751,-0.40572096,0.509915,0.48123517,-0.35639259,0.467616,0.48464383,-0.37964614,0.47277,0.4979681,-0.40971198,0.491909,0.54806043,-0.42538996,0.521912,0.5233481,-0.38115808,0.485549,0.50640732,-0.38134986,0.468841,0.49628783,-0.39087774,0.463355
0.58634165,-0.51350622,0.590944,0.54721334,-0.46478009,0.552013,0.55963139,-0.49927442,0.585589,0.521481,-0.48390601,0.561572,0.48637342,-0.46864997,0.539905,0.46425114,-0.44914824,0.521793,0.48767944,-0.41203443,0.518605,0.43744462,-0.40284468,0.480546,0.4125498,-0.3979873,0.461516,0.408002,-0.41107656,0.456236,0.50983483,-0.41496336,0.514937,0.47147259,-0.36291583,0.478873,0.44575237,-0.35586305,0.457836,0.4271649,-0.35338237,0.44281,0.53261545,-0.42222544,0.516111,0.49544595,-0.38033264,0.475173,0.49779951,-0.40452634,0.480567,0.51306611,-0.43480234,0.499253,0.56774552,-0.4396149,0.524792,0.53817132,-0.39216409,0.489095,0.51845549,-0.39417678,0.472693,0.50899927,-0.40179638,0.467587
0.58970033,-0.52155197,0.594328,0.55018427,-0.47739846,0.555011,0.56342302,-0.50774981,0.589555,0.52523891,-0.49775021,0.565616,0.49060696,-0.48323729,0.544582,0.4684569,-0.46376419,0.526476,0.49096121,-0.42486552,0.522098,0.44106066,-0.41600241,0.48452,0.41632705,-0.41136497,0.465731,0.41118108,-0.4239701,0.459796,0.51243311,-0.42719329,0.517566,0.46082031,-0.38624139,0.472926,0.43016815,-0.38948053,0.446886,0.41087623,-0.39169599,0.428286,0.53463323,-0.43401873,0.518072,0.49705588,-0.39158712,0.476729,0.49274182,-0.41060793,0.475685,0.50561263,-0.43888421,0.491998,0.56909819,-0.45099567,0.526049,0.53920696,-0.40308342,0.490065,0.51935953,-0.40486314,0.473532,0.50929669,-0.41182998,0.467866
0.58999364,-0.52362359,0.594108,0.55329021,-0.48155338,0.557122,0.56491959,-0.51110341,0.590533,0.53060982,-0.50698061,0.569131,0.498844,-0.49839827,0.551062,0.47867878,-0.48308661,0.535105,0.49836478,-0.43705068,0.527353,0.44897716,-0.41327066,0.491654,0.43166102,-0.41902895,0.473804,0.43288137,-0.42630895,0.470542,0.51936478,-0.43893778,0.521897,0.46855453,-0.4034705,0.477883,0.4395943,-0.40961315,0.452209,0.42396693,-0.4018675,0.434795,0.54078,-0.44496024,0.52139,0.50603972,-0.40812135,0.482395,0.48186603,-0.41137218,0.462445,0.47309866,-0.41938342,0.457936,0.57360781,-0.46015963,0.527754,0.54644884,-0.41662312,0.49382,0.52741029,-0.41983294,0.478229,0.52005876,-0.42848958,0.475352
0.58640764,-0.52730802,0.589896,0.54957452,-0.48932691,0.552015,0.5604011,-0.51400923,0.585131,0.54109801,-0.51938675,0.561948,0.50623954,-0.50346454,0.541493,0.48350528,-0.48222956,0.529023,0.49194778,-0.44037095,0.520088,0.44018327,-0.41412665,0.482918,0.42378224,-0.41677487,0.464332,0.42488798,-0.41792834,0.460258,0.51388687,-0.44333703,0.515938,0.477536,-0.38645187,0.473605,0.45037273,-0.38320382,0.448911,0.42898603,-0.38760507,0.431272,0.53626551,-0.4504049,0.516603,0.49996897,-0.40310956,0.480115,0.47602275,-0.38842097,0.461447,0.46825421,-0.40062949,0.459186,0.57050801,-0.4670954,0.524495,0.54302056,-0.42302063,0.490376,0.52395937,-0.42579649,0.4747,0.51515661,-0.43317209,0.470453
0.58634157,-0.53915337,0.589141,0.54916733,-0.49898014,0.551606,0.56051967,-0.52609422,0.584482,0.54055686,-0.52928181,0.561386,0.50566364,-0.5134811,0.540877,0.48335813,-0.49272819,0.528862,0.49191373,-0.450369,0.520052,0.44094294,-0.42369148,0.483107,0.42405787,-0.42662193,0.464634,0.42696282,-0.4287543,0.460936,0.51380719,-0.453353,0.515858,0.47752592,-0.39637137,0.473595,0.45040283,-0.39314525,0.448941,0.42904571,-0.39731427,0.431332,0.53610565,-0.4604282,0.516449,0.49673236,-0.41035596,0.480473,0.47666202,-0.39887714,0.462067,0.46936165,-0.4118226,0.460272,0.57017734,-0.47710526,0.524191,0.54296741,-0.43315379,0.490328,0.52435313,-0.43551832,0.474769,0.51593535,-0.44415003,0.470805
0.59995975,-0.56116293,0.597305,0.56989837,-0.51309484,0.558788,0.5742966,-0.54614401,0.592792,0.56400446,-0.5419212,0.570187,0.52389562,-0.50911827,0.555502,0.5005231,-0.47940028,0.546289,0.51524391,-0.45060434,0.526758,0.46573035,-0.43244652,0.489127,0.44560681,-0.43473717,0.470311,0.44516251,-0.44329232,0.465274,0.53666888,-0.45385935,0.522105,0.48437437,-0.45070944,0.476814,0.45272319,-0.43992945,0.450394,0.44718617,-0.42532801,0.444205,0.55852531,-0.46210946,0.522424,0.50937433,-0.42778522,0.484436,0.48440587,-0.41361746,0.465,0.46633303,-0.41387762,0.451263,0.59207353,-0.48208975,0.530035,0.54974235,-0.44612902,0.496467,0.53097471,-0.44911872,0.481043,0.52563075,-0.45960788,0.476208
0.60254819,-0.57597498,0.598962,0.57013976,-0.51742992,0.561422,0.57580507,-0.55573783,0.592196,0.5405784,-0.53798316,0.566006,0.51174479,-0.51836502,0.547079,0.48935958,-0.49114614,0.533059,0.51603901,-0.45037528,0.527121,0.47056125,-0.44759574,0.488321,0.44775763,-0.445877,0.468921,0.4379191,-0.45596737,0.46521,0.54037827,-0.45705005,0.52567,0.49104345,-0.42730432,0.480157,0.45919888,-0.43103645,0.453607,0.45348189,-0.43498932,0.44903,0.56455256,-0.4682357,0.528521,0.51677639,-0.43907611,0.489376,0.49258806,-0.42479588,0.469349,0.47064682,-0.41836783,0.451142,0.59900717,-0.49361044,0.538887,0.55579737,-0.44529352,0.504343,0.5374368,-0.44783942,0.488472,0.53460815,-0.45645954,0.484631
0.60046252,-0.58015311,0.599366,0.56855787,-0.52384436,0.563209,0.57434264,-0.55942123,0.592809,0.54038136,-0.54106191,0.566765,0.5114291,-0.51923705,0.546587,0.49407211,-0.4937064,0.531695,0.51907482,-0.45407055,0.530118,0.48031366,-0.43972068,0.492121,0.45507945,-0.44066047,0.473122,0.44715799,-0.44795809,0.470731,0.54310195,-0.46171682,0.528773,0.49492697,-0.43175737,0.484278,0.46347285,-0.4361249,0.458322,0.45895536,-0.44194319,0.455103,0.56595589,-0.47588887,0.531562,0.52041919,-0.44373082,0.493254,0.49676929,-0.42933473,0.473655,0.4752585,-0.4228167,0.455838,0.60016849,-0.50122565,0.541596,0.55880878,-0.44998757,0.507673,0.54072406,-0.45263838,0.492087,0.5389101,-0.46246428,0.489241
0.5933967,-0.58465593,0.596566,0.5655562,-0.5272733,0.561269,0.56808097,-0.56254782,0.589977,0.5374689,-0.53949447,0.563847,0.50953356,-0.51686761,0.544052,0.49346992,-0.49144644,0.529576,0.51757801,-0.45559623,0.528721,0.47935533,-0.43904603,0.491128,0.45412461,-0.44008611,0.472332,0.44794012,-0.44837904,0.470669,0.54167048,-0.46396385,0.527653,0.49438322,-0.43167728,0.483788,0.46306835,-0.43631681,0.4582,0.45922908,-0.4433399,0.455761,0.56515093,-0.47670252,0.530577,0.51980968,-0.44404862,0.492726,0.49640821,-0.4293195,0.473361,0.47506724,-0.42252695,0.455756,0.59933525,-0.50256881,0.540605,0.55777475,-0.4524019,0.507033,0.54005061,-0.45324614,0.491608,0.53870635,-0.46412277,0.489321
0.59041706,-0.58389651,0.593846,0.56353451,-0.52625102,0.55913,0.56527678,-0.56163469,0.587305,0.54417071,-0.54700912,0.561228,0.51646601,-0.51785816,0.54139,0.4982479,-0.49001513,0.528415,0.51619825,-0.454687,0.52704,0.47832808,-0.43814196,0.489788,0.45321252,-0.43929217,0.471163,0.44709879,-0.44800973,0.469976,0.54034125,-0.46320519,0.526068,0.49345226,-0.43101538,0.482661,0.46230277,-0.43583621,0.45734,0.45888764,-0.44354741,0.455401,0.56379928,-0.47603624,0.529009,0.51875075,-0.44351657,0.491522,0.49558172,-0.42869281,0.472343,0.47442362,-0.42182152,0.454907,0.59782966,-0.50195615,0.538948,0.55666219,-0.45177177,0.505658,0.53884484,-0.45277062,0.490362,0.53807209,-0.46562507,0.488438
0.58933105,-0.58412601,0.592919,0.56283988,-0.52603532,0.558375,0.56436156,-0.56184143,0.586498,0.54469829,-0.54719547,0.560583,0.51721671,-0.51826641,0.54063,0.49952771,-0.49010189,0.528275,0.51585573,-0.45454612,0.526556,0.47817982,-0.43802493,0.489492,0.45327178,-0.43917678,0.47096,0.44689959,-0.44873782,0.469927,0.53988058,-0.46300956,0.525476,0.4932638,-0.43024589,0.482232,0.46215887,-0.43512755,0.457007,0.45892133,-0.4427077,0.45521,0.56321087,-0.47578622,0.528309,0.51832026,-0.44337226,0.490994,0.49526512,-0.42847146,0.471903,0.47419282,-0.42153695,0.454547,0.59704316,-0.50163027,0.538091,0.55572742,-0.45249062,0.504932,0.53780339,-0.4547894,0.489697,0.53721969,-0.46737686,0.487886
0.58861996,-0.58413196,0.592314,0.56235823,-0.5255628,0.55784,0.56390339,-0.56194569,0.586112,0.54532294,-0.54625649,0.560497,0.51838145,-0.51710803,0.540795,0.50361025,-0.48947416,0.529418,0.51577045,-0.45336672,0.526354,0.47834353,-0.43769858,0.489504,0.45361104,-0.43889934,0.471079,0.44704813,-0.44911281,0.470133,0.53955849,-0.46147014,0.525007,0.4933164,-0.42906635,0.481874,0.46204633,-0.43421621,0.456713,0.45887671,-0.44171164,0.45497,0.56259055,-0.47504572,0.527613,0.51789838,-0.44276038,0.490472,0.49496372,-0.42779535,0.47147,0.47333464,-0.42020708,0.454195,0.59608048,-0.5006755,0.537119,0.55469321,-0.45377692,0.504092,0.53678987,-0.45604296,0.488918,0.53623542,-0.46755059,0.487161
0.59174279,-0.58341177,0.593749,0.56350579,-0.52442922,0.558328,0.56746173,-0.56214456,0.588259,0.55318182,-0.54120002,0.563673,0.52892006,-0.50935892,0.549317,0.51488191,-0.4801143,0.541264,0.51708555,-0.45369027,0.527127,0.4792583,-0.43816718,0.49038,0.4547413,-0.43915879,0.472006,0.44727695,-0.44965677,0.470359,0.53964531,-0.46094079,0.524594,0.49270706,-0.42773537,0.480942,0.46104187,-0.43229593,0.455478,0.45683715,-0.43923453,0.452861,0.56177641,-0.47273643,0.526325,0.51676849,-0.44146009,0.489093,0.49371272,-0.4264101,0.470044,0.47201102,-0.41863476,0.452726,0.59424533,-0.49871959,0.534993,0.55234086,-0.45153751,0.501891,0.53471767,-0.45433033,0.486682,0.53296007,-0.46648746,0.484348
0.58805304,-0.57900205,0.590052,0.56390303,-0.5120676,0.555703,0.56432923,-0.55566031,0.58529,0.55125536,-0.52874832,0.56171,0.52833078,-0.49805626,0.548705,0.51465741,-0.46921083,0.541028,0.51949416,-0.44095009,0.526178,0.47976462,-0.42692502,0.490598,0.45596342,-0.42760057,0.472809,0.45010055,-0.44565035,0.472093,0.54105772,-0.44857767,0.522989,0.4938392,-0.41476352,0.480368,0.46159691,-0.41997581,0.455506,0.45826596,-0.42819145,0.453755,0.56060198,-0.46306174,0.524066,0.5174787,-0.43003346,0.487912,0.49452881,-0.41527888,0.469414,0.47332979,-0.40702209,0.452599,0.59279048,-0.48545894,0.531771,0.55080061,-0.44437025,0.499503,0.53343809,-0.44421775,0.484677,0.531384,-0.45862155,0.48302
0.57755007,-0.55757681,0.588499,0.57141689,-0.49879753,0.564099,0.55862822,-0.53215848,0.584447,0.55776557,-0.50028498,0.562742,0.55849422,-0.47261521,0.546174,0.57425625,-0.45814397,0.544826,0.54608275,-0.42519145,0.542255,0.51123479,-0.42515919,0.513302,0.49254204,-0.42797563,0.498826,0.49255709,-0.44983641,0.504511,0.56879623,-0.4363704,0.540861,0.53415997,-0.42415969,0.50699,0.50540604,-0.43346006,0.487232,0.50348694,-0.45211121,0.492295,0.58911419,-0.4508574,0.542343,0.550909,-0.45032771,0.513188,0.53130888,-0.45025235,0.498272,0.50461639,-0.45256922,0.484712,0.6159186,-0.47799606,0.54865,0.58397471,-0.44905895,0.522075,0.56975143,-0.4518179,0.509865,0.57378322,-0.47135162,0.513176
0.55640857,-0.53451285,0.569031,0.56266139,-0.48034973,0.555637,0.53656097,-0.5075486,0.562303,0.54368271,-0.47399088,0.539697,0.53760146,-0.43552216,0.525631,0.54891245,-0.41830426,0.513753,0.54750734,-0.4102271,0.537781,0.5434048,-0.39778574,0.515449,0.54182174,-0.39168097,0.504284,0.56238227,-0.40169866,0.513953,0.57474568,-0.4260892,0.542882,0.55882922,-0.43587591,0.519319,0.52542747,-0.44228459,0.505574,0.52735247,-0.44534805,0.515461,0.59719584,-0.44345625,0.548525,0.59359133,-0.43635137,0.526374,0.57136845,-0.4448247,0.51504,0.56601243,-0.46185065,0.52461,0.62348459,-0.47210917,0.557594,0.61126617,-0.4571866,0.537224,0.60196496,-0.46811193,0.527864,0.60621898,-0.48242956,0.534462
0.53080241,-0.47865182,0.528408,0.55070885,-0.4390298,0.528293,0.51550898,-0.45327682,0.524915,0.53447165,-0.42187475,0.510583,0.5407205,-0.38486058,0.501784,0.55682213,-0.36656663,0.496322,0.54761237,-0.37711572,0.523664,0.55295849,-0.37757551,0.513373,0.54196038,-0.39328568,0.508228,0.54181548,-0.41165925,0.522476,0.57358971,-0.3935544,0.528184,0.5819154,-0.40457319,0.519115,0.55935438,-0.42521661,0.513825,0.56329359,-0.43834673,0.52866,0.59362826,-0.41034633,0.531918,0.59996255,-0.41805193,0.522491,0.58368205,-0.43351826,0.517668,0.58666675,-0.45061982,0.532107,0.61468945,-0.43646557,0.536274,0.6166105,-0.43487366,0.526725,0.60751501,-0.44948205,0.522337,0.61451932,-0.47369512,0.53275
0.52520848,-0.45493478,0.524958,0.54494681,-0.41578312,0.524781,0.50968122,-0.42960527,0.521128,0.52791312,-0.3976815,0.506362,0.53499654,-0.36141231,0.498478,0.55163171,-0.34359046,0.493629,0.54138329,-0.35436283,0.519672,0.54618238,-0.35342146,0.509098,0.53109782,-0.36765883,0.50381,0.53493236,-0.38720423,0.517918,0.56764079,-0.37086633,0.524612,0.57555184,-0.38008855,0.515431,0.58842212,-0.42648428,0.542673,0.59278808,-0.44068036,0.558516,0.58795118,-0.38769372,0.528699,0.59380047,-0.39388699,0.519052,0.57748081,-0.40928387,0.514117,0.5804239,-0.4262989,0.528433,0.60937653,-0.41381401,0.533476,0.6109278,-0.41094326,0.523768,0.6017742,-0.42542736,0.519307,0.60866854,-0.4491124,0.529632
0.52851186,-0.43195822,0.526817,0.54718065,-0.39213219,0.525686,0.51051011,-0.40422156,0.519917,0.53225162,-0.3704053,0.512954,0.55310798,-0.34121131,0.50854,0.57120493,-0.3218792,0.507983,0.53939328,-0.32807153,0.515932,0.53935665,-0.32789943,0.502556,0.52368459,-0.33870798,0.495868,0.52606098,-0.36209344,0.508402,0.56860844,-0.34703741,0.524609,0.57858516,-0.35320613,0.514099,0.58970817,-0.39727915,0.540061,0.58988326,-0.41118851,0.554009,0.59160976,-0.36601905,0.531876,0.59727973,-0.36982446,0.519989,0.57950944,-0.38421945,0.513908,0.5791207,-0.40176603,0.526801,0.61650978,-0.39489372,0.540524,0.61005476,-0.38888747,0.529175,0.58792173,-0.39229682,0.52396,0.58371992,-0.40584017,0.533264
0.52728894,-0.42117254,0.525598,0.54644474,-0.37236014,0.524979,0.50922971,-0.38390389,0.518613,0.53157405,-0.35020892,0.512301,0.55230966,-0.32058193,0.507806,0.57033461,-0.30114085,0.507209,0.53890086,-0.30912539,0.515461,0.54351118,-0.30347745,0.502458,0.53030955,-0.31345645,0.495957,0.53466373,-0.33590951,0.508539,0.56837107,-0.32801661,0.52439,0.57897118,-0.33310393,0.514442,0.59001173,-0.37614662,0.540339,0.59010154,-0.39021425,0.554214,0.59153635,-0.34688434,0.53181,0.59767946,-0.34988367,0.520337,0.5801398,-0.36456028,0.514467,0.57980558,-0.38218686,0.527424,0.61652575,-0.37552057,0.540538,0.61050553,-0.36881768,0.529566,0.5885557,-0.37243536,0.524525,0.58440296,-0.3855584,0.533888
0.52570011,-0.38701702,0.520519,0.5484581,-0.35284156,0.524763,0.50919879,-0.36043086,0.51515,0.53629859,-0.32727429,0.513292,0.56142404,-0.2983643,0.513009,0.58208439,-0.28075221,0.515448,0.54521151,-0.2945875,0.520651,0.55738628,-0.28594614,0.512762,0.54809374,-0.29529339,0.508817,0.55512086,-0.31654308,0.523012,0.57342099,-0.31364471,0.528804,0.59303812,-0.31418817,0.524386,0.60563855,-0.35622115,0.550779,0.60263565,-0.37175597,0.562711,0.59510756,-0.33217398,0.535061,0.60931618,-0.33190931,0.528609,0.59557531,-0.34794207,0.525308,0.59651793,-0.36853501,0.539886,0.61764207,-0.35956592,0.541526,0.6186906,-0.34956834,0.534822,0.59969299,-0.35379502,0.531741,0.59755981,-0.3665889,0.542381
0.5207723,-0.355157,0.516043,0.54986468,-0.3290113,0.525323,0.50876717,-0.33129076,0.514538,0.54352025,-0.30159957,0.519708,0.57533743,-0.27547052,0.525449,0.60016742,-0.26111238,0.5314,0.55676839,-0.28029018,0.529663,0.57543604,-0.26744871,0.528654,0.56924735,-0.27450699,0.52815,0.57816233,-0.29280064,0.544706,0.58098626,-0.29847706,0.53416,0.60603055,-0.29160364,0.53583,0.61914138,-0.3303281,0.563115,0.61454409,-0.34803188,0.573419,0.59871017,-0.31558341,0.536864,0.61898074,-0.31016979,0.536761,0.6085834,-0.32600354,0.536709,0.61196741,-0.349525,0.553533,0.61546751,-0.34002334,0.538257,0.62136955,-0.3247724,0.536777,0.60482429,-0.32821856,0.536097,0.60426956,-0.33932813,0.548449
0.5219639,-0.35054311,0.516968,0.55187445,-0.31916602,0.52646,0.51029785,-0.32722055,0.515969,0.54511177,-0.29245899,0.522122,0.57590141,-0.2654413,0.527665,0.60029359,-0.25032135,0.533261,0.55950687,-0.27114861,0.531604,0.5799363,-0.25448505,0.531132,0.57544705,-0.25976987,0.530896,0.5860224,-0.27620438,0.547664,0.58371958,-0.28840695,0.5355,0.60648905,-0.28054758,0.537481,0.61957166,-0.31903956,0.564871,0.61688111,-0.33752587,0.575955,0.60139496,-0.30477369,0.537685,0.62003455,-0.29865312,0.538028,0.60962944,-0.31475057,0.538204,0.6139261,-0.33847227,0.555216,0.61800498,-0.32837607,0.538437,0.62205654,-0.31278191,0.537301,0.60522298,-0.31662064,0.536779,0.60442016,-0.32778569,0.549267
0.52539106,-0.33965214,0.518269,0.55286633,-0.30595633,0.533152,0.50792551,-0.31235714,0.5098,0.52920531,-0.26725349,0.507507,0.54743491,-0.23537278,0.502958,0.56550718,-0.21881946,0.504223,0.55168281,-0.25036665,0.532227,0.58630811,-0.23047073,0.532251,0.60474182,-0.21987667,0.532262,0.63688001,-0.21478927,0.544826,0.5793706,-0.27272436,0.547326,0.63162579,-0.28130422,0.555574,0.64789349,-0.31612579,0.576334,0.62962162,-0.32850259,0.579867,0.59978158,-0.29322073,0.558156,0.63808092,-0.2978591,0.560701,0.64557497,-0.30996703,0.562002,0.64517618,-0.33035419,0.575331,0.61936917,-0.32144298,0.567929,0.6534889,-0.32569262,0.569759,0.65129043,-0.34391213,0.570599,0.65991955,-0.36585134,0.58064
0.57482964,-0.33900289,0.54237,0.58371192,-0.30455723,0.552592,0.5498228,-0.31529001,0.531905,0.54600259,-0.27056639,0.525318,0.54861633,-0.23213316,0.517068,0.55842092,-0.20947756,0.515232,0.5583324,-0.24773362,0.545903,0.58770395,-0.22526635,0.542567,0.60333263,-0.21342896,0.540898,0.63314826,-0.2072007,0.552481,0.59179061,-0.26376994,0.562328,0.637197,-0.26213536,0.56513,0.66533559,-0.29761579,0.585578,0.65545203,-0.31775543,0.590983,0.61850978,-0.27966179,0.574751,0.65041213,-0.27575478,0.572184,0.65967742,-0.28569119,0.570871,0.66403324,-0.30936597,0.582664,0.64839711,-0.30356902,0.58725,0.67337759,-0.29935429,0.584754,0.6703647,-0.3162653,0.583607,0.6788134,-0.33691524,0.592441
0.58845147,-0.35097163,0.568584,0.588961,-0.30770361,0.570616,0.55560127,-0.32350394,0.558444,0.55961607,-0.28143742,0.54766,0.55998994,-0.24320706,0.536086,0.56749508,-0.21590865,0.52861,0.57520116,-0.24643347,0.558789,0.59237036,-0.21372353,0.548221,0.60127564,-0.19704636,0.542936,0.62810059,-0.1872093,0.55449,0.60472614,-0.26146613,0.572552,0.64480012,-0.25079157,0.567355,0.67590722,-0.28717854,0.590722,0.6698112,-0.30867259,0.599936,0.62786305,-0.27700046,0.583667,0.64828553,-0.2845662,0.574485,0.65982897,-0.28886788,0.569788,0.67046742,-0.3122435,0.581689,0.65285508,-0.30129243,0.596186,0.66682638,-0.30715185,0.586707,0.67560585,-0.33107408,0.600568,0.67924114,-0.35060234,0.609278
0.58606028,-0.34643012,0.581322,0.59786051,-0.29890422,0.582089,0.56694528,-0.32300785,0.571933,0.55702494,-0.27092632,0.556204,0.54187363,-0.23101179,0.542677,0.53326602,-0.2057951,0.539405,0.58470918,-0.23747587,0.57038,0.60002874,-0.20473213,0.559221,0.60808607,-0.18794208,0.553641,0.6334096,-0.17738822,0.564384,0.61376291,-0.25260594,0.582818,0.65079224,-0.24213471,0.576891,0.68175165,-0.27792091,0.601164,0.67612602,-0.29942034,0.610928,0.63656219,-0.26824282,0.592979,0.65792216,-0.27044448,0.583446,0.66940204,-0.27269118,0.578569,0.68275407,-0.29514856,0.590955,0.6612712,-0.29272873,0.604628,0.67233297,-0.29708816,0.594238,0.68145475,-0.32084981,0.608615,0.68548705,-0.3403418,0.617847
0.59881505,-0.33582797,0.589215,0.61056865,-0.28653108,0.588244,0.58430556,-0.30708213,0.580058,0.55872828,-0.26156328,0.560794,0.53733247,-0.22245517,0.544141,0.52452301,-0.19701618,0.538787,0.58815754,-0.22570273,0.575657,0.60175837,-0.19067609,0.564852,0.60887919,-0.17276331,0.55945,0.63173967,-0.16033957,0.569123,0.61660231,-0.23772394,0.587318,0.65261738,-0.23067659,0.580756,0.68392562,-0.26757142,0.605472,0.6793136,-0.28926882,0.615604,0.63959224,-0.25095282,0.597026,0.66357198,-0.25479072,0.589848,0.67705511,-0.25701709,0.586175,0.69186657,-0.28018563,0.599575,0.66590741,-0.27287789,0.608477,0.67746254,-0.27346431,0.596741,0.68746162,-0.29713833,0.611316,0.6926527,-0.31697209,0.621098
0.60790117,-0.3277812,0.590625,0.61222867,-0.28532131,0.589218,0.58687519,-0.30661381,0.581909,0.5612066,-0.26100355,0.562654,0.53987032,-0.22191959,0.546245,0.52692947,-0.19640226,0.540739,0.58962367,-0.22474133,0.57691,0.60358628,-0.18923753,0.566664,0.61054128,-0.16886774,0.561541,0.63194708,-0.15823346,0.56945,0.61755316,-0.23620205,0.587878,0.65212584,-0.23081974,0.5806,0.68302552,-0.26837805,0.605659,0.67854546,-0.28971631,0.616157,0.64016179,-0.2489862,0.597062,0.66554335,-0.25338452,0.591175,0.67974002,-0.25601564,0.588163,0.6954666,-0.27965833,0.602194,0.66613697,-0.27041444,0.607986,0.67719187,-0.27098602,0.595995,0.68746011,-0.2946687,0.610789,0.6928663,-0.31450572,0.620745
0.60712848,-0.32252533,0.588358,0.61664755,-0.27561224,0.592513,0.58724421,-0.30200289,0.581026,0.56762623,-0.24948103,0.567963,0.54857081,-0.21100279,0.556054,0.53627845,-0.18736041,0.553186,0.59570429,-0.21804759,0.585786,0.614513,-0.1826987,0.582081,0.62421539,-0.16457488,0.580228,0.64657782,-0.15094565,0.590751,0.62317477,-0.23003115,0.596471,0.66497857,-0.22222405,0.59539,0.69766256,-0.25796567,0.62083,0.69148344,-0.27942543,0.629207,0.64506621,-0.24289857,0.604823,0.67843422,-0.24407814,0.604922,0.69704992,-0.24483569,0.604973,0.71667483,-0.2674703,0.620821,0.66964748,-0.26380283,0.613735,0.68739597,-0.26124045,0.606486,0.6994832,-0.28521496,0.621618,0.70439437,-0.30460993,0.630037
0.61461122,-0.3181173,0.593767,0.62245937,-0.26990423,0.597414,0.59556752,-0.29278257,0.586882,0.57337035,-0.24549847,0.574583,0.55253886,-0.20695379,0.561515,0.53877617,-0.18552094,0.556414,0.60170564,-0.21255879,0.590922,0.61976083,-0.17693205,0.586703,0.62911628,-0.15861926,0.584594,0.65277335,-0.14868383,0.596374,0.62926568,-0.22380002,0.600887,0.66876668,-0.2160762,0.598997,0.70095789,-0.25194489,0.624793,0.69580329,-0.27738343,0.633574,0.65122696,-0.23610954,0.6087,0.68289137,-0.23753932,0.608453,0.70057504,-0.23844423,0.608326,0.72016469,-0.26506447,0.62432,0.67589425,-0.25644868,0.617083,0.69187341,-0.25428565,0.609521,0.70410161,-0.27817921,0.624878,0.70913397,-0.29754608,0.633494
0.62211587,-0.31374265,0.600987,0.62942325,-0.27106449,0.605671,0.60233344,-0.29383376,0.595061,0.5875165,-0.24656905,0.589276,0.56897785,-0.20922606,0.580545,0.55729003,-0.18684868,0.579252,0.60844108,-0.21241526,0.601133,0.6257973,-0.17658877,0.597755,0.63484204,-0.15806433,0.596066,0.65744256,-0.14498542,0.604112,0.63631987,-0.22261471,0.610131,0.67419922,-0.21403212,0.609138,0.71076472,-0.24711105,0.635359,0.70734537,-0.27432578,0.643949,0.65838635,-0.23406382,0.617037,0.6883731,-0.23506368,0.617128,0.70518359,-0.23562244,0.617174,0.72864443,-0.25576066,0.6335,0.68289429,-0.25336603,0.624172,0.6973733,-0.25234612,0.617678,0.71416611,-0.27581283,0.633337,0.71990502,-0.29831705,0.641694
0.62372678,-0.31432522,0.603784,0.62943609,-0.27193429,0.607143,0.60505155,-0.29517783,0.599237,0.58878557,-0.24940317,0.592379,0.56967908,-0.21183392,0.583388,0.55771997,-0.18941174,0.581934,0.6090552,-0.21495243,0.603503,0.62487993,-0.1785667,0.598898,0.63311854,-0.15982114,0.596596,0.65460523,-0.14550845,0.607304,0.6349025,-0.22435939,0.610343,0.67030589,-0.21254911,0.607243,0.7087681,-0.24470827,0.634243,0.70792651,-0.26913589,0.64384,0.65644399,-0.23635911,0.615614,0.68586642,-0.23700937,0.614718,0.69646137,-0.23963606,0.614259,0.72146748,-0.26306911,0.630849,0.67891953,-0.25517246,0.621101,0.69351594,-0.25356833,0.614108,0.70949662,-0.27744407,0.630283,0.71641344,-0.29698835,0.639016
0.62216818,-0.31458471,0.604715,0.62770526,-0.27409408,0.608234,0.60219266,-0.29447944,0.598517,0.58704401,-0.24927463,0.591777,0.56868206,-0.21166487,0.583327,0.55758856,-0.18979098,0.582779,0.60751241,-0.21533464,0.602551,0.62194668,-0.17832483,0.597585,0.62724966,-0.16010189,0.595103,0.64888176,-0.14457326,0.604481,0.6335403,-0.22756459,0.611585,0.67237635,-0.21479041,0.60927,0.710784,-0.24877121,0.635479,0.70843428,-0.27287036,0.644544,0.6550719,-0.23970272,0.618645,0.68631966,-0.24098135,0.619081,0.70130095,-0.24873567,0.619305,0.71937098,-0.26858461,0.635778,0.67551339,-0.26229481,0.626179,0.69319407,-0.25741231,0.618679,0.70231322,-0.28243776,0.634309,0.70539387,-0.30114355,0.643009
0.62168746,-0.31503901,0.605876,0.6269673,-0.2745476,0.608923,0.60200532,-0.29485259,0.59974,0.58710412,-0.24960543,0.592414,0.56902633,-0.21189381,0.58416,0.55815945,-0.19019693,0.583866,0.60767347,-0.21585652,0.603,0.6209713,-0.17834335,0.597397,0.6260478,-0.15965801,0.594595,0.64727054,-0.14438243,0.604221,0.63345116,-0.22801494,0.611826,0.67189901,-0.21542845,0.608913,0.71043718,-0.24919912,0.635203,0.70850192,-0.27317508,0.644509,0.65452534,-0.24032853,0.618765,0.68561738,-0.24158527,0.618619,0.70043919,-0.24843002,0.618544,0.71770204,-0.26963769,0.634914,0.67558567,-0.26232288,0.626246,0.69216291,-0.25791121,0.618385,0.70203863,-0.28232734,0.634061,0.70528087,-0.30109531,0.642906
0.62138485,-0.31538417,0.606745,0.62662152,-0.27486187,0.60943,0.60190559,-0.29513597,0.600648,0.58721281,-0.24983507,0.59287,0.56926704,-0.21204393,0.584695,0.55852938,-0.19044991,0.584547,0.6078117,-0.21618497,0.603311,0.6203461,-0.17834266,0.597245,0.62531203,-0.15940189,0.594212,0.64627676,-0.14426154,0.604037,0.63344841,-0.22825534,0.611987,0.67152355,-0.21578172,0.608618,0.71014855,-0.24937216,0.634962,0.7085077,-0.2733628,0.64445,0.65427006,-0.24064799,0.618842,0.68511904,-0.24183429,0.618255,0.69977221,-0.24819346,0.617955,0.71659806,-0.27005867,0.634242,0.67563745,-0.26234298,0.626294,0.69155416,-0.2581249,0.618154,0.70181608,-0.28223784,0.63386,0.70518105,-0.30105269,0.642815
0.62044453,-0.31936908,0.60589,0.62490278,-0.27480748,0.608077,0.60036771,-0.29495655,0.599739,0.58599886,-0.25060081,0.592313,0.56822155,-0.2129338,0.584638,0.55810461,-0.19082952,0.58421,0.60701634,-0.21673987,0.60155,0.61819187,-0.17805742,0.594937,0.62424192,-0.158715,0.59163,0.64420769,-0.1441516,0.602049,0.63314423,-0.22804247,0.610159,0.67101021,-0.21797801,0.606206,0.70823713,-0.2558036,0.632563,0.70545345,-0.27588642,0.642267,0.6535391,-0.24106136,0.617013,0.68454194,-0.2426173,0.615898,0.69859448,-0.25328629,0.615327,0.71220976,-0.27267009,0.631484,0.67420511,-0.26235034,0.624558,0.6886444,-0.25921842,0.616007,0.69988524,-0.28237099,0.631714,0.7033278,-0.30120334,0.640814
0.62050148,-0.31754758,0.606485,0.62519655,-0.2751562,0.608402,0.60095306,-0.29545183,0.600588,0.58730576,-0.25048692,0.592694,0.5693697,-0.21278534,0.584862,0.55870778,-0.1912415,0.584781,0.60743819,-0.21710616,0.602023,0.61819285,-0.17827726,0.595296,0.62415646,-0.15890545,0.591932,0.64544236,-0.14483794,0.601309,0.63317529,-0.22828496,0.610227,0.67044931,-0.21727259,0.605854,0.70721946,-0.25191608,0.632358,0.70514027,-0.27359135,0.642259,0.65356809,-0.24058043,0.616777,0.68350699,-0.24274585,0.615176,0.6955947,-0.25300828,0.614357,0.71044187,-0.27332321,0.630474,0.67568851,-0.26172681,0.624019,0.68800695,-0.25924249,0.615322,0.69927941,-0.28244023,0.631124,0.70286015,-0.30132172,0.640312
0.62046867,-0.31608134,0.607114,0.62560423,-0.27543762,0.608704,0.60139091,-0.29579783,0.601167,0.58680636,-0.25047856,0.591486,0.56899989,-0.21273834,0.584173,0.55853009,-0.19125961,0.584308,0.60760797,-0.21723126,0.602038,0.61793522,-0.17827237,0.595077,0.62377603,-0.15887617,0.591597,0.6468555,-0.14589138,0.599842,0.63333434,-0.22841993,0.610219,0.67010936,-0.21803876,0.60547,0.70678497,-0.2519765,0.63197,0.70455659,-0.27465946,0.642006,0.65374898,-0.24073687,0.616784,0.68319003,-0.24296624,0.614849,0.69437183,-0.25355162,0.613859,0.70707218,-0.27813823,0.629887,0.67606976,-0.26185583,0.624106,0.68810993,-0.25943358,0.615138,0.69929208,-0.28263746,0.630932,0.70297125,-0.30156921,0.640212
0.62080525,-0.31615602,0.60798,0.6256549,-0.27580294,0.608394,0.6005409,-0.29527888,0.600836,0.58317908,-0.25037231,0.586055,0.56400588,-0.21191594,0.574266,0.55351398,-0.18961514,0.576556,0.6066205,-0.21778786,0.599371,0.61746067,-0.18109995,0.591548,0.62549794,-0.16419944,0.587637,0.64476617,-0.14656122,0.599131,0.63343296,-0.2294696,0.608789,0.6676711,-0.21646162,0.60307,0.70479646,-0.24692949,0.629011,0.70287764,-0.27192713,0.639222,0.65381767,-0.2430403,0.6165,0.68268704,-0.24530364,0.614088,0.69308313,-0.25424794,0.612854,0.70553633,-0.27869917,0.628427,0.67660245,-0.26329835,0.625373,0.68855992,-0.25985851,0.615172,0.6992985,-0.28290046,0.630573,0.70336381,-0.30197518,0.640135
0.62087609,-0.31669552,0.60828,0.62573626,-0.27646793,0.608852,0.60045351,-0.29579696,0.601003,0.58263346,-0.25276656,0.58279,0.56091082,-0.21351932,0.569381,0.54895124,-0.19074159,0.56769,0.60607488,-0.21892834,0.599761,0.6224473,-0.18451562,0.593601,0.63064867,-0.16613892,0.590521,0.65687601,-0.15368669,0.604936,0.63202561,-0.22955065,0.609397,0.66910407,-0.21884683,0.60392,0.70453115,-0.25339601,0.629774,0.70348088,-0.27427657,0.63987,0.65358967,-0.24244022,0.61727,0.6831676,-0.24298213,0.615133,0.69470779,-0.25428028,0.61404,0.70886327,-0.27553251,0.629633,0.67804267,-0.26369315,0.626301,0.69037717,-0.25957305,0.616192,0.70086,-0.28326973,0.631538,0.70638436,-0.3018643,0.641046
0.61993116,-0.31798337,0.607211,0.63040955,-0.28766691,0.607371,0.60240751,-0.29878434,0.600757,0.58520595,-0.2600321,0.58301,0.56437751,-0.21921963,0.572764,0.55279374,-0.19627433,0.571474,0.60815647,-0.22891707,0.599074,0.62233982,-0.19205347,0.590808,0.6295773,-0.17340391,0.586675,0.65298227,-0.15701172,0.598463,0.63350833,-0.2403445,0.607523,0.66892863,-0.23231726,0.601237,0.70683275,-0.2663692,0.627561,0.70492602,-0.29017119,0.638097,0.6539976,-0.25287471,0.614464,0.68407943,-0.25199564,0.61127,0.69264393,-0.26278676,0.609637,0.70549632,-0.28400492,0.625232,0.6776461,-0.27363881,0.622489,0.69062658,-0.26931792,0.612438,0.70241192,-0.29285122,0.628105,0.70759228,-0.31229919,0.637717
0.61976009,-0.32316858,0.600349,0.62796175,-0.29417974,0.603034,0.60172324,-0.30883374,0.593753,0.58216521,-0.2662848,0.577853,0.55982685,-0.22801288,0.566525,0.54996471,-0.20641278,0.567298,0.61012881,-0.23570375,0.596267,0.62611141,-0.19935442,0.590942,0.6341683,-0.1810759,0.58828,0.65492012,-0.16439667,0.599049,0.63530912,-0.24776172,0.605592,0.67674722,-0.23675084,0.602413,0.7199342,-0.2677498,0.628487,0.72168702,-0.29289709,0.637821,0.65525367,-0.26071537,0.612981,0.68941699,-0.26315548,0.612752,0.6961408,-0.27734722,0.612635,0.70713238,-0.30250511,0.628855,0.67748305,-0.28177385,0.621054,0.69517634,-0.27804252,0.613069,0.70746553,-0.30141754,0.628611,0.71212364,-0.32041058,0.637447
0.61924328,-0.33307187,0.598273,0.62787738,-0.30281595,0.601765,0.60065334,-0.31638549,0.59101,0.58664188,-0.27487819,0.576437,0.56702326,-0.2355844,0.564372,0.55750992,-0.21276729,0.564021,0.60994725,-0.24426519,0.594676,0.62724508,-0.20849358,0.590545,0.63598901,-0.19045847,0.58848,0.66220307,-0.17889343,0.603189,0.63589814,-0.25667183,0.605091,0.67925154,-0.24694422,0.603165,0.72226064,-0.27860601,0.628742,0.72337064,-0.30361194,0.637467,0.65642517,-0.26990211,0.613291,0.69267932,-0.27367421,0.614476,0.70049224,-0.28854796,0.615082,0.71169035,-0.31414876,0.631376,0.67919958,-0.29125198,0.622153,0.69768607,-0.28818686,0.614381,0.70770237,-0.31165644,0.629591,0.70941055,-0.33018375,0.638224
0.61881824,-0.33429944,0.597223,0.62898751,-0.30178711,0.601057,0.60054348,-0.31322843,0.59058,0.58545675,-0.27089701,0.578008,0.57126542,-0.23118569,0.568343,0.56143654,-0.21122509,0.567434,0.61769366,-0.24211561,0.595008,0.62872938,-0.20634164,0.589242,0.63617265,-0.1877632,0.586359,0.65784561,-0.17269502,0.598407,0.63855642,-0.25624799,0.604708,0.68440777,-0.25759117,0.602952,0.72439975,-0.29193466,0.628871,0.72326649,-0.31619827,0.637642,0.65780078,-0.26987441,0.612284,0.69685863,-0.27618167,0.613404,0.69933901,-0.2907342,0.613977,0.71252152,-0.31628966,0.630457,0.67881838,-0.29155695,0.620355,0.69920878,-0.29055205,0.614238,0.71150957,-0.31676551,0.629747,0.71129647,-0.33269331,0.637913
0.62198157,-0.34030364,0.598337,0.63364837,-0.30391657,0.601754,0.60365596,-0.31888898,0.591125,0.5902697,-0.27832992,0.58031,0.57728509,-0.24064488,0.569342,0.57101673,-0.21701786,0.569253,0.61995505,-0.24765041,0.59468,0.63414827,-0.21047387,0.588666,0.64139527,-0.1916329,0.58566,0.66018918,-0.17613634,0.597424,0.64380947,-0.25809965,0.605008,0.68664922,-0.26391411,0.602968,0.72830275,-0.2983233,0.628588,0.72920995,-0.32357093,0.637368,0.66353194,-0.27201006,0.613145,0.69948334,-0.27849215,0.614205,0.69972477,-0.29645209,0.614747,0.71274951,-0.32201849,0.631034,0.68799266,-0.29474842,0.621947,0.70288638,-0.29428423,0.614197,0.71263313,-0.31781275,0.629437,0.7144272,-0.33635697,0.638075
0.62317251,-0.34145047,0.598606,0.63441959,-0.30449863,0.601566,0.60459713,-0.31989297,0.59105,0.59009547,-0.27856042,0.580069,0.57722015,-0.24017372,0.568888,0.57032459,-0.21619454,0.568034,0.61996022,-0.24692115,0.593734,0.63287074,-0.20936228,0.586686,0.63947654,-0.190328,0.583163,0.65917925,-0.17512999,0.593273,0.64592161,-0.25956882,0.604385,0.68646621,-0.26363069,0.601927,0.72763934,-0.298185,0.62738,0.7284238,-0.32339327,0.636258,0.66635011,-0.27303842,0.612837,0.70138309,-0.28037599,0.613629,0.69716966,-0.29909436,0.614034,0.7085249,-0.32234466,0.630153,0.68877386,-0.29473388,0.622091,0.70356363,-0.29467689,0.613825,0.71336476,-0.31814188,0.628944,0.7156433,-0.33684693,0.637716
0.62551068,-0.34599785,0.59962,0.63584362,-0.30827847,0.601112,0.60771601,-0.32456566,0.592449,0.5880095,-0.2863716,0.579726,0.57367714,-0.24678209,0.567552,0.568557,-0.21810263,0.566904,0.6231379,-0.25339827,0.592785,0.63193505,-0.21408314,0.583519,0.63637761,-0.19434168,0.578886,0.6543242,-0.17697588,0.587043,0.64777845,-0.26616159,0.602533,0.68579815,-0.26343371,0.598128,0.73267174,-0.29808932,0.623976,0.72912868,-0.32273026,0.633683,0.66707476,-0.27975876,0.610399,0.69947845,-0.2883389,0.609228,0.69057606,-0.30642431,0.608629,0.69653898,-0.33072852,0.624472,0.68810392,-0.3016719,0.61925,0.70358732,-0.30393928,0.610561,0.71449592,-0.3275639,0.625959,0.71861003,-0.34668371,0.634988
0.62518874,-0.34520261,0.599841,0.63602951,-0.30903229,0.60085,0.60766781,-0.32529131,0.592008,0.58975372,-0.28272753,0.58033,0.57545658,-0.24411631,0.568046,0.56832767,-0.21857778,0.566341,0.62281803,-0.25203124,0.591333,0.63199565,-0.2129393,0.582048,0.63787235,-0.19398728,0.577405,0.661964,-0.18235351,0.583947,0.64816621,-0.26520232,0.601811,0.68843662,-0.26414869,0.597088,0.7319294,-0.29749614,0.622566,0.73175239,-0.32280943,0.632271,0.66808521,-0.27917156,0.610331,0.70029555,-0.28812397,0.6091,0.68980495,-0.30589579,0.60847,0.69426605,-0.32624243,0.624076,0.6898782,-0.30158959,0.620031,0.7040704,-0.30366556,0.610294,0.71394962,-0.32702397,0.625408,0.71743632,-0.34607477,0.634695
