sluyters/QuantumLeap/backend/src/datasets/dynamic/HandGestureDataset_SHREC2017_csv/Gesture10/finger_2/subject_10_essai_1_skeletons_world.csv
Wrist_x,Wrist_y,Wrist_z,Palm_x,Palm_y,Palm_z,thumb_base_x,thumb_base_y,thumb_base_z,thumb_first_joint_x,thumb_first_joint_y,thumb_first_joint_z,thumb_second_joint_x,thumb_second_joint_y,thumb_second_joint_z,thumb_tip_x,thumb_tip_y,thumb_tip_z,index_base_x,index_base_y,index_base_z,index_first_joint_x,index_first_joint_y,index_first_joint_z,index_second_joint_x,index_second_joint_y,index_second_joint_z,index_tip_x,index_tip_y,index_tip_z,middle_base_x,middle_base_y,middle_base_z,middle_first_joint_x,middle_first_joint_y,middle_first_joint_z,middle_second_joint_x,middle_second_joint_y,middle_second_joint_z,middle_tip_x,middle_tip_y,middle_tip_z,ring_base_x,ring_base_y,ring_base_z,ring_first_joint_x,ring_first_joint_y,ring_first_joint_z,ring_second_joint_x,ring_second_joint_y,ring_second_joint_z,ring_tip_x,ring_tip_y,ring_tip_z,pinky_base_x,pinky_base_y,pinky_base_z,pinky_first_joint_x,pinky_first_joint_y,pinky_first_joint_z,pinky_second_joint_x,pinky_second_joint_y,pinky_second_joint_z,pinky_tip_x,pinky_tip_y,pinky_tip_z,
0.47925152,-0.40609439,0.532592,0.47166908,-0.35664943,0.519283,0.45887033,-0.3898677,0.532039,0.42952418,-0.36296582,0.519762,0.38901951,-0.33205966,0.499665,0.37404473,-0.3115037,0.496056,0.434675,-0.29721347,0.507498,0.42898919,-0.25106475,0.494038,0.42229318,-0.23560582,0.487308,0.41618201,-0.22121296,0.48119,0.45724918,-0.29543698,0.503152,0.43975407,-0.24732305,0.484041,0.42874337,-0.22162685,0.472892,0.41920279,-0.21217715,0.464929,0.47532278,-0.29918929,0.500522,0.46114436,-0.2519275,0.484228,0.45309932,-0.2303389,0.475891,0.44430097,-0.21968675,0.468313,0.49896214,-0.3104234,0.499222,0.48249891,-0.26734323,0.48333,0.47377677,-0.25948105,0.476028,0.47929524,-0.25962772,0.482935
0.48365788,-0.40038922,0.532537,0.47333473,-0.35043872,0.521103,0.46355914,-0.38537155,0.532837,0.43092052,-0.35460448,0.521913,0.39284129,-0.32470997,0.503752,0.37714633,-0.30377527,0.497868,0.43922967,-0.29007566,0.511917,0.42638262,-0.24748335,0.497863,0.41915141,-0.22791314,0.490836,0.412361,-0.21048415,0.484448,0.45965199,-0.29001998,0.507244,0.44121905,-0.24259679,0.490123,0.42978934,-0.2170137,0.480136,0.42160925,-0.19860073,0.473003,0.47738068,-0.29330146,0.504212,0.46068779,-0.24801307,0.487823,0.4521495,-0.22490917,0.479438,0.44302868,-0.21275428,0.471815,0.50032879,-0.30378895,0.50217,0.48555505,-0.26199261,0.487679,0.47785287,-0.25132258,0.481021,0.48420427,-0.24938316,0.488468
0.48394503,-0.39236152,0.532515,0.47364981,-0.33673926,0.521682,0.46436969,-0.37393604,0.533818,0.43322203,-0.34573303,0.524406,0.399575,-0.31921974,0.511897,0.38549284,-0.29919126,0.50821,0.44183483,-0.28116737,0.514214,0.4268603,-0.23953574,0.498551,0.41856025,-0.22075048,0.490719,0.41166373,-0.20735414,0.484124,0.46145589,-0.28068269,0.508551,0.4440131,-0.23355611,0.492245,0.43314538,-0.20800348,0.482734,0.42536369,-0.18958032,0.47594,0.47839324,-0.28358265,0.504661,0.46235334,-0.23846347,0.488697,0.45414847,-0.21542072,0.48053,0.44528099,-0.20311426,0.473105,0.50017898,-0.29353672,0.501508,0.48962362,-0.25405248,0.491027,0.48380862,-0.24410044,0.486212,0.49149484,-0.24229025,0.49494
0.48467328,-0.38494245,0.534455,0.47270058,-0.32720095,0.521133,0.46303654,-0.36380964,0.533259,0.42914355,-0.32989957,0.520054,0.395696,-0.29967653,0.506027,0.38070608,-0.27712288,0.498209,0.43896029,-0.26734651,0.508556,0.42097028,-0.22855296,0.491217,0.41194961,-0.208908,0.482547,0.40373369,-0.19089233,0.474666,0.46010365,-0.26881768,0.504984,0.4394243,-0.22315337,0.485906,0.42698305,-0.19762084,0.474777,0.41756102,-0.18293747,0.466828,0.47848471,-0.27347369,0.502992,0.45980521,-0.22932089,0.484992,0.45024594,-0.2066742,0.475783,0.44148127,-0.18629173,0.467411,0.50231384,-0.28588264,0.502459,0.48608409,-0.24363949,0.486372,0.47761557,-0.23261125,0.47898,0.48299302,-0.23374408,0.4859
0.47989024,-0.36688907,0.528456,0.47024556,-0.31345922,0.516942,0.45923274,-0.35163351,0.528282,0.42692758,-0.31643288,0.521684,0.39584398,-0.28861782,0.512494,0.38267565,-0.26739842,0.509317,0.43463328,-0.25661089,0.507116,0.4231192,-0.2144309,0.490134,0.41736726,-0.19328467,0.481643,0.41214145,-0.17402591,0.473924,0.45581803,-0.2556251,0.502987,0.43830161,-0.21001673,0.48534,0.42807666,-0.18324048,0.475046,0.42076947,-0.16403054,0.467693,0.47418976,-0.25818354,0.500407,0.46165323,-0.21244942,0.485081,0.45522471,-0.18925856,0.47724,0.44873887,-0.17512198,0.470111,0.49804819,-0.26790119,0.498918,0.48574868,-0.22662034,0.484073,0.47957197,-0.22065673,0.477252,0.48772339,-0.22148107,0.484732
0.48107787,-0.35549734,0.527948,0.46980878,-0.30134389,0.516117,0.45878548,-0.33990203,0.526472,0.42449595,-0.30344744,0.518521,0.39492318,-0.27712116,0.511544,0.38375751,-0.25728038,0.511101,0.4346251,-0.24320624,0.504445,0.42134328,-0.20429736,0.487217,0.4147192,-0.1845306,0.478604,0.40905775,-0.16965106,0.470773,0.45691212,-0.24378263,0.501777,0.43885767,-0.19918305,0.483446,0.42829478,-0.17298344,0.472752,0.4207444,-0.15411682,0.465114,0.47621943,-0.24763461,0.500422,0.46373193,-0.20315551,0.486753,0.45734286,-0.18036973,0.479759,0.45153499,-0.15963754,0.473401,0.50115333,-0.25894572,0.500444,0.48790137,-0.2178807,0.485767,0.4816918,-0.20376258,0.479024,0.48996636,-0.19664291,0.486728
0.48000786,-0.34368026,0.529035,0.467462,-0.28935393,0.515463,0.45561139,-0.32664359,0.524606,0.41986532,-0.29006959,0.515996,0.39245852,-0.26489556,0.512192,0.38345337,-0.24664784,0.514259,0.42893635,-0.23013269,0.498754,0.41625733,-0.18857649,0.480449,0.40992945,-0.16766795,0.471296,0.40418519,-0.14857852,0.462976,0.45396692,-0.23170193,0.499012,0.43497503,-0.18557498,0.478984,0.42389516,-0.15856438,0.467302,0.41597923,-0.1392197,0.458957,0.47545274,-0.23637069,0.500188,0.46184786,-0.19105305,0.485234,0.4548854,-0.16797332,0.477583,0.44932406,-0.15443579,0.470628,0.50288944,-0.24861666,0.503483,0.48721255,-0.20704897,0.486882,0.48222231,-0.19389996,0.479254,0.49182331,-0.18743462,0.486323
0.47995309,-0.34173301,0.531012,0.46751164,-0.28853283,0.516769,0.45402885,-0.31972284,0.526185,0.4214212,-0.2861673,0.520434,0.39290686,-0.25830883,0.512115,0.38167412,-0.24127774,0.510884,0.42921609,-0.22819821,0.499018,0.41604414,-0.187627,0.48016,0.40947554,-0.16714963,0.47073,0.40351631,-0.14841271,0.462158,0.45438151,-0.23044513,0.499506,0.43521115,-0.18424295,0.478858,0.42402729,-0.15721277,0.466813,0.41603894,-0.13786675,0.45821,0.47599878,-0.23569989,0.500918,0.46192595,-0.19014812,0.485339,0.45472279,-0.16698647,0.477368,0.44922443,-0.14920283,0.470122,0.5036156,-0.24871991,0.504591,0.48785028,-0.2068707,0.487401,0.48251178,-0.19347492,0.479502,0.49181324,-0.18689277,0.486335
0.47751514,-0.32997135,0.528346,0.46612596,-0.27094851,0.511685,0.45161114,-0.30916151,0.521957,0.42041962,-0.27531751,0.517195,0.38724545,-0.24982221,0.507382,0.37797712,-0.23354161,0.507894,0.42238155,-0.2113389,0.490019,0.40826409,-0.16989589,0.469277,0.40121794,-0.1490657,0.458906,0.39482049,-0.13006007,0.449478,0.44843019,-0.21254766,0.49149,0.42722292,-0.16656611,0.468527,0.41485149,-0.13966329,0.455132,0.40601436,-0.12040682,0.445564,0.47101858,-0.21696043,0.493884,0.45352103,-0.17050127,0.474579,0.44456335,-0.14699699,0.464703,0.43940096,-0.13673359,0.455724,0.50028249,-0.22898619,0.499067,0.48253463,-0.18699586,0.480312,0.47722351,-0.17417097,0.471695,0.48661312,-0.16751505,0.477857
0.47856996,-0.32785715,0.52905,0.46608688,-0.27156006,0.512131,0.45237536,-0.31046996,0.522172,0.41954753,-0.275652,0.516602,0.38754136,-0.25064397,0.508479,0.37781321,-0.23347022,0.509033,0.42213303,-0.21176835,0.489655,0.40765034,-0.17049349,0.468717,0.40042076,-0.14974156,0.458247,0.39385748,-0.13080384,0.44873,0.44849808,-0.21318049,0.491623,0.42723085,-0.16764381,0.468368,0.4148252,-0.14096081,0.454803,0.40596325,-0.12184102,0.445113,0.47133511,-0.21775874,0.494443,0.45461018,-0.17177301,0.475507,0.44604831,-0.14841794,0.46582,0.43967601,-0.13959722,0.457012,0.50087852,-0.22997879,0.500173,0.48288794,-0.18810158,0.481152,0.47746329,-0.17479541,0.472412,0.48671359,-0.16771527,0.478446
0.47956482,-0.31757876,0.52829,0.4654944,-0.26992253,0.511642,0.45378263,-0.30174802,0.521907,0.41897059,-0.2739865,0.515651,0.38708421,-0.24916106,0.50747,0.37550543,-0.23027761,0.507777,0.42252275,-0.211171,0.489996,0.40786251,-0.17047708,0.469216,0.40055767,-0.1499635,0.458835,0.39395197,-0.13121377,0.449425,0.44843724,-0.21228096,0.491464,0.42783855,-0.16754564,0.468511,0.41587354,-0.1412437,0.455175,0.4073563,-0.12234933,0.44568,0.47081733,-0.21657158,0.493854,0.45433118,-0.17146846,0.47453,0.44788505,-0.14924737,0.464643,0.44172049,-0.13451537,0.456979,0.49966499,-0.22834695,0.499031,0.48542473,-0.18859258,0.482981,0.48119057,-0.17491455,0.475607,0.49154917,-0.16742251,0.482888
0.48430758,-0.31876149,0.534404,0.46694512,-0.26945262,0.513351,0.45704166,-0.30210665,0.526209,0.41867815,-0.27022071,0.515514,0.38669346,-0.2452806,0.507247,0.37503605,-0.22855722,0.507262,0.41963357,-0.20892105,0.485826,0.40302035,-0.16688714,0.461505,0.39431741,-0.14640321,0.449345,0.38792014,-0.12853664,0.440993,0.44586973,-0.21032145,0.487832,0.42349234,-0.1644155,0.460934,0.40995417,-0.13825387,0.445243,0.39909292,-0.11984894,0.434237,0.46877809,-0.21492321,0.490977,0.44790606,-0.16969392,0.465241,0.43794307,-0.14933048,0.452074,0.42715347,-0.12758846,0.440103,0.49879743,-0.22723388,0.497672,0.47997941,-0.18499339,0.475566,0.47206822,-0.1703567,0.465409,0.47910729,-0.16267808,0.470002
0.48536343,-0.31695625,0.536727,0.46595078,-0.2648305,0.513035,0.45678912,-0.29827466,0.526939,0.41821686,-0.26646315,0.51609,0.38595972,-0.24130741,0.507188,0.37331581,-0.22069734,0.504851,0.41819484,-0.20621036,0.481373,0.40023864,-0.16427574,0.454992,0.39135071,-0.14364525,0.441801,0.38378497,-0.12624704,0.433258,0.444151,-0.20785857,0.484318,0.42032104,-0.16306647,0.455025,0.40580597,-0.13685089,0.437937,0.39548476,-0.1184168,0.427471,0.46684337,-0.21361961,0.488423,0.44511644,-0.16966877,0.460376,0.43306261,-0.14762536,0.446026,0.42212349,-0.12762529,0.432981,0.49802198,-0.22627638,0.496633,0.47997052,-0.18528152,0.47437,0.47390825,-0.1705898,0.464141,0.46657774,-0.15660209,0.455115
0.48648483,-0.31106184,0.539214,0.46487563,-0.26304112,0.511271,0.45739703,-0.29467541,0.527984,0.41933717,-0.2641785,0.517171,0.38416881,-0.24142759,0.504316,0.37197246,-0.2231201,0.503113,0.41306063,-0.20485421,0.474308,0.39511957,-0.16469621,0.444854,0.38599713,-0.1442368,0.430398,0.38051269,-0.12526324,0.422942,0.44012184,-0.20614581,0.4774,0.41261612,-0.16136631,0.44456,0.39814467,-0.13679153,0.425403,0.38856433,-0.11799969,0.41543,0.4638956,-0.21039924,0.481928,0.43920965,-0.16655074,0.452253,0.42712656,-0.14564735,0.43707,0.41616642,-0.12665548,0.423268,0.494776,-0.22211497,0.491236,0.47709294,-0.18293117,0.467483,0.46977545,-0.16735123,0.456569,0.46149735,-0.15398169,0.446939
0.48774756,-0.31628521,0.54038,0.46355316,-0.26795475,0.510076,0.45871615,-0.29947503,0.529547,0.41768221,-0.2722878,0.515251,0.38525544,-0.24719983,0.506369,0.370448,-0.22419605,0.501899,0.41116087,-0.21284413,0.471624,0.39165151,-0.16517177,0.440615,0.38396023,-0.15785668,0.42511,0.37457851,-0.16280538,0.411015,0.43694256,-0.21439821,0.473343,0.41102051,-0.17054477,0.44098,0.39589338,-0.14500312,0.422101,0.38528073,-0.12686217,0.408816,0.45953759,-0.21886084,0.47691,0.43510208,-0.17437008,0.446984,0.42361491,-0.15466442,0.431673,0.41320473,-0.13670435,0.417754,0.48938004,-0.23042377,0.485395,0.47389206,-0.19346221,0.461741,0.46677336,-0.176488,0.450873,0.46049109,-0.16151557,0.441284
0.48938487,-0.3173677,0.542485,0.46423922,-0.26887958,0.510703,0.46018715,-0.30064355,0.531402,0.41655874,-0.27153597,0.513365,0.38311814,-0.24537092,0.497948,0.36415334,-0.22134584,0.491014,0.41092002,-0.21455312,0.470713,0.39047356,-0.1688584,0.438636,0.3815102,-0.16521856,0.422598,0.3701284,-0.17314821,0.408017,0.43655951,-0.21592918,0.472179,0.4092082,-0.17227448,0.438761,0.39325138,-0.1497673,0.419267,0.38358591,-0.12940413,0.407195,0.45917434,-0.2202504,0.475642,0.43374357,-0.17598533,0.445037,0.42200133,-0.15914914,0.429379,0.41074345,-0.13872172,0.415144,0.48931478,-0.23166128,0.484209,0.47313432,-0.19494697,0.460119,0.46569891,-0.17808315,0.449051,0.45913723,-0.16320601,0.439285
0.48808706,-0.31675135,0.541093,0.46141398,-0.26979788,0.507046,0.45745413,-0.30150325,0.52856,0.41468264,-0.2719601,0.508257,0.3796579,-0.24505935,0.493572,0.3637728,-0.22168661,0.485478,0.4076968,-0.21960748,0.463405,0.38594035,-0.17445198,0.429943,0.37666667,-0.16903747,0.413212,0.36510976,-0.17699688,0.398002,0.43414555,-0.22070895,0.465777,0.40513183,-0.17829856,0.430332,0.38868499,-0.15383158,0.410173,0.37704026,-0.13642843,0.395877,0.45615306,-0.22218333,0.470145,0.43004404,-0.18115153,0.437127,0.4169676,-0.16229521,0.420235,0.40510466,-0.14514974,0.404878,0.48768094,-0.2335786,0.480111,0.46932062,-0.19875168,0.452241,0.46121502,-0.18225698,0.440392,0.45596063,-0.16631579,0.433648
0.48630565,-0.31605651,0.538698,0.46127962,-0.27999254,0.501861,0.45662911,-0.30207795,0.526542,0.41253863,-0.2796551,0.502934,0.37624271,-0.25404938,0.487933,0.35937587,-0.23091954,0.479104,0.40140188,-0.22880019,0.45635,0.38005935,-0.18513379,0.421626,0.37056841,-0.17533918,0.404265,0.36122724,-0.17397484,0.388482,0.42675667,-0.22871384,0.457212,0.39458831,-0.18882995,0.420161,0.37621036,-0.16579428,0.398965,0.36308541,-0.14936782,0.383825,0.44960037,-0.23163979,0.460537,0.41947111,-0.19030656,0.426207,0.4048916,-0.17284908,0.408643,0.39165877,-0.15698605,0.392675,0.48091238,-0.24100942,0.469641,0.46001737,-0.20653382,0.441593,0.45041295,-0.19070373,0.428706,0.4420546,-0.17678929,0.417447
0.48426325,-0.31798698,0.536066,0.45913689,-0.2866638,0.497998,0.45608703,-0.30567537,0.52395,0.41184732,-0.28161788,0.501489,0.37585787,-0.25551506,0.486345,0.35881777,-0.23178176,0.476632,0.39946004,-0.23442329,0.451503,0.37743464,-0.19255496,0.415803,0.36663793,-0.18387489,0.397952,0.35558444,-0.18394373,0.381725,0.42441027,-0.2354366,0.451854,0.39223561,-0.19732237,0.413803,0.37370931,-0.17524221,0.391868,0.36047433,-0.15947974,0.3762,0.44692164,-0.23925862,0.454846,0.42068734,-0.20087486,0.419864,0.40733625,-0.18129341,0.402045,0.39520802,-0.16350826,0.385859,0.47786048,-0.24968897,0.463722,0.45974356,-0.21345908,0.437796,0.45157474,-0.19690161,0.426037,0.44386646,-0.17980972,0.41717
0.48181599,-0.32340738,0.530983,0.45403529,-0.29312452,0.492477,0.45202382,-0.31188792,0.517942,0.40436581,-0.28864765,0.492437,0.36813241,-0.26101206,0.474883,0.35113685,-0.23636661,0.463595,0.39690279,-0.24057302,0.444496,0.37573189,-0.20027432,0.408373,0.36517029,-0.19183528,0.390311,0.35407245,-0.19211053,0.373891,0.42235142,-0.24284367,0.445803,0.39241933,-0.20572814,0.407037,0.37515787,-0.18420716,0.384639,0.36282528,-0.16884434,0.36864,0.44507023,-0.24764158,0.449612,0.41907743,-0.20954432,0.41362,0.40597535,-0.19164364,0.395205,0.39417792,-0.17625382,0.378464,0.47588475,-0.25912739,0.459529,0.4567427,-0.22309933,0.433528,0.44794314,-0.20655976,0.421582,0.44031576,-0.19203498,0.411172
0.47879208,-0.33356469,0.528993,0.45171809,-0.30141516,0.490834,0.44809771,-0.32294839,0.515494,0.39997599,-0.29885112,0.492474,0.36121295,-0.27571517,0.47486,0.341486,-0.25285519,0.462956,0.39532456,-0.24897826,0.442586,0.37432464,-0.21029985,0.406279,0.36346003,-0.20397104,0.388125,0.35186069,-0.20544482,0.371621,0.42125443,-0.25180301,0.44458,0.39215317,-0.2149062,0.405997,0.37523423,-0.19343386,0.383557,0.36314533,-0.17810333,0.367528,0.44432716,-0.25702195,0.448929,0.41844664,-0.21895639,0.412947,0.40540502,-0.20114967,0.394538,0.39365611,-0.18582831,0.377802,0.47544921,-0.26894689,0.459445,0.45637666,-0.23299423,0.433271,0.44760795,-0.21648957,0.421245,0.43989355,-0.20194685,0.410658
0.4834559,-0.34539208,0.53389,0.45821437,-0.31380197,0.495447,0.45352116,-0.33575207,0.519834,0.40783424,-0.31463004,0.494835,0.36907763,-0.29151319,0.476486,0.34795617,-0.27026172,0.463442,0.39752925,-0.26529343,0.446288,0.37603322,-0.23441916,0.41024,0.36527772,-0.21901345,0.392216,0.35566989,-0.20639241,0.375831,0.42397186,-0.26542589,0.44885,0.39690851,-0.22812508,0.410604,0.38113165,-0.20639699,0.388316,0.36985653,-0.19088647,0.372396,0.44774497,-0.26836383,0.453687,0.4233477,-0.22993625,0.418459,0.41107274,-0.21112406,0.400435,0.40015041,-0.19191117,0.38405,0.48019154,-0.27742712,0.464826,0.45997597,-0.24213654,0.437535,0.45088014,-0.22603887,0.425184,0.44416933,-0.20820383,0.415085
0.48648601,-0.35603337,0.537573,0.45755591,-0.32630041,0.497966,0.45656741,-0.34745587,0.522985,0.41055978,-0.31933059,0.498992,0.37180873,-0.2941081,0.479309,0.35044765,-0.27148162,0.464524,0.39750815,-0.28047945,0.447188,0.37605711,-0.24940839,0.41131,0.36535054,-0.23406288,0.393371,0.3556167,-0.22013394,0.377063,0.42405448,-0.28108226,0.449957,0.3971646,-0.24386409,0.411765,0.38146882,-0.22216549,0.389485,0.3702541,-0.20667415,0.373572,0.4478504,-0.28422469,0.455047,0.42361826,-0.24644344,0.419574,0.41130702,-0.2275327,0.401425,0.40031293,-0.21116616,0.384926,0.48021232,-0.29317155,0.466651,0.45936594,-0.2593744,0.437896,0.44978201,-0.24385587,0.424684,0.4414085,-0.2302139,0.413107
0.48704652,-0.3652747,0.53861,0.45648441,-0.33686107,0.498685,0.45469812,-0.35734059,0.524069,0.40766835,-0.33281982,0.497402,0.3696411,-0.3075658,0.476424,0.34895275,-0.28514374,0.460938,0.39623489,-0.29086252,0.447699,0.37482267,-0.2597905,0.411848,0.36413723,-0.24444498,0.393923,0.35442303,-0.23051477,0.377627,0.42264286,-0.291347,0.450291,0.39578773,-0.25412631,0.412126,0.38011485,-0.23242439,0.389863,0.36891616,-0.21692858,0.373961,0.44633223,-0.29440947,0.455258,0.42211905,-0.25661228,0.419796,0.40981784,-0.23769711,0.401653,0.39883123,-0.22133616,0.385159,0.47859748,-0.30329298,0.466759,0.45767005,-0.26943358,0.437923,0.44806926,-0.25390001,0.424694,0.43960681,-0.24020687,0.413033
0.48397645,-0.37922939,0.538189,0.45633155,-0.34683437,0.498518,0.45347088,-0.36716024,0.523654,0.40738723,-0.342657,0.497059,0.36935248,-0.31737853,0.476052,0.34870444,-0.29496945,0.46061,0.39628091,-0.30096002,0.447751,0.37480083,-0.26983067,0.411824,0.36407992,-0.25445855,0.393861,0.35433293,-0.24050519,0.377531,0.42277615,-0.30149815,0.450433,0.39506746,-0.26369398,0.411376,0.379427,-0.24480729,0.388592,0.36848729,-0.23284043,0.372319,0.44652635,-0.30459491,0.455456,0.42228095,-0.26675299,0.419957,0.40996273,-0.24781986,0.401795,0.3989617,-0.23145401,0.385285,0.47883229,-0.31350031,0.466988,0.45793655,-0.27963947,0.438178,0.44834674,-0.26410186,0.424957,0.43988353,-0.25039862,0.413293
0.4845331,-0.38472376,0.538808,0.45664094,-0.35716246,0.498856,0.45389002,-0.37761156,0.524138,0.40745034,-0.35277834,0.497136,0.36940291,-0.32747615,0.476117,0.34874229,-0.30503116,0.46066,0.39622869,-0.31098276,0.447692,0.37480174,-0.27988664,0.411825,0.36410858,-0.26453146,0.393892,0.35438643,-0.25059204,0.377588,0.42277333,-0.31155531,0.45043,0.39502617,-0.27369551,0.411333,0.37936256,-0.25480364,0.388526,0.36840515,-0.24284364,0.372236,0.44658811,-0.31469582,0.455519,0.42233927,-0.27683351,0.420015,0.41001885,-0.25789388,0.40185,0.39901452,-0.24153145,0.385336,0.47901891,-0.32368491,0.46717,0.4579261,-0.28968189,0.438168,0.4483499,-0.27414841,0.42496,0.43989737,-0.26044736,0.413306
0.48347676,-0.39324346,0.53726,0.45642561,-0.36586057,0.497275,0.45275967,-0.38594503,0.52225,0.40629908,-0.36144578,0.494581,0.36757544,-0.33646306,0.472742,0.34636161,-0.31415583,0.456649,0.39583038,-0.32098944,0.445671,0.37394241,-0.29059135,0.409265,0.36300986,-0.27553007,0.391062,0.35306917,-0.26185994,0.374513,0.42278323,-0.32154201,0.44881,0.39430198,-0.27797927,0.408261,0.37967564,-0.26784285,0.384608,0.36871087,-0.26798187,0.367713,0.44693875,-0.32458993,0.45423,0.4077451,-0.28426926,0.415726,0.39025178,-0.27754418,0.396026,0.37567318,-0.27965626,0.378118,0.4797622,-0.33332253,0.466282,0.45713823,-0.29907547,0.435805,0.44727486,-0.28372142,0.422324,0.43862003,-0.27021061,0.410477
0.48461672,-0.41130983,0.538703,0.45763264,-0.37712996,0.499837,0.45305038,-0.39819489,0.522585,0.40521493,-0.37295834,0.493989,0.3675381,-0.34723273,0.472856,0.34684924,-0.32534551,0.457249,0.39785875,-0.32417302,0.447823,0.37580125,-0.29450271,0.411961,0.36478895,-0.27973254,0.39403,0.35478438,-0.26631368,0.377729,0.42614217,-0.32539795,0.452727,0.39725096,-0.29214514,0.411909,0.38222747,-0.28058854,0.388098,0.37193294,-0.27951435,0.37109,0.45137882,-0.32915293,0.459521,0.42025379,-0.28278587,0.420468,0.4079027,-0.28434659,0.400487,0.39649748,-0.28541769,0.382322,0.48539774,-0.33904515,0.473063,0.45962225,-0.31290905,0.439593,0.44865104,-0.30069435,0.424477,0.43899107,-0.28993168,0.41116
0.4797372,-0.42475749,0.54026,0.45321938,-0.38682439,0.501771,0.44937476,-0.41011234,0.524244,0.39875124,-0.38135461,0.49364,0.36074689,-0.35414705,0.46937,0.34326157,-0.32764328,0.454283,0.39998903,-0.32992625,0.450195,0.38384217,-0.29131877,0.414445,0.37092364,-0.2965544,0.39657,0.35091012,-0.29646069,0.38032,0.427542,-0.33556986,0.455118,0.40239439,-0.30262944,0.414696,0.38846689,-0.29263523,0.391117,0.37772866,-0.29312469,0.374275,0.45173534,-0.34120999,0.4619,0.41661916,-0.29435986,0.422888,0.40201462,-0.29691266,0.402928,0.38637061,-0.30085514,0.384782,0.48365477,-0.3538293,0.475376,0.46163457,-0.32551088,0.442669,0.45163821,-0.31319627,0.427642,0.44283089,-0.30240361,0.414382
0.50705555,-0.42916124,0.527551,0.47361097,-0.38925263,0.489082,0.47723765,-0.41680404,0.517265,0.42916091,-0.38839079,0.495595,0.38907055,-0.36474464,0.477949,0.36513493,-0.34276096,0.462732,0.40958211,-0.34098534,0.444475,0.37892288,-0.29855962,0.407362,0.36210797,-0.30281934,0.388806,0.34518534,-0.30176408,0.371936,0.43305211,-0.34093088,0.442454,0.39340945,-0.29571232,0.401983,0.37584867,-0.29173035,0.378375,0.36017625,-0.29470496,0.361512,0.45472356,-0.34371388,0.443523,0.41205916,-0.31371588,0.406456,0.39084027,-0.30469284,0.387492,0.37222133,-0.30149408,0.370252,0.48534242,-0.35258641,0.450151,0.44800182,-0.31210067,0.417936,0.43311574,-0.31492282,0.403135,0.41996002,-0.31712112,0.390075
0.50852605,-0.43554079,0.529082,0.47457635,-0.40026057,0.490082,0.47848853,-0.42299466,0.518622,0.42959866,-0.39894952,0.496095,0.38924646,-0.37501975,0.478155,0.36519633,-0.35287259,0.462796,0.40989642,-0.35132102,0.444819,0.37912565,-0.30873101,0.407531,0.36217273,-0.31270403,0.388887,0.34513919,-0.31097556,0.371938,0.43339508,-0.3513431,0.442809,0.39412882,-0.30534675,0.402474,0.37192514,-0.30544222,0.378945,0.35591661,-0.30891168,0.362139,0.45513164,-0.35422302,0.443924,0.4124701,-0.32418011,0.406843,0.39123344,-0.31515471,0.387872,0.37258252,-0.31194212,0.370625,0.48591712,-0.3632815,0.450682,0.4488554,-0.32272485,0.418694,0.43403734,-0.32552175,0.403997,0.420946,-0.32771582,0.391029
0.5085578,-0.44015957,0.529127,0.47428196,-0.408672,0.489857,0.47835886,-0.43243776,0.518507,0.4295061,-0.40742685,0.496012,0.3892857,-0.3835391,0.478194,0.36531978,-0.36141657,0.462927,0.40917781,-0.35971312,0.444176,0.37821935,-0.31657936,0.406785,0.36148964,-0.32028628,0.38809,0.34454512,-0.31801842,0.371094,0.43272771,-0.35947577,0.442258,0.3931667,-0.31582475,0.401816,0.37111408,-0.31512117,0.378225,0.35539328,-0.31862393,0.361374,0.4545278,-0.36215932,0.443469,0.41172299,-0.33219465,0.406228,0.39048853,-0.32310097,0.387174,0.37190755,-0.31979427,0.369853,0.48543609,-0.37101371,0.450379,0.44753288,-0.33308498,0.418131,0.43269461,-0.33529884,0.403315,0.41958226,-0.33699561,0.390241
0.51001499,-0.45114291,0.530767,0.47535833,-0.41976154,0.491311,0.47961016,-0.44318671,0.520036,0.43043069,-0.4183166,0.497277,0.3901267,-0.39425678,0.479325,0.36613209,-0.372036,0.463997,0.40997338,-0.37066066,0.445338,0.37893102,-0.32720419,0.407904,0.36231802,-0.33066573,0.389187,0.34543496,-0.3278403,0.372171,0.4335837,-0.37031976,0.443486,0.39397095,-0.32654184,0.403003,0.37203429,-0.32570438,0.379388,0.3564162,-0.32891627,0.36252,0.45544559,-0.37293132,0.444763,0.41941403,-0.33875417,0.405754,0.40136246,-0.33293205,0.385797,0.38467834,-0.33368609,0.367653,0.48645817,-0.38172872,0.451779,0.44851959,-0.34390917,0.4195,0.43377147,-0.34601376,0.40467,0.42073885,-0.34761755,0.391584
0.51239937,-0.4607563,0.534048,0.47694501,-0.42310399,0.49401,0.48139166,-0.44765923,0.522649,0.4322002,-0.4214891,0.500122,0.3919401,-0.39737144,0.482203,0.36793144,-0.37509327,0.466827,0.41033299,-0.3729138,0.446742,0.37996272,-0.3301448,0.410031,0.36358523,-0.33386267,0.391675,0.3470266,-0.33122144,0.374989,0.43444148,-0.37319827,0.44548,0.39410772,-0.34174744,0.404951,0.37180996,-0.33912045,0.381308,0.3560092,-0.34105106,0.364421,0.45681605,-0.37635562,0.447285,0.42059152,-0.3421384,0.408156,0.40093362,-0.33946891,0.388136,0.38374145,-0.34146191,0.369936,0.48860246,-0.38586717,0.455013,0.45071497,-0.34806125,0.422771,0.43589452,-0.35019477,0.407957,0.42280105,-0.35182253,0.394886
0.51598697,-0.47257665,0.538597,0.47949604,-0.43605176,0.498097,0.48525172,-0.4581555,0.527541,0.4355759,-0.43614638,0.504555,0.39487512,-0.41156346,0.486223,0.37055493,-0.38892851,0.470525,0.41302622,-0.377457,0.450857,0.37665121,-0.36045823,0.414202,0.35724228,-0.36128616,0.395874,0.35052389,-0.354882,0.388336,0.43640396,-0.37954275,0.449005,0.39924054,-0.35539482,0.408176,0.37527287,-0.35153281,0.38436,0.35680223,-0.35268249,0.367348,0.45780532,-0.3884154,0.450357,0.42431632,-0.3563135,0.410999,0.40453568,-0.3519839,0.390863,0.3842916,-0.3533743,0.372557,0.4892121,-0.40276377,0.457608,0.45458548,-0.36169392,0.425291,0.43724232,-0.3635455,0.410443,0.42197064,-0.3648639,0.397341
0.47204069,-0.48377459,0.50881,0.44830141,-0.42377101,0.471338,0.45384182,-0.45321371,0.502285,0.40129428,-0.42776691,0.483892,0.35636734,-0.41105781,0.467593,0.32731064,-0.40054015,0.451512,0.40619639,-0.34010598,0.432127,0.34879027,-0.33330585,0.397859,0.33688931,-0.33143839,0.380725,0.34056983,-0.32942938,0.375272,0.41876697,-0.35272053,0.425918,0.35407896,-0.34229719,0.388385,0.33179248,-0.335567,0.366491,0.33544877,-0.32709749,0.36103,0.43133056,-0.36768194,0.423471,0.37290371,-0.35259487,0.390804,0.35047003,-0.35531508,0.374091,0.3424193,-0.34554899,0.358897,0.45050462,-0.39462498,0.42575,0.39226247,-0.38137438,0.396931,0.37612875,-0.3775388,0.38369,0.37217843,-0.36553369,0.372006
0.46423634,-0.47923042,0.500335,0.44512186,-0.42414225,0.467977,0.44894103,-0.45174989,0.496826,0.39930885,-0.43248426,0.481464,0.35599733,-0.4174455,0.467093,0.32739749,-0.40404251,0.451629,0.41039836,-0.35018356,0.436697,0.35574147,-0.3462975,0.405854,0.34545726,-0.34585861,0.390433,0.35293092,-0.34429845,0.388896,0.42148859,-0.36157285,0.428757,0.36011573,-0.35448136,0.395049,0.33985025,-0.34956074,0.375386,0.34739706,-0.34158095,0.373884,0.43236142,-0.37513509,0.424522,0.37764739,-0.36357392,0.395812,0.35578505,-0.36854433,0.381123,0.35032076,-0.36542017,0.370357,0.44861449,-0.39958633,0.423949,0.39346081,-0.38897351,0.398118,0.37869344,-0.38623742,0.38625,0.3853197,-0.38143103,0.385108
0.46042205,-0.47762587,0.49462,0.43934421,-0.42449575,0.459884,0.44307484,-0.44895466,0.489232,0.392185,-0.42607309,0.471605,0.34777646,-0.40924013,0.455405,0.31875368,-0.39830017,0.439056,0.40045107,-0.34997376,0.424336,0.35034465,-0.35059012,0.396667,0.35760087,-0.36703885,0.403829,0.37792657,-0.37747621,0.417544,0.41388138,-0.36151743,0.41778,0.3513391,-0.35772237,0.381944,0.32100969,-0.35255631,0.36104,0.32064058,-0.34989546,0.358151,0.42693949,-0.37528164,0.414853,0.37448974,-0.36456713,0.383802,0.34877233,-0.3655325,0.367916,0.34695606,-0.36424515,0.365818,0.44632445,-0.40014263,0.416177,0.39979287,-0.36932004,0.388504,0.37827572,-0.37110959,0.37579,0.3765548,-0.37996627,0.373481
0.4594496,-0.48427069,0.492437,0.44022123,-0.43748191,0.458141,0.44234597,-0.45589822,0.487384,0.39267626,-0.4348844,0.470087,0.3485095,-0.41370584,0.454724,0.31982174,-0.40356982,0.438443,0.4030431,-0.35756657,0.423369,0.351578,-0.35108582,0.396113,0.3570704,-0.36938818,0.403523,0.37543535,-0.38467381,0.417239,0.41554958,-0.36959332,0.416572,0.35242016,-0.36379602,0.381114,0.32117952,-0.35822231,0.36043,0.32048667,-0.35287504,0.357825,0.42767957,-0.38379918,0.413415,0.3761308,-0.36489613,0.382778,0.34943256,-0.36614026,0.367103,0.34749047,-0.36988016,0.365324,0.44562688,-0.40928287,0.414402,0.40037213,-0.37670794,0.387052,0.37848409,-0.37790295,0.374485,0.37588387,-0.38302574,0.372412
0.45944879,-0.48733118,0.492699,0.44079354,-0.43876042,0.459138,0.44342674,-0.46313924,0.487946,0.39310171,-0.43688589,0.471548,0.34917939,-0.41860009,0.456054,0.3207591,-0.40926917,0.439732,0.40512334,-0.35943616,0.425342,0.35458084,-0.35342845,0.398546,0.35940086,-0.37315816,0.406517,0.37560136,-0.39238257,0.420275,0.41748024,-0.37145911,0.418458,0.35480299,-0.365867,0.383521,0.32359973,-0.36068774,0.363141,0.32342699,-0.35935248,0.361103,0.4293988,-0.38562413,0.415179,0.37879331,-0.37191175,0.385036,0.35218984,-0.37165865,0.369614,0.34882515,-0.37799669,0.36844,0.44691301,-0.41097496,0.415916,0.4023465,-0.37841954,0.38894,0.38059526,-0.37971933,0.376546,0.37872639,-0.38955212,0.37492
0.4617784,-0.49520314,0.495108,0.44329754,-0.44179439,0.462299,0.44658975,-0.46744896,0.491441,0.39727335,-0.44130501,0.475953,0.35393559,-0.422938,0.461144,0.32566314,-0.41341534,0.445249,0.41065522,-0.36270925,0.430448,0.35978603,-0.35344377,0.40485,0.3633972,-0.37992371,0.412817,0.3796906,-0.39890798,0.426101,0.42090629,-0.3743151,0.422531,0.35798667,-0.36764471,0.388504,0.32796762,-0.36525088,0.368654,0.32867612,-0.36538565,0.36681,0.43158298,-0.38823586,0.418347,0.37168274,-0.38162212,0.389343,0.3426974,-0.37814708,0.374503,0.33479713,-0.39238846,0.373617,0.44720984,-0.4130564,0.417897,0.40491746,-0.38099456,0.391842,0.38253499,-0.38185579,0.379871,0.3774127,-0.39105884,0.37846
0.46057614,-0.49596769,0.494067,0.44275585,-0.44259004,0.462047,0.44666294,-0.47122253,0.491408,0.39960104,-0.44490273,0.477433,0.35656194,-0.43247326,0.463075,0.32873842,-0.42521662,0.447429,0.41208871,-0.36471678,0.432079,0.36117742,-0.35703404,0.407643,0.36373709,-0.38246891,0.415625,0.3796125,-0.40358606,0.428456,0.42125497,-0.37569121,0.423235,0.35809677,-0.36911674,0.39013,0.32903592,-0.36753098,0.370818,0.33045334,-0.36858803,0.369187,0.42982908,-0.38909908,0.418233,0.37110579,-0.38401425,0.390346,0.34227462,-0.38090493,0.376078,0.33466473,-0.39553786,0.375491,0.44144107,-0.41424633,0.416694,0.40356778,-0.38140529,0.391546,0.37818882,-0.38139659,0.379991,0.3721208,-0.39059387,0.378806
0.45920443,-0.49860885,0.492042,0.44216611,-0.44458337,0.460656,0.44713618,-0.47184612,0.490397,0.40672125,-0.44930929,0.478039,0.36465407,-0.43486644,0.465367,0.33391673,-0.42769232,0.450496,0.41433866,-0.36822856,0.432447,0.36434523,-0.36744555,0.409165,0.36751208,-0.39193998,0.416919,0.38619506,-0.4127106,0.429204,0.42063281,-0.37713782,0.422613,0.35863165,-0.37059543,0.39038,0.32951229,-0.36891193,0.371578,0.33132337,-0.37100039,0.369955,0.4277702,-0.3901682,0.416751,0.37057483,-0.38530268,0.389959,0.34186061,-0.38243911,0.376251,0.33432994,-0.39713439,0.375751,0.43928213,-0.4142433,0.414094,0.39913837,-0.38409412,0.389849,0.37540902,-0.38395741,0.37871,0.37084274,-0.39120946,0.377595
0.45908764,-0.49897517,0.491135,0.44220074,-0.44498201,0.459876,0.44745268,-0.47226272,0.489727,0.40648643,-0.44904987,0.477763,0.36467993,-0.43489728,0.4654,0.33506665,-0.42776789,0.45073,0.4146857,-0.36854978,0.432061,0.36424283,-0.36734228,0.40905,0.36733137,-0.39174726,0.416714,0.38588193,-0.41237598,0.428856,0.42049543,-0.37758749,0.421987,0.35800741,-0.37047845,0.389953,0.32910387,-0.36901985,0.371266,0.33119766,-0.3714287,0.369614,0.4272961,-0.39050725,0.415918,0.36994281,-0.38556785,0.38938,0.34116636,-0.38266347,0.375802,0.33363701,-0.39731047,0.375291,0.43841706,-0.41444429,0.412996,0.398381,-0.38397608,0.388964,0.37468266,-0.38383637,0.377922,0.37001765,-0.39132026,0.3768
0.45905379,-0.49929015,0.490541,0.44220242,-0.44520212,0.459388,0.44772192,-0.47260569,0.489297,0.4063486,-0.44889758,0.477601,0.36470892,-0.43493186,0.465437,0.33567645,-0.42784922,0.450893,0.4148536,-0.3687054,0.431862,0.3642357,-0.36733509,0.409042,0.36728554,-0.39169838,0.416662,0.38575146,-0.41223655,0.428711,0.42042983,-0.37787276,0.421628,0.35764832,-0.37048357,0.389742,0.32889996,-0.36919465,0.371142,0.33120285,-0.37181399,0.369486,0.42701471,-0.39071393,0.415421,0.36959534,-0.38576011,0.389066,0.34079469,-0.3828483,0.375582,0.33327817,-0.39748375,0.375079,0.43787671,-0.41454512,0.412317,0.39791671,-0.38383422,0.388438,0.37425799,-0.38371252,0.377466,0.36955008,-0.39141533,0.376351
0.45904818,-0.49954766,0.490117,0.44219241,-0.44533764,0.459051,0.44794201,-0.47288206,0.488995,0.40625671,-0.4487961,0.477493,0.364734,-0.43496176,0.465469,0.33605981,-0.42792004,0.451014,0.41495479,-0.36879917,0.431743,0.36425885,-0.36735844,0.409068,0.36728465,-0.39169744,0.416661,0.38569027,-0.41217116,0.428643,0.42039257,-0.37806889,0.421395,0.35741435,-0.3705235,0.389622,0.32878166,-0.36936437,0.371088,0.33124463,-0.37213204,0.369437,0.42682551,-0.39085039,0.415088,0.36937633,-0.38590158,0.38887,0.34056657,-0.38299366,0.375457,0.33306591,-0.3976314,0.374968,0.43750337,-0.41460011,0.411852,0.39760081,-0.38371295,0.388086,0.37397799,-0.38361222,0.377167,0.36924951,-0.39149032,0.376063
0.45618987,-0.49616391,0.485804,0.44049062,-0.4439504,0.455514,0.44866598,-0.47296418,0.486534,0.41755126,-0.44404542,0.47836,0.37614043,-0.43035948,0.468769,0.34210349,-0.43045361,0.455629,0.41639118,-0.36925831,0.431103,0.36595341,-0.36814193,0.410595,0.36782665,-0.39132219,0.416927,0.38528874,-0.4107278,0.42755,0.4186551,-0.37737147,0.4188,0.35619174,-0.36938343,0.388594,0.32829609,-0.36905105,0.370973,0.33023233,-0.37101609,0.368655,0.42331816,-0.38969193,0.41083,0.36432586,-0.38155106,0.386643,0.33221123,-0.37544593,0.374268,0.32283144,-0.38896612,0.373227,0.43098221,-0.41173978,0.405494,0.38696076,-0.38068583,0.383467,0.36357475,-0.38029163,0.373346,0.36447641,-0.38730541,0.371853
0.44649001,-0.48484602,0.474111,0.43308201,-0.43224006,0.444436,0.44088424,-0.46327889,0.476264,0.41237367,-0.43610139,0.471029,0.37340691,-0.42540194,0.464515,0.34597833,-0.42094768,0.453254,0.41277096,-0.36136943,0.422265,0.35942752,-0.35706906,0.403592,0.35933011,-0.37764255,0.408498,0.37593184,-0.39992156,0.417827,0.41109274,-0.37013622,0.408467,0.34525697,-0.35949146,0.379657,0.31751388,-0.35943193,0.362851,0.32196177,-0.36214894,0.359701,0.41144766,-0.38154011,0.399224,0.3522046,-0.37202309,0.376778,0.32274677,-0.36695084,0.365294,0.31310004,-0.37926063,0.363488,0.4151648,-0.40340714,0.392278,0.37261405,-0.37071768,0.37178,0.35152162,-0.36990042,0.362362,0.34836037,-0.37717912,0.360326
0.44233492,-0.48007021,0.470146,0.42836409,-0.4199365,0.441805,0.43195581,-0.45068358,0.472256,0.39342155,-0.43481043,0.466008,0.35236421,-0.42157026,0.45859,0.32571284,-0.41323126,0.446748,0.40970702,-0.34746473,0.420696,0.35850692,-0.34801522,0.402111,0.36134681,-0.37024899,0.409054,0.37591983,-0.39052497,0.419161,0.40983959,-0.35671508,0.407453,0.34460639,-0.34799772,0.379082,0.31883358,-0.34852061,0.362533,0.32031677,-0.35470813,0.361118,0.41122934,-0.36831607,0.398571,0.35156371,-0.35976373,0.376334,0.32198566,-0.35507829,0.364957,0.31043073,-0.36202559,0.36494,0.41528366,-0.39001917,0.391872,0.37301029,-0.35951714,0.371419,0.35035604,-0.36004638,0.362022,0.34872667,-0.36908459,0.361296
0.43607356,-0.45669858,0.458091,0.42347341,-0.40252123,0.431901,0.43501786,-0.43512229,0.463231,0.39875815,-0.42157985,0.462741,0.36256182,-0.4121831,0.460715,0.33479562,-0.40094837,0.452605,0.40905211,-0.33475467,0.416265,0.3588778,-0.33634283,0.401868,0.36028927,-0.35659093,0.406472,0.3762818,-0.37359486,0.413992,0.40309955,-0.34189311,0.400157,0.3378428,-0.33086156,0.375268,0.31307726,-0.33037104,0.360749,0.31831824,-0.33283176,0.358245,0.39948183,-0.35148581,0.388766,0.34509957,-0.3309198,0.370599,0.32092313,-0.33584526,0.361304,0.32281644,-0.34843652,0.360347,0.39759911,-0.37025099,0.378763,0.35444471,-0.34121502,0.361839,0.33363998,-0.3425261,0.354063,0.33322883,-0.35106424,0.352696
0.43601544,-0.45128787,0.455887,0.42304578,-0.39818718,0.431498,0.43931622,-0.42712538,0.462272,0.39972981,-0.42044325,0.463706,0.3648329,-0.4134943,0.463606,0.33766596,-0.40354592,0.456648,0.40809006,-0.32795271,0.418876,0.36048272,-0.33280103,0.406359,0.36307412,-0.35392919,0.411175,0.37958972,-0.37385293,0.418038,0.40217655,-0.33332338,0.401937,0.33941251,-0.32618568,0.378873,0.31653396,-0.32853528,0.365419,0.32291153,-0.33486791,0.3635,0.3986166,-0.34145123,0.389734,0.34574589,-0.32370941,0.373482,0.32326964,-0.33080568,0.365167,0.3267935,-0.3487997,0.364886,0.39686316,-0.35845907,0.378507,0.35437341,-0.33147675,0.363166,0.33489076,-0.33460903,0.356118,0.33568986,-0.34428911,0.355268
0.44494428,-0.45208774,0.466641,0.41634097,-0.39611473,0.443238,0.44587566,-0.43248458,0.474131,0.40246907,-0.42217113,0.477919,0.37123077,-0.41825251,0.480477,0.34747971,-0.41124877,0.475415,0.40017266,-0.33603823,0.43278,0.35458331,-0.34371947,0.422057,0.36175651,-0.36195255,0.425612,0.38307519,-0.36903663,0.431174,0.39209288,-0.34217117,0.414871,0.33244604,-0.3380902,0.393417,0.31300827,-0.339126,0.380903,0.32012213,-0.34055669,0.378346,0.38684786,-0.35034531,0.4018,0.35161752,-0.32837951,0.38733,0.32837951,-0.33166087,0.379926,0.33030963,-0.33797103,0.379036,0.38330383,-0.36622357,0.389398,0.35555724,-0.34002209,0.375637,0.33573945,-0.34157387,0.369315,0.33465621,-0.34764858,0.368045
0.44515817,-0.45064126,0.468772,0.41934833,-0.39658599,0.444822,0.44572569,-0.43081211,0.475828,0.40468371,-0.42151054,0.478815,0.37308006,-0.41640481,0.480569,0.34884024,-0.41076587,0.474756,0.40329718,-0.33554232,0.433382,0.35688983,-0.34219677,0.421958,0.36389688,-0.3606279,0.425717,0.38532092,-0.3681499,0.431554,0.39539551,-0.34195631,0.415793,0.33615872,-0.3313737,0.393672,0.31120981,-0.33218236,0.380768,0.31516732,-0.33554376,0.378221,0.39029057,-0.350425,0.403025,0.36474519,-0.32376503,0.38445,0.33593945,-0.32268877,0.374947,0.33124598,-0.32728189,0.373016,0.38689569,-0.36677999,0.39106,0.36197939,-0.34211103,0.376691,0.33806725,-0.34124863,0.370089,0.33327669,-0.34705247,0.368801
0.44930438,-0.4515246,0.474123,0.42491424,-0.3948952,0.448693,0.44681774,-0.42680577,0.479979,0.40833746,-0.41421635,0.480816,0.37465113,-0.41111766,0.479903,0.34796109,-0.40729077,0.472263,0.40674556,-0.32909404,0.43456,0.35890774,-0.33783035,0.421254,0.36611012,-0.35628965,0.425461,0.3880512,-0.36417467,0.43212,0.40063111,-0.3366377,0.41787,0.3371335,-0.32972433,0.393974,0.31135992,-0.32968682,0.380036,0.31518978,-0.33257646,0.377441,0.39703627,-0.34600242,0.405946,0.36682239,-0.32275506,0.38533,0.33707343,-0.32110785,0.374782,0.33209978,-0.32522299,0.372695,0.39552953,-0.36336675,0.395199,0.3672862,-0.34325442,0.379211,0.34301437,-0.3401742,0.371865,0.33520283,-0.34701451,0.370471
0.44924868,-0.44649061,0.476053,0.42805464,-0.3912935,0.451708,0.44628066,-0.42248809,0.48246,0.41104687,-0.41541355,0.483921,0.37811395,-0.40947059,0.483778,0.35306263,-0.40533943,0.476404,0.41069125,-0.32948949,0.43915,0.36364194,-0.33652652,0.426668,0.37160481,-0.35574409,0.431506,0.39380207,-0.363538,0.43831,0.4039063,-0.33279404,0.4222,0.34186267,-0.32437056,0.399172,0.31658115,-0.32635675,0.385739,0.32114634,-0.33335011,0.383848,0.40004243,-0.34137669,0.409985,0.37136304,-0.31371038,0.39024,0.34218885,-0.31357477,0.380138,0.33833276,-0.32425684,0.378815,0.39819562,-0.35821438,0.398738,0.3703462,-0.33257156,0.383426,0.34781035,-0.33177117,0.37639,0.33977365,-0.33863415,0.375562
0.4504535,-0.44342444,0.480167,0.42914121,-0.38873518,0.453741,0.44879139,-0.4169499,0.48542,0.41107232,-0.4133704,0.48546,0.37745846,-0.40721126,0.484755,0.35244868,-0.40101525,0.477498,0.40853833,-0.32409388,0.438043,0.36032914,-0.33009835,0.423854,0.36834233,-0.34780569,0.427658,0.38987666,-0.35592178,0.434362,0.40309915,-0.33125985,0.421709,0.33969784,-0.32304659,0.39693,0.31421696,-0.32592151,0.382476,0.31785853,-0.32834906,0.379358,0.40018514,-0.34059278,0.410149,0.3615469,-0.31814915,0.389565,0.33479795,-0.31834996,0.379034,0.33508666,-0.32418235,0.376655,0.39972518,-0.35848343,0.399976,0.36437367,-0.32368562,0.383259,0.34228311,-0.3236416,0.375579,0.33630927,-0.33511917,0.373753
0.45288785,-0.44139855,0.48319,0.4291878,-0.3865853,0.456716,0.44971626,-0.41726924,0.48809,0.40920028,-0.41141787,0.48719,0.37457584,-0.40711378,0.485501,0.35030445,-0.39613497,0.47824,0.40245942,-0.31988343,0.440552,0.35841447,-0.32950344,0.425797,0.36907487,-0.34633845,0.430458,0.39152489,-0.35701224,0.437962,0.39966803,-0.32655246,0.424628,0.34061341,-0.3247808,0.399407,0.3154143,-0.32739926,0.384695,0.31941083,-0.33038567,0.382161,0.39903095,-0.33549158,0.413408,0.35628863,-0.31793905,0.393276,0.33555112,-0.32090377,0.382975,0.33839881,-0.32738667,0.381486,0.4014891,-0.35294484,0.40365,0.36484716,-0.32343698,0.386423,0.34349181,-0.3248073,0.378509,0.33914481,-0.33689466,0.377104
0.45222134,-0.43963491,0.483017,0.4284729,-0.38536002,0.456339,0.44845524,-0.41569316,0.487654,0.40795718,-0.40985476,0.486225,0.37310478,-0.40552058,0.484023,0.3491646,-0.39322726,0.476623,0.4048808,-0.32051223,0.439682,0.35706829,-0.32779341,0.424537,0.36809486,-0.34463554,0.429446,0.39036555,-0.35529093,0.437186,0.40170206,-0.32776662,0.424001,0.33956137,-0.32296884,0.398444,0.3131293,-0.3231377,0.383535,0.31605417,-0.32765711,0.381124,0.39960542,-0.33482188,0.412996,0.3645121,-0.3126375,0.392967,0.3402556,-0.31737681,0.382719,0.3372061,-0.32294966,0.38149,0.40221074,-0.35252609,0.403523,0.36433894,-0.3217312,0.385959,0.34316713,-0.32342617,0.377889,0.33903841,-0.33551281,0.376562
0.45619244,-0.43959813,0.488323,0.43153559,-0.3868011,0.45984,0.44867319,-0.4132945,0.491308,0.407272,-0.40806316,0.487085,0.37164897,-0.40141998,0.482864,0.34853437,-0.38579341,0.474571,0.4034612,-0.31814415,0.439674,0.35541575,-0.32541373,0.422161,0.36665648,-0.34219001,0.427463,0.3886022,-0.35172788,0.436087,0.40251275,-0.32614089,0.425316,0.34010357,-0.32146663,0.397618,0.31231504,-0.32156303,0.38146,0.31482793,-0.32524518,0.378878,0.40348242,-0.33632847,0.415528,0.37281032,-0.31344059,0.391905,0.34264858,-0.312942,0.379819,0.33583958,-0.31899558,0.377939,0.40922572,-0.35510071,0.407763,0.36906952,-0.32127821,0.388214,0.35175669,-0.32520498,0.379232,0.35093643,-0.33499159,0.377677
0.45651629,-0.43897305,0.489323,0.43204591,-0.38635451,0.460619,0.44876176,-0.41274449,0.49209,0.40763451,-0.40802296,0.487499,0.37257646,-0.39901398,0.483258,0.34922623,-0.38492679,0.474614,0.40407236,-0.31771646,0.440003,0.35559506,-0.32480545,0.422187,0.36643653,-0.34041447,0.427545,0.38873244,-0.35103236,0.436318,0.40344819,-0.32590776,0.425827,0.34055624,-0.31898293,0.39786,0.311591,-0.31956353,0.381545,0.31454927,-0.32474125,0.378948,0.40466798,-0.3362476,0.416203,0.37318673,-0.31285067,0.392676,0.34336749,-0.31281898,0.380639,0.33755029,-0.31788612,0.37885,0.41045978,-0.35511911,0.408667,0.37030543,-0.32130828,0.388865,0.35180891,-0.32470462,0.379767,0.35095978,-0.33452298,0.378186
0.45641321,-0.43765908,0.48957,0.4315804,-0.38407006,0.460973,0.44894437,-0.41180431,0.492543,0.40843891,-0.40785122,0.488368,0.3737078,-0.39881209,0.484541,0.35054639,-0.38485828,0.47614,0.40516918,-0.31671963,0.440695,0.35632127,-0.3233677,0.423161,0.36744318,-0.33939021,0.428295,0.38849248,-0.34932351,0.436845,0.40380992,-0.32548616,0.426309,0.3408198,-0.31871357,0.398567,0.31203054,-0.31936485,0.382384,0.31289679,-0.32283135,0.379657,0.4048286,-0.33572066,0.416506,0.36656143,-0.31337981,0.394888,0.34358262,-0.31524184,0.383828,0.33924765,-0.32177402,0.382415,0.40935417,-0.35493162,0.408739,0.37235206,-0.31960911,0.389177,0.35123062,-0.31821251,0.380189,0.35039037,-0.33263828,0.378524
0.45675329,-0.436896,0.490271,0.43203687,-0.38360834,0.461577,0.4494176,-0.41123477,0.493285,0.40966269,-0.40849887,0.489282,0.38052958,-0.39536203,0.486556,0.36229517,-0.37634993,0.47955,0.40567036,-0.31553574,0.44127,0.3567113,-0.32304516,0.423793,0.36775811,-0.33802498,0.428674,0.38871645,-0.34872564,0.437129,0.40469939,-0.32457433,0.426797,0.34102576,-0.31836499,0.399071,0.31229217,-0.31903365,0.382898,0.31305833,-0.32234193,0.379973,0.40511876,-0.33541193,0.41693,0.36684766,-0.31286273,0.395022,0.34296788,-0.31482125,0.383813,0.33938213,-0.32040248,0.382095,0.40951692,-0.35458322,0.409099,0.37278576,-0.31756105,0.389591,0.35164852,-0.31801407,0.380628,0.3495644,-0.32997776,0.378814
0.45680574,-0.43618484,0.490382,0.43483418,-0.38281598,0.464396,0.45178937,-0.41359369,0.494859,0.41710496,-0.40899075,0.492601,0.38657737,-0.39796027,0.490527,0.36822016,-0.38156541,0.484219,0.41190759,-0.31688509,0.448125,0.36523089,-0.31848365,0.432808,0.37652096,-0.34107825,0.43913,0.39860176,-0.35426348,0.447853,0.41078731,-0.3194701,0.432898,0.34886941,-0.31115828,0.407406,0.32133812,-0.31633359,0.392535,0.32277742,-0.32906795,0.391272,0.41050528,-0.32827035,0.422218,0.36872023,-0.31002153,0.403213,0.34562784,-0.31363509,0.393489,0.3489582,-0.32425517,0.393778,0.41318737,-0.34596577,0.413038,0.36904383,-0.31679608,0.395302,0.35662181,-0.32506748,0.387154,0.35728066,-0.33753456,0.386686
0.45569531,-0.4330122,0.489459,0.43569808,-0.38011692,0.465036,0.45129385,-0.41135473,0.494981,0.42127672,-0.40752368,0.494295,0.39151319,-0.39814112,0.492909,0.37093173,-0.38338892,0.486901,0.41488904,-0.31340235,0.451338,0.36893797,-0.32128418,0.437596,0.38174831,-0.34129837,0.444196,0.4031885,-0.35447752,0.452555,0.41224922,-0.31880222,0.435433,0.35165505,-0.31222442,0.411482,0.32514349,-0.31871758,0.39751,0.3288076,-0.32845639,0.39682,0.41159014,-0.32683177,0.424084,0.37358551,-0.30362072,0.406687,0.35007171,-0.30899964,0.397786,0.35408426,-0.32001559,0.398729,0.41338898,-0.34026812,0.413885,0.37034494,-0.31557779,0.397471,0.35514069,-0.32291974,0.38993,0.35929204,-0.33597104,0.389959
0.45330394,-0.42878754,0.486867,0.43552358,-0.37871402,0.464081,0.45031084,-0.40972654,0.493376,0.42220304,-0.4074076,0.494151,0.39298292,-0.39811992,0.493583,0.37301062,-0.38401936,0.488317,0.41682748,-0.31384301,0.452948,0.37223503,-0.32295205,0.440756,0.3853457,-0.34362205,0.447727,0.4067284,-0.35621731,0.455846,0.41363663,-0.31843882,0.436462,0.35606106,-0.30211149,0.414073,0.33325364,-0.31165159,0.401013,0.34069554,-0.32135338,0.400977,0.41227726,-0.32360705,0.424518,0.37580173,-0.30384682,0.408719,0.35255327,-0.30995879,0.400635,0.35625624,-0.31918171,0.402308,0.41381464,-0.33898417,0.413378,0.37156879,-0.31145497,0.398277,0.35409929,-0.31427384,0.391338,0.35607485,-0.32785032,0.39192
0.4543856,-0.42744033,0.487267,0.44071761,-0.37603618,0.4665,0.45178636,-0.40911768,0.494527,0.42827896,-0.40025848,0.496124,0.39565946,-0.39404909,0.493735,0.37403133,-0.38137929,0.487165,0.42247964,-0.3133498,0.457964,0.37914871,-0.32321207,0.447142,0.39250234,-0.34673523,0.455217,0.41508593,-0.35808199,0.463625,0.41923714,-0.31650876,0.441328,0.36349149,-0.29554899,0.420526,0.33991197,-0.30625701,0.408391,0.34743889,-0.31864007,0.409606,0.41829439,-0.31902124,0.429119,0.38064603,-0.30375284,0.414801,0.3554848,-0.30720886,0.407476,0.36150491,-0.32391058,0.410474,0.41991719,-0.33297359,0.417381,0.37908672,-0.30451116,0.403454,0.36323293,-0.31197701,0.397056,0.36757351,-0.32629544,0.398628
0.45498563,-0.42553015,0.486795,0.4448172,-0.37206606,0.467851,0.45301193,-0.40805895,0.494916,0.42986896,-0.40061151,0.497741,0.39941197,-0.39252945,0.497158,0.37768381,-0.3809338,0.490799,0.42562684,-0.31157097,0.461883,0.38397081,-0.32218954,0.452578,0.39812523,-0.34565391,0.461207,0.42094853,-0.35932332,0.469305,0.42252324,-0.31322563,0.44489,0.36814752,-0.29642985,0.425727,0.34546512,-0.30842491,0.414548,0.35381166,-0.32187749,0.416585,0.42139751,-0.31816383,0.432256,0.38471882,-0.29621578,0.419539,0.36162791,-0.3043825,0.413032,0.36383149,-0.32246874,0.416918,0.42325996,-0.32735778,0.419757,0.38347835,-0.29988525,0.407142,0.36860624,-0.30812817,0.401345,0.37303871,-0.32679375,0.403589
0.45816502,-0.42237626,0.48722,0.44641572,-0.36692793,0.46812,0.45950648,-0.40413801,0.49593,0.43497677,-0.39325104,0.500129,0.40455,-0.38594834,0.500558,0.3832616,-0.37478752,0.495208,0.42806586,-0.3033772,0.462735,0.38661593,-0.31483437,0.454128,0.40017974,-0.33728619,0.461612,0.42194128,-0.34985096,0.468826,0.42368273,-0.3045675,0.444968,0.36871151,-0.28854922,0.426216,0.34653895,-0.30099525,0.415277,0.35441171,-0.3167012,0.416486,0.42157674,-0.30909132,0.431709,0.38423703,-0.29393289,0.419613,0.36140636,-0.30228178,0.413425,0.3638767,-0.31652418,0.416495,0.42196136,-0.32392374,0.418482,0.38243293,-0.29707101,0.406451,0.3676926,-0.30551242,0.400924,0.3724873,-0.32007853,0.402577
0.46946952,-0.41788331,0.49116,0.4517079,-0.36251402,0.472111,0.4676443,-0.39909266,0.500125,0.4392589,-0.39394975,0.504901,0.40943135,-0.38727577,0.506655,0.38998069,-0.37372231,0.503253,0.43228694,-0.29928288,0.467078,0.3910927,-0.31071568,0.458822,0.40383252,-0.33297872,0.465886,0.4262174,-0.34518892,0.472561,0.42776607,-0.30023715,0.449022,0.37321608,-0.28452437,0.430529,0.35068531,-0.29708326,0.419741,0.35817934,-0.31344025,0.420672,0.42554186,-0.30452439,0.435521,0.38566813,-0.29353765,0.423754,0.36651278,-0.30304327,0.417734,0.37560364,-0.31321297,0.420533,0.42577181,-0.31653558,0.421997,0.38351311,-0.30188206,0.410268,0.36417645,-0.30843395,0.404878,0.37348081,-0.32302883,0.406336
0.47140995,-0.41703106,0.492731,0.45245981,-0.36194325,0.473011,0.46919265,-0.3980759,0.501418,0.43995683,-0.39377421,0.505845,0.41093828,-0.3846487,0.508859,0.39117883,-0.37279117,0.504971,0.43181845,-0.29938713,0.46708,0.3902278,-0.3105974,0.458325,0.40276157,-0.33260286,0.46509,0.42523544,-0.34342937,0.471775,0.42738406,-0.30039855,0.449108,0.37149145,-0.29347757,0.430055,0.35039166,-0.30626821,0.418941,0.35866043,-0.31801951,0.419504,0.42529108,-0.30476759,0.435723,0.38441963,-0.29316365,0.423424,0.36553362,-0.30285422,0.417131,0.37432926,-0.31267127,0.419537,0.42580299,-0.31695598,0.422433,0.3826055,-0.29869419,0.410274,0.36353506,-0.3019552,0.404687,0.36684462,-0.3195763,0.405851
0.46163435,-0.41792254,0.488566,0.4375539,-0.36180505,0.472972,0.46218205,-0.40325368,0.499884,0.43244286,-0.39337177,0.508851,0.40804502,-0.38860054,0.516131,0.39708789,-0.37927015,0.516279,0.42492583,-0.30562047,0.473679,0.38639425,-0.32086747,0.469369,0.37392156,-0.33450129,0.475798,0.36470251,-0.35078777,0.480067,0.41585834,-0.30593158,0.45407,0.36398553,-0.31360625,0.439471,0.33495771,-0.31752321,0.430955,0.33358368,-0.33159847,0.432275,0.40970432,-0.30952323,0.439047,0.36441541,-0.31984462,0.431317,0.34191272,-0.32484947,0.427363,0.34091455,-0.33929529,0.43067,0.40486052,-0.32033546,0.42322,0.37302301,-0.29670692,0.414926,0.35892377,-0.30530979,0.411116,0.36849242,-0.31957715,0.413004
0.47282262,-0.42325432,0.535432,0.45561485,-0.36979125,0.515083,0.4531558,-0.40370526,0.534439,0.42973269,-0.39314221,0.521406,0.40293461,-0.37274732,0.515377,0.38943705,-0.3507555,0.511953,0.41795535,-0.30390971,0.496882,0.38543823,-0.31524066,0.478446,0.40100623,-0.34255778,0.493181,0.41961837,-0.36093305,0.506788,0.43472926,-0.30632577,0.490417,0.39477423,-0.3161882,0.465809,0.38732502,-0.3246084,0.451455,0.39994652,-0.32856174,0.457248,0.45016495,-0.31213317,0.486543,0.41142945,-0.32165678,0.465646,0.40045064,-0.32776311,0.454955,0.41290804,-0.33083087,0.461955,0.47168026,-0.32669739,0.484732,0.43314775,-0.31903301,0.465181,0.42478057,-0.32851235,0.456199,0.43596847,-0.33544629,0.460702
0.47789726,-0.42462635,0.539756,0.45649406,-0.36637044,0.512138,0.4556807,-0.40117296,0.53472,0.42299752,-0.380745,0.516004,0.38959188,-0.36034464,0.49873,0.37003857,-0.33476032,0.486305,0.41877865,-0.29185659,0.482964,0.38137164,-0.29754737,0.458097,0.39869583,-0.32015672,0.470559,0.42051402,-0.32686313,0.48535,0.43635007,-0.29774918,0.478663,0.38823819,-0.30110419,0.447427,0.36913322,-0.30851594,0.429206,0.3776408,-0.31122195,0.431661,0.45271975,-0.3067053,0.477086,0.4095822,-0.31014079,0.44951,0.42471263,-0.33562317,0.462841,0.4482941,-0.34447805,0.479301,0.47587457,-0.32565257,0.479036,0.45091938,-0.28792569,0.454048,0.43282067,-0.28591536,0.442567,0.42889243,-0.30021255,0.444305
0.47910611,-0.42323851,0.539942,0.46080984,-0.36413784,0.512605,0.45726428,-0.39979551,0.535082,0.42402695,-0.38018331,0.516601,0.39006401,-0.35997601,0.499197,0.37023401,-0.3351024,0.486326,0.41942393,-0.29139318,0.483876,0.38227263,-0.29736645,0.459264,0.39988391,-0.31999715,0.47183,0.42172068,-0.32659278,0.486562,0.43692947,-0.29701787,0.479468,0.38909044,-0.30071389,0.448485,0.37059836,-0.30865508,0.430411,0.37904043,-0.31184004,0.433007,0.45325988,-0.30573769,0.477784,0.41037916,-0.30949282,0.450469,0.42584506,-0.33503602,0.463912,0.44946483,-0.34377898,0.480312,0.47639635,-0.32436968,0.479567,0.45126977,-0.28678953,0.454789,0.43323041,-0.28490041,0.443404,0.42953435,-0.29932013,0.445259
0.47208579,-0.41549004,0.533505,0.45798531,-0.35658342,0.509046,0.45381141,-0.39032172,0.530215,0.41859557,-0.37929634,0.513876,0.37687206,-0.34996158,0.494824,0.359172,-0.32439068,0.483375,0.4293245,-0.28129372,0.484625,0.39064923,-0.26992314,0.462494,0.40242285,-0.29697208,0.476088,0.42275409,-0.3123313,0.490251,0.44486935,-0.28875,0.479398,0.40982265,-0.25170777,0.450984,0.38344902,-0.26130941,0.43441,0.38636067,-0.27766088,0.438417,0.45887425,-0.29882692,0.476834,0.41652147,-0.29656598,0.452101,0.42797683,-0.32514687,0.466648,0.45071436,-0.34130794,0.482447,0.47591791,-0.31993445,0.477164,0.44925631,-0.27576031,0.454477,0.43262648,-0.27705124,0.444053,0.43282665,-0.29587701,0.447069
0.50108257,-0.43582278,0.52674,0.47467524,-0.36744411,0.50894,0.48411448,-0.41061254,0.523048,0.4289118,-0.3805853,0.513388,0.39176357,-0.35720568,0.500718,0.37056955,-0.3357253,0.489084,0.42518691,-0.30700807,0.489593,0.40309977,-0.26169235,0.468335,0.40448745,-0.26924506,0.469153,0.41898426,-0.29199958,0.48424,0.44751244,-0.30424314,0.487364,0.42909909,-0.30646239,0.463112,0.4183897,-0.31749454,0.448965,0.42426891,-0.32192873,0.45606,0.46754059,-0.30558331,0.486793,0.44470773,-0.28274803,0.464453,0.46794091,-0.31394119,0.481779,0.48696208,-0.33731462,0.497721,0.49495953,-0.31434675,0.488585,0.47729199,-0.30298796,0.46905,0.46495249,-0.31243547,0.460075,0.46827336,-0.32295927,0.465554
0.48460193,-0.42476524,0.533234,0.46846286,-0.3716009,0.513265,0.47508226,-0.41289656,0.529786,0.42265621,-0.37966797,0.518473,0.38861435,-0.35685486,0.497995,0.36731319,-0.33488058,0.485755,0.42281675,-0.31223607,0.492405,0.40374806,-0.26234444,0.469177,0.39591876,-0.2509614,0.457564,0.40313964,-0.26551642,0.463738,0.44434893,-0.30966429,0.48906,0.41824794,-0.26303034,0.464029,0.4055943,-0.24534097,0.449428,0.41482171,-0.2592436,0.455774,0.46326381,-0.31112397,0.487727,0.43480022,-0.2664743,0.465245,0.45521732,-0.28690279,0.481837,0.47579451,-0.31578272,0.497543,0.48855434,-0.31983641,0.488907,0.47326513,-0.31942645,0.468339,0.45754848,-0.32517848,0.458889,0.45209974,-0.33623058,0.463645
0.48585181,-0.43385636,0.530898,0.46587489,-0.38505192,0.516783,0.45879386,-0.41421312,0.528671,0.42205571,-0.38278782,0.520083,0.38906186,-0.35753059,0.4993,0.36927256,-0.33470049,0.487485,0.43032086,-0.32219879,0.502292,0.42039403,-0.28015385,0.483409,0.41542545,-0.25915376,0.473967,0.42220406,-0.26369759,0.482493,0.45241465,-0.3236798,0.499673,0.43632685,-0.27971691,0.479683,0.42695682,-0.25386035,0.468023,0.41900741,-0.24790411,0.459694,0.47154921,-0.32846446,0.498521,0.45672024,-0.28016718,0.479423,0.44805824,-0.27063851,0.469652,0.45767785,-0.27222882,0.479056,0.49637337,-0.34128095,0.499104,0.47709293,-0.30062555,0.482225,0.4695231,-0.2953088,0.474469,0.47729302,-0.31168301,0.481126
0.47915563,-0.42851525,0.530943,0.46688482,-0.38442341,0.51791,0.45808082,-0.41528562,0.529293,0.42201653,-0.38349303,0.520749,0.38825162,-0.35685394,0.499225,0.36961756,-0.33415839,0.48849,0.43258441,-0.32256166,0.505023,0.42312393,-0.28026537,0.487014,0.41838696,-0.25915459,0.47801,0.42502794,-0.26307047,0.486905,0.45440324,-0.32393566,0.502112,0.43904454,-0.27959909,0.483161,0.43009655,-0.25352976,0.472106,0.42155537,-0.23977235,0.464209,0.47328101,-0.32859383,0.500643,0.45942559,-0.28078043,0.482599,0.45015918,-0.26672007,0.473367,0.4593544,-0.26481019,0.483209,0.4976995,-0.34118241,0.500695,0.4789327,-0.2997002,0.484673,0.4712433,-0.29409271,0.477312,0.4790025,-0.31032086,0.4843
0.47775494,-0.42858436,0.530039,0.46686984,-0.38455646,0.518905,0.45648127,-0.4153228,0.528852,0.42270514,-0.38429069,0.522119,0.38980017,-0.35647144,0.501768,0.3742118,-0.3331012,0.493916,0.43416881,-0.32418541,0.508166,0.42405543,-0.28053086,0.491812,0.41927757,-0.25923629,0.483634,0.42619003,-0.26192101,0.493251,0.45619128,-0.32550981,0.505409,0.44156022,-0.28244662,0.488161,0.42804332,-0.25744879,0.478099,0.42431681,-0.24230236,0.470912,0.47513426,-0.33005221,0.503932,0.46084104,-0.28301808,0.48768,0.44975362,-0.26655674,0.479366,0.45953169,-0.26046947,0.49,0.49940366,-0.34234672,0.503711,0.48030795,-0.29976134,0.488968,0.47260016,-0.29145396,0.482194,0.47838779,-0.30129287,0.48973
0.4755547,-0.42597933,0.531937,0.46533928,-0.38149125,0.521524,0.45577276,-0.41094595,0.53153,0.41653299,-0.37957313,0.521156,0.38295102,-0.3493883,0.504632,0.36728592,-0.32599168,0.496484,0.43485645,-0.31828808,0.512335,0.4227983,-0.27551188,0.49707,0.41658413,-0.25498502,0.489438,0.42596536,-0.26077988,0.499382,0.45614847,-0.32011046,0.508903,0.44027553,-0.27649694,0.492452,0.43097875,-0.25117383,0.482856,0.4243323,-0.23291698,0.476002,0.47475553,-0.32775353,0.506818,0.45974928,-0.28370453,0.491554,0.44996522,-0.26299402,0.483744,0.46161993,-0.25952882,0.494684,0.49933562,-0.34092457,0.50577,0.47950057,-0.3000498,0.491784,0.47220678,-0.29027119,0.485358,0.48051805,-0.30154128,0.493109
0.47411306,-0.43497249,0.534173,0.45938542,-0.38613795,0.524892,0.45394489,-0.41809512,0.5338,0.41323972,-0.38512707,0.523987,0.3833933,-0.35220245,0.508194,0.36809548,-0.32830925,0.498634,0.43712737,-0.32744743,0.516689,0.43099046,-0.28253954,0.504848,0.4280236,-0.26650845,0.498928,0.4372521,-0.2661696,0.510252,0.45879888,-0.32955739,0.513643,0.44378954,-0.28238732,0.49816,0.43616718,-0.25686919,0.489128,0.43058301,-0.24222164,0.482676,0.47712627,-0.33465467,0.511796,0.46349513,-0.28798329,0.497144,0.45708562,-0.27274592,0.489648,0.46897297,-0.26727754,0.500929,0.49620082,-0.34936101,0.510874,0.48027203,-0.31244349,0.497555,0.47318427,-0.29921668,0.491435,0.48466557,-0.30492361,0.499492
