sluyters/QuantumLeap/backend/src/datasets/dynamic/HandGestureDataset_SHREC2017_csv/Gesture10/finger_2/subject_10_essai_4_skeletons_world.csv
Wrist_x,Wrist_y,Wrist_z,Palm_x,Palm_y,Palm_z,thumb_base_x,thumb_base_y,thumb_base_z,thumb_first_joint_x,thumb_first_joint_y,thumb_first_joint_z,thumb_second_joint_x,thumb_second_joint_y,thumb_second_joint_z,thumb_tip_x,thumb_tip_y,thumb_tip_z,index_base_x,index_base_y,index_base_z,index_first_joint_x,index_first_joint_y,index_first_joint_z,index_second_joint_x,index_second_joint_y,index_second_joint_z,index_tip_x,index_tip_y,index_tip_z,middle_base_x,middle_base_y,middle_base_z,middle_first_joint_x,middle_first_joint_y,middle_first_joint_z,middle_second_joint_x,middle_second_joint_y,middle_second_joint_z,middle_tip_x,middle_tip_y,middle_tip_z,ring_base_x,ring_base_y,ring_base_z,ring_first_joint_x,ring_first_joint_y,ring_first_joint_z,ring_second_joint_x,ring_second_joint_y,ring_second_joint_z,ring_tip_x,ring_tip_y,ring_tip_z,pinky_base_x,pinky_base_y,pinky_base_z,pinky_first_joint_x,pinky_first_joint_y,pinky_first_joint_z,pinky_second_joint_x,pinky_second_joint_y,pinky_second_joint_z,pinky_tip_x,pinky_tip_y,pinky_tip_z,
0.40744676,-0.29358472,0.491204,0.39397732,-0.25771705,0.452969,0.38290039,-0.27421211,0.475905,0.34530007,-0.2423993,0.459004,0.30808954,-0.22085353,0.440937,0.28657182,-0.20325063,0.425392,0.35298921,-0.21311009,0.407984,0.32560473,-0.18842727,0.369638,0.31297063,-0.17715033,0.350465,0.30080159,-0.16550399,0.333034,0.38027073,-0.22333914,0.414311,0.35944033,-0.18450039,0.37255,0.34262084,-0.175968,0.34819,0.3281866,-0.17436819,0.33079,0.40288326,-0.2356046,0.422416,0.37766424,-0.19488479,0.383333,0.36326849,-0.18019409,0.363337,0.34283038,-0.18790628,0.345159,0.43189505,-0.25467872,0.437511,0.41260871,-0.21930509,0.404991,0.40351943,-0.20413813,0.39005,0.38938519,-0.20729024,0.376866
0.40748964,-0.29199016,0.492369,0.39341542,-0.25693801,0.454083,0.38288774,-0.27296517,0.477086,0.34438868,-0.24130462,0.459115,0.30728442,-0.21950924,0.440428,0.28628717,-0.2004669,0.425259,0.35262448,-0.21272125,0.409083,0.32555429,-0.18828695,0.370725,0.31202486,-0.17606556,0.351546,0.30090125,-0.16554799,0.33411,0.3785462,-0.2233232,0.415374,0.35972455,-0.18257214,0.374139,0.34458513,-0.17246884,0.350085,0.33038059,-0.17097322,0.332904,0.40106606,-0.23555624,0.423453,0.37615033,-0.19498207,0.38451,0.36190709,-0.18035629,0.364586,0.34197456,-0.18654161,0.346473,0.42995007,-0.25458332,0.438525,0.41103327,-0.21940371,0.40624,0.40211732,-0.20431888,0.391407,0.3896077,-0.20662323,0.378318
0.40774957,-0.2912013,0.49338,0.39346239,-0.25672755,0.455,0.38302315,-0.27237203,0.477992,0.34411108,-0.24082558,0.459161,0.30728541,-0.21845389,0.440082,0.28674297,-0.19919365,0.424899,0.35265461,-0.21268075,0.409805,0.32578244,-0.18837899,0.371386,0.3123509,-0.17622435,0.352176,0.30110623,-0.1656641,0.334712,0.37847493,-0.22353299,0.416195,0.3599854,-0.18292445,0.375222,0.3453368,-0.17240985,0.351321,0.33293308,-0.16920942,0.334249,0.40105808,-0.235715,0.424363,0.37614295,-0.19714701,0.385226,0.36164645,-0.18259297,0.365202,0.34339268,-0.18770125,0.346999,0.43001351,-0.25468826,0.439554,0.41151047,-0.21973282,0.407625,0.40279936,-0.20474291,0.392955,0.39074838,-0.20481273,0.380011
0.40784336,-0.2912012,0.493874,0.39343959,-0.25723983,0.455318,0.38306612,-0.27256584,0.478433,0.34363699,-0.24076151,0.458186,0.30972744,-0.2153775,0.439161,0.29196889,-0.19469608,0.424471,0.35308887,-0.21442106,0.409937,0.32687917,-0.19078097,0.371458,0.31396251,-0.17921806,0.352219,0.30123471,-0.16633767,0.334728,0.37865523,-0.22549193,0.416335,0.36012847,-0.18470817,0.375298,0.3449545,-0.17521417,0.35136,0.33253882,-0.17053924,0.334261,0.40124878,-0.23789724,0.424523,0.37665031,-0.19866813,0.385477,0.36195098,-0.18308596,0.3655,0.3438032,-0.18790281,0.347339,0.42996305,-0.25537193,0.439762,0.41141131,-0.22042938,0.407745,0.40297053,-0.2069157,0.393034,0.39075961,-0.2068758,0.380054
0.40986175,-0.29409532,0.498094,0.38885789,-0.2660175,0.459219,0.38483545,-0.27526309,0.482259,0.34254147,-0.24500319,0.459246,0.30813997,-0.21779467,0.439635,0.29058405,-0.19586902,0.424457,0.35078505,-0.22286414,0.413134,0.32855463,-0.19936767,0.374502,0.31475803,-0.18855221,0.355186,0.30410164,-0.17438981,0.33784,0.3763102,-0.23523332,0.419912,0.36397573,-0.19557465,0.379094,0.34922887,-0.18352959,0.355284,0.33634347,-0.17782646,0.338276,0.39825972,-0.24771926,0.428437,0.376043,-0.21027535,0.389962,0.36746577,-0.19250502,0.370277,0.3487661,-0.19050007,0.352382,0.42614947,-0.26691768,0.444123,0.40970463,-0.23266382,0.412155,0.40193146,-0.21800779,0.397466,0.39494964,-0.21794583,0.384506
0.42914016,-0.31106068,0.5259,0.40481325,-0.27351075,0.48554,0.40128553,-0.2881448,0.509185,0.35078729,-0.26834122,0.478718,0.31572012,-0.23418161,0.451292,0.29859474,-0.21506215,0.431382,0.37083685,-0.2199778,0.437356,0.35608935,-0.20942081,0.400719,0.34067432,-0.21134814,0.3824,0.3146738,-0.21555379,0.365747,0.3953156,-0.23682385,0.444733,0.33907811,-0.24841008,0.403179,0.32429807,-0.24674695,0.400048,0.33844788,-0.24361707,0.414097,0.41628737,-0.25350214,0.453864,0.36430239,-0.26472095,0.41437,0.33854218,-0.26869459,0.394164,0.31948515,-0.26856121,0.381814,0.44272726,-0.27865231,0.470482,0.42783728,-0.25614646,0.43778,0.42102494,-0.24580037,0.422755,0.41218813,-0.24144186,0.409498
0.38863639,-0.29532944,0.491335,0.37981932,-0.26655097,0.451993,0.37248398,-0.2783554,0.475665,0.31655382,-0.25744699,0.450698,0.28283579,-0.22351616,0.429691,0.2686724,-0.19750303,0.414816,0.34981774,-0.21102644,0.405794,0.33850471,-0.1985809,0.368569,0.30686748,-0.2010447,0.349957,0.27821051,-0.19949964,0.333037,0.37548743,-0.22858956,0.412215,0.35551041,-0.20838472,0.370594,0.34408915,-0.19649194,0.346315,0.33159088,-0.20556059,0.339104,0.39332811,-0.24696719,0.420483,0.36704504,-0.22364406,0.380489,0.35361311,-0.21171153,0.360027,0.34163208,-0.20099269,0.341644,0.41575957,-0.27406763,0.435929,0.40953158,-0.23483741,0.403861,0.39875849,-0.23243579,0.389126,0.37917265,-0.23552627,0.376126
0.37520572,-0.30193862,0.479229,0.37231449,-0.2701046,0.442282,0.36113935,-0.2735729,0.46316,0.30748381,-0.26031599,0.436985,0.27938911,-0.22805815,0.421829,0.27146168,-0.20528941,0.414727,0.34410838,-0.2140761,0.397224,0.31062423,-0.21061726,0.359114,0.29365201,-0.20895753,0.340059,0.26779329,-0.21141902,0.322736,0.36763325,-0.23302825,0.404925,0.34971349,-0.21537869,0.363926,0.33932366,-0.20510234,0.340009,0.31673159,-0.20804001,0.322926,0.38753464,-0.25156136,0.414064,0.36201919,-0.2303022,0.374727,0.34900711,-0.21943528,0.354601,0.33726946,-0.20960111,0.336365,0.41205688,-0.27909386,0.430204,0.40382798,-0.24014721,0.398907,0.38724729,-0.24134061,0.384528,0.36619595,-0.24426845,0.37184
0.37343853,-0.3038839,0.475055,0.37074103,-0.27186435,0.439117,0.3543876,-0.28316575,0.459011,0.30623781,-0.26999555,0.430625,0.28069745,-0.23837732,0.417138,0.27230325,-0.21450568,0.407759,0.34245546,-0.21887591,0.394779,0.30882957,-0.21210192,0.357073,0.29190869,-0.21033344,0.33822,0.26637111,-0.21284281,0.321081,0.36676586,-0.23782547,0.40278,0.34825413,-0.21681949,0.362286,0.33786489,-0.20635685,0.338664,0.31549587,-0.2093385,0.321791,0.38740629,-0.25646503,0.412089,0.36093195,-0.23191412,0.37323,0.34788027,-0.22093087,0.353349,0.33605347,-0.21095487,0.335276,0.41289887,-0.28428598,0.428286,0.40348124,-0.24206091,0.397716,0.38718146,-0.24336429,0.38367,0.36652526,-0.24651016,0.371277
0.37533791,-0.31349983,0.474167,0.37143692,-0.28534478,0.437255,0.35591146,-0.29265326,0.458349,0.3082997,-0.27308009,0.432775,0.27695199,-0.24522416,0.416672,0.26541417,-0.22271936,0.408121,0.34042558,-0.22764828,0.392532,0.30341748,-0.22648131,0.354556,0.28414311,-0.2261849,0.335569,0.2577939,-0.22647615,0.318307,0.36453419,-0.24628237,0.399933,0.3446703,-0.22651344,0.358783,0.33316181,-0.21500616,0.334778,0.31046404,-0.21746736,0.317632,0.3851584,-0.26476029,0.408822,0.35558679,-0.2434469,0.369569,0.34048863,-0.23255985,0.349486,0.32679234,-0.22267954,0.331235,0.41092081,-0.29258558,0.424661,0.4010338,-0.25205031,0.393273,0.38354802,-0.25332941,0.378852,0.3624163,-0.25532679,0.366127
0.37756484,-0.32971426,0.474137,0.3712416,-0.29607898,0.437311,0.35637696,-0.30434128,0.458536,0.30899886,-0.28365916,0.431777,0.27422914,-0.25467166,0.412629,0.25969045,-0.23122068,0.400901,0.34022683,-0.23918464,0.392915,0.30920499,-0.23707876,0.355252,0.29369461,-0.23588854,0.336434,0.26815355,-0.2374002,0.319327,0.36462065,-0.25676235,0.400076,0.34404641,-0.22851866,0.358962,0.31555514,-0.23343654,0.334978,0.28904198,-0.23420113,0.317847,0.3853913,-0.27431252,0.408762,0.35552045,-0.25346728,0.369612,0.34026862,-0.24282616,0.349581,0.32643444,-0.23317597,0.331379,0.41123882,-0.30096183,0.424347,0.40106411,-0.26152399,0.393552,0.38430458,-0.2638445,0.379402,0.36394533,-0.26591774,0.366918
0.37506286,-0.33845545,0.470695,0.36951311,-0.30477377,0.434323,0.35333581,-0.31333964,0.454764,0.30802301,-0.28989021,0.429185,0.27252082,-0.26391348,0.410654,0.25642895,-0.24129493,0.398597,0.33794175,-0.24757367,0.38983,0.3065552,-0.24509784,0.352032,0.29085208,-0.24369367,0.333134,0.26576246,-0.24492134,0.315953,0.36299414,-0.26520771,0.397548,0.34764071,-0.23778888,0.356755,0.32928193,-0.23445374,0.33296,0.31089341,-0.23606929,0.315963,0.38433374,-0.28284425,0.406658,0.35449824,-0.26263111,0.367622,0.33926709,-0.25232225,0.347651,0.32545095,-0.24297888,0.329502,0.41086622,-0.3096552,0.42268,0.39913456,-0.26981658,0.391092,0.38199093,-0.27208443,0.376578,0.3615753,-0.27351228,0.363772
0.3748385,-0.34318596,0.470642,0.37167468,-0.30903108,0.435693,0.35476495,-0.32286273,0.45566,0.30924823,-0.29895733,0.430893,0.27519965,-0.26839627,0.414072,0.25971676,-0.2449995,0.402179,0.34695266,-0.25262044,0.393342,0.31165018,-0.24986248,0.356561,0.28177553,-0.24577201,0.33817,0.27467128,-0.23729796,0.334828,0.37020169,-0.27175876,0.400357,0.35230014,-0.25008345,0.360484,0.33354175,-0.24637189,0.337224,0.31489314,-0.24353677,0.320611,0.38974099,-0.29072548,0.40878,0.35937027,-0.27338528,0.370762,0.34387332,-0.26458208,0.351311,0.3298301,-0.25664062,0.333643,0.4135576,-0.31930784,0.423783,0.40182855,-0.27985052,0.392616,0.38376721,-0.28188748,0.378296,0.36315719,-0.28277239,0.36566
0.37148518,-0.35014541,0.465934,0.36678806,-0.32005462,0.428964,0.35134364,-0.32822934,0.450509,0.30460597,-0.30614512,0.42525,0.27081377,-0.27634366,0.407818,0.25673903,-0.25234592,0.396685,0.33733257,-0.26041339,0.384688,0.30655988,-0.25560031,0.346873,0.2760192,-0.25446255,0.327966,0.26247582,-0.24992673,0.322939,0.36089042,-0.27929447,0.391585,0.32801145,-0.26681285,0.350367,0.3088572,-0.25961556,0.326323,0.28390578,-0.2614809,0.309149,0.38096097,-0.29807203,0.400064,0.3501183,-0.27662492,0.360902,0.33368264,-0.2668678,0.340866,0.32030313,-0.25418128,0.324109,0.40591879,-0.32646114,0.415423,0.39546911,-0.2851574,0.384762,0.37820765,-0.28656687,0.370675,0.35763573,-0.28745591,0.358245
0.37690345,-0.36344461,0.46435,0.3698881,-0.32485293,0.423915,0.35684255,-0.33818137,0.450687,0.3179998,-0.30936887,0.428941,0.2813434,-0.28493492,0.411964,0.25759461,-0.267809,0.395998,0.33448125,-0.26533806,0.379445,0.30001079,-0.25844693,0.340722,0.26920092,-0.25441466,0.321361,0.25611072,-0.24401455,0.313734,0.35593239,-0.28210616,0.38303,0.32042294,-0.25873082,0.339999,0.29651486,-0.25248523,0.314898,0.27149906,-0.25297359,0.296968,0.37483202,-0.2992464,0.389048,0.34834957,-0.26719189,0.348916,0.32500107,-0.25846832,0.328383,0.30695254,-0.25196449,0.309718,0.39953954,-0.32591737,0.401974,0.37460315,-0.29043531,0.368148,0.35836427,-0.28349934,0.352605,0.34245411,-0.28003336,0.338892
0.3824445,-0.37204078,0.463579,0.36914294,-0.33446652,0.423061,0.36170644,-0.34697814,0.450305,0.31816067,-0.319734,0.429158,0.28158311,-0.29532725,0.412315,0.25792832,-0.27828413,0.396511,0.3341022,-0.27509654,0.379015,0.2996621,-0.26812661,0.340326,0.26888343,-0.26336735,0.320982,0.25693151,-0.25355436,0.313383,0.35506168,-0.29152379,0.382093,0.32419341,-0.26437295,0.339054,0.29805469,-0.25868125,0.313948,0.27172163,-0.25428732,0.296016,0.37353231,-0.30836898,0.387699,0.34698878,-0.27627736,0.347553,0.32723262,-0.26889403,0.327013,0.3065655,-0.26519175,0.30834,0.39772559,-0.33468147,0.400149,0.37279499,-0.29918687,0.366371,0.35658162,-0.29223204,0.350851,0.34070087,-0.28870194,0.337157
0.37941718,-0.3740854,0.461113,0.36584538,-0.33634877,0.420414,0.35877538,-0.34889501,0.447656,0.31612514,-0.32025544,0.426711,0.28017005,-0.29562193,0.409834,0.25758309,-0.27704692,0.394171,0.33087834,-0.28127809,0.37602,0.29774586,-0.27313947,0.337361,0.26657366,-0.26390019,0.318032,0.25475731,-0.25320643,0.310131,0.35150311,-0.29830958,0.379264,0.32191521,-0.27065619,0.336167,0.29482414,-0.26576426,0.311027,0.26999289,-0.26534924,0.29307,0.36962832,-0.31557993,0.385021,0.34351288,-0.28217841,0.344839,0.32290355,-0.27532603,0.324281,0.30175984,-0.27159598,0.305592,0.3932857,-0.34225917,0.397675,0.36955312,-0.30643768,0.363719,0.35220491,-0.30134745,0.348117,0.33462456,-0.29981403,0.334351
0.37795744,-0.37984202,0.457245,0.36698993,-0.34624621,0.416563,0.35788701,-0.35497659,0.444513,0.32128018,-0.32715326,0.42431,0.28661744,-0.30166898,0.408726,0.26190771,-0.27913449,0.393855,0.33085754,-0.2865289,0.373074,0.29381855,-0.27880581,0.334737,0.26306389,-0.27186646,0.315569,0.25305301,-0.25717011,0.307977,0.35087662,-0.3036618,0.37543,0.32273369,-0.27406366,0.332392,0.2933462,-0.26955769,0.307287,0.2668333,-0.26511195,0.289355,0.36876778,-0.32111915,0.380453,0.34427633,-0.28521802,0.340352,0.32115454,-0.27967417,0.319835,0.29813865,-0.27161683,0.301183,0.39258202,-0.34817321,0.392234,0.36544368,-0.31393847,0.359078,0.34963129,-0.29928063,0.343845,0.33348814,-0.29122298,0.330403
0.37937762,-0.38645659,0.455132,0.36606603,-0.34817309,0.414333,0.36231275,-0.36599011,0.442968,0.32211162,-0.33524297,0.423188,0.28703897,-0.3111083,0.408539,0.26514618,-0.29097249,0.394162,0.32856109,-0.29179885,0.371464,0.29015806,-0.28429811,0.333602,0.2607431,-0.27641778,0.314671,0.25202549,-0.26204079,0.307121,0.34862952,-0.30496717,0.373081,0.31948971,-0.2794806,0.330052,0.28980416,-0.27503734,0.304952,0.26419585,-0.26978715,0.287024,0.36629264,-0.32188155,0.377505,0.34145524,-0.28531812,0.337431,0.31875595,-0.27904379,0.316927,0.29560434,-0.27546346,0.298288,0.39002245,-0.34836419,0.388591,0.36341893,-0.31252453,0.355723,0.34993885,-0.29830925,0.340621,0.33118907,-0.29395683,0.327296
0.37775593,-0.38690789,0.452179,0.36417236,-0.35151766,0.411227,0.35955333,-0.36572012,0.439615,0.31558274,-0.34069161,0.422082,0.27799316,-0.31932392,0.40792,0.25317849,-0.30232197,0.393623,0.32608003,-0.29165787,0.367763,0.28668711,-0.28956212,0.330537,0.25824502,-0.28030539,0.311924,0.24984339,-0.26447597,0.304283,0.34626737,-0.30833801,0.369822,0.31641173,-0.28007525,0.326745,0.28591895,-0.27986938,0.301617,0.25992993,-0.27424505,0.283668,0.36445453,-0.32548138,0.374622,0.33869584,-0.28811849,0.334559,0.31646922,-0.28101173,0.314062,0.29209834,-0.27826135,0.295428,0.38890082,-0.35226095,0.386176,0.36279731,-0.31943221,0.352955,0.35028543,-0.30390625,0.337691,0.32885427,-0.29537201,0.324223
0.37631579,-0.38769125,0.450547,0.36245473,-0.35174201,0.409923,0.35782418,-0.36605729,0.43811,0.31431061,-0.33996666,0.421201,0.27682032,-0.31904688,0.407146,0.25209737,-0.30225387,0.392916,0.32572043,-0.29216889,0.366837,0.29166145,-0.28715134,0.329781,0.25883901,-0.27739429,0.311254,0.25020525,-0.26524923,0.304168,0.34602814,-0.31121345,0.368847,0.31598268,-0.28024249,0.325863,0.28572287,-0.27597139,0.300789,0.25946271,-0.27418872,0.282879,0.36360426,-0.32853211,0.373583,0.33768711,-0.29055824,0.333675,0.315497,-0.28133826,0.313257,0.29100124,-0.27856205,0.294695,0.38700512,-0.35534456,0.385013,0.36149207,-0.31985661,0.352043,0.34940366,-0.30418808,0.336895,0.3287403,-0.29788652,0.323529
0.37610392,-0.39204718,0.44884,0.36002086,-0.35389136,0.408233,0.35581861,-0.36667408,0.436382,0.31257366,-0.34007736,0.419406,0.27543076,-0.31897274,0.405356,0.25121782,-0.30156515,0.391181,0.32461245,-0.29407104,0.365132,0.28779363,-0.28739589,0.328063,0.25800563,-0.27885421,0.309529,0.24873945,-0.2649938,0.30246,0.34422978,-0.31115429,0.367175,0.31515584,-0.28277722,0.324192,0.28447725,-0.28012087,0.299119,0.25810012,-0.2767355,0.28121,0.36174714,-0.3285667,0.371935,0.33615561,-0.29029391,0.332037,0.31378474,-0.28304715,0.311624,0.28901989,-0.28035206,0.293067,0.38443044,-0.35719505,0.383393,0.35814947,-0.32211739,0.350221,0.34590166,-0.30626481,0.334979,0.32819845,-0.30234276,0.32153
0.37529627,-0.39366421,0.448165,0.35883756,-0.35648914,0.407427,0.35520555,-0.37069977,0.435798,0.31138175,-0.34372397,0.418055,0.27425468,-0.32258183,0.403624,0.25037857,-0.30197456,0.389582,0.32399988,-0.29557463,0.36435,0.28225679,-0.29320158,0.327338,0.25456678,-0.27980204,0.308832,0.24779601,-0.26639131,0.301606,0.34332354,-0.31281958,0.366237,0.31554503,-0.28684673,0.323198,0.28401322,-0.28316697,0.298092,0.25656893,-0.27856379,0.28016,0.36058801,-0.33044439,0.370879,0.3354114,-0.2915496,0.33091,0.31270675,-0.28434899,0.310461,0.28790676,-0.28051642,0.291871,0.38357317,-0.35785312,0.382214,0.35585379,-0.32497678,0.348897,0.34301938,-0.30905679,0.333589,0.32555763,-0.30425371,0.320082
0.37450491,-0.39459669,0.447427,0.35840987,-0.35693263,0.406837,0.35454324,-0.37146149,0.435193,0.31112147,-0.34374211,0.41743,0.27391107,-0.32280302,0.402947,0.25003068,-0.30240699,0.388865,0.32373628,-0.29595063,0.364026,0.28205846,-0.29299557,0.327108,0.25404346,-0.28039656,0.30865,0.24762029,-0.2667612,0.301675,0.342972,-0.31312904,0.365797,0.31526435,-0.28693377,0.322803,0.28352309,-0.28329234,0.297723,0.25604918,-0.27895734,0.279808,0.36015964,-0.33071047,0.370334,0.33510447,-0.29181582,0.330411,0.31234957,-0.28468546,0.309986,0.28749881,-0.28086649,0.291417,0.38304163,-0.35808602,0.381522,0.35528943,-0.32486982,0.348287,0.34243815,-0.30893435,0.333016,0.32471208,-0.3046241,0.319543
0.3744531,-0.3958694,0.447521,0.35847835,-0.3575227,0.406852,0.35451326,-0.37247146,0.435305,0.31129867,-0.3440906,0.41753,0.27407943,-0.3233142,0.403109,0.25019882,-0.30318003,0.389009,0.32373502,-0.2963197,0.364008,0.2820507,-0.29298752,0.327099,0.25385259,-0.28077198,0.308645,0.24737461,-0.26686853,0.301564,0.34294674,-0.31348429,0.365731,0.31523191,-0.28707535,0.322716,0.28335861,-0.28343498,0.297623,0.25583207,-0.2792952,0.2797,0.36012342,-0.33107298,0.370234,0.33509009,-0.2921235,0.330279,0.31227128,-0.28501135,0.309836,0.28736365,-0.28123347,0.291253,0.38301111,-0.35849551,0.381394,0.35519288,-0.32498593,0.348164,0.34231874,-0.30902741,0.332896,0.32441334,-0.3050425,0.319425
0.37027488,-0.38069059,0.436025,0.35969031,-0.34202006,0.397241,0.3540215,-0.36039161,0.42952,0.31534335,-0.34503421,0.411325,0.27082894,-0.31907509,0.396136,0.24586431,-0.30119729,0.38143,0.31450364,-0.28275504,0.362733,0.25797817,-0.28295443,0.324532,0.2629656,-0.28958567,0.328111,0.28256977,-0.29439667,0.342715,0.33055955,-0.29448711,0.358028,0.26699288,-0.29100628,0.316103,0.24207144,-0.27671377,0.291647,0.2421254,-0.26402848,0.28474,0.34624976,-0.30793236,0.357098,0.2856925,-0.30550535,0.318329,0.26403174,-0.28834065,0.298494,0.26462389,-0.27111873,0.291406,0.36940061,-0.33099473,0.36153,0.32037757,-0.3083948,0.331188,0.29637964,-0.30516782,0.317248,0.27572098,-0.30413253,0.304947
0.36706068,-0.3788197,0.431696,0.35418935,-0.33696905,0.392971,0.35044214,-0.35834788,0.425014,0.30867724,-0.33337072,0.411826,0.27222355,-0.31878744,0.400445,0.24926722,-0.30298958,0.388043,0.31047799,-0.27879535,0.358285,0.2556061,-0.27978974,0.320572,0.26027313,-0.28594162,0.324446,0.27862971,-0.2891285,0.337567,0.326741,-0.29015249,0.353817,0.26662974,-0.28823512,0.313453,0.24053311,-0.27585151,0.289908,0.23953857,-0.26450473,0.283641,0.34240102,-0.30316791,0.353077,0.30632667,-0.27939486,0.313951,0.27816581,-0.27768618,0.293932,0.25977699,-0.28582556,0.28696,0.36519611,-0.32552516,0.357727,0.32419745,-0.30453081,0.326615,0.30550171,-0.29578208,0.312319,0.28526631,-0.29611581,0.299706
0.37112327,-0.37966069,0.431449,0.3525199,-0.33407416,0.391584,0.35338106,-0.35895781,0.424879,0.31044845,-0.33429272,0.413093,0.27421721,-0.32083574,0.403317,0.25110544,-0.30428239,0.391558,0.30864044,-0.27532875,0.356257,0.25356762,-0.27559415,0.317516,0.2558637,-0.27933028,0.318601,0.27678606,-0.2837024,0.334321,0.32445411,-0.28445086,0.351276,0.28173428,-0.25874183,0.30952,0.24531142,-0.2587312,0.285162,0.23062741,-0.25918126,0.276324,0.33971404,-0.29660464,0.350202,0.30356369,-0.26904892,0.31059,0.27544959,-0.2667578,0.290323,0.25473805,-0.2762901,0.280919,0.36190137,-0.31801505,0.354617,0.32094615,-0.29940689,0.322885,0.30214287,-0.29084027,0.308305,0.28166051,-0.29073959,0.295441
0.37568931,-0.37817274,0.430375,0.35177351,-0.3268477,0.390806,0.35955322,-0.3574538,0.42449,0.3170737,-0.32765841,0.415099,0.2787471,-0.316415,0.407264,0.25444806,-0.30108198,0.396513,0.30931879,-0.26899122,0.356526,0.2551867,-0.27044508,0.318338,0.25750423,-0.27109059,0.319086,0.27834432,-0.2765608,0.334454,0.32444499,-0.27874289,0.350798,0.28130389,-0.25637825,0.30933,0.24479265,-0.25643317,0.285141,0.23003022,-0.25656719,0.276088,0.33902349,-0.29041433,0.349086,0.3024353,-0.2662804,0.309736,0.27412859,-0.26408625,0.289603,0.25356265,-0.2696811,0.279974,0.36040474,-0.31121774,0.3527,0.31965753,-0.29424028,0.321426,0.30094602,-0.28642572,0.307056,0.28033541,-0.28785302,0.294377
0.37774443,-0.37249714,0.42987,0.35173054,-0.31959614,0.390357,0.3588856,-0.34943452,0.424337,0.31635907,-0.32564661,0.415642,0.27839989,-0.3091648,0.408309,0.25451614,-0.29485247,0.397775,0.30926194,-0.26016521,0.35655,0.25468992,-0.26258869,0.31855,0.25729043,-0.26433354,0.318579,0.27829628,-0.2699123,0.333587,0.32379058,-0.27013931,0.350405,0.27779883,-0.24869213,0.309097,0.24279224,-0.25163871,0.285,0.22825389,-0.25119044,0.275407,0.33782782,-0.28177679,0.348346,0.29039237,-0.26949451,0.310162,0.26312301,-0.26660021,0.290626,0.24362055,-0.27088155,0.280743,0.35849242,-0.30212629,0.35154,0.31770144,-0.2845143,0.320391,0.29884744,-0.27659827,0.30608,0.27852211,-0.27999128,0.293452
0.38040352,-0.36412949,0.43303,0.35284324,-0.308424,0.392955,0.35970753,-0.33784866,0.426277,0.31393959,-0.31490032,0.416511,0.27612607,-0.30237427,0.408331,0.25178203,-0.28364822,0.397534,0.31186594,-0.25022338,0.35726,0.25886534,-0.2551209,0.322895,0.26028761,-0.25724794,0.323819,0.27993894,-0.2587481,0.337749,0.32717431,-0.26154676,0.352435,0.28203088,-0.24012622,0.311695,0.24552544,-0.24146898,0.28793,0.23246181,-0.24150596,0.279054,0.34179343,-0.27443528,0.351505,0.29186589,-0.25545967,0.315282,0.26345027,-0.25710694,0.29675,0.25204683,-0.26160063,0.288048,0.36299283,-0.29653274,0.356122,0.31767002,-0.27578303,0.325922,0.2969358,-0.26622297,0.312047,0.2776855,-0.26756681,0.299804
0.37867591,-0.35423438,0.432615,0.35260682,-0.29771291,0.392511,0.35812386,-0.32742024,0.425631,0.31377868,-0.30395506,0.416042,0.27628888,-0.2916201,0.408219,0.25219974,-0.27312133,0.397696,0.31162267,-0.23941612,0.35651,0.26023811,-0.24648689,0.324351,0.26197647,-0.24944787,0.325725,0.28114505,-0.25038243,0.338964,0.32705643,-0.250993,0.351961,0.28198988,-0.22949277,0.311289,0.24539508,-0.2314038,0.287563,0.23249007,-0.23231846,0.278971,0.34179152,-0.26409479,0.35126,0.29293218,-0.24590872,0.31618,0.26489836,-0.24837209,0.298233,0.25391467,-0.25404212,0.290155,0.36313504,-0.28644939,0.356153,0.31760509,-0.26545025,0.325714,0.29678325,-0.25577912,0.311729,0.27737754,-0.2572425,0.299388
0.37983626,-0.34785418,0.435737,0.35458424,-0.29637039,0.395422,0.35978006,-0.32541092,0.428227,0.31430973,-0.30244162,0.417705,0.27634826,-0.29013549,0.409283,0.25200884,-0.2717086,0.398495,0.31286858,-0.23775169,0.358629,0.261522,-0.24496288,0.3259,0.26321322,-0.24810346,0.327406,0.2823707,-0.24908449,0.340923,0.32852455,-0.2461081,0.354661,0.28420902,-0.22798981,0.31362,0.24769726,-0.2301925,0.289679,0.23476353,-0.23139069,0.281118,0.34393562,-0.25907589,0.354453,0.29694575,-0.23842462,0.318862,0.26918526,-0.24072228,0.300653,0.25752259,-0.24771031,0.292556,0.36608403,-0.2812798,0.359963,0.32098039,-0.2607202,0.32911,0.30034654,-0.25125045,0.314934,0.28069561,-0.25639385,0.302426
0.37967663,-0.33872514,0.436136,0.35450021,-0.28293605,0.396033,0.35973961,-0.31659764,0.428781,0.31419424,-0.29002986,0.418508,0.27638249,-0.27844331,0.41031,0.25203284,-0.26046167,0.399635,0.3130913,-0.22510612,0.359574,0.26240787,-0.23349561,0.326953,0.26427861,-0.23745322,0.328874,0.28329181,-0.23832937,0.342515,0.3292869,-0.23644039,0.355484,0.28513026,-0.21518968,0.314519,0.24899698,-0.21843245,0.290623,0.23632468,-0.22077189,0.282411,0.34462261,-0.24931756,0.355161,0.29769822,-0.22874427,0.31967,0.26995345,-0.23141588,0.301511,0.25860618,-0.23927059,0.293787,0.36663219,-0.27136105,0.360502,0.32154997,-0.25092867,0.329694,0.30092351,-0.24152337,0.315539,0.28177174,-0.24355911,0.303049
0.38329041,-0.32620161,0.439674,0.35721381,-0.27389745,0.399825,0.36341108,-0.30493519,0.43306,0.31898222,-0.28349865,0.423444,0.28115395,-0.2729964,0.415547,0.2550279,-0.26104051,0.404686,0.31383155,-0.21704047,0.364455,0.2644302,-0.22722737,0.332661,0.26718841,-0.23152634,0.334245,0.28622152,-0.23191074,0.347424,0.32961188,-0.22726752,0.359534,0.28373995,-0.20636206,0.319105,0.24861205,-0.2109249,0.295522,0.23703184,-0.21408963,0.28715,0.34479359,-0.23924637,0.358507,0.2965143,-0.21938414,0.323758,0.2692186,-0.22290663,0.305979,0.25896274,-0.23146353,0.298162,0.36697166,-0.26024525,0.362977,0.32075039,-0.24061624,0.332782,0.29962673,-0.23158327,0.318909,0.2809424,-0.23428117,0.306668
0.38558855,-0.31675191,0.443017,0.35828151,-0.2652025,0.402505,0.36477796,-0.29523119,0.43553,0.31802529,-0.27314986,0.425046,0.27966512,-0.26229107,0.416298,0.25328673,-0.24769854,0.405011,0.31559005,-0.20867916,0.365606,0.26567782,-0.21911846,0.333022,0.26688429,-0.2226223,0.333786,0.28536198,-0.22261933,0.346949,0.33210479,-0.21964901,0.361544,0.28782631,-0.19984093,0.320605,0.25226171,-0.20470298,0.296725,0.23831341,-0.21085662,0.28759,0.34775129,-0.23213531,0.361275,0.30068885,-0.21303281,0.325815,0.27329539,-0.21674799,0.307673,0.26063496,-0.22834854,0.298989,0.37023711,-0.25354546,0.366739,0.32513527,-0.23465336,0.336052,0.30449691,-0.22595973,0.321953,0.28460575,-0.23260875,0.309512
0.38403755,-0.3055026,0.443125,0.35838032,-0.25489867,0.402616,0.36345487,-0.28414948,0.435533,0.31792952,-0.26279132,0.424918,0.27953614,-0.25200257,0.416106,0.25315353,-0.23749649,0.404798,0.31557364,-0.19844332,0.365587,0.26554619,-0.20943636,0.332857,0.26691228,-0.21352604,0.333821,0.28550427,-0.21357104,0.347122,0.33220859,-0.2094659,0.361657,0.28783977,-0.18957823,0.32062,0.25222515,-0.19505153,0.296682,0.23930833,-0.19841718,0.287687,0.34796402,-0.22199281,0.361496,0.30077099,-0.20280096,0.325904,0.27327404,-0.20593456,0.307695,0.26054751,-0.2154803,0.299145,0.37059045,-0.24344533,0.367089,0.32535683,-0.22455454,0.336281,0.30466053,-0.21586553,0.322126,0.28576891,-0.21894568,0.309636
0.39539183,-0.3089286,0.456019,0.37154375,-0.24904535,0.418216,0.37207613,-0.28092293,0.446471,0.32142796,-0.25617366,0.430179,0.27915293,-0.2414798,0.415548,0.25140401,-0.22545212,0.401591,0.32525974,-0.18964329,0.380623,0.27837023,-0.20203216,0.346274,0.28324921,-0.21553646,0.352917,0.30258045,-0.21774643,0.368451,0.34688627,-0.20002186,0.379994,0.29133527,-0.2119553,0.338941,0.26967962,-0.2081224,0.314994,0.27127012,-0.19873158,0.310616,0.36695935,-0.21244671,0.382344,0.32043964,-0.21208775,0.34564,0.29537187,-0.2138596,0.326861,0.29346382,-0.20795255,0.322787,0.39485001,-0.23455492,0.390535,0.34116381,-0.23725061,0.358513,0.3182632,-0.23599701,0.343801,0.30881065,-0.22629236,0.33223
0.39845998,-0.30066626,0.458435,0.37347751,-0.24723982,0.420072,0.37486394,-0.27862439,0.449125,0.33062168,-0.2765369,0.43815,0.2915211,-0.26519627,0.428353,0.26608134,-0.25322168,0.419589,0.32638264,-0.18880907,0.382388,0.27883268,-0.19256338,0.348075,0.27534034,-0.21258106,0.354048,0.2893104,-0.23796374,0.369975,0.34746489,-0.19872232,0.381283,0.29154958,-0.20516504,0.34,0.26960129,-0.20667943,0.315918,0.27048887,-0.19798861,0.310941,0.36715526,-0.2107019,0.383283,0.3242223,-0.20680881,0.346529,0.295675,-0.20810597,0.327725,0.29216493,-0.20517448,0.323076,0.39475325,-0.23217093,0.391138,0.34394139,-0.23129695,0.3591,0.31933402,-0.23437676,0.34438,0.31539446,-0.23105694,0.340213
0.38648863,-0.28077791,0.443514,0.36281404,-0.22657986,0.408465,0.36515076,-0.25721636,0.436137,0.32230503,-0.25783045,0.426405,0.28513071,-0.24916748,0.418305,0.26159811,-0.23890616,0.411573,0.31872531,-0.17403219,0.37543,0.27551434,-0.1881154,0.343749,0.27450896,-0.20953983,0.35252,0.28877981,-0.23443428,0.368526,0.33794282,-0.1825601,0.373027,0.28548986,-0.19097817,0.334274,0.26398122,-0.19268427,0.311667,0.26703281,-0.18769486,0.309509,0.35587805,-0.19300263,0.373709,0.31897188,-0.18953916,0.339583,0.29150053,-0.19356718,0.322123,0.28812349,-0.19158607,0.320492,0.38102099,-0.21186426,0.379523,0.33770651,-0.21253125,0.349435,0.31451023,-0.21565549,0.33561,0.30952233,-0.21724693,0.333655
0.40664047,-0.29980421,0.466514,0.38106631,-0.24780648,0.430553,0.38365937,-0.27915436,0.458822,0.3366716,-0.26754975,0.444549,0.30034848,-0.25172183,0.435923,0.27960291,-0.23380632,0.428431,0.33263876,-0.1914754,0.396507,0.28838967,-0.18634658,0.364243,0.28591812,-0.20580233,0.372293,0.29733673,-0.23210026,0.38824,0.35256996,-0.19843191,0.394193,0.3027255,-0.19063924,0.354771,0.2787578,-0.19836863,0.331776,0.28198484,-0.19853098,0.328882,0.37153805,-0.20801324,0.395016,0.3397117,-0.1866808,0.360269,0.31283025,-0.19548913,0.342492,0.3062331,-0.20250918,0.340095,0.39872033,-0.22674417,0.40113,0.36006561,-0.21502897,0.370577,0.33886728,-0.22082469,0.35654,0.33125518,-0.22897451,0.354021
0.40630981,-0.29897,0.466619,0.38030102,-0.24716164,0.432498,0.38453856,-0.27445491,0.460143,0.33738122,-0.25933835,0.44746,0.3023611,-0.24500829,0.439881,0.28203775,-0.22684033,0.432123,0.334294,-0.19209965,0.401208,0.29523122,-0.18027746,0.370622,0.29353764,-0.19713589,0.379903,0.29975805,-0.22321238,0.395679,0.3534821,-0.19833033,0.397997,0.30781707,-0.16605603,0.360136,0.28144749,-0.17813771,0.338051,0.28142189,-0.18842297,0.336496,0.37162776,-0.20723883,0.397944,0.33160866,-0.17391648,0.36486,0.30983852,-0.18420634,0.347934,0.30928598,-0.19663932,0.346995,0.39747287,-0.22501438,0.402753,0.36038891,-0.19391058,0.373468,0.34276533,-0.18747455,0.360013,0.32655433,-0.19221346,0.348141
0.41322349,-0.30386914,0.474854,0.38222866,-0.24886266,0.439126,0.38958031,-0.2794764,0.467075,0.3388994,-0.26088608,0.448546,0.30445398,-0.24613904,0.441059,0.28405583,-0.22706554,0.43255,0.33249051,-0.19203335,0.405133,0.29082423,-0.17207241,0.371313,0.28843829,-0.18615803,0.379516,0.29640235,-0.21263796,0.396138,0.35247293,-0.19752615,0.403003,0.30551489,-0.16050995,0.363697,0.27884777,-0.17124745,0.340768,0.27787232,-0.18276664,0.338095,0.36871604,-0.20400794,0.40396,0.33176556,-0.16398033,0.369262,0.30898908,-0.17084483,0.351509,0.30601413,-0.18621456,0.349324,0.39677541,-0.22101107,0.410199,0.36158148,-0.18735497,0.379675,0.34413646,-0.1764077,0.365651,0.32755988,-0.17629905,0.353276
0.42532675,-0.3251014,0.498675,0.40173856,-0.27675707,0.471608,0.39445557,-0.31250158,0.49129,0.35388804,-0.28241039,0.468683,0.31515394,-0.25491148,0.452501,0.29481585,-0.23209729,0.441255,0.36145931,-0.21604734,0.444015,0.32842574,-0.1957897,0.415936,0.31169982,-0.18609841,0.401896,0.30871205,-0.19024984,0.405465,0.38460383,-0.22166497,0.444242,0.34776898,-0.20730791,0.411311,0.32874897,-0.22185528,0.392101,0.33367421,-0.22930134,0.395234,0.40544476,-0.23050138,0.446481,0.37118133,-0.22630476,0.416697,0.35614913,-0.23694114,0.401458,0.36170418,-0.24103895,0.405006,0.4334412,-0.24915381,0.453009,0.39745122,-0.23923805,0.426409,0.38513515,-0.24800337,0.414188,0.38159822,-0.24727995,0.406783
0.41646511,-0.33370194,0.498366,0.39961153,-0.27440433,0.468138,0.39252467,-0.31142756,0.48998,0.34849878,-0.28171724,0.466033,0.30876894,-0.25220079,0.44626,0.28782894,-0.22786742,0.433845,0.3625981,-0.20996659,0.43715,0.32942759,-0.19142721,0.406771,0.31275112,-0.18211231,0.391581,0.30981539,-0.18078309,0.393373,0.38488812,-0.21692329,0.437575,0.35301444,-0.17832204,0.401965,0.32948245,-0.18993842,0.381193,0.32932139,-0.20427025,0.382486,0.40489957,-0.22697392,0.440217,0.37175972,-0.19009467,0.407991,0.35450591,-0.1763979,0.391504,0.35366271,-0.17854602,0.393153,0.43009487,-0.24680632,0.447674,0.3924006,-0.23647556,0.419116,0.37758447,-0.24422613,0.405995,0.38020718,-0.25063058,0.406499
0.41339034,-0.33138961,0.494684,0.40005344,-0.27421561,0.469109,0.39200218,-0.31115952,0.489323,0.35119101,-0.28316449,0.46952,0.3121624,-0.25276676,0.450263,0.29157444,-0.22961626,0.438417,0.36427192,-0.21361753,0.445032,0.33307758,-0.18864813,0.419234,0.31733227,-0.17597844,0.406335,0.31543094,-0.17112361,0.410909,0.38430368,-0.21727038,0.44325,0.34927345,-0.18115568,0.411988,0.32877073,-0.15990896,0.393752,0.32707382,-0.15620426,0.397672,0.40245243,-0.22443324,0.443724,0.37873496,-0.18609831,0.415163,0.36337497,-0.17246225,0.40055,0.36235684,-0.17410942,0.404816,0.42717328,-0.24111943,0.44794,0.38997725,-0.23250199,0.422984,0.38219492,-0.24402853,0.411518,0.38811244,-0.25443755,0.414163
0.40568579,-0.32703268,0.486236,0.4004666,-0.27590476,0.47077,0.38462918,-0.30744015,0.481199,0.34499381,-0.27877498,0.46261,0.31140025,-0.25108708,0.450063,0.29730558,-0.23062176,0.445472,0.36735843,-0.22319055,0.453994,0.3436021,-0.19022418,0.433756,0.33160241,-0.17336189,0.423637,0.33427685,-0.1645063,0.4321,0.39263452,-0.22546454,0.455133,0.36944919,-0.18807749,0.432458,0.3569983,-0.16441977,0.419231,0.34808543,-0.14720875,0.409784,0.41094908,-0.23534707,0.457243,0.38704828,-0.19425991,0.43632,0.37489157,-0.17444152,0.425615,0.36380137,-0.15622754,0.415883,0.43689982,-0.25173836,0.46196,0.41176103,-0.20964407,0.442712,0.40238348,-0.20038295,0.433868,0.40688241,-0.19833761,0.439902
0.40082935,-0.32441503,0.480803,0.398794,-0.27599019,0.469836,0.38194312,-0.30695313,0.478491,0.34563265,-0.27985613,0.464142,0.31192057,-0.25194651,0.451164,0.29840061,-0.23182237,0.447317,0.37040336,-0.22681706,0.459496,0.35145753,-0.19215826,0.443426,0.34291267,-0.17056463,0.435391,0.33684478,-0.15360681,0.430532,0.39229703,-0.22999744,0.458747,0.3704664,-0.18766448,0.440636,0.35852508,-0.16214473,0.430071,0.34995232,-0.14361657,0.422525,0.41102174,-0.23622205,0.458963,0.39257352,-0.19549011,0.4427,0.38290661,-0.17588361,0.43438,0.37406475,-0.15769596,0.426816,0.43454958,-0.2506397,0.460786,0.42012862,-0.20837562,0.445343,0.41241909,-0.19626939,0.438248,0.40552922,-0.1858742,0.431987
0.39938698,-0.32458936,0.479215,0.39723275,-0.27854426,0.470132,0.38152143,-0.308205,0.478248,0.34389481,-0.28721666,0.466005,0.30896474,-0.25985109,0.451295,0.29160216,-0.23327883,0.441063,0.37186965,-0.23123016,0.462737,0.35544579,-0.19513339,0.448251,0.34741878,-0.17550812,0.441007,0.33990954,-0.15798192,0.434422,0.39373851,-0.23237758,0.460949,0.3736399,-0.19024435,0.44484,0.36237566,-0.16458024,0.435443,0.35428037,-0.14593095,0.428731,0.41160589,-0.23787359,0.460166,0.3948644,-0.19631107,0.445395,0.38606005,-0.17467054,0.437839,0.37812255,-0.15556081,0.430969,0.43386516,-0.25126226,0.460532,0.42178792,-0.21041612,0.447028,0.41481437,-0.19758618,0.440823,0.40860414,-0.18628398,0.435348
0.39294324,-0.32513619,0.469785,0.39484214,-0.28976449,0.464438,0.37642003,-0.31602981,0.468949,0.34278439,-0.29541137,0.458872,0.31082793,-0.27147324,0.448948,0.29619229,-0.25301756,0.445627,0.36605304,-0.24392391,0.459756,0.3549555,-0.19821286,0.448223,0.34862214,-0.17729865,0.442456,0.34266999,-0.159792,0.437214,0.38927266,-0.24411655,0.459032,0.3746245,-0.19243452,0.446353,0.36525762,-0.16740438,0.438957,0.35877044,-0.1484526,0.433674,0.40879186,-0.24768533,0.458843,0.39583373,-0.19905897,0.446978,0.38938982,-0.17817213,0.440908,0.38351154,-0.15883842,0.43539,0.4328206,-0.25835853,0.459381,0.4236947,-0.21882702,0.44896,0.41869501,-0.19992862,0.444173,0.41493415,-0.18676798,0.439948
0.39366134,-0.33607868,0.463633,0.39065487,-0.29724679,0.461018,0.37532407,-0.32475469,0.464909,0.33966938,-0.30380997,0.458699,0.3086691,-0.28064371,0.450541,0.29557586,-0.263331,0.449898,0.36728354,-0.25271928,0.460807,0.35806901,-0.20954673,0.452255,0.35314302,-0.19098548,0.447979,0.34862076,-0.17388392,0.444092,0.38909751,-0.25300959,0.458374,0.37764189,-0.20514866,0.448677,0.37114558,-0.17903319,0.443021,0.36649704,-0.16022308,0.438981,0.40716037,-0.25654833,0.456569,0.39617197,-0.21200159,0.447524,0.39082834,-0.19018064,0.442896,0.3870762,-0.16643961,0.438689,0.42887685,-0.2669818,0.454797,0.42484685,-0.22964829,0.449697,0.42334578,-0.21303734,0.447354,0.42223606,-0.19883977,0.445286
