sluyters/QuantumLeap/backend/src/datasets/dynamic/HandGestureDataset_SHREC2017_csv/Gesture10/finger_2/subject_20_essai_1_skeletons_world.csv
Wrist_x,Wrist_y,Wrist_z,Palm_x,Palm_y,Palm_z,thumb_base_x,thumb_base_y,thumb_base_z,thumb_first_joint_x,thumb_first_joint_y,thumb_first_joint_z,thumb_second_joint_x,thumb_second_joint_y,thumb_second_joint_z,thumb_tip_x,thumb_tip_y,thumb_tip_z,index_base_x,index_base_y,index_base_z,index_first_joint_x,index_first_joint_y,index_first_joint_z,index_second_joint_x,index_second_joint_y,index_second_joint_z,index_tip_x,index_tip_y,index_tip_z,middle_base_x,middle_base_y,middle_base_z,middle_first_joint_x,middle_first_joint_y,middle_first_joint_z,middle_second_joint_x,middle_second_joint_y,middle_second_joint_z,middle_tip_x,middle_tip_y,middle_tip_z,ring_base_x,ring_base_y,ring_base_z,ring_first_joint_x,ring_first_joint_y,ring_first_joint_z,ring_second_joint_x,ring_second_joint_y,ring_second_joint_z,ring_tip_x,ring_tip_y,ring_tip_z,pinky_base_x,pinky_base_y,pinky_base_z,pinky_first_joint_x,pinky_first_joint_y,pinky_first_joint_z,pinky_second_joint_x,pinky_second_joint_y,pinky_second_joint_z,pinky_tip_x,pinky_tip_y,pinky_tip_z,
0.5367251,-0.39671927,0.627852,0.53975522,-0.36047426,0.637856,0.51990839,-0.38996039,0.636377,0.5013673,-0.3688184,0.647582,0.48145012,-0.34909213,0.654593,0.4659164,-0.33173772,0.651075,0.52058231,-0.31592006,0.657985,0.51639509,-0.27951679,0.664622,0.51414647,-0.26114911,0.667941,0.51135051,-0.24737877,0.670957,0.5412294,-0.3095961,0.651904,0.53888933,-0.26826536,0.657286,0.53735375,-0.24283566,0.660425,0.53616702,-0.22672331,0.662667,0.55840831,-0.30758128,0.646195,0.56185212,-0.26744157,0.651284,0.56390359,-0.24484084,0.653888,0.56356664,-0.22617803,0.656255,0.57798587,-0.31004184,0.637913,0.58836032,-0.2732765,0.639725,0.59247325,-0.25555693,0.640557,0.59355428,-0.24080819,0.641291
0.53760842,-0.3956916,0.627843,0.53959792,-0.35955013,0.638285,0.52066694,-0.38881287,0.636234,0.50309977,-0.36586799,0.649066,0.48190039,-0.34777933,0.655543,0.46631258,-0.32832076,0.651608,0.52147842,-0.31441194,0.658684,0.51782579,-0.27730253,0.665371,0.51735562,-0.25878031,0.668822,0.51379931,-0.24325358,0.671959,0.5424616,-0.3086093,0.652947,0.54154984,-0.26705746,0.659351,0.54175129,-0.24227072,0.663087,0.54087334,-0.22559099,0.666047,0.55947568,-0.3066888,0.647489,0.56309239,-0.26576601,0.65226,0.56463261,-0.2436643,0.654701,0.56410404,-0.22560788,0.65692,0.58024886,-0.30796041,0.639447,0.59093461,-0.27147049,0.641709,0.59511008,-0.25348015,0.642749,0.59887458,-0.23811389,0.643666
0.53902417,-0.39556553,0.628376,0.54096987,-0.36026673,0.638784,0.5222323,-0.38875348,0.636978,0.50363677,-0.36768371,0.648566,0.48375167,-0.34938092,0.657306,0.46921226,-0.33227454,0.654956,0.52223029,-0.31570984,0.659405,0.51856364,-0.27909317,0.66586,0.5186959,-0.25954651,0.669269,0.51510343,-0.24457526,0.672368,0.54312415,-0.31025888,0.653399,0.54310809,-0.26781902,0.660316,0.54497098,-0.24360143,0.664829,0.54344015,-0.22662806,0.668053,0.56019559,-0.30752024,0.647724,0.5653113,-0.26733514,0.654261,0.56795307,-0.24578534,0.657783,0.56824975,-0.22821408,0.660985,0.58059504,-0.30923311,0.639425,0.59214936,-0.27323762,0.642539,0.59685646,-0.25499625,0.64397,0.60096939,-0.23978212,0.645233
0.54015449,-0.39514403,0.628415,0.54127084,-0.36015813,0.638696,0.52316303,-0.38813486,0.636785,0.50416429,-0.36840931,0.648093,0.48386512,-0.34937793,0.656666,0.46958882,-0.33119605,0.654224,0.52260863,-0.31490408,0.658911,0.51867096,-0.27860632,0.664695,0.51786958,-0.25883837,0.667587,0.51390783,-0.24344292,0.670216,0.5433304,-0.3094474,0.653132,0.54553323,-0.26798787,0.660743,0.54598601,-0.24401908,0.665183,0.54441864,-0.22677684,0.668354,0.56056853,-0.30748252,0.647651,0.56754222,-0.26826256,0.656423,0.5713359,-0.24739304,0.660911,0.57238065,-0.23014508,0.664992,0.58119466,-0.30937133,0.639604,0.59251095,-0.2733363,0.642561,0.59748808,-0.25545038,0.643919,0.60155417,-0.24023177,0.645118
0.54592228,-0.39835661,0.634298,0.54128638,-0.35807594,0.637704,0.52684955,-0.3897312,0.640447,0.50270645,-0.36524114,0.647082,0.48122928,-0.34666677,0.653054,0.47004637,-0.32694208,0.653085,0.51750523,-0.30423311,0.648466,0.51354763,-0.26928373,0.653933,0.51233161,-0.2520873,0.656666,0.50990054,-0.23473753,0.659151,0.53858354,-0.29916949,0.642488,0.53772363,-0.25593298,0.645189,0.53637474,-0.22990379,0.646764,0.53519848,-0.21105793,0.64789,0.55385723,-0.29969971,0.63733,0.55843459,-0.25996544,0.644129,0.5631587,-0.23694455,0.647608,0.5618291,-0.21999947,0.650771,0.57382037,-0.30369406,0.630646,0.58642959,-0.26283051,0.626352,0.58861933,-0.24698282,0.624379,0.58364957,-0.23811701,0.622639
0.54691973,-0.39762805,0.634037,0.54582451,-0.35345989,0.635576,0.52909129,-0.38959391,0.641629,0.50145241,-0.3594189,0.642059,0.47606584,-0.33822085,0.643541,0.46744354,-0.32385971,0.64903,0.52741854,-0.30005267,0.646232,0.51103951,-0.26234142,0.64379,0.50586283,-0.24246585,0.642569,0.49903851,-0.22826191,0.641459,0.54638713,-0.29532541,0.637738,0.53326345,-0.24867165,0.633278,0.52561151,-0.22147156,0.630677,0.51979671,-0.20235718,0.628819,0.56200713,-0.2943022,0.630642,0.55221885,-0.24848256,0.626031,0.54714107,-0.22494759,0.623672,0.5425068,-0.20341816,0.621527,0.58099768,-0.29877891,0.621894,0.58181109,-0.25812423,0.615591,0.580044,-0.2456905,0.612695,0.57794145,-0.23274588,0.610139
0.54841105,-0.39879899,0.635019,0.54336794,-0.3534722,0.631482,0.52991201,-0.38973998,0.641627,0.50078184,-0.35978454,0.640242,0.47414168,-0.33631902,0.637685,0.46181284,-0.31706041,0.638602,0.52019286,-0.29770955,0.635942,0.51321978,-0.26132492,0.637664,0.50510164,-0.24144586,0.638526,0.49849291,-0.22568092,0.639309,0.53883562,-0.29595771,0.62651,0.52328107,-0.24710028,0.617018,0.51421492,-0.21864399,0.611481,0.50869108,-0.19870896,0.608661,0.553533,-0.29557772,0.619004,0.54101012,-0.24782941,0.608959,0.53459126,-0.22325338,0.60382,0.52788149,-0.20178533,0.599148,0.57197369,-0.30134556,0.610483,0.57491236,-0.25994994,0.599336,0.56732409,-0.2547914,0.594215,0.55712732,-0.26457537,0.589696
0.54220921,-0.39284037,0.62476,0.54707304,-0.34951062,0.616739,0.52670576,-0.38132008,0.629677,0.50159178,-0.35815114,0.625634,0.46447555,-0.33066611,0.613835,0.44998552,-0.31133565,0.612207,0.51372448,-0.28936231,0.614735,0.50047344,-0.24924263,0.611504,0.49206602,-0.23206929,0.609888,0.48422418,-0.21599388,0.608419,0.53168363,-0.2842137,0.605465,0.51201426,-0.23446171,0.591356,0.49961265,-0.20875718,0.583127,0.49067076,-0.19004492,0.577248,0.54713265,-0.2831891,0.598408,0.52979939,-0.23423293,0.584118,0.52075292,-0.20962707,0.576806,0.51252297,-0.18720329,0.570159,0.56731001,-0.28840071,0.591064,0.560839,-0.24837778,0.575986,0.55716689,-0.23105719,0.569058,0.55279556,-0.21797465,0.562945
0.53931646,-0.39150108,0.620166,0.5401796,-0.35698607,0.610142,0.52820984,-0.38504904,0.62463,0.49513174,-0.36293576,0.619892,0.4606774,-0.33571384,0.610125,0.44696971,-0.31269752,0.608315,0.50951221,-0.29313485,0.605615,0.5005838,-0.25446064,0.604897,0.49294891,-0.2390923,0.604539,0.48574585,-0.22457801,0.604213,0.52684887,-0.28967379,0.596053,0.50647555,-0.23930338,0.580025,0.49320896,-0.21332326,0.570675,0.48359195,-0.19474972,0.563997,0.54174571,-0.29013795,0.588899,0.53474471,-0.24482404,0.5833,0.52821421,-0.22579237,0.580435,0.52185415,-0.22142249,0.577831,0.56113238,-0.29737548,0.581723,0.55325839,-0.25724845,0.565075,0.54877782,-0.23998521,0.557426,0.54360729,-0.22679625,0.550677
0.5352833,-0.40254123,0.605827,0.52523305,-0.35844345,0.59316,0.51718118,-0.3870506,0.609533,0.48362894,-0.357707,0.605686,0.45271359,-0.33395124,0.598512,0.44084765,-0.31248837,0.598636,0.49625991,-0.29130089,0.58511,0.48273085,-0.24846684,0.578629,0.47315375,-0.23176681,0.575388,0.46425078,-0.21614684,0.572442,0.51341237,-0.29051511,0.575356,0.49321374,-0.24046669,0.556775,0.48142259,-0.21118503,0.545935,0.47183674,-0.1939579,0.538193,0.52797232,-0.29322518,0.568232,0.51999726,-0.24667714,0.561577,0.51590898,-0.22267192,0.558172,0.51218712,-0.20073333,0.555076,0.54657561,-0.30321201,0.561466,0.53735113,-0.26453414,0.54247,0.53319295,-0.24651721,0.533742,0.52751802,-0.23524785,0.526041
0.52915869,-0.40783676,0.597717,0.51939879,-0.36491445,0.580152,0.51113344,-0.39031987,0.599957,0.47858619,-0.36475977,0.592121,0.44399256,-0.33863276,0.580566,0.42809107,-0.31682815,0.574699,0.48604166,-0.29557339,0.565499,0.46376488,-0.24917365,0.54979,0.44997027,-0.2296572,0.541935,0.43735408,-0.21174542,0.534795,0.5018125,-0.29692195,0.555464,0.47720486,-0.24603938,0.532249,0.46285329,-0.21638775,0.518707,0.45260343,-0.19522262,0.509034,0.51567311,-0.30144932,0.548455,0.49672266,-0.25147221,0.528878,0.48696568,-0.22599427,0.518862,0.47808711,-0.20284466,0.509757,0.53413957,-0.31375469,0.542524,0.52574939,-0.27055037,0.521544,0.52188958,-0.25071047,0.511904,0.51848228,-0.23321129,0.503399
0.52756953,-0.41063547,0.583242,0.51723405,-0.36709579,0.561221,0.51597791,-0.39957022,0.583613,0.47646217,-0.37113569,0.575528,0.44052291,-0.34885404,0.566191,0.42149272,-0.32831134,0.559657,0.47406937,-0.29587492,0.539915,0.44196786,-0.25335235,0.518346,0.42592529,-0.2321093,0.507562,0.41331489,-0.21382733,0.500141,0.49024447,-0.29651371,0.530268,0.45829171,-0.24982826,0.501916,0.43957429,-0.22259392,0.485377,0.42619289,-0.2030761,0.473564,0.50496341,-0.30058389,0.523894,0.47510689,-0.2558831,0.495235,0.45982097,-0.23288317,0.480572,0.44591788,-0.2118878,0.467242,0.52552497,-0.31262239,0.519358,0.50828218,-0.27047292,0.492173,0.50023877,-0.25133748,0.479683,0.49314239,-0.23445021,0.468662
0.52886877,-0.42017753,0.575986,0.50720138,-0.37641694,0.549013,0.5055446,-0.39918641,0.572491,0.46170434,-0.37877536,0.559972,0.42169919,-0.35495582,0.545234,0.40222768,-0.33268899,0.537086,0.45924027,-0.30166996,0.518163,0.42361848,-0.25921727,0.493018,0.40565133,-0.23856669,0.480445,0.39231611,-0.22150412,0.472612,0.47787504,-0.30528827,0.5111,0.44268794,-0.26023088,0.478348,0.42168652,-0.23519151,0.459242,0.40667063,-0.21724007,0.445595,0.49477617,-0.31185473,0.507202,0.46251158,-0.26556127,0.475048,0.44600429,-0.24188584,0.458597,0.43099836,-0.22036944,0.443642,0.51825288,-0.32699009,0.506347,0.5066,-0.27995276,0.477073,0.4975567,-0.26682688,0.463623,0.48590321,-0.26204328,0.451755
0.51575665,-0.42735755,0.56194,0.49650755,-0.38375976,0.534656,0.49747684,-0.40594053,0.561146,0.4567729,-0.39461486,0.552739,0.41373025,-0.37385559,0.537984,0.38836786,-0.35353086,0.526304,0.45744266,-0.30398845,0.506751,0.41714545,-0.27233009,0.481188,0.39690071,-0.25640961,0.468407,0.37843353,-0.24187688,0.456788,0.46824718,-0.3094922,0.496307,0.42787826,-0.27111053,0.464495,0.40424814,-0.24857506,0.445938,0.38732652,-0.23240142,0.432683,0.47885692,-0.3179013,0.48965,0.44571004,-0.27457893,0.455398,0.42875208,-0.25237816,0.437874,0.41333603,-0.23217096,0.421943,0.49494986,-0.33587317,0.485522,0.46264612,-0.29317896,0.461234,0.44837145,-0.27398848,0.450617,0.43597615,-0.25719757,0.441443
0.52147101,-0.43127349,0.561642,0.5005585,-0.38440995,0.533858,0.50548153,-0.41743136,0.561286,0.46884871,-0.39114096,0.553345,0.42534365,-0.37699118,0.539425,0.39820621,-0.36605629,0.525139,0.45051265,-0.31173802,0.505987,0.41920475,-0.26452188,0.473152,0.39685583,-0.26119943,0.456735,0.37795222,-0.26987068,0.44181,0.46558155,-0.31098391,0.494806,0.42223818,-0.27347036,0.460036,0.39688073,-0.25147908,0.439753,0.37649571,-0.24602788,0.425266,0.4800378,-0.3140964,0.487578,0.42727361,-0.3218622,0.449809,0.40089288,-0.32822253,0.430485,0.37734234,-0.33294066,0.412925,0.50164721,-0.32538806,0.482835,0.46013681,-0.28866026,0.457455,0.44554437,-0.27126817,0.448051,0.43003446,-0.26256144,0.439753
0.53299675,-0.449974,0.561717,0.50935907,-0.40529678,0.536236,0.51172817,-0.43891645,0.561845,0.46408581,-0.41777169,0.551786,0.42301892,-0.39841203,0.54187,0.39766055,-0.39078546,0.527135,0.46318752,-0.32805962,0.511223,0.41928267,-0.3055638,0.483079,0.39717344,-0.29428529,0.469024,0.37802538,-0.30146048,0.456246,0.47747257,-0.32988918,0.500422,0.42585513,-0.3391672,0.466517,0.40902434,-0.34622385,0.44674,0.41781275,-0.34637064,0.448025,0.49101202,-0.33522517,0.493343,0.43491768,-0.34067225,0.457527,0.41391463,-0.34193486,0.439202,0.42044831,-0.33881748,0.439745,0.51086132,-0.3493988,0.488452,0.46963726,-0.31684093,0.464378,0.45069393,-0.30202866,0.453391,0.43318891,-0.29269827,0.443696
0.53062514,-0.46794278,0.5613,0.50242186,-0.41848892,0.530541,0.50777742,-0.45340152,0.559348,0.4589148,-0.43112851,0.547347,0.41684127,-0.41044208,0.535623,0.39018089,-0.40146017,0.520616,0.4500962,-0.33725162,0.497811,0.40630577,-0.31322211,0.465314,0.38434941,-0.30119856,0.449065,0.36255921,-0.30590058,0.434294,0.46402406,-0.33965486,0.487309,0.4085569,-0.34509143,0.44899,0.42347159,-0.36768717,0.459548,0.44631446,-0.37097438,0.476723,0.47759164,-0.34561482,0.48085,0.42206671,-0.34909221,0.440918,0.43757552,-0.36905691,0.449788,0.46611114,-0.37618334,0.469456,0.49819527,-0.36088437,0.477453,0.45386594,-0.3259699,0.449385,0.43344741,-0.31038539,0.436489,0.41463173,-0.30063414,0.425111
0.53329355,-0.48454391,0.565602,0.50450246,-0.43062285,0.532191,0.50845258,-0.45969487,0.560675,0.45613488,-0.43764273,0.54464,0.41368294,-0.4147022,0.531628,0.38693412,-0.40160587,0.515826,0.44731486,-0.34666625,0.493261,0.40345223,-0.3258221,0.458712,0.38148009,-0.31541076,0.441437,0.36041822,-0.32030801,0.425733,0.46438259,-0.3504861,0.48523,0.40890004,-0.35464033,0.444586,0.41979401,-0.37526658,0.454592,0.44300769,-0.38103254,0.472435,0.48066255,-0.35769029,0.480993,0.42539445,-0.35927901,0.439587,0.43733018,-0.37879931,0.44803,0.46427115,-0.38660804,0.468122,0.50476632,-0.37461126,0.480644,0.49485877,-0.34499593,0.445017,0.48170863,-0.34005338,0.428648,0.45724887,-0.34028477,0.414204
0.53975857,-0.49475361,0.573962,0.50942027,-0.43839321,0.537927,0.50995067,-0.47237609,0.565009,0.45386691,-0.44531213,0.544844,0.40940356,-0.4199653,0.528326,0.38395039,-0.40580832,0.510836,0.44717676,-0.35629856,0.491558,0.40453952,-0.33714304,0.455223,0.38319751,-0.32758351,0.437056,0.36680404,-0.33301287,0.42054,0.46901448,-0.36042534,0.487277,0.41939596,-0.36637111,0.444517,0.42375123,-0.38545122,0.454052,0.44259852,-0.39075843,0.472512,0.48910918,-0.36787114,0.486311,0.44360741,-0.37382433,0.444019,0.45485225,-0.38953938,0.452123,0.47769636,-0.39415112,0.472437,0.51767033,-0.38504796,0.490265,0.49293404,-0.36784345,0.453757,0.4766988,-0.36515389,0.436983,0.4623716,-0.36277198,0.422182
0.53859786,-0.50141686,0.574121,0.50847663,-0.44419305,0.537251,0.50917224,-0.47532632,0.564634,0.45324375,-0.45050487,0.543707,0.40792307,-0.42458057,0.526256,0.38256552,-0.41166712,0.508533,0.44518428,-0.36192153,0.489414,0.40164632,-0.3434729,0.452667,0.37986226,-0.33426084,0.434293,0.36321192,-0.33948084,0.41759,0.46732509,-0.3663598,0.485427,0.41671312,-0.37208912,0.442089,0.42042336,-0.38954332,0.450674,0.43938256,-0.39117558,0.469046,0.48777571,-0.37407699,0.48476,0.44132323,-0.37994869,0.442009,0.45194592,-0.39431345,0.449308,0.47481401,-0.39509693,0.469487,0.51695442,-0.39161249,0.489194,0.49122399,-0.37509205,0.452195,0.47448361,-0.37260842,0.435195,0.45970861,-0.37038949,0.420195
0.53905063,-0.49888546,0.573709,0.50814195,-0.44489931,0.536604,0.50870025,-0.47632219,0.563987,0.45290781,-0.45118837,0.542227,0.40682942,-0.42560884,0.523725,0.38099821,-0.41585302,0.505673,0.4434873,-0.36306226,0.488251,0.39898808,-0.34405213,0.451962,0.37672358,-0.33455667,0.433817,0.3606054,-0.33986674,0.417322,0.46590074,-0.3672747,0.484449,0.41584267,-0.37299249,0.440952,0.41944688,-0.39036146,0.449312,0.43821633,-0.39529592,0.46767,0.48663464,-0.37475078,0.483952,0.44049086,-0.38114845,0.441106,0.45105338,-0.3957462,0.448216,0.4741085,-0.40093422,0.468357,0.51625476,-0.39187232,0.488623,0.48917631,-0.37661369,0.451504,0.47429182,-0.37217802,0.43445,0.46054355,-0.36562108,0.419401
0.53739562,-0.50172299,0.572397,0.50678853,-0.44488527,0.535076,0.50735293,-0.47657152,0.5625,0.45130545,-0.45083843,0.540449,0.40510696,-0.42768043,0.521516,0.37917816,-0.4161112,0.503388,0.44074287,-0.36520924,0.4863,0.39679248,-0.34311201,0.450443,0.37262428,-0.33307231,0.432514,0.35863438,-0.33829335,0.416215,0.46387712,-0.36732541,0.48262,0.41441146,-0.37533977,0.43898,0.41795108,-0.39195364,0.447098,0.43620254,-0.39492145,0.465431,0.48478229,-0.37459771,0.482237,0.43912195,-0.38295826,0.439293,0.44923805,-0.39725102,0.446198,0.47207221,-0.4040238,0.466296,0.51465979,-0.39142697,0.487076,0.4862432,-0.37913559,0.449846,0.47275307,-0.3722868,0.432741,0.46013604,-0.36802242,0.417647
0.52910369,-0.49100041,0.562681,0.49834881,-0.4374167,0.526118,0.50034814,-0.47001462,0.554443,0.4498682,-0.44902505,0.53909,0.40614315,-0.43044403,0.524362,0.37264039,-0.41413852,0.508417,0.43112293,-0.35742722,0.480087,0.38761296,-0.33379882,0.444481,0.3658146,-0.32239217,0.426678,0.34983871,-0.32956767,0.410493,0.45215622,-0.36002546,0.474726,0.4053847,-0.33471791,0.433873,0.37807811,-0.31997183,0.410042,0.37043418,-0.33483896,0.405606,0.47193914,-0.3660494,0.472907,0.42491624,-0.37298462,0.42999,0.43830388,-0.38429294,0.436849,0.46180328,-0.38599665,0.456918,0.50077857,-0.38116455,0.475913,0.47275114,-0.36987013,0.438875,0.46033047,-0.36335071,0.421857,0.44810793,-0.35913658,0.406842
0.52754726,-0.48853431,0.560888,0.49663941,-0.42717692,0.524384,0.49904361,-0.4648107,0.552532,0.44889011,-0.43647667,0.538217,0.40461216,-0.41994442,0.523384,0.37254513,-0.40564226,0.508675,0.4307534,-0.34771291,0.478271,0.38826091,-0.32446873,0.442531,0.36696349,-0.31325581,0.424661,0.34923753,-0.31787897,0.408416,0.45196203,-0.35051128,0.473076,0.4064825,-0.32574363,0.432199,0.37992629,-0.31131844,0.408354,0.37258592,-0.32630273,0.404042,0.47141381,-0.35356645,0.471391,0.42512974,-0.36412444,0.428551,0.43757235,-0.3758319,0.435593,0.46066805,-0.38007648,0.455704,0.49938032,-0.37080207,0.474547,0.47341851,-0.3609387,0.43758,0.46063129,-0.35643717,0.420594,0.44797123,-0.35576845,0.405607
0.52819693,-0.47907856,0.560535,0.49576278,-0.41456584,0.523881,0.4990133,-0.45378117,0.551669,0.44728441,-0.42410797,0.536119,0.39976043,-0.40959927,0.52039,0.3701801,-0.39342257,0.505604,0.42795168,-0.33859373,0.477005,0.38592052,-0.31358064,0.440867,0.36495476,-0.30216763,0.422798,0.34924924,-0.30687523,0.406371,0.45002852,-0.33963951,0.472362,0.40723222,-0.31489643,0.430674,0.38225006,-0.30069097,0.406356,0.37687728,-0.31498096,0.401933,0.46919979,-0.34143853,0.47114,0.42780906,-0.3516123,0.428345,0.43827859,-0.3669127,0.435542,0.45994547,-0.37163055,0.455697,0.49767152,-0.35824007,0.474875,0.47425578,-0.35047648,0.438112,0.46250765,-0.3472337,0.42122,0.4502378,-0.34365949,0.406316
0.52706647,-0.46836902,0.559511,0.49464061,-0.40497032,0.523071,0.49738355,-0.44532173,0.550515,0.44463085,-0.41535392,0.53563,0.39986055,-0.39788146,0.520722,0.3707434,-0.38120481,0.506727,0.42727343,-0.32803039,0.476249,0.38546183,-0.3031483,0.440343,0.36460258,-0.29179371,0.42239,0.34898969,-0.29667854,0.406069,0.44954168,-0.32924976,0.471851,0.40697881,-0.30463233,0.430406,0.38213154,-0.29049798,0.40623,0.37707981,-0.30485577,0.402149,0.47015095,-0.33402085,0.470816,0.42768821,-0.3418269,0.428224,0.43854827,-0.35761596,0.43581,0.45652898,-0.36388383,0.456039,0.49969596,-0.34737172,0.474746,0.47436078,-0.34046764,0.438209,0.46272945,-0.33730914,0.421422,0.45064434,-0.33428429,0.406609
0.53498139,-0.4754757,0.568659,0.50304311,-0.41556991,0.531754,0.50291612,-0.44933254,0.558139,0.4485166,-0.41738971,0.539564,0.40257907,-0.39807807,0.522715,0.37293584,-0.38024916,0.507433,0.43491513,-0.33365684,0.482639,0.39571488,-0.31018546,0.445247,0.37520014,-0.29870565,0.426551,0.35911515,-0.30328122,0.409554,0.46060011,-0.33759864,0.479882,0.41970277,-0.31441106,0.43723,0.39584201,-0.30097718,0.412349,0.39090642,-0.31540174,0.408103,0.48239149,-0.34360192,0.480229,0.43609338,-0.35577845,0.437766,0.43459759,-0.36367052,0.445584,0.45315589,-0.36591238,0.465854,0.51316524,-0.358419,0.485888,0.46046193,-0.36213661,0.451252,0.4517755,-0.37018438,0.456805,0.4625458,-0.37351243,0.471149
0.53514657,-0.468099,0.569389,0.50366432,-0.40751828,0.53231,0.50397537,-0.44347118,0.559461,0.450323,-0.40728378,0.540997,0.40518908,-0.38809742,0.524568,0.37594825,-0.37014499,0.509258,0.43780067,-0.32553439,0.483736,0.39638856,-0.30059825,0.446005,0.37571823,-0.28899063,0.42714,0.35949658,-0.29361337,0.409989,0.46089957,-0.32772953,0.480194,0.4192482,-0.30819534,0.436998,0.39513106,-0.29873288,0.4118,0.38965538,-0.31304434,0.407021,0.48206904,-0.33327752,0.479908,0.43548372,-0.34550082,0.437154,0.43346912,-0.35329568,0.444427,0.45193218,-0.35542372,0.464596,0.51204785,-0.34750824,0.48483,0.4597007,-0.35173194,0.450506,0.45028685,-0.3608418,0.45566,0.46001095,-0.36895949,0.469739
0.5373181,-0.45960605,0.572405,0.50826905,-0.39337451,0.535993,0.50625861,-0.43254129,0.562239,0.4530502,-0.39550883,0.543145,0.40865655,-0.3751711,0.526711,0.38054949,-0.35516501,0.512058,0.44552522,-0.31432612,0.487791,0.40595896,-0.28780444,0.450269,0.3861876,-0.27539338,0.431508,0.36990001,-0.27990563,0.414452,0.46888031,-0.31764237,0.484813,0.42925433,-0.29662492,0.442067,0.4061416,-0.28445932,0.417132,0.40143961,-0.29913355,0.413183,0.49007348,-0.32413051,0.484944,0.44276521,-0.3330673,0.442801,0.44180399,-0.34593162,0.451081,0.46008361,-0.34857295,0.471406,0.51971086,-0.33953394,0.490271,0.46752026,-0.34301346,0.455969,0.45878737,-0.35138966,0.461899,0.46984408,-0.35473673,0.476271
0.53833234,-0.43982821,0.574887,0.50984035,-0.3738456,0.53765,0.50786664,-0.40678602,0.564122,0.45396607,-0.37585479,0.544243,0.40869689,-0.35503857,0.526763,0.38028418,-0.3349509,0.511701,0.44563574,-0.29423375,0.487912,0.40543981,-0.27141187,0.449541,0.38536866,-0.26085264,0.430355,0.3690029,-0.26627525,0.412914,0.46936098,-0.29780588,0.48531,0.42920578,-0.276366,0.442017,0.40578232,-0.2639392,0.416763,0.40040099,-0.27777092,0.412114,0.49094662,-0.30452104,0.485808,0.44321118,-0.31397349,0.443247,0.44147392,-0.32670248,0.450744,0.45961416,-0.32912646,0.470925,0.52122143,-0.3202414,0.491696,0.4684123,-0.32398656,0.456839,0.45901284,-0.33215511,0.462126,0.47001376,-0.33546843,0.476443
0.55772477,-0.41929391,0.574532,0.52610328,-0.36451297,0.542534,0.52977391,-0.40049644,0.569405,0.47999721,-0.38168196,0.556544,0.43529931,-0.36413475,0.542112,0.40731878,-0.34602708,0.529933,0.46227726,-0.29010836,0.504758,0.41762257,-0.25588351,0.475401,0.39532587,-0.23880086,0.460723,0.37939927,-0.24130455,0.447379,0.48169305,-0.28951291,0.497559,0.44028852,-0.26564574,0.457938,0.41574324,-0.2543196,0.434826,0.41139089,-0.26238902,0.433117,0.49993929,-0.29274871,0.493906,0.46245934,-0.24180844,0.45631,0.44073965,-0.24156151,0.437075,0.43680702,-0.25707603,0.435513,0.52659063,-0.3041731,0.494057,0.51477062,-0.27134465,0.459965,0.50208051,-0.26843449,0.444301,0.49680833,-0.2811237,0.443829
0.56032838,-0.41290916,0.575607,0.53122817,-0.35124895,0.546145,0.53422997,-0.39551149,0.572678,0.48754565,-0.37057028,0.562319,0.44346517,-0.35339672,0.549102,0.41607933,-0.33557689,0.538088,0.47048658,-0.27873077,0.51352,0.42704648,-0.24425709,0.487024,0.40533549,-0.22702975,0.473776,0.39000092,-0.2291355,0.461732,0.4882655,-0.27675997,0.504735,0.44716051,-0.25109046,0.467271,0.42279872,-0.23866843,0.445418,0.41892652,-0.2455585,0.444937,0.50504224,-0.27882623,0.499598,0.46832665,-0.22771326,0.464463,0.44729167,-0.22686507,0.446487,0.44451253,-0.241897,0.44637,0.52971865,-0.28875784,0.497606,0.51167759,-0.26139007,0.464343,0.49512681,-0.26090565,0.44906,0.48787149,-0.2742718,0.44902
0.55609899,-0.4114276,0.573602,0.52908559,-0.36447259,0.548378,0.53188724,-0.39462967,0.572191,0.48548529,-0.37075752,0.561612,0.44420763,-0.35211916,0.549923,0.41867326,-0.33384131,0.539477,0.47392405,-0.29039711,0.521765,0.43670678,-0.24913769,0.495747,0.42107102,-0.22926093,0.482738,0.40378869,-0.22876959,0.470911,0.49112988,-0.29028648,0.512924,0.45610853,-0.24983788,0.4798,0.43565215,-0.22606195,0.460478,0.41879956,-0.21711748,0.446677,0.50714578,-0.29372871,0.507439,0.48223674,-0.23856174,0.474508,0.46489139,-0.22248428,0.457659,0.46218004,-0.23643339,0.460302,0.53016077,-0.3049961,0.504428,0.52065162,-0.26093224,0.474367,0.51059683,-0.2523656,0.460555,0.50810305,-0.26497004,0.462893
0.55079078,-0.40725272,0.570064,0.52873033,-0.3556574,0.548958,0.5285543,-0.3912747,0.570299,0.48322782,-0.36227066,0.562953,0.44886698,-0.34245177,0.557088,0.42744469,-0.32317882,0.549414,0.48024348,-0.28421073,0.528394,0.44886282,-0.24126461,0.505112,0.4331804,-0.21981519,0.493471,0.41708783,-0.21676877,0.482888,0.49727608,-0.28403868,0.519293,0.46641889,-0.2395726,0.489974,0.44749568,-0.21607359,0.472872,0.43394891,-0.19911697,0.460656,0.51273541,-0.28735727,0.513302,0.48767397,-0.23777931,0.483527,0.47420768,-0.21402712,0.468293,0.45737313,-0.20755491,0.454444,0.53806622,-0.29688255,0.509098,0.52631031,-0.25414727,0.482139,0.52124526,-0.2374336,0.469752,0.5257595,-0.24360275,0.473826
0.55276007,-0.40052525,0.575271,0.52790288,-0.34261318,0.555607,0.52930621,-0.38333277,0.574077,0.48547085,-0.35378547,0.569349,0.45393075,-0.33374807,0.566591,0.43247645,-0.31517616,0.559132,0.48175177,-0.27554258,0.534747,0.4552899,-0.23108953,0.515909,0.44207378,-0.20891727,0.50649,0.42829816,-0.20413136,0.497928,0.50140151,-0.2758573,0.527968,0.47465,-0.225796,0.499769,0.45660563,-0.20540862,0.48332,0.44367408,-0.19062126,0.47157,0.5190094,-0.27949982,0.523786,0.49662594,-0.22802797,0.495443,0.48424976,-0.20461976,0.480941,0.46978929,-0.1962232,0.467759,0.54299862,-0.29068141,0.52155,0.5381695,-0.24782976,0.497298,0.53576587,-0.22889425,0.486155,0.52835398,-0.22427985,0.476323
0.55651772,-0.39179641,0.583869,0.53913308,-0.33745138,0.565218,0.53477224,-0.37549408,0.584433,0.49534359,-0.34604971,0.576816,0.46239175,-0.32581229,0.572401,0.44212672,-0.30638247,0.565883,0.49459053,-0.26941895,0.547474,0.46725634,-0.22407868,0.525816,0.45209591,-0.20590739,0.514987,0.43756653,-0.1935671,0.505142,0.51249849,-0.26808065,0.539002,0.48457679,-0.22013504,0.512137,0.46643147,-0.19798737,0.496466,0.45341837,-0.1819268,0.485272,0.52865056,-0.27045885,0.533355,0.50623247,-0.21894809,0.505902,0.49282936,-0.19769391,0.491857,0.47809976,-0.18764963,0.479088,0.55093674,-0.28033636,0.529215,0.54421601,-0.23901839,0.504619,0.54111098,-0.22005985,0.493318,0.53201414,-0.21529512,0.483347
0.56038506,-0.39215304,0.590102,0.54208077,-0.33461545,0.574446,0.53989874,-0.37610041,0.591932,0.49860481,-0.3408958,0.585348,0.46830966,-0.31845206,0.582036,0.45102108,-0.29793647,0.577168,0.50473372,-0.26676705,0.561185,0.48000718,-0.22267702,0.540757,0.46579634,-0.20607557,0.530542,0.45278085,-0.19074996,0.521256,0.52209429,-0.26573846,0.552441,0.49730535,-0.22008709,0.527755,0.48162925,-0.19612838,0.513355,0.47039912,-0.17873682,0.503069,0.53746008,-0.26833863,0.546358,0.51751597,-0.21992825,0.521261,0.50605142,-0.19771839,0.50842,0.4941604,-0.18110219,0.496747,0.55814468,-0.27842582,0.541269,0.55357536,-0.23660671,0.518964,0.54885998,-0.22163904,0.508716,0.54480221,-0.20826282,0.499674
0.5651481,-0.38913478,0.598237,0.54824602,-0.32935516,0.583378,0.54139613,-0.36750555,0.599361,0.49973782,-0.33302879,0.590722,0.46818464,-0.30986989,0.585653,0.45128109,-0.28919009,0.581041,0.51341143,-0.26019557,0.570053,0.48857225,-0.22003388,0.550819,0.47597677,-0.20013334,0.541202,0.46403508,-0.18411667,0.532459,0.53196032,-0.2598953,0.562492,0.50819841,-0.21480313,0.539528,0.49351973,-0.19070287,0.526132,0.48300124,-0.17317709,0.516564,0.54813797,-0.26309671,0.557326,0.52803705,-0.21765318,0.534014,0.51731477,-0.19534456,0.522088,0.50758196,-0.17480458,0.511245,0.56951507,-0.27394089,0.553225,0.56589156,-0.2326848,0.53233,0.56081997,-0.218855,0.522729,0.55644974,-0.2064569,0.514258
0.56332968,-0.38294459,0.600484,0.55070028,-0.32834693,0.586039,0.54315619,-0.36541307,0.601836,0.50334911,-0.33218111,0.594106,0.47788917,-0.30757317,0.594445,0.45692552,-0.28924429,0.585477,0.51618371,-0.2597309,0.573397,0.4907132,-0.21697393,0.555757,0.47802977,-0.19634753,0.546938,0.46645589,-0.17744563,0.53892,0.53475246,-0.25944585,0.565735,0.51077663,-0.2114673,0.543842,0.49619144,-0.18682778,0.531071,0.48687852,-0.17193069,0.52195,0.55090765,-0.26264102,0.560456,0.53138965,-0.21679199,0.537946,0.52030833,-0.19172671,0.52643,0.51149083,-0.17364483,0.51596,0.57216818,-0.2734243,0.556161,0.56672628,-0.22865243,0.535633,0.5626004,-0.21818834,0.526202,0.55788439,-0.20635761,0.51788
0.56661032,-0.37765857,0.604295,0.55771495,-0.32142613,0.592607,0.54727622,-0.36092056,0.60668,0.51278578,-0.32727581,0.602153,0.48216228,-0.30722848,0.598975,0.46390117,-0.28649323,0.591596,0.52393422,-0.25620793,0.583932,0.50036477,-0.21500513,0.567571,0.48851705,-0.19416127,0.559391,0.47715314,-0.18082394,0.551955,0.54221407,-0.25433488,0.576178,0.51983367,-0.20855797,0.556556,0.50583556,-0.18371053,0.54511,0.49578046,-0.16561294,0.536934,0.55818562,-0.25613435,0.570628,0.53929109,-0.20988205,0.550492,0.52963109,-0.18590174,0.54019,0.52070341,-0.16418353,0.530825,0.57928515,-0.26508197,0.565617,0.57896898,-0.22285386,0.547264,0.57375267,-0.20999143,0.538831,0.56923947,-0.19841451,0.53139
0.57026309,-0.37279603,0.609022,0.5600127,-0.31613639,0.599192,0.55097465,-0.35633531,0.611516,0.51436604,-0.3226199,0.609822,0.48856956,-0.30307927,0.612112,0.4745498,-0.28443444,0.611505,0.5302948,-0.2512809,0.592483,0.50668132,-0.21092013,0.579155,0.49470883,-0.19075092,0.572491,0.48375323,-0.17221051,0.566432,0.54936571,-0.25056148,0.585375,0.52815308,-0.20539844,0.568402,0.51562506,-0.17865989,0.558501,0.50663036,-0.15923946,0.551429,0.56570706,-0.25324625,0.580224,0.5484312,-0.20697981,0.562657,0.53959076,-0.18293938,0.553669,0.53155295,-0.1608482,0.545498,0.58668175,-0.26310994,0.575429,0.58489544,-0.22055224,0.559135,0.58125017,-0.20538054,0.551648,0.57812591,-0.19172886,0.545043
0.56933116,-0.37011423,0.607873,0.56559366,-0.32178152,0.603837,0.55255529,-0.35589061,0.613299,0.51781592,-0.32469285,0.612051,0.49176493,-0.30444138,0.613695,0.4782707,-0.28570972,0.613355,0.53868689,-0.26206028,0.606381,0.52089301,-0.22170794,0.59708,0.51189078,-0.20112881,0.59243,0.50364134,-0.18217288,0.588202,0.55644438,-0.25813019,0.598164,0.54026341,-0.2122212,0.586259,0.53073997,-0.18476886,0.579314,0.52389723,-0.16483335,0.574354,0.57159726,-0.25793889,0.591691,0.56011947,-0.2113777,0.578568,0.5542587,-0.18713151,0.571853,0.54893905,-0.16482244,0.565749,0.59339484,-0.26555671,0.584483,0.59552467,-0.22315658,0.572438,0.59270608,-0.20828073,0.566903,0.59029402,-0.19483505,0.56202
0.57940927,-0.37003253,0.620079,0.57043347,-0.31394535,0.615709,0.56046698,-0.35252123,0.624856,0.52865327,-0.32261898,0.628186,0.49934734,-0.30152092,0.626014,0.48420489,-0.28227925,0.624047,0.54536266,-0.25487126,0.617153,0.52636038,-0.21439612,0.607675,0.51675246,-0.19379115,0.602936,0.50795277,-0.17483458,0.598628,0.56375339,-0.25246481,0.609579,0.54725479,-0.20628421,0.597401,0.53754743,-0.17869334,0.590297,0.52971223,-0.16031423,0.585223,0.57938251,-0.25359318,0.60366,0.56789493,-0.20684893,0.590265,0.56203263,-0.18251735,0.583413,0.55671108,-0.16013509,0.577183,0.5990943,-0.26123598,0.597166,0.60261729,-0.22004648,0.58523,0.60034466,-0.20474679,0.579746,0.59842073,-0.19092703,0.574907
0.59130829,-0.37366294,0.636844,0.58120719,-0.32065433,0.630595,0.56878243,-0.35207438,0.640469,0.5318159,-0.32495488,0.635129,0.50129122,-0.3025643,0.631186,0.48604648,-0.28299539,0.628781,0.55265065,-0.25921483,0.628813,0.52998834,-0.21520881,0.618022,0.52005481,-0.19982906,0.612627,0.51324975,-0.18149496,0.607722,0.56948106,-0.25699223,0.621845,0.55203233,-0.20865507,0.607784,0.54370923,-0.18279866,0.599582,0.53560392,-0.16435868,0.593724,0.58618101,-0.25870091,0.616557,0.5733106,-0.21079822,0.60206,0.56666635,-0.18636227,0.594643,0.56062948,-0.16396198,0.5879,0.60714975,-0.26707255,0.611089,0.60769882,-0.22549939,0.597888,0.60938837,-0.21022282,0.591823,0.60749857,-0.1967405,0.586471
0.59126985,-0.37349602,0.646706,0.57898705,-0.33111847,0.641237,0.57411671,-0.35899547,0.651648,0.53485699,-0.33302986,0.650207,0.50618908,-0.30678929,0.642757,0.49153395,-0.2861965,0.639659,0.55871278,-0.26931945,0.641816,0.53968325,-0.22749946,0.63318,0.5301219,-0.20643497,0.628862,0.52140225,-0.18719283,0.624937,0.57650754,-0.26899024,0.633589,0.56057337,-0.22208157,0.621257,0.55091806,-0.19463797,0.614063,0.54398156,-0.17471819,0.608925,0.59134182,-0.27187257,0.62721,0.57875329,-0.22427079,0.613882,0.57231246,-0.19966101,0.607063,0.5696955,-0.17239616,0.600864,0.60954226,-0.28167765,0.620321,0.60835408,-0.23992589,0.607581,0.60784182,-0.22063749,0.601728,0.60740745,-0.20356037,0.596563
0.59089831,-0.37522635,0.649373,0.58125106,-0.33169537,0.643653,0.57412673,-0.36032181,0.654226,0.53571472,-0.33398864,0.65173,0.50632611,-0.30958541,0.646894,0.49152097,-0.28765461,0.64143,0.5611787,-0.26949328,0.643877,0.54283093,-0.22567199,0.635505,0.53201399,-0.20686475,0.631319,0.5231207,-0.18771075,0.627514,0.57889549,-0.26935603,0.635652,0.5628101,-0.22233447,0.623468,0.55321306,-0.19459894,0.61636,0.54632194,-0.17450106,0.611283,0.59367578,-0.27241126,0.629294,0.58103217,-0.22454731,0.61664,0.57456026,-0.19986451,0.610166,0.56867513,-0.17730546,0.604281,0.61181557,-0.28245588,0.622465,0.61081463,-0.24019644,0.609674,0.6095093,-0.22142105,0.603798,0.6083915,-0.2047276,0.598612
0.59054482,-0.37498975,0.649575,0.58436561,-0.33188497,0.646042,0.57211924,-0.36049284,0.655325,0.53839384,-0.33540166,0.653973,0.50897875,-0.31192423,0.650049,0.49540723,-0.29220038,0.64843,0.56593847,-0.2713876,0.649495,0.54709077,-0.23001288,0.643263,0.53747909,-0.20946202,0.640147,0.52870899,-0.19069015,0.637314,0.58364723,-0.27070518,0.641101,0.56776618,-0.22070058,0.631335,0.55737892,-0.19382304,0.625638,0.55279493,-0.1754155,0.621569,0.59833951,-0.27326305,0.634447,0.58514054,-0.22274731,0.624949,0.57859574,-0.19838283,0.62009,0.57264954,-0.17628103,0.615672,0.6161093,-0.27885349,0.626952,0.61474566,-0.23637291,0.616346,0.6124148,-0.21813868,0.611472,0.61039285,-0.20182915,0.607172
0.5958489,-0.37766397,0.6544,0.59185248,-0.33542115,0.653474,0.58009325,-0.36432096,0.660962,0.54713635,-0.34094295,0.660279,0.5247356,-0.32461927,0.664671,0.50752884,-0.30322769,0.662369,0.56709221,-0.28213171,0.660468,0.55120399,-0.24073167,0.654033,0.54319373,-0.21978356,0.650816,0.53690524,-0.19618178,0.647892,0.58553877,-0.27652094,0.65218,0.57513427,-0.22717865,0.642903,0.56424176,-0.20173913,0.637491,0.55955338,-0.17966958,0.633626,0.60110816,-0.2748133,0.645428,0.59163575,-0.22716392,0.635955,0.58679049,-0.20281941,0.631109,0.58193424,-0.18171349,0.626703,0.62073633,-0.2785844,0.637446,0.62331315,-0.23826024,0.628097,0.62388224,-0.22201055,0.623802,0.62628856,-0.20965034,0.620012
0.59886543,-0.37897406,0.65899,0.59849577,-0.33498281,0.658951,0.58267128,-0.36604806,0.665406,0.55717785,-0.34353068,0.671345,0.52596147,-0.32407227,0.667145,0.51391428,-0.30756063,0.669657,0.57159396,-0.27791877,0.666638,0.55466652,-0.23657025,0.661357,0.54624494,-0.21602794,0.658717,0.54107545,-0.19984661,0.656317,0.59091297,-0.27311503,0.658896,0.57637016,-0.22586284,0.65147,0.56765282,-0.19897695,0.647139,0.56135118,-0.17952365,0.644045,0.60707249,-0.27211297,0.652531,0.59657622,-0.22482438,0.643762,0.59270951,-0.20333512,0.639275,0.58837462,-0.18066314,0.635196,0.62711806,-0.27677127,0.644887,0.62838005,-0.23691784,0.636817,0.62891828,-0.21864786,0.63311,0.62857536,-0.20522537,0.629838
0.60263757,-0.38025307,0.66283,0.60083059,-0.33334448,0.663053,0.58545348,-0.36785349,0.669405,0.55876024,-0.34496702,0.674583,0.52663584,-0.32415916,0.669019,0.5151479,-0.30815561,0.67239,0.57462527,-0.28006528,0.67119,0.55845592,-0.23883639,0.666534,0.55040881,-0.21834291,0.664206,0.54284469,-0.20167401,0.66209,0.59393729,-0.27533668,0.663365,0.57986471,-0.22796077,0.656084,0.57147308,-0.2013376,0.651837,0.56756906,-0.18348526,0.648803,0.6100409,-0.27438893,0.656913,0.60028702,-0.22716689,0.648618,0.59647789,-0.20471806,0.644374,0.59048743,-0.18177302,0.640516,0.62993712,-0.27909144,0.649127,0.63168309,-0.23921358,0.641268,0.63245293,-0.22092584,0.637657,0.63235688,-0.20740675,0.63447
0.60338364,-0.37954029,0.663209,0.60200533,-0.3333482,0.66426,0.58638325,-0.36742443,0.669989,0.56021111,-0.34526146,0.676217,0.52879576,-0.32419012,0.672572,0.51681863,-0.30878167,0.674707,0.57687117,-0.28052544,0.673453,0.56122753,-0.23964213,0.669713,0.55342856,-0.21927281,0.667843,0.54597941,-0.20218839,0.666143,0.59625109,-0.27583325,0.665728,0.58300992,-0.22874379,0.659661,0.57518215,-0.20232319,0.656122,0.56957512,-0.18295496,0.653594,0.61238008,-0.27489316,0.659299,0.60282577,-0.22816134,0.652409,0.59802589,-0.20453513,0.648883,0.59364863,-0.18283831,0.645679,0.63221778,-0.27956948,0.651423,0.63470668,-0.23949795,0.644371,0.63578041,-0.22252446,0.641131,0.63591509,-0.20909191,0.638273
